alisrour97/Franka_experiments/Real_Robot_scripts/servo-franka/Data/log_dyn_PI0_13.csv
Time,q1,q2,q3,q4,q5,q6,q7,dq1,dq2,dq3,dq4,dq5,dq6,dq7,t1,t2,t3,t4,t5,t6,t7,ex1,ex2,ex3,ex4,ex5,ex6,ev1,ev2,ev3,ev4,ev5,ev6,xd,yd,zd,uxd,uyd,uzd,x,y,z,ux,uy,uz,vxd,vyd,vzd,vx,vy,vz
4.88281e-07, 1.69142, -1.2232, -1.5371, -0.899522, -1.19158, 1.22899, -1.3027, -0.00399423, -0.00715453, 0.00074065, 0.00192332, -0.00258284, 0.000415428, 0.000977034, -0.694511, 52.8772, 25.3699, 5.46234, 1.58313, 2.24917, -0.0685925, 0.00122238, -0.00143063, -0.00173628, -0.00152658, -0.00276387, -0.000146878, 0.00357288, 0.00258745, -0.00346505, 0.000674701, -0.00505221, -0.00711465, 0.471008, -0.543389, 0.335894, -2.08385, -2.16584, -0.129887, 0.469604, -0.542502, 0.337846, -2.08592, -2.16816, -0.128778, -4.06186e-05, 0.000124715, 6.6488e-05, -0.00262204, -0.00297509, -0.00383151
0.0141509, 1.69142, -1.22325, -1.53709, -0.899495, -1.19158, 1.22901, -1.3027, 0.00266761, -0.00444447, -0.000646664, -0.0012617, -0.000193923, 0.00177166, -0.000867114, -0.996025, 52.7701, 25.3699, 5.53772, 1.58313, 2.16311, -0.0484509, 0.00121206, -0.00142736, -0.00171782, -0.00156364, -0.00272314, -0.000136601, -0.000533448, -0.00210998, -0.00307412, -0.000610365, -0.00300264, 0.00410249, 0.471008, -0.543389, 0.335894, -2.08385, -2.16584, -0.129887, 0.469601, -0.542516, 0.337821, -2.08594, -2.16813, -0.128873, -6.68636e-05, 0.000218577, 0.000115026, 0.00191036, 0.00130469, -0.00290122
0.0151511, 1.69142, -1.22325, -1.53709, -0.899495, -1.19158, 1.22901, -1.3027, 0.00266761, -0.00444447, -0.000646664, -0.0012617, -0.000193923, 0.00177166, -0.000867114, -0.996025, 52.7701, 25.3699, 5.53772, 1.58313, 2.16311, -0.0484509, 0.00121204, -0.00142736, -0.00171781, -0.00156365, -0.00272313, -0.000136589, -0.000422578, -0.00213607, -0.00310977, -0.000657727, -0.0029301, 0.00401299, 0.471008, -0.543389, 0.335894, -2.08385, -2.16584, -0.129887, 0.469601, -0.542516, 0.337821, -2.08594, -2.16813, -0.128873, -9.5592e-05, 0.000321476, 0.000168224, 0.00191036, 0.00130469, -0.00290122
0.0161511, 1.69142, -1.22325, -1.53709, -0.899495, -1.19158, 1.22901, -1.3027, 0.00266761, -0.00444447, -0.000646664, -0.0012617, -0.000193923, 0.00177166, -0.000867114, -0.996025, 52.7701, 25.3699, 5.53772, 1.58313, 2.16311, -0.0484509, 0.00121198, -0.00142734, -0.00171779, -0.00156368, -0.00272312, -0.000136556, -0.000301605, -0.00216448, -0.00314866, -0.000709318, -0.00285098, 0.00391541, 0.471008, -0.543389, 0.335894, -2.08385, -2.16584, -0.129887, 0.469601, -0.542516, 0.337821, -2.08594, -2.16813, -0.128873, -0.000126895, 0.000433757, 0.000226255, 0.00191036, 0.00130469, -0.00290122
0.0171511, 1.69142, -1.22325, -1.53709, -0.899495, -1.19158, 1.22901, -1.3027, 0.00266761, -0.00444447, -0.000646664, -0.0012617, -0.000193923, 0.00177166, -0.000867114, -0.996025, 52.7701, 25.3699, 5.53772, 1.58313, 2.16311, -0.0484509, 0.00121186, -0.00142731, -0.00171775, -0.00156373, -0.00272309, -0.000136492, -0.000170164, -0.00219532, -0.0031909, -0.000765286, -0.00276506, 0.00380946, 0.471008, -0.543389, 0.335894, -2.08385, -2.16584, -0.129887, 0.469601, -0.542516, 0.337821, -2.08594, -2.16813, -0.128873, -0.000160861, 0.000555757, 0.000289294, 0.00191036, 0.00130469, -0.00290122
0.0181511, 1.69142, -1.22325, -1.53709, -0.899495, -1.19158, 1.22901, -1.3027, 0.00266761, -0.00444447, -0.000646664, -0.0012617, -0.000193923, 0.00177166, -0.000867114, -0.996025, 52.7701, 25.3699, 5.53772, 1.58313, 2.16311, -0.0484509, 0.00121166, -0.00142727, -0.00171769, -0.00156383, -0.00272304, -0.000136386, -2.78975e-05, -0.00222864, -0.00323661, -0.000825774, -0.00267209, 0.00369487, 0.471008, -0.543389, 0.335894, -2.08385, -2.16584, -0.129886, 0.469601, -0.542516, 0.337821, -2.08594, -2.16813, -0.128873, -0.000197581, 0.000687809, 0.000357511, 0.00191036, 0.00130469, -0.00290122
0.0191511, 1.69142, -1.22325, -1.53709, -0.899495, -1.19158, 1.22901, -1.3027, 0.00266761, -0.00444447, -0.000646664, -0.0012617, -0.000193923, 0.00177166, -0.000867114, -0.996025, 52.7701, 25.3699, 5.53772, 1.58313, 2.16311, -0.0484509, 0.00121137, -0.0014272, -0.0017176, -0.00156397, -0.00272297, -0.000136229, 0.000125549, -0.00226454, -0.0032859, -0.000890923, -0.00257184, 0.00357136, 0.471008, -0.543389, 0.335894, -2.08385, -2.16584, -0.129886, 0.469601, -0.542516, 0.337821, -2.08594, -2.16813, -0.128873, -0.000237139, 0.000830243, 0.000431075, 0.00191036, 0.00130469, -0.00290122
0.0201511, 1.69142, -1.22325, -1.53709, -0.899495, -1.19158, 1.22901, -1.3027, 0.00266761, -0.00444447, -0.000646664, -0.0012617, -0.000193923, 0.00177166, -0.000867114, -0.996025, 52.7701, 25.3699, 5.53772, 1.58313, 2.16311, -0.0484509, 0.00121096, -0.0014271, -0.00171746, -0.00156416, -0.00272288, -0.000136011, 0.000290524, -0.00230308, -0.00333887, -0.000960872, -0.00246411, 0.00343865, 0.471008, -0.543388, 0.335894, -2.08385, -2.16584, -0.129886, 0.469601, -0.542516, 0.337821, -2.08594, -2.16813, -0.128873, -0.000279621, 0.000983381, 0.00051015, 0.00191036, 0.00130469, -0.00290122
0.0211511, 1.69142, -1.22325, -1.53709, -0.899495, -1.19158, 1.22901, -1.3027, 0.00266761, -0.00444447, -0.000646664, -0.0012617, -0.000193923, 0.00177166, -0.000867114, -0.996025, 52.7701, 25.3699, 5.53772, 1.58313, 2.16311, -0.0484509, 0.00121042, -0.00142697, -0.00171729, -0.00156442, -0.00272275, -0.000135721, 0.000467367, -0.00234435, -0.00339565, -0.00103576, -0.00234866, 0.00329648, 0.471008, -0.543388, 0.335895, -2.08385, -2.16584, -0.129886, 0.469601, -0.542516, 0.337821, -2.08594, -2.16813, -0.128873, -0.00032511, 0.00114754, 0.000594898, 0.00191036, 0.00130469, -0.00290122
0.0221511, 1.69142, -1.22325, -1.53709, -0.899495, -1.19158, 1.22901, -1.3027, 0.00266761, -0.00444447, -0.000646664, -0.0012617, -0.000193923, 0.00177166, -0.000867114, -0.996025, 52.7701, 25.3699, 5.53772, 1.58313, 2.16311, -0.0484509, 0.00120972, -0.00142681, -0.00171706, -0.00156476, -0.00272259, -0.00013535, 0.000656412, -0.00238842, -0.00345632, -0.00111571, -0.00222528, 0.0031446, 0.471007, -0.543387, 0.335895, -2.08384, -2.16584, -0.129885, 0.469601, -0.542516, 0.337821, -2.08594, -2.16813, -0.128873, -0.000373687, 0.00132303, 0.000685479, 0.00191036, 0.00130469, -0.00290122
0.0231511, 1.69142, -1.22325, -1.53709, -0.899495, -1.19158, 1.22901, -1.3027, 0.00266761, -0.00444447, -0.000646664, -0.0012617, -0.000193923, 0.00177166, -0.000867114, -0.996025, 52.7701, 25.3699, 5.53772, 1.58313, 2.16311, -0.0484509, 0.00120885, -0.00142661, -0.00171679, -0.00156517, -0.00272239, -0.000134888, 0.000857986, -0.00243535, -0.00352101, -0.00120085, -0.00209376, 0.00298273, 0.471007, -0.543386, 0.335895, -2.08384, -2.16584, -0.129884, 0.469601, -0.542516, 0.337821, -2.08594, -2.16813, -0.128873, -0.000425431, 0.00151016, 0.000782046, 0.00191036, 0.00130469, -0.00290122
0.0241511, 1.69144, -1.22326, -1.53707, -0.899538, -1.19157, 1.22902, -1.3027, 0.00246988, -0.000921035, 0.000179481, -0.00223666, 0.00128655, -0.000566711, -0.000698149, -1.0357, 52.9169, 25.1835, 5.83527, 1.47876, 2.17776, -0.0557752, 0.0012314, -0.00139992, -0.00170825, -0.00157319, -0.00270783, -0.000200741, -0.000179543, -0.00241169, -0.00156254, -0.00205446, -0.000784962, 0.00413545, 0.471007, -0.543385, 0.335896, -2.08384, -2.16584, -0.129884, 0.469626, -0.54249, 0.337816, -2.08587, -2.16819, -0.128903, -0.000480419, 0.00170921, 0.00088475, 0.00186533, 0.00222563, -0.000702951
0.0251511, 1.69145, -1.22326, -1.53707, -0.899543, -1.19157, 1.22902, -1.3027, 0.002704, 0.000291453, 0.00104747, -0.00469805, 0.000619426, -0.000377856, 0.000484003, -1.07537, 52.8772, 25.1438, 5.83527, 1.48517, 2.17776, -0.0814099, 0.00123374, -0.00139628, -0.00170905, -0.00157253, -0.00271086, -0.000205971, -0.00093298, -0.00323536, -0.000954869, -0.00264608, 0.00137798, 0.0053291, 0.471007, -0.543384, 0.335896, -2.08384, -2.16585, -0.129883, 0.46963, -0.542486, 0.337818, -2.08586, -2.1682, -0.128899, -0.000538724, 0.00192048, 0.000993739, 0.00262462, 0.00312089, 9.81767e-05
0.0261511, 1.69144, -1.22327, -1.53707, -0.899555, -1.19157, 1.22902, -1.3027, -0.000791548, -0.000750626, -0.00467299, -0.00803225, 0.00156515, 0.00284395, 0.000322669, -0.960319, 52.9169, 25.1081, 5.91064, 1.45404, 2.22079, -0.0814099, 0.00123345, -0.00139639, -0.00170425, -0.00156876, -0.00270264, -0.000210737, 0.00131947, -0.00178773, -0.00366509, -0.005642, 0.00187836, 0.00233673, 0.471006, -0.543383, 0.335897, -2.08384, -2.16585, -0.129882, 0.469629, -0.542485, 0.337814, -2.08585, -2.1682, -0.128902, -0.000600418, 0.00214425, 0.00110915, 0.00109988, 0.00147888, -0.00276849
0.0271511, 1.69144, -1.22327, -1.53707, -0.899562, -1.19157, 1.22902, -1.3027, 0.00326834, 0.00566415, -0.00279742, -0.00674031, 0.00172109, 0.00300719, 0.00706667, -0.996025, 52.9169, 25.0724, 5.95032, 1.43573, 2.32791, -0.00999879, 0.00123574, -0.00139321, -0.00170233, -0.00156282, -0.0027009, -0.000224269, -0.0008761, -0.00409406, 0.000662287, -0.00336251, 0.00826729, -0.000880097, 0.471006, -0.543381, 0.335898, -2.08384, -2.16585, -0.129881, 0.469632, -0.54248, 0.337813, -2.08583, -2.16821, -0.128898, -0.00066557, 0.00238079, 0.00123113, 0.00341578, 0.00331127, 0.00189768
0.0281511, 1.69144, -1.22326, -1.53707, -0.899564, -1.19157, 1.22901, -1.3027, 0.000710912, 0.00578264, 0.0023075, -0.00700329, 0.00202863, 0.00625288, 0.00645192, -0.920646, 52.9883, 25.1438, 5.91064, 1.41192, 2.48538, -0.0356336, 0.00123482, -0.00139349, -0.00170443, -0.00155921, -0.00270601, -0.000219787, -0.000353753, -0.00430035, 0.00283922, 0.0042242, 0.00953114, -0.00020775, 0.471005, -0.543379, 0.335899, -2.08384, -2.16585, -0.129879, 0.469631, -0.54248, 0.337816, -2.08583, -2.16821, -0.128887, -0.000734245, 0.00263035, 0.0013598, 0.0036504, 0.00271854, 0.00408863
0.0291511, 1.69144, -1.22325, -1.53707, -0.899574, -1.19157, 1.22902, -1.3027, 0.00175085, 0.00660264, 0.00223831, -0.00694731, 0.00158949, 0.0101316, 0.0036741, -0.845268, 53.1747, 25.2588, 5.98602, 1.40552, 2.60715, -0.00267457, 0.00123537, -0.00138913, -0.00170574, -0.00156375, -0.00271365, -0.000227801, -9.18034e-05, -0.00556899, 0.00350185, 0.0071432, 0.0128421, 0.0031299, 0.471005, -0.543377, 0.3359, -2.08384, -2.16585, -0.129878, 0.469635, -0.542477, 0.337818, -2.08583, -2.16822, -0.128883, -0.000806507, 0.00289319, 0.0014953, 0.00487843, 0.0026727, 0.00479953
0.0301511, 1.69144, -1.22325, -1.53707, -0.899575, -1.19157, 1.22904, -1.3027, -0.000195034, 0.00486182, 0.0055978, -0.00501795, 0.000822084, 0.0144005, 0.00170775, -0.76989, 53.4683, 25.3699, 5.98602, 1.41192, 2.70053, 0.0293689, 0.00123238, -0.00138612, -0.00170975, -0.0015788, -0.00272404, -0.000230263, 0.00170212, -0.0054291, 0.00432462, 0.0143778, 0.0135966, 0.00264527, 0.471004, -0.543375, 0.335901, -2.08384, -2.16585, -0.129876, 0.469637, -0.542478, 0.337823, -2.08584, -2.16824, -0.128888, -0.000882416, 0.00316954, 0.00163773, 0.00475668, 0.00104568, 0.0054802
0.0311511, 1.69144, -1.22324, -1.53707, -0.899581, -1.19156, 1.22906, -1.3027, -0.00242775, 0.00709272, 0.00430597, -0.00539834, 0.000547894, 0.0197218, 0.0036425, -0.658806, 53.7619, 25.5167, 6.0614, 1.41192, 2.73623, -0.0292249, 0.00123031, -0.0013798, -0.00171525, -0.00159949, -0.00274141, -0.000227752, 0.00355402, -0.00500814, 0.00561227, 0.0179669, 0.0189286, -0.00216056, 0.471003, -0.543372, 0.335903, -2.08383, -2.16585, -0.129874, 0.469643, -0.542478, 0.337829, -2.08586, -2.16826, -0.128891, -0.000962028, 0.00345964, 0.00178723, 0.00436938, -0.000707883, 0.00662644
0.0321511, 1.69144, -1.22323, -1.53706, -0.899589, -1.19156, 1.22908, -1.3027, 0.000604134, 0.00678898, 0.00600403, -0.0064147, 0.000839859, 0.0236566, 0.000983304, -0.619133, 54.0198, 25.5564, 6.17248, 1.39911, 2.77286, 0.0165515, 0.0012313, -0.00137013, -0.00172683, -0.00162846, -0.00276631, -0.000248047, 0.00225759, -0.00806666, 0.00597782, 0.0218888, 0.0206162, 0.00504666, 0.471002, -0.543369, 0.335904, -2.08383, -2.16585, -0.129871, 0.469652, -0.542476, 0.337842, -2.08586, -2.16831, -0.128897, -0.0010454, 0.0037637, 0.0019439, 0.00730743, 0.000944972, 0.00725306
0.0331511, 1.69145, -1.22321, -1.53706, -0.899588, -1.19156, 1.22911, -1.3027, 0.00191499, 0.0114281, 0.00382385, -0.00360427, 0.00100062, 0.026833, 0.00277611, -0.543754, 54.2062, 25.7389, 6.13678, 1.38721, 2.79391, -0.0356336, 0.0012274, -0.00136259, -0.00174124, -0.00165885, -0.00280401, -0.000242713, 0.00315411, -0.0083844, 0.00842219, 0.0242044, 0.0268306, 0.000744358, 0.471002, -0.543366, 0.335906, -2.08383, -2.16586, -0.129869, 0.46966, -0.542478, 0.337857, -2.0859, -2.16833, -0.12889, -0.00113257, 0.00408193, 0.00210783, 0.00765792, 1.49387e-05, 0.00968192
0.0341511, 1.69144, -1.22319, -1.53706, -0.899592, -1.19156, 1.22914, -1.3027, 0.00132184, 0.0123392, 0.00398728, -0.00419554, 0.00158254, 0.0323878, 0.00199159, -0.392998, 54.4998, 25.8539, 6.20819, 1.36249, 2.85892, -0.0356336, 0.00122292, -0.00135582, -0.00175037, -0.00168932, -0.00282865, -0.000241098, 0.00393882, -0.00935875, 0.0093411, 0.0291806, 0.0302662, 0.00143848, 0.471001, -0.543362, 0.335908, -2.08383, -2.16586, -0.129866, 0.469666, -0.54248, 0.337867, -2.08593, -2.16836, -0.128896, -0.0012236, 0.00441451, 0.00227914, 0.00860126, -0.000528706, 0.0106094
0.0351511, 1.69146, -1.22317, -1.53706, -0.899591, -1.19156, 1.22917, -1.3027, 0.00539099, 0.0188246, -0.000715187, -0.00205351, 0.00173314, 0.0307429, -0.000974138, -0.43267, 54.6823, 26.0404, 6.17248, 1.34418, 2.95138, 0.0293689, 0.00122223, -0.00134425, -0.00176172, -0.00171191, -0.00286207, -0.000254043, 0.00329355, -0.0100223, 0.0113, 0.0244892, 0.0362724, 0.00392342, 0.470999, -0.543358, 0.33591, -2.08382, -2.16586, -0.129863, 0.469677, -0.542478, 0.33788, -2.08594, -2.1684, -0.128885, -0.00131852, 0.00476163, 0.0024579, 0.00921675, 0.000181154, 0.0128026
0.0361511, 1.69146, -1.22315, -1.53707, -0.899594, -1.19156, 1.22921, -1.3027, 0.00841908, 0.0172627, -6.8404e-05, -0.00143778, 0.00207092, 0.0309775, -9.54815e-05, -0.357292, 54.8688, 26.1872, 6.17248, 1.31946, 3.00906, 0.0165515, 0.00121906, -0.00133317, -0.00177167, -0.00174202, -0.00289425, -0.000257484, 0.00249367, -0.0118957, 0.010435, 0.0249524, 0.0348003, 0.00563877, 0.470998, -0.543354, 0.335912, -2.08382, -2.16586, -0.12986, 0.469687, -0.542478, 0.337891, -2.08597, -2.16844, -0.128883, -0.00141737, 0.00512346, 0.00264421, 0.010929, 0.0015425, 0.0122024
0.0371511, 1.69147, -1.22313, -1.53706, -0.899597, -1.19156, 1.22925, -1.3027, 0.00612587, 0.0170869, 0.00160395, -0.00184531, 0.00161794, 0.0369535, 0.00121647, -0.206535, 55.0156, 26.1515, 6.20819, 1.31305, 3.03744, -0.0164075, 0.00121482, -0.0013225, -0.0017871, -0.00178311, -0.00293317, -0.00025793, 0.00417332, -0.0121305, 0.0113887, 0.0313733, 0.0380735, 0.00275845, 0.470997, -0.543349, 0.335915, -2.08382, -2.16586, -0.129856, 0.469697, -0.542479, 0.337908, -2.08601, -2.16848, -0.128885, -0.00152019, 0.00550014, 0.00283813, 0.0111553, 0.000123854, 0.0130702
0.0381514, 1.69147, -1.22311, -1.53706, -0.899597, -1.19156, 1.22929, -1.3027, 0.00533778, 0.0185995, 0.00084483, -0.000433676, 0.000841248, 0.0363076, -0.000602518, -0.0914839, 55.087, 26.1872, 6.17248, 1.31946, 3.07315, 0.0229602, 0.0012086, -0.00131173, -0.00180145, -0.00182177, -0.00297609, -0.000262375, 0.00546179, -0.0111033, 0.0120542, 0.0305296, 0.0400746, 0.0015759, 0.470995, -0.543344, 0.335917, -2.08381, -2.16587, -0.129852, 0.469707, -0.542482, 0.337923, -2.08604, -2.16853, -0.128881, -0.00162701, 0.00589181, 0.00303974, 0.0100927, -0.000900922, 0.01376
0.0391514, 1.69148, -1.22309, -1.53707, -0.899598, -1.19155, 1.22933, -1.3027, 0.00764619, 0.0208195, 0.000186064, -0.0023753, 0.00191715, 0.0354254, 0.00132717, 0.0196001, 55.2377, 26.2229, 6.13678, 1.28284, 3.11618, -0.0228162, 0.00120205, -0.00129893, -0.00181004, -0.00186059, -0.0030103, -0.000259388, 0.00391628, -0.0127364, 0.0125131, 0.0284131, 0.0415337, 0.00328229, 0.470994, -0.543338, 0.33592, -2.08381, -2.16587, -0.129848, 0.469719, -0.542483, 0.337933, -2.08608, -2.16856, -0.128885, -0.00173785, 0.0062986, 0.00324909, 0.0115742, 0.00102795, 0.0146131
0.0401514, 1.69148, -1.22308, -1.53708, -0.899593, -1.19155, 1.22938, -1.3027, 0.00867722, 0.0202571, -0.00129565, -0.00232054, 0.00151545, 0.0400681, 0.000672486, 0.170357, 55.3448, 26.2983, 6.02173, 1.27643, 3.14548, -0.0164075, 0.00119223, -0.0012879, -0.00181742, -0.0018984, -0.003045, -0.000255252, 0.00485475, -0.0139603, 0.0118785, 0.0305991, 0.0440147, 0.00370911, 0.470992, -0.543332, 0.335923, -2.0838, -2.16587, -0.129843, 0.469729, -0.542488, 0.337942, -2.08611, -2.1686, -0.128887, -0.00185274, 0.00672061, 0.00346625, 0.0126924, 0.000671327, 0.014021
0.0411514, 1.69149, -1.22306, -1.53709, -0.899591, -1.19155, 1.22943, -1.3027, 0.00644457, 0.022064, -0.00236934, -0.00316209, 0.00056948, 0.0378157, -0.00051622, 0.325081, 55.3448, 26.3736, 5.95032, 1.28833, 3.19583, 0.0101428, 0.00118242, -0.00127712, -0.00182787, -0.00193508, -0.00308759, -0.000253727, 0.00607084, -0.0122642, 0.0122094, 0.0271584, 0.0458617, 0.00218651, 0.470991, -0.543326, 0.335927, -2.0838, -2.16588, -0.129838, 0.469739, -0.542492, 0.337953, -2.08615, -2.16864, -0.128879, -0.0019717, 0.00715794, 0.00369125, 0.010935, -0.000212239, 0.0144352
0.0421514, 1.6915, -1.22305, -1.53709, -0.899596, -1.19155, 1.22948, -1.3027, 0.00801978, 0.0144771, -0.00455179, -0.0026891, 0.000583097, 0.0462435, 0.000653298, 0.475838, 55.4559, 26.3736, 5.95032, 1.28284, 3.23153, -0.0164075, 0.00117383, -0.00126231, -0.00183223, -0.00197812, -0.00311913, -0.000255537, 0.00806466, -0.0144517, 0.00755903, 0.0317369, 0.0429191, 0.000855533, 0.470989, -0.543319, 0.33593, -2.08379, -2.16588, -0.129833, 0.469752, -0.542494, 0.33796, -2.08618, -2.16868, -0.12889, -0.00209472, 0.00761066, 0.00392413, 0.0129001, -0.000922542, 0.00970077
0.0431514, 1.69151, -1.22304, -1.53709, -0.899595, -1.19155, 1.22953, -1.3027, 0.00711769, 0.0140246, -0.00315338, -0.000465284, 0.000185276, 0.043917, -0.00124931, 0.586922, 55.3448, 26.3736, 5.87494, 1.28833, 3.24527, 0.0293689, 0.00116647, -0.00124518, -0.00184272, -0.00202427, -0.00316106, -0.00026237, 0.0092165, -0.0133466, 0.0077797, 0.0317008, 0.0416596, 6.93127e-05, 0.470987, -0.543312, 0.335934, -2.08379, -2.16589, -0.129827, 0.469768, -0.542495, 0.337972, -2.08622, -2.16873, -0.128894, -0.00222183, 0.00807884, 0.00416491, 0.0117186, -0.00167064, 0.010014
0.0441514, 1.69151, -1.22304, -1.53709, -0.899584, -1.19155, 1.22959, -1.3027, 0.00365868, 0.00891749, -0.00135618, 0.00174986, -0.000113846, 0.0428196, 0.000124492, 0.813057, 55.4202, 26.3379, 5.6488, 1.29474, 3.23886, 0.00373412, 0.00115077, -0.00123142, -0.00184492, -0.00208351, -0.00318657, -0.000250221, 0.011996, -0.0112035, 0.00564737, 0.0331271, 0.0361975, -0.00622135, 0.470984, -0.543304, 0.335938, -2.08378, -2.16589, -0.129821, 0.46978, -0.542502, 0.337975, -2.08627, -2.16876, -0.128926, -0.00235303, 0.00856251, 0.00441363, 0.00946957, -0.00369055, 0.00779054
0.0451514, 1.69153, -1.22302, -1.53711, -0.899584, -1.19155, 1.22965, -1.30269, 0.00490955, 0.0121402, -0.00743975, 0.00151476, -0.000313259, 0.0478282, 0.000326302, 0.888436, 55.1981, 26.4847, 5.6131, 1.30115, 3.20224, -0.00267457, 0.00114075, -0.00121179, -0.00185098, -0.00212711, -0.0032339, -0.000252426, 0.0134281, -0.011848, 0.00555827, 0.0318172, 0.0428491, -0.00846042, 0.470982, -0.543295, 0.335942, -2.08378, -2.16589, -0.129815, 0.469798, -0.542504, 0.337984, -2.08631, -2.16881, -0.128921, -0.00248832, 0.00906169, 0.00467028, 0.010026, -0.00456496, 0.00771753
0.0461514, 1.69154, -1.22303, -1.53711, -0.899573, -1.19156, 1.22971, -1.3027, 0.00563163, 0.00884215, -0.00758694, 0.00284445, -0.000649651, 0.0494362, -0.00072744, 1.07887, 55.1981, 26.449, 5.38696, 1.31305, 3.21689, 0.0229602, 0.00112371, -0.00119867, -0.00185053, -0.0021806, -0.00325614, -0.000245137, 0.0146403, -0.0123722, 0.00368439, 0.0329481, 0.0409081, -0.00842432, 0.47098, -0.543286, 0.335947, -2.08377, -2.1659, -0.129808, 0.469809, -0.542511, 0.337985, -2.08635, -2.16884, -0.12895, -0.00262768, 0.00957641, 0.00493487, 0.010386, -0.00493711, 0.00592786
0.0471514, 1.69156, -1.22303, -1.53711, -0.899567, -1.19156, 1.22977, -1.3027, 0.0119461, 0.00399973, -0.00378529, 0.00303529, -0.00134863, 0.0545431, -0.000481614, 1.15424, 55.1624, 26.3736, 5.31555, 1.33777, 3.24527, 0.0229602, 0.00111311, -0.00117705, -0.00184998, -0.00223297, -0.00328156, -0.000251937, 0.0128037, -0.017611, 0.00215495, 0.0388657, 0.03947, -0.00136847, 0.470977, -0.543277, 0.335952, -2.08376, -2.1659, -0.129801, 0.469829, -0.542511, 0.337987, -2.08638, -2.16888, -0.128976, -0.00277111, 0.0101066, 0.00520739, 0.0153536, -0.00214355, 0.00481704
0.0481514, 1.69157, -1.22302, -1.53712, -0.899562, -1.19156, 1.22982, -1.30269, 0.0119031, 0.00321901, -0.0060261, 0.00338819, -0.0013399, 0.0547805, 0.0011395, 1.305, 55.0156, 26.3736, 5.24017, 1.34967, 3.25259, -0.0164075, 0.00109872, -0.00116012, -0.00185249, -0.00228158, -0.00331555, -0.000244563, 0.0140831, -0.0173073, 0.000788561, 0.03699, 0.0392949, -0.00487158, 0.470974, -0.543267, 0.335957, -2.08375, -2.16591, -0.129793, 0.469843, -0.542515, 0.337992, -2.08642, -2.16892, -0.128987, -0.00291859, 0.0106523, 0.00548782, 0.0148994, -0.00266302, 0.00355885
0.0491514, 1.69158, -1.22303, -1.53713, -0.899547, -1.19156, 1.22988, -1.30269, 0.00905391, 0.0020038, -0.00511909, 0.00632155, -0.00136798, 0.0593517, 0.000524187, 1.45576, 55.0156, 26.2626, 5.05371, 1.36249, 3.26724, -0.00999879, 0.00108264, -0.00114221, -0.00185056, -0.00233644, -0.00333572, -0.00023991, 0.0172305, -0.0162025, 0.00116943, 0.0432278, 0.0403601, -0.00966223, 0.470971, -0.543256, 0.335962, -2.08375, -2.16592, -0.129785, 0.469859, -0.542519, 0.337992, -2.08646, -2.16895, -0.129019, -0.0030701, 0.0112135, 0.00577613, 0.0137711, -0.00531284, 0.0037682
0.0501514, 1.6916, -1.22303, -1.53713, -0.899544, -1.19156, 1.22993, -1.30269, 0.00784124, 0.00299245, -0.00631166, 0.00399016, -0.00114935, 0.0635029, 0.000825588, 1.57081, 54.9402, 26.2229, 5.05371, 1.3689, 3.26724, -0.0228162, 0.00107041, -0.00112103, -0.00184833, -0.00237783, -0.00336543, -0.000243555, 0.0182399, -0.0167398, 0.001237, 0.0447988, 0.0438679, -0.010128, 0.470968, -0.543245, 0.335968, -2.08374, -2.16592, -0.129777, 0.469877, -0.542519, 0.337993, -2.08648, -2.169, -0.129027, -0.0032256, 0.01179, 0.00607228, 0.0141909, -0.00572114, 0.00395819
0.0511514, 1.69163, -1.22303, -1.53714, -0.899531, -1.19156, 1.23, -1.30269, 0.0106563, -0.000437857, -0.00645857, 0.00818267, -0.000291515, 0.06278, 0.00102617, 1.64619, 54.9045, 26.1515, 4.94263, 1.35608, 3.23886, -0.0356336, 0.00105617, -0.00109774, -0.00184719, -0.00243451, -0.00339241, -0.000243689, 0.0189879, -0.0175273, -0.000659071, 0.0454616, 0.0395254, -0.0114461, 0.470965, -0.543234, 0.335974, -2.08373, -2.16593, -0.129768, 0.469898, -0.54252, 0.337995, -2.08652, -2.16904, -0.129053, -0.00338507, 0.0123818, 0.00637623, 0.0147762, -0.00554362, 0.00225003
0.0521514, 1.69164, -1.22302, -1.53715, -0.899522, -1.19156, 1.23006, -1.3027, 0.0128453, 0.00198089, -0.00570707, 0.0102885, -0.000194344, 0.0575195, -0.00148523, 1.83265, 54.7934, 26.0404, 4.86725, 1.35608, 3.20956, 0.0229602, 0.00103983, -0.00107773, -0.00184847, -0.0024919, -0.00342241, -0.000248059, 0.0183349, -0.017569, 0.000530361, 0.0421877, 0.0395111, -0.00877948, 0.470962, -0.543221, 0.335981, -2.08372, -2.16594, -0.129759, 0.469915, -0.542523, 0.338, -2.08655, -2.16909, -0.129078, -0.00354847, 0.0129888, 0.00668792, 0.0146742, -0.00447312, 0.00383622
0.0531514, 1.69166, -1.22302, -1.53715, -0.899513, -1.19156, 1.23012, -1.30269, 0.0167431, 0.00534523, -0.00418833, 0.00896579, 0.000107796, 0.063178, 0.0016553, 1.9477, 54.6109, 25.8896, 4.79187, 1.34967, 3.17386, -0.0484509, 0.00102593, -0.00105441, -0.00185201, -0.00255033, -0.00345614, -0.000243619, 0.016761, -0.0214746, 0.00294318, 0.0473562, 0.0459732, -0.00665714, 0.470958, -0.543208, 0.335987, -2.08371, -2.16594, -0.129749, 0.469935, -0.542524, 0.338007, -2.08659, -2.16913, -0.129098, -0.00371575, 0.0136108, 0.00700727, 0.0184385, -0.0025082, 0.00666423
0.0541514, 1.69169, -1.22302, -1.53716, -0.899504, -1.19156, 1.23018, -1.30269, 0.0182845, 0.00020609, -0.00597128, 0.0108791, 0.000953483, 0.0664381, 0.000154542, 2.09846, 54.6109, 25.8539, 4.71649, 1.32587, 3.15921, -0.0228162, 0.00100877, -0.00103127, -0.00184457, -0.00259994, -0.0034787, -0.000243848, 0.0183727, -0.0225387, -0.000447984, 0.0489909, 0.0422105, -0.00633891, 0.470955, -0.543195, 0.335994, -2.0837, -2.16595, -0.129738, 0.469955, -0.542525, 0.338003, -2.08662, -2.16917, -0.12912, -0.00388686, 0.0142477, 0.0073342, 0.0192653, -0.00289675, 0.00336036
0.0551514, 1.69171, -1.22302, -1.53717, -0.899491, -1.19156, 1.23025, -1.30269, 0.0177591, -0.000726328, -0.00455492, 0.0102845, 0.00131382, 0.0697543, -0.000642622, 2.20954, 54.4998, 25.7032, 4.60541, 1.30755, 3.1235, -0.00267457, 0.00099243, -0.00100614, -0.00184429, -0.00266094, -0.0035085, -0.000249667, 0.0191975, -0.0234459, -0.000476864, 0.0527097, 0.043026, -0.00527175, 0.470951, -0.54318, 0.336002, -2.08369, -2.16596, -0.129728, 0.469977, -0.542526, 0.338007, -2.08665, -2.16923, -0.129148, -0.00406174, 0.0148993, 0.00766863, 0.0200252, -0.00301756, 0.00351081
0.0561514, 1.69173, -1.22302, -1.53718, -0.899487, -1.19156, 1.23031, -1.30269, 0.0190824, -0.00149045, -0.0117022, 0.00718135, 0.000435073, 0.0716885, 0.000555181, 2.3603, 54.3887, 25.6278, 4.60541, 1.31946, 3.10245, -0.0292249, 0.000975648, -0.00098216, -0.00184193, -0.00271636, -0.00353773, -0.000247624, 0.0203531, -0.0240602, -0.00401579, 0.045703, 0.0451795, -0.00674411, 0.470947, -0.543166, 0.336009, -2.08368, -2.16597, -0.129716, 0.469997, -0.542526, 0.338009, -2.08669, -2.16927, -0.129168, -0.00424034, 0.0155655, 0.00801045, 0.0203736, -0.00292234, 0.000160257
0.0571514, 1.69176, -1.22302, -1.53719, -0.899479, -1.19156, 1.23038, -1.3027, 0.0218788, 9.82469e-05, -0.00987531, 0.00679456, 0.000527407, 0.0686456, -0.00203719, 2.43568, 54.3134, 25.5167, 4.53003, 1.31305, 3.07315, 0.0357776, 0.000960294, -0.000953081, -0.00183906, -0.00277788, -0.0035661, -0.000265472, 0.018856, -0.0256255, -0.00314005, 0.0439125, 0.0456553, -0.000744151, 0.470942, -0.54315, 0.336017, -2.08367, -2.16597, -0.129705, 0.470023, -0.542524, 0.338011, -2.0867, -2.16934, -0.129198, -0.00442257, 0.0162459, 0.00835954, 0.0217327, -0.000834082, 0.00155893
0.0581514, 1.69178, -1.22302, -1.5372, -0.899477, -1.19156, 1.23045, -1.30269, 0.0223307, 0.00299565, -0.00936855, 0.00471252, 0.00126713, 0.0714269, 0.000574795, 2.58643, 54.1666, 25.4413, 4.53003, 1.28833, 3.03744, -0.0164075, 0.000944735, -0.000925114, -0.00183567, -0.00283395, -0.00359602, -0.000266783, 0.0185387, -0.027139, -0.00156421, 0.0459975, 0.0499536, -0.00122877, 0.470938, -0.543134, 0.336026, -2.08366, -2.16598, -0.129692, 0.470047, -0.542521, 0.338013, -2.08673, -2.16939, -0.129217, -0.00460838, 0.0169405, 0.00871578, 0.0231042, -6.41192e-06, 0.00347455
0.0591514, 1.69181, -1.22302, -1.53721, -0.899465, -1.19156, 1.23052, -1.30269, 0.023465, 0.00505314, -0.00729573, 0.00874796, 0.000370037, 0.0731666, 0.000858021, 2.70148, 54.0198, 25.2945, 4.41894, 1.30115, 3.00174, -0.0292249, 0.000924354, -0.000899022, -0.0018356, -0.00289687, -0.00363344, -0.000263282, 0.0197161, -0.0275851, 0.000794555, 0.0505145, 0.0536343, -0.00385379, 0.470933, -0.543117, 0.336034, -2.08364, -2.16599, -0.129679, 0.470069, -0.542524, 0.338017, -2.08678, -2.16944, -0.129236, -0.00479766, 0.0176488, 0.00907903, 0.0234884, -0.000804673, 0.00597065
0.0601514, 1.69184, -1.22302, -1.53723, -0.899458, -1.19156, 1.23059, -1.30269, 0.0272521, 0.00475596, -0.0101037, 0.00793727, 0.000246691, 0.0751444, -0.000885969, 2.81654, 53.9484, 25.3303, 4.34357, 1.30115, 2.95871, 0.0101428, 0.000904183, -0.000870611, -0.0018276, -0.00294971, -0.00366524, -0.00027007, 0.0194155, -0.0299261, -0.000757905, 0.0484131, 0.0552853, 0.000339372, 0.470929, -0.543099, 0.336043, -2.08363, -2.166, -0.129666, 0.470093, -0.542523, 0.338015, -2.0868, -2.16949, -0.12925, -0.00499035, 0.0183707, 0.00944913, 0.0255668, 0.000549309, 0.00478349
0.0611514, 1.69186, -1.22302, -1.53723, -0.899446, -1.19156, 1.23067, -1.30268, 0.0262276, 0.0064847, -0.0106599, 0.00814652, 0.000164461, 0.0755172, 0.00157955, 2.96729, 53.7976, 25.1835, 4.23248, 1.30115, 2.94406, -0.0484509, 0.000882626, -0.000843144, -0.00182956, -0.00302363, -0.00370211, -0.0002628, 0.020727, -0.0294105, -7.43564e-05, 0.0482981, 0.0577553, -0.00426608, 0.470924, -0.543081, 0.336053, -2.08362, -2.16601, -0.129652, 0.470116, -0.542525, 0.338022, -2.08685, -2.16955, -0.12928, -0.00518633, 0.0191057, 0.00982594, 0.0249279, -0.000136397, 0.00564726
0.0621514, 1.69189, -1.22302, -1.53724, -0.899434, -1.19157, 1.23074, -1.30269, 0.0272528, 0.00267747, -0.0107435, 0.00822187, -0.00100934, 0.0761343, -0.000371074, 3.04267, 53.7262, 25.1438, 4.1214, 1.33136, 2.923, -0.00999879, 0.000861393, -0.000812327, -0.00182431, -0.00308627, -0.00373669, -0.00027004, 0.0217822, -0.0301842, -0.00258219, 0.0474468, 0.0557795, -0.00237349, 0.470918, -0.543062, 0.336063, -2.0836, -2.16602, -0.129638, 0.470142, -0.542525, 0.338022, -2.08688, -2.16961, -0.129301, -0.00538552, 0.0198537, 0.0102093, 0.0254487, -1.22351e-05, 0.00336702
0.0631514, 1.69192, -1.22302, -1.53726, -0.899426, -1.19157, 1.23082, -1.30269, 0.0252108, 0.000732318, -0.0108063, 0.00562556, -0.000910251, 0.0770372, 0.00438982, 3.11805, 53.6151, 25.1081, 4.1214, 1.33777, 2.8873, -0.00999879, 0.00084119, -0.000778904, -0.00181995, -0.00315216, -0.00377414, -0.000277667, 0.0230144, -0.0300022, -0.00418004, 0.0468143, 0.0549005, -0.00748742, 0.470913, -0.543042, 0.336073, -2.08359, -2.16603, -0.129623, 0.470171, -0.542523, 0.338024, -2.08692, -2.16967, -0.129322, -0.0055878, 0.0206142, 0.0105989, 0.0250512, -0.000229631, 0.00199311
0.0641514, 1.69195, -1.22301, -1.53727, -0.899417, -1.19157, 1.2309, -1.30268, 0.0254725, 0.00252737, -0.00762386, 0.00788009, -0.00175972, 0.0771712, 0.00402508, 3.22913, 53.504, 25.0724, 4.08173, 1.3689, 2.85892, -0.0292249, 0.000816998, -0.000747873, -0.00181741, -0.00322175, -0.00381727, -0.000272554, 0.0237379, -0.0302824, -0.00194853, 0.0501631, 0.0575901, -0.00826648, 0.470907, -0.543021, 0.336083, -2.08357, -2.16604, -0.129607, 0.470197, -0.542525, 0.338027, -2.08696, -2.16973, -0.129339, -0.00579309, 0.0213869, 0.0109948, 0.0252329, -0.000502427, 0.00447158
0.0651514, 1.69199, -1.22301, -1.53729, -0.89941, -1.19158, 1.23098, -1.30268, 0.0273772, 0.00069219, -0.0091992, 0.00848474, -0.00161396, 0.080325, 0.00419393, 3.26881, 53.3929, 25.0724, 4.08173, 1.3808, 2.86532, -0.0621838, 0.000795343, -0.000713381, -0.00181306, -0.00328434, -0.00386111, -0.000275122, 0.024721, -0.0317537, -0.00358695, 0.0510994, 0.0578505, -0.00842334, 0.470902, -0.543, 0.336094, -2.08356, -2.16606, -0.129591, 0.470226, -0.542523, 0.33803, -2.087, -2.16979, -0.129348, -0.00600136, 0.0221719, 0.0113968, 0.0264701, -0.000375183, 0.00305853
0.0661514, 1.69202, -1.22301, -1.5373, -0.899391, -1.19158, 1.23107, -1.30268, 0.0279816, 0.000717766, -0.0132421, 0.00958542, -0.0019915, 0.0835765, 0.00179263, 3.34419, 53.3572, 25.0724, 3.93494, 1.40552, 2.86532, -0.0292249, 0.00076837, -0.000681234, -0.00180899, -0.00335899, -0.00389974, -0.000273994, 0.0268928, -0.0318792, -0.00486471, 0.0503023, 0.060536, -0.00913396, 0.470896, -0.542978, 0.336106, -2.08354, -2.16607, -0.129574, 0.470253, -0.542525, 0.338032, -2.08705, -2.16985, -0.129375, -0.00621258, 0.0229689, 0.0118049, 0.0264162, -0.00152016, 0.00186409
0.0671514, 1.69205, -1.22299, -1.53732, -0.89938, -1.19158, 1.23115, -1.30268, 0.0309708, 0.00607646, -0.0132231, 0.00676172, -0.00156502, 0.0857875, 0.00159548, 3.41956, 53.0994, 25.0724, 3.93494, 1.41192, 2.87265, -0.0356336, 0.000742829, -0.000647853, -0.0018131, -0.00343567, -0.0039567, -0.000272828, 0.0252151, -0.0347372, -0.0023412, 0.0507331, 0.0675124, -0.00412518, 0.470889, -0.542955, 0.336118, -2.08352, -2.16608, -0.129557, 0.470281, -0.542527, 0.338043, -2.0871, -2.16993, -0.129385, -0.0064267, 0.0237778, 0.012219, 0.0290879, 0.00067517, 0.00494342
0.0681514, 1.69208, -1.22298, -1.53732, -0.899368, -1.19158, 1.23124, -1.30269, 0.0338889, 0.00548857, -0.0104809, 0.0110637, -0.00689098, 0.0875867, -0.000746846, 3.49494, 53.024, 24.9573, 3.93494, 1.44214, 2.87997, 0.0165515, 0.000717321, -0.000612733, -0.00181397, -0.00351619, -0.00400404, -0.0002815, 0.0267984, -0.0358272, -0.00138434, 0.0534077, 0.0722791, -0.00380657, 0.470883, -0.542931, 0.33613, -2.0835, -2.16609, -0.129539, 0.470311, -0.542527, 0.338051, -2.08714, -2.17001, -0.12941, -0.00664368, 0.0245986, 0.0126391, 0.0300516, -0.000168897, 0.00602952
0.0691514, 1.69211, -1.22298, -1.53734, -0.899352, -1.19159, 1.23133, -1.30269, 0.0335129, 0.00341482, -0.0162321, 0.0121281, -0.00566621, 0.0886744, -0.000168831, 3.53065, 53.024, 25.0327, 3.89526, 1.46045, 2.8873, 0.0101428, 0.000686104, -0.000578933, -0.00180689, -0.00359017, -0.00404966, -0.000274525, 0.0294547, -0.034943, -0.0046586, 0.0499327, 0.0705976, -0.00871571, 0.470876, -0.542906, 0.336143, -2.08349, -2.16611, -0.12952, 0.470339, -0.542531, 0.338051, -2.08719, -2.17007, -0.129426, -0.00686349, 0.0254311, 0.0130651, 0.0289258, -0.00149118, 0.00283704
0.0701514, 1.69216, -1.22297, -1.53736, -0.899337, -1.19159, 1.23143, -1.30268, 0.0376741, 0.0080327, -0.0152592, 0.0126218, -0.00922995, 0.0947992, 0.00141429, 3.37989, 52.7701, 25.0327, 3.85956, 1.47327, 2.8873, -0.0292249, 0.00066286, -0.000533987, -0.00181243, -0.00367795, -0.00411725, -0.000281366, 0.0293439, -0.0381699, -0.00149133, 0.0540717, 0.0817396, -0.00812126, 0.470869, -0.542881, 0.336156, -2.08347, -2.16612, -0.129501, 0.470378, -0.542527, 0.338064, -2.08725, -2.17016, -0.129437, -0.00708609, 0.0262753, 0.013497, 0.0320373, -0.000891076, 0.00631543
0.0711514, 1.6922, -1.22297, -1.53737, -0.899325, -1.1916, 1.23153, -1.30269, 0.0352115, 0.00438254, -0.0128517, 0.011596, -0.0116991, 0.0952366, -0.000938335, 3.45527, 52.8058, 24.9573, 3.89526, 1.47876, 2.87265, 0.0229602, 0.000632504, -0.000495758, -0.0018093, -0.0037693, -0.00416446, -0.000288572, 0.0314393, -0.0375107, -0.0030453, 0.0546151, 0.0808004, -0.00763, 0.470862, -0.542854, 0.336169, -2.08345, -2.16613, -0.129481, 0.47041, -0.542529, 0.338069, -2.08729, -2.17024, -0.129471, -0.00731145, 0.027131, 0.0139346, 0.031173, -0.00189167, 0.00491345
0.0721514, 1.69223, -1.22295, -1.53738, -0.899314, -1.19161, 1.23164, -1.30268, 0.0341178, 0.00625233, -0.0158635, 0.013367, -0.00980539, 0.0997455, 0.00182063, 3.49494, 52.659, 24.9573, 3.93494, 1.50989, 2.86532, -0.0420422, 0.000602057, -0.00045614, -0.00181001, -0.00385851, -0.00422543, -0.000282731, 0.0339252, -0.0371793, -0.00260287, 0.0575859, 0.0839491, -0.0145875, 0.470855, -0.542827, 0.336183, -2.08343, -2.16615, -0.129461, 0.470444, -0.54253, 0.338078, -2.08736, -2.17032, -0.129487, -0.00753952, 0.0279981, 0.014378, 0.0307202, -0.00355994, 0.00541802
0.0731514, 1.69227, -1.22295, -1.5374, -0.899299, -1.19161, 1.23174, -1.30268, 0.0374303, 0.00409095, -0.0168102, 0.0163423, -0.0074141, 0.103133, 0.000768053, 3.49494, 52.659, 25.0327, 3.93494, 1.5163, 2.86532, -0.0292249, 0.000567678, -0.000417109, -0.00180417, -0.00394738, -0.00427785, -0.000280409, 0.0345653, -0.039341, -0.00396328, 0.0611673, 0.0820195, -0.0132187, 0.470847, -0.542799, 0.336197, -2.08341, -2.16616, -0.12944, 0.470476, -0.542534, 0.33808, -2.08741, -2.1704, -0.129512, -0.00777026, 0.0288765, 0.0148271, 0.0326224, -0.00301435, 0.00435863
0.0741514, 1.69231, -1.22295, -1.5374, -0.899286, -1.19162, 1.23185, -1.30269, 0.0406285, 0.00443258, -0.0139255, 0.0114431, -0.00630422, 0.105568, -0.000924264, 3.45527, 52.5836, 24.9573, 3.97064, 1.5401, 2.86532, 0.0101428, 0.000537769, -0.000371675, -0.00180416, -0.00404662, -0.00433716, -0.000292884, 0.0320388, -0.0435101, -0.00367652, 0.0631408, 0.0836023, -0.00306466, 0.47084, -0.54277, 0.336212, -2.08339, -2.16618, -0.129418, 0.470515, -0.542532, 0.338088, -2.08746, -2.1705, -0.129541, -0.00800365, 0.0297661, 0.0152818, 0.0364723, 0.000498239, 0.00536125
0.0751514, 1.69235, -1.22294, -1.53742, -0.899267, -1.19163, 1.23196, -1.30268, 0.0397917, 0.0037468, -0.0137053, 0.0153009, -0.00480007, 0.10742, 0.00553125, 3.41956, 52.5479, 24.9573, 3.93494, 1.54651, 2.86532, -0.0292249, 0.000503006, -0.000329526, -0.00180244, -0.00414655, -0.00439389, -0.000286453, 0.0344386, -0.0429468, -0.00355875, 0.0671809, 0.0828383, -0.013852, 0.470832, -0.542741, 0.336228, -2.08336, -2.16619, -0.129396, 0.47055, -0.542535, 0.338095, -2.08753, -2.17058, -0.129572, -0.00823965, 0.0306668, 0.015742, 0.0357652, -0.00101076, 0.00558251
0.0761514, 1.69239, -1.22294, -1.53742, -0.899254, -1.19163, 1.23207, -1.30268, 0.0384194, 0.00246527, -0.011816, 0.016909, -0.00370733, 0.112397, 0.00215638, 3.41956, 52.5479, 24.8859, 3.97064, 1.55292, 2.89462, 0.0229602, 0.000468743, -0.000285847, -0.00179929, -0.00424919, -0.00444668, -0.000291907, 0.0365339, -0.043416, -0.00320965, 0.0741377, 0.0834612, -0.0127, 0.470823, -0.54271, 0.336243, -2.08334, -2.16621, -0.129373, 0.470587, -0.542536, 0.338101, -2.08758, -2.17067, -0.12961, -0.00847821, 0.0315785, 0.0162078, 0.0360841, -0.0022012, 0.0060535
0.0771514, 1.69243, -1.22294, -1.53743, -0.899246, -1.19164, 1.23219, -1.30268, 0.0400844, 0.00245428, -0.00811678, 0.0133415, -0.00720692, 0.112713, 0.00245091, 3.41956, 52.5122, 24.8462, 4.08173, 1.54651, 2.8873, 0.00373412, 0.000435135, -0.000238037, -0.0017969, -0.00435608, -0.00450751, -0.000300669, 0.0356759, -0.0456768, -0.00277224, 0.0736671, 0.0872244, -0.00838664, 0.470815, -0.542678, 0.33626, -2.08332, -2.16623, -0.129349, 0.470627, -0.542535, 0.338109, -2.08764, -2.17077, -0.129644, -0.0087193, 0.0325011, 0.016679, 0.0380863, -0.00040442, 0.00702053
0.0781514, 1.69248, -1.22294, -1.53744, -0.899227, -1.19165, 1.23231, -1.30269, 0.0452307, 0.00161785, -0.0136453, 0.013376, -0.00626949, 0.117304, 0.00185988, 3.26881, 52.5122, 24.8859, 4.08173, 1.57123, 2.89462, 0.00373412, 0.000400414, -0.000188062, -0.00179302, -0.00446153, -0.00456836, -0.000307342, 0.0359297, -0.0487667, -0.0053951, 0.0720254, 0.0890456, -0.005854, 0.470806, -0.542646, 0.336276, -2.08329, -2.16625, -0.129324, 0.470669, -0.542534, 0.338114, -2.08769, -2.17087, -0.129676, -0.00896288, 0.0334345, 0.0171556, 0.0408427, 0.000810346, 0.00477343
0.0791514, 1.69251, -1.22294, -1.53745, -0.899214, -1.19166, 1.23243, -1.30269, 0.0442921, 0.00422407, -0.0116694, 0.012387, -0.00914184, 0.116459, 0.00117201, 3.30451, 52.5122, 24.8105, 4.1214, 1.56482, 2.8873, 0.0101428, 0.000360768, -0.000143763, -0.00179259, -0.00457749, -0.00462926, -0.000306338, 0.0368808, -0.0485015, -0.00364523, 0.071167, 0.0941608, -0.00606491, 0.470797, -0.542612, 0.336293, -2.08327, -2.16626, -0.129299, 0.470706, -0.542538, 0.338124, -2.08776, -2.17097, -0.129718, -0.00920893, 0.0343785, 0.0176375, 0.0404305, 0.000536409, 0.00684346
0.0801514, 1.69255, -1.22293, -1.53746, -0.8992, -1.19167, 1.23255, -1.30268, 0.0445158, 0.00483224, -0.0129342, 0.0115504, -0.0111648, 0.118728, 0.00236649, 3.30451, 52.4368, 24.8462, 4.1571, 1.55292, 2.93033, -0.0292249, 0.000321294, -9.76565e-05, -0.00179007, -0.00468476, -0.00469338, -0.000301717, 0.0383998, -0.0489904, -0.00398356, 0.0703081, 0.0983646, -0.00839459, 0.470788, -0.542578, 0.336311, -2.08324, -2.16628, -0.129273, 0.470744, -0.54254, 0.338131, -2.08783, -2.17106, -0.129746, -0.00945739, 0.0353331, 0.0181247, 0.0407136, 6.45993e-05, 0.00674579
0.0811514, 1.69259, -1.22293, -1.53746, -0.899182, -1.19168, 1.23267, -1.30269, 0.0439027, 0.00257599, -0.00808323, 0.0119743, -0.00881522, 0.120327, 0.000452273, 3.22913, 52.4725, 24.7748, 4.1571, 1.56482, 2.98068, 0.00373412, 0.000280689, -4.94738e-05, -0.00178732, -0.0048018, -0.00475403, -0.00030546, 0.0387378, -0.0502228, -0.00368077, 0.0767229, 0.095279, -0.00509836, 0.470779, -0.542543, 0.336329, -2.08322, -2.1663, -0.129247, 0.470784, -0.542542, 0.338139, -2.0879, -2.17116, -0.129788, -0.00970824, 0.0362982, 0.0186171, 0.0417174, 0.000701633, 0.00744682
0.0821514, 1.69263, -1.22293, -1.53748, -0.89917, -1.19169, 1.23279, -1.30269, 0.0420554, 0.00185962, -0.0079074, 0.0104959, -0.0117767, 0.117334, -0.000813792, 3.19343, 52.4725, 24.8462, 4.23248, 1.57764, 3.00906, 0.0357776, 0.0002391, -3.74472e-07, -0.00178195, -0.00491097, -0.00482068, -0.000310036, 0.0404779, -0.0489078, -0.0047438, 0.0719971, 0.096253, -0.00607174, 0.470769, -0.542506, 0.336348, -2.08319, -2.16632, -0.12922, 0.470825, -0.542544, 0.338144, -2.08796, -2.17126, -0.129815, -0.00996144, 0.0372736, 0.0191147, 0.0401759, 6.90666e-05, 0.00666466
0.0831514, 1.69267, -1.22293, -1.53749, -0.899161, -1.1917, 1.23292, -1.30268, 0.0428892, 0.00218168, -0.00988276, 0.00923213, -0.00829415, 0.120964, 0.00120651, 3.19343, 52.4368, 24.8859, 4.30786, 1.56482, 3.01639, -0.00999879, 0.000196614, 4.96877e-05, -0.00177853, -0.00503027, -0.00488807, -0.000304088, 0.04086, -0.0505899, -0.00548419, 0.073935, 0.0964541, -0.00676816, 0.470759, -0.542469, 0.336367, -2.08316, -2.16634, -0.129192, 0.470866, -0.542546, 0.338152, -2.08803, -2.17136, -0.129851, -0.010217, 0.0382593, 0.0196175, 0.0415878, 0.000862176, 0.00632528
0.0841514, 1.69271, -1.22293, -1.53749, -0.899143, -1.19171, 1.23305, -1.30269, 0.0406971, 0.00384617, -0.00731951, 0.011266, -0.0113876, 0.128591, -0.00159686, 3.19343, 52.4725, 24.8859, 4.26819, 1.57764, 3.01639, 0.0559192, 0.000148566, 9.5675e-05, -0.0017737, -0.00515071, -0.00495143, -0.000301125, 0.0442117, -0.0505948, -0.00285, 0.0823776, 0.104705, -0.00855484, 0.470749, -0.542431, 0.336386, -2.08313, -2.16636, -0.129163, 0.470904, -0.542553, 0.338158, -2.0881, -2.17146, -0.129891, -0.0104747, 0.0392552, 0.0201252, 0.0415535, -0.00185442, 0.00891407
0.0851514, 1.69275, -1.22292, -1.5375, -0.89914, -1.19173, 1.23318, -1.30268, 0.0399332, 0.00455682, -0.00943111, 0.0116805, -0.00938081, 0.129361, 0.000661009, 3.15376, 52.4011, 24.9216, 4.37927, 1.60144, 3.01639, 0.0101428, 0.000106385, 0.000148107, -0.00177112, -0.00526298, -0.00502815, -0.000305953, 0.0458115, -0.0502886, -0.0033537, 0.0820912, 0.104919, -0.0131186, 0.470738, -0.542392, 0.336407, -2.0831, -2.16638, -0.129134, 0.470947, -0.542553, 0.338167, -2.08817, -2.17157, -0.12991, -0.0107348, 0.0402611, 0.020638, 0.0410283, -0.00236196, 0.00869043
0.0861514, 1.69279, -1.22292, -1.5375, -0.899135, -1.19174, 1.23331, -1.30269, 0.040253, 0.00633142, -0.00824638, 0.00636891, -0.0116407, 0.125078, 0.000225933, 3.07838, 52.4011, 24.8462, 4.49432, 1.60144, 3.02371, 0.0165515, 6.55751e-05, 0.000201688, -0.00176945, -0.00538232, -0.00509546, -0.000318715, 0.0447648, -0.051031, -0.00337351, 0.0754938, 0.107513, -0.00877567, 0.470727, -0.542351, 0.336427, -2.08308, -2.1664, -0.129103, 0.470991, -0.54255, 0.338178, -2.08822, -2.17169, -0.129945, -0.010997, 0.0412769, 0.0211557, 0.0414695, -0.000277672, 0.00932762
0.0871514, 1.69284, -1.22291, -1.53751, -0.899123, -1.19176, 1.23343, -1.30269, 0.039503, 0.00465654, -0.0111804, 0.00520082, -0.014283, 0.126962, -0.000544491, 3.04267, 52.4011, 24.9216, 4.49432, 1.62616, 3.01639, 0.0357776, 1.71538e-05, 0.000251388, -0.00176536, -0.00549999, -0.00516727, -0.000317025, 0.0473505, -0.0506717, -0.0056972, 0.0723218, 0.109925, -0.0108415, 0.470716, -0.54231, 0.336448, -2.08304, -2.16642, -0.129072, 0.471032, -0.542554, 0.338187, -2.08829, -2.1718, -0.129972, -0.0112614, 0.0423026, 0.0216783, 0.0408562, -0.00146142, 0.00716551
0.0881514, 1.69284, -1.22291, -1.53751, -0.899123, -1.19176, 1.23343, -1.30269, 0.039503, 0.00465654, -0.0111804, 0.00520082, -0.014283, 0.126962, -0.000544491, 3.04267, 52.4011, 24.9216, 4.49432, 1.62616, 3.01639, 0.0357776, -2.84082e-05, 0.000261501, -0.00175087, -0.00552159, -0.00515744, -0.000293437, 0.0484653, -0.05091, -0.00604853, 0.0718866, 0.110639, -0.0117016, 0.470705, -0.542268, 0.33647, -2.08301, -2.16645, -0.129041, 0.471032, -0.542554, 0.338187, -2.08829, -2.1718, -0.129972, -0.011528, 0.0433381, 0.0222057, 0.0408562, -0.00146142, 0.00716551
0.0891514, 1.69291, -1.2229, -1.53753, -0.899102, -1.19178, 1.23368, -1.30269, 0.041832, 0.0043319, -0.00726348, 0.00832348, -0.0130963, 0.12635, -0.00104908, 2.92762, 52.4011, 24.9573, 4.49432, 1.64447, 2.98709, 0.0495105, -7.80501e-05, 0.000351808, -0.0017597, -0.00573495, -0.00530491, -0.000312745, 0.0483866, -0.0524698, -0.00493952, 0.0759943, 0.109295, -0.0101983, 0.470694, -0.542224, 0.336492, -2.08298, -2.16647, -0.129008, 0.471112, -0.542557, 0.338207, -2.08843, -2.17201, -0.130029, -0.0117966, 0.0443832, 0.0227379, 0.042184, -0.000442679, 0.00875676
0.0901514, 1.69291, -1.2229, -1.53753, -0.899102, -1.19178, 1.23368, -1.30269, 0.041832, 0.0043319, -0.00726348, 0.00832348, -0.0130963, 0.12635, -0.00104908, 2.92762, 52.4011, 24.9573, 4.49432, 1.64447, 2.98709, 0.0495105, -0.000125854, 0.000362397, -0.0017445, -0.00575761, -0.00529462, -0.00028802, 0.0495221, -0.0527115, -0.00529708, 0.0755523, 0.110021, -0.0110728, 0.470682, -0.54218, 0.336515, -2.08295, -2.16649, -0.128975, 0.471112, -0.542557, 0.338207, -2.08843, -2.17201, -0.130029, -0.0120673, 0.0454378, 0.0232748, 0.042184, -0.000442679, 0.00875676
0.0911514, 1.69291, -1.2229, -1.53753, -0.899102, -1.19178, 1.23368, -1.30269, 0.041832, 0.0043319, -0.00726348, 0.00832348, -0.0130963, 0.12635, -0.00104908, 2.92762, 52.4011, 24.9573, 4.49432, 1.64447, 2.98709, 0.0495105, -0.000174792, 0.000373225, -0.00172894, -0.00578081, -0.0052841, -0.000262721, 0.0506677, -0.052955, -0.00565772, 0.0751072, 0.110754, -0.0119545, 0.47067, -0.542135, 0.336538, -2.08291, -2.16652, -0.128941, 0.471112, -0.542557, 0.338207, -2.08843, -2.17201, -0.130029, -0.0123401, 0.0465019, 0.0238164, 0.042184, -0.000442679, 0.00875676
0.0921514, 1.69303, -1.22288, -1.53753, -0.899086, -1.19183, 1.23404, -1.30268, 0.0383038, 0.00643425, -0.00171411, 0.00599278, -0.0167532, 0.121804, -0.000205862, 2.70148, 52.4368, 24.9216, 4.56573, 1.65088, 2.94406, 0.0293689, -0.000223447, 0.000505393, -0.00175167, -0.00608599, -0.00551066, -0.00031762, 0.051577, -0.051431, -0.00335447, 0.0734614, 0.114066, -0.0137021, 0.470657, -0.542088, 0.336562, -2.08288, -2.16654, -0.128906, 0.471235, -0.542557, 0.338242, -2.08862, -2.17234, -0.130109, -0.0126148, 0.0475753, 0.0243626, 0.0405062, -0.000682917, 0.0114827
0.0931514, 1.69307, -1.22288, -1.53753, -0.899079, -1.19185, 1.23416, -1.30268, 0.0386785, 0.00722682, -0.00310377, 0.00834128, -0.0167555, 0.120014, -0.000371581, 2.62611, 52.4725, 24.997, 4.53003, 1.63898, 2.93033, 0.0357776, -0.000274717, 0.000556486, -0.00174479, -0.00619812, -0.0055741, -0.000318321, 0.0533004, -0.0507763, -0.00359783, 0.0713649, 0.114617, -0.0167958, 0.470645, -0.542041, 0.336586, -2.08285, -2.16657, -0.128871, 0.471275, -0.542556, 0.33825, -2.08867, -2.17244, -0.130134, -0.0128915, 0.048658, 0.0249134, 0.0396309, -0.00129015, 0.0115458
0.0941514, 1.69311, -1.22288, -1.53753, -0.899071, -1.19186, 1.23427, -1.30269, 0.0410834, 0.0069194, 0.00322632, 0.00710305, -0.0167955, 0.113714, -0.0012288, 2.47535, 52.5479, 25.0327, 4.49432, 1.62616, 2.923, 0.0623279, -0.000325215, 0.000607384, -0.0017391, -0.00630785, -0.00563405, -0.000325424, 0.0510908, -0.0526121, -0.00276359, 0.0699641, 0.111734, -0.0103427, 0.470632, -0.541992, 0.336611, -2.08281, -2.16659, -0.128834, 0.471314, -0.542555, 0.33826, -2.08872, -2.17255, -0.13016, -0.0131701, 0.0497497, 0.0254687, 0.0411368, 0.00193319, 0.0132102
0.0951514, 1.69315, -1.22286, -1.53753, -0.899067, -1.19188, 1.23438, -1.30269, 0.0396403, 0.00624961, 0.00516134, 0.0052656, -0.017316, 0.109339, -0.000105425, 2.43568, 52.5122, 24.9216, 4.49432, 1.62616, 2.90103, 0.0431018, -0.000376062, 0.000658336, -0.00174089, -0.00642681, -0.00570513, -0.000326903, 0.0516791, -0.051958, -0.00341369, 0.0664452, 0.110073, -0.0114234, 0.470619, -0.541942, 0.336637, -2.08277, -2.16662, -0.128797, 0.471354, -0.542553, 0.338277, -2.08878, -2.17267, -0.130183, -0.0134506, 0.0508506, 0.0260284, 0.0402019, 0.00252719, 0.0130564
0.0961514, 1.69319, -1.22286, -1.53753, -0.899064, -1.1919, 1.23449, -1.30268, 0.0434866, 0.00626877, 0.00374989, 0.00708229, -0.0178477, 0.11019, 0.000914334, 2.32459, 52.5836, 24.9216, 4.49432, 1.63257, 2.87997, 0.0165515, -0.000428033, 0.000711205, -0.00173178, -0.00653388, -0.00576455, -0.000325455, 0.0521849, -0.0538095, -0.00414752, 0.0655272, 0.111748, -0.012001, 0.470605, -0.541891, 0.336663, -2.08274, -2.16665, -0.128759, 0.471395, -0.54255, 0.338285, -2.08883, -2.17277, -0.130204, -0.013733, 0.0519604, 0.0265925, 0.0417613, 0.00332937, 0.01276
0.0971514, 1.69323, -1.22286, -1.53753, -0.899065, -1.19192, 1.2346, -1.30269, 0.045308, 0.00532857, 0.000968435, 0.00444908, -0.0185964, 0.111225, -0.00108491, 2.24921, 52.6947, 24.997, 4.53003, 1.64447, 2.86532, 0.0623279, -0.000481462, 0.000763167, -0.00172048, -0.00663493, -0.00582427, -0.000333457, 0.0527231, -0.0553113, -0.00643312, 0.0615695, 0.113172, -0.00838857, 0.470592, -0.541839, 0.33669, -2.0827, -2.16667, -0.128721, 0.471435, -0.542547, 0.33829, -2.08887, -2.17287, -0.130218, -0.0140172, 0.053079, 0.027161, 0.0429136, 0.00433213, 0.0109414
0.0981514, 1.69327, -1.22285, -1.53753, -0.899057, -1.19194, 1.23471, -1.30268, 0.0458439, 0.0124481, 0.00174745, 0.00598659, -0.0190512, 0.107906, 0.000735506, 2.20954, 52.6193, 24.9573, 4.41894, 1.65729, 2.83694, 0.0229602, -0.000537783, 0.000812684, -0.0017203, -0.00674754, -0.00589744, -0.000323319, 0.0530406, -0.0548677, -0.00246164, 0.0599408, 0.119594, -0.0118332, 0.470578, -0.541786, 0.336717, -2.08266, -2.1667, -0.128681, 0.471472, -0.542547, 0.338307, -2.08894, -2.17298, -0.130229, -0.0143032, 0.0542063, 0.0277337, 0.0423441, 0.00451944, 0.0153996
0.0991514, 1.69331, -1.22285, -1.53753, -0.899062, -1.19196, 1.23481, -1.30269, 0.0424203, 0.00904823, -0.00139593, 0.00254438, -0.0237031, 0.104329, -0.000255111, 2.09846, 52.7701, 25.0724, 4.49432, 1.65729, 2.83694, 0.0431018, -0.000592528, 0.000864955, -0.00170391, -0.00684064, -0.00595003, -0.00033081, 0.0563053, -0.0523119, -0.00657861, 0.0500436, 0.119445, -0.0151611, 0.470563, -0.541732, 0.336744, -2.08262, -2.16673, -0.128641, 0.471512, -0.542542, 0.338309, -2.08896, -2.17308, -0.130239, -0.0145909, 0.0553423, 0.0283107, 0.0394732, 0.00295883, 0.0114839
0.100151, 1.69335, -1.22284, -1.53753, -0.899062, -1.19198, 1.23491, -1.30269, 0.043313, 0.00630021, -0.000832851, 0.00193368, -0.0278973, 0.102627, -0.000169671, 1.9477, 52.8058, 25.0724, 4.49432, 1.6756, 2.80856, 0.0431018, -0.000646999, 0.000919543, -0.00169594, -0.00694245, -0.00601643, -0.000336646, 0.0577587, -0.0525754, -0.00866177, 0.0459745, 0.120126, -0.0158554, 0.470549, -0.541677, 0.336773, -2.08258, -2.16676, -0.128599, 0.471553, -0.542537, 0.338319, -2.08901, -2.17319, -0.130245, -0.0148804, 0.0564869, 0.0288918, 0.0394247, 0.00300101, 0.00977436
0.101151, 1.69339, -1.22284, -1.53753, -0.899057, -1.19201, 1.23501, -1.30268, 0.0414501, 0.0050276, -0.000481908, 0.00323042, -0.0268091, 0.105032, 0.000633174, 1.90803, 52.8058, 25.0724, 4.41894, 1.70581, 2.79391, 0.0229602, -0.00070586, 0.000969381, -0.00168855, -0.00704379, -0.00607976, -0.000330018, 0.0602966, -0.0521429, -0.00917818, 0.0491988, 0.119755, -0.0200227, 0.470534, -0.54162, 0.336802, -2.08254, -2.16679, -0.128557, 0.47159, -0.542535, 0.33833, -2.08906, -2.17329, -0.13025, -0.0151716, 0.0576399, 0.0294771, 0.0387773, 0.00171123, 0.00946961
0.102151, 1.69343, -1.22284, -1.53754, -0.899061, -1.19203, 1.23511, -1.30269, 0.0392178, 0.00439713, 0.00120037, 0.00145194, -0.0247729, 0.107575, -0.000323643, 1.90803, 52.9169, 25.1438, 4.45465, 1.70581, 2.77926, 0.0431018, -0.000765492, 0.00101982, -0.00167504, -0.00714213, -0.00613526, -0.000331896, 0.0615785, -0.0525468, -0.00924549, 0.0527881, 0.119494, -0.0191616, 0.470519, -0.541563, 0.336831, -2.08249, -2.16682, -0.128514, 0.471627, -0.542532, 0.338335, -2.08909, -2.17339, -0.130261, -0.0154644, 0.0588012, 0.0300665, 0.0389341, 0.00163601, 0.00978107
0.103151, 1.69347, -1.22283, -1.53754, -0.899065, -1.19205, 1.23521, -1.30268, 0.0402125, 0.00281358, 0.00110292, 0.000140105, -0.0189543, 0.109334, 5.56755e-05, 1.79694, 52.9526, 25.1438, 4.49432, 1.71863, 2.75821, 0.0357776, -0.000824131, 0.00107256, -0.00166481, -0.00723887, -0.00619898, -0.000333515, 0.0612065, -0.0546492, -0.010683, 0.0555554, 0.114962, -0.0164432, 0.470503, -0.541504, 0.336861, -2.08245, -2.16685, -0.128471, 0.471666, -0.542528, 0.338344, -2.08913, -2.1735, -0.13026, -0.0157588, 0.0599708, 0.0306599, 0.0406738, 0.00348362, 0.00894699
0.104151, 1.69351, -1.22282, -1.53754, -0.89906, -1.19207, 1.23531, -1.30268, 0.0401332, 0.00157854, 3.42621e-05, 0.00193176, -0.0188268, 0.106433, 0.000511962, 1.72157, 52.9883, 25.1835, 4.41894, 1.71863, 2.72983, 0.0229602, -0.000885847, 0.00112419, -0.00165476, -0.00734023, -0.00625892, -0.000327562, 0.0630591, -0.0537871, -0.0121904, 0.0524378, 0.112911, -0.0199625, 0.470487, -0.541444, 0.336892, -2.08241, -2.16688, -0.128426, 0.471704, -0.542525, 0.338354, -2.08918, -2.17359, -0.130267, -0.0160548, 0.0611486, 0.0312573, 0.0395309, 0.00302915, 0.00779519
0.105151, 1.69351, -1.22282, -1.53754, -0.89906, -1.19207, 1.23531, -1.30268, 0.0401332, 0.00157854, 3.42621e-05, 0.00193176, -0.0188268, 0.106433, 0.000511962, 1.72157, 52.9883, 25.1835, 4.41894, 1.71863, 2.72983, 0.0229602, -0.000951714, 0.00113853, -0.00163389, -0.00737138, -0.00624502, -0.00029375, 0.0643355, -0.0540511, -0.0125904, 0.0519529, 0.113722, -0.0209332, 0.470471, -0.541383, 0.336923, -2.08236, -2.16691, -0.128381, 0.471704, -0.542525, 0.338354, -2.08918, -2.17359, -0.130267, -0.0163524, 0.0623344, 0.0318586, 0.0395309, 0.00302915, 0.00779519
0.106151, 1.69351, -1.22282, -1.53754, -0.89906, -1.19207, 1.23531, -1.30268, 0.0401332, 0.00157854, 3.42621e-05, 0.00193176, -0.0188268, 0.106433, 0.000511962, 1.72157, 52.9883, 25.1835, 4.41894, 1.71863, 2.72983, 0.0229602, -0.00101886, 0.00115314, -0.00161262, -0.00740313, -0.00623087, -0.000259303, 0.0656205, -0.0543164, -0.0129929, 0.0514656, 0.114538, -0.0219097, 0.470455, -0.54132, 0.336955, -2.08231, -2.16694, -0.128334, 0.471704, -0.542525, 0.338354, -2.08918, -2.17359, -0.130267, -0.0166515, 0.0635282, 0.0324637, 0.0395309, 0.00302915, 0.00779519
0.107151, 1.69364, -1.2228, -1.53755, -0.899076, -1.19214, 1.23559, -1.30269, 0.0401857, -0.000656493, -0.00205334, -0.00300325, -0.0197195, 0.0924984, -0.000270135, 1.41608, 53.0994, 25.2945, 4.64111, 1.76166, 2.6932, 0.0431018, -0.00106694, 0.00128551, -0.00161911, -0.00761875, -0.00643881, -0.0003413, 0.0648064, -0.0527572, -0.017394, 0.0340782, 0.10754, -0.0190029, 0.470438, -0.541257, 0.336987, -2.08227, -2.16698, -0.128287, 0.471822, -0.542504, 0.338381, -2.08927, -2.17392, -0.130257, -0.0169521, 0.0647298, 0.0330727, 0.0374814, 0.00564554, 0.00423204
0.108151, 1.69369, -1.2228, -1.53755, -0.89908, -1.19216, 1.23569, -1.30268, 0.0406071, 0.00263982, -0.00213228, -0.00290642, -0.0188802, 0.0924609, 0.000803295, 1.305, 53.2462, 25.3303, 4.68079, 1.74884, 2.6932, 0.0165515, -0.00112942, 0.00134136, -0.00160165, -0.00771214, -0.0064895, -0.000343441, 0.0654711, -0.0532511, -0.0159023, 0.0341383, 0.110947, -0.0205331, 0.470421, -0.541192, 0.337021, -2.08222, -2.16701, -0.128239, 0.471862, -0.542496, 0.338386, -2.08929, -2.17402, -0.130262, -0.0172541, 0.0659392, 0.0336855, 0.0377543, 0.00599258, 0.00619898
0.109151, 1.69373, -1.22279, -1.53755, -0.899083, -1.19218, 1.23578, -1.30269, 0.0412962, 0.00475622, -0.00313089, -0.00191978, -0.0193924, 0.092428, -0.000685143, 1.18995, 53.2819, 25.4056, 4.68079, 1.76166, 2.70053, 0.0495105, -0.0011955, 0.00139358, -0.00158851, -0.00780187, -0.00655118, -0.000343627, 0.0668658, -0.053407, -0.0153219, 0.033041, 0.114295, -0.0208969, 0.470404, -0.541126, 0.337054, -2.08217, -2.16705, -0.12819, 0.471899, -0.542491, 0.338395, -2.08932, -2.17412, -0.130251, -0.0175576, 0.0671563, 0.0343019, 0.0376816, 0.00575222, 0.00716736
0.110151, 1.69376, -1.22278, -1.53755, -0.89909, -1.1922, 1.23587, -1.30268, 0.0389187, 0.00616246, 0.0019328, -0.00302972, -0.0194235, 0.0934625, 0.000763964, 1.18995, 53.3215, 25.3699, 4.75616, 1.76807, 2.67947, 0.0165515, -0.0012625, 0.00144542, -0.00157881, -0.00790428, -0.00661072, -0.000337737, 0.0678233, -0.0536337, -0.0130452, 0.0378115, 0.116755, -0.02231, 0.470387, -0.541059, 0.337088, -2.08212, -2.16708, -0.12814, 0.471936, -0.542486, 0.338407, -2.08936, -2.17422, -0.130254, -0.0178624, 0.068381, 0.034922, 0.0377252, 0.00569406, 0.00987989
0.111151, 1.69381, -1.22277, -1.53756, -0.899094, -1.19222, 1.23597, -1.30269, 0.0427099, 0.00799244, -0.00101758, -0.00284501, -0.0184892, 0.0942391, -0.00142345, 1.07887, 53.3215, 25.481, 4.79187, 1.74884, 2.6575, 0.0687366, -0.001329, 0.00150011, -0.00156592, -0.0079983, -0.00667061, -0.000343138, 0.0678478, -0.0556888, -0.0135323, 0.0355036, 0.119328, -0.0186692, 0.470369, -0.54099, 0.337123, -2.08207, -2.16712, -0.128089, 0.471974, -0.542479, 0.338417, -2.08939, -2.17434, -0.130248, -0.0181686, 0.0696132, 0.0355458, 0.039456, 0.00706584, 0.00995422
0.112151, 1.69384, -1.22276, -1.53755, -0.899105, -1.19224, 1.23606, -1.30268, 0.0414698, 0.00675325, 0.0013041, -0.00759568, -0.0186409, 0.0947597, 0.000983824, 1.03919, 53.4326, 25.4056, 4.90295, 1.74884, 2.63644, 0.0165515, -0.00139553, 0.00155569, -0.00155332, -0.00810054, -0.00672567, -0.000342048, 0.0680358, -0.0568377, -0.0144035, 0.0352488, 0.119529, -0.0180601, 0.470351, -0.540921, 0.337159, -2.08202, -2.16715, -0.128038, 0.472014, -0.542471, 0.338429, -2.08942, -2.17444, -0.130254, -0.0184762, 0.0708527, 0.036173, 0.0402722, 0.00830426, 0.00965574
0.113151, 1.69388, -1.22275, -1.53755, -0.899116, -1.19226, 1.23615, -1.30268, 0.0437484, 0.00764164, 0.000198623, -0.00708039, -0.0233187, 0.0897296, 0.000181174, 0.963814, 53.4683, 25.4413, 4.97833, 1.74884, 2.62912, 0.0293689, -0.00146248, 0.00161089, -0.00154124, -0.00819455, -0.0067844, -0.000346891, 0.0690631, -0.056622, -0.0151899, 0.0271998, 0.122704, -0.0185735, 0.470332, -0.54085, 0.337195, -2.08197, -2.16719, -0.127985, 0.472053, -0.542462, 0.338441, -2.08944, -2.17455, -0.130247, -0.018785, 0.0720996, 0.0368038, 0.0397588, 0.00865043, 0.0093571
0.114151, 1.69393, -1.22274, -1.53756, -0.899119, -1.19228, 1.23623, -1.30269, 0.0445097, 0.00754556, -0.00150749, -0.00719419, -0.0219992, 0.0861709, -0.000862554, 0.813057, 53.5397, 25.5167, 4.94263, 1.74335, 2.61447, 0.0559192, -0.00153045, 0.00166694, -0.00152623, -0.00828651, -0.00683559, -0.000351097, 0.0697752, -0.0565529, -0.0166497, 0.0225436, 0.120769, -0.0180731, 0.470313, -0.540778, 0.337232, -2.08192, -2.16723, -0.127932, 0.472092, -0.542452, 0.33845, -2.08946, -2.17466, -0.130245, -0.0190951, 0.0733536, 0.0374381, 0.0393537, 0.00942445, 0.00844117
0.115151, 1.69397, -1.22273, -1.53755, -0.899123, -1.19229, 1.23633, -1.30269, 0.0431821, 0.00479512, -0.000912497, -0.00744351, -0.0208334, 0.0882357, 0.000645672, 0.737679, 53.7262, 25.5167, 4.90295, 1.73053, 2.60715, 0.0229602, -0.00160191, 0.0017231, -0.00150955, -0.00839252, -0.00688013, -0.000349869, 0.0717735, -0.0568014, -0.0182579, 0.024751, 0.11889, -0.0209764, 0.470294, -0.540705, 0.337269, -2.08186, -2.16726, -0.127878, 0.472131, -0.542444, 0.338458, -2.08949, -2.17476, -0.130263, -0.0194064, 0.0746148, 0.0380757, 0.0393069, 0.008972, 0.00717332
0.116151, 1.69401, -1.22272, -1.53756, -0.899132, -1.19231, 1.23642, -1.30269, 0.0421655, 0.00476153, -0.0023022, -0.00929952, -0.0161548, 0.0897886, -0.00150233, 0.6623, 53.8373, 25.5921, 4.94263, 1.74335, 2.60074, 0.0751453, -0.00167402, 0.00177855, -0.00149403, -0.00848708, -0.00693543, -0.000352864, 0.0725664, -0.05749, -0.019264, 0.0258181, 0.116884, -0.0183365, 0.470275, -0.54063, 0.337307, -2.08181, -2.1673, -0.127822, 0.472169, -0.542436, 0.338468, -2.08951, -2.17487, -0.130258, -0.0197189, 0.075883, 0.0387168, 0.0396759, 0.00964311, 0.00667599
0.117151, 1.69405, -1.22272, -1.53755, -0.899143, -1.19232, 1.23651, -1.30268, 0.0423237, 0.00553738, -0.00231799, -0.00769649, -0.0121132, 0.0919374, 0.000931231, 0.551216, 54.0555, 25.6278, 4.97833, 1.74335, 2.57144, 0.0229602, -0.0017444, 0.00183774, -0.00147612, -0.00858757, -0.00698087, -0.000352967, 0.0736917, -0.0583236, -0.0188323, 0.0298556, 0.116128, -0.0217149, 0.470255, -0.540554, 0.337346, -2.08175, -2.16734, -0.127766, 0.472211, -0.542424, 0.338477, -2.08953, -2.17498, -0.130268, -0.0200326, 0.0771581, 0.0393611, 0.0402551, 0.00977888, 0.00754584
0.118151, 1.6941, -1.22271, -1.53756, -0.89915, -1.19233, 1.23659, -1.30268, 0.0424324, 0.00874638, -0.00410476, -0.00479197, -0.0133331, 0.0926915, 0.000620823, 0.436165, 54.1666, 25.7389, 4.94263, 1.73053, 2.55771, 0.0229602, -0.00181801, 0.00189461, -0.00145924, -0.00868298, -0.00703126, -0.000351573, 0.0762656, -0.0576359, -0.0175404, 0.0294997, 0.121441, -0.0261837, 0.470235, -0.540477, 0.337386, -2.0817, -2.16738, -0.127709, 0.47225, -0.542414, 0.338486, -2.08955, -2.17508, -0.130266, -0.0203474, 0.07844, 0.0400087, 0.0394005, 0.00829478, 0.00909206
0.119151, 1.69414, -1.2227, -1.53756, -0.899157, -1.19234, 1.23668, -1.30269, 0.0414995, 0.00603288, -0.00187202, -0.00635059, -0.0148103, 0.0886649, -0.00128154, 0.360787, 54.353, 25.7032, 4.94263, 1.73053, 2.53573, 0.0687366, -0.00189087, 0.00195387, -0.001444, -0.00879007, -0.00707641, -0.000360624, 0.0772735, -0.0572822, -0.0193061, 0.0259147, 0.118799, -0.0242579, 0.470215, -0.540398, 0.337426, -2.08164, -2.16742, -0.127651, 0.472291, -0.542403, 0.338498, -2.08956, -2.1752, -0.130282, -0.0206634, 0.0797287, 0.0406595, 0.0387052, 0.00884614, 0.00785395
0.120151, 1.69418, -1.22269, -1.53755, -0.899174, -1.19235, 1.23677, -1.30268, 0.0449453, 0.00729436, -0.00206128, -0.0104599, -0.011608, 0.0864741, 0.00131578, 0.245735, 54.5355, 25.7389, 5.05371, 1.74335, 2.50003, 0.0101428, -0.00196114, 0.00201586, -0.00142781, -0.00889118, -0.00712223, -0.000366851, 0.074961, -0.0603243, -0.0200167, 0.0224641, 0.117673, -0.0199359, 0.470194, -0.540319, 0.337466, -2.08158, -2.16746, -0.127592, 0.472334, -0.542387, 0.33851, -2.08957, -2.17531, -0.13029, -0.0209804, 0.081024, 0.0413134, 0.041315, 0.012666, 0.00806726
0.121151, 1.69422, -1.22267, -1.53756, -0.899182, -1.19236, 1.23685, -1.30269, 0.0451458, 0.00781297, -0.00312096, -0.00956725, -0.00868341, 0.0844452, -0.000580873, 0.21003, 54.6109, 25.8143, 5.01404, 1.74335, 2.47165, 0.0495105, -0.00203808, 0.00207169, -0.00141268, -0.00899217, -0.00716842, -0.000368113, 0.0759189, -0.0602804, -0.0205938, 0.0210488, 0.115678, -0.0192123, 0.470173, -0.540238, 0.337508, -2.08152, -2.1675, -0.127533, 0.472371, -0.542377, 0.338522, -2.08959, -2.17542, -0.130296, -0.0212984, 0.0823259, 0.0419705, 0.0409697, 0.0131112, 0.00800697
0.122151, 1.69426, -1.22266, -1.53755, -0.899198, -1.19236, 1.23694, -1.30269, 0.0457851, 0.00944117, -0.00206829, -0.0120966, -0.00626016, 0.0882962, -0.000149889, 0.059273, 54.7577, 25.8143, 5.08942, 1.73694, 2.42862, 0.0431018, -0.00211021, 0.00213353, -0.00139675, -0.00909382, -0.00721076, -0.000378809, 0.075824, -0.0626145, -0.0197386, 0.0247671, 0.118265, -0.0165525, 0.470152, -0.540155, 0.33755, -2.08146, -2.16755, -0.127472, 0.472414, -0.542361, 0.338536, -2.08959, -2.17554, -0.130307, -0.0216174, 0.0836343, 0.0426306, 0.0430125, 0.0144851, 0.00945187
0.123151, 1.6943, -1.22264, -1.53756, -0.899207, -1.19237, 1.23702, -1.30268, 0.0394, 0.0116233, -0.00396806, -0.011141, -0.00494224, 0.085219, 0.000408701, 0.059273, 54.8688, 25.9253, 5.05371, 1.74335, 2.41397, 0.0293689, -0.00219154, 0.00218654, -0.00138199, -0.00919492, -0.00725645, -0.000368398, 0.0799757, -0.0583072, -0.0193839, 0.0221271, 0.118597, -0.0258191, 0.47013, -0.540072, 0.337592, -2.0814, -2.16759, -0.12741, 0.472448, -0.542353, 0.338549, -2.08962, -2.17563, -0.130311, -0.0219375, 0.084949, 0.0432937, 0.0385634, 0.0114642, 0.00995869
0.124151, 1.69433, -1.22262, -1.53755, -0.899227, -1.19237, 1.23711, -1.30269, 0.0365442, 0.0122416, -0.00356645, -0.0166856, -0.0036934, 0.0830873, -0.000473518, -0.0161054, 55.0156, 25.965, 5.16479, 1.74335, 2.39932, 0.0495105, -0.00226741, 0.00224729, -0.0013661, -0.00930073, -0.007299, -0.000379693, 0.0804055, -0.0580406, -0.0201384, 0.018531, 0.118405, -0.0233618, 0.470108, -0.539987, 0.337635, -2.08134, -2.16763, -0.127348, 0.472489, -0.542338, 0.338563, -2.08962, -2.17575, -0.130324, -0.0222584, 0.08627, 0.0439598, 0.0379666, 0.0124675, 0.00982108
0.125151, 1.69437, -1.22261, -1.53756, -0.899245, -1.19237, 1.23718, -1.30269, 0.0391624, 0.0118622, -0.00359213, -0.017129, -0.00252384, 0.0754562, -0.00102775, -0.166862, 55.1981, 26.1515, 5.24017, 1.73694, 2.42129, 0.0687366, -0.00234648, 0.00230477, -0.00134351, -0.00939033, -0.00733356, -0.000383836, 0.0795534, -0.0586385, -0.0217027, 0.0112564, 0.114304, -0.0205179, 0.470086, -0.5399, 0.337679, -2.08127, -2.16768, -0.127284, 0.472527, -0.542323, 0.338571, -2.08962, -2.17586, -0.130326, -0.0225803, 0.0875972, 0.0446288, 0.0381532, 0.0149038, 0.00905738
0.126151, 1.6944, -1.22259, -1.53756, -0.89926, -1.19237, 1.23726, -1.30268, 0.0354269, 0.0164848, -0.000705784, -0.0156713, -0.00214412, 0.0791652, 0.00101025, -0.206535, 55.3091, 26.2229, 5.24017, 1.74335, 2.43594, 0.0229602, -0.00242875, 0.00235972, -0.00132916, -0.00949362, -0.00737594, -0.000374567, 0.0823357, -0.057627, -0.017671, 0.0183072, 0.120904, -0.0271389, 0.470063, -0.539813, 0.337724, -2.08121, -2.16772, -0.127219, 0.472562, -0.542312, 0.338587, -2.08964, -2.17596, -0.130333, -0.0229031, 0.0889305, 0.0453006, 0.0370809, 0.0128321, 0.013312
0.127151, 1.69444, -1.22258, -1.53755, -0.899283, -1.19237, 1.23734, -1.30269, 0.0336652, 0.0161892, 0.000821805, -0.0164123, -0.00136021, 0.0779824, -0.000784561, -0.281914, 55.4559, 26.1872, 5.31555, 1.73694, 2.44235, 0.0623279, -0.00250673, 0.00241902, -0.00131319, -0.00959636, -0.00741078, -0.000388248, 0.0837695, -0.0572317, -0.0178687, 0.0183348, 0.120208, -0.026507, 0.47004, -0.539724, 0.337769, -2.08114, -2.16777, -0.127154, 0.472601, -0.542295, 0.338602, -2.08963, -2.17608, -0.130348, -0.0232267, 0.0902698, 0.0459753, 0.0364123, 0.0127718, 0.0135819
0.128151, 1.69447, -1.22255, -1.53755, -0.899304, -1.19237, 1.23741, -1.30268, 0.032558, 0.0173972, -0.000872535, -0.0183053, -0.00103292, 0.0762748, 0.000697663, -0.357292, 55.5313, 26.2626, 5.31555, 1.73694, 2.47165, 0.0293689, -0.00258931, 0.00247495, -0.00129866, -0.00969822, -0.00745098, -0.00038424, 0.0851414, -0.0567255, -0.0185716, 0.014368, 0.121445, -0.029222, 0.470017, -0.539634, 0.337815, -2.08108, -2.16781, -0.127088, 0.472636, -0.542282, 0.338619, -2.08965, -2.17618, -0.130354, -0.0235512, 0.0916151, 0.0466527, 0.0356107, 0.0128509, 0.0133688
0.129151, 1.6945, -1.22254, -1.53755, -0.899334, -1.19236, 1.23748, -1.30268, 0.0324334, 0.0157145, -0.000475529, -0.0219219, -0.000545836, 0.07584, 0.00117719, -0.468376, 55.7138, 26.4094, 5.42664, 1.73053, 2.47897, 0.0101428, -0.00267115, 0.00253221, -0.00127677, -0.00978768, -0.00748322, -0.000388207, 0.0855107, -0.0578301, -0.0204093, 0.0121967, 0.120342, -0.0273572, 0.469994, -0.539542, 0.337862, -2.08101, -2.16786, -0.12702, 0.472672, -0.542265, 0.33863, -2.08964, -2.17628, -0.130354, -0.0238765, 0.0929661, 0.0473329, 0.0363358, 0.014169, 0.0121415
0.130151, 1.69453, -1.22252, -1.53755, -0.899358, -1.19236, 1.23755, -1.30269, 0.0265011, 0.018488, 0.00225765, -0.0224375, -0.000231379, 0.0801548, -0.00213133, -0.583427, 55.8606, 26.449, 5.42664, 1.72504, 2.4927, 0.0888782, -0.0027555, 0.00258804, -0.00126026, -0.0098858, -0.0075197, -0.000397858, 0.088999, -0.0561406, -0.017634, 0.0188215, 0.125613, -0.0291579, 0.46997, -0.539449, 0.337909, -2.08094, -2.16791, -0.126952, 0.472707, -0.54225, 0.338646, -2.08963, -2.1764, -0.130359, -0.0242025, 0.094323, 0.0480157, 0.0345641, 0.011587, 0.0150795
0.131151, 1.69455, -1.2225, -1.53755, -0.89939, -1.19236, 1.23762, -1.30268, 0.0266804, 0.0168024, -0.00132575, -0.0236593, 0.0101804, 0.0744172, 0.00173259, -0.658806, 56.0471, 26.5958, 5.46234, 1.70032, 2.48538, 0.00373412, -0.00284153, 0.00264244, -0.00124003, -0.00998034, -0.00755014, -0.000389445, 0.0882831, -0.0563352, -0.0210578, 0.0142857, 0.113807, -0.0310947, 0.469946, -0.539355, 0.337957, -2.08087, -2.16796, -0.126882, 0.472739, -0.542235, 0.338659, -2.08964, -2.17649, -0.130364, -0.0245292, 0.0956855, 0.0487012, 0.0342774, 0.014191, 0.0124877
0.132151, 1.69457, -1.22248, -1.53755, -0.899434, -1.19236, 1.23769, -1.30268, 0.0278432, 0.0172575, 0.000129088, -0.0311355, 0.00733294, 0.0729772, -0.000540358, -0.76989, 56.1581, 26.7069, 5.6488, 1.70581, 2.52109, 0.0495105, -0.00292406, 0.0026997, -0.00122037, -0.0100655, -0.00758628, -0.000403942, 0.0870718, -0.0586176, -0.0219628, 0.0087507, 0.117389, -0.0224677, 0.469921, -0.539259, 0.338006, -2.0808, -2.168, -0.126812, 0.472775, -0.542215, 0.338674, -2.08961, -2.17661, -0.130354, -0.0248567, 0.0970535, 0.0493892, 0.0361518, 0.0169953, 0.0123956
0.133151, 1.69459, -1.22245, -1.53754, -0.899473, -1.19236, 1.23775, -1.30268, 0.0231129, 0.0182594, 0.00277894, -0.0332203, 0.004976, 0.072334, -0.00107232, -0.76989, 56.2296, 26.7466, 5.68848, 1.71863, 2.55771, 0.0687366, -0.00301342, 0.00274896, -0.00120694, -0.0101571, -0.00762673, -0.00040174, 0.0897817, -0.0567743, -0.0209941, 0.00867998, 0.120803, -0.0254008, 0.469896, -0.539162, 0.338055, -2.08073, -2.16805, -0.126741, 0.472802, -0.542202, 0.338695, -2.08961, -2.17672, -0.130343, -0.0251848, 0.0984271, 0.0500798, 0.0341268, 0.015468, 0.0136828
0.134151, 1.69461, -1.22243, -1.53753, -0.89951, -1.19236, 1.2378, -1.30268, 0.0234236, 0.0204676, 0.00615413, -0.0329736, 0.00350155, 0.0668996, 0.00192998, -0.920646, 56.3763, 26.8577, 5.6488, 1.72504, 2.60074, -0.00267457, -0.00310174, 0.00280159, -0.00118711, -0.01024, -0.00765829, -0.000394747, 0.0900027, -0.0565701, -0.0194287, 0.0059519, 0.122198, -0.0283114, 0.469871, -0.539064, 0.338106, -2.08066, -2.1681, -0.126669, 0.472832, -0.542185, 0.33871, -2.08961, -2.17681, -0.130331, -0.0255136, 0.099806, 0.0507728, 0.033666, 0.0163834, 0.0158934
0.135151, 1.69462, -1.2224, -1.53752, -0.899563, -1.19236, 1.23785, -1.30268, 0.0216381, 0.0197279, 0.00665965, -0.0398039, 0.00265054, 0.0642714, -0.00159556, -0.996025, 56.4874, 26.933, 5.76385, 1.72504, 2.60715, 0.0751453, -0.00318765, 0.00285572, -0.00116697, -0.0103204, -0.00768947, -0.000415066, 0.0901146, -0.0569175, -0.0212455, 0.000125828, 0.12231, -0.0216964, 0.469845, -0.538964, 0.338156, -2.08059, -2.16815, -0.126595, 0.472864, -0.542164, 0.338726, -2.08957, -2.17693, -0.130318, -0.025843, 0.10119, 0.0514683, 0.0336218, 0.0179528, 0.0147658
0.136151, 1.69464, -1.22238, -1.53751, -0.899613, -1.19235, 1.2379, -1.30268, 0.0212828, 0.0173847, 0.0109691, -0.0396754, 0.00200416, 0.053164, 0.000869072, -1.11108, 56.6739, 26.9687, 5.79956, 1.72504, 2.60715, 0.0229602, -0.00327622, 0.00290827, -0.0011464, -0.010403, -0.00771616, -0.000416989, 0.090107, -0.0556786, -0.0225248, -0.00667212, 0.115626, -0.0238449, 0.46982, -0.538862, 0.338208, -2.08052, -2.16821, -0.126521, 0.472893, -0.542145, 0.338741, -2.08955, -2.17703, -0.130309, -0.026173, 0.10258, 0.0521662, 0.0320091, 0.019494, 0.0142406
0.137151, 1.69464, -1.22235, -1.5375, -0.899667, -1.19236, 1.23795, -1.30268, 0.0163253, 0.0216205, 0.0099094, -0.042931, 0.00107315, 0.0504517, 0.000104663, -1.15075, 56.7453, 27.0441, 5.83527, 1.73694, 2.57876, 0.0357776, -0.00336769, 0.00295733, -0.00112927, -0.0104815, -0.00775252, -0.000421213, 0.0925599, -0.0530453, -0.0213214, -0.0113783, 0.120424, -0.0271128, 0.469793, -0.53876, 0.33826, -2.08044, -2.16826, -0.126446, 0.472919, -0.542128, 0.338761, -2.08954, -2.17714, -0.130286, -0.0265036, 0.103974, 0.0528664, 0.0291931, 0.0181706, 0.0158347
0.138151, 1.69465, -1.22232, -1.53749, -0.899722, -1.19236, 1.23799, -1.30268, 0.0135534, 0.0246899, 0.00838911, -0.0436273, 0.00509944, 0.0425206, -0.00115093, -1.22613, 56.8207, 27.1552, 5.79956, 1.74884, 2.57876, 0.0687366, -0.00345904, 0.00300565, -0.00111287, -0.0105553, -0.00778705, -0.000428474, 0.0934961, -0.0506152, -0.0212003, -0.0179292, 0.117291, -0.0285334, 0.469767, -0.538656, 0.338313, -2.08036, -2.16831, -0.12637, 0.472944, -0.542109, 0.338782, -2.08951, -2.17725, -0.130258, -0.0268347, 0.105374, 0.0535689, 0.02648, 0.0185236, 0.0165901
0.139151, 1.69465, -1.22229, -1.53747, -0.89979, -1.19235, 1.23803, -1.30268, 0.0114787, 0.0274161, 0.0129683, -0.0531202, 0.00477224, 0.0422413, -0.000529926, -1.30151, 57.0032, 27.1552, 5.87494, 1.72504, 2.55038, 0.0623279, -0.00354742, 0.00305613, -0.00109183, -0.0106275, -0.00780688, -0.000442903, 0.0919101, -0.0525284, -0.0196808, -0.0188256, 0.121529, -0.0219472, 0.46974, -0.538551, 0.338366, -2.08029, -2.16836, -0.126293, 0.47297, -0.542085, 0.338799, -2.08946, -2.17736, -0.130243, -0.0271662, 0.106779, 0.0542736, 0.0280605, 0.0213487, 0.0189781
0.140151, 1.69465, -1.22225, -1.53746, -0.899853, -1.19235, 1.23807, -1.30268, 0.0071354, 0.0307353, 0.0127305, -0.0617104, 0.00334629, 0.0369377, 0.00134214, -1.37688, 57.0032, 27.306, 5.87494, 1.73053, 2.53573, 0.0165515, -0.0036413, 0.00310158, -0.00107652, -0.0106925, -0.00784571, -0.000439269, 0.0922633, -0.0510745, -0.0197416, -0.0279917, 0.124953, -0.0223396, 0.469713, -0.538444, 0.338421, -2.08021, -2.16842, -0.126215, 0.472992, -0.542067, 0.338823, -2.08944, -2.17745, -0.130197, -0.0274983, 0.108188, 0.0549806, 0.026292, 0.0223576, 0.0196169
0.141151, 1.69465, -1.22222, -1.53744, -0.899928, -1.19235, 1.2381, -1.30268, 0.00364009, 0.0296538, 0.0162554, -0.0668102, 0.00271049, 0.0389131, 0.000182681, -1.45226, 57.15, 27.306, 5.95032, 1.72504, 2.48538, 0.0357776, -0.0037305, 0.00315273, -0.00106032, -0.0107678, -0.00787447, -0.000460203, 0.0935163, -0.0514676, -0.0199484, -0.0260231, 0.126434, -0.019783, 0.469685, -0.538336, 0.338476, -2.08013, -2.16847, -0.126136, 0.473018, -0.542042, 0.338846, -2.0894, -2.17758, -0.130175, -0.0278308, 0.109602, 0.0556897, 0.0263965, 0.0225864, 0.0199156
0.142152, 1.69465, -1.22219, -1.53742, -0.900002, -1.19234, 1.23813, -1.30268, 0.000272527, 0.0305118, 0.0171893, -0.0669673, 0.00671296, 0.0297406, -0.000386839, -1.48797, 57.2253, 27.3774, 5.87494, 1.72504, 2.46432, 0.0495105, -0.00382396, 0.00319936, -0.0010424, -0.0108325, -0.00790345, -0.000468203, 0.0944759, -0.0488241, -0.0202688, -0.0313599, 0.120285, -0.0217601, 0.469658, -0.538226, 0.338531, -2.08005, -2.16853, -0.126055, 0.47304, -0.542019, 0.338868, -2.08936, -2.17768, -0.130139, -0.0281637, 0.111021, 0.0564009, 0.023453, 0.0229932, 0.0202476
0.143152, 1.69464, -1.22215, -1.53739, -0.900078, -1.19234, 1.23815, -1.30267, -0.00305319, 0.0332915, 0.0202598, -0.0712628, 0.0102768, 0.027587, 0.000725452, -1.48797, 57.3364, 27.3417, 5.83527, 1.71222, 2.44235, 0.0229602, -0.00391662, 0.00324553, -0.00102838, -0.0109035, -0.00792914, -0.000477086, 0.0943637, -0.0486972, -0.018643, -0.0307363, 0.12009, -0.020897, 0.469629, -0.538115, 0.338588, -2.07997, -2.16858, -0.125974, 0.473061, -0.541995, 0.338895, -2.08932, -2.17779, -0.130112, -0.028497, 0.112445, 0.0571142, 0.023056, 0.0242764, 0.0225875
0.144152, 1.69463, -1.22211, -1.53738, -0.900164, -1.19233, 1.23817, -1.30268, -0.00454981, 0.0342684, 0.0182699, -0.0754093, 0.00742235, 0.0251161, -0.000974428, -1.52764, 57.4832, 27.4885, 5.83527, 1.71863, 2.44235, 0.0623279, -0.00400993, 0.00329139, -0.00100748, -0.0109575, -0.00795201, -0.000496171, 0.0959621, -0.0479389, -0.0199799, -0.0381714, 0.123591, -0.0200894, 0.469601, -0.538002, 0.338645, -2.07989, -2.16864, -0.125892, 0.473082, -0.54197, 0.338915, -2.08925, -2.1779, -0.13007, -0.0288307, 0.113873, 0.0578295, 0.0219798, 0.0242997, 0.0217607
0.145152, 1.69463, -1.22208, -1.53735, -0.90025, -1.19233, 1.23819, -1.30268, -0.00685209, 0.0314892, 0.0226515, -0.077859, 0.00984246, 0.0225687, 0.000571085, -1.63873, 57.6657, 27.5281, 5.79956, 1.73053, 2.46432, 0.0293689, -0.00410051, 0.00334053, -0.000988502, -0.0110155, -0.00797092, -0.000518813, 0.0964057, -0.0481096, -0.0209886, -0.0370167, 0.118384, -0.0199411, 0.469572, -0.537889, 0.338703, -2.07981, -2.1687, -0.125809, 0.473105, -0.54194, 0.338939, -2.08919, -2.17802, -0.130035, -0.0291647, 0.115306, 0.0585467, 0.0217988, 0.0254585, 0.0214078
0.146152, 1.69461, -1.22203, -1.53733, -0.900343, -1.19232, 1.2382, -1.30268, -0.0120262, 0.0346301, 0.0217438, -0.0818976, 0.00741048, 0.0161207, 0.000143364, -1.60302, 57.63, 27.6035, 5.72418, 1.73053, 2.48538, 0.0357776, -0.00419308, 0.00338502, -0.000976176, -0.0110675, -0.00800276, -0.000535452, 0.0987525, -0.0447293, -0.0208299, -0.0459805, 0.121547, -0.0235134, 0.469543, -0.537773, 0.338761, -2.07972, -2.16875, -0.125725, 0.473124, -0.541912, 0.338969, -2.08913, -2.17813, -0.129978, -0.029499, 0.116743, 0.0592659, 0.0181915, 0.0244069, 0.0220318
0.147152, 1.69459, -1.222, -1.5373, -0.900443, -1.19232, 1.2382, -1.30268, -0.0138135, 0.0361395, 0.0212336, -0.0837175, 0.00442407, 0.011867, -0.00041305, -1.52764, 57.8879, 27.6749, 5.68848, 1.76166, 2.4927, 0.0495105, -0.00429056, 0.00342663, -0.000951167, -0.0111136, -0.00801582, -0.000552393, 0.100667, -0.043192, -0.0211539, -0.0525382, 0.124501, -0.0255248, 0.469513, -0.537657, 0.338821, -2.07964, -2.16881, -0.12564, 0.473139, -0.541885, 0.338988, -2.08906, -2.17823, -0.129933, -0.0298335, 0.118184, 0.059987, 0.0163887, 0.023942, 0.0221883
0.148152, 1.69458, -1.22195, -1.53727, -0.90054, -1.19232, 1.23821, -1.30267, -0.0124659, 0.0403044, 0.0248362, -0.0856185, 0.00298604, 0.00922598, 0.0011827, -1.56335, 57.8879, 27.7146, 5.57739, 1.77356, 2.48538, 0.0101428, -0.00438369, 0.00347287, -0.000939424, -0.011168, -0.00804655, -0.00057067, 0.0998978, -0.0445658, -0.0184796, -0.0536583, 0.129441, -0.0240668, 0.469484, -0.537538, 0.338881, -2.07955, -2.16887, -0.125554, 0.473159, -0.541855, 0.33902, -2.089, -2.17835, -0.129879, -0.0301683, 0.119629, 0.0607099, 0.017505, 0.0258022, 0.025626
0.149152, 1.69456, -1.22191, -1.53724, -0.900649, -1.19231, 1.23821, -1.30268, -0.0141824, 0.039923, 0.0225609, -0.0917139, 0.00719375, 0.00717053, -0.000906957, -1.60302, 58.0347, 27.8257, 5.53772, 1.77356, 2.47897, 0.0559192, -0.00447651, 0.003519, -0.00091753, -0.0112112, -0.00805936, -0.000605147, 0.0998746, -0.0449683, -0.0209499, -0.0587037, 0.126197, -0.0191581, 0.469453, -0.537419, 0.338941, -2.07946, -2.16893, -0.125467, 0.473178, -0.541821, 0.339043, -2.0889, -2.17847, -0.129831, -0.0305034, 0.121079, 0.0614347, 0.0174795, 0.0276718, 0.0239017
0.150152, 1.69453, -1.22186, -1.53721, -0.900765, -1.19231, 1.23821, -1.30267, -0.020306, 0.0454599, 0.0250622, -0.102941, 0.00950182, 0.00645231, 0.000616065, -1.56335, 58.0704, 27.9011, 5.53772, 1.79187, 2.44967, 0.0229602, -0.00457238, 0.00356157, -0.000900662, -0.0112533, -0.00808506, -0.000623578, 0.0992237, -0.0447915, -0.0186124, -0.0605668, 0.131061, -0.0161481, 0.469423, -0.537298, 0.339003, -2.07938, -2.16899, -0.125378, 0.473193, -0.54179, 0.339072, -2.08883, -2.17858, -0.129766, -0.0308386, 0.122533, 0.0621611, 0.0170389, 0.0294065, 0.0270426
0.151152, 1.69451, -1.22182, -1.53718, -0.900883, -1.19229, 1.23821, -1.30267, -0.0199786, 0.0407095, 0.0259311, -0.103886, 0.0122588, 0.0055216, 0.000885428, -1.60302, 58.2172, 28.0121, 5.46234, 1.78638, 2.42862, 0.0101428, -0.00466718, 0.00360791, -0.000877978, -0.0113002, -0.00809534, -0.000653689, 0.1, -0.0458598, -0.0218154, -0.0607745, 0.124606, -0.0150009, 0.469392, -0.537175, 0.339065, -2.07929, -2.16905, -0.125289, 0.473212, -0.541755, 0.339095, -2.08874, -2.1787, -0.129722, -0.031174, 0.12399, 0.0628893, 0.0176802, 0.0306361, 0.0244532
0.152152, 1.69448, -1.22177, -1.53714, -0.901013, -1.19228, 1.2382, -1.30267, -0.0244845, 0.0485708, 0.0284664, -0.113661, 0.0132311, -0.000386922, -0.00110514, -1.56335, 58.1458, 28.0478, 5.50201, 1.80469, 2.42129, 0.0559192, -0.0047607, 0.0036514, -0.000865358, -0.0113448, -0.00811949, -0.000693581, 0.0985623, -0.0451289, -0.0184546, -0.0671234, 0.130258, -0.00862193, 0.469361, -0.537051, 0.339128, -2.0792, -2.16911, -0.125199, 0.473228, -0.54172, 0.33913, -2.08864, -2.17884, -0.129661, -0.0315095, 0.125452, 0.0636192, 0.0166956, 0.0329751, 0.0287472
0.153152, 1.69445, -1.22173, -1.5371, -0.901147, -1.19227, 1.2382, -1.30267, -0.0260218, 0.0458485, 0.0312489, -0.121832, 0.0154108, -0.000399469, 0.000721305, -1.60302, 58.2925, 28.0478, 5.57739, 1.78638, 2.42129, 0.0165515, -0.00485352, 0.0036998, -0.000844818, -0.0113942, -0.00812951, -0.000733916, 0.0976341, -0.0471681, -0.0206165, -0.0681077, 0.127195, -0.00385063, 0.469329, -0.536926, 0.339191, -2.07911, -2.16918, -0.125108, 0.473248, -0.54168, 0.339157, -2.08854, -2.17897, -0.129619, -0.0318451, 0.126917, 0.0643506, 0.0182798, 0.0357805, 0.0274196
0.154152, 1.69441, -1.22167, -1.53706, -0.901279, -1.19226, 1.2382, -1.30267, -0.0265147, 0.0481327, 0.0336268, -0.124726, 0.0104439, -0.000914989, -0.000231207, -1.6784, 58.2568, 28.1589, 5.53772, 1.81659, 2.43594, 0.0357776, -0.00495028, 0.0037442, -0.000828699, -0.0114384, -0.008151, -0.000771229, 0.0987737, -0.0475418, -0.0193424, -0.0704644, 0.13435, -0.00254123, 0.469298, -0.536799, 0.339256, -2.07902, -2.16924, -0.125016, 0.473264, -0.541644, 0.339189, -2.08844, -2.1791, -0.129559, -0.0321808, 0.128386, 0.0650837, 0.0184175, 0.03595, 0.0292231
0.155152, 1.69437, -1.22163, -1.53701, -0.901413, -1.19224, 1.23819, -1.30267, -0.0297189, 0.047222, 0.0413105, -0.127489, 0.0129313, -0.000418331, -0.00113748, -1.75378, 58.3282, 28.1589, 5.50201, 1.81018, 2.42862, 0.0623279, -0.00504802, 0.00378886, -0.000811871, -0.0114959, -0.00815997, -0.000811506, 0.0989907, -0.0483707, -0.0178092, -0.0636224, 0.132284, 0.00100679, 0.469265, -0.53667, 0.339321, -2.07892, -2.1693, -0.124922, 0.47328, -0.541607, 0.339221, -2.08834, -2.17924, -0.129525, -0.0325166, 0.129859, 0.0658182, 0.0189838, 0.0370152, 0.0314109
0.156152, 1.69433, -1.22159, -1.53696, -0.901557, -1.19223, 1.23819, -1.30267, -0.0324002, 0.0406404, 0.0427529, -0.13032, 0.014029, -6.73245e-05, 0.000462382, -1.82915, 58.5147, 28.1986, 5.50201, 1.823, 2.42129, 0.0293689, -0.0051477, 0.00383369, -0.000790796, -0.0115557, -0.00816361, -0.000848258, 0.101085, -0.0483537, -0.0218805, -0.0635767, 0.126047, -0.000753402, 0.469233, -0.53654, 0.339387, -2.07883, -2.16937, -0.124828, 0.473295, -0.54157, 0.339249, -2.08824, -2.17937, -0.129498, -0.0328524, 0.131335, 0.0665543, 0.0185584, 0.0370457, 0.0278047
0.157152, 1.69427, -1.22155, -1.53691, -0.901704, -1.19221, 1.23819, -1.30266, -0.0414773, 0.0419486, 0.0446987, -0.134255, 0.0154813, 0.000181606, 0.00102033, -1.82915, 58.5861, 28.1986, 5.46234, 1.81659, 2.41397, 0.0101428, -0.00525022, 0.00387514, -0.000775136, -0.0116211, -0.00817345, -0.000878744, 0.104747, -0.0449398, -0.0209792, -0.0619401, 0.127229, -0.00658456, 0.4692, -0.536409, 0.339453, -2.07873, -2.16943, -0.124733, 0.473308, -0.541536, 0.339283, -2.08815, -2.1795, -0.129469, -0.0331882, 0.132814, 0.0672918, 0.0150004, 0.0346212, 0.0289819
0.158152, 1.69422, -1.2215, -1.53686, -0.901861, -1.19219, 1.23819, -1.30267, -0.0443118, 0.0466725, 0.0459702, -0.139489, 0.0203643, 0.00140992, -0.00148992, -2.01562, 58.6258, 28.3454, 5.50201, 1.8349, 2.37826, 0.0687366, -0.00534886, 0.00392223, -0.000757655, -0.011677, -0.00818854, -0.000932437, 0.104472, -0.045703, -0.0187234, -0.0597319, 0.129829, -0.00127492, 0.469167, -0.536276, 0.33952, -2.07864, -2.1695, -0.124636, 0.473325, -0.541495, 0.339316, -2.08803, -2.17965, -0.129426, -0.033524, 0.134297, 0.0680307, 0.0155111, 0.0360699, 0.0319656
0.159152, 1.69417, -1.22144, -1.5368, -0.902031, -1.19216, 1.23819, -1.30266, -0.0491837, 0.0490053, 0.0487256, -0.147249, 0.0245907, 0.00196592, 0.000939501, -2.091, 58.5861, 28.4208, 5.57739, 1.84772, 2.34988, 0.0165515, -0.00544711, 0.00396876, -0.000743397, -0.0117387, -0.00820467, -0.000979752, 0.104338, -0.0459985, -0.0176551, -0.0581885, 0.130294, -0.000176589, 0.469133, -0.536142, 0.339588, -2.07854, -2.16956, -0.124539, 0.473342, -0.541453, 0.339354, -2.08792, -2.1798, -0.129386, -0.0338597, 0.135784, 0.0687709, 0.0155135, 0.0375427, 0.0337718
0.160152, 1.6941, -1.22138, -1.53674, -0.902199, -1.19213, 1.2382, -1.30266, -0.0553315, 0.0504994, 0.0575011, -0.15118, 0.0224404, 0.00288542, 0.00506936, -2.16637, 58.5504, 28.3454, 5.57739, 1.87244, 2.30685, 0.0229602, -0.00554766, 0.00401333, -0.000734612, -0.0118141, -0.00822008, -0.00102759, 0.106031, -0.0451282, -0.0142989, -0.0520868, 0.134575, -0.00461243, 0.469099, -0.536006, 0.339657, -2.07844, -2.16963, -0.124441, 0.473357, -0.541413, 0.339397, -2.08782, -2.17996, -0.129362, -0.0341954, 0.137273, 0.0695125, 0.0145161, 0.0368136, 0.0375966
0.161152, 1.69404, -1.22134, -1.53667, -0.90237, -1.19211, 1.2382, -1.30266, -0.0567486, 0.0518013, 0.0610618, -0.160607, 0.0266046, 0.00326578, 0.00207418, -2.39648, 58.6258, 28.3851, 5.57739, 1.86603, 2.27023, 0.0687366, -0.0056466, 0.00406228, -0.000717904, -0.0118848, -0.00822264, -0.00109039, 0.103792, -0.0478598, -0.0139725, -0.051437, 0.134202, 0.00716407, 0.469065, -0.535869, 0.339727, -2.07834, -2.1697, -0.124341, 0.473375, -0.541368, 0.339433, -2.08769, -2.18012, -0.129346, -0.0345309, 0.138766, 0.0702554, 0.0168381, 0.0405952, 0.0389152
0.162152, 1.69397, -1.22129, -1.5366, -0.902555, -1.19207, 1.2382, -1.30266, -0.063351, 0.0527607, 0.0608776, -0.164991, 0.0282074, 0.00294645, 0.00360809, -2.50756, 58.6972, 28.4208, 5.6131, 1.89624, 2.24917, 0.0165515, -0.00574938, 0.00410644, -0.000700217, -0.0119559, -0.00822392, -0.00114054, 0.106625, -0.0454831, -0.0142821, -0.0527028, 0.13488, 0.00222, 0.469031, -0.53573, 0.339797, -2.07824, -2.16977, -0.124241, 0.473388, -0.541326, 0.339468, -2.08758, -2.18027, -0.129329, -0.0348663, 0.140262, 0.0709994, 0.0142372, 0.0392359, 0.0389975
0.163152, 1.69389, -1.22124, -1.53653, -0.902742, -1.19204, 1.2382, -1.30266, -0.0648008, 0.0483883, 0.0637882, -0.170893, 0.0312658, 0.00277014, 0.00140408, -2.65832, 58.7329, 28.4565, 5.6131, 1.88434, 2.2272, 0.0495105, -0.00585195, 0.00415145, -0.000685606, -0.0120341, -0.00822424, -0.00120247, 0.106309, -0.0471791, -0.017077, -0.0524006, 0.129221, 0.00949079, 0.468996, -0.53559, 0.339868, -2.07814, -2.16984, -0.12414, 0.473402, -0.541282, 0.339508, -2.08745, -2.18044, -0.129321, -0.0352016, 0.141761, 0.0717447, 0.0154776, 0.0415526, 0.0369748
0.164152, 1.69381, -1.22118, -1.53646, -0.902943, -1.192, 1.23819, -1.30266, -0.0681979, 0.0497767, 0.068019, -0.180213, 0.0370084, 0.00207814, 0.00184659, -2.84875, 58.6972, 28.5319, 5.68848, 1.90265, 2.22079, 0.0293689, -0.00595005, 0.00419858, -0.000671934, -0.0121022, -0.00822674, -0.00127144, 0.104419, -0.0488668, -0.0164472, -0.0509997, 0.126992, 0.0166222, 0.468961, -0.535448, 0.33994, -2.07804, -2.16991, -0.124037, 0.473418, -0.541233, 0.339549, -2.08731, -2.18061, -0.1293, -0.0355366, 0.143262, 0.0724911, 0.0167835, 0.0449052, 0.038577
0.165152, 1.69373, -1.22114, -1.53638, -0.903142, -1.19195, 1.23819, -1.30266, -0.0686799, 0.0481017, 0.0749566, -0.184232, 0.0363925, 0.00219474, 0.00254126, -2.9995, 58.7726, 28.4565, 5.6488, 1.92737, 2.19882, -0.00267457, -0.00605273, 0.00424459, -0.000656518, -0.0121903, -0.00821584, -0.00133514, 0.103884, -0.0509659, -0.0159786, -0.0476502, 0.126778, 0.0209702, 0.468925, -0.535305, 0.340012, -2.07793, -2.16998, -0.123934, 0.473433, -0.541186, 0.339589, -2.08718, -2.18078, -0.129313, -0.0358715, 0.144767, 0.0732387, 0.0185482, 0.0469666, 0.0397989
0.166152, 1.69364, -1.22109, -1.5363, -0.90335, -1.19191, 1.23819, -1.30266, -0.0777909, 0.0457459, 0.0762101, -0.194777, 0.0362818, 0.0014598, -0.000383409, -3.15026, 58.7726, 28.5319, 5.6488, 1.94568, 2.19882, 0.0559192, -0.00615611, 0.00428896, -0.000641477, -0.0122688, -0.00821042, -0.00140658, 0.106327, -0.04861, -0.0184952, -0.0516583, 0.125761, 0.0235685, 0.468889, -0.53516, 0.340086, -2.07783, -2.17005, -0.123829, 0.473445, -0.541138, 0.33963, -2.08704, -2.18095, -0.129309, -0.0362061, 0.146274, 0.0739872, 0.0158654, 0.0463392, 0.0377659
0.167152, 1.69354, -1.22104, -1.5362, -0.903569, -1.19186, 1.23819, -1.30266, -0.0844838, 0.0480197, 0.0833596, -0.202203, 0.0410037, -0.00325051, 0.00127187, -3.30102, 58.7329, 28.4961, 5.6488, 1.96399, 2.18417, 0.0165515, -0.00625751, 0.00433561, -0.000630879, -0.0123632, -0.00820269, -0.00148228, 0.105564, -0.0476581, -0.0162399, -0.0502079, 0.122836, 0.0256173, 0.468853, -0.535014, 0.34016, -2.07772, -2.17012, -0.123723, 0.47346, -0.541088, 0.339676, -2.0869, -2.18114, -0.129325, -0.0365405, 0.147784, 0.0747369, 0.0146475, 0.04822, 0.040892
0.168152, 1.69343, -1.22099, -1.53611, -0.9038, -1.19181, 1.23819, -1.30265, -0.0882045, 0.0455349, 0.0876429, -0.214959, 0.0394935, -0.00100609, 0.0013747, -3.3764, 58.7329, 28.4961, 5.72418, 1.98871, 2.14206, 0.00373412, -0.00636137, 0.00438005, -0.000616438, -0.0124543, -0.00819156, -0.00155735, 0.104909, -0.0497391, -0.0180574, -0.0514812, 0.124448, 0.0334439, 0.468816, -0.534866, 0.340234, -2.07762, -2.17019, -0.123617, 0.473471, -0.541038, 0.339719, -2.08675, -2.18132, -0.12934, -0.0368746, 0.149297, 0.0754875, 0.016298, 0.0507544, 0.0398779
0.169152, 1.69333, -1.22094, -1.53601, -0.904032, -1.19176, 1.23819, -1.30265, -0.0967057, 0.0458166, 0.0898581, -0.218309, 0.0433988, -0.000427341, 0.00446569, -3.45177, 58.7726, 28.5319, 5.6131, 2.00702, 2.12741, 0.0357776, -0.00646482, 0.00442539, -0.000601449, -0.0125467, -0.00817368, -0.00163856, 0.10811, -0.046907, -0.0175926, -0.0480756, 0.122723, 0.026089, 0.46878, -0.534717, 0.34031, -2.07751, -2.17026, -0.123509, 0.473484, -0.540986, 0.339762, -2.0866, -2.1815, -0.129362, -0.0372084, 0.150812, 0.076239, 0.0132921, 0.0489119, 0.0406929
0.170152, 1.69322, -1.22089, -1.53591, -0.904285, -1.1917, 1.23818, -1.30265, -0.100481, 0.0501509, 0.0916439, -0.227392, 0.0459131, 3.3277e-05, 0.0028892, -3.60253, 58.7726, 28.5715, 5.6488, 2.03174, 2.11276, 0.0495105, -0.00656282, 0.0044758, -0.000584306, -0.012633, -0.00815533, -0.00173912, 0.107455, -0.0476811, -0.0159535, -0.0489259, 0.126802, 0.0323568, 0.468742, -0.534566, 0.340386, -2.0774, -2.17034, -0.123401, 0.473501, -0.540927, 0.339805, -2.08641, -2.18171, -0.129379, -0.0375418, 0.15233, 0.0769914, 0.0137783, 0.0508671, 0.0431385
0.171152, 1.6931, -1.22084, -1.5358, -0.904543, -1.19165, 1.23818, -1.30265, -0.105275, 0.0534168, 0.0972082, -0.234265, 0.0478028, -0.00363049, 0.00417444, -3.60253, 58.7726, 28.5715, 5.68848, 2.06195, 2.07705, -0.00267457, -0.00666587, 0.00452142, -0.000569966, -0.0127287, -0.00813871, -0.00182719, 0.106921, -0.0472424, -0.0136072, -0.0492213, 0.127827, 0.0344457, 0.468705, -0.534414, 0.340463, -2.07729, -2.17041, -0.123291, 0.473513, -0.540872, 0.33985, -2.08625, -2.18191, -0.129403, -0.0378749, 0.15385, 0.0777447, 0.013088, 0.0525412, 0.0463056
0.172152, 1.69298, -1.2208, -1.5357, -0.904795, -1.19159, 1.23818, -1.30265, -0.111957, 0.0509892, 0.0985318, -0.240939, 0.049437, -0.00162467, 0.000849465, -3.67791, 58.844, 28.6826, 5.53772, 2.08118, 2.04135, 0.0559192, -0.00677031, 0.00456889, -0.000552806, -0.012826, -0.00811553, -0.00192634, 0.109375, -0.046081, -0.0154757, -0.048506, 0.126408, 0.0370699, 0.468667, -0.53426, 0.340541, -2.07718, -2.17049, -0.12318, 0.473527, -0.540816, 0.339893, -2.08607, -2.18211, -0.129435, -0.0382076, 0.155372, 0.0784988, 0.0116274, 0.0518736, 0.0448776
0.173152, 1.69286, -1.22075, -1.53558, -0.905061, -1.19152, 1.23818, -1.30265, -0.119036, 0.0495992, 0.104736, -0.249338, 0.0558308, -0.000935657, 0.000981152, -3.79296, 58.7726, 28.7183, 5.50201, 2.09949, 2.0267, 0.0495105, -0.00687094, 0.00461681, -0.000540015, -0.0129255, -0.00809018, -0.00202615, 0.109286, -0.0462011, -0.0153327, -0.0431191, 0.121293, 0.0412746, 0.468629, -0.534104, 0.340619, -2.07707, -2.17056, -0.123068, 0.473541, -0.540755, 0.339942, -2.0859, -2.18232, -0.129471, -0.0385399, 0.156897, 0.0792537, 0.0114247, 0.0534742, 0.0457836
0.174152, 1.69272, -1.2207, -1.53546, -0.905338, -1.19146, 1.23817, -1.30264, -0.127199, 0.0466178, 0.111435, -0.256851, 0.0549146, -0.000411455, 0.00322862, -3.79296, 58.7726, 28.7937, 5.38696, 2.13611, 2.01297, -0.0164075, -0.00697352, 0.00466318, -0.00052671, -0.0130315, -0.00806131, -0.00212401, 0.111427, -0.0447799, -0.0157802, -0.0403759, 0.120359, 0.03934, 0.46859, -0.533947, 0.340699, -2.07696, -2.17064, -0.122956, 0.473553, -0.540695, 0.339991, -2.08572, -2.18252, -0.129516, -0.0388718, 0.158424, 0.0800094, 0.00975115, 0.0528922, 0.0458177
0.175152, 1.69258, -1.22066, -1.53533, -0.905633, -1.19139, 1.23817, -1.30264, -0.129654, 0.0468052, 0.123882, -0.267066, 0.0600598, 4.60032e-05, 4.82e-05, -3.79296, 58.8083, 28.7937, 5.35126, 2.14252, 1.99832, 0.0431018, -0.00707061, 0.00471485, -0.000514233, -0.0131446, -0.00802768, -0.00225262, 0.107492, -0.0487671, -0.0129802, -0.031756, 0.117665, 0.0555785, 0.468551, -0.533789, 0.340779, -2.07684, -2.17071, -0.122842, 0.473569, -0.540627, 0.340042, -2.08551, -2.18276, -0.129577, -0.0392032, 0.159952, 0.0807657, 0.0133612, 0.0580713, 0.0498065
0.176152, 1.69243, -1.22061, -1.53519, -0.905929, -1.19132, 1.23817, -1.30264, -0.140376, 0.0460989, 0.126408, -0.275707, 0.0672632, 0.000915155, 0.0020737, -3.67791, 58.8837, 28.9802, 5.2005, 2.18555, 1.96994, -0.00999879, -0.00717895, 0.00475619, -0.000498495, -0.0132567, -0.00799241, -0.00235003, 0.109521, -0.0463605, -0.0135858, -0.0285614, 0.112805, 0.0529923, 0.468512, -0.533629, 0.340859, -2.07673, -2.17079, -0.122727, 0.473576, -0.54057, 0.340089, -2.08533, -2.18297, -0.129633, -0.0395341, 0.161483, 0.0815227, 0.0106942, 0.0575822, 0.0497367
0.177152, 1.69227, -1.22056, -1.53504, -0.906237, -1.19124, 1.23816, -1.30264, -0.146442, 0.0483486, 0.133681, -0.281242, 0.0683048, 0.0012989, 0.00116735, -3.6422, 58.844, 28.9405, 5.12909, 2.22217, 1.94797, -0.00267457, -0.00727749, 0.00480544, -0.000493591, -0.0133828, -0.00796135, -0.00247966, 0.110283, -0.0458502, -0.0106019, -0.0235093, 0.115305, 0.0554008, 0.468473, -0.533468, 0.340941, -2.07661, -2.17087, -0.122611, 0.47359, -0.540502, 0.340149, -2.08513, -2.18322, -0.129704, -0.0398646, 0.163016, 0.0822803, 0.0100162, 0.0578902, 0.0533421
0.178152, 1.69211, -1.22051, -1.53489, -0.906553, -1.19117, 1.23816, -1.30264, -0.149056, 0.0488518, 0.139689, -0.288476, 0.0680418, -0.0031449, -0.000875067, -3.6422, 58.844, 29.0159, 5.05371, 2.28351, 1.92691, 0.0431018, -0.00737856, 0.00485468, -0.000485044, -0.0135086, -0.00792996, -0.00261132, 0.109201, -0.0464517, -0.00994188, -0.0258324, 0.115082, 0.0628282, 0.468433, -0.533304, 0.341023, -2.07649, -2.17095, -0.122494, 0.473604, -0.540435, 0.340205, -2.08492, -2.18347, -0.129773, -0.0401944, 0.164551, 0.0830385, 0.0102777, 0.0604248, 0.0548974
0.179152, 1.69194, -1.22047, -1.53473, -0.906879, -1.19109, 1.23815, -1.30263, -0.157503, 0.0457262, 0.143085, -0.305089, 0.0694673, -0.00697297, 0.00611373, -3.52715, 58.9908, 29.1269, 5.05371, 2.31372, 1.91958, -0.00999879, -0.00748339, 0.00489784, -0.000472805, -0.0136356, -0.00788331, -0.00272793, 0.108556, -0.0458047, -0.013303, -0.0329488, 0.110918, 0.0630356, 0.468392, -0.53314, 0.341106, -2.07637, -2.17103, -0.122376, 0.473611, -0.540369, 0.340258, -2.08472, -2.18369, -0.129857, -0.0405238, 0.166087, 0.0837972, 0.00914572, 0.0630808, 0.0524579
0.180152, 1.69176, -1.22043, -1.53455, -0.907226, -1.19101, 1.23815, -1.30263, -0.163174, 0.0460716, 0.150984, -0.318318, 0.0698274, -0.0048429, 0.00279566, -3.52715, 59.0305, 29.1666, 5.12909, 2.35126, 1.90494, 0.0357776, -0.00758046, 0.00494822, -0.000466503, -0.0137711, -0.00784239, -0.00288179, 0.107218, -0.0476241, -0.0121392, -0.0300231, 0.11362, 0.075087, 0.468352, -0.532974, 0.34119, -2.07626, -2.17111, -0.122257, 0.473625, -0.540295, 0.340319, -2.08448, -2.18397, -0.129947, -0.0408525, 0.167625, 0.0845564, 0.0106339, 0.0658536, 0.0545087
0.181152, 1.69157, -1.22038, -1.53438, -0.907576, -1.19093, 1.23815, -1.30263, -0.169943, 0.046662, 0.155879, -0.327054, 0.0792832, -0.00792824, 0.00190395, -3.45177, 59.0662, 29.238, 5.12909, 2.38147, 1.89029, 0.0431018, -0.00768477, 0.00499149, -0.000458212, -0.0139078, -0.00779759, -0.00302037, 0.105979, -0.0473615, -0.0117034, -0.0277041, 0.106282, 0.081283, 0.468311, -0.532806, 0.341275, -2.07613, -2.17119, -0.122137, 0.473632, -0.540227, 0.340378, -2.08426, -2.18423, -0.130041, -0.0411807, 0.169165, 0.0853161, 0.0100184, 0.0685423, 0.0558974
0.182152, 1.69137, -1.22034, -1.5342, -0.907933, -1.19085, 1.23814, -1.30262, -0.178837, 0.0478661, 0.161289, -0.335713, 0.076868, -0.010784, 0.00806338, -3.45177, 59.0662, 29.3531, 5.08942, 2.43091, 1.89029, -0.00999879, -0.00778725, 0.00503598, -0.000452811, -0.0140411, -0.00775784, -0.00315237, 0.107917, -0.0446739, -0.0105882, -0.0298282, 0.109264, 0.0745329, 0.46827, -0.532637, 0.34136, -2.07601, -2.17127, -0.122016, 0.47364, -0.540155, 0.340441, -2.08405, -2.18448, -0.130123, -0.0415082, 0.170706, 0.0860762, 0.00714308, 0.0678782, 0.0575555
0.183152, 1.69117, -1.2203, -1.53401, -0.908312, -1.19076, 1.23813, -1.30262, -0.184909, 0.0460322, 0.172806, -0.348918, 0.0758446, -0.0132587, 0.00447553, -3.4121, 59.1772, 29.3134, 5.2005, 2.46753, 1.89761, 0.0293689, -0.00788681, 0.0050822, -0.000442529, -0.0141773, -0.0077033, -0.00331492, 0.106018, -0.0459306, -0.00979238, -0.0284817, 0.108459, 0.0877505, 0.468228, -0.532466, 0.341446, -2.07589, -2.17135, -0.121894, 0.473649, -0.540078, 0.3405, -2.0838, -2.18475, -0.130226, -0.0418351, 0.172249, 0.0868367, 0.00803311, 0.0712397, 0.0593491
0.184152, 1.69096, -1.22026, -1.53383, -0.908694, -1.19067, 1.23812, -1.30262, -0.19277, 0.0447766, 0.176517, -0.356938, 0.0799382, -0.0154909, 0.00363955, -3.33672, 59.2883, 29.4642, 5.24017, 2.49225, 1.91958, 0.0229602, -0.00798902, 0.00512606, -0.000429307, -0.0143109, -0.00764229, -0.0034674, 0.10706, -0.0442739, -0.0106254, -0.0285854, 0.104094, 0.0898549, 0.468187, -0.532294, 0.341533, -2.07577, -2.17143, -0.121771, 0.473656, -0.540003, 0.340556, -2.08355, -2.18502, -0.13033, -0.0421613, 0.173793, 0.0875976, 0.00607045, 0.0718067, 0.0591856
0.185152, 1.69075, -1.22021, -1.53363, -0.909091, -1.19059, 1.2381, -1.30261, -0.199825, 0.0459013, 0.182934, -0.367159, 0.0823226, -0.0167307, 0.00419831, -3.26134, 59.324, 29.611, 5.24017, 2.54169, 1.93332, -0.0164075, -0.00808864, 0.00517112, -0.000421259, -0.0144438, -0.00759131, -0.00362588, 0.106722, -0.043966, -0.00935171, -0.027241, 0.10405, 0.0939811, 0.468144, -0.53212, 0.34162, -2.07564, -2.17152, -0.121646, 0.473663, -0.539923, 0.340619, -2.0833, -2.18529, -0.130423, -0.0424869, 0.175339, 0.0883587, 0.00548523, 0.0734822, 0.0612672
0.186152, 1.69053, -1.22018, -1.53342, -0.909494, -1.19049, 1.23809, -1.30261, -0.205573, 0.0415751, 0.193489, -0.386435, 0.0900416, -0.013564, 0.00698527, -3.18597, 59.4351, 29.6506, 5.24017, 2.55359, 1.96261, 0.00373412, -0.00818671, 0.00521784, -0.000413887, -0.0145969, -0.00752241, -0.003803, 0.102158, -0.0486455, -0.0106928, -0.0208625, 0.0969535, 0.108962, 0.468102, -0.531945, 0.341709, -2.07552, -2.1716, -0.121521, 0.473672, -0.539841, 0.340683, -2.08303, -2.18559, -0.130558, -0.0428117, 0.176886, 0.0891202, 0.00959263, 0.0799662, 0.0612388
0.187152, 1.6903, -1.22013, -1.53319, -0.909909, -1.1904, 1.23807, -1.30261, -0.211169, 0.0417797, 0.202942, -0.392397, 0.0902003, -0.0110877, 0.00329204, -3.18597, 59.3994, 29.722, 5.2005, 2.59021, 1.991, 0.0559192, -0.00828037, 0.00526795, -0.000413636, -0.0147489, -0.00746733, -0.00399077, 0.102714, -0.0491632, -0.00799627, -0.0129403, 0.0991972, 0.115789, 0.468059, -0.531768, 0.341798, -2.07539, -2.17169, -0.121395, 0.473684, -0.539753, 0.340756, -2.08275, -2.1859, -0.130677, -0.0431357, 0.178434, 0.0898818, 0.00993004, 0.0805878, 0.0645603
0.188152, 1.69007, -1.2201, -1.53296, -0.910337, -1.1903, 1.23805, -1.3026, -0.216857, 0.0377727, 0.210548, -0.402986, 0.090883, -0.0133454, 0.00972233, -3.07488, 59.5462, 29.7974, 5.12909, 2.60303, 2.00564, -0.00999879, -0.00837547, 0.00531569, -0.000406852, -0.0149049, -0.00739162, -0.00417098, 0.102142, -0.0496304, -0.00949094, -0.012966, 0.094922, 0.115808, 0.468016, -0.53159, 0.341888, -2.07526, -2.17177, -0.121268, 0.473693, -0.539665, 0.340823, -2.08247, -2.18619, -0.13082, -0.043459, 0.179984, 0.0906437, 0.00999483, 0.0829548, 0.0639166
