alisrour97/Franka_experiments/Real_Robot_scripts/servo-franka/Data/log_dyn_PI0_12.csv
Time,q1,q2,q3,q4,q5,q6,q7,dq1,dq2,dq3,dq4,dq5,dq6,dq7,t1,t2,t3,t4,t5,t6,t7,ex1,ex2,ex3,ex4,ex5,ex6,ev1,ev2,ev3,ev4,ev5,ev6,xd,yd,zd,uxd,uyd,uzd,x,y,z,ux,uy,uz,vxd,vyd,vzd,vx,vy,vz
4.88281e-07, 1.69153, -1.22521, -1.53763, -0.900014, -1.19191, 1.22859, -1.30267, -0.00637723, -0.00524662, -0.0114628, 0.00348579, 4.7173e-05, -0.000111063, 0.00105727, -0.960319, 57.5546, 27.417, 6.43433, 2.00702, 2.95871, -0.147328, 0.00108837, -0.00142504, -0.000260558, -0.000145421, -0.000919007, -0.00031923, 0.00687391, 0.0062497, -0.00637756, -0.00794983, -0.00498672, -0.0159416, 0.471008, -0.543389, 0.335894, -2.08385, -2.16584, -0.129887, 0.469567, -0.542403, 0.336374, -2.08405, -2.16679, -0.129167, -4.06186e-05, 0.000124715, 6.6488e-05, -0.00626667, -0.00593551, -0.00710935
0.0122556, 1.6915, -1.22525, -1.53772, -0.900006, -1.19191, 1.22859, -1.30266, -0.00119165, -0.00456452, -0.0086564, -0.000615513, -0.000184576, 6.47642e-05, 0.000937787, -0.845268, 57.6657, 27.5281, 6.5097, 2.02533, 2.95871, -0.153737, 0.00104812, -0.00146113, -0.000208004, -7.48544e-05, -0.000880871, -0.000231296, 0.00286901, 0.00191511, -0.00584234, -0.00819396, -0.0036283, -0.00593144, 0.471008, -0.543389, 0.335894, -2.08385, -2.16584, -0.129887, 0.469519, -0.542446, 0.336306, -2.0841, -2.16661, -0.1291, -6.68636e-05, 0.000218577, 0.000115026, -0.0020878, -0.00179293, -0.00604139
0.0132556, 1.6915, -1.22525, -1.53772, -0.900006, -1.19191, 1.22859, -1.30266, -0.00119165, -0.00456452, -0.0086564, -0.000615513, -0.000184576, 6.47642e-05, 0.000937787, -0.845268, 57.6657, 27.5281, 6.5097, 2.02533, 2.95871, -0.153737, 0.00104809, -0.00146113, -0.000207996, -7.48653e-05, -0.000880865, -0.000231284, 0.00297987, 0.00188903, -0.00587799, -0.00824124, -0.00355583, -0.00602104, 0.471008, -0.543389, 0.335894, -2.08385, -2.16584, -0.129887, 0.469519, -0.542446, 0.336306, -2.0841, -2.16661, -0.1291, -9.5592e-05, 0.000321476, 0.000168224, -0.0020878, -0.00179293, -0.00604139
0.0142556, 1.6915, -1.22525, -1.53772, -0.900006, -1.19191, 1.22859, -1.30266, -0.00119165, -0.00456452, -0.0086564, -0.000615513, -0.000184576, 6.47642e-05, 0.000937787, -0.845268, 57.6657, 27.5281, 6.5097, 2.02533, 2.95871, -0.153737, 0.00104803, -0.00146111, -0.000207976, -7.48948e-05, -0.000880851, -0.000231251, 0.00310085, 0.00186061, -0.00591688, -0.00829275, -0.00347679, -0.00611873, 0.471008, -0.543389, 0.335894, -2.08385, -2.16584, -0.129887, 0.469519, -0.542446, 0.336306, -2.0841, -2.16661, -0.1291, -0.000126895, 0.000433757, 0.000226255, -0.0020878, -0.00179293, -0.00604139
0.0152556, 1.6915, -1.22525, -1.53772, -0.900006, -1.19191, 1.22859, -1.30266, -0.00119165, -0.00456452, -0.0086564, -0.000615513, -0.000184576, 6.47642e-05, 0.000937787, -0.845268, 57.6657, 27.5281, 6.5097, 2.02533, 2.95871, -0.153737, 0.00104791, -0.00146108, -0.000207938, -7.49522e-05, -0.000880823, -0.000231186, 0.00323229, 0.00182978, -0.00595912, -0.00834862, -0.00339095, -0.00622479, 0.471008, -0.543389, 0.335894, -2.08385, -2.16584, -0.129887, 0.469519, -0.542446, 0.336306, -2.0841, -2.16661, -0.1291, -0.000160861, 0.000555757, 0.000289294, -0.0020878, -0.00179293, -0.00604139
0.0162556, 1.6915, -1.22525, -1.53772, -0.900006, -1.19191, 1.22859, -1.30266, -0.00119165, -0.00456452, -0.0086564, -0.000615513, -0.000184576, 6.47642e-05, 0.000937787, -0.845268, 57.6657, 27.5281, 6.5097, 2.02533, 2.95871, -0.153737, 0.00104771, -0.00146104, -0.000207874, -7.50466e-05, -0.000880777, -0.000231081, 0.00337455, 0.00179645, -0.00600483, -0.00840901, -0.00329807, -0.0063395, 0.471008, -0.543389, 0.335894, -2.08385, -2.16584, -0.129886, 0.469519, -0.542446, 0.336306, -2.0841, -2.16661, -0.1291, -0.000197581, 0.000687809, 0.000357511, -0.0020878, -0.00179293, -0.00604139
0.0172559, 1.6915, -1.22525, -1.53772, -0.900006, -1.19191, 1.22859, -1.30266, -0.00119165, -0.00456452, -0.0086564, -0.000615513, -0.000184576, 6.47642e-05, 0.000937787, -0.845268, 57.6657, 27.5281, 6.5097, 2.02533, 2.95871, -0.153737, 0.00104742, -0.00146097, -0.000207779, -7.51871e-05, -0.000880708, -0.000230924, 0.003528, 0.00176055, -0.00605412, -0.00847405, -0.00319792, -0.00646315, 0.471008, -0.543389, 0.335894, -2.08385, -2.16584, -0.129886, 0.469519, -0.542446, 0.336306, -2.0841, -2.16661, -0.1291, -0.000237139, 0.000830243, 0.000431075, -0.0020878, -0.00179293, -0.00604139
0.0182559, 1.6915, -1.22525, -1.53772, -0.900006, -1.19191, 1.22859, -1.30266, -0.00119165, -0.00456452, -0.0086564, -0.000615513, -0.000184576, 6.47642e-05, 0.000937787, -0.845268, 57.6657, 27.5281, 6.5097, 2.02533, 2.95871, -0.153737, 0.00104701, -0.00146087, -0.000207648, -7.53827e-05, -0.000880613, -0.000230706, 0.00369297, 0.00172201, -0.0061071, -0.00854388, -0.00309029, -0.006596, 0.471008, -0.543388, 0.335894, -2.08385, -2.16584, -0.129886, 0.469519, -0.542446, 0.336306, -2.0841, -2.16661, -0.1291, -0.000279621, 0.000983381, 0.00051015, -0.0020878, -0.00179293, -0.00604139
0.0192559, 1.6915, -1.22525, -1.53772, -0.900006, -1.19191, 1.22859, -1.30266, -0.00119165, -0.00456452, -0.0086564, -0.000615513, -0.000184576, 6.47642e-05, 0.000937787, -0.845268, 57.6657, 27.5281, 6.5097, 2.02533, 2.95871, -0.153737, 0.00104647, -0.00146074, -0.000207473, -7.56423e-05, -0.000880487, -0.000230417, 0.00386982, 0.00168074, -0.00616387, -0.00861864, -0.00297495, -0.00673833, 0.471008, -0.543388, 0.335895, -2.08385, -2.16584, -0.129886, 0.469519, -0.542446, 0.336306, -2.0841, -2.16661, -0.1291, -0.00032511, 0.00114754, 0.000594898, -0.0020878, -0.00179293, -0.00604139
0.0202559, 1.6915, -1.22525, -1.53772, -0.900006, -1.19191, 1.22859, -1.30266, -0.00119165, -0.00456452, -0.0086564, -0.000615513, -0.000184576, 6.47642e-05, 0.000937787, -0.845268, 57.6657, 27.5281, 6.5097, 2.02533, 2.95871, -0.153737, 0.00104577, -0.00146058, -0.000207249, -7.59749e-05, -0.000880325, -0.000230046, 0.00405886, 0.00163667, -0.00622455, -0.00869846, -0.00285169, -0.00689038, 0.471007, -0.543387, 0.335895, -2.08384, -2.16584, -0.129885, 0.469519, -0.542446, 0.336306, -2.0841, -2.16661, -0.1291, -0.000373687, 0.00132303, 0.000685479, -0.0020878, -0.00179293, -0.00604139
0.0212559, 1.69148, -1.22528, -1.53781, -0.899997, -1.19191, 1.22859, -1.30267, -0.00284625, -0.00148234, -0.009381, -0.000772779, -0.000257456, -0.000129188, 0.000401966, -0.619133, 57.7768, 27.6392, 6.39465, 2.01343, 2.96603, -0.127186, 0.00101246, -0.00148783, -0.000163284, -1.00721e-05, -0.00085795, -0.000163764, 0.00479918, 0.00271016, -0.00468845, -0.00918161, 0.000325256, -0.00843982, 0.471007, -0.543386, 0.335895, -2.08384, -2.16584, -0.129884, 0.469491, -0.542473, 0.336259, -2.08412, -2.1665, -0.129042, -0.000425431, 0.00151016, 0.000782046, -0.00312972, -0.00261703, -0.00451058
0.0222559, 1.69148, -1.22528, -1.53781, -0.899995, -1.19191, 1.22859, -1.30267, -0.000964823, -0.00110662, -0.00610975, 0.000322343, 0.000303084, -0.000357521, -0.000918818, -0.658806, 57.7768, 27.6035, 6.35895, 2.00061, 2.97336, -0.0951428, 0.00101114, -0.00148719, -0.000159757, -7.54911e-06, -0.00085324, -0.000166105, 0.00364944, 0.00126059, -0.00334438, -0.00609001, 1.6183e-05, -0.0046336, 0.471007, -0.543385, 0.335896, -2.08384, -2.16584, -0.129884, 0.469491, -0.542473, 0.336255, -2.08412, -2.1665, -0.129043, -0.000480419, 0.00170921, 0.00088475, -0.00172961, -0.00143047, -0.00294595
0.0232559, 1.69147, -1.22528, -1.53781, -0.899997, -1.19191, 1.22859, -1.30266, -0.00240296, -0.0037089, -0.0081743, 0.000216628, -0.00378002, -0.000509711, 0.00057425, -0.583427, 57.63, 27.4885, 6.35895, 1.9823, 2.98068, -0.127186, 0.0010051, -0.001492, -0.0001556, -1.1478e-06, -0.000852861, -0.000149577, 0.00595622, 0.0027936, -0.00562848, -0.0100671, 0.000939048, -0.00995784, 0.471007, -0.543384, 0.335896, -2.08384, -2.16585, -0.129883, 0.469486, -0.542477, 0.336251, -2.08413, -2.16648, -0.129034, -0.000538724, 0.00192048, 0.000993739, -0.0033189, -0.0032077, -0.00540415
0.0242559, 1.69147, -1.22528, -1.53784, -0.9, -1.19191, 1.22859, -1.30267, -0.00159935, -0.004558, -0.0104558, 0.000145719, -0.00441241, -0.00111977, -0.000803962, -0.583427, 57.2968, 27.5281, 6.35895, 1.89624, 3.00174, -0.0951428, 0.0010014, -0.00149358, -0.000145542, 2.27132e-05, -0.000852024, -0.000146021, 0.00643828, 0.00283903, -0.00711869, -0.0132162, 0.000644021, -0.0092147, 0.471006, -0.543383, 0.335897, -2.08384, -2.16585, -0.129882, 0.469484, -0.542478, 0.336241, -2.08412, -2.16647, -0.129007, -0.000600418, 0.00214425, 0.00110915, -0.00346253, -0.00323234, -0.00683364
0.0252559, 1.69148, -1.22529, -1.53785, -0.9, -1.19192, 1.22859, -1.30267, -0.000229052, -0.0044316, -0.0106175, -0.00127013, -0.000673789, 0.00261138, -0.00297738, -0.619133, 57.0389, 27.3774, 6.28357, 1.81659, 3.03744, -0.0292249, 0.000998037, -0.00149317, -0.000137404, 3.33519e-05, -0.000848029, -0.000146797, 0.0053342, 0.000622436, -0.00712437, -0.00935701, -0.000104129, -0.00347703, 0.471006, -0.543381, 0.335898, -2.08384, -2.16585, -0.129881, 0.469484, -0.542478, 0.336234, -2.08411, -2.16647, -0.128998, -0.00066557, 0.00238079, 0.00123113, -0.00135363, -0.00181425, -0.00661272
0.0262559, 1.69148, -1.22531, -1.53785, -0.900001, -1.19192, 1.22859, -1.30267, 0.00219027, -0.00890939, -0.00710415, -0.000271762, 0.00154837, 0.00494633, -0.002697, -0.583427, 56.9675, 27.1909, 6.24786, 1.74884, 3.0878, -0.00999879, 0.000992387, -0.0014936, -0.000126336, 4.10294e-05, -0.000840274, -0.000139817, 0.00432187, -0.00194962, -0.00837749, -0.0036073, -0.00529786, 6.04083e-05, 0.471005, -0.543379, 0.335899, -2.08384, -2.16585, -0.129879, 0.469483, -0.54248, 0.336223, -2.08411, -2.16645, -0.128995, -0.000734245, 0.00263035, 0.0013598, 0.00106498, -0.000267176, -0.00764181
0.0272559, 1.69147, -1.22532, -1.53787, -0.899997, -1.19194, 1.22859, -1.30266, 0.00232005, -0.0083644, -0.00425094, 0.00222211, -0.00429511, 0.00292892, 0.000134782, -0.468376, 57.0032, 27.1195, 6.13678, 1.75525, 3.11618, -0.0621838, 0.000980577, -0.00149874, -0.000114602, 5.38224e-05, -0.000840398, -0.000114127, 0.00558606, -0.000995081, -0.00697412, -0.0044936, -0.00118347, -0.00564932, 0.471005, -0.543377, 0.3359, -2.08384, -2.16585, -0.129878, 0.469477, -0.542488, 0.336211, -2.08413, -2.16642, -0.128977, -0.000806507, 0.00289319, 0.0014953, 0.000135286, -0.00150746, -0.00628802
0.0282559, 1.69148, -1.22533, -1.53788, -0.900005, -1.19195, 1.2286, -1.30267, 0.00516061, -0.00760368, -0.00674499, -0.00345084, -0.0035434, 0.00270186, -0.00113085, -0.468376, 57.0389, 27.1195, 6.20819, 1.75525, 3.10977, -0.0292249, 0.000975695, -0.00149573, -0.000104098, 6.56845e-05, -0.000846789, -0.000120696, 0.00321594, -0.00351584, -0.00846475, -0.00972209, -0.000213139, 0.0021843, 0.471004, -0.543375, 0.335901, -2.08384, -2.16585, -0.129876, 0.469479, -0.542489, 0.336201, -2.08411, -2.16643, -0.128956, -0.000882416, 0.00316954, 0.00163773, 0.00243829, 0.00144134, -0.00732561
0.0292559, 1.69148, -1.22534, -1.53789, -0.899996, -1.19196, 1.22861, -1.30267, 0.00229376, -0.00948974, -0.00541522, -7.15033e-05, -0.0081576, 0.00377886, -0.00122862, -0.392998, 57.1896, 27.1195, 6.09711, 1.76807, 3.06674, -0.0164075, 0.000963565, -0.00149784, -9.63507e-05, 6.58118e-05, -0.000853046, -0.000105261, 0.0067311, -0.0011701, -0.00848472, -0.0080081, 0.00195155, -0.00463101, 0.471003, -0.543372, 0.335903, -2.08383, -2.16585, -0.129874, 0.469476, -0.542497, 0.336193, -2.08413, -2.16642, -0.128946, -0.000962028, 0.00345964, 0.00178723, 0.000140975, -0.00183177, -0.00767066
0.0302559, 1.69148, -1.22534, -1.53789, -0.900004, -1.19198, 1.22863, -1.30266, 0.00328503, -0.00307229, -0.00513428, -0.00292318, -0.00642523, 0.00912044, 0.00158842, -0.317619, 57.2968, 27.1552, 6.20819, 1.77356, 3.02371, -0.0814099, 0.000955433, -0.00149659, -8.85342e-05, 7.00304e-05, -0.000864488, -9.34615e-05, 0.00531395, -0.00354332, -0.00470062, -0.00342479, 0.0100444, -0.0036282, 0.471002, -0.543369, 0.335904, -2.08383, -2.16585, -0.129871, 0.469477, -0.542501, 0.336185, -2.08415, -2.16641, -0.128926, -0.0010454, 0.0037637, 0.0019439, 0.00251369, -0.000613951, -0.00362907
0.0312559, 1.69148, -1.22535, -1.53789, -0.900004, -1.19199, 1.22864, -1.30266, 0.00420255, -0.00321274, -0.00217631, -0.00215657, -0.00900726, 0.00668955, 0.000821588, -0.242241, 57.4832, 27.0798, 6.20819, 1.75525, 3.02371, -0.0750012, 0.000947445, -0.00149525, -8.35879e-05, 6.69501e-05, -0.000872001, -8.82926e-05, 0.00513109, -0.00375253, -0.00399985, -0.00408725, 0.0108084, -0.00234015, 0.471002, -0.543366, 0.335906, -2.08383, -2.16586, -0.129869, 0.469477, -0.542505, 0.336181, -2.08415, -2.16641, -0.128919, -0.00113257, 0.00408193, 0.00210783, 0.00265422, -0.000214494, -0.00275111
0.0322559, 1.69148, -1.22536, -1.5379, -0.900004, -1.19201, 1.22865, -1.30267, 0.00351738, -0.00445191, -0.00360162, -0.00159356, -0.0163656, 0.00908839, -0.00213104, -0.242241, 57.5943, 27.1552, 6.20819, 1.75525, 3.03744, -0.00267457, 0.000939226, -0.00149195, -7.56709e-05, 7.14915e-05, -0.000883947, -8.78949e-05, 0.00808198, -0.00270726, -0.00502031, -0.00655402, 0.0170397, -0.00397725, 0.471001, -0.543362, 0.335908, -2.08383, -2.16586, -0.129866, 0.46948, -0.542508, 0.336173, -2.08416, -2.16642, -0.128899, -0.0012236, 0.00441451, 0.00227914, 0.00158799, -0.00268086, -0.00401387
0.0332559, 1.69148, -1.22535, -1.5379, -0.900001, -1.19203, 1.22865, -1.30267, 0.00335095, -0.000153207, -0.00352694, 0.000491184, -0.0164448, 0.00465543, -0.00165805, -0.131157, 57.4832, 27.1909, 6.13678, 1.73694, 3.09512, 0.00373412, 0.000930645, -0.00149306, -7.84271e-05, 7.43608e-05, -0.000906382, -7.60929e-05, 0.00827656, -0.00134938, -0.0026817, -0.00915815, 0.0192452, -0.00680461, 0.470999, -0.543358, 0.33591, -2.08382, -2.16586, -0.129863, 0.469478, -0.542513, 0.336177, -2.08418, -2.16642, -0.128868, -0.00131852, 0.00476163, 0.0024579, 0.000228369, -0.00294134, -0.00151516
0.0342559, 1.69149, -1.22535, -1.53791, -0.900001, -1.19204, 1.22866, -1.30266, 0.00502322, 0.000895289, -0.00349729, 0.000239795, -0.015956, 0.0080204, 0.000827412, -0.0914839, 57.4475, 27.2306, 6.13678, 1.70032, 3.10245, -0.0484509, 0.00092338, -0.00148943, -7.8069e-05, 7.17506e-05, -0.000926521, -6.57378e-05, 0.00799579, -0.00308984, -0.00200692, -0.00643169, 0.0218774, -0.00756817, 0.470998, -0.543354, 0.335912, -2.08382, -2.16586, -0.12986, 0.469481, -0.542515, 0.336177, -2.08419, -2.16642, -0.128846, -0.00141737, 0.00512346, 0.00264421, 0.00188206, -0.00233494, -0.000671457
0.0352559, 1.69149, -1.22536, -1.53791, -0.899999, -1.19207, 1.22868, -1.30266, 0.0060369, -0.000951919, -0.00333023, 0.00185736, -0.0163707, 0.0100572, 0.000314249, 0.0949785, 57.5189, 27.2663, 6.0614, 1.6875, 3.1235, -0.0420422, 0.000911478, -0.00148909, -7.47548e-05, 6.82654e-05, -0.000942928, -5.39528e-05, 0.00886607, -0.00377902, -0.00281116, -0.00441816, 0.0215244, -0.00781877, 0.470997, -0.543349, 0.335915, -2.08382, -2.16586, -0.129856, 0.46948, -0.542522, 0.336175, -2.08421, -2.16642, -0.128829, -0.00152019, 0.00550014, 0.00283813, 0.00246964, -0.00266544, -0.00142749
0.0362559, 1.6915, -1.22535, -1.53791, -0.899999, -1.19209, 1.22869, -1.30266, 0.0104794, 0.000291848, -0.00327078, 0.00118893, -0.0169167, 0.00796603, -0.000265219, 0.134651, 57.4832, 27.306, 6.0614, 1.68201, 3.11618, -0.0292249, 0.00090551, -0.00148101, -7.5535e-05, 6.6804e-05, -0.000972976, -5.64307e-05, 0.0068764, -0.00606138, -0.00270554, -0.00751509, 0.0226397, -0.00278081, 0.470995, -0.543344, 0.335917, -2.08381, -2.16587, -0.129852, 0.469487, -0.542522, 0.336177, -2.08422, -2.16645, -0.128796, -0.00162701, 0.00589181, 0.00303974, 0.00457486, -0.000232296, -0.000881636
0.0372559, 1.69151, -1.22536, -1.53791, -0.900002, -1.19211, 1.2287, -1.30267, 0.00797358, -0.00140744, -0.0031077, 0.000755637, -0.0167163, 0.0100105, -0.00116016, 0.285408, 57.5546, 27.3417, 6.0614, 1.65729, 3.13815, -0.00267457, 0.000895683, -0.00147717, -6.99716e-05, 6.95285e-05, -0.00099115, -5.40954e-05, 0.00859984, -0.00530871, -0.00353363, -0.00564441, 0.0220298, -0.00415393, 0.470994, -0.543338, 0.33592, -2.08381, -2.16587, -0.129848, 0.469489, -0.542525, 0.336173, -2.08423, -2.16646, -0.12877, -0.00173785, 0.0062986, 0.00324909, 0.0037441, -0.00143031, -0.00173472
0.0382559, 1.69151, -1.22535, -1.53791, -0.900007, -1.19214, 1.22871, -1.30266, 0.00444705, -5.17505e-05, -0.00214077, -0.000359197, -0.0173828, 0.00657699, 0.000209906, 0.511544, 57.5189, 27.3417, 6.09711, 1.65729, 3.16653, -0.0292249, 0.000884899, -0.00147521, -7.0266e-05, 7.04e-05, -0.00102051, -4.41277e-05, 0.00973372, -0.00312538, -0.00281162, -0.0081537, 0.0224527, -0.00817587, 0.470992, -0.543332, 0.335923, -2.0838, -2.16587, -0.129843, 0.46949, -0.54253, 0.336174, -2.08425, -2.16647, -0.128734, -0.00185274, 0.00672061, 0.00346625, 0.00151539, -0.00232821, -0.000914754
0.0392559, 1.69151, -1.22535, -1.53792, -0.900005, -1.19216, 1.22873, -1.30266, 0.00290651, 3.99272e-06, -0.00407736, -0.000744409, -0.022665, 0.00401544, 0.000852014, 0.701973, 57.5189, 27.4528, 5.98602, 1.65729, 3.19583, -0.0484509, 0.000870872, -0.00147194, -6.62782e-05, 7.30661e-05, -0.00105132, -2.88357e-05, 0.0119526, -0.00105032, -0.00381265, -0.0146672, 0.0259851, -0.0130851, 0.470991, -0.543326, 0.335927, -2.0838, -2.16588, -0.129838, 0.469492, -0.542537, 0.336172, -2.08428, -2.16647, -0.128693, -0.0019717, 0.00715794, 0.00369125, -0.000632658, -0.0040123, -0.00195993
0.0402559, 1.69152, -1.22537, -1.53792, -0.900005, -1.19219, 1.22875, -1.30266, 0.00380576, -0.00516538, -0.00192182, 0.000994481, -0.0266254, 0.0113916, -0.00136477, 0.813057, 57.7411, 27.417, 5.91064, 1.65729, 3.23153, 0.00373412, 0.000859522, -0.00146438, -5.62251e-05, 7.05754e-05, -0.00106557, -2.92561e-05, 0.0141505, -0.00265336, -0.00539474, -0.00816163, 0.0277756, -0.0120871, 0.470989, -0.543319, 0.33593, -2.08379, -2.16588, -0.129833, 0.469497, -0.542539, 0.336163, -2.08428, -2.16648, -0.128676, -0.00209472, 0.00761066, 0.00392413, 0.000866834, -0.00542038, -0.00367866
0.0412559, 1.69153, -1.22537, -1.53792, -0.900012, -1.19222, 1.22877, -1.30267, 0.00469752, -0.00342193, -0.00298075, -0.00357869, -0.0291136, 0.0129623, -0.00138456, 1.03919, 57.7411, 27.4885, 5.95032, 1.65088, 3.24527, 0.0165515, 0.000847497, -0.00145869, -5.16987e-05, 7.11644e-05, -0.00109431, -2.85474e-05, 0.0136132, -0.00407986, -0.00545058, -0.0112574, 0.0331521, -0.0089601, 0.470987, -0.543312, 0.335934, -2.08379, -2.16589, -0.129827, 0.469501, -0.542543, 0.336161, -2.08429, -2.1665, -0.128641, -0.00222183, 0.00807884, 0.00416491, 0.00214316, -0.00435473, -0.00345264
0.0422559, 1.69154, -1.22537, -1.53792, -0.900005, -1.19225, 1.22879, -1.30266, 0.00323308, -0.00226505, -0.00033855, -0.00242972, -0.0314163, 0.014566, 0.0012471, 1.22962, 57.7411, 27.417, 5.79956, 1.65088, 3.24527, -0.0420422, 0.000833644, -0.0014512, -5.22056e-05, 5.77274e-05, -0.00112834, -1.35715e-05, 0.0150857, -0.00359715, -0.00362246, -0.00797044, 0.0370048, -0.0139766, 0.470984, -0.543304, 0.335938, -2.08378, -2.16589, -0.129821, 0.469507, -0.542548, 0.336163, -2.08432, -2.16652, -0.128614, -0.00235303, 0.00856251, 0.00441363, 0.0016487, -0.00562582, -0.00161271
0.0432559, 1.69155, -1.22538, -1.53792, -0.900005, -1.19229, 1.22881, -1.30266, 0.00629733, -0.00316829, -0.00107728, -0.000429028, -0.0330852, 0.015324, 0.000356679, 1.38038, 57.8125, 27.4528, 5.72418, 1.65088, 3.25992, -0.0292249, 0.000820035, -0.00144181, -4.79624e-05, 5.19143e-05, -0.00116319, -1.0231e-05, 0.0155048, -0.00482917, -0.00440238, -0.00855341, 0.0381588, -0.0131374, 0.470982, -0.543295, 0.335942, -2.08378, -2.16589, -0.129815, 0.469515, -0.542552, 0.33616, -2.08434, -2.16654, -0.128578, -0.00248832, 0.00906169, 0.00467028, 0.00273072, -0.00536991, -0.00222837
0.0442559, 1.69157, -1.22538, -1.53792, -0.900001, -1.19232, 1.22883, -1.30266, 0.00943888, -0.00303108, 0.00476028, 0.0018831, -0.0297635, 0.0188689, -0.000745558, 1.49146, 57.8522, 27.4885, 5.6131, 1.65729, 3.31759, -0.00267457, 0.000806553, -0.00143217, -4.26897e-05, 5.21223e-05, -0.00119669, -4.65597e-06, 0.0138291, -0.00824642, -0.00196215, 0.00157349, 0.0372011, -0.00747005, 0.47098, -0.543286, 0.335947, -2.08377, -2.1659, -0.129808, 0.469522, -0.542555, 0.336157, -2.08436, -2.16656, -0.128537, -0.00262768, 0.00957641, 0.00493487, 0.00603243, -0.00343639, 0.000602682
0.0452559, 1.69159, -1.22538, -1.53793, -0.89999, -1.19236, 1.22885, -1.30266, 0.0117226, -0.0036843, 0.00192824, 0.00529509, -0.0318443, 0.0178939, 0.000248947, 1.60651, 57.9236, 27.5638, 5.42664, 1.65729, 3.3533, -0.0228162, 0.00079074, -0.00142207, -3.82519e-05, 4.52414e-05, -0.00123088, 9.31292e-06, 0.0153609, -0.00799686, -0.00326336, -0.00173643, 0.0380935, -0.0116996, 0.470977, -0.543277, 0.335952, -2.08376, -2.1659, -0.129801, 0.46953, -0.54256, 0.336155, -2.08439, -2.16657, -0.128501, -0.00277111, 0.0101066, 0.00520739, 0.00564765, -0.0042283, -0.0006398
0.0462559, 1.69161, -1.22538, -1.53793, -0.899987, -1.19239, 1.22888, -1.30266, 0.0100507, -0.00161585, 0.00250918, 0.00505179, -0.0332526, 0.016026, 0.0011154, 1.72157, 57.8879, 27.5281, 5.35126, 1.65088, 3.41739, -0.0484509, 0.000779003, -0.00140808, -3.76863e-05, 3.54304e-05, -0.00127142, 1.16444e-05, 0.0163846, -0.00681066, -0.00214016, -0.00343347, 0.0406978, -0.0146998, 0.470974, -0.543267, 0.335957, -2.08375, -2.16591, -0.129793, 0.469542, -0.542561, 0.336158, -2.08441, -2.1666, -0.128463, -0.00291859, 0.0106523, 0.00548782, 0.00439287, -0.00491468, 0.000626665
0.0472559, 1.69162, -1.22539, -1.53793, -0.899977, -1.19243, 1.22891, -1.30266, 0.0084184, -0.00367183, 0.0002009, 0.00671321, -0.0345959, 0.0206096, 0.00101487, 1.98341, 57.999, 27.6035, 5.2005, 1.65729, 3.44668, -0.0557752, 0.000756999, -0.0014022, -3.04203e-05, 2.73023e-05, -0.001305, 3.23409e-05, 0.0196262, -0.00597928, -0.00363732, -0.00146971, 0.0423609, -0.0196679, 0.470971, -0.543256, 0.335962, -2.08375, -2.16592, -0.129785, 0.469545, -0.542571, 0.336152, -2.08444, -2.1666, -0.128428, -0.0030701, 0.0112135, 0.00577613, 0.00347316, -0.00735743, -0.00104124
0.0482559, 1.69164, -1.22539, -1.53793, -0.899975, -1.19247, 1.22893, -1.30266, 0.0108768, -0.00160978, -0.000482772, 0.00433963, -0.0353626, 0.0239411, -0.00176483, 2.09846, 57.9633, 27.6392, 5.2005, 1.65729, 3.47507, 0.0101428, 0.000743049, -0.00138689, -2.8686e-05, 2.01764e-05, -0.0013536, 2.87957e-05, 0.0188951, -0.00839503, -0.00303161, -0.00112189, 0.0474203, -0.0134948, 0.470968, -0.543245, 0.335968, -2.08374, -2.16592, -0.129777, 0.469558, -0.542573, 0.336154, -2.08446, -2.16664, -0.128378, -0.0032256, 0.01179, 0.00607228, 0.00572608, -0.00605324, -0.000106467
0.0492559, 1.69166, -1.22539, -1.53794, -0.899973, -1.19252, 1.22897, -1.30266, 0.0129623, -0.00274146, -0.000993181, 0.0027912, -0.0366949, 0.0277515, -0.00117655, 2.32459, 58.0347, 27.6749, 5.2005, 1.6756, 3.47507, 0.0101428, 0.000723219, -0.00137458, -2.23773e-05, 1.35838e-05, -0.00140179, 3.93798e-05, 0.019021, -0.0105332, -0.00406853, -0.00029029, 0.0499131, -0.0118429, 0.470965, -0.543234, 0.335974, -2.08373, -2.16593, -0.129768, 0.469567, -0.542579, 0.33615, -2.08449, -2.16667, -0.128327, -0.00338507, 0.0123818, 0.00637623, 0.00766908, -0.00533849, -0.000910497
0.0502559, 1.69168, -1.22539, -1.53794, -0.899965, -1.19257, 1.229, -1.30265, 0.0157601, -0.000990793, 0.000296011, 0.00657148, -0.037537, 0.0304872, 0.000911053, 2.51106, 57.999, 27.6392, 5.12909, 1.69391, 3.47507, -0.0356336, 0.000705135, -0.00136004, -2.31555e-05, -2.60633e-06, -0.0014554, 5.22e-05, 0.0195672, -0.0120058, -0.00217224, 0.00406867, 0.0537905, -0.014683, 0.470962, -0.543221, 0.335981, -2.08372, -2.16594, -0.129759, 0.469579, -0.542584, 0.336154, -2.08453, -2.1667, -0.128279, -0.00354847, 0.0129888, 0.00668792, 0.0090647, -0.00550205, 0.00114442
0.0512559, 1.6917, -1.22539, -1.53795, -0.899958, -1.19261, 1.22904, -1.30265, 0.0147059, -0.00149453, -0.00230893, 0.00952587, -0.0381787, 0.0326662, 0.000607369, 2.70148, 58.0347, 27.7503, 5.05371, 1.71222, 3.46774, -0.0356336, 0.000683113, -0.00134783, -1.65101e-05, -8.84891e-06, -0.0015046, 6.58832e-05, 0.0225257, -0.0107827, -0.00294638, 0.00463877, 0.0552017, -0.0199942, 0.470958, -0.543208, 0.335987, -2.08371, -2.16594, -0.129749, 0.469588, -0.542592, 0.33615, -2.08456, -2.16672, -0.128225, -0.00371575, 0.0136108, 0.00700727, 0.00775414, -0.00773175, 0.000277277
0.0522559, 1.69172, -1.22539, -1.53795, -0.899955, -1.19266, 1.22907, -1.30266, 0.0168752, -0.000160219, -0.00380539, 0.00769534, -0.042779, 0.0340167, -0.00176523, 2.89191, 57.999, 27.7146, 5.01404, 1.70032, 3.46774, 0.0229602, 0.000664851, -0.00133205, -1.49498e-05, -2.37573e-05, -0.0015555, 6.34135e-05, 0.0229407, -0.0120054, -0.00315909, 0.000986416, 0.0617336, -0.0167046, 0.470955, -0.543195, 0.335994, -2.0837, -2.16595, -0.129738, 0.469601, -0.542595, 0.336152, -2.08459, -2.16677, -0.12818, -0.00388686, 0.0142477, 0.0073342, 0.00881145, -0.00742156, 0.000292853
0.0532559, 1.69174, -1.2254, -1.53795, -0.899953, -1.19271, 1.2291, -1.30266, 0.0164378, -0.000941345, -0.00274928, 0.006278, -0.0418678, 0.0342698, -0.0007021, 3.04267, 58.0347, 27.7146, 4.97833, 1.71222, 3.48971, 0.0101428, 0.000643516, -0.00131698, -8.77605e-06, -3.03355e-05, -0.00160902, 7.28069e-05, 0.0231162, -0.0125833, -0.00361827, 0.00159695, 0.0608311, -0.0166842, 0.470951, -0.54318, 0.336002, -2.08369, -2.16596, -0.129728, 0.469613, -0.5426, 0.33615, -2.08462, -2.1668, -0.128121, -0.00406174, 0.0148993, 0.00766863, 0.00920359, -0.00684872, 0.000129184
0.0542559, 1.69177, -1.2254, -1.53796, -0.899947, -1.19276, 1.22914, -1.30265, 0.0177527, -0.00239029, -0.00678926, 0.00618299, -0.0454377, 0.0345115, 0.00122735, 3.11805, 58.11, 27.79, 4.90295, 1.71222, 3.51077, -0.0356336, 0.000622462, -0.00129901, 4.01403e-07, -3.43662e-05, -0.00166104, 8.38771e-05, 0.0249336, -0.0124627, -0.00618907, -0.00404611, 0.0632043, -0.0209138, 0.470947, -0.543166, 0.336009, -2.08368, -2.16597, -0.129716, 0.469627, -0.542604, 0.336145, -2.08465, -2.16682, -0.128061, -0.00424034, 0.0155655, 0.00801045, 0.00887682, -0.00758612, -0.00234581
0.0552559, 1.69179, -1.2254, -1.53796, -0.899939, -1.19281, 1.22917, -1.30265, 0.0142352, 0.00100532, -0.00642698, 0.00689626, -0.0424304, 0.0338366, 0.00156422, 3.37989, 57.999, 27.7146, 4.79187, 1.68201, 3.5538, -0.0557752, 0.000599721, -0.00128612, -1.29293e-06, -5.47256e-05, -0.00171398, 9.89375e-05, 0.0263747, -0.0107106, -0.00407541, -0.00204768, 0.0640718, -0.0248023, 0.470942, -0.54315, 0.336017, -2.08367, -2.16597, -0.129705, 0.469636, -0.542611, 0.33615, -2.08469, -2.16685, -0.128016, -0.00442257, 0.0162459, 0.00835954, 0.00707321, -0.00872539, -8.0219e-05
0.0562559, 1.69179, -1.2254, -1.53796, -0.899939, -1.19281, 1.22917, -1.30265, 0.0142352, 0.00100532, -0.00642698, 0.00689626, -0.0424304, 0.0338366, 0.00156422, 3.37989, 57.999, 27.7146, 4.79187, 1.68201, 3.5538, -0.0557752, 0.00058224, -0.00128212, 4.31012e-06, -6.30609e-05, -0.00171005, 0.000108108, 0.0271224, -0.0108782, -0.0043136, -0.00235148, 0.0645543, -0.0253927, 0.470938, -0.543134, 0.336026, -2.08366, -2.16598, -0.129692, 0.469636, -0.542611, 0.33615, -2.08469, -2.16685, -0.128016, -0.00460838, 0.0169405, 0.00871578, 0.00707321, -0.00872539, -8.0219e-05
0.0572559, 1.69185, -1.2254, -1.53796, -0.899929, -1.19291, 1.22925, -1.30265, 0.0229776, 0.00100403, -0.00364059, 0.00585026, -0.0435528, 0.0387311, 0.000130069, 3.53065, 57.999, 27.7146, 4.68079, 1.66919, 3.56845, -0.0164075, 0.000557244, -0.00124499, 6.94317e-06, -8.34675e-05, -0.00183152, 0.000101104, 0.0238402, -0.0174473, -0.00374103, 0.00165908, 0.0685612, -0.014038, 0.470933, -0.543117, 0.336034, -2.08364, -2.16599, -0.129679, 0.46967, -0.542617, 0.336152, -2.08474, -2.16695, -0.127903, -0.00479766, 0.0176488, 0.00907903, 0.0133475, -0.00459488, 0.00115891
0.0582559, 1.69187, -1.2254, -1.53797, -0.899926, -1.19297, 1.22929, -1.30265, 0.0261723, -0.000165702, -0.00273841, 0.00490237, -0.0472693, 0.0380548, 0.000561431, 3.72108, 58.0347, 27.7146, 4.64111, 1.6756, 3.58218, -0.0292249, 0.000530622, -0.00122889, 1.20113e-05, -9.52494e-05, -0.00189401, 0.000114795, 0.0235055, -0.0192636, -0.00471282, -0.00122619, 0.0707282, -0.0118874, 0.470929, -0.543099, 0.336043, -2.08363, -2.166, -0.129666, 0.469682, -0.542624, 0.336151, -2.08478, -2.16698, -0.127838, -0.00499035, 0.0183707, 0.00944913, 0.0149217, -0.00331828, 0.000566382
0.0592559, 1.6919, -1.22539, -1.53797, -0.899918, -1.19302, 1.22933, -1.30266, 0.0289672, 0.000724872, -0.00289434, 0.0090878, -0.0500348, 0.0394978, -0.000609057, 3.75678, 57.999, 27.7503, 4.53003, 1.6875, 3.54648, -0.00267457, 0.000506922, -0.00120779, 1.56887e-05, -0.000107612, -0.00195864, 0.000118354, 0.0249404, -0.0199818, -0.00393334, -8.38903e-05, 0.0748303, -0.0132584, 0.470924, -0.543081, 0.336053, -2.08362, -2.16601, -0.129652, 0.469699, -0.542628, 0.336153, -2.08481, -2.16703, -0.127772, -0.00518633, 0.0191057, 0.00982594, 0.015523, -0.00408998, 0.00146849
0.0602559, 1.69193, -1.2254, -1.53798, -0.899913, -1.19308, 1.22937, -1.30265, 0.034155, -0.00211512, -0.0021047, 0.00719926, -0.0526245, 0.0384555, 0.000102588, 3.79646, 58.11, 27.7503, 4.49432, 1.71222, 3.56112, -0.0164075, 0.000481644, -0.00118524, 2.64742e-05, -0.000120366, -0.00201439, 0.000123931, 0.0233911, -0.0232037, -0.0062031, -0.00376482, 0.0743976, -0.00826487, 0.470918, -0.543062, 0.336063, -2.0836, -2.16602, -0.129638, 0.469716, -0.542631, 0.336147, -2.08484, -2.16707, -0.127715, -0.00538552, 0.0198537, 0.0102093, 0.0184038, -0.00133069, -0.00024668
0.0612559, 1.69197, -1.2254, -1.53798, -0.89991, -1.19314, 1.22942, -1.30265, 0.0387065, 0.000353229, -0.00153449, 0.00502864, -0.0487988, 0.0385177, -0.000677593, 3.79646, 58.0347, 27.7503, 4.49432, 1.71222, 3.5538, 0.00373412, 0.000458697, -0.00116025, 3.04854e-05, -0.000135778, -0.00208181, 0.000124585, 0.0204381, -0.0269235, -0.00534705, -0.00328776, 0.0745744, -0.00021666, 0.470913, -0.543042, 0.336073, -2.08359, -2.16603, -0.129623, 0.469737, -0.542632, 0.336149, -2.08487, -2.16712, -0.127648, -0.0055878, 0.0206142, 0.0105989, 0.0218415, 0.00236668, 0.00133361
0.0622559, 1.69199, -1.2254, -1.53797, -0.899907, -1.1932, 1.22946, -1.30265, 0.0343999, 0.00107076, 0.00147695, 0.00352428, -0.0506485, 0.0389117, 0.00175232, 3.98292, 57.999, 27.6392, 4.49432, 1.70581, 3.53915, -0.0557752, 0.000430974, -0.00114145, 3.20698e-05, -0.000158335, -0.00214567, 0.000141505, 0.0224467, -0.0254076, -0.00406857, -0.00149726, 0.0773417, -0.005418, 0.470907, -0.543021, 0.336083, -2.08357, -2.16604, -0.129607, 0.469751, -0.542638, 0.336153, -2.08491, -2.16716, -0.127591, -0.00579309, 0.0213869, 0.0109948, 0.0202411, 0.000897809, 0.0027261
0.0632559, 1.69203, -1.2254, -1.53798, -0.899894, -1.19325, 1.22951, -1.30265, 0.0366264, 0.000713876, -0.00402795, 0.00516966, -0.0526288, 0.0439537, 0.000184868, 3.94721, 57.999, 27.7146, 4.37927, 1.71863, 3.5181, -0.0292249, 0.000400928, -0.00111905, 3.91824e-05, -0.000174758, -0.00221258, 0.000149204, 0.0248879, -0.0262155, -0.00593972, -0.00278203, 0.0819265, -0.007055, 0.470902, -0.543, 0.336094, -2.08356, -2.16606, -0.129591, 0.469768, -0.542644, 0.336152, -2.08495, -2.16721, -0.127525, -0.00600136, 0.0221719, 0.0113968, 0.0208598, -0.000405954, 0.000877225
0.0642559, 1.69205, -1.2254, -1.53798, -0.899895, -1.19331, 1.22955, -1.30265, 0.034413, 0.00131116, -0.000406884, 0.00261509, -0.0524414, 0.0416126, -0.00109746, 4.06226, 57.9633, 27.6035, 4.41894, 1.69391, 3.53915, 0.00373412, 0.000373977, -0.00109632, 4.15872e-05, -0.000197114, -0.00227985, 0.00015094, 0.0248781, -0.0259532, -0.0050219, -0.00273263, 0.0816859, -0.00460086, 0.470896, -0.542978, 0.336106, -2.08354, -2.16607, -0.129574, 0.469786, -0.542647, 0.336156, -2.08498, -2.16727, -0.127464, -0.00621258, 0.0229689, 0.0118049, 0.0204198, 0.000249039, 0.00220094
0.0652559, 1.69208, -1.2254, -1.53798, -0.899887, -1.19337, 1.2296, -1.30265, 0.0317294, -0.00229134, -0.0013465, 0.00589698, -0.0534582, 0.0446889, -0.000223012, 4.09797, 57.9633, 27.6392, 4.37927, 1.69391, 3.5538, -0.00999879, 0.000343622, -0.00107482, 4.75991e-05, -0.000214454, -0.00234399, 0.000164288, 0.0289743, -0.0242546, -0.00687843, -3.10547e-05, 0.0807021, -0.0124066, 0.470889, -0.542955, 0.336118, -2.08352, -2.16608, -0.129557, 0.469802, -0.542652, 0.336157, -2.08502, -2.16731, -0.1274, -0.0064267, 0.0237778, 0.012219, 0.0185896, -0.00276997, 0.000197935
0.0662559, 1.69212, -1.22539, -1.53799, -0.899886, -1.19343, 1.22964, -1.30265, 0.0294348, 0.000807123, -0.00340049, 0.00424845, -0.0541108, 0.0471611, 0.00103812, 4.13764, 57.8522, 27.6035, 4.37927, 1.68201, 3.56112, -0.0420422, 0.000316329, -0.00104985, 5.09763e-05, -0.000230175, -0.00241504, 0.000170746, 0.0309062, -0.023492, -0.0059552, -0.000504538, 0.0863246, -0.016439, 0.470883, -0.542931, 0.33613, -2.0835, -2.16609, -0.129539, 0.469821, -0.542654, 0.33616, -2.08505, -2.16736, -0.127327, -0.00664368, 0.0245986, 0.0126391, 0.0177144, -0.00402959, 0.00125306
0.0672559, 1.69215, -1.2254, -1.53798, -0.89988, -1.1935, 1.22969, -1.30265, 0.0310784, -0.00133018, -0.00313317, 0.00390536, -0.0546961, 0.0409202, -0.00100334, 4.17335, 57.9236, 27.4885, 4.34357, 1.68201, 3.53915, 0.00373412, 0.000285621, -0.00102398, 5.66686e-05, -0.000255876, -0.00248337, 0.000171033, 0.0305856, -0.0235684, -0.00808446, -0.00692374, 0.0822274, -0.0132098, 0.470876, -0.542906, 0.336143, -2.08349, -2.16611, -0.12952, 0.469841, -0.542658, 0.336162, -2.08508, -2.16742, -0.127267, -0.00686349, 0.0254311, 0.0130651, 0.0174823, -0.00254955, -0.00037611
0.0682559, 1.69219, -1.22539, -1.53799, -0.899875, -1.19356, 1.22973, -1.30265, 0.0347517, 0.00156329, -0.00441393, 0.00278196, -0.0603976, 0.0403508, -0.000431535, 4.09797, 57.8125, 27.5638, 4.34357, 1.69391, 3.53274, -0.00267457, 0.000256533, -0.000996445, 6.15518e-05, -0.000268931, -0.00255975, 0.00017531, 0.0305883, -0.0250578, -0.007522, -0.0124115, 0.0903764, -0.0124567, 0.470869, -0.542881, 0.336156, -2.08347, -2.16612, -0.129501, 0.469863, -0.542659, 0.336165, -2.08512, -2.16748, -0.127185, -0.00708609, 0.0262753, 0.013497, 0.0187681, -0.00173288, 0.000565429
0.0692559, 1.69222, -1.22538, -1.53799, -0.899871, -1.19363, 1.22978, -1.30265, 0.0314354, 0.00519981, -0.00160081, 0.00282365, -0.0602989, 0.0401435, 0.000695654, 4.13764, 57.63, 27.4885, 4.30786, 1.71863, 3.5181, -0.0292249, 0.000223367, -0.000973508, 5.93934e-05, -0.000288978, -0.00264711, 0.000189589, 0.032019, -0.0237906, -0.00451719, -0.0096168, 0.094121, -0.0162907, 0.470862, -0.542854, 0.336169, -2.08345, -2.16613, -0.129481, 0.46988, -0.542665, 0.336175, -2.08517, -2.16754, -0.127097, -0.00731145, 0.027131, 0.0139346, 0.0174383, -0.00280367, 0.00378663
0.0702559, 1.69226, -1.22539, -1.53799, -0.899869, -1.1937, 1.22983, -1.30265, 0.0285096, 0.000784624, -0.00138328, 0.00114756, -0.0647273, 0.04026, 0.00117585, 4.06226, 57.7411, 27.4885, 4.34357, 1.73053, 3.49612, -0.0484509, 0.000190469, -0.00094517, 7.09985e-05, -0.000307215, -0.00271446, 0.000195274, 0.0350191, -0.0223702, -0.00739592, -0.012475, 0.0940519, -0.0202221, 0.470855, -0.542827, 0.336183, -2.08343, -2.16615, -0.129461, 0.469902, -0.542667, 0.336171, -2.0852, -2.16759, -0.127028, -0.00753952, 0.0279981, 0.014378, 0.0157956, -0.00451396, 0.000965279
0.0712559, 1.6923, -1.22538, -1.53799, -0.89986, -1.19377, 1.22987, -1.30265, 0.0316086, 0.00129571, -0.00360545, 0.00260353, -0.0683106, 0.0407803, -0.00138624, 4.02259, 57.7054, 27.4528, 4.26819, 1.75525, 3.46042, 0.0101428, 0.000154832, -0.0009191, 7.55914e-05, -0.000328107, -0.00279437, 0.000203547, 0.0361965, -0.0232834, -0.0080945, -0.015756, 0.0984715, -0.0188873, 0.470847, -0.542799, 0.336197, -2.08341, -2.16616, -0.12944, 0.469921, -0.542673, 0.336175, -2.08524, -2.16765, -0.126948, -0.00777026, 0.0288765, 0.0148271, 0.0164944, -0.00465249, 0.000514175
0.0722559, 1.69233, -1.22538, -1.53799, -0.899859, -1.19385, 1.22992, -1.30264, 0.0298715, 0.0025801, -0.00285487, 0.00086411, -0.0707538, 0.0396114, 0.000533901, 4.02259, 57.63, 27.4528, 4.30786, 1.77997, 3.46774, -0.0292249, 0.000118697, -0.000894984, 8.05424e-05, -0.000339011, -0.00287826, 0.000219731, 0.0374921, -0.0225268, -0.00762791, -0.0180819, 0.101841, -0.0222258, 0.47084, -0.54277, 0.336212, -2.08339, -2.16618, -0.129418, 0.469939, -0.542678, 0.336178, -2.08528, -2.1677, -0.126851, -0.00800365, 0.0297661, 0.0152818, 0.0155697, -0.00514458, 0.00125164
0.0732559, 1.69236, -1.22537, -1.53799, -0.899858, -1.19392, 1.22997, -1.30264, 0.0254932, 0.00252007, -0.00224168, -0.000216813, -0.0671164, 0.039681, 0.00106801, 4.02259, 57.5943, 27.4528, 4.34357, 1.77997, 3.44668, -0.0484509, 8.14326e-05, -0.000869246, 8.66431e-05, -0.000358076, -0.00295839, 0.000229152, 0.0392508, -0.0210544, -0.00766765, -0.0160211, 0.0993817, -0.0253756, 0.470832, -0.542741, 0.336228, -2.08336, -2.16619, -0.129396, 0.469957, -0.542683, 0.336181, -2.08532, -2.16776, -0.126768, -0.00823965, 0.0306668, 0.015742, 0.0139258, -0.0060345, 0.00144469
0.0742559, 1.6924, -1.22537, -1.53799, -0.899858, -1.194, 1.23001, -1.30265, 0.0288176, 0.00165364, -0.000913061, 0.00216988, -0.0696085, 0.0448873, -0.000474787, 3.87183, 57.5943, 27.417, 4.37927, 1.79187, 3.41739, -0.0164075, 4.69088e-05, -0.000837916, 9.42244e-05, -0.00037381, -0.00304115, 0.000225904, 0.0403008, -0.0235213, -0.00739706, -0.0113358, 0.103568, -0.0235755, 0.470823, -0.54271, 0.336243, -2.08334, -2.16621, -0.129373, 0.469982, -0.542684, 0.336183, -2.08535, -2.16783, -0.126679, -0.00847821, 0.0315785, 0.0162078, 0.0161992, -0.00609866, 0.00193979
0.0752559, 1.69244, -1.22538, -1.53799, -0.89985, -1.19408, 1.23006, -1.30265, 0.0292679, 0.000247404, -0.000799075, 0.00571974, -0.0705444, 0.0431035, -0.000316525, 3.79646, 57.63, 27.417, 4.34357, 1.77997, 3.41006, -0.0164075, 6.35183e-06, -0.00081268, 0.000103369, -0.000391123, -0.00311574, 0.000243929, 0.042256, -0.0228105, -0.00818438, -0.0121167, 0.102381, -0.0274042, 0.470815, -0.542678, 0.33626, -2.08332, -2.16623, -0.129349, 0.469999, -0.54269, 0.336183, -2.08539, -2.16788, -0.126597, -0.0087193, 0.0325011, 0.016679, 0.0152908, -0.00701439, 0.00135202
0.0762559, 1.69247, -1.22537, -1.53799, -0.899851, -1.19416, 1.23011, -1.30265, 0.0296868, 0.0009853, -0.000675493, 0.00252551, -0.0720806, 0.0468356, -0.000448376, 3.72108, 57.5943, 27.417, 4.41894, 1.78638, 3.39633, -0.00999879, -3.27107e-05, -0.000784339, 0.000110885, -0.00040583, -0.0032017, 0.000248921, 0.0427213, -0.0244969, -0.00815783, -0.0113964, 0.107151, -0.0253031, 0.470806, -0.542646, 0.336276, -2.08329, -2.16625, -0.129324, 0.47002, -0.542694, 0.336185, -2.08542, -2.16794, -0.126501, -0.00896288, 0.0334345, 0.0171556, 0.0167498, -0.00647428, 0.00173134
0.0772559, 1.69251, -1.22536, -1.53798, -0.89985, -1.19425, 1.23015, -1.30264, 0.0307387, 0.0040794, 0.000370609, 0.00120514, -0.0773967, 0.0446142, 0.00041316, 3.60603, 57.4475, 27.3774, 4.45465, 1.78638, 3.38901, -0.0292249, -7.20075e-05, -0.000756273, 0.000113154, -0.000420796, -0.0032962, 0.000262803, 0.0431849, -0.0247259, -0.00671983, -0.0158147, 0.114221, -0.0260913, 0.470797, -0.542612, 0.336293, -2.08327, -2.16626, -0.129299, 0.47004, -0.542698, 0.336193, -2.08547, -2.16801, -0.126395, -0.00920893, 0.0343785, 0.0176375, 0.0168024, -0.00619904, 0.00355434
0.0782559, 1.69255, -1.22536, -1.53799, -0.89985, -1.19433, 1.2302, -1.30264, 0.0345568, 0.0053097, -0.000761259, -0.000692292, -0.0769081, 0.0438201, 0.000512799, 3.49494, 57.3364, 27.417, 4.53003, 1.78638, 3.36062, -0.0356336, -0.00011304, -0.000726898, 0.000118936, -0.000435713, -0.00338935, 0.000274154, 0.0418912, -0.0272059, -0.00725511, -0.0190541, 0.115669, -0.0219554, 0.470788, -0.542578, 0.336311, -2.08324, -2.16628, -0.129273, 0.470062, -0.542702, 0.336198, -2.08551, -2.16807, -0.12629, -0.00945739, 0.0353331, 0.0181247, 0.018965, -0.00378175, 0.00363792
0.0792559, 1.69259, -1.22536, -1.53799, -0.899846, -1.19442, 1.23025, -1.30265, 0.0334813, 0.00269832, -0.00140296, -0.00026089, -0.0763291, 0.0463956, -0.00159091, 3.41956, 57.3721, 27.4528, 4.53003, 1.77997, 3.37436, 0.0165515, -0.000157505, -0.000699166, 0.000129553, -0.000446656, -0.00347612, 0.000283638, 0.0440707, -0.0272021, -0.00900061, -0.0173695, 0.114504, -0.0221596, 0.470779, -0.542543, 0.336329, -2.08322, -2.1663, -0.129247, 0.470081, -0.542707, 0.336198, -2.08554, -2.16813, -0.126186, -0.00970824, 0.0362982, 0.0186171, 0.0187262, -0.00469977, 0.00206896
0.0802559, 1.69263, -1.22535, -1.53798, -0.899845, -1.1945, 1.23029, -1.30265, 0.0335062, 0.00439263, 0.000782758, 0.00231304, -0.0814461, 0.0439663, 0.000160094, 3.30451, 57.261, 27.3774, 4.56573, 1.79187, 3.38168, -0.0164075, -0.000199199, -0.000668372, 0.000132928, -0.000464556, -0.00357233, 0.000295429, 0.0460141, -0.0261991, -0.00741561, -0.0190003, 0.119484, -0.0276478, 0.470769, -0.542506, 0.336348, -2.08319, -2.16632, -0.12922, 0.470104, -0.54271, 0.336206, -2.08559, -2.1682, -0.12608, -0.00996144, 0.0372736, 0.0191147, 0.0176004, -0.00592765, 0.00386094
0.0812559, 1.69267, -1.22535, -1.53798, -0.899847, -1.19459, 1.23034, -1.30264, 0.0358456, 0.00376012, -0.000440063, 0.000991176, -0.0804397, 0.0424269, 0.00129352, 3.22913, 57.2253, 27.417, 4.60541, 1.80469, 3.38168, -0.0484509, -0.000244247, -0.000639793, 0.000143754, -0.000474573, -0.0036596, 0.000310993, 0.0455988, -0.0276667, -0.00899723, -0.0223915, 0.118214, -0.0263733, 0.470759, -0.542469, 0.336367, -2.08316, -2.16634, -0.129192, 0.470124, -0.542715, 0.336207, -2.08563, -2.16826, -0.125973, -0.010217, 0.0382593, 0.0196175, 0.0187385, -0.00422742, 0.00282144
0.0822559, 1.69271, -1.22534, -1.53798, -0.899847, -1.19468, 1.23039, -1.30265, 0.0364998, 0.00510256, 0.000609234, 0.00094366, -0.0844472, 0.0460084, -0.000324445, 3.19343, 57.1143, 27.3774, 4.60541, 1.823, 3.38168, -0.0164075, -0.000289244, -0.000609809, 0.000149204, -0.000491614, -0.00375425, 0.000318809, 0.0471819, -0.0286387, -0.00789405, -0.0206594, 0.125247, -0.0257503, 0.470749, -0.542431, 0.336386, -2.08313, -2.16636, -0.129163, 0.470145, -0.542719, 0.336213, -2.08566, -2.16833, -0.125866, -0.0104747, 0.0392552, 0.0201252, 0.0195499, -0.00492313, 0.00414341
0.0832559, 1.69275, -1.22533, -1.53798, -0.89985, -1.19477, 1.23043, -1.30265, 0.0389762, 0.00516296, -0.000540923, -0.000921974, -0.087018, 0.0436256, -0.00119964, 3.07838, 57.0389, 27.417, 4.68079, 1.84131, 3.38901, 0.0101428, -0.000334473, -0.000577933, 0.000158627, -0.000498001, -0.00385224, 0.000325008, 0.0471049, -0.029752, -0.0092036, -0.0266171, 0.127242, -0.0230471, 0.470738, -0.542392, 0.336407, -2.0831, -2.16638, -0.129134, 0.470167, -0.542722, 0.336216, -2.0857, -2.1684, -0.125744, -0.0107348, 0.0402611, 0.020638, 0.0203518, -0.00359308, 0.00334092
0.0842559, 1.69279, -1.22533, -1.53798, -0.899848, -1.19487, 1.23048, -1.30264, 0.04293, 0.0042757, 0.000553111, 0.000472488, -0.0898973, 0.0468921, 0.00113302, 3.003, 57.0032, 27.3774, 4.64111, 1.87244, 3.38168, -0.0420422, -0.000381379, -0.00054621, 0.000166998, -0.000512527, -0.00394631, 0.000341751, 0.0476182, -0.0323761, -0.00940298, -0.0246014, 0.130956, -0.0239555, 0.470727, -0.542351, 0.336427, -2.08308, -2.1664, -0.129103, 0.47019, -0.542725, 0.33622, -2.08574, -2.16846, -0.125633, -0.010997, 0.0412769, 0.0211557, 0.0227225, -0.00294366, 0.00350188
0.0852559, 1.69283, -1.22533, -1.53798, -0.899849, -1.19496, 1.23052, -1.30264, 0.0442404, 0.0067328, 0.00035802, 0.00043433, -0.0915265, 0.0442504, 0.00126397, 3.003, 56.9675, 27.3774, 4.64111, 1.89075, 3.38901, -0.0557752, -0.000430268, -0.000516232, 0.000177684, -0.000521899, -0.0040379, 0.000357029, 0.0479813, -0.0326114, -0.00868027, -0.0282674, 0.134193, -0.0242946, 0.470716, -0.54231, 0.336448, -2.08304, -2.16642, -0.129072, 0.47021, -0.542729, 0.336222, -2.08578, -2.16852, -0.125518, -0.0112614, 0.0423026, 0.0216783, 0.0227336, -0.00237695, 0.0046745
0.0862559, 1.69288, -1.22532, -1.53797, -0.899854, -1.19505, 1.23056, -1.30264, 0.0480119, 0.00734017, 0.00190108, -0.00138418, -0.088039, 0.0429404, -0.00112404, 2.89191, 56.8564, 27.306, 4.71649, 1.90906, 3.38168, -0.00267457, -0.000475208, -0.000480652, 0.000184954, -0.000532532, -0.00413806, 0.000356767, 0.0456722, -0.0357889, -0.00869374, -0.0282581, 0.13218, -0.0155487, 0.470705, -0.542268, 0.33647, -2.08301, -2.16645, -0.129041, 0.470236, -0.542729, 0.336229, -2.0858, -2.16861, -0.125396, -0.011528, 0.0433381, 0.0222057, 0.0255566, 0.00107318, 0.00544903
0.0872559, 1.69292, -1.22532, -1.53798, -0.899856, -1.19515, 1.23061, -1.30265, 0.048724, 0.00591855, 0.000426136, -0.00716022, -0.0897976, 0.0418356, -0.000986719, 2.85224, 56.8207, 27.3417, 4.71649, 1.92096, 3.37436, 0.00373412, -0.0005253, -0.000449313, 0.000196881, -0.000535629, -0.00423356, 0.000366741, 0.0454427, -0.0370908, -0.0113397, -0.0347312, 0.133005, -0.0120614, 0.470694, -0.542224, 0.336492, -2.08298, -2.16647, -0.129008, 0.470257, -0.542732, 0.33623, -2.08583, -2.16868, -0.125269, -0.0117966, 0.0443832, 0.0227379, 0.0264836, 0.00280635, 0.0033639
0.0882559, 1.69297, -1.22531, -1.53798, -0.899857, -1.19525, 1.23065, -1.30265, 0.0471435, 0.00408812, -0.00055565, -0.00524852, -0.0909672, 0.040515, -0.000657813, 2.77686, 56.8207, 27.3774, 4.71649, 1.92096, 3.38168, 0.00373412, -0.000575811, -0.000416032, 0.000211375, -0.000540101, -0.00432439, 0.000377232, 0.0483199, -0.0355058, -0.0128879, -0.0367271, 0.132057, -0.0173302, 0.470682, -0.54218, 0.336515, -2.08295, -2.16649, -0.128975, 0.47028, -0.542733, 0.33623, -2.08586, -2.16874, -0.125148, -0.0120673, 0.0454378, 0.0232748, 0.0246788, 0.00119309, 0.00197465
0.0892559, 1.69301, -1.22531, -1.53798, -0.899855, -1.19535, 1.23069, -1.30264, 0.0485476, 0.00459546, -0.000373825, -0.00302007, -0.0925493, 0.0442805, 0.000782161, 2.73719, 56.7453, 27.3774, 4.68079, 1.94568, 3.38901, -0.0292249, -0.000628835, -0.000384429, 0.000220602, -0.000548862, -0.00442412, 0.000400465, 0.0501177, -0.0365717, -0.0123133, -0.0335863, 0.136285, -0.0206581, 0.47067, -0.542135, 0.336538, -2.08291, -2.16652, -0.128941, 0.470301, -0.542738, 0.336235, -2.08591, -2.1688, -0.12502, -0.0123401, 0.0465019, 0.0238164, 0.0255582, 0.0004394, 0.0027722
0.0902559, 1.69306, -1.22529, -1.53798, -0.899857, -1.19544, 1.23073, -1.30264, 0.0452977, 0.00741264, 0.00601264, -0.0031158, -0.0924944, 0.0468777, 0.0007588, 2.73719, 56.5628, 27.3774, 4.71649, 1.93927, 3.40365, -0.0356336, -0.000678589, -0.000350628, 0.000227825, -0.000555933, -0.00452271, 0.00040823, 0.0513442, -0.0365639, -0.00836788, -0.0254743, 0.140559, -0.0216073, 0.470657, -0.542088, 0.336562, -2.08288, -2.16654, -0.128906, 0.470324, -0.542738, 0.336243, -2.08593, -2.16888, -0.124892, -0.0126148, 0.0475753, 0.0243626, 0.0254664, -0.000303446, 0.00702432
0.0912559, 1.69311, -1.22529, -1.53798, -0.899868, -1.19554, 1.23076, -1.30264, 0.0482135, 0.00416662, 0.00276532, -0.00580408, -0.0993163, 0.0437273, -0.000952196, 2.66181, 56.5985, 27.4528, 4.86725, 1.9823, 3.42471, 0.00373412, -0.000729487, -0.000314462, 0.000246845, -0.000546675, -0.00461664, 0.000410573, 0.052425, -0.0371971, -0.0125909, -0.0366752, 0.142638, -0.0193448, 0.470645, -0.542041, 0.336586, -2.08285, -2.16657, -0.128871, 0.470348, -0.542736, 0.336239, -2.08594, -2.16895, -0.124751, -0.0128915, 0.048658, 0.0249134, 0.0257073, 0.000388119, 0.00321796
0.0922559, 1.69316, -1.22529, -1.53798, -0.899857, -1.19564, 1.2308, -1.30264, 0.0502058, 0.00365803, 0.00399688, -0.000493217, -0.0985192, 0.0425775, 0.000585906, 2.58643, 56.5628, 27.3774, 4.71649, 2.00061, 3.41739, -0.0292249, -0.000784257, -0.000279919, 0.000257666, -0.00055751, -0.00471021, 0.000431302, 0.0538026, -0.0374802, -0.0122913, -0.0345037, 0.141166, -0.0236021, 0.470632, -0.541992, 0.336611, -2.08281, -2.16659, -0.128834, 0.470372, -0.542738, 0.336244, -2.08598, -2.16901, -0.124629, -0.0131701, 0.0497497, 0.0254687, 0.0257738, 8.66484e-05, 0.00384676
0.0932559, 1.69316, -1.22529, -1.53798, -0.899857, -1.19564, 1.2308, -1.30264, 0.0502058, 0.00365803, 0.00399688, -0.000493217, -0.0985192, 0.0425775, 0.000585906, 2.58643, 56.5628, 27.3774, 4.71649, 2.00061, 3.41739, -0.0292249, -0.000837795, -0.000268077, 0.00027471, -0.000582901, -0.00469866, 0.000458905, 0.0549872, -0.0377303, -0.0126643, -0.0349612, 0.141919, -0.0245133, 0.470619, -0.541942, 0.336637, -2.08277, -2.16662, -0.128797, 0.470372, -0.542738, 0.336244, -2.08598, -2.16901, -0.124629, -0.0134506, 0.0508506, 0.0260284, 0.0257738, 8.66484e-05, 0.00384676
0.0942559, 1.69316, -1.22529, -1.53798, -0.899857, -1.19564, 1.2308, -1.30264, 0.0502058, 0.00365803, 0.00399688, -0.000493217, -0.0985192, 0.0425775, 0.000585906, 2.58643, 56.5628, 27.3774, 4.71649, 2.00061, 3.41739, -0.0292249, -0.000892517, -0.000255986, 0.000292128, -0.000608851, -0.00468688, 0.000487102, 0.0561814, -0.037982, -0.0130402, -0.0354216, 0.142677, -0.0254312, 0.470605, -0.541891, 0.336663, -2.08274, -2.16665, -0.128759, 0.470372, -0.542738, 0.336244, -2.08598, -2.16901, -0.124629, -0.013733, 0.0519604, 0.0265925, 0.0257738, 8.66484e-05, 0.00384676
0.0952559, 1.69316, -1.22529, -1.53798, -0.899857, -1.19564, 1.2308, -1.30264, 0.0502058, 0.00365803, 0.00399688, -0.000493217, -0.0985192, 0.0425775, 0.000585906, 2.58643, 56.5628, 27.3774, 4.71649, 2.00061, 3.41739, -0.0292249, -0.000948432, -0.000243645, 0.000309923, -0.000635364, -0.00467485, 0.0005159, 0.0573852, -0.0382352, -0.013419, -0.035885, 0.143441, -0.0263557, 0.470592, -0.541839, 0.33669, -2.0827, -2.16667, -0.128721, 0.470372, -0.542738, 0.336244, -2.08598, -2.16901, -0.124629, -0.0140172, 0.053079, 0.027161, 0.0257738, 8.66484e-05, 0.00384676
0.0962559, 1.69337, -1.22527, -1.53798, -0.899873, -1.19603, 1.23094, -1.30264, 0.0559493, 0.00353078, 0.000746287, -0.00209021, -0.0967674, 0.0410359, 0.000381978, 2.28492, 56.3049, 27.4528, 4.90295, 2.06195, 3.34598, -0.0228162, -0.00100059, -0.000131262, 0.000314742, -0.000566061, -0.00508625, 0.000461638, 0.0557485, -0.0414237, -0.0156772, -0.0413531, 0.142421, -0.0209636, 0.470578, -0.541786, 0.336717, -2.08266, -2.1667, -0.128681, 0.470472, -0.542731, 0.336255, -2.08606, -2.1693, -0.1241, -0.0143032, 0.0542063, 0.0277337, 0.0285299, 0.00331123, 0.00234461
0.0972559, 1.69343, -1.22526, -1.53798, -0.899871, -1.19614, 1.23097, -1.30263, 0.0576306, 0.00329257, 0.000590096, -0.000593925, -0.095746, 0.0400113, 0.000966729, 2.13416, 56.2653, 27.4528, 4.86725, 2.05646, 3.34598, -0.0420422, -0.00105651, -9.24087e-05, 0.000330391, -0.000566874, -0.00517687, 0.000475141, 0.0564125, -0.0421942, -0.0162268, -0.0419366, 0.141545, -0.0218619, 0.470563, -0.541732, 0.336744, -2.08262, -2.16673, -0.128641, 0.470498, -0.542728, 0.336257, -2.08608, -2.16937, -0.123967, -0.0145909, 0.0553423, 0.0283107, 0.0290169, 0.00390949, 0.00225204
0.0982559, 1.69348, -1.22526, -1.53798, -0.899881, -1.19624, 1.231, -1.30264, 0.0569637, 0.0038735, 0.00129804, -0.00385637, -0.100207, 0.0348648, -0.000813576, 2.05878, 56.1938, 27.417, 5.01404, 2.05646, 3.33865, -0.00267457, -0.00111169, -5.31754e-05, 0.000346029, -0.000562665, -0.00527173, 0.000471357, 0.0571169, -0.0414796, -0.016888, -0.0497354, 0.144237, -0.0199955, 0.470549, -0.541677, 0.336773, -2.08258, -2.16676, -0.128599, 0.470524, -0.542723, 0.336261, -2.08608, -2.16945, -0.123826, -0.0148804, 0.0564869, 0.0288918, 0.0280164, 0.00443126, 0.00209292
0.0992559, 1.69353, -1.22526, -1.53797, -0.899881, -1.19634, 1.23103, -1.30264, 0.0556422, 0.00175313, 0.00351589, -0.00175576, -0.0983268, 0.0301869, -0.00149182, 2.02308, 56.2296, 27.306, 4.97833, 2.04364, 3.3533, 0.0229602, -0.00117071, -1.62206e-05, 0.000361802, -0.000569684, -0.00535501, 0.000478367, 0.0584495, -0.0403115, -0.0177934, -0.0504426, 0.138685, -0.0216883, 0.470534, -0.54162, 0.336802, -2.08254, -2.16679, -0.128557, 0.470547, -0.542721, 0.336264, -2.0861, -2.16952, -0.123706, -0.0151716, 0.0576399, 0.0294771, 0.0265755, 0.00435965, 0.00161364
0.100256, 1.69359, -1.22525, -1.53797, -0.899884, -1.19644, 1.23106, -1.30264, 0.0573998, 0.00200848, 0.00238298, -0.00202077, -0.101855, 0.0329253, 0.000700875, 1.87232, 56.1938, 27.306, 5.01404, 2.04364, 3.33133, -0.0228162, -0.00122945, 2.40384e-05, 0.000380171, -0.000563941, -0.00544892, 0.000490107, 0.0600313, -0.0415185, -0.0183168, -0.0515361, 0.144128, -0.0245867, 0.470519, -0.541563, 0.336831, -2.08249, -2.16682, -0.128514, 0.470574, -0.542717, 0.336265, -2.08611, -2.16959, -0.12356, -0.0154644, 0.0588012, 0.0300665, 0.0275282, 0.00409166, 0.00140373
0.101256, 1.69364, -1.22525, -1.53797, -0.899882, -1.19655, 1.23109, -1.30264, 0.0596362, 0.000507154, 0.00471399, -0.00052325, -0.108152, 0.0297767, -0.000278736, 1.79694, 56.2296, 27.306, 4.97833, 2.02533, 3.31759, -0.00267457, -0.00129172, 6.24811e-05, 0.000398134, -0.000565751, -0.00553844, 0.000504444, 0.0613144, -0.0418536, -0.0189483, -0.0554018, 0.146813, -0.0246374, 0.470503, -0.541504, 0.336861, -2.08245, -2.16685, -0.128471, 0.470598, -0.542715, 0.336266, -2.08613, -2.16966, -0.123426, -0.0157588, 0.0599708, 0.0306599, 0.0275935, 0.00410668, 0.00116424
0.102256, 1.6937, -1.22525, -1.53797, -0.89989, -1.19665, 1.23111, -1.30264, 0.0571005, 0.00117586, 0.00258741, -0.00295575, -0.109844, 0.0222388, -0.000423183, 1.64619, 56.1938, 27.3417, 5.08942, 2.02533, 3.31759, 0.00373412, -0.00135204, 0.00010278, 0.000418602, -0.00055554, -0.00563026, 0.000507623, 0.0629193, -0.0392839, -0.0205755, -0.0657914, 0.146218, -0.0274454, 0.470487, -0.541444, 0.336892, -2.08241, -2.16688, -0.128426, 0.470624, -0.54271, 0.336266, -2.08613, -2.16974, -0.123276, -0.0160548, 0.0611486, 0.0312573, 0.0247315, 0.00384263, -1.43754e-05
0.103256, 1.69375, -1.22525, -1.53796, -0.89989, -1.19676, 1.23114, -1.30264, 0.0533007, -4.94092e-05, 0.00277014, -0.00114163, -0.105481, 0.0221108, -0.000282122, 1.57081, 56.2296, 27.306, 5.05371, 2.01343, 3.29562, 0.00373412, -0.00141716, 0.000141203, 0.000437986, -0.000554555, -0.00572163, 0.000524554, 0.0656237, -0.0375303, -0.0211964, -0.0628614, 0.141876, -0.0323301, 0.470471, -0.541383, 0.336923, -2.08236, -2.16691, -0.128381, 0.470648, -0.542709, 0.336267, -2.08615, -2.1698, -0.123135, -0.0163524, 0.0623344, 0.0318586, 0.0227609, 0.00238087, -0.000390607
0.104256, 1.69381, -1.22524, -1.53795, -0.899896, -1.19688, 1.23116, -1.30264, 0.0547542, 0.00225939, 0.00693544, -0.00252909, -0.11278, 0.022185, -0.00042544, 1.45576, 56.2653, 27.2306, 5.12909, 2.02533, 3.26724, 0.0101428, -0.00148094, 0.00018097, 0.000456259, -0.000551301, -0.0058154, 0.000533544, 0.0662108, -0.0388031, -0.0190155, -0.0637169, 0.1509, -0.0309979, 0.470455, -0.54132, 0.336955, -2.08231, -2.16694, -0.128334, 0.470673, -0.542705, 0.33627, -2.08616, -2.16988, -0.122989, -0.0166515, 0.0635282, 0.0324637, 0.0238371, 0.00271529, 0.0022377
0.105256, 1.69386, -1.22523, -1.53795, -0.899906, -1.19699, 1.23119, -1.30264, 0.0566136, 0.0064208, 0.00816128, -0.0051233, -0.117267, 0.0219724, 0.000191091, 1.305, 56.1938, 27.2306, 5.27588, 2.01984, 3.24527, -0.00267457, -0.00154431, 0.000221296, 0.000472706, -0.000540534, -0.00591779, 0.000542334, 0.0661182, -0.0402896, -0.0170049, -0.0665601, 0.159642, -0.0294751, 0.470438, -0.541257, 0.336987, -2.08227, -2.16698, -0.128287, 0.470699, -0.542699, 0.336275, -2.08617, -2.16995, -0.122825, -0.0169521, 0.0647298, 0.0330727, 0.0250939, 0.00376399, 0.00480004
0.106256, 1.69391, -1.22523, -1.53795, -0.899909, -1.1971, 1.23121, -1.30263, 0.0520986, 0.00389005, 0.00515518, -0.00434623, -0.116009, 0.0211965, 0.000873379, 1.26533, 56.2296, 27.2663, 5.31555, 2.00702, 3.23886, -0.0228162, -0.00161496, 0.000256105, 0.000495477, -0.000529716, -0.00600653, 0.000566096, 0.0701958, -0.0373666, -0.0196924, -0.0689282, 0.156517, -0.037262, 0.470421, -0.541192, 0.337021, -2.08222, -2.16701, -0.128239, 0.470718, -0.5427, 0.336273, -2.08618, -2.17001, -0.122673, -0.0172541, 0.0659392, 0.0336855, 0.0219254, 0.00123763, 0.0022186
0.107256, 1.69397, -1.22522, -1.53795, -0.899918, -1.19721, 1.23123, -1.30264, 0.0515822, 0.00209169, 0.00701317, -0.00456993, -0.11563, 0.0218051, -0.00135053, 1.11457, 56.2653, 27.2663, 5.38696, 2.01343, 3.20224, 0.0293689, -0.00168275, 0.000296044, 0.000515132, -0.000522148, -0.00610433, 0.000571316, 0.071439, -0.0379099, -0.0204502, -0.067276, 0.155424, -0.0352928, 0.470404, -0.541126, 0.337054, -2.08217, -2.16705, -0.12819, 0.470743, -0.542696, 0.336276, -2.08619, -2.17009, -0.122516, -0.0175576, 0.0671563, 0.0343019, 0.0221843, 0.00136764, 0.00187744
0.108256, 1.69402, -1.22522, -1.53794, -0.899925, -1.19733, 1.23125, -1.30264, 0.0506561, 0.00164462, 0.00524825, -0.00481137, -0.114265, 0.025737, -0.00113771, 0.963814, 56.2653, 27.2663, 5.46234, 1.99512, 3.19583, 0.0357776, -0.00175134, 0.000335502, 0.000533378, -0.000513662, -0.00620207, 0.00058354, 0.0736436, -0.0382852, -0.0213869, -0.065274, 0.156746, -0.0375777, 0.470387, -0.541059, 0.337088, -2.08212, -2.16708, -0.12814, 0.470767, -0.542692, 0.33628, -2.0862, -2.17016, -0.122356, -0.0178624, 0.068381, 0.034922, 0.0223029, 0.000576541, 0.00121985
0.109256, 1.69408, -1.22521, -1.53794, -0.89993, -1.19744, 1.23127, -1.30264, 0.0532337, -0.00131442, 0.00792415, -0.00413673, -0.114043, 0.0246084, -4.63967e-05, 0.813057, 56.3763, 27.2306, 5.50201, 1.99512, 3.17386, 0.0165515, -0.00182273, 0.000374787, 0.000553139, -0.00051042, -0.00629675, 0.000600905, 0.0735849, -0.040198, -0.0227331, -0.0646248, 0.153737, -0.0363088, 0.470369, -0.54099, 0.337123, -2.08207, -2.16712, -0.128089, 0.47079, -0.542689, 0.336284, -2.08621, -2.17023, -0.122204, -0.0181686, 0.0696132, 0.0355458, 0.0238563, 0.00215532, 0.000463616
0.110256, 1.69412, -1.2252, -1.53794, -0.899941, -1.19756, 1.23129, -1.30264, 0.0504294, 0.00314788, 0.00326989, -0.00535712, -0.113932, 0.023502, 0.00118977, 0.737679, 56.3406, 27.3417, 5.6131, 1.99512, 3.15921, -0.0164075, -0.00189733, 0.000410216, 0.000570789, -0.000497904, -0.00640266, 0.000626348, 0.0762104, -0.0380779, -0.0222929, -0.0698768, 0.158713, -0.0425309, 0.470351, -0.540921, 0.337159, -2.08202, -2.16715, -0.128038, 0.470809, -0.542689, 0.336289, -2.08623, -2.1703, -0.122028, -0.0184762, 0.0708527, 0.036173, 0.0215476, 0.00064659, 0.00118547
0.111256, 1.69418, -1.22519, -1.53793, -0.899957, -1.19767, 1.23131, -1.30264, 0.0487746, 0.0038554, 0.00438235, -0.00709853, -0.113608, 0.0223865, -0.0011396, 0.511544, 56.416, 27.2663, 5.76385, 1.98871, 3.1528, 0.0357776, -0.00196547, 0.000453473, 0.000589936, -0.000490222, -0.00649821, 0.000623674, 0.0772901, -0.037827, -0.0221539, -0.0707434, 0.159476, -0.0406978, 0.470332, -0.54085, 0.337195, -2.08197, -2.16719, -0.127985, 0.470836, -0.542681, 0.336294, -2.08622, -2.17039, -0.12187, -0.018785, 0.0720996, 0.0368038, 0.0210357, 0.000796796, 0.00179432
0.112256, 1.69423, -1.22519, -1.53792, -0.899963, -1.19778, 1.23133, -1.30264, 0.048582, -0.000330363, 0.00642141, -0.00784949, -0.113148, 0.0221615, -0.00150572, 0.360787, 56.5628, 27.2663, 5.76385, 1.97681, 3.13083, 0.0559192, -0.00204206, 0.000490865, 0.000610207, -0.000491152, -0.0065885, 0.000642077, 0.0783608, -0.0386095, -0.0244287, -0.0701263, 0.155594, -0.0396755, 0.470313, -0.540778, 0.337232, -2.08192, -2.16723, -0.127932, 0.470857, -0.54268, 0.336298, -2.08624, -2.17046, -0.121724, -0.0190951, 0.0733536, 0.0374381, 0.0214639, 0.00137692, -7.72643e-06
0.113256, 1.69427, -1.22517, -1.53791, -0.899974, -1.19789, 1.23134, -1.30264, 0.0475526, 0.00167457, 0.00616726, -0.0103402, -0.113465, 0.0211551, 0.00116633, 0.245735, 56.6342, 27.3417, 5.83527, 1.98871, 3.13083, -0.00267457, -0.0021202, 0.000525689, 0.000629892, -0.000482199, -0.00668417, 0.000671639, 0.0792551, -0.0385635, -0.0241407, -0.0727187, 0.158414, -0.0424719, 0.470294, -0.540705, 0.337269, -2.08186, -2.16726, -0.127878, 0.470875, -0.542679, 0.336303, -2.08626, -2.17051, -0.12156, -0.0194064, 0.0746148, 0.0380757, 0.0211529, 0.0017103, 0.000777467
0.114256, 1.69432, -1.22516, -1.53791, -0.899988, -1.198, 1.23136, -1.30264, 0.0488523, 0.00309474, 0.0068969, -0.00911651, -0.114412, 0.0210528, 0.00128618, 0.059273, 56.7096, 27.3774, 5.91064, 1.9823, 3.11618, -0.0164075, -0.00219516, 0.000565337, 0.000647468, -0.000478515, -0.00678014, 0.000686721, 0.0802918, -0.0392712, -0.0233759, -0.072613, 0.161294, -0.0434022, 0.470275, -0.54063, 0.337307, -2.08181, -2.1673, -0.127822, 0.470897, -0.542674, 0.336311, -2.08627, -2.17059, -0.121402, -0.0197189, 0.075883, 0.0387168, 0.0216168, 0.00186928, 0.0019912
0.115256, 1.69436, -1.22515, -1.5379, -0.900003, -1.19811, 1.23137, -1.30264, 0.0486683, 0.0031957, 0.00978988, -0.00818575, -0.119394, 0.0159142, -0.00158395, -0.0914839, 56.8207, 27.4528, 5.98602, 1.99512, 3.10977, 0.0495105, -0.00227417, 0.000601361, 0.000668729, -0.000468984, -0.00687142, 0.000699405, 0.0818604, -0.0382409, -0.0230286, -0.0769077, 0.163517, -0.0428619, 0.470255, -0.540554, 0.337346, -2.08175, -2.16734, -0.127766, 0.470915, -0.542671, 0.336315, -2.08626, -2.17066, -0.121241, -0.0200326, 0.0771581, 0.0393611, 0.0203482, 0.00149988, 0.00276824
0.116256, 1.6944, -1.22514, -1.53788, -0.900025, -1.19822, 1.23139, -1.30264, 0.0478021, 0.00334354, 0.0146356, -0.00924227, -0.112822, 0.0129258, 0.000402092, -0.206535, 56.9318, 27.417, 6.13678, 1.98871, 3.08047, 0.0101428, -0.00234995, 0.00064116, 0.000685014, -0.000474263, -0.00696147, 0.000713096, 0.080675, -0.0393117, -0.0220278, -0.0730632, 0.157414, -0.0413064, 0.470235, -0.540477, 0.337386, -2.0817, -2.16738, -0.127709, 0.470937, -0.542665, 0.336326, -2.08627, -2.17074, -0.121097, -0.0203474, 0.07844, 0.0400087, 0.0210984, 0.00384586, 0.0045538
0.117256, 1.69445, -1.22513, -1.53788, -0.900034, -1.19832, 1.2314, -1.30264, 0.0457338, 0.0106516, 0.0115282, -0.00855152, -0.108605, 0.00926934, -0.00119, -0.392998, 57.0032, 27.5281, 6.09711, 1.99512, 3.0878, 0.0495105, -0.00243036, 0.000677909, 0.000705034, -0.000469873, -0.00704704, 0.000730431, 0.0819223, -0.0373956, -0.019386, -0.0762574, 0.160378, -0.0436291, 0.470215, -0.540398, 0.337426, -2.08164, -2.16742, -0.127651, 0.470956, -0.542661, 0.336332, -2.08627, -2.17081, -0.120945, -0.0206634, 0.0797287, 0.0406595, 0.0190177, 0.003418, 0.00768068
0.118256, 1.69448, -1.22511, -1.53787, -0.900052, -1.19842, 1.23141, -1.30264, 0.0422543, 0.0129857, 0.00946793, -0.0110443, -0.105424, 0.00792329, 0.000902087, -0.508049, 57.0786, 27.6392, 6.17248, 2.00702, 3.05942, 0.00373412, -0.00251182, 0.000713417, 0.000722804, -0.000472829, -0.00713174, 0.000755946, 0.0835604, -0.0359859, -0.0194639, -0.0787118, 0.160554, -0.0479904, 0.470194, -0.540319, 0.337466, -2.08158, -2.16746, -0.127592, 0.470973, -0.542657, 0.336342, -2.08629, -2.17087, -0.120801, -0.0209804, 0.081024, 0.0413134, 0.0173541, 0.00304898, 0.00804885
0.119256, 1.69452, -1.22511, -1.53785, -0.900075, -1.19851, 1.23142, -1.30264, 0.043569, 0.0113241, 0.0129937, -0.0128394, -0.10646, 0.00553035, 0.00111002, -0.658806, 57.2968, 27.6749, 6.24786, 2.00061, 3.06674, -0.00999879, -0.00259024, 0.000753515, 0.000745902, -0.000473714, -0.00720445, 0.000766763, 0.0832229, -0.0375042, -0.0201548, -0.07989, 0.15941, -0.0450133, 0.470173, -0.540238, 0.337508, -2.08152, -2.1675, -0.127533, 0.470995, -0.542648, 0.336347, -2.08628, -2.17095, -0.120667, -0.0212984, 0.0823259, 0.0419705, 0.0185163, 0.0048563, 0.00802822
0.120256, 1.69455, -1.2251, -1.53784, -0.900096, -1.1986, 1.23143, -1.30264, 0.0358324, 0.0103362, 0.0127645, -0.0164345, -0.104164, 0.00852317, -0.000243332, -0.694511, 57.5189, 27.8257, 6.28357, 2.01343, 3.07315, 0.0165515, -0.00267668, 0.000786148, 0.000770833, -0.00047244, -0.00727625, 0.000788985, 0.0870006, -0.0350283, -0.0210895, -0.0775598, 0.159002, -0.0485228, 0.470152, -0.540155, 0.33755, -2.08146, -2.16755, -0.127472, 0.471008, -0.542646, 0.33635, -2.08627, -2.171, -0.12053, -0.0216174, 0.0836343, 0.0426306, 0.0158345, 0.00247324, 0.00725967
0.121256, 1.69459, -1.22508, -1.53782, -0.900116, -1.19869, 1.23144, -1.30264, 0.0338538, 0.00912812, 0.0162586, -0.0174491, -0.101575, 0.00609336, -0.00114557, -0.884941, 57.63, 27.8257, 6.24786, 2.01343, 3.08047, 0.0431018, -0.00275508, 0.000826661, 0.000786395, -0.00048264, -0.00735093, 0.000794459, 0.0876151, -0.0349092, -0.0212591, -0.0762144, 0.155159, -0.047193, 0.47013, -0.540072, 0.337592, -2.0814, -2.16759, -0.12741, 0.47103, -0.542636, 0.336364, -2.08626, -2.17109, -0.120403, -0.0219375, 0.084949, 0.0432937, 0.0154153, 0.00320343, 0.00766432
0.122256, 1.69462, -1.22507, -1.53781, -0.900141, -1.19878, 1.23144, -1.30264, 0.033415, 0.0112221, 0.0113444, -0.0169575, -0.0954023, 0.0089613, 0.000694352, -0.996025, 57.7411, 28.0121, 6.28357, 2.01984, 3.0878, 0.00373412, -0.00283973, 0.000862209, 0.00080628, -0.000484221, -0.0074275, 0.00081762, 0.0892767, -0.035152, -0.0218731, -0.0751899, 0.154759, -0.0512783, 0.470108, -0.539987, 0.337635, -2.08134, -2.16763, -0.127348, 0.471046, -0.54263, 0.336373, -2.08626, -2.17115, -0.120262, -0.0222584, 0.08627, 0.0439598, 0.0153792, 0.00298972, 0.00746008
0.123256, 1.69465, -1.22506, -1.53779, -0.900174, -1.19886, 1.23145, -1.30264, 0.0322204, 0.00933037, 0.0147007, -0.0214929, -0.0903344, 0.00701758, 0.000225542, -1.07537, 57.999, 28.0478, 6.39465, 2.01984, 3.08047, 0.0101428, -0.0029225, 0.000900379, 0.000828325, -0.000493684, -0.0074917, 0.000826175, 0.0881659, -0.0366233, -0.0229858, -0.0742304, 0.148801, -0.0457502, 0.470086, -0.5399, 0.337679, -2.08127, -2.16768, -0.127284, 0.471064, -0.54262, 0.336382, -2.08625, -2.17123, -0.120143, -0.0225803, 0.0875972, 0.0446288, 0.0164457, 0.00564861, 0.0071556
0.124256, 1.69468, -1.22503, -1.53778, -0.900201, -1.19895, 1.23146, -1.30264, 0.0291501, 0.00939505, 0.0152166, -0.0220493, -0.0874345, 0.0100455, -0.000799074, -1.18645, 58.0704, 28.1589, 6.39465, 2.03815, 3.08047, 0.0357776, -0.00300578, 0.000938378, 0.000843749, -0.000505763, -0.00756442, 0.000835689, 0.0904248, -0.036275, -0.0228641, -0.0701213, 0.148803, -0.0471182, 0.470063, -0.539813, 0.337724, -2.08121, -2.16772, -0.127219, 0.471082, -0.542611, 0.336397, -2.08624, -2.17131, -0.120017, -0.0229031, 0.0889305, 0.0453006, 0.0158682, 0.00471952, 0.00761
0.125256, 1.69472, -1.22502, -1.53776, -0.900232, -1.19902, 1.23146, -1.30264, 0.0318966, 0.0128167, 0.0186349, -0.0256027, -0.0846248, 0.00753029, -0.00104134, -1.37688, 58.2568, 28.274, 6.39465, 2.04364, 3.08047, 0.0495105, -0.0030871, 0.000979637, 0.000865171, -0.000516663, -0.00762187, 0.000838488, 0.0877332, -0.0392923, -0.0209458, -0.0703354, 0.149745, -0.0396194, 0.47004, -0.539724, 0.337769, -2.08114, -2.16777, -0.127154, 0.471103, -0.542597, 0.336407, -2.08621, -2.17139, -0.119905, -0.0232267, 0.0902698, 0.0459753, 0.0185318, 0.00855444, 0.0104993
0.126256, 1.69473, -1.225, -1.53774, -0.900268, -1.19909, 1.23146, -1.30264, 0.0292477, 0.0183125, 0.0181091, -0.0294147, -0.0829098, 0.00591645, 0.000526475, -1.37688, 58.3282, 28.3851, 6.43433, 2.06195, 3.07315, 0.0165515, -0.0031748, 0.00101292, 0.00088285, -0.000527078, -0.00768689, 0.000858814, 0.0883047, -0.0386448, -0.0188826, -0.0728571, 0.154212, -0.0413295, 0.470017, -0.539634, 0.337815, -2.08108, -2.16781, -0.127088, 0.471115, -0.542589, 0.336421, -2.0862, -2.17145, -0.119783, -0.0235512, 0.0916151, 0.0466527, 0.017664, 0.00899344, 0.0131465
0.127256, 1.69476, -1.22499, -1.53773, -0.900305, -1.19917, 1.23146, -1.30264, 0.0303507, 0.0124286, 0.0175329, -0.0313095, -0.0770242, 0.00492167, 0.000825701, -1.48797, 58.5504, 28.6429, 6.43433, 2.08118, 3.05942, 0.00373412, -0.00326239, 0.00104893, 0.000909718, -0.000527794, -0.00773952, 0.000873296, 0.0881194, -0.0404692, -0.0234174, -0.0735745, 0.144184, -0.0381596, 0.469994, -0.539542, 0.337862, -2.08101, -2.16786, -0.12702, 0.47113, -0.542578, 0.336427, -2.08618, -2.17151, -0.119661, -0.0238765, 0.0929661, 0.0473329, 0.0189844, 0.0113017, 0.00931941
0.128256, 1.69478, -1.22497, -1.5377, -0.900347, -1.19923, 1.23146, -1.30263, 0.026172, 0.0123235, 0.0205033, -0.0391317, -0.0774582, 0.00444647, 0.000550467, -1.52764, 58.7329, 28.6429, 6.43433, 2.10498, 3.03744, 0.00373412, -0.00334803, 0.00108678, 0.000927735, -0.000550716, -0.00779244, 0.000881804, 0.0885426, -0.0405503, -0.0237866, -0.0751942, 0.145488, -0.0349667, 0.46997, -0.539449, 0.337909, -2.08094, -2.16791, -0.126952, 0.471147, -0.542565, 0.336442, -2.08616, -2.17159, -0.119564, -0.0242025, 0.094323, 0.0480157, 0.0187447, 0.0123025, 0.00956976
0.129256, 1.69479, -1.22496, -1.53768, -0.900395, -1.19929, 1.23146, -1.30264, 0.0230521, 0.0128716, 0.0195898, -0.042685, -0.07198, 0.00349925, -0.000819816, -1.56335, 58.8837, 28.754, 6.47003, 2.09949, 3.03012, 0.0357776, -0.00343468, 0.00112361, 0.000948817, -0.000566834, -0.00784166, 0.000884619, 0.0892965, -0.0401543, -0.0246657, -0.0759672, 0.14227, -0.0332714, 0.469946, -0.539355, 0.337957, -2.08087, -2.16796, -0.126882, 0.471162, -0.542552, 0.336455, -2.08613, -2.17167, -0.119462, -0.0245292, 0.0956855, 0.0487012, 0.018021, 0.0130396, 0.00928339
0.130256, 1.69481, -1.22494, -1.53765, -0.900445, -1.19935, 1.23146, -1.30264, 0.0186758, 0.0124728, 0.022024, -0.0444568, -0.0690373, 0.00276794, 0.000402891, -1.63873, 59.0662, 28.8691, 6.47003, 2.12421, 3.02371, 0.0101428, -0.00352005, 0.00116307, 0.000971716, -0.00058172, -0.00788588, 0.000884637, 0.0910592, -0.0390106, -0.0245836, -0.0738417, 0.139878, -0.0362046, 0.469921, -0.539259, 0.338006, -2.0808, -2.168, -0.126812, 0.471179, -0.542535, 0.336466, -2.08609, -2.17175, -0.119364, -0.0248567, 0.0970535, 0.0493892, 0.0166251, 0.0126067, 0.00981697
0.131256, 1.69481, -1.22493, -1.53762, -0.900495, -1.1994, 1.23146, -1.30264, 0.0167595, 0.0113986, 0.0240869, -0.0449959, -0.0611814, 0.00199361, -0.000206124, -1.63873, 59.2883, 28.9802, 6.43433, 2.1297, 3.02371, 0.0229602, -0.00360934, 0.00119947, 0.000994385, -0.000605597, -0.00792418, 0.000887649, 0.0912655, -0.0394673, -0.0249998, -0.0696459, 0.13276, -0.0344786, 0.469896, -0.539162, 0.338055, -2.08073, -2.16805, -0.126741, 0.471193, -0.542521, 0.336478, -2.08605, -2.17183, -0.11928, -0.0251848, 0.0984271, 0.0500798, 0.0167484, 0.0138618, 0.0100503
0.132256, 1.69482, -1.2249, -1.5376, -0.900555, -1.19945, 1.23146, -1.30264, 0.0132323, 0.0165857, 0.0252738, -0.0493501, -0.0606552, 0.0014403, 0.00081202, -1.6784, 59.3994, 29.0912, 6.43433, 2.13611, 3.02371, -0.00267457, -0.00369599, 0.00123826, 0.00101308, -0.00062826, -0.00797053, 0.000887453, 0.0921195, -0.0388153, -0.0224564, -0.0704607, 0.138347, -0.0356224, 0.469871, -0.539064, 0.338106, -2.08066, -2.1681, -0.126669, 0.47121, -0.542504, 0.336495, -2.08602, -2.17191, -0.119186, -0.0255136, 0.099806, 0.0507728, 0.0159021, 0.0139821, 0.0131441
0.133256, 1.69483, -1.22488, -1.53757, -0.900612, -1.1995, 1.23146, -1.30264, 0.0105053, 0.017071, 0.0233364, -0.0510846, -0.0602195, 0.0013149, -0.00139143, -1.7141, 59.5065, 29.2023, 6.35895, 2.15442, 3.01639, 0.0495105, -0.0037847, 0.00127728, 0.00103334, -0.00065302, -0.00801332, 0.0008813, 0.0945631, -0.0376356, -0.0234315, -0.0729772, 0.139533, -0.0364882, 0.469845, -0.538964, 0.338156, -2.08059, -2.16815, -0.126595, 0.471226, -0.542487, 0.336511, -2.08597, -2.172, -0.119097, -0.025843, 0.10119, 0.0514683, 0.0144546, 0.0130531, 0.0125377
0.134256, 1.69483, -1.22487, -1.53754, -0.900676, -1.19954, 1.23145, -1.30264, 0.0076399, 0.0155051, 0.0218829, -0.0565449, -0.055463, 0.00043054, -0.000181637, -1.7141, 59.693, 29.3134, 6.32324, 2.17914, 3.03012, 0.0293689, -0.00387331, 0.00131658, 0.00105719, -0.000680265, -0.008043, 0.000879007, 0.0951305, -0.0376892, -0.0260256, -0.0756182, 0.135062, -0.0359244, 0.46982, -0.538862, 0.338208, -2.08052, -2.16821, -0.126521, 0.471242, -0.542467, 0.336524, -2.08592, -2.17209, -0.119024, -0.026173, 0.10258, 0.0521662, 0.0141042, 0.0142827, 0.0105848
0.135256, 1.69484, -1.22485, -1.53751, -0.900746, -1.19958, 1.23146, -1.30264, 0.0082618, 0.0135046, 0.0279678, -0.0605806, -0.0507205, 0.00084258, 0.0010657, -1.82915, 59.9152, 29.3888, 6.28357, 2.17273, 3.01639, -0.00267457, -0.00395958, 0.00136076, 0.00108335, -0.00070966, -0.00806954, 0.000867635, 0.093182, -0.0409485, -0.0260699, -0.0704259, 0.130306, -0.0295896, 0.469793, -0.53876, 0.33826, -2.08044, -2.16826, -0.126446, 0.471262, -0.542444, 0.336536, -2.08587, -2.17218, -0.118955, -0.0265036, 0.103974, 0.0528664, 0.0169556, 0.0177521, 0.0114376
0.136256, 1.69484, -1.22483, -1.53749, -0.900816, -1.19961, 1.23145, -1.30264, 0.00493781, 0.014926, 0.0265056, -0.062792, -0.0431068, 0.00113945, 0.00047311, -1.78948, 60.0223, 29.5752, 6.20819, 2.18555, 3.00174, 0.00373412, -0.00405247, 0.00139692, 0.00110832, -0.000736091, -0.0080967, 0.000866751, 0.0942012, -0.0404928, -0.0263393, -0.0688725, 0.126754, -0.029631, 0.469767, -0.538656, 0.338313, -2.08036, -2.16831, -0.12637, 0.471275, -0.542426, 0.336549, -2.08582, -2.17226, -0.118881, -0.0268347, 0.105374, 0.0535689, 0.016202, 0.0181686, 0.0117316
0.137256, 1.69483, -1.2248, -1.53745, -0.900899, -1.19964, 1.23146, -1.30264, 0.00272513, 0.0184202, 0.0309523, -0.0692808, -0.0379406, 0.00156592, -0.00114266, -1.75378, 60.0223, 29.5395, 6.20819, 2.20935, 2.98068, 0.0431018, -0.00413833, 0.00143963, 0.0011229, -0.000776751, -0.00813298, 0.000843292, 0.09253, -0.0423663, -0.0239266, -0.0651893, 0.127378, -0.0218358, 0.46974, -0.538551, 0.338366, -2.08029, -2.16836, -0.126293, 0.471293, -0.542402, 0.336573, -2.08576, -2.17237, -0.118815, -0.0271662, 0.106779, 0.0542736, 0.0177737, 0.0209388, 0.0150165
0.138256, 1.69483, -1.22478, -1.53742, -0.900982, -1.19967, 1.23145, -1.30263, -0.00115736, 0.0229438, 0.0304026, -0.0741457, -0.0337876, 0.000826387, 0.000696292, -1.75378, 60.062, 29.6506, 6.20819, 2.22858, 2.98709, 0.00373412, -0.00422774, 0.00148057, 0.00114478, -0.000806025, -0.00816298, 0.000837148, 0.0931113, -0.0417127, -0.0224751, -0.0662486, 0.129407, -0.0233259, 0.469713, -0.538444, 0.338421, -2.08021, -2.16842, -0.126215, 0.47131, -0.542378, 0.336591, -2.0857, -2.17246, -0.11874, -0.0274983, 0.108188, 0.0549806, 0.0168714, 0.021526, 0.0170884
0.139256, 1.69482, -1.22477, -1.53739, -0.901063, -1.1997, 1.23146, -1.30263, -0.0018132, 0.0193539, 0.0301288, -0.0752524, -0.0314735, 0.000803132, 0.00121018, -1.7141, 60.3912, 29.7617, 6.09711, 2.27161, 2.98068, -0.0164075, -0.00432179, 0.00152098, 0.00117752, -0.000840479, -0.00817156, 0.000829557, 0.0945334, -0.0421587, -0.025281, -0.0666975, 0.124961, -0.0239253, 0.469685, -0.538336, 0.338476, -2.08013, -2.16847, -0.126136, 0.471325, -0.542356, 0.336598, -2.08564, -2.17254, -0.118691, -0.0278308, 0.109602, 0.0556897, 0.0169347, 0.0219863, 0.014793
0.140256, 1.69481, -1.22474, -1.53735, -0.901159, -1.19971, 1.23145, -1.30263, -0.00212922, 0.0216261, 0.0325387, -0.081915, -0.0280578, 0.000309198, 0.00029816, -1.6784, 60.3912, 29.7617, 6.09711, 2.27161, 2.98709, -0.00267457, -0.00440801, 0.00156452, 0.00119574, -0.000877821, -0.00819583, 0.000802068, 0.0927753, -0.0444386, -0.0245146, -0.0668829, 0.125564, -0.0163562, 0.469658, -0.538226, 0.338531, -2.08005, -2.16853, -0.126055, 0.471344, -0.542326, 0.336621, -2.08556, -2.17265, -0.118631, -0.0281637, 0.111021, 0.0564009, 0.0188441, 0.0251267, 0.0164585
0.141256, 1.6948, -1.22472, -1.53732, -0.901258, -1.19973, 1.23145, -1.30264, -0.00769709, 0.0196195, 0.0297747, -0.0877017, -0.0217695, 0.000451843, -0.00173401, -1.6784, 60.538, 29.9482, 6.13678, 2.29541, 2.98068, 0.0495105, -0.00449848, 0.00160797, 0.00122539, -0.00090772, -0.00820926, 0.000773065, 0.094601, -0.043186, -0.0276626, -0.0688731, 0.119955, -0.0150542, 0.469629, -0.538115, 0.338588, -2.07997, -2.16858, -0.125974, 0.471362, -0.542298, 0.336632, -2.08547, -2.17276, -0.118572, -0.028497, 0.112445, 0.0571142, 0.0172129, 0.0251752, 0.0138221
0.142256, 1.69478, -1.2247, -1.53728, -0.901353, -1.19974, 1.23145, -1.30263, -0.00662515, 0.0191262, 0.0324437, -0.085903, -0.0163874, 0.000850027, 0.000776776, -1.63873, 60.6491, 29.9482, 6.0614, 2.30182, 2.96603, -0.00267457, -0.00458943, 0.00165114, 0.0012489, -0.000953212, -0.00821944, 0.000755788, 0.0946585, -0.0448278, -0.0272606, -0.063573, 0.115899, -0.01612, 0.469601, -0.538002, 0.338645, -2.07989, -2.16864, -0.125892, 0.471379, -0.54227, 0.336651, -2.0854, -2.17286, -0.118532, -0.0288307, 0.113873, 0.0578295, 0.0185404, 0.02656, 0.0148724
0.143256, 1.69477, -1.22468, -1.53724, -0.901462, -1.19974, 1.23145, -1.30263, -0.010264, 0.0199705, 0.0316478, -0.0942204, -0.0128309, 0.000300116, 0.000789118, -1.6784, 60.8356, 30.0593, 6.13678, 2.32013, 2.97336, -0.00999879, -0.00467551, 0.00170042, 0.00127777, -0.000989539, -0.00822536, 0.000717335, 0.0946715, -0.0450828, -0.0285405, -0.0669506, 0.115193, -0.0127737, 0.469572, -0.537889, 0.338703, -2.07981, -2.1687, -0.125809, 0.471402, -0.542234, 0.336665, -2.0853, -2.17297, -0.118488, -0.0291647, 0.115306, 0.0585467, 0.0184159, 0.0281887, 0.0143154
0.144256, 1.69475, -1.22466, -1.53721, -0.901569, -1.19975, 1.23144, -1.30263, -0.0166826, 0.0196332, 0.0333083, -0.0958582, -0.00994946, 0.000203601, -0.000457266, -1.56335, 60.9427, 30.206, 6.13678, 2.33295, 2.97336, 0.0165515, -0.00476986, 0.00174065, 0.00130523, -0.00102857, -0.0082299, 0.000695743, 0.0976865, -0.0427331, -0.0285409, -0.0646306, 0.113239, -0.0158013, 0.469543, -0.537773, 0.338761, -2.07972, -2.16875, -0.125725, 0.471416, -0.542206, 0.336681, -2.08521, -2.17307, -0.118445, -0.029499, 0.116743, 0.0592659, 0.0158568, 0.0265469, 0.014646
0.145256, 1.69473, -1.22463, -1.53716, -0.90167, -1.19974, 1.23144, -1.30263, -0.0183439, 0.020151, 0.0350923, -0.0988988, -0.00661151, 0.000952178, -0.00152555, -1.56335, 61.0181, 30.206, 5.95032, 2.31372, 2.95138, 0.0495105, -0.00486, 0.00178687, 0.00132485, -0.00108643, -0.00823325, 0.000661968, 0.0980653, -0.0435841, -0.0283565, -0.0625609, 0.112456, -0.0128791, 0.469513, -0.537657, 0.338821, -2.07964, -2.16881, -0.12564, 0.471435, -0.542173, 0.336706, -2.08513, -2.17319, -0.118424, -0.0298335, 0.118184, 0.059987, 0.0163981, 0.0276261, 0.0154633
0.146256, 1.6947, -1.2246, -1.53712, -0.90178, -1.19974, 1.23144, -1.30263, -0.0174284, 0.019374, 0.037635, -0.101189, -0.000358063, -0.000177035, 0.00067839, -1.52764, 61.1292, 30.2814, 5.87494, 2.32013, 2.97336, 0.00373412, -0.00495426, 0.00182951, 0.00134832, -0.00113427, -0.00823863, 0.000640595, 0.0967207, -0.0458589, -0.0288643, -0.0602287, 0.107031, -0.00998377, 0.469484, -0.537538, 0.338881, -2.07955, -2.16887, -0.125554, 0.471451, -0.542143, 0.336727, -2.08504, -2.1733, -0.118388, -0.0301683, 0.119629, 0.0607099, 0.0182669, 0.03058, 0.0158178
0.147256, 1.69467, -1.22458, -1.53707, -0.901906, -1.19973, 1.23144, -1.30263, -0.0200463, 0.0212078, 0.0403836, -0.109408, 0.000451397, 0.000425998, 0.000689619, -1.48797, 61.2759, 30.3211, 5.95032, 2.30182, 2.95871, -0.00267457, -0.00504371, 0.0018774, 0.00137312, -0.00118507, -0.00823912, 0.00059387, 0.0961553, -0.0471665, -0.0282402, -0.0608061, 0.109941, -0.00496305, 0.469453, -0.537419, 0.338941, -2.07946, -2.16893, -0.125467, 0.471471, -0.542105, 0.336747, -2.08494, -2.17343, -0.118362, -0.0305034, 0.121079, 0.0614347, 0.0192441, 0.0325534, 0.0172031
0.148256, 1.69465, -1.22455, -1.53702, -0.902032, -1.19973, 1.23143, -1.30263, -0.0232209, 0.0233014, 0.0430959, -0.113783, 0.000988053, -0.00361354, 0.000459746, -1.52764, 61.387, 30.3211, 5.95032, 2.28351, 2.93765, -0.00267457, -0.00513365, 0.00192571, 0.00139757, -0.00123643, -0.00823741, 0.000551131, 0.0965382, -0.0464058, -0.0273321, -0.0636582, 0.110675, -0.003753, 0.469423, -0.537298, 0.339003, -2.07938, -2.16899, -0.125378, 0.471492, -0.542067, 0.336769, -2.08483, -2.17355, -0.118337, -0.0308386, 0.122533, 0.0621611, 0.0182043, 0.0334592, 0.0187921
0.149256, 1.69462, -1.22453, -1.53697, -0.902158, -1.19973, 1.23142, -1.30264, -0.025967, 0.0233204, 0.04336, -0.116009, 0.00489582, -0.00303543, -0.00162628, -1.56335, 61.5695, 30.3925, 5.91064, 2.29541, 2.94406, 0.0495105, -0.00522766, 0.00197239, 0.00142626, -0.00128325, -0.00823441, 0.000502438, 0.0978914, -0.0462391, -0.0278338, -0.0623042, 0.108842, -0.00213368, 0.469392, -0.537175, 0.339065, -2.07929, -2.16905, -0.125289, 0.47151, -0.542031, 0.336787, -2.08471, -2.17368, -0.118309, -0.031174, 0.12399, 0.0628893, 0.0177403, 0.0336523, 0.0188219
0.150256, 1.69458, -1.22451, -1.53692, -0.902294, -1.19972, 1.23142, -1.30263, -0.0309721, 0.0234267, 0.0465286, -0.122443, 0.00386163, -0.00733927, -0.000575562, -1.60302, 61.756, 30.4679, 5.95032, 2.28992, 2.95138, 0.0357776, -0.00532273, 0.00201892, 0.00145464, -0.00133388, -0.00823174, 0.00046351, 0.098863, -0.0448051, -0.0281471, -0.0665758, 0.108856, -0.00248189, 0.469361, -0.537051, 0.339128, -2.0792, -2.16911, -0.125199, 0.471529, -0.541994, 0.336806, -2.0846, -2.1738, -0.118282, -0.0315095, 0.125452, 0.0636192, 0.0160035, 0.0341405, 0.0191397
0.151256, 1.69454, -1.22449, -1.53686, -0.902428, -1.19972, 1.23141, -1.30263, -0.0325966, 0.0213554, 0.0523171, -0.124811, 0.00219198, -0.00605027, 0.000803087, -1.60302, 61.9028, 30.5433, 5.87494, 2.30823, 2.96603, 0.00373412, -0.00541979, 0.00206258, 0.00147932, -0.00138643, -0.00823009, 0.000428706, 0.0999082, -0.0458092, -0.027922, -0.0627542, 0.109564, -0.00228219, 0.469329, -0.536926, 0.339191, -2.07911, -2.16918, -0.125108, 0.471544, -0.541959, 0.336829, -2.0845, -2.17392, -0.118254, -0.0318451, 0.126917, 0.0643506, 0.0167251, 0.0345871, 0.0198997
0.152256, 1.6945, -1.22446, -1.5368, -0.902578, -1.19972, 1.23141, -1.30263, -0.0330663, 0.0238001, 0.0575086, -0.133408, 0.00147967, -0.00290098, 0.00104402, -1.63873, 62.0139, 30.579, 5.95032, 2.31372, 2.923, -0.00999879, -0.00551434, 0.00211145, 0.00150316, -0.00144149, -0.00823738, 0.000378333, 0.0982922, -0.0491156, -0.026007, -0.0601392, 0.115552, 0.00560774, 0.469298, -0.536799, 0.339256, -2.07902, -2.16924, -0.125016, 0.471564, -0.541919, 0.336853, -2.08439, -2.17407, -0.118221, -0.0321808, 0.128386, 0.0650837, 0.0197073, 0.0375112, 0.0226637
0.153256, 1.69446, -1.22442, -1.53673, -0.902737, -1.19972, 1.23141, -1.30263, -0.0364088, 0.027111, 0.0614821, -0.140508, 0.000915432, -0.000414899, -0.00127068, -1.6784, 62.0496, 30.6186, 6.0614, 2.32013, 2.87265, 0.0431018, -0.00560847, 0.00215975, 0.0015235, -0.00149576, -0.00824957, 0.000317189, 0.0984731, -0.0501345, -0.0237248, -0.0579032, 0.121808, 0.011348, 0.469265, -0.53667, 0.339321, -2.07892, -2.1693, -0.124922, 0.471583, -0.541878, 0.336882, -2.08427, -2.17422, -0.118182, -0.0325166, 0.129859, 0.0658182, 0.0204909, 0.0385065, 0.0255905
0.154256, 1.69441, -1.2244, -1.53667, -0.902891, -1.19971, 1.23141, -1.30263, -0.0404799, 0.0260065, 0.0586976, -0.14209, 0.000260331, -0.00311406, 0.000610944, -1.78948, 62.2321, 30.7654, 6.02173, 2.33295, 2.81589, 0.00373412, -0.00570759, 0.00220651, 0.00155145, -0.00154969, -0.00824953, 0.000272916, 0.101932, -0.0474519, -0.0261054, -0.063766, 0.121074, 0.00414023, 0.469233, -0.53654, 0.339387, -2.07883, -2.16937, -0.124828, 0.4716, -0.54184, 0.336904, -2.08415, -2.17436, -0.118153, -0.0328524, 0.131335, 0.0665543, 0.0175245, 0.0368125, 0.0235319
0.155256, 1.69436, -1.22437, -1.5366, -0.903052, -1.19971, 1.2314, -1.30262, -0.0438026, 0.0270486, 0.0625782, -0.146993, 0.000504483, -0.00106693, 0.000644655, -1.90453, 62.3431, 30.8051, 6.02173, 2.32654, 2.77286, -0.00267457, -0.00580595, 0.00225377, 0.00157323, -0.0016128, -0.00825445, 0.000223526, 0.102793, -0.0480264, -0.0249298, -0.0607595, 0.124001, 0.00589219, 0.4692, -0.536409, 0.339453, -2.07873, -2.16943, -0.124733, 0.471618, -0.5418, 0.336932, -2.08404, -2.1745, -0.118128, -0.0331882, 0.132814, 0.0672918, 0.0178483, 0.0372912, 0.0252788
0.156256, 1.69429, -1.22434, -1.53653, -0.903216, -1.1997, 1.2314, -1.30262, -0.051359, 0.026924, 0.0662291, -0.154349, 0.000643858, -0.000607193, -4.49478e-05, -1.94024, 62.4899, 30.8051, 6.02173, 2.32013, 2.75821, 0.0101428, -0.00590687, 0.00229692, 0.00159397, -0.00167814, -0.00825355, 0.000173551, 0.104827, -0.0464527, -0.0247887, -0.0600074, 0.125172, 0.00620653, 0.469167, -0.536276, 0.33952, -2.07864, -2.1695, -0.124636, 0.471631, -0.541762, 0.336962, -2.08393, -2.17465, -0.118111, -0.033524, 0.134297, 0.0680307, 0.0160331, 0.0366766, 0.0258964
0.157256, 1.69423, -1.22432, -1.53645, -0.903388, -1.19969, 1.2314, -1.30263, -0.0519481, 0.0221911, 0.0701611, -0.162263, 0.000481872, -0.000462357, -0.00148803, -2.05529, 62.7121, 30.8765, 5.98602, 2.32013, 2.75088, 0.0495105, -0.00600845, 0.00234304, 0.00161874, -0.00174513, -0.00825118, 0.000114081, 0.104012, -0.0489711, -0.0277108, -0.06111, 0.122103, 0.0147729, 0.469133, -0.536142, 0.339588, -2.07854, -2.16956, -0.124539, 0.471647, -0.541722, 0.336989, -2.0838, -2.1748, -0.118097, -0.0338597, 0.135784, 0.0687709, 0.018069, 0.0395294, 0.0237927
0.158256, 1.69417, -1.22429, -1.53637, -0.903569, -1.19968, 1.23139, -1.30262, -0.0597559, 0.0234256, 0.0722363, -0.172215, 0.00465247, 0.000767568, 0.000940762, -2.13067, 62.8589, 30.9876, 5.98602, 2.33295, 2.71518, -0.00267457, -0.00610824, 0.00239026, 0.00164141, -0.00180968, -0.00825216, 5.79535e-05, 0.104873, -0.0481299, -0.0276154, -0.0602592, 0.122036, 0.0145686, 0.469099, -0.536006, 0.339657, -2.07844, -2.16963, -0.124441, 0.471664, -0.541679, 0.337018, -2.08368, -2.17495, -0.118075, -0.0341954, 0.137273, 0.0695125, 0.0169371, 0.0401191, 0.024524
0.159256, 1.69409, -1.22425, -1.53629, -0.903753, -1.19968, 1.23139, -1.30262, -0.060056, 0.0279547, 0.0756088, -0.17881, 0.00308765, 0.00114055, 0.000389816, -2.16637, 62.8589, 31.0273, 5.95032, 2.34485, 2.6932, 0.00373412, -0.00621239, 0.0024327, 0.0016539, -0.00188795, -0.00826559, 3.18671e-06, 0.10386, -0.0501125, -0.0251062, -0.0609664, 0.12939, 0.0204453, 0.469065, -0.535869, 0.339727, -2.07834, -2.1697, -0.124341, 0.471676, -0.54164, 0.337058, -2.08357, -2.17512, -0.118055, -0.0345309, 0.138766, 0.0702554, 0.0186461, 0.0423235, 0.0278345
0.160256, 1.69401, -1.22422, -1.53619, -0.903952, -1.19966, 1.23139, -1.30262, -0.0688397, 0.0290075, 0.0822455, -0.184876, 0.00646113, 0.000858999, 0.00124322, -2.24175, 63.0811, 31.0273, 5.98602, 2.36316, 2.6868, -0.0228162, -0.00631366, 0.00248007, 0.00167562, -0.00196536, -0.00826263, -6.38611e-05, 0.10538, -0.0482808, -0.0230447, -0.0558464, 0.128387, 0.0193564, 0.469031, -0.53573, 0.339797, -2.07824, -2.16977, -0.124241, 0.471692, -0.541596, 0.33709, -2.08344, -2.17529, -0.118051, -0.0348663, 0.140262, 0.0709994, 0.0166308, 0.0419248, 0.0304418
0.161256, 1.69392, -1.22419, -1.53611, -0.904156, -1.19965, 1.23139, -1.30262, -0.0762666, 0.029387, 0.0845733, -0.189102, 0.00446951, -4.0004e-05, -0.000629248, -2.28143, 63.1921, 31.1384, 5.98602, 2.37598, 2.70053, 0.0165515, -0.00641811, 0.00252238, 0.00169503, -0.00203391, -0.00826625, -0.000128208, 0.108808, -0.045342, -0.0227759, -0.0569337, 0.130952, 0.0168681, 0.468996, -0.53559, 0.339868, -2.07814, -2.16984, -0.12414, 0.471703, -0.541554, 0.337124, -2.0833, -2.17545, -0.118029, -0.0352016, 0.141761, 0.0717447, 0.0135156, 0.0398675, 0.0310241
0.162256, 1.69383, -1.22414, -1.53601, -0.904371, -1.19964, 1.23138, -1.30262, -0.0790453, 0.0322595, 0.0862569, -0.196036, 0.00769318, -0.000647237, -0.00113158, -2.43218, 63.1921, 31.2494, 6.02173, 2.38788, 2.71518, 0.0357776, -0.00651858, 0.00256817, 0.00171114, -0.00210324, -0.00827343, -0.000204559, 0.108264, -0.0461015, -0.021861, -0.0576767, 0.132312, 0.0213701, 0.468961, -0.535448, 0.33994, -2.07804, -2.16991, -0.124037, 0.471718, -0.541506, 0.337163, -2.08316, -2.17564, -0.118004, -0.0355366, 0.143262, 0.0724911, 0.0139601, 0.0418051, 0.0327324
0.163256, 1.69374, -1.22411, -1.53591, -0.904591, -1.19962, 1.23138, -1.30262, -0.0841736, 0.0306177, 0.0925321, -0.202567, 0.00452038, -0.000761283, 0.0011784, -2.47185, 63.3389, 31.2891, 5.98602, 2.4245, 2.7225, -0.0164075, -0.00662344, 0.00261089, 0.00172985, -0.00217944, -0.00827266, -0.000270136, 0.109676, -0.0457109, -0.0217357, -0.0567522, 0.134264, 0.0205255, 0.468925, -0.535305, 0.340012, -2.07793, -2.16998, -0.123934, 0.471729, -0.541462, 0.337199, -2.08303, -2.17581, -0.117993, -0.0358715, 0.144767, 0.0732387, 0.0133036, 0.0418814, 0.0334002
0.164256, 1.69363, -1.22408, -1.53582, -0.904819, -1.19961, 1.23137, -1.30262, -0.0901808, 0.0317974, 0.0938078, -0.213536, 0.0120715, -0.00482518, 0.000785598, -2.54723, 63.5214, 31.4716, 6.0614, 2.44922, 2.70785, -0.0164075, -0.00673087, 0.00265266, 0.00175326, -0.00224977, -0.00827059, -0.000341448, 0.108406, -0.0453783, -0.0226698, -0.0604052, 0.128977, 0.0265448, 0.468889, -0.53516, 0.340086, -2.07783, -2.17005, -0.123829, 0.471738, -0.541417, 0.337232, -2.08288, -2.17598, -0.117977, -0.0362061, 0.146274, 0.0739872, 0.0125549, 0.0447723, 0.0334326
0.165256, 1.69352, -1.22404, -1.5357, -0.90505, -1.19959, 1.23137, -1.30262, -0.0955077, 0.0322112, 0.0983091, -0.21713, 0.012612, -0.00365107, -0.00140905, -2.58294, 63.5968, 31.5113, 5.95032, 2.48584, 2.70785, 0.0357776, -0.00683968, 0.00269147, 0.00176551, -0.00233744, -0.00827472, -0.000417102, 0.110354, -0.044516, -0.0214455, -0.0566274, 0.13042, 0.0277934, 0.468853, -0.535014, 0.34016, -2.07772, -2.17012, -0.123723, 0.471745, -0.541375, 0.337276, -2.08274, -2.17617, -0.117972, -0.0365405, 0.147784, 0.0747369, 0.0114941, 0.0441367, 0.0351215
0.166256, 1.6934, -1.22401, -1.53559, -0.9053, -1.19957, 1.23136, -1.30262, -0.102375, 0.0362214, 0.103091, -0.226064, 0.0135011, -0.00221722, 1.00703e-05, -2.62261, 63.7793, 31.6224, 5.95032, 2.51056, 2.6932, 0.0101428, -0.0069451, 0.00273386, 0.00178517, -0.00241755, -0.00826842, -0.000496324, 0.110958, -0.0440477, -0.0186466, -0.0542034, 0.13571, 0.0287636, 0.468816, -0.534866, 0.340234, -2.07762, -2.17019, -0.123617, 0.471755, -0.541326, 0.337313, -2.08259, -2.17635, -0.11797, -0.0368746, 0.149297, 0.0754875, 0.0108368, 0.0446095, 0.0385596
0.167256, 1.69328, -1.22396, -1.53547, -0.90555, -1.19955, 1.23135, -1.30261, -0.103345, 0.042747, 0.10544, -0.233824, 0.0138715, -0.00172243, 0.000990058, -2.69799, 63.819, 31.7731, 5.87494, 2.54169, 2.6932, -0.0164075, -0.00705103, 0.00277492, 0.00179724, -0.00250014, -0.00827208, -0.000576022, 0.109567, -0.0459239, -0.0154553, -0.0550992, 0.143704, 0.033578, 0.46878, -0.534717, 0.34031, -2.07751, -2.17026, -0.123509, 0.471763, -0.541277, 0.337359, -2.08245, -2.17655, -0.117959, -0.0372084, 0.150812, 0.076239, 0.0124561, 0.0471031, 0.0426132
0.168256, 1.69315, -1.22392, -1.53534, -0.905818, -1.19953, 1.23135, -1.30261, -0.114745, 0.0443599, 0.114118, -0.242547, 0.0150986, -0.00520458, 0.000660038, -2.65832, 63.8547, 31.8842, 5.79956, 2.55359, 2.67215, -0.0164075, -0.00715769, 0.00281448, 0.00180629, -0.00259499, -0.00827478, -0.000661617, 0.11109, -0.0427237, -0.012862, -0.0528099, 0.143511, 0.0336442, 0.468742, -0.534566, 0.340386, -2.0774, -2.17034, -0.123401, 0.47177, -0.541228, 0.337409, -2.0823, -2.17675, -0.117962, -0.0375418, 0.15233, 0.0769914, 0.00910191, 0.0465787, 0.0458016
0.169256, 1.69301, -1.22388, -1.53521, -0.906099, -1.1995, 1.23134, -1.30261, -0.120076, 0.0389588, 0.119288, -0.255592, 0.0196753, -0.0094798, -0.00149275, -2.69799, 64.0372, 31.9556, 5.83527, 2.59021, 2.6932, 0.0357776, -0.00726063, 0.0028578, 0.00182152, -0.00268323, -0.0082658, -0.000770431, 0.109296, -0.0436672, -0.0166045, -0.0562401, 0.134004, 0.0449084, 0.468705, -0.534414, 0.340463, -2.07729, -2.17041, -0.123291, 0.471779, -0.541173, 0.337454, -2.08211, -2.17697, -0.117971, -0.0378749, 0.15385, 0.0777447, 0.0094937, 0.0504855, 0.0431025
0.170256, 1.69287, -1.22384, -1.53508, -0.906378, -1.19947, 1.23132, -1.30261, -0.129097, 0.0425343, 0.124117, -0.264837, 0.0231103, -0.0127302, 0.000700251, -2.77337, 64.0372, 32.1064, 5.72418, 2.62775, 2.71518, -0.00999879, -0.00736691, 0.00289657, 0.00183209, -0.00276959, -0.00826245, -0.000860235, 0.109812, -0.0414979, -0.0144049, -0.0565328, 0.134436, 0.0441206, 0.468667, -0.53426, 0.340541, -2.07718, -2.17049, -0.12318, 0.471785, -0.541121, 0.337503, -2.08195, -2.17717, -0.117969, -0.0382076, 0.155372, 0.0784988, 0.00711322, 0.0510664, 0.0460237
0.171256, 1.69271, -1.2238, -1.53493, -0.906669, -1.19944, 1.23131, -1.3026, -0.13905, 0.0414544, 0.129814, -0.270538, 0.0262722, -0.00947717, 0.00141627, -2.7337, 64.184, 32.1818, 5.68848, 2.65155, 2.71518, -0.0356336, -0.00747478, 0.00293395, 0.001845, -0.00286505, -0.00824833, -0.000956754, 0.112785, -0.0394099, -0.013509, -0.0490985, 0.133267, 0.0412193, 0.468629, -0.534104, 0.340619, -2.07707, -2.17056, -0.123068, 0.471788, -0.541068, 0.337551, -2.08178, -2.17738, -0.117988, -0.0385399, 0.156897, 0.0792537, 0.00486211, 0.0494257, 0.0472791
0.172256, 1.69255, -1.22375, -1.53477, -0.906967, -1.19941, 1.2313, -1.3026, -0.14587, 0.0452434, 0.137896, -0.278763, 0.0234849, -0.0112024, 0.00118154, -2.69799, 64.1483, 32.2175, 5.68848, 2.68268, 2.70053, -0.0420422, -0.0075825, 0.00296983, 0.00184685, -0.00297294, -0.00824525, -0.00105407, 0.11332, -0.0383845, -0.00984783, -0.0479508, 0.139567, 0.0436039, 0.46859, -0.533947, 0.340699, -2.07696, -2.17064, -0.122956, 0.47179, -0.541015, 0.337611, -2.08162, -2.1776, -0.118009, -0.0388718, 0.158424, 0.0800094, 0.00368605, 0.0498241, 0.0516041
0.173256, 1.69237, -1.22372, -1.53462, -0.907286, -1.19938, 1.23128, -1.3026, -0.153138, 0.03908, 0.138026, -0.291481, 0.0224504, -0.0172239, 0.00487489, -2.58294, 64.4815, 32.3682, 5.72418, 2.68909, 2.6868, -0.0228162, -0.007694, 0.00300278, 0.00186794, -0.00306618, -0.00821563, -0.00116047, 0.114542, -0.0363479, -0.0158396, -0.0595072, 0.133255, 0.0425358, 0.468551, -0.533789, 0.340779, -2.07684, -2.17071, -0.122842, 0.471788, -0.540962, 0.337652, -2.08142, -2.17781, -0.11804, -0.0392032, 0.159952, 0.0807657, 0.00113521, 0.0509627, 0.0463261
0.174256, 1.6922, -1.22368, -1.53447, -0.907605, -1.19934, 1.23126, -1.3026, -0.157683, 0.0426444, 0.142295, -0.307826, 0.025192, -0.0171074, 0.0021918, -2.62261, 64.4815, 32.4793, 5.72418, 2.72571, 2.67215, 0.0165515, -0.0078022, 0.00303811, 0.00187519, -0.00316389, -0.00820667, -0.00127068, 0.111571, -0.0387196, -0.0147445, -0.0617379, 0.136769, 0.0567776, 0.468512, -0.533629, 0.340859, -2.07673, -2.17079, -0.122727, 0.471789, -0.540906, 0.337708, -2.08124, -2.17804, -0.118055, -0.0395341, 0.161483, 0.0815227, 0.00310296, 0.0553756, 0.0485397
0.175256, 1.69202, -1.22363, -1.5343, -0.907942, -1.1993, 1.23124, -1.3026, -0.163736, 0.0442339, 0.147056, -0.316812, 0.0274735, -0.0181405, 0.00223588, -2.65832, 64.5172, 32.515, 5.76385, 2.75592, 2.6868, 0.00373412, -0.00790795, 0.00307408, 0.00188344, -0.00326114, -0.00819194, -0.00138625, 0.111513, -0.0384524, -0.0136452, -0.0611929, 0.137373, 0.0604696, 0.468473, -0.533468, 0.340941, -2.07661, -2.17087, -0.122611, 0.47179, -0.540846, 0.337764, -2.08104, -2.17827, -0.118074, -0.0398646, 0.163016, 0.0822803, 0.00255668, 0.0567896, 0.0504019
0.176256, 1.69183, -1.22358, -1.53414, -0.90829, -1.19925, 1.23122, -1.30259, -0.170069, 0.0438825, 0.15296, -0.32408, 0.0305777, -0.0179841, 0.00269889, -2.69799, 64.4815, 32.5904, 5.83527, 2.75043, 2.67947, -0.0228162, -0.00801359, 0.00310859, 0.00189022, -0.00335878, -0.00817605, -0.00150661, 0.111996, -0.0381888, -0.0129198, -0.0575301, 0.135727, 0.0628289, 0.468433, -0.533304, 0.341023, -2.07649, -2.17095, -0.122494, 0.471789, -0.540784, 0.337822, -2.08084, -2.17851, -0.118095, -0.0401944, 0.164551, 0.0830385, 0.00202177, 0.057728, 0.0518123
0.177256, 1.69163, -1.22354, -1.53396, -0.908641, -1.19921, 1.2312, -1.30259, -0.180522, 0.0449662, 0.156882, -0.333454, 0.0319175, -0.0229974, 0.00173063, -2.69799, 64.5172, 32.7015, 5.79956, 2.76874, 2.67947, -0.0164075, -0.00812299, 0.00314062, 0.00189876, -0.00345743, -0.00815741, -0.00162464, 0.113775, -0.0345631, -0.0126084, -0.0611921, 0.134587, 0.062807, 0.468392, -0.53314, 0.341106, -2.07637, -2.17103, -0.122376, 0.471786, -0.540724, 0.337879, -2.08064, -2.17874, -0.118118, -0.0405238, 0.166087, 0.0837972, -0.00183218, 0.0572931, 0.0527317
0.178256, 1.69143, -1.22349, -1.53378, -0.909015, -1.19917, 1.23117, -1.30259, -0.184992, 0.0447885, 0.164449, -0.347619, 0.0276982, -0.0264657, -0.000652485, -2.7337, 64.5926, 32.7372, 5.83527, 2.79895, 2.67215, 0.0357776, -0.00822668, 0.0031762, 0.00190706, -0.00355691, -0.00813411, -0.00177002, 0.112098, -0.0356886, -0.0125396, -0.0661593, 0.137946, 0.074216, 0.468352, -0.532974, 0.34119, -2.07626, -2.17111, -0.122257, 0.471785, -0.540657, 0.337937, -2.0804, -2.179, -0.118149, -0.0408525, 0.167625, 0.0845564, -0.0010953, 0.0605324, 0.0537779
0.179256, 1.69123, -1.22344, -1.53359, -0.909389, -1.19912, 1.23114, -1.30259, -0.187466, 0.0464267, 0.174134, -0.352669, 0.0344084, -0.0289848, 0.00135534, -2.80907, 64.5926, 32.7372, 5.72418, 2.81726, 2.66482, -0.00999879, -0.00832811, 0.00321406, 0.00191201, -0.00366274, -0.00810723, -0.00190842, 0.109561, -0.0376172, -0.0094202, -0.0592057, 0.133736, 0.0798741, 0.468311, -0.532806, 0.341275, -2.07613, -2.17119, -0.122137, 0.471787, -0.540587, 0.338, -2.08018, -2.17926, -0.118189, -0.0411807, 0.169165, 0.0853161, 0.000534164, 0.064199, 0.057941
0.180256, 1.69101, -1.2234, -1.5334, -0.909771, -1.19906, 1.23111, -1.30258, -0.198695, 0.0445105, 0.182196, -0.361241, 0.0396795, -0.0311637, 0.00622062, -2.7337, 64.5926, 32.8126, 5.68848, 2.82367, 2.66482, -0.0228162, -0.00843646, 0.00324322, 0.00191817, -0.00376804, -0.00807635, -0.00203851, 0.110858, -0.0351065, -0.0089829, -0.0546657, 0.127464, 0.0759265, 0.46827, -0.532637, 0.34136, -2.07601, -2.17127, -0.122016, 0.471779, -0.540522, 0.338062, -2.07996, -2.1795, -0.11823, -0.0415082, 0.170706, 0.0860762, -0.00221873, 0.0642772, 0.0590221
0.181256, 1.69078, -1.22335, -1.5332, -0.910172, -1.19901, 1.23107, -1.30258, -0.207869, 0.0453514, 0.187043, -0.374491, 0.0435388, -0.0326804, 0.00459806, -2.69799, 64.6283, 32.9633, 5.68848, 2.83649, 2.66482, -0.0228162, -0.00853991, 0.00327653, 0.00192778, -0.00386408, -0.0080422, -0.00218983, 0.110609, -0.0341435, -0.00876585, -0.0553585, 0.126124, 0.0825258, 0.468228, -0.532466, 0.341446, -2.07589, -2.17135, -0.121894, 0.471775, -0.540451, 0.338122, -2.07971, -2.17976, -0.118265, -0.0418351, 0.172249, 0.0868367, -0.00349927, 0.0659907, 0.0600695
0.182256, 1.69056, -1.2233, -1.533, -0.910572, -1.19895, 1.23104, -1.30258, -0.211002, 0.0436451, 0.189511, -0.38474, 0.0456375, -0.0337633, 0.00147083, -2.62261, 64.6283, 33.0387, 5.53772, 2.87311, 2.6575, 0.0293689, -0.00864408, 0.00330939, 0.00193117, -0.00397111, -0.00801064, -0.0023445, 0.109707, -0.035422, -0.0107319, -0.0582588, 0.123965, 0.0922959, 0.468187, -0.532294, 0.341533, -2.07577, -2.17143, -0.121771, 0.471771, -0.540379, 0.338188, -2.07946, -2.18003, -0.11831, -0.0421613, 0.173793, 0.0875976, -0.00265968, 0.0687865, 0.0589832
0.183256, 1.69032, -1.22326, -1.53278, -0.910996, -1.19889, 1.231, -1.30257, -0.217421, 0.0430385, 0.195632, -0.391969, 0.0526017, -0.0387481, 0.0026923, -2.50756, 64.5926, 32.9236, 5.50201, 2.89142, 2.63644, -0.00999879, -0.00874326, 0.00334516, 0.00193452, -0.00408153, -0.00797323, -0.00250747, 0.108926, -0.0346148, -0.0105223, -0.0570768, 0.116403, 0.0951778, 0.468144, -0.53212, 0.34162, -2.07564, -2.17152, -0.121646, 0.471769, -0.540301, 0.338256, -2.0792, -2.18031, -0.118364, -0.0424869, 0.175339, 0.0883587, -0.00380615, 0.0710371, 0.0601
0.184256, 1.69009, -1.22321, -1.53258, -0.911427, -1.19883, 1.23095, -1.30257, -0.224128, 0.0407355, 0.201596, -0.402905, 0.0580788, -0.042727, 0.00198512, -2.43218, 64.6283, 32.999, 5.42664, 2.90332, 2.62179, -0.00999879, -0.00884488, 0.00337923, 0.00194742, -0.0041703, -0.00793116, -0.00267254, 0.107763, -0.0345005, -0.0117647, -0.0576914, 0.109211, 0.102417, 0.468102, -0.531945, 0.341709, -2.07552, -2.1716, -0.121521, 0.471765, -0.540222, 0.338315, -2.07892, -2.18058, -0.118397, -0.0428117, 0.176886, 0.0891202, -0.00433685, 0.0739171, 0.0598172
0.185256, 1.68985, -1.22316, -1.53237, -0.911864, -1.19877, 1.23091, -1.30256, -0.229706, 0.0425844, 0.202914, -0.414029, 0.0574678, -0.0447143, 0.00241554, -2.3211, 64.5172, 33.0744, 5.35126, 2.90973, 2.57876, -0.0356336, -0.00894726, 0.00341248, 0.00195126, -0.00427547, -0.00789673, -0.00283578, 0.108027, -0.0338488, -0.0121418, -0.0634153, 0.112446, 0.105439, 0.468059, -0.531768, 0.341798, -2.07539, -2.17169, -0.121395, 0.47176, -0.540143, 0.338383, -2.07866, -2.18086, -0.11844, -0.0431357, 0.178434, 0.0898818, -0.0053073, 0.0752333, 0.0601896
