alisrour97/Franka_experiments/Real_Robot_scripts/servo-franka/Data/log_dyn_INIT0_1.csv
Time,q1,q2,q3,q4,q5,q6,q7,dq1,dq2,dq3,dq4,dq5,dq6,dq7,t1,t2,t3,t4,t5,t6,t7,ex1,ex2,ex3,ex4,ex5,ex6,ev1,ev2,ev3,ev4,ev5,ev6,xd,yd,zd,uxd,uyd,uzd,x,y,z,ux,uy,uz,vxd,vyd,vzd,vx,vy,vz
4.88281e-07, 1.69142, -1.22553, -1.538, -0.900043, -1.19172, 1.22869, -1.30261, -0.000941124, 0.00739854, 0.00464614, 0.000142426, 0.00231585, -0.000629039, 0.000593592, -0.809562, 56.5985, 27.3417, 6.58508, 1.62067, 2.78659, -0.205922, 0.000966739, -0.00150088, 4.86279e-05, 1.76597e-05, -0.000507949, -6.5799e-05, -0.00170527, -0.000264747, 0.00599899, 0.00542186, 0.00484932, 0.00124208, 0.471008, -0.543389, 0.335894, -2.08385, -2.16584, -0.129887, 0.469473, -0.542491, 0.336038, -2.08404, -2.16619, -0.129345, 1.77043e-06, 3.2e-05, 1.02972e-05, 0.000421739, 0.000802996, 0.00619052
0.0120642, 1.69141, -1.22548, -1.53796, -0.900046, -1.19169, 1.22869, -1.30261, 0.00148617, 0.00742993, -0.00101, -8.96084e-05, 0.00165277, -0.000453744, -0.00114652, -0.76989, 56.9318, 27.3774, 6.62079, 1.55292, 2.80124, -0.21233, 0.000984229, -0.00149302, 8.17984e-06, -2.49375e-05, -0.000533999, -9.76494e-05, -0.00149275, -0.000640569, 0.00386397, -0.000157523, 0.00599349, 0.00263613, 0.471008, -0.543389, 0.335894, -2.08385, -2.16584, -0.129887, 0.469482, -0.542478, 0.336083, -2.08404, -2.16625, -0.129382, 1.77746e-06, 6.40623e-05, 1.89552e-05, 0.000727617, 0.000969242, 0.0040467
0.0130642, 1.69141, -1.22548, -1.53796, -0.900046, -1.19169, 1.22869, -1.30261, 0.00148617, 0.00742993, -0.00101, -8.96084e-05, 0.00165277, -0.000453744, -0.00114652, -0.76989, 56.9318, 27.3774, 6.62079, 1.55292, 2.80124, -0.21233, 0.000984222, -0.00149302, 8.18066e-06, -2.49405e-05, -0.000534002, -9.76476e-05, -0.0014565, -0.00063942, 0.00386001, -0.000152899, 0.00602003, 0.00263877, 0.471008, -0.543389, 0.335894, -2.08385, -2.16584, -0.129887, 0.469482, -0.542478, 0.336083, -2.08404, -2.16625, -0.129382, 1.77167e-06, 9.92934e-05, 2.84561e-05, 0.000727617, 0.000969242, 0.0040467
0.0140645, 1.69141, -1.22548, -1.53796, -0.900046, -1.19169, 1.22869, -1.30261, 0.00148617, 0.00742993, -0.00101, -8.96084e-05, 0.00165277, -0.000453744, -0.00114652, -0.76989, 56.9318, 27.3774, 6.62079, 1.55292, 2.80124, -0.21233, 0.000984202, -0.00149302, 8.18289e-06, -2.49485e-05, -0.000534012, -9.76426e-05, -0.00141685, -0.000638177, 0.00385569, -0.000147812, 0.00604904, 0.00264166, 0.471008, -0.543389, 0.335894, -2.08385, -2.16584, -0.129887, 0.469482, -0.542478, 0.336083, -2.08404, -2.16625, -0.129382, 1.75167e-06, 0.000137819, 3.88327e-05, 0.000727617, 0.000969242, 0.0040467
0.0150645, 1.69141, -1.22548, -1.53796, -0.900046, -1.19169, 1.22869, -1.30261, 0.00148617, 0.00742993, -0.00101, -8.96084e-05, 0.00165277, -0.000453744, -0.00114652, -0.76989, 56.9318, 27.3774, 6.62079, 1.55292, 2.80124, -0.21233, 0.000984163, -0.00149302, 8.18723e-06, -2.49642e-05, -0.000534031, -9.76329e-05, -0.00137369, -0.000636836, 0.00385101, -0.000142244, 0.00608061, 0.00264481, 0.471008, -0.543389, 0.335894, -2.08385, -2.16584, -0.129887, 0.469482, -0.542478, 0.336083, -2.08404, -2.16625, -0.129382, 1.716e-06, 0.000179762, 5.01169e-05, 0.000727617, 0.000969242, 0.0040467
0.0160645, 1.69141, -1.22548, -1.53796, -0.900046, -1.19169, 1.22869, -1.30261, 0.00148617, 0.00742993, -0.00101, -8.96084e-05, 0.00165277, -0.000453744, -0.00114652, -0.76989, 56.9318, 27.3774, 6.62079, 1.55292, 2.80124, -0.21233, 0.000984098, -0.00149302, 8.19435e-06, -2.49901e-05, -0.000534063, -9.7617e-05, -0.00132689, -0.000635397, 0.00384594, -0.000136176, 0.00611482, 0.00264823, 0.471008, -0.543389, 0.335894, -2.08385, -2.16584, -0.129887, 0.469482, -0.542478, 0.336083, -2.08404, -2.16625, -0.129382, 1.66317e-06, 0.000225248, 6.23407e-05, 0.000727617, 0.000969242, 0.0040467
0.0170647, 1.69141, -1.22548, -1.53796, -0.900046, -1.19169, 1.22869, -1.30261, 0.00148617, 0.00742993, -0.00101, -8.96084e-05, 0.00165277, -0.000453744, -0.00114652, -0.76989, 56.9318, 27.3774, 6.62079, 1.55292, 2.80124, -0.21233, 0.000984002, -0.00149302, 8.20496e-06, -2.50286e-05, -0.000534109, -9.75934e-05, -0.00127632, -0.000633855, 0.00384048, -0.000129588, 0.00615177, 0.00265193, 0.471008, -0.543389, 0.335894, -2.08385, -2.16584, -0.129887, 0.469482, -0.542478, 0.336083, -2.08404, -2.16625, -0.129382, 1.59159e-06, 0.000274397, 7.55354e-05, 0.000727617, 0.000969242, 0.0040467
0.0180647, 1.69141, -1.22548, -1.53796, -0.900046, -1.19169, 1.22869, -1.30261, 0.00148617, 0.00742993, -0.00101, -8.96084e-05, 0.00165277, -0.000453744, -0.00114652, -0.76989, 56.9318, 27.3774, 6.62079, 1.55292, 2.80124, -0.21233, 0.000983869, -0.00149303, 8.21972e-06, -2.50823e-05, -0.000534175, -9.75604e-05, -0.00122185, -0.000632209, 0.00383461, -0.00012246, 0.00619156, 0.00265591, 0.471008, -0.543389, 0.335894, -2.08385, -2.16584, -0.129887, 0.469482, -0.542478, 0.336083, -2.08404, -2.16625, -0.129382, 1.49965e-06, 0.00032733, 8.9732e-05, 0.000727617, 0.000969242, 0.0040467
0.0190647, 1.69141, -1.22548, -1.53796, -0.900046, -1.19169, 1.22869, -1.30261, 0.00148617, 0.00742993, -0.00101, -8.96084e-05, 0.00165277, -0.000453744, -0.00114652, -0.76989, 56.9318, 27.3774, 6.62079, 1.55292, 2.80124, -0.21233, 0.000983691, -0.00149303, 8.23931e-06, -2.51536e-05, -0.000534261, -9.75167e-05, -0.00116338, -0.000630456, 0.00382833, -0.000114775, 0.00623425, 0.00266019, 0.471008, -0.543389, 0.335894, -2.08385, -2.16584, -0.129887, 0.469482, -0.542478, 0.336083, -2.08404, -2.16625, -0.129382, 1.38564e-06, 0.000384166, 0.000104961, 0.000727617, 0.000969242, 0.0040467
0.0200647, 1.69143, -1.22547, -1.53796, -0.900052, -1.19168, 1.22869, -1.30262, 0.00204123, -0.000587509, -3.75696e-05, -0.000608703, 0.000380604, -9.05549e-05, -0.000886615, -0.960319, 57.3721, 27.3417, 6.65649, 1.5401, 2.78659, -0.160145, 0.000996559, -0.00148092, 1.65348e-06, -3.17139e-05, -0.000535513, -0.000129648, -0.000649747, -0.00129558, -0.00060961, -0.000533883, -0.000487681, 0.0035878, 0.471008, -0.543389, 0.335894, -2.08385, -2.16584, -0.129887, 0.469493, -0.542465, 0.336092, -2.08401, -2.16629, -0.129392, 1.24785e-06, 0.00044502, 0.000121252, 0.00124992, 0.0012333, -0.000418892
0.0210647, 1.69142, -1.22547, -1.53796, -0.900053, -1.19168, 1.2287, -1.30262, -0.00131576, 0.00166978, -0.000854798, -0.000404901, 0.000457181, 0.000210824, -0.000366362, -0.845268, 57.2968, 27.3774, 6.65649, 1.53461, 2.77926, -0.166554, 0.000993431, -0.0014844, -1.39118e-06, -3.41673e-05, -0.000542464, -0.00012224, 0.000939727, 0.000755898, 0.000650364, -0.000136391, 0.00183034, -0.000827925, 0.471008, -0.543388, 0.335894, -2.08385, -2.16584, -0.129887, 0.46949, -0.542469, 0.336094, -2.08402, -2.16629, -0.129387, 1.08446e-06, 0.000510009, 0.000138634, -0.000696761, -0.000548749, 0.000657756
0.0220647, 1.69142, -1.22547, -1.53796, -0.900051, -1.19167, 1.22869, -1.30262, -0.00086616, -0.001666, -0.00206454, -0.00181028, 0.00122031, -0.000130773, 0.000492261, -0.845268, 57.15, 27.306, 6.58508, 1.50989, 2.78659, -0.186696, 0.000993133, -0.00148525, -7.78948e-07, -3.27946e-05, -0.000538357, -0.000118537, 0.000778633, 0.000320308, -0.00199349, -0.00214169, -0.00201992, -0.000276767, 0.471008, -0.543388, 0.335894, -2.08385, -2.16584, -0.129887, 0.469489, -0.542468, 0.336094, -2.08402, -2.16628, -0.129389, 8.93621e-07, 0.000579243, 0.000157137, -0.000363116, 0.000104275, -0.00192247
0.0230647, 1.69143, -1.22548, -1.53796, -0.900053, -1.19167, 1.22869, -1.30261, 0.00349592, -0.00425932, -0.00360913, -0.00363578, -0.00652312, 0.00291998, 0.0083222, -0.884941, 57.0032, 27.1195, 6.54541, 1.45404, 2.82962, -0.147328, 0.000995559, -0.00148035, 5.80084e-06, -3.08199e-05, -0.0005293, -0.000125758, 0.000795507, -0.00199424, -0.00428553, -0.00619401, 0.00369195, -0.0054938, 0.471008, -0.543388, 0.335894, -2.08384, -2.16584, -0.129887, 0.469494, -0.542464, 0.336088, -2.08401, -2.16628, -0.129397, 6.73433e-07, 0.000652833, 0.000176787, 0.00186609, 0.000608678, -0.0042384
0.0240647, 1.69144, -1.22547, -1.53797, -0.900049, -1.19168, 1.22869, -1.30262, 0.00343345, 0.0023983, -0.00369915, -0.00252067, -0.0046917, -0.0013999, 0.0036523, -0.920646, 56.7453, 27.0084, 6.39465, 1.44214, 2.93033, -0.0750012, 0.000995603, -0.00147947, 5.22941e-06, -2.5653e-05, -0.000533992, -0.000130812, -0.000193758, -0.000987148, -0.000639969, -0.00807058, 0.00665453, -0.00140048, 0.471008, -0.543387, 0.335894, -2.08384, -2.16584, -0.129887, 0.469495, -0.542464, 0.336088, -2.084, -2.16629, -0.129387, 4.21933e-07, 0.000730885, 0.000197611, 0.000956266, 0.00106106, -0.000433984
0.0250647, 1.69144, -1.22548, -1.53797, -0.900055, -1.19167, 1.22869, -1.30262, 0.00541892, 0.000167937, -0.000581504, -0.0022876, -0.00280009, -0.00410439, 0.00254735, -0.920646, 56.781, 26.8934, 6.39465, 1.41742, 3.02371, -0.0621838, 0.000999376, -0.00147458, 1.21919e-05, -2.23877e-05, -0.00052118, -0.000140739, -0.00201473, -0.00235283, -0.00116367, -0.00718743, 0.00144596, 0.00364256, 0.471008, -0.543387, 0.335895, -2.08384, -2.16584, -0.129887, 0.469499, -0.542458, 0.336082, -2.08398, -2.16629, -0.129397, 1.37109e-07, 0.000813505, 0.000219637, 0.00223588, 0.00307788, -0.00068762
0.0260647, 1.69144, -1.22548, -1.53797, -0.900054, -1.19168, 1.22869, -1.30262, 0.00517798, 0.00505319, -0.00275591, -0.00254745, -0.00278231, -0.00462293, 0.00163001, -0.845268, 56.8207, 26.9687, 6.28357, 1.43024, 3.08047, -0.0484509, 0.000996517, -0.00147599, 1.46783e-05, -1.6154e-05, -0.000524188, -0.000136115, -0.00196472, -0.00170965, 0.000854819, -0.00919778, 0.00626415, 0.00342938, 0.471008, -0.543386, 0.335895, -2.08384, -2.16584, -0.129887, 0.469498, -0.54246, 0.336079, -2.08398, -2.16628, -0.129387, -1.83099e-07, 0.000900793, 0.00024289, 0.00166786, 0.0027788, 0.00134036
0.0270647, 1.69144, -1.22549, -1.53797, -0.900055, -1.19168, 1.22869, -1.30262, 0.00721225, -0.00070885, -0.000882547, -0.0014684, -0.00238897, -0.00424265, 0.00216296, -0.734184, 57.0032, 27.0441, 6.24786, 1.43573, 3.11618, -0.0685925, 0.000995628, -0.00147435, 1.84463e-05, -1.86995e-05, -0.000519961, -0.000135504, -0.00233314, -0.00315473, -0.00179752, -0.0073153, 0.000303176, 0.00510261, 0.471008, -0.543385, 0.335895, -2.08384, -2.16584, -0.129887, 0.469499, -0.54246, 0.336076, -2.08398, -2.16628, -0.129394, -5.40806e-07, 0.000992849, 0.000267393, 0.0030018, 0.00370194, -0.00124049
0.0280647, 1.69144, -1.2255, -1.53797, -0.900061, -1.19168, 1.2287, -1.30262, 0.00300712, -0.00552604, -0.00149958, -0.00226814, -0.00275616, -0.00352093, 0.00267304, -0.619133, 57.2253, 27.0798, 6.28357, 1.46045, 3.13815, -0.0951428, 0.000994819, -0.00147186, 2.2944e-05, -2.31888e-05, -0.000516652, -0.000140669, 0.00013283, -0.00104144, -0.00468074, -0.00751463, -0.00378293, 0.000810313, 0.471008, -0.543384, 0.335895, -2.08384, -2.16584, -0.129887, 0.469502, -0.542459, 0.336071, -2.08398, -2.16629, -0.129403, -9.38169e-07, 0.00108977, 0.000293171, 0.000874938, 0.00172169, -0.0043807
0.0290647, 1.69144, -1.2255, -1.53798, -0.90006, -1.19168, 1.22871, -1.30261, 7.39475e-05, -0.00441167, -0.0045832, -0.00101736, -0.0027016, 0.00229252, 0.0026799, -0.508049, 57.261, 27.2306, 6.24786, 1.47876, 3.14548, -0.114369, 0.000991133, -0.0014724, 2.36849e-05, -2.09455e-05, -0.000526062, -0.000131024, 0.0030417, 0.000378673, -0.00429058, -0.00397374, 0.000234218, -0.00466526, 0.471008, -0.543383, 0.335895, -2.08384, -2.16584, -0.129887, 0.469501, -0.542462, 0.33607, -2.08399, -2.16628, -0.12939, -1.3774e-06, 0.00119164, 0.000320246, -0.000425679, -0.00116633, -0.00437702
0.0300647, 1.69145, -1.2255, -1.53798, -0.90006, -1.19168, 1.22871, -1.30261, 0.00346127, -0.00286043, -0.00569667, -5.58801e-06, -0.00173711, 0.00561648, 0.0021633, -0.508049, 57.261, 27.3417, 6.20819, 1.47327, 3.17386, -0.120778, 0.000992107, -0.00146744, 2.6493e-05, -1.87857e-05, -0.000529486, -0.000135121, 0.00218626, -0.00178526, -0.00353151, -0.00150752, 0.0027985, -0.00192002, 0.471008, -0.543382, 0.335896, -2.08384, -2.16584, -0.129887, 0.469506, -0.542459, 0.336068, -2.08399, -2.16629, -0.129384, -1.86074e-06, 0.00129855, 0.00034864, 0.00173178, -0.000243203, -0.00353155
0.0310647, 1.69146, -1.2255, -1.53797, -0.900064, -1.19168, 1.22871, -1.30261, 0.00721425, -0.0066626, 0.000531848, -0.00112327, -0.00126269, 0.00678461, 0.000597274, -0.43267, 57.1896, 27.1552, 6.24786, 1.47327, 3.23886, -0.0951428, 0.000996667, -0.00146167, 2.08317e-05, -3.04759e-05, -0.000533489, -0.000151113, -0.000605883, -0.00556706, -0.00381774, 0.00375704, -0.00090844, 0.007565, 0.471008, -0.543381, 0.335896, -2.08384, -2.16584, -0.129887, 0.469512, -0.542454, 0.336074, -2.08398, -2.16631, -0.129395, -2.39049e-06, 0.00141058, 0.000378373, 0.00539799, 0.00282411, -0.00346508
0.0320647, 1.69147, -1.22551, -1.53798, -0.900064, -1.19168, 1.22871, -1.30261, 0.00786192, -0.00744256, -0.00226794, -0.000892491, -4.73052e-06, 0.00364037, -3.20617e-05, -0.392998, 57.2968, 27.2663, 6.24786, 1.44855, 3.2883, -0.0814099, 0.000997756, -0.00145656, 3.10907e-05, -2.16133e-05, -0.000522985, -0.000156542, -0.00062206, -0.00496454, -0.00555994, -0.000876014, -0.00400223, 0.0077267, 0.471008, -0.54338, 0.335896, -2.08384, -2.16584, -0.129887, 0.469517, -0.54245, 0.336064, -2.08396, -2.16631, -0.129397, -2.969e-06, 0.00152782, 0.000409465, 0.0047322, 0.00320084, -0.00513362
0.0330647, 1.69148, -1.22551, -1.53798, -0.900061, -1.19168, 1.22872, -1.30261, 0.0083155, -0.00709632, -0.000694777, 0.000225293, -0.000265452, 0.00259564, 3.74118e-05, -0.357292, 57.3721, 27.2306, 6.20819, 1.45404, 3.30295, -0.0814099, 0.000998459, -0.00145094, 3.48553e-05, -2.24843e-05, -0.000522489, -0.000161938, -0.000784348, -0.00501551, -0.00477274, -2.28525e-05, -0.00405496, 0.00780062, 0.471008, -0.543379, 0.335897, -2.08384, -2.16584, -0.129888, 0.469522, -0.542447, 0.336061, -2.08395, -2.16631, -0.129399, -3.59863e-06, 0.00165034, 0.000441934, 0.00480509, 0.0033645, -0.0043002
0.0340647, 1.69149, -1.22551, -1.53798, -0.900064, -1.19169, 1.22873, -1.30262, 0.00770287, -0.00417419, 0.000451309, -0.000858624, -0.000695822, 0.00695715, -0.00186375, -0.281914, 57.3364, 27.1909, 6.24786, 1.46686, 3.30295, -0.0292249, 0.00100039, -0.00144456, 3.3149e-05, -2.83616e-05, -0.000531885, -0.000177053, -0.000681302, -0.00580778, -0.00239888, 0.00440951, 0.0014636, 0.0104132, 0.471008, -0.543377, 0.335897, -2.08384, -2.16584, -0.129888, 0.469528, -0.542444, 0.336063, -2.08395, -2.16634, -0.129397, -4.2818e-06, 0.00177822, 0.000475796, 0.00568503, 0.00305767, -0.0019622
0.0350647, 1.69149, -1.22552, -1.53799, -0.900059, -1.19169, 1.22873, -1.30262, 0.00838134, -0.00559015, -0.00240053, 0.00113022, 0.000181185, 0.0046494, -0.00120943, -0.131157, 57.4475, 27.306, 6.17248, 1.44855, 3.324, -0.0292249, 0.000996239, -0.00144427, 3.96684e-05, -2.50951e-05, -0.000527642, -0.000171748, 6.05636e-05, -0.00494211, -0.00421823, 0.00106257, -0.00167669, 0.00764278, 0.471008, -0.543375, 0.335898, -2.08384, -2.16584, -0.129888, 0.469529, -0.542445, 0.336057, -2.08395, -2.16633, -0.129398, -5.02096e-06, 0.00191151, 0.000511068, 0.00478059, 0.00270319, -0.00381245
0.0360647, 1.6915, -1.22551, -1.53799, -0.900059, -1.19169, 1.22873, -1.30262, 0.0100666, -0.00295542, -0.00244318, 0.000708031, -0.000582205, 0.00742232, -0.00101885, -0.0161054, 57.4078, 27.3417, 6.17248, 1.46686, 3.3533, -0.0228162, 0.000995297, -0.00144116, 4.00753e-05, -2.56766e-05, -0.000534603, -0.000175032, -0.000473361, -0.00634381, -0.00260462, 0.00285743, 0.00313881, 0.0091746, 0.471008, -0.543374, 0.335898, -2.08383, -2.16584, -0.129888, 0.469532, -0.542444, 0.336056, -2.08395, -2.16633, -0.129392, -5.81861e-06, 0.00205028, 0.000547764, 0.00621883, 0.00317806, -0.00214182
0.0370647, 1.6915, -1.22553, -1.53799, -0.900066, -1.19169, 1.22874, -1.30261, 0.0103285, -0.00644948, -0.00163449, -0.0013253, -0.00442372, 0.00944213, 0.00103479, 0.134651, 57.5943, 27.3417, 6.24786, 1.44855, 3.38168, -0.0685925, 0.000997439, -0.00143488, 4.82713e-05, -2.40933e-05, -0.000524773, -0.00018334, 9.06459e-05, -0.0070834, -0.00450265, 0.00225284, 0.00404377, 0.00833138, 0.471008, -0.543372, 0.335899, -2.08383, -2.16584, -0.129888, 0.469538, -0.542438, 0.336049, -2.08393, -2.16634, -0.129401, -6.67726e-06, 0.00219459, 0.000585897, 0.00690825, 0.00308798, -0.00408767
0.0380647, 1.69152, -1.22554, -1.53799, -0.900064, -1.19169, 1.22874, -1.30261, 0.00884613, -0.00782145, -0.00109394, 1.89182e-05, -0.0042699, 0.00518477, 0.000466452, 0.245735, 57.7411, 27.3417, 6.20819, 1.47327, 3.43936, -0.0621838, 0.000998087, -0.0014279, 5.61998e-05, -2.35128e-05, -0.000517794, -0.000193631, 0.000846693, -0.00530616, -0.00524252, -0.000127222, 0.000360227, 0.00660592, 0.471008, -0.54337, 0.335899, -2.08383, -2.16584, -0.129888, 0.469544, -0.542434, 0.336042, -2.08391, -2.16634, -0.129408, -7.59945e-06, 0.00234449, 0.000625478, 0.00513271, 0.00253266, -0.00484244
0.0390647, 1.69153, -1.22554, -1.53799, -0.900062, -1.19169, 1.22874, -1.30261, 0.0105582, -0.00763576, -0.000732505, 0.000828656, -0.00291316, 0.00371758, 0.000558789, 0.360787, 57.7054, 27.3417, 6.17248, 1.46686, 3.45309, -0.0685925, 0.000999936, -0.00142113, 5.53493e-05, -2.82101e-05, -0.000522828, -0.000198681, -2.79559e-05, -0.00602605, -0.00512898, -0.000296894, -0.00121804, 0.00813334, 0.471008, -0.543367, 0.3359, -2.08383, -2.16584, -0.129888, 0.469551, -0.54243, 0.336043, -2.08391, -2.16635, -0.129409, -8.58778e-06, 0.00250002, 0.000666519, 0.00582349, 0.00356366, -0.00457523
0.0400647, 1.69154, -1.22555, -1.538, -0.900056, -1.19169, 1.22875, -1.30261, 0.00869784, -0.00967485, -0.00392442, 0.00313651, -0.00261085, 0.00278439, 0.000617732, 0.475838, 57.8879, 27.4885, 6.0614, 1.47876, 3.46042, -0.0750012, 0.000997013, -0.00141569, 6.57074e-05, -2.39969e-05, -0.000518827, -0.000198347, 0.00235177, -0.00380268, -0.00713843, -0.00251652, -0.00389069, 0.0028287, 0.471008, -0.543365, 0.3359, -2.08383, -2.16584, -0.129889, 0.469556, -0.542428, 0.336033, -2.08391, -2.16635, -0.129409, -9.64483e-06, 0.00266124, 0.000709027, 0.00361449, 0.00159388, -0.00681924
0.0410647, 1.69155, -1.22556, -1.538, -0.900057, -1.1917, 1.22876, -1.30261, 0.00878055, -0.00844973, -0.000947648, 0.00208022, -0.00214888, 0.00174667, -0.00029437, 0.6623, 57.9633, 27.417, 6.0614, 1.48517, 3.47507, -0.0557752, 0.000997136, -0.00140968, 6.94216e-05, -2.6608e-05, -0.00051892, -0.000208864, 0.00123631, -0.0044433, -0.00562409, -0.000991655, -0.00353403, 0.00632735, 0.471008, -0.543362, 0.335901, -2.08383, -2.16584, -0.129889, 0.469562, -0.542425, 0.33603, -2.08389, -2.16636, -0.129413, -1.07732e-05, 0.00282817, 0.000753011, 0.00426793, 0.00265515, -0.00512615
0.0420647, 1.69157, -1.22556, -1.538, -0.900054, -1.1917, 1.22876, -1.30261, 0.0114461, -0.00581059, -0.00146834, 0.00314196, -0.00112, 0.00121789, -0.00117518, 0.737679, 57.9633, 27.4528, 5.98602, 1.47327, 3.48239, -0.0292249, 0.000999797, -0.00140063, 7.13469e-05, -2.74301e-05, -0.000522277, -0.00022367, 0.000143028, -0.00557657, -0.00431722, -0.00109015, -0.00185902, 0.00897291, 0.471008, -0.54336, 0.335902, -2.08382, -2.16584, -0.129889, 0.469571, -0.542419, 0.336029, -2.08388, -2.16638, -0.129412, -1.19756e-05, 0.00300084, 0.000798475, 0.00540661, 0.00375237, -0.00365474
0.0430647, 1.69159, -1.22556, -1.53801, -0.900055, -1.1917, 1.22877, -1.30261, 0.00948616, -0.00651247, -0.00357836, 0.00208858, -0.000842825, 4.30283e-06, 0.00321493, 0.85273, 58.0704, 27.5638, 5.98602, 1.47327, 3.51077, -0.0164075, 0.00100157, -0.00139094, 7.97063e-05, -2.03034e-05, -0.000522665, -0.000238307, 0.00121073, -0.00415915, -0.00564617, -0.00408893, -0.00308209, 0.00267104, 0.471008, -0.543357, 0.335903, -2.08382, -2.16584, -0.129889, 0.46958, -0.542413, 0.336021, -2.08386, -2.16639, -0.129406, -1.32547e-05, 0.00317929, 0.000845424, 0.00397994, 0.00302333, -0.00504301
0.0440647, 1.6916, -1.22556, -1.53801, -0.90005, -1.1917, 1.22877, -1.30261, 0.0125239, -0.00277102, -0.00155112, 0.00315107, -0.000837455, -0.00113691, 0.00251825, 1.03919, 57.999, 27.5281, 5.91064, 1.47876, 3.54648, -0.0164075, 0.00100157, -0.00138607, 7.67152e-05, -2.38696e-05, -0.000531469, -0.000243093, -0.000533427, -0.00570101, -0.0028633, -0.00293324, 8.14098e-05, 0.00636522, 0.471008, -0.543354, 0.335903, -2.08382, -2.16584, -0.129889, 0.469585, -0.54241, 0.336025, -2.08386, -2.1664, -0.129401, -1.46131e-05, 0.00336352, 0.000893861, 0.00555656, 0.00456418, -0.00202249
0.0450647, 1.69162, -1.22556, -1.53801, -0.900047, -1.1917, 1.22877, -1.30261, 0.0179979, -0.00275742, -0.00186987, 0.00293252, 6.57737e-05, 0.00324012, 0.00219742, 1.07887, 58.0347, 27.5638, 5.87494, 1.46045, 3.56845, -0.0228162, 0.00100813, -0.00137164, 8.17884e-05, -2.21863e-05, -0.00052928, -0.000261505, -0.00249322, -0.00966135, -0.00292184, 9.0221e-05, 0.00186538, 0.0124474, 0.471008, -0.54335, 0.335904, -2.08382, -2.16584, -0.12989, 0.469599, -0.542398, 0.336021, -2.08383, -2.16642, -0.129404, -1.60536e-05, 0.00355356, 0.000943786, 0.00943812, 0.00686007, -0.00184557
0.0460647, 1.69164, -1.22557, -1.53803, -0.900044, -1.1917, 1.22878, -1.30261, 0.0163595, -0.00589263, -0.00477348, 0.00288047, 3.28079e-06, 0.0018725, 0.00313393, 1.22962, 58.0704, 27.7146, 5.83527, 1.46045, 3.58951, -0.0621838, 0.00100821, -0.00136326, 8.87429e-05, -1.54352e-05, -0.000531929, -0.000267841, -0.000804728, -0.00803883, -0.00585377, -0.00366827, -0.00159413, 0.00858746, 0.471008, -0.543347, 0.335905, -2.08381, -2.16583, -0.12989, 0.469607, -0.542393, 0.336015, -2.08382, -2.16642, -0.129394, -1.75788e-05, 0.0037494, 0.000995199, 0.00777067, 0.00577392, -0.00490238
0.0470647, 1.69166, -1.22558, -1.53802, -0.900042, -1.1917, 1.22878, -1.30261, 0.0173058, -0.000154864, -0.00141941, 0.0019184, -0.000265598, 0.00107503, 0.00224747, 1.41608, 58.1815, 27.6392, 5.83527, 1.46686, 3.60415, -0.0621838, 0.00100969, -0.00135374, 9.24286e-05, -2.07225e-05, -0.000531153, -0.000282291, -0.00257954, -0.0090879, -0.00157099, -0.00165228, 0.00399478, 0.0126919, 0.471008, -0.543343, 0.335906, -2.08381, -2.16583, -0.12989, 0.469616, -0.542387, 0.336012, -2.0838, -2.16644, -0.129403, -1.91915e-05, 0.00395105, 0.0010481, 0.00890796, 0.00711139, -0.000376727
0.0480647, 1.69166, -1.22558, -1.53802, -0.900042, -1.1917, 1.22878, -1.30261, 0.0173058, -0.000154864, -0.00141941, 0.0019184, -0.000265598, 0.00107503, 0.00224747, 1.41608, 58.1815, 27.6392, 5.83527, 1.46686, 3.60415, -0.0621838, 0.00100565, -0.00135385, 9.28561e-05, -2.23512e-05, -0.000533132, -0.000281326, -0.00236623, -0.00908275, -0.00159267, -0.00162149, 0.0041492, 0.0127078, 0.471008, -0.543339, 0.335907, -2.08381, -2.16583, -0.129891, 0.469616, -0.542387, 0.336012, -2.0838, -2.16644, -0.129403, -2.08943e-05, 0.0041585, 0.00110247, 0.00890796, 0.00711139, -0.000376727
0.0490647, 1.69166, -1.22558, -1.53802, -0.900042, -1.1917, 1.22878, -1.30261, 0.0173058, -0.000154864, -0.00141941, 0.0019184, -0.000265598, 0.00107503, 0.00224747, 1.41608, 58.1815, 27.6392, 5.83527, 1.46686, 3.60415, -0.0621838, 0.0010014, -0.00135396, 9.3306e-05, -2.40682e-05, -0.000535217, -0.000280309, -0.00214697, -0.00907751, -0.00161492, -0.00158974, 0.00430788, 0.0127241, 0.471008, -0.543335, 0.335908, -2.08381, -2.16583, -0.129891, 0.469616, -0.542387, 0.336012, -2.0838, -2.16644, -0.129403, -2.269e-05, 0.00437173, 0.00115833, 0.00890796, 0.00711139, -0.000376727
0.0500647, 1.69166, -1.22558, -1.53802, -0.900042, -1.1917, 1.22878, -1.30261, 0.0173058, -0.000154864, -0.00141941, 0.0019184, -0.000265598, 0.00107503, 0.00224747, 1.41608, 58.1815, 27.6392, 5.83527, 1.46686, 3.60415, -0.0621838, 0.000996917, -0.00135408, 9.37789e-05, -2.58757e-05, -0.000537413, -0.00027924, -0.00192178, -0.00907217, -0.00163773, -0.00155704, 0.0044708, 0.0127408, 0.471008, -0.543331, 0.335909, -2.0838, -2.16583, -0.129891, 0.469616, -0.542387, 0.336012, -2.0838, -2.16644, -0.129403, -2.45814e-05, 0.00459073, 0.00121564, 0.00890796, 0.00711139, -0.000376727
0.0510647, 1.6917, -1.22558, -1.53803, -0.900039, -1.19171, 1.22879, -1.3026, 0.0177777, 0.00011631, -0.000600254, 0.00140739, -0.00365277, 0.00907155, 0.00124607, 1.60651, 58.1815, 27.6749, 5.79956, 1.47327, 3.60415, -0.0685925, 0.00100624, -0.00133155, 9.72197e-05, -2.41699e-05, -0.000550269, -0.000306733, -0.000747364, -0.0106657, -0.00060285, 0.00427267, 0.0116409, 0.0139279, 0.471008, -0.543326, 0.335911, -2.0838, -2.16583, -0.129892, 0.469639, -0.542372, 0.336011, -2.08378, -2.16647, -0.129391, -2.6571e-05, 0.00481547, 0.00127442, 0.0105768, 0.00608262, 0.000473539
0.0520647, 1.69176, -1.22559, -1.53805, -0.900024, -1.19172, 1.2288, -1.3026, 0.015612, -0.00142048, -0.00304461, 0.00313798, -0.00459911, 0.0031538, 0.000100548, 1.98341, 58.2925, 27.8614, 5.6131, 1.49158, 3.63986, -0.0557752, 0.00101479, -0.00130519, 0.000112026, -5.18212e-06, -0.000556875, -0.000334538, 0.0011933, -0.00746863, -0.00256205, -0.00238283, 0.00807201, 0.0099682, 0.471008, -0.543321, 0.335912, -2.0838, -2.16583, -0.129892, 0.469664, -0.542356, 0.335998, -2.08374, -2.1665, -0.129367, -2.86617e-05, 0.00504591, 0.00133464, 0.00738044, 0.00456796, -0.00160565
0.0530647, 1.69179, -1.22558, -1.53805, -0.900025, -1.19173, 1.2288, -1.3026, 0.0218686, -0.00331177, -0.00119458, 0.00125642, -0.00341963, 0.00218531, 0.000332545, 1.9477, 58.2568, 27.8257, 5.6488, 1.49158, 3.64718, -0.0621838, 0.00102284, -0.00128756, 0.000113064, -1.94754e-06, -0.000567967, -0.000362208, -0.00244178, -0.011707, -0.0037177, -0.00304604, 0.00515247, 0.0188986, 0.471008, -0.543316, 0.335913, -2.08379, -2.16583, -0.129892, 0.469681, -0.542342, 0.335999, -2.08371, -2.16653, -0.129355, -3.0856e-05, 0.00528201, 0.00139628, 0.0114393, 0.00874413, -0.00224866
0.0540647, 1.6918, -1.22559, -1.53805, -0.900023, -1.19173, 1.2288, -1.3026, 0.0155112, -0.00409318, -0.00136095, 0.00167258, -0.00274837, 0.00615183, 0.000480171, 2.13416, 58.3282, 27.7146, 5.6131, 1.49707, 3.65451, -0.0685925, 0.00102051, -0.00128091, 0.000116141, -7.86343e-06, -0.000569348, -0.00036935, 0.00114303, -0.00882872, -0.00351827, 0.00172368, 0.00574695, 0.0122871, 0.471008, -0.543311, 0.335915, -2.08379, -2.16583, -0.129893, 0.469688, -0.542338, 0.335997, -2.0837, -2.16654, -0.129361, -3.31567e-05, 0.00552372, 0.00145934, 0.00869792, 0.00529832, -0.00245837
0.0550647, 1.69182, -1.2256, -1.53806, -0.900023, -1.19174, 1.2288, -1.30259, 0.0170449, -0.0046532, -0.00376937, 0.00344885, -0.00664018, 0.00418347, 0.000335951, 2.17384, 58.4036, 27.8257, 5.6488, 1.49158, 3.66824, -0.0685925, 0.00102116, -0.00127074, 0.000125398, 5.53887e-06, -0.00057096, -0.000380389, 0.00236431, -0.00807578, -0.00473334, -0.00330558, 0.00763326, 0.00995349, 0.471008, -0.543305, 0.335916, -2.08378, -2.16583, -0.129893, 0.469698, -0.54233, 0.335989, -2.08368, -2.16655, -0.129346, -3.55665e-05, 0.00577098, 0.0015238, 0.00794332, 0.00449616, -0.00376059
0.0560647, 1.69185, -1.2256, -1.53806, -0.900014, -1.19174, 1.2288, -1.30259, 0.0161865, -0.00489345, -0.00187541, 0.00516165, -0.00518044, 0.0026896, 0.000235845, 2.17384, 58.475, 27.79, 5.53772, 1.49707, 3.68289, -0.0685925, 0.00102176, -0.0012597, 0.000131633, 9.62976e-06, -0.000570554, -0.000392492, 0.00269676, -0.00743405, -0.0040775, -0.0013031, 0.00534843, 0.0091326, 0.471008, -0.5433, 0.335918, -2.08378, -2.16583, -0.129894, 0.469708, -0.542322, 0.335984, -2.08366, -2.16656, -0.129344, -3.8088e-05, 0.00602372, 0.00158964, 0.00733549, 0.00429349, -0.00307945
0.0570647, 1.69187, -1.22561, -1.53807, -0.900017, -1.19175, 1.2288, -1.30259, 0.0175775, -0.00428098, -0.00139855, 0.00271105, -0.00879138, 0.00212543, -7.12209e-05, 2.20954, 58.5147, 27.79, 5.57739, 1.50348, 3.68289, -0.0621838, 0.00102288, -0.00124917, 0.000137946, 1.95152e-05, -0.00057584, -0.000409501, 0.00211564, -0.00831837, -0.00403843, -0.00434931, 0.00905528, 0.011985, 0.471008, -0.543294, 0.335919, -2.08378, -2.16583, -0.129894, 0.469719, -0.542314, 0.33598, -2.08364, -2.16658, -0.12933, -4.07237e-05, 0.00628188, 0.00165682, 0.00819664, 0.00515557, -0.00291017
0.0580647, 1.69189, -1.22561, -1.53807, -0.900017, -1.19175, 1.2288, -1.30259, 0.0220893, -0.00115875, -0.0018788, 0.00112062, -0.00679841, 0.00220877, 0.000433918, 2.20954, 58.4393, 27.8257, 5.6131, 1.50989, 3.66824, -0.0750012, 0.00102519, -0.00123686, 0.000140443, 2.75444e-05, -0.000588485, -0.000426131, -0.000673374, -0.0112961, -0.00285427, -0.00492347, 0.0110778, 0.0177303, 0.471008, -0.543287, 0.335921, -2.08377, -2.16582, -0.129894, 0.469731, -0.542304, 0.335979, -2.08362, -2.1666, -0.12931, -4.34763e-05, 0.00654537, 0.00172534, 0.0111107, 0.00811206, -0.00132927
0.0590647, 1.69192, -1.22561, -1.53808, -0.900017, -1.19176, 1.22881, -1.30259, 0.0254636, -0.000823496, -0.00355979, 0.000858438, -0.00529473, 0.00193073, 0.00476132, 2.20954, 58.4393, 27.79, 5.6131, 1.5163, 3.66092, -0.0685925, 0.0010255, -0.0012249, 0.000144722, 3.15947e-05, -0.000598853, -0.000443131, -0.00198223, -0.0130579, -0.00351982, -0.00651116, 0.0104763, 0.0166736, 0.471008, -0.543281, 0.335923, -2.08377, -2.16582, -0.129895, 0.469742, -0.542296, 0.335976, -2.0836, -2.16662, -0.129297, -4.63483e-05, 0.0068141, 0.00179515, 0.0127965, 0.00984756, -0.00176661
0.0600647, 1.69194, -1.22561, -1.53808, -0.900017, -1.19177, 1.22881, -1.30259, 0.0250735, -0.00142246, -0.00421532, -0.000179408, -0.00436445, 0.00166473, 0.00333265, 2.20954, 58.475, 27.7146, 5.6488, 1.5282, 3.65451, -0.0621838, 0.0010249, -0.00121447, 0.000148776, 3.64089e-05, -0.000608881, -0.00045554, -0.00185336, -0.0130164, -0.00427897, -0.00732385, 0.00931139, 0.018653, 0.471008, -0.543274, 0.335924, -2.08376, -2.16582, -0.129895, 0.469753, -0.542289, 0.335973, -2.08358, -2.16663, -0.129284, -4.93422e-05, 0.00708797, 0.00186624, 0.0127292, 0.0101094, -0.00246389
0.0610647, 1.69196, -1.22561, -1.53808, -0.900009, -1.19178, 1.22881, -1.30259, 0.0225224, 0.000693441, -0.00649777, 0.00477025, -0.00276419, 0.00576937, 0.00275597, 2.17384, 58.4036, 27.7146, 5.57739, 1.5163, 3.66092, -0.0685925, 0.00102339, -0.00120497, 0.000150475, 4.27746e-05, -0.000621846, -0.000463229, 0.00141889, -0.0109662, -0.00269066, -0.00203443, 0.0119804, 0.0118023, 0.471007, -0.543267, 0.335926, -2.08376, -2.16582, -0.129896, 0.469762, -0.542283, 0.335973, -2.08357, -2.16665, -0.129265, -5.24605e-05, 0.00736687, 0.00193857, 0.010853, 0.00682941, -0.00126944
0.0620647, 1.69198, -1.22561, -1.53809, -0.90001, -1.19179, 1.22881, -1.30259, 0.0220121, 0.00044078, -0.00707814, 0.00265499, -0.00629826, 0.00432443, 0.000127163, 2.20954, 58.4036, 27.6749, 5.6131, 1.50348, 3.66092, -0.0164075, 0.00102257, -0.00119528, 0.000154232, 5.03221e-05, -0.000632426, -0.000483235, 0.00200477, -0.0103866, -0.00346728, -0.0063483, 0.0143276, 0.0143387, 0.471007, -0.543259, 0.335928, -2.08375, -2.16582, -0.129897, 0.469772, -0.542275, 0.335971, -2.08354, -2.16667, -0.129248, -5.57056e-05, 0.00765073, 0.00201212, 0.0102639, 0.00663078, -0.00203624
0.0630647, 1.692, -1.22561, -1.53809, -0.900012, -1.1918, 1.22881, -1.30259, 0.022484, 0.00204096, -0.00545742, 0.00116731, -0.00523209, 0.00324159, 0.000726468, 2.20954, 58.3282, 27.6749, 5.6488, 1.5163, 3.66092, -0.0292249, 0.00102171, -0.00118427, 0.000156771, 5.92181e-05, -0.000651123, -0.000496989, 0.000836181, -0.0111543, -0.00230951, -0.00597904, 0.0147675, 0.01664, 0.471007, -0.543252, 0.33593, -2.08374, -2.16582, -0.129897, 0.469782, -0.542267, 0.33597, -2.08353, -2.16669, -0.129221, -5.90798e-05, 0.00793954, 0.00208689, 0.0110273, 0.00792644, -0.000660044
0.0640647, 1.69203, -1.22561, -1.53809, -0.900012, -1.19181, 1.22882, -1.30259, 0.0228624, 0.00218375, -0.00569355, 0.000952605, -0.00390696, 0.0026674, 0.000609542, 2.20954, 58.2925, 27.6035, 5.6488, 1.5163, 3.65451, -0.0292249, 0.00102039, -0.00117329, 0.000159413, 6.49903e-05, -0.000666771, -0.000512074, 0.000619655, -0.0114081, -0.00243953, -0.00617059, 0.013804, 0.0176693, 0.471007, -0.543244, 0.335932, -2.08374, -2.16582, -0.129898, 0.469793, -0.54226, 0.335969, -2.08351, -2.16671, -0.129201, -6.25855e-05, 0.00823327, 0.00216285, 0.0112648, 0.00846438, -0.000686541
0.0650647, 1.69206, -1.22561, -1.5381, -0.900008, -1.19182, 1.22881, -1.30259, 0.0256505, 0.00144676, -0.00836135, 0.00160109, -0.00312226, 0.00147137, 0.000262926, 2.09846, 58.2925, 27.6392, 5.6131, 1.52179, 3.66824, -0.0228162, 0.00101987, -0.00116067, 0.000165054, 7.80623e-05, -0.000679633, -0.000525222, 0.000227086, -0.0122349, -0.00401033, -0.0093146, 0.0122575, 0.0192148, 0.471007, -0.543236, 0.335935, -2.08373, -2.16581, -0.129898, 0.469806, -0.542251, 0.335965, -2.08349, -2.16673, -0.129176, -6.6225e-05, 0.00853189, 0.00224002, 0.0120159, 0.00942634, -0.00212444
0.0660647, 1.69207, -1.2256, -1.53811, -0.900004, -1.19184, 1.22882, -1.30259, 0.0221622, 0.00272094, -0.00950752, 0.00200071, -0.00697012, 0.00579247, 0.00170379, 2.20954, 58.2172, 27.6392, 5.57739, 1.52179, 3.66824, -0.0621838, 0.00101204, -0.0011568, 0.000163924, 8.3143e-05, -0.000704013, -0.000522654, 0.00353614, -0.0103164, -0.00307833, -0.00746503, 0.0189728, 0.0121393, 0.471007, -0.543227, 0.335937, -2.08373, -2.16581, -0.129899, 0.46981, -0.54225, 0.335967, -2.0835, -2.16673, -0.129146, -7.00005e-05, 0.00883538, 0.00231837, 0.0102483, 0.00624101, -0.00158175
0.0670647, 1.6921, -1.2256, -1.53812, -0.900007, -1.19185, 1.22882, -1.30259, 0.0244095, 0.00180885, -0.00801072, 0.000572163, -0.00521122, 0.00463474, 0.00166341, 2.13416, 58.2172, 27.6749, 5.6131, 1.52179, 3.66092, -0.0750012, 0.00101221, -0.00114259, 0.000170612, 9.62952e-05, -0.000718354, -0.000542646, 0.0017364, -0.0121546, -0.00353337, -0.00740026, 0.0163759, 0.0169994, 0.471007, -0.543218, 0.335939, -2.08372, -2.16581, -0.1299, 0.469824, -0.54224, 0.335962, -2.08347, -2.16676, -0.129119, -7.39143e-05, 0.00914373, 0.0023979, 0.0119992, 0.00847151, -0.00172762
0.0680647, 1.69212, -1.2256, -1.53812, -0.900007, -1.19186, 1.22882, -1.30258, 0.021112, 0.00203729, -0.00513313, 0.000436623, -0.00437222, 0.0034662, 0.00138592, 2.13416, 58.1815, 27.6392, 5.6131, 1.53461, 3.66092, -0.0814099, 0.00100825, -0.0011335, 0.000172117, 0.000105042, -0.000740399, -0.000550314, 0.00257352, -0.0107109, -0.00235841, -0.00499567, 0.0152958, 0.0158269, 0.471007, -0.543209, 0.335941, -2.08371, -2.16581, -0.1299, 0.469833, -0.542234, 0.335962, -2.08346, -2.16677, -0.129089, -7.79688e-05, 0.0094569, 0.0024786, 0.0106259, 0.00771822, -0.000573197
0.0690647, 1.69214, -1.2256, -1.53812, -0.900004, -1.19188, 1.22882, -1.30258, 0.0216945, 0.00302576, -0.00305777, 0.000332468, -0.00868539, 0.00205055, 0.000953666, 2.13416, 58.11, 27.6035, 5.6131, 1.55292, 3.67557, -0.0814099, 0.00100418, -0.00112479, 0.00017238, 0.00011509, -0.00076393, -0.000559428, 0.00278999, -0.0106566, -0.00124317, -0.00642678, 0.0192407, 0.0164852, 0.471007, -0.5432, 0.335944, -2.08371, -2.16581, -0.129901, 0.469841, -0.542228, 0.335964, -2.08345, -2.16679, -0.129055, -8.21662e-05, 0.00977487, 0.00256046, 0.0106155, 0.00764855, 0.000577842
0.0700647, 1.69217, -1.2256, -1.53813, -0.900002, -1.1919, 1.22882, -1.30258, 0.020937, 0.000344582, -0.00146367, 0.000252685, -0.0105587, 0.00157874, -0.00103736, 2.05878, 58.1815, 27.5638, 5.6131, 1.53461, 3.67557, -0.0356336, 0.00100116, -0.00111256, 0.000178634, 0.000124611, -0.000777564, -0.000576408, 0.00367929, -0.0102748, -0.0022968, -0.00640999, 0.0179895, 0.0180088, 0.471007, -0.54319, 0.335947, -2.0837, -2.16581, -0.129902, 0.469853, -0.54222, 0.335959, -2.08343, -2.16681, -0.129033, -8.65087e-05, 0.0100976, 0.00264348, 0.0102236, 0.00724004, -0.000506128
0.0710647, 1.69219, -1.2256, -1.53813, -0.900001, -1.19192, 1.22882, -1.30258, 0.022976, 0.00106332, -0.00440737, 0.000191736, -0.0129236, 0.00148254, -0.000912213, 1.98341, 58.1458, 27.5638, 5.6131, 1.5401, 3.66824, -0.0292249, 0.000998024, -0.00110028, 0.000182207, 0.00013609, -0.000800281, -0.000591475, 0.00409553, -0.0106117, -0.0030747, -0.0103988, 0.0210954, 0.0177516, 0.471007, -0.54318, 0.335949, -2.08369, -2.1658, -0.129903, 0.469866, -0.542212, 0.335957, -2.08341, -2.16683, -0.129, -9.09987e-05, 0.0104251, 0.00272764, 0.0105423, 0.00729029, -0.00126495
0.0720647, 1.69222, -1.22559, -1.53814, -0.899996, -1.19194, 1.22882, -1.30258, 0.0199806, 0.00247091, -0.00256559, 0.000980502, -0.019683, 0.000836181, -0.000832964, 1.98341, 58.0704, 27.5281, 5.57739, 1.55292, 3.67557, -0.0228162, 0.000991356, -0.00109259, 0.000181803, 0.000147173, -0.000829193, -0.000597544, 0.00675475, -0.00816875, -0.00141621, -0.0114863, 0.0276804, 0.0126448, 0.471007, -0.543169, 0.335952, -2.08368, -2.1658, -0.129903, 0.469873, -0.542207, 0.335959, -2.08341, -2.16685, -0.12896, -9.56382e-05, 0.0107574, 0.00281294, 0.00825312, 0.00464181, 0.000118713
0.0730647, 1.69225, -1.22559, -1.53814, -0.899995, -1.19196, 1.22882, -1.30258, 0.0224938, 0.00248158, -0.00289252, -0.000168456, -0.0191776, 0.000646769, -0.000308547, 1.90803, 58.0347, 27.5638, 5.6131, 1.54651, 3.67557, -0.0292249, 0.000987693, -0.00107997, 0.000186516, 0.000163377, -0.000854433, -0.000612383, 0.00559052, -0.00979252, -0.00186792, -0.0125816, 0.0276309, 0.0156452, 0.471007, -0.543159, 0.335955, -2.08368, -2.1658, -0.129904, 0.469886, -0.542199, 0.335957, -2.08339, -2.16687, -0.128918, -0.00010043, 0.0110943, 0.00289937, 0.00981196, 0.00626427, -0.000109194
0.0740647, 1.69227, -1.22559, -1.53815, -0.89999, -1.19198, 1.22882, -1.30258, 0.0222842, 0.00165371, -0.00311656, 0.000732735, -0.0236781, 0.000498166, -0.000198646, 1.90803, 58.0347, 27.6035, 5.57739, 1.54651, 3.67557, -0.0292249, 0.000979235, -0.00107092, 0.000190049, 0.000175468, -0.000883183, -0.000617671, 0.00730327, -0.0089098, -0.0023428, -0.0145535, 0.0305999, 0.0129628, 0.471006, -0.543147, 0.335958, -2.08367, -2.1658, -0.129905, 0.469895, -0.542195, 0.335954, -2.08338, -2.16689, -0.128877, -0.000105375, 0.011436, 0.00298692, 0.00896959, 0.00495208, -0.000729953
0.0750647, 1.6923, -1.22558, -1.53815, -0.899992, -1.19201, 1.22882, -1.30258, 0.0281226, 0.00370042, -0.00450036, -0.00117458, -0.023122, 0.00038235, 0.000584935, 1.79694, 57.9236, 27.5638, 5.6488, 1.56482, 3.67557, -0.0484509, 0.00097746, -0.00105703, 0.000188894, 0.000190721, -0.000918607, -0.000635642, 0.00446974, -0.0123638, -0.00224861, -0.017188, 0.032817, 0.0191243, 0.471006, -0.543136, 0.335961, -2.08366, -2.1658, -0.129906, 0.469909, -0.542185, 0.335958, -2.08337, -2.16692, -0.128827, -0.000110477, 0.0117823, 0.00307558, 0.012316, 0.0082228, -0.000212661
0.0760647, 1.69233, -1.22558, -1.53816, -0.899986, -1.19204, 1.22882, -1.30258, 0.0265617, 0.00506502, -0.00669098, 5.7689e-05, -0.0271508, 2.13124e-05, 0.000393924, 1.79694, 57.8125, 27.5638, 5.6131, 1.57764, 3.68289, -0.0484509, 0.000969407, -0.00104751, 0.000187898, 0.000203319, -0.000957377, -0.000642048, 0.00697688, -0.0102784, -0.00203518, -0.0202909, 0.0375439, 0.0142918, 0.471006, -0.543124, 0.335964, -2.08365, -2.16579, -0.129907, 0.469919, -0.542181, 0.33596, -2.08336, -2.16694, -0.128775, -0.000115737, 0.0121332, 0.00316535, 0.0103255, 0.00598038, -0.000238615
0.0770647, 1.69236, -1.22558, -1.53817, -0.899986, -1.19206, 1.22882, -1.30258, 0.0282656, 0.00244837, -0.00596911, -0.00172064, -0.0250997, -0.000228799, 0.000774217, 1.68189, 57.8522, 27.6035, 5.68848, 1.57764, 3.69021, -0.0621838, 0.00096479, -0.00103297, 0.000197002, 0.000223434, -0.000980771, -0.000658633, 0.00572383, -0.0119835, -0.00370981, -0.0201937, 0.0335571, 0.0182591, 0.471006, -0.543112, 0.335967, -2.08364, -2.16579, -0.129908, 0.469933, -0.542172, 0.335953, -2.08334, -2.16696, -0.128732, -0.000121158, 0.0124888, 0.00325621, 0.0119175, 0.00790092, -0.00165828
0.0780647, 1.69239, -1.22557, -1.53817, -0.899982, -1.19209, 1.22882, -1.30258, 0.0285432, 0.00423049, -0.0026515, -0.00114398, -0.0243509, 0.000139929, 0.000993094, 1.72157, 57.7411, 27.5281, 5.68848, 1.60144, 3.68289, -0.0750012, 0.00095623, -0.00102455, 0.000194184, 0.000237674, -0.00102304, -0.000663749, 0.00516882, -0.0127057, -0.0014245, -0.0161846, 0.0349088, 0.019656, 0.471006, -0.5431, 0.33597, -2.08363, -2.16579, -0.129909, 0.469942, -0.542168, 0.335958, -2.08334, -2.16698, -0.128675, -0.000126741, 0.012849, 0.00334816, 0.012696, 0.00848662, 0.000754473
0.0790647, 1.69243, -1.22557, -1.53818, -0.899976, -1.19213, 1.22882, -1.30257, 0.0268346, 0.00282016, -0.00209416, -0.000760325, -0.0277149, 0.000109182, 0.000426377, 1.60651, 57.7411, 27.5281, 5.68848, 1.60785, 3.68289, -0.0685925, 0.000949524, -0.00101004, 0.000198421, 0.000254389, -0.00105946, -0.000675145, 0.00709766, -0.0113951, -0.00194873, -0.0169005, 0.036391, 0.0173924, 0.471006, -0.543087, 0.335973, -2.08362, -2.16579, -0.129909, 0.469956, -0.54216, 0.335956, -2.08333, -2.16701, -0.128621, -0.00013249, 0.0132137, 0.00344119, 0.0114315, 0.00697429, 6.97817e-05
0.0800647, 1.69245, -1.22558, -1.53818, -0.899972, -1.19216, 1.22882, -1.30258, 0.0257257, 0.000209551, -0.0024762, -0.000505135, -0.0304668, 0.000355978, 4.81477e-05, 1.60651, 57.8125, 27.5638, 5.68848, 1.62067, 3.67557, -0.0621838, 0.000938765, -0.000999906, 0.000206632, 0.000272953, -0.00108895, -0.000684881, 0.00894481, -0.0104262, -0.00353624, -0.0181652, 0.036407, 0.0154192, 0.471006, -0.543074, 0.335977, -2.08361, -2.16578, -0.12991, 0.469966, -0.542156, 0.335949, -2.08331, -2.16702, -0.128573, -0.000138406, 0.013583, 0.0035353, 0.0104666, 0.00572498, -0.00166136
0.0810647, 1.69249, -1.22557, -1.53819, -0.899973, -1.19219, 1.22882, -1.30258, 0.0285018, 0.00181005, -0.00409171, -0.00117066, -0.03226, -2.50073e-05, -0.00166238, 1.57081, 57.7411, 27.5281, 5.72418, 1.62067, 3.68289, -0.0164075, 0.000931505, -0.000987292, 0.000209543, 0.00029287, -0.00112892, -0.00070219, 0.00839736, -0.0115406, -0.00347677, -0.0212932, 0.0398055, 0.0190744, 0.471006, -0.54306, 0.33598, -2.0836, -2.16578, -0.129911, 0.469979, -0.542149, 0.335948, -2.08329, -2.16705, -0.128513, -0.00014449, 0.0139569, 0.00363046, 0.011556, 0.00667588, -0.00145625
0.0820647, 1.69252, -1.22557, -1.53819, -0.899974, -1.19223, 1.22882, -1.30258, 0.0279195, 0.00204185, -0.00440705, 0.00143083, -0.0336915, 0.000261302, -0.00110755, 1.53114, 57.7054, 27.4528, 5.76385, 1.62616, 3.67557, -0.0164075, 0.000926278, -0.000971533, 0.000210862, 0.000308688, -0.00117006, -0.000721253, 0.0101731, -0.0104589, -0.00307064, -0.0205746, 0.041403, 0.0150611, 0.471006, -0.543046, 0.335984, -2.08359, -2.16578, -0.129913, 0.469994, -0.542139, 0.335949, -2.08328, -2.16709, -0.128457, -0.000150747, 0.0143352, 0.00372669, 0.0105478, 0.00519429, -0.0012023
0.0830647, 1.69255, -1.22558, -1.5382, -0.899969, -1.19227, 1.22882, -1.30258, 0.0304378, -0.000309256, -0.00525178, 0.00121615, -0.0348416, -9.20364e-05, -0.000500477, 1.49146, 57.7768, 27.5281, 5.76385, 1.63257, 3.68289, -0.0228162, 0.000914707, -0.000960395, 0.000220733, 0.00033251, -0.00120234, -0.000727885, 0.00997468, -0.0116131, -0.00498059, -0.0227798, 0.0402606, 0.0164064, 0.471005, -0.543032, 0.335988, -2.08358, -2.16578, -0.129914, 0.470005, -0.542134, 0.335941, -2.08326, -2.1671, -0.128399, -0.000157176, 0.014718, 0.00382396, 0.0116177, 0.00611475, -0.00299512
0.0840647, 1.69259, -1.22556, -1.53821, -0.899965, -1.19231, 1.22882, -1.30258, 0.0282896, 0.00322746, -0.00474928, 0.00411065, -0.0356682, -5.75854e-05, -9.58952e-05, 1.49146, 57.63, 27.5638, 5.76385, 1.63898, 3.68289, -0.0292249, 0.000903058, -0.000950751, 0.000220045, 0.000356902, -0.00125719, -0.000731944, 0.0119109, -0.00969321, -0.00224322, -0.0206226, 0.0444104, 0.0112801, 0.471005, -0.543017, 0.335992, -2.08357, -2.16577, -0.129915, 0.470015, -0.542131, 0.335943, -2.08326, -2.16713, -0.128318, -0.000163782, 0.0151053, 0.00392227, 0.00986237, 0.00409011, -0.000436832
0.0850647, 1.69262, -1.22557, -1.53822, -0.899966, -1.19235, 1.22882, -1.30258, 0.0308644, 0.0013164, -0.00744015, 0.00147612, -0.0407956, 0.000235706, -6.36323e-05, 1.45576, 57.6657, 27.6035, 5.83527, 1.64447, 3.67557, -0.0292249, 0.000892223, -0.000937828, 0.000229374, 0.000384757, -0.00129824, -0.000744566, 0.012177, -0.010758, -0.00483068, -0.0268509, 0.0476259, 0.0131437, 0.471005, -0.543002, 0.335996, -2.08356, -2.16577, -0.129916, 0.470028, -0.542124, 0.335936, -2.08324, -2.16715, -0.128248, -0.000170564, 0.0154971, 0.00402162, 0.0108347, 0.00466171, -0.00296603
0.0860647, 1.69266, -1.22556, -1.53822, -0.899958, -1.1924, 1.22882, -1.30257, 0.0326871, 0.00347603, -0.00451735, 0.00618574, -0.0449795, -0.000654543, 0.0011785, 1.41608, 57.5546, 27.5638, 5.76385, 1.65088, 3.69754, -0.0621838, 0.00088111, -0.00092585, 0.000229034, 0.000406636, -0.00135111, -0.00074871, 0.01309, -0.010563, -0.00208253, -0.0248085, 0.0525061, 0.00957593, 0.471005, -0.542986, 0.336, -2.08355, -2.16577, -0.129917, 0.47004, -0.542119, 0.335938, -2.08324, -2.16717, -0.128171, -0.000177527, 0.0158932, 0.00412199, 0.0107654, 0.00372507, -0.000288315
0.0870647, 1.6927, -1.22557, -1.53823, -0.89996, -1.19245, 1.22882, -1.30257, 0.0337824, -0.00120914, -0.00430354, 0.00295072, -0.0484852, 0.000107764, 0.000785838, 1.38038, 57.7054, 27.6035, 5.83527, 1.66919, 3.68289, -0.0621838, 0.000871096, -0.000910642, 0.000241425, 0.000438534, -0.00138959, -0.000765653, 0.0132303, -0.0117612, -0.00523491, -0.0276241, 0.0516862, 0.0129218, 0.471005, -0.542971, 0.336004, -2.08354, -2.16576, -0.129918, 0.470055, -0.542111, 0.335928, -2.08322, -2.1672, -0.1281, -0.000184671, 0.0162937, 0.00422337, 0.0118456, 0.00452223, -0.0033578
0.0880647, 1.69273, -1.22556, -1.53824, -0.899955, -1.1925, 1.22882, -1.30257, 0.0339824, 0.00355559, -0.00314199, 0.00550188, -0.0458927, 0.000344304, 1.5391e-05, 1.38038, 57.5189, 27.6035, 5.83527, 1.6756, 3.67557, -0.0484509, 0.000856912, -0.00090025, 0.000238817, 0.000461699, -0.00145552, -0.000767338, 0.0131278, -0.0117495, -0.00169864, -0.0235443, 0.0544294, 0.0130341, 0.471005, -0.542954, 0.336008, -2.08353, -2.16576, -0.129919, 0.470066, -0.542108, 0.335933, -2.08322, -2.16722, -0.128009, -0.000192, 0.0166987, 0.00432576, 0.0119512, 0.00448294, 0.00025237
0.0890647, 1.69277, -1.22556, -1.53824, -0.899953, -1.19255, 1.22882, -1.30257, 0.0375417, 0.00237038, -0.00454432, 0.00644735, -0.0439307, -0.000312104, 0.000281622, 1.34071, 57.5189, 27.5638, 5.87494, 1.68201, 3.69021, -0.0557752, 0.000846852, -0.000884903, 0.000245582, 0.000492606, -0.00150452, -0.000781952, 0.012195, -0.0134038, -0.00304456, -0.0245573, 0.0517348, 0.0154898, 0.471004, -0.542938, 0.336012, -2.08351, -2.16576, -0.129921, 0.470081, -0.5421, 0.335928, -2.08321, -2.16725, -0.127927, -0.000199514, 0.0171079, 0.00442916, 0.0135136, 0.00608853, -0.000878509
0.0900647, 1.69281, -1.22556, -1.53825, -0.899955, -1.1926, 1.22882, -1.30258, 0.0389299, 0.00158025, -0.00578025, 0.0062851, -0.0461488, -0.000207398, -0.00103288, 1.26533, 57.5189, 27.5281, 5.95032, 1.65729, 3.69021, -0.0228162, 0.000836773, -0.000867647, 0.00025139, 0.000518978, -0.00155871, -0.000807612, 0.0127376, -0.0137793, -0.00407064, -0.0268661, 0.0532575, 0.0170237, 0.471004, -0.54292, 0.336017, -2.0835, -2.16575, -0.129922, 0.470098, -0.542091, 0.335925, -2.08318, -2.1673, -0.127847, -0.000207216, 0.0175215, 0.00453354, 0.0138632, 0.0061401, -0.00188317
0.0910647, 1.69285, -1.22556, -1.53826, -0.899955, -1.19266, 1.22882, -1.30257, 0.0396155, 0.00188871, -0.0107619, 0.0072765, -0.0495075, -0.000137762, -0.00116325, 1.305, 57.4832, 27.5281, 5.98602, 1.6756, 3.69021, -0.00999879, 0.000820741, -0.000856628, 0.000256532, 0.00055079, -0.00162011, -0.000812546, 0.0148391, -0.0126911, -0.00558392, -0.0322575, 0.0569165, 0.0134643, 0.471004, -0.542903, 0.336021, -2.08349, -2.16575, -0.129923, 0.47011, -0.542088, 0.335921, -2.08318, -2.16732, -0.127751, -0.000215108, 0.0179394, 0.00463891, 0.0127889, 0.00467217, -0.00356585
0.0920647, 1.69289, -1.22556, -1.53826, -0.899956, -1.19271, 1.22882, -1.30258, 0.0410387, 0.00125914, -0.00720726, 0.00484919, -0.0514261, 0.000179804, -0.000775463, 1.305, 57.4832, 27.4885, 6.02173, 1.68201, 3.68289, -0.00999879, 0.000808707, -0.000840893, 0.000262121, 0.000578511, -0.00167621, -0.000831193, 0.0136501, -0.0145027, -0.0051168, -0.031121, 0.058354, 0.0177185, 0.471004, -0.542885, 0.336026, -2.08348, -2.16575, -0.129924, 0.470125, -0.542081, 0.335918, -2.08316, -2.16736, -0.127667, -0.000223192, 0.0183616, 0.00474526, 0.0145644, 0.0062706, -0.00286859
0.0930647, 1.69294, -1.22555, -1.53827, -0.899953, -1.19277, 1.22882, -1.30258, 0.0424726, 0.00167464, -0.0103284, 0.00469307, -0.0570965, 0.00039142, -0.000516946, 1.18995, 57.4475, 27.5638, 5.98602, 1.6756, 3.67557, -0.00999879, 0.000796149, -0.000824119, 0.000267482, 0.000613383, -0.00174072, -0.000846157, 0.0151609, -0.014181, -0.00609384, -0.0364882, 0.0640929, 0.015633, 0.471003, -0.542867, 0.336031, -2.08346, -2.16574, -0.129926, 0.470142, -0.542073, 0.335915, -2.08314, -2.16739, -0.127566, -0.00023147, 0.0187881, 0.00485258, 0.0142536, 0.00534319, -0.00395131
0.0940647, 1.69298, -1.22555, -1.53828, -0.899951, -1.19284, 1.22882, -1.30257, 0.0409999, 0.00111642, -0.010962, 0.00359751, -0.0570312, 0.000261159, 0.00135081, 1.15424, 57.4475, 27.5638, 5.98602, 1.6756, 3.67557, -0.0557752, 0.000780302, -0.000810397, 0.000275122, 0.000647069, -0.00180082, -0.000847555, 0.016092, -0.0134762, -0.00677129, -0.0373874, 0.0638295, 0.0130297, 0.471003, -0.542848, 0.336035, -2.08345, -2.16574, -0.129927, 0.470156, -0.542068, 0.33591, -2.08314, -2.16741, -0.127469, -0.000239944, 0.0192188, 0.00496086, 0.01355, 0.00493039, -0.00463553
0.0950647, 1.69301, -1.22555, -1.53829, -0.89995, -1.1929, 1.22882, -1.30258, 0.0411887, -9.09365e-05, -0.0105096, 0.00191472, -0.0561734, -0.000368269, -0.00130349, 1.18995, 57.4832, 27.5281, 6.02173, 1.65729, 3.69021, 0.00373412, 0.000763944, -0.000797767, 0.00028125, 0.000679621, -0.00186215, -0.000862473, 0.0157408, -0.0140345, -0.00765919, -0.0379973, 0.0620565, 0.0179033, 0.471003, -0.542829, 0.33604, -2.08343, -2.16574, -0.129929, 0.470169, -0.542064, 0.335906, -2.08312, -2.16745, -0.127374, -0.000248615, 0.0196537, 0.00507009, 0.014054, 0.00587197, -0.00536557
0.0960647, 1.69306, -1.22555, -1.53829, -0.899954, -1.19296, 1.22882, -1.30257, 0.0441178, 0.00170261, -0.00615879, 0.000612155, -0.0613543, 2.58739e-05, 0.00157243, 1.11457, 57.4078, 27.4528, 6.0614, 1.66369, 3.68289, -0.0621838, 0.000753152, -0.000778568, 0.000283161, 0.00071014, -0.00193259, -0.000877463, 0.0144894, -0.0161823, -0.00540259, -0.0371013, 0.0685265, 0.0194192, 0.471003, -0.542809, 0.336045, -2.08342, -2.16573, -0.12993, 0.470188, -0.542054, 0.335907, -2.08311, -2.16749, -0.127271, -0.000257487, 0.0200928, 0.00518027, 0.0162272, 0.00728692, -0.00289814
0.0970647, 1.6931, -1.22554, -1.5383, -0.899953, -1.19303, 1.22882, -1.30257, 0.0442957, 0.00280551, -0.00479258, 0.000605876, -0.0592937, 0.000559874, 0.00104829, 1.11457, 57.3364, 27.4528, 6.0614, 1.64447, 3.66824, -0.0621838, 0.000736043, -0.000765518, 0.000287239, 0.00074687, -0.00200366, -0.000888581, 0.0141199, -0.0168267, -0.00427471, -0.0343432, 0.068443, 0.0214889, 0.471002, -0.542789, 0.336051, -2.08341, -2.16573, -0.129932, 0.470201, -0.542049, 0.335905, -2.0831, -2.16752, -0.127161, -0.000266561, 0.0205361, 0.00529139, 0.0168895, 0.00794772, -0.00163576
0.0980647, 1.69314, -1.22555, -1.5383, -0.899952, -1.1931, 1.22882, -1.30257, 0.0450293, -0.000728117, -0.00685699, 0.000552246, -0.063001, 0.000644584, -0.000284475, 1.11457, 57.4475, 27.4528, 6.0614, 1.64447, 3.66092, -0.0356336, 0.000717571, -0.000751588, 0.000298481, 0.000783091, -0.00206351, -0.000898961, 0.0157483, -0.0165452, -0.00715868, -0.0381566, 0.0684919, 0.0214527, 0.471002, -0.542768, 0.336056, -2.08339, -2.16572, -0.129933, 0.470215, -0.542045, 0.335896, -2.08309, -2.16755, -0.127063, -0.000275838, 0.0209836, 0.00540343, 0.0165526, 0.00722098, -0.00461621
0.0990647, 1.69319, -1.22555, -1.53831, -0.899954, -1.19317, 1.22882, -1.30257, 0.0487512, 0.00127783, -0.00748904, -0.000355807, -0.065524, -0.000112762, -0.000664362, 1.07887, 57.3721, 27.417, 6.09711, 1.62616, 3.67557, -0.0228162, 0.000702967, -0.00073388, 0.000302793, 0.000816669, -0.00213592, -0.000917342, 0.0146487, -0.0182588, -0.00663265, -0.0412972, 0.0727507, 0.0251504, 0.471002, -0.542747, 0.336061, -2.08338, -2.16572, -0.129935, 0.470233, -0.542037, 0.335894, -2.08307, -2.16759, -0.126955, -0.000285321, 0.0214351, 0.00551641, 0.0182342, 0.0087476, -0.00386516
0.100065, 1.69323, -1.22555, -1.53832, -0.899957, -1.19324, 1.22882, -1.30258, 0.0461027, -0.000911354, -0.0104589, -0.00108179, -0.0677022, 0.000196131, -0.000442904, 1.03919, 57.4475, 27.4885, 6.13678, 1.61426, 3.66824, -0.0228162, 0.000683177, -0.000719447, 0.000314959, 0.000858677, -0.00220404, -0.000930062, 0.0173716, -0.0162606, -0.00894364, -0.0446759, 0.0730189, 0.0208631, 0.471002, -0.542726, 0.336067, -2.08336, -2.16572, -0.129936, 0.470247, -0.542032, 0.335884, -2.08306, -2.16762, -0.126843, -0.000295012, 0.0218908, 0.00563029, 0.0162426, 0.00678983, -0.00639615
0.101065, 1.69328, -1.22555, -1.53832, -0.899957, -1.19331, 1.22882, -1.30257, 0.0472396, 0.00032045, -0.00611517, -0.000658616, -0.0700068, -0.000140485, -5.79076e-05, 1.00349, 57.4078, 27.417, 6.13678, 1.62067, 3.67557, -0.0292249, 0.000665566, -0.000705117, 0.000318231, 0.00089633, -0.00227981, -0.000938562, 0.0168597, -0.0172175, -0.0067516, -0.04203, 0.0760185, 0.0225614, 0.471001, -0.542704, 0.336072, -2.08334, -2.16571, -0.129938, 0.470262, -0.542027, 0.335883, -2.08305, -2.16766, -0.126726, -0.000304912, 0.0223506, 0.00574509, 0.0172497, 0.00745637, -0.00406678
0.102065, 1.69328, -1.22555, -1.53832, -0.899957, -1.19331, 1.22882, -1.30257, 0.0472396, 0.00032045, -0.00611517, -0.000658616, -0.0700068, -0.000140485, -5.79076e-05, 1.00349, 57.4078, 27.417, 6.13678, 1.62067, 3.67557, -0.0292249, 0.000642597, -0.000705551, 0.000320459, 0.000886979, -0.00229117, -0.000933359, 0.0173361, -0.017212, -0.00679356, -0.041948, 0.0763568, 0.0225971, 0.471001, -0.542682, 0.336078, -2.08333, -2.16571, -0.12994, 0.470262, -0.542027, 0.335883, -2.08305, -2.16766, -0.126726, -0.000315023, 0.0228145, 0.00586078, 0.0172497, 0.00745637, -0.00406678
0.103065, 1.69337, -1.22554, -1.53833, -0.899967, -1.19346, 1.22882, -1.30258, 0.0466238, 0.000699234, -0.00389105, -0.0033815, -0.0757517, 0.000389704, -0.000681296, 0.888436, 57.3721, 27.417, 6.28357, 1.57764, 3.66092, -0.00267457, 0.000632042, -0.000670714, 0.000330004, 0.000971804, -0.00243091, -0.000976399, 0.0179737, -0.0173039, -0.00611894, -0.0432943, 0.0821243, 0.024169, 0.471001, -0.542659, 0.336084, -2.08331, -2.1657, -0.129941, 0.470296, -0.542012, 0.335877, -2.08302, -2.16774, -0.126497, -0.000325348, 0.0232823, 0.00597737, 0.0173786, 0.00719483, -0.00338642
0.104065, 1.69341, -1.22555, -1.53833, -0.899967, -1.19353, 1.22882, -1.30258, 0.0462914, -0.00129708, -0.00505724, -0.00139271, -0.0753842, -0.00028272, -0.000454196, 0.888436, 57.4475, 27.3774, 6.24786, 1.56482, 3.67557, -0.00267457, 0.000610645, -0.000656074, 0.000338813, 0.00100312, -0.002499, -0.00098559, 0.0194873, -0.0164184, -0.00751153, -0.0438127, 0.0797381, 0.0215061, 0.471, -0.542636, 0.33609, -2.08329, -2.1657, -0.129943, 0.470311, -0.542007, 0.33587, -2.08301, -2.16778, -0.126396, -0.000335889, 0.0237543, 0.00609484, 0.0164875, 0.00635119, -0.00485283
0.105065, 1.69346, -1.22555, -1.53833, -0.899968, -1.19362, 1.22882, -1.30257, 0.0486596, -0.000864721, -0.00304755, -0.000908677, -0.0788807, 0.000354064, -3.15292e-05, 0.777352, 57.4475, 27.3417, 6.24786, 1.5282, 3.66092, -0.00999879, 0.000590856, -0.000638832, 0.000342886, 0.00103724, -0.00258274, -0.000998245, 0.019363, -0.0177014, -0.00658658, -0.0431386, 0.0835954, 0.0228225, 0.471, -0.542612, 0.336096, -2.08328, -2.16569, -0.129945, 0.470328, -0.542002, 0.335869, -2.083, -2.16782, -0.126276, -0.000346646, 0.0242302, 0.00621319, 0.0177872, 0.00686019, -0.00384128
0.106065, 1.6935, -1.22554, -1.53833, -0.899973, -1.1937, 1.22882, -1.30257, 0.0459499, 0.00118676, -0.00241515, -0.00235417, -0.0823576, 0.000236049, 0.0016744, 0.737679, 57.3721, 27.3417, 6.32324, 1.50989, 3.66092, -0.0557752, 0.000570632, -0.000624708, 0.000345434, 0.00107671, -0.00266761, -0.00100547, 0.0209803, -0.0161607, -0.00526463, -0.0443087, 0.0887852, 0.0188434, 0.471, -0.542588, 0.336102, -2.08326, -2.16569, -0.129946, 0.470343, -0.541997, 0.335869, -2.083, -2.16785, -0.126148, -0.000357622, 0.0247101, 0.00633241, 0.0163439, 0.00547638, -0.00262199
0.107065, 1.69354, -1.22555, -1.53833, -0.899971, -1.19378, 1.22882, -1.30257, 0.0398483, -0.000972067, -0.00189769, -0.00155831, -0.0801172, 0.00039473, 0.00111627, 0.737679, 57.4475, 27.3417, 6.32324, 1.49158, 3.65451, -0.0557752, 0.000544699, -0.000613453, 0.000352723, 0.00111093, -0.00274413, -0.00100785, 0.0240977, -0.0129686, -0.00594596, -0.0414512, 0.0849379, 0.0137563, 0.470999, -0.542563, 0.336109, -2.08324, -2.16568, -0.129948, 0.470354, -0.541996, 0.335864, -2.083, -2.16788, -0.126035, -0.000368819, 0.025194, 0.00645249, 0.013232, 0.00285683, -0.00356296
0.108065, 1.69359, -1.22555, -1.53833, -0.89997, -1.19387, 1.22882, -1.30257, 0.0418768, -0.000648044, -0.0006456, -0.00103052, -0.083435, 2.57983e-05, 0.000981538, 0.586922, 57.4475, 27.306, 6.32324, 1.47876, 3.66092, -0.0621838, 0.000523303, -0.00059566, 0.000356572, 0.00114442, -0.00283121, -0.00102078, 0.0241786, -0.0137566, -0.00541801, -0.0421638, 0.0880873, 0.0149527, 0.470999, -0.542538, 0.336115, -2.08322, -2.16568, -0.12995, 0.470372, -0.541991, 0.335863, -2.08299, -2.16793, -0.125913, -0.000380238, 0.0256818, 0.00657343, 0.0140298, 0.00321597, -0.00295775
0.109065, 1.69362, -1.22555, -1.53833, -0.899972, -1.19395, 1.22882, -1.30257, 0.0389091, -0.00126725, 0.000335851, -0.000680749, -0.0855603, 0.000525828, -0.00104106, 0.626595, 57.4832, 27.2663, 6.32324, 1.45404, 3.64718, -0.0164075, 0.000496992, -0.000584839, 0.000361738, 0.00117778, -0.00291176, -0.00102978, 0.0264339, -0.0120463, -0.00522534, -0.0411993, 0.0896293, 0.0135471, 0.470999, -0.542512, 0.336122, -2.0832, -2.16567, -0.129952, 0.470384, -0.54199, 0.33586, -2.08299, -2.16797, -0.125797, -0.000391882, 0.0261735, 0.00669522, 0.0123982, 0.00138147, -0.00294508
0.110065, 1.69367, -1.22554, -1.53833, -0.899978, -1.19404, 1.22882, -1.30257, 0.0421867, 0.00175362, -0.000825446, -0.00211957, -0.0836155, -0.000158072, -0.000456682, 0.551216, 57.3721, 27.306, 6.39465, 1.46686, 3.66092, -0.0228162, 0.000475527, -0.000568976, 0.000363293, 0.00121936, -0.00300583, -0.00104314, 0.0245557, -0.0140341, -0.0043383, -0.042744, 0.091376, 0.0175348, 0.470998, -0.542486, 0.336128, -2.08318, -2.16567, -0.129954, 0.4704, -0.541984, 0.335861, -2.08298, -2.16801, -0.125658, -0.000403753, 0.0266691, 0.00681784, 0.0143364, 0.00367634, -0.00171532
0.111065, 1.69371, -1.22555, -1.53833, -0.899978, -1.19413, 1.22882, -1.30257, 0.0430892, -0.00142937, -0.000641292, -0.00140952, -0.0854906, 0.000131979, -0.000779172, 0.436165, 57.4832, 27.306, 6.39465, 1.44214, 3.65451, -0.00999879, 0.000450033, -0.000553004, 0.000372255, 0.00125248, -0.00308595, -0.00105439, 0.025544, -0.0143101, -0.0061078, -0.043181, 0.0902021, 0.0176829, 0.470998, -0.542459, 0.336135, -2.08317, -2.16566, -0.129956, 0.470416, -0.54198, 0.335855, -2.08297, -2.16805, -0.125543, -0.000415851, 0.0271686, 0.0069413, 0.0145711, 0.00348488, -0.0035017
0.112065, 1.69375, -1.22556, -1.53833, -0.899981, -1.19422, 1.22882, -1.30257, 0.0385031, -0.00178813, -0.00216621, -0.00186506, -0.0873004, 0.000359255, -4.47302e-05, 0.400459, 57.5189, 27.3774, 6.43433, 1.42383, 3.64718, -0.0228162, 0.000421642, -0.000541598, 0.000380654, 0.00129689, -0.00317357, -0.00105599, 0.0287006, -0.0114131, -0.00670046, -0.0446017, 0.0918064, 0.0115225, 0.470997, -0.542432, 0.336142, -2.08315, -2.16566, -0.129958, 0.470427, -0.541979, 0.335849, -2.08297, -2.16808, -0.125407, -0.000428179, 0.027672, 0.00706559, 0.0117575, 0.0008446, -0.00436614
0.113065, 1.69379, -1.22555, -1.53833, -0.899984, -1.19431, 1.22883, -1.30257, 0.0383977, 0.00140637, 0.000175111, -0.00300463, -0.0893299, 0.000510771, -2.98201e-05, 0.360787, 57.4078, 27.306, 6.5097, 1.42383, 3.63986, -0.0228162, 0.000394716, -0.000528553, 0.000379108, 0.00132761, -0.00327354, -0.00106228, 0.028553, -0.011756, -0.00417459, -0.0435247, 0.0970409, 0.0128278, 0.470997, -0.542404, 0.336149, -2.08313, -2.16565, -0.12996, 0.470441, -0.541978, 0.335853, -2.08298, -2.16813, -0.125275, -0.000440739, 0.0281791, 0.00719069, 0.0121743, 0.00112188, -0.00173514
0.114065, 1.69383, -1.22556, -1.53833, -0.899986, -1.1944, 1.22882, -1.30257, 0.0417083, -0.0024961, 7.83522e-05, -0.0020016, -0.0904121, 6.92475e-05, 0.00143818, 0.285408, 57.5546, 27.306, 6.5097, 1.41742, 3.64718, -0.0621838, 0.000366317, -0.000516129, 0.000390456, 0.00136702, -0.00334912, -0.00106371, 0.0284636, -0.0132361, -0.00661842, -0.0447618, 0.0942157, 0.0134505, 0.470997, -0.542376, 0.336156, -2.08311, -2.16564, -0.129962, 0.470454, -0.541975, 0.335844, -2.08298, -2.16815, -0.125156, -0.000453532, 0.0286901, 0.0073166, 0.0135473, 0.00215976, -0.00405385
0.115065, 1.69388, -1.22555, -1.53833, -0.899989, -1.19449, 1.22882, -1.30257, 0.0421992, 6.37198e-06, 2.34434e-05, -0.0021685, -0.0908791, -0.000225102, 0.000721429, 0.170357, 57.4832, 27.306, 6.54541, 1.40552, 3.65451, -0.0557752, 0.000339462, -0.000502349, 0.00039307, 0.00140681, -0.0034449, -0.00107235, 0.0285582, -0.0133822, -0.00528471, -0.0451282, 0.0973548, 0.0146081, 0.470996, -0.542347, 0.336164, -2.08308, -2.16564, -0.129964, 0.470468, -0.541972, 0.335844, -2.08298, -2.16819, -0.125018, -0.00046656, 0.0292049, 0.00744332, 0.0137324, 0.0023815, -0.00263006
0.116065, 1.69388, -1.22555, -1.53833, -0.899989, -1.19449, 1.22882, -1.30257, 0.0421992, 6.37198e-06, 2.34434e-05, -0.0021685, -0.0908791, -0.000225102, 0.000721429, 0.170357, 57.4832, 27.306, 6.54541, 1.40552, 3.65451, -0.0557752, 0.000309454, -0.000502853, 0.000395903, 0.00139456, -0.00345977, -0.00106565, 0.0290906, -0.0133778, -0.00532945, -0.0450324, 0.0977307, 0.0146479, 0.470996, -0.542318, 0.336171, -2.08306, -2.16563, -0.129966, 0.470468, -0.541972, 0.335844, -2.08298, -2.16819, -0.125018, -0.000479825, 0.0297235, 0.00757084, 0.0137324, 0.0023815, -0.00263006
0.117065, 1.69395, -1.22555, -1.53833, -0.899987, -1.19467, 1.22882, -1.30257, 0.0388802, -0.000275574, -0.000855389, -0.001241, -0.0917574, 0.000532912, 0.00013979, 0.0196001, 57.4832, 27.3417, 6.54541, 1.3927, 3.63254, -0.0484509, 0.000277727, -0.000479649, 0.000401918, 0.00147599, -0.00362602, -0.00107499, 0.0318408, -0.011197, -0.00547581, -0.0445202, 0.0987976, 0.0104685, 0.470995, -0.542288, 0.336179, -2.08304, -2.16563, -0.129968, 0.470491, -0.541972, 0.33584, -2.08299, -2.16826, -0.124762, -0.000493328, 0.0302458, 0.00769914, 0.0116348, 0.000121889, -0.00300857
0.118065, 1.694, -1.22555, -1.53833, -0.899991, -1.19476, 1.22882, -1.30257, 0.0428961, -0.000183716, 0.000252812, -0.00175488, -0.0877159, 0.000626543, -0.00160223, -0.0914839, 57.4832, 27.306, 6.58508, 1.3927, 3.62521, -0.00267457, 0.000249205, -0.000465197, 0.000406184, 0.00151108, -0.00371848, -0.00108606, 0.02941, -0.0142235, -0.0053518, -0.0423486, 0.0961039, 0.0185544, 0.470995, -0.542258, 0.336186, -2.08302, -2.16562, -0.129971, 0.470506, -0.541969, 0.335838, -2.08298, -2.1683, -0.124633, -0.000507072, 0.0307718, 0.00782823, 0.0145607, 0.00315344, -0.00247149
0.119065, 1.69403, -1.22555, -1.53833, -0.899992, -1.19485, 1.22882, -1.30257, 0.0403542, -0.000957695, -0.000675786, -0.00116957, -0.0895468, 0.000417695, -0.00130551, -0.0914839, 57.5189, 27.3417, 6.58508, 1.3927, 3.62521, 0.00373412, 0.000214759, -0.00045621, 0.000413775, 0.00154685, -0.00380539, -0.00108617, 0.0318672, -0.012271, -0.00598, -0.0434875, 0.097045, 0.014228, 0.470994, -0.542227, 0.336194, -2.083, -2.16561, -0.129973, 0.470516, -0.54197, 0.335833, -2.08298, -2.16833, -0.124507, -0.000521058, 0.0313016, 0.00795809, 0.0126624, 0.00127439, -0.00328558
0.120065, 1.69407, -1.22555, -1.53834, -0.899994, -1.19494, 1.22882, -1.30258, 0.044193, 0.000196754, -0.00222059, -0.00161467, -0.0901883, 0.000278464, -0.00087034, -0.206535, 57.4832, 27.417, 6.62079, 1.3808, 3.62521, 0.00373412, 0.000183578, -0.000443258, 0.000420626, 0.00158899, -0.00389872, -0.00109127, 0.0308995, -0.0141287, -0.00616826, -0.0458575, 0.0993021, 0.0170346, 0.470994, -0.542196, 0.336202, -2.08297, -2.16561, -0.129975, 0.470529, -0.541968, 0.335829, -2.08298, -2.16837, -0.124369, -0.000535288, 0.031835, 0.00808872, 0.0144618, 0.00286904, -0.00324751
0.121065, 1.69411, -1.22555, -1.53833, -0.899994, -1.19503, 1.22882, -1.30258, 0.0403573, -0.000704048, -0.000557501, -0.00107625, -0.0913863, 0.000185642, -0.000817586, -0.281914, 57.5189, 27.3774, 6.62079, 1.3808, 3.62521, 0.0101428, 0.000150942, -0.000431777, 0.0004251, 0.0016204, -0.0039875, -0.00109441, 0.033283, -0.0120113, -0.0058823, -0.0441679, 0.0994534, 0.0131775, 0.470993, -0.542164, 0.33621, -2.08295, -2.1656, -0.129978, 0.470541, -0.541967, 0.335827, -2.08298, -2.1684, -0.124246, -0.000549763, 0.0323721, 0.00822011, 0.0124291, 0.000922085, -0.00314105
0.122065, 1.69415, -1.22555, -1.53833, -0.899992, -1.19512, 1.22883, -1.30257, 0.0393796, -0.000469366, 0.000459708, 0.00011787, -0.0933769, 0.000632388, 0.000675646, -0.317619, 57.5189, 27.3417, 6.58508, 1.41192, 3.61148, -0.0228162, 0.00011644, -0.000420366, 0.000429046, 0.00165001, -0.0040805, -0.00108748, 0.0348322, -0.0112253, -0.0051693, -0.0429696, 0.101729, 0.00953208, 0.470993, -0.542132, 0.336219, -2.08293, -2.16559, -0.12998, 0.470553, -0.541968, 0.335826, -2.083, -2.16843, -0.124121, -0.000564485, 0.0329128, 0.00835225, 0.0117115, -0.000208812, -0.002523
0.123065, 1.69419, -1.22555, -1.53833, -0.899997, -1.19521, 1.22882, -1.30257, 0.0386268, 0.000522308, 0.00113881, -0.00785914, -0.0889604, 0.000150325, 0.000450431, -0.357292, 57.4832, 27.306, 6.65649, 1.41742, 3.6188, -0.0228162, 8.52902e-05, -0.000407455, 0.000432623, 0.00168172, -0.00416986, -0.00109736, 0.0321986, -0.0130898, -0.00550556, -0.0442254, 0.0998992, 0.0178287, 0.470992, -0.542099, 0.336227, -2.0829, -2.16559, -0.129982, 0.470566, -0.541965, 0.335826, -2.08299, -2.16847, -0.123998, -0.000579456, 0.0334572, 0.00848514, 0.0134515, 0.0030645, -0.00236945
0.124065, 1.69424, -1.22555, -1.53833, -0.899999, -1.19529, 1.22883, -1.30257, 0.0430199, -0.000487013, -0.000913393, -0.00576162, -0.090543, 0.000371484, 6.29281e-05, -0.468376, 57.5189, 27.3774, 6.65649, 1.42383, 3.61148, -0.0164075, 5.34735e-05, -0.0003925, 0.000440309, 0.0017193, -0.00425954, -0.0011065, 0.0322897, -0.0146023, -0.00678905, -0.0462221, 0.100783, 0.0192613, 0.470991, -0.542066, 0.336235, -2.08288, -2.16558, -0.129985, 0.470581, -0.541961, 0.335821, -2.08298, -2.16851, -0.123869, -0.000594677, 0.0340052, 0.00861877, 0.014903, 0.0037837, -0.00356424
0.125065, 1.69427, -1.22555, -1.53833, -0.9, -1.19538, 1.22883, -1.30257, 0.0395566, 0.000510543, -0.00153857, -0.00423273, -0.0876287, 0.000247656, 0.000754029, -0.43267, 57.4832, 27.417, 6.65649, 1.44855, 3.61148, -0.0356336, 1.70272e-05, -0.000382506, 0.000444241, 0.00174996, -0.00435316, -0.00110253, 0.0342953, -0.0124925, -0.00608679, -0.0440695, 0.0995246, 0.0145123, 0.470991, -0.542032, 0.336244, -2.08286, -2.16557, -0.129987, 0.470592, -0.541962, 0.33582, -2.083, -2.16854, -0.123742, -0.000610151, 0.0345567, 0.00875313, 0.0128788, 0.00216019, -0.00298525
0.126065, 1.69431, -1.22555, -1.53833, -0.899997, -1.19546, 1.22883, -1.30258, 0.0399241, 0.000340362, 0.000736309, -0.00228034, -0.0843016, 0.000707639, -0.00143009, -0.508049, 57.4832, 27.3417, 6.62079, 1.44214, 3.59683, 0.0165515, -1.53186e-05, -0.000369239, 0.000447617, 0.001777, -0.00443648, -0.00111469, 0.0342093, -0.0131201, -0.00513763, -0.0391753, 0.0969435, 0.0176068, 0.47099, -0.541997, 0.336253, -2.08283, -2.16557, -0.12999, 0.470606, -0.541958, 0.33582, -2.08299, -2.16858, -0.123631, -0.000625878, 0.0351119, 0.00888822, 0.0135217, 0.0026797, -0.00191965
0.127065, 1.69435, -1.22555, -1.53833, -0.899995, -1.19554, 1.22883, -1.30258, 0.0421101, -0.00060831, -0.000345257, -0.000905311, -0.0827734, 0.000200492, -0.000478678, -0.543754, 57.5189, 27.3774, 6.58508, 1.46045, 3.60415, 0.00373412, -5.00697e-05, -0.000355964, 0.000455015, 0.00180688, -0.00451951, -0.00111676, 0.0341789, -0.0139422, -0.00609384, -0.0395044, 0.0949186, 0.0176623, 0.47099, -0.541962, 0.336262, -2.0828, -2.16556, -0.129992, 0.470619, -0.541956, 0.335816, -2.08298, -2.16861, -0.123517, -0.00064186, 0.0356705, 0.00902402, 0.0142907, 0.00345047, -0.00274915
0.128065, 1.6944, -1.22555, -1.53833, -0.9, -1.19562, 1.22882, -1.30258, 0.0437253, 0.0012649, -0.000230856, -0.0024392, -0.0813401, 0.000676196, -0.000556478, -0.583427, 57.4475, 27.3774, 6.65649, 1.47876, 3.58951, 0.0101428, -8.20269e-05, -0.000341277, 0.000457569, 0.00183762, -0.00461139, -0.00112809, 0.033144, -0.0154211, -0.00525529, -0.039031, 0.0964331, 0.0212236, 0.470989, -0.541926, 0.336271, -2.08278, -2.16555, -0.129995, 0.470634, -0.541951, 0.335817, -2.08298, -2.16866, -0.123393, -0.000658099, 0.0362327, 0.00916054, 0.015745, 0.00496605, -0.00166953
0.129065, 1.69444, -1.22555, -1.53833, -0.900003, -1.1957, 1.22883, -1.30258, 0.0401931, -0.000827172, -0.00108244, -0.00267808, -0.0804832, 0.000450797, -0.000133626, -0.658806, 57.5189, 27.417, 6.69617, 1.49707, 3.58951, 0.00373412, -0.000115299, -0.000325137, 0.000467078, 0.00186642, -0.00469075, -0.00113819, 0.0354105, -0.0134354, -0.00669898, -0.0392102, 0.0939121, 0.0174811, 0.470988, -0.54189, 0.33628, -2.08275, -2.16554, -0.129998, 0.470651, -0.541945, 0.335811, -2.08297, -2.1687, -0.123285, -0.000674597, 0.0367984, 0.00929776, 0.0137743, 0.00343604, -0.00325096
0.130065, 1.69448, -1.22555, -1.53833, -0.899997, -1.19578, 1.22883, -1.30257, 0.0395855, 0.00028377, -0.00155723, -0.00327931, -0.0791384, 0.000571799, 0.00113162, -0.583427, 57.4832, 27.4528, 6.62079, 1.49707, 3.58218, -0.0292249, -0.000153274, -0.000314627, 0.000469676, 0.00188974, -0.00477803, -0.00113184, 0.0358255, -0.0132957, -0.00630149, -0.0388772, 0.0944557, 0.0163884, 0.470988, -0.541853, 0.336289, -2.08273, -2.16554, -0.13, 0.470662, -0.541945, 0.335811, -2.08298, -2.16872, -0.123172, -0.000691354, 0.0373675, 0.00943568, 0.0136477, 0.00352865, -0.00278188
0.131065, 1.69453, -1.22555, -1.53834, -0.9, -1.19585, 1.22883, -1.30257, 0.0417622, -0.00148126, 0.00129057, -0.00335482, -0.0739402, 0.000381199, 0.000991772, -0.734184, 57.5546, 27.4885, 6.65649, 1.50989, 3.58218, -0.0356336, -0.000183212, -0.000294486, 0.000481091, 0.00192318, -0.00485253, -0.0011505, 0.0339455, -0.0156122, -0.00652542, -0.0345462, 0.0886457, 0.0219343, 0.470987, -0.541816, 0.336299, -2.0827, -2.16553, -0.130003, 0.470682, -0.541934, 0.335804, -2.08295, -2.16876, -0.123064, -0.000708374, 0.0379402, 0.00957429, 0.0158683, 0.00608783, -0.00264312
0.132065, 1.69457, -1.22555, -1.53834, -0.899997, -1.19592, 1.22883, -1.30257, 0.0380885, -0.000987504, 0.000195828, -0.00165137, -0.0742601, 0.000491492, 0.000423822, -0.658806, 57.5546, 27.5281, 6.62079, 1.50989, 3.57577, -0.0292249, -0.000221016, -0.000283521, 0.000485435, 0.00194587, -0.00493361, -0.00115178, 0.0369329, -0.0129525, -0.00622728, -0.0340284, 0.0896735, 0.0167839, 0.470986, -0.541778, 0.336308, -2.08267, -2.16552, -0.130006, 0.470693, -0.541933, 0.335803, -2.08295, -2.16879, -0.12296, -0.000725657, 0.0385162, 0.00971358, 0.0133138, 0.00355927, -0.00259466
0.133065, 1.69461, -1.22555, -1.53833, -0.899997, -1.19599, 1.22883, -1.30257, 0.0403398, 0.000176882, 0.00125617, -0.000453227, -0.0737654, 0.000327661, 0.000519907, -0.658806, 57.5189, 27.4885, 6.58508, 1.49707, 3.57577, -0.0356336, -0.00025587, -0.000268056, 0.000488583, 0.00196477, -0.00501676, -0.00116008, 0.0364323, -0.0141351, -0.00518105, -0.032576, 0.0906597, 0.0185602, 0.470985, -0.541739, 0.336318, -2.08264, -2.16551, -0.130009, 0.470709, -0.541927, 0.335804, -2.08295, -2.16883, -0.122858, -0.000743204, 0.0390957, 0.00985355, 0.0144978, 0.00452041, -0.00138092
0.134065, 1.69465, -1.22555, -1.53834, -0.9, -1.19607, 1.22883, -1.30257, 0.0412942, 0.000953139, 0.00098565, -0.00127802, -0.0746071, 0.000760976, -0.000128113, -0.619133, 57.4832, 27.4885, 6.62079, 1.5163, 3.56112, -0.0228162, -0.000291673, -0.000252967, 0.000493116, 0.00198853, -0.00510305, -0.00116756, 0.0365544, -0.0147751, -0.00499205, -0.0331836, 0.0928794, 0.0204916, 0.470985, -0.5417, 0.336328, -2.08262, -2.1655, -0.130011, 0.470724, -0.541922, 0.335803, -2.08294, -2.16887, -0.122748, -0.000761018, 0.0396786, 0.00999418, 0.0151308, 0.0049804, -0.00109336
0.135065, 1.6947, -1.22555, -1.53833, -0.900003, -1.19614, 1.22883, -1.30257, 0.0415165, -0.000199792, 0.000768251, -0.00179272, -0.0744938, 0.000507317, 0.00015195, -0.694511, 57.5189, 27.4885, 6.65649, 1.50989, 3.56112, -0.0292249, -0.000324071, -0.000234376, 0.000500609, 0.0020145, -0.00517943, -0.00118653, 0.0370111, -0.0149622, -0.00589861, -0.0338007, 0.0920041, 0.0208808, 0.470984, -0.541661, 0.336338, -2.08259, -2.1655, -0.130014, 0.470743, -0.541913, 0.3358, -2.08292, -2.16892, -0.122646, -0.000779099, 0.0402649, 0.0101355, 0.0152828, 0.00526429, -0.00192506
0.136065, 1.69473, -1.22556, -1.53834, -0.900001, -1.19621, 1.22883, -1.30257, 0.0378228, -0.00273165, -0.00116771, -0.000439042, -0.0709722, 0.000609479, -0.000136059, -0.619133, 57.63, 27.5638, 6.62079, 1.53461, 3.5538, -0.0228162, -0.00036502, -0.000222559, 0.000511452, 0.00204004, -0.00525452, -0.00118876, 0.0396216, -0.0127086, -0.0077303, -0.0326592, 0.086961, 0.0166799, 0.470983, -0.54162, 0.336348, -2.08256, -2.16549, -0.130017, 0.470755, -0.541911, 0.335793, -2.08291, -2.16894, -0.122545, -0.00079745, 0.0408545, 0.0102774, 0.0130408, 0.00346767, -0.0039305
0.137065, 1.69478, -1.22555, -1.53833, -0.900003, -1.19628, 1.22883, -1.30257, 0.0417194, -0.000985882, 0.000119269, -0.000352031, -0.0718211, 0.000677586, -0.000565424, -0.694511, 57.5943, 27.5281, 6.62079, 1.5282, 3.54648, -0.00999879, -0.000397743, -0.000202976, 0.000515238, 0.00205913, -0.00533532, -0.00120887, 0.0382598, -0.0149827, -0.00648176, -0.0321584, 0.0898875, 0.0212279, 0.470982, -0.541579, 0.336358, -2.08253, -2.16548, -0.13002, 0.470775, -0.541901, 0.335794, -2.08289, -2.169, -0.122447, -0.000816072, 0.0414475, 0.01042, 0.0152903, 0.00530633, -0.00241373
0.138065, 1.69482, -1.22556, -1.53834, -0.900003, -1.19635, 1.22883, -1.30257, 0.0418768, -0.00232769, -0.000708813, -0.00344217, -0.068252, 0.00150289, -0.00159765, -0.658806, 57.6657, 27.5638, 6.62079, 1.5401, 3.5181, 0.0229602, -0.000437752, -0.000187802, 0.000523917, 0.00208047, -0.0054175, -0.00121551, 0.0375649, -0.0161913, -0.00797937, -0.0319957, 0.0867997, 0.0259951, 0.470982, -0.541538, 0.336369, -2.0825, -2.16547, -0.130023, 0.470791, -0.541897, 0.335789, -2.08289, -2.16903, -0.122343, -0.000834967, 0.0420438, 0.0105633, 0.0163982, 0.00687085, -0.00367881
0.139065, 1.69487, -1.22556, -1.53834, -0.900008, -1.19642, 1.22884, -1.30258, 0.0439531, -0.00331503, -0.00220061, -0.00342696, -0.0648646, 0.00100192, -0.000827743, -0.694511, 57.7411, 27.6392, 6.65649, 1.5282, 3.5181, 0.0165515, -0.000472961, -0.00016846, 0.000535295, 0.00210455, -0.00548982, -0.00123503, 0.0369438, -0.0173959, -0.00929056, -0.0324359, 0.0833893, 0.0277461, 0.470981, -0.541496, 0.336379, -2.08247, -2.16546, -0.130026, 0.47081, -0.541887, 0.335782, -2.08286, -2.16908, -0.122248, -0.000854135, 0.0426434, 0.0107072, 0.0175113, 0.00833698, -0.0047706
0.140065, 1.69491, -1.22556, -1.53833, -0.900004, -1.19649, 1.22883, -1.30257, 0.0417334, -0.00221002, -0.00060548, -0.000836922, -0.067533, 0.00121048, 0.00138095, -0.694511, 57.7411, 27.6035, 6.58508, 1.5282, 3.50345, -0.0356336, -0.000511577, -0.000153258, 0.000539863, 0.00212028, -0.00556656, -0.00123789, 0.0394285, -0.0155694, -0.00762406, -0.0303063, 0.0868077, 0.0209738, 0.47098, -0.541453, 0.33639, -2.08244, -2.16545, -0.130029, 0.470825, -0.541881, 0.335782, -2.08286, -2.16911, -0.122157, -0.000873578, 0.0432462, 0.0108517, 0.0158193, 0.00615403, -0.00331357
0.141065, 1.69496, -1.22556, -1.53833, -0.900002, -1.19655, 1.22884, -1.30257, 0.0400006, -0.00147335, 0.000544149, 0.000203033, -0.0645278, 0.00185815, 0.000920634, -0.694511, 57.7411, 27.5638, 6.54541, 1.52179, 3.47507, -0.0356336, -0.000549954, -0.00013629, 0.000544489, 0.00213382, -0.00564506, -0.00124883, 0.0402901, -0.0150087, -0.00654175, -0.0263984, 0.0856096, 0.0204082, 0.470979, -0.54141, 0.336401, -2.08241, -2.16544, -0.130032, 0.470843, -0.541874, 0.335781, -2.08285, -2.16915, -0.122066, -0.000893298, 0.0438524, 0.0109968, 0.015311, 0.00571932, -0.0022183
0.142065, 1.695, -1.22557, -1.53834, -0.900009, -1.19662, 1.22883, -1.30257, 0.0388862, -0.00358069, -0.00138563, -0.00175316, -0.0672197, 0.0017813, -9.83206e-05, -0.694511, 57.8522, 27.6392, 6.62079, 1.5163, 3.46042, -0.0164075, -0.000588513, -0.000120066, 0.000557053, 0.00216303, -0.00571773, -0.00126497, 0.041962, -0.0142038, -0.00872607, -0.0302197, 0.0863845, 0.0202944, 0.470978, -0.541366, 0.336412, -2.08237, -2.16543, -0.130036, 0.470859, -0.541866, 0.335774, -2.08282, -2.16919, -0.121965, -0.000913297, 0.0444617, 0.0111426, 0.0144672, 0.00498389, -0.00446644
0.143065, 1.69504, -1.22558, -1.53834, -0.900007, -1.19669, 1.22884, -1.30257, 0.0404857, -0.00498558, -0.000912629, -0.000427516, -0.069074, 0.0022387, -6.55471e-05, -0.694511, 57.9633, 27.6392, 6.58508, 1.50989, 3.43204, -0.0164075, -0.000629484, -0.000102735, 0.000566809, 0.0021771, -0.00579163, -0.00127486, 0.0427212, -0.0147884, -0.00928921, -0.0298814, 0.0870717, 0.0203604, 0.470977, -0.541322, 0.336423, -2.08234, -2.16542, -0.130039, 0.470876, -0.54186, 0.335768, -2.08281, -2.16922, -0.121879, -0.000933575, 0.0450743, 0.0112889, 0.0150375, 0.00495907, -0.00501388
0.144065, 1.69509, -1.22557, -1.53834, -0.90001, -1.19675, 1.22884, -1.30257, 0.0421407, -0.00156048, -0.00143529, -0.00035548, -0.0708168, 0.002035, -0.000552324, -0.694511, 57.8879, 27.6749, 6.58508, 1.50989, 3.41739, -0.00267457, -0.000667737, -8.47832e-05, 0.000570183, 0.00219357, -0.00587537, -0.0012906, 0.0427423, -0.0153108, -0.00759991, -0.0311262, 0.0923345, 0.0215642, 0.470976, -0.541277, 0.336434, -2.08231, -2.16541, -0.130042, 0.470895, -0.541851, 0.335769, -2.08279, -2.16927, -0.12178, -0.000954135, 0.0456901, 0.0114359, 0.0156021, 0.00531454, -0.00321985
0.145065, 1.69513, -1.22558, -1.53834, -0.900015, -1.19681, 1.22885, -1.30258, 0.042381, -0.00280356, -0.000950602, -0.00112506, -0.0716742, 0.00267909, -0.000605575, -0.658806, 57.9633, 27.6749, 6.62079, 1.50348, 3.38168, 0.00373412, -0.00070832, -6.76893e-05, 0.000579564, 0.00220803, -0.00594821, -0.00130504, 0.0432958, -0.0157468, -0.00826784, -0.0309224, 0.0926067, 0.0225469, 0.470975, -0.541231, 0.336446, -2.08228, -2.1654, -0.130045, 0.470912, -0.541843, 0.335765, -2.08277, -2.16931, -0.121695, -0.000974976, 0.0463091, 0.0115835, 0.0160122, 0.00550935, -0.00383292
0.146065, 1.69517, -1.22558, -1.53834, -0.900016, -1.19688, 1.22885, -1.30258, 0.0414855, -0.00353948, -0.00239228, -0.000789677, -0.0681493, 0.0023286, -0.000641076, -0.694511, 58.0347, 27.7503, 6.62079, 1.50989, 3.36703, 0.0101428, -0.000749083, -4.86834e-05, 0.000589826, 0.00222429, -0.00602296, -0.00131957, 0.0440695, -0.0152619, -0.00919943, -0.0304905, 0.0892954, 0.021956, 0.470974, -0.541185, 0.336457, -2.08224, -2.16539, -0.130049, 0.470931, -0.541835, 0.335759, -2.08275, -2.16936, -0.121606, -0.000996102, 0.0469312, 0.0117316, 0.0155006, 0.00549267, -0.00471164
0.147065, 1.69521, -1.22558, -1.53833, -0.900016, -1.19694, 1.22885, -1.30258, 0.0420834, -0.00152443, -0.000756113, 0.000279037, -0.0655738, 0.0015524, -0.000664743, -0.658806, 57.999, 27.7146, 6.58508, 1.5163, 3.36703, 0.0165515, -0.000791688, -3.40582e-05, 0.000592496, 0.0022337, -0.00610253, -0.00132858, 0.0436352, -0.0157547, -0.00743814, -0.027822, 0.0890717, 0.0232927, 0.470973, -0.541138, 0.336469, -2.08221, -2.16538, -0.130052, 0.470946, -0.541829, 0.335761, -2.08275, -2.1694, -0.121519, -0.00101751, 0.0475565, 0.0118804, 0.0160211, 0.00629461, -0.00277281
0.148065, 1.69526, -1.22559, -1.53834, -0.900019, -1.197, 1.22886, -1.30257, 0.0431794, -0.00528518, -0.00309989, 0.000163728, -0.0630341, 0.00235736, 3.1556e-05, -0.658806, 58.1815, 27.8257, 6.58508, 1.50989, 3.33133, 0.00373412, -0.000835325, -1.68869e-05, 0.000608464, 0.00225377, -0.00616847, -0.001335, 0.0441885, -0.0164867, -0.0105324, -0.0284066, 0.0842943, 0.023629, 0.470972, -0.54109, 0.336481, -2.08218, -2.16537, -0.130056, 0.470963, -0.541821, 0.33575, -2.08273, -2.16942, -0.121434, -0.00103921, 0.0481849, 0.0120297, 0.0166359, 0.00688765, -0.00578872
0.149065, 1.69529, -1.22558, -1.53834, -0.900029, -1.19705, 1.22886, -1.30257, 0.0421719, -0.00185302, -0.0012294, -0.00157801, -0.0617663, 0.00262273, 0.000529664, -0.583427, 58.11, 27.79, 6.65649, 1.52179, 3.30295, -0.00999879, -0.000874037, 1.93692e-06, 0.000610287, 0.00226146, -0.00624826, -0.00135643, 0.0438235, -0.0167659, -0.00806678, -0.0261963, 0.0872596, 0.02497, 0.470971, -0.541042, 0.336493, -2.08214, -2.16536, -0.130059, 0.470982, -0.54181, 0.335754, -2.08271, -2.16948, -0.121351, -0.0010612, 0.0488164, 0.0121795, 0.0169712, 0.00750934, -0.00315768
0.150065, 1.69534, -1.22559, -1.53833, -0.900028, -1.19711, 1.22886, -1.30257, 0.0441089, -0.00466902, -0.000818111, -0.00248421, -0.055628, 0.00201976, 0.0015399, -0.619133, 58.2568, 27.79, 6.58508, 1.5163, 3.29562, -0.0420422, -0.000915765, 2.09109e-05, 0.000622202, 0.00227074, -0.00630818, -0.00136922, 0.0422487, -0.0187583, -0.00991543, -0.0243459, 0.0796986, 0.029026, 0.47097, -0.540993, 0.336505, -2.08211, -2.16535, -0.130063, 0.471001, -0.5418, 0.335747, -2.08268, -2.16951, -0.121285, -0.00108347, 0.049451, 0.01233, 0.0188132, 0.0100685, -0.00464913
0.151065, 1.69538, -1.22559, -1.53833, -0.900034, -1.19716, 1.22886, -1.30257, 0.0436991, -0.00134944, 0.00250994, -0.00275828, -0.0516063, 0.00161777, 0.00126396, -0.583427, 58.1815, 27.79, 6.62079, 1.5282, 3.2883, -0.0484509, -0.000956137, 3.92986e-05, 0.000625461, 0.00228091, -0.00638548, -0.00138365, 0.0411501, -0.0194899, -0.00689155, -0.0195684, 0.0797585, 0.0320718, 0.470969, -0.540944, 0.336517, -2.08207, -2.16534, -0.130066, 0.47102, -0.541789, 0.335749, -2.08267, -2.16956, -0.1212, -0.00110604, 0.0500886, 0.012481, 0.0195939, 0.0113526, -0.00136519
0.152065, 1.69543, -1.2256, -1.53833, -0.900029, -1.19721, 1.22886, -1.30257, 0.0446605, -0.0043333, 0.000258216, 0.00148744, -0.0535095, 0.00158714, 0.000605282, -0.583427, 58.3282, 27.8614, 6.47003, 1.55292, 3.27456, -0.0420422, -0.00100093, 5.61439e-05, 0.00063841, 0.00229258, -0.00644408, -0.00139335, 0.0437691, -0.0185225, -0.00895104, -0.0207065, 0.0785861, 0.0283468, 0.470968, -0.540894, 0.33653, -2.08203, -2.16533, -0.13007, 0.471037, -0.54178, 0.335741, -2.08265, -2.16958, -0.121132, -0.0011289, 0.0507293, 0.0126325, 0.0186236, 0.00968817, -0.00362787
0.153065, 1.69546, -1.2256, -1.53834, -0.900038, -1.19727, 1.22886, -1.30257, 0.0404101, -0.00288887, 0.00170603, -0.00402982, -0.0494163, 0.0018719, -0.000545914, -0.508049, 58.3282, 27.9368, 6.54541, 1.55292, 3.25259, -0.0164075, -0.00104581, 7.19674e-05, 0.000646357, 0.00230288, -0.00651675, -0.00141228, 0.0434625, -0.0181114, -0.00815959, -0.0190038, 0.0775357, 0.0322253, 0.470967, -0.540843, 0.336542, -2.082, -2.16532, -0.130073, 0.471053, -0.541772, 0.335738, -2.08262, -2.16963, -0.121053, -0.00115205, 0.051373, 0.0127846, 0.0182084, 0.0104952, -0.00263517
0.154065, 1.69551, -1.22559, -1.53834, -0.900046, -1.19732, 1.22886, -1.30257, 0.0429073, -0.00109069, 0.00153979, -0.00305816, -0.0467955, 0.000976663, -0.000126584, -0.543754, 58.2925, 27.9368, 6.54541, 1.56482, 3.25992, -0.0228162, -0.0010852, 9.32193e-05, 0.000651304, 0.00231412, -0.00659104, -0.00143352, 0.042552, -0.0193625, -0.00728869, -0.0183417, 0.0772038, 0.0342342, 0.470966, -0.540792, 0.336555, -2.08196, -2.16531, -0.130077, 0.471074, -0.541758, 0.335739, -2.08259, -2.16968, -0.120971, -0.0011755, 0.0520197, 0.0129373, 0.019434, 0.0119583, -0.00152067
0.155065, 1.69554, -1.2256, -1.53834, -0.90005, -1.19736, 1.22887, -1.30257, 0.0391953, -0.00249037, -0.000434882, -0.00459524, -0.0448942, 0.000922376, -0.00130509, -0.468376, 58.3679, 28.0121, 6.5097, 1.57764, 3.25259, 0.0101428, -0.00113216, 0.00010854, 0.000660845, 0.00231845, -0.0066549, -0.00144713, 0.0445807, -0.0175091, -0.00888253, -0.0193818, 0.0748379, 0.0328593, 0.470965, -0.54074, 0.336568, -2.08192, -2.1653, -0.130081, 0.471089, -0.54175, 0.335735, -2.08257, -2.16972, -0.120906, -0.00119924, 0.0526694, 0.0130904, 0.017574, 0.0107764, -0.00320228
0.156065, 1.69554, -1.2256, -1.53834, -0.90005, -1.19736, 1.22887, -1.30257, 0.0391953, -0.00249037, -0.000434882, -0.00459524, -0.0448942, 0.000922376, -0.00130509, -0.468376, 58.3679, 28.0121, 6.5097, 1.57764, 3.25259, 0.0101428, -0.00118626, 0.000107951, 0.000665515, 0.00229624, -0.00668187, -0.00143555, 0.0452503, -0.0175104, -0.00893045, -0.0192459, 0.0753033, 0.0329101, 0.470963, -0.540687, 0.336581, -2.08189, -2.16528, -0.130085, 0.471089, -0.54175, 0.335735, -2.08257, -2.16972, -0.120906, -0.00122328, 0.0533221, 0.0132441, 0.017574, 0.0107764, -0.00320228
0.157065, 1.69554, -1.2256, -1.53834, -0.90005, -1.19736, 1.22887, -1.30257, 0.0391953, -0.00249037, -0.000434882, -0.00459524, -0.0448942, 0.000922376, -0.00130509, -0.468376, 58.3679, 28.0121, 6.5097, 1.57764, 3.25259, 0.0101428, -0.00124103, 0.000107363, 0.00067023, 0.00227375, -0.00670918, -0.00142384, 0.0459229, -0.0175119, -0.00897835, -0.0191089, 0.0757705, 0.0329612, 0.470962, -0.540634, 0.336594, -2.08185, -2.16527, -0.130089, 0.471089, -0.54175, 0.335735, -2.08257, -2.16972, -0.120906, -0.00124762, 0.0539777, 0.0133983, 0.017574, 0.0107764, -0.00320228
0.158065, 1.69554, -1.2256, -1.53834, -0.90005, -1.19736, 1.22887, -1.30257, 0.0391953, -0.00249037, -0.000434882, -0.00459524, -0.0448942, 0.000922376, -0.00130509, -0.468376, 58.3679, 28.0121, 6.5097, 1.57764, 3.25259, 0.0101428, -0.00129647, 0.000106775, 0.000674992, 0.00225098, -0.00673683, -0.001412, 0.0465984, -0.0175135, -0.00902623, -0.018971, 0.0762396, 0.0330125, 0.470961, -0.54058, 0.336608, -2.08181, -2.16526, -0.130092, 0.471089, -0.54175, 0.335735, -2.08257, -2.16972, -0.120906, -0.00127226, 0.0546363, 0.013553, 0.017574, 0.0107764, -0.00320228
0.159065, 1.69561, -1.22559, -1.53833, -0.900063, -1.19745, 1.22887, -1.30257, 0.0369025, 0.00157312, 0.00152343, -0.00550522, -0.0429947, 0.00051167, 0.0015901, -0.43267, 58.3282, 28.0875, 6.47003, 1.62067, 3.24527, -0.0484509, -0.00133293, 0.000140284, 0.00067984, 0.00228317, -0.0068497, -0.0014515, 0.0468079, -0.0168378, -0.00603554, -0.0163135, 0.0788829, 0.0302001, 0.47096, -0.540525, 0.336621, -2.08177, -2.16525, -0.130096, 0.471123, -0.541729, 0.335737, -2.08253, -2.1698, -0.120764, -0.0012972, 0.0552977, 0.0137082, 0.0169938, 0.0107392, -0.000108112
0.160065, 1.69572, -1.22559, -1.53833, -0.900085, -1.19757, 1.22887, -1.30257, 0.0345402, 0.000481365, 0.00091085, -0.00910254, -0.0411368, -2.17037e-05, 0.00047114, -0.357292, 58.4393, 28.2343, 6.39465, 1.68201, 3.24527, -0.0420422, -0.00135999, 0.000189015, 0.000692838, 0.00233803, -0.00697533, -0.00151926, 0.0472834, -0.0163424, -0.00736601, -0.0177499, 0.0767738, 0.0325353, 0.470958, -0.54047, 0.336635, -2.08173, -2.16524, -0.1301, 0.471171, -0.541696, 0.335732, -2.08245, -2.16991, -0.120587, -0.00132244, 0.0559621, 0.013864, 0.0164418, 0.0111209, -0.00132645
0.161065, 1.69575, -1.22559, -1.53833, -0.900093, -1.19761, 1.22887, -1.30257, 0.0307882, 0.00230378, 0.000105628, -0.00921644, -0.0410556, 0.00022289, 0.000314093, -0.317619, 58.3679, 28.274, 6.35895, 1.70581, 3.23886, -0.0420422, -0.00140945, 0.000202977, 0.000696957, 0.00233633, -0.00704312, -0.00152972, 0.0496071, -0.0141447, -0.00642224, -0.0173843, 0.0790614, 0.0287442, 0.470957, -0.540414, 0.336649, -2.08169, -2.16522, -0.130104, 0.471185, -0.541688, 0.335734, -2.08244, -2.16995, -0.120525, -0.00134799, 0.0566293, 0.0140202, 0.0143417, 0.00925694, -0.00053571
0.162065, 1.69578, -1.22559, -1.53832, -0.900102, -1.19764, 1.22887, -1.30257, 0.030777, -0.000735477, 0.00131825, -0.0109397, -0.036449, -8.87657e-05, -0.000502681, -0.392998, 58.475, 28.2343, 6.39465, 1.73694, 3.24527, -0.0228162, -0.0014527, 0.000224482, 0.000705626, 0.00233245, -0.00709669, -0.00155965, 0.0488812, -0.0152556, -0.00810245, -0.0153951, 0.0726561, 0.0332986, 0.470956, -0.540357, 0.336663, -2.08165, -2.16521, -0.130108, 0.471206, -0.541672, 0.335732, -2.0824, -2.17, -0.120483, -0.00137384, 0.0572994, 0.0141769, 0.0153362, 0.0109516, -0.00196031
0.163065, 1.69581, -1.22559, -1.53832, -0.900113, -1.19767, 1.22887, -1.30257, 0.0310273, 0.000520643, -0.000644547, -0.00820904, -0.0363976, -5.91772e-05, -9.77619e-05, -0.357292, 58.4393, 28.3097, 6.39465, 1.73053, 3.24527, -0.0292249, -0.00150211, 0.000238289, 0.00071218, 0.00233335, -0.00715758, -0.00157553, 0.0505524, -0.0144315, -0.00773668, -0.015552, 0.0742506, 0.0298519, 0.470954, -0.5403, 0.336677, -2.08161, -2.1652, -0.130113, 0.47122, -0.541662, 0.335731, -2.08237, -2.17004, -0.120426, -0.0014, 0.0579723, 0.0143341, 0.014562, 0.00988458, -0.00167998
0.164065, 1.69584, -1.22558, -1.53831, -0.900126, -1.1977, 1.22887, -1.30257, 0.0309162, 0.00307736, 0.00469015, -0.010186, -0.0367335, -0.000581986, -0.000777251, -0.317619, 58.3282, 28.2343, 6.43433, 1.73694, 3.25992, -0.00999879, -0.00154805, 0.000253749, 0.000713082, 0.00232942, -0.00721969, -0.00159623, 0.0493574, -0.0155669, -0.00470871, -0.0120555, 0.0771164, 0.0346042, 0.470953, -0.540242, 0.336692, -2.08157, -2.16519, -0.130117, 0.471236, -0.541648, 0.335737, -2.08234, -2.17008, -0.120373, -0.00142646, 0.058648, 0.0144917, 0.0157397, 0.0113171, 0.0016167
0.165065, 1.69587, -1.22559, -1.53831, -0.900133, -1.19774, 1.22887, -1.30257, 0.0302302, -0.00128325, 0.00491501, -0.006636, -0.0378932, -0.000659258, -0.000518168, -0.357292, 58.475, 28.3097, 6.39465, 1.76166, 3.26724, -0.00999879, -0.00159899, 0.000269748, 0.000725376, 0.00232718, -0.00727027, -0.00161038, 0.0520049, -0.0143694, -0.00671644, -0.0109043, 0.0738098, 0.0304136, 0.470951, -0.540183, 0.336706, -2.08153, -2.16517, -0.130121, 0.471252, -0.541637, 0.335731, -2.08231, -2.17012, -0.12033, -0.00145324, 0.0593266, 0.0146499, 0.0145386, 0.00964544, -0.000586527
0.166065, 1.6959, -1.22559, -1.53832, -0.900143, -1.19776, 1.22887, -1.30256, 0.0311805, 5.38625e-05, 0.0012406, -0.00727445, -0.0334142, -0.000168238, 0.00107871, -0.357292, 58.4393, 28.4208, 6.35895, 1.77356, 3.25992, -0.0484509, -0.00165143, 0.000282428, 0.000732027, 0.00232659, -0.00733096, -0.00161564, 0.0518952, -0.014971, -0.0073801, -0.0117933, 0.0725314, 0.030083, 0.47095, -0.540124, 0.336721, -2.08148, -2.16516, -0.130125, 0.471265, -0.541628, 0.33573, -2.08229, -2.17014, -0.120274, -0.00148032, 0.0600079, 0.0148084, 0.0150838, 0.0105641, -0.00108658
0.167065, 1.69593, -1.22558, -1.53831, -0.900152, -1.19779, 1.22887, -1.30257, 0.0291097, 0.000926733, 0.00208408, -0.00470825, -0.0306538, 0.000667735, -0.00121364, -0.357292, 58.4036, 28.3851, 6.32324, 1.79828, 3.23886, 0.00373412, -0.00170182, 0.000298074, 0.000733884, 0.00231525, -0.00739492, -0.001638, 0.0535579, -0.0138343, -0.00608062, -0.00729939, 0.0716788, 0.0294553, 0.470949, -0.540064, 0.336735, -2.08144, -2.16515, -0.130129, 0.471281, -0.541617, 0.335735, -2.08226, -2.17019, -0.120229, -0.00150772, 0.0606919, 0.0149675, 0.0140311, 0.00935824, 0.000128132
0.168065, 1.69596, -1.22558, -1.53831, -0.900168, -1.19782, 1.22887, -1.30256, 0.0285064, -0.000175692, 0.000870511, -0.0076574, -0.0286703, 0.000445157, 0.00112369, -0.392998, 58.4393, 28.4208, 6.35895, 1.82941, 3.23886, -0.0484509, -0.00174956, 0.000315441, 0.000740301, 0.00231294, -0.00745033, -0.00165601, 0.0536005, -0.014148, -0.0076064, -0.00887814, 0.0696639, 0.0292619, 0.470947, -0.540003, 0.33675, -2.0814, -2.16513, -0.130134, 0.471298, -0.541601, 0.335735, -2.08223, -2.17023, -0.120181, -0.00153542, 0.0613787, 0.015127, 0.0142613, 0.0102541, -0.001237
0.169065, 1.69598, -1.22557, -1.5383, -0.900175, -1.19785, 1.22887, -1.30256, 0.0234602, 0.00235134, 0.00302941, -0.0070951, -0.0268268, -0.000211855, 0.000749124, -0.357292, 58.475, 28.4565, 6.28357, 1.85321, 3.25259, -0.0484509, -0.00180374, 0.000327826, 0.000744358, 0.00230224, -0.00750823, -0.00166601, 0.0555929, -0.0116141, -0.0051202, -0.00530047, 0.0704767, 0.0258195, 0.470946, -0.539942, 0.336766, -2.08135, -2.16512, -0.130138, 0.471311, -0.541592, 0.335737, -2.08221, -2.17027, -0.12014, -0.00156344, 0.0620682, 0.0152869, 0.0118694, 0.00848511, 0.00114208
0.170065, 1.69601, -1.22557, -1.5383, -0.900193, -1.19787, 1.22887, -1.30256, 0.0236187, 0.00597392, 0.00383267, -0.012657, -0.0245096, -0.000412504, -0.00045002, -0.357292, 58.4393, 28.5319, 6.32324, 1.85321, 3.25992, -0.0228162, -0.00185432, 0.000341649, 0.00074808, 0.00229864, -0.00756628, -0.00168465, 0.0535859, -0.0132442, -0.0035563, -0.00590219, 0.0730328, 0.0331931, 0.470944, -0.53988, 0.336781, -2.08131, -2.16511, -0.130143, 0.471325, -0.541579, 0.335741, -2.08218, -2.17031, -0.120092, -0.00159178, 0.0627604, 0.0154473, 0.0134551, 0.0109837, 0.00310793
0.171065, 1.69603, -1.22556, -1.5383, -0.900201, -1.19789, 1.22887, -1.30257, 0.0225695, 0.00187919, 0.0061977, -0.0108615, -0.0231682, 0.000504891, -6.26542e-05, -0.317619, 58.5504, 28.5319, 6.24786, 1.85962, 3.23886, -0.0292249, -0.00190834, 0.000357043, 0.000752884, 0.0022813, -0.00762198, -0.00170089, 0.0550249, -0.0130698, -0.00479163, -0.00160164, 0.068447, 0.031922, 0.470942, -0.539817, 0.336796, -2.08126, -2.16509, -0.130147, 0.47134, -0.541568, 0.335742, -2.08215, -2.17035, -0.120061, -0.00162043, 0.0634553, 0.0156081, 0.0132588, 0.010444, 0.00182688
0.172065, 1.69606, -1.22556, -1.5383, -0.900219, -1.19791, 1.22887, -1.30257, 0.0273051, -0.000139166, 0.00706841, -0.0153361, -0.0231049, 9.9235e-05, -0.000279128, -0.392998, 58.6258, 28.5715, 6.28357, 1.89075, 3.24527, -0.0228162, -0.00195851, 0.000375157, 0.000760644, 0.00227551, -0.00767586, -0.00172744, 0.0522613, -0.0168515, -0.00662665, -0.00403464, 0.0671809, 0.0412655, 0.470941, -0.539753, 0.336812, -2.08122, -2.16508, -0.130152, 0.471358, -0.541552, 0.335742, -2.08211, -2.17039, -0.12002, -0.00164939, 0.0641529, 0.0157694, 0.0168369, 0.014314, 0.000489546
0.173065, 1.69609, -1.22556, -1.5383, -0.900233, -1.19792, 1.22887, -1.30257, 0.0282406, -0.000649538, 0.00605791, -0.0129023, -0.0169194, 6.61567e-05, -0.00164415, -0.357292, 58.6615, 28.6826, 6.20819, 1.88434, 3.24527, 0.0165515, -0.00201129, 0.000390107, 0.000765723, 0.00226521, -0.00772928, -0.00175059, 0.0523156, -0.0173572, -0.00705657, -0.000963585, 0.0619574, 0.0430815, 0.470939, -0.539689, 0.336828, -2.08117, -2.16506, -0.130156, 0.471373, -0.541539, 0.335744, -2.08207, -2.17044, -0.119984, -0.00167868, 0.0648531, 0.015931, 0.0172987, 0.0150496, 0.000200255
0.174065, 1.69611, -1.22555, -1.53828, -0.900248, -1.19794, 1.22887, -1.30257, 0.0289076, 0.00209428, 0.00886915, -0.0144526, -0.0184262, 4.41044e-05, -0.000384022, -0.317619, 58.6972, 28.6429, 6.13678, 1.91546, 3.24527, -0.00267457, -0.00206254, 0.000406951, 0.00076515, 0.00224579, -0.0077877, -0.00176861, 0.0517214, -0.0183489, -0.00474635, 0.00033448, 0.0663902, 0.0446839, 0.470937, -0.539624, 0.336844, -2.08113, -2.16505, -0.130161, 0.47139, -0.541524, 0.335751, -2.08205, -2.17048, -0.119953, -0.00170828, 0.065556, 0.0160931, 0.0183254, 0.0160215, 0.00270261
0.175065, 1.69614, -1.22554, -1.53828, -0.900264, -1.19796, 1.22887, -1.30257, 0.0257435, 0.00404068, 0.00420745, -0.0155621, -0.0141012, 2.9403e-05, -0.000730732, -0.242241, 58.7329, 28.754, 6.0614, 1.92737, 3.24527, 0.0101428, -0.00211818, 0.000419839, 0.000769672, 0.00223607, -0.00784417, -0.00178416, 0.0534561, -0.0164561, -0.0052928, -0.00146882, 0.0655823, 0.042108, 0.470936, -0.539559, 0.33686, -2.08108, -2.16503, -0.130166, 0.471403, -0.541512, 0.335754, -2.08202, -2.17052, -0.119913, -0.0017382, 0.0662614, 0.0162556, 0.0164485, 0.0150214, 0.00211073
0.176065, 1.69616, -1.22554, -1.53828, -0.900288, -1.19797, 1.22887, -1.30257, 0.0223408, 0.0062445, 0.00792773, -0.0191011, -0.014691, -0.000251665, -0.000249796, -0.242241, 58.8837, 28.8294, 6.09711, 1.91546, 3.25259, 0.00373412, -0.00216802, 0.000438578, 0.000777543, 0.00222591, -0.00788972, -0.0018143, 0.0537433, -0.0158358, -0.00306412, 0.000456451, 0.0685881, 0.0429664, 0.470934, -0.539493, 0.336876, -2.08103, -2.16502, -0.13017, 0.471422, -0.541493, 0.335754, -2.08197, -2.17057, -0.119886, -0.00176845, 0.0669695, 0.0164185, 0.0158941, 0.0150735, 0.00444572
0.177065, 1.69618, -1.22552, -1.53827, -0.900316, -1.19798, 1.22887, -1.30256, 0.0189937, 0.0131687, 0.00854925, -0.0216094, -0.0120787, 0.000340849, 0.00129153, -0.0914839, 58.8083, 28.8691, 6.13678, 1.94568, 3.23886, -0.0356336, -0.00222008, 0.000453178, 0.000775513, 0.00221195, -0.00795239, -0.00183562, 0.0539638, -0.0149029, 0.0010564, 0.0028093, 0.0742185, 0.0414156, 0.470932, -0.539426, 0.336892, -2.08098, -2.165, -0.130175, 0.471437, -0.541477, 0.335764, -2.08194, -2.17062, -0.119845, -0.00179901, 0.0676801, 0.0165817, 0.0150965, 0.0148858, 0.00866879
0.178065, 1.6962, -1.22552, -1.53827, -0.900334, -1.19799, 1.22887, -1.30256, 0.0190417, 0.0129362, 0.00891951, -0.0189041, -0.0138666, -1.0126e-05, 0.000861021, -0.0161054, 58.9551, 28.9048, 5.98602, 1.95209, 3.24527, -0.0356336, -0.00227482, 0.000468986, 0.000779756, 0.00219211, -0.00800209, -0.00185847, 0.0557377, -0.0141347, 0.00134941, 0.00341068, 0.0755145, 0.0391606, 0.47093, -0.539358, 0.336909, -2.08094, -2.16499, -0.13018, 0.471452, -0.541462, 0.335767, -2.0819, -2.17066, -0.119824, -0.0018299, 0.0683933, 0.0167454, 0.0143751, 0.013771, 0.00886479
0.179065, 1.69623, -1.22551, -1.53826, -0.900361, -1.19799, 1.22887, -1.30256, 0.0205279, 0.0114689, 0.0091873, -0.0208144, -0.010292, -6.75068e-06, 0.000811373, -0.0161054, 59.0305, 28.9405, 5.98602, 1.95209, 3.24527, -0.0420422, -0.00232441, 0.000489446, 0.00078201, 0.00217499, -0.00805559, -0.00189334, 0.0546195, -0.0158759, 0.000183692, 0.00420279, 0.0718346, 0.0437662, 0.470929, -0.53929, 0.336926, -2.08089, -2.16497, -0.130185, 0.471473, -0.541441, 0.335773, -2.08185, -2.17072, -0.119798, -0.00186112, 0.069109, 0.0169095, 0.0159984, 0.0158458, 0.00799658
0.180065, 1.69624, -1.22549, -1.53825, -0.900381, -1.198, 1.22887, -1.30256, 0.0172065, 0.0145329, 0.0124429, -0.0208167, -0.00832518, 0.000232858, 0.000778274, 0.170357, 59.0662, 28.9802, 5.79956, 1.9704, 3.23886, -0.0484509, -0.00238184, 0.0005012, 0.000782402, 0.00215558, -0.00810901, -0.00190981, 0.0554902, -0.0147963, 0.00328274, 0.00910133, 0.0735765, 0.0427449, 0.470927, -0.53922, 0.336943, -2.08084, -2.16496, -0.13019, 0.471485, -0.541428, 0.33578, -2.08182, -2.17076, -0.119772, -0.00189266, 0.0698272, 0.0170739, 0.0150388, 0.0151767, 0.0111148
0.181065, 1.69627, -1.22548, -1.53825, -0.900415, -1.19801, 1.22887, -1.30257, 0.0201306, 0.0166624, 0.0078176, -0.0253284, -0.00681756, -8.212e-05, -0.00165129, 0.134651, 59.1019, 29.0555, 5.79956, 1.98871, 3.24527, 0.0101428, -0.00242975, 0.000523016, 0.000784263, 0.00214462, -0.0081657, -0.00195823, 0.0540214, -0.0167083, 0.00203957, 0.00322607, 0.0756246, 0.0503097, 0.470925, -0.539151, 0.33696, -2.08079, -2.16494, -0.130195, 0.471506, -0.541404, 0.335787, -2.08176, -2.17083, -0.119737, -0.00192452, 0.0705479, 0.0172387, 0.0168162, 0.0176218, 0.0102206
0.182065, 1.69628, -1.22547, -1.53825, -0.900449, -1.19801, 1.22887, -1.30256, 0.0215443, 0.0133402, 0.00450547, -0.0279428, -0.0054278, 0.000182612, 0.000594561, 0.245735, 59.213, 29.1269, 5.76385, 2.00061, 3.23886, -0.0356336, -0.00248416, 0.000539709, 0.000791045, 0.00213298, -0.00821635, -0.00198158, 0.0541247, -0.0177779, -0.0015493, -0.000368462, 0.0723228, 0.0507471, 0.470923, -0.53908, 0.336977, -2.08074, -2.16492, -0.1302, 0.471523, -0.541385, 0.335788, -2.08171, -2.17088, -0.119706, -0.00195671, 0.0712712, 0.0174039, 0.0177203, 0.0188487, 0.00679077
0.183065, 1.6963, -1.22547, -1.53825, -0.900477, -1.19801, 1.22887, -1.30256, 0.0236807, 0.00698549, 0.00427276, -0.0279988, -0.00466207, 0.000121742, -0.00106169, 0.325081, 59.3597, 29.238, 5.6488, 2.01984, 3.23886, 0.00373412, -0.0025413, 0.000555547, 0.000796779, 0.002116, -0.00826755, -0.0020107, 0.0544041, -0.0191495, -0.00554238, -0.00101619, 0.0659358, 0.0548892, 0.470921, -0.539009, 0.336994, -2.08069, -2.16491, -0.130205, 0.471539, -0.541369, 0.33579, -2.08167, -2.17093, -0.119681, -0.00198923, 0.0719968, 0.0175694, 0.0189166, 0.0199804, 0.00292501
