alisrour97/Franka_experiments/Real_Robot_scripts/servo-franka/Data/log_dyn_PI0_6.csv
Time,q1,q2,q3,q4,q5,q6,q7,dq1,dq2,dq3,dq4,dq5,dq6,dq7,t1,t2,t3,t4,t5,t6,t7,ex1,ex2,ex3,ex4,ex5,ex6,ev1,ev2,ev3,ev4,ev5,ev6,xd,yd,zd,uxd,uyd,uzd,x,y,z,ux,uy,uz,vxd,vyd,vzd,vx,vy,vz
4.88281e-07, 1.69124, -1.22825, -1.53956, -0.900326, -1.19224, 1.2281, -1.30266, -0.00917953, 0.00310811, -0.0109722, 0.00599328, -0.002047, -0.00863695, -0.000910669, 1.07887, 64.2593, 32.1421, 6.77154, 2.74402, 3.81198, -0.0750012, 0.000348034, -0.00193036, 0.00228034, 0.0024772, 0.0019384, 0.000685664, 0.00747431, 0.0102569, -0.00155234, -0.0135853, 0.000484213, -0.0195332, 0.471008, -0.543389, 0.335894, -2.08385, -2.16584, -0.129887, 0.469001, -0.542761, 0.333753, -2.08223, -2.1631, -0.12905, -4.06186e-05, 0.000124715, 6.6488e-05, -0.0100731, -0.00743486, -0.00231724
0.0121411, 1.6912, -1.22824, -1.53964, -0.900264, -1.19225, 1.22808, -1.30266, -0.00458986, -0.000595965, -0.00686025, 0.00718894, 0.000162831, -0.00184198, 0.0015599, 0.777352, 64.2236, 32.1818, 6.91833, 2.74402, 3.82663, -0.140919, 0.00029773, -0.00198597, 0.00229088, 0.0025262, 0.00193514, 0.000818711, 0.00565748, 0.00563935, -0.00178497, -0.00355717, -0.00180901, -0.0158192, 0.471008, -0.543389, 0.335894, -2.08385, -2.16584, -0.129887, 0.468931, -0.542824, 0.333738, -2.08238, -2.1629, -0.128962, -6.68636e-05, 0.000218577, 0.000115026, -0.00556107, -0.00532265, -0.00235558
0.0131411, 1.6912, -1.22824, -1.53964, -0.900264, -1.19225, 1.22808, -1.30266, -0.00458986, -0.000595965, -0.00686025, 0.00718894, 0.000162831, -0.00184198, 0.0015599, 0.777352, 64.2236, 32.1818, 6.91833, 2.74402, 3.82663, -0.140919, 0.000297708, -0.00198596, 0.00229089, 0.00252619, 0.00193514, 0.000818723, 0.00576835, 0.00561326, -0.00182062, -0.00360428, -0.00173663, -0.0159089, 0.471008, -0.543389, 0.335894, -2.08385, -2.16584, -0.129887, 0.468931, -0.542824, 0.333738, -2.08238, -2.1629, -0.128962, -9.5592e-05, 0.000321476, 0.000168224, -0.00556107, -0.00532265, -0.00235558
0.0141411, 1.6912, -1.22824, -1.53964, -0.900264, -1.19225, 1.22808, -1.30266, -0.00458986, -0.000595965, -0.00686025, 0.00718894, 0.000162831, -0.00184198, 0.0015599, 0.777352, 64.2236, 32.1818, 6.91833, 2.74402, 3.82663, -0.140919, 0.000297646, -0.00198595, 0.00229091, 0.00252616, 0.00193516, 0.000818756, 0.00588932, 0.00558484, -0.00185951, -0.00365561, -0.00165769, -0.0160068, 0.471008, -0.543389, 0.335894, -2.08385, -2.16584, -0.129887, 0.468931, -0.542824, 0.333738, -2.08238, -2.1629, -0.128962, -0.000126895, 0.000433757, 0.000226255, -0.00556107, -0.00532265, -0.00235558
0.0151411, 1.6912, -1.22824, -1.53964, -0.900264, -1.19225, 1.22808, -1.30266, -0.00458986, -0.000595965, -0.00686025, 0.00718894, 0.000162831, -0.00184198, 0.0015599, 0.777352, 64.2236, 32.1818, 6.91833, 2.74402, 3.82663, -0.140919, 0.000297526, -0.00198592, 0.00229095, 0.0025261, 0.00193519, 0.00081882, 0.00602076, 0.00555401, -0.00190176, -0.00371129, -0.00157196, -0.016113, 0.471008, -0.543389, 0.335894, -2.08385, -2.16584, -0.129887, 0.468931, -0.542824, 0.333738, -2.08238, -2.1629, -0.128962, -0.000160861, 0.000555757, 0.000289294, -0.00556107, -0.00532265, -0.00235558
0.0161411, 1.6912, -1.22824, -1.53964, -0.900264, -1.19225, 1.22808, -1.30266, -0.00458986, -0.000595965, -0.00686025, 0.00718894, 0.000162831, -0.00184198, 0.0015599, 0.777352, 64.2236, 32.1818, 6.91833, 2.74402, 3.82663, -0.140919, 0.000297329, -0.00198587, 0.00229101, 0.00252601, 0.00193523, 0.000818925, 0.00616303, 0.00552069, -0.00194747, -0.00377147, -0.00147919, -0.016228, 0.471008, -0.543389, 0.335894, -2.08385, -2.16584, -0.129886, 0.468931, -0.542824, 0.333738, -2.08238, -2.1629, -0.128962, -0.000197581, 0.000687809, 0.000357511, -0.00556107, -0.00532265, -0.00235558
0.0171411, 1.6912, -1.22824, -1.53964, -0.900264, -1.19225, 1.22808, -1.30266, -0.00458986, -0.000595965, -0.00686025, 0.00718894, 0.000162831, -0.00184198, 0.0015599, 0.777352, 64.2236, 32.1818, 6.91833, 2.74402, 3.82663, -0.140919, 0.000297035, -0.0019858, 0.00229111, 0.00252587, 0.0019353, 0.000819081, 0.00631647, 0.00548479, -0.00199676, -0.00383628, -0.00137917, -0.0163518, 0.471008, -0.543389, 0.335894, -2.08385, -2.16584, -0.129886, 0.468931, -0.542824, 0.333738, -2.08238, -2.1629, -0.128962, -0.000237139, 0.000830243, 0.000431075, -0.00556107, -0.00532265, -0.00235558
0.0181411, 1.6912, -1.22824, -1.53964, -0.900264, -1.19225, 1.22808, -1.30266, -0.00458986, -0.000595965, -0.00686025, 0.00718894, 0.000162831, -0.00184198, 0.0015599, 0.777352, 64.2236, 32.1818, 6.91833, 2.74402, 3.82663, -0.140919, 0.000296627, -0.00198571, 0.00229124, 0.00252567, 0.0019354, 0.000819299, 0.00648144, 0.00544625, -0.00204973, -0.00390587, -0.00127168, -0.0164849, 0.471008, -0.543388, 0.335894, -2.08385, -2.16584, -0.129886, 0.468931, -0.542824, 0.333738, -2.08238, -2.1629, -0.128962, -0.000279621, 0.000983381, 0.00051015, -0.00556107, -0.00532265, -0.00235558
0.0191414, 1.6912, -1.22824, -1.53964, -0.900264, -1.19225, 1.22808, -1.30266, -0.00458986, -0.000595965, -0.00686025, 0.00718894, 0.000162831, -0.00184198, 0.0015599, 0.777352, 64.2236, 32.1818, 6.91833, 2.74402, 3.82663, -0.140919, 0.000296084, -0.00198558, 0.00229142, 0.00252541, 0.00193552, 0.000819588, 0.00665829, 0.00540498, -0.00210651, -0.00398037, -0.00115648, -0.0166275, 0.471008, -0.543388, 0.335895, -2.08385, -2.16584, -0.129886, 0.468931, -0.542824, 0.333738, -2.08238, -2.1629, -0.128962, -0.00032511, 0.00114754, 0.000594898, -0.00556107, -0.00532265, -0.00235558
0.0201414, 1.6912, -1.22824, -1.53964, -0.900264, -1.19225, 1.22808, -1.30266, -0.00458986, -0.000595965, -0.00686025, 0.00718894, 0.000162831, -0.00184198, 0.0015599, 0.777352, 64.2236, 32.1818, 6.91833, 2.74402, 3.82663, -0.140919, 0.00029539, -0.00198541, 0.00229164, 0.00252508, 0.00193569, 0.000819958, 0.00684733, 0.00536092, -0.00216719, -0.00405991, -0.00103338, -0.0167798, 0.471007, -0.543387, 0.335895, -2.08384, -2.16584, -0.129885, 0.468931, -0.542824, 0.333738, -2.08238, -2.1629, -0.128962, -0.000373687, 0.00132303, 0.000685479, -0.00556107, -0.00532265, -0.00235558
0.0211414, 1.6912, -1.22824, -1.53964, -0.900264, -1.19225, 1.22808, -1.30266, -0.00458986, -0.000595965, -0.00686025, 0.00718894, 0.000162831, -0.00184198, 0.0015599, 0.777352, 64.2236, 32.1818, 6.91833, 2.74402, 3.82663, -0.140919, 0.000294524, -0.00198521, 0.00229192, 0.00252466, 0.00193589, 0.000820418, 0.0070489, 0.00531399, -0.00223188, -0.00414461, -0.000902163, -0.0169421, 0.471007, -0.543386, 0.335895, -2.08384, -2.16584, -0.129884, 0.468931, -0.542824, 0.333738, -2.08238, -2.1629, -0.128962, -0.000425431, 0.00151016, 0.000782046, -0.00556107, -0.00532265, -0.00235558
0.0221414, 1.6912, -1.22824, -1.53964, -0.900264, -1.19225, 1.22808, -1.30266, -0.00458986, -0.000595965, -0.00686025, 0.00718894, 0.000162831, -0.00184198, 0.0015599, 0.777352, 64.2236, 32.1818, 6.91833, 2.74402, 3.82663, -0.140919, 0.000293469, -0.00198496, 0.00229226, 0.00252416, 0.00193614, 0.00082098, 0.00726332, 0.00526412, -0.00230067, -0.00423461, -0.000762621, -0.0171147, 0.471007, -0.543385, 0.335896, -2.08384, -2.16584, -0.129884, 0.468931, -0.542824, 0.333738, -2.08238, -2.1629, -0.128962, -0.000480419, 0.00170921, 0.00088475, -0.00556107, -0.00532265, -0.00235558
0.0231414, 1.69114, -1.22825, -1.53968, -0.900232, -1.19224, 1.22808, -1.30267, -0.00689756, -0.000610307, 0.000193052, -0.00353845, 0.000638182, -0.000265977, 0.00147179, 0.285408, 64.3704, 32.1421, 6.95801, 2.69458, 3.80466, -0.127186, 0.000248735, -0.00203024, 0.00230395, 0.00252672, 0.00195312, 0.000922312, 0.00394213, 0.00252379, -0.00110682, -0.00130447, 0.00017205, -0.0065447, 0.471007, -0.543384, 0.335896, -2.08384, -2.16585, -0.129883, 0.468887, -0.542867, 0.333721, -2.08248, -2.16278, -0.128965, -0.000538724, 0.00192048, 0.000993739, -0.00295824, -0.00190423, -0.000634899
0.0241414, 1.69113, -1.22824, -1.53968, -0.900232, -1.19224, 1.22809, -1.30267, -0.00447857, 0.00043015, -0.00253833, -0.00276529, -5.00692e-05, 0.000360223, 0.000743831, 0.245735, 64.3347, 32.2532, 6.95801, 2.7074, 3.79001, -0.120778, 0.000242635, -0.00203463, 0.00230527, 0.00253078, 0.00194855, 0.000932732, 0.00401081, 0.00174656, -0.00150692, -0.00349411, 0.00242234, -0.00586193, 0.471006, -0.543383, 0.335897, -2.08384, -2.16585, -0.129882, 0.468882, -0.542872, 0.33372, -2.08249, -2.16277, -0.128954, -0.000600418, 0.00214425, 0.00110915, -0.0022557, -0.00165489, -0.000948632
0.0251414, 1.69112, -1.22825, -1.53969, -0.900233, -1.19224, 1.22809, -1.30267, -0.00589988, -0.00861743, -0.0078064, -0.00433445, -0.00277618, 0.00155883, 0.000970606, 0.21003, 64.184, 32.1064, 6.91833, 2.65155, 3.7543, -0.133595, 0.000236402, -0.00203827, 0.00231239, 0.00253378, 0.00195681, 0.000942645, 0.00702993, 0.00299016, -0.00881177, -0.00971682, -0.00316947, -0.00959875, 0.471006, -0.543381, 0.335898, -2.08384, -2.16585, -0.129881, 0.468878, -0.542875, 0.333713, -2.08249, -2.16275, -0.128957, -0.00066557, 0.00238079, 0.00123113, -0.00371857, -0.0033255, -0.00847071
0.0261414, 1.69112, -1.22827, -1.5397, -0.900239, -1.19224, 1.22809, -1.30267, -0.0100627, -0.0131992, -0.0108181, -0.00254249, -0.000328686, -0.00166809, -0.000777083, 0.170357, 63.7793, 31.7731, 6.88263, 2.47394, 3.69754, -0.0951428, 0.000229845, -0.0020412, 0.00232688, 0.00254154, 0.00197552, 0.000948171, 0.00990591, 0.00642873, -0.0124732, -0.0130052, -0.0112569, -0.0142887, 0.471005, -0.543379, 0.335899, -2.08384, -2.16585, -0.129879, 0.468875, -0.542878, 0.333699, -2.08248, -2.16273, -0.128965, -0.000734245, 0.00263035, 0.0013598, -0.00725071, -0.00549237, -0.0123001
0.0271414, 1.69112, -1.22827, -1.53973, -0.900238, -1.19224, 1.22809, -1.30266, -0.00424783, -0.00754237, -0.0175521, 0.00053741, -0.00390136, 7.89583e-05, -0.00102668, 0.0196001, 62.97, 31.4716, 6.77154, 2.30182, 3.65451, -0.0814099, 0.000221858, -0.00204474, 0.00233707, 0.00256783, 0.00196869, 0.000965386, 0.0102827, 0.00516099, -0.011355, -0.0181345, -0.00129971, -0.0157597, 0.471005, -0.543377, 0.3359, -2.08384, -2.16585, -0.129878, 0.46887, -0.542882, 0.333688, -2.08249, -2.16271, -0.128926, -0.000806507, 0.00289319, 0.0014953, -0.00600303, -0.00572174, -0.0111571
0.0281414, 1.69112, -1.22828, -1.53976, -0.900251, -1.19225, 1.22809, -1.30267, -0.000104783, -0.00510003, -0.0156748, -0.00386815, -0.00348887, 0.00134433, -0.00163389, -0.131157, 62.3074, 30.9876, 6.80725, 2.16083, 3.61148, -0.0557752, 0.000216179, -0.00204498, 0.00235645, 0.00260406, 0.00196945, 0.000966727, 0.00687057, 0.00121699, -0.0100666, -0.0178591, 0.00200878, -0.00644812, 0.471004, -0.543375, 0.335901, -2.08384, -2.16585, -0.129876, 0.468869, -0.542882, 0.33367, -2.08247, -2.1627, -0.128884, -0.000882416, 0.00316954, 0.00163773, -0.00221555, -0.00211376, -0.00933184
0.0291414, 1.69113, -1.2283, -1.5398, -0.900254, -1.19227, 1.22809, -1.30267, -0.00195678, -0.00979887, -0.0228248, -0.00436857, -0.00451847, 0.00226341, -0.00305595, -0.206535, 61.9028, 30.579, 6.73187, 2.05646, 3.56845, -0.00267457, 0.000200327, -0.0020518, 0.00238622, 0.00264928, 0.00197649, 0.000984339, 0.0100751, 0.00319891, -0.0153556, -0.0242638, -0.000728734, -0.0103595, 0.471003, -0.543372, 0.335903, -2.08383, -2.16585, -0.129874, 0.468861, -0.542891, 0.333639, -2.08245, -2.16266, -0.128837, -0.000962028, 0.00345964, 0.00178723, -0.00435085, -0.00425441, -0.0148424
0.0301414, 1.69112, -1.22832, -1.53984, -0.900268, -1.19229, 1.22809, -1.30267, -0.00200839, -0.0109414, -0.0315679, -0.00749618, -0.011002, 0.00266149, -0.00129131, -0.206535, 61.5338, 30.1703, 6.77154, 1.97681, 3.53274, -0.0228162, 0.000184839, -0.00205915, 0.00241863, 0.00270747, 0.0019782, 0.00100681, 0.0127413, 0.00463622, -0.0196288, -0.0362997, 0.00468728, -0.0160466, 0.471002, -0.543369, 0.335904, -2.08383, -2.16585, -0.129871, 0.468852, -0.542899, 0.333607, -2.08244, -2.16261, -0.12877, -0.0010454, 0.0037637, 0.0019439, -0.00592861, -0.00598361, -0.0192756
0.0311414, 1.69113, -1.22834, -1.53989, -0.900272, -1.19232, 1.22809, -1.30267, 0.000363174, -0.00743069, -0.0371032, -0.00711366, -0.0177151, 0.00300325, -0.000860876, -0.166862, 61.1292, 29.722, 6.69617, 1.95209, 3.49612, -0.0228162, 0.000166936, -0.00206545, 0.00244496, 0.00275793, 0.00196383, 0.00103263, 0.0143305, 0.00504759, -0.0196807, -0.0440144, 0.0144717, -0.0197148, 0.471002, -0.543366, 0.335906, -2.08383, -2.16586, -0.129869, 0.468845, -0.542909, 0.33358, -2.08245, -2.16257, -0.128694, -0.00113257, 0.00408193, 0.00210783, -0.00637166, -0.00724316, -0.0193972
0.0321414, 1.69113, -1.22836, -1.53995, -0.900279, -1.19235, 1.2281, -1.30267, 0.00326738, -0.0113723, -0.0441314, -0.00699038, -0.0222169, 0.00373767, 0.00013816, -0.166862, 60.8713, 29.3888, 6.62079, 1.92096, 3.44668, -0.0420422, 0.000147452, -0.00207163, 0.00247899, 0.00282072, 0.00195276, 0.00106216, 0.0162276, 0.00490728, -0.0246759, -0.0524979, 0.0153615, -0.023049, 0.471001, -0.543362, 0.335908, -2.08383, -2.16586, -0.129866, 0.468837, -0.54292, 0.333545, -2.08245, -2.16253, -0.128608, -0.0012236, 0.00441451, 0.00227914, -0.00643507, -0.008009, -0.0244569
0.0331414, 1.69114, -1.22839, -1.54001, -0.900292, -1.19238, 1.22811, -1.30266, 0.00549863, -0.0174684, -0.0472047, -0.0095396, -0.0303065, 0.00377645, 0.00131281, -0.166862, 60.7602, 29.0912, 6.65649, 1.89075, 3.41006, -0.0750012, 0.000128184, -0.00207577, 0.00251912, 0.00289111, 0.00194354, 0.00108866, 0.0176631, 0.00433942, -0.0299355, -0.0611512, 0.0166662, -0.0241527, 0.470999, -0.543358, 0.33591, -2.08382, -2.16586, -0.129863, 0.468831, -0.542929, 0.333505, -2.08244, -2.16248, -0.128515, -0.00131852, 0.00476163, 0.0024579, -0.00610145, -0.00824639, -0.0297114
0.0341414, 1.69115, -1.2284, -1.54007, -0.900298, -1.19242, 1.22812, -1.30266, 0.00638926, -0.0166893, -0.0484364, -0.0109687, -0.0313214, 0.00883807, 0.000400488, -0.131157, 60.5777, 28.754, 6.54541, 1.85321, 3.36703, -0.0621838, 0.000108875, -0.00207944, 0.0025514, 0.00295443, 0.00192335, 0.00111281, 0.0181456, 0.00285168, -0.0298418, -0.0592177, 0.0212628, -0.0223649, 0.470998, -0.543354, 0.335912, -2.08382, -2.16586, -0.12986, 0.468825, -0.542939, 0.333472, -2.08244, -2.16244, -0.128418, -0.00141737, 0.00512346, 0.00264421, -0.00469387, -0.00831443, -0.0295524
0.0351414, 1.69116, -1.22841, -1.54013, -0.900304, -1.19245, 1.22812, -1.30266, 0.00702721, -0.0119372, -0.0520518, -0.00904035, -0.0315098, 0.00648747, 0.000979069, -0.0914839, 60.3555, 28.5319, 6.43433, 1.80469, 3.36062, -0.0814099, 8.89712e-05, -0.00208497, 0.00258143, 0.00302267, 0.00189895, 0.00114706, 0.0189396, 0.00400837, -0.0284317, -0.0634664, 0.0253374, -0.0262137, 0.470997, -0.543349, 0.335915, -2.08382, -2.16586, -0.129856, 0.468818, -0.542949, 0.333442, -2.08245, -2.1624, -0.128311, -0.00152019, 0.00550014, 0.00283813, -0.00587256, -0.00898607, -0.0280544
0.0361414, 1.69118, -1.22843, -1.54019, -0.900309, -1.19248, 1.22813, -1.30266, 0.0126159, -0.0134152, -0.0537016, -0.0077035, -0.0308943, 0.0056786, 0.000652713, -0.131157, 60.3555, 28.274, 6.32324, 1.73694, 3.33133, -0.0814099, 7.29196e-05, -0.00208253, 0.00261531, 0.00308178, 0.00188345, 0.00116431, 0.0175518, 0.00141736, -0.0301991, -0.0658614, 0.0234014, -0.0224343, 0.470995, -0.543344, 0.335917, -2.08381, -2.16587, -0.129852, 0.468819, -0.542955, 0.333409, -2.08244, -2.16237, -0.128224, -0.00162701, 0.00589181, 0.00303974, -0.00350524, -0.00684626, -0.0294607
0.0371414, 1.6912, -1.22843, -1.54025, -0.900316, -1.19251, 1.22814, -1.30266, 0.0131823, -0.00672471, -0.0580159, -0.00759651, -0.0306868, 0.0102466, -0.000276935, -0.0161054, 60.173, 28.1589, 6.24786, 1.6756, 3.2883, -0.0621838, 5.35299e-05, -0.00208565, 0.00264058, 0.00314732, 0.0018458, 0.00118897, 0.0184798, 0.00104777, -0.0275522, -0.0652279, 0.0327278, -0.0235165, 0.470994, -0.543338, 0.33592, -2.08381, -2.16587, -0.129848, 0.468814, -0.542965, 0.333384, -2.08245, -2.16234, -0.128106, -0.00173785, 0.0062986, 0.00324909, -0.00311818, -0.00774792, -0.0267928
0.0381414, 1.69121, -1.22843, -1.54031, -0.900329, -1.19255, 1.22815, -1.30266, 0.016924, -0.00425753, -0.0580056, -0.00928917, -0.0305173, 0.00869334, 5.27356e-05, 0.0949785, 60.0977, 28.0478, 6.24786, 1.60785, 3.25259, -0.0685925, 3.9378e-05, -0.00208334, 0.00266611, 0.00321159, 0.00181227, 0.00120607, 0.0163466, -0.00122612, -0.0268095, -0.0678583, 0.0348398, -0.0190156, 0.470992, -0.543332, 0.335923, -2.0838, -2.16587, -0.129843, 0.468814, -0.542968, 0.33336, -2.08244, -2.16232, -0.127995, -0.00185274, 0.00672061, 0.00346625, -0.00101166, -0.00524111, -0.0255798
0.0391414, 1.69121, -1.22843, -1.54031, -0.900329, -1.19255, 1.22815, -1.30266, 0.016924, -0.00425753, -0.0580056, -0.00928917, -0.0305173, 0.00869334, 5.27356e-05, 0.0949785, 60.0977, 28.0478, 6.24786, 1.60785, 3.25259, -0.0685925, 3.24306e-05, -0.00208172, 0.00266835, 0.00320827, 0.00181387, 0.00120974, 0.0168174, -0.00133382, -0.0269601, -0.0680524, 0.0351447, -0.0193915, 0.470991, -0.543326, 0.335927, -2.0838, -2.16588, -0.129838, 0.468814, -0.542968, 0.33336, -2.08244, -2.16232, -0.127995, -0.0019717, 0.00715794, 0.00369125, -0.00101166, -0.00524111, -0.0255798
0.0401414, 1.69121, -1.22843, -1.54031, -0.900329, -1.19255, 1.22815, -1.30266, 0.016924, -0.00425753, -0.0580056, -0.00928917, -0.0305173, 0.00869334, 5.27356e-05, 0.0949785, 60.0977, 28.0478, 6.24786, 1.60785, 3.25259, -0.0685925, 2.49865e-05, -0.00207998, 0.00267074, 0.0032047, 0.00181558, 0.00121367, 0.0173049, -0.00144521, -0.0271159, -0.0682532, 0.0354602, -0.0197804, 0.470989, -0.543319, 0.33593, -2.08379, -2.16588, -0.129833, 0.468814, -0.542968, 0.33336, -2.08244, -2.16232, -0.127995, -0.00209472, 0.00761066, 0.00392413, -0.00101166, -0.00524111, -0.0255798
0.0411414, 1.69125, -1.2284, -1.54047, -0.900373, -1.19264, 1.22818, -1.30266, 0.00717758, -0.00173103, -0.0541747, -0.0142171, -0.0286074, 0.00508503, -0.000817015, 0.928108, 59.9866, 28.0478, 6.20819, 1.48517, 3.25992, -0.0228162, -5.76868e-06, -0.00208023, 0.00272154, 0.00338786, 0.00168134, 0.00124297, 0.0188869, 0.00262788, -0.0249168, -0.0679602, 0.0348244, -0.0221831, 0.470987, -0.543312, 0.335934, -2.08379, -2.16589, -0.129827, 0.468811, -0.542984, 0.333309, -2.08244, -2.1623, -0.127647, -0.00222183, 0.00807884, 0.00416491, -0.0050705, -0.00684008, -0.0232901
0.0421414, 1.69126, -1.22839, -1.54052, -0.900391, -1.19268, 1.22819, -1.30266, 0.00354153, -0.00164053, -0.0512872, -0.0170163, -0.0311695, 0.00685235, -6.99586e-05, 1.34071, 59.9866, 28.0875, 6.20819, 1.47876, 3.30295, -0.0356336, -2.17941e-05, -0.00208085, 0.00273609, 0.00344176, 0.00163506, 0.00125935, 0.0202745, 0.00338306, -0.0240482, -0.0660629, 0.0381673, -0.0239523, 0.470984, -0.543304, 0.335938, -2.08378, -2.16589, -0.129821, 0.468808, -0.542989, 0.333296, -2.08245, -2.16229, -0.127533, -0.00235303, 0.00856251, 0.00441363, -0.00587485, -0.00789094, -0.0223762
0.0431414, 1.69127, -1.22838, -1.54056, -0.900405, -1.19271, 1.2282, -1.30266, 0.00476196, 0.00255462, -0.0496317, -0.0174435, -0.0346448, 0.00889929, -0.00126734, 1.72157, 59.9509, 28.1589, 6.13678, 1.52179, 3.33133, -0.00267457, -3.67004e-05, -0.00208021, 0.00274809, 0.003493, 0.00158901, 0.00127245, 0.0203135, 0.00228108, -0.0211107, -0.0647194, 0.0465216, -0.0220486, 0.470982, -0.543295, 0.335942, -2.08378, -2.16589, -0.129815, 0.468807, -0.542994, 0.333286, -2.08245, -2.16229, -0.127421, -0.00248832, 0.00906169, 0.00467028, -0.004802, -0.00783731, -0.0192582
0.0441414, 1.69128, -1.22838, -1.54061, -0.900426, -1.19274, 1.2282, -1.30266, 0.00624439, 0.0022675, -0.0495158, -0.0195112, -0.03575, 0.0055133, -0.00131961, 2.09846, 60.062, 28.4208, 6.13678, 1.5282, 3.36703, 0.0101428, -5.2875e-05, -0.00207858, 0.0027715, 0.00355026, 0.00155725, 0.00128301, 0.0194651, 0.00158061, -0.0220744, -0.0695394, 0.0460421, -0.0194701, 0.47098, -0.543286, 0.335947, -2.08377, -2.1659, -0.129808, 0.468805, -0.542997, 0.333265, -2.08244, -2.16228, -0.127318, -0.00262768, 0.00957641, 0.00493487, -0.00430702, -0.00630807, -0.0198347
0.0451414, 1.6913, -1.22837, -1.54065, -0.900433, -1.19278, 1.22822, -1.30266, 0.0107713, 0.00573842, -0.0449171, -0.0167397, -0.0377901, 0.00381015, 0.000340961, 2.32459, 60.0223, 28.6429, 5.95032, 1.57123, 3.38168, -0.0228162, -6.86193e-05, -0.00207397, 0.00278319, 0.0035914, 0.00151059, 0.00130035, 0.0178012, -0.000680223, -0.0185869, -0.0672831, 0.0503084, -0.0180815, 0.470977, -0.543277, 0.335952, -2.08376, -2.1659, -0.129801, 0.468808, -0.543001, 0.333256, -2.08245, -2.16227, -0.127216, -0.00277111, 0.0101066, 0.00520739, -0.00212607, -0.00457929, -0.0159286
0.0461414, 1.6913, -1.22836, -1.54069, -0.900446, -1.19281, 1.22823, -1.30266, 0.0072345, 0.00569458, -0.0413461, -0.0135431, -0.0392165, 0.00250543, -0.000518678, 2.70148, 60.0977, 28.8691, 5.83527, 1.61426, 3.39633, -0.00267457, -8.90843e-05, -0.00207543, 0.00279944, 0.0036348, 0.00147302, 0.00131849, 0.020314, 0.00165452, -0.0170184, -0.0641339, 0.0505438, -0.0227406, 0.470974, -0.543267, 0.335957, -2.08375, -2.16591, -0.129793, 0.468804, -0.543009, 0.333242, -2.08246, -2.16226, -0.12712, -0.00291859, 0.0106523, 0.00548782, -0.00445852, -0.00685142, -0.0144187
0.0471414, 1.69133, -1.22837, -1.54072, -0.900458, -1.19285, 1.22824, -1.30266, 0.0127162, 0.00012797, -0.0396922, -0.0134147, -0.0409558, 0.000457494, 0.000637559, 2.73719, 60.2802, 29.0159, 5.68848, 1.6756, 3.43936, -0.0292249, -9.82044e-05, -0.00206046, 0.00281657, 0.00366956, 0.00144023, 0.00131321, 0.0188287, -0.00135312, -0.0203454, -0.0667854, 0.04586, -0.0187569, 0.470971, -0.543256, 0.335962, -2.08375, -2.16592, -0.129785, 0.468815, -0.543004, 0.333228, -2.08245, -2.16228, -0.127041, -0.0030701, 0.0112135, 0.00577613, -0.00177979, -0.00418866, -0.0172759
0.0481414, 1.69134, -1.22837, -1.54075, -0.900462, -1.19288, 1.22825, -1.30266, 0.0117927, 0.00103914, -0.0381324, -0.00760085, -0.038039, 0.00382088, 0.000899757, 2.96729, 60.3912, 29.2777, 5.42664, 1.75525, 3.48239, -0.0420422, -0.000118845, -0.00205856, 0.00283185, 0.00370454, 0.00140506, 0.00133437, 0.0209485, -0.000880203, -0.0183069, -0.0584124, 0.0458102, -0.0238084, 0.470968, -0.543245, 0.335968, -2.08374, -2.16592, -0.129777, 0.468814, -0.543011, 0.333216, -2.08246, -2.16227, -0.126956, -0.0032256, 0.01179, 0.00607228, -0.00225789, -0.00603807, -0.0152815
0.0491414, 1.69136, -1.22837, -1.54078, -0.900467, -1.19292, 1.22826, -1.30266, 0.0127448, 9.90329e-05, -0.03359, -0.00544232, -0.0390705, 0.00522118, 0.000599838, 3.11805, 60.5777, 29.5395, 5.24017, 1.79828, 3.5538, -0.0420422, -0.000135478, -0.00205136, 0.00284533, 0.00373421, 0.00137032, 0.00134344, 0.0212987, -0.00203711, -0.0170805, -0.0531661, 0.0463736, -0.0231086, 0.470965, -0.543234, 0.335974, -2.08373, -2.16593, -0.129768, 0.468818, -0.543014, 0.333206, -2.08246, -2.16228, -0.126878, -0.00338507, 0.0123818, 0.00637623, -0.00120501, -0.00593331, -0.0138558
0.0501414, 1.69138, -1.22837, -1.5408, -0.900465, -1.19296, 1.22826, -1.30266, 0.0175518, -0.000576616, -0.0313355, 0.000223392, -0.0360783, 0.00612312, 0.000162533, 3.22913, 60.907, 29.722, 5.01404, 1.86603, 3.63254, -0.0356336, -0.000153811, -0.00204393, 0.00286224, 0.00376315, 0.00134288, 0.00135407, 0.0205975, -0.00453201, -0.0162752, -0.0473976, 0.0436348, -0.0213104, 0.470962, -0.543221, 0.335981, -2.08372, -2.16594, -0.129759, 0.468822, -0.543016, 0.333192, -2.08246, -2.16228, -0.126808, -0.00354847, 0.0129888, 0.00668792, 0.0011273, -0.0046557, -0.0127154
0.0511414, 1.6914, -1.22838, -1.54081, -0.900472, -1.193, 1.22828, -1.30266, 0.0159185, -0.00217841, -0.0258279, -0.00237588, -0.0376339, 0.00767726, -0.000603721, 3.41956, 61.1649, 29.8728, 4.94263, 1.90906, 3.69021, -0.0164075, -0.00017054, -0.00203437, 0.00287567, 0.00378392, 0.00131157, 0.00135669, 0.0206971, -0.00545912, -0.0156167, -0.0433405, 0.0443325, -0.0182533, 0.470958, -0.543208, 0.335987, -2.08371, -2.16594, -0.129749, 0.468829, -0.543018, 0.333183, -2.08246, -2.16229, -0.126743, -0.00371575, 0.0136108, 0.00700727, 0.00191337, -0.00419531, -0.0117892
0.0521414, 1.69142, -1.22839, -1.54084, -0.900474, -1.19304, 1.22828, -1.30266, 0.0188621, -0.00773265, -0.0244019, -0.000889339, -0.0390578, 0.00857084, -0.000911107, 3.57032, 61.6092, 30.1346, 4.86725, 1.95758, 3.7543, -0.00267457, -0.000192217, -0.00202784, 0.00289816, 0.00381386, 0.00128998, 0.00136834, 0.0211113, -0.00728955, -0.0184655, -0.0424789, 0.0407233, -0.0165678, 0.470955, -0.543195, 0.335994, -2.0837, -2.16595, -0.129738, 0.468831, -0.543022, 0.333164, -2.08246, -2.16229, -0.126676, -0.00388686, 0.0142477, 0.0073342, 0.00348212, -0.00345394, -0.0143948
0.0531414, 1.69143, -1.2284, -1.54084, -0.900479, -1.19308, 1.2283, -1.30266, 0.0160171, -0.00779394, -0.0187321, -0.00139439, -0.0398263, 0.0100986, 0.0033738, 3.79646, 61.9028, 30.206, 4.86725, 2.00061, 3.79733, 0.0165515, -0.000212719, -0.00201996, 0.00291037, 0.00382717, 0.00125778, 0.00137895, 0.022066, -0.00716035, -0.0165023, -0.0366394, 0.0420963, -0.0213061, 0.470951, -0.54318, 0.336002, -2.08369, -2.16596, -0.129728, 0.468836, -0.543026, 0.333156, -2.08247, -2.16229, -0.126617, -0.00406174, 0.0148993, 0.00766863, 0.00328355, -0.00405217, -0.0122661
0.0541414, 1.69145, -1.2284, -1.54086, -0.900481, -1.19312, 1.22831, -1.30266, 0.0175356, -0.00449349, -0.0192084, -0.00153071, -0.0394323, 0.0106296, 0.00240295, 3.87183, 62.0496, 30.4679, 4.86725, 2.01984, 3.85501, 0.0229602, -0.000232537, -0.00201016, 0.00292104, 0.00384996, 0.00121481, 0.00138615, 0.0218402, -0.00820264, -0.0150109, -0.0367254, 0.045877, -0.0194441, 0.470947, -0.543166, 0.336009, -2.08368, -2.16597, -0.129716, 0.468842, -0.543028, 0.33315, -2.08248, -2.16231, -0.126536, -0.00424034, 0.0155655, 0.00801045, 0.00419185, -0.00334973, -0.010448
0.0551414, 1.69147, -1.22841, -1.54088, -0.900487, -1.19317, 1.22832, -1.30266, 0.0135556, -0.00755767, -0.0167785, -0.00323455, -0.0429179, 0.0110212, 0.00237001, 4.02259, 62.4185, 30.6186, 4.94263, 2.01984, 3.91269, 0.0101428, -0.000252507, -0.00200005, 0.00293758, 0.00386956, 0.00118812, 0.00139261, 0.0243421, -0.00667634, -0.0161769, -0.0366281, 0.0462086, -0.0223647, 0.470942, -0.54315, 0.336017, -2.08367, -2.16597, -0.129705, 0.468848, -0.543029, 0.333138, -2.08247, -2.16232, -0.126475, -0.00442257, 0.0162459, 0.00835954, 0.00253294, -0.00502254, -0.0115923
0.0561414, 1.69149, -1.22841, -1.54088, -0.900495, -1.19321, 1.22833, -1.30266, 0.0154691, -0.00743541, -0.014119, -0.00509295, -0.040956, 0.00613933, 0.00227472, 4.09797, 62.5653, 30.7297, 5.05371, 2.00702, 3.9841, -0.00267457, -0.00026959, -0.00198758, 0.00294823, 0.0038901, 0.00115119, 0.0013939, 0.02223, -0.00813031, -0.016184, -0.0390991, 0.0428404, -0.0174153, 0.470938, -0.543134, 0.336026, -2.08366, -2.16598, -0.129692, 0.468856, -0.543028, 0.333133, -2.08247, -2.16234, -0.126403, -0.00460838, 0.0169405, 0.00871578, 0.00372322, -0.00218202, -0.0109593
0.0571414, 1.6915, -1.22842, -1.54089, -0.9005, -1.19325, 1.22833, -1.30266, 0.011858, -0.00880556, -0.0122623, -0.00624736, -0.0393079, 0.00279683, 0.00242747, 4.24873, 62.8986, 30.8408, 5.16479, 1.98871, 4.04819, -0.0228162, -0.000291148, -0.00197808, 0.00296474, 0.00390752, 0.00112738, 0.00140625, 0.0233181, -0.00645868, -0.0168364, -0.0400185, 0.0388266, -0.0192573, 0.470933, -0.543117, 0.336034, -2.08364, -2.16599, -0.129679, 0.468861, -0.543029, 0.333121, -2.08247, -2.16234, -0.126345, -0.00479766, 0.0176488, 0.00907903, 0.00188, -0.00251621, -0.0113585
0.0581414, 1.69153, -1.22842, -1.5409, -0.900505, -1.1933, 1.22834, -1.30266, 0.014948, -0.00352559, -0.0109617, -0.00611834, -0.0372372, 0.00524458, -0.000936706, 4.2884, 62.97, 30.9519, 5.24017, 1.94568, 4.10586, 0.0495105, -0.00030995, -0.00196533, 0.00297236, 0.0039265, 0.00108371, 0.0014025, 0.0218511, -0.00915601, -0.0134488, -0.0360761, 0.0441015, -0.0123538, 0.470929, -0.543099, 0.336043, -2.08363, -2.166, -0.129666, 0.468869, -0.543029, 0.33312, -2.08247, -2.16237, -0.126267, -0.00499035, 0.0183707, 0.00944913, 0.00445128, -0.000756455, -0.00749734
0.0591414, 1.69155, -1.22843, -1.54091, -0.900512, -1.19334, 1.22834, -1.30266, 0.0132129, -0.00924633, -0.0118108, -0.00598478, -0.0409574, 0.007063, 0.00167239, 4.36378, 63.3032, 31.1384, 5.31555, 1.91546, 4.16354, -0.00999879, -0.000331769, -0.00195477, 0.0029935, 0.00395653, 0.00106178, 0.00141169, 0.0250818, -0.00819428, -0.0170965, -0.0374417, 0.0428508, -0.0189552, 0.470924, -0.543081, 0.336053, -2.08362, -2.16601, -0.129652, 0.468875, -0.543028, 0.333105, -2.08246, -2.16237, -0.126196, -0.00518633, 0.0191057, 0.00982594, 0.00327877, -0.00268918, -0.0111945
0.0601414, 1.69157, -1.22844, -1.54092, -0.900523, -1.19339, 1.22835, -1.30266, 0.0158544, -0.0115218, -0.0105782, -0.0066953, -0.0446462, 0.00452712, 0.00118453, 4.39948, 63.5611, 31.2494, 5.42664, 1.90265, 4.19925, -0.00999879, -0.000352015, -0.00194069, 0.00301141, 0.00398214, 0.00103139, 0.00141298, 0.0249246, -0.0093948, -0.0187107, -0.0415504, 0.0429347, -0.0164686, 0.470918, -0.543062, 0.336063, -2.0836, -2.16602, -0.129638, 0.468884, -0.543026, 0.333093, -2.08245, -2.16239, -0.126123, -0.00538552, 0.0198537, 0.0102093, 0.00421446, -0.00148831, -0.012417
0.0611414, 1.6916, -1.22845, -1.54093, -0.900526, -1.19344, 1.22836, -1.30266, 0.0184805, -0.0108671, -0.00973009, -0.00771423, -0.0466892, 0.00336511, 0.00107925, 4.39948, 63.8547, 31.3605, 5.42664, 1.87244, 4.21298, -0.0164075, -0.000374368, -0.00192602, 0.00303099, 0.00400181, 0.00100678, 0.00141437, 0.0243228, -0.0109747, -0.0186649, -0.0439369, 0.0453304, -0.0138111, 0.470913, -0.543042, 0.336073, -2.08359, -2.16603, -0.129623, 0.468893, -0.543024, 0.33308, -2.08244, -2.16241, -0.126061, -0.0055878, 0.0206142, 0.0105989, 0.00557016, -7.58171e-05, -0.0119366
0.0621414, 1.69162, -1.22847, -1.54094, -0.900529, -1.19349, 1.22836, -1.30266, 0.0186051, -0.0126328, -0.00747434, -0.00859374, -0.0438069, 0.00393631, 0.000996017, 4.47486, 64.1125, 31.4002, 5.42664, 1.85321, 4.1846, -0.0228162, -0.000398283, -0.0019124, 0.00304971, 0.00401822, 0.000982672, 0.00142202, 0.0240235, -0.0122876, -0.0192473, -0.0410408, 0.0419635, -0.0114092, 0.470907, -0.543021, 0.336083, -2.08357, -2.16604, -0.129607, 0.468901, -0.543024, 0.333068, -2.08244, -2.16242, -0.126002, -0.00579309, 0.0213869, 0.0109948, 0.00664426, 0.00113606, -0.0121091
0.0631414, 1.69164, -1.22848, -1.54095, -0.900534, -1.19354, 1.22837, -1.30266, 0.0187466, -0.0131357, -0.011602, -0.00706821, -0.0515023, 0.00415667, -5.26079e-05, 4.55024, 64.3347, 31.547, 5.46234, 1.84131, 4.15622, -0.00267457, -0.000424721, -0.0019001, 0.00307078, 0.00404104, 0.000955347, 0.00142556, 0.0277045, -0.0106638, -0.0210494, -0.0477299, 0.0485531, -0.0167625, 0.470902, -0.543, 0.336094, -2.08356, -2.16606, -0.129591, 0.468908, -0.543025, 0.333054, -2.08243, -2.16243, -0.125932, -0.00600136, 0.0221719, 0.0113968, 0.00488141, -0.00150262, -0.0140083
0.0641414, 1.69166, -1.22851, -1.54096, -0.900541, -1.19359, 1.22838, -1.30266, 0.0166659, -0.0225219, -0.0106284, -0.00913715, -0.0572398, 0.00340336, -0.000725124, 4.58991, 64.664, 31.6581, 5.50201, 1.82941, 4.14889, 0.0165515, -0.00045069, -0.00188526, 0.00309836, 0.00406652, 0.000938976, 0.00142635, 0.0305928, -0.00970425, -0.0267385, -0.0519985, 0.0441282, -0.0182715, 0.470896, -0.542978, 0.336106, -2.08354, -2.16607, -0.129574, 0.468917, -0.543024, 0.333034, -2.0824, -2.16244, -0.12587, -0.00621258, 0.0229689, 0.0118049, 0.00360939, -0.00272149, -0.0196367
0.0651414, 1.69169, -1.22852, -1.54096, -0.900541, -1.19364, 1.22838, -1.30266, 0.0246924, -0.0187119, -0.00823506, -0.00795533, -0.056642, 0.00386207, 0.000245179, 4.62562, 64.8108, 31.6977, 5.42664, 1.81659, 4.11319, -0.00267457, -0.000477082, -0.00187, 0.00311528, 0.00408087, 0.000907905, 0.00143502, 0.027336, -0.0146475, -0.0241429, -0.0499434, 0.048226, -0.0117622, 0.470889, -0.542955, 0.336118, -2.08352, -2.16608, -0.129557, 0.468926, -0.543023, 0.333024, -2.0824, -2.16246, -0.125805, -0.0064267, 0.0237778, 0.012219, 0.00830912, 0.00110706, -0.0163042
0.0661414, 1.69172, -1.22854, -1.54097, -0.900544, -1.19369, 1.22838, -1.30266, 0.0249813, -0.016106, -0.00649134, -0.00504002, -0.0506521, 0.0025065, -0.00151958, 4.62562, 64.9576, 31.7335, 5.38696, 1.77997, 4.12051, 0.0431018, -0.000500245, -0.0018522, 0.00313615, 0.00410313, 0.000886537, 0.00143172, 0.0270266, -0.0150434, -0.0220036, -0.0455964, 0.0454517, -0.0101751, 0.470883, -0.542931, 0.33613, -2.0835, -2.16609, -0.129539, 0.468937, -0.543019, 0.333012, -2.08238, -2.16248, -0.125741, -0.00664368, 0.0245986, 0.0126391, 0.00855422, 0.00192063, -0.0137358
0.0671414, 1.69174, -1.22856, -1.54098, -0.90055, -1.19374, 1.22839, -1.30266, 0.023244, -0.0178458, -0.00705058, -0.00385837, -0.0522575, 0.00131466, -0.000732494, 4.701, 65.2551, 31.8445, 5.38696, 1.77997, 4.13424, 0.0357776, -0.000529281, -0.00183775, 0.00316212, 0.0041285, 0.000864777, 0.00144051, 0.0295124, -0.0135346, -0.023358, -0.0475436, 0.0448967, -0.0151868, 0.470876, -0.542906, 0.336143, -2.08349, -2.16611, -0.12952, 0.468945, -0.543018, 0.332994, -2.08237, -2.16248, -0.125671, -0.00686349, 0.0254311, 0.0130651, 0.00686797, 0.000445273, -0.014987
0.0681414, 1.69178, -1.22857, -1.54099, -0.900561, -1.19379, 1.22839, -1.30266, 0.0262759, -0.0162773, -0.0104179, -0.00697601, -0.0481909, 0.000176855, -6.64271e-06, 4.74067, 65.4376, 31.9556, 5.42664, 1.76807, 4.15622, 0.0229602, -0.000552515, -0.0018191, 0.00318403, 0.00415857, 0.000839142, 0.0014377, 0.0277819, -0.015761, -0.0246084, -0.0517605, 0.0437366, -0.0111894, 0.470869, -0.542881, 0.336156, -2.08347, -2.16612, -0.129501, 0.468957, -0.543012, 0.332981, -2.08235, -2.1625, -0.125593, -0.00708609, 0.0262753, 0.013497, 0.00876113, 0.00328204, -0.015589
0.0691414, 1.69181, -1.22858, -1.54099, -0.900565, -1.19384, 1.22839, -1.30266, 0.032453, -0.0143686, -0.00726745, -0.00659672, -0.0452886, -0.000305061, -0.000745187, 4.74067, 65.5844, 31.9556, 5.35126, 1.75525, 4.16995, 0.0431018, -0.000576983, -0.00179921, 0.00320182, 0.00417687, 0.00081088, 0.001433, 0.0246224, -0.0201112, -0.0229749, -0.0490541, 0.0435763, -0.00296337, 0.470862, -0.542854, 0.336169, -2.08345, -2.16613, -0.129481, 0.46897, -0.543006, 0.332973, -2.08233, -2.16253, -0.125525, -0.00731145, 0.027131, 0.0139346, 0.0128258, 0.00718526, -0.0131804
0.0701414, 1.69184, -1.22858, -1.54101, -0.900569, -1.1939, 1.2284, -1.30266, 0.0317673, -0.0114049, -0.0109521, -0.0033029, -0.0442768, 0.000369499, 0.00120255, 4.701, 65.6598, 32.0707, 5.27588, 1.77356, 4.15622, -0.00267457, -0.000603716, -0.0017799, 0.00322102, 0.00420543, 0.00077403, 0.00143963, 0.0271957, -0.0187269, -0.0222828, -0.0496737, 0.0465648, -0.0106925, 0.470855, -0.542827, 0.336183, -2.08343, -2.16615, -0.129461, 0.468982, -0.543002, 0.332963, -2.08232, -2.16255, -0.125435, -0.00753952, 0.0279981, 0.014378, 0.0113333, 0.00534847, -0.0124108
0.0711414, 1.69188, -1.2286, -1.54102, -0.900582, -1.19394, 1.2284, -1.30265, 0.0322455, -0.0119191, -0.0103456, -0.00674909, -0.0432767, 0.000294518, 0.00155062, 4.74067, 65.8423, 32.1818, 5.31555, 1.79187, 4.15622, -0.0228162, -0.000628738, -0.00175868, 0.00324702, 0.00423574, 0.00075295, 0.00143518, 0.0266231, -0.0201892, -0.023179, -0.0508671, 0.0460798, -0.00765395, 0.470847, -0.542799, 0.336197, -2.08341, -2.16616, -0.12944, 0.468996, -0.542993, 0.332947, -2.08229, -2.16257, -0.125359, -0.00777026, 0.0288765, 0.0148271, 0.0125098, 0.0069905, -0.0128024
0.0721414, 1.69192, -1.22859, -1.54103, -0.900581, -1.19399, 1.2284, -1.30265, 0.0379169, -0.00714603, -0.00982984, -0.00160867, -0.042545, 0.000775018, 0.00151067, 4.701, 65.8066, 32.2928, 5.16479, 1.81018, 4.14157, -0.0356336, -0.000654691, -0.00173677, 0.00326244, 0.00425973, 0.000714643, 0.00143661, 0.025947, -0.022611, -0.0200351, -0.0480788, 0.0507903, -0.00686932, 0.47084, -0.54277, 0.336212, -2.08339, -2.16618, -0.129418, 0.46901, -0.542987, 0.332942, -2.08227, -2.16259, -0.125272, -0.00800365, 0.0297661, 0.0152818, 0.0147851, 0.00816445, -0.00921207
0.0731414, 1.69196, -1.2286, -1.54104, -0.900588, -1.19405, 1.2284, -1.30265, 0.0386323, -0.00905931, -0.0085672, -0.00379785, -0.0472798, 0.00186621, 0.00077141, 4.66529, 65.9891, 32.3682, 5.12909, 1.84772, 4.10586, -0.0292249, -0.000680651, -0.00171209, 0.00328585, 0.00428575, 0.000685356, 0.00142886, 0.0269148, -0.0236378, -0.0212637, -0.0499268, 0.0540548, -0.00519961, 0.470832, -0.542741, 0.336228, -2.08336, -2.16619, -0.129396, 0.469027, -0.542978, 0.332929, -2.08224, -2.16263, -0.125191, -0.00823965, 0.0306668, 0.015742, 0.0155649, 0.00834124, -0.0101464
0.0741414, 1.692, -1.22862, -1.54106, -0.900595, -1.1941, 1.22841, -1.30265, 0.0424194, -0.00949301, -0.00756996, -0.00538769, -0.0458932, 0.00729687, 0.000278155, 4.62562, 66.1359, 32.4396, 5.08942, 1.87793, 4.07016, -0.0228162, -0.000707207, -0.00168546, 0.00331073, 0.00431044, 0.000656125, 0.00141998, 0.0258706, -0.02767, -0.0214214, -0.0454539, 0.0560008, 0.000613643, 0.470823, -0.54271, 0.336243, -2.08334, -2.16621, -0.129373, 0.469045, -0.542969, 0.332916, -2.08221, -2.16266, -0.125112, -0.00847821, 0.0315785, 0.0162078, 0.0193098, 0.0104751, -0.00979729
0.0751414, 1.69204, -1.22863, -1.54107, -0.900594, -1.19414, 1.22841, -1.30266, 0.0443588, -0.0115404, -0.00928491, -0.00405863, -0.0440446, 0.00581485, -0.00150905, 4.62562, 66.358, 32.4793, 4.94263, 1.89075, 4.05551, 0.0229602, -0.000736638, -0.00166272, 0.00333654, 0.00433188, 0.000640311, 0.00141437, 0.0264207, -0.0283496, -0.0235951, -0.0476143, 0.0524024, 0.00220972, 0.470815, -0.542678, 0.33626, -2.08332, -2.16623, -0.129349, 0.469059, -0.542962, 0.332901, -2.08218, -2.16268, -0.125049, -0.0087193, 0.0325011, 0.016679, 0.0196882, 0.0112172, -0.0115787
0.0761414, 1.69208, -1.22864, -1.54108, -0.900604, -1.19419, 1.22842, -1.30266, 0.0465343, -0.00946799, -0.0123064, -0.00434938, -0.0437086, 0.00577607, -0.00076798, 4.58991, 66.4334, 32.5904, 4.97833, 1.92737, 4.01248, 0.0165515, -0.000762647, -0.00163401, 0.00335989, 0.00435784, 0.000607378, 0.00140347, 0.0267377, -0.0293135, -0.0239223, -0.0508314, 0.055108, 0.00171033, 0.470806, -0.542646, 0.336276, -2.08329, -2.16625, -0.129324, 0.469079, -0.54295, 0.33289, -2.08215, -2.16272, -0.124964, -0.00896288, 0.0334345, 0.0171556, 0.0204069, 0.0119282, -0.0115038
0.0771414, 1.69213, -1.22866, -1.54109, -0.900605, -1.19424, 1.22842, -1.30266, 0.0441352, -0.0123525, -0.0127485, -0.00497948, -0.0432597, 0.00932143, -0.000748822, 4.58991, 66.6913, 32.6261, 4.90295, 1.96399, 3.99783, 0.0229602, -0.000793521, -0.00160577, 0.00338933, 0.00437808, 0.000584679, 0.00139768, 0.0292686, -0.0290019, -0.0257502, -0.0484965, 0.0542767, -0.000919035, 0.470797, -0.542612, 0.336293, -2.08327, -2.16626, -0.129299, 0.469099, -0.542941, 0.332872, -2.08212, -2.16275, -0.124894, -0.00920893, 0.0343785, 0.0176375, 0.0198746, 0.0106421, -0.0132099
0.0781414, 1.69217, -1.22866, -1.54111, -0.900609, -1.1943, 1.22843, -1.30266, 0.0447464, -0.00991168, -0.0117663, -0.0032089, -0.0471839, 0.0128808, 0.000721881, 4.62562, 66.7627, 32.7372, 4.86725, 1.98871, 3.96213, -0.00999879, -0.000825714, -0.00158049, 0.00341362, 0.00440482, 0.000550408, 0.00140117, 0.0312679, -0.0295109, -0.0237659, -0.0458283, 0.062147, -0.00502165, 0.470788, -0.542578, 0.336311, -2.08324, -2.16628, -0.129273, 0.469115, -0.542934, 0.33286, -2.0821, -2.16277, -0.124803, -0.00945739, 0.0353331, 0.0181247, 0.0202794, 0.00933932, -0.011089
0.0791414, 1.69223, -1.22868, -1.54113, -0.900611, -1.19435, 1.22844, -1.30266, 0.0446606, -0.0158226, -0.0134061, -0.0017546, -0.0465582, 0.0101882, 0.000210281, 4.55024, 67.0206, 32.8126, 4.82758, 2.04364, 3.94107, -0.00267457, -0.000855312, -0.00154739, 0.00344556, 0.00442675, 0.000529725, 0.00138904, 0.0332544, -0.0287573, -0.0281819, -0.0495135, 0.0550509, -0.00713957, 0.470779, -0.542543, 0.336329, -2.08322, -2.1663, -0.129247, 0.469138, -0.542922, 0.332841, -2.08206, -2.16281, -0.124733, -0.00970824, 0.0362982, 0.0186171, 0.0191868, 0.00899116, -0.0152423
0.0801414, 1.69228, -1.22869, -1.54115, -0.900618, -1.1944, 1.22845, -1.30265, 0.0497856, -0.0134152, -0.0153674, -0.00651469, -0.0446836, 0.0129317, 0.00112375, 4.51453, 67.1317, 32.9236, 4.90295, 2.06195, 3.9191, -0.0292249, -0.000886596, -0.00151607, 0.00347342, 0.00445365, 0.000494896, 0.00138382, 0.0307189, -0.03325, -0.0284811, -0.0512298, 0.0586545, 2.85968e-06, 0.470769, -0.542506, 0.336348, -2.08319, -2.16632, -0.12922, 0.46916, -0.542911, 0.332827, -2.08203, -2.16284, -0.124641, -0.00996144, 0.0372736, 0.0191147, 0.0233176, 0.0127025, -0.0147844
0.0811414, 1.69233, -1.2287, -1.54117, -0.900618, -1.19446, 1.22846, -1.30266, 0.0506899, -0.010908, -0.0190405, -0.00491328, -0.0446739, 0.0149709, -0.00165816, 4.47486, 67.207, 32.999, 4.90295, 2.1178, 3.89804, 0.0357776, -0.000920347, -0.00148519, 0.00349753, 0.00447284, 0.000455463, 0.0013728, 0.032593, -0.0333077, -0.0282908, -0.0522518, 0.0629517, -0.000355175, 0.470759, -0.542469, 0.336367, -2.08316, -2.16634, -0.129192, 0.469181, -0.542902, 0.332816, -2.082, -2.16289, -0.124553, -0.010217, 0.0382593, 0.0196175, 0.0231948, 0.0118116, -0.0143863
0.0821414, 1.69238, -1.22872, -1.54118, -0.900623, -1.19451, 1.22847, -1.30266, 0.04896, -0.0156043, -0.0155452, 0.000874549, -0.0429794, 0.0112856, 0.000318835, 4.39948, 67.4252, 33.0744, 4.97833, 2.1297, 3.89071, -0.00267457, -0.000953538, -0.001452, 0.0035307, 0.00449832, 0.000430012, 0.00136763, 0.0351353, -0.0314942, -0.0295834, -0.0494087, 0.0549606, -0.00761236, 0.470749, -0.542431, 0.336386, -2.08313, -2.16636, -0.129163, 0.469204, -0.54289, 0.332797, -2.08197, -2.16292, -0.12447, -0.0104747, 0.0392552, 0.0201252, 0.021171, 0.0104214, -0.0154938
0.0831414, 1.69244, -1.22873, -1.54121, -0.900624, -1.19457, 1.22849, -1.30265, 0.0506453, -0.0125358, -0.0208392, -4.44855e-05, -0.047285, 0.0145548, 0.00592652, 4.3241, 67.5006, 33.2212, 5.01404, 2.16083, 3.84768, -0.0292249, -0.000990353, -0.00141967, 0.00355746, 0.0045186, 0.00038758, 0.00136929, 0.0372034, -0.0319987, -0.0299248, -0.0540701, 0.0643438, -0.0156226, 0.470738, -0.542392, 0.336407, -2.0831, -2.16638, -0.129134, 0.469226, -0.542882, 0.332784, -2.08195, -2.16295, -0.124375, -0.0107348, 0.0402611, 0.020638, 0.0214775, 0.00945947, -0.0156543
0.0841414, 1.69249, -1.22874, -1.54124, -0.900624, -1.19463, 1.22851, -1.30265, 0.0518765, -0.0129033, -0.0210107, -0.000801902, -0.0508287, 0.0158255, 0.00434529, 4.24873, 67.6831, 33.3362, 5.05371, 2.20386, 3.83304, -0.0292249, -0.00102952, -0.00138741, 0.00359021, 0.00454639, 0.00034923, 0.00137316, 0.0384274, -0.0329036, -0.0306035, -0.0557743, 0.0683211, -0.0142644, 0.470727, -0.542351, 0.336427, -2.08308, -2.1664, -0.129103, 0.469248, -0.542874, 0.332765, -2.08193, -2.16298, -0.124275, -0.010997, 0.0412769, 0.0211557, 0.0221388, 0.00940929, -0.0160244
0.0851414, 1.69255, -1.22875, -1.54125, -0.900631, -1.19469, 1.22852, -1.30265, 0.0564769, -0.0114086, -0.0222937, -0.00301623, -0.0527703, 0.0171407, 0.00319257, 4.13764, 67.7942, 33.3719, 5.16479, 2.22858, 3.81198, -0.0292249, -0.00106534, -0.00135118, 0.00361967, 0.00456869, 0.000308096, 0.00136448, 0.0374821, -0.0359866, -0.030958, -0.0587238, 0.0731805, -0.00877403, 0.470716, -0.54231, 0.336448, -2.08304, -2.16642, -0.129072, 0.469273, -0.542862, 0.33275, -2.0819, -2.16303, -0.124179, -0.0112614, 0.0423026, 0.0216783, 0.0249061, 0.0115515, -0.0157999
0.0861414, 1.69259, -1.22875, -1.54128, -0.90063, -1.19475, 1.22854, -1.30265, 0.0545497, -0.0086897, -0.0242865, -0.00192319, -0.0597558, 0.0178901, 0.00211281, 4.13764, 67.8339, 33.4473, 5.16479, 2.28351, 3.79733, -0.0228162, -0.00111028, -0.00132299, 0.00364538, 0.00458804, 0.00025713, 0.00137172, 0.0413964, -0.033845, -0.030095, -0.0624603, 0.0826598, -0.0147557, 0.470705, -0.542268, 0.33647, -2.08301, -2.16645, -0.129041, 0.469291, -0.542859, 0.332739, -2.08189, -2.16306, -0.124073, -0.011528, 0.0433381, 0.0222057, 0.0226751, 0.00850138, -0.0149616
0.0871414, 1.69265, -1.22877, -1.54131, -0.900641, -1.19481, 1.22856, -1.30265, 0.0559389, -0.010179, -0.02727, -0.00474289, -0.0634351, 0.0189962, 0.00059153, 4.02259, 68.0164, 33.5941, 5.31555, 2.28992, 3.76895, 0.00373412, -0.00115051, -0.00128611, 0.00368085, 0.0046177, 0.000211994, 0.00136428, 0.0426655, -0.0347821, -0.0327476, -0.0679376, 0.0859358, -0.0128858, 0.470694, -0.542224, 0.336492, -2.08298, -2.16647, -0.129008, 0.469316, -0.542848, 0.332719, -2.08186, -2.16311, -0.123963, -0.0117966, 0.0443832, 0.0227379, 0.0232916, 0.00874066, -0.0172743
0.0881414, 1.69271, -1.22877, -1.54133, -0.900653, -1.19488, 1.22859, -1.30266, 0.0585543, -0.00770893, -0.0253696, -0.00654631, -0.0623936, 0.0236455, -0.000430329, 3.83216, 68.0521, 33.5584, 5.46234, 2.31372, 3.76163, 0.0293689, -0.00118748, -0.00124477, 0.00370843, 0.00463932, 0.000155121, 0.00134679, 0.0417618, -0.0381572, -0.0309591, -0.0632369, 0.0906861, -0.00736211, 0.470682, -0.54218, 0.336515, -2.08295, -2.16649, -0.128975, 0.469346, -0.542835, 0.332707, -2.08183, -2.16318, -0.12385, -0.0120673, 0.0454378, 0.0232748, 0.0264245, 0.010554, -0.0149349
0.0891414, 1.69277, -1.22879, -1.54135, -0.900646, -1.19495, 1.22861, -1.30266, 0.0613223, -0.010402, -0.02809, -0.00172879, -0.0656454, 0.0225634, 0.000756114, 3.72108, 68.2742, 33.5584, 5.35126, 2.32013, 3.7543, 0.00373412, -0.00123586, -0.00121175, 0.00374352, 0.00465721, 0.000115796, 0.0013566, 0.0444474, -0.0378811, -0.0334386, -0.0668927, 0.0907093, -0.013256, 0.47067, -0.542135, 0.336538, -2.08291, -2.16652, -0.128941, 0.469367, -0.54283, 0.332687, -2.08181, -2.1632, -0.123755, -0.0123401, 0.0465019, 0.0238164, 0.0258831, 0.0093367, -0.0172497
0.0901414, 1.69283, -1.22878, -1.54138, -0.900659, -1.19502, 1.22864, -1.30266, 0.0574187, -0.00614878, -0.0266219, -0.00548649, -0.067671, 0.026835, -0.000137827, 3.60603, 68.2385, 33.6695, 5.53772, 2.31372, 3.74057, 0.0229602, -0.00128074, -0.00117517, 0.00377128, 0.00468685, 4.47187e-05, 0.00135545, 0.0463692, -0.0375105, -0.0307213, -0.0640991, 0.0995577, -0.013864, 0.470657, -0.542088, 0.336562, -2.08288, -2.16654, -0.128906, 0.469392, -0.542822, 0.332676, -2.0818, -2.16326, -0.123615, -0.0126148, 0.0475753, 0.0243626, 0.0254086, 0.00808074, -0.0143069
0.0911414, 1.69288, -1.22879, -1.54141, -0.900662, -1.1951, 1.22866, -1.30265, 0.0592901, -0.00497141, -0.0258965, -0.00456489, -0.0699926, 0.0294563, 0.00118145, 3.41956, 68.2742, 33.6695, 5.57739, 2.32654, 3.74057, -0.00999879, -0.00132822, -0.00113764, 0.00379938, 0.00470549, -2.04524e-05, 0.001359, 0.0474497, -0.0389281, -0.0298774, -0.0624705, 0.104609, -0.0154863, 0.470645, -0.542041, 0.336586, -2.08285, -2.16657, -0.128871, 0.469418, -0.542816, 0.332664, -2.08179, -2.16331, -0.123493, -0.0128915, 0.048658, 0.0249134, 0.0266185, 0.00802698, -0.0131341
0.0921414, 1.69294, -1.22881, -1.54144, -0.900672, -1.19518, 1.22869, -1.30265, 0.0596709, -0.00853894, -0.0262509, -0.00562612, -0.0715998, 0.0269855, 0.00153918, 3.26881, 68.4964, 33.7052, 5.68848, 2.33844, 3.73324, -0.0292249, -0.00137885, -0.0011008, 0.00383772, 0.00473186, -7.56445e-05, 0.00136635, 0.0486008, -0.0389969, -0.0328527, -0.0669907, 0.102024, -0.0160766, 0.470632, -0.541992, 0.336611, -2.08281, -2.16659, -0.128834, 0.469442, -0.54281, 0.332642, -2.08178, -2.16335, -0.12337, -0.0131701, 0.0497497, 0.0254687, 0.0263417, 0.00844283, -0.0156976
0.0931414, 1.693, -1.22881, -1.54147, -0.900681, -1.19526, 1.22872, -1.30265, 0.0622075, -0.00738388, -0.0243919, -0.00633751, -0.0715211, 0.0299418, 0.00105573, 3.15376, 68.5678, 33.7806, 5.79956, 2.31372, 3.72592, -0.0292249, -0.00143066, -0.0010648, 0.0038704, 0.00475713, -0.000141167, 0.00137339, 0.048249, -0.0416901, -0.0318586, -0.063843, 0.105351, -0.0124764, 0.470619, -0.541942, 0.336637, -2.08277, -2.16662, -0.128797, 0.469465, -0.542805, 0.332626, -2.08177, -2.16339, -0.123238, -0.0134506, 0.0508506, 0.0260284, 0.0287749, 0.00985182, -0.0141848
0.0941414, 1.69305, -1.22881, -1.54149, -0.900689, -1.19533, 1.22875, -1.30265, 0.0619444, -0.0049382, -0.0265037, -0.000483746, -0.0727945, 0.0358257, 0.000251302, 3.003, 68.5678, 33.7449, 5.91064, 2.32013, 3.74698, -0.0164075, -0.0014819, -0.00102724, 0.00389828, 0.00477671, -0.000212374, 0.00137616, 0.052372, -0.0410007, -0.0302048, -0.0586116, 0.112116, -0.019457, 0.470605, -0.541891, 0.336663, -2.08274, -2.16665, -0.128759, 0.46949, -0.542799, 0.332616, -2.08176, -2.16345, -0.123106, -0.013733, 0.0519604, 0.0265925, 0.0280164, 0.00660926, -0.0126053
0.0951414, 1.69311, -1.22882, -1.54152, -0.900694, -1.19541, 1.22879, -1.30265, 0.0634362, -0.00506708, -0.0259873, -0.00071636, -0.0729245, 0.0364251, 0.00164225, 2.77686, 68.6432, 33.7449, 5.95032, 2.30823, 3.74698, -0.0557752, -0.00153363, -0.000985147, 0.00392931, 0.00479104, -0.000281773, 0.00138147, 0.052836, -0.0423334, -0.0305325, -0.0585101, 0.113194, -0.0198851, 0.470592, -0.541839, 0.33669, -2.0827, -2.16667, -0.128721, 0.469519, -0.542791, 0.332602, -2.08176, -2.16351, -0.12298, -0.0140172, 0.053079, 0.027161, 0.0290687, 0.0073768, -0.0124737
0.0961414, 1.69318, -1.22881, -1.54156, -0.900705, -1.1955, 1.22882, -1.30265, 0.0613773, -0.0016236, -0.025051, -0.00351063, -0.0730749, 0.0353218, 0.000361337, 2.55073, 68.5678, 33.8559, 6.09711, 2.29541, 3.7836, -0.0356336, -0.00158636, -0.000943387, 0.00395868, 0.00481659, -0.00036611, 0.00138099, 0.0535364, -0.0419408, -0.028929, -0.0598927, 0.117083, -0.0187882, 0.470578, -0.541786, 0.336717, -2.08266, -2.1667, -0.128681, 0.469548, -0.542784, 0.332591, -2.08175, -2.16357, -0.122827, -0.0143032, 0.0542063, 0.0277337, 0.0284761, 0.00755102, -0.0104143
0.0971414, 1.69324, -1.2288, -1.54158, -0.900713, -1.19558, 1.22886, -1.30265, 0.060548, 0.00150947, -0.0241595, -0.00380319, -0.0737381, 0.0403385, -0.000224459, 2.28492, 68.4567, 33.8202, 6.17248, 2.29541, 3.79733, -0.0228162, -0.00163901, -0.000900702, 0.00398323, 0.00483451, -0.000452985, 0.00138355, 0.0552197, -0.0427416, -0.0267108, -0.0552716, 0.123945, -0.01955, 0.470563, -0.541732, 0.336744, -2.08262, -2.16673, -0.128641, 0.469577, -0.542777, 0.332585, -2.08174, -2.16364, -0.122678, -0.0145909, 0.0553423, 0.0283107, 0.0291326, 0.00671925, -0.00793268
0.0981414, 1.69329, -1.22881, -1.54161, -0.900729, -1.19566, 1.2289, -1.30265, 0.0586125, -0.00159708, -0.0211777, -0.00667181, -0.0780168, 0.038707, -0.00112596, 2.20954, 68.5678, 33.8202, 6.35895, 2.2771, 3.82663, 0.00373412, -0.0016973, -0.000862476, 0.00401647, 0.00485042, -0.000524059, 0.00138788, 0.0568017, -0.0423576, -0.0283039, -0.0578634, 0.124319, -0.018923, 0.470549, -0.541677, 0.336773, -2.08258, -2.16676, -0.128599, 0.469601, -0.542772, 0.33257, -2.08174, -2.1637, -0.122547, -0.0148804, 0.0564869, 0.0288918, 0.0284598, 0.00653149, -0.00915805
0.0991414, 1.69335, -1.22881, -1.54164, -0.900734, -1.19575, 1.22894, -1.30265, 0.0608243, -0.00106843, -0.0245808, -0.00427886, -0.077244, 0.0382085, -0.000508011, 1.98341, 68.5678, 33.9313, 6.35895, 2.27161, 3.84036, -0.00267457, -0.00175741, -0.0008218, 0.0040476, 0.00486677, -0.000605806, 0.00139981, 0.0582202, -0.0427078, -0.0294147, -0.0605507, 0.124838, -0.0217844, 0.470534, -0.54162, 0.336802, -2.08254, -2.16679, -0.128557, 0.469628, -0.542769, 0.332558, -2.08174, -2.16376, -0.122403, -0.0151716, 0.0576399, 0.0294771, 0.0285302, 0.00647021, -0.00990045
0.100141, 1.69341, -1.22881, -1.54166, -0.900748, -1.19583, 1.22898, -1.30265, 0.0637611, -0.000715063, -0.0234764, -0.00844463, -0.0764275, 0.0376907, 0.000173904, 1.83265, 68.5678, 33.8917, 6.47003, 2.25879, 3.85501, -0.0164075, -0.00181487, -0.000778399, 0.00407656, 0.00487477, -0.000684346, 0.00140237, 0.0564528, -0.045737, -0.0299808, -0.0625191, 0.125447, -0.0160735, 0.470519, -0.541563, 0.336831, -2.08249, -2.16682, -0.128514, 0.469657, -0.542761, 0.332549, -2.08174, -2.16382, -0.122271, -0.0154644, 0.0588012, 0.0300665, 0.0311774, 0.00959183, -0.00969041
0.101141, 1.69347, -1.2288, -1.5417, -0.900761, -1.19591, 1.22902, -1.30265, 0.063719, 0.00119164, -0.0223289, -0.0106466, -0.0806801, 0.0458749, -0.000118459, 1.64619, 68.4964, 33.967, 6.54541, 2.25238, 3.89071, -0.00999879, -0.00187473, -0.000736429, 0.00410613, 0.00489223, -0.000769408, 0.00140725, 0.0583564, -0.0476554, -0.0284306, -0.0577347, 0.135795, -0.015745, 0.470503, -0.541504, 0.336861, -2.08245, -2.16685, -0.128471, 0.469685, -0.542756, 0.332539, -2.08173, -2.16389, -0.122121, -0.0157588, 0.0599708, 0.0306599, 0.0329272, 0.00872615, -0.00792075
0.102141, 1.69353, -1.2288, -1.54171, -0.900773, -1.19599, 1.22906, -1.30265, 0.0604861, 0.00232316, -0.0202527, -0.0115235, -0.083512, 0.0425999, -7.675e-05, 1.45576, 68.5678, 33.8559, 6.58508, 2.23407, 3.92642, -0.00999879, -0.00193331, -0.000691427, 0.00413512, 0.00489384, -0.000842211, 0.00140648, 0.0604808, -0.0457266, -0.0276614, -0.06038, 0.138256, -0.019153, 0.470487, -0.541444, 0.336892, -2.08241, -2.16688, -0.128426, 0.469715, -0.542747, 0.332531, -2.08172, -2.16396, -0.122001, -0.0160548, 0.0611486, 0.0312573, 0.0308128, 0.0076086, -0.00683341
0.103141, 1.69358, -1.22879, -1.54174, -0.900793, -1.19608, 1.2291, -1.30264, 0.0561646, 0.005248, -0.0232476, -0.014832, -0.0865984, 0.0453403, 0.0011373, 1.34071, 68.421, 33.9313, 6.73187, 2.24689, 3.95572, -0.0420422, -0.00199545, -0.000649611, 0.00416154, 0.00491125, -0.000937678, 0.0014155, 0.0639392, -0.0438728, -0.0273911, -0.0631887, 0.146203, -0.0252207, 0.470471, -0.541383, 0.336923, -2.08236, -2.16691, -0.128381, 0.469742, -0.542742, 0.332525, -2.08173, -2.16403, -0.121838, -0.0163524, 0.0623344, 0.0318586, 0.0288027, 0.00526176, -0.00644336
0.104141, 1.69364, -1.22879, -1.54176, -0.900812, -1.19617, 1.22914, -1.30264, 0.0563203, 0.00536827, -0.0225896, -0.0154084, -0.0877748, 0.0426891, 0.00150543, 1.22962, 68.3496, 33.8917, 6.80725, 2.24048, 3.9841, -0.0621838, -0.00205593, -0.000604678, 0.00418798, 0.00491589, -0.0010211, 0.00141664, 0.0647906, -0.0438513, -0.027806, -0.0662329, 0.146799, -0.0259893, 0.470455, -0.54132, 0.336955, -2.08231, -2.16694, -0.128334, 0.469772, -0.542733, 0.33252, -2.08172, -2.16411, -0.121702, -0.0166515, 0.0635282, 0.0324637, 0.0284995, 0.00567886, -0.00637941
0.105141, 1.6937, -1.22878, -1.54178, -0.90083, -1.19625, 1.22917, -1.30264, 0.0574116, 0.00465624, -0.0218197, -0.01498, -0.0945571, 0.0399261, 0.000495933, 1.07887, 68.3099, 33.967, 6.84296, 2.25238, 4.03445, -0.0484509, -0.00211889, -0.000561249, 0.00421878, 0.00493471, -0.00110476, 0.00141865, 0.0666838, -0.0435137, -0.0285887, -0.0716337, 0.151041, -0.027141, 0.470438, -0.541257, 0.336987, -2.08227, -2.16698, -0.128287, 0.469799, -0.542725, 0.332511, -2.08171, -2.16418, -0.121549, -0.0169521, 0.0647298, 0.0330727, 0.0279039, 0.0051185, -0.00682607
0.106141, 1.69376, -1.22878, -1.5418, -0.900854, -1.19634, 1.22921, -1.30264, 0.0560454, 0.00321619, -0.0216069, -0.016734, -0.093651, 0.0392233, 0.000839952, 0.888436, 68.3099, 33.9313, 6.95801, 2.23407, 4.04819, -0.0621838, -0.00217983, -0.000513516, 0.00424972, 0.00494544, -0.00118572, 0.00141697, 0.0679047, -0.0434449, -0.0300008, -0.0728628, 0.149431, -0.0278507, 0.470421, -0.541192, 0.337021, -2.08222, -2.16701, -0.128239, 0.469831, -0.542714, 0.332503, -2.0817, -2.16426, -0.121407, -0.0172541, 0.0659392, 0.0336855, 0.0275271, 0.00533748, -0.00779487
0.107141, 1.69381, -1.22879, -1.54182, -0.900879, -1.19643, 1.22924, -1.30264, 0.0563089, 0.000464913, -0.019344, -0.0169025, -0.0940573, 0.0380097, -0.000660208, 0.777352, 68.3853, 33.9313, 7.02942, 2.24048, 4.07748, -0.0292249, -0.00224409, -0.000468889, 0.00428366, 0.00496228, -0.00126333, 0.0014128, 0.0687829, -0.044084, -0.0313696, -0.0729698, 0.14712, -0.0259331, 0.470404, -0.541126, 0.337054, -2.08217, -2.16705, -0.12819, 0.46986, -0.542705, 0.332492, -2.08168, -2.16433, -0.121261, -0.0175576, 0.0671563, 0.0343019, 0.0278448, 0.00592569, -0.00868609
0.108141, 1.69387, -1.22877, -1.54183, -0.900903, -1.19652, 1.22928, -1.30264, 0.0585143, 0.00380663, -0.0175542, -0.0225431, -0.0945911, 0.0337345, -0.000677102, 0.586922, 68.2385, 33.9313, 7.06909, 2.25879, 4.07016, -0.0228162, -0.00230663, -0.000421328, 0.00430722, 0.00497294, -0.00135957, 0.00140767, 0.0664297, -0.0462681, -0.0304447, -0.078578, 0.150052, -0.0191883, 0.470387, -0.541059, 0.337088, -2.08212, -2.16708, -0.12814, 0.469891, -0.542694, 0.332492, -2.08166, -2.16443, -0.121102, -0.0178624, 0.068381, 0.034922, 0.0296697, 0.00942557, -0.00685695
0.109141, 1.69392, -1.22877, -1.54184, -0.900935, -1.19661, 1.22931, -1.30264, 0.0559711, 0.00351304, -0.0153891, -0.0253332, -0.0905921, 0.0347715, -0.000451105, 0.436165, 68.1989, 33.8917, 7.18018, 2.28351, 4.07016, -0.0228162, -0.0023698, -0.000374552, 0.00433658, 0.00498599, -0.00144226, 0.00139955, 0.0669501, -0.0467658, -0.0304303, -0.0753613, 0.147848, -0.0181064, 0.470369, -0.54099, 0.337123, -2.08207, -2.16712, -0.128089, 0.469921, -0.542681, 0.332486, -2.08164, -2.16451, -0.120954, -0.0181686, 0.0696132, 0.0355458, 0.0298818, 0.0101643, -0.00631535
0.110142, 1.69397, -1.22876, -1.54185, -0.900961, -1.19671, 1.22934, -1.30264, 0.0521348, 0.00488313, -0.0116124, -0.0256359, -0.0909144, 0.0358723, 0.000411563, 0.360787, 68.0917, 33.8917, 7.21588, 2.27161, 4.06283, -0.0420422, -0.00243778, -0.000331681, 0.00436173, 0.00499548, -0.00153113, 0.00140468, 0.0691651, -0.0457601, -0.0284467, -0.0711784, 0.150515, -0.021828, 0.470351, -0.540921, 0.337159, -2.08202, -2.16715, -0.128038, 0.469947, -0.542673, 0.332485, -2.08164, -2.16459, -0.120801, -0.0184762, 0.0708527, 0.036173, 0.0287277, 0.00887168, -0.00404103
0.111142, 1.69403, -1.22875, -1.54186, -0.900993, -1.1968, 1.22936, -1.30264, 0.0544391, 0.00421002, -0.0136925, -0.0260483, -0.0919545, 0.0321913, 0.00277378, 0.21003, 68.0521, 33.967, 7.25555, 2.28351, 4.04819, 0.0165515, -0.00250469, -0.000286113, 0.00439119, 0.00501281, -0.00161832, 0.00139431, 0.0696746, -0.0462732, -0.0304946, -0.0777859, 0.149971, -0.0239018, 0.470332, -0.54085, 0.337195, -2.08197, -2.16719, -0.127985, 0.469975, -0.542662, 0.332481, -2.08161, -2.16468, -0.120642, -0.018785, 0.0720996, 0.0368038, 0.0288752, 0.00995271, -0.00552764
0.112142, 1.69408, -1.22874, -1.54186, -0.901031, -1.1969, 1.22939, -1.30264, 0.0530196, 0.00709551, -0.00839057, -0.0273163, -0.0934328, 0.0291026, 0.00271315, 0.059273, 67.8696, 33.8917, 7.33093, 2.30823, 4.04086, 0.00373412, -0.00256768, -0.000237707, 0.00441041, 0.00502335, -0.0017181, 0.00138539, 0.0698835, -0.0461875, -0.0277055, -0.0771492, 0.153095, -0.0231736, 0.470313, -0.540778, 0.337232, -2.08192, -2.16723, -0.127932, 0.470006, -0.542647, 0.332487, -2.08159, -2.16478, -0.120477, -0.0190951, 0.0733536, 0.0374381, 0.0285932, 0.0105709, -0.00216921
0.113142, 1.69413, -1.22873, -1.54187, -0.901065, -1.197, 1.22942, -1.30264, 0.0551215, 0.00968275, -0.00729082, -0.029591, -0.0938903, 0.0274002, 0.0021007, -0.0914839, 67.7942, 33.9313, 7.33093, 2.32013, 4.0198, 0.00373412, -0.00263711, -0.000192384, 0.00443722, 0.00503833, -0.00181104, 0.00138342, 0.0690791, -0.0479367, -0.0267851, -0.0795572, 0.156253, -0.0191991, 0.470294, -0.540705, 0.337269, -2.08186, -2.16726, -0.127878, 0.470034, -0.542636, 0.332486, -2.08157, -2.16486, -0.120312, -0.0194064, 0.0746148, 0.0380757, 0.0300348, 0.0125612, -0.000553415
0.114142, 1.69417, -1.22873, -1.54186, -0.901112, -1.1971, 1.22944, -1.30264, 0.0516645, 0.00580288, 0.00173136, -0.0339009, -0.0940966, 0.0305724, 0.000907334, -0.166862, 67.8339, 33.8917, 7.44202, 2.32654, 3.99783, 0.0229602, -0.00270432, -0.000145438, 0.00446695, 0.0050494, -0.00189134, 0.0013675, 0.0695556, -0.0494641, -0.0264363, -0.0713339, 0.154657, -0.0143364, 0.470275, -0.54063, 0.337307, -2.08181, -2.1673, -0.127822, 0.470063, -0.542622, 0.332483, -2.08154, -2.16496, -0.120165, -0.0197189, 0.075883, 0.0387168, 0.0312801, 0.0133723, 0.000310134
0.115142, 1.69422, -1.22871, -1.54186, -0.901153, -1.19719, 1.22946, -1.30264, 0.0500499, 0.00583862, 0.00124168, -0.0373089, -0.0935207, 0.0235837, 0.00293924, -0.281914, 67.7585, 33.8917, 7.44202, 2.31372, 3.97677, -0.0356336, -0.00277264, -9.96794e-05, 0.00449251, 0.0050631, -0.00197685, 0.00136197, 0.0698879, -0.0482945, -0.0280135, -0.0794274, 0.151902, -0.0160667, 0.470255, -0.540554, 0.337346, -2.08175, -2.16734, -0.127766, 0.470091, -0.542607, 0.332484, -2.08151, -2.16505, -0.120007, -0.0200326, 0.0771581, 0.0393611, 0.0297535, 0.0145128, -0.000618295
0.116142, 1.69426, -1.2287, -1.54186, -0.901199, -1.19729, 1.22947, -1.30264, 0.0480154, 0.00916202, -3.4648e-05, -0.0411121, -0.0938052, 0.0230308, 0.00184529, -0.357292, 67.6831, 33.9313, 7.47772, 2.32013, 3.95572, -0.0292249, -0.00284395, -5.64899e-05, 0.00451787, 0.00508241, -0.00206874, 0.00135485, 0.0709987, -0.0478595, -0.0274057, -0.0828668, 0.156381, -0.0154623, 0.470235, -0.540477, 0.337386, -2.0817, -2.16738, -0.127709, 0.470115, -0.542595, 0.332486, -2.08149, -2.16514, -0.119836, -0.0203474, 0.07844, 0.0400087, 0.0290704, 0.0145881, 0.000470862
0.117142, 1.69426, -1.2287, -1.54186, -0.901199, -1.19729, 1.22947, -1.30264, 0.0480154, 0.00916202, -3.4648e-05, -0.0411121, -0.0938052, 0.0230308, 0.00184529, -0.357292, 67.6831, 33.9313, 7.47772, 2.32013, 3.95572, -0.0292249, -0.00292826, -3.82096e-05, 0.00454465, 0.00504245, -0.00205092, 0.00139768, 0.072385, -0.0481383, -0.0278385, -0.0833781, 0.157247, -0.0165107, 0.470215, -0.540398, 0.337426, -2.08164, -2.16742, -0.127651, 0.470115, -0.542595, 0.332486, -2.08149, -2.16514, -0.119836, -0.0206634, 0.0797287, 0.0406595, 0.0290704, 0.0145881, 0.000470862
0.118142, 1.6943, -1.2287, -1.54187, -0.901246, -1.19739, 1.22949, -1.30264, 0.0443438, 0.00704837, -0.00164435, -0.0431395, -0.0941018, 0.018194, 0.000610486, -0.468376, 67.7942, 34.0027, 7.47772, 2.32654, 3.92642, -0.00999879, -0.00300365, 4.85022e-06, 0.00457895, 0.00506593, -0.00212968, 0.00139182, 0.0748874, -0.0456437, -0.0305996, -0.0902139, 0.154015, -0.0190071, 0.470194, -0.540319, 0.337466, -2.08158, -2.16746, -0.127592, 0.470139, -0.542583, 0.33248, -2.08145, -2.16522, -0.119672, -0.0209804, 0.081024, 0.0413134, 0.026254, 0.0137306, -0.00191053
0.119142, 1.6943, -1.2287, -1.54187, -0.901246, -1.19739, 1.22949, -1.30264, 0.0443438, 0.00704837, -0.00164435, -0.0431395, -0.0941018, 0.018194, 0.000610486, -0.468376, 67.7942, 34.0027, 7.47772, 2.32654, 3.92642, -0.00999879, -0.00309074, 2.36851e-05, 0.00460661, 0.00502467, -0.00211131, 0.00143601, 0.0762876, -0.0459241, -0.0310365, -0.0907284, 0.154889, -0.0200642, 0.470173, -0.540238, 0.337508, -2.08152, -2.1675, -0.127533, 0.470139, -0.542583, 0.33248, -2.08145, -2.16522, -0.119672, -0.0212984, 0.0823259, 0.0419705, 0.026254, 0.0137306, -0.00191053
0.120142, 1.6943, -1.2287, -1.54187, -0.901246, -1.19739, 1.22949, -1.30264, 0.0443438, 0.00704837, -0.00164435, -0.0431395, -0.0941018, 0.018194, 0.000610486, -0.468376, 67.7942, 34.0027, 7.47772, 2.32654, 3.92642, -0.00999879, -0.00317923, 4.27978e-05, 0.00463471, 0.00498274, -0.00209267, 0.00148088, 0.0776948, -0.0462051, -0.0314755, -0.0912444, 0.155766, -0.0211257, 0.470152, -0.540155, 0.33755, -2.08146, -2.16755, -0.127472, 0.470139, -0.542583, 0.33248, -2.08145, -2.16522, -0.119672, -0.0216174, 0.0836343, 0.0426306, 0.026254, 0.0137306, -0.00191053
0.121142, 1.6943, -1.2287, -1.54187, -0.901246, -1.19739, 1.22949, -1.30264, 0.0443438, 0.00704837, -0.00164435, -0.0431395, -0.0941018, 0.018194, 0.000610486, -0.468376, 67.7942, 34.0027, 7.47772, 2.32654, 3.92642, -0.00999879, -0.00326912, 6.21889e-05, 0.00466324, 0.00494016, -0.00207376, 0.00152645, 0.0791088, -0.0464869, -0.0319165, -0.0917619, 0.156648, -0.0221913, 0.47013, -0.540072, 0.337592, -2.0814, -2.16759, -0.12741, 0.470139, -0.542583, 0.33248, -2.08145, -2.16522, -0.119672, -0.0219375, 0.084949, 0.0432937, 0.026254, 0.0137306, -0.00191053
0.122142, 1.6945, -1.22864, -1.54183, -0.901522, -1.19788, 1.22956, -1.30264, 0.0362709, 0.00658681, 0.00874018, -0.0543255, -0.0950274, 0.0116378, -0.0013108, -1.26183, 67.7942, 33.7052, 7.5531, 2.30182, 3.66824, 0.0431018, -0.0032833, 0.00021743, 0.00468712, 0.00518907, -0.00258147, 0.00128308, 0.0781798, -0.0452805, -0.0306401, -0.0933843, 0.154627, -0.0148352, 0.470108, -0.539987, 0.337635, -2.08134, -2.16763, -0.127348, 0.470272, -0.542501, 0.332493, -2.08126, -2.16572, -0.118843, -0.0222584, 0.08627, 0.0439598, 0.0247439, 0.0157232, 0.000197166
0.123142, 1.69453, -1.22862, -1.54183, -0.90158, -1.19798, 1.22958, -1.30264, 0.0351903, 0.00991444, 0.00796597, -0.0554938, -0.0901441, 0.0145808, -0.00109478, -1.37688, 67.7228, 33.6338, 7.51739, 2.30182, 3.62521, 0.0495105, -0.00336251, 0.000260292, 0.00471099, 0.00520322, -0.00267389, 0.00127711, 0.0789349, -0.0461086, -0.0292516, -0.0898509, 0.156403, -0.0149717, 0.470086, -0.5399, 0.337679, -2.08127, -2.16768, -0.127284, 0.470294, -0.542488, 0.3325, -2.08123, -2.16582, -0.118671, -0.0225803, 0.0875972, 0.0446288, 0.0253321, 0.0161298, 0.00209421
0.124142, 1.69456, -1.2286, -1.54182, -0.901643, -1.19808, 1.22959, -1.30264, 0.0362705, 0.0115336, 0.00659022, -0.0581877, -0.08598, 0.016522, 0.000265817, -1.56335, 67.6831, 33.5941, 7.5531, 2.28992, 3.58951, 0.0229602, -0.00344001, 0.000305813, 0.00473481, 0.00521957, -0.0027675, 0.00126542, 0.0786039, -0.0481539, -0.0294935, -0.0892463, 0.156824, -0.0132771, 0.470063, -0.539813, 0.337724, -2.08121, -2.16772, -0.127219, 0.470319, -0.542471, 0.332508, -2.08119, -2.16592, -0.118495, -0.0229031, 0.0889305, 0.0453006, 0.0270324, 0.0179169, 0.00251327
0.125142, 1.69459, -1.22858, -1.54182, -0.901713, -1.19817, 1.22961, -1.30264, 0.0342373, 0.0139257, 0.00675829, -0.0602324, -0.0878711, 0.0130524, -5.09001e-05, -1.63873, 67.7228, 33.6338, 7.59277, 2.28351, 3.56112, 0.0293689, -0.00352025, 0.000350591, 0.00476491, 0.00523923, -0.00285456, 0.00125282, 0.0800981, -0.0468889, -0.0289506, -0.0939677, 0.160035, -0.0148631, 0.47004, -0.539724, 0.337769, -2.08114, -2.16777, -0.127154, 0.470343, -0.542455, 0.332509, -2.08114, -2.16602, -0.11832, -0.0232267, 0.0902698, 0.0459753, 0.025525, 0.0176453, 0.00353299
0.126142, 1.69462, -1.22855, -1.54182, -0.901785, -1.19826, 1.22962, -1.30264, 0.0307839, 0.0210589, 0.00824489, -0.0647851, -0.0845422, 0.0149598, 0.0011598, -1.75378, 67.5363, 33.6338, 7.62848, 2.2771, 3.53915, -0.00267457, -0.00359737, 0.000397278, 0.00478378, 0.00525535, -0.00295674, 0.00124322, 0.0803042, -0.0471058, -0.0249597, -0.0909921, 0.166447, -0.0149031, 0.470017, -0.539634, 0.337815, -2.08108, -2.16781, -0.127088, 0.470368, -0.542436, 0.332523, -2.08111, -2.16613, -0.118133, -0.0235512, 0.0916151, 0.0466527, 0.0255791, 0.0181878, 0.0081124
0.127142, 1.69464, -1.22853, -1.5418, -0.90186, -1.19834, 1.22963, -1.30264, 0.025524, 0.019028, 0.010909, -0.0689049, -0.0816588, 0.0117001, 0.00104967, -1.75378, 67.6474, 33.5584, 7.70386, 2.25879, 3.5181, -0.00999879, -0.0036781, 0.000441227, 0.0048104, 0.00526387, -0.00303516, 0.00123114, 0.0815933, -0.0455954, -0.0262492, -0.0919837, 0.161361, -0.0151922, 0.469994, -0.539542, 0.337862, -2.08101, -2.16786, -0.12702, 0.470391, -0.542418, 0.33253, -2.08107, -2.16623, -0.117978, -0.0238765, 0.0929661, 0.0473329, 0.0237482, 0.0184, 0.00736775
0.128142, 1.69467, -1.2285, -1.54181, -0.901935, -1.19842, 1.22965, -1.30264, 0.0234452, 0.0225704, 0.00538616, -0.0711872, -0.0842613, 0.0137461, 0.000195053, -1.82915, 67.6831, 33.6695, 7.73956, 2.24048, 3.50345, 0.00373412, -0.00376102, 0.000484861, 0.00483651, 0.00527927, -0.00312253, 0.00122049, 0.0848439, -0.0442596, -0.0266013, -0.0972445, 0.169425, -0.0190551, 0.46997, -0.539449, 0.337909, -2.08094, -2.16791, -0.126952, 0.470413, -0.542402, 0.332537, -2.08102, -2.16633, -0.117805, -0.0242025, 0.094323, 0.0480157, 0.022201, 0.0165454, 0.00724332
0.129142, 1.69469, -1.22847, -1.5418, -0.902015, -1.1985, 1.22966, -1.30264, 0.022876, 0.0247291, 0.0032895, -0.0770601, -0.0817254, 0.011139, 0.000132961, -1.94024, 67.7585, 33.7052, 7.81494, 2.23407, 3.47507, 0.00373412, -0.00384169, 0.000531293, 0.00486082, 0.00528929, -0.00320782, 0.00120283, 0.0842821, -0.0449367, -0.0275415, -0.103194, 0.169749, -0.0157074, 0.469946, -0.539355, 0.337957, -2.08087, -2.16796, -0.126882, 0.470437, -0.542381, 0.332547, -2.08098, -2.16644, -0.11764, -0.0245292, 0.0956855, 0.0487012, 0.0224962, 0.0186376, 0.00706529
0.130142, 1.69471, -1.22844, -1.54179, -0.902096, -1.19858, 1.22968, -1.30264, 0.0208427, 0.0263047, 0.0048062, -0.0795993, -0.0804984, 0.00917001, -0.000383883, -1.97991, 67.8339, 33.7449, 7.81494, 2.24048, 3.44668, 0.0165515, -0.00392599, 0.000575415, 0.00488231, 0.00529318, -0.00329692, 0.00118931, 0.0849951, -0.044665, -0.0269523, -0.104289, 0.170306, -0.014975, 0.469921, -0.539259, 0.338006, -2.0808, -2.168, -0.126812, 0.470459, -0.542364, 0.332561, -2.08093, -2.16655, -0.117476, -0.0248567, 0.0970535, 0.0493892, 0.02195, 0.0192017, 0.00823358
0.131142, 1.69471, -1.22844, -1.54179, -0.902096, -1.19858, 1.22968, -1.30264, 0.0208427, 0.0263047, 0.0048062, -0.0795993, -0.0804984, 0.00917001, -0.000383883, -1.97991, 67.8339, 33.7449, 7.81494, 2.24048, 3.44668, 0.0165515, -0.00403031, 0.000597623, 0.00491535, 0.00524387, -0.00327525, 0.00124189, 0.086472, -0.0449517, -0.0274113, -0.10482, 0.17122, -0.0160777, 0.469896, -0.539162, 0.338055, -2.08073, -2.16805, -0.126741, 0.470459, -0.542364, 0.332561, -2.08093, -2.16655, -0.117476, -0.0251848, 0.0984271, 0.0500798, 0.02195, 0.0192017, 0.00823358
0.132142, 1.69473, -1.22838, -1.54178, -0.902271, -1.19872, 1.2297, -1.30265, 0.0140524, 0.0308936, 0.00397228, -0.0852468, -0.0697892, 0.0131098, -0.00169416, -2.13067, 68.0164, 33.8559, 7.92602, 2.22858, 3.44668, 0.0687366, -0.00409431, 0.000662978, 0.00492872, 0.00530595, -0.00345832, 0.00115261, 0.0873344, -0.0443811, -0.0255666, -0.0989139, 0.170196, -0.0145425, 0.469871, -0.539064, 0.338106, -2.08066, -2.1681, -0.126669, 0.470501, -0.542324, 0.332585, -2.08083, -2.16678, -0.117159, -0.0255136, 0.099806, 0.0507728, 0.0211581, 0.0194244, 0.0106332
0.133142, 1.69474, -1.22834, -1.54177, -0.902364, -1.19878, 1.22971, -1.30264, 0.0136294, 0.0296998, 0.00777881, -0.0891848, -0.0666691, 0.01524, -0.000891157, -2.28143, 68.1631, 33.9313, 7.9657, 2.23407, 3.42471, 0.0623279, -0.00417691, 0.000709902, 0.00495315, 0.00531322, -0.00353531, 0.00113026, 0.0867659, -0.0467508, -0.025722, -0.0947011, 0.168516, -0.010527, 0.469845, -0.538964, 0.338156, -2.08059, -2.16815, -0.126595, 0.470524, -0.5423, 0.332598, -2.08077, -2.16689, -0.117002, -0.025843, 0.10119, 0.0514683, 0.0231705, 0.0214992, 0.011187
0.134142, 1.69475, -1.22831, -1.54176, -0.902456, -1.19885, 1.22972, -1.30264, 0.0105653, 0.0241078, 0.00764189, -0.088689, -0.0643341, 0.0157191, -0.00059341, -2.3211, 68.3853, 34.0027, 7.9657, 2.24048, 3.43204, 0.0623279, -0.00426713, 0.000750331, 0.0049797, 0.00531598, -0.00360677, 0.00112062, 0.089894, -0.0456381, -0.0292638, -0.0936241, 0.162051, -0.0145603, 0.46982, -0.538862, 0.338208, -2.08052, -2.16821, -0.126521, 0.470541, -0.542282, 0.332608, -2.08072, -2.167, -0.116853, -0.026173, 0.10258, 0.0521662, 0.0217166, 0.0202949, 0.00794021
0.135142, 1.69475, -1.22828, -1.54175, -0.902557, -1.1989, 1.22974, -1.30264, 0.0100552, 0.024796, 0.010062, -0.0930396, -0.0578678, 0.0170811, -0.000395086, -2.43218, 68.5321, 33.967, 8.03711, 2.24689, 3.41739, 0.0623279, -0.00435167, 0.000797094, 0.00500178, 0.00530775, -0.00367785, 0.00109491, 0.0886255, -0.0480071, -0.0289302, -0.0897603, 0.15925, -0.00926016, 0.469793, -0.53876, 0.33826, -2.08044, -2.16826, -0.126446, 0.470564, -0.542257, 0.332624, -2.08066, -2.16712, -0.116717, -0.0265036, 0.103974, 0.0528664, 0.0237192, 0.0229967, 0.00908935
0.136142, 1.69475, -1.22824, -1.54175, -0.902658, -1.19895, 1.22975, -1.30264, 0.00877665, 0.0285202, 0.00886497, -0.0947791, -0.0582471, 0.0129896, 0.000720344, -2.50756, 68.6789, 34.1892, 8.03711, 2.2652, 3.41006, 0.0357776, -0.00444116, 0.000839629, 0.00502875, 0.00531398, -0.00374836, 0.00108264, 0.0897371, -0.0468896, -0.0281618, -0.0953881, 0.162362, -0.0120214, 0.469767, -0.538656, 0.338313, -2.08036, -2.16831, -0.12637, 0.470582, -0.542236, 0.332635, -2.0806, -2.16722, -0.116564, -0.0268347, 0.105374, 0.0535689, 0.0223478, 0.0231348, 0.0104148
0.137142, 1.69475, -1.2282, -1.54174, -0.902761, -1.199, 1.22976, -1.30265, 0.00784679, 0.0349304, 0.0084815, -0.0983684, -0.0534183, 0.0141653, -0.000740181, -2.58294, 68.6789, 34.2646, 8.0014, 2.2771, 3.41739, 0.0687366, -0.00452931, 0.000882433, 0.00504945, 0.00531172, -0.00381951, 0.00106002, 0.089253, -0.0480275, -0.0253449, -0.0940065, 0.166608, -0.00816321, 0.46974, -0.538551, 0.338366, -2.08029, -2.16836, -0.126293, 0.470601, -0.542212, 0.332653, -2.08054, -2.16734, -0.116419, -0.0271662, 0.106779, 0.0542736, 0.0232459, 0.0246394, 0.0139391
0.138142, 1.69474, -1.22816, -1.54172, -0.902871, -1.19904, 1.22977, -1.30265, 0.00319524, 0.0345914, 0.0117976, -0.102179, -0.0498266, 0.0108617, -0.000730593, -2.62261, 68.7543, 34.1892, 8.0014, 2.28992, 3.41006, 0.0751453, -0.00461492, 0.000929001, 0.00506956, 0.00529799, -0.00388272, 0.00102965, 0.0899904, -0.0469467, -0.025422, -0.0939572, 0.16259, -0.00776939, 0.469713, -0.538444, 0.338421, -2.08021, -2.16842, -0.126215, 0.470623, -0.542185, 0.332673, -2.08047, -2.16747, -0.116295, -0.0274983, 0.108188, 0.0549806, 0.0218637, 0.0252874, 0.0144907
0.139142, 1.69474, -1.22812, -1.54172, -0.902982, -1.19908, 1.22978, -1.30264, 0.00162675, 0.03431, 0.00691718, -0.107298, -0.0421377, 0.0127982, 0.00168324, -2.7337, 68.8257, 34.4153, 7.9657, 2.29541, 3.41006, 0.0165515, -0.00470428, 0.000973475, 0.00509734, 0.00530037, -0.00394272, 0.0010133, 0.0904041, -0.0478621, -0.0282617, -0.0957063, 0.158615, -0.00812419, 0.469685, -0.538336, 0.338476, -2.08013, -2.16847, -0.126136, 0.470642, -0.542159, 0.332685, -2.0804, -2.16757, -0.116155, -0.0278308, 0.109602, 0.0556897, 0.0223552, 0.0267695, 0.012302
0.140142, 1.69473, -1.22809, -1.54171, -0.9031, -1.19911, 1.22979, -1.30264, -0.00631009, 0.0330003, 0.00723355, -0.108634, -0.0419478, 0.00980605, 0.000647567, -2.69799, 68.9368, 34.4867, 7.9657, 2.32654, 3.40365, 0.0293689, -0.00479625, 0.00101546, 0.00512369, 0.00529454, -0.00400071, 0.00098937, 0.0947594, -0.0435416, -0.029438, -0.0980194, 0.156429, -0.0146499, 0.469658, -0.538226, 0.338531, -2.08005, -2.16853, -0.126055, 0.470659, -0.542134, 0.3327, -2.08033, -2.16769, -0.116024, -0.0281637, 0.111021, 0.0564009, 0.0178346, 0.0238798, 0.0113197
0.141142, 1.69471, -1.22804, -1.54169, -0.903224, -1.19914, 1.2298, -1.30264, -0.00895405, 0.0407224, 0.0113437, -0.114611, -0.0366631, 0.00707741, 0.000194445, -2.65832, 68.9368, 34.5264, 8.03711, 2.34485, 3.41006, 0.0357776, -0.00488622, 0.00105849, 0.005145, 0.00528254, -0.00405871, 0.00096092, 0.0927999, -0.044356, -0.0248469, -0.0966413, 0.159556, -0.0091531, 0.469629, -0.538115, 0.338588, -2.07997, -2.16858, -0.125974, 0.470676, -0.542107, 0.33272, -2.08025, -2.16781, -0.115901, -0.028497, 0.112445, 0.0571142, 0.0184204, 0.0265754, 0.0168424
0.142142, 1.69469, -1.228, -1.54168, -0.903341, -1.19917, 1.2298, -1.30264, -0.0122036, 0.0403003, 0.0103313, -0.11787, -0.0329306, 0.00971043, 0.000841776, -2.69799, 68.9368, 34.6018, 7.92602, 2.36957, 3.41739, 0.0165515, -0.00497842, 0.00110107, 0.00516824, 0.00527113, -0.00411098, 0.000939534, 0.0945921, -0.0442782, -0.0259931, -0.0951253, 0.158562, -0.0105082, 0.469601, -0.538002, 0.338645, -2.07989, -2.16864, -0.125892, 0.470693, -0.54208, 0.332738, -2.08018, -2.16793, -0.11578, -0.0288307, 0.113873, 0.0578295, 0.0180382, 0.0264078, 0.0161521
0.143142, 1.69468, -1.22796, -1.54167, -0.903466, -1.19919, 1.22981, -1.30264, -0.0115032, 0.0390097, 0.0128277, -0.121459, -0.0296529, 0.00757221, 0.000561236, -2.7337, 68.9725, 34.6732, 7.85065, 2.38147, 3.41006, 0.0165515, -0.00506919, 0.00114516, 0.00519412, 0.00525817, -0.00415333, 0.000909145, 0.0934849, -0.0462066, -0.0270696, -0.0957247, 0.15466, -0.00521748, 0.469572, -0.537889, 0.338703, -2.07981, -2.1687, -0.125809, 0.47071, -0.54205, 0.332755, -2.08009, -2.16804, -0.115672, -0.0291647, 0.115306, 0.0585467, 0.0195491, 0.0291855, 0.0159143
0.144142, 1.69465, -1.2279, -1.54166, -0.903595, -1.19921, 1.22982, -1.30264, -0.0160898, 0.0463454, 0.0128627, -0.122055, -0.0279137, 0.00512609, -0.000609148, -2.69799, 68.79, 34.824, 7.81494, 2.4126, 3.42471, 0.0431018, -0.00516525, 0.00118324, 0.0052117, 0.00524656, -0.00421549, 0.00088723, 0.0956085, -0.0436608, -0.0232871, -0.0965321, 0.160164, -0.00877075, 0.469543, -0.537773, 0.338761, -2.07972, -2.16875, -0.125725, 0.470722, -0.542025, 0.33278, -2.08003, -2.16816, -0.11554, -0.029499, 0.116743, 0.0592659, 0.0169067, 0.0278384, 0.0201242
0.145142, 1.69463, -1.22786, -1.54164, -0.903732, -1.19922, 1.22982, -1.30264, -0.0197175, 0.0454935, 0.0125495, -0.128333, -0.0259838, 0.00466265, -0.000134802, -2.77337, 68.8614, 34.8597, 7.77924, 2.4245, 3.40365, 0.0357776, -0.00525501, 0.00123021, 0.00523805, 0.00523232, -0.00425569, 0.000848061, 0.0966151, -0.0434073, -0.0251101, -0.0993411, 0.158903, -0.00795058, 0.469513, -0.537657, 0.338821, -2.07964, -2.16881, -0.12564, 0.470742, -0.541991, 0.332798, -2.07993, -2.16829, -0.115434, -0.0298335, 0.118184, 0.059987, 0.0162917, 0.0285549, 0.0188983
0.146142, 1.6946, -1.22781, -1.54161, -0.903877, -1.19923, 1.22982, -1.30264, -0.0247989, 0.0451335, 0.018044, -0.13188, -0.024683, 0.00427126, -0.00107319, -2.88445, 68.9368, 34.7883, 7.81494, 2.44281, 3.38168, 0.0623279, -0.00534356, 0.00127777, 0.00526226, 0.00521145, -0.00429154, 0.000798821, 0.0979646, -0.0426847, -0.0241238, -0.0957447, 0.158024, -0.00700054, 0.469484, -0.537538, 0.338881, -2.07955, -2.16887, -0.125554, 0.470762, -0.541955, 0.332819, -2.07982, -2.16843, -0.115339, -0.0301683, 0.119629, 0.0607099, 0.015331, 0.0284878, 0.0204111
0.147142, 1.69456, -1.22776, -1.5416, -0.90402, -1.19924, 1.22983, -1.30265, -0.0292621, 0.0452821, 0.0125995, -0.13283, -0.0194948, 0.00416044, -0.00119016, -2.84875, 68.8614, 34.9708, 7.77924, 2.47394, 3.3533, 0.0751453, -0.00544175, 0.00131534, 0.00528628, 0.00519778, -0.0043333, 0.000772835, 0.101295, -0.040273, -0.0263797, -0.0985088, 0.155083, -0.0124789, 0.469453, -0.537419, 0.338941, -2.07946, -2.16893, -0.125467, 0.470773, -0.541927, 0.33284, -2.07973, -2.16855, -0.115228, -0.0305034, 0.121079, 0.0614347, 0.0126347, 0.0268878, 0.018474
0.148142, 1.69452, -1.22772, -1.54158, -0.904173, -1.19924, 1.22983, -1.30265, -0.0328793, 0.0447241, 0.0163049, -0.13766, -0.0148523, 0.00351249, -0.0010647, -2.92413, 68.9368, 34.9708, 7.77924, 2.48584, 3.33865, 0.0824695, -0.00553488, 0.00135923, 0.00531367, 0.0051788, -0.00436206, 0.000729889, 0.101324, -0.0406773, -0.0264274, -0.0959911, 0.151425, -0.00976167, 0.469423, -0.537298, 0.339003, -2.07938, -2.16899, -0.125378, 0.470789, -0.541892, 0.332859, -2.07962, -2.16868, -0.115136, -0.0308386, 0.122533, 0.0621611, 0.0127073, 0.0283406, 0.0191361
0.149142, 1.69449, -1.22768, -1.54155, -0.904323, -1.19924, 1.22983, -1.30265, -0.0307489, 0.0445822, 0.0205425, -0.142524, -0.0114374, 0.00303144, -0.000947147, -3.07488, 69.0121, 34.8993, 7.70386, 2.49866, 3.324, 0.0888782, -0.00562797, 0.00140378, 0.00533918, 0.0051512, -0.0043836, 0.00068549, 0.0989084, -0.0442976, -0.0263205, -0.0942875, 0.149447, -0.00149496, 0.469392, -0.537175, 0.339065, -2.07929, -2.16905, -0.125289, 0.470805, -0.541855, 0.33288, -2.07951, -2.16881, -0.11506, -0.031174, 0.12399, 0.0628893, 0.0159011, 0.0323307, 0.0202233
0.150142, 1.69444, -1.22762, -1.54152, -0.904486, -1.19924, 1.22983, -1.30265, -0.0303199, 0.0498889, 0.0240441, -0.148532, -0.00862431, 0.00264002, 0.000114561, -3.18597, 68.8614, 34.9351, 7.73956, 2.50415, 3.31027, 0.0687366, -0.00572183, 0.00144634, 0.00535715, 0.00513052, -0.00442755, 0.000644161, 0.0966939, -0.0469292, -0.023335, -0.0932611, 0.153527, 0.00447222, 0.469361, -0.537051, 0.339128, -2.0792, -2.16911, -0.125199, 0.470819, -0.541819, 0.332909, -2.07941, -2.16895, -0.114952, -0.0315095, 0.125452, 0.0636192, 0.0182282, 0.035644, 0.0241561
0.151143, 1.69438, -1.22758, -1.54149, -0.90465, -1.19923, 1.22983, -1.30264, -0.0379525, 0.0464425, 0.027549, -0.15573, -0.00614301, 0.00238537, 0.00102581, -3.22564, 69.0121, 34.9351, 7.73956, 2.49866, 3.29562, 0.0431018, -0.0058228, 0.00148422, 0.00538627, 0.00510273, -0.00444585, 0.000611378, 0.0985869, -0.0454551, -0.0252437, -0.0923318, 0.14905, 0.00376201, 0.469329, -0.536926, 0.339191, -2.07911, -2.16918, -0.125108, 0.470828, -0.541787, 0.332927, -2.07931, -2.16907, -0.114877, -0.0318451, 0.126917, 0.0643506, 0.016425, 0.0354677, 0.0227596
0.152143, 1.69433, -1.22754, -1.54146, -0.904821, -1.19923, 1.22983, -1.30264, -0.0477759, 0.0477463, 0.029418, -0.161699, 0.000113579, 0.0021949, 0.000955148, -3.33672, 69.0121, 34.9708, 7.77924, 2.49866, 3.28097, 0.0357776, -0.00592254, 0.00152391, 0.00541177, 0.00507577, -0.00447247, 0.000571525, 0.100983, -0.0425285, -0.0246607, -0.0897213, 0.146155, 0.00115708, 0.469298, -0.536799, 0.339256, -2.07902, -2.16924, -0.125016, 0.470839, -0.541753, 0.33295, -2.07921, -2.1692, -0.114792, -0.0321808, 0.128386, 0.0650837, 0.0132895, 0.0343528, 0.0237959
0.153143, 1.69427, -1.22749, -1.54142, -0.904993, -1.19922, 1.22983, -1.30264, -0.0525688, 0.0468882, 0.0323544, -0.164235, 0.0017217, 0.00150986, 0.000636768, -3.45177, 69.0836, 34.9351, 7.73956, 2.45563, 3.28097, 0.0357776, -0.00602368, 0.00156256, 0.00543593, 0.0050417, -0.00449446, 0.000530872, 0.103016, -0.0412769, -0.0247866, -0.088093, 0.144483, -0.000235797, 0.469265, -0.53667, 0.339321, -2.07892, -2.1693, -0.124922, 0.470849, -0.541719, 0.332975, -2.0791, -2.16933, -0.114718, -0.0325166, 0.129859, 0.0658182, 0.0117846, 0.033784, 0.024135
0.154143, 1.6942, -1.22744, -1.54138, -0.905173, -1.19922, 1.22983, -1.30264, -0.0594125, 0.0465862, 0.0385015, -0.17054, 0.00142437, 0.00127887, -0.000321471, -3.56683, 69.0121, 34.8597, 7.73956, 2.44922, 3.27456, 0.0559192, -0.00612594, 0.00160014, 0.00545376, 0.00500515, -0.00452975, 0.000487327, 0.10455, -0.0401411, -0.0238205, -0.0855679, 0.145218, 0.0011777, 0.469233, -0.53654, 0.339387, -2.07883, -2.16937, -0.124828, 0.470857, -0.541686, 0.333006, -2.079, -2.16948, -0.114633, -0.0328524, 0.131335, 0.0665543, 0.010419, 0.0335495, 0.0256269
0.155143, 1.69413, -1.22739, -1.54133, -0.905358, -1.19922, 1.22983, -1.30264, -0.0646416, 0.0455276, 0.0422684, -0.177159, 0.00165715, 0.00115006, 2.30467e-05, -3.67791, 68.9725, 34.824, 7.70386, 2.43091, 3.26724, 0.0495105, -0.00622768, 0.00163875, 0.00547523, 0.00497289, -0.00455783, 0.000442271, 0.105747, -0.0396548, -0.0242632, -0.0852458, 0.145052, 0.00221481, 0.4692, -0.536409, 0.339453, -2.07873, -2.16943, -0.124733, 0.470866, -0.54165, 0.333034, -2.07888, -2.16962, -0.11455, -0.0331882, 0.132814, 0.0672918, 0.0096332, 0.0338954, 0.0257597
0.156143, 1.69405, -1.22734, -1.54129, -0.905562, -1.19921, 1.22983, -1.30265, -0.0682986, 0.0418735, 0.0442303, -0.18449, 0.00180499, 0.00183752, -0.000696711, -3.79296, 69.0479, 34.824, 7.73956, 2.4126, 3.23886, 0.0687366, -0.0063309, 0.00167794, 0.00550133, 0.00493848, -0.00458383, 0.000387801, 0.106751, -0.0400828, -0.0269805, -0.0866257, 0.143004, 0.00566531, 0.469167, -0.536276, 0.33952, -2.07864, -2.1695, -0.124636, 0.470875, -0.541614, 0.333059, -2.07876, -2.16977, -0.114471, -0.033524, 0.134297, 0.0680307, 0.00966267, 0.0348218, 0.023647
0.157143, 1.69396, -1.22729, -1.54124, -0.905765, -1.1992, 1.22983, -1.30264, -0.0751638, 0.0418563, 0.0449359, -0.194337, 0.00169459, 0.00205356, 0.000247604, -3.86834, 69.0121, 34.8597, 7.70386, 2.39978, 3.21689, 0.0495105, -0.00643695, 0.00171309, 0.00552314, 0.00490354, -0.00461289, 0.00034388, 0.108365, -0.038861, -0.0282353, -0.0900353, 0.14475, 0.00571554, 0.469133, -0.536142, 0.339588, -2.07854, -2.16956, -0.124539, 0.47088, -0.541579, 0.333088, -2.07865, -2.16991, -0.114387, -0.0338597, 0.135784, 0.0687709, 0.00812708, 0.034853, 0.0229411
0.158143, 1.69387, -1.22724, -1.54118, -0.90598, -1.1992, 1.22984, -1.30264, -0.0803078, 0.0431225, 0.0492866, -0.200941, 0.00134558, 0.00270252, 0.00138577, -3.94372, 69.0479, 34.8597, 7.66418, 2.39429, 3.18118, 0.0165515, -0.0065422, 0.00175066, 0.00554575, 0.00486669, -0.00464337, 0.000293143, 0.109398, -0.0385511, -0.0270398, -0.0886116, 0.147739, 0.00605936, 0.469099, -0.536006, 0.339657, -2.07844, -2.16963, -0.124441, 0.470887, -0.541542, 0.333117, -2.07853, -2.17007, -0.114304, -0.0341954, 0.137273, 0.0695125, 0.00757661, 0.0351283, 0.0247154
0.159143, 1.69377, -1.22719, -1.54113, -0.906206, -1.1992, 1.22984, -1.30265, -0.0849612, 0.0460197, 0.0528467, -0.208321, 0.00514961, 0.00367494, -0.00100893, -3.97942, 69.1193, 34.8597, 7.70386, 2.40619, 3.13083, 0.0687366, -0.00664982, 0.00178642, 0.00556879, 0.00482786, -0.00467528, 0.000231805, 0.109213, -0.0390448, -0.0252774, -0.0859844, 0.149237, 0.0120703, 0.469065, -0.535869, 0.339727, -2.07834, -2.1697, -0.124341, 0.470892, -0.541506, 0.333146, -2.07841, -2.17023, -0.114222, -0.0345309, 0.138766, 0.0702554, 0.00780284, 0.0365608, 0.0272113
0.160143, 1.69367, -1.22714, -1.54106, -0.906429, -1.19919, 1.22985, -1.30265, -0.0976955, 0.0489243, 0.0544407, -0.211129, 0.00291486, 0.0037786, -0.000909979, -4.0191, 69.0479, 34.8993, 7.62848, 2.43091, 3.09512, 0.0751453, -0.0067619, 0.00181702, 0.00558417, 0.00478203, -0.0047145, 0.000186411, 0.115481, -0.0327853, -0.0232437, -0.0852627, 0.154696, 0.000636716, 0.469031, -0.53573, 0.339797, -2.07824, -2.16977, -0.124241, 0.470892, -0.541474, 0.333183, -2.0783, -2.17039, -0.114137, -0.0348663, 0.140262, 0.0709994, 0.00155597, 0.0312755, 0.0292101
0.161143, 1.69356, -1.22708, -1.541, -0.906672, -1.19918, 1.22985, -1.30264, -0.103046, 0.0484541, 0.0597308, -0.220098, 0.00648448, 0.00333754, -0.000131935, -4.09447, 69.0836, 34.8993, 7.70386, 2.44281, 3.07315, 0.0623279, -0.00686941, 0.00185298, 0.00560533, 0.00473702, -0.00474368, 0.000124143, 0.114987, -0.0333269, -0.0231558, -0.0833716, 0.152359, 0.00499971, 0.468996, -0.53559, 0.339868, -2.07814, -2.16984, -0.12414, 0.470897, -0.541435, 0.333215, -2.07817, -2.17056, -0.114062, -0.0352016, 0.141761, 0.0717447, 0.00175212, 0.033275, 0.0301011
0.162143, 1.69344, -1.22703, -1.54094, -0.906914, -1.19917, 1.22985, -1.30265, -0.10587, 0.0512186, 0.0610386, -0.225783, 0.00561498, 0.00246588, -0.000325315, -4.09447, 69.1193, 35.0104, 7.73956, 2.4245, 3.06674, 0.0687366, -0.00698286, 0.00188309, 0.00562731, 0.00469781, -0.00477398, 7.18091e-05, 0.115714, -0.0332072, -0.0222899, -0.0859847, 0.156707, 0.00648841, 0.468961, -0.535448, 0.33994, -2.07804, -2.16991, -0.124037, 0.470895, -0.541401, 0.333247, -2.07805, -2.17072, -0.113978, -0.0355366, 0.143262, 0.0724911, 0.00136837, 0.033924, 0.0315962
0.163143, 1.69332, -1.22698, -1.54086, -0.907168, -1.19916, 1.22985, -1.30264, -0.108506, 0.0500902, 0.0640773, -0.231756, 0.00797407, 0.00273161, 2.04824e-05, -4.20556, 69.1589, 35.0461, 7.73956, 2.44922, 3.03744, 0.0623279, -0.00708889, 0.00192072, 0.00564627, 0.00465117, -0.00480165, 2.59751e-06, 0.115751, -0.0342106, -0.0230494, -0.0850696, 0.155026, 0.00987452, 0.468925, -0.535305, 0.340012, -2.07793, -2.16998, -0.123934, 0.470901, -0.541358, 0.333283, -2.07791, -2.17089, -0.113905, -0.0358715, 0.144767, 0.0732387, 0.0020134, 0.0355557, 0.0315555
0.164143, 1.6932, -1.22691, -1.54078, -0.907424, -1.19915, 1.22986, -1.30264, -0.115195, 0.0567579, 0.0661619, -0.244378, 0.00994311, 0.00233167, 0.000996999, -4.24523, 69.1589, 35.0858, 7.66418, 2.47394, 3.02371, 0.0357776, -0.00720008, 0.00195337, 0.00565822, 0.00459309, -0.00483773, -6.08646e-05, 0.115104, -0.0339326, -0.0203459, -0.0876479, 0.161615, 0.0136842, 0.468889, -0.53516, 0.340086, -2.07783, -2.17005, -0.123829, 0.470902, -0.541319, 0.333327, -2.07779, -2.17108, -0.113835, -0.0362061, 0.146274, 0.0739872, 0.00149106, 0.03728, 0.0350837
0.165143, 1.69306, -1.22685, -1.54069, -0.907704, -1.19913, 1.22986, -1.30264, -0.119928, 0.0585207, 0.0724663, -0.254562, 0.0121094, 0.00209846, 0.000664666, -4.16985, 69.1589, 35.1969, 7.73956, 2.48035, 3.00906, 0.0357776, -0.00730756, 0.00198763, 0.00567376, 0.00454623, -0.00487098, -0.000140909, 0.113868, -0.0351018, -0.0187675, -0.085838, 0.162839, 0.0207923, 0.468853, -0.535014, 0.34016, -2.07772, -2.17012, -0.123723, 0.470904, -0.541275, 0.333368, -2.07764, -2.17127, -0.113756, -0.0365405, 0.147784, 0.0747369, 0.00234502, 0.0398263, 0.0375435
0.166143, 1.69293, -1.2268, -1.5406, -0.907989, -1.19912, 1.22986, -1.30264, -0.122963, 0.0587513, 0.0763774, -0.259233, 0.0134331, 0.00194261, 0.00139255, -4.24523, 69.3414, 35.3437, 7.70386, 2.49225, 2.99441, 0.0101428, -0.00741459, 0.00202503, 0.00569416, 0.00449578, -0.00489422, -0.000224745, 0.11433, -0.0355181, -0.0182556, -0.0842254, 0.162982, 0.0222948, 0.468816, -0.534866, 0.340234, -2.07762, -2.17019, -0.123617, 0.470908, -0.541229, 0.333405, -2.07749, -2.17146, -0.113691, -0.0368746, 0.149297, 0.0754875, 0.0024733, 0.040827, 0.0387158
0.167143, 1.69278, -1.22673, -1.5405, -0.908279, -1.1991, 1.22986, -1.30264, -0.131025, 0.0611511, 0.0883846, -0.273361, 0.0135112, 0.00129591, 0.000928364, -4.20556, 69.3057, 35.3834, 7.70386, 2.52887, 2.99441, 0.0101428, -0.00752323, 0.00205825, 0.0057017, 0.00443164, -0.00492895, -0.000308017, 0.112531, -0.0363772, -0.0146838, -0.0800596, 0.16626, 0.0317147, 0.46878, -0.534717, 0.34031, -2.07751, -2.17026, -0.123509, 0.470909, -0.541184, 0.333455, -2.07734, -2.17167, -0.113628, -0.0372084, 0.150812, 0.076239, 0.00307626, 0.0436184, 0.0432428
0.168143, 1.69263, -1.22669, -1.5404, -0.908572, -1.19908, 1.22986, -1.30264, -0.137911, 0.0592057, 0.0925015, -0.280404, 0.0187948, 0.000593292, 0.00061891, -4.13018, 69.5636, 35.4944, 7.59277, 2.55359, 3.00174, 0.0101428, -0.00763474, 0.00209126, 0.00571972, 0.0043654, -0.00494232, -0.000389067, 0.113314, -0.035582, -0.0155655, -0.0776143, 0.160789, 0.0340009, 0.468742, -0.534566, 0.340386, -2.0774, -2.17034, -0.123401, 0.470908, -0.541139, 0.333495, -2.07719, -2.17186, -0.113587, -0.0375418, 0.15233, 0.0769914, 0.00195284, 0.0444627, 0.0430322
0.169143, 1.69249, -1.22662, -1.54029, -0.908883, -1.19906, 1.22985, -1.30263, -0.138973, 0.0607547, 0.0938196, -0.291703, 0.022736, -0.000417807, 0.000887324, -4.20556, 69.5636, 35.6809, 7.5531, 2.57831, 3.02371, -0.00267457, -0.00773807, 0.00213132, 0.00573069, 0.00430566, -0.00497243, -0.000491489, 0.110749, -0.0382378, -0.0162993, -0.0811304, 0.160506, 0.0433239, 0.468705, -0.534414, 0.340463, -2.07729, -2.17041, -0.123291, 0.470915, -0.541085, 0.333544, -2.07702, -2.17209, -0.113524, -0.0378749, 0.15385, 0.0777447, 0.0041448, 0.0487527, 0.0433652
0.170143, 1.69232, -1.22657, -1.54018, -0.909213, -1.19903, 1.22986, -1.30264, -0.149034, 0.0587891, 0.0981611, -0.300913, 0.0247499, 0.000806882, 0.000354191, -4.13018, 69.8215, 35.8674, 7.5531, 2.62775, 2.99441, 0.00373412, -0.00784551, 0.00216867, 0.00575194, 0.00424633, -0.00498893, -0.000602144, 0.113098, -0.0361638, -0.0170832, -0.078883, 0.158719, 0.043619, 0.468667, -0.53426, 0.340541, -2.07718, -2.17049, -0.12318, 0.470918, -0.541032, 0.333583, -2.07683, -2.17231, -0.113474, -0.0382076, 0.155372, 0.0784988, 0.00181309, 0.0479802, 0.0430559
0.171143, 1.69215, -1.22651, -1.54006, -0.909543, -1.19901, 1.22985, -1.30263, -0.155257, 0.0618981, 0.102156, -0.307018, 0.0212817, 0.000538184, 0.000982112, -4.0191, 69.8929, 36.0142, 7.40631, 2.68909, 2.99441, -0.0164075, -0.00795354, 0.00220309, 0.00575988, 0.00417822, -0.00501952, -0.000702161, 0.115209, -0.0344968, -0.0148978, -0.0795005, 0.165638, 0.041697, 0.468629, -0.534104, 0.340619, -2.07707, -2.17056, -0.123068, 0.470918, -0.540981, 0.333636, -2.07666, -2.17254, -0.113417, -0.0385399, 0.156897, 0.0792537, -3.19512e-07, 0.0470146, 0.0457031
0.172143, 1.69198, -1.22644, -1.53993, -0.909889, -1.19899, 1.22985, -1.30264, -0.161989, 0.0618184, 0.111924, -0.31894, 0.0225479, 0.000630254, -0.00178666, -3.94372, 69.9326, 36.1252, 7.40631, 2.77515, 2.98709, 0.0495105, -0.0080606, 0.00223877, 0.0057679, 0.00410808, -0.00505098, -0.000822078, 0.114012, -0.0355229, -0.0132768, -0.0754741, 0.165846, 0.052188, 0.46859, -0.533947, 0.340699, -2.07696, -2.17064, -0.122956, 0.47092, -0.540927, 0.33369, -2.07647, -2.17279, -0.113363, -0.0388718, 0.158424, 0.0800094, 0.000717634, 0.0495274, 0.0482092
0.173143, 1.6918, -1.22639, -1.53979, -0.910249, -1.19896, 1.22985, -1.30264, -0.169663, 0.0629873, 0.119962, -0.333782, 0.0252739, 0.000420317, -0.000445125, -3.75329, 70.1904, 36.2363, 7.40631, 2.81726, 2.98709, 0.0293689, -0.00816621, 0.00227613, 0.00578315, 0.00403512, -0.00506342, -0.00094383, 0.11229, -0.0364474, -0.0119258, -0.0736752, 0.166293, 0.0598272, 0.468551, -0.533789, 0.340779, -2.07684, -2.17071, -0.122842, 0.470922, -0.540869, 0.333738, -2.07628, -2.17303, -0.11333, -0.0392032, 0.159952, 0.0807657, 0.00130218, 0.0525974, 0.0505331
0.174143, 1.69161, -1.22632, -1.53966, -0.91062, -1.19893, 1.22985, -1.30263, -0.171144, 0.0647294, 0.121629, -0.343304, 0.0267438, 0.000280322, 0.000652686, -3.71758, 70.3015, 36.3871, 7.33093, 2.87311, 2.98709, 0.00373412, -0.00827094, 0.00231437, 0.00579388, 0.00396732, -0.00509069, -0.0010699, 0.110932, -0.0383985, -0.0120777, -0.0763677, 0.168489, 0.0656852, 0.468512, -0.533629, 0.340859, -2.07673, -2.17079, -0.122727, 0.470925, -0.540809, 0.333791, -2.07608, -2.17328, -0.113275, -0.0395341, 0.161483, 0.0815227, 0.00286534, 0.055587, 0.0512824
0.175143, 1.69142, -1.22627, -1.53953, -0.910995, -1.1989, 1.22985, -1.30263, -0.177676, 0.061773, 0.124192, -0.356117, 0.0292055, -8.43029e-05, -0.00102294, -3.60253, 70.4483, 36.4982, 7.21588, 2.89142, 2.99441, 0.0431018, -0.00837796, 0.00235101, 0.00580919, 0.00389503, -0.00510332, -0.00119987, 0.110859, -0.0385679, -0.0148906, -0.0791719, 0.165138, 0.0730861, 0.468473, -0.533468, 0.340941, -2.07661, -2.17087, -0.122611, 0.470926, -0.540749, 0.33384, -2.07587, -2.17353, -0.11324, -0.0398646, 0.163016, 0.0822803, 0.00259391, 0.057629, 0.0492681
0.176143, 1.69121, -1.22619, -1.53939, -0.911384, -1.19886, 1.22985, -1.30263, -0.188189, 0.0653416, 0.126578, -0.366322, 0.0306462, 0.000215128, -0.000919318, -3.3764, 70.3372, 36.5735, 7.18018, 2.91614, 2.98709, 0.0495105, -0.00848513, 0.00238374, 0.00581239, 0.00382397, -0.00513786, -0.00132845, 0.113031, -0.0357583, -0.0133307, -0.0796974, 0.169095, 0.0719031, 0.468433, -0.533304, 0.341023, -2.07649, -2.17095, -0.122494, 0.470924, -0.540689, 0.333901, -2.07567, -2.1738, -0.113181, -0.0401944, 0.164551, 0.0830385, -0.000378787, 0.0566536, 0.0513313
0.177143, 1.69101, -1.22613, -1.53925, -0.911772, -1.19882, 1.22985, -1.30263, -0.190025, 0.0652625, 0.131931, -0.375394, 0.0314456, -0.00432914, -0.000104252, -3.26134, 70.4483, 36.76, 7.02942, 2.95276, 2.98068, 0.0357776, -0.00859435, 0.0024181, 0.00582669, 0.00375286, -0.00515151, -0.00145733, 0.111045, -0.0372065, -0.0135395, -0.0831789, 0.167601, 0.0788662, 0.468392, -0.53314, 0.341106, -2.07637, -2.17103, -0.122376, 0.470922, -0.540629, 0.333952, -2.07546, -2.17405, -0.113141, -0.0405238, 0.166087, 0.0837972, 0.000655361, 0.0602535, 0.0521391
0.178143, 1.6908, -1.22608, -1.5391, -0.912191, -1.19879, 1.22985, -1.30263, -0.195605, 0.0631495, 0.13577, -0.389095, 0.0318937, -0.00300729, -0.000340769, -3.11059, 70.6665, 36.8354, 7.02942, 2.98938, 2.97336, 0.0431018, -0.0086986, 0.00245854, 0.00584903, 0.00368814, -0.00515983, -0.0016126, 0.110518, -0.0383922, -0.0154197, -0.0848273, 0.167632, 0.086469, 0.468352, -0.532974, 0.34119, -2.07626, -2.17111, -0.122257, 0.470925, -0.54056, 0.333997, -2.07521, -2.17432, -0.113102, -0.0408525, 0.167625, 0.0845564, 0.0014192, 0.062656, 0.0510821
0.179143, 1.69058, -1.22601, -1.53895, -0.912617, -1.19875, 1.22984, -1.30263, -0.200621, 0.0651428, 0.14006, -0.397994, 0.0328297, -0.00710792, 4.40882e-05, -2.92413, 70.7419, 36.8354, 6.95801, 3.0141, 2.97336, 0.0357776, -0.00880132, 0.00249756, 0.00586234, 0.00361373, -0.0051713, -0.00176726, 0.11004, -0.0378743, -0.0145755, -0.0880776, 0.168252, 0.0900551, 0.468311, -0.532806, 0.341275, -2.07613, -2.17119, -0.122137, 0.470927, -0.54049, 0.334051, -2.07497, -2.1746, -0.113069, -0.0411807, 0.169165, 0.0853161, 0.000597444, 0.0645183, 0.0527673
0.180143, 1.69036, -1.22594, -1.5388, -0.913051, -1.19871, 1.22984, -1.30262, -0.205038, 0.0653068, 0.142908, -0.40986, 0.0332474, -0.00563137, 0.00145355, -2.69799, 70.6308, 36.9822, 6.99371, 3.04523, 2.98068, -0.00267457, -0.00890811, 0.00253282, 0.00587422, 0.00354711, -0.00519526, -0.00191436, 0.109562, -0.0391028, -0.0152701, -0.0896145, 0.170598, 0.0950104, 0.46827, -0.532637, 0.34136, -2.07601, -2.17127, -0.122016, 0.470926, -0.540423, 0.334107, -2.07474, -2.17488, -0.113012, -0.0415082, 0.170706, 0.0860762, 0.001456, 0.0666985, 0.0528728
0.181143, 1.69014, -1.22589, -1.53864, -0.913485, -1.19866, 1.22984, -1.30263, -0.208797, 0.0589537, 0.150944, -0.418784, 0.0347432, -0.00313529, 0.000256954, -2.58294, 70.7419, 37.0179, 6.80725, 3.04523, 2.95138, 0.0165515, -0.0090144, 0.00257309, 0.0058947, 0.00347117, -0.0051979, -0.00207702, 0.10908, -0.0413953, -0.0174523, -0.0844145, 0.165545, 0.10365, 0.468228, -0.532466, 0.341446, -2.07589, -2.17135, -0.121894, 0.470928, -0.540352, 0.334156, -2.07449, -2.17517, -0.112989, -0.0418351, 0.172249, 0.0868367, 0.0033152, 0.0691597, 0.0514729
0.182143, 1.6899, -1.22583, -1.53846, -0.913934, -1.19862, 1.22984, -1.30262, -0.214049, 0.0621682, 0.161205, -0.43834, 0.039905, -0.00165989, 0.00139201, -2.3568, 70.6665, 36.8711, 6.69617, 3.05713, 2.93033, -0.0164075, -0.0091193, 0.00261047, 0.00590208, 0.00338239, -0.00521216, -0.00223692, 0.103925, -0.045636, -0.0147306, -0.080527, 0.167322, 0.119851, 0.468187, -0.532294, 0.341533, -2.07577, -2.17143, -0.121771, 0.470928, -0.540281, 0.334218, -2.07425, -2.17546, -0.112966, -0.0421613, 0.173793, 0.0875976, 0.00712819, 0.0755877, 0.0555634
0.183143, 1.68967, -1.22578, -1.53831, -0.914396, -1.19857, 1.22984, -1.30262, -0.218664, 0.055715, 0.158387, -0.442573, 0.0439241, -0.000554979, 0.000928004, -2.24175, 70.8173, 37.0179, 6.54541, 3.06354, 2.90835, -0.0164075, -0.00922547, 0.00265199, 0.00593063, 0.00331548, -0.00520887, -0.00241005, 0.106834, -0.044518, -0.0202926, -0.0825382, 0.15955, 0.118455, 0.468144, -0.53212, 0.34162, -2.07564, -2.17152, -0.121646, 0.470931, -0.540205, 0.33426, -2.07397, -2.17575, -0.112938, -0.0424869, 0.175339, 0.0883587, 0.00558444, 0.0750532, 0.0504255
0.184143, 1.68943, -1.22572, -1.53813, -0.914869, -1.19853, 1.22984, -1.30262, -0.225416, 0.0586223, 0.160406, -0.445875, 0.0465774, 0.000484533, 0.000618669, -2.13067, 70.7776, 36.9822, 6.43433, 3.08185, 2.87997, -0.0164075, -0.00932972, 0.00269262, 0.00594655, 0.00323762, -0.00521942, -0.00259032, 0.109364, -0.0424793, -0.0184187, -0.079547, 0.161787, 0.115594, 0.468102, -0.531945, 0.341709, -2.07552, -2.1716, -0.121521, 0.470933, -0.540129, 0.334315, -2.0737, -2.17607, -0.112907, -0.0428117, 0.176886, 0.0891202, 0.003417, 0.0737248, 0.052722
0.185143, 1.68918, -1.22566, -1.53797, -0.915346, -1.19848, 1.22984, -1.30261, -0.233668, 0.0591589, 0.162235, -0.459521, 0.0482641, 0.0012267, 0.00112452, -2.01562, 70.6665, 36.9465, 6.35895, 3.10657, 2.85159, -0.0356336, -0.00943967, 0.00272819, 0.00596258, 0.00315986, -0.00523239, -0.00275579, 0.109899, -0.0417583, -0.0193842, -0.082266, 0.163195, 0.119153, 0.468059, -0.531768, 0.341798, -2.07539, -2.17169, -0.121395, 0.47093, -0.540056, 0.33437, -2.07345, -2.17636, -0.112871, -0.0431357, 0.178434, 0.0898818, 0.00236363, 0.0748589, 0.0524738
0.186143, 1.68892, -1.22561, -1.53781, -0.915832, -1.19842, 1.22984, -1.30261, -0.242344, 0.0542181, 0.163268, -0.467246, 0.0502195, 0.00124972, 3.76051e-05, -1.94024, 70.7776, 37.0575, 6.09711, 3.11206, 2.83694, -0.0164075, -0.00955076, 0.00276426, 0.00599368, 0.00309552, -0.00522293, -0.00293195, 0.112924, -0.039348, -0.0230587, -0.0837215, 0.158053, 0.11854, 0.468016, -0.53159, 0.341888, -2.07526, -2.17177, -0.121268, 0.470927, -0.539981, 0.334411, -2.07316, -2.17666, -0.112843, -0.043459, 0.179984, 0.0906437, -0.000383971, 0.0738645, 0.0492293
0.187143, 1.68866, -1.22555, -1.53763, -0.916332, -1.19837, 1.22984, -1.30262, -0.251326, 0.0591946, 0.170275, -0.480944, 0.0521749, 0.00153008, 0.00252727, -1.86486, 70.6665, 36.9068, 6.09711, 3.10657, 2.81589, 0.0431018, -0.00965853, 0.00280145, 0.00600932, 0.00301218, -0.00523043, -0.0031212, 0.112181, -0.0389827, -0.0195844, -0.0817671, 0.163162, 0.121889, 0.467972, -0.53141, 0.341978, -2.07513, -2.17186, -0.121139, 0.470925, -0.539903, 0.334469, -2.07288, -2.17698, -0.11282, -0.0437815, 0.181534, 0.0914057, -0.000948018, 0.0756099, 0.0535498
