alisrour97/Franka_experiments/Real_Robot_scripts/servo-franka/Data/log_dyn_INIT0_12.csv
Time,q1,q2,q3,q4,q5,q6,q7,dq1,dq2,dq3,dq4,dq5,dq6,dq7,t1,t2,t3,t4,t5,t6,t7,ex1,ex2,ex3,ex4,ex5,ex6,ev1,ev2,ev3,ev4,ev5,ev6,xd,yd,zd,uxd,uyd,uzd,x,y,z,ux,uy,uz,vxd,vyd,vzd,vx,vy,vz
4.88281e-07, 1.6915, -1.22523, -1.53762, -0.899993, -1.19191, 1.22866, -1.30265, -0.00277127, -0.00100336, -0.0110567, 0.000259744, -0.000683866, 0.000630886, -0.00515687, -1.0357, 57.3721, 27.306, 6.43433, 2.03174, 2.77926, -0.0878186, 0.00106117, -0.00143227, -0.000262762, -0.000232928, -0.000925679, -0.000260256, 0.00394553, 0.00349923, -0.00427585, -0.00896481, 0.000507722, -0.00334532, 0.471008, -0.543389, 0.335894, -2.08385, -2.16584, -0.129887, 0.469557, -0.542433, 0.336371, -2.08417, -2.16676, -0.129257, 1.77043e-06, 3.2e-05, 1.02972e-05, -0.0035062, -0.0033482, -0.00471867
0.0122117, 1.6915, -1.22526, -1.5377, -0.899991, -1.19191, 1.22866, -1.30266, 0.00361487, -0.00189056, -0.00605749, 0.000648812, -0.00349444, 0.000855907, -0.00194416, -0.996025, 57.4078, 27.3774, 6.39465, 2.06195, 2.81589, -0.101552, 0.00104137, -0.00144485, -0.000217099, -0.000159151, -0.000905475, -0.000228475, 0.000878589, -0.000613361, -0.0032903, -0.00658056, 0.00189434, 0.000891116, 0.471008, -0.543389, 0.335894, -2.08385, -2.16584, -0.129887, 0.469536, -0.542454, 0.336313, -2.08416, -2.16666, -0.129168, 1.77746e-06, 6.40623e-05, 1.89552e-05, 0.000526996, -0.000271791, -0.0033848
0.0132117, 1.6915, -1.22526, -1.5377, -0.899991, -1.19191, 1.22866, -1.30266, 0.00361487, -0.00189056, -0.00605749, 0.000648812, -0.00349444, 0.000855907, -0.00194416, -0.996025, 57.4078, 27.3774, 6.39465, 2.06195, 2.81589, -0.101552, 0.00104136, -0.00144485, -0.000217098, -0.000159154, -0.000905478, -0.000228473, 0.000914845, -0.000612212, -0.00329426, -0.00657593, 0.00192088, 0.000893758, 0.471008, -0.543389, 0.335894, -2.08385, -2.16584, -0.129887, 0.469536, -0.542454, 0.336313, -2.08416, -2.16666, -0.129168, 1.77167e-06, 9.92934e-05, 2.84561e-05, 0.000526996, -0.000271791, -0.0033848
0.0142117, 1.6915, -1.22526, -1.5377, -0.899991, -1.19191, 1.22866, -1.30266, 0.00361487, -0.00189056, -0.00605749, 0.000648812, -0.00349444, 0.000855907, -0.00194416, -0.996025, 57.4078, 27.3774, 6.39465, 2.06195, 2.81589, -0.101552, 0.00104134, -0.00144485, -0.000217096, -0.000159162, -0.000905488, -0.000228468, 0.00095449, -0.000610969, -0.00329857, -0.00657085, 0.00194988, 0.000896649, 0.471008, -0.543389, 0.335894, -2.08385, -2.16584, -0.129887, 0.469536, -0.542454, 0.336313, -2.08416, -2.16666, -0.129168, 1.75167e-06, 0.000137819, 3.88327e-05, 0.000526996, -0.000271791, -0.0033848
0.0152117, 1.6915, -1.22526, -1.5377, -0.899991, -1.19191, 1.22866, -1.30266, 0.00361487, -0.00189056, -0.00605749, 0.000648812, -0.00349444, 0.000855907, -0.00194416, -0.996025, 57.4078, 27.3774, 6.39465, 2.06195, 2.81589, -0.101552, 0.0010413, -0.00144485, -0.000217092, -0.000159177, -0.000905507, -0.000228458, 0.000997651, -0.000609629, -0.00330326, -0.00656528, 0.00198145, 0.000899799, 0.471008, -0.543389, 0.335894, -2.08385, -2.16584, -0.129887, 0.469536, -0.542454, 0.336313, -2.08416, -2.16666, -0.129168, 1.716e-06, 0.000179762, 5.01169e-05, 0.000526996, -0.000271791, -0.0033848
0.0162117, 1.6915, -1.22526, -1.5377, -0.899991, -1.19191, 1.22866, -1.30266, 0.00361487, -0.00189056, -0.00605749, 0.000648812, -0.00349444, 0.000855907, -0.00194416, -0.996025, 57.4078, 27.3774, 6.39465, 2.06195, 2.81589, -0.101552, 0.00104124, -0.00144485, -0.000217085, -0.000159203, -0.000905539, -0.000228442, 0.00104445, -0.000608189, -0.00330833, -0.00655922, 0.00201566, 0.000903218, 0.471008, -0.543389, 0.335894, -2.08385, -2.16584, -0.129887, 0.469536, -0.542454, 0.336313, -2.08416, -2.16666, -0.129168, 1.66317e-06, 0.000225248, 6.23407e-05, 0.000526996, -0.000271791, -0.0033848
0.0172117, 1.6915, -1.22526, -1.5377, -0.899991, -1.19191, 1.22866, -1.30266, 0.00361487, -0.00189056, -0.00605749, 0.000648812, -0.00349444, 0.000855907, -0.00194416, -0.996025, 57.4078, 27.3774, 6.39465, 2.06195, 2.81589, -0.101552, 0.00104114, -0.00144486, -0.000217074, -0.000159242, -0.000905585, -0.000228419, 0.00109503, -0.000606647, -0.00331379, -0.00655263, 0.00205262, 0.000906915, 0.471008, -0.543389, 0.335894, -2.08385, -2.16584, -0.129887, 0.469536, -0.542454, 0.336313, -2.08416, -2.16666, -0.129168, 1.59159e-06, 0.000274397, 7.55354e-05, 0.000526996, -0.000271791, -0.0033848
0.0182117, 1.6915, -1.22526, -1.5377, -0.899991, -1.19191, 1.22866, -1.30266, 0.00361487, -0.00189056, -0.00605749, 0.000648812, -0.00349444, 0.000855907, -0.00194416, -0.996025, 57.4078, 27.3774, 6.39465, 2.06195, 2.81589, -0.101552, 0.00104101, -0.00144486, -0.000217059, -0.000159295, -0.000905651, -0.000228386, 0.00114949, -0.000605002, -0.00331966, -0.0065455, 0.0020924, 0.000910899, 0.471008, -0.543389, 0.335894, -2.08385, -2.16584, -0.129887, 0.469536, -0.542454, 0.336313, -2.08416, -2.16666, -0.129168, 1.49965e-06, 0.00032733, 8.9732e-05, 0.000526996, -0.000271791, -0.0033848
0.0192119, 1.6915, -1.22526, -1.5377, -0.899991, -1.19191, 1.22866, -1.30266, 0.00361487, -0.00189056, -0.00605749, 0.000648812, -0.00349444, 0.000855907, -0.00194416, -0.996025, 57.4078, 27.3774, 6.39465, 2.06195, 2.81589, -0.101552, 0.00104083, -0.00144487, -0.00021704, -0.000159367, -0.000905737, -0.000228342, 0.00120797, -0.00060325, -0.00332594, -0.00653782, 0.0021351, 0.000915179, 0.471008, -0.543389, 0.335894, -2.08385, -2.16584, -0.129887, 0.469536, -0.542454, 0.336313, -2.08416, -2.16666, -0.129168, 1.38564e-06, 0.000384166, 0.000104961, 0.000526996, -0.000271791, -0.0033848
0.0202119, 1.6915, -1.22526, -1.5377, -0.899991, -1.19191, 1.22866, -1.30266, 0.00361487, -0.00189056, -0.00605749, 0.000648812, -0.00349444, 0.000855907, -0.00194416, -0.996025, 57.4078, 27.3774, 6.39465, 2.06195, 2.81589, -0.101552, 0.0010406, -0.00144487, -0.000217015, -0.000159458, -0.000905849, -0.000228286, 0.00127058, -0.000601389, -0.00333265, -0.00652956, 0.0021808, 0.000919764, 0.471008, -0.543389, 0.335894, -2.08385, -2.16584, -0.129887, 0.469536, -0.542454, 0.336313, -2.08416, -2.16666, -0.129168, 1.24785e-06, 0.00044502, 0.000121252, 0.000526996, -0.000271791, -0.0033848
0.0212119, 1.6915, -1.22526, -1.5377, -0.899991, -1.19191, 1.22866, -1.30266, 0.00361487, -0.00189056, -0.00605749, 0.000648812, -0.00349444, 0.000855907, -0.00194416, -0.996025, 57.4078, 27.3774, 6.39465, 2.06195, 2.81589, -0.101552, 0.00104032, -0.00144488, -0.000216983, -0.000159572, -0.000905987, -0.000228216, 0.00133744, -0.000599418, -0.00333981, -0.0065207, 0.00222958, 0.000924664, 0.471008, -0.543388, 0.335894, -2.08385, -2.16584, -0.129887, 0.469536, -0.542454, 0.336313, -2.08416, -2.16666, -0.129168, 1.08446e-06, 0.000510009, 0.000138634, 0.000526996, -0.000271791, -0.0033848
0.0222119, 1.6915, -1.22526, -1.5377, -0.899991, -1.19191, 1.22866, -1.30266, 0.00361487, -0.00189056, -0.00605749, 0.000648812, -0.00349444, 0.000855907, -0.00194416, -0.996025, 57.4078, 27.3774, 6.39465, 2.06195, 2.81589, -0.101552, 0.00103997, -0.00144489, -0.000216945, -0.000159712, -0.000906157, -0.000228131, 0.00140867, -0.000597334, -0.00334742, -0.00651123, 0.00228154, 0.000929887, 0.471008, -0.543388, 0.335894, -2.08385, -2.16584, -0.129887, 0.469536, -0.542454, 0.336313, -2.08416, -2.16666, -0.129168, 8.93621e-07, 0.000579243, 0.000157137, 0.000526996, -0.000271791, -0.0033848
0.0232119, 1.6915, -1.22527, -1.53779, -0.899994, -1.19191, 1.22866, -1.30266, 6.54376e-05, -0.000939601, -0.00852416, 0.000241169, 0.000240427, -0.00047089, 0.000715053, -1.0357, 57.4475, 27.4528, 6.43433, 2.01984, 2.82962, -0.147328, 0.00102306, -0.00145778, -0.000177481, -7.91945e-05, -0.000896484, -0.000191464, 0.00248652, 0.00157772, -0.00365863, -0.00763537, -0.000341265, -0.0048236, 0.471008, -0.543388, 0.335894, -2.08384, -2.16584, -0.129887, 0.469522, -0.542465, 0.336272, -2.08415, -2.16658, -0.129085, 6.73433e-07, 0.000652833, 0.000176787, -0.00161817, -0.00130337, -0.00377419
0.0242119, 1.6915, -1.22528, -1.53779, -0.899996, -1.19191, 1.22867, -1.30266, 2.91917e-05, -0.00248758, -0.00553459, 0.000161139, -0.000290052, 0.000471167, -0.00145734, -1.0357, 57.5189, 27.417, 6.43433, 2.03174, 2.80856, -0.0951428, 0.00102103, -0.00145774, -0.000173372, -7.63683e-05, -0.00089614, -0.000193544, 0.00228613, 0.000916904, -0.00344237, -0.00460272, -0.00111226, -0.00132137, 0.471008, -0.543387, 0.335894, -2.08384, -2.16584, -0.129887, 0.469522, -0.542465, 0.336268, -2.08415, -2.16658, -0.129082, 4.21933e-07, 0.000730885, 0.000197611, -0.000957811, -0.00103374, -0.00352864
0.0252119, 1.6915, -1.22528, -1.5378, -0.899999, -1.19191, 1.22867, -1.30266, -0.000919384, -0.0054363, -0.00645119, -0.000727522, -0.00353376, 0.000318011, -0.000260433, -0.996025, 57.4078, 27.3774, 6.47003, 1.99512, 2.80856, -0.114369, 0.00101766, -0.00146019, -0.000166649, -6.68914e-05, -0.000892131, -0.000185824, 0.00362822, 0.00175346, -0.0055938, -0.00755696, -0.00129906, -0.00415088, 0.471008, -0.543387, 0.335895, -2.08384, -2.16584, -0.129887, 0.469519, -0.542467, 0.336261, -2.08415, -2.16657, -0.129075, 1.37109e-07, 0.000813505, 0.000219637, -0.00182324, -0.00197915, -0.00581406
0.0262119, 1.6915, -1.22529, -1.53782, -0.899996, -1.19191, 1.22866, -1.30266, 0.0017117, -0.0086246, -0.0135328, 0.00211364, -0.00442069, 0.00303587, 0.00866777, -0.960319, 57.1896, 27.3417, 6.35895, 1.91546, 2.85892, -0.101552, 0.00101259, -0.00146346, -0.000157344, -5.05927e-05, -0.000887693, -0.000173816, 0.00563213, 0.00170284, -0.00948947, -0.0111, -0.00205369, -0.0166143, 0.471008, -0.543386, 0.335895, -2.08384, -2.16584, -0.129887, 0.469516, -0.54247, 0.336251, -2.08415, -2.16654, -0.12906, -1.83099e-07, 0.000900793, 0.00024289, -0.00184198, -0.00326851, -0.00995001
0.0272119, 1.69151, -1.22529, -1.53783, -0.899999, -1.19192, 1.22866, -1.30266, 0.00316228, -0.00322742, -0.0140372, -0.000869736, -0.0106426, -0.000228259, 0.00509632, -1.0357, 56.8921, 27.2306, 6.32324, 1.84772, 2.93033, -0.0621838, 0.0010146, -0.00145889, -0.00015225, -3.63475e-05, -0.000892599, -0.000184261, 0.00468017, 0.0017096, -0.00728716, -0.0184589, 0.00721297, -0.0114195, 0.471008, -0.543385, 0.335895, -2.08384, -2.16584, -0.129887, 0.46952, -0.542467, 0.336247, -2.08413, -2.16655, -0.12904, -5.40806e-07, 0.000992849, 0.000267393, -0.00180363, -0.0025759, -0.00760296
0.0282119, 1.69151, -1.22529, -1.53784, -0.899998, -1.19193, 1.22866, -1.30267, 0.00380141, -0.00685438, -0.0115372, 0.000924011, -0.0160804, 0.00190293, 0.00153804, -0.960319, 56.781, 27.1195, 6.24786, 1.79828, 3.00906, 0.00373412, 0.00100876, -0.00146227, -0.000145925, -2.5635e-05, -0.000894576, -0.000181726, 0.00615045, 0.00147204, -0.00813656, -0.0164891, 0.00887778, -0.00934939, 0.471008, -0.543384, 0.335895, -2.08384, -2.16584, -0.129887, 0.469517, -0.542471, 0.33624, -2.08413, -2.16655, -0.129026, -9.38169e-07, 0.00108977, 0.000293171, -0.00154487, -0.00379003, -0.00865123
0.0292119, 1.69151, -1.22531, -1.53784, -0.900004, -1.19194, 1.22867, -1.30266, 0.00244922, -0.00691252, -0.00858691, 0.000421455, -0.0160403, 0.000285532, 0.00122443, -0.809562, 56.8207, 26.9687, 6.24786, 1.76807, 3.05209, 0.0101428, 0.00100483, -0.00146268, -0.000138332, -2.21714e-05, -0.000892496, -0.000178009, 0.00592056, 0.00189347, -0.00727713, -0.0153189, 0.00787634, -0.00848788, 0.471008, -0.543383, 0.335895, -2.08384, -2.16584, -0.129887, 0.469516, -0.542473, 0.336232, -2.08413, -2.16654, -0.129024, -1.3774e-06, 0.00119164, 0.000320246, -0.00194339, -0.00361073, -0.00772716
0.0302119, 1.69151, -1.22531, -1.53784, -0.900004, -1.19194, 1.22867, -1.30266, 0.00244922, -0.00691252, -0.00858691, 0.000421455, -0.0160403, 0.000285532, 0.00122443, -0.809562, 56.8207, 26.9687, 6.24786, 1.76807, 3.05209, 0.0101428, 0.00100377, -0.00146272, -0.000138216, -2.25992e-05, -0.000893015, -0.00017775, 0.00603054, 0.00189651, -0.00728869, -0.0153039, 0.00795636, -0.00847979, 0.471008, -0.543382, 0.335896, -2.08384, -2.16584, -0.129887, 0.469516, -0.542473, 0.336232, -2.08413, -2.16654, -0.129024, -1.86074e-06, 0.00129855, 0.00034864, -0.00194339, -0.00361073, -0.00772716
0.0312119, 1.69152, -1.22532, -1.53786, -0.900011, -1.19196, 1.22869, -1.30265, 0.00142124, -0.00766899, -0.00955352, -0.000328738, -0.0137944, 0.00983086, 0.00311021, -0.658806, 57.0389, 27.0084, 6.24786, 1.74884, 3.03012, -0.0685925, 0.000995533, -0.00145893, -0.000125423, -7.11969e-06, -0.000918131, -0.000164495, 0.00720128, 0.000466241, -0.00729704, -0.00705031, 0.0102648, -0.0104102, 0.471008, -0.543381, 0.335896, -2.08384, -2.16584, -0.129887, 0.46952, -0.542477, 0.336218, -2.08415, -2.16653, -0.12898, -2.39049e-06, 0.00141058, 0.000378373, -0.000473942, -0.00459469, -0.00793047
0.0322119, 1.69152, -1.22533, -1.53786, -0.900015, -1.19198, 1.2287, -1.30266, 0.00103349, -0.00689956, -0.00820546, -0.00113645, -0.0157515, 0.0138724, 0.00178288, -0.508049, 57.2253, 27.0441, 6.28357, 1.76166, 2.98709, -0.0557752, 0.000988047, -0.00145869, -0.000118453, -5.72862e-06, -0.000930103, -0.000162306, 0.00770721, -0.000234888, -0.00611551, -0.00351502, 0.0146923, -0.00876883, 0.471008, -0.54338, 0.335896, -2.08384, -2.16584, -0.129887, 0.46952, -0.542483, 0.336211, -2.08416, -2.16654, -0.128967, -2.969e-06, 0.00152782, 0.000409465, 0.000286446, -0.0051301, -0.00683236
0.0332119, 1.69152, -1.22534, -1.53786, -0.900018, -1.192, 1.22871, -1.30266, 0.00664526, -0.00821676, -0.00538601, -0.00174721, -0.0171729, 0.015023, 0.000105969, -0.468376, 57.3721, 27.0084, 6.32324, 1.77356, 2.98709, -0.0228162, 0.000986349, -0.00145339, -0.000114281, -7.26545e-06, -0.000939616, -0.000169413, 0.00509815, -0.00408554, -0.0061815, -0.00196511, 0.0152448, -0.000101684, 0.471008, -0.543379, 0.335897, -2.08384, -2.16584, -0.129888, 0.469525, -0.542482, 0.336206, -2.08415, -2.16655, -0.128959, -3.59863e-06, 0.00165034, 0.000441934, 0.00403582, -0.00226412, -0.00657618
0.0342119, 1.69152, -1.22533, -1.53787, -0.90002, -1.19202, 1.22872, -1.30265, 0.00512695, -0.00478016, -0.00758754, -0.00121098, -0.0221569, 0.0145661, 0.00163227, -0.317619, 57.3364, 27.1552, 6.32324, 1.76807, 3.02371, -0.0621838, 0.000978182, -0.00145542, -0.000114348, 2.73537e-07, -0.000968637, -0.000153225, 0.00713325, -0.00201667, -0.00484267, -0.0058114, 0.0226694, -0.0063799, 0.471008, -0.543377, 0.335897, -2.08384, -2.16584, -0.129888, 0.469524, -0.542489, 0.336206, -2.08418, -2.16655, -0.12892, -4.2818e-06, 0.00177822, 0.000475796, 0.00209004, -0.00443608, -0.00547382
0.0352119, 1.69153, -1.22533, -1.53787, -0.900021, -1.19204, 1.22873, -1.30266, 0.0036206, -0.00328992, -0.00724399, -0.000841944, -0.0208787, 0.0135604, 0.000657231, -0.281914, 57.3364, 27.2306, 6.32324, 1.75525, 3.08047, -0.0484509, 0.000975102, -0.00145148, -0.000111735, 7.07109e-06, -0.000988073, -0.000155285, 0.00747713, -0.00107875, -0.00381838, -0.00523865, 0.02261, -0.00663651, 0.471008, -0.543375, 0.335898, -2.08384, -2.16584, -0.129888, 0.469528, -0.542489, 0.336203, -2.08418, -2.16656, -0.128893, -5.02096e-06, 0.00191151, 0.000511068, 0.00120186, -0.00483832, -0.00445225
0.0362119, 1.69154, -1.22533, -1.53787, -0.900013, -1.19206, 1.22874, -1.30266, 0.00772432, -0.00134263, 0.0011948, 0.00210399, -0.0244587, 0.00931967, -0.00119901, -0.206535, 57.2968, 27.2306, 6.20819, 1.73694, 3.10977, -0.00267457, 0.000969736, -0.00144923, -0.000116635, 1.20482e-06, -0.00101524, -0.000154098, 0.00499155, -0.00298692, 0.000121515, -0.00226881, 0.0248069, -0.000466446, 0.471008, -0.543374, 0.335898, -2.08383, -2.16584, -0.129888, 0.46953, -0.542494, 0.336207, -2.0842, -2.16657, -0.128872, -5.81861e-06, 0.00205028, 0.000547764, 0.00316013, -0.00277405, -0.000196964
0.0372119, 1.69155, -1.22533, -1.53787, -0.900016, -1.19208, 1.22876, -1.30266, 0.00764408, -0.000953107, 0.000252125, 0.000455164, -0.0267914, 0.00591403, -0.000755649, -0.131157, 57.2968, 27.2663, 6.24786, 1.70581, 3.14548, -0.00267457, 0.000966468, -0.00144375, -0.000116427, 3.67268e-06, -0.00104322, -0.000156815, 0.00495409, -0.00224826, -0.000523599, -0.00785769, 0.025733, -0.000780389, 0.471008, -0.543372, 0.335899, -2.08383, -2.16584, -0.129888, 0.469536, -0.542495, 0.336207, -2.08421, -2.16659, -0.128841, -6.67726e-06, 0.00219459, 0.000585897, 0.00239693, -0.00252368, -0.000767763
0.0382119, 1.69156, -1.22533, -1.53788, -0.900015, -1.1921, 1.22877, -1.30266, 0.00970737, -0.00244216, -0.00137704, 0.00121685, -0.0287872, 0.00830476, 0.00122442, -0.0161054, 57.3721, 27.3417, 6.20819, 1.68201, 3.17386, -0.0484509, 0.000959011, -0.001441, -0.000112957, 8.46578e-06, -0.00107036, -0.000146101, 0.00554333, -0.00318516, -0.00178295, -0.00819063, 0.0272784, -0.00280558, 0.471008, -0.54337, 0.335899, -2.08383, -2.16584, -0.129888, 0.469539, -0.542499, 0.336203, -2.08423, -2.16659, -0.128808, -7.59945e-06, 0.00234449, 0.000625478, 0.0033073, -0.00272333, -0.00209139
0.0392119, 1.69157, -1.22533, -1.53788, -0.900018, -1.19213, 1.22879, -1.30266, 0.0115593, -0.00166074, -0.000754447, 0.000800281, -0.0305783, 0.00986091, 0.00111213, 0.0949785, 57.3721, 27.3417, 6.20819, 1.66919, 3.20956, -0.0557752, 0.000955085, -0.00143511, -0.000113332, 1.04921e-05, -0.00110252, -0.000147904, 0.00506891, -0.00449113, -0.00113777, -0.00752471, 0.0304615, -0.000801803, 0.471008, -0.543367, 0.3359, -2.08383, -2.16584, -0.129888, 0.469545, -0.542501, 0.336203, -2.08424, -2.16661, -0.128773, -8.58778e-06, 0.00250002, 0.000666519, 0.00461693, -0.00214529, -0.00137902
0.0402122, 1.69157, -1.22534, -1.53788, -0.900017, -1.19216, 1.2288, -1.30266, 0.007014, -0.00196686, -0.000380278, 0.00136052, -0.0314887, 0.0107712, 0.00377254, 0.325081, 57.4078, 27.3417, 6.17248, 1.64447, 3.25259, -0.00999879, 0.000947161, -0.00143314, -0.000111688, 9.68471e-06, -0.00112775, -0.000146971, 0.00764549, -0.00194703, -0.0008041, -0.00586147, 0.031262, -0.0085479, 0.471008, -0.543365, 0.3359, -2.08383, -2.16584, -0.129889, 0.469547, -0.542506, 0.336201, -2.08425, -2.16662, -0.128749, -9.64483e-06, 0.00266124, 0.000709027, 0.00217925, -0.00468322, -0.00133027
0.0412122, 1.69158, -1.22534, -1.53788, -0.900016, -1.19219, 1.22882, -1.30266, 0.00971345, -0.00225762, -0.000996722, 0.00266409, -0.0327274, 0.011488, 0.00315855, 0.436165, 57.4475, 27.3774, 6.09711, 1.63257, 3.29562, -0.0164075, 0.000940856, -0.00142729, -0.000109519, 1.1687e-05, -0.00115991, -0.000145368, 0.00748065, -0.00305457, -0.00110847, -0.00615113, 0.0324722, -0.00710304, 0.471008, -0.543362, 0.335901, -2.08383, -2.16584, -0.129889, 0.469553, -0.542509, 0.336198, -2.08427, -2.16664, -0.128714, -1.07732e-05, 0.00282817, 0.000753011, 0.00326736, -0.00426138, -0.00159464
0.0422122, 1.69159, -1.22535, -1.53788, -0.900015, -1.19222, 1.22884, -1.30265, 0.00906682, -0.0040245, -0.00059547, 0.00260666, -0.029652, 0.0129634, 0.00359712, 0.6623, 57.5546, 27.3774, 6.0614, 1.63898, 3.31759, -0.0484509, 0.00093222, -0.00142266, -0.000106262, 7.85643e-06, -0.00118917, -0.00013469, 0.00755788, -0.00341882, -0.00186639, -0.00313515, 0.0290113, -0.00685942, 0.471008, -0.54336, 0.335902, -2.08382, -2.16584, -0.129889, 0.469558, -0.542514, 0.336194, -2.0843, -2.16665, -0.128687, -1.19756e-05, 0.00300084, 0.000798475, 0.00360533, -0.00403337, -0.00232054
0.0432122, 1.6916, -1.22535, -1.53788, -0.900015, -1.19225, 1.22886, -1.30265, 0.0118575, -0.00362135, 0.00132521, 0.00266232, -0.0314856, 0.0144198, 0.00191447, 0.888436, 57.5943, 27.306, 6.02173, 1.63257, 3.324, -0.0292249, 0.000923408, -0.00141848, -0.00010785, -2.21338e-06, -0.00122488, -0.000131531, 0.00659328, -0.00535732, -0.000978029, -0.00139056, 0.0317225, -0.002152, 0.471008, -0.543357, 0.335903, -2.08382, -2.16584, -0.129889, 0.469562, -0.54252, 0.336195, -2.08432, -2.16667, -0.128662, -1.32547e-05, 0.00317929, 0.000845424, 0.00553762, -0.00296006, -0.00130514
0.0442122, 1.69161, -1.22535, -1.53788, -0.900011, -1.19229, 1.22889, -1.30265, 0.0135016, -0.00409241, 8.70773e-05, 0.00344272, -0.0324953, 0.0165069, 0.00192238, 1.00349, 57.6657, 27.3417, 5.95032, 1.62067, 3.30295, -0.0420422, 0.000915769, -0.00140976, -0.000106451, -8.66758e-06, -0.0012632, -0.000129125, 0.0070038, -0.00615985, -0.00150668, -0.00102342, 0.0333105, -0.00213057, 0.471008, -0.543354, 0.335903, -2.08382, -2.16584, -0.129889, 0.469571, -0.542524, 0.336193, -2.08434, -2.16669, -0.128631, -1.46131e-05, 0.00336352, 0.000893861, 0.00633335, -0.00306688, -0.00186663
0.0452122, 1.69163, -1.22536, -1.53789, -0.900002, -1.19232, 1.22892, -1.30265, 0.0116424, -0.00533254, -0.00334651, 0.00581967, -0.0383078, 0.0171409, 0.000935385, 1.11457, 57.7768, 27.4885, 5.79956, 1.61426, 3.30295, -0.0292249, 0.00090376, -0.00140393, -0.000100844, -8.98212e-06, -0.00130112, -0.000120507, 0.010781, -0.003462, -0.00298612, -0.00483734, 0.0372471, -0.00862681, 0.471008, -0.54335, 0.335904, -2.08382, -2.16584, -0.12989, 0.469577, -0.542531, 0.336186, -2.08437, -2.1667, -0.128592, -1.60536e-05, 0.00355356, 0.000943786, 0.00371922, -0.00648842, -0.00378248
0.0462122, 1.69165, -1.22536, -1.53789, -0.900008, -1.19236, 1.22894, -1.30265, 0.0108964, -0.0043946, -0.00137395, 0.0030431, -0.0428616, 0.0163873, 0.00143205, 1.18995, 57.8125, 27.4528, 5.83527, 1.61426, 3.33865, -0.0484509, 0.000900181, -0.00139164, -9.9601e-05, -8.62258e-06, -0.00134467, -0.000125752, 0.0108123, -0.00333779, -0.00216803, -0.0069864, 0.0417787, -0.00800923, 0.471008, -0.543347, 0.335905, -2.08381, -2.16583, -0.12989, 0.46959, -0.54253, 0.336185, -2.08438, -2.16673, -0.128548, -1.75788e-05, 0.0037494, 0.000995199, 0.00362431, -0.00645454, -0.00292442
0.0472122, 1.69166, -1.22537, -1.53789, -0.899991, -1.1924, 1.22897, -1.30265, 0.0116643, -0.00386102, -0.000899591, 0.00805977, -0.0413074, 0.0152563, 0.00153562, 1.34071, 57.8522, 27.4528, 5.57739, 1.60785, 3.38901, -0.0621838, 0.000887278, -0.00138682, -0.000101255, -2.04385e-05, -0.00138642, -0.000112132, 0.0115906, -0.0026843, -0.00115105, -0.00448891, 0.0401791, -0.0109888, 0.471008, -0.543343, 0.335906, -2.08381, -2.16583, -0.12989, 0.469595, -0.542539, 0.336186, -2.08442, -2.16674, -0.128518, -1.91915e-05, 0.00395105, 0.0010481, 0.00303462, -0.00720454, -0.00196846
0.0482122, 1.69168, -1.22537, -1.53789, -0.899984, -1.19244, 1.22899, -1.30265, 0.0169397, -0.00257646, -0.000587445, 0.00630037, -0.040784, 0.0184436, -0.000142742, 1.41608, 57.8522, 27.4528, 5.53772, 1.61426, 3.46042, -0.0292249, 0.00088111, -0.00137636, -0.00010245, -2.24406e-05, -0.0014313, -0.000118483, 0.00897847, -0.00670537, -0.000548993, -0.00271713, 0.0430546, -0.0022389, 0.471008, -0.543339, 0.335907, -2.08381, -2.16583, -0.129891, 0.469606, -0.542541, 0.336187, -2.08444, -2.16677, -0.128475, -2.08943e-05, 0.0041585, 0.00110247, 0.00697712, -0.00434642, -0.00103541
0.0492122, 1.6917, -1.22537, -1.53789, -0.899981, -1.19248, 1.22902, -1.30265, 0.0169052, -0.00171948, -0.000382418, 0.00730771, -0.0395855, 0.026753, -0.00151256, 1.53114, 57.8522, 27.4528, 5.53772, 1.60144, 3.49612, 0.0101428, 0.000874275, -0.00136578, -0.000103614, -2.58044e-05, -0.00147902, -0.000122447, 0.0100129, -0.00813074, 0.00087905, 0.00582995, 0.0470914, -0.00127638, 0.471008, -0.543335, 0.335908, -2.08381, -2.16583, -0.129891, 0.469616, -0.542544, 0.336188, -2.08446, -2.16681, -0.128431, -2.269e-05, 0.00437173, 0.00115833, 0.00848744, -0.00531585, 0.000226951
0.0502122, 1.69172, -1.22536, -1.5379, -0.899972, -1.19252, 1.22905, -1.30265, 0.0169362, 0.000615539, -0.00284649, 0.0077288, -0.0382707, 0.0251112, 0.000954903, 1.64619, 57.7768, 27.5638, 5.42664, 1.57764, 3.49612, -0.0420422, 0.000863958, -0.00135645, -0.000106463, -3.15076e-05, -0.00153531, -0.000109908, 0.0102092, -0.0074212, 0.00126642, 0.00328695, 0.0478163, -0.0048509, 0.471008, -0.543331, 0.335909, -2.0838, -2.16583, -0.129891, 0.469626, -0.54255, 0.33619, -2.0845, -2.16683, -0.12838, -2.45814e-05, 0.00459073, 0.00121564, 0.00779794, -0.00537932, 0.000657652
0.0512122, 1.69174, -1.22537, -1.5379, -0.899964, -1.19256, 1.22908, -1.30265, 0.0174092, -0.00218913, -0.00189248, 0.0102288, -0.0387587, 0.0288944, 0.000896834, 1.75727, 57.8879, 27.5638, 5.35126, 1.58954, 3.48239, -0.0484509, 0.000851639, -0.00134722, -0.000103012, -3.85855e-05, -0.00158205, -0.000103653, 0.0115296, -0.00797801, 0.00059064, 0.00809757, 0.0471916, -0.00614864, 0.471008, -0.543326, 0.335911, -2.0838, -2.16583, -0.129892, 0.469636, -0.542556, 0.336185, -2.08453, -2.16685, -0.12834, -2.6571e-05, 0.00481547, 0.00127442, 0.00837488, -0.00633127, -0.000172636
0.0522122, 1.69175, -1.22537, -1.5379, -0.899961, -1.19261, 1.22911, -1.30265, 0.0187335, -0.0014602, -0.00218579, 0.00722456, -0.043311, 0.0315567, -0.000334392, 1.9477, 57.8879, 27.6035, 5.35126, 1.59595, 3.47507, -0.0228162, 0.000838977, -0.00134103, -0.000104753, -4.29519e-05, -0.00163772, -9.86678e-05, 0.0114565, -0.00929646, 0.000640521, 0.00649704, 0.0534576, -0.0026406, 0.471008, -0.543321, 0.335912, -2.0838, -2.16583, -0.129892, 0.469642, -0.542564, 0.336186, -2.08456, -2.16687, -0.128288, -2.86617e-05, 0.00504591, 0.00133464, 0.00968873, -0.00598236, -9.16208e-05
0.0532122, 1.69177, -1.22537, -1.5379, -0.899956, -1.19265, 1.22915, -1.30265, 0.0176712, -0.000974045, -0.00228949, 0.00512039, -0.0424314, 0.0337131, -0.00068478, 2.09846, 57.8879, 27.6392, 5.35126, 1.60785, 3.46042, -0.00999879, 0.0008265, -0.00133139, -0.000105426, -5.37027e-05, -0.0016938, -9.50392e-05, 0.011572, -0.0096314, 0.000819039, 0.00792979, 0.0546239, -0.00123984, 0.471008, -0.543316, 0.335913, -2.08379, -2.16583, -0.129892, 0.469652, -0.542571, 0.336186, -2.0846, -2.16691, -0.128243, -3.0856e-05, 0.00528201, 0.00139628, 0.0100316, -0.00587411, 0.000118211
0.0542122, 1.69179, -1.22538, -1.5379, -0.899951, -1.1927, 1.22918, -1.30264, 0.0177111, -0.00324826, -0.00152414, 0.00447683, -0.0414352, 0.034489, 0.000739924, 2.20954, 57.999, 27.6392, 5.31555, 1.61426, 3.46774, -0.0420422, 0.000815392, -0.00131997, -0.000102412, -6.1096e-05, -0.00174344, -8.80133e-05, 0.0115527, -0.0102218, -0.00029318, 0.00927293, 0.0521138, -0.00129942, 0.471008, -0.543311, 0.335915, -2.08379, -2.16583, -0.129893, 0.469664, -0.542576, 0.336182, -2.08463, -2.16693, -0.1282, -3.31567e-05, 0.00552372, 0.00145934, 0.0105781, -0.00541786, -0.000931801
0.0552122, 1.69181, -1.22538, -1.53791, -0.899948, -1.19275, 1.22921, -1.30264, 0.0176607, -0.00300105, -0.00184967, 0.00408358, -0.04587, 0.0349821, 0.000737879, 2.32459, 58.0347, 27.6749, 5.27588, 1.63257, 3.47507, -0.0484509, 0.000802431, -0.00131088, -0.000100977, -6.33331e-05, -0.00180094, -8.13012e-05, 0.0126857, -0.00980489, -0.000295156, 0.00723167, 0.0564743, -0.00263059, 0.471008, -0.543305, 0.335916, -2.08378, -2.16583, -0.129893, 0.469673, -0.542582, 0.33618, -2.08466, -2.16695, -0.128144, -3.55665e-05, 0.00577098, 0.0015238, 0.0101998, -0.00630591, -0.00103266
0.0562122, 1.69183, -1.22538, -1.5379, -0.899945, -1.1928, 1.22925, -1.30265, 0.0185705, -0.00200094, 0.000438549, 0.00368586, -0.0485595, 0.0298571, -0.00143543, 2.39997, 58.0347, 27.6035, 5.24017, 1.63257, 3.50345, 0.00373412, 0.000793081, -0.00129773, -0.000104001, -7.27803e-05, -0.00186234, -9.03718e-05, 0.01185, -0.00954209, 0.000523689, 0.00331596, 0.0572411, 0.000988281, 0.471008, -0.5433, 0.335918, -2.08378, -2.16583, -0.129894, 0.469687, -0.542586, 0.336183, -2.08469, -2.167, -0.128094, -3.8088e-05, 0.00602372, 0.00158964, 0.00993454, -0.00536492, -2.06832e-05
0.0572122, 1.69185, -1.22538, -1.5379, -0.899943, -1.19285, 1.22928, -1.30264, 0.0142371, 0.000336289, 0.000293288, 0.00348145, -0.044933, 0.030531, 3.04597e-05, 2.55073, 57.9633, 27.6035, 5.2005, 1.61426, 3.53915, -0.0228162, 0.000780071, -0.00128922, -0.000108768, -8.05485e-05, -0.00192837, -8.2003e-05, 0.0131388, -0.00761387, 0.0020774, 0.00627161, 0.0570218, -0.00345044, 0.471008, -0.543294, 0.335919, -2.08378, -2.16583, -0.129894, 0.469696, -0.542593, 0.336187, -2.08473, -2.16703, -0.128035, -4.07237e-05, 0.00628188, 0.00165682, 0.00810845, -0.00669726, 0.00143869
0.0582122, 1.69188, -1.22538, -1.5379, -0.89994, -1.1929, 1.22931, -1.30264, 0.0185475, 0.000224055, 0.00195946, 0.00322833, -0.0470506, 0.0325714, 0.00124406, 2.51106, 57.9633, 27.5281, 5.16479, 1.58954, 3.53915, -0.0557752, 0.000772956, -0.00127217, -0.000110622, -9.15064e-05, -0.00198779, -8.86587e-05, 0.0117131, -0.0105126, 0.00249418, 0.00776336, 0.0598925, -6.86114e-05, 0.471008, -0.543287, 0.335921, -2.08377, -2.16582, -0.129894, 0.469713, -0.542593, 0.336189, -2.08475, -2.16707, -0.127988, -4.34763e-05, 0.00654537, 0.00172534, 0.0109648, -0.00497177, 0.00205256
0.0592122, 1.6919, -1.22538, -1.5379, -0.899938, -1.19295, 1.22935, -1.30264, 0.0190165, -0.00301372, -0.000456416, 0.00220633, -0.0496187, 0.02868, 0.000560398, 2.58643, 57.9633, 27.6035, 5.16479, 1.58954, 3.5538, -0.0484509, 0.000760308, -0.00126051, -0.000109889, -9.35066e-05, -0.00205195, -8.80723e-05, 0.0123955, -0.00963216, -0.000799511, 0.000285707, 0.057307, 2.3578e-05, 0.471008, -0.543281, 0.335923, -2.08377, -2.16582, -0.129895, 0.469725, -0.542599, 0.336187, -2.08478, -2.16711, -0.127926, -4.63483e-05, 0.0068141, 0.00179515, 0.00998797, -0.00490561, -0.0012093
0.0602122, 1.69192, -1.22538, -1.53791, -0.89994, -1.19301, 1.22939, -1.30264, 0.0182855, -0.000509566, -0.00113911, 0.000676251, -0.0517022, 0.0307376, 0.000137957, 2.70148, 57.8879, 27.6392, 5.2005, 1.59595, 3.56112, -0.0420422, 0.000747032, -0.00125016, -0.000112559, -9.63797e-05, -0.00212358, -8.65225e-05, 0.013077, -0.00953423, 0.000410801, 0.000144943, 0.0628866, 1.74192e-05, 0.471008, -0.543274, 0.335924, -2.08376, -2.16582, -0.129895, 0.469736, -0.542605, 0.336189, -2.08482, -2.16715, -0.127857, -4.93422e-05, 0.00708797, 0.00186624, 0.00995532, -0.00549485, -4.60475e-05
0.0612122, 1.69194, -1.22538, -1.53791, -0.899929, -1.19306, 1.22943, -1.30265, 0.0206764, -0.00230069, 7.61058e-05, 0.00618893, -0.0478255, 0.0330777, 0.00361086, 2.70148, 57.9633, 27.6035, 5.08942, 1.58313, 3.54648, -0.00999879, 0.000732804, -0.00123743, -0.000112988, -0.000112397, -0.00218322, -8.65941e-05, 0.0133287, -0.0107479, 0.000606424, 0.00719565, 0.0587978, -0.00397867, 0.471007, -0.543267, 0.335926, -2.08376, -2.16582, -0.129896, 0.46975, -0.542611, 0.336189, -2.08485, -2.16719, -0.127814, -5.24605e-05, 0.00736687, 0.00193857, 0.0111804, -0.00544489, 0.00014366
0.0622122, 1.69197, -1.22538, -1.53791, -0.899929, -1.19312, 1.22946, -1.30264, 0.0253454, -0.00251732, 5.0956e-05, 0.00440788, -0.0498698, 0.0384222, 0.00252897, 2.70148, 57.999, 27.6035, 5.08942, 1.58313, 3.5538, -0.00267457, 0.000721047, -0.00122325, -0.000114021, -0.000118349, -0.00225157, -8.75937e-05, 0.0120028, -0.0145068, 0.000421314, 0.00932675, 0.063409, 0.00260812, 0.471007, -0.543259, 0.335928, -2.08375, -2.16582, -0.129897, 0.469764, -0.542615, 0.33619, -2.08488, -2.16723, -0.127752, -5.57056e-05, 0.00765073, 0.00201212, 0.014877, -0.00366954, 0.000126778
0.0632122, 1.69199, -1.22538, -1.5379, -0.899921, -1.19317, 1.2295, -1.30264, 0.0256775, -0.000954228, 0.00179737, 0.00491327, -0.0518609, 0.0379463, 0.00343879, 2.70148, 57.9633, 27.5281, 5.01404, 1.58954, 3.56112, -0.0420422, 0.000707121, -0.00121085, -0.00011885, -0.000131933, -0.00232199, -8.29224e-05, 0.0121321, -0.014541, 0.00194177, 0.00987994, 0.0664275, 0.0017532, 0.471007, -0.543252, 0.33593, -2.08374, -2.16582, -0.129897, 0.469777, -0.542622, 0.336194, -2.08493, -2.16727, -0.127696, -5.90798e-05, 0.00793954, 0.00208689, 0.0149675, -0.0037411, 0.00168165
0.0642122, 1.69201, -1.22538, -1.53791, -0.899923, -1.19323, 1.22955, -1.30264, 0.0249124, -0.00375467, 0.000363154, 0.00167086, -0.0528815, 0.0434755, 0.00302221, 2.73719, 57.9633, 27.5638, 5.08942, 1.58313, 3.53915, -0.0557752, 0.000692765, -0.00119715, -0.00011851, -0.000138574, -0.00239484, -7.99031e-05, 0.0131551, -0.0155259, -0.000161832, 0.0113459, 0.0677815, 0.00329899, 0.471007, -0.543244, 0.335932, -2.08374, -2.16582, -0.129898, 0.469791, -0.542627, 0.336193, -2.08496, -2.16731, -0.12763, -6.25855e-05, 0.00823327, 0.00216285, 0.0159082, -0.00409297, -0.000508154
0.0652122, 1.69204, -1.22538, -1.53791, -0.89992, -1.19329, 1.22959, -1.30264, 0.0273288, -0.00105537, 0.000242195, 0.00123285, -0.0543259, 0.041962, 0.000959903, 2.77686, 57.8879, 27.5638, 5.08942, 1.60144, 3.53915, -0.0228162, 0.000677209, -0.00118552, -0.000123158, -0.000144874, -0.00247539, -8.19838e-05, 0.0121537, -0.0164639, 0.00103096, 0.0089433, 0.0712465, 0.00756582, 0.471007, -0.543236, 0.335935, -2.08373, -2.16581, -0.129898, 0.469803, -0.542635, 0.336197, -2.085, -2.16735, -0.127556, -6.6225e-05, 0.00853189, 0.00224002, 0.0168487, -0.00295098, 0.000873848
0.0662122, 1.69206, -1.22538, -1.53791, -0.899915, -1.19335, 1.22962, -1.30264, 0.0278113, -0.000940199, 0.000161532, 0.000911101, -0.0535323, 0.0408632, 0.000526924, 2.73719, 57.8879, 27.5638, 5.08942, 1.56482, 3.53915, -0.0164075, 0.000662985, -0.00117168, -0.000122963, -0.000152902, -0.00254188, -8.01095e-05, 0.0118899, -0.0166726, 0.000872988, 0.00811791, 0.0704412, 0.00900648, 0.471007, -0.543227, 0.335937, -2.08373, -2.16581, -0.129899, 0.469818, -0.542639, 0.336197, -2.08504, -2.16739, -0.127498, -7.00005e-05, 0.00883538, 0.00231837, 0.0170381, -0.00235415, 0.000830773
0.0672122, 1.69209, -1.22537, -1.5379, -0.899916, -1.1934, 1.22966, -1.30264, 0.0264431, 0.000958974, 0.00187098, -0.00108893, -0.0497346, 0.0397807, 0.00139398, 2.77686, 57.8125, 27.4885, 5.16479, 1.56482, 3.53915, -0.0420422, 0.000651177, -0.00115686, -0.000129488, -0.000163174, -0.0026199, -8.20692e-05, 0.0108185, -0.016841, 0.00226164, 0.00991033, 0.0689395, 0.0106265, 0.471007, -0.543218, 0.335939, -2.08372, -2.16581, -0.1299, 0.469833, -0.542643, 0.336203, -2.08507, -2.16744, -0.127431, -7.39143e-05, 0.00914373, 0.0023979, 0.0172144, -0.00119501, 0.00244265
0.0682122, 1.69211, -1.22537, -1.53791, -0.899908, -1.19346, 1.2297, -1.30264, 0.0270768, 0.00217665, 0.00124736, 0.00416885, -0.0511703, 0.0386508, 0.000999264, 2.73719, 57.7411, 27.4885, 5.08942, 1.55292, 3.5538, -0.0420422, 0.000634958, -0.00114393, -0.000133025, -0.000172198, -0.00269661, -7.72202e-05, 0.012598, -0.0155147, 0.00332376, 0.0102682, 0.0705978, 0.0062668, 0.471007, -0.543209, 0.335941, -2.08371, -2.16581, -0.1299, 0.469847, -0.54265, 0.336206, -2.08511, -2.16748, -0.127363, -7.79688e-05, 0.0094569, 0.0024786, 0.0159878, -0.0028564, 0.00333571
0.0692122, 1.69213, -1.22537, -1.5379, -0.899907, -1.19353, 1.22974, -1.30264, 0.0215014, 0.00135128, 0.00426527, 0.00214563, -0.0524682, 0.0380611, 0.0039263, 2.81654, 57.7411, 27.3417, 5.12909, 1.54651, 3.56112, -0.00267457, 0.000618919, -0.00113187, -0.000137566, -0.00018526, -0.00277256, -8.10586e-05, 0.0144466, -0.0131231, 0.00383931, 0.0116731, 0.0705957, 0.000661349, 0.471007, -0.5432, 0.335944, -2.08371, -2.16581, -0.129901, 0.469859, -0.542656, 0.33621, -2.08515, -2.16753, -0.127302, -8.21662e-05, 0.00977487, 0.00256046, 0.01368, -0.00454076, 0.00371167
0.0702122, 1.69217, -1.22537, -1.5379, -0.899904, -1.19359, 1.22978, -1.30264, 0.0283045, 0.0016612, 0.00284354, 0.00165123, -0.0580906, 0.0387722, 0.00331695, 2.70148, 57.7054, 27.3417, 5.12909, 1.54651, 3.53915, -0.00999879, 0.00060608, -0.00111468, -0.000139144, -0.000187389, -0.00285125, -8.57922e-05, 0.0130613, -0.0162871, 0.00312502, 0.00722744, 0.0764417, 0.00587639, 0.471007, -0.54319, 0.335947, -2.0837, -2.16581, -0.129902, 0.469877, -0.542659, 0.336212, -2.08518, -2.16758, -0.127225, -8.65087e-05, 0.0100976, 0.00264348, 0.0167601, -0.00261073, 0.00320884
0.0712122, 1.69217, -1.22537, -1.5379, -0.899904, -1.19359, 1.22978, -1.30264, 0.0283045, 0.0016612, 0.00284354, 0.00165123, -0.0580906, 0.0387722, 0.00331695, 2.70148, 57.7054, 27.3417, 5.12909, 1.54651, 3.53915, -0.00999879, 0.000595701, -0.00111492, -0.000138084, -0.000191593, -0.00285635, -8.33625e-05, 0.0133978, -0.0162806, 0.00309266, 0.00727989, 0.0766835, 0.00590153, 0.471007, -0.54318, 0.335949, -2.08369, -2.1658, -0.129903, 0.469877, -0.542659, 0.336212, -2.08518, -2.16758, -0.127225, -9.09987e-05, 0.0104251, 0.00272764, 0.0167601, -0.00261073, 0.00320884
0.0722122, 1.69222, -1.22536, -1.5379, -0.899898, -1.19373, 1.22986, -1.30263, 0.0248574, 0.0038759, 0.00126382, 0.000968494, -0.0658524, 0.034587, 0.00311591, 2.66181, 57.5546, 27.3417, 5.12909, 1.55292, 3.50345, -0.0484509, 0.000573368, -0.00108766, -0.000147856, -0.000193915, -0.00302257, -7.46467e-05, 0.0162876, -0.0125356, 0.00352549, -0.000903239, 0.0834846, -7.87846e-05, 0.471007, -0.543169, 0.335952, -2.08368, -2.1658, -0.129903, 0.469905, -0.542671, 0.33622, -2.08527, -2.16766, -0.127059, -9.56382e-05, 0.0107574, 0.00281294, 0.0131345, -0.00535133, 0.00338573
0.073217, 1.69225, -1.22536, -1.5379, -0.899889, -1.1938, 1.22989, -1.30264, 0.0255003, 0.00255235, 0.000842555, 0.00476881, -0.0689719, 0.0357309, 0.000325122, 2.62611, 57.5546, 27.3417, 5.08942, 1.57123, 3.48971, 0.00373412, 0.000553528, -0.00107553, -0.000149668, -0.000197068, -0.00310731, -7.28748e-05, 0.0184252, -0.0118483, 0.00316365, -8.27686e-05, 0.0852479, -0.00117565, 0.471007, -0.543159, 0.335955, -2.08368, -2.1658, -0.129904, 0.469918, -0.542679, 0.336221, -2.08531, -2.16771, -0.126977, -0.00010043, 0.0110943, 0.00289937, 0.0125068, -0.00709711, 0.0028035
0.074217, 1.69228, -1.22535, -1.5379, -0.899886, -1.19388, 1.22993, -1.30264, 0.0270009, 0.00511155, 0.00056171, 0.00350757, -0.0712727, 0.0365007, 0.0010982, 2.55073, 57.4078, 27.3417, 5.08942, 1.58954, 3.47507, -0.0164075, 0.00053812, -0.00106012, -0.000156575, -0.000196582, -0.00320223, -7.19014e-05, 0.0180836, -0.0127519, 0.00435111, -0.00128643, 0.0904905, -0.000283158, 0.471006, -0.543147, 0.335958, -2.08367, -2.1658, -0.129905, 0.469934, -0.542684, 0.336228, -2.08535, -2.16776, -0.126881, -0.000105375, 0.011436, 0.00298692, 0.0134351, -0.006564, 0.00408916
0.075217, 1.69231, -1.22535, -1.5379, -0.899885, -1.19395, 1.22997, -1.30264, 0.0295035, 0.000791478, 0.000374479, 0.00165663, -0.072815, 0.0376715, -0.000149605, 2.55073, 57.5189, 27.3417, 5.12909, 1.61426, 3.44668, 0.0101428, 0.000518454, -0.00104587, -0.000152982, -0.000195365, -0.0032847, -7.36203e-05, 0.0176566, -0.0146508, 0.00142901, -0.00272156, 0.0885361, 0.00455589, 0.471006, -0.543136, 0.335961, -2.08366, -2.1658, -0.129906, 0.469949, -0.542691, 0.336224, -2.08538, -2.1678, -0.126797, -0.000110477, 0.0117823, 0.00307558, 0.0152054, -0.00526823, 0.00130128
0.076217, 1.69231, -1.22535, -1.5379, -0.899885, -1.19395, 1.22997, -1.30264, 0.0295035, 0.000791478, 0.000374479, 0.00165663, -0.072815, 0.0376715, -0.000149605, 2.55073, 57.5189, 27.3417, 5.12909, 1.61426, 3.44668, 0.0101428, 0.000506344, -0.00104615, -0.000151756, -0.000200274, -0.00329066, -7.07992e-05, 0.0180172, -0.0146444, 0.0013948, -0.00266441, 0.0887947, 0.00458282, 0.471006, -0.543124, 0.335964, -2.08365, -2.16579, -0.129907, 0.469949, -0.542691, 0.336224, -2.08538, -2.1678, -0.126797, -0.000115737, 0.0121332, 0.00316535, 0.0152054, -0.00526823, 0.00130128
0.077217, 1.69231, -1.22535, -1.5379, -0.899885, -1.19395, 1.22997, -1.30264, 0.0295035, 0.000791478, 0.000374479, 0.00165663, -0.072815, 0.0376715, -0.000149605, 2.55073, 57.5189, 27.3417, 5.12909, 1.61426, 3.44668, 0.0101428, 0.000493874, -0.00104643, -0.000150495, -0.00020533, -0.0032968, -6.78972e-05, 0.0183826, -0.0146379, 0.00136024, -0.00260632, 0.0890565, 0.00461012, 0.471006, -0.543112, 0.335967, -2.08364, -2.16579, -0.129908, 0.469949, -0.542691, 0.336224, -2.08538, -2.1678, -0.126797, -0.000121158, 0.0124888, 0.00325621, 0.0152054, -0.00526823, 0.00130128
0.078217, 1.69231, -1.22535, -1.5379, -0.899885, -1.19395, 1.22997, -1.30264, 0.0295035, 0.000791478, 0.000374479, 0.00165663, -0.072815, 0.0376715, -0.000149605, 2.55073, 57.5189, 27.3417, 5.12909, 1.61426, 3.44668, 0.0101428, 0.000481038, -0.00104672, -0.000149199, -0.000210535, -0.00330313, -6.49134e-05, 0.0187527, -0.0146314, 0.00132533, -0.00254728, 0.0893217, 0.00463778, 0.471006, -0.5431, 0.33597, -2.08363, -2.16579, -0.129909, 0.469949, -0.542691, 0.336224, -2.08538, -2.1678, -0.126797, -0.000126741, 0.012849, 0.00334816, 0.0152054, -0.00526823, 0.00130128
0.079217, 1.69241, -1.22534, -1.5379, -0.899864, -1.19419, 1.23008, -1.30264, 0.0370463, 0.00508138, -0.00176256, 0.00584081, -0.0769127, 0.0438367, -0.000389142, 2.3603, 57.2253, 27.2663, 5.08942, 1.63257, 3.42471, -0.00999879, 0.000450115, -0.00100051, -0.000166399, -0.000199818, -0.00358025, -6.27994e-05, 0.018499, -0.0181354, 0.00379007, 0.000290922, 0.10027, 0.00623439, 0.471006, -0.543087, 0.335973, -2.08362, -2.16579, -0.129909, 0.469997, -0.542709, 0.336238, -2.08551, -2.16795, -0.126504, -0.00013249, 0.0132137, 0.00344119, 0.0187794, -0.00488905, 0.00376123
0.080217, 1.69248, -1.22533, -1.53789, -0.899854, -1.19436, 1.23016, -1.30263, 0.0351935, 0.00401367, 0.00153427, 0.00629925, -0.0791894, 0.0373438, 0.000991569, 2.20954, 57.15, 27.1552, 5.2005, 1.62067, 3.42471, -0.0356336, 0.000426827, -0.00096783, -0.000175785, -0.000191236, -0.00376621, -6.23365e-05, 0.0190272, -0.0161418, 0.00388764, -0.00304874, 0.0978218, 0.00348705, 0.471006, -0.543074, 0.335977, -2.08361, -2.16578, -0.12991, 0.47003, -0.542719, 0.336246, -2.08559, -2.16805, -0.126307, -0.000138406, 0.013583, 0.0035353, 0.016805, -0.00513787, 0.00392971
0.081217, 1.69252, -1.22532, -1.53789, -0.899845, -1.19444, 1.23019, -1.30263, 0.0362133, 0.00527107, 0.00174656, 0.00572219, -0.0787723, 0.0369051, 0.00115385, 2.17384, 57.0389, 27.1195, 5.16479, 1.63257, 3.43936, -0.0484509, 0.000405002, -0.000954588, -0.000181934, -0.000187604, -0.00387014, -5.57839e-05, 0.0184931, -0.0168181, 0.00449483, -0.00331034, 0.0988595, 0.00508807, 0.471006, -0.54306, 0.33598, -2.0836, -2.16578, -0.129911, 0.470044, -0.542727, 0.336252, -2.08564, -2.1681, -0.126198, -0.00014449, 0.0139569, 0.00363046, 0.0174773, -0.00430248, 0.00468672
0.082217, 1.69255, -1.22532, -1.5379, -0.899838, -1.19453, 1.23023, -1.30264, 0.0330768, 0.00351168, 0.000245526, 0.00349517, -0.0824239, 0.0368742, -0.0016247, 2.17384, 57.0389, 27.1552, 5.2005, 1.62616, 3.44668, 0.0165515, 0.000381829, -0.000941012, -0.000181812, -0.000179377, -0.00396889, -5.39757e-05, 0.0208164, -0.0149015, 0.0027506, -0.00701412, 0.100563, 0.00483642, 0.471006, -0.543046, 0.335984, -2.08359, -2.16578, -0.129913, 0.470059, -0.542736, 0.336251, -2.08568, -2.16815, -0.126089, -0.000150747, 0.0143352, 0.00372669, 0.015577, -0.00602759, 0.00275749
0.083217, 1.69259, -1.22531, -1.5379, -0.899829, -1.19463, 1.23027, -1.30263, 0.0357792, 0.00577301, 0.000100963, 0.00588853, -0.0814775, 0.0421237, -0.000598247, 2.09846, 56.8921, 27.1552, 5.2005, 1.65088, 3.43936, 0.00373412, 0.000360548, -0.000924567, -0.000189024, -0.00017484, -0.00408252, -4.81721e-05, 0.0208876, -0.0168764, 0.0046477, -0.00115622, 0.104798, 0.00463328, 0.471005, -0.543032, 0.335988, -2.08358, -2.16578, -0.129914, 0.470076, -0.542743, 0.336258, -2.08573, -2.1682, -0.125969, -0.000157176, 0.014718, 0.00382396, 0.0176143, -0.00592625, 0.00465688
0.084217, 1.69262, -1.22531, -1.53789, -0.899827, -1.19472, 1.23031, -1.30263, 0.0327708, 0.00384734, 0.00178351, 0.00178876, -0.0894557, 0.0411585, 0.00106686, 2.09846, 56.8921, 27.0798, 5.31555, 1.65088, 3.43204, -0.0356336, 0.000338662, -0.000908943, -0.000191355, -0.000172843, -0.00418428, -4.33563e-05, 0.0227182, -0.0153552, 0.00358722, -0.00581281, 0.109385, 0.0017877, 0.471005, -0.543017, 0.335992, -2.08357, -2.16577, -0.129915, 0.470092, -0.542749, 0.336261, -2.08577, -2.16825, -0.125864, -0.000163782, 0.0151053, 0.00392227, 0.0161157, -0.00724502, 0.00346944
0.085217, 1.69266, -1.2253, -1.5379, -0.899818, -1.19481, 1.23034, -1.30263, 0.0347128, 0.00516235, -0.000609515, 0.00471511, -0.0906684, 0.0403473, 0.000954321, 2.05878, 56.781, 27.1552, 5.31555, 1.65088, 3.43204, -0.0420422, 0.000315886, -0.000893353, -0.000193574, -0.000159885, -0.00429287, -3.74124e-05, 0.0236539, -0.015055, 0.00371076, -0.00790441, 0.111534, -0.000291363, 0.471005, -0.543002, 0.335996, -2.08356, -2.16577, -0.129916, 0.470109, -0.542757, 0.336263, -2.08582, -2.1683, -0.12574, -0.000170564, 0.0154971, 0.00402162, 0.0158472, -0.00780838, 0.00355418
0.086217, 1.69271, -1.2253, -1.53789, -0.899806, -1.19491, 1.23038, -1.30263, 0.0378299, 0.00344082, 0.00133043, 0.0099302, -0.0926049, 0.0446563, -0.00129228, 1.9477, 56.781, 27.0798, 5.31555, 1.6756, 3.42471, 0.0101428, 0.000294451, -0.000874399, -0.000195799, -0.000152624, -0.00440024, -4.36896e-05, 0.0248102, -0.0165735, 0.00429361, -0.00144736, 0.113333, 0.000822043, 0.471005, -0.542986, 0.336, -2.08355, -2.16577, -0.129917, 0.470128, -0.542762, 0.336265, -2.08585, -2.16836, -0.125625, -0.000177527, 0.0158932, 0.00412199, 0.0174195, -0.00858111, 0.00400411
0.087217, 1.69275, -1.2253, -1.5379, -0.899795, -1.19501, 1.23041, -1.30263, 0.0374118, 0.00229331, -0.000896127, 0.0116146, -0.0984955, 0.04258, -0.000858298, 1.9477, 56.781, 27.1552, 5.27588, 1.70032, 3.43204, 0.0101428, 0.000266922, -0.000861578, -0.000194175, -0.000137114, -0.00450807, -3.13901e-05, 0.027432, -0.0145426, 0.00287216, -0.00710316, 0.116269, -0.00449255, 0.471005, -0.542971, 0.336004, -2.08354, -2.16576, -0.129918, 0.470142, -0.542772, 0.336263, -2.0859, -2.1684, -0.125498, -0.000184671, 0.0162937, 0.00422337, 0.0154267, -0.010633, 0.00235574
0.088217, 1.69279, -1.2253, -1.5379, -0.899791, -1.19511, 1.23045, -1.30263, 0.0413924, 0.00403411, 0.00115094, 0.00694936, -0.102116, 0.046409, 0.00136299, 1.90803, 56.6739, 27.0798, 5.35126, 1.71222, 3.42471, -0.0420422, 0.00024548, -0.000843436, -0.000200491, -0.000124572, -0.00462937, -2.74219e-05, 0.0252119, -0.0184358, 0.0040695, -0.00626836, 0.123561, 0.00108654, 0.471005, -0.542954, 0.336008, -2.08353, -2.16576, -0.129919, 0.470161, -0.542777, 0.33627, -2.08595, -2.16845, -0.125362, -0.000192, 0.0166987, 0.00432576, 0.0192714, -0.00806109, 0.00386713
0.089217, 1.69284, -1.22529, -1.5379, -0.899775, -1.19522, 1.23048, -1.30263, 0.0412582, 0.00445233, 0.000756127, 0.0102437, -0.100323, 0.0443942, 0.000910474, 1.87232, 56.5985, 27.0798, 5.27588, 1.71863, 3.41739, -0.0420422, 0.000220072, -0.000827229, -0.000203794, -0.000114688, -0.0047424, -1.93457e-05, 0.0261465, -0.0173734, 0.00442445, -0.00583984, 0.121543, -0.00104391, 0.471004, -0.542938, 0.336012, -2.08351, -2.16576, -0.129921, 0.470178, -0.542786, 0.336273, -2.08599, -2.1685, -0.125236, -0.000199514, 0.0171079, 0.00442916, 0.0182494, -0.0086727, 0.0042076
0.090217, 1.69288, -1.22529, -1.5379, -0.89977, -1.19532, 1.23052, -1.30263, 0.0418895, 0.00213276, -0.00256214, 0.00903925, -0.0994519, 0.0426224, -0.00132444, 1.79694, 56.6342, 27.0798, 5.35126, 1.73694, 3.41739, 0.0101428, 0.000196106, -0.000809473, -0.000202094, -9.49775e-05, -0.00485486, -2.17233e-05, 0.026492, -0.0172253, 0.00149077, -0.0106727, 0.118292, 0.00163922, 0.471004, -0.54292, 0.336017, -2.0835, -2.16575, -0.129922, 0.470196, -0.542791, 0.336271, -2.08603, -2.16856, -0.125102, -0.000207216, 0.0175215, 0.00453354, 0.0179998, -0.00815393, 0.00136577
0.091217, 1.69293, -1.22529, -1.5379, -0.899757, -1.19543, 1.23055, -1.30263, 0.0455821, 0.0030921, -0.00113398, 0.0108727, -0.0977421, 0.0371491, -0.000407224, 1.72157, 56.5628, 27.0441, 5.31555, 1.73053, 3.40365, -0.00267457, 0.000172919, -0.000791118, -0.000206284, -8.1962e-05, -0.00497081, -1.80069e-05, 0.0245258, -0.0183068, 0.00209792, -0.0129223, 0.115303, 0.00402943, 0.471004, -0.542903, 0.336021, -2.08349, -2.16575, -0.129923, 0.470215, -0.542796, 0.336276, -2.08607, -2.16861, -0.12497, -0.000215108, 0.0179394, 0.00463891, 0.0190236, -0.00584414, 0.00234311
0.092217, 1.69298, -1.22529, -1.5379, -0.899753, -1.19553, 1.23058, -1.30263, 0.0462979, 0.00298929, -0.00329456, 0.00861576, -0.101465, 0.0324412, -0.000508078, 1.72157, 56.5231, 27.0084, 5.42664, 1.72504, 3.40365, 0.00373412, 0.00014896, -0.000773438, -0.000206187, -6.42312e-05, -0.00508358, -2.24983e-05, 0.0246811, -0.0175505, 0.000470952, -0.0217497, 0.116598, 0.0045567, 0.471004, -0.542885, 0.336026, -2.08348, -2.16575, -0.129924, 0.470233, -0.542801, 0.336276, -2.0861, -2.16867, -0.124838, -0.000223192, 0.0183616, 0.00474526, 0.0182068, -0.00535535, 0.000841467
0.093217, 1.69302, -1.22528, -1.5379, -0.89974, -1.19564, 1.23061, -1.30263, 0.0443249, 0.00449841, -0.00260808, 0.0107203, -0.104602, 0.0287235, 0.00135728, 1.72157, 56.416, 27.0084, 5.38696, 1.73694, 3.41006, -0.0420422, 0.000121759, -0.000759002, -0.000210252, -4.5505e-05, -0.00520447, -9.37839e-06, 0.0265674, -0.0150255, 0.00163523, -0.0243304, 0.118856, -0.00182074, 0.471003, -0.542867, 0.336031, -2.08346, -2.16574, -0.129926, 0.470249, -0.54281, 0.33628, -2.08615, -2.16871, -0.124694, -0.00023147, 0.0187881, 0.00485258, 0.0157869, -0.00707406, 0.00188135
0.094217, 1.69306, -1.22527, -1.5379, -0.89973, -1.19575, 1.23064, -1.30263, 0.045767, 0.00392689, -0.00204749, 0.00811032, -0.10726, 0.0262165, -0.000281515, 1.72157, 56.3763, 27.0084, 5.38696, 1.74884, 3.41006, -0.00999879, 9.4652e-05, -0.000743246, -0.000212265, -2.74613e-05, -0.00532372, -7.0601e-06, 0.0257973, -0.0157651, 0.000802794, -0.0286892, 0.11978, 0.00294789, 0.471003, -0.542848, 0.336035, -2.08345, -2.16574, -0.129927, 0.470265, -0.542818, 0.336282, -2.08619, -2.16877, -0.124554, -0.000239944, 0.0192188, 0.00496086, 0.0164592, -0.00572431, 0.00126463
0.095217, 1.69312, -1.22527, -1.5379, -0.899721, -1.19585, 1.23068, -1.30263, 0.049596, 0.00345309, -0.00159658, 0.0083218, -0.103623, 0.0290151, -0.000458622, 1.60651, 56.3406, 27.0084, 5.42664, 1.73694, 3.41006, -0.00267457, 7.26997e-05, -0.000720705, -0.000213296, -1.11156e-05, -0.00543955, -1.13218e-05, 0.0241236, -0.018871, 0.000717622, -0.0246159, 0.118099, 0.00820775, 0.471003, -0.542829, 0.33604, -2.08343, -2.16574, -0.129929, 0.470288, -0.542819, 0.336284, -2.08623, -2.16883, -0.12442, -0.000248615, 0.0196537, 0.00507009, 0.0194894, -0.00349626, 0.00145539
0.096217, 1.69317, -1.22527, -1.5379, -0.899714, -1.19597, 1.2307, -1.30263, 0.0493804, 0.00313723, -0.00123807, 0.00866522, -0.102457, 0.026678, -0.000542865, 1.60651, 56.3049, 27.0084, 5.46234, 1.76807, 3.40365, 0.00373412, 4.69567e-05, -0.000702993, -0.000213142, 1.44235e-05, -0.00555894, -9.92481e-06, 0.0242538, -0.0184401, 0.000471995, -0.0255422, 0.115935, 0.00837726, 0.471003, -0.542809, 0.336045, -2.08342, -2.16573, -0.12993, 0.470307, -0.542824, 0.336285, -2.08626, -2.16888, -0.124272, -0.000257487, 0.0200928, 0.00518027, 0.0190461, -0.00316536, 0.00131549
0.097217, 1.69322, -1.22526, -1.5379, -0.899706, -1.19608, 1.23074, -1.30262, 0.0464006, 0.00385469, -2.76248e-05, 0.00888454, -0.10528, 0.0300993, 0.00109633, 1.60651, 56.2296, 26.9687, 5.50201, 1.77356, 3.38168, -0.0356336, 2.17097e-05, -0.000684328, -0.000216246, 3.26029e-05, -0.00568079, -6.21153e-06, 0.0266896, -0.0172197, 0.00177873, -0.0221171, 0.120791, 0.00327075, 0.471002, -0.542789, 0.336051, -2.08341, -2.16573, -0.129932, 0.470326, -0.542829, 0.336288, -2.0863, -2.16893, -0.124129, -0.000266561, 0.0205361, 0.00529139, 0.0179532, -0.0053782, 0.00237473
0.098217, 1.69327, -1.22527, -1.5379, -0.899694, -1.19619, 1.23076, -1.30263, 0.0500686, 0.00173455, 0.000719103, 0.0109288, -0.106978, 0.0324597, -0.00120176, 1.49146, 56.2653, 26.933, 5.46234, 1.77356, 3.36062, 0.0165515, -3.7854e-06, -0.000663545, -0.000212822, 5.57099e-05, -0.00579373, -1.39795e-05, 0.0267504, -0.0192263, 0.00105918, -0.0198978, 0.121447, 0.00727149, 0.471002, -0.542768, 0.336056, -2.08339, -2.16572, -0.129933, 0.470347, -0.542832, 0.336286, -2.08632, -2.16899, -0.123991, -0.000275838, 0.0209836, 0.00540343, 0.019924, -0.00479722, 0.00170552
0.099217, 1.69332, -1.22526, -1.5379, -0.899684, -1.19631, 1.23079, -1.30263, 0.046605, 0.00282679, -0.00183132, 0.0144964, -0.109135, 0.0337139, -0.000563709, 1.49146, 56.1938, 26.8934, 5.46234, 1.78638, 3.36062, 0.0101428, -3.13153e-05, -0.000646139, -0.00021649, 7.91541e-05, -0.00592256, -1.35672e-05, 0.0307968, -0.0159955, 0.00155232, -0.0196442, 0.125, -0.00183817, 0.471002, -0.542747, 0.336061, -2.08338, -2.16572, -0.129935, 0.470366, -0.542838, 0.33629, -2.08636, -2.16905, -0.123836, -0.000285321, 0.0214351, 0.00551641, 0.0168513, -0.00854883, 0.0017738
0.100217, 1.69338, -1.22526, -1.5379, -0.899672, -1.19642, 1.23082, -1.30263, 0.0499093, 0.00188451, -0.000704408, 0.0149731, -0.114287, 0.0344162, 0.000370256, 1.38038, 56.1938, 26.8577, 5.42664, 1.76807, 3.36703, -0.00999879, -5.64338e-05, -0.000624105, -0.000214585, 0.000102353, -0.00603957, -1.34324e-05, 0.0308822, -0.0175022, 0.00131867, -0.0207158, 0.128949, -0.00105348, 0.471002, -0.542726, 0.336067, -2.08336, -2.16572, -0.129936, 0.470388, -0.54284, 0.336289, -2.08639, -2.1691, -0.123693, -0.000295012, 0.0218908, 0.00563029, 0.018341, -0.00807931, 0.00159746
0.101217, 1.69343, -1.22526, -1.5379, -0.899666, -1.19654, 1.23085, -1.30262, 0.0503598, 0.00209155, -0.00374495, 0.0125802, -0.112387, 0.0310904, 0.00143369, 1.34071, 56.1581, 26.8577, 5.50201, 1.73694, 3.3533, -0.0420422, -8.3801e-05, -0.00060556, -0.00021523, 0.000129902, -0.006166, -9.50428e-06, 0.0303384, -0.0173537, -0.000327775, -0.0264788, 0.126719, -0.00037316, 0.471001, -0.542704, 0.336072, -2.08334, -2.16571, -0.129938, 0.470407, -0.542845, 0.33629, -2.08643, -2.16916, -0.123535, -0.000304912, 0.0223506, 0.00574509, 0.0181035, -0.00683469, 0.000175225
0.102217, 1.69348, -1.22526, -1.5379, -0.899656, -1.19666, 1.23087, -1.30263, 0.0491023, 0.0031576, -0.00116571, 0.0126585, -0.112451, 0.0276348, -0.0012143, 1.38038, 56.0828, 26.7823, 5.50201, 1.73053, 3.36062, 0.0165515, -0.000114434, -0.000590657, -0.000217372, 0.000156785, -0.00629377, -8.8437e-06, 0.0304099, -0.016419, 0.00094507, -0.0268588, 0.126249, 0.00219025, 0.471001, -0.542682, 0.336078, -2.08333, -2.16571, -0.12994, 0.470423, -0.542852, 0.336293, -2.08647, -2.16921, -0.123377, -0.000315023, 0.0228145, 0.00586078, 0.017209, -0.00667603, 0.00156448
0.103217, 1.69354, -1.22525, -1.5379, -0.899648, -1.19679, 1.2309, -1.30263, 0.0527709, 0.00210506, -0.00286462, 0.0118424, -0.122928, 0.0257836, -0.00128422, 1.22962, 56.0828, 26.8577, 5.53772, 1.74884, 3.3533, 0.0293689, -0.000142367, -0.00056876, -0.00021434, 0.0001941, -0.0064287, -1.29421e-05, 0.0313529, -0.0168595, -0.000771942, -0.0357748, 0.133511, 0.00232852, 0.471001, -0.542659, 0.336084, -2.08331, -2.1657, -0.129941, 0.470446, -0.542856, 0.336291, -2.0865, -2.16927, -0.1232, -0.000325348, 0.0232823, 0.00597737, 0.01761, -0.00685588, -0.000174829
0.104217, 1.69359, -1.22525, -1.5379, -0.899641, -1.19692, 1.23092, -1.30263, 0.0509833, 0.00316661, 0.000445531, 0.0111555, -0.124711, 0.0245225, 0.000601939, 1.26533, 56.0074, 26.7466, 5.57739, 1.73053, 3.33865, -0.00999879, -0.00017325, -0.000551941, -0.000217798, 0.000218808, -0.00656428, -5.2399e-06, 0.0318563, -0.0161351, 0.000875464, -0.0346714, 0.13554, 0.000285969, 0.471, -0.542636, 0.33609, -2.08329, -2.1657, -0.129943, 0.470463, -0.542863, 0.336295, -2.08654, -2.16933, -0.123036, -0.000335889, 0.0237543, 0.00609484, 0.0169542, -0.00716471, 0.00151241
0.105217, 1.69365, -1.22525, -1.5379, -0.899632, -1.19705, 1.23095, -1.30262, 0.0523788, 0.00211107, 0.00458226, 0.0116389, -0.131212, 0.0232449, 0.00158811, 1.18995, 56.0074, 26.822, 5.57739, 1.72504, 3.33133, -0.0420422, -0.000204312, -0.000534429, -0.000214975, 0.000258682, -0.00669633, 2.50957e-06, 0.0322573, -0.0165856, 0.00156909, -0.0351664, 0.139259, 0.000116771, 0.471, -0.542612, 0.336096, -2.08328, -2.16569, -0.129945, 0.470482, -0.542869, 0.336293, -2.08658, -2.16938, -0.122858, -0.000346646, 0.0242302, 0.00621319, 0.0174333, -0.00717296, 0.00223898
0.106217, 1.69371, -1.22525, -1.5379, -0.899623, -1.19719, 1.23097, -1.30262, 0.0503035, 0.00224259, 0.00436531, 0.0111714, -0.131293, 0.0224316, 0.000584033, 1.11457, 55.9717, 26.7823, 5.6131, 1.73053, 3.324, -0.0292249, -0.000235735, -0.000515889, -0.0002147, 0.00029312, -0.00683408, 3.54856e-06, 0.0334981, -0.0153218, 0.00150349, -0.0359069, 0.139398, -0.000616729, 0.471, -0.542588, 0.336102, -2.08326, -2.16569, -0.129946, 0.470501, -0.542875, 0.336293, -2.08662, -2.16943, -0.122682, -0.000357622, 0.0247101, 0.00633241, 0.0162025, -0.00795964, 0.00213827
0.107217, 1.69376, -1.22525, -1.5379, -0.899617, -1.19733, 1.23099, -1.30263, 0.0500824, 0.00149506, 0.00403226, 0.00768265, -0.135681, 0.0214411, -8.53526e-05, 1.11457, 55.9717, 26.7466, 5.6488, 1.71222, 3.324, -0.0164075, -0.00026843, -0.000498628, -0.000212334, 0.000330656, -0.00697036, 5.45946e-06, 0.0339649, -0.0152547, 0.000352299, -0.0406928, 0.142441, 0.00131144, 0.470999, -0.542563, 0.336109, -2.08324, -2.16568, -0.129948, 0.470519, -0.542881, 0.336292, -2.08665, -2.16949, -0.122503, -0.000368819, 0.025194, 0.00645249, 0.0160993, -0.00776156, 0.00105056
0.108217, 1.69381, -1.22525, -1.53789, -0.899613, -1.19746, 1.23102, -1.30263, 0.0507682, 0.000996706, 0.00466654, 0.00416121, -0.139584, 0.0212223, -0.00175232, 1.07887, 55.9717, 26.6712, 5.72418, 1.70581, 3.31027, 0.0293689, -0.000300768, -0.000480361, -0.000212362, 0.00036248, -0.00710942, 9.09744e-07, 0.0337799, -0.0160656, -0.000294482, -0.0438699, 0.145684, 0.00578691, 0.470999, -0.542538, 0.336115, -2.08322, -2.16568, -0.12995, 0.470538, -0.542887, 0.336293, -2.08668, -2.16956, -0.122329, -0.000380238, 0.0256818, 0.00657343, 0.0168677, -0.00695773, 0.000536417
0.109217, 1.69387, -1.22524, -1.53789, -0.899604, -1.19761, 1.23104, -1.30263, 0.0530089, 0.00233491, 0.00243716, 0.00652799, -0.137884, 0.0205316, 0.000527217, 0.963814, 55.9003, 26.7069, 5.72418, 1.71222, 3.31027, -0.0164075, -0.000334169, -0.000462706, -0.000212301, 0.000405886, -0.00725578, 1.10005e-05, 0.0339182, -0.0164375, -0.000188549, -0.0446324, 0.14565, 0.00316058, 0.470999, -0.542512, 0.336122, -2.0832, -2.16567, -0.129952, 0.470556, -0.542894, 0.336293, -2.08672, -2.16961, -0.122133, -0.000391882, 0.0261735, 0.00669522, 0.0172365, -0.00660333, 0.000729351
0.110217, 1.69392, -1.22524, -1.53789, -0.899594, -1.19775, 1.23106, -1.30263, 0.0510702, 0.0015566, 0.002581, 0.00816101, -0.140837, 0.025282, 0.000114123, 1.00349, 55.9003, 26.6712, 5.72418, 1.70032, 3.29562, -0.00999879, -0.00037168, -0.00044898, -0.0002131, 0.000438447, -0.00739752, 2.22429e-05, 0.0368932, -0.0155542, 0.000119876, -0.0406555, 0.149791, -0.000622553, 0.470998, -0.542486, 0.336128, -2.08318, -2.16567, -0.129954, 0.470571, -0.542904, 0.336295, -2.08677, -2.16966, -0.121954, -0.000403753, 0.0266691, 0.00681784, 0.0164608, -0.00912835, 0.000719723
0.111217, 1.69398, -1.22524, -1.5379, -0.899594, -1.19789, 1.23108, -1.30263, 0.054206, 0.00103773, -0.000787033, 0.00363574, -0.137478, 0.0194264, 7.60853e-05, 0.85273, 55.9003, 26.7823, 5.83527, 1.6756, 3.28097, -0.00999879, -0.000403341, -0.000428831, -0.000206753, 0.00049369, -0.00754071, 1.87481e-05, 0.0341512, -0.0170505, -0.00273516, -0.0496964, 0.144717, 0.00601876, 0.470998, -0.542459, 0.336135, -2.08317, -2.16566, -0.129956, 0.470592, -0.542907, 0.33629, -2.08679, -2.16971, -0.121749, -0.000415851, 0.0271686, 0.0069413, 0.0177404, -0.00541944, -0.00159513
0.112217, 1.69403, -1.22524, -1.53789, -0.899591, -1.19803, 1.23111, -1.30263, 0.0489389, 0.00161984, 0.00130662, 0.00436259, -0.141433, 0.0241955, -0.00140734, 0.888436, 55.8606, 26.7069, 5.91064, 1.68201, 3.27456, 0.0293689, -0.000440519, -0.000414117, -0.000206649, 0.000531285, -0.00768636, 2.17098e-05, 0.0380083, -0.0147094, -0.000882693, -0.0442722, 0.150899, 0.00138846, 0.470997, -0.542432, 0.336142, -2.08315, -2.16566, -0.129958, 0.470607, -0.542916, 0.33629, -2.08683, -2.16977, -0.121561, -0.000428179, 0.027672, 0.00706559, 0.0155966, -0.00910586, -0.00017157
0.113217, 1.69409, -1.22524, -1.5379, -0.899584, -1.19817, 1.23113, -1.30263, 0.0526091, 0.00107989, -5.89099e-06, 0.00361365, -0.143435, 0.023012, 0.00051984, 0.737679, 55.8606, 26.7466, 5.91064, 1.66919, 3.26724, -0.00999879, -0.000474965, -0.000395137, -0.000202536, 0.000574462, -0.00782575, 2.78752e-05, 0.0372727, -0.0162717, -0.00210436, -0.0482318, 0.152056, 0.00249063, 0.470997, -0.542404, 0.336149, -2.08313, -2.16565, -0.12996, 0.470627, -0.542921, 0.336287, -2.08687, -2.16982, -0.121373, -0.000440739, 0.0281791, 0.00719069, 0.0170734, -0.00761927, -0.00118646
0.114217, 1.69414, -1.22524, -1.5379, -0.89958, -1.19831, 1.23114, -1.30263, 0.0516512, 0.00155515, 3.43609e-05, 0.00201003, -0.136089, 0.0226928, 0.00058392, 0.737679, 55.8249, 26.7466, 5.95032, 1.6756, 3.24527, -0.0164075, -0.000511892, -0.000380661, -0.000202178, 0.000617108, -0.00796995, 3.56582e-05, 0.036206, -0.0168562, -0.00206246, -0.0455313, 0.146836, 0.00539567, 0.470997, -0.542376, 0.336156, -2.08311, -2.16564, -0.129962, 0.470642, -0.542928, 0.336288, -2.0869, -2.16987, -0.12118, -0.000453532, 0.0286901, 0.0073166, 0.0176077, -0.0060374, -0.00087162
0.115217, 1.69419, -1.22523, -1.53789, -0.899568, -1.19845, 1.23117, -1.30263, 0.0486053, 0.00187198, 0.00181486, 0.00266475, -0.135211, 0.0168992, -0.000119345, 0.701973, 55.7892, 26.6712, 5.91064, 1.6756, 3.24527, -0.00267457, -0.000550485, -0.000365792, -0.00020287, 0.000648894, -0.00811043, 4.40992e-05, 0.037108, -0.0143405, -0.00154988, -0.0477041, 0.143672, 0.00367753, 0.470996, -0.542347, 0.336164, -2.08308, -2.16564, -0.129964, 0.470658, -0.542937, 0.33629, -2.08695, -2.16993, -0.121003, -0.00046656, 0.0292049, 0.00744332, 0.0151337, -0.00659562, -0.000303204
0.116217, 1.69425, -1.22524, -1.53789, -0.899561, -1.19859, 1.23118, -1.30263, 0.0492471, 0.00041277, 0.00123144, 0.00290925, -0.134322, 0.0178005, -0.001029, 0.551216, 55.8249, 26.6712, 5.87494, 1.6756, 3.23153, 0.0229602, -0.000584125, -0.000344866, -0.000199109, 0.000691539, -0.00824873, 3.86962e-05, 0.0376054, -0.0148318, -0.00257743, -0.0470265, 0.14235, 0.00509611, 0.470996, -0.542318, 0.336171, -2.08306, -2.16563, -0.129966, 0.47068, -0.54294, 0.336287, -2.08697, -2.16999, -0.120818, -0.000479825, 0.0297235, 0.00757084, 0.0155915, -0.00638892, -0.00128339
0.117217, 1.6943, -1.22523, -1.53789, -0.899565, -1.19873, 1.2312, -1.30262, 0.0489736, 0.0011104, 1.898e-06, -0.000435806, -0.139466, 0.0135258, 0.00124678, 0.551216, 55.7892, 26.7069, 5.98602, 1.69391, 3.22421, -0.0292249, -0.000622577, -0.000330814, -0.000196057, 0.000738961, -0.00839406, 4.95709e-05, 0.0380369, -0.0138344, -0.00346244, -0.055578, 0.145904, 0.00318344, 0.470995, -0.542288, 0.336179, -2.08304, -2.16563, -0.129968, 0.470694, -0.542947, 0.336285, -2.08701, -2.17003, -0.120619, -0.000493328, 0.0302458, 0.00769914, 0.0145653, -0.00619672, -0.00206635
0.118217, 1.69435, -1.22523, -1.53789, -0.899557, -1.19887, 1.23122, -1.30263, 0.0477047, 0.000740265, 0.000848598, 0.000712043, -0.137251, 0.0156577, -0.000389515, 0.475838, 55.7892, 26.6712, 5.95032, 1.68201, 3.20224, 0.00373412, -0.000660568, -0.000314736, -0.000195041, 0.000774707, -0.00853205, 5.13212e-05, 0.0391215, -0.0136555, -0.00300997, -0.0511544, 0.144959, 0.0037637, 0.470995, -0.542258, 0.336186, -2.08302, -2.16562, -0.129971, 0.470711, -0.542953, 0.336286, -2.08704, -2.17009, -0.120441, -0.000507072, 0.0307718, 0.00782823, 0.0144287, -0.00681836, -0.00165475
0.119217, 1.6944, -1.22523, -1.53788, -0.899555, -1.19901, 1.23124, -1.30263, 0.0472011, -0.000341708, 0.00233806, -0.000235001, -0.140075, 0.0160141, 0.000723668, 0.511544, 55.8249, 26.5958, 5.98602, 1.6756, 3.20956, -0.0228162, -0.000699571, -0.000301652, -0.000192052, 0.000813651, -0.00866387, 6.00334e-05, 0.039996, -0.0136103, -0.00322928, -0.051209, 0.146729, 0.0028139, 0.470994, -0.542227, 0.336194, -2.083, -2.16561, -0.129973, 0.470725, -0.54296, 0.336284, -2.08707, -2.17013, -0.120265, -0.000521058, 0.0313016, 0.00795809, 0.0143932, -0.00711957, -0.00187703
0.120217, 1.69446, -1.22523, -1.53789, -0.899549, -1.19915, 1.23125, -1.30263, 0.0509592, 0.00237065, -0.00019772, 0.000772692, -0.138517, 0.0171111, -0.000975617, 0.400459, 55.7138, 26.6712, 5.95032, 1.6875, 3.19583, 0.0165515, -0.000737608, -0.000284273, -0.000191599, 0.000858273, -0.00881276, 6.00755e-05, 0.0392428, -0.015372, -0.00253439, -0.0515115, 0.14928, 0.00664744, 0.470994, -0.542196, 0.336202, -2.08297, -2.16561, -0.129975, 0.470743, -0.542966, 0.336285, -2.0871, -2.17019, -0.120066, -0.000535288, 0.031835, 0.00808872, 0.0161369, -0.005877, -0.000997641
0.121217, 1.69451, -1.22523, -1.53788, -0.899546, -1.19929, 1.23127, -1.30263, 0.0541728, -0.000182804, 0.00163654, 0.000585734, -0.142181, 0.0185157, 0.000807651, 0.245735, 55.7892, 26.5958, 5.95032, 1.70032, 3.16653, -0.0228162, -0.000774777, -0.00026461, -0.000186691, 0.000896644, -0.00894898, 6.20591e-05, 0.0390393, -0.0174295, -0.00349456, -0.0510679, 0.150822, 0.00794984, 0.470993, -0.542164, 0.33621, -2.08295, -2.1656, -0.129978, 0.470764, -0.542969, 0.336282, -2.08713, -2.17025, -0.119887, -0.000549763, 0.0323721, 0.00822011, 0.0181349, -0.00490548, -0.00184629
0.122217, 1.69456, -1.22523, -1.53789, -0.899543, -1.19942, 1.23129, -1.30263, 0.0526238, -0.000957087, 0.000166837, 0.000443443, -0.139605, 0.0134697, 6.37164e-05, 0.245735, 55.8249, 26.6355, 5.95032, 1.70032, 3.17386, -0.00999879, -0.000817607, -0.000252743, -0.000180599, 0.000943778, -0.00908511, 7.17044e-05, 0.0395919, -0.0157111, -0.00490237, -0.0553377, 0.1459, 0.00748246, 0.470993, -0.542132, 0.336219, -2.08293, -2.16559, -0.12998, 0.470776, -0.542977, 0.336277, -2.08716, -2.17029, -0.119698, -0.000564485, 0.0329128, 0.00835225, 0.0163726, -0.00476324, -0.00313846
0.123217, 1.69461, -1.22523, -1.53789, -0.899539, -1.19956, 1.23131, -1.30263, 0.0536244, 0.00279562, 0.0001141, 0.00126336, -0.137164, 0.0151997, 4.24777e-05, 0.170357, 55.6781, 26.6355, 5.91064, 1.6875, 3.15921, -0.00999879, -0.000856111, -0.000235736, -0.000181977, 0.000979618, -0.00922841, 7.41736e-05, 0.0392926, -0.0165986, -0.0025429, -0.0520774, 0.14885, 0.00854756, 0.470992, -0.542099, 0.336227, -2.0829, -2.16559, -0.129982, 0.470794, -0.542982, 0.33628, -2.08719, -2.17035, -0.119514, -0.000579456, 0.0334572, 0.00848514, 0.0173198, -0.00425112, -0.000657424
0.124217, 1.69466, -1.22523, -1.53789, -0.899539, -1.19969, 1.23132, -1.30263, 0.0533573, 0.000193308, 7.82225e-05, -5.59899e-05, -0.135472, 0.0165012, -0.00119238, 0.134651, 55.7495, 26.6355, 5.95032, 1.6875, 3.14548, 0.0229602, -0.000898065, -0.000221306, -0.000175879, 0.00102216, -0.00936404, 7.5825e-05, 0.0396394, -0.0172121, -0.00418652, -0.0508952, 0.146026, 0.0113205, 0.470991, -0.542066, 0.336235, -2.08288, -2.16558, -0.129985, 0.470809, -0.542988, 0.336276, -2.08722, -2.1704, -0.119332, -0.000594677, 0.0340052, 0.00861877, 0.0178698, -0.00376577, -0.00222027
0.125217, 1.69471, -1.22523, -1.53789, -0.899536, -1.19982, 1.23134, -1.30263, 0.0500183, 0.00096409, 5.37654e-05, -1.49865e-05, -0.13382, 0.0213634, -0.000557564, 0.0949785, 55.7138, 26.6355, 5.95032, 1.66369, 3.1528, 0.0165515, -0.000940293, -0.000207539, -0.000174083, 0.00106017, -0.00950259, 8.40223e-05, 0.0418091, -0.0163813, -0.00317256, -0.0452188, 0.14814, 0.00794275, 0.470991, -0.542032, 0.336244, -2.08286, -2.16557, -0.129987, 0.470824, -0.542995, 0.336276, -2.08725, -2.17045, -0.11915, -0.000610151, 0.0345567, 0.00875313, 0.0171402, -0.00554666, -0.00139848
0.126217, 1.69476, -1.22523, -1.53788, -0.899543, -1.19996, 1.23136, -1.30263, 0.0492292, 0.000642726, 3.70565e-05, -0.00259169, -0.133257, 0.0213127, 0.000340367, -0.0161054, 55.7138, 26.6355, 6.0614, 1.65729, 3.13815, -0.00267457, -0.000978775, -0.000188931, -0.000169751, 0.00110364, -0.00964328, 8.08665e-05, 0.0418827, -0.0165708, -0.00373114, -0.0460252, 0.147946, 0.00875466, 0.47099, -0.541997, 0.336253, -2.08283, -2.16557, -0.12999, 0.470843, -0.542997, 0.336274, -2.08727, -2.17051, -0.118962, -0.000625878, 0.0351119, 0.00888822, 0.0172962, -0.00496964, -0.0018331
0.127217, 1.6948, -1.22522, -1.53788, -0.89954, -1.2001, 1.23137, -1.30263, 0.0460172, 0.000428484, 2.56139e-05, -0.000787208, -0.13313, 0.020443, 0.000735538, -0.0161054, 55.7138, 26.6355, 6.02173, 1.65729, 3.14548, -0.0164075, -0.00102465, -0.000178824, -0.00016764, 0.00114381, -0.0097822, 9.59194e-05, 0.0443284, -0.0142159, -0.00356081, -0.045298, 0.147343, 0.00368518, 0.47099, -0.541962, 0.336262, -2.0828, -2.16556, -0.129992, 0.470854, -0.543007, 0.336273, -2.08731, -2.17055, -0.118777, -0.00064186, 0.0356705, 0.00902402, 0.015023, -0.00694852, -0.0018392
0.128217, 1.69486, -1.22523, -1.53789, -0.89954, -1.20023, 1.23139, -1.30263, 0.0496169, -0.000549562, -0.00081746, -0.000515381, -0.132548, 0.015846, -0.00120506, -0.131157, 55.7495, 26.6712, 6.02173, 1.64447, 3.13083, 0.0293689, -0.00106664, -0.00016152, -0.000160453, 0.00118256, -0.00991439, 9.19175e-05, 0.0430636, -0.0152689, -0.00503959, -0.0501577, 0.144171, 0.00877695, 0.470989, -0.541926, 0.336271, -2.08278, -2.16555, -0.129995, 0.470872, -0.543011, 0.336268, -2.08733, -2.1706, -0.118602, -0.000658099, 0.0362327, 0.00916054, 0.0159587, -0.00486528, -0.00299874
0.129217, 1.6949, -1.22522, -1.53788, -0.899542, -1.20036, 1.23141, -1.30263, 0.0472853, 0.00130406, 0.000290756, -0.000336519, -0.137265, 0.0123626, -0.000803375, -0.166862, 55.6781, 26.6355, 6.02173, 1.65088, 3.11618, 0.0293689, -0.00111057, -0.000148018, -0.000159788, 0.00121992, -0.0100572, 9.76264e-05, 0.044898, -0.0129082, -0.00374949, -0.0536935, 0.148409, 0.00486044, 0.470988, -0.54189, 0.33628, -2.08275, -2.16554, -0.129998, 0.470886, -0.543017, 0.336269, -2.08736, -2.17065, -0.118418, -0.000674597, 0.0367984, 0.00929776, 0.0136984, -0.00640708, -0.00180243
0.130217, 1.6949, -1.22522, -1.53788, -0.899542, -1.20036, 1.23141, -1.30263, 0.0472853, 0.00130406, 0.000290756, -0.000336519, -0.137265, 0.0123626, -0.000803375, -0.166862, 55.6781, 26.6355, 6.02173, 1.65088, 3.11618, 0.0293689, -0.00114836, -0.000148593, -0.000156343, 0.00120447, -0.0100759, 0.000105987, 0.0454821, -0.0129053, -0.00379597, -0.0535835, 0.148819, 0.00490347, 0.470988, -0.541853, 0.336289, -2.08273, -2.16554, -0.13, 0.470886, -0.543017, 0.336269, -2.08736, -2.17065, -0.118418, -0.000691354, 0.0373675, 0.00943568, 0.0136984, -0.00640708, -0.00180243
0.131217, 1.695, -1.22523, -1.53788, -0.899548, -1.20062, 1.23144, -1.30263, 0.0485146, -0.00257568, 0.00105779, -0.00252397, -0.134338, 0.0111151, 0.00141749, -0.317619, 55.8249, 26.5958, 6.13678, 1.62616, 3.09512, -0.0228162, -0.00119644, -0.000115936, -0.000147059, 0.00129642, -0.0103194, 0.000103799, 0.0443775, -0.0143936, -0.00633478, -0.0540566, 0.142543, 0.00727388, 0.470987, -0.541816, 0.336299, -2.0827, -2.16553, -0.130003, 0.47092, -0.543024, 0.336261, -2.08741, -2.17075, -0.118071, -0.000708374, 0.0379402, 0.00957429, 0.0150348, -0.00428947, -0.00404479
0.132217, 1.69505, -1.22523, -1.53788, -0.899553, -1.20075, 1.23146, -1.30263, 0.0449182, 4.61146e-05, -0.00105783, -0.00251488, -0.133282, 0.0126505, -0.000513072, -0.43267, 55.7495, 26.6712, 6.17248, 1.61426, 3.10245, 0.0165515, -0.00123958, -9.98996e-05, -0.000143947, 0.0013391, -0.0104613, 0.000100328, 0.0467115, -0.0123484, -0.00525566, -0.053203, 0.145494, 0.00498789, 0.470986, -0.541778, 0.336308, -2.08267, -2.16552, -0.130006, 0.470936, -0.543028, 0.33626, -2.08742, -2.17081, -0.117882, -0.000725657, 0.0385162, 0.00971358, 0.0130992, -0.00626837, -0.00314241
0.133217, 1.69509, -1.22523, -1.53788, -0.899554, -1.20087, 1.23147, -1.30263, 0.0454464, -0.00173249, -0.00154028, -0.00250957, -0.127118, 0.0148969, -0.000342048, -0.43267, 55.8249, 26.7069, 6.20819, 1.58313, 3.08047, 0.0165515, -0.00128684, -8.73782e-05, -0.000136099, 0.00137226, -0.0105847, 0.000108048, 0.046356, -0.0136955, -0.00635885, -0.0489218, 0.140248, 0.00725634, 0.470985, -0.541739, 0.336318, -2.08264, -2.16551, -0.130009, 0.47095, -0.543034, 0.336254, -2.08745, -2.17085, -0.117722, -0.000743204, 0.0390957, 0.00985355, 0.0143738, -0.00511122, -0.00407864
0.134217, 1.69514, -1.22523, -1.53788, -0.89955, -1.201, 1.23149, -1.30263, 0.0489151, -0.00199021, -0.000191511, -9.33617e-07, -0.128247, 0.0160536, 0.000246686, -0.543754, 55.8606, 26.6712, 6.13678, 1.57764, 3.07315, 0.00373412, -0.00133198, -7.1567e-05, -0.000132215, 0.00140319, -0.0107148, 0.000112624, 0.0462379, -0.0154054, -0.0058073, -0.0464982, 0.141703, 0.00821901, 0.470985, -0.5417, 0.336328, -2.08262, -2.1655, -0.130011, 0.470966, -0.543038, 0.336253, -2.08748, -2.1709, -0.117558, -0.000761018, 0.0396786, 0.00999418, 0.0160799, -0.00442585, -0.00342877
0.135217, 1.69518, -1.22523, -1.53787, -0.899556, -1.20112, 1.23151, -1.30263, 0.0496715, -0.00132681, 0.00163565, -0.0016698, -0.123627, 0.0167546, 0.000673084, -0.583427, 55.8606, 26.5958, 6.20819, 1.55292, 3.07315, -0.00999879, -0.00137619, -5.55105e-05, -0.00012942, 0.0014322, -0.010846, 0.000112544, 0.0447188, -0.0171606, -0.00503383, -0.0428652, 0.1394, 0.0124612, 0.470984, -0.541661, 0.336338, -2.08259, -2.1655, -0.130014, 0.470983, -0.543041, 0.336252, -2.0875, -2.17095, -0.117395, -0.000779099, 0.0402649, 0.0101355, 0.0177885, -0.00238661, -0.00234193
0.136217, 1.69523, -1.22524, -1.53788, -0.899566, -1.20125, 1.23152, -1.30263, 0.0504045, -0.00181256, -0.00150795, -0.00380351, -0.125805, 0.0127442, -0.00100934, -0.619133, 55.9003, 26.7069, 6.32324, 1.54651, 3.06674, 0.0293689, -0.00142269, -4.08943e-05, -0.00011889, 0.00147568, -0.0109743, 0.000108612, 0.0450863, -0.0165277, -0.0071612, -0.0511634, 0.139572, 0.0145408, 0.470983, -0.54162, 0.336348, -2.08256, -2.16549, -0.130017, 0.470998, -0.543045, 0.336244, -2.08751, -2.17101, -0.11722, -0.00079745, 0.0408545, 0.0102774, 0.0170733, -0.00185629, -0.00433929
0.137217, 1.69528, -1.22524, -1.53788, -0.899567, -1.20137, 1.23154, -1.30263, 0.0486886, -0.00204359, -0.00100525, -0.00253497, -0.122486, 0.0148502, -0.000910252, -0.694511, 55.936, 26.7069, 6.32324, 1.54651, 3.05209, 0.0357776, -0.0014696, -2.49693e-05, -0.000114188, 0.00150481, -0.0111049, 0.0001104, 0.0463115, -0.0161292, -0.00671737, -0.0463911, 0.137889, 0.0130473, 0.470982, -0.541579, 0.336358, -2.08253, -2.16548, -0.13002, 0.471015, -0.543049, 0.336242, -2.08753, -2.17106, -0.117057, -0.000816072, 0.0414475, 0.01042, 0.0167176, -0.00255741, -0.00393867
0.138217, 1.69532, -1.22524, -1.53787, -0.899567, -1.20149, 1.23156, -1.30263, 0.0496682, -0.00303283, 0.00016509, -0.00168945, -0.125583, 0.0160047, -0.00111546, -0.734184, 56.0074, 26.6712, 6.32324, 1.56482, 3.04477, 0.0495105, -0.00151769, -1.0481e-05, -0.000108801, 0.00153295, -0.0112311, 0.000112703, 0.0473192, -0.0165751, -0.00675506, -0.0455138, 0.14032, 0.0130735, 0.470982, -0.541538, 0.336369, -2.0825, -2.16547, -0.130023, 0.47103, -0.543053, 0.336239, -2.08755, -2.17111, -0.116901, -0.000834967, 0.0420438, 0.0105633, 0.0171793, -0.00293098, -0.00400493
0.139217, 1.69536, -1.22525, -1.53788, -0.89958, -1.20161, 1.23158, -1.30263, 0.0504806, -0.00378512, -0.00165315, -0.00455957, -0.117594, 0.0121957, 0.00146041, -0.76989, 56.0828, 26.7466, 6.47003, 1.55932, 3.03744, -0.00999879, -0.00156465, 4.83819e-06, -9.71794e-05, 0.00157594, -0.011356, 0.000117206, 0.0452007, -0.0175724, -0.0086841, -0.0481093, 0.131981, 0.0156629, 0.470981, -0.541496, 0.336379, -2.08247, -2.16546, -0.130026, 0.471046, -0.543055, 0.336231, -2.08757, -2.17115, -0.116728, -0.000854135, 0.0426434, 0.0107072, 0.0180085, 0.000100283, -0.00546668
0.140217, 1.69541, -1.22525, -1.53788, -0.89958, -1.20173, 1.23159, -1.30263, 0.0470087, -0.00252342, -0.00110208, -0.0022042, -0.1176, 0.00958012, 0.00121096, -0.76989, 56.0828, 26.7466, 6.43433, 1.58313, 3.02371, -0.0164075, -0.00161445, 1.82767e-05, -9.32796e-05, 0.00160623, -0.0114876, 0.00012421, 0.0475576, -0.0146856, -0.00751222, -0.0480352, 0.132023, 0.0106873, 0.47098, -0.541453, 0.33639, -2.08244, -2.16545, -0.130029, 0.47106, -0.543061, 0.336229, -2.0876, -2.17119, -0.116563, -0.000873578, 0.0432462, 0.0108517, 0.0152348, -0.00192386, -0.00444547
0.141217, 1.69546, -1.22525, -1.53788, -0.899581, -1.20185, 1.23161, -1.30263, 0.0490611, -0.0025175, -0.000734702, -0.00146924, -0.116707, 0.0117418, -0.00139674, -0.845268, 56.1185, 26.7466, 6.43433, 1.58954, 3.02371, 0.0431018, -0.00166096, 3.63477e-05, -8.71546e-05, 0.0016334, -0.0116111, 0.000115142, 0.0474512, -0.0162334, -0.00724005, -0.0452713, 0.132776, 0.0152119, 0.470979, -0.54141, 0.336401, -2.08241, -2.16544, -0.130032, 0.471079, -0.543062, 0.336226, -2.0876, -2.17125, -0.116412, -0.000893298, 0.0438524, 0.0109968, 0.0167673, -0.00119015, -0.00406408
0.142217, 1.6955, -1.22526, -1.53788, -0.899586, -1.20196, 1.23163, -1.30263, 0.0508564, -0.00427679, -0.00308825, -0.00181455, -0.111592, 0.0134159, -0.000422533, -0.920646, 56.2296, 26.8577, 6.47003, 1.60785, 3.02371, 0.0293689, -0.00170931, 5.34632e-05, -7.65985e-05, 0.0016663, -0.0117324, 0.000115351, 0.0469965, -0.0178209, -0.00916021, -0.0439552, 0.128345, 0.0169913, 0.470978, -0.541366, 0.336412, -2.08237, -2.16543, -0.130036, 0.471096, -0.543063, 0.336219, -2.08762, -2.1713, -0.116255, -0.000913297, 0.0444617, 0.0111426, 0.0182455, 0.000231893, -0.0057933
0.143217, 1.69555, -1.22525, -1.53788, -0.899589, -1.20206, 1.23164, -1.30263, 0.0503834, -0.00201597, 0.0019594, -0.00120957, -0.111917, 0.0191552, 0.000905106, -0.920646, 56.1938, 26.822, 6.47003, 1.62067, 3.03012, -0.00267457, -0.00175598, 6.95965e-05, -7.44833e-05, 0.00168842, -0.0118539, 0.000116641, 0.0473948, -0.0192768, -0.00546846, -0.0340092, 0.133735, 0.0170079, 0.470977, -0.541322, 0.336423, -2.08234, -2.16542, -0.130039, 0.471113, -0.543064, 0.33622, -2.08764, -2.17135, -0.11611, -0.000933575, 0.0450743, 0.0112889, 0.0198304, -5.95827e-05, -0.00211089
0.144217, 1.69559, -1.22526, -1.53788, -0.899597, -1.20217, 1.23166, -1.30263, 0.048042, -0.0021792, 0.000736304, -0.00173431, -0.10763, 0.0238217, 0.00111203, -0.960319, 56.2296, 26.8577, 6.5097, 1.62616, 3.03012, -0.0164075, -0.00180246, 8.7018e-05, -6.71203e-05, 0.00171641, -0.0119708, 0.000111907, 0.048817, -0.0192037, -0.00558688, -0.0288131, 0.132864, 0.0158755, 0.470976, -0.541277, 0.336434, -2.08231, -2.16541, -0.130042, 0.471131, -0.543063, 0.336216, -2.08764, -2.1714, -0.115964, -0.000954135, 0.0456901, 0.0114359, 0.0197843, -0.000831702, -0.00230223
0.145217, 1.69564, -1.22526, -1.53788, -0.899596, -1.20227, 1.23168, -1.30263, 0.0452526, -0.00228802, 0.00299658, -0.000228113, -0.104737, 0.0229186, -0.000954067, -0.960319, 56.2653, 26.8934, 6.47003, 1.63898, 3.02371, 0.0293689, -0.00185404, 0.000101158, -6.07971e-05, 0.00173677, -0.0120871, 0.000111938, 0.0500118, -0.0178573, -0.00462859, -0.0250386, 0.130003, 0.0159594, 0.470975, -0.541231, 0.336446, -2.08228, -2.1654, -0.130045, 0.471146, -0.543066, 0.336213, -2.08766, -2.17145, -0.115826, -0.000974976, 0.0463091, 0.0115835, 0.0184979, -0.00159595, -0.00135514
0.146217, 1.69568, -1.22526, -1.53787, -0.899599, -1.20237, 1.23169, -1.30263, 0.0467695, -0.00328858, 0.0040792, -0.000152022, -0.107263, 0.0169284, -0.00114467, -0.960319, 56.3406, 26.822, 6.47003, 1.65088, 3.03012, 0.0431018, -0.0019024, 0.000117441, -5.51387e-05, 0.00175201, -0.0121953, 0.000106799, 0.049749, -0.0175206, -0.00547701, -0.0306201, 0.12853, 0.0172875, 0.470974, -0.541185, 0.336457, -2.08224, -2.16539, -0.130049, 0.471163, -0.543066, 0.336211, -2.08767, -2.1715, -0.115703, -0.000996102, 0.0469312, 0.0117316, 0.0180999, -0.000596373, -0.00199455
0.147217, 1.69573, -1.22527, -1.53788, -0.899605, -1.20247, 1.23171, -1.30263, 0.0523647, -0.00302761, 0.00135731, -0.0041374, -0.10453, 0.0167608, 0.00120357, -1.0357, 56.3763, 26.8934, 6.5097, 1.66919, 3.04477, -0.00999879, -0.00194891, 0.000137228, -4.70232e-05, 0.00177602, -0.012308, 0.000103521, 0.0467027, -0.0213541, -0.00720142, -0.0344331, 0.127643, 0.0236197, 0.470973, -0.541138, 0.336469, -2.08221, -2.16538, -0.130052, 0.471183, -0.543063, 0.336206, -2.08767, -2.17155, -0.115566, -0.00101751, 0.0475565, 0.0118804, 0.0217329, 0.00346291, -0.00319219
0.148217, 1.69577, -1.22527, -1.53788, -0.899608, -1.20257, 1.23172, -1.30263, 0.0517803, -0.00461686, -0.00239039, -0.00301724, -0.102496, 0.0172844, 0.00103974, -1.0357, 56.4874, 27.0441, 6.5097, 1.68201, 3.04477, -0.0164075, -0.00200035, 0.000152099, -3.57522e-05, 0.00180118, -0.0124139, 0.000105249, 0.0485288, -0.0204707, -0.00928079, -0.0357064, 0.125235, 0.0211954, 0.470972, -0.54109, 0.336481, -2.08218, -2.16537, -0.130056, 0.471198, -0.543064, 0.336199, -2.08768, -2.17158, -0.115433, -0.00103921, 0.0481849, 0.0120297, 0.0208183, 0.00257526, -0.00535529
0.149217, 1.69581, -1.22527, -1.53788, -0.899606, -1.20265, 1.23174, -1.30263, 0.04914, -0.00224269, 0.000343049, -0.0036142, -0.0956996, 0.0124528, -0.00123962, -1.07537, 56.4517, 26.9687, 6.43433, 1.68201, 3.05942, 0.0357776, -0.00204816, 0.000170125, -3.52004e-05, 0.00180767, -0.0125231, 9.45599e-05, 0.0475307, -0.0194381, -0.00735227, -0.0339166, 0.119875, 0.024947, 0.470971, -0.541042, 0.336493, -2.08214, -2.16536, -0.130059, 0.471217, -0.543062, 0.336202, -2.08769, -2.17165, -0.11532, -0.0010612, 0.0488164, 0.0121795, 0.0198007, 0.00385055, -0.00311498
0.150217, 1.69586, -1.22528, -1.53789, -0.899611, -1.20275, 1.23176, -1.30263, 0.0463428, -0.00409358, -0.00400294, -0.00365467, -0.0906102, 0.0140976, 0.000360382, -1.07537, 56.5628, 27.1552, 6.47003, 1.6875, 3.05942, 0.00373412, -0.00209981, 0.000186315, -2.19059e-05, 0.0018346, -0.0126279, 9.60222e-05, 0.0496662, -0.0180214, -0.00975003, -0.0335464, 0.115336, 0.0203392, 0.47097, -0.540993, 0.336505, -2.08211, -2.16535, -0.130063, 0.471233, -0.543061, 0.336192, -2.08769, -2.17168, -0.115187, -0.00108347, 0.049451, 0.01233, 0.0183523, 0.00269093, -0.00562318
0.151217, 1.6959, -1.22527, -1.53789, -0.899617, -1.20284, 1.23177, -1.30263, 0.0472316, -0.000130599, -0.0034063, -0.00274393, -0.0874252, 0.0152688, 0.000477614, -1.07537, 56.4517, 27.1909, 6.47003, 1.70581, 3.05942, -0.00267457, -0.00214732, 0.000204348, -2.14813e-05, 0.00185068, -0.0127441, 8.90383e-05, 0.0491761, -0.01892, -0.00707419, -0.0297502, 0.117614, 0.0216342, 0.470969, -0.540944, 0.336517, -2.08207, -2.16534, -0.130066, 0.471252, -0.543058, 0.336196, -2.0877, -2.17174, -0.115055, -0.00110604, 0.0500886, 0.012481, 0.0193091, 0.00343541, -0.00278338
0.152217, 1.69595, -1.22528, -1.53789, -0.899623, -1.20292, 1.23179, -1.30262, 0.0447523, -0.00528398, -0.00312573, -0.00298792, -0.0844075, 0.0168729, 0.000827035, -1.07537, 56.6739, 27.2306, 6.5097, 1.70581, 3.03744, -0.0164075, -0.0021965, 0.000224343, -6.66517e-06, 0.00186451, -0.0128333, 8.23227e-05, 0.0508718, -0.0183622, -0.00982742, -0.0267636, 0.111184, 0.0203512, 0.470968, -0.540894, 0.33653, -2.08203, -2.16533, -0.13007, 0.471272, -0.543053, 0.336186, -2.08769, -2.17178, -0.114953, -0.0011289, 0.0507293, 0.0126325, 0.0186886, 0.00280698, -0.00559937
0.153217, 1.69599, -1.22528, -1.53788, -0.899627, -1.203, 1.2318, -1.30263, 0.0418985, -0.00259463, -0.00202895, -0.00216491, -0.0829059, 0.0172851, -0.00138142, -1.0357, 56.6342, 27.2306, 6.5097, 1.72504, 3.03744, 0.0357776, -0.00224701, 0.000240525, -3.94791e-06, 0.00187438, -0.0129396, 6.99367e-05, 0.0523023, -0.016961, -0.00760302, -0.0235751, 0.113053, 0.0200461, 0.470967, -0.540843, 0.336542, -2.082, -2.16532, -0.130073, 0.471289, -0.543051, 0.336187, -2.08769, -2.17184, -0.114839, -0.00115205, 0.051373, 0.0127846, 0.0174011, 0.00163599, -0.0034333
0.154217, 1.69603, -1.22528, -1.53789, -0.899632, -1.20309, 1.23182, -1.30263, 0.0427606, -0.00265777, -0.00307472, -0.001573, -0.0817523, 0.0183665, 0.00101183, -1.11108, 56.6739, 27.306, 6.5097, 1.74335, 3.01639, -0.0164075, -0.00229689, 0.000259696, 3.11803e-06, 0.00188835, -0.0130443, 6.61262e-05, 0.0528645, -0.0174589, -0.0079265, -0.0227182, 0.113089, 0.0179305, 0.470966, -0.540792, 0.336555, -2.08196, -2.16531, -0.130077, 0.471308, -0.543047, 0.336185, -2.0877, -2.17188, -0.114721, -0.0011755, 0.0520197, 0.0129373, 0.0178836, 0.00179943, -0.00370517
0.155217, 1.69608, -1.22528, -1.53788, -0.89963, -1.20316, 1.23183, -1.30263, 0.0414414, -0.000169874, -0.00201895, -0.00157259, -0.0791428, 0.0139598, -0.00125823, -1.11108, 56.7453, 27.306, 6.39465, 1.72504, 3.00906, 0.0357776, -0.0023462, 0.000278645, 9.94205e-06, 0.00189339, -0.0131336, 5.14848e-05, 0.0526865, -0.0163443, -0.00646306, -0.0238747, 0.111597, 0.0202506, 0.470965, -0.54074, 0.336568, -2.08192, -2.1653, -0.130081, 0.471328, -0.543042, 0.336182, -2.08769, -2.17194, -0.11463, -0.00119924, 0.0526694, 0.0130904, 0.0167952, 0.00235194, -0.00204647
0.156217, 1.69612, -1.22528, -1.53789, -0.899645, -1.20323, 1.23185, -1.30263, 0.0438296, 0.000159452, -0.00299326, -0.00723791, -0.078154, 0.0156329, -0.000364099, -1.11108, 56.7453, 27.3774, 6.5097, 1.72504, 2.99441, 0.0229602, -0.00239357, 0.000299049, 1.72265e-05, 0.00190845, -0.0132333, 3.91199e-05, 0.0507605, -0.0192013, -0.00742555, -0.0256707, 0.113069, 0.0266058, 0.470963, -0.540687, 0.336581, -2.08189, -2.16528, -0.130085, 0.471348, -0.543034, 0.33618, -2.08768, -2.17199, -0.114517, -0.00122328, 0.0533221, 0.0132441, 0.0195188, 0.00517479, -0.0026321
0.157217, 1.69616, -1.22529, -1.53789, -0.899646, -1.2033, 1.23185, -1.30262, 0.0404504, -0.00405087, 0.00015169, -0.00668105, -0.0722186, 0.015602, 0.00121533, -1.0357, 56.9318, 27.417, 6.43433, 1.71222, 3.01639, -0.0164075, -0.00244578, 0.000314922, 2.97359e-05, 0.00191582, -0.0133092, 3.85546e-05, 0.0516734, -0.0184733, -0.00860677, -0.0196358, 0.104091, 0.0248202, 0.470962, -0.540634, 0.336594, -2.08185, -2.16527, -0.130089, 0.471364, -0.54303, 0.336172, -2.08768, -2.17202, -0.114436, -0.00124762, 0.0539777, 0.0133983, 0.0187568, 0.0050831, -0.00376598
0.158217, 1.6962, -1.2253, -1.53788, -0.899657, -1.20337, 1.23187, -1.30263, 0.0406476, -0.00505284, -0.00046625, -0.00593309, -0.0736084, 0.0122461, 0.000572861, -1.07537, 57.0389, 27.4528, 6.47003, 1.72504, 3.00174, -0.00999879, -0.00249315, 0.000338304, 4.08144e-05, 0.00192566, -0.0133987, 1.38954e-05, 0.0526381, -0.0175573, -0.00966406, -0.0233668, 0.103023, 0.0242903, 0.470961, -0.54058, 0.336608, -2.08181, -2.16526, -0.130092, 0.471388, -0.54302, 0.336167, -2.08765, -2.17208, -0.11434, -0.00127226, 0.0546363, 0.013553, 0.0178134, 0.00491616, -0.00477928
0.159217, 1.69624, -1.22531, -1.53789, -0.899666, -1.20344, 1.23188, -1.30263, 0.0412261, -0.00501675, -0.00187319, -0.00536629, -0.069591, 0.00968327, -0.000838796, -0.996025, 57.1143, 27.5281, 6.5097, 1.73053, 2.98709, 0.0229602, -0.00254603, 0.000355526, 5.10562e-05, 0.00193339, -0.0134881, 3.1601e-06, 0.052459, -0.0174924, -0.0103784, -0.0246465, 0.0990307, 0.0264838, 0.47096, -0.540525, 0.336621, -2.08177, -2.16525, -0.130096, 0.471405, -0.543015, 0.336161, -2.08764, -2.17213, -0.114246, -0.0012972, 0.0552977, 0.0137082, 0.0176908, 0.00586343, -0.00530095
0.160217, 1.69628, -1.22531, -1.53788, -0.89967, -1.20351, 1.23189, -1.30263, 0.0388244, -0.00409343, 0.0030016, -0.00528575, -0.066601, 0.0113351, -0.00130518, -0.920646, 57.15, 27.4885, 6.43433, 1.74335, 3.00174, 0.0431018, -0.00259842, 0.00037166, 5.46238e-05, 0.00193397, -0.0135781, -6.24656e-06, 0.0527012, -0.0176042, -0.00788175, -0.0169354, 0.0983746, 0.0278807, 0.470958, -0.54047, 0.336635, -2.08173, -2.16524, -0.1301, 0.471422, -0.54301, 0.336162, -2.08764, -2.17218, -0.114159, -0.00132244, 0.0559621, 0.013864, 0.0178796, 0.00590645, -0.00272386
0.161217, 1.69632, -1.22532, -1.53788, -0.899681, -1.20357, 1.2319, -1.30262, 0.0402681, -0.00609792, 0.00145035, -0.00405456, -0.068409, 0.00822561, 0.00109657, -0.845268, 57.2968, 27.5281, 6.43433, 1.74335, 3.00906, -0.00999879, -0.00264985, 0.000390143, 6.85779e-05, 0.00194325, -0.0136545, -1.52481e-05, 0.0536637, -0.0171339, -0.00983588, -0.0214869, 0.0968407, 0.0245494, 0.470957, -0.540414, 0.336649, -2.08169, -2.16522, -0.130104, 0.47144, -0.543002, 0.336154, -2.08762, -2.17221, -0.114076, -0.00134799, 0.0566293, 0.0140202, 0.0173467, 0.00590838, -0.00463464
0.162217, 1.69636, -1.22532, -1.53788, -0.899692, -1.20364, 1.23191, -1.30262, 0.0399153, -0.00401674, -0.00051336, -0.0062678, -0.0714244, 0.0100912, 0.000731044, -0.845268, 57.2968, 27.6035, 6.43433, 1.77997, 3.03012, -0.00999879, -0.00269994, 0.000409399, 7.52243e-05, 0.00195479, -0.013746, -3.11714e-05, 0.05485, -0.0170533, -0.00946265, -0.0236511, 0.10311, 0.0245832, 0.470956, -0.540357, 0.336663, -2.08165, -2.16521, -0.130108, 0.47146, -0.542993, 0.336153, -2.0876, -2.17227, -0.113976, -0.00137384, 0.0572994, 0.0141769, 0.0172978, 0.00534702, -0.00429482
0.163217, 1.69639, -1.22532, -1.53787, -0.899698, -1.2037, 1.23192, -1.30262, 0.0369799, -0.0061679, 0.00289798, -0.00607362, -0.0720913, 0.012349, 0.000487363, -0.734184, 57.4475, 27.6035, 6.35895, 1.77997, 3.03012, -0.00999879, -0.00275404, 0.000425728, 8.35969e-05, 0.00195291, -0.0138246, -4.12309e-05, 0.0567625, -0.0163407, -0.00918707, -0.0185228, 0.102767, 0.0232706, 0.470954, -0.5403, 0.336677, -2.08161, -2.1652, -0.130113, 0.471477, -0.542987, 0.33615, -2.08759, -2.17231, -0.113903, -0.0014, 0.0579723, 0.0143341, 0.0166403, 0.00406063, -0.00414504
0.164217, 1.69643, -1.22532, -1.53787, -0.899715, -1.20377, 1.23193, -1.30263, 0.0374881, -0.00408463, 0.000673055, -0.00867585, -0.0687499, 0.0150053, -0.0021165, -0.734184, 57.4475, 27.6749, 6.39465, 1.79828, 3.00174, 0.0559192, -0.00280375, 0.000445913, 9.02728e-05, 0.00196245, -0.0139151, -6.9285e-05, 0.0563334, -0.0176463, -0.00895259, -0.0176049, 0.104299, 0.0287445, 0.470953, -0.540242, 0.336692, -2.08157, -2.16519, -0.130117, 0.471497, -0.542976, 0.336149, -2.08756, -2.17237, -0.113808, -0.00142646, 0.058648, 0.0144917, 0.0179112, 0.00517883, -0.00373153
0.165217, 1.69646, -1.22533, -1.53786, -0.899729, -1.20383, 1.23194, -1.30262, 0.0351607, -0.00437305, 0.000757334, -0.0096587, -0.0655741, 0.0171173, 0.000521782, -0.619133, 57.5189, 27.6749, 6.39465, 1.79828, 2.96603, 0.00373412, -0.00285845, 0.000462432, 9.69975e-05, 0.0019594, -0.0139993, -7.61704e-05, 0.0573733, -0.0173267, -0.00897393, -0.0141952, 0.102946, 0.0258443, 0.470951, -0.540183, 0.336706, -2.08153, -2.16517, -0.130121, 0.471514, -0.54297, 0.336147, -2.08756, -2.17242, -0.113731, -0.00145324, 0.0593266, 0.0146499, 0.0176027, 0.00482181, -0.00374958
0.166217, 1.6965, -1.22533, -1.53786, -0.899741, -1.20388, 1.23195, -1.30262, 0.036238, -0.00633368, -0.00102688, -0.0095902, -0.0631813, 0.0189684, 0.000347854, -0.619133, 57.6657, 27.7503, 6.35895, 1.79828, 2.923, 0.00373412, -0.00291054, 0.000482841, 0.000108071, 0.00195987, -0.0140749, -9.57498e-05, 0.0578921, -0.0182521, -0.0106968, -0.0131923, 0.10058, 0.0270747, 0.47095, -0.540124, 0.336721, -2.08148, -2.16516, -0.130125, 0.471534, -0.542959, 0.336142, -2.08753, -2.17247, -0.11366, -0.00148032, 0.0600079, 0.0148084, 0.0184545, 0.00529849, -0.00540424
0.167217, 1.69653, -1.22534, -1.53785, -0.899754, -1.20394, 1.23197, -1.30262, 0.0376108, -0.00597418, 0.00174526, -0.0117919, -0.0559216, 0.0189464, 0.000977888, -0.508049, 57.7411, 27.79, 6.28357, 1.77356, 2.91568, -0.0164075, -0.0029668, 0.00049848, 0.000115489, 0.00195363, -0.0141534, -0.000104712, 0.0552738, -0.0208148, -0.00995414, -0.00847368, 0.0955187, 0.0335343, 0.470949, -0.540064, 0.336735, -2.08144, -2.16515, -0.130129, 0.47155, -0.542953, 0.33614, -2.08752, -2.17251, -0.113592, -0.00150772, 0.0606919, 0.0149675, 0.020919, 0.00855941, -0.00418386
0.168217, 1.69656, -1.22534, -1.53784, -0.899773, -1.20399, 1.23197, -1.30262, 0.0371072, -0.00564458, 0.00304417, -0.0154069, -0.0569457, 0.0137627, 0.000414566, -0.468376, 57.8125, 27.8614, 6.28357, 1.79828, 2.923, -0.00999879, -0.00301854, 0.000517629, 0.000122279, 0.0019572, -0.0142362, -0.000127315, 0.0544959, -0.0205055, -0.0102812, -0.0137702, 0.0948387, 0.037061, 0.470947, -0.540003, 0.33675, -2.0814, -2.16513, -0.130134, 0.471569, -0.542942, 0.33614, -2.0875, -2.17257, -0.113511, -0.00153542, 0.0613787, 0.015127, 0.0205421, 0.0100528, -0.00421753
0.169217, 1.69659, -1.22534, -1.53784, -0.899784, -1.20404, 1.23198, -1.30263, 0.0388344, -0.00235185, 0.00484784, -0.0153329, -0.0521718, 0.0104987, -0.00169031, -0.392998, 57.8879, 27.9011, 6.17248, 1.79828, 2.91568, 0.0431018, -0.0030752, 0.00053311, 0.000129135, 0.00194955, -0.0143112, -0.000144846, 0.0524772, -0.0216568, -0.00813599, -0.0126132, 0.0930043, 0.0432362, 0.470946, -0.539942, 0.336766, -2.08135, -2.16512, -0.130138, 0.471585, -0.542934, 0.336139, -2.08748, -2.17262, -0.11345, -0.00156344, 0.0620682, 0.0152869, 0.0216713, 0.01245, -0.00166159
0.170217, 1.69663, -1.22535, -1.53783, -0.899803, -1.20409, 1.23199, -1.30263, 0.0357319, -0.00157965, 0.00848253, -0.0180269, -0.0484976, 0.00778837, -0.000618248, -0.392998, 58.0347, 27.9725, 6.17248, 1.79828, 2.91568, 0.0293689, -0.00312829, 0.000553523, 0.000139965, 0.00194809, -0.0143848, -0.00016702, 0.0519277, -0.0210632, -0.0069056, -0.0106585, 0.0898135, 0.0444487, 0.470944, -0.53988, 0.336781, -2.08131, -2.16511, -0.130143, 0.471606, -0.542922, 0.336134, -2.08745, -2.17267, -0.113383, -0.00159178, 0.0627604, 0.0154473, 0.0210768, 0.0134691, -0.000183884
0.171217, 1.69666, -1.22534, -1.53782, -0.899819, -1.20414, 1.232, -1.30262, 0.0326581, 0.00108173, 0.00891121, -0.0151741, -0.0510512, 0.0096618, 0.0010459, -0.357292, 57.9633, 28.0121, 6.09711, 1.81018, 2.93765, -0.00999879, -0.00318246, 0.000569876, 0.000138788, 0.00193986, -0.0144712, -0.000179605, 0.055205, -0.0187785, -0.0044984, -0.00763563, 0.0955898, 0.0366088, 0.470942, -0.539817, 0.336796, -2.08126, -2.16509, -0.130147, 0.471622, -0.542912, 0.336142, -2.08744, -2.17272, -0.11331, -0.00162043, 0.0634553, 0.0156081, 0.0189773, 0.01046, 0.00190826
0.172217, 1.69668, -1.22534, -1.53781, -0.899842, -1.20419, 1.23201, -1.30262, 0.0282551, -0.0014362, 0.0101578, -0.0189461, -0.0479822, 0.0121949, 0.000934624, -0.242241, 58.0704, 28.0121, 6.13678, 1.81659, 2.93033, -0.0164075, -0.00323877, 0.000585494, 0.000143783, 0.00192772, -0.0145459, -0.000197297, 0.0563992, -0.0182323, -0.00566293, -0.00410345, 0.0924306, 0.0374215, 0.470941, -0.539753, 0.336812, -2.08122, -2.16508, -0.130152, 0.471638, -0.542903, 0.336143, -2.08742, -2.17277, -0.113254, -0.00164939, 0.0641529, 0.0157694, 0.0184031, 0.0101382, 0.000747454
0.173217, 1.69671, -1.22534, -1.5378, -0.899863, -1.20423, 1.23201, -1.30262, 0.0318863, -0.00162426, 0.0100329, -0.0205426, -0.0465805, 0.0127874, -0.000597621, -0.281914, 58.11, 28.0478, 6.13678, 1.85321, 2.95871, 0.0165515, -0.00329014, 0.00060669, 0.000147638, 0.00192162, -0.0146242, -0.00022937, 0.0548526, -0.0208838, -0.00622989, -0.00421732, 0.0921545, 0.0444141, 0.470939, -0.539689, 0.336828, -2.08117, -2.16506, -0.130156, 0.47166, -0.542888, 0.336146, -2.08738, -2.17284, -0.11319, -0.00167868, 0.0648531, 0.015931, 0.0209443, 0.0125651, 0.000506513
0.174217, 1.69673, -1.22534, -1.53779, -0.89988, -1.20427, 1.23202, -1.30263, 0.0316811, -0.0043206, 0.0113554, -0.0199834, -0.0406381, 0.00886246, -0.000398414, -0.206535, 58.2568, 28.1589, 6.0614, 1.88434, 2.98068, 0.0165515, -0.00334979, 0.00061961, 0.000157155, 0.00191602, -0.01469, -0.000244414, 0.0542351, -0.0208812, -0.00767912, -0.00349889, 0.0830062, 0.046224, 0.470937, -0.539624, 0.336844, -2.08113, -2.16505, -0.130161, 0.471673, -0.54288, 0.336143, -2.08735, -2.17288, -0.113135, -0.00170828, 0.065556, 0.0160931, 0.0208353, 0.0141039, -0.000667113
0.175217, 1.69676, -1.22534, -1.53778, -0.899901, -1.20431, 1.23203, -1.30263, 0.0270747, -0.00180544, 0.0134472, -0.0228886, -0.0406298, 0.00731436, -0.00124895, -0.206535, 58.2172, 28.2343, 5.98602, 1.90906, 2.96603, 0.0431018, -0.0034047, 0.000637772, 0.000157291, 0.00190128, -0.0147704, -0.000267711, 0.0553059, -0.0189868, -0.00580095, -0.00331735, 0.0852135, 0.0460681, 0.470936, -0.539559, 0.33686, -2.08108, -2.16503, -0.130166, 0.471691, -0.542868, 0.336149, -2.08733, -2.17294, -0.113077, -0.0017382, 0.0662614, 0.0162556, 0.0190241, 0.0133813, 0.00123851
0.176217, 1.69678, -1.22534, -1.53776, -0.899927, -1.20435, 1.23204, -1.30262, 0.0280615, -0.00243892, 0.0136103, -0.0237212, -0.0400969, 0.010782, 0.000862785, -0.131157, 58.4036, 28.2343, 5.98602, 1.92096, 2.95138, -0.00267457, -0.00346201, 0.00065367, 0.000165047, 0.00188472, -0.0148324, -0.000284359, 0.0556224, -0.0204688, -0.0060235, -0.000335499, 0.0864607, 0.0460097, 0.470934, -0.539493, 0.336876, -2.08103, -2.16502, -0.13017, 0.471707, -0.542856, 0.336148, -2.08731, -2.17299, -0.113039, -0.00176845, 0.0669695, 0.0164185, 0.0204775, 0.0138748, 0.00108278
0.177217, 1.6968, -1.22534, -1.53775, -0.89995, -1.20438, 1.23205, -1.30262, 0.0273187, 0.00104705, 0.0110372, -0.0223786, -0.0361926, 0.0134779, 0.000846458, -0.131157, 58.4393, 28.3454, 5.91064, 1.96399, 2.93033, -0.00999879, -0.00351836, 0.000671821, 0.000166864, 0.00186829, -0.0149091, -0.000306231, 0.0567847, -0.0201691, -0.00447002, 0.00277221, 0.0885926, 0.0441989, 0.470932, -0.539426, 0.336892, -2.08098, -2.165, -0.130175, 0.471725, -0.542844, 0.336153, -2.08728, -2.17305, -0.112987, -0.00179901, 0.0676801, 0.0165817, 0.0202494, 0.0131846, 0.00260378
0.178217, 1.69682, -1.22533, -1.53774, -0.899978, -1.20441, 1.23205, -1.30262, 0.0259854, 0.00252692, 0.00830131, -0.0225577, -0.0364532, 0.00975893, 0.000564305, -0.0914839, 58.5147, 28.4961, 5.87494, 1.9704, 2.93765, -0.00999879, -0.00357593, 0.000686845, 0.000172799, 0.00185768, -0.0149756, -0.000328173, 0.0581565, -0.0182468, -0.00489565, -0.00257579, 0.0891041, 0.0419268, 0.47093, -0.539358, 0.336909, -2.08094, -2.16499, -0.13018, 0.471741, -0.542831, 0.336154, -2.08725, -2.1731, -0.112938, -0.0018299, 0.0683933, 0.0167454, 0.0183335, 0.0125303, 0.00219002
0.179217, 1.69684, -1.22533, -1.53773, -0.900004, -1.20444, 1.23206, -1.30263, 0.0242516, 0.00466254, 0.0131254, -0.0256854, -0.0332136, 0.0128153, -0.00159048, -0.0161054, 58.5504, 28.4961, 5.83527, 2.00702, 2.91568, 0.0431018, -0.00363338, 0.000702508, 0.000172598, 0.00183569, -0.015047, -0.000357111, 0.0571879, -0.0197102, -0.0020583, 0.00492474, 0.0904939, 0.0485372, 0.470929, -0.53929, 0.336926, -2.08089, -2.16497, -0.130185, 0.471757, -0.542819, 0.336162, -2.08722, -2.17316, -0.112898, -0.00186112, 0.069109, 0.0169095, 0.0198364, 0.013822, 0.00525814
0.180217, 1.69686, -1.22533, -1.53771, -0.90003, -1.20447, 1.23206, -1.30262, 0.0224454, 0.00359137, 0.0146765, -0.0241885, -0.0295874, 0.0133832, -7.69791e-05, -0.0557783, 58.6972, 28.5715, 5.76385, 2.01343, 2.93765, 0.0165515, -0.00369015, 0.000719439, 0.000179966, 0.00182023, -0.0151034, -0.000380544, 0.0582913, -0.0191687, -0.00184566, 0.00951358, 0.0869417, 0.0459627, 0.470927, -0.53922, 0.336943, -2.08084, -2.16496, -0.13019, 0.471773, -0.542804, 0.336162, -2.08718, -2.17321, -0.112865, -0.00189266, 0.0698272, 0.0170739, 0.0193132, 0.0133961, 0.00547349
0.181217, 1.69688, -1.22532, -1.5377, -0.900061, -1.20449, 1.23206, -1.30262, 0.0200907, 0.0023829, 0.013592, -0.0269271, -0.0277811, 0.009267, 0.00116938, -0.0557783, 58.7329, 28.6072, 5.72418, 2.04364, 2.95871, -0.0164075, -0.00374558, 0.000736014, 0.000179051, 0.00179992, -0.0151711, -0.000406102, 0.0588321, -0.0177494, -0.00361579, 0.00495078, 0.0829803, 0.0449295, 0.470925, -0.539151, 0.33696, -2.08079, -2.16494, -0.130195, 0.47179, -0.542788, 0.33617, -2.08715, -2.17327, -0.112827, -0.00192452, 0.0705479, 0.0172387, 0.0178173, 0.0138003, 0.00384849
0.182217, 1.69689, -1.22532, -1.53768, -0.900099, -1.20451, 1.23207, -1.30262, 0.0164795, 0.00127848, 0.0166351, -0.0308286, -0.025564, 0.00702157, 0.00101695, 0.0196001, 58.7726, 28.6072, 5.76385, 2.05005, 2.95871, -0.0228162, -0.00380158, 0.000751382, 0.000180358, 0.00177969, -0.0152325, -0.000436431, 0.0588251, -0.0169962, -0.00379538, 0.00545941, 0.0794983, 0.0471946, 0.470923, -0.53908, 0.336977, -2.08074, -2.16492, -0.1302, 0.471806, -0.542772, 0.336177, -2.08711, -2.17332, -0.112795, -0.00195671, 0.0712712, 0.0174039, 0.0170266, 0.0145275, 0.00385885
0.183217, 1.69691, -1.22532, -1.53767, -0.900136, -1.20453, 1.23206, -1.30262, 0.0196129, -0.0012827, 0.0154965, -0.0326639, -0.0194529, 0.00558498, -0.000542738, -0.0161054, 58.8837, 28.754, 5.76385, 2.06195, 2.95138, 0.0101428, -0.00385694, 0.000768909, 0.000189756, 0.00177168, -0.0152851, -0.000474194, 0.0567586, -0.0194494, -0.00632229, 0.00463927, 0.0720839, 0.0550609, 0.470921, -0.539009, 0.336994, -2.08069, -2.16491, -0.130205, 0.471823, -0.542753, 0.336175, -2.08705, -2.17338, -0.11276, -0.00198923, 0.0719968, 0.0175694, 0.0192726, 0.0177912, 0.00177501
