alisrour97/Franka_experiments/Real_Robot_scripts/servo-franka/Data/log_dyn_INIT0_11.csv
Time,q1,q2,q3,q4,q5,q6,q7,dq1,dq2,dq3,dq4,dq5,dq6,dq7,t1,t2,t3,t4,t5,t6,t7,ex1,ex2,ex3,ex4,ex5,ex6,ev1,ev2,ev3,ev4,ev5,ev6,xd,yd,zd,uxd,uyd,uzd,x,y,z,ux,uy,uz,vxd,vyd,vzd,vx,vy,vz
4.88281e-07, 1.691, -1.22814, -1.5397, -0.900519, -1.19237, 1.22776, -1.30258, -0.00345011, 0.000482317, -0.00555109, -0.00194763, 0.00730241, 0.000367102, 0.000814343, -0.0914839, 64.1483, 32.1421, 7.9657, 2.75043, 4.27798, -0.238881, 0.000290406, -0.00212624, 0.00231104, 0.00300449, 0.00187811, 0.000947404, 0.000685736, 0.00160239, -0.00174663, -0.00147686, -0.00487327, -0.00274634, 0.471008, -0.543389, 0.335894, -2.08385, -2.16584, -0.129887, 0.468786, -0.542838, 0.333716, -2.0823, -2.16259, -0.128351, 1.77043e-06, 3.2e-05, 1.02972e-05, -0.00163708, -0.0004417, -0.00177251
0.0121011, 1.69099, -1.22815, -1.53973, -0.900536, -1.19234, 1.22777, -1.30258, 0.000390294, -0.00107585, -0.0031708, -0.00249691, 0.00130609, 0.000555782, -0.00178933, 0.360787, 64.2236, 32.2532, 7.85065, 2.77515, 4.23495, -0.265431, 0.000291014, -0.00212601, 0.00232525, 0.00300972, 0.0019038, 0.000944681, -0.000289622, -0.00048134, -0.00208327, -0.00301109, -0.00138487, 0.00329869, 0.471008, -0.543389, 0.335894, -2.08385, -2.16584, -0.129887, 0.46879, -0.542831, 0.333707, -2.08227, -2.16259, -0.128381, 1.77746e-06, 6.40623e-05, 1.89552e-05, 0.000396944, 0.000690327, -0.00200767
0.0131011, 1.69099, -1.22815, -1.53973, -0.900536, -1.19234, 1.22777, -1.30258, 0.000390294, -0.00107585, -0.0031708, -0.00249691, 0.00130609, 0.000555782, -0.00178933, 0.360787, 64.2236, 32.2532, 7.85065, 2.77515, 4.23495, -0.265431, 0.000291007, -0.00212601, 0.00232525, 0.00300972, 0.00190379, 0.000944683, -0.000253366, -0.000480191, -0.00208722, -0.00300646, -0.00135833, 0.00330129, 0.471008, -0.543389, 0.335894, -2.08385, -2.16584, -0.129887, 0.46879, -0.542831, 0.333707, -2.08227, -2.16259, -0.128381, 1.77167e-06, 9.92934e-05, 2.84561e-05, 0.000396944, 0.000690327, -0.00200767
0.0141011, 1.69099, -1.22815, -1.53973, -0.900536, -1.19234, 1.22777, -1.30258, 0.000390294, -0.00107585, -0.0031708, -0.00249691, 0.00130609, 0.000555782, -0.00178933, 0.360787, 64.2236, 32.2532, 7.85065, 2.77515, 4.23495, -0.265431, 0.000290986, -0.00212601, 0.00232525, 0.00300971, 0.00190378, 0.000944688, -0.000213722, -0.000478948, -0.00209154, -0.00300136, -0.00132932, 0.00330414, 0.471008, -0.543389, 0.335894, -2.08385, -2.16584, -0.129887, 0.46879, -0.542831, 0.333707, -2.08227, -2.16259, -0.128381, 1.75167e-06, 0.000137819, 3.88327e-05, 0.000396944, 0.000690327, -0.00200767
0.0151011, 1.69099, -1.22815, -1.53973, -0.900536, -1.19234, 1.22777, -1.30258, 0.000390294, -0.00107585, -0.0031708, -0.00249691, 0.00130609, 0.000555782, -0.00178933, 0.360787, 64.2236, 32.2532, 7.85065, 2.77515, 4.23495, -0.265431, 0.000290947, -0.00212601, 0.00232525, 0.00300969, 0.00190376, 0.000944698, -0.000170561, -0.000477608, -0.00209623, -0.00299578, -0.00129776, 0.00330725, 0.471008, -0.543389, 0.335894, -2.08385, -2.16584, -0.129887, 0.46879, -0.542831, 0.333707, -2.08227, -2.16259, -0.128381, 1.716e-06, 0.000179762, 5.01169e-05, 0.000396944, 0.000690327, -0.00200767
0.0161011, 1.69099, -1.22815, -1.53973, -0.900536, -1.19234, 1.22777, -1.30258, 0.000390294, -0.00107585, -0.0031708, -0.00249691, 0.00130609, 0.000555782, -0.00178933, 0.360787, 64.2236, 32.2532, 7.85065, 2.77515, 4.23495, -0.265431, 0.000290883, -0.00212601, 0.00232526, 0.00300967, 0.00190373, 0.000944713, -0.000123757, -0.000476168, -0.00210129, -0.00298969, -0.00126354, 0.00331063, 0.471008, -0.543389, 0.335894, -2.08385, -2.16584, -0.129887, 0.46879, -0.542831, 0.333707, -2.08227, -2.16259, -0.128381, 1.66317e-06, 0.000225248, 6.23407e-05, 0.000396944, 0.000690327, -0.00200767
0.0171011, 1.69099, -1.22815, -1.53973, -0.900536, -1.19234, 1.22777, -1.30258, 0.000390294, -0.00107585, -0.0031708, -0.00249691, 0.00130609, 0.000555782, -0.00178933, 0.360787, 64.2236, 32.2532, 7.85065, 2.77515, 4.23495, -0.265431, 0.000290787, -0.00212601, 0.00232527, 0.00300963, 0.00190369, 0.000944737, -7.31844e-05, -0.000474627, -0.00210675, -0.00298309, -0.00122658, 0.00331427, 0.471008, -0.543389, 0.335894, -2.08385, -2.16584, -0.129887, 0.46879, -0.542831, 0.333707, -2.08227, -2.16259, -0.128381, 1.59159e-06, 0.000274397, 7.55354e-05, 0.000396944, 0.000690327, -0.00200767
0.0181011, 1.69099, -1.22815, -1.53973, -0.900536, -1.19234, 1.22777, -1.30258, 0.000390294, -0.00107585, -0.0031708, -0.00249691, 0.00130609, 0.000555782, -0.00178933, 0.360787, 64.2236, 32.2532, 7.85065, 2.77515, 4.23495, -0.265431, 0.000290653, -0.00212602, 0.00232529, 0.00300958, 0.00190362, 0.00094477, -1.87202e-05, -0.000472981, -0.00211262, -0.00297595, -0.0011868, 0.0033182, 0.471008, -0.543389, 0.335894, -2.08385, -2.16584, -0.129887, 0.46879, -0.542831, 0.333707, -2.08227, -2.16259, -0.128381, 1.49965e-06, 0.00032733, 8.9732e-05, 0.000396944, 0.000690327, -0.00200767
0.0191011, 1.69099, -1.22815, -1.53973, -0.900536, -1.19234, 1.22777, -1.30258, 0.000390294, -0.00107585, -0.0031708, -0.00249691, 0.00130609, 0.000555782, -0.00178933, 0.360787, 64.2236, 32.2532, 7.85065, 2.77515, 4.23495, -0.265431, 0.000290475, -0.00212602, 0.00232531, 0.0030095, 0.00190353, 0.000944814, 3.97577e-05, -0.000471229, -0.00211891, -0.00296825, -0.0011441, 0.00332243, 0.471008, -0.543389, 0.335894, -2.08385, -2.16584, -0.129887, 0.46879, -0.542831, 0.333707, -2.08227, -2.16259, -0.128381, 1.38564e-06, 0.000384166, 0.000104961, 0.000396944, 0.000690327, -0.00200767
0.0201011, 1.69099, -1.22815, -1.53973, -0.900536, -1.19234, 1.22777, -1.30258, 0.000390294, -0.00107585, -0.0031708, -0.00249691, 0.00130609, 0.000555782, -0.00178933, 0.360787, 64.2236, 32.2532, 7.85065, 2.77515, 4.23495, -0.265431, 0.000290247, -0.00212603, 0.00232533, 0.00300941, 0.00190342, 0.00094487, 0.000102369, -0.000469368, -0.00212562, -0.00295996, -0.0010984, 0.00332695, 0.471008, -0.543389, 0.335894, -2.08385, -2.16584, -0.129887, 0.46879, -0.542831, 0.333707, -2.08227, -2.16259, -0.128381, 1.24785e-06, 0.00044502, 0.000121252, 0.000396944, 0.000690327, -0.00200767
0.0211011, 1.69098, -1.22816, -1.53973, -0.900527, -1.19234, 1.22779, -1.30258, -0.0053161, -0.000747418, 0.000820454, 7.83127e-05, -0.000236071, 0.00583038, -0.00151858, 0.360787, 64.3704, 32.2532, 7.70386, 2.81177, 4.12692, -0.218739, 0.000279371, -0.00212972, 0.0023281, 0.0029878, 0.00190257, 0.000957905, 0.00345991, 0.00182038, 0.000592378, 0.00654478, 0.0024892, -0.00343179, 0.471008, -0.543388, 0.335894, -2.08385, -2.16584, -0.129887, 0.468787, -0.542841, 0.333703, -2.0823, -2.16259, -0.128403, 1.08446e-06, 0.000510009, 0.000138634, -0.00167184, -0.00307139, 0.000241456
0.0221011, 1.69098, -1.22815, -1.53972, -0.900527, -1.19234, 1.22779, -1.30258, -0.00401894, 0.0021094, 0.00054375, 3.13247e-05, 9.05231e-05, 0.00451215, -0.000282588, 0.360787, 64.2593, 32.2532, 7.70386, 2.80536, 4.12051, -0.238881, 0.000279813, -0.00212933, 0.00232315, 0.00298437, 0.00189424, 0.000959786, 0.0025314, 0.00138855, 0.00197544, 0.0053312, 0.00453254, -0.00341815, 0.471008, -0.543388, 0.335894, -2.08385, -2.16584, -0.129887, 0.468788, -0.542841, 0.333708, -2.0823, -2.16259, -0.128398, 8.93621e-07, 0.000579243, 0.000157137, -0.00122405, -0.00228071, 0.00175671
0.0231011, 1.69097, -1.22816, -1.53973, -0.900526, -1.19235, 1.22779, -1.30258, -0.0057267, -0.00715483, -0.00569519, -0.00167763, 0.00118724, 0.0057065, 0.0099092, 0.475838, 64.1125, 32.1064, 7.62848, 2.77515, 4.05551, -0.258107, 0.000272063, -0.00213459, 0.002331, 0.00298659, 0.00190017, 0.000978014, 0.00492159, 0.00256041, -0.00573097, 0.000107431, -0.00443914, -0.0162518, 0.471008, -0.543388, 0.335894, -2.08384, -2.16584, -0.129887, 0.468782, -0.542848, 0.333699, -2.08232, -2.16257, -0.1284, 6.73433e-07, 0.000652833, 0.000176787, -0.00258731, -0.00342859, -0.00616876
0.0241011, 1.69097, -1.22818, -1.53974, -0.900526, -1.19235, 1.2278, -1.30258, -0.0031569, -0.0139829, -0.0100322, -0.00123307, -0.00350464, 0.00771852, 0.00850483, 0.436165, 63.6682, 31.8088, 7.47772, 2.63965, 3.95572, -0.166554, 0.000266073, -0.00213717, 0.00234204, 0.00299583, 0.00190699, 0.000980981, 0.00666727, 0.00202348, -0.0111876, -0.00487245, -0.00602755, -0.0162204, 0.471008, -0.543387, 0.335894, -2.08384, -2.16584, -0.129887, 0.46878, -0.542851, 0.333688, -2.08231, -2.16256, -0.128396, 4.21933e-07, 0.000730885, 0.000197611, -0.00218588, -0.00421211, -0.011823
0.0251011, 1.69098, -1.22818, -1.53977, -0.900532, -1.19236, 1.22781, -1.30258, 0.00214956, -0.0100875, -0.0169923, -0.00564054, -0.00729557, 0.00477495, 0.00493128, 0.245735, 62.9343, 31.5113, 7.36664, 2.49866, 3.84036, -0.120778, 0.000263428, -0.00213469, 0.00235501, 0.00302205, 0.00189872, 0.000981361, 0.00461688, 0.000328667, -0.0125225, -0.0178672, 0.000557573, -0.00822901, 0.471008, -0.543387, 0.335895, -2.08384, -2.16584, -0.129887, 0.468782, -0.542851, 0.333674, -2.0823, -2.16255, -0.128359, 1.37109e-07, 0.000813505, 0.000219637, -0.000615042, -0.00183046, -0.012852
0.0261011, 1.691, -1.22819, -1.5398, -0.900541, -1.19237, 1.22781, -1.30257, 0.0065725, -0.00988893, -0.0167015, -0.00905486, -0.006154, 0.00636411, 0.00992467, 0.0196001, 62.2717, 31.1027, 7.25555, 2.36957, 3.74698, -0.153737, 0.000261615, -0.00213087, 0.00237378, 0.00306157, 0.00189159, 0.000986568, 0.0015945, -0.00338114, -0.0128789, -0.0179876, 0.00110036, -0.005341, 0.471008, -0.543386, 0.335895, -2.08384, -2.16584, -0.129887, 0.468785, -0.542849, 0.333656, -2.08229, -2.16253, -0.128307, -1.83099e-07, 0.000900793, 0.00024289, 0.00296871, 0.00144726, -0.0128234
0.0271011, 1.691, -1.22821, -1.53984, -0.900546, -1.19239, 1.22781, -1.30257, 0.0051042, -0.00639239, -0.0199539, -0.00902197, -0.0117129, 0.00508552, 0.00778358, -0.0161054, 61.7163, 30.6901, 7.02942, 2.28351, 3.7186, -0.160145, 0.000251122, -0.00213636, 0.00239671, 0.00310354, 0.00189105, 0.00100486, 0.00366547, -0.0010483, -0.0120179, -0.0239844, 0.00872847, -0.00815978, 0.471008, -0.543385, 0.335895, -2.08384, -2.16584, -0.129887, 0.468779, -0.542856, 0.333632, -2.08229, -2.1625, -0.128259, -5.40806e-07, 0.000992849, 0.000267393, 0.000743653, -0.00073318, -0.0121998
0.0281011, 1.691, -1.22821, -1.53984, -0.900546, -1.19239, 1.22781, -1.30257, 0.0051042, -0.00639239, -0.0199539, -0.00902197, -0.0117129, 0.00508552, 0.00778358, -0.0161054, 61.7163, 30.6901, 7.02942, 2.28351, 3.7186, -0.160145, 0.000250273, -0.00213638, 0.0023968, 0.0031032, 0.00189064, 0.00100507, 0.00376517, -0.00104551, -0.0120284, -0.0239708, 0.00880105, -0.00815255, 0.471008, -0.543384, 0.335895, -2.08384, -2.16584, -0.129887, 0.468779, -0.542856, 0.333632, -2.08229, -2.1625, -0.128259, -9.38169e-07, 0.00108977, 0.000293171, 0.000743653, -0.00073318, -0.0121998
0.0291011, 1.69101, -1.22824, -1.53993, -0.900569, -1.19244, 1.22782, -1.30257, 0.00332429, -0.0104193, -0.0294442, -0.00946169, -0.020274, 0.00496625, 0.0037917, -0.0914839, 60.907, 29.7974, 6.73187, 2.24689, 3.63254, -0.133595, 0.000227297, -0.0021455, 0.00245153, 0.00321393, 0.00186832, 0.00103341, 0.00855195, 0.00245079, -0.0177489, -0.0366163, 0.0124012, -0.0128722, 0.471008, -0.543383, 0.335895, -2.08384, -2.16584, -0.129887, 0.468769, -0.54287, 0.333575, -2.08227, -2.16244, -0.12811, -1.3774e-06, 0.00119164, 0.000320246, -0.0027839, -0.00461953, -0.0184588
0.0301011, 1.69102, -1.22827, -1.53998, -0.900584, -1.19247, 1.22783, -1.30257, 0.00216865, -0.0126142, -0.0343371, -0.00884304, -0.0230156, 0.00641031, 0.00437811, -0.0914839, 60.7245, 29.4245, 6.62079, 2.19745, 3.54648, -0.172963, 0.000213599, -0.00214756, 0.00248779, 0.0032715, 0.00186109, 0.00105181, 0.0112687, 0.00411131, -0.020513, -0.0406143, 0.0134783, -0.0183583, 0.471008, -0.543382, 0.335896, -2.08384, -2.16584, -0.129887, 0.468766, -0.542877, 0.333537, -2.08226, -2.1624, -0.128037, -1.86074e-06, 0.00129855, 0.00034864, -0.00444541, -0.00683717, -0.0215313
0.0311011, 1.69102, -1.2283, -1.54004, -0.900606, -1.19251, 1.22784, -1.30257, 0.00281235, -0.0189915, -0.0424361, -0.0142268, -0.0316654, 0.00766627, 0.0034842, -0.0161054, 60.6491, 29.238, 6.62079, 2.19104, 3.45309, -0.180287, 0.000194571, -0.00215432, 0.00252866, 0.00334577, 0.00184221, 0.00107527, 0.0136159, 0.00461439, -0.0278146, -0.0538134, 0.0159217, -0.018767, 0.471008, -0.543381, 0.335896, -2.08384, -2.16584, -0.129887, 0.468758, -0.542888, 0.333494, -2.08225, -2.16236, -0.127934, -2.39049e-06, 0.00141058, 0.000378373, -0.00512803, -0.00793905, -0.0290605
0.0321011, 1.69102, -1.22831, -1.5401, -0.900623, -1.19255, 1.22786, -1.30258, 0.00127673, -0.017798, -0.0478923, -0.0154871, -0.0320765, 0.00824878, 0.00057675, 0.0196001, 60.4666, 28.9048, 6.5097, 2.15442, 3.36703, -0.127186, 0.000177533, -0.00216046, 0.00255785, 0.00340687, 0.00181358, 0.00109137, 0.0152056, 0.00612488, -0.0291037, -0.0585116, 0.0182293, -0.0190421, 0.471008, -0.54338, 0.335896, -2.08384, -2.16584, -0.129887, 0.468752, -0.542899, 0.333463, -2.08225, -2.16233, -0.127835, -2.969e-06, 0.00152782, 0.000409465, -0.00662685, -0.00925465, -0.0305035
0.0331011, 1.69102, -1.22832, -1.54016, -0.90064, -1.19259, 1.22787, -1.30257, 0.000100917, -0.0117221, -0.0505854, -0.0129821, -0.0320625, 0.00837823, 0.00251667, 0.059273, 60.2087, 28.6429, 6.39465, 2.10498, 3.2883, -0.180287, 0.000160871, -0.00216655, 0.00258458, 0.00347591, 0.00177365, 0.00112332, 0.0166001, 0.00790909, -0.0260808, -0.058853, 0.0243473, -0.0257294, 0.471008, -0.543379, 0.335897, -2.08384, -2.16584, -0.129888, 0.468745, -0.542911, 0.333435, -2.08227, -2.16229, -0.127715, -3.59863e-06, 0.00165034, 0.000441934, -0.0082504, -0.0110471, -0.0276489
0.0341011, 1.69103, -1.22832, -1.54022, -0.900663, -1.19263, 1.22789, -1.30256, 0.00241843, -0.00746959, -0.0533853, -0.0164745, -0.0312696, 0.0131395, 0.0010559, 0.0949785, 59.9509, 28.4208, 6.35895, 2.03815, 3.20956, -0.160145, 0.000146007, -0.00217093, 0.00260827, 0.00354322, 0.00172661, 0.00114329, 0.0151948, 0.00544334, -0.0247785, -0.0584403, 0.0309426, -0.0200705, 0.471008, -0.543377, 0.335897, -2.08384, -2.16584, -0.129888, 0.468741, -0.54292, 0.33341, -2.08228, -2.16227, -0.127591, -4.2818e-06, 0.00177822, 0.000475796, -0.00579177, -0.00963142, -0.0261853
0.0351011, 1.69104, -1.22832, -1.54028, -0.900689, -1.19268, 1.22791, -1.30257, 0.00585376, -0.00269395, -0.0521942, -0.0198186, -0.0360316, 0.0161963, -0.00137312, 0.059273, 59.7644, 28.1986, 6.35895, 1.9823, 3.14548, -0.101552, 0.000133964, -0.00217002, 0.00263271, 0.00361357, 0.00167222, 0.00114728, 0.0133886, 0.00262577, -0.0219405, -0.0586671, 0.0415341, -0.0124185, 0.471008, -0.543375, 0.335898, -2.08384, -2.16584, -0.129888, 0.468741, -0.542927, 0.333384, -2.08227, -2.16227, -0.127458, -5.02096e-06, 0.00191151, 0.000511068, -0.00294071, -0.00803649, -0.0231522
0.0361011, 1.69105, -1.22832, -1.54034, -0.900716, -1.19272, 1.22793, -1.30256, 0.00182419, -0.000847242, -0.0541348, -0.0185739, -0.0443748, 0.0138723, 0.000103835, 0.170357, 59.6573, 28.1232, 6.35895, 1.92737, 3.08047, -0.127186, 0.000118926, -0.00217415, 0.00265513, 0.0036854, 0.00161504, 0.00117023, 0.0173257, 0.00691435, -0.021375, -0.0648829, 0.04905, -0.0227076, 0.471008, -0.543374, 0.335898, -2.08383, -2.16584, -0.129888, 0.468737, -0.542937, 0.33336, -2.08229, -2.16225, -0.127318, -5.81861e-06, 0.00205028, 0.000547764, -0.00706335, -0.0120471, -0.023039
0.0371011, 1.69105, -1.22831, -1.54039, -0.900745, -1.19277, 1.22794, -1.30256, 0.00285897, 0.00624192, -0.0548338, -0.0250864, -0.0460597, 0.0105285, 0.00110493, 0.245735, 59.5819, 28.0121, 6.39465, 1.87793, 3.05942, -0.153737, 0.000106827, -0.00217694, 0.00267328, 0.00375931, 0.00155239, 0.00118573, 0.0145571, 0.00593761, -0.0187191, -0.071826, 0.0565936, -0.0180054, 0.471008, -0.543372, 0.335899, -2.08383, -2.16584, -0.129888, 0.468734, -0.542944, 0.333341, -2.08229, -2.16224, -0.127171, -6.67726e-06, 0.00219459, 0.000585897, -0.00609187, -0.00953831, -0.0199781
0.0381011, 1.69105, -1.2283, -1.54045, -0.900778, -1.19283, 1.22795, -1.30256, 0.00102219, 0.00792621, -0.0523058, -0.0276241, -0.048534, 0.0122049, 0.00472873, 0.436165, 59.5462, 28.0478, 6.47003, 1.85962, 3.05942, -0.133595, 9.11903e-05, -0.0021827, 0.0026921, 0.00383731, 0.0014818, 0.001201, 0.0147577, 0.005963, -0.0169565, -0.0700704, 0.0612466, -0.0208503, 0.471008, -0.54337, 0.335899, -2.08383, -2.16584, -0.129888, 0.468728, -0.542955, 0.333321, -2.0823, -2.16224, -0.127012, -7.59945e-06, 0.00234449, 0.000625478, -0.00604734, -0.0098588, -0.0182285
0.0391011, 1.69105, -1.22829, -1.5405, -0.900814, -1.19288, 1.22797, -1.30256, -0.000923041, 0.0052895, -0.0532788, -0.0292774, -0.0547491, 0.0115997, 0.00187809, 0.6623, 59.5462, 28.0875, 6.54541, 1.8349, 3.10977, -0.0878186, 7.76006e-05, -0.00218805, 0.00270811, 0.00391214, 0.00141245, 0.00121182, 0.0169028, 0.00762822, -0.0190455, -0.075023, 0.0636644, -0.0209517, 0.471008, -0.543367, 0.3359, -2.08383, -2.16584, -0.129888, 0.468722, -0.542963, 0.333304, -2.08231, -2.16223, -0.126858, -8.58778e-06, 0.00250002, 0.000666519, -0.00771013, -0.0115675, -0.0205329
0.0401011, 1.69105, -1.22827, -1.54054, -0.900848, -1.19295, 1.22798, -1.30256, -0.000560131, 0.0085763, -0.0528556, -0.0330851, -0.0562793, 0.0106768, 0.00278853, 0.963814, 59.4708, 28.0875, 6.58508, 1.85321, 3.18118, -0.120778, 6.24695e-05, -0.00219486, 0.00271705, 0.00398097, 0.00132974, 0.00123275, 0.0155935, 0.00690544, -0.0176066, -0.0777343, 0.0681741, -0.018526, 0.471008, -0.543365, 0.3359, -2.08383, -2.16584, -0.129889, 0.468716, -0.542975, 0.333293, -2.08233, -2.16223, -0.126696, -9.64483e-06, 0.00266124, 0.000709027, -0.00698421, -0.0103056, -0.0188882
0.0411011, 1.69105, -1.22826, -1.54059, -0.900882, -1.19301, 1.228, -1.30256, -0.00106726, 0.00819192, -0.0487953, -0.0315188, -0.0575219, 0.0198559, 0.00138377, 1.305, 59.5065, 28.1986, 6.58508, 1.87793, 3.24527, -0.101552, 4.50005e-05, -0.0022025, 0.00272995, 0.0040487, 0.00125203, 0.00125291, 0.0168517, 0.00527956, -0.0153655, -0.0659704, 0.0730607, -0.0174315, 0.471008, -0.543362, 0.335901, -2.08383, -2.16584, -0.129889, 0.468708, -0.542988, 0.333279, -2.08236, -2.16223, -0.12654, -1.07732e-05, 0.00282817, 0.000753011, -0.00523566, -0.0116593, -0.0168756
0.0421011, 1.69105, -1.22825, -1.54062, -0.900916, -1.19308, 1.22801, -1.30256, 0.000149303, 0.00635573, -0.0414543, -0.0327604, -0.0631266, 0.0181447, 0.00482118, 1.45576, 59.6176, 28.274, 6.54541, 1.90906, 3.29562, -0.0750012, 3.29876e-05, -0.00220299, 0.00274276, 0.00411501, 0.00117436, 0.00125634, 0.0157, 0.00393816, -0.014243, -0.0645581, 0.0747883, -0.0168759, 0.471008, -0.54336, 0.335902, -2.08382, -2.16584, -0.129889, 0.468708, -0.542995, 0.333265, -2.08236, -2.16224, -0.126388, -1.19756e-05, 0.00300084, 0.000798475, -0.00389786, -0.0104675, -0.0155835
0.0431011, 1.69105, -1.22824, -1.54067, -0.900954, -1.19315, 1.22803, -1.30256, 0.000612774, 0.0127894, -0.0431091, -0.030638, -0.0613936, 0.0168075, 0.00397672, 1.75727, 59.5462, 28.5319, 6.5097, 1.90906, 3.34598, -0.0814099, 1.63378e-05, -0.00220921, 0.00275075, 0.00418045, 0.001084, 0.00127355, 0.0155721, 0.00461521, -0.0109124, -0.0648593, 0.0791845, -0.0177576, 0.471008, -0.543357, 0.335903, -2.08382, -2.16584, -0.129889, 0.468702, -0.543007, 0.333256, -2.08239, -2.16225, -0.126222, -1.32547e-05, 0.00317929, 0.000845424, -0.00445962, -0.0107031, -0.0122076
0.0441011, 1.69104, -1.22823, -1.5407, -0.90099, -1.19322, 1.22805, -1.30255, 0.00201398, 0.00838871, -0.0383876, -0.03159, -0.0668447, 0.0204419, 0.00450315, 2.02308, 59.7287, 28.6826, 6.43433, 1.95758, 3.39633, -0.120778, -1.20355e-07, -0.00221314, 0.00276214, 0.00424002, 0.00100171, 0.00128967, 0.0157444, 0.00265598, -0.0117308, -0.0611232, 0.0810289, -0.0155154, 0.471008, -0.543354, 0.335903, -2.08382, -2.16584, -0.129889, 0.468698, -0.543019, 0.333243, -2.08242, -2.16226, -0.126071, -1.46131e-05, 0.00336352, 0.000893861, -0.00252768, -0.0104828, -0.013053
0.0451011, 1.69105, -1.22823, -1.54073, -0.901018, -1.1933, 1.22807, -1.30255, 0.00178028, 0.00683418, -0.0372712, -0.0299187, -0.0650573, 0.018591, 0.00160213, 2.20954, 59.9866, 28.9405, 6.24786, 1.9823, 3.44668, -0.0750012, -1.81582e-05, -0.00221723, 0.00277622, 0.0042993, 0.000925125, 0.00130358, 0.0159044, 0.00307756, -0.0121849, -0.0601917, 0.0770113, -0.0131285, 0.471008, -0.54335, 0.335904, -2.08382, -2.16584, -0.12989, 0.468694, -0.543032, 0.333227, -2.08244, -2.16226, -0.125927, -1.60536e-05, 0.00355356, 0.000943786, -0.00296084, -0.0103981, -0.0134637
0.0461011, 1.69105, -1.22821, -1.54075, -0.901041, -1.19337, 1.22809, -1.30255, 0.00440354, 0.011342, -0.0313343, -0.0244705, -0.0674923, 0.0153768, 0.00152703, 2.39997, 60.0223, 29.1269, 6.02173, 1.9823, 3.54648, -0.0814099, -3.3899e-05, -0.00222164, 0.00277465, 0.00434602, 0.000832146, 0.00132417, 0.0150552, 0.00272004, -0.00711055, -0.0563427, 0.0812831, -0.0132713, 0.471008, -0.543347, 0.335905, -2.08381, -2.16583, -0.12989, 0.46869, -0.543044, 0.333227, -2.08248, -2.16227, -0.125779, -1.75788e-05, 0.0037494, 0.000995199, -0.00245243, -0.0101304, -0.00828071
0.0471011, 1.69106, -1.22821, -1.54077, -0.901072, -1.19344, 1.2281, -1.30255, 0.00996172, 0.00906127, -0.0286083, -0.0266765, -0.0683877, 0.0178867, 0.00264227, 2.43568, 60.2802, 29.3888, 5.91064, 1.95758, 3.64718, -0.120778, -4.38043e-05, -0.00221793, 0.002783, 0.00439814, 0.000753925, 0.00132488, 0.0122299, -0.00177073, -0.00788359, -0.0542657, 0.0813383, -0.00589246, 0.471008, -0.543343, 0.335906, -2.08381, -2.16583, -0.12989, 0.468694, -0.543049, 0.333218, -2.08249, -2.1623, -0.125642, -1.91915e-05, 0.00395105, 0.0010481, 0.00190196, -0.00683667, -0.008688
0.0481011, 1.69106, -1.22821, -1.54077, -0.901072, -1.19344, 1.2281, -1.30255, 0.00996172, 0.00906127, -0.0286083, -0.0266765, -0.0683877, 0.0178867, 0.00264227, 2.43568, 60.2802, 29.3888, 5.91064, 1.95758, 3.64718, -0.120778, -4.78449e-05, -0.00221803, 0.00278343, 0.0043965, 0.00075195, 0.00132584, 0.0124432, -0.00176559, -0.00790526, -0.0542348, 0.0814927, -0.00587706, 0.471008, -0.543339, 0.335907, -2.08381, -2.16583, -0.129891, 0.468694, -0.543049, 0.333218, -2.08249, -2.1623, -0.125642, -2.08943e-05, 0.0041585, 0.00110247, 0.00190196, -0.00683667, -0.008688
0.0491011, 1.69106, -1.22821, -1.54077, -0.901072, -1.19344, 1.2281, -1.30255, 0.00996172, 0.00906127, -0.0286083, -0.0266765, -0.0683877, 0.0178867, 0.00264227, 2.43568, 60.2802, 29.3888, 5.91064, 1.95758, 3.64718, -0.120778, -5.21039e-05, -0.00221814, 0.00278387, 0.00439479, 0.000749868, 0.00132686, 0.0126625, -0.00176034, -0.00792749, -0.054203, 0.0816513, -0.00586122, 0.471008, -0.543335, 0.335908, -2.08381, -2.16583, -0.129891, 0.468694, -0.543049, 0.333218, -2.08249, -2.1623, -0.125642, -2.269e-05, 0.00437173, 0.00115833, 0.00190196, -0.00683667, -0.008688
0.0501011, 1.69106, -1.2282, -1.54081, -0.901125, -1.1936, 1.22813, -1.30255, 0.0072726, 0.00043532, -0.0231626, -0.0229636, -0.0709958, 0.0156794, -0.000344499, 2.70148, 60.9824, 29.8371, 5.6131, 1.94568, 3.9191, -0.0750012, -7.98535e-05, -0.0022234, 0.00280099, 0.00450245, 0.00059585, 0.00134482, 0.0151351, 0.000163949, -0.0106223, -0.0510783, 0.0735004, -0.00684896, 0.471008, -0.543331, 0.335909, -2.0838, -2.16583, -0.129891, 0.468689, -0.543069, 0.333198, -2.08252, -2.16232, -0.125365, -2.45814e-05, 0.00459073, 0.00121564, -3.06302e-05, -0.00872254, -0.0116174
0.0511011, 1.69107, -1.22819, -1.54084, -0.901184, -1.19379, 1.22815, -1.30254, 0.00344123, 0.00216283, -0.021115, -0.0243326, -0.0878351, 0.0179275, 0.00101998, 2.92762, 61.5338, 30.3211, 5.57739, 2.00702, 4.09122, -0.0951428, -0.000109426, -0.00222877, 0.00281137, 0.00461862, 0.000408255, 0.00137263, 0.0196394, 0.00317257, -0.00868598, -0.0550585, 0.090165, -0.0154472, 0.471008, -0.543326, 0.335911, -2.0838, -2.16583, -0.129892, 0.468684, -0.543092, 0.333185, -2.08258, -2.16235, -0.125044, -2.6571e-05, 0.00481547, 0.00127442, -0.00280628, -0.0133658, -0.0102551
0.0521011, 1.69107, -1.22819, -1.54086, -0.901219, -1.19388, 1.22817, -1.30254, 0.00282082, -0.000494544, -0.0204871, -0.0246824, -0.0897815, 0.0179058, 0.0014315, 3.07838, 61.8274, 30.579, 5.68848, 2.02533, 4.12051, -0.114369, -0.000128733, -0.00223285, 0.0028207, 0.00468147, 0.000312166, 0.00138791, 0.020546, 0.00351325, -0.0100642, -0.0556912, 0.089245, -0.0164402, 0.471008, -0.543321, 0.335912, -2.0838, -2.16583, -0.129892, 0.468681, -0.543105, 0.333174, -2.08261, -2.16236, -0.124876, -2.86617e-05, 0.00504591, 0.00133464, -0.00316596, -0.0138322, -0.0116863
0.0531011, 1.69107, -1.22818, -1.54087, -0.901253, -1.19399, 1.22818, -1.30254, 0.00501248, 0.00178898, -0.0174682, -0.0281468, -0.0977799, 0.0177543, -0.00169485, 3.11805, 61.9385, 30.7297, 5.79956, 2.08667, 4.14889, -0.0420422, -0.000144526, -0.00223363, 0.00282234, 0.00474509, 0.000200286, 0.00138967, 0.0195194, 0.00195087, -0.00827835, -0.0586655, 0.0983475, -0.00936144, 0.471008, -0.543316, 0.335913, -2.08379, -2.16583, -0.129892, 0.46868, -0.543116, 0.333171, -2.08263, -2.1624, -0.124692, -3.0856e-05, 0.00528201, 0.00139628, -0.00158001, -0.0127935, -0.00974908
0.0541011, 1.69108, -1.22818, -1.54089, -0.901292, -1.1941, 1.22819, -1.30254, 0.00660293, -0.00270244, -0.0193136, -0.0321229, -0.0984625, 0.0175967, -0.000870358, 3.15376, 62.3074, 30.9162, 5.98602, 2.13611, 4.17727, -0.0484509, -0.00016248, -0.00223564, 0.00283711, 0.00481987, 0.000105994, 0.00139758, 0.0188016, 0.000527164, -0.012244, -0.0632046, 0.095054, -0.00613523, 0.471008, -0.543311, 0.335915, -2.08379, -2.16583, -0.129893, 0.468678, -0.543126, 0.333155, -2.08265, -2.16242, -0.124513, -3.31567e-05, 0.00552372, 0.00145934, -0.000329397, -0.0111743, -0.0135333
0.0551011, 1.69108, -1.22818, -1.5409, -0.901331, -1.19421, 1.2282, -1.30253, 0.00751926, -0.00167842, -0.0211699, -0.0347207, -0.102523, 0.0123229, 0.00140309, 3.19343, 62.4899, 30.9876, 6.17248, 2.16083, 4.21298, -0.101552, -0.00017921, -0.00223813, 0.00284379, 0.0048913, 9.61903e-07, 0.0014126, 0.0184232, 0.00120945, -0.0131883, -0.072552, 0.097357, -0.00747968, 0.471008, -0.543305, 0.335916, -2.08378, -2.16583, -0.129893, 0.468676, -0.543136, 0.333148, -2.08267, -2.16243, -0.124326, -3.55665e-05, 0.00577098, 0.0015238, -0.00106088, -0.0104361, -0.014322
0.0561011, 1.69109, -1.22818, -1.54092, -0.901374, -1.19432, 1.2282, -1.30253, 0.00778806, -0.000284644, -0.0224632, -0.0408727, -0.109553, 0.0132592, -0.000272833, 3.11805, 62.6407, 31.1741, 6.39465, 2.16083, 4.24228, -0.0685925, -0.000194185, -0.00223788, 0.00285655, 0.00497898, -0.000105439, 0.00140989, 0.0183682, 0.000565977, -0.0136322, -0.0789479, 0.105782, -0.0031203, 0.471008, -0.5433, 0.335918, -2.08378, -2.16583, -0.129894, 0.468676, -0.543143, 0.333134, -2.08268, -2.16246, -0.124122, -3.8088e-05, 0.00602372, 0.00158964, -0.000438769, -0.0100343, -0.0147054
0.0571011, 1.6911, -1.22818, -1.54093, -0.901401, -1.19445, 1.2282, -1.30254, 0.00897607, -0.000965344, -0.0167893, -0.0375915, -0.115828, 0.00898488, 0.00253318, 3.11805, 62.8589, 31.2137, 6.43433, 2.17914, 4.27798, -0.0164075, -0.000215886, -0.00224376, 0.0028678, 0.00506168, -0.000209718, 0.00142151, 0.0187612, 0.0011115, -0.0120198, -0.0792659, 0.107721, -0.00697046, 0.471008, -0.543294, 0.335919, -2.08378, -2.16583, -0.129894, 0.468671, -0.543157, 0.333122, -2.08269, -2.16247, -0.123924, -4.07237e-05, 0.00628188, 0.00165682, -0.000913911, -0.0104346, -0.0130907
0.0581011, 1.69111, -1.22818, -1.54095, -0.901438, -1.19457, 1.2282, -1.30253, 0.0123186, -0.00123802, -0.0136205, -0.0370415, -0.114449, 0.00763335, 0.00279443, 3.15376, 62.9343, 31.2891, 6.54541, 2.16083, 4.26333, -0.0356336, -0.000236759, -0.00225002, 0.00287736, 0.00514932, -0.000322317, 0.00144042, 0.0166679, -0.00111147, -0.011298, -0.0772605, 0.105709, -0.00240624, 0.471008, -0.543287, 0.335921, -2.08377, -2.16582, -0.129894, 0.468665, -0.54317, 0.333111, -2.08272, -2.16248, -0.123711, -4.34763e-05, 0.00654537, 0.00172534, 0.00125461, -0.00812462, -0.0120516
0.0591011, 1.69112, -1.22819, -1.54096, -0.901472, -1.1947, 1.2282, -1.30253, 0.0133593, -0.00514568, -0.0127491, -0.0349821, -0.11816, 0.00618584, 0.00361618, 3.11805, 63.1564, 31.2891, 6.58508, 2.14252, 4.25601, -0.0750012, -0.0002565, -0.00225212, 0.00289296, 0.00523276, -0.000422625, 0.00145341, 0.017857, -0.000770604, -0.0132032, -0.0789522, 0.104143, -0.00472643, 0.471008, -0.543281, 0.335923, -2.08377, -2.16582, -0.129895, 0.468663, -0.543181, 0.333094, -2.08273, -2.16249, -0.123516, -4.63483e-05, 0.0068141, 0.00179515, 0.000885002, -0.00875039, -0.0140374
0.0601011, 1.69114, -1.2282, -1.54097, -0.901508, -1.19483, 1.2282, -1.30253, 0.0149601, -0.00704191, -0.013133, -0.0374725, -0.120753, 0.00606558, 0.000699386, 3.04267, 63.3389, 31.3248, 6.65649, 2.12421, 4.2203, -0.0228162, -0.000275361, -0.00225105, 0.00290887, 0.00532031, -0.00053277, 0.00145116, 0.0174464, -0.00187165, -0.0149166, -0.082143, 0.104812, 0.000965071, 0.471008, -0.543274, 0.335924, -2.08376, -2.16582, -0.129895, 0.468664, -0.54319, 0.333077, -2.08274, -2.16252, -0.123308, -4.93422e-05, 0.00708797, 0.00186624, 0.00190499, -0.00776225, -0.0156277
0.0611011, 1.69115, -1.22821, -1.54099, -0.901542, -1.19497, 1.2282, -1.30253, 0.013229, -0.00533456, -0.0144024, -0.0379846, -0.124544, 0.00501678, 0.00134437, 3.07838, 63.5214, 31.4002, 6.65649, 2.14801, 4.20657, -0.0420422, -0.000299622, -0.0022568, 0.00292647, 0.00541613, -0.000642924, 0.00146952, 0.0190943, -0.000131981, -0.0144554, -0.085716, 0.10938, -0.0028263, 0.471007, -0.543267, 0.335926, -2.08376, -2.16582, -0.129896, 0.468659, -0.543204, 0.333058, -2.08276, -2.16252, -0.123089, -5.24605e-05, 0.00736687, 0.00193857, 0.000240076, -0.00925231, -0.0153034
0.0621011, 1.69116, -1.22822, -1.541, -0.901579, -1.19511, 1.2282, -1.30253, 0.0116608, -0.00728693, -0.0134632, -0.0385055, -0.131513, 0.00423539, 0.00125813, 3.003, 63.7079, 31.4002, 6.65649, 2.15442, 4.19192, -0.0484509, -0.00032041, -0.00225645, 0.00294509, 0.00551048, -0.000755871, 0.00147492, 0.0212095, 0.00136671, -0.0153477, -0.0889403, 0.112906, -0.00564521, 0.471007, -0.543259, 0.335928, -2.08375, -2.16582, -0.129897, 0.468659, -0.543215, 0.333039, -2.08276, -2.16254, -0.12287, -5.57056e-05, 0.00765073, 0.00201212, -0.0012165, -0.0109806, -0.0163941
0.0631011, 1.69118, -1.22823, -1.54101, -0.901614, -1.19526, 1.2282, -1.30253, 0.0117543, -0.00781828, -0.0138434, -0.03741, -0.132208, 0.00281357, 0.00120341, 3.003, 63.8547, 31.4359, 6.58508, 2.16724, 4.19925, -0.0557752, -0.000344972, -0.00225976, 0.0029654, 0.00561035, -0.000870509, 0.00148854, 0.0219067, 0.00196201, -0.0157956, -0.0903227, 0.112391, -0.00683865, 0.471007, -0.543252, 0.33593, -2.08374, -2.16582, -0.129897, 0.468656, -0.543228, 0.333017, -2.08278, -2.16256, -0.122642, -5.90798e-05, 0.00793954, 0.00208689, -0.00180566, -0.0113354, -0.016852
0.0641011, 1.69119, -1.22824, -1.54102, -0.901658, -1.19541, 1.2282, -1.30254, 0.00777896, -0.00652761, -0.0141352, -0.0393291, -0.136842, 0.00288545, -0.0008231, 3.04267, 63.9261, 31.4716, 6.62079, 2.16724, 4.17727, -0.00999879, -0.000367685, -0.00226232, 0.00298092, 0.00570663, -0.000992828, 0.00149111, 0.024267, 0.00435707, -0.0152122, -0.0928117, 0.11778, -0.00874258, 0.471007, -0.543244, 0.335932, -2.08374, -2.16582, -0.129898, 0.468653, -0.54324, 0.333, -2.08279, -2.16258, -0.122412, -6.25855e-05, 0.00823327, 0.00216285, -0.00409557, -0.0135596, -0.0164942
0.0651011, 1.6912, -1.22825, -1.54104, -0.901697, -1.19556, 1.22821, -1.30253, 0.0120773, -0.00668394, -0.0145829, -0.0390061, -0.139864, 0.00312175, 0.0019113, 3.04267, 64.0372, 31.5113, 6.58508, 2.16083, 4.14889, -0.0750012, -0.000392989, -0.00226473, 0.00299732, 0.00580168, -0.00111942, 0.00151032, 0.0234941, 0.0023954, -0.0156456, -0.0948787, 0.120593, -0.0087092, 0.471007, -0.543236, 0.335935, -2.08373, -2.16581, -0.129898, 0.468651, -0.543255, 0.332982, -2.08281, -2.1626, -0.122177, -6.6225e-05, 0.00853189, 0.00224002, -0.00218342, -0.0123509, -0.0167843
0.0661011, 1.69121, -1.22825, -1.54105, -0.901738, -1.19571, 1.22821, -1.30253, 0.007298, -0.00518429, -0.00977905, -0.035286, -0.146414, 0.00300518, 9.28963e-05, 3.11805, 64.0768, 31.4716, 6.54541, 2.16083, 4.12692, -0.0420422, -0.000416168, -0.00226669, 0.0030085, 0.0058927, -0.00124921, 0.00151468, 0.027175, 0.00585365, -0.0123236, -0.0911496, 0.126828, -0.0147582, 0.471007, -0.543227, 0.335937, -2.08373, -2.16581, -0.129899, 0.46865, -0.543267, 0.33297, -2.08283, -2.16263, -0.121945, -7.00005e-05, 0.00883538, 0.00231837, -0.00538909, -0.0163343, -0.013893
0.0671011, 1.69123, -1.22825, -1.54106, -0.901779, -1.19586, 1.22821, -1.30253, 0.0118363, -0.00414164, -0.0114715, -0.0359796, -0.146582, 0.00259474, -0.000145878, 3.11805, 64.1125, 31.5113, 6.5097, 2.13611, 4.11319, -0.0356336, -0.000438456, -0.0022675, 0.00302129, 0.00599231, -0.00138164, 0.00152023, 0.0255199, 0.00356837, -0.0127057, -0.0939547, 0.128352, -0.0102933, 0.471007, -0.543218, 0.335939, -2.08372, -2.16581, -0.1299, 0.468649, -0.543279, 0.332956, -2.08284, -2.16266, -0.1217, -7.39143e-05, 0.00914373, 0.0023979, -0.00318373, -0.0142396, -0.0140028
0.0681011, 1.69125, -1.22825, -1.54107, -0.901822, -1.196, 1.22822, -1.30253, 0.0130751, -0.00348398, -0.0155074, -0.037528, -0.142288, 0.00233436, 0.00016227, 3.07838, 64.1483, 31.547, 6.5097, 2.1178, 4.09854, -0.0420422, -0.000460487, -0.00226774, 0.0030351, 0.0060918, -0.00151162, 0.00152573, 0.0247338, 0.00282318, -0.0140815, -0.0965267, 0.126031, -0.0085096, 0.471007, -0.543209, 0.335941, -2.08371, -2.16581, -0.1299, 0.468649, -0.543289, 0.332942, -2.08286, -2.16268, -0.121458, -7.79688e-05, 0.0094569, 0.0024786, -0.00252148, -0.0129079, -0.0151811
0.0691011, 1.69127, -1.22825, -1.54109, -0.901863, -1.19615, 1.22822, -1.30253, 0.0177141, 0.000360046, -0.0154435, -0.0376817, -0.148971, 0.00238263, 0.00182022, 3.003, 64.0372, 31.5867, 6.47003, 2.10498, 4.07748, -0.0878186, -0.000480367, -0.00226451, 0.00304236, 0.00618728, -0.00165592, 0.00153143, 0.0239174, 0.000992167, -0.0120778, -0.0999517, 0.13577, -0.00770389, 0.471007, -0.5432, 0.335944, -2.08371, -2.16581, -0.129901, 0.468653, -0.543298, 0.332934, -2.08288, -2.16272, -0.121206, -8.21662e-05, 0.00977487, 0.00256046, -0.000653774, -0.0120174, -0.0130494
0.0701011, 1.69129, -1.22825, -1.5411, -0.901903, -1.19631, 1.22822, -1.30253, 0.0161891, -0.00852856, -0.0154039, -0.0379336, -0.153399, 0.00270836, 0.000751231, 3.003, 64.1483, 31.6224, 6.43433, 2.08667, 4.04819, -0.0750012, -0.000505874, -0.00226622, 0.00305846, 0.00628846, -0.00178751, 0.00154272, 0.0265736, 0.00207218, -0.0172401, -0.10227, 0.130913, -0.00916741, 0.471007, -0.54319, 0.335947, -2.0837, -2.16581, -0.129902, 0.468651, -0.543311, 0.332916, -2.0829, -2.16274, -0.12096, -8.65087e-05, 0.0100976, 0.00264348, -0.00182842, -0.013566, -0.0184436
0.0711011, 1.69131, -1.22826, -1.54111, -0.901939, -1.19647, 1.22823, -1.30253, 0.0190952, -0.00699298, -0.0105277, -0.0363551, -0.156704, 0.00234035, -0.000201906, 2.96729, 64.184, 31.5867, 6.32324, 2.06195, 4.03445, -0.0557752, -0.000529926, -0.00226511, 0.00307113, 0.00638222, -0.00192206, 0.00154504, 0.0255518, 0.000401499, -0.0145978, -0.0993766, 0.13486, -0.00549886, 0.471007, -0.54318, 0.335949, -2.08369, -2.1658, -0.129903, 0.468652, -0.543323, 0.332903, -2.08291, -2.16278, -0.12072, -9.09987e-05, 0.0104251, 0.00272764, -0.000105376, -0.0125682, -0.0156423
0.0721011, 1.69132, -1.22826, -1.54113, -0.901973, -1.19663, 1.22823, -1.30253, 0.0163998, -0.00594405, -0.0095091, -0.0352124, -0.159604, 0.00293619, -0.00134829, 3.003, 64.2236, 31.6581, 6.20819, 2.04364, 3.99783, -0.0228162, -0.000558617, -0.00226831, 0.00308347, 0.00648029, -0.00206366, 0.00156073, 0.0277537, 0.00223391, -0.0132913, -0.0982159, 0.138566, -0.00848723, 0.471007, -0.543169, 0.335952, -2.08368, -2.1658, -0.129903, 0.46865, -0.543339, 0.332889, -2.08294, -2.1628, -0.120467, -9.56382e-05, 0.0107574, 0.00281294, -0.00181393, -0.014686, -0.0145537
0.0731011, 1.69135, -1.22826, -1.54114, -0.902013, -1.19679, 1.22824, -1.30252, 0.0203865, -0.00506345, -0.0101163, -0.0369729, -0.161327, 0.00380323, 0.00178516, 2.92762, 64.2593, 31.6581, 6.20819, 2.01984, 3.94839, -0.0951428, -0.000582535, -0.00226454, 0.00309749, 0.00658194, -0.00220923, 0.00157234, 0.0262872, -0.000234332, -0.0133912, -0.100106, 0.141878, -0.00699382, 0.471007, -0.543159, 0.335955, -2.08368, -2.1658, -0.129904, 0.468654, -0.543349, 0.332874, -2.08296, -2.16283, -0.120207, -0.00010043, 0.0110943, 0.00289937, 0.000590195, -0.0127846, -0.0144129
0.0741011, 1.69138, -1.22827, -1.54115, -0.902044, -1.19696, 1.22824, -1.30252, 0.0231702, -0.00700845, -0.0136633, -0.0323296, -0.158059, 0.00308905, 0.000922785, 2.85224, 64.4061, 31.6581, 6.09711, 1.99512, 3.93374, -0.0878186, -0.000608867, -0.00226198, 0.00311256, 0.00667877, -0.00234845, 0.00158035, 0.0269744, -0.000397717, -0.0153875, -0.100644, 0.137074, -0.007993, 0.471006, -0.543147, 0.335958, -2.08367, -2.1658, -0.129905, 0.468657, -0.543362, 0.332858, -2.08298, -2.16286, -0.119958, -0.000105375, 0.011436, 0.00298692, 0.000700761, -0.0128071, -0.0164083
0.0751011, 1.6914, -1.22828, -1.54116, -0.90208, -1.19713, 1.22825, -1.30253, 0.0241525, -0.0065849, -0.0119319, -0.0315228, -0.161402, 0.00284754, -0.00178935, 2.81654, 64.4815, 31.7335, 6.09711, 1.99512, 3.91269, -0.0228162, -0.000637327, -0.00226041, 0.00312957, 0.00678643, -0.00249864, 0.00158381, 0.0273715, -0.000641053, -0.0145087, -0.10057, 0.140219, -0.00528341, 0.471006, -0.543136, 0.335961, -2.08366, -2.1658, -0.129906, 0.468658, -0.543376, 0.33284, -2.083, -2.1629, -0.119687, -0.000110477, 0.0117823, 0.00307558, 0.000984712, -0.0129781, -0.0155211
0.0761011, 1.69143, -1.22829, -1.54117, -0.902114, -1.19731, 1.22825, -1.30253, 0.0272386, -0.00877085, -0.00791425, -0.0343249, -0.163504, 0.0024471, 0.000267381, 2.81654, 64.664, 31.6977, 6.09711, 1.98871, 3.89804, -0.0621838, -0.000666017, -0.00225853, 0.00314667, 0.00688425, -0.00264004, 0.00159791, 0.025277, -0.00343738, -0.0149822, -0.100297, 0.139932, -0.000538848, 0.471006, -0.543124, 0.335964, -2.08365, -2.16579, -0.129907, 0.468661, -0.54339, 0.332821, -2.08302, -2.16292, -0.119435, -0.000115737, 0.0121332, 0.00316535, 0.00367998, -0.0103718, -0.0156582
0.0771013, 1.69146, -1.2283, -1.54118, -0.902139, -1.19748, 1.22826, -1.30253, 0.0297396, -0.0085297, -0.00587232, -0.0310331, -0.169759, 0.0069892, 0.000179918, 2.81654, 64.7751, 31.6977, 6.02173, 1.9823, 3.88339, -0.0621838, -0.000697737, -0.00225772, 0.0031607, 0.00697964, -0.00279044, 0.00161567, 0.0267729, -0.00458513, -0.0134161, -0.0962202, 0.147478, -0.00193807, 0.471006, -0.543112, 0.335967, -2.08364, -2.16579, -0.129908, 0.468662, -0.543407, 0.332806, -2.08306, -2.16295, -0.119175, -0.000121158, 0.0124888, 0.00325621, 0.00493111, -0.011687, -0.0142882
0.0781013, 1.69149, -1.22831, -1.5412, -0.902181, -1.19766, 1.22827, -1.30253, 0.0325313, -0.00834794, -0.00928573, -0.0338981, -0.174448, 0.00506384, -0.000387433, 2.77686, 64.8862, 31.7731, 6.17248, 1.98871, 3.88339, -0.0484509, -0.000725256, -0.00225249, 0.00317991, 0.00709009, -0.00294514, 0.00161724, 0.0264746, -0.00529734, -0.0152511, -0.104769, 0.151383, 0.000722265, 0.471006, -0.5431, 0.33597, -2.08363, -2.16579, -0.129909, 0.468667, -0.543418, 0.332786, -2.08307, -2.16299, -0.118897, -0.000126741, 0.012849, 0.00334816, 0.00555965, -0.0107203, -0.0159835
0.0791013, 1.69152, -1.22832, -1.54122, -0.902204, -1.19784, 1.22829, -1.30253, 0.0351975, -0.00821101, -0.0114782, -0.0314497, -0.173502, 0.00864927, -0.000969429, 2.70148, 64.9973, 31.8445, 6.13678, 1.98871, 3.87607, -0.0292249, -0.00075623, -0.00224756, 0.00319519, 0.00718623, -0.00309998, 0.00163213, 0.0270206, -0.00661446, -0.0154651, -0.102307, 0.152807, 0.00109714, 0.471006, -0.543087, 0.335973, -2.08362, -2.16579, -0.129909, 0.468673, -0.543433, 0.332769, -2.08311, -2.16302, -0.118633, -0.00013249, 0.0132137, 0.00344119, 0.00688111, -0.0108075, -0.0162266
0.0801013, 1.69156, -1.22833, -1.54123, -0.902232, -1.19802, 1.22829, -1.30252, 0.0365656, -0.00977834, -0.0125634, -0.0278125, -0.176481, 0.010337, 0.00104984, 2.66181, 65.1797, 31.8842, 6.17248, 1.96399, 3.89804, -0.0750012, -0.000787544, -0.00224443, 0.00321404, 0.0072887, -0.00324817, 0.00164791, 0.029005, -0.00637249, -0.0162166, -0.10173, 0.154603, -0.00420157, 0.471006, -0.543074, 0.335977, -2.08361, -2.16578, -0.12991, 0.468676, -0.543448, 0.332749, -2.08313, -2.16305, -0.118368, -0.000138406, 0.013583, 0.0035353, 0.00667739, -0.0122912, -0.0171757
0.0811013, 1.69159, -1.22833, -1.54124, -0.902251, -1.1982, 1.2283, -1.30253, 0.0321117, -0.00654548, -0.0100098, -0.0235041, -0.175064, 0.0110135, -0.000520285, 2.58643, 65.1797, 31.9199, 6.13678, 1.96399, 3.93374, -0.0420422, -0.000818467, -0.00224002, 0.00322359, 0.00738583, -0.00341222, 0.00165906, 0.0316009, -0.00357907, -0.0125499, -0.0951859, 0.156578, -0.00914673, 0.471006, -0.54306, 0.33598, -2.0836, -2.16578, -0.129911, 0.468681, -0.543463, 0.332738, -2.08317, -2.16309, -0.118094, -0.00014449, 0.0139569, 0.00363046, 0.0041074, -0.0151594, -0.0137791
0.0821013, 1.69163, -1.22835, -1.54125, -0.902281, -1.19837, 1.22831, -1.30253, 0.0307668, -0.0108679, -0.0104292, -0.0279753, -0.178309, 0.00755653, -0.00082118, 2.55073, 65.3265, 31.9199, 6.28357, 1.95758, 3.95572, -0.0292249, -0.000846891, -0.00223374, 0.00324157, 0.00748383, -0.00355642, 0.00166582, 0.0320294, -0.00282066, -0.0161168, -0.102269, 0.153879, -0.00742351, 0.471006, -0.543046, 0.335984, -2.08359, -2.16578, -0.129913, 0.468688, -0.543474, 0.332719, -2.08319, -2.16312, -0.117839, -0.000150747, 0.0143352, 0.00372669, 0.0032298, -0.0146854, -0.0172487
0.0831013, 1.69167, -1.22834, -1.54127, -0.902298, -1.19854, 1.22832, -1.30252, 0.0322707, -0.00751443, -0.0116623, -0.0268737, -0.175649, 0.00475751, 0.00016492, 2.55073, 65.3265, 31.9556, 6.24786, 1.95209, 3.9841, -0.0484509, -0.0008781, -0.0022297, 0.00324993, 0.00757392, -0.00371444, 0.00168516, 0.031211, -0.0029211, -0.0147831, -0.103897, 0.153977, -0.00764162, 0.471005, -0.543032, 0.335988, -2.08358, -2.16578, -0.129914, 0.468692, -0.543489, 0.33271, -2.08323, -2.16315, -0.117578, -0.000157176, 0.014718, 0.00382396, 0.0033427, -0.0136959, -0.0157106
0.0841013, 1.69171, -1.22836, -1.54129, -0.902315, -1.19872, 1.22834, -1.30252, 0.0382497, -0.0095732, -0.0144133, -0.0243076, -0.174269, 0.00793272, 0.00109351, 2.47535, 65.513, 32.0707, 6.28357, 1.95209, 3.99783, -0.0750012, -0.000912076, -0.00222339, 0.00327134, 0.00766942, -0.00386113, 0.00170412, 0.030536, -0.0059879, -0.0166834, -0.102711, 0.152815, -0.00568134, 0.471005, -0.543017, 0.335992, -2.08357, -2.16577, -0.129915, 0.468699, -0.543505, 0.332687, -2.08326, -2.16317, -0.117323, -0.000163782, 0.0151053, 0.00392227, 0.00630583, -0.0122235, -0.0174768
0.0851013, 1.69175, -1.22836, -1.5413, -0.902334, -1.19889, 1.22835, -1.30253, 0.0373453, -0.00736876, -0.0113049, -0.023306, -0.172807, 0.00557058, -0.00194959, 2.3603, 65.5487, 32.1064, 6.35895, 1.93927, 4.01248, -0.00267457, -0.000940019, -0.00221364, 0.00328348, 0.00776176, -0.0040154, 0.0017018, 0.0302527, -0.00549398, -0.0143368, -0.100495, 0.152607, -0.00245772, 0.471005, -0.543002, 0.335996, -2.08356, -2.16577, -0.129916, 0.468709, -0.543515, 0.332674, -2.08328, -2.16322, -0.117065, -0.000170564, 0.0154971, 0.00402162, 0.0058807, -0.0119338, -0.0150017
0.0861013, 1.69179, -1.22838, -1.54132, -0.902355, -1.19907, 1.22836, -1.30253, 0.0410297, -0.00845974, -0.00994549, -0.023264, -0.177141, 0.00798172, -0.00102833, 2.32459, 65.6955, 32.1818, 6.47003, 1.95758, 4.04086, -0.00999879, -0.00097231, -0.0022058, 0.00330239, 0.00785903, -0.00416761, 0.00171333, 0.0299651, -0.00776361, -0.0144987, -0.0997889, 0.156603, -0.000505424, 0.471005, -0.542986, 0.336, -2.08355, -2.16577, -0.129917, 0.468717, -0.543528, 0.332655, -2.0833, -2.16326, -0.116803, -0.000177527, 0.0158932, 0.00412199, 0.00812423, -0.0111354, -0.0150855
0.0871013, 1.69183, -1.22838, -1.54133, -0.902366, -1.19924, 1.22837, -1.30252, 0.0366376, -0.00656021, -0.00922281, -0.0170693, -0.1753, 0.00950629, 2.66143e-05, 2.32459, 65.7312, 32.1421, 6.47003, 1.95758, 4.07748, -0.0292249, -0.00100532, -0.00220132, 0.00331124, 0.00794438, -0.0043214, 0.00173294, 0.0336267, -0.00448445, -0.0119365, -0.0931379, 0.157299, -0.0103732, 0.471005, -0.542971, 0.336004, -2.08354, -2.16576, -0.129918, 0.468722, -0.543543, 0.332645, -2.08335, -2.16329, -0.116551, -0.000184671, 0.0162937, 0.00422337, 0.00506641, -0.0148789, -0.0129242
0.0881013, 1.69188, -1.22839, -1.54135, -0.902381, -1.19942, 1.22838, -1.30252, 0.0424981, -0.0109109, -0.0156991, -0.0143128, -0.174603, 0.00604727, 0.000492531, 2.20954, 65.878, 32.2532, 6.54541, 1.97681, 4.11319, -0.0420422, -0.00103663, -0.00219225, 0.00333202, 0.00805032, -0.00447087, 0.00174423, 0.0335076, -0.00552792, -0.0170498, -0.101379, 0.151357, -0.0102173, 0.471005, -0.542954, 0.336008, -2.08353, -2.16576, -0.129919, 0.468731, -0.543554, 0.332623, -2.08337, -2.16331, -0.116282, -0.000192, 0.0166987, 0.00432576, 0.00591142, -0.0135254, -0.017884
0.0891013, 1.69194, -1.2284, -1.54137, -0.902396, -1.1996, 1.22838, -1.30253, 0.0466716, -0.0101736, -0.0203199, -0.0121826, -0.173886, 0.00763581, -0.000621029, 2.09846, 65.9891, 32.3682, 6.62079, 1.98871, 4.16354, -0.0164075, -0.00106562, -0.00218053, 0.00334952, 0.0081513, -0.00462242, 0.00174625, 0.0336218, -0.00692919, -0.0180702, -0.10321, 0.152843, -0.0087946, 0.471004, -0.542938, 0.336012, -2.08351, -2.16576, -0.129921, 0.468743, -0.543563, 0.332605, -2.08338, -2.16336, -0.116018, -0.000199514, 0.0171079, 0.00442916, 0.00727041, -0.0130138, -0.0188486
0.0901013, 1.69199, -1.2284, -1.54138, -0.902405, -1.19977, 1.22839, -1.30252, 0.0456576, -0.00533789, -0.0168604, -0.0121679, -0.173129, 0.00528251, 0.000772815, 2.02308, 65.9177, 32.3285, 6.62079, 1.99512, 4.1846, -0.0484509, -0.00109397, -0.00216891, 0.00335608, 0.00823826, -0.00478354, 0.00175588, 0.0329422, -0.00653147, -0.0141806, -0.101218, 0.155933, -0.00937744, 0.471004, -0.54292, 0.336017, -2.0835, -2.16575, -0.129922, 0.468755, -0.543572, 0.332599, -2.08341, -2.1634, -0.115758, -0.000207216, 0.0175215, 0.00453354, 0.00698232, -0.012545, -0.0147863
0.0911013, 1.69204, -1.22841, -1.5414, -0.902418, -1.19995, 1.2284, -1.30252, 0.0503185, -0.00799693, -0.0173604, -0.0139976, -0.171983, 0.00787979, 0.00102387, 1.98341, 66.1002, 32.4039, 6.69617, 1.99512, 4.21298, -0.0621838, -0.00112828, -0.00216147, 0.00337635, 0.00834059, -0.00493314, 0.0017715, 0.0311553, -0.0101201, -0.0162299, -0.100589, 0.1543, -0.00317304, 0.471004, -0.542903, 0.336021, -2.08349, -2.16575, -0.129923, 0.468763, -0.543585, 0.332578, -2.08344, -2.16342, -0.115493, -0.000215108, 0.0179394, 0.00463891, 0.0104199, -0.00989956, -0.0165357
0.0921013, 1.6921, -1.22841, -1.54142, -0.90243, -1.20012, 1.2284, -1.30252, 0.0523189, -0.00378793, -0.0216183, -0.0154498, -0.175805, 0.00483356, 0.000173973, 1.87232, 66.0287, 32.515, 6.77154, 1.9823, 4.2496, -0.0484509, -0.00115589, -0.00214922, 0.00338787, 0.00844644, -0.0050949, 0.0017743, 0.0312054, -0.00974095, -0.0158543, -0.109301, 0.160901, -0.00245253, 0.471004, -0.542885, 0.336026, -2.08348, -2.16575, -0.129924, 0.468776, -0.543592, 0.332566, -2.08345, -2.16347, -0.115212, -0.000223192, 0.0183616, 0.00474526, 0.0100486, -0.00960006, -0.0160551
0.0931013, 1.69215, -1.22842, -1.54145, -0.902435, -1.2003, 1.22841, -1.30253, 0.0509318, -0.00429103, -0.0214498, -0.0112366, -0.180018, 0.00287374, -0.00130815, 1.87232, 66.1002, 32.6261, 6.77154, 2.00702, 4.27798, -0.00999879, -0.00119279, -0.0021435, 0.00340556, 0.00855057, -0.0052504, 0.00179182, 0.0341463, -0.00721574, -0.0156279, -0.110584, 0.162762, -0.00732239, 0.471003, -0.542867, 0.336031, -2.08346, -2.16574, -0.129926, 0.468782, -0.543607, 0.332548, -2.08348, -2.16349, -0.114939, -0.00023147, 0.0187881, 0.00485258, 0.0076321, -0.0122152, -0.0161053
0.0941013, 1.69221, -1.22842, -1.54147, -0.90244, -1.20048, 1.22841, -1.30252, 0.0551279, -0.00293217, -0.025894, -0.00819366, -0.182384, 0.00244272, -0.000397373, 1.79694, 66.1002, 32.6658, 6.77154, 2.01343, 4.27798, -0.0228162, -0.00122599, -0.00213455, 0.00341867, 0.00865477, -0.0054128, 0.00180747, 0.0348483, -0.00772671, -0.0162637, -0.114959, 0.166328, -0.00966681, 0.471003, -0.542848, 0.336035, -2.08345, -2.16574, -0.129927, 0.468791, -0.543619, 0.332534, -2.08351, -2.16352, -0.114658, -0.000239944, 0.0192188, 0.00496086, 0.00813603, -0.0123583, -0.0167497
0.0951013, 1.69227, -1.22842, -1.54149, -0.902452, -1.20066, 1.22841, -1.30252, 0.0531325, -0.00200839, -0.0238528, -0.00858784, -0.17943, 0.00202365, 0.00119316, 1.68189, 66.1002, 32.7372, 6.88263, 2.01343, 4.27798, -0.0621838, -0.00125387, -0.00212048, 0.00343379, 0.00876377, -0.00557111, 0.00181323, 0.0349261, -0.00729037, -0.0150215, -0.111873, 0.164787, -0.010909, 0.471003, -0.542829, 0.33604, -2.08343, -2.16574, -0.129929, 0.468805, -0.543624, 0.332519, -2.08353, -2.16356, -0.114377, -0.000248615, 0.0196537, 0.00507009, 0.00773952, -0.0122093, -0.0154132
0.0961013, 1.69233, -1.22842, -1.54151, -0.902456, -1.20083, 1.22841, -1.30253, 0.0526647, -0.00221436, -0.0268938, -0.00612043, -0.180858, 0.00137421, -0.000899976, 1.64619, 66.1359, 32.7372, 6.88263, 2.00061, 4.28531, -0.0164075, -0.00128478, -0.00210965, 0.0034481, 0.00886415, -0.00572037, 0.00181762, 0.0371791, -0.00565168, -0.0159387, -0.114472, 0.165709, -0.0133347, 0.471003, -0.542809, 0.336045, -2.08342, -2.16573, -0.12993, 0.468817, -0.543632, 0.332505, -2.08354, -2.1636, -0.114116, -0.000257487, 0.0200928, 0.00518027, 0.00614163, -0.01392, -0.0165095
0.0971013, 1.69239, -1.22842, -1.54154, -0.902459, -1.201, 1.22841, -1.30252, 0.0556243, -0.00243441, -0.0271224, -0.00437669, -0.181856, 0.00140969, -0.000125261, 1.60651, 66.1755, 32.7768, 6.88263, 2.00061, 4.27798, -0.0292249, -0.00131793, -0.00209947, 0.00346371, 0.00896909, -0.0058756, 0.00183166, 0.0371069, -0.00677626, -0.0160903, -0.114667, 0.166623, -0.0131173, 0.471002, -0.542789, 0.336051, -2.08341, -2.16573, -0.129932, 0.468827, -0.543642, 0.332489, -2.08356, -2.16362, -0.113842, -0.000266561, 0.0205361, 0.00529139, 0.00724757, -0.0133355, -0.0165714
0.0981013, 1.69245, -1.22842, -1.54156, -0.902465, -1.20118, 1.22841, -1.30252, 0.0569637, -0.00164556, -0.0280575, -0.00490333, -0.179618, 0.00192031, 0.000899841, 1.60651, 66.1755, 32.8522, 6.95801, 2.01984, 4.25601, -0.0557752, -0.0013511, -0.00208979, 0.00347919, 0.00907899, -0.00603398, 0.0018467, 0.0365477, -0.00780727, -0.0160929, -0.114297, 0.16632, -0.0120368, 0.471002, -0.542768, 0.336056, -2.08339, -2.16572, -0.129933, 0.468837, -0.543651, 0.332474, -2.08358, -2.16365, -0.113559, -0.000275838, 0.0209836, 0.00540343, 0.00824781, -0.0122931, -0.0164068
0.0991013, 1.69252, -1.22842, -1.54159, -0.902471, -1.20136, 1.22841, -1.30252, 0.0587518, 0.00148445, -0.0247281, -0.00510605, -0.176641, 0.00191387, -0.000146088, 1.45576, 66.0645, 32.8879, 7.02942, 2.00702, 4.24228, -0.0356336, -0.00137982, -0.00207302, 0.00349051, 0.00918444, -0.00620237, 0.00184587, 0.0345895, -0.00972296, -0.013233, -0.110016, 0.167193, -0.006498, 0.471002, -0.542747, 0.336061, -2.08338, -2.16572, -0.129935, 0.468854, -0.543656, 0.332463, -2.0836, -2.1637, -0.113273, -0.000285321, 0.0214351, 0.00551641, 0.0101853, -0.0102705, -0.0132241
0.100101, 1.69258, -1.22842, -1.54162, -0.902476, -1.20153, 1.22841, -1.30253, 0.0570374, 0.000141695, -0.0214402, -0.00529232, -0.179633, 0.00136969, -0.00104683, 1.41608, 66.1002, 32.8879, 7.1048, 2.00702, 4.24228, -0.00999879, -0.00141389, -0.00206302, 0.00350772, 0.00929593, -0.00635906, 0.00185486, 0.0357388, -0.00896647, -0.0128703, -0.108856, 0.16812, -0.00649162, 0.471002, -0.542726, 0.336067, -2.08336, -2.16572, -0.129936, 0.468864, -0.543665, 0.332446, -2.08361, -2.16373, -0.112991, -0.000295012, 0.0218908, 0.00563029, 0.00947456, -0.0110361, -0.0129082
0.101101, 1.69265, -1.22842, -1.54165, -0.902484, -1.20172, 1.22841, -1.30252, 0.0594858, -0.000750297, -0.0248286, 0.000711828, -0.177679, -0.00862292, 0.0012349, 1.34071, 66.1359, 32.999, 7.21588, 2.02533, 4.2496, -0.0621838, -0.00144867, -0.00205281, 0.00352796, 0.00942094, -0.00652271, 0.00187254, 0.0362639, -0.00679289, -0.0147975, -0.117118, 0.160804, -0.0125844, 0.471001, -0.542704, 0.336072, -2.08334, -2.16571, -0.129938, 0.468875, -0.543674, 0.332426, -2.08363, -2.16375, -0.112687, -0.000304912, 0.0223506, 0.00574509, 0.00724268, -0.0108865, -0.0147123
0.102101, 1.69272, -1.22842, -1.54167, -0.902482, -1.2019, 1.22841, -1.30252, 0.0625909, -0.00367282, -0.0218485, 0.000981904, -0.176016, -0.00671115, 0.000823266, 1.22962, 66.1359, 32.8879, 7.21588, 2.03174, 4.25601, -0.0621838, -0.00148105, -0.00203788, 0.00354017, 0.00952175, -0.00668589, 0.00187662, 0.0349639, -0.00959437, -0.0154625, -0.112577, 0.157713, -0.00725533, 0.471001, -0.542682, 0.336078, -2.08333, -2.16571, -0.12994, 0.46889, -0.543681, 0.332414, -2.08365, -2.1638, -0.11241, -0.000315023, 0.0228145, 0.00586078, 0.00995951, -0.00892132, -0.0151367
0.103101, 1.69278, -1.22842, -1.5417, -0.902489, -1.20208, 1.22841, -1.30253, 0.0631392, -0.00271771, -0.0263694, -0.000728121, -0.179601, -0.00556051, -0.00114658, 1.18995, 66.1359, 32.9236, 7.29126, 2.04364, 4.27066, -0.0164075, -0.00151651, -0.00202703, 0.00355733, 0.0096381, -0.00685149, 0.00188546, 0.0363722, -0.00926497, -0.0166896, -0.117931, 0.162976, -0.00657494, 0.471001, -0.542659, 0.336084, -2.08331, -2.1657, -0.129941, 0.468901, -0.54369, 0.332397, -2.08366, -2.16383, -0.112114, -0.000325348, 0.0232823, 0.00597737, 0.00962613, -0.00966759, -0.0164411
0.104101, 1.69285, -1.22843, -1.54174, -0.902496, -1.20227, 1.22841, -1.30253, 0.0643629, -0.00294169, -0.027901, -0.00196327, -0.182232, -0.00384365, -0.00127301, 1.11457, 66.1755, 32.999, 7.36664, 2.06195, 4.26333, -0.00267457, -0.00155301, -0.00201543, 0.00357809, 0.00975873, -0.00701716, 0.00189633, 0.0369846, -0.00997372, -0.0174765, -0.119701, 0.166364, -0.00571177, 0.471, -0.542636, 0.33609, -2.08329, -2.1657, -0.129943, 0.468913, -0.543699, 0.332377, -2.08368, -2.16386, -0.111813, -0.000335889, 0.0237543, 0.00609484, 0.0103167, -0.00964928, -0.017218
0.105101, 1.69292, -1.22843, -1.54177, -0.902508, -1.20244, 1.22841, -1.30252, 0.0652357, -0.00211253, -0.026223, -0.00462128, -0.183991, -0.00286837, 0.00135537, 1.03919, 66.1755, 32.9633, 7.51739, 2.06836, 4.26333, -0.0621838, -0.00158398, -0.00199879, 0.00359678, 0.00987247, -0.00717716, 0.00190185, 0.0363233, -0.0113186, -0.0167536, -0.119411, 0.169645, -0.00490692, 0.471, -0.542612, 0.336096, -2.08328, -2.16569, -0.129945, 0.46893, -0.543703, 0.332359, -2.08368, -2.1639, -0.111526, -0.000346646, 0.0242302, 0.00621319, 0.0116517, -0.00857642, -0.0163244
0.106101, 1.69298, -1.22843, -1.5418, -0.902516, -1.20262, 1.2284, -1.30252, 0.0650756, -0.0015219, -0.0258256, -0.00551878, -0.180056, -0.00241296, 0.00114094, 1.00349, 66.1755, 32.9633, 7.62848, 2.06195, 4.27066, -0.0685925, -0.00161858, -0.00198644, 0.00361536, 0.00999108, -0.00733893, 0.00191015, 0.035753, -0.0120125, -0.0163855, -0.11709, 0.167638, -0.00253494, 0.471, -0.542588, 0.336102, -2.08326, -2.16569, -0.129946, 0.468942, -0.543709, 0.332341, -2.08369, -2.16393, -0.111231, -0.000357622, 0.0247101, 0.00633241, 0.0123266, -0.00756148, -0.0157746
0.107101, 1.69306, -1.22842, -1.54183, -0.902518, -1.2028, 1.2284, -1.30253, 0.06998, 0.00233391, -0.028735, -0.00355879, -0.177763, -0.0012382, -0.00191814, 0.888436, 66.0287, 32.9633, 7.62848, 2.06836, 4.25601, 0.00373412, -0.00165299, -0.00197225, 0.00362546, 0.010104, -0.00751804, 0.0019111, 0.0345712, -0.014213, -0.0150655, -0.116959, 0.170712, 0.00298152, 0.470999, -0.542563, 0.336109, -2.08324, -2.16568, -0.129948, 0.468957, -0.543716, 0.332332, -2.08371, -2.16398, -0.110926, -0.000368819, 0.025194, 0.00645249, 0.0145187, -0.00602369, -0.0142348
0.108101, 1.69312, -1.22843, -1.54186, -0.902526, -1.20299, 1.2284, -1.30252, 0.0686586, -0.00194161, -0.028293, -0.00404547, -0.176344, -0.00149706, -5.80543e-05, 0.85273, 66.1755, 32.8522, 7.70386, 2.08667, 4.27066, -0.0292249, -0.00168949, -0.00195909, 0.00364722, 0.0102185, -0.00767586, 0.0019214, 0.0355082, -0.013843, -0.0174885, -0.116427, 0.165503, 0.00106156, 0.470999, -0.542538, 0.336115, -2.08322, -2.16568, -0.12995, 0.46897, -0.543723, 0.332311, -2.08372, -2.16401, -0.110639, -0.000380238, 0.0256818, 0.00657343, 0.0140831, -0.00610185, -0.0166413
0.109101, 1.69319, -1.22842, -1.54189, -0.902537, -1.20316, 1.2284, -1.30252, 0.0686358, 0.00125615, -0.0308043, -0.00780642, -0.178364, -0.00109484, 0.001182, 0.777352, 66.0645, 32.8522, 7.77924, 2.06836, 4.27066, -0.0621838, -0.00172118, -0.00194325, 0.00366158, 0.0103351, -0.00784322, 0.00192503, 0.0355767, -0.0140086, -0.0170057, -0.120608, 0.171415, 0.00119629, 0.470999, -0.542512, 0.336122, -2.0832, -2.16567, -0.129952, 0.468986, -0.543726, 0.332298, -2.08373, -2.16405, -0.110342, -0.000391882, 0.0261735, 0.00669522, 0.0142569, -0.00574494, -0.0160592
0.110101, 1.69326, -1.22841, -1.54192, -0.902551, -1.20334, 1.2284, -1.30252, 0.0707582, 0.00339996, -0.0277806, -0.0115426, -0.176416, -0.00107376, 0.000788, 0.737679, 65.9534, 32.7768, 7.89032, 2.07477, 4.27798, -0.0621838, -0.00175327, -0.00192769, 0.00367418, 0.0104466, -0.00801167, 0.00192363, 0.0328301, -0.0167579, -0.0153408, -0.11883, 0.172547, 0.0090465, 0.470998, -0.542486, 0.336128, -2.08318, -2.16567, -0.129954, 0.469002, -0.543729, 0.332287, -2.08373, -2.1641, -0.110049, -0.000403753, 0.0266691, 0.00681784, 0.0169527, -0.00268137, -0.0139495
0.111101, 1.69334, -1.22841, -1.54194, -0.902562, -1.20351, 1.22839, -1.30253, 0.0679144, 0.00223969, -0.025638, -0.0124078, -0.174137, -0.000770291, -0.00167871, 0.626595, 65.9534, 32.7015, 7.92602, 2.05646, 4.27798, -0.00267457, -0.00178422, -0.00190911, 0.00369142, 0.0105593, -0.00817154, 0.00191128, 0.0335905, -0.0160636, -0.0152534, -0.115613, 0.169869, 0.0113117, 0.470998, -0.542459, 0.336135, -2.08317, -2.16566, -0.129956, 0.469021, -0.543729, 0.332271, -2.08372, -2.16415, -0.109765, -0.000415851, 0.0271686, 0.0069413, 0.0162777, -0.00297428, -0.0138376
0.112101, 1.6934, -1.2284, -1.54197, -0.902571, -1.20369, 1.22839, -1.30253, 0.0670925, 0.00323616, -0.0240874, -0.0132609, -0.172254, -0.000554364, -0.000610516, 0.586922, 65.878, 32.6261, 7.9657, 2.03174, 4.27798, -0.0164075, -0.00181986, -0.00189536, 0.00370403, 0.010667, -0.00834031, 0.00191699, 0.0334552, -0.0162984, -0.0142151, -0.113275, 0.169751, 0.0115643, 0.470997, -0.542432, 0.336142, -2.08315, -2.16566, -0.129958, 0.469035, -0.543735, 0.33226, -2.08373, -2.16419, -0.109476, -0.000428179, 0.027672, 0.00706559, 0.016533, -0.00248757, -0.0126748
0.113101, 1.69347, -1.2284, -1.54199, -0.902583, -1.20386, 1.22839, -1.30252, 0.0649277, 0.0029775, -0.0240126, -0.0138475, -0.175878, -0.000128937, 0.000779784, 0.475838, 65.8423, 32.5904, 8.0014, 2.01343, 4.27066, -0.0484509, -0.00185456, -0.00187908, 0.00371932, 0.010776, -0.00850685, 0.00192041, 0.0355306, -0.0148951, -0.0142972, -0.114385, 0.173031, 0.00742616, 0.470997, -0.542404, 0.336149, -2.08313, -2.16565, -0.12996, 0.469051, -0.543738, 0.332246, -2.08374, -2.16423, -0.109188, -0.000440739, 0.0281791, 0.00719069, 0.0151906, -0.00407378, -0.0129116
0.114101, 1.69353, -1.22839, -1.54202, -0.902594, -1.20405, 1.22839, -1.30252, 0.0637752, 0.00707774, -0.0224273, -0.0135222, -0.178542, -0.000380196, -0.000192221, 0.475838, 65.6241, 32.6261, 8.0014, 2.00061, 4.27798, -0.0292249, -0.0018933, -0.00186817, 0.00372856, 0.0108911, -0.00869102, 0.00192869, 0.0364559, -0.0140304, -0.0112628, -0.113672, 0.179377, 0.0067838, 0.470997, -0.542376, 0.336156, -2.08311, -2.16564, -0.129962, 0.469063, -0.543746, 0.332237, -2.08376, -2.16428, -0.108874, -0.000453532, 0.0286901, 0.0073166, 0.0144585, -0.00498002, -0.00990808
0.115101, 1.6936, -1.22838, -1.54204, -0.90261, -1.20423, 1.22839, -1.30253, 0.0625386, 0.00470997, -0.0206478, -0.0151218, -0.184765, -0.00054196, -0.00182357, 0.360787, 65.6241, 32.515, 8.07678, 1.99512, 4.28531, 0.0165515, -0.00192685, -0.0018507, 0.00374158, 0.0110011, -0.00886276, 0.0019177, 0.0381217, -0.0133168, -0.012218, -0.115816, 0.1824, 0.00746394, 0.470996, -0.542347, 0.336164, -2.08308, -2.16564, -0.129964, 0.46908, -0.543748, 0.332226, -2.08376, -2.16434, -0.108581, -0.00046656, 0.0292049, 0.00744332, 0.0137578, -0.00599111, -0.0109628
0.116101, 1.69367, -1.22838, -1.54206, -0.902619, -1.20442, 1.22839, -1.30252, 0.0641133, 0.0040616, -0.0203606, -0.0135232, -0.186226, 0.000168307, 0.00119179, 0.285408, 65.5844, 32.4396, 8.03711, 2.00702, 4.27066, -0.0484509, -0.00196666, -0.00183838, 0.00375292, 0.0111093, -0.00904086, 0.00193267, 0.0387908, -0.0138685, -0.0123294, -0.115047, 0.1836, 0.00430939, 0.470996, -0.542318, 0.336171, -2.08306, -2.16563, -0.129966, 0.469093, -0.543756, 0.332216, -2.08379, -2.16437, -0.108281, -0.000479825, 0.0297235, 0.00757084, 0.0143156, -0.00609272, -0.011067
0.117101, 1.69373, -1.22838, -1.54208, -0.902631, -1.20462, 1.22839, -1.30253, 0.0617022, 0.00270294, -0.0211137, -0.0134656, -0.188049, 0.000645049, -0.00062963, 0.21003, 65.5844, 32.4039, 8.03711, 2.03174, 4.25601, -0.00999879, -0.00200728, -0.00182472, 0.00376857, 0.0112204, -0.00921794, 0.00193399, 0.041104, -0.0122681, -0.0132506, -0.115767, 0.184311, 0.00280682, 0.470995, -0.542288, 0.336179, -2.08304, -2.16563, -0.129968, 0.469107, -0.543763, 0.332201, -2.0838, -2.16442, -0.10798, -0.000493328, 0.0302458, 0.00769914, 0.0127534, -0.00777724, -0.0121603
0.118101, 1.6938, -1.22837, -1.54209, -0.902642, -1.20481, 1.22838, -1.30253, 0.0627462, 0.00523204, -0.0183416, -0.0135295, -0.188571, -0.00011977, -0.00116574, 0.0196001, 65.4376, 32.3682, 8.03711, 2.03815, 4.27066, 0.0101428, -0.00204324, -0.00180813, 0.00377639, 0.0113304, -0.00940247, 0.00193039, 0.0403771, -0.0131141, -0.0109436, -0.114106, 0.187131, 0.00555102, 0.470995, -0.542258, 0.336186, -2.08302, -2.16562, -0.129971, 0.469124, -0.543766, 0.332195, -2.08381, -2.16448, -0.107673, -0.000507072, 0.0307718, 0.00782823, 0.0136429, -0.00685469, -0.00966686
0.119101, 1.69387, -1.22837, -1.54211, -0.902654, -1.20501, 1.22838, -1.30252, 0.0617027, 0.00265011, -0.0162615, -0.0110267, -0.192928, 0.000694596, 0.000918262, -0.0914839, 65.4733, 32.3285, 8.07678, 2.03174, 4.2496, -0.0356336, -0.00208646, -0.00179621, 0.00378961, 0.0114376, -0.00958438, 0.00194431, 0.042876, -0.0120376, -0.011281, -0.112367, 0.188542, -0.000116318, 0.470994, -0.542227, 0.336194, -2.083, -2.16561, -0.129973, 0.469137, -0.543776, 0.332183, -2.08383, -2.16452, -0.107371, -0.000521058, 0.0313016, 0.00795809, 0.0126316, -0.00878352, -0.0102272
0.120101, 1.69393, -1.22837, -1.54213, -0.902666, -1.2052, 1.22838, -1.30252, 0.0599566, 0.00343515, -0.015704, -0.0117144, -0.191472, 0.000221616, 0.00108689, -0.166862, 65.4019, 32.3285, 8.07678, 2.02533, 4.25601, -0.0484509, -0.00212882, -0.00178519, 0.00379913, 0.0115468, -0.00976905, 0.00195454, 0.0434689, -0.0113688, -0.0107059, -0.111492, 0.188253, -0.00063804, 0.470994, -0.542196, 0.336202, -2.08297, -2.16561, -0.129975, 0.469148, -0.543784, 0.332174, -2.08386, -2.16457, -0.107063, -0.000535288, 0.031835, 0.00808872, 0.011992, -0.00895147, -0.00960152
0.121101, 1.69399, -1.22836, -1.54213, -0.902679, -1.2054, 1.22838, -1.30253, 0.0594618, 0.00488704, -0.0163696, -0.0129389, -0.194814, 0.000653304, -0.00192026, -0.281914, 65.2908, 32.2532, 8.11249, 2.00702, 4.24228, 0.0229602, -0.00217022, -0.00177206, 0.00380465, 0.0116454, -0.0099569, 0.00195148, 0.0445865, -0.0109186, -0.0102157, -0.113532, 0.193169, 0.0015322, 0.470993, -0.542164, 0.33621, -2.08295, -2.1656, -0.129978, 0.469162, -0.543792, 0.33217, -2.08387, -2.16463, -0.106766, -0.000549763, 0.0323721, 0.00822011, 0.0115862, -0.00961154, -0.00914736
0.122101, 1.69405, -1.22836, -1.54214, -0.902686, -1.20559, 1.22837, -1.30253, 0.0601899, 0.00325689, -0.0130997, -0.0121829, -0.192056, -0.000346657, -0.000805457, -0.43267, 65.2908, 32.1421, 8.07678, 1.9823, 4.26333, 0.0101428, -0.00221307, -0.00175922, 0.00381264, 0.0117413, -0.0101368, 0.00195966, 0.0438645, -0.0118956, -0.0100883, -0.110028, 0.188939, 0.00301974, 0.470993, -0.542132, 0.336219, -2.08293, -2.16559, -0.12998, 0.469176, -0.5438, 0.332163, -2.0839, -2.16468, -0.106478, -0.000564485, 0.0329128, 0.00835225, 0.012526, -0.00833704, -0.0088076
0.123101, 1.69411, -1.22835, -1.54216, -0.902699, -1.20578, 1.22837, -1.30252, 0.0605136, 0.00393364, -0.0137423, -0.0108911, -0.190659, 0.000547064, 0.00139581, -0.583427, 65.2155, 32.2928, 8.15216, 1.95758, 4.24228, -0.0420422, -0.002256, -0.00174694, 0.00382238, 0.0118469, -0.0103198, 0.00197248, 0.0445486, -0.01198, -0.00971743, -0.108422, 0.189262, 0.000193978, 0.470992, -0.542099, 0.336227, -2.0829, -2.16559, -0.129982, 0.469189, -0.543807, 0.332155, -2.08392, -2.16472, -0.106176, -0.000579456, 0.0334572, 0.00848514, 0.0126337, -0.00852134, -0.00841861
0.124101, 1.69417, -1.22835, -1.54216, -0.902713, -1.20598, 1.22837, -1.30252, 0.0635558, 0.00345701, -0.00851034, -0.00885042, -0.190279, -0.00466972, 0.000455821, -0.734184, 65.1797, 32.2175, 8.18787, 1.95758, 4.2496, -0.0292249, -0.00229818, -0.00173412, 0.00383026, 0.0119445, -0.0104986, 0.00197376, 0.042708, -0.0132559, -0.00851962, -0.107619, 0.185877, 0.00497595, 0.470991, -0.542066, 0.336235, -2.08288, -2.16558, -0.129985, 0.469202, -0.543814, 0.332149, -2.08394, -2.16477, -0.105889, -0.000594677, 0.0340052, 0.00861877, 0.0138705, -0.00628855, -0.00685547
0.125101, 1.69423, -1.22834, -1.54216, -0.902728, -1.20618, 1.22837, -1.30252, 0.0589704, 0.00573786, -0.00567236, -0.0116616, -0.194253, -0.00242587, -0.000916822, -0.845268, 65.033, 32.1818, 8.26324, 1.94568, 4.2203, 0.00373412, -0.00234138, -0.00172101, 0.00383144, 0.0120372, -0.0106946, 0.00197726, 0.0446939, -0.011732, -0.00614796, -0.10535, 0.19282, 0.00431469, 0.470991, -0.542032, 0.336244, -2.08286, -2.16557, -0.129987, 0.469216, -0.543822, 0.332149, -2.08397, -2.16484, -0.105589, -0.000610151, 0.0345567, 0.00875313, 0.0124919, -0.00812649, -0.00464333
0.126101, 1.69428, -1.22834, -1.54216, -0.902743, -1.20637, 1.22837, -1.30252, 0.0578188, 0.0046601, -0.00569327, -0.0102481, -0.196901, -0.00610394, 0.000372129, -0.920646, 64.9973, 32.1064, 8.33862, 1.92737, 4.20657, -0.0228162, -0.00238628, -0.00170997, 0.00383673, 0.0121288, -0.0108777, 0.0019839, 0.0464391, -0.00980554, -0.00688222, -0.108926, 0.192344, -0.000210098, 0.47099, -0.541997, 0.336253, -2.08283, -2.16557, -0.12999, 0.469228, -0.54383, 0.332145, -2.08399, -2.16489, -0.105303, -0.000625878, 0.0351119, 0.00888822, 0.0105884, -0.0092598, -0.00544711
0.127101, 1.69434, -1.22833, -1.54216, -0.902753, -1.20657, 1.22837, -1.30252, 0.0590623, 0.0048697, -0.00535399, -0.010717, -0.198145, -0.00468447, 0.00119752, -1.07537, 64.9219, 32.1421, 8.33862, 1.89624, 4.20657, -0.0484509, -0.00243454, -0.00170017, 0.00384184, 0.0122253, -0.0110701, 0.00199893, 0.0466246, -0.0107845, -0.00667783, -0.108239, 0.194758, 0.000396051, 0.47099, -0.541962, 0.336262, -2.0828, -2.16556, -0.129992, 0.469238, -0.543841, 0.332141, -2.08403, -2.16494, -0.105002, -0.00064186, 0.0356705, 0.00902402, 0.0115646, -0.00887503, -0.0051694
0.128101, 1.69434, -1.22833, -1.54216, -0.902753, -1.20657, 1.22837, -1.30252, 0.0590623, 0.0048697, -0.00535399, -0.010717, -0.198145, -0.00468447, 0.00119752, -1.07537, 64.9219, 32.1421, 8.33862, 1.89624, 4.20657, -0.0484509, -0.00247123, -0.00170069, 0.00384519, 0.0122103, -0.0110882, 0.00200716, 0.0472017, -0.0107814, -0.00672408, -0.10813, 0.195164, 0.00043541, 0.470989, -0.541926, 0.336271, -2.08278, -2.16555, -0.129995, 0.469238, -0.543841, 0.332141, -2.08403, -2.16494, -0.105002, -0.000658099, 0.0362327, 0.00916054, 0.0115646, -0.00887503, -0.0051694
0.129101, 1.69439, -1.22833, -1.54216, -0.90277, -1.20678, 1.22837, -1.30253, 0.0547597, 0.00408148, -0.00411176, -0.00958683, -0.205132, -0.00358436, -0.00184651, -1.15075, 64.8862, 32.1421, 8.414, 1.88434, 4.20657, 0.0229602, -0.00252088, -0.00169153, 0.00385036, 0.012308, -0.0112853, 0.00201008, 0.0513345, -0.00775396, -0.00628344, -0.108118, 0.200709, -0.00343511, 0.470988, -0.54189, 0.33628, -2.08275, -2.16554, -0.129998, 0.469248, -0.543853, 0.332137, -2.08405, -2.165, -0.104696, -0.000674597, 0.0367984, 0.00929776, 0.00869015, -0.0125818, -0.00514975
0.130101, 1.69445, -1.22832, -1.54216, -0.902785, -1.20699, 1.22836, -1.30252, 0.0565694, 0.00355605, -0.00147757, -0.0154927, -0.206471, -0.00273561, 0.000464415, -1.30151, 64.8505, 32.0707, 8.48541, 1.89624, 4.20657, -0.0228162, -0.0025695, -0.00168074, 0.00385476, 0.0124049, -0.0114825, 0.00202299, 0.0492226, -0.0105785, -0.0065344, -0.108647, 0.20257, 0.00209329, 0.470988, -0.541853, 0.336289, -2.08273, -2.16554, -0.13, 0.46926, -0.543863, 0.332134, -2.08409, -2.16505, -0.104389, -0.000691354, 0.0373675, 0.00943568, 0.011409, -0.00977205, -0.005018
0.131101, 1.69456, -1.22832, -1.54216, -0.902812, -1.20743, 1.22836, -1.30252, 0.0580201, 0.00219899, -0.00282126, -0.0139783, -0.207883, 1.02085e-05, 4.81674e-05, -1.56335, 64.8108, 32.1818, 8.56079, 1.91546, 4.15622, -0.0228162, -0.00263805, -0.00166267, 0.00386654, 0.0126239, -0.0118695, 0.00204582, 0.0505805, -0.0111843, -0.00745768, -0.107587, 0.204165, 0.0015984, 0.470987, -0.541816, 0.336299, -2.0827, -2.16553, -0.130003, 0.469279, -0.543891, 0.332121, -2.08416, -2.16515, -0.103754, -0.000708374, 0.0379402, 0.00957429, 0.0120123, -0.0103715, -0.00602243
0.132101, 1.69461, -1.22832, -1.54216, -0.902827, -1.20765, 1.22836, -1.30253, 0.0579711, 0.00146593, -0.00288769, -0.0145632, -0.207265, 0.00013209, -0.00118859, -1.6784, 64.8108, 32.2175, 8.60046, 1.91546, 4.14889, 0.0101428, -0.00269271, -0.00165518, 0.00387386, 0.0127269, -0.0120741, 0.00205924, 0.0509918, -0.0113799, -0.00801993, -0.107466, 0.203459, 0.00353383, 0.470986, -0.541778, 0.336308, -2.08267, -2.16552, -0.130006, 0.469288, -0.543905, 0.332114, -2.0842, -2.1652, -0.103433, -0.000725657, 0.0385162, 0.00971358, 0.0121848, -0.0101059, -0.00650954
0.133101, 1.69468, -1.22832, -1.54215, -0.902845, -1.20788, 1.22837, -1.30253, 0.0595165, 0.000977237, 0.00137982, -0.0157041, -0.22131, 0.00102973, 0.00019095, -1.86486, 64.8108, 32.0707, 8.67188, 1.94568, 4.12051, -0.0164075, -0.00274288, -0.00164039, 0.00387876, 0.0128238, -0.0122851, 0.00206571, 0.0525914, -0.0118519, -0.00694504, -0.11014, 0.215259, 0.00208998, 0.470985, -0.541739, 0.336318, -2.08264, -2.16551, -0.130009, 0.469304, -0.543915, 0.332111, -2.08423, -2.16527, -0.103113, -0.000743204, 0.0390957, 0.00985355, 0.0127362, -0.0112517, -0.0055736
0.134101, 1.69473, -1.22831, -1.54216, -0.902855, -1.2081, 1.22836, -1.30252, 0.0556852, 0.00324991, -1.18774e-05, -0.0106005, -0.217082, -0.00417052, 0.000839377, -1.97991, 64.6997, 32.1064, 8.63617, 1.92737, 4.12051, -0.0356336, -0.00279759, -0.00163264, 0.00388389, 0.0129263, -0.0124899, 0.00208591, 0.0551036, -0.00778141, -0.0056907, -0.110616, 0.211392, -0.00613918, 0.470985, -0.5417, 0.336328, -2.08262, -2.1655, -0.130011, 0.469312, -0.543928, 0.332107, -2.08427, -2.16531, -0.102792, -0.000761018, 0.0396786, 0.00999418, 0.00879055, -0.0135108, -0.00446259
0.135102, 1.69478, -1.22832, -1.54216, -0.90287, -1.20832, 1.22836, -1.30252, 0.0542631, 0.000403342, -8.03252e-05, -0.0112195, -0.2184, -0.00242604, 0.0010343, -2.01562, 64.7751, 32.1064, 8.63617, 1.90265, 4.09854, -0.0484509, -0.00285565, -0.00162599, 0.00389361, 0.0130258, -0.0126909, 0.00210683, 0.0568702, -0.00733049, -0.00728536, -0.109969, 0.21094, -0.00754195, 0.470984, -0.541661, 0.336338, -2.08259, -2.1655, -0.130014, 0.46932, -0.543944, 0.332098, -2.08431, -2.16536, -0.102478, -0.000779099, 0.0402649, 0.0101355, 0.00832754, -0.0144398, -0.00615869
0.136102, 1.69484, -1.22832, -1.54216, -0.902886, -1.20854, 1.22836, -1.30253, 0.0561081, 0.000268875, -0.000107855, -0.0118676, -0.22103, -0.00169071, -0.0014806, -2.16637, 64.7751, 32.1064, 8.63617, 1.91546, 4.09122, 0.0101428, -0.00290889, -0.00161357, 0.0039015, 0.013127, -0.0128958, 0.00210898, 0.0570786, -0.00834837, -0.00752267, -0.111055, 0.213874, -0.00347476, 0.470983, -0.54162, 0.336348, -2.08256, -2.16549, -0.130017, 0.469333, -0.543955, 0.332092, -2.08434, -2.16542, -0.10216, -0.00079745, 0.0408545, 0.0102774, 0.00932483, -0.0139765, -0.00631615
0.137102, 1.6949, -1.2283, -1.54214, -0.902899, -1.20875, 1.22837, -1.30252, 0.0558479, 0.00444813, 0.00248582, -0.011492, -0.217376, -0.00527327, 0.000945711, -2.24175, 64.5926, 31.9953, 8.60046, 1.90906, 4.07016, -0.0420422, -0.00296288, -0.00160319, 0.00389698, 0.0132122, -0.0131129, 0.00212673, 0.0558956, -0.00825649, -0.00443656, -0.109468, 0.2135, -0.00413269, 0.470982, -0.541579, 0.336358, -2.08253, -2.16548, -0.13002, 0.469345, -0.543967, 0.332098, -2.08439, -2.16548, -0.101846, -0.000816072, 0.0414475, 0.01042, 0.00928586, -0.012697, -0.00294055
0.138102, 1.69495, -1.2283, -1.54214, -0.902917, -1.20898, 1.22837, -1.30252, 0.0549, 0.00472864, 0.00162667, -0.0156084, -0.215677, -0.00328452, 0.00137646, -2.28143, 64.5172, 31.9953, 8.60046, 1.92737, 4.04819, -0.0621838, -0.00302075, -0.00159418, 0.00390213, 0.0133157, -0.0133318, 0.00214462, 0.0557319, -0.00904571, -0.00496364, -0.109334, 0.214207, -0.00167412, 0.470982, -0.541538, 0.336369, -2.0825, -2.16547, -0.130023, 0.469355, -0.543982, 0.332094, -2.08443, -2.16554, -0.10151, -0.000834967, 0.0420438, 0.0105633, 0.0100301, -0.0118243, -0.00331771
0.139102, 1.69501, -1.2283, -1.54214, -0.902936, -1.20921, 1.22837, -1.30252, 0.0550165, 0.00315242, 0.00106154, -0.0185644, -0.222961, -0.00289806, -0.000540423, -2.3568, 64.5172, 31.9953, 8.60046, 1.92096, 4.05551, -0.0228162, -0.003076, -0.00158175, 0.00391025, 0.0134211, -0.013544, 0.00214825, 0.0571638, -0.00895057, -0.00648069, -0.114297, 0.219544, 0.000340341, 0.470981, -0.541496, 0.336379, -2.08247, -2.16546, -0.130026, 0.469368, -0.543992, 0.332087, -2.08446, -2.1656, -0.10118, -0.000854135, 0.0426434, 0.0107072, 0.00991209, -0.0124067, -0.00489352
0.140102, 1.69507, -1.22829, -1.54214, -0.902952, -1.20944, 1.22837, -1.30253, 0.054292, 0.00293683, -0.00014471, -0.0198477, -0.224457, -0.00147998, -0.000597641, -2.39648, 64.4815, 32.031, 8.56079, 1.95209, 4.03445, -0.0164075, -0.0031355, -0.00157318, 0.00391648, 0.0135296, -0.013765, 0.00216489, 0.0584361, -0.00871113, -0.00707838, -0.115196, 0.221869, -0.000203253, 0.47098, -0.541453, 0.33639, -2.08244, -2.16545, -0.130029, 0.469378, -0.544007, 0.332082, -2.0845, -2.16566, -0.100837, -0.000873578, 0.0432462, 0.0108517, 0.00967783, -0.0129766, -0.00553176
0.141102, 1.69513, -1.2283, -1.54214, -0.902971, -1.20968, 1.22837, -1.30252, 0.0560582, 0.00112266, -0.00010936, -0.0210458, -0.225161, -0.000961257, 0.000788368, -2.39648, 64.5172, 32.031, 8.52509, 1.95758, 4.02713, -0.0484509, -0.00319496, -0.00156362, 0.00392603, 0.0136359, -0.0139781, 0.00218573, 0.0582728, -0.0100293, -0.00838315, -0.115879, 0.221525, 0.00108211, 0.470979, -0.54141, 0.336401, -2.08241, -2.16544, -0.130032, 0.469388, -0.544021, 0.332074, -2.08454, -2.16571, -0.100503, -0.000893298, 0.0438524, 0.0109968, 0.0109207, -0.0119521, -0.00669135
0.142102, 1.69519, -1.22828, -1.54214, -0.902996, -1.20991, 1.22837, -1.30252, 0.0572092, 0.00501733, 0.00168067, -0.0236266, -0.226278, -0.000553976, 0.000796846, -2.39648, 64.3347, 31.9556, 8.56079, 1.9823, 4.0198, -0.0557752, -0.00325182, -0.00155233, 0.00392577, 0.0137408, -0.0142113, 0.00219283, 0.0571546, -0.0114528, -0.00586372, -0.115374, 0.227133, 0.00490359, 0.470978, -0.541366, 0.336412, -2.08237, -2.16543, -0.130036, 0.4694, -0.544032, 0.332076, -2.08458, -2.16578, -0.100152, -0.000913297, 0.0444617, 0.0111426, 0.0123754, -0.0105696, -0.00392906
0.143102, 1.69524, -1.22828, -1.54214, -0.903018, -1.21015, 1.22837, -1.30253, 0.0536675, 0.0042729, -0.000650043, -0.0211664, -0.226942, 0.000306181, -0.00116419, -2.3211, 64.295, 32.031, 8.56079, 2.00061, 3.99783, -0.00999879, -0.00331583, -0.00154578, 0.00393378, 0.013852, -0.0144388, 0.00220751, 0.0608539, -0.00858817, -0.0065554, -0.115241, 0.227588, -5.58757e-05, 0.470977, -0.541322, 0.336423, -2.08234, -2.16542, -0.130039, 0.469408, -0.544049, 0.332069, -2.08461, -2.16584, -0.0997992, -0.000933575, 0.0450743, 0.0112889, 0.00960302, -0.0136198, -0.00495647
0.144102, 1.6953, -1.22827, -1.54214, -0.903037, -1.21039, 1.22837, -1.30252, 0.0506064, 0.00628227, -0.000438798, -0.0209964, -0.227953, 0.000609019, 0.00115665, -2.3568, 64.1483, 32.031, 8.48541, 2.03174, 3.9841, -0.0621838, -0.00337542, -0.00153488, 0.00393523, 0.0139635, -0.0146764, 0.00222596, 0.0628944, -0.00676938, -0.00511278, -0.114392, 0.23089, -0.00579394, 0.470976, -0.541277, 0.336434, -2.08231, -2.16541, -0.130042, 0.46942, -0.544062, 0.332069, -2.08466, -2.1659, -0.0994353, -0.000954135, 0.0456901, 0.0114359, 0.0078938, -0.0153166, -0.00364944
0.145102, 1.69536, -1.22827, -1.54214, -0.90306, -1.21063, 1.22837, -1.30252, 0.0504658, 0.00335296, -0.00122463, -0.0252267, -0.226863, 0.000599484, 0.00124582, -2.3568, 64.184, 32.0707, 8.44971, 2.03174, 3.97677, -0.0750012, -0.0034385, -0.00152689, 0.00394661, 0.0140797, -0.014897, 0.00224657, 0.0625586, -0.00767619, -0.00773851, -0.11666, 0.227963, -0.00219872, 0.470975, -0.541231, 0.336446, -2.08228, -2.1654, -0.130045, 0.469429, -0.544077, 0.332059, -2.0847, -2.16594, -0.0990833, -0.000974976, 0.0463091, 0.0115835, 0.0086696, -0.0139211, -0.00607121
0.146102, 1.69541, -1.22827, -1.54214, -0.903087, -1.21087, 1.22837, -1.30252, 0.0526242, 0.00130729, 0.000108542, -0.0260676, -0.226424, 0.000883844, -0.000152798, -2.3211, 64.2236, 32.031, 8.44971, 2.02533, 3.96213, -0.0484509, -0.00349991, -0.0015156, 0.00395583, 0.0141835, -0.0151174, 0.00224998, 0.0618452, -0.00945795, -0.00871907, -0.115803, 0.226225, 0.00294803, 0.470974, -0.541185, 0.336457, -2.08224, -2.16539, -0.130049, 0.469441, -0.544089, 0.332052, -2.08472, -2.16601, -0.0987471, -0.000996102, 0.0469312, 0.0117316, 0.0103661, -0.0123684, -0.00683635
0.147102, 1.69547, -1.22826, -1.54214, -0.903108, -1.21111, 1.22837, -1.30252, 0.0561975, 0.00523322, 7.00677e-05, -0.0239541, -0.231225, 0.000782828, -0.000101865, -2.3568, 64.0372, 32.031, 8.33862, 2.01984, 3.95572, -0.0484509, -0.00356261, -0.00150531, 0.00395676, 0.0142928, -0.0153598, 0.00226733, 0.0621084, -0.0103547, -0.00632947, -0.117205, 0.234426, 0.00289313, 0.470973, -0.541138, 0.336469, -2.08221, -2.16538, -0.130052, 0.469452, -0.544103, 0.332052, -2.08477, -2.16608, -0.098381, -0.00101751, 0.0475565, 0.0118804, 0.0113387, -0.0123354, -0.00439911
0.148102, 1.69552, -1.22826, -1.54214, -0.903132, -1.21136, 1.22837, -1.30251, 0.0497265, 0.00256079, -0.000883028, -0.0242718, -0.24083, 0.000760332, 0.00166142, -2.28143, 64.0768, 32.0707, 8.29895, 2.05005, 3.94839, -0.0951428, -0.00363124, -0.00149939, 0.00396629, 0.0144077, -0.0155943, 0.00229562, 0.0678711, -0.00557416, -0.00793853, -0.121781, 0.239952, -0.00853042, 0.470972, -0.54109, 0.336481, -2.08218, -2.16537, -0.130056, 0.469459, -0.544122, 0.332044, -2.08482, -2.16613, -0.0980156, -0.00103921, 0.0481849, 0.0120297, 0.00669253, -0.0173437, -0.00659282
0.149102, 1.69552, -1.22826, -1.54214, -0.903132, -1.21136, 1.22837, -1.30251, 0.0497265, 0.00256079, -0.000883028, -0.0242718, -0.24083, 0.000760332, 0.00166142, -2.28143, 64.0768, 32.0707, 8.29895, 2.05005, 3.94839, -0.0951428, -0.0036808, -0.00149994, 0.00397059, 0.0143874, -0.0156189, 0.00230654, 0.0685189, -0.00557394, -0.00798597, -0.121651, 0.240402, -0.00848763, 0.470971, -0.541042, 0.336493, -2.08214, -2.16536, -0.130059, 0.469459, -0.544122, 0.332044, -2.08482, -2.16613, -0.0980156, -0.0010612, 0.0488164, 0.0121795, 0.00669253, -0.0173437, -0.00659282
0.150102, 1.69563, -1.22825, -1.54214, -0.903188, -1.21188, 1.22837, -1.30252, 0.0507905, 0.00345818, 0.000224395, -0.026687, -0.246185, 0.000483899, -0.00122828, -2.20605, 64.0015, 32.031, 8.29895, 2.05646, 3.94107, -0.0420422, -0.00376592, -0.00148368, 0.0039813, 0.0146447, -0.0160805, 0.00232397, 0.0686996, -0.00624309, -0.00747199, -0.124473, 0.2462, -0.00366796, 0.47097, -0.540993, 0.336505, -2.08211, -2.16535, -0.130063, 0.469477, -0.544155, 0.332032, -2.0849, -2.16625, -0.0972624, -0.00108347, 0.049451, 0.01233, 0.00736464, -0.0169388, -0.00598579
0.151102, 1.69569, -1.22825, -1.54213, -0.903209, -1.21213, 1.22837, -1.30252, 0.0500428, 0.00230545, 0.00327864, -0.0244764, -0.250955, 0.000580021, 0.00410994, -2.16637, 64.0015, 32.031, 8.18787, 2.06195, 3.93374, -0.0484509, -0.0038369, -0.00147723, 0.00398985, 0.0147586, -0.0163206, 0.00234845, 0.0707628, -0.00537112, -0.00673261, -0.122685, 0.249085, -0.0117565, 0.470969, -0.540944, 0.336517, -2.08207, -2.16534, -0.130066, 0.469485, -0.544174, 0.332024, -2.08495, -2.16631, -0.0968929, -0.00110604, 0.0500886, 0.012481, 0.0065741, -0.018488, -0.00540239
0.152102, 1.69574, -1.22826, -1.54214, -0.903243, -1.2124, 1.22837, -1.30251, 0.0502626, 0.00199516, 0.00151801, -0.0263918, -0.255049, 0.000918831, 0.00533496, -2.16637, 64.1125, 32.0707, 8.22754, 2.08118, 3.9191, -0.10796, -0.00390655, -0.00146892, 0.00400542, 0.0148856, -0.0165588, 0.0023698, 0.0719945, -0.00521841, -0.00779561, -0.126631, 0.253084, -0.013226, 0.470968, -0.540894, 0.33653, -2.08203, -2.16533, -0.13007, 0.469494, -0.544189, 0.33201, -2.08499, -2.16636, -0.0965112, -0.0011289, 0.0507293, 0.0126325, 0.00640445, -0.0189039, -0.00649009
0.153102, 1.69579, -1.22825, -1.54213, -0.903269, -1.21266, 1.22837, -1.30251, 0.0528925, 0.00594652, 0.00213523, -0.0258893, -0.257737, 0.000842124, 0.00384985, -2.13067, 63.9261, 32.031, 8.18787, 2.09949, 3.91269, -0.10796, -0.0039796, -0.00146522, 0.00400593, 0.0150044, -0.0168217, 0.00239954, 0.0716647, -0.00630668, -0.00533602, -0.127069, 0.259661, -0.0102484, 0.470967, -0.540843, 0.336542, -2.082, -2.16532, -0.130073, 0.469499, -0.54421, 0.332011, -2.08505, -2.16642, -0.0961127, -0.00115205, 0.051373, 0.0127846, 0.00754819, -0.0182704, -0.00389407
0.154102, 1.69584, -1.22825, -1.54213, -0.903301, -1.21292, 1.22837, -1.30251, 0.0521537, 0.00415539, 0.000641866, -0.0309019, -0.255124, 0.000318216, 0.00132842, -2.13067, 63.9261, 32.0707, 8.22754, 2.11139, 3.9191, -0.0685925, -0.00405124, -0.00145922, 0.00401525, 0.0151266, -0.0170673, 0.00241574, 0.0710799, -0.0069857, -0.00766572, -0.129884, 0.256461, -0.00380392, 0.470966, -0.540792, 0.336555, -2.08196, -2.16531, -0.130077, 0.469506, -0.544228, 0.332003, -2.08509, -2.16648, -0.0957294, -0.0011755, 0.0520197, 0.0129373, 0.00809548, -0.0166561, -0.00597288
0.155102, 1.69589, -1.22825, -1.54212, -0.903332, -1.21318, 1.22837, -1.30251, 0.052169, 0.000315083, 0.00230095, -0.0336079, -0.257072, 0.000445122, 0.00176262, -2.01562, 64.0372, 31.9953, 8.22754, 2.11139, 3.91269, -0.0878186, -0.00412559, -0.00145623, 0.00402664, 0.0152397, -0.0172991, 0.00244119, 0.0713491, -0.00777537, -0.00973747, -0.13067, 0.25492, -0.00156386, 0.470965, -0.54074, 0.336568, -2.08192, -2.1653, -0.130081, 0.46951, -0.544247, 0.331993, -2.08514, -2.16653, -0.0953693, -0.00119924, 0.0526694, 0.0130904, 0.00879348, -0.015917, -0.00793363
0.156102, 1.69594, -1.22824, -1.54213, -0.903364, -1.21343, 1.22837, -1.3025, 0.0496323, 0.00375119, 0.00298528, -0.0320859, -0.254019, 0.000293462, 0.00251948, -2.05529, 63.8904, 32.0707, 8.22754, 2.11139, 3.91269, -0.120778, -0.00419734, -0.00145046, 0.00403112, 0.0153615, -0.0175523, 0.00246831, 0.0725133, -0.0063824, -0.00718206, -0.127233, 0.255959, -0.00487099, 0.470963, -0.540687, 0.336581, -2.08189, -2.16528, -0.130085, 0.469517, -0.544264, 0.33199, -2.08519, -2.16658, -0.0949776, -0.00122328, 0.0533221, 0.0132441, 0.00751641, -0.0168674, -0.00539821
0.157102, 1.69598, -1.22824, -1.54212, -0.9034, -1.21369, 1.22836, -1.3025, 0.0488835, 0.00174617, 0.00407621, -0.035167, -0.256467, -4.41817e-05, 0.000314369, -2.01562, 63.9261, 31.9953, 8.26324, 2.11139, 3.9191, -0.0814099, -0.00426968, -0.00144473, 0.00403899, 0.0154748, -0.0177927, 0.00248114, 0.0730154, -0.00654961, -0.00841842, -0.129073, 0.256451, -0.000905412, 0.470962, -0.540634, 0.336594, -2.08185, -2.16527, -0.130089, 0.469524, -0.544281, 0.331984, -2.08522, -2.16664, -0.0946099, -0.00124762, 0.0539777, 0.0133983, 0.00763177, -0.0165079, -0.00655043
0.158102, 1.69603, -1.22823, -1.54212, -0.903437, -1.21395, 1.22836, -1.3025, 0.0485545, 0.002895, 0.00212434, -0.0373077, -0.257491, -0.00448907, -0.000941543, -1.97991, 63.8547, 32.031, 8.29895, 2.10498, 3.91269, -0.0484509, -0.00434659, -0.00144301, 0.00404624, 0.0156006, -0.0180486, 0.0025063, 0.0732481, -0.00554547, -0.00911801, -0.135828, 0.257019, 0.000602002, 0.470961, -0.54058, 0.336608, -2.08181, -2.16526, -0.130092, 0.469527, -0.544302, 0.331978, -2.08527, -2.1667, -0.0942113, -0.00127226, 0.0546363, 0.013553, 0.00658727, -0.0160116, -0.00709355
0.159102, 1.69607, -1.22823, -1.54212, -0.90348, -1.21421, 1.22836, -1.3025, 0.0449759, 0.00373857, 0.00159779, -0.0399618, -0.253756, -0.00362272, 0.00651525, -1.94024, 63.7793, 32.031, 8.37433, 2.08667, 3.9191, -0.114369, -0.00442026, -0.00143821, 0.00405236, 0.0157224, -0.0183017, 0.00253118, 0.074112, -0.00460231, -0.0089596, -0.134216, 0.255906, -0.00703032, 0.47096, -0.540525, 0.336621, -2.08177, -2.16525, -0.130096, 0.469533, -0.544318, 0.331974, -2.08532, -2.16676, -0.09382, -0.0012972, 0.0552977, 0.0137082, 0.00565833, -0.016266, -0.00688996
0.160102, 1.69611, -1.22823, -1.54211, -0.903517, -1.21448, 1.22836, -1.3025, 0.0463291, -7.20749e-05, 0.00624731, -0.0392553, -0.256653, -0.0029809, 0.00378674, -1.94024, 63.8904, 31.9556, 8.33862, 2.09308, 3.92642, -0.0878186, -0.00449775, -0.00143557, 0.00406386, 0.01584, -0.0185416, 0.00255305, 0.0744273, -0.00589974, -0.00950857, -0.130989, 0.254953, -0.00219943, 0.470958, -0.54047, 0.336635, -2.08173, -2.16524, -0.1301, 0.469536, -0.544338, 0.331964, -2.08536, -2.16681, -0.0934473, -0.00132244, 0.0559621, 0.013864, 0.00692029, -0.0157728, -0.00736825
0.161102, 1.69615, -1.22823, -1.54211, -0.903561, -1.21475, 1.22835, -1.3025, 0.0442515, 0.000812669, 0.00361254, -0.0405644, -0.259766, -0.0024794, 0.00213235, -1.94024, 63.8547, 31.9953, 8.37433, 2.1178, 3.93374, -0.0685925, -0.00457608, -0.00143427, 0.00407259, 0.0159708, -0.0187992, 0.00257498, 0.0767787, -0.00428122, -0.00995528, -0.134393, 0.259325, -0.00370821, 0.470957, -0.540414, 0.336649, -2.08169, -2.16522, -0.130104, 0.469539, -0.544357, 0.331956, -2.0854, -2.16687, -0.0930419, -0.00134799, 0.0566293, 0.0140202, 0.00534783, -0.0174238, -0.00797311
0.162102, 1.69619, -1.22822, -1.5421, -0.903604, -1.21501, 1.22835, -1.30249, 0.040854, 0.00546123, 0.000926892, -0.0398117, -0.261691, -0.0066273, 0.00213624, -1.86486, 63.7793, 32.0707, 8.33862, 2.13611, 3.93374, -0.0814099, -0.00465553, -0.00143411, 0.00407833, 0.0160916, -0.0190547, 0.00260487, 0.0792757, -0.000654583, -0.00825097, -0.139822, 0.263937, -0.00977654, 0.470956, -0.540357, 0.336663, -2.08165, -2.16521, -0.130108, 0.46954, -0.544378, 0.331952, -2.08546, -2.16692, -0.092649, -0.00137384, 0.0572994, 0.0141769, 0.00185552, -0.0196338, -0.0064142
0.163102, 1.69623, -1.22822, -1.54209, -0.903646, -1.21527, 1.22834, -1.30248, 0.0427165, 0.00215335, 0.00435573, -0.0425347, -0.262742, -0.00467189, 0.00767734, -1.82915, 63.8547, 31.9199, 8.29895, 2.16083, 3.92642, -0.120778, -0.00473448, -0.00143256, 0.00408727, 0.0162074, -0.0192983, 0.00263381, 0.0783383, -0.00323505, -0.00932887, -0.13722, 0.263115, -0.00965545, 0.470954, -0.5403, 0.336677, -2.08161, -2.1652, -0.130113, 0.469543, -0.544397, 0.331945, -2.08551, -2.16697, -0.0922738, -0.0014, 0.0579723, 0.0143341, 0.0043325, -0.0177597, -0.00725718
0.164102, 1.69626, -1.22822, -1.54209, -0.903688, -1.21552, 1.22834, -1.30249, 0.0384423, 0.00340563, 0.000463857, -0.0442054, -0.25877, -0.00743653, 0.00417973, -1.82915, 63.7793, 32.031, 8.22754, 2.17273, 3.90536, -0.0814099, -0.00481351, -0.00143185, 0.00409421, 0.0163249, -0.0195432, 0.0026539, 0.0800575, -0.000429349, -0.0102597, -0.141111, 0.260436, -0.00945543, 0.470953, -0.540242, 0.336692, -2.08157, -2.16519, -0.130117, 0.469545, -0.544416, 0.33194, -2.08555, -2.16702, -0.0918963, -0.00142646, 0.058648, 0.0144917, 0.00153253, -0.0187526, -0.00820236
0.165102, 1.6963, -1.22821, -1.54208, -0.903741, -1.21577, 1.22834, -1.30248, 0.0375673, 0.0064052, -0.000499912, -0.0478963, -0.256158, -0.00564532, 0.00293881, -1.78948, 63.7436, 32.0707, 8.26324, 2.19104, 3.90536, -0.0750012, -0.00488988, -0.00142921, 0.00410061, 0.016444, -0.0197898, 0.00267048, 0.0796411, -0.00116855, -0.00917979, -0.140367, 0.263025, -0.00543319, 0.470951, -0.540183, 0.336706, -2.08153, -2.16517, -0.130121, 0.469549, -0.544431, 0.331936, -2.08558, -2.16708, -0.0915158, -0.00145324, 0.0593266, 0.0146499, 0.00226993, -0.0177995, -0.0069385
0.166102, 1.69633, -1.22821, -1.54207, -0.903788, -1.21602, 1.22833, -1.30247, 0.0296353, 0.00590853, -0.00107934, -0.0515762, -0.253552, -0.00806637, 0.00837708, -1.7141, 63.819, 32.1064, 8.18787, 2.19745, 3.88339, -0.114369, -0.00497101, -0.00143059, 0.0041112, 0.0165585, -0.0200236, 0.00270155, 0.0821745, 0.00271227, -0.0100269, -0.142147, 0.259799, -0.0148536, 0.47095, -0.540124, 0.336721, -2.08148, -2.16516, -0.130125, 0.469548, -0.54445, 0.331928, -2.08563, -2.16712, -0.0911521, -0.00148032, 0.0600079, 0.0148084, -0.00157148, -0.0196485, -0.00789412
0.167102, 1.69636, -1.2282, -1.54207, -0.903834, -1.21625, 1.22832, -1.30247, 0.0278016, 0.008421, 0.000739607, -0.0501012, -0.251324, -0.0106796, 0.00619287, -1.6784, 63.7793, 32.1818, 8.07678, 2.19104, 3.87607, -0.114369, -0.00505028, -0.00143162, 0.00411717, 0.016672, -0.0202589, 0.00272392, 0.0828047, 0.00402509, -0.00787295, -0.140463, 0.259324, -0.0142349, 0.470949, -0.540064, 0.336735, -2.08144, -2.16515, -0.130129, 0.469548, -0.544468, 0.331924, -2.08566, -2.16717, -0.0907887, -0.00150772, 0.0606919, 0.0149675, -0.00280533, -0.0199757, -0.00566897
0.168102, 1.69639, -1.2282, -1.54206, -0.903887, -1.2165, 1.22832, -1.30248, 0.0272222, 0.00450407, 0.00490591, -0.0501109, -0.24956, -0.012778, 0.00214329, -1.6784, 63.8547, 32.1421, 8.0014, 2.19745, 3.87607, -0.0484509, -0.0051297, -0.0014304, 0.00412552, 0.0167858, -0.0204979, 0.00273489, 0.0826971, 0.00371475, -0.00891877, -0.137949, 0.253106, -0.0080701, 0.470947, -0.540003, 0.33675, -2.0814, -2.16513, -0.130134, 0.469551, -0.544484, 0.331918, -2.08569, -2.16724, -0.0904226, -0.00153542, 0.0613787, 0.015127, -0.00256557, -0.0190064, -0.00653711
0.169102, 1.69641, -1.2282, -1.54205, -0.903948, -1.21674, 1.22831, -1.30247, 0.0258616, 0.00661639, 0.0081645, -0.0501047, -0.243154, -0.00859096, 0.00177095, -1.63873, 63.8547, 32.2175, 8.07678, 2.17273, 3.84768, -0.0484509, -0.00520847, -0.00143121, 0.0041345, 0.0169046, -0.0207321, 0.00275261, 0.0823002, 0.00244101, -0.00615628, -0.127928, 0.252253, -0.00532944, 0.470946, -0.539942, 0.336766, -2.08135, -2.16512, -0.130138, 0.469551, -0.544499, 0.331912, -2.08572, -2.16729, -0.0900551, -0.00156344, 0.0620682, 0.0152869, -0.00123143, -0.0183009, -0.00363052
0.170102, 1.69643, -1.22819, -1.54204, -0.904, -1.21698, 1.2283, -1.30246, 0.024169, 0.00561197, 0.00942895, -0.0487853, -0.238871, -0.00602737, 0.00340389, -1.56335, 63.9658, 32.2175, 7.9657, 2.16724, 3.83304, -0.101552, -0.00529317, -0.0014366, 0.00414131, 0.0170141, -0.0209661, 0.00278893, 0.0833977, 0.00248662, -0.00586959, -0.121647, 0.249246, -0.00766547, 0.470944, -0.53988, 0.336781, -2.08131, -2.16511, -0.130143, 0.469547, -0.544519, 0.331907, -2.08577, -2.16733, -0.0896962, -0.00159178, 0.0627604, 0.0154473, -0.00125367, -0.0187378, -0.00336054
0.171102, 1.69645, -1.22818, -1.54203, -0.904055, -1.21723, 1.22829, -1.30246, 0.024005, 0.00761111, 0.0134162, -0.0507362, -0.240784, -0.00911723, 0.00195306, -1.52764, 63.9658, 32.2175, 7.9657, 2.17914, 3.82663, -0.0878186, -0.00537593, -0.00143997, 0.00414494, 0.0171246, -0.021208, 0.00281208, 0.0826529, 0.00224543, -0.00383437, -0.122267, 0.251683, -0.00346882, 0.470942, -0.539817, 0.336796, -2.08126, -2.16509, -0.130147, 0.469544, -0.544538, 0.331906, -2.08581, -2.16738, -0.0893295, -0.00162043, 0.0634553, 0.0156081, -0.000991123, -0.0176139, -0.00108401
0.172102, 1.69647, -1.22818, -1.54201, -0.904117, -1.21747, 1.22828, -1.30246, 0.0196361, 0.00826216, 0.0133259, -0.0520867, -0.241968, -0.0100308, -0.000486424, -1.45226, 64.0015, 32.2175, 7.9657, 2.17914, 3.7836, -0.0356336, -0.00545953, -0.00144371, 0.00414991, 0.0172306, -0.0214454, 0.00282969, 0.0850056, 0.0047284, -0.00354304, -0.123478, 0.253291, -0.00458652, 0.470941, -0.539753, 0.336812, -2.08122, -2.16508, -0.130152, 0.469542, -0.544556, 0.331904, -2.08585, -2.16744, -0.088973, -0.00164939, 0.0641529, 0.0157694, -0.00340187, -0.0193872, -0.000929055
0.173102, 1.69649, -1.22817, -1.54201, -0.904182, -1.21771, 1.22828, -1.30245, 0.0221042, 0.00952955, 0.0136589, -0.0564568, -0.243344, -0.00772674, 0.0102712, -1.48797, 64.0015, 32.3285, 7.9657, 2.19745, 3.7836, -0.0621838, -0.00554202, -0.00144564, 0.00415628, 0.0173468, -0.0216888, 0.00285213, 0.0836602, 0.00204315, -0.00323278, -0.123819, 0.257916, -0.0093233, 0.470939, -0.539689, 0.336828, -2.08117, -2.16506, -0.130156, 0.469541, -0.544572, 0.3319, -2.08588, -2.16749, -0.0885987, -0.00167868, 0.0648531, 0.015931, -0.000786065, -0.0172943, -0.000337169
0.174102, 1.6965, -1.22816, -1.542, -0.904245, -1.21794, 1.22827, -1.30244, 0.0214279, 0.011843, 0.015954, -0.0579094, -0.230934, -0.00938319, 0.00867007, -1.41259, 64.0768, 32.3682, 7.89032, 2.23407, 3.74698, -0.0878186, -0.00562859, -0.00145279, 0.00416255, 0.017455, -0.0219223, 0.00288274, 0.0809377, 0.000626785, -0.00147662, -0.117711, 0.249664, -0.00193071, 0.470937, -0.539624, 0.336844, -2.08113, -2.16505, -0.130161, 0.469535, -0.544592, 0.331896, -2.08593, -2.16753, -0.0882425, -0.00170828, 0.065556, 0.0160931, 0.000566549, -0.0141182, 0.00193869
0.175102, 1.69651, -1.22815, -1.54198, -0.904315, -1.21816, 1.22826, -1.30244, 0.0203397, 0.00827775, 0.0182756, -0.060846, -0.230606, -0.00618976, 0.00450214, -1.45226, 64.1125, 32.3682, 7.89032, 2.25879, 3.7186, -0.0356336, -0.00570734, -0.00145214, 0.00416706, 0.017556, -0.0221493, 0.00288568, 0.0813889, -0.000534563, -0.0028752, -0.114143, 0.247983, 0.00513594, 0.470936, -0.539559, 0.33686, -2.08108, -2.16503, -0.130166, 0.469537, -0.544603, 0.331895, -2.08594, -2.1676, -0.0879038, -0.0017382, 0.0662614, 0.0162556, 0.001661, -0.0135908, 0.000610383
0.176102, 1.69652, -1.22815, -1.54197, -0.904385, -1.21838, 1.22825, -1.30244, 0.0168581, 0.0100154, 0.0143176, -0.066127, -0.225203, -0.00459433, 0.00301787, -1.37688, 64.2236, 32.4793, 7.89032, 2.28351, 3.71127, -0.0228162, -0.00579268, -0.00145876, 0.00417645, 0.0176631, -0.0223699, 0.00290941, 0.081858, 6.57837e-05, -0.00371644, -0.115375, 0.247183, 0.0077752, 0.470934, -0.539493, 0.336876, -2.08103, -2.16502, -0.13017, 0.469531, -0.54462, 0.331889, -2.08597, -2.16764, -0.0875629, -0.00176845, 0.0669695, 0.0164185, 0.00101754, -0.0132392, -0.000114602
0.177102, 1.69652, -1.22814, -1.54196, -0.904455, -1.2186, 1.22825, -1.30243, 0.0150657, 0.0123726, 0.0169559, -0.062586, -0.222203, -0.00698252, 0.002855, -1.33721, 64.295, 32.6261, 7.85065, 2.32654, 3.67557, -0.0356336, -0.00587745, -0.00146351, 0.00418508, 0.017765, -0.0225893, 0.00293127, 0.0828205, 0.00154207, -0.00107173, -0.111448, 0.245813, 0.00524317, 0.470932, -0.539426, 0.336892, -2.08098, -2.165, -0.130175, 0.469527, -0.544635, 0.331884, -2.086, -2.16769, -0.0872291, -0.00179901, 0.0676801, 0.0165817, -0.00035106, -0.0139522, 0.00255174
0.178102, 1.69653, -1.22814, -1.54195, -0.904525, -1.21881, 1.22824, -1.30242, 0.010676, 0.011901, 0.0155759, -0.0626598, -0.219247, -0.00907049, 0.00387503, -1.30151, 64.3347, 32.6658, 7.77924, 2.35126, 3.64718, -0.0814099, -0.00596156, -0.00146789, 0.00418997, 0.0178593, -0.0228088, 0.00295359, 0.0850093, 0.00428114, -0.00185157, -0.112355, 0.242323, 0.000309557, 0.47093, -0.539358, 0.336909, -2.08094, -2.16499, -0.13018, 0.469524, -0.54465, 0.331882, -2.08604, -2.16773, -0.0869036, -0.0018299, 0.0683933, 0.0167454, -0.00306564, -0.0153922, 0.0016854
0.179102, 1.69653, -1.22813, -1.54193, -0.9046, -1.21903, 1.22824, -1.30242, 0.0118502, 0.0154283, 0.0167213, -0.0637256, -0.218061, -0.00676887, 0.000620421, -1.18645, 64.3347, 32.7372, 7.73956, 2.39978, 3.63986, -0.0228162, -0.0060473, -0.00147404, 0.00419321, 0.0179573, -0.0230366, 0.00296895, 0.0843428, 0.00267677, 0.000587812, -0.109018, 0.246562, 0.0065758, 0.470929, -0.53929, 0.336926, -2.08089, -2.16497, -0.130185, 0.469519, -0.544666, 0.331882, -2.08607, -2.16779, -0.0865663, -0.00186112, 0.069109, 0.0169095, -0.00142559, -0.0143311, 0.00430834
0.180102, 1.69654, -1.22812, -1.54192, -0.904677, -1.21924, 1.22823, -1.30241, 0.0115642, 0.0109577, 0.0151908, -0.0634682, -0.211148, -0.00447755, 0.00104374, -1.15075, 64.3704, 32.7768, 7.66418, 2.41809, 3.6188, -0.0356336, -0.00613014, -0.00147582, 0.00419818, 0.0180473, -0.0232542, 0.0029813, 0.0848858, 0.00187429, -0.00242648, -0.105227, 0.238153, 0.00743068, 0.470927, -0.53922, 0.336943, -2.08084, -2.16496, -0.13019, 0.469518, -0.544678, 0.331881, -2.08609, -2.16785, -0.0862486, -0.00189266, 0.0698272, 0.0170739, -0.000749071, -0.0136444, 0.00138375
0.181102, 1.69653, -1.22811, -1.5419, -0.904759, -1.21944, 1.22823, -1.3024, 0.00722278, 0.00984355, 0.014076, -0.071373, -0.210525, -0.00327241, 0.00626276, -1.07537, 64.4418, 32.8126, 7.62848, 2.44281, 3.61148, -0.0557752, -0.00621454, -0.00148014, 0.00420335, 0.018137, -0.0234699, 0.00299459, 0.0855534, 0.00241718, -0.00427613, -0.10778, 0.238343, 0.00465045, 0.470925, -0.539151, 0.33696, -2.08079, -2.16494, -0.130195, 0.469515, -0.54469, 0.33188, -2.08611, -2.1679, -0.0859331, -0.00192452, 0.0705479, 0.0172387, -0.00136777, -0.0133163, -0.000367906
0.182102, 1.69653, -1.2281, -1.54188, -0.904834, -1.21964, 1.22822, -1.3024, 0.00624308, 0.0108385, 0.0152453, -0.071099, -0.20543, -0.00232932, 0.00390863, -0.960319, 64.4418, 32.8879, 7.47772, 2.45563, 3.60415, -0.0356336, -0.0063018, -0.0014871, 0.00420621, 0.0182217, -0.0236844, 0.00301417, 0.0855641, 0.00208429, -0.00317418, -0.103067, 0.235972, 0.00807832, 0.470923, -0.53908, 0.336977, -2.08074, -2.16492, -0.1302, 0.469509, -0.544705, 0.331881, -2.08615, -2.16795, -0.0856238, -0.00195671, 0.0712712, 0.0174039, -0.00102426, -0.0127609, 0.000869653
0.183102, 1.69652, -1.22809, -1.54186, -0.904917, -1.21984, 1.22822, -1.3024, 0.00245233, 0.0105508, 0.0141037, -0.0727277, -0.20256, -0.00159585, 0.00103256, -0.845268, 64.4815, 32.9236, 7.40631, 2.49225, 3.59683, 0.0165515, -0.00638945, -0.00149449, 0.00421238, 0.0183098, -0.0238951, 0.00302494, 0.0872807, 0.00358536, -0.00376306, -0.102194, 0.23426, 0.00912315, 0.470921, -0.539009, 0.336994, -2.08069, -2.16491, -0.130205, 0.469503, -0.54472, 0.331878, -2.08616, -2.16801, -0.0853157, -0.00198923, 0.0719968, 0.0175694, -0.00251417, -0.0137, 0.000228392
0.184102, 1.69651, -1.22808, -1.54185, -0.905007, -1.22003, 1.22822, -1.30238, 0.0006078, 0.0102989, 0.0154488, -0.077449, -0.199568, -0.00184211, 0.00289084, -0.76989, 64.5172, 32.999, 7.33093, 2.51056, 3.61148, -0.0356336, -0.00647431, -0.00149897, 0.00421825, 0.0183983, -0.0241068, 0.00304116, 0.0865796, 0.00301461, -0.00407164, -0.10159, 0.232259, 0.0112786, 0.470919, -0.538937, 0.337012, -2.08064, -2.16489, -0.13021, 0.469499, -0.544731, 0.331877, -2.08619, -2.16806, -0.0850055, -0.00202208, 0.072725, 0.0177353, -0.00201343, -0.0122071, 0.000178843
0.185102, 1.69651, -1.22807, -1.54183, -0.905097, -1.22023, 1.22822, -1.30237, -0.000805924, 0.00876472, 0.0159328, -0.0792654, -0.198148, -0.000591031, 0.0021295, -0.694511, 64.4815, 32.9633, 7.18018, 2.54718, 3.58951, -0.0356336, -0.00655698, -0.00149927, 0.00421941, 0.0184754, -0.0243231, 0.00304586, 0.0873093, 0.00288725, -0.00492235, -0.100025, 0.230786, 0.0130513, 0.470917, -0.538864, 0.33703, -2.08058, -2.16487, -0.130215, 0.4695, -0.544739, 0.33188, -2.08621, -2.16813, -0.0847044, -0.00205526, 0.0734555, 0.0179016, -0.001924, -0.0120579, -0.000616688
