alisrour97/Franka_experiments/Real_Robot_scripts/servo-franka/Data/log_dyn_INIT0_9.csv
Time,q1,q2,q3,q4,q5,q6,q7,dq1,dq2,dq3,dq4,dq5,dq6,dq7,t1,t2,t3,t4,t5,t6,t7,ex1,ex2,ex3,ex4,ex5,ex6,ev1,ev2,ev3,ev4,ev5,ev6,xd,yd,zd,uxd,uyd,uzd,x,y,z,ux,uy,uz,vxd,vyd,vzd,vx,vy,vz
2.44141e-07, 1.69132, -1.2278, -1.53932, -0.90033, -1.19227, 1.22784, -1.30258, -0.00627705, 0.00571608, -0.000605232, 0.00758804, -0.000790015, 6.40027e-05, 0.00226336, 0.551216, 62.6407, 31.3605, 6.95801, 2.80536, 4.19925, -0.265431, 0.000500753, -0.00189923, 0.001962, 0.00248586, 0.0016197, 0.000584607, 0.00482179, 0.00550647, 0.00452486, 0.00421785, 0.0055794, -0.0157637, 0.471008, -0.543389, 0.335894, -2.08385, -2.16584, -0.129887, 0.46903, -0.542662, 0.334078, -2.08228, -2.16334, -0.128718, 1.77043e-06, 3.2e-05, 1.02972e-05, -0.00516185, -0.00564996, 0.00389586
0.0120767, 1.69129, -1.22776, -1.53934, -0.900276, -1.19227, 1.22784, -1.30258, -0.000681862, 0.00454247, -0.00146842, 0.00735132, 0.000192754, 0.000339802, -0.00192298, 0.245735, 62.8986, 31.4359, 7.06909, 2.79895, 4.19192, -0.232472, 0.000469304, -0.00193531, 0.00193358, 0.00247467, 0.00157527, 0.000676661, 0.00242548, 0.00228476, 0.00322281, 0.00308526, 0.00401278, -0.00590807, 0.471008, -0.543389, 0.335894, -2.08385, -2.16584, -0.129887, 0.468989, -0.542708, 0.334116, -2.08244, -2.16327, -0.128669, 1.77746e-06, 6.40623e-05, 1.89552e-05, -0.00207697, -0.00291997, 0.00289366
0.0130767, 1.69129, -1.22776, -1.53934, -0.900276, -1.19227, 1.22784, -1.30258, -0.000681862, 0.00454247, -0.00146842, 0.00735132, 0.000192754, 0.000339802, -0.00192298, 0.245735, 62.8986, 31.4359, 7.06909, 2.79895, 4.19192, -0.232472, 0.000469296, -0.00193531, 0.00193358, 0.00247467, 0.00157526, 0.000676663, 0.00246174, 0.00228591, 0.00321886, 0.00308989, 0.00403932, -0.00590546, 0.471008, -0.543389, 0.335894, -2.08385, -2.16584, -0.129887, 0.468989, -0.542708, 0.334116, -2.08244, -2.16327, -0.128669, 1.77167e-06, 9.92934e-05, 2.84561e-05, -0.00207697, -0.00291997, 0.00289366
0.0140767, 1.69129, -1.22776, -1.53934, -0.900276, -1.19227, 1.22784, -1.30258, -0.000681862, 0.00454247, -0.00146842, 0.00735132, 0.000192754, 0.000339802, -0.00192298, 0.245735, 62.8986, 31.4359, 7.06909, 2.79895, 4.19192, -0.232472, 0.000469276, -0.00193531, 0.00193359, 0.00247466, 0.00157525, 0.000676668, 0.00250138, 0.00228715, 0.00321454, 0.00309499, 0.00406833, -0.0059026, 0.471008, -0.543389, 0.335894, -2.08385, -2.16584, -0.129887, 0.468989, -0.542708, 0.334116, -2.08244, -2.16327, -0.128669, 1.75167e-06, 0.000137819, 3.88327e-05, -0.00207697, -0.00291997, 0.00289366
0.0150767, 1.69129, -1.22776, -1.53934, -0.900276, -1.19227, 1.22784, -1.30258, -0.000681862, 0.00454247, -0.00146842, 0.00735132, 0.000192754, 0.000339802, -0.00192298, 0.245735, 62.8986, 31.4359, 7.06909, 2.79895, 4.19192, -0.232472, 0.000469237, -0.00193531, 0.00193359, 0.00247464, 0.00157523, 0.000676677, 0.00254454, 0.00228849, 0.00320986, 0.00310056, 0.00409989, -0.00589949, 0.471008, -0.543389, 0.335894, -2.08385, -2.16584, -0.129887, 0.468989, -0.542708, 0.334116, -2.08244, -2.16327, -0.128669, 1.716e-06, 0.000179762, 5.01169e-05, -0.00207697, -0.00291997, 0.00289366
0.0160767, 1.69129, -1.22776, -1.53934, -0.900276, -1.19227, 1.22784, -1.30258, -0.000681862, 0.00454247, -0.00146842, 0.00735132, 0.000192754, 0.000339802, -0.00192298, 0.245735, 62.8986, 31.4359, 7.06909, 2.79895, 4.19192, -0.232472, 0.000469173, -0.00193531, 0.0019336, 0.00247462, 0.0015752, 0.000676693, 0.00259135, 0.00228993, 0.00320479, 0.00310664, 0.00413411, -0.00589611, 0.471008, -0.543389, 0.335894, -2.08385, -2.16584, -0.129887, 0.468989, -0.542708, 0.334116, -2.08244, -2.16327, -0.128669, 1.66317e-06, 0.000225248, 6.23407e-05, -0.00207697, -0.00291997, 0.00289366
0.0170767, 1.69129, -1.22776, -1.53934, -0.900276, -1.19227, 1.22784, -1.30258, -0.000681862, 0.00454247, -0.00146842, 0.00735132, 0.000192754, 0.000339802, -0.00192298, 0.245735, 62.8986, 31.4359, 7.06909, 2.79895, 4.19192, -0.232472, 0.000469077, -0.00193532, 0.00193361, 0.00247458, 0.00157516, 0.000676717, 0.00264192, 0.00229147, 0.00319933, 0.00311324, 0.00417107, -0.00589245, 0.471008, -0.543389, 0.335894, -2.08385, -2.16584, -0.129887, 0.468989, -0.542708, 0.334116, -2.08244, -2.16327, -0.128669, 1.59159e-06, 0.000274397, 7.55354e-05, -0.00207697, -0.00291997, 0.00289366
0.0180767, 1.69129, -1.22776, -1.53934, -0.900276, -1.19227, 1.22784, -1.30258, -0.000681862, 0.00454247, -0.00146842, 0.00735132, 0.000192754, 0.000339802, -0.00192298, 0.245735, 62.8986, 31.4359, 7.06909, 2.79895, 4.19192, -0.232472, 0.000468943, -0.00193532, 0.00193362, 0.00247452, 0.00157509, 0.00067675, 0.00269638, 0.00229312, 0.00319346, 0.00312038, 0.00421085, -0.00588851, 0.471008, -0.543389, 0.335894, -2.08385, -2.16584, -0.129887, 0.468989, -0.542708, 0.334116, -2.08244, -2.16327, -0.128669, 1.49965e-06, 0.00032733, 8.9732e-05, -0.00207697, -0.00291997, 0.00289366
0.0190767, 1.69129, -1.22776, -1.53934, -0.900276, -1.19227, 1.22784, -1.30258, -0.000681862, 0.00454247, -0.00146842, 0.00735132, 0.000192754, 0.000339802, -0.00192298, 0.245735, 62.8986, 31.4359, 7.06909, 2.79895, 4.19192, -0.232472, 0.000468765, -0.00193533, 0.00193364, 0.00247445, 0.001575, 0.000676794, 0.00275486, 0.00229487, 0.00318717, 0.00312808, 0.00425355, -0.00588427, 0.471008, -0.543389, 0.335894, -2.08385, -2.16584, -0.129887, 0.468989, -0.542708, 0.334116, -2.08244, -2.16327, -0.128669, 1.38564e-06, 0.000384166, 0.000104961, -0.00207697, -0.00291997, 0.00289366
0.0200767, 1.69129, -1.22776, -1.53934, -0.900276, -1.19227, 1.22784, -1.30258, -0.000681862, 0.00454247, -0.00146842, 0.00735132, 0.000192754, 0.000339802, -0.00192298, 0.245735, 62.8986, 31.4359, 7.06909, 2.79895, 4.19192, -0.232472, 0.000468537, -0.00193533, 0.00193367, 0.00247436, 0.00157489, 0.00067685, 0.00281747, 0.00229673, 0.00318046, 0.00313635, 0.00429925, -0.00587974, 0.471008, -0.543389, 0.335894, -2.08385, -2.16584, -0.129887, 0.468989, -0.542708, 0.334116, -2.08244, -2.16327, -0.128669, 1.24785e-06, 0.00044502, 0.000121252, -0.00207697, -0.00291997, 0.00289366
0.0210767, 1.69129, -1.22776, -1.53934, -0.900276, -1.19227, 1.22784, -1.30258, -0.000681862, 0.00454247, -0.00146842, 0.00735132, 0.000192754, 0.000339802, -0.00192298, 0.245735, 62.8986, 31.4359, 7.06909, 2.79895, 4.19192, -0.232472, 0.000468252, -0.00193534, 0.0019337, 0.00247425, 0.00157475, 0.000676919, 0.00288433, 0.00229871, 0.0031733, 0.00314523, 0.00434804, -0.00587489, 0.471008, -0.543388, 0.335894, -2.08385, -2.16584, -0.129887, 0.468989, -0.542708, 0.334116, -2.08244, -2.16327, -0.128669, 1.08446e-06, 0.000510009, 0.000138634, -0.00207697, -0.00291997, 0.00289366
0.0220767, 1.69125, -1.22771, -1.53937, -0.900268, -1.19228, 1.22784, -1.30258, -0.0044555, 0.00471927, -0.00575765, -0.00248021, -0.000716277, 0.000111352, -0.000400756, -0.281914, 62.7875, 31.6224, 7.1048, 2.86029, 4.19192, -0.265431, 0.000445892, -0.00196406, 0.00191262, 0.0024848, 0.00152115, 0.000740557, 0.00274501, 0.00312742, 0.000565511, -0.00528676, 0.0062285, -0.00487969, 0.471008, -0.543388, 0.335894, -2.08385, -2.16584, -0.129887, 0.468962, -0.542734, 0.334134, -2.08253, -2.16323, -0.128596, 8.93621e-07, 0.000579243, 0.000157137, -0.00300392, -0.00234571, 0.000383761
0.0230767, 1.69125, -1.22771, -1.53937, -0.900265, -1.19229, 1.22784, -1.30258, -0.00356773, 0.00431815, -0.00412216, -0.000969416, -0.00585557, 7.42195e-05, -0.00172523, -0.281914, 62.7478, 31.6224, 7.06909, 2.87952, 4.19192, -0.226063, 0.000440634, -0.00196878, 0.00190977, 0.00248458, 0.00151075, 0.00074856, 0.00358569, 0.00325934, 0.00106093, -0.00572797, 0.00986251, -0.00492332, 0.471008, -0.543388, 0.335894, -2.08384, -2.16584, -0.129887, 0.468957, -0.542739, 0.334136, -2.08254, -2.16323, -0.128585, 6.73433e-07, 0.000652833, 0.000176787, -0.00308795, -0.00318372, 0.000766104
0.0240767, 1.69124, -1.22771, -1.53937, -0.90027, -1.19229, 1.22784, -1.30258, -0.00375455, 0.00201744, -0.00500456, -0.00479879, -0.00670622, -0.00286233, 3.66391e-05, -0.242241, 62.5296, 31.4359, 7.1048, 2.81726, 4.14157, -0.258107, 0.000438547, -0.00196997, 0.00191197, 0.00248401, 0.00151132, 0.000753589, 0.00287407, 0.00325893, -0.0013894, -0.0114209, 0.00726112, -0.00417737, 0.471008, -0.543387, 0.335894, -2.08384, -2.16584, -0.129887, 0.468956, -0.542741, 0.334134, -2.08255, -2.16322, -0.128586, 4.21933e-07, 0.000730885, 0.000197611, -0.00320169, -0.00202597, -0.00152216
0.0250767, 1.69125, -1.22772, -1.53939, -0.900272, -1.19229, 1.22784, -1.30258, -0.000147804, -0.00277427, -0.01212, -0.00495721, -0.00530724, -0.00355388, -0.001671, -0.357292, 62.1606, 31.2494, 7.02942, 2.69458, 4.04819, -0.21233, 0.000436778, -0.00196883, 0.00192412, 0.0025039, 0.00151606, 0.000752654, 0.00288861, 0.0023393, -0.00700839, -0.0186166, 0.00164418, -0.00162832, 0.471008, -0.543387, 0.335895, -2.08384, -2.16584, -0.129887, 0.468957, -0.54274, 0.334122, -2.08253, -2.16321, -0.128569, 1.37109e-07, 0.000813505, 0.000219637, -0.00248583, -0.00105522, -0.00707842
0.0260767, 1.69125, -1.22773, -1.53941, -0.900278, -1.1923, 1.22785, -1.30257, -0.00035056, -0.00130485, -0.0126435, -0.00617067, -0.00357377, -0.00354283, -0.00206343, -0.357292, 61.6806, 30.8408, 6.99371, 2.54169, 3.93374, -0.186696, 0.000430666, -0.00197221, 0.00193554, 0.00252386, 0.00151407, 0.000765478, 0.00233808, 0.00210614, -0.00649666, -0.0186663, 0.00189274, -6.53683e-05, 0.471008, -0.543386, 0.335895, -2.08384, -2.16584, -0.129887, 0.468953, -0.542744, 0.33411, -2.08254, -2.16319, -0.128544, -1.83099e-07, 0.000900793, 0.00024289, -0.00225451, -0.000493653, -0.00647147
0.0270767, 1.69125, -1.22773, -1.53944, -0.900279, -1.19232, 1.22784, -1.30258, -0.000422724, 0.00320299, -0.0176744, -0.00435222, -0.00760628, -0.00534036, 0.000651086, -0.357292, 61.1649, 30.4679, 6.84296, 2.39978, 3.86233, -0.120778, 0.00042071, -0.00197881, 0.00194961, 0.00256061, 0.00150305, 0.000779049, 0.00423746, 0.00430791, -0.00554332, -0.0252452, 0.00903117, -0.00828951, 0.471008, -0.543385, 0.335895, -2.08384, -2.16584, -0.129887, 0.468946, -0.542751, 0.334095, -2.08254, -2.16317, -0.12849, -5.40806e-07, 0.000992849, 0.000267393, -0.00435147, -0.00251354, -0.00573404
0.0280767, 1.69126, -1.22774, -1.53947, -0.900287, -1.19234, 1.22784, -1.30257, 0.00133966, 0.00330752, -0.0219111, -0.00282034, -0.0108055, -0.00277156, 0.0008064, -0.43267, 60.7602, 30.095, 6.80725, 2.25879, 3.81198, -0.120778, 0.000413685, -0.00198277, 0.00196825, 0.00261402, 0.00148982, 0.000793572, 0.00578032, 0.00430384, -0.00665035, -0.027734, 0.0132927, -0.0111493, 0.471008, -0.543384, 0.335895, -2.08384, -2.16584, -0.129887, 0.468942, -0.542754, 0.334076, -2.08253, -2.16314, -0.128416, -9.38169e-07, 0.00108977, 0.000293171, -0.00433259, -0.00376923, -0.00704094
0.0290767, 1.69126, -1.22774, -1.53952, -0.900293, -1.19238, 1.22783, -1.30257, 0.000786783, -0.00051746, -0.029988, -0.00383314, -0.020709, -0.00490767, 0.00105422, -0.43267, 60.3912, 29.7974, 6.73187, 2.19745, 3.74698, -0.127186, 0.000400433, -0.00199119, 0.00198797, 0.00267784, 0.00146123, 0.000822339, 0.00960098, 0.00725521, -0.0120695, -0.0419706, 0.0172022, -0.018177, 0.471008, -0.543383, 0.335895, -2.08384, -2.16584, -0.129887, 0.468933, -0.542764, 0.334055, -2.08254, -2.1631, -0.128314, -1.3774e-06, 0.00119164, 0.000320246, -0.0073396, -0.00672588, -0.0128689
0.0300767, 1.69127, -1.22776, -1.53956, -0.900301, -1.19242, 1.22783, -1.30256, 0.00360404, -0.00418574, -0.0339896, -0.00558616, -0.0249303, -0.00641946, 0.00213296, -0.43267, 60.3198, 29.4245, 6.69617, 2.17273, 3.68289, -0.160145, 0.000385714, -0.00199698, 0.00201755, 0.00274183, 0.00144291, 0.000847768, 0.0097923, 0.00667905, -0.0161776, -0.0503162, 0.0168379, -0.0181994, 0.471008, -0.543382, 0.335896, -2.08384, -2.16584, -0.129887, 0.468927, -0.542773, 0.334024, -2.08254, -2.16306, -0.128222, -1.86074e-06, 0.00129855, 0.00034864, -0.00690612, -0.00615196, -0.016944
0.0310767, 1.69128, -1.22777, -1.53961, -0.90031, -1.19247, 1.22784, -1.30256, 0.0049544, -0.00446052, -0.0393787, -0.00669149, -0.0323273, -0.00302867, 0.0025624, -0.392998, 60.173, 29.1269, 6.65649, 2.14252, 3.6188, -0.186696, 0.000369086, -0.00200528, 0.00204269, 0.00281273, 0.00140782, 0.000874168, 0.0119424, 0.00683802, -0.0181888, -0.056274, 0.0248701, -0.0213804, 0.471008, -0.543381, 0.335896, -2.08384, -2.16584, -0.129887, 0.468918, -0.542785, 0.333997, -2.08255, -2.16302, -0.128105, -2.39049e-06, 0.00141058, 0.000378373, -0.00706114, -0.00785948, -0.019229
0.0320767, 1.69129, -1.2278, -1.53967, -0.900323, -1.19252, 1.22784, -1.30256, 0.00783455, -0.0133798, -0.0449373, -0.0114998, -0.0423818, -0.000453575, 0.00158872, -0.43267, 60.2802, 28.9048, 6.65649, 2.10498, 3.5538, -0.180287, 0.000352972, -0.00201039, 0.00207785, 0.00289215, 0.00138169, 0.00089641, 0.013604, 0.00563507, -0.0260044, -0.0670465, 0.0264481, -0.019213, 0.471008, -0.54338, 0.335896, -2.08384, -2.16584, -0.129887, 0.468913, -0.542794, 0.33396, -2.08254, -2.16298, -0.127988, -2.969e-06, 0.00152782, 0.000409465, -0.00608305, -0.0081305, -0.0272094
0.0330767, 1.69129, -1.22779, -1.53972, -0.900328, -1.19257, 1.22784, -1.30256, 0.0071846, -0.0096195, -0.0427562, -0.0102575, -0.0502309, -0.00015396, -0.000310558, -0.357292, 60.0977, 28.6826, 6.58508, 2.08118, 3.53274, -0.140919, 0.000333452, -0.00202218, 0.00209483, 0.002965, 0.00132634, 0.000927759, 0.0151668, 0.00679505, -0.0228006, -0.0675143, 0.0365897, -0.0206814, 0.471008, -0.543379, 0.335897, -2.08384, -2.16584, -0.129888, 0.468901, -0.54281, 0.333941, -2.08257, -2.16295, -0.127848, -3.59863e-06, 0.00165034, 0.000441934, -0.00707063, -0.0100913, -0.024221
0.0340767, 1.6913, -1.22779, -1.53978, -0.900345, -1.19263, 1.22784, -1.30257, 0.00372626, -0.00626751, -0.0457018, -0.0150088, -0.0591594, -0.00108487, -0.000649396, -0.281914, 60.0223, 28.5319, 6.62079, 2.00061, 3.54648, -0.127186, 0.000316564, -0.00203182, 0.00211971, 0.00305233, 0.00127752, 0.0009526, 0.0173917, 0.00943789, -0.0224446, -0.0764811, 0.0473715, -0.0240522, 0.471008, -0.543377, 0.335897, -2.08384, -2.16584, -0.129888, 0.468891, -0.542821, 0.333914, -2.08257, -2.16292, -0.1277, -4.2818e-06, 0.00177822, 0.000475796, -0.00961835, -0.0123229, -0.0241013
0.0350767, 1.69132, -1.22779, -1.53983, -0.900348, -1.19269, 1.22784, -1.30256, 0.00711663, -0.002886, -0.0479949, -0.0141379, -0.0620112, -0.00162098, 0.000125397, -0.317619, 59.9152, 28.3851, 6.47003, 1.95209, 3.56112, -0.140919, 0.000300655, -0.00203783, 0.00213565, 0.00312874, 0.00121471, 0.000981534, 0.016952, 0.0086199, -0.0213869, -0.080095, 0.0530914, -0.0243509, 0.471008, -0.543375, 0.335898, -2.08384, -2.16584, -0.129888, 0.468885, -0.542833, 0.333897, -2.08259, -2.1629, -0.127548, -5.02096e-06, 0.00191151, 0.000511068, -0.00877969, -0.0118849, -0.022978
0.0360767, 1.69133, -1.22778, -1.53988, -0.900361, -1.19275, 1.22784, -1.30256, 0.00597651, -0.000235528, -0.0492647, -0.0140849, -0.0634918, -0.00134706, 0.00157894, -0.206535, 59.8041, 28.2343, 6.47003, 1.89075, 3.56112, -0.180287, 0.000284052, -0.00204598, 0.00215237, 0.00321007, 0.00114901, 0.00101543, 0.0179539, 0.00966575, -0.0202009, -0.0812138, 0.057228, -0.0281198, 0.471008, -0.543374, 0.335898, -2.08383, -2.16584, -0.129888, 0.468877, -0.542846, 0.333878, -2.08261, -2.16286, -0.127388, -5.81861e-06, 0.00205028, 0.000547764, -0.00974635, -0.0129606, -0.0218943
0.0370767, 1.69134, -1.22777, -1.53994, -0.900378, -1.19281, 1.22784, -1.30255, 0.0155292, 0.00573125, -0.0498061, -0.0180221, -0.0584948, -0.000284037, 0.00108058, -0.131157, 59.6573, 28.1986, 6.5097, 1.78638, 3.53915, -0.180287, 0.000270744, -0.00205015, 0.00216821, 0.00328986, 0.00108087, 0.00103799, 0.0113777, 0.00287429, -0.0178558, -0.08127, 0.0603981, -0.0134299, 0.471008, -0.543372, 0.335899, -2.08383, -2.16584, -0.129888, 0.468873, -0.542855, 0.333861, -2.08263, -2.16285, -0.127229, -6.67726e-06, 0.00219459, 0.000585897, -0.00311503, -0.00640699, -0.0187245
0.0380767, 1.69136, -1.22775, -1.53999, -0.900394, -1.19287, 1.22785, -1.30255, 0.0155708, 0.00616885, -0.0476568, -0.0176151, -0.0611189, 0.000440685, -0.000716706, -0.0161054, 59.5462, 28.1986, 6.54541, 1.72504, 3.5181, -0.140919, 0.00025819, -0.00205328, 0.00218167, 0.00337194, 0.00100562, 0.00105521, 0.0117421, 0.00273859, -0.0167328, -0.0797371, 0.0632793, -0.0117879, 0.471008, -0.54337, 0.335899, -2.08383, -2.16584, -0.129888, 0.468869, -0.542863, 0.333847, -2.08264, -2.16284, -0.12706, -7.59945e-06, 0.00234449, 0.000625478, -0.00292687, -0.00678416, -0.0176367
0.0390767, 1.69136, -1.22774, -1.54004, -0.900414, -1.19294, 1.22785, -1.30256, 0.0120498, 0.0088522, -0.0489268, -0.0172421, -0.0645116, 0.000452669, -0.00242877, 0.245735, 59.4708, 28.1986, 6.58508, 1.70581, 3.51077, -0.0878186, 0.00024169, -0.00206144, 0.0021969, 0.00345576, 0.000932187, 0.00107416, 0.0142602, 0.00545702, -0.0153818, -0.0814453, 0.0687877, -0.0156619, 0.471008, -0.543367, 0.3359, -2.08383, -2.16584, -0.129888, 0.468861, -0.542875, 0.33383, -2.08265, -2.16283, -0.126891, -8.58778e-06, 0.00250002, 0.000666519, -0.00550396, -0.00943377, -0.0165706
0.0400767, 1.69137, -1.22773, -1.54009, -0.900433, -1.19301, 1.22785, -1.30255, 0.00903639, 0.0108552, -0.0465546, -0.0160162, -0.0616783, -0.000596314, 0.00453615, 0.551216, 59.3994, 28.1986, 6.58508, 1.66919, 3.53274, -0.133595, 0.000222798, -0.00207102, 0.00221172, 0.00353547, 0.000857317, 0.00111044, 0.0147767, 0.00691732, -0.0131427, -0.0777214, 0.0677211, -0.0246119, 0.471008, -0.543365, 0.3359, -2.08383, -2.16584, -0.129889, 0.468852, -0.542889, 0.333813, -2.08268, -2.1628, -0.126723, -9.64483e-06, 0.00266124, 0.000709027, -0.00686411, -0.0101869, -0.0143533
0.0410767, 1.69138, -1.22773, -1.54014, -0.900452, -1.19309, 1.22785, -1.30255, 0.00891523, 0.00759229, -0.0463127, -0.0183034, -0.0657172, -0.00178319, 0.00316626, 0.777352, 59.3994, 28.274, 6.58508, 1.6756, 3.56845, -0.127186, 0.000207052, -0.00207667, 0.00222854, 0.00361902, 0.000784465, 0.00113061, 0.0152536, 0.00705146, -0.0154035, -0.081739, 0.0674944, -0.0225178, 0.471008, -0.543362, 0.335901, -2.08383, -2.16584, -0.129889, 0.468846, -0.5429, 0.333795, -2.0827, -2.16279, -0.126555, -1.07732e-05, 0.00282817, 0.000753011, -0.0070638, -0.0101482, -0.0166117
0.0420767, 1.69138, -1.22771, -1.54019, -0.900465, -1.19317, 1.22785, -1.30254, 0.00304035, 0.00885462, -0.0497826, -0.0172239, -0.0696627, -0.0028299, 0.00290411, 1.11457, 59.2487, 28.3851, 6.47003, 1.71863, 3.61148, -0.140919, 0.000187198, -0.0020891, 0.00223688, 0.00370313, 0.00069843, 0.00116911, 0.0196305, 0.0118694, -0.0155387, -0.0859644, 0.071535, -0.0319997, 0.471008, -0.54336, 0.335902, -2.08382, -2.16584, -0.129889, 0.468834, -0.542916, 0.333785, -2.08273, -2.16276, -0.126371, -1.19756e-05, 0.00300084, 0.000798475, -0.011725, -0.0144729, -0.0172338
0.0430767, 1.6914, -1.2277, -1.54023, -0.900487, -1.19325, 1.22785, -1.30254, 0.00777972, 0.00610304, -0.046773, -0.0192012, -0.0730602, -0.00243079, 0.000182864, 1.34071, 59.2487, 28.5319, 6.47003, 1.76807, 3.62521, -0.0878186, 0.000171629, -0.00209439, 0.00225397, 0.00379148, 0.000621274, 0.00118509, 0.017472, 0.00850157, -0.0165934, -0.0864483, 0.0720338, -0.0224895, 0.471008, -0.543357, 0.335903, -2.08382, -2.16584, -0.129889, 0.468829, -0.542926, 0.333767, -2.08274, -2.16276, -0.126193, -1.32547e-05, 0.00317929, 0.000845424, -0.00847816, -0.0118633, -0.0179948
0.0440767, 1.6914, -1.22771, -1.54028, -0.900501, -1.19333, 1.22785, -1.30254, 0.00735569, 0.000692185, -0.0493685, -0.0173307, -0.0803014, -0.00218973, -0.00117604, 1.60651, 59.3994, 28.754, 6.32324, 1.823, 3.63986, -0.0484509, 0.000150321, -0.00210457, 0.00227543, 0.0038788, 0.000553538, 0.00121563, 0.020904, 0.010298, -0.0204055, -0.0913569, 0.072818, -0.0267367, 0.471008, -0.543354, 0.335903, -2.08382, -2.16584, -0.129889, 0.468819, -0.542941, 0.333743, -2.08276, -2.16273, -0.126025, -1.46131e-05, 0.00336352, 0.000893861, -0.0102885, -0.014554, -0.0221891
0.0450767, 1.69142, -1.2277, -1.54032, -0.900516, -1.19341, 1.22785, -1.30254, 0.0106272, -0.0010965, -0.0493803, -0.0161012, -0.0807907, 0.0024225, -0.000155319, 1.72157, 59.4708, 28.9048, 6.17248, 1.87793, 3.66092, -0.0621838, 0.000136554, -0.0021067, 0.00229033, 0.00396086, 0.000477726, 0.00123292, 0.02076, 0.00792236, -0.0210774, -0.087634, 0.073863, -0.0257189, 0.471008, -0.54335, 0.335904, -2.08382, -2.16584, -0.12989, 0.468816, -0.542949, 0.333727, -2.08277, -2.16272, -0.125855, -1.60536e-05, 0.00355356, 0.000943786, -0.00794685, -0.014021, -0.0228519
0.0460767, 1.69143, -1.2277, -1.54035, -0.900529, -1.1935, 1.22785, -1.30253, 0.00618145, 0.0048317, -0.0451923, -0.0153312, -0.0821792, 0.00144765, 0.00144458, 1.98341, 59.5065, 29.0159, 6.02173, 1.95758, 3.67557, -0.101552, 0.000115206, -0.0021165, 0.0023007, 0.00403551, 0.000392435, 0.00127112, 0.0219122, 0.0102978, -0.0158707, -0.0838821, 0.0800941, -0.0309328, 0.471008, -0.543347, 0.335905, -2.08381, -2.16583, -0.12989, 0.468807, -0.542965, 0.333715, -2.08281, -2.1627, -0.125683, -1.75788e-05, 0.0037494, 0.000995199, -0.0100915, -0.0158614, -0.0177665
0.0470767, 1.69145, -1.22769, -1.54039, -0.900533, -1.19358, 1.22784, -1.30253, 0.00817909, 0.00601227, -0.0398312, -0.00921233, -0.0861148, -0.000618476, 0.00221739, 2.02308, 59.5462, 29.1666, 5.76385, 2.00702, 3.72592, -0.133595, 9.94255e-05, -0.00211933, 0.00231229, 0.00411689, 0.000309173, 0.00129625, 0.0223869, 0.0104448, -0.0127304, -0.0800991, 0.0828082, -0.0338406, 0.471008, -0.543343, 0.335906, -2.08381, -2.16583, -0.12989, 0.468804, -0.542976, 0.333702, -2.08284, -2.16269, -0.125506, -1.91915e-05, 0.00395105, 0.0010481, -0.0101095, -0.0166177, -0.0146821
0.0480767, 1.69148, -1.22769, -1.54042, -0.900545, -1.19368, 1.22784, -1.30253, 0.0109385, 0.00568436, -0.0349085, -0.00828222, -0.0839559, 0.00245097, -0.000166499, 2.13416, 59.7644, 29.2777, 5.6488, 2.03174, 3.77627, -0.0878186, 8.39697e-05, -0.00212154, 0.00232771, 0.004197, 0.000232476, 0.00130616, 0.0205538, 0.00742681, -0.0109474, -0.0721026, 0.0820741, -0.0264331, 0.471008, -0.543339, 0.335907, -2.08381, -2.16583, -0.129891, 0.468802, -0.542985, 0.333686, -2.08284, -2.16269, -0.125339, -2.08943e-05, 0.0041585, 0.00110247, -0.00709832, -0.0147516, -0.0126736
0.0490767, 1.69149, -1.22769, -1.54045, -0.900557, -1.19378, 1.22784, -1.30253, 0.0158697, 0.00537902, -0.0338162, -0.00763847, -0.0918319, 0.000575002, -0.00102244, 2.24921, 59.8755, 29.4999, 5.53772, 2.06195, 3.8193, -0.0621838, 6.40983e-05, -0.00212695, 0.00234235, 0.0042841, 0.000141773, 0.00133077, 0.0199413, 0.00584166, -0.0110891, -0.0769019, 0.0874834, -0.0233597, 0.471008, -0.543335, 0.335908, -2.08381, -2.16583, -0.129891, 0.468797, -0.542998, 0.33367, -2.08286, -2.16268, -0.125148, -2.269e-05, 0.00437173, 0.00115833, -0.00554405, -0.0138469, -0.0127104
0.0500767, 1.69151, -1.22769, -1.54047, -0.900567, -1.19388, 1.22783, -1.30253, 0.0132661, 0.00328563, -0.0285185, -0.0079063, -0.0924916, -0.000538058, -0.00116176, 2.3603, 60.062, 29.5395, 5.46234, 2.07477, 3.85501, -0.0484509, 4.67908e-05, -0.00213086, 0.00235361, 0.00436021, 5.82211e-05, 0.00134867, 0.020351, 0.00655296, -0.01046, -0.0734075, 0.0851492, -0.0231747, 0.471008, -0.543331, 0.335909, -2.0838, -2.16583, -0.129891, 0.468793, -0.543009, 0.333657, -2.08288, -2.16268, -0.124977, -2.45814e-05, 0.00459073, 0.00121564, -0.00621895, -0.0141584, -0.0120742
0.0510767, 1.69152, -1.22769, -1.5405, -0.900578, -1.19399, 1.22783, -1.30253, 0.00938064, 0.0043305, -0.0271938, -0.00978101, -0.099203, 0.00385731, 0.000467571, 2.55073, 60.2802, 29.6863, 5.46234, 2.12421, 3.87607, -0.0814099, 2.25066e-05, -0.00213831, 0.00236714, 0.00443884, -3.80896e-05, 0.00138212, 0.0231629, 0.00805895, -0.00906592, -0.0717222, 0.093988, -0.0286033, 0.471008, -0.543326, 0.335911, -2.0838, -2.16583, -0.129892, 0.468786, -0.543027, 0.333641, -2.08292, -2.16266, -0.124789, -2.6571e-05, 0.00481547, 0.00127442, -0.00757404, -0.0169858, -0.0110299
0.0520767, 1.69154, -1.2277, -1.54052, -0.900592, -1.1941, 1.22783, -1.30253, 0.0144774, -0.00101924, -0.0245617, -0.0126547, -0.103473, 0.00183204, 0.00107373, 2.66181, 60.5023, 29.7617, 5.53772, 2.13611, 3.91269, -0.101552, 5.01847e-06, -0.00214067, 0.00238002, 0.00451785, -0.000126205, 0.00139942, 0.0208735, 0.00485157, -0.0121406, -0.0757375, 0.0915751, -0.0217025, 0.471008, -0.543321, 0.335912, -2.0838, -2.16583, -0.129892, 0.468784, -0.543037, 0.333627, -2.08294, -2.16266, -0.124611, -2.86617e-05, 0.00504591, 0.00133464, -0.00456585, -0.0138906, -0.013747
0.0530767, 1.69156, -1.2277, -1.54054, -0.900604, -1.19422, 1.22782, -1.30253, 0.0121193, 0.00234807, -0.0243781, -0.0114049, -0.106224, 9.02993e-05, -1.81445e-05, 2.77686, 60.6848, 29.9085, 5.6131, 2.14801, 3.95572, -0.0814099, -1.62097e-05, -0.00214608, 0.00239338, 0.00460393, -0.000222738, 0.00142005, 0.022543, 0.00711888, -0.0099697, -0.0770939, 0.0962982, -0.0249143, 0.471008, -0.543316, 0.335913, -2.08379, -2.16583, -0.129892, 0.468779, -0.543052, 0.333612, -2.08296, -2.16266, -0.124416, -3.0856e-05, 0.00528201, 0.00139628, -0.00669427, -0.0157297, -0.0117327
0.0540767, 1.69158, -1.22771, -1.54056, -0.900614, -1.19435, 1.22782, -1.30253, 0.00936638, -4.66631e-05, -0.020258, -0.0102704, -0.113215, -0.000915254, -0.00193586, 2.92762, 60.9427, 30.0236, 5.68848, 2.17273, 3.99142, -0.0292249, -4.22235e-05, -0.00215503, 0.00240655, 0.00468832, -0.000324187, 0.00144562, 0.0249933, 0.00912559, -0.00972132, -0.076821, 0.098862, -0.0270022, 0.471008, -0.543311, 0.335915, -2.08379, -2.16583, -0.129893, 0.46877, -0.54307, 0.333597, -2.08299, -2.16266, -0.124218, -3.31567e-05, 0.00552372, 0.00145934, -0.00860405, -0.0180273, -0.0117442
0.0550767, 1.69159, -1.2277, -1.54057, -0.900625, -1.19447, 1.22781, -1.30253, 0.0113535, 0.0033697, -0.0184734, -0.00928807, -0.117276, -0.0029948, -0.00152117, 3.04267, 60.9824, 30.0593, 5.76385, 2.16083, 4.06283, -0.0228162, -6.37513e-05, -0.00216211, 0.0024113, 0.0047684, -0.000431735, 0.00146938, 0.0245556, 0.00882053, -0.00724896, -0.0784751, 0.104612, -0.0268677, 0.471008, -0.543305, 0.335916, -2.08378, -2.16583, -0.129893, 0.468764, -0.543086, 0.333591, -2.08302, -2.16266, -0.124018, -3.55665e-05, 0.00577098, 0.0015238, -0.00822812, -0.0177161, -0.00917981
0.0560767, 1.69161, -1.22771, -1.54059, -0.900634, -1.19461, 1.2278, -1.30254, 0.0147216, 0.000548146, -0.0150806, -0.0114888, -0.120647, -0.00393759, -0.00199239, 3.07838, 61.2402, 30.1346, 5.83527, 2.15442, 4.12051, 0.00373412, -8.70433e-05, -0.00216793, 0.0024248, 0.004856, -0.000532634, 0.00149083, 0.022797, 0.00634544, -0.00829075, -0.0796608, 0.104369, -0.0205674, 0.471008, -0.5433, 0.335918, -2.08378, -2.16583, -0.129894, 0.468758, -0.543101, 0.333575, -2.08305, -2.16266, -0.123817, -3.8088e-05, 0.00602372, 0.00158964, -0.00585929, -0.0154655, -0.00994437
0.0570767, 1.69163, -1.22771, -1.54059, -0.900643, -1.19474, 1.22779, -1.30254, 0.0160502, -0.00109631, -0.010805, -0.0100636, -0.127408, -0.00485227, -0.00156181, 3.15376, 61.3513, 30.1346, 5.91064, 2.12421, 4.1846, 0.0101428, -0.000110198, -0.00217436, 0.00243091, 0.00493597, -0.000642729, 0.00151513, 0.0234028, 0.00606839, -0.00771331, -0.0794927, 0.107652, -0.0210922, 0.471008, -0.543294, 0.335919, -2.08378, -2.16583, -0.129894, 0.468752, -0.543117, 0.333567, -2.08308, -2.16267, -0.123614, -4.07237e-05, 0.00628188, 0.00165682, -0.00554269, -0.0158829, -0.00940946
0.0580767, 1.69164, -1.22771, -1.54061, -0.900648, -1.19488, 1.22779, -1.30253, 0.0171095, -0.00331201, -0.0152977, -0.0103005, -0.1331, -0.00526129, 0.00164041, 3.22913, 61.4981, 30.3211, 5.91064, 2.1178, 4.24228, -0.0621838, -0.000138531, -0.00218478, 0.00244139, 0.00502405, -0.000753542, 0.00155958, 0.0253554, 0.00690014, -0.01075, -0.086851, 0.110455, -0.0270374, 0.471008, -0.543287, 0.335921, -2.08377, -2.16582, -0.129894, 0.468742, -0.543138, 0.333555, -2.08313, -2.16265, -0.1234, -4.34763e-05, 0.00654537, 0.00172534, -0.00641599, -0.0171135, -0.0126176
0.0590767, 1.69167, -1.22772, -1.54062, -0.900655, -1.19502, 1.22778, -1.30253, 0.0181253, -0.00416706, -0.0108852, -0.00841485, -0.135835, -0.00529015, 0.00133311, 3.15376, 61.6092, 30.3211, 5.95032, 2.07477, 4.29263, -0.0685925, -0.00016085, -0.00218743, 0.00244657, 0.00510358, -0.000871939, 0.00158449, 0.0254411, 0.00627483, -0.00950563, -0.0835809, 0.111613, -0.026138, 0.471008, -0.543281, 0.335923, -2.08377, -2.16582, -0.129895, 0.46874, -0.543152, 0.333548, -2.08317, -2.16265, -0.12319, -4.63483e-05, 0.0068141, 0.00179515, -0.00574631, -0.0170954, -0.0113512
0.0600767, 1.69168, -1.22772, -1.54063, -0.900661, -1.19516, 1.22777, -1.30253, 0.0159052, -0.00344126, -0.0143487, -0.0100545, -0.140206, -0.00478744, -0.0012798, 3.19343, 61.7917, 30.4679, 5.98602, 2.05646, 4.32834, -0.00999879, -0.000190846, -0.00219755, 0.00245882, 0.00519506, -0.000987479, 0.00161248, 0.0277892, 0.00818982, -0.0103918, -0.0885417, 0.116658, -0.0273972, 0.471008, -0.543274, 0.335924, -2.08376, -2.16582, -0.129895, 0.468731, -0.543174, 0.333533, -2.08321, -2.16265, -0.122969, -4.93422e-05, 0.00708797, 0.00186624, -0.00760981, -0.0190815, -0.012462
0.0610767, 1.6917, -1.22773, -1.54064, -0.900664, -1.19531, 1.22777, -1.30253, 0.0134069, -0.00510767, -0.0128125, -0.00647846, -0.147478, -0.00392521, -0.000614636, 3.26881, 61.9385, 30.579, 5.95032, 2.05005, 4.34939, -0.0164075, -0.000221075, -0.00220614, 0.00246881, 0.00527898, -0.00110606, 0.00165183, 0.0316063, 0.0107606, -0.0101433, -0.0878512, 0.121096, -0.0353003, 0.471007, -0.543267, 0.335926, -2.08376, -2.16582, -0.129896, 0.468723, -0.543195, 0.333521, -2.08326, -2.16264, -0.122752, -5.24605e-05, 0.00736687, 0.00193857, -0.0100348, -0.0227144, -0.0126594
0.0620767, 1.69172, -1.22774, -1.54066, -0.900675, -1.19546, 1.22777, -1.30253, 0.0135182, -0.00425584, -0.0147955, -0.00644744, -0.148087, -0.00285333, -0.00162956, 3.26881, 62.1249, 30.6901, 6.02173, 2.03174, 4.35672, 0.0165515, -0.000249242, -0.00221068, 0.00248387, 0.00536966, -0.00122543, 0.00167589, 0.0324219, 0.0109508, -0.0102756, -0.088824, 0.123313, -0.0353498, 0.471007, -0.543259, 0.335928, -2.08375, -2.16582, -0.129897, 0.468719, -0.543214, 0.333504, -2.08329, -2.16265, -0.122529, -5.57056e-05, 0.00765073, 0.00201212, -0.0102036, -0.0232232, -0.0128375
0.0630767, 1.69175, -1.22775, -1.54066, -0.900681, -1.19561, 1.22777, -1.30253, 0.0175851, -0.00474021, -0.0136716, -0.00464182, -0.148299, -0.00187617, 0.0013218, 3.22913, 62.2321, 30.6901, 6.02173, 2.01343, 4.35672, -0.0484509, -0.000275547, -0.00221444, 0.00249248, 0.00544928, -0.00134404, 0.00170524, 0.0314058, 0.00871398, -0.0100648, -0.0868545, 0.123614, -0.0353648, 0.471007, -0.543252, 0.33593, -2.08374, -2.16582, -0.129897, 0.468716, -0.543231, 0.333493, -2.08334, -2.16265, -0.122318, -5.90798e-05, 0.00793954, 0.00208689, -0.00800173, -0.0218721, -0.0124644
0.0640767, 1.69176, -1.22775, -1.54067, -0.900685, -1.19576, 1.22777, -1.30253, 0.0167104, -0.00270814, -0.0107789, -0.00251697, -0.148082, -0.00123124, 0.00115298, 3.34419, 62.2321, 30.7297, 5.98602, 1.98871, 4.35672, -0.0557752, -0.000305731, -0.00222278, 0.00249675, 0.00552488, -0.00146895, 0.00174325, 0.0319591, 0.009069, -0.00747334, -0.0822997, 0.125596, -0.0364778, 0.471007, -0.543244, 0.335932, -2.08374, -2.16582, -0.129898, 0.468708, -0.543252, 0.333487, -2.08339, -2.16265, -0.122104, -6.25855e-05, 0.00823327, 0.00216285, -0.00824628, -0.0225381, -0.00990485
0.0650767, 1.69179, -1.22776, -1.54068, -0.900691, -1.19591, 1.22777, -1.30253, 0.0200528, -0.00666334, -0.0127611, -0.00502675, -0.148387, -0.000534906, 0.00100639, 3.30451, 62.4542, 30.8051, 5.98602, 1.9704, 4.34939, -0.0621838, -0.000333709, -0.00222527, 0.00251263, 0.00560723, -0.00158022, 0.00176656, 0.030953, 0.00682366, -0.0109897, -0.0855625, 0.122934, -0.0317795, 0.471007, -0.543236, 0.335935, -2.08373, -2.16581, -0.129898, 0.468706, -0.543269, 0.333469, -2.08342, -2.16266, -0.121898, -6.6225e-05, 0.00853189, 0.00224002, -0.00617062, -0.0206128, -0.0132114
0.0660767, 1.69181, -1.22775, -1.54068, -0.900697, -1.19605, 1.22776, -1.30253, 0.0227489, -0.00158952, -0.0100286, -0.00687203, -0.148719, -0.00061688, -0.00126157, 3.37989, 62.3431, 30.8408, 5.98602, 1.94568, 4.35672, -0.00999879, -0.00036064, -0.00223134, 0.0025126, 0.00568443, -0.00171132, 0.00179158, 0.0285415, 0.00456299, -0.00746673, -0.0842101, 0.128515, -0.0241125, 0.471007, -0.543227, 0.335937, -2.08373, -2.16581, -0.129899, 0.468701, -0.543288, 0.333467, -2.08347, -2.16267, -0.121678, -7.00005e-05, 0.00883538, 0.00231837, -0.00387553, -0.0183785, -0.0093484
0.0670767, 1.69183, -1.22776, -1.54069, -0.900701, -1.1962, 1.22776, -1.30253, 0.0234529, -0.00179701, -0.0103668, -0.00431146, -0.152551, -0.000131743, -0.00084083, 3.37989, 62.3828, 30.8408, 5.95032, 1.90906, 4.34939, -0.00999879, -0.000388021, -0.0022339, 0.00251747, 0.00575358, -0.00183411, 0.00181782, 0.0302018, 0.00514692, -0.00737038, -0.0847312, 0.131738, -0.027496, 0.471007, -0.543218, 0.335939, -2.08372, -2.16581, -0.1299, 0.468699, -0.543305, 0.333461, -2.08352, -2.16269, -0.121475, -7.39143e-05, 0.00914373, 0.0023979, -0.00439968, -0.019748, -0.00941402
0.0680767, 1.69186, -1.22776, -1.54069, -0.900702, -1.19634, 1.22777, -1.30253, 0.0239674, -0.00272543, -0.00839616, -0.00467338, -0.15147, -8.16463e-05, 0.000626402, 3.37989, 62.4542, 30.8765, 5.87494, 1.87244, 4.34939, -0.0420422, -0.000417487, -0.00223781, 0.00252534, 0.00582952, -0.00195653, 0.00185145, 0.0296571, 0.00428661, -0.00731912, -0.0827346, 0.130113, -0.0267883, 0.471007, -0.543209, 0.335941, -2.08371, -2.16581, -0.1299, 0.468696, -0.543324, 0.333451, -2.08357, -2.16269, -0.121264, -7.79688e-05, 0.0094569, 0.0024786, -0.00356215, -0.0188696, -0.00922421
0.0690767, 1.69189, -1.22777, -1.5407, -0.900709, -1.19649, 1.22776, -1.30253, 0.022042, -0.00514336, -0.00784796, -0.00692555, -0.151078, 0.000221473, 0.000417722, 3.34419, 62.601, 30.9519, 5.87494, 1.85321, 4.34207, -0.0420422, -0.000443864, -0.00223828, 0.00253811, 0.00591268, -0.00207301, 0.00187217, 0.0302353, 0.00463053, -0.00875944, -0.0827292, 0.12787, -0.0260383, 0.471007, -0.5432, 0.335944, -2.08371, -2.16581, -0.129901, 0.468696, -0.543339, 0.333436, -2.0836, -2.1627, -0.121052, -8.21662e-05, 0.00977487, 0.00256046, -0.00394119, -0.0189147, -0.0106441
0.0700767, 1.69191, -1.22778, -1.54071, -0.900712, -1.19664, 1.22777, -1.30253, 0.0248763, -0.00678214, -0.00736068, -0.00750952, -0.14739, 0.00093102, 0.00126192, 3.37989, 62.7478, 31.0273, 5.83527, 1.84772, 4.32101, -0.0685925, -0.000474631, -0.00224087, 0.00254956, 0.00598941, -0.00219576, 0.00190036, 0.0285332, 0.00225161, -0.00975037, -0.0807645, 0.123925, -0.0220439, 0.471007, -0.54319, 0.335947, -2.0837, -2.16581, -0.129902, 0.468694, -0.543358, 0.333423, -2.08364, -2.16271, -0.12084, -8.65087e-05, 0.0100976, 0.00264348, -0.00166646, -0.0166615, -0.0113471
0.0710767, 1.69194, -1.22778, -1.54071, -0.900709, -1.1968, 1.22777, -1.30253, 0.0258879, -0.0115809, -0.00258276, -0.0031955, -0.148102, 0.000894556, -0.000854076, 3.34419, 62.7875, 30.9162, 5.72418, 1.8349, 4.31369, -0.0228162, -0.000502116, -0.00224071, 0.00255227, 0.0060558, -0.00232357, 0.00192158, 0.0292899, 0.00180889, -0.0103686, -0.0754124, 0.119291, -0.0205343, 0.471007, -0.54318, 0.335949, -2.08369, -2.1658, -0.129903, 0.468695, -0.543374, 0.333419, -2.08369, -2.16273, -0.120636, -9.09987e-05, 0.0104251, 0.00272764, -0.00122406, -0.0169675, -0.0120045
0.0720767, 1.69198, -1.22779, -1.54072, -0.900707, -1.19695, 1.22777, -1.30253, 0.0274587, -0.00902654, -0.00628911, -0.000957799, -0.149625, 0.000869594, -0.00131532, 3.26881, 62.8232, 31.1027, 5.6488, 1.84772, 4.30636, -0.00267457, -0.000532025, -0.00224131, 0.00256149, 0.00614213, -0.00245826, 0.00194835, 0.0304271, 0.00231329, -0.00997758, -0.0782981, 0.123411, -0.0227949, 0.471007, -0.543169, 0.335952, -2.08368, -2.1658, -0.129903, 0.468695, -0.543392, 0.333408, -2.08373, -2.16274, -0.120401, -9.56382e-05, 0.0107574, 0.00281294, -0.00167756, -0.0178388, -0.0116946
0.0730767, 1.69201, -1.22781, -1.54073, -0.900705, -1.1971, 1.22777, -1.30253, 0.0266406, -0.0124029, -0.0034189, 0.00151689, -0.150095, 0.00163236, 0.00132721, 3.26881, 63.0811, 31.063, 5.53772, 1.84772, 4.27798, -0.0621838, -0.000562155, -0.00224089, 0.00257488, 0.00621241, -0.00257213, 0.00197988, 0.0317588, 0.00267726, -0.0105249, -0.0742706, 0.120639, -0.0270981, 0.471007, -0.543159, 0.335955, -2.08368, -2.1658, -0.129904, 0.468696, -0.543409, 0.333393, -2.08378, -2.16274, -0.120206, -0.00010043, 0.0110943, 0.00289937, -0.00201795, -0.0187471, -0.0123446
0.0740767, 1.69205, -1.22781, -1.54074, -0.900709, -1.19726, 1.22778, -1.30252, 0.0303597, -0.0111318, -0.00499336, -0.000249028, -0.151224, 0.00268303, 0.00112219, 3.22913, 63.1921, 31.1741, 5.57739, 1.87244, 4.23495, -0.0685925, -0.000589297, -0.00223682, 0.00258676, 0.00629488, -0.00270206, 0.00199819, 0.0304794, 0.000435774, -0.0107096, -0.0765041, 0.123987, -0.0228006, 0.471006, -0.543147, 0.335958, -2.08367, -2.1658, -0.129905, 0.4687, -0.543422, 0.33338, -2.08381, -2.16276, -0.119981, -0.000105375, 0.011436, 0.00298692, 0.000163209, -0.017022, -0.0123086
0.0750767, 1.69209, -1.22783, -1.54074, -0.900705, -1.19742, 1.22779, -1.30252, 0.0325928, -0.0110535, -0.00341563, 0.00134802, -0.156133, 0.00311194, 0.000985508, 3.19343, 63.3389, 31.1741, 5.50201, 1.87793, 4.19925, -0.0750012, -0.000619421, -0.00223317, 0.00259786, 0.00636837, -0.0028315, 0.00202218, 0.0309982, -0.000257303, -0.0099868, -0.0765592, 0.128388, -0.0227164, 0.471006, -0.543136, 0.335961, -2.08366, -2.1658, -0.129906, 0.468704, -0.543439, 0.333367, -2.08385, -2.16278, -0.119767, -0.000110477, 0.0117823, 0.00307558, 0.000895059, -0.0172707, -0.0116079
0.0760767, 1.69213, -1.22784, -1.54075, -0.900705, -1.19758, 1.22779, -1.30253, 0.0328371, -0.0109516, -0.00327015, 0.000711774, -0.155514, 0.00366894, -0.00080104, 3.22913, 63.4857, 31.2137, 5.50201, 1.89075, 4.15622, -0.0356336, -0.000649321, -0.00223067, 0.00260839, 0.00644205, -0.0029594, 0.00203976, 0.0309577, -0.0007264, -0.00995796, -0.0759319, 0.128569, -0.0198271, 0.471006, -0.543124, 0.335964, -2.08365, -2.16579, -0.129907, 0.468707, -0.543455, 0.333355, -2.08389, -2.1628, -0.119555, -0.000115737, 0.0121332, 0.00316535, 0.00135791, -0.0168649, -0.0114977
0.0770767, 1.69217, -1.22785, -1.54076, -0.900703, -1.19773, 1.2278, -1.30253, 0.0330169, -0.0126097, -0.00399212, 0.00663392, -0.159195, 0.00404012, -0.00124609, 3.26881, 63.7079, 31.2891, 5.50201, 1.90265, 4.11319, -0.0164075, -0.000678849, -0.00222592, 0.00262507, 0.00652076, -0.0030793, 0.00205735, 0.034066, 0.000950882, -0.0103713, -0.0752629, 0.129908, -0.0259081, 0.471006, -0.543112, 0.335967, -2.08364, -2.16579, -0.129908, 0.468712, -0.543469, 0.333337, -2.08392, -2.16282, -0.119345, -0.000121158, 0.0124888, 0.00325621, -0.000226219, -0.0195829, -0.0122472
0.0780767, 1.69221, -1.22786, -1.54077, -0.900697, -1.19789, 1.2278, -1.30253, 0.0366276, -0.00932546, -0.00656002, 0.00577047, -0.159419, 0.0131139, -0.00059336, 3.30451, 63.7436, 31.3248, 5.46234, 1.92737, 4.08389, -0.0228162, -0.000707832, -0.00222133, 0.00263354, 0.00659895, -0.00321418, 0.00207941, 0.0337958, -0.00238796, -0.00889446, -0.070353, 0.138491, -0.0235552, 0.471006, -0.5431, 0.33597, -2.08363, -2.16579, -0.129909, 0.468718, -0.543484, 0.333327, -2.08396, -2.16284, -0.11912, -0.000126741, 0.012849, 0.00334816, 0.00314656, -0.0190465, -0.0107563
0.0790767, 1.69226, -1.22787, -1.54077, -0.900702, -1.19805, 1.22781, -1.30253, 0.0424407, -0.00971348, -0.00641626, 0.00239861, -0.162378, 0.010572, -0.000870284, 3.34419, 63.8904, 31.4002, 5.53772, 1.93378, 4.05551, -0.00999879, -0.000734915, -0.00221368, 0.002647, 0.00668004, -0.00334498, 0.00209028, 0.0309219, -0.00563586, -0.0100917, -0.0762715, 0.140027, -0.0154721, 0.471006, -0.543087, 0.335973, -2.08362, -2.16579, -0.129909, 0.468726, -0.543495, 0.333313, -2.08399, -2.16286, -0.118897, -0.00013249, 0.0132137, 0.00344119, 0.00623821, -0.0155269, -0.0114974
0.0800767, 1.69231, -1.22789, -1.54078, -0.900699, -1.1982, 1.22781, -1.30253, 0.0444859, -0.0148765, -0.00837431, 0.00267045, -0.160182, 0.00841152, 0.000369251, 3.34419, 64.1125, 31.4359, 5.50201, 1.94568, 4.03445, -0.0356336, -0.00076107, -0.0022053, 0.00266335, 0.00676222, -0.00346334, 0.00210516, 0.0307014, -0.00631646, -0.0141159, -0.079397, 0.132466, -0.0150031, 0.471006, -0.543074, 0.335977, -2.08361, -2.16578, -0.12991, 0.468734, -0.543505, 0.333296, -2.08401, -2.16288, -0.118686, -0.000138406, 0.013583, 0.0035353, 0.00675832, -0.0142918, -0.0153633
0.0810767, 1.69231, -1.22789, -1.54078, -0.900699, -1.1982, 1.22781, -1.30253, 0.0444859, -0.0148765, -0.00837431, 0.00267045, -0.160182, 0.00841152, 0.000369251, 3.34419, 64.1125, 31.4359, 5.50201, 1.94568, 4.03445, -0.0356336, -0.000775046, -0.0022056, 0.00266475, 0.00675655, -0.0034702, 0.00210841, 0.0310855, -0.00631006, -0.0141518, -0.0793348, 0.132741, -0.0149757, 0.471006, -0.54306, 0.33598, -2.0836, -2.16578, -0.129911, 0.468734, -0.543505, 0.333296, -2.08401, -2.16288, -0.118686, -0.00014449, 0.0139569, 0.00363046, 0.00675832, -0.0142918, -0.0153633
0.0820767, 1.69241, -1.22791, -1.54081, -0.900696, -1.1985, 1.22781, -1.30252, 0.0499311, -0.0151247, -0.00755314, 0.00112844, -0.15677, 0.00444899, 0.00113616, 3.37989, 64.3347, 31.5867, 5.50201, 1.9704, 4.02713, -0.0685925, -0.000811566, -0.00218576, 0.00268948, 0.00691955, -0.00371042, 0.00212836, 0.0273683, -0.0095192, -0.0148841, -0.0819819, 0.128294, -0.00745352, 0.471006, -0.543046, 0.335984, -2.08359, -2.16578, -0.129913, 0.468754, -0.543522, 0.333269, -2.08405, -2.16293, -0.11826, -0.000150747, 0.0143352, 0.00372669, 0.00979731, -0.00999923, -0.01551
0.0830767, 1.69245, -1.22791, -1.54082, -0.900698, -1.19865, 1.22781, -1.30253, 0.0515823, -0.0121858, -0.0100708, 1.6705e-05, -0.154898, 0.00375475, -0.00117534, 3.45527, 64.4061, 31.6581, 5.53772, 1.96399, 4.01248, -0.0164075, -0.000837678, -0.0021784, 0.00270265, 0.00700322, -0.00383375, 0.00213374, 0.0265069, -0.0102748, -0.0143798, -0.0843818, 0.129939, -0.00314928, 0.471005, -0.543032, 0.335988, -2.08358, -2.16578, -0.129914, 0.468762, -0.543532, 0.333255, -2.08407, -2.16296, -0.118043, -0.000157176, 0.014718, 0.00382396, 0.0105329, -0.00881249, -0.014804
0.0840767, 1.6925, -1.22792, -1.54083, -0.900696, -1.1988, 1.22782, -1.30253, 0.0505851, -0.00928318, -0.011301, 0.000921076, -0.150724, 0.0029591, -0.000783558, 3.49494, 64.4418, 31.6977, 5.50201, 2.00061, 4.00516, -0.0164075, -0.000864668, -0.0021695, 0.00271341, 0.00708281, -0.00396474, 0.00214618, 0.0266913, -0.00956084, -0.0130358, -0.0833073, 0.129273, -0.00454498, 0.471005, -0.543017, 0.335992, -2.08357, -2.16577, -0.129915, 0.468771, -0.543541, 0.333244, -2.08409, -2.16299, -0.117822, -0.000163782, 0.0151053, 0.00392227, 0.00986858, -0.00884346, -0.0133859
0.0850767, 1.69256, -1.22794, -1.54085, -0.900687, -1.19895, 1.22782, -1.30253, 0.0530111, -0.0147868, -0.012132, 0.00336135, -0.147685, 0.0015687, -0.00174307, 3.53065, 64.664, 31.7335, 5.38696, 2.05005, 4.0198, 0.0165515, -0.000894365, -0.002162, 0.00273161, 0.0071651, -0.0040814, 0.00215918, 0.0266778, -0.0104124, -0.0165191, -0.0834481, 0.120819, -0.0025689, 0.471005, -0.543002, 0.335996, -2.08356, -2.16577, -0.129916, 0.468779, -0.543553, 0.333225, -2.08411, -2.163, -0.117612, -0.000170564, 0.0154971, 0.00402162, 0.0105854, -0.00786658, -0.0167498
0.0860767, 1.69261, -1.22795, -1.54087, -0.900698, -1.1991, 1.22782, -1.30253, 0.0564225, -0.0129018, -0.0156021, -0.00124355, -0.143627, 0.00220084, 0.00151672, 3.49494, 64.7751, 31.8842, 5.53772, 2.05005, 3.99142, -0.0557752, -0.000917034, -0.00214807, 0.00275092, 0.00725913, -0.00420573, 0.00216574, 0.0240172, -0.0132801, -0.0174372, -0.0865062, 0.120745, 0.00126907, 0.471005, -0.542986, 0.336, -2.08355, -2.16577, -0.129917, 0.468793, -0.543556, 0.333206, -2.08412, -2.16303, -0.117382, -0.000177527, 0.0158932, 0.00412199, 0.0133138, -0.00458449, -0.0172296
0.0870767, 1.69266, -1.22796, -1.54089, -0.900688, -1.19926, 1.22782, -1.30253, 0.0540973, -0.0115338, -0.0160405, 0.00180095, -0.147695, 0.00154513, 0.0012485, 3.53065, 64.8862, 31.9556, 5.42664, 2.11139, 3.99142, -0.0621838, -0.000949399, -0.00214225, 0.00276731, 0.00734596, -0.00433266, 0.00218882, 0.0270597, -0.0106025, -0.0163262, -0.0873713, 0.125093, -0.00499749, 0.471005, -0.542971, 0.336004, -2.08354, -2.16576, -0.129918, 0.468799, -0.543569, 0.333189, -2.08415, -2.16304, -0.117156, -0.000184671, 0.0162937, 0.00422337, 0.0107818, -0.00746835, -0.0164233
0.0880767, 1.69272, -1.22797, -1.5409, -0.90069, -1.19941, 1.22782, -1.30253, 0.0561676, -0.0105382, -0.0156463, 0.000389057, -0.149346, 0.00108852, 0.000832337, 3.53065, 64.9973, 31.9953, 5.46234, 2.12421, 3.99142, -0.0621838, -0.000975585, -0.00213041, 0.00278549, 0.00743526, -0.00445661, 0.00219411, 0.0262439, -0.0118581, -0.0159749, -0.0890179, 0.127682, -0.00165207, 0.471005, -0.542954, 0.336008, -2.08353, -2.16576, -0.129919, 0.468811, -0.543575, 0.33317, -2.08416, -2.16306, -0.116932, -0.000192, 0.0166987, 0.00432576, 0.012012, -0.00626048, -0.0158855
0.0890767, 1.69278, -1.22799, -1.54093, -0.90069, -1.19956, 1.22782, -1.30253, 0.0546294, -0.0106471, -0.0195766, 0.000277103, -0.150597, 0.000532142, -0.00188651, 3.53065, 65.144, 32.0707, 5.46234, 2.15442, 3.99783, 0.00373412, -0.00100403, -0.00212072, 0.00280619, 0.00752794, -0.00457668, 0.00219725, 0.0283271, -0.0100738, -0.0174432, -0.0932844, 0.128831, -0.0026192, 0.471004, -0.542938, 0.336012, -2.08351, -2.16576, -0.129921, 0.468821, -0.543583, 0.33315, -2.08416, -2.16309, -0.116708, -0.000199514, 0.0171079, 0.00442916, 0.0102438, -0.00775445, -0.0175019
0.0900767, 1.69284, -1.22799, -1.54095, -0.90069, -1.19971, 1.22782, -1.30253, 0.0544952, -0.00890946, -0.0214567, -0.000729986, -0.149857, 0.000116361, -0.00102032, 3.49494, 65.2155, 32.1064, 5.50201, 2.14252, 4.00516, -0.00267457, -0.00102989, -0.00210829, 0.00282337, 0.00761969, -0.00470262, 0.00220296, 0.0285518, -0.0098603, -0.0172877, -0.0951759, 0.130269, -0.00339216, 0.471004, -0.54292, 0.336017, -2.0835, -2.16575, -0.129922, 0.468833, -0.543588, 0.333133, -2.08417, -2.16311, -0.116479, -0.000207216, 0.0175215, 0.00453354, 0.0100366, -0.00759519, -0.0172727
0.0910767, 1.69289, -1.22801, -1.54097, -0.900692, -1.19986, 1.22782, -1.30253, 0.0583773, -0.00780859, -0.0197203, -0.0013119, -0.154665, 0.000102224, 0.000777851, 3.41956, 65.2908, 32.1421, 5.53772, 2.13611, 4.00516, -0.0420422, -0.00105736, -0.00209569, 0.00284178, 0.00770981, -0.0048305, 0.00221319, 0.0275738, -0.0119091, -0.0163361, -0.0965997, 0.13569, -0.00161211, 0.471004, -0.542903, 0.336021, -2.08349, -2.16575, -0.129923, 0.468846, -0.543595, 0.333114, -2.08419, -2.16314, -0.11625, -0.000215108, 0.0179394, 0.00463891, 0.0120743, -0.00627407, -0.0161381
0.0920767, 1.69295, -1.228, -1.54099, -0.90069, -1.20002, 1.22782, -1.30253, 0.0570162, -0.00352178, -0.0248154, -0.00086712, -0.158895, -0.000455898, 0.000281208, 3.37989, 65.2155, 32.1818, 5.53772, 2.14252, 4.0198, -0.0356336, -0.00108703, -0.0020869, 0.00285244, 0.00780426, -0.00497476, 0.00222688, 0.030179, -0.00947614, -0.0155525, -0.102653, 0.143707, -0.00676078, 0.471004, -0.542885, 0.336026, -2.08348, -2.16575, -0.129924, 0.468855, -0.543604, 0.333104, -2.08421, -2.16316, -0.115999, -0.000223192, 0.0183616, 0.00474526, 0.00975826, -0.00864417, -0.0155896
0.0930767, 1.69301, -1.22801, -1.54102, -0.900694, -1.20017, 1.22782, -1.30252, 0.0607869, -0.00732981, -0.0262107, -0.00317093, -0.156225, -0.000290066, 0.00066219, 3.26881, 65.2908, 32.2532, 5.6488, 2.12421, 4.0198, -0.0484509, -0.00111417, -0.0020735, 0.00287419, 0.00790529, -0.00510335, 0.00223513, 0.0283953, -0.0122594, -0.0188305, -0.104398, 0.138556, -0.00105518, 0.471003, -0.542867, 0.336031, -2.08346, -2.16574, -0.129926, 0.468868, -0.543609, 0.333082, -2.08422, -2.16318, -0.115757, -0.00023147, 0.0187881, 0.00485258, 0.0123466, -0.00583699, -0.0185263
0.0940767, 1.69307, -1.22802, -1.54105, -0.900694, -1.20033, 1.22782, -1.30253, 0.0588212, -0.00779287, -0.0264819, -0.00303776, -0.154955, -0.000182978, -0.00149132, 3.22913, 65.4019, 32.2928, 5.68848, 2.11139, 4.0198, 0.00373412, -0.0011448, -0.00206339, 0.00289461, 0.00800043, -0.00522991, 0.00223845, 0.0296071, -0.011242, -0.0191048, -0.103554, 0.137358, -0.000619586, 0.471003, -0.542848, 0.336035, -2.08345, -2.16574, -0.129927, 0.468878, -0.543616, 0.333062, -2.08422, -2.16321, -0.115524, -0.000239944, 0.0192188, 0.00496086, 0.0113555, -0.00660179, -0.0188467
0.0950767, 1.69313, -1.22803, -1.54107, -0.900696, -1.20048, 1.22782, -1.30253, 0.0607536, -0.00709658, -0.025012, 0.000314472, -0.154046, -0.000656721, -0.00123157, 3.04267, 65.4733, 32.2532, 5.72418, 2.1178, 4.03445, 0.0101428, -0.00117232, -0.00204929, 0.00291417, 0.00810129, -0.00536354, 0.00224394, 0.0295896, -0.0118354, -0.0178898, -0.100825, 0.137069, -0.000886126, 0.471003, -0.542829, 0.33604, -2.08343, -2.16574, -0.129929, 0.468893, -0.543621, 0.333043, -2.08423, -2.16324, -0.115277, -0.000248615, 0.0196537, 0.00507009, 0.0119829, -0.00631226, -0.0175535
0.0960767, 1.69319, -1.22804, -1.5411, -0.900696, -1.20063, 1.22782, -1.30253, 0.0602332, -0.00666747, -0.0288826, 0.00270261, -0.148939, -0.000669323, -0.000583689, 2.92762, 65.5487, 32.2928, 5.76385, 2.09308, 4.04086, 0.00373412, -0.00120292, -0.00203852, 0.00293454, 0.00820013, -0.00549296, 0.00225251, 0.0307293, -0.0108818, -0.018693, -0.100522, 0.133655, -0.00425981, 0.471003, -0.542809, 0.336045, -2.08342, -2.16573, -0.12993, 0.468903, -0.543628, 0.333023, -2.08424, -2.16326, -0.115037, -0.000257487, 0.0200928, 0.00518027, 0.0110333, -0.00691325, -0.018385
0.0970767, 1.69325, -1.22805, -1.54113, -0.900698, -1.20079, 1.22782, -1.30253, 0.0589872, -0.00541008, -0.0310176, 0.000594168, -0.148996, -0.000713096, 0.0013063, 2.85224, 65.5844, 32.2928, 5.83527, 2.07477, 4.04819, -0.0420422, -0.00123421, -0.00202887, 0.00295289, 0.0082978, -0.00562536, 0.00226798, 0.0314455, -0.0102316, -0.0189714, -0.103064, 0.135556, -0.00656252, 0.471002, -0.542789, 0.336051, -2.08341, -2.16573, -0.129932, 0.468913, -0.543635, 0.333005, -2.08425, -2.16328, -0.114794, -0.000266561, 0.0205361, 0.00529139, 0.0103904, -0.00716046, -0.0186407
0.0980767, 1.69332, -1.22805, -1.54116, -0.9007, -1.20094, 1.22782, -1.30253, 0.0638253, -0.00546737, -0.0284597, -0.00101998, -0.148354, 0.000307787, 0.000870863, 2.66181, 65.6598, 32.2532, 5.91064, 2.04364, 4.02713, -0.0420422, -0.00126319, -0.00201419, 0.00297299, 0.00839458, -0.00575828, 0.00227126, 0.0287354, -0.0140224, -0.0185265, -0.10106, 0.135956, 0.00154627, 0.471002, -0.542768, 0.336056, -2.08339, -2.16572, -0.129933, 0.468928, -0.54364, 0.332985, -2.08426, -2.16331, -0.114553, -0.000275838, 0.0209836, 0.00540343, 0.0140859, -0.00395022, -0.0177834
0.0990767, 1.69337, -1.22805, -1.54119, -0.900702, -1.20109, 1.22782, -1.30253, 0.0591243, -0.00195474, -0.0286218, -0.00218286, -0.148541, -0.000572235, -0.00111485, 2.55073, 65.5844, 32.2928, 5.98602, 2.02533, 4.04819, 0.00373412, -0.0012963, -0.00200681, 0.00298828, 0.00849617, -0.00589894, 0.0022816, 0.0305923, -0.0113592, -0.0165386, -0.101503, 0.139452, -0.000275797, 0.471002, -0.542747, 0.336061, -2.08338, -2.16572, -0.129935, 0.468936, -0.543649, 0.33297, -2.08427, -2.16333, -0.114299, -0.000285321, 0.0214351, 0.00551641, 0.0115556, -0.00574744, -0.015916
0.100077, 1.69343, -1.22806, -1.54123, -0.900712, -1.20124, 1.22782, -1.30253, 0.0564423, -0.0053354, -0.0277454, -0.00478644, -0.148033, -0.000922174, 0.000477473, 2.39997, 65.6241, 32.2928, 6.13678, 1.98871, 4.06283, -0.0292249, -0.00132721, -0.00199571, 0.00300984, 0.00860274, -0.00603339, 0.00229126, 0.0314737, -0.0106394, -0.0185078, -0.101822, 0.135924, -0.00153604, 0.471002, -0.542726, 0.336067, -2.08336, -2.16572, -0.129936, 0.468947, -0.543654, 0.332949, -2.08428, -2.16335, -0.114045, -0.000295012, 0.0218908, 0.00563029, 0.010787, -0.00588739, -0.017862
0.101077, 1.69349, -1.22807, -1.54126, -0.900712, -1.2014, 1.22782, -1.30253, 0.0586674, -0.00867072, -0.0291499, -0.00387973, -0.147795, -0.000342127, -0.00113975, 2.20954, 65.6955, 32.2532, 6.17248, 1.95209, 4.05551, 0.0101428, -0.00135938, -0.0019823, 0.00302995, 0.00869799, -0.00616843, 0.0022981, 0.0318409, -0.0116257, -0.0209473, -0.102555, 0.133117, 0.00100456, 0.471001, -0.542704, 0.336072, -2.08334, -2.16571, -0.129938, 0.46896, -0.54366, 0.33293, -2.08429, -2.16338, -0.113803, -0.000304912, 0.0223506, 0.00574509, 0.0116866, -0.00537295, -0.0202434
0.102077, 1.69355, -1.22807, -1.54129, -0.900724, -1.20156, 1.22782, -1.30253, 0.0568633, -0.00542902, -0.0282537, -0.00683834, -0.148462, -0.000498311, -0.000759831, 2.02308, 65.6598, 32.2532, 6.35895, 1.93927, 4.06283, 0.0101428, -0.0013895, -0.00197044, 0.00304739, 0.00880696, -0.00631339, 0.00229929, 0.0318703, -0.0112655, -0.0190822, -0.102966, 0.137306, 0.00160891, 0.471001, -0.542682, 0.336078, -2.08333, -2.16571, -0.12994, 0.468972, -0.543664, 0.332913, -2.08429, -2.16341, -0.113537, -0.000315023, 0.0228145, 0.00586078, 0.0113856, -0.00524028, -0.0182802
0.103077, 1.69361, -1.22807, -1.54132, -0.900731, -1.20171, 1.22782, -1.30253, 0.0569321, -0.00481738, -0.0286197, -0.00623975, -0.152988, -0.000602694, 0.00166358, 1.90803, 65.6955, 32.2928, 6.43433, 1.91546, 4.07016, -0.0484509, -0.00142463, -0.00196152, 0.00306944, 0.0089175, -0.00645435, 0.00231779, 0.0334, -0.0105574, -0.0188063, -0.105062, 0.141904, -0.00293519, 0.471001, -0.542659, 0.336084, -2.08331, -2.1657, -0.129941, 0.468981, -0.543672, 0.332891, -2.0843, -2.16342, -0.113271, -0.000325348, 0.0232823, 0.00597737, 0.0107331, -0.00635378, -0.018108
0.104077, 1.69367, -1.22807, -1.54136, -0.900739, -1.20187, 1.22782, -1.30253, 0.0580689, -0.00181326, -0.0293529, -0.00586129, -0.152371, -0.00040121, 0.000871698, 1.75727, 65.6241, 32.3682, 6.5097, 1.90265, 4.07016, -0.0420422, -0.00145898, -0.00195248, 0.00308645, 0.00902526, -0.00660206, 0.00232892, 0.0332644, -0.0110281, -0.0173212, -0.104889, 0.144892, -0.001524, 0.471, -0.542636, 0.33609, -2.08329, -2.1657, -0.129943, 0.46899, -0.54368, 0.332875, -2.08431, -2.16345, -0.113002, -0.000335889, 0.0237543, 0.00609484, 0.0112418, -0.0059574, -0.0165179
0.105077, 1.69373, -1.22807, -1.54139, -0.900753, -1.20202, 1.22781, -1.30253, 0.0563604, -0.00308336, -0.0278108, -0.00822288, -0.152036, -0.000775661, 0.000818491, 1.57081, 65.6955, 32.2175, 6.69617, 1.89624, 4.08389, -0.0484509, -0.00148746, -0.0019372, 0.00310521, 0.00912382, -0.00673629, 0.00232462, 0.0335044, -0.0108579, -0.0178323, -0.104578, 0.143571, -0.000174474, 0.471, -0.542612, 0.336096, -2.08328, -2.16569, -0.129945, 0.469006, -0.543681, 0.332858, -2.08431, -2.16349, -0.112759, -0.000346646, 0.0242302, 0.00621319, 0.0110511, -0.0056462, -0.0169369
0.106077, 1.69379, -1.22807, -1.54142, -0.900763, -1.20217, 1.22781, -1.30253, 0.0572087, -0.00137342, -0.0280702, -0.00804562, -0.146798, -0.000279419, -0.00138712, 1.41608, 65.6598, 32.2532, 6.80725, 1.87244, 4.07748, 0.00373412, -0.0015184, -0.001924, 0.00312155, 0.00922593, -0.00687909, 0.00232476, 0.0325842, -0.0118959, -0.0169417, -0.101749, 0.141604, 0.00434245, 0.471, -0.542588, 0.336102, -2.08326, -2.16569, -0.129946, 0.469019, -0.543684, 0.332843, -2.08431, -2.16352, -0.112502, -0.000357622, 0.0247101, 0.00633241, 0.0120761, -0.00435229, -0.0158272
0.107077, 1.69384, -1.22807, -1.54145, -0.900775, -1.20231, 1.22782, -1.30253, 0.055008, -0.00103041, -0.0264948, -0.00886416, -0.147708, 8.52353e-05, -0.00116211, 1.26533, 65.6598, 32.2175, 6.95801, 1.86603, 4.07016, 0.0101428, -0.00155128, -0.00191207, 0.00314023, 0.00932589, -0.00701708, 0.00232928, 0.0336736, -0.0110745, -0.0161838, -0.100402, 0.143125, 0.00314253, 0.470999, -0.542563, 0.336109, -2.08324, -2.16568, -0.129948, 0.469031, -0.543688, 0.332825, -2.08431, -2.16355, -0.112253, -0.000368819, 0.025194, 0.00645249, 0.0113113, -0.00509419, -0.0151038
0.108077, 1.69389, -1.22806, -1.54148, -0.900785, -1.20246, 1.22781, -1.30253, 0.0515727, 0.000990199, -0.0254733, -0.00848834, -0.14775, -0.000722885, -0.000300019, 1.18995, 65.5844, 32.1818, 7.06909, 1.84772, 4.09122, -0.00267457, -0.0015861, -0.00190426, 0.00315321, 0.00942404, -0.00716051, 0.00233834, 0.0353339, -0.0090453, -0.0145063, -0.0992558, 0.144915, -0.000980545, 0.470999, -0.542538, 0.336115, -2.08322, -2.16568, -0.12995, 0.469039, -0.543695, 0.332813, -2.08432, -2.16358, -0.111999, -0.000380238, 0.0256818, 0.00657343, 0.00939418, -0.00658742, -0.0135236
0.109077, 1.69396, -1.22806, -1.54151, -0.900798, -1.2026, 1.22782, -1.30253, 0.058899, 0.00143078, -0.0277422, -0.00907791, -0.143077, 0.000298109, 0.00102069, 0.963814, 65.5487, 32.1421, 7.21588, 1.823, 4.07016, -0.0356336, -0.00161231, -0.00188503, 0.00316826, 0.00951445, -0.00729475, 0.00232976, 0.0320269, -0.0135965, -0.0154751, -0.0994343, 0.14286, 0.00596459, 0.470999, -0.542512, 0.336122, -2.0832, -2.16567, -0.129952, 0.469058, -0.543692, 0.3328, -2.08431, -2.16362, -0.111766, -0.000391882, 0.0261735, 0.00669522, 0.0137735, -0.00249399, -0.0139828
0.110077, 1.69401, -1.22805, -1.54154, -0.900809, -1.20274, 1.22781, -1.30253, 0.0575903, 0.00266866, -0.0241411, -0.0087322, -0.14591, -0.000309782, 0.000917819, 0.888436, 65.4733, 32.1421, 7.33093, 1.84131, 4.08389, -0.0420422, -0.00164541, -0.00187433, 0.00318203, 0.00960894, -0.00743315, 0.00233468, 0.0328529, -0.0129639, -0.0134404, -0.097559, 0.146167, 0.00525118, 0.470998, -0.542486, 0.336128, -2.08318, -2.16567, -0.129954, 0.469069, -0.543696, 0.332788, -2.08432, -2.16366, -0.111522, -0.000403753, 0.0266691, 0.00681784, 0.0132339, -0.00315352, -0.0119611
0.111077, 1.69407, -1.22805, -1.54157, -0.900823, -1.20288, 1.22782, -1.30253, 0.0586494, 0.00174278, -0.0244485, -0.0115246, -0.142712, 0.000302183, -0.0013209, 0.737679, 65.4733, 32.1421, 7.44202, 1.84772, 4.07016, 0.0101428, -0.00167674, -0.00185954, 0.00319922, 0.00970192, -0.00756715, 0.00232607, 0.0316506, -0.0146169, -0.0145303, -0.0972762, 0.143594, 0.0119707, 0.470998, -0.542459, 0.336135, -2.08317, -2.16566, -0.129956, 0.469084, -0.543697, 0.332772, -2.08431, -2.1637, -0.111286, -0.000415851, 0.0271686, 0.0069413, 0.0147896, -0.0012305, -0.0127775
0.112077, 1.69413, -1.22805, -1.54159, -0.900829, -1.20301, 1.22781, -1.30253, 0.0552368, 0.00196983, -0.0237967, -0.011937, -0.140416, -0.000307112, -0.00111796, 0.626595, 65.4376, 32.1064, 7.47772, 1.84772, 4.08389, 0.0165515, -0.00170816, -0.00184561, 0.00321185, 0.00978596, -0.00769815, 0.00232483, 0.0328853, -0.0130452, -0.0141417, -0.0957231, 0.141883, 0.00986612, 0.470997, -0.542432, 0.336142, -2.08315, -2.16566, -0.129958, 0.469098, -0.543698, 0.332761, -2.08431, -2.16374, -0.111062, -0.000428179, 0.027672, 0.00706559, 0.0132662, -0.00207033, -0.0124144
0.113077, 1.69419, -1.22805, -1.54162, -0.900837, -1.20315, 1.22781, -1.30253, 0.0544304, 0.000457572, -0.0243203, -0.00933974, -0.138678, 3.26613e-05, -0.000507947, 0.436165, 65.4733, 32.1064, 7.51739, 1.86603, 4.07748, 0.0101428, -0.00173859, -0.00182874, 0.00322893, 0.00987158, -0.00782416, 0.00232, 0.0344718, -0.0121981, -0.0148307, -0.0937609, 0.139269, 0.00658653, 0.470997, -0.542404, 0.336149, -2.08313, -2.16565, -0.12996, 0.469115, -0.543697, 0.332746, -2.0843, -2.16377, -0.110841, -0.000440739, 0.0281791, 0.00719069, 0.0124396, -0.00305738, -0.0131913
0.114077, 1.69425, -1.22804, -1.54164, -0.900846, -1.20327, 1.22782, -1.30253, 0.0560028, 0.00279538, -0.023657, -0.0105464, -0.137457, 0.000564342, 0.00159415, 0.285408, 65.3662, 32.0707, 7.5531, 1.86603, 4.06283, -0.0420422, -0.00176579, -0.0018098, 0.00323732, 0.00994838, -0.00795738, 0.00231516, 0.0334009, -0.0136595, -0.0134638, -0.0926436, 0.141368, 0.00780996, 0.470997, -0.542376, 0.336156, -2.08311, -2.16564, -0.129962, 0.469134, -0.543694, 0.33274, -2.0843, -2.16382, -0.110624, -0.000453532, 0.0286901, 0.0073166, 0.0138977, -0.00163973, -0.0115942
0.115077, 1.69431, -1.22804, -1.54165, -0.900858, -1.2034, 1.22782, -1.30253, 0.0562037, 0.00361533, -0.0199952, -0.0124919, -0.136934, 0.000376253, 0.00106277, 0.170357, 65.2908, 32.031, 7.62848, 1.89075, 4.06283, -0.0420422, -0.00179409, -0.00179187, 0.00324848, 0.0100257, -0.00808514, 0.00230415, 0.0323055, -0.0148652, -0.012025, -0.09013, 0.141982, 0.0121883, 0.470996, -0.542347, 0.336164, -2.08308, -2.16564, -0.129964, 0.469152, -0.543691, 0.332732, -2.0843, -2.16387, -0.110411, -0.00046656, 0.0292049, 0.00744332, 0.015102, -0.000215645, -0.00991372
0.116077, 1.69438, -1.22804, -1.54168, -0.900866, -1.20353, 1.22782, -1.30253, 0.0575166, 0.00323682, -0.0225469, -0.0129316, -0.136222, 0.000522121, 0.00070851, 0.0196001, 65.2551, 32.0707, 7.66418, 1.90265, 4.05551, -0.0420422, -0.00182387, -0.00177321, 0.0032622, 0.0101078, -0.00821565, 0.00229495, 0.0325642, -0.0153582, -0.0133078, -0.0922458, 0.141729, 0.0132937, 0.470996, -0.542318, 0.336171, -2.08306, -2.16563, -0.129966, 0.469171, -0.543688, 0.33272, -2.08429, -2.16391, -0.110191, -0.000479825, 0.0297235, 0.00757084, 0.0155435, 0.000266325, -0.0111088
0.117077, 1.69444, -1.22804, -1.54169, -0.900872, -1.20366, 1.22782, -1.30253, 0.0558208, 0.000480979, -0.0231624, -0.0117379, -0.134994, 0.000348095, 0.000234981, -0.0161054, 65.3265, 32.0707, 7.62848, 1.89624, 4.05551, -0.0356336, -0.00185639, -0.00175783, 0.00327635, 0.0101808, -0.00833484, 0.00229033, 0.0343275, -0.0141807, -0.0149552, -0.0916839, 0.138144, 0.0112624, 0.470995, -0.542288, 0.336179, -2.08304, -2.16563, -0.129968, 0.469187, -0.543687, 0.332709, -2.08428, -2.16395, -0.109992, -0.000493328, 0.0302458, 0.00769914, 0.0143573, -0.000745738, -0.0128463
0.118077, 1.6945, -1.22803, -1.54171, -0.900882, -1.20379, 1.22782, -1.30253, 0.0596476, 0.00198624, -0.017391, -0.00948936, -0.134971, 0.000232073, -0.00130141, -0.131157, 65.2551, 32.0707, 7.66418, 1.91546, 4.05551, 0.00373412, -0.00188572, -0.0017389, 0.00328593, 0.0102567, -0.00846712, 0.00227782, 0.0324802, -0.0168044, -0.0119708, -0.0860071, 0.1395, 0.0173713, 0.470995, -0.542258, 0.336186, -2.08302, -2.16562, -0.129971, 0.469206, -0.543684, 0.332702, -2.08427, -2.164, -0.109777, -0.000507072, 0.0307718, 0.00782823, 0.0170065, 0.00125151, -0.00956366
0.119077, 1.69456, -1.22803, -1.54172, -0.900886, -1.20393, 1.22782, -1.30253, 0.0602003, 0.0043485, -0.0153901, -0.0061127, -0.134968, 0.000697258, 0.000353098, -0.281914, 65.2551, 32.031, 7.62848, 1.93378, 4.04086, -0.0292249, -0.00191647, -0.00171894, 0.00329617, 0.0103264, -0.00859743, 0.00226912, 0.0331898, -0.0167526, -0.00943298, -0.0820224, 0.142062, 0.0142437, 0.470994, -0.542227, 0.336194, -2.083, -2.16561, -0.129973, 0.469226, -0.543681, 0.332694, -2.08427, -2.16405, -0.10957, -0.000521058, 0.0313016, 0.00795809, 0.0170592, 0.000687002, -0.00703782
0.120077, 1.69463, -1.22804, -1.54174, -0.900893, -1.20406, 1.22782, -1.30253, 0.0627313, 0.00231339, -0.0165734, -0.00771185, -0.135038, 0.000973471, 0.000710116, -0.392998, 65.2908, 32.1064, 7.62848, 1.95758, 4.02713, -0.0420422, -0.00194831, -0.00169946, 0.00331012, 0.0104011, -0.00872466, 0.00226006, 0.032618, -0.0184003, -0.0114221, -0.0840573, 0.140937, 0.0172901, 0.470994, -0.542196, 0.336202, -2.08297, -2.16561, -0.129975, 0.469245, -0.543678, 0.332683, -2.08426, -2.1641, -0.109362, -0.000535288, 0.031835, 0.00808872, 0.0185972, 0.00216061, -0.00883309
0.121077, 1.69468, -1.22803, -1.54175, -0.900904, -1.2042, 1.22782, -1.30253, 0.0587735, 0.00256468, -0.0146806, -0.0106375, -0.134417, 0.00119152, 0.000473411, -0.392998, 65.2551, 32.0707, 7.70386, 1.9704, 4.01248, -0.0420422, -0.00198159, -0.00168221, 0.00331839, 0.0104724, -0.00886319, 0.00225116, 0.0335428, -0.0172697, -0.0108263, -0.0825683, 0.141177, 0.0173307, 0.470993, -0.542164, 0.33621, -2.08295, -2.1656, -0.129978, 0.469263, -0.543677, 0.332677, -2.08426, -2.16415, -0.109145, -0.000549763, 0.0323721, 0.00822011, 0.0175088, 0.00164653, -0.00822365
0.122077, 1.69475, -1.22802, -1.54175, -0.900908, -1.20434, 1.22782, -1.30253, 0.0630127, 0.00528386, -0.0140625, -0.00688399, -0.139445, 0.00157424, 7.82484e-05, -0.543754, 65.1083, 32.0707, 7.66418, 1.99512, 3.99142, -0.0356336, -0.00201096, -0.00165923, 0.00332167, 0.0105394, -0.00900805, 0.00223553, 0.0339792, -0.0183706, -0.00869989, -0.0825607, 0.148363, 0.0172143, 0.470993, -0.542132, 0.336219, -2.08293, -2.16559, -0.12998, 0.469286, -0.543672, 0.332676, -2.08426, -2.16422, -0.108928, -0.000564485, 0.0329128, 0.00835225, 0.0186873, 0.00147372, -0.00609454
0.123077, 1.69482, -1.22802, -1.54176, -0.90092, -1.20448, 1.22783, -1.30253, 0.060982, 0.0045559, -0.0122238, -0.010012, -0.14314, 0.00132077, -0.00164326, -0.619133, 65.0687, 32.1421, 7.73956, 2.01984, 3.9841, 0.0101428, -0.0020427, -0.00163902, 0.00332982, 0.0106135, -0.00914938, 0.00221689, 0.0349032, -0.0178032, -0.00885842, -0.0840128, 0.151022, 0.0193725, 0.470992, -0.542099, 0.336227, -2.0829, -2.16559, -0.129982, 0.469307, -0.543669, 0.332671, -2.08425, -2.16428, -0.108706, -0.000579456, 0.0334572, 0.00848514, 0.0181332, 0.0011075, -0.00624557
0.124077, 1.69488, -1.22802, -1.54177, -0.900926, -1.20462, 1.22783, -1.30253, 0.0623336, 0.00395146, -0.0113571, -0.00733976, -0.146109, 0.00169431, -0.000858145, -0.694511, 65.033, 32.1064, 7.73956, 2.03815, 3.96213, 0.00373412, -0.00207677, -0.00161947, 0.00333657, 0.0106812, -0.00929195, 0.00220811, 0.0361573, -0.017859, -0.00860974, -0.0831929, 0.153195, 0.017055, 0.470991, -0.542066, 0.336235, -2.08288, -2.16558, -0.129985, 0.469327, -0.543667, 0.332667, -2.08425, -2.16434, -0.10849, -0.000594677, 0.0340052, 0.00861877, 0.0182281, 0.000381808, -0.0060644
0.125077, 1.69494, -1.22802, -1.54177, -0.900935, -1.20476, 1.22783, -1.30253, 0.0619594, 0.00269354, -0.00766229, -0.00632003, -0.146517, 0.00163817, 0.000411248, -0.694511, 65.033, 32.0707, 7.77924, 2.01984, 3.94839, -0.0228162, -0.00211041, -0.00160007, 0.00334432, 0.0107451, -0.00942644, 0.00219903, 0.0366144, -0.0180406, -0.00793247, -0.0796467, 0.152309, 0.0162155, 0.470991, -0.542032, 0.336244, -2.08286, -2.16557, -0.129987, 0.469346, -0.543664, 0.332662, -2.08425, -2.16439, -0.108286, -0.000610151, 0.0345567, 0.00875313, 0.0184354, 0.000385367, -0.00533902
0.126077, 1.69501, -1.22801, -1.54177, -0.900939, -1.20491, 1.22783, -1.30253, 0.0676276, 0.00267533, -0.00580279, -0.00683744, -0.142175, 0.00163465, 0.00149487, -0.809562, 64.9973, 32.0707, 7.73956, 2.00702, 3.93374, -0.0557752, -0.00214244, -0.00157734, 0.00335125, 0.0108143, -0.00956728, 0.00218774, 0.0332721, -0.0221622, -0.00771193, -0.0769832, 0.149272, 0.0235628, 0.47099, -0.541997, 0.336253, -2.08283, -2.16557, -0.12999, 0.469369, -0.543659, 0.332658, -2.08425, -2.16445, -0.10807, -0.000625878, 0.0351119, 0.00888822, 0.0224236, 0.00437643, -0.00459232
0.127077, 1.69508, -1.228, -1.54177, -0.900945, -1.20505, 1.22783, -1.30252, 0.0677975, 0.00617857, -0.00670966, -0.00510372, -0.14339, 0.0110411, 0.000250594, -0.884941, 64.8108, 32.031, 7.73956, 1.9823, 3.9191, -0.0356336, -0.00217443, -0.00155466, 0.00335067, 0.0108747, -0.00971924, 0.00217338, 0.0353591, -0.0232307, -0.0049525, -0.0689641, 0.158727, 0.0226392, 0.47099, -0.541962, 0.336262, -2.0828, -2.16556, -0.129992, 0.469392, -0.543655, 0.332662, -2.08425, -2.16452, -0.107852, -0.00064186, 0.0356705, 0.00902402, 0.0236513, 0.00249297, -0.00209119
0.128077, 1.69514, -1.228, -1.54177, -0.900956, -1.20519, 1.22783, -1.30253, 0.0677991, 0.00497925, -0.00429928, -0.0108838, -0.14098, 0.00892468, -0.000545014, -0.960319, 64.7751, 31.9953, 7.77924, 1.98871, 3.89804, -0.0164075, -0.00220818, -0.0015326, 0.003355, 0.0109392, -0.00986808, 0.00215289, 0.0331401, -0.0248601, -0.00584311, -0.070281, 0.155281, 0.0305181, 0.470989, -0.541926, 0.336271, -2.08278, -2.16555, -0.129995, 0.469415, -0.543651, 0.332661, -2.08425, -2.16459, -0.107634, -0.000658099, 0.0362327, 0.00916054, 0.0251498, 0.00545101, -0.00253889
0.129077, 1.69521, -1.22799, -1.54178, -0.900964, -1.20534, 1.22783, -1.30253, 0.0689469, 0.00510148, -0.00419745, -0.0089099, -0.141967, 0.00626657, -0.00134669, -1.07537, 64.6997, 32.031, 7.81494, 1.94568, 3.90536, 0.0101428, -0.00224133, -0.00151006, 0.00336008, 0.0110069, -0.010013, 0.00213636, 0.0336811, -0.0244767, -0.005792, -0.0720789, 0.15516, 0.0304596, 0.470988, -0.54189, 0.33628, -2.08275, -2.16554, -0.129998, 0.469438, -0.543645, 0.332659, -2.08424, -2.16466, -0.107416, -0.000674597, 0.0367984, 0.00929776, 0.0247719, 0.00545944, -0.00242474
0.130077, 1.69527, -1.22799, -1.54178, -0.900972, -1.20549, 1.22784, -1.30253, 0.0644317, 0.00248702, -0.00409835, -0.00738927, -0.144575, 0.00570382, 0.000322912, -1.11108, 64.7394, 32.0707, 7.85065, 1.94568, 3.87607, -0.0228162, -0.00227995, -0.00149068, 0.00337014, 0.0110717, -0.0101534, 0.00212833, 0.0373972, -0.0212618, -0.00693427, -0.0723983, 0.154532, 0.0222691, 0.470988, -0.541853, 0.336289, -2.08273, -2.16554, -0.13, 0.469457, -0.543644, 0.332652, -2.08424, -2.16471, -0.107205, -0.000691354, 0.0373675, 0.00943568, 0.0216368, 0.00240457, -0.00389641
0.131077, 1.69534, -1.228, -1.54177, -0.900976, -1.20563, 1.22784, -1.30253, 0.0662709, 0.00083334, 0.000515215, -0.00455155, -0.140562, 0.00413332, 0.00143598, -1.22613, 64.7751, 31.9199, 7.81494, 1.92096, 3.87607, -0.0557752, -0.00231304, -0.0014662, 0.00337387, 0.0111245, -0.0102905, 0.00211152, 0.0362459, -0.0226731, -0.0061793, -0.0668155, 0.148745, 0.0240896, 0.470987, -0.541816, 0.336299, -2.0827, -2.16553, -0.130003, 0.469482, -0.543638, 0.332652, -2.08424, -2.16478, -0.107012, -0.000708374, 0.0379402, 0.00957429, 0.0230155, 0.00405569, -0.0028772
0.132077, 1.6954, -1.22799, -1.54177, -0.900988, -1.20577, 1.22784, -1.30252, 0.0647997, 0.00139868, -0.00162903, -0.00514305, -0.138655, 0.00300363, 0.000957318, -1.22613, 64.7394, 31.9953, 7.89032, 1.90265, 3.87607, -0.0557752, -0.00235101, -0.00144801, 0.00338163, 0.0111916, -0.0104304, 0.00210434, 0.0372133, -0.0215928, -0.00675313, -0.0686791, 0.147745, 0.0232694, 0.470986, -0.541778, 0.336308, -2.08267, -2.16552, -0.130006, 0.469501, -0.543635, 0.332647, -2.08424, -2.16483, -0.106799, -0.000725657, 0.0385162, 0.00971358, 0.0219333, 0.00372144, -0.00342315
0.133077, 1.69546, -1.22799, -1.54177, -0.900994, -1.20591, 1.22784, -1.30252, 0.06268, 0.00186641, -0.00124297, -0.00368778, -0.13702, 0.00323965, -0.000345132, -1.30151, 64.6997, 31.9953, 7.89032, 1.89624, 3.84768, -0.0292249, -0.00238848, -0.00142534, 0.00338799, 0.0112487, -0.0105735, 0.00208865, 0.0387555, -0.0203605, -0.00605536, -0.0662164, 0.147166, 0.0219634, 0.470985, -0.541739, 0.336318, -2.08264, -2.16551, -0.130009, 0.469524, -0.543632, 0.332644, -2.08423, -2.1649, -0.106595, -0.000743204, 0.0390957, 0.00985355, 0.0207667, 0.00262018, -0.00279806
0.134077, 1.69553, -1.22799, -1.54177, -0.900998, -1.20605, 1.22784, -1.30253, 0.065827, 0.00124872, 0.000816876, -0.00484024, -0.140579, 0.00284185, -0.00168815, -1.45226, 64.6997, 31.9199, 7.85065, 1.89624, 3.83304, 0.0101428, -0.00242318, -0.00140051, 0.00339266, 0.011307, -0.0107148, 0.00206241, 0.0379067, -0.0222896, -0.00608385, -0.0673651, 0.149772, 0.0272725, 0.470985, -0.5417, 0.336328, -2.08262, -2.1655, -0.130011, 0.469549, -0.543625, 0.332643, -2.08422, -2.16497, -0.106392, -0.000761018, 0.0396786, 0.00999418, 0.0226438, 0.00412564, -0.0026135
0.135077, 1.69559, -1.22799, -1.54176, -0.901007, -1.2062, 1.22785, -1.30253, 0.0653811, -9.22056e-05, 0.00129152, -0.00777417, -0.138446, 0.00305038, -0.000142089, -1.48797, 64.7394, 31.8842, 7.89032, 1.89624, 3.80466, -0.0164075, -0.00246348, -0.00138116, 0.00340047, 0.0113661, -0.0108546, 0.00205719, 0.0374638, -0.0230838, -0.00712225, -0.0670753, 0.147448, 0.0288751, 0.470984, -0.541661, 0.336338, -2.08259, -2.1655, -0.130014, 0.469568, -0.543623, 0.332639, -2.08422, -2.16503, -0.106188, -0.000779099, 0.0402649, 0.0101355, 0.0233649, 0.00534316, -0.00345379
0.136077, 1.69565, -1.22799, -1.54176, -0.901016, -1.20634, 1.22785, -1.30253, 0.062709, 0.00170427, 0.00172282, -0.00751787, -0.141179, 0.00289198, 0.000142633, -1.56335, 64.664, 31.8445, 7.9657, 1.87244, 3.7836, -0.0228162, -0.00250284, -0.00135982, 0.00340442, 0.0114246, -0.0110047, 0.00204264, 0.0395969, -0.0212282, -0.00578045, -0.0672968, 0.15168, 0.0250171, 0.470983, -0.54162, 0.336348, -2.08256, -2.16549, -0.130017, 0.46959, -0.54362, 0.332638, -2.08422, -2.1651, -0.105975, -0.00079745, 0.0408545, 0.0102774, 0.02162, 0.00354326, -0.00226403
0.137077, 1.69572, -1.22799, -1.54176, -0.901025, -1.20649, 1.22786, -1.30252, 0.061834, 0.000302838, 0.000170864, -0.00627602, -0.147128, 0.00307193, 0.00155315, -1.6784, 64.6997, 31.8842, 8.0014, 1.8349, 3.7543, -0.0621838, -0.00254434, -0.00133893, 0.00341367, 0.0114868, -0.0111489, 0.00203543, 0.0426075, -0.019567, -0.00694314, -0.070539, 0.155649, 0.0190019, 0.470982, -0.541579, 0.336358, -2.08253, -2.16548, -0.13002, 0.469611, -0.543618, 0.332632, -2.08423, -2.16515, -0.105763, -0.000816072, 0.0414475, 0.01042, 0.0200086, 0.00127619, -0.00368924
0.138077, 1.69578, -1.22799, -1.54175, -0.901033, -1.20664, 1.22786, -1.30252, 0.0619234, 0.000203299, 0.00360314, -0.00846248, -0.147124, 0.00341453, 0.000798075, -1.82915, 64.6997, 31.7335, 8.03711, 1.80469, 3.7186, -0.0557752, -0.00258311, -0.00131495, 0.0034173, 0.0115391, -0.011297, 0.00201967, 0.0418628, -0.0207824, -0.00611169, -0.0681569, 0.156122, 0.0234484, 0.470982, -0.541538, 0.336369, -2.0825, -2.16547, -0.130023, 0.469636, -0.543613, 0.332632, -2.08423, -2.16522, -0.105559, -0.000834967, 0.0420438, 0.0105633, 0.0212074, 0.00252973, -0.00264753
0.139077, 1.69584, -1.22799, -1.54175, -0.90104, -1.20679, 1.22786, -1.30253, 0.0632921, 0.000971806, 0.00320938, -0.00614304, -0.147099, 0.00258074, -0.00143464, -1.90453, 64.664, 31.6977, 8.03711, 1.77356, 3.71127, -0.00267457, -0.00262629, -0.00129506, 0.00342197, 0.0115972, -0.0114484, 0.00200654, 0.0424745, -0.0207961, -0.00566305, -0.0681486, 0.156741, 0.0248356, 0.470981, -0.541496, 0.336379, -2.08247, -2.16546, -0.130026, 0.469656, -0.543612, 0.332631, -2.08423, -2.16529, -0.105346, -0.000854135, 0.0426434, 0.0107072, 0.0212408, 0.00245712, -0.00215788
0.140077, 1.69591, -1.22799, -1.54173, -0.901051, -1.20694, 1.22787, -1.30252, 0.0619533, 0.000648662, 0.00648033, -0.00623463, -0.147273, 0.00252522, 0.00124762, -2.01562, 64.664, 31.5113, 8.11249, 1.74335, 3.69021, -0.0621838, -0.00266711, -0.0012718, 0.00342546, 0.0116445, -0.0115966, 0.00199569, 0.0430382, -0.0206207, -0.00468984, -0.0651346, 0.15673, 0.0224607, 0.47098, -0.541453, 0.33639, -2.08244, -2.16545, -0.130029, 0.46968, -0.543608, 0.332631, -2.08424, -2.16536, -0.105147, -0.000873578, 0.0432462, 0.0108517, 0.0211028, 0.00234617, -0.00113643
0.141077, 1.69596, -1.22798, -1.54173, -0.901061, -1.20709, 1.22787, -1.30253, 0.062359, 0.00210347, 0.00430451, -0.00620168, -0.148666, 0.00678778, -0.000863673, -2.05529, 64.5926, 31.5113, 8.18787, 1.74884, 3.68289, -0.0164075, -0.00271321, -0.00125591, 0.00342919, 0.0117105, -0.0117537, 0.00198747, 0.0445216, -0.0210528, -0.00428072, -0.0637859, 0.162016, 0.0234844, 0.470979, -0.54141, 0.336401, -2.08241, -2.16544, -0.130032, 0.469696, -0.543609, 0.33263, -2.08424, -2.16542, -0.104918, -0.000893298, 0.0438524, 0.0109968, 0.0215837, 0.00144313, -0.000833721
0.142077, 1.69602, -1.22798, -1.54173, -0.901066, -1.20725, 1.22788, -1.30252, 0.0638105, 0.003166, 0.00285789, -0.00434598, -0.154228, 0.00575416, 0.000136295, -2.13067, 64.5172, 31.5113, 8.18787, 1.73694, 3.66092, -0.0356336, -0.00276061, -0.00123654, 0.00343294, 0.011768, -0.0119164, 0.00198554, 0.0462445, -0.0203572, -0.00409466, -0.0676504, 0.167551, 0.0197518, 0.470978, -0.541366, 0.336412, -2.08237, -2.16543, -0.130036, 0.469716, -0.543611, 0.332629, -2.08426, -2.16548, -0.104692, -0.000913297, 0.0444617, 0.0111426, 0.0209385, 0.000294737, -0.00075328
0.143077, 1.69608, -1.22798, -1.54173, -0.90108, -1.2074, 1.22788, -1.30252, 0.0636023, 0.00127578, 0.00189642, -0.0079909, -0.152957, 0.00465611, 0.00131157, -2.28143, 64.5529, 31.5113, 8.26324, 1.71863, 3.64718, -0.0685925, -0.0028056, -0.00121665, 0.00344302, 0.0118354, -0.0120655, 0.00197764, 0.0458979, -0.0208637, -0.00618546, -0.0705653, 0.164925, 0.0216177, 0.470977, -0.541322, 0.336423, -2.08234, -2.16542, -0.130039, 0.469736, -0.543608, 0.332623, -2.08426, -2.16554, -0.10447, -0.000933575, 0.0450743, 0.0112889, 0.0213345, 0.00159491, -0.0026339
0.144077, 1.69614, -1.22797, -1.54173, -0.901087, -1.20756, 1.22788, -1.30252, 0.061479, 0.00344923, 0.00218567, -0.00888602, -0.153475, 0.00438877, 0.0013491, -2.3568, 64.4418, 31.4716, 8.26324, 1.73694, 3.6188, -0.0814099, -0.00285454, -0.00119936, 0.0034432, 0.0118938, -0.0122344, 0.00197745, 0.0470191, -0.019774, -0.00487528, -0.0705597, 0.167813, 0.0202225, 0.470976, -0.541277, 0.336434, -2.08231, -2.16541, -0.130042, 0.469754, -0.543611, 0.332626, -2.08428, -2.1656, -0.104237, -0.000954135, 0.0456901, 0.0114359, 0.0203151, 0.000856317, -0.00133639
0.145077, 1.6962, -1.22797, -1.54173, -0.901104, -1.20772, 1.22789, -1.30252, 0.0599605, 0.00229967, 0.00228736, -0.00907456, -0.14773, 0.00337226, 0.00018732, -2.43218, 64.4418, 31.4359, 8.37433, 1.72504, 3.61148, -0.0621838, -0.00290152, -0.00118007, 0.00345032, 0.0119555, -0.0123899, 0.00196473, 0.0471168, -0.0194638, -0.00561692, -0.0685211, 0.16185, 0.0220808, 0.470975, -0.541231, 0.336446, -2.08228, -2.1654, -0.130045, 0.469774, -0.543609, 0.332622, -2.08428, -2.16567, -0.104015, -0.000974976, 0.0463091, 0.0115835, 0.0199608, 0.00148146, -0.00192809
0.146077, 1.69626, -1.22797, -1.54172, -0.901113, -1.20787, 1.22789, -1.30252, 0.0635339, 0.00320369, 0.0023564, -0.0126774, -0.148526, 0.0026508, -0.00109582, -2.58294, 64.3704, 31.4002, 8.37433, 1.71863, 3.60415, -0.0292249, -0.00294891, -0.00115965, 0.00345324, 0.0120131, -0.0125525, 0.00195548, 0.0450865, -0.0220557, -0.00584737, -0.0714775, 0.163948, 0.0298412, 0.470974, -0.541185, 0.336457, -2.08224, -2.16539, -0.130049, 0.469795, -0.543608, 0.332623, -2.08429, -2.16574, -0.10379, -0.000996102, 0.0469312, 0.0117316, 0.0224463, 0.00425156, -0.00177178
0.147077, 1.69632, -1.22796, -1.54172, -0.901112, -1.20802, 1.2279, -1.30252, 0.0596566, 0.00297112, 0.000732916, -0.00668148, -0.148897, 0.00797802, -0.000730549, -2.58294, 64.3347, 31.4359, 8.26324, 1.71222, 3.56845, -0.0292249, -0.00300407, -0.00114663, 0.00345826, 0.0120676, -0.0127073, 0.00196281, 0.0502041, -0.0191817, -0.00510035, -0.0649314, 0.166526, 0.0195784, 0.470973, -0.541138, 0.336469, -2.08221, -2.16538, -0.130052, 0.469809, -0.543615, 0.332621, -2.08431, -2.16579, -0.103575, -0.00101751, 0.0475565, 0.0118804, 0.0197682, -0.000409022, -0.00159806
0.148077, 1.69638, -1.22796, -1.54172, -0.901126, -1.20817, 1.2279, -1.30252, 0.0595742, 0.00290884, 0.00224975, -0.00901399, -0.150377, 0.0052831, -0.000487032, -2.69799, 64.295, 31.3605, 8.29895, 1.71863, 3.58218, -0.0292249, -0.00304964, -0.00112549, 0.00346356, 0.0121288, -0.0128603, 0.00195055, 0.0498995, -0.0192681, -0.00519238, -0.0675783, 0.16691, 0.0215517, 0.470972, -0.54109, 0.336481, -2.08218, -2.16537, -0.130056, 0.46983, -0.54361, 0.33262, -2.08431, -2.16585, -0.103356, -0.00103921, 0.0481849, 0.0120297, 0.0198186, 0.0005385, -0.0014962
0.149077, 1.69643, -1.22796, -1.54172, -0.901138, -1.20832, 1.2279, -1.30252, 0.0558088, 0.00277451, 0.00278926, -0.00985546, -0.149802, 0.00360559, 0.00581559, -2.65832, 64.2593, 31.4359, 8.29895, 1.70032, 3.58951, -0.0685925, -0.00310357, -0.00111173, 0.00347143, 0.0121876, -0.0130114, 0.00195776, 0.0515832, -0.017195, -0.00519064, -0.067959, 0.165871, 0.0127507, 0.470971, -0.541042, 0.336493, -2.08214, -2.16536, -0.130059, 0.469845, -0.543613, 0.332615, -2.08432, -2.1659, -0.10314, -0.0010612, 0.0488164, 0.0121795, 0.0177878, -0.000577821, -0.00154518
0.150077, 1.69649, -1.22796, -1.54172, -0.901151, -1.20846, 1.22791, -1.30251, 0.0550835, 0.00268493, 0.00211285, -0.0113965, -0.146861, 0.00294108, 0.00474196, -2.69799, 64.2236, 31.4359, 8.33862, 1.71222, 3.58218, -0.0814099, -0.00315217, -0.0010906, 0.0034782, 0.0122443, -0.013165, 0.00195085, 0.0515987, -0.0172253, -0.00576907, -0.0682542, 0.163653, 0.0151636, 0.47097, -0.540993, 0.336505, -2.08211, -2.16535, -0.130063, 0.469866, -0.54361, 0.332612, -2.08433, -2.16596, -0.102926, -0.00108347, 0.049451, 0.01233, 0.0177752, 0.000133032, -0.00197072
0.151077, 1.69654, -1.22795, -1.54172, -0.901161, -1.20861, 1.22791, -1.30251, 0.0545736, 0.00355323, 0.000763352, -0.0116337, -0.148189, 0.00216029, 0.00152117, -2.7337, 64.1483, 31.4716, 8.33862, 1.71863, 3.58218, -0.0292249, -0.00320491, -0.00107435, 0.0034852, 0.0123055, -0.0133186, 0.00194406, 0.0527901, -0.0164431, -0.00584294, -0.0705724, 0.165754, 0.0170197, 0.470969, -0.540944, 0.336517, -2.08207, -2.16534, -0.130066, 0.469883, -0.543611, 0.332609, -2.08433, -2.16602, -0.102706, -0.00110604, 0.0500886, 0.012481, 0.0170123, -0.000425778, -0.00205633
0.152077, 1.6966, -1.22795, -1.54172, -0.901168, -1.20876, 1.22792, -1.30251, 0.049347, 0.00320406, 0.00232184, -0.0100843, -0.145232, 0.00158987, 0.00123359, -2.69799, 64.1125, 31.4002, 8.26324, 1.74884, 3.58218, -0.0292249, -0.00325887, -0.00105897, 0.00348752, 0.0123526, -0.013471, 0.00194429, 0.0552905, -0.0136693, -0.00511498, -0.0667106, 0.162716, 0.0125606, 0.470968, -0.540894, 0.33653, -2.08203, -2.16533, -0.13007, 0.469899, -0.543613, 0.33261, -2.08435, -2.16607, -0.102502, -0.0011289, 0.0507293, 0.0126325, 0.0143376, -0.00248076, -0.00149281
0.153077, 1.69665, -1.22794, -1.54172, -0.901183, -1.2089, 1.22792, -1.30252, 0.0504289, 0.00473452, -0.000943684, -0.011598, -0.143089, 0.00479149, 0.000749645, -2.7337, 64.0015, 31.5113, 8.29895, 1.77997, 3.61148, -0.0228162, -0.00331198, -0.00104325, 0.00349261, 0.0124187, -0.013632, 0.00194064, 0.0554652, -0.0148403, -0.00539997, -0.0663969, 0.164927, 0.0146424, 0.470967, -0.540843, 0.336542, -2.082, -2.16532, -0.130073, 0.469915, -0.543613, 0.332609, -2.08435, -2.16613, -0.10227, -0.00115205, 0.051373, 0.0127846, 0.01548, -0.001916, -0.0016875
0.154077, 1.6967, -1.22794, -1.54172, -0.90119, -1.20905, 1.22792, -1.30251, 0.04827, 0.00232114, 0.000379056, -0.0102042, -0.145795, 0.00421309, 0.00279336, -2.65832, 64.0372, 31.4716, 8.22754, 1.79187, 3.59683, -0.0814099, -0.00337047, -0.00103051, 0.00350104, 0.0124716, -0.0137799, 0.00195231, 0.0579241, -0.0131823, -0.00613523, -0.0660758, 0.164639, 0.00906483, 0.470966, -0.540792, 0.336555, -2.08196, -2.16531, -0.130077, 0.469929, -0.543618, 0.332604, -2.08437, -2.16617, -0.102063, -0.0011755, 0.0520197, 0.0129373, 0.0138631, -0.00365061, -0.0025957
0.155077, 1.69675, -1.22794, -1.54172, -0.901211, -1.2092, 1.22792, -1.3025, 0.0508178, 0.00321787, 0.000312823, -0.01351, -0.147531, 0.00235209, 0.00219219, -2.62261, 63.9658, 31.4716, 8.33862, 1.80469, 3.6188, -0.0878186, -0.00342344, -0.00101437, 0.00350724, 0.0125356, -0.0139363, 0.00194791, 0.0565626, -0.0147929, -0.00641769, -0.0702685, 0.166904, 0.0144814, 0.470965, -0.54074, 0.336568, -2.08192, -2.1653, -0.130081, 0.469945, -0.543616, 0.332602, -2.08438, -2.16623, -0.101837, -0.00119924, 0.0526694, 0.0130904, 0.0153883, -0.00154552, -0.00256017
0.156077, 1.6968, -1.22793, -1.54172, -0.901218, -1.20934, 1.22792, -1.3025, 0.0517159, 0.00307328, 0.00108886, -0.0082464, -0.143904, 0.00183594, 0.00129355, -2.65832, 63.9261, 31.4359, 8.26324, 1.79828, 3.6188, -0.0814099, -0.0034776, -0.000998496, 0.00351149, 0.01259, -0.0140849, 0.00194529, 0.0574701, -0.0145728, -0.00565222, -0.0658929, 0.163489, 0.0132697, 0.470963, -0.540687, 0.336581, -2.08189, -2.16528, -0.130085, 0.469962, -0.543616, 0.332601, -2.08438, -2.16628, -0.10163, -0.00122328, 0.0533221, 0.0132441, 0.0152064, -0.00191589, -0.00178786
0.157077, 1.69686, -1.22792, -1.54172, -0.901238, -1.20949, 1.22792, -1.30251, 0.0530546, 0.00455451, 0.00075972, -0.0102593, -0.140936, 0.00169613, -0.00101833, -2.7337, 63.819, 31.4359, 8.29895, 1.80469, 3.61148, -0.0292249, -0.00352813, -0.000977949, 0.00351646, 0.0126516, -0.0142422, 0.00192465, 0.0562813, -0.0160032, -0.00530942, -0.0658094, 0.163176, 0.0195158, 0.470962, -0.540634, 0.336594, -2.08185, -2.16527, -0.130089, 0.469983, -0.543611, 0.332601, -2.08437, -2.16636, -0.101408, -0.00124762, 0.0539777, 0.0133983, 0.0165806, -7.98659e-05, -0.00115552
0.158077, 1.69691, -1.22792, -1.54171, -0.901252, -1.20963, 1.22791, -1.30251, 0.0505653, 0.00396436, 0.00136706, -0.0130078, -0.140746, 0.00101017, -0.0013519, -2.65832, 63.7793, 31.4002, 8.26324, 1.81018, 3.6188, -0.00999879, -0.00358691, -0.000966065, 0.00352148, 0.0127054, -0.014393, 0.00192462, 0.0570699, -0.0152368, -0.00579661, -0.0666106, 0.162684, 0.0202096, 0.470961, -0.54058, 0.336608, -2.08181, -2.16526, -0.130092, 0.469995, -0.543613, 0.3326, -2.08437, -2.16641, -0.101199, -0.00127226, 0.0546363, 0.013553, 0.0158015, -0.000155288, -0.0015832
0.159077, 1.69695, -1.22792, -1.54171, -0.901268, -1.20977, 1.22791, -1.3025, 0.0496008, 0.00347813, 0.00314581, -0.016105, -0.138079, 0.000786456, 0.000552182, -2.62261, 63.7436, 31.4359, 8.26324, 1.79828, 3.6188, -0.0484509, -0.00364596, -0.000953611, 0.00352812, 0.012764, -0.0145458, 0.00193335, 0.0563858, -0.0159776, -0.00590874, -0.0651977, 0.160522, 0.0218659, 0.47096, -0.540525, 0.336621, -2.08177, -2.16525, -0.130096, 0.470008, -0.543615, 0.332597, -2.08439, -2.16645, -0.100982, -0.0012972, 0.0552977, 0.0137082, 0.0164877, 0.00123037, -0.00145651
0.160077, 1.697, -1.22791, -1.54171, -0.901281, -1.20992, 1.22791, -1.3025, 0.0489108, 0.00808144, 0.00412893, -0.0166275, -0.14211, 0.000609062, 0.000152735, -2.58294, 63.6325, 31.3605, 8.18787, 1.81018, 3.6188, -0.0420422, -0.00370518, -0.00094096, 0.00352876, 0.0128134, -0.0147039, 0.00193508, 0.0573628, -0.0153104, -0.00291945, -0.0659458, 0.168756, 0.0210931, 0.470958, -0.54047, 0.336635, -2.08173, -2.16524, -0.1301, 0.470022, -0.543618, 0.332601, -2.08441, -2.16651, -0.10077, -0.00132244, 0.0559621, 0.013864, 0.0159439, 0.00043895, 0.00151596
0.161077, 1.69704, -1.22791, -1.54171, -0.901297, -1.21006, 1.22791, -1.3025, 0.0454831, 0.00388808, 0.00202596, -0.0149822, -0.144546, 0.000740877, 0.00110165, -2.54723, 63.7079, 31.4002, 8.15216, 1.81659, 3.61148, -0.0685925, -0.0037673, -0.000929537, 0.00353783, 0.0128702, -0.0148539, 0.00194182, 0.0613795, -0.0124687, -0.00575012, -0.0677393, 0.166988, 0.0136484, 0.470957, -0.540414, 0.336649, -2.08169, -2.16522, -0.130104, 0.470033, -0.543621, 0.332595, -2.08442, -2.16655, -0.100558, -0.00134799, 0.0566293, 0.0140202, 0.0131213, -0.00253658, -0.00166471
0.162077, 1.69709, -1.2279, -1.5417, -0.901321, -1.21021, 1.22792, -1.3025, 0.0459047, 0.00371784, 0.00150167, -0.0185445, -0.147015, 3.29678e-05, -0.000473912, -2.50756, 63.6682, 31.4002, 8.18787, 1.84131, 3.62521, -0.0356336, -0.00382687, -0.000915509, 0.00354392, 0.0129274, -0.0150118, 0.00193374, 0.0613665, -0.01301, -0.00664341, -0.0715695, 0.169346, 0.0177381, 0.470956, -0.540357, 0.336663, -2.08165, -2.16521, -0.130108, 0.470048, -0.543622, 0.332593, -2.08442, -2.16661, -0.100339, -0.00137384, 0.0572994, 0.0141769, 0.0136026, -0.00169154, -0.00240673
0.163077, 1.69713, -1.22789, -1.5417, -0.901348, -1.21036, 1.22792, -1.3025, 0.046444, 0.00513253, 0.0020424, -0.021962, -0.148026, 0.000295095, -6.93127e-05, -2.47185, 63.5611, 31.3605, 8.26324, 1.84131, 3.6188, -0.0420422, -0.00388442, -0.000900509, 0.00354645, 0.0129861, -0.0151749, 0.00192528, 0.060789, -0.0140878, -0.0061329, -0.0727379, 0.172502, 0.0208004, 0.470954, -0.5403, 0.336677, -2.08161, -2.1652, -0.130113, 0.470064, -0.54362, 0.332596, -2.08442, -2.16668, -0.100113, -0.0014, 0.0579723, 0.0143341, 0.0146514, -0.000482269, -0.00169087
0.164077, 1.69718, -1.2279, -1.54169, -0.90136, -1.2105, 1.22791, -1.3025, 0.0475484, 0.00269772, 0.00311699, -0.0159362, -0.149437, -1.38112e-05, -0.00149732, -2.47185, 63.5968, 31.2891, 8.11249, 1.85962, 3.62521, -0.00267457, -0.00394654, -0.000887336, 0.00355227, 0.0130329, -0.0153222, 0.00192468, 0.0630226, -0.0133788, -0.00648148, -0.0701331, 0.170968, 0.018169, 0.470953, -0.540242, 0.336692, -2.08157, -2.16519, -0.130117, 0.470077, -0.543622, 0.332594, -2.08442, -2.16673, -0.0999156, -0.00142646, 0.058648, 0.0144917, 0.0139857, -0.00198571, -0.00220739
0.165077, 1.69722, -1.22789, -1.54169, -0.901389, -1.21064, 1.22791, -1.3025, 0.0473787, 0.00364515, 0.00352792, -0.0233397, -0.14497, 1.09059e-05, 0.000702423, -2.43218, 63.5214, 31.3605, 8.18787, 1.85962, 3.62521, -0.0484509, -0.00400708, -0.000873979, 0.00355887, 0.0130952, -0.0154816, 0.00192459, 0.0605509, -0.0155147, -0.00685195, -0.0708688, 0.169415, 0.0240175, 0.470951, -0.540183, 0.336706, -2.08153, -2.16517, -0.130121, 0.470091, -0.543621, 0.332592, -2.08443, -2.16678, -0.0996887, -0.00145324, 0.0593266, 0.0146499, 0.0159885, 0.00127988, -0.00209646
0.166077, 1.69726, -1.22788, -1.54168, -0.901406, -1.21078, 1.22791, -1.3025, 0.0482527, 0.00416311, 0.00348967, -0.0201839, -0.136553, 0.000259715, 0.000234834, -2.43218, 63.45, 31.3248, 8.03711, 1.8349, 3.6188, -0.0420422, -0.00406881, -0.00086086, 0.00356106, 0.0131404, -0.0156333, 0.00192276, 0.0601144, -0.0162806, -0.00622855, -0.0652366, 0.163375, 0.0254099, 0.47095, -0.540124, 0.336721, -2.08148, -2.16516, -0.130125, 0.470105, -0.543622, 0.332594, -2.08444, -2.16684, -0.0994889, -0.00148032, 0.0600079, 0.0148084, 0.0167343, 0.00232795, -0.00128021
0.167077, 1.69729, -1.22787, -1.54168, -0.901435, -1.21092, 1.22791, -1.3025, 0.0431192, 0.00942273, 0.00255332, -0.0258194, -0.135363, -5.29021e-05, 0.000905474, -2.3211, 63.3032, 31.3248, 8.07678, 1.8349, 3.62521, -0.0621838, -0.00413243, -0.00085195, 0.00356023, 0.013192, -0.0157961, 0.00192543, 0.0608661, -0.0144747, -0.0040341, -0.0670241, 0.168368, 0.0244824, 0.470949, -0.540064, 0.336735, -2.08144, -2.16515, -0.130129, 0.470115, -0.543624, 0.3326, -2.08445, -2.16689, -0.0992702, -0.00150772, 0.0606919, 0.0149675, 0.0150138, 0.00185391, 0.000981583
0.168077, 1.69734, -1.22786, -1.54166, -0.901455, -1.21105, 1.22791, -1.3025, 0.0388475, 0.00834415, 0.00666596, -0.0231418, -0.134392, 0.000210576, 0.000605849, -2.3211, 63.2278, 31.2494, 7.9657, 1.81018, 3.6188, -0.0621838, -0.00419475, -0.000839278, 0.00356044, 0.0132378, -0.015952, 0.00192222, 0.0633383, -0.0123831, -0.00265245, -0.0607872, 0.166432, 0.0205639, 0.470947, -0.540003, 0.33675, -2.0814, -2.16513, -0.130134, 0.470128, -0.543624, 0.332604, -2.08446, -2.16695, -0.0990655, -0.00153542, 0.0613787, 0.015127, 0.0130399, -0.000201037, 0.00218048
0.169077, 1.69737, -1.22785, -1.54166, -0.901486, -1.21119, 1.22791, -1.3025, 0.0379232, 0.00578708, 0.00482412, -0.0248379, -0.133768, -0.000361878, 0.00340156, -2.28143, 63.2278, 31.2494, 8.0014, 1.80469, 3.63254, -0.0164075, -0.00425786, -0.000828014, 0.00356512, 0.0132892, -0.0161029, 0.00191134, 0.0643947, -0.0119342, -0.00509346, -0.063317, 0.163848, 0.0177833, 0.470946, -0.539942, 0.336766, -2.08135, -2.16512, -0.130138, 0.47014, -0.543624, 0.332604, -2.08445, -2.16702, -0.0988607, -0.00156344, 0.0620682, 0.0152869, 0.0125111, -0.000192446, -0.000223065
0.170077, 1.69741, -1.22784, -1.54166, -0.901512, -1.21133, 1.22791, -1.3025, 0.0370628, 0.0096658, 0.00406821, -0.0264563, -0.137991, -0.000236479, 0.00215127, -2.24175, 63.1168, 31.3605, 7.92602, 1.80469, 3.63254, -0.00267457, -0.00432506, -0.000818541, 0.00356691, 0.0133411, -0.0162671, 0.00191657, 0.0656503, -0.011157, -0.00325733, -0.0659651, 0.171892, 0.0177846, 0.470944, -0.53988, 0.336781, -2.08131, -2.16511, -0.130143, 0.47015, -0.543627, 0.332607, -2.08447, -2.16707, -0.0986402, -0.00159178, 0.0627604, 0.0154473, 0.0118221, -0.00105707, 0.00157478
0.171077, 1.69743, -1.22783, -1.54165, -0.901546, -1.21147, 1.22791, -1.30249, 0.0316368, 0.00819243, 0.00635399, -0.0304066, -0.142078, 0.000117194, 0.00318638, -2.13067, 63.1921, 31.3605, 7.9657, 1.823, 3.62521, -0.0420422, -0.00439336, -0.00081127, 0.00357286, 0.0133931, -0.0164208, 0.00192281, 0.068112, -0.00903427, -0.00357569, -0.0665534, 0.174466, 0.0146646, 0.470942, -0.539817, 0.336796, -2.08126, -2.16509, -0.130147, 0.470158, -0.543631, 0.332605, -2.08448, -2.16711, -0.0984301, -0.00162043, 0.0634553, 0.0156081, 0.00975219, -0.00283043, 0.0010993
0.172077, 1.69747, -1.22783, -1.54163, -0.901575, -1.21161, 1.22791, -1.30249, 0.0351456, 0.00905437, 0.00897841, -0.0274648, -0.140315, -0.00046172, 0.00285349, -2.20605, 63.1921, 31.3248, 7.89032, 1.8349, 3.63986, -0.0557752, -0.00445626, -0.000796763, 0.00357469, 0.0134399, -0.0165775, 0.00191444, 0.067102, -0.0108946, -0.0020218, -0.0628446, 0.173772, 0.0177361, 0.470941, -0.539753, 0.336812, -2.08122, -2.16508, -0.130152, 0.470173, -0.543628, 0.332609, -2.08448, -2.16718, -0.0982243, -0.00164939, 0.0641529, 0.0157694, 0.0116035, -0.00129928, 0.00289194
0.173077, 1.6975, -1.22781, -1.54162, -0.901609, -1.21175, 1.22791, -1.30249, 0.030869, 0.0107051, 0.0122017, -0.0302871, -0.139162, 0.000745361, 0.00155916, -2.13067, 63.1564, 31.3605, 7.89032, 1.85962, 3.61148, -0.0420422, -0.00452427, -0.000787486, 0.00357532, 0.0134852, -0.0167402, 0.00191126, 0.0679556, -0.0100219, -1.8766e-05, -0.0588208, 0.175444, 0.0192194, 0.470939, -0.539689, 0.336828, -2.08117, -2.16506, -0.130156, 0.470183, -0.543631, 0.332613, -2.08449, -2.16724, -0.0980135, -0.00167868, 0.0648531, 0.015931, 0.0108101, -0.00178942, 0.00492172
0.174077, 1.69753, -1.2278, -1.54161, -0.901647, -1.21188, 1.22791, -1.3025, 0.0311125, 0.0137692, 0.0082875, -0.0354269, -0.138419, 0.000769685, -0.000294534, -2.05529, 63.0453, 31.4002, 7.89032, 1.87244, 3.60415, -0.00267457, -0.00459006, -0.000777555, 0.00357303, 0.0135287, -0.0169012, 0.00190106, 0.0674331, -0.0106541, -0.000352821, -0.0639144, 0.179138, 0.0241878, 0.470937, -0.539624, 0.336844, -2.08113, -2.16505, -0.130161, 0.470194, -0.543631, 0.33262, -2.08449, -2.16731, -0.0978074, -0.00170828, 0.065556, 0.0160931, 0.011381, -0.000491711, 0.00481369
0.175077, 1.69755, -1.22779, -1.5416, -0.901684, -1.21201, 1.22791, -1.3025, 0.028049, 0.0131839, 0.00633581, -0.0352204, -0.137105, 0.000514256, 0.000405339, -1.97991, 63.0453, 31.4002, 7.85065, 1.89075, 3.60415, -0.0164075, -0.00465777, -0.000769021, 0.0035734, 0.0135672, -0.0170524, 0.00189804, 0.0697527, -0.00865489, -0.00126679, -0.0645703, 0.177851, 0.0198516, 0.470936, -0.539559, 0.33686, -2.08108, -2.16503, -0.130166, 0.470203, -0.543631, 0.332625, -2.08449, -2.16737, -0.0976159, -0.0017382, 0.0662614, 0.0162556, 0.00940567, -0.00201654, 0.0037701
0.176077, 1.69757, -1.22778, -1.54159, -0.901725, -1.21213, 1.22791, -1.30249, 0.0267625, 0.00885035, 0.00702592, -0.0359485, -0.132876, 0.000614954, 0.000814745, -1.94024, 63.0811, 31.4359, 7.85065, 1.89624, 3.59683, -0.0292249, -0.00472437, -0.000758098, 0.00357726, 0.0136095, -0.017201, 0.00189281, 0.0702713, -0.00880076, -0.00367249, -0.062286, 0.170597, 0.0207124, 0.470934, -0.539493, 0.336876, -2.08103, -2.16502, -0.13017, 0.470214, -0.54363, 0.332626, -2.08449, -2.16743, -0.0974233, -0.00176845, 0.0669695, 0.0164185, 0.00944994, -0.00143869, 0.0014697
0.177077, 1.6976, -1.22777, -1.54158, -0.901761, -1.21225, 1.22791, -1.30249, 0.0296839, 0.00573725, 0.0077277, -0.0338439, -0.128733, -0.00374384, 0.00107023, -1.94024, 63.1168, 31.4716, 7.73956, 1.92096, 3.58218, -0.0420422, -0.00479116, -0.00074751, 0.00357879, 0.0136474, -0.0173466, 0.00188713, 0.069202, -0.00982669, -0.00557211, -0.0630965, 0.162316, 0.0232939, 0.470932, -0.539426, 0.336892, -2.08098, -2.165, -0.130175, 0.470226, -0.543628, 0.33263, -2.08449, -2.16749, -0.0972386, -0.00179901, 0.0676801, 0.0165817, 0.0103337, 0.000667097, -0.000109022
0.178077, 1.69762, -1.22776, -1.54156, -0.901802, -1.21237, 1.22791, -1.30249, 0.0270398, 0.00831976, 0.00994807, -0.039709, -0.129618, -0.0023782, -0.000196684, -1.86486, 63.0811, 31.4359, 7.66418, 1.91546, 3.56845, -0.0164075, -0.00485921, -0.000738077, 0.00357619, 0.0136756, -0.0174966, 0.00187638, 0.0689854, -0.0101606, -0.00385497, -0.0623409, 0.167089, 0.0278567, 0.47093, -0.539358, 0.336909, -2.08094, -2.16499, -0.13018, 0.470236, -0.543627, 0.332638, -2.08449, -2.16756, -0.0970608, -0.0018299, 0.0683933, 0.0167454, 0.0106941, 0.00134117, 0.00177041
0.179077, 1.69764, -1.22775, -1.54154, -0.901847, -1.21249, 1.22791, -1.3025, 0.0260495, 0.00757619, 0.01197, -0.0419113, -0.125742, -0.00214994, -0.00132238, -1.82915, 63.1564, 31.5113, 7.62848, 1.92096, 3.57577, 0.0165515, -0.00492759, -0.000728913, 0.00358126, 0.0137117, -0.0176336, 0.00186252, 0.0684139, -0.0109577, -0.00387751, -0.0593668, 0.163817, 0.0322661, 0.470929, -0.53929, 0.336926, -2.08089, -2.16497, -0.130185, 0.470245, -0.543625, 0.332639, -2.08448, -2.16762, -0.0968878, -0.00186112, 0.069109, 0.0169095, 0.0114378, 0.00265864, 0.00197417
0.180077, 1.69765, -1.22774, -1.54153, -0.901897, -1.2126, 1.22791, -1.3025, 0.0188663, 0.0106009, 0.0133639, -0.0475364, -0.119084, -0.00165319, -0.0008595, -1.78948, 63.0811, 31.4716, 7.62848, 1.95209, 3.57577, 0.0165515, -0.00499289, -0.000719043, 0.00357624, 0.0137452, -0.0177848, 0.00184676, 0.0688396, -0.00922055, -0.00203138, -0.0557533, 0.162285, 0.0325134, 0.470927, -0.53922, 0.336943, -2.08084, -2.16496, -0.13019, 0.470256, -0.54362, 0.33265, -2.08447, -2.16769, -0.0967035, -0.00189266, 0.0698272, 0.0170739, 0.00975795, 0.00259657, 0.00394625
0.181077, 1.69767, -1.22773, -1.54151, -0.90195, -1.21271, 1.22791, -1.30249, 0.0176773, 0.0100595, 0.0114375, -0.0522654, -0.122497, -0.00126706, 0.00113899, -1.78948, 63.1168, 31.547, 7.66418, 1.97681, 3.57577, -0.0292249, -0.00505841, -0.000706168, 0.00357921, 0.0137785, -0.0179253, 0.00183437, 0.069876, -0.00897498, -0.00361249, -0.0605893, 0.165791, 0.031505, 0.470925, -0.539151, 0.33696, -2.08079, -2.16494, -0.130195, 0.470269, -0.543614, 0.332653, -2.08446, -2.16776, -0.09653, -0.00192452, 0.0705479, 0.0172387, 0.00945964, 0.00253146, 0.00239245
0.182077, 1.69768, -1.22772, -1.54149, -0.901996, -1.21281, 1.22792, -1.30249, 0.0108254, 0.00889653, 0.0140436, -0.0470371, -0.115516, -0.000425864, 0.00100911, -1.6784, 63.1921, 31.5867, 7.59277, 1.9823, 3.56112, -0.0356336, -0.00512983, -0.000699513, 0.00358112, 0.0138021, -0.018058, 0.00182889, 0.0734771, -0.0053785, -0.00230376, -0.0508081, 0.158904, 0.0239333, 0.470923, -0.53908, 0.336977, -2.08074, -2.16492, -0.1302, 0.470276, -0.543613, 0.332657, -2.08446, -2.16781, -0.0963746, -0.00195671, 0.0712712, 0.0174039, 0.00601843, -0.000654139, 0.0033941
0.183077, 1.69769, -1.22771, -1.54147, -0.902051, -1.21292, 1.22791, -1.30249, 0.00892536, 0.0121999, 0.0178971, -0.0480212, -0.111455, -0.000105413, -0.000776008, -1.56335, 63.2278, 31.547, 7.59277, 2.02533, 3.5538, 0.00373412, -0.0051971, -0.000689904, 0.00358152, 0.0138284, -0.0181925, 0.00180578, 0.0728907, -0.00567669, 0.00093303, -0.0449979, 0.159286, 0.0278624, 0.470921, -0.539009, 0.336994, -2.08069, -2.16491, -0.130205, 0.470286, -0.543608, 0.332663, -2.08443, -2.16789, -0.0962161, -0.00198923, 0.0719968, 0.0175694, 0.00638617, 0.000158421, 0.00683442
0.184077, 1.69771, -1.2277, -1.54145, -0.9021, -1.21302, 1.22791, -1.30249, 0.0101882, 0.015485, 0.0202607, -0.0483188, -0.103349, 0.000402681, -0.00051035, -1.56335, 63.2278, 31.6581, 7.44202, 2.05646, 3.53915, 0.00373412, -0.0052664, -0.000681116, 0.00358081, 0.0138535, -0.0183282, 0.00179308, 0.0706358, -0.00782706, 0.00355791, -0.0385884, 0.156595, 0.0329131, 0.470919, -0.538937, 0.337012, -2.08064, -2.16489, -0.13021, 0.470296, -0.543604, 0.33267, -2.08442, -2.16795, -0.0960569, -0.00202208, 0.072725, 0.0177353, 0.00851893, 0.0027933, 0.00987486
0.185077, 1.69772, -1.22769, -1.54143, -0.902167, -1.21311, 1.22791, -1.30249, 0.00710083, 0.0131341, 0.023845, -0.0541168, -0.101734, 0.000724896, -0.000334993, -1.52764, 63.3032, 31.6977, 7.51739, 2.08667, 3.52542, 0.00373412, -0.00533043, -0.000667502, 0.00358367, 0.0138794, -0.0184577, 0.00176142, 0.0702306, -0.00832379, 0.00276723, -0.0367094, 0.153798, 0.0371373, 0.470917, -0.538864, 0.33703, -2.08058, -2.16487, -0.130215, 0.470309, -0.543593, 0.332674, -2.08439, -2.16803, -0.095905, -0.00205526, 0.0734555, 0.0179016, 0.00893789, 0.00406863, 0.00930582
