alisrour97/Franka_experiments/Real_Robot_scripts/servo-franka/Data/log_dyn_INIT0_6.csv
Time,q1,q2,q3,q4,q5,q6,q7,dq1,dq2,dq3,dq4,dq5,dq6,dq7,t1,t2,t3,t4,t5,t6,t7,ex1,ex2,ex3,ex4,ex5,ex6,ev1,ev2,ev3,ev4,ev5,ev6,xd,yd,zd,uxd,uyd,uzd,x,y,z,ux,uy,uz,vxd,vyd,vzd,vx,vy,vz
2.44141e-07, 1.69106, -1.22831, -1.53958, -0.900165, -1.1923, 1.2281, -1.30269, -0.00415985, 0.00117283, -0.00114708, 0.00741322, 0.00160676, 0.0011308, -0.003409, 0.701973, 64.0768, 31.6581, 6.73187, 2.59662, 3.63254, -0.0484509, 0.000199357, -0.0020763, 0.0022939, 0.00242834, 0.00197146, 0.0010028, 0.00400437, 0.00382989, 0.00162073, 0.00499981, -0.000269637, -0.00722349, 0.471008, -0.543389, 0.335894, -2.08385, -2.16584, -0.129887, 0.468847, -0.542919, 0.333715, -2.08259, -2.16271, -0.129078, 1.77043e-06, 3.2e-05, 1.02972e-05, -0.00362149, -0.00432739, 0.00110459
0.0121721, 1.69104, -1.22826, -1.53959, -0.900125, -1.19228, 1.22812, -1.30269, -0.000703739, 0.00579734, -0.00184421, 0.00327964, 0.00615177, 0.00123442, -0.000995446, 0.475838, 64.184, 31.7335, 6.80725, 2.58472, 3.58951, -0.0484509, 0.000183243, -0.00209471, 0.00225828, 0.00237833, 0.00193831, 0.00105585, 0.000104988, 0.000641584, 0.00334336, 0.00448616, 0.00120947, -0.00150247, 0.471008, -0.543389, 0.335894, -2.08385, -2.16584, -0.129887, 0.468828, -0.542947, 0.333755, -2.08271, -2.1627, -0.129105, 1.77746e-06, 6.40623e-05, 1.89552e-05, -0.000514543, -0.000580429, 0.00332331
0.0131721, 1.69104, -1.22826, -1.53959, -0.900125, -1.19228, 1.22812, -1.30269, -0.000703739, 0.00579734, -0.00184421, 0.00327964, 0.00615177, 0.00123442, -0.000995446, 0.475838, 64.184, 31.7335, 6.80725, 2.58472, 3.58951, -0.0484509, 0.000183235, -0.00209471, 0.00225828, 0.00237833, 0.00193831, 0.00105585, 0.000141244, 0.000642733, 0.0033394, 0.00449079, 0.00123601, -0.00149986, 0.471008, -0.543389, 0.335894, -2.08385, -2.16584, -0.129887, 0.468828, -0.542947, 0.333755, -2.08271, -2.1627, -0.129105, 1.77167e-06, 9.92934e-05, 2.84561e-05, -0.000514543, -0.000580429, 0.00332331
0.0141721, 1.69104, -1.22826, -1.53959, -0.900125, -1.19228, 1.22812, -1.30269, -0.000703739, 0.00579734, -0.00184421, 0.00327964, 0.00615177, 0.00123442, -0.000995446, 0.475838, 64.184, 31.7335, 6.80725, 2.58472, 3.58951, -0.0484509, 0.000183215, -0.00209471, 0.00225829, 0.00237832, 0.0019383, 0.00105586, 0.000180889, 0.000643977, 0.00333508, 0.00449589, 0.00126502, -0.001497, 0.471008, -0.543389, 0.335894, -2.08385, -2.16584, -0.129887, 0.468828, -0.542947, 0.333755, -2.08271, -2.1627, -0.129105, 1.75167e-06, 0.000137819, 3.88327e-05, -0.000514543, -0.000580429, 0.00332331
0.0151721, 1.69104, -1.22826, -1.53959, -0.900125, -1.19228, 1.22812, -1.30269, -0.000703739, 0.00579734, -0.00184421, 0.00327964, 0.00615177, 0.00123442, -0.000995446, 0.475838, 64.184, 31.7335, 6.80725, 2.58472, 3.58951, -0.0484509, 0.000183176, -0.00209471, 0.00225829, 0.00237831, 0.00193828, 0.00105587, 0.00022405, 0.000645317, 0.0033304, 0.00450148, 0.00129658, -0.00149388, 0.471008, -0.543389, 0.335894, -2.08385, -2.16584, -0.129887, 0.468828, -0.542947, 0.333755, -2.08271, -2.1627, -0.129105, 1.716e-06, 0.000179762, 5.01169e-05, -0.000514543, -0.000580429, 0.00332331
0.0161721, 1.69104, -1.22826, -1.53959, -0.900125, -1.19228, 1.22812, -1.30269, -0.000703739, 0.00579734, -0.00184421, 0.00327964, 0.00615177, 0.00123442, -0.000995446, 0.475838, 64.184, 31.7335, 6.80725, 2.58472, 3.58951, -0.0484509, 0.000183112, -0.00209471, 0.0022583, 0.00237828, 0.00193825, 0.00105588, 0.000270854, 0.000646757, 0.00332533, 0.00450756, 0.0013308, -0.00149049, 0.471008, -0.543389, 0.335894, -2.08385, -2.16584, -0.129887, 0.468828, -0.542947, 0.333755, -2.08271, -2.1627, -0.129105, 1.66317e-06, 0.000225248, 6.23407e-05, -0.000514543, -0.000580429, 0.00332331
0.0171721, 1.69104, -1.22826, -1.53959, -0.900125, -1.19228, 1.22812, -1.30269, -0.000703739, 0.00579734, -0.00184421, 0.00327964, 0.00615177, 0.00123442, -0.000995446, 0.475838, 64.184, 31.7335, 6.80725, 2.58472, 3.58951, -0.0484509, 0.000183016, -0.00209472, 0.00225831, 0.00237824, 0.0019382, 0.00105591, 0.000321426, 0.000648298, 0.00331987, 0.00451416, 0.00136775, -0.00148684, 0.471008, -0.543389, 0.335894, -2.08385, -2.16584, -0.129887, 0.468828, -0.542947, 0.333755, -2.08271, -2.1627, -0.129105, 1.59159e-06, 0.000274397, 7.55354e-05, -0.000514543, -0.000580429, 0.00332331
0.0181809, 1.69104, -1.22826, -1.53959, -0.900125, -1.19228, 1.22812, -1.30269, -0.000703739, 0.00579734, -0.00184421, 0.00327964, 0.00615177, 0.00123442, -0.000995446, 0.475838, 64.184, 31.7335, 6.80725, 2.58472, 3.58951, -0.0484509, 0.000182882, -0.00209472, 0.00225832, 0.00237819, 0.00193814, 0.00105594, 0.000375889, 0.000649944, 0.003314, 0.00452131, 0.00140753, -0.00148289, 0.471008, -0.543389, 0.335894, -2.08385, -2.16584, -0.129887, 0.468828, -0.542947, 0.333755, -2.08271, -2.1627, -0.129105, 1.49965e-06, 0.00032733, 8.9732e-05, -0.000514543, -0.000580429, 0.00332331
0.0191812, 1.69104, -1.22826, -1.53959, -0.900125, -1.19228, 1.22812, -1.30269, -0.000703739, 0.00579734, -0.00184421, 0.00327964, 0.00615177, 0.00123442, -0.000995446, 0.475838, 64.184, 31.7335, 6.80725, 2.58472, 3.58951, -0.0484509, 0.000182704, -0.00209473, 0.00225834, 0.00237812, 0.00193805, 0.00105598, 0.000434367, 0.000651697, 0.00330772, 0.00452902, 0.00145023, -0.00147865, 0.471008, -0.543389, 0.335894, -2.08385, -2.16584, -0.129887, 0.468828, -0.542947, 0.333755, -2.08271, -2.1627, -0.129105, 1.38564e-06, 0.000384166, 0.000104961, -0.000514543, -0.000580429, 0.00332331
0.0201814, 1.69104, -1.22826, -1.53959, -0.900125, -1.19228, 1.22812, -1.30269, -0.000703739, 0.00579734, -0.00184421, 0.00327964, 0.00615177, 0.00123442, -0.000995446, 0.475838, 64.184, 31.7335, 6.80725, 2.58472, 3.58951, -0.0484509, 0.000182476, -0.00209473, 0.00225837, 0.00237802, 0.00193794, 0.00105604, 0.000496977, 0.000653558, 0.003301, 0.0045373, 0.00149593, -0.00147411, 0.471008, -0.543389, 0.335894, -2.08385, -2.16584, -0.129887, 0.468828, -0.542947, 0.333755, -2.08271, -2.1627, -0.129105, 1.24785e-06, 0.00044502, 0.000121252, -0.000514543, -0.000580429, 0.00332331
0.0211814, 1.69104, -1.22826, -1.53959, -0.900125, -1.19228, 1.22812, -1.30269, -0.000703739, 0.00579734, -0.00184421, 0.00327964, 0.00615177, 0.00123442, -0.000995446, 0.475838, 64.184, 31.7335, 6.80725, 2.58472, 3.58951, -0.0484509, 0.000182191, -0.00209474, 0.0022584, 0.00237791, 0.0019378, 0.00105611, 0.000563839, 0.00065553, 0.00329385, 0.00454618, 0.00154472, -0.00146926, 0.471008, -0.543388, 0.335894, -2.08385, -2.16584, -0.129887, 0.468828, -0.542947, 0.333755, -2.08271, -2.1627, -0.129105, 1.08446e-06, 0.000510009, 0.000138634, -0.000514543, -0.000580429, 0.00332331
0.0221814, 1.69104, -1.22826, -1.53959, -0.900125, -1.19228, 1.22812, -1.30269, -0.000703739, 0.00579734, -0.00184421, 0.00327964, 0.00615177, 0.00123442, -0.000995446, 0.475838, 64.184, 31.7335, 6.80725, 2.58472, 3.58951, -0.0484509, 0.000181844, -0.00209475, 0.00225844, 0.00237777, 0.00193763, 0.0010562, 0.000635067, 0.000657615, 0.00328624, 0.00455568, 0.00159667, -0.00146409, 0.471008, -0.543388, 0.335894, -2.08385, -2.16584, -0.129887, 0.468828, -0.542947, 0.333755, -2.08271, -2.1627, -0.129105, 8.93621e-07, 0.000579243, 0.000157137, -0.000514543, -0.000580429, 0.00332331
0.0231814, 1.69102, -1.22822, -1.53958, -0.900128, -1.19223, 1.22813, -1.3027, -0.00208682, 0.00126651, 0.000670649, 0.000621881, 0.00482992, 0.000188811, -0.00154459, 0.325081, 64.184, 31.6581, 6.84296, 2.46753, 3.56845, -0.00999879, 0.000187461, -0.00209506, 0.00223176, 0.00232919, 0.00193336, 0.00104418, 0.000588812, 0.000657515, 0.00112085, 0.00381646, -0.0022713, 0.000903063, 0.471008, -0.543388, 0.335894, -2.08384, -2.16584, -0.129887, 0.468828, -0.542945, 0.333783, -2.08272, -2.16273, -0.129156, 6.73433e-07, 0.000652833, 0.000176787, -0.00059448, -0.00012788, 0.00121197
0.0241814, 1.69102, -1.22823, -1.53959, -0.900126, -1.19222, 1.22814, -1.3027, -0.00059326, 5.36239e-05, -0.000480874, 0.00146927, 0.00417709, -0.000382757, -0.000555702, 0.285408, 64.2236, 31.6977, 6.80725, 2.44922, 3.58218, -0.0228162, 0.000188963, -0.00209218, 0.00223292, 0.00232627, 0.00193821, 0.0010412, 0.000679314, 0.000370293, -2.00476e-05, 0.00208596, -0.00312152, -9.69105e-05, 0.471008, -0.543387, 0.335894, -2.08384, -2.16584, -0.129887, 0.468831, -0.542943, 0.333782, -2.08272, -2.16273, -0.129164, 4.21933e-07, 0.000730885, 0.000197611, -0.000345826, 4.81789e-05, 8.35475e-05
0.0251814, 1.69102, -1.22823, -1.53958, -0.900122, -1.19222, 1.22814, -1.3027, -0.000493057, -0.0054507, -0.000380124, 0.00290735, 0.00526582, 0.00106725, 0.00010373, 0.285408, 63.9261, 31.4359, 6.73187, 2.38788, 3.54648, -0.0356336, 0.000188219, -0.0020921, 0.0022321, 0.00231733, 0.00194347, 0.00104637, 0.00157406, 0.000132799, -0.0029073, 0.00416064, -0.00884559, -0.00139674, 0.471008, -0.543387, 0.335895, -2.08384, -2.16584, -0.129887, 0.468831, -0.542943, 0.333783, -2.08272, -2.16273, -0.129179, 1.37109e-07, 0.000813505, 0.000219637, -0.000181151, -0.000298413, -0.00289138
0.0261814, 1.69103, -1.22823, -1.53959, -0.900125, -1.19221, 1.22814, -1.3027, 0.00228939, -0.0058594, -0.00414398, 0.0028969, 0.00392326, 0.0023052, -0.000880673, 0.170357, 63.45, 31.1741, 6.69617, 2.25238, 3.50345, -0.00999879, 0.000189274, -0.00208859, 0.00223997, 0.00232707, 0.00194911, 0.00104227, 0.00164045, -0.000847191, -0.00453157, 0.000857711, -0.00714612, 9.93133e-05, 0.471008, -0.543386, 0.335895, -2.08384, -2.16584, -0.129887, 0.468835, -0.54294, 0.333775, -2.08271, -2.16272, -0.129174, -1.83099e-07, 0.000900793, 0.00024289, 0.000740995, 1.34252e-05, -0.00451181
0.0271814, 1.69104, -1.22825, -1.5396, -0.900133, -1.19221, 1.22814, -1.30269, 0.00583308, -0.0062432, -0.00790772, 0.00202385, 0.00238466, 0.00313049, -0.000350049, -0.0161054, 62.9343, 30.8051, 6.69617, 2.12421, 3.46042, -0.0164075, 0.000191635, -0.00208176, 0.00225451, 0.0023403, 0.00196085, 0.00103183, 0.00111171, -0.00234908, -0.00633721, -0.00342233, -0.00536106, 0.00152181, 0.471008, -0.543385, 0.335895, -2.08384, -2.16584, -0.129887, 0.468841, -0.542934, 0.333761, -2.08269, -2.16272, -0.129173, -5.40806e-07, 0.000992849, 0.000267393, 0.0021565, 0.000966838, -0.00623344
0.0281814, 1.69104, -1.22825, -1.53963, -0.900136, -1.19221, 1.22814, -1.30269, 0.00477559, -0.00576377, -0.0119989, 0.000939337, 0.00108952, 0.00235826, 0.00071585, -0.0557783, 62.2321, 30.4679, 6.58508, 1.99512, 3.45309, -0.0420422, 0.000188272, -0.00208256, 0.00226702, 0.00236234, 0.00196462, 0.00103915, 0.00233822, -0.000976685, -0.00767914, -0.00857296, -0.00380646, -0.00203919, 0.471008, -0.543384, 0.335895, -2.08384, -2.16584, -0.129887, 0.46884, -0.542935, 0.333749, -2.08268, -2.16271, -0.129151, -9.38169e-07, 0.00108977, 0.000293171, 0.000780893, 3.31198e-06, -0.00768171
0.0291814, 1.69105, -1.22827, -1.53965, -0.900144, -1.19222, 1.22814, -1.30269, 0.00398808, -0.00739129, -0.0144099, -0.00586039, -0.00185765, 0.000215835, 2.35102e-06, -0.0914839, 61.7163, 30.095, 6.58508, 1.91546, 3.48971, -0.0292249, 0.000184364, -0.00208445, 0.00228418, 0.00239395, 0.00197149, 0.00104106, 0.00178712, -0.000929966, -0.0105891, -0.0171446, -0.003276, 0.00174543, 0.471008, -0.543383, 0.335895, -2.08384, -2.16584, -0.129887, 0.468837, -0.542935, 0.333731, -2.08266, -2.16269, -0.129123, -1.3774e-06, 0.00119164, 0.000320246, 0.000609043, 0.00109523, -0.0104411
0.0301814, 1.69106, -1.22829, -1.53968, -0.900153, -1.19223, 1.22815, -1.30269, 0.00439881, -0.0108989, -0.0140496, -0.00687728, -0.000869864, 0.00122896, -0.000235915, -0.166862, 61.4227, 29.7617, 6.54541, 1.87793, 3.46042, -0.0228162, 0.00017981, -0.00208152, 0.00230947, 0.00242436, 0.00198226, 0.00103968, 0.00157532, -0.00180806, -0.012608, -0.016313, -0.00691988, 0.00385633, 0.471008, -0.543382, 0.335896, -2.08384, -2.16584, -0.129887, 0.468839, -0.542935, 0.333706, -2.08264, -2.16267, -0.129101, -1.86074e-06, 0.00129855, 0.00034864, 0.00140506, 0.00175792, -0.0123998
0.0311814, 1.69106, -1.22831, -1.53972, -0.900166, -1.19223, 1.22816, -1.3027, 0.00580861, -0.0147563, -0.0205539, -0.00628895, -0.00555108, 0.00292163, -0.00161543, -0.166862, 61.2006, 29.5752, 6.58508, 1.86603, 3.40365, 0.0165515, 0.000172053, -0.00208095, 0.00233759, 0.00246143, 0.00198781, 0.0010366, 0.00405, -0.00116738, -0.0170393, -0.0229605, -0.00559871, 0.00150067, 0.471008, -0.543381, 0.335896, -2.08384, -2.16584, -0.129887, 0.468839, -0.542937, 0.333677, -2.08261, -2.16266, -0.129065, -2.39049e-06, 0.00141058, 0.000378373, 0.000693197, 8.27157e-05, -0.0171103
0.0321814, 1.69106, -1.22833, -1.53975, -0.900173, -1.19224, 1.22817, -1.3027, 0.00523486, -0.0150328, -0.0257439, -0.00384667, -0.00951327, 0.0105947, -0.0017891, -0.0914839, 61.0181, 29.2777, 6.54541, 1.86603, 3.29562, 0.0357776, 0.000161266, -0.00208198, 0.00236052, 0.0024829, 0.00198941, 0.00104742, 0.0078356, -0.000341672, -0.0180173, -0.0214386, 0.00135859, -0.0048376, 0.471008, -0.54338, 0.335896, -2.08384, -2.16584, -0.129887, 0.468838, -0.542943, 0.333653, -2.08261, -2.16264, -0.129042, -2.969e-06, 0.00152782, 0.000409465, -3.19689e-05, -0.00342055, -0.0186076
0.0331814, 1.69108, -1.22835, -1.53978, -0.900183, -1.19225, 1.22819, -1.3027, 0.00760178, -0.0141122, -0.0266537, -0.00706243, -0.0112492, 0.0100951, -0.00024335, -0.131157, 60.7959, 28.9802, 6.58508, 1.84131, 3.22421, 0.0101428, 0.000156649, -0.00207731, 0.00238242, 0.00251068, 0.00198805, 0.00104891, 0.00635249, -0.0019208, -0.0184258, -0.0252822, 0.00395718, -0.00225504, 0.471008, -0.543379, 0.335897, -2.08384, -2.16584, -0.129888, 0.468842, -0.542942, 0.333631, -2.0826, -2.16262, -0.12901, -3.59863e-06, 0.00165034, 0.000441934, 0.0014767, -0.00170636, -0.0187959
0.0341814, 1.69109, -1.22837, -1.53981, -0.900188, -1.19226, 1.2282, -1.30269, 0.0056082, -0.0177155, -0.0257499, -0.00875451, -0.00690405, 0.00942793, 0.000312445, -0.131157, 60.7602, 28.754, 6.47003, 1.79187, 3.15921, -0.00267457, 0.000150317, -0.00207364, 0.00240832, 0.00253713, 0.00199743, 0.00105248, 0.00608423, -0.00176832, -0.0204241, -0.0238197, -0.003398, -0.00133207, 0.471008, -0.543377, 0.335897, -2.08384, -2.16584, -0.129888, 0.468845, -0.542943, 0.333605, -2.08258, -2.1626, -0.12899, -4.2818e-06, 0.00177822, 0.000475796, 0.00124199, -0.00101228, -0.020689
0.0351814, 1.6911, -1.22839, -1.53985, -0.900193, -1.19227, 1.22821, -1.30269, 0.00321604, -0.0141739, -0.0275475, -0.00812402, -0.00923244, 0.010914, 0.00119161, -0.0914839, 60.6134, 28.6429, 6.39465, 1.76166, 3.16653, -0.0292249, 0.000141818, -0.00207325, 0.00243097, 0.00257266, 0.0019932, 0.00106422, 0.00812784, 9.15608e-05, -0.0186521, -0.0242004, 0.00285921, -0.00682263, 0.471008, -0.543375, 0.335898, -2.08384, -2.16584, -0.129888, 0.468845, -0.542946, 0.333582, -2.08257, -2.16258, -0.128945, -5.02096e-06, 0.00191151, 0.000511068, -0.000479187, -0.00324535, -0.0191651
0.0361814, 1.69111, -1.2284, -1.53988, -0.900201, -1.19227, 1.22822, -1.30269, 0.00626942, -0.0113904, -0.0291601, -0.00869133, -0.0047426, 0.0177247, 0.0012691, -0.131157, 60.4666, 28.4208, 6.35895, 1.69391, 3.1528, -0.0420422, 0.000139829, -0.00206578, 0.00244725, 0.0025936, 0.00198736, 0.00106292, 0.00664674, -0.00316338, -0.017247, -0.0180923, 0.00568056, -0.00270455, 0.471008, -0.543374, 0.335898, -2.08383, -2.16584, -0.129888, 0.468852, -0.542943, 0.333566, -2.08256, -2.16258, -0.128916, -5.81861e-06, 0.00205028, 0.000547764, 0.0027685, -0.00172747, -0.0176093
0.0371814, 1.69113, -1.2284, -1.53992, -0.90021, -1.19228, 1.22823, -1.30269, 0.0112749, -0.00995361, -0.0307483, -0.00595051, -0.00664501, 0.0172615, 0.000133976, -0.166862, 60.3555, 28.3454, 6.32324, 1.63898, 3.16653, -0.0228162, 0.000139209, -0.00205813, 0.00246516, 0.00262736, 0.00197947, 0.0010511, 0.00591158, -0.00475123, -0.0169056, -0.0201102, 0.00856824, -0.000442638, 0.471008, -0.543372, 0.335899, -2.08383, -2.16584, -0.129888, 0.468859, -0.542939, 0.333548, -2.08253, -2.16258, -0.128872, -6.67726e-06, 0.00219459, 0.000585897, 0.00433946, -0.000844944, -0.0171678
0.0381814, 1.69115, -1.2284, -1.53996, -0.900221, -1.19228, 1.22825, -1.30269, 0.0113837, -0.00656793, -0.0328042, -0.00791958, -0.0036072, 0.0182924, -0.000385413, -0.0557783, 60.2802, 28.3097, 6.32324, 1.58954, 3.14548, -0.00999879, 0.000136028, -0.00205168, 0.00248063, 0.00265494, 0.00196409, 0.00104828, 0.00505196, -0.00535517, -0.0158491, -0.020242, 0.0103831, 0.00188529, 0.471008, -0.54337, 0.335899, -2.08383, -2.16584, -0.129888, 0.468865, -0.542937, 0.333533, -2.08252, -2.16258, -0.128827, -7.59945e-06, 0.00234449, 0.000625478, 0.00494909, 1.56975e-05, -0.0159697
0.0391814, 1.69116, -1.22841, -1.54, -0.900228, -1.19229, 1.22827, -1.30269, 0.0148991, -0.00481498, -0.0364611, -0.00833858, -0.00602876, 0.0193219, -0.0012403, 0.059273, 60.2444, 28.3851, 6.28357, 1.5401, 3.11618, 0.0165515, 0.000129253, -0.00204598, 0.00249662, 0.00267926, 0.00194313, 0.00104897, 0.00471055, -0.00665552, -0.0162855, -0.0242538, 0.0151202, 0.00399073, 0.471008, -0.543367, 0.3359, -2.08383, -2.16584, -0.129888, 0.46887, -0.542939, 0.333516, -2.08252, -2.16258, -0.128778, -8.58778e-06, 0.00250002, 0.000666519, 0.0062188, 0.000628682, -0.0163458
0.0401814, 1.69117, -1.22842, -1.54003, -0.900245, -1.1923, 1.22829, -1.30269, 0.0159095, -0.00759734, -0.0338605, -0.0113164, -0.00807747, 0.0184113, -0.00130159, 0.245735, 60.3912, 28.3851, 6.35895, 1.49707, 3.13083, 0.0293689, 0.000128452, -0.0020366, 0.00251445, 0.00270051, 0.00193648, 0.00103481, 0.00357447, -0.00799499, -0.017561, -0.0255068, 0.0138189, 0.00828696, 0.471008, -0.543365, 0.3359, -2.08383, -2.16584, -0.129889, 0.468879, -0.542934, 0.333499, -2.0825, -2.16259, -0.12875, -9.64483e-06, 0.00266124, 0.000709027, 0.00746878, 0.00216265, -0.0174269
0.0411814, 1.69119, -1.22841, -1.54005, -0.900267, -1.1923, 1.22831, -1.3027, 0.0119619, -0.00670817, -0.0318236, -0.0173428, -0.00649512, 0.0184022, -0.000867731, 0.511544, 60.4309, 28.3851, 6.47003, 1.49707, 3.13083, 0.0293689, 0.000128026, -0.00202683, 0.00252503, 0.00271978, 0.00191106, 0.00101723, 0.00289081, -0.00764105, -0.0169618, -0.0251409, 0.0137984, 0.0107386, 0.471008, -0.543362, 0.335901, -2.08383, -2.16584, -0.129889, 0.468888, -0.54293, 0.333489, -2.08248, -2.16262, -0.128705, -1.07732e-05, 0.00282817, 0.000753011, 0.00711134, 0.00289782, -0.0166744
0.0421814, 1.69119, -1.22842, -1.54008, -0.900281, -1.19231, 1.22833, -1.30269, 0.00686442, -0.00927745, -0.0328139, -0.0159352, -0.00935815, 0.016805, 0.000133586, 0.888436, 60.6134, 28.4961, 6.47003, 1.47876, 3.17386, 0.0101428, 0.00012015, -0.00202342, 0.00254213, 0.00273847, 0.00189863, 0.00102316, 0.00658975, -0.00371587, -0.0185183, -0.027457, 0.0127029, 0.00210131, 0.471008, -0.54336, 0.335902, -2.08382, -2.16584, -0.129889, 0.468891, -0.542932, 0.333471, -2.08248, -2.16261, -0.128671, -1.19756e-05, 0.00300084, 0.000798475, 0.00326609, -0.00050221, -0.0186217
0.0431814, 1.6912, -1.22842, -1.54012, -0.900298, -1.19232, 1.22836, -1.30269, 0.00682673, -0.00825774, -0.0352666, -0.0189195, -0.00794753, 0.0163402, 0.00130976, 1.11457, 60.6848, 28.6826, 6.5097, 1.49707, 3.20224, -0.0228162, 0.000117728, -0.00201382, 0.00255446, 0.00275792, 0.00187351, 0.00101711, 0.00599132, -0.00397877, -0.0192598, -0.0306485, 0.0128846, 0.00279018, 0.471008, -0.543357, 0.335903, -2.08382, -2.16584, -0.129889, 0.4689, -0.54293, 0.333459, -2.08247, -2.16262, -0.128625, -1.32547e-05, 0.00317929, 0.000845424, 0.00347918, 0.000391954, -0.019222
0.0441814, 1.69121, -1.22842, -1.54014, -0.900316, -1.19233, 1.22839, -1.30269, 0.00738408, -0.00673493, -0.0326097, -0.0162408, -0.0116534, 0.0212128, -0.000584893, 1.45576, 60.7245, 28.8294, 6.47003, 1.5163, 3.21689, 0.0165515, 0.000113447, -0.00200491, 0.00256322, 0.00276683, 0.00184371, 0.00100501, 0.00727715, -0.00460401, -0.0166751, -0.0244788, 0.0195964, 0.00291278, 0.471008, -0.543354, 0.335903, -2.08382, -2.16584, -0.129889, 0.468909, -0.542929, 0.33345, -2.08247, -2.16265, -0.128586, -1.46131e-05, 0.00336352, 0.000893861, 0.00424155, -0.00106548, -0.0168398
0.0451814, 1.69123, -1.22842, -1.54017, -0.90033, -1.19234, 1.22842, -1.30269, 0.00832873, -0.00555148, -0.0312682, -0.0136, -0.00895794, 0.0240169, -0.000627289, 1.64619, 60.7602, 29.0159, 6.39465, 1.52179, 3.25259, 0.0229602, 0.000112612, -0.00199069, 0.00257257, 0.00277337, 0.00181616, 0.00098892, 0.0072079, -0.0055724, -0.0149627, -0.0183782, 0.0198112, 0.003113, 0.471008, -0.54335, 0.335904, -2.08382, -2.16584, -0.12989, 0.468923, -0.542924, 0.333442, -2.08246, -2.16268, -0.128553, -1.60536e-05, 0.00355356, 0.000943786, 0.0052666, -0.00103101, -0.0151175
0.0461814, 1.69125, -1.22842, -1.54019, -0.900346, -1.19236, 1.22846, -1.30269, 0.0128409, -0.00563396, -0.0341141, -0.0117306, -0.00922034, 0.025723, 0.00103987, 1.79694, 60.8356, 29.238, 6.32324, 1.58954, 3.30295, -0.0164075, 0.000109298, -0.00197659, 0.00258375, 0.0027843, 0.00177958, 0.000979795, 0.00679001, -0.00746406, -0.0158705, -0.0193035, 0.0211, 0.00282571, 0.471008, -0.543347, 0.335905, -2.08381, -2.16583, -0.12989, 0.468937, -0.542922, 0.333431, -2.08246, -2.1627, -0.128505, -1.75788e-05, 0.0037494, 0.000995199, 0.00710654, -0.000205424, -0.0159546
0.0471814, 1.69127, -1.22843, -1.54022, -0.90036, -1.19237, 1.22849, -1.30269, 0.0123989, -0.00502362, -0.0313444, -0.0157701, -0.0080576, 0.0269348, 0.00140532, 1.98341, 61.0181, 29.3888, 6.20819, 1.62616, 3.36062, -0.0356336, 0.000105342, -0.00196361, 0.00259702, 0.00278892, 0.00175627, 0.000969224, 0.00526055, -0.00894443, -0.0149814, -0.0170531, 0.0216652, 0.00728599, 0.471008, -0.543343, 0.335906, -2.08381, -2.16583, -0.12989, 0.468949, -0.54292, 0.333417, -2.08246, -2.16273, -0.128478, -1.91915e-05, 0.00395105, 0.0010481, 0.00856076, 0.0014299, -0.0148311
0.0481814, 1.69129, -1.22844, -1.54023, -0.900372, -1.19239, 1.22852, -1.30269, 0.0116906, -0.00357646, -0.0261188, -0.0118595, -0.0122766, 0.0267372, 0.000224803, 2.17384, 61.1649, 29.5395, 6.0614, 1.66919, 3.44668, -0.0164075, 0.000101855, -0.0019494, 0.00260635, 0.00278811, 0.00172699, 0.000953663, 0.00654327, -0.00805332, -0.0117375, -0.0125026, 0.0259183, 0.00543263, 0.471008, -0.543339, 0.335907, -2.08381, -2.16583, -0.129891, 0.468963, -0.542917, 0.333408, -2.08245, -2.16276, -0.128451, -2.08943e-05, 0.0041585, 0.00110247, 0.00783213, -0.000164786, -0.0117458
0.0491814, 1.69131, -1.22845, -1.54025, -0.900376, -1.1924, 1.22856, -1.30269, 0.018797, -0.00803909, -0.02528, -0.00954762, -0.0188956, 0.0271293, 0.000149868, 2.28492, 61.4227, 29.6863, 5.79956, 1.6875, 3.52542, -0.0164075, 9.75386e-05, -0.00193273, 0.00261961, 0.00278181, 0.0017057, 0.000940649, 0.00588607, -0.0110747, -0.0141048, -0.014869, 0.0272155, 0.00879072, 0.471008, -0.543335, 0.335908, -2.08381, -2.16583, -0.129891, 0.46898, -0.542914, 0.333395, -2.08245, -2.16279, -0.128438, -2.269e-05, 0.00437173, 0.00115833, 0.0107388, 0.00118537, -0.0140165
0.0501814, 1.69133, -1.22846, -1.54027, -0.900388, -1.19242, 1.2286, -1.30269, 0.0181901, -0.00723462, -0.0232677, -0.0117562, -0.0150659, 0.0276922, -0.00112079, 2.39997, 61.6449, 29.9085, 5.68848, 1.71863, 3.59683, 0.0165515, 9.24841e-05, -0.00191805, 0.0026346, 0.00278567, 0.00168018, 0.000927261, 0.00453408, -0.0120981, -0.013166, -0.0116853, 0.0253635, 0.0136455, 0.471008, -0.543331, 0.335909, -2.0838, -2.16583, -0.129891, 0.468994, -0.542912, 0.33338, -2.08244, -2.16281, -0.128409, -2.45814e-05, 0.00459073, 0.00121564, 0.0117445, 0.00263651, -0.0128533
0.0511814, 1.69135, -1.22847, -1.54028, -0.900401, -1.19244, 1.22864, -1.30269, 0.0196221, -0.00463078, -0.0191162, -0.0109736, -0.0123872, 0.033707, -0.00145927, 2.55073, 61.7917, 30.0236, 5.6131, 1.75525, 3.64718, 0.0357776, 8.89163e-05, -0.00190035, 0.00264126, 0.00277389, 0.00164343, 0.000905811, 0.00335664, -0.0148116, -0.00962795, -0.00117756, 0.028617, 0.0175705, 0.471008, -0.543326, 0.335911, -2.0838, -2.16583, -0.129892, 0.469011, -0.542909, 0.333374, -2.08244, -2.16286, -0.128388, -2.6571e-05, 0.00481547, 0.00127442, 0.0145382, 0.00359009, -0.00920008
0.0521814, 1.69137, -1.22848, -1.54031, -0.900407, -1.19246, 1.22869, -1.30269, 0.0208865, -0.00850683, -0.0208684, -0.00714289, -0.0153969, 0.0392381, -0.000260771, 2.70148, 62.0496, 30.206, 5.53772, 1.79828, 3.66824, 0.0165515, 8.14116e-05, -0.00188487, 0.00265571, 0.00276914, 0.00161555, 0.000901027, 0.00606388, -0.0150931, -0.0116045, 0.00202214, 0.029951, 0.0125092, 0.471008, -0.543321, 0.335912, -2.0838, -2.16583, -0.129892, 0.469027, -0.542909, 0.333359, -2.08245, -2.16288, -0.128365, -2.86617e-05, 0.00504591, 0.00133464, 0.0148426, 0.00146371, -0.0115203
0.0531814, 1.69139, -1.22849, -1.54032, -0.90042, -1.19248, 1.22873, -1.30269, 0.0196497, -0.0104088, -0.0182166, -0.00595474, -0.0172828, 0.0376359, -0.000173847, 2.81654, 62.2717, 30.3568, 5.53772, 1.8349, 3.71127, 0.0165515, 7.5274e-05, -0.00186784, 0.00266767, 0.00276108, 0.00158224, 0.000883916, 0.00703938, -0.0141246, -0.0117166, 0.00270323, 0.0286701, 0.0108593, 0.471008, -0.543316, 0.335913, -2.08379, -2.16583, -0.129892, 0.469043, -0.542908, 0.333347, -2.08245, -2.16292, -0.128343, -3.0856e-05, 0.00528201, 0.00139628, 0.013904, 0.000714432, -0.0116916
0.0541814, 1.69141, -1.22851, -1.54033, -0.900423, -1.1925, 1.22878, -1.30269, 0.025175, -0.0126268, -0.0153262, -0.0061766, -0.0178266, 0.0469788, 0.000867446, 2.89191, 62.5296, 30.4679, 5.46234, 1.84772, 3.72592, -0.00999879, 6.79185e-05, -0.00185013, 0.00267931, 0.00274555, 0.00155273, 0.000878069, 0.00545887, -0.0194698, -0.0115256, 0.0119796, 0.031718, 0.0167348, 0.471008, -0.543311, 0.335915, -2.08379, -2.16583, -0.129893, 0.469061, -0.542907, 0.333335, -2.08246, -2.16295, -0.128331, -3.31567e-05, 0.00552372, 0.00145934, 0.0191903, 0.00270592, -0.0113559
0.0551814, 1.69143, -1.22852, -1.54035, -0.900438, -1.19252, 1.22883, -1.30268, 0.024626, -0.0132636, -0.0132535, -0.00773623, -0.0181601, 0.0481783, 0.00129037, 3.04267, 62.7478, 30.579, 5.57739, 1.85962, 3.76163, -0.0292249, 6.1536e-05, -0.0018326, 0.00269215, 0.00273503, 0.00152121, 0.000864549, 0.00531343, -0.020064, -0.0112727, 0.0140095, 0.0321187, 0.0180523, 0.471008, -0.543305, 0.335916, -2.08378, -2.16583, -0.129893, 0.469078, -0.542905, 0.333323, -2.08247, -2.16299, -0.128313, -3.55665e-05, 0.00577098, 0.0015238, 0.0197852, 0.00308221, -0.0110371
0.0561814, 1.69146, -1.22854, -1.54036, -0.90045, -1.19254, 1.22888, -1.30268, 0.0242498, -0.0138455, -0.0140962, -0.0137834, -0.0233883, 0.0481968, 0.00109761, 3.07838, 62.97, 30.6544, 5.6488, 1.87244, 3.8193, -0.0356336, 5.7064e-05, -0.00181089, 0.00270248, 0.00272147, 0.00148242, 0.00084414, 0.00521045, -0.020473, -0.0127564, 0.00802965, 0.0365853, 0.0210525, 0.471008, -0.5433, 0.335918, -2.08378, -2.16583, -0.129894, 0.469099, -0.542901, 0.333313, -2.08247, -2.16303, -0.128291, -3.8088e-05, 0.00602372, 0.00158964, 0.0201339, 0.00368186, -0.0124326
0.0571814, 1.69149, -1.22855, -1.54037, -0.900457, -1.19257, 1.22892, -1.30268, 0.0245542, -0.0134467, -0.011671, -0.0119954, -0.0215837, 0.0486997, 0.000257021, 3.07838, 63.1564, 30.7297, 5.72418, 1.85962, 3.86966, -0.0228162, 5.28789e-05, -0.00178876, 0.00271254, 0.00270663, 0.00144667, 0.000822037, 0.00502554, -0.0209558, -0.0114123, 0.012305, 0.0356415, 0.0224082, 0.471008, -0.543294, 0.335919, -2.08378, -2.16583, -0.129894, 0.469121, -0.542897, 0.333303, -2.08247, -2.16308, -0.128274, -4.07237e-05, 0.00628188, 0.00165682, 0.0206553, 0.00393547, -0.0110242
0.0581814, 1.69151, -1.22856, -1.54038, -0.900468, -1.19259, 1.22897, -1.30268, 0.0257033, -0.0131243, -0.00899851, -0.0105426, -0.0242625, 0.0493216, -0.000303371, 3.15376, 63.3389, 30.7654, 5.79956, 1.823, 3.91269, -0.00999879, 4.64271e-05, -0.0017688, 0.00272094, 0.00268514, 0.00140942, 0.000802791, 0.0052272, -0.0215487, -0.0101063, 0.0145123, 0.0383968, 0.0232351, 0.471008, -0.543287, 0.335921, -2.08377, -2.16582, -0.129894, 0.469141, -0.542895, 0.333295, -2.08247, -2.16313, -0.128262, -4.34763e-05, 0.00654537, 0.00172534, 0.0212992, 0.00382315, -0.00971539
0.0591814, 1.69153, -1.22857, -1.54038, -0.900467, -1.19262, 1.22902, -1.30269, 0.0254654, -0.0129367, -0.00721402, -0.00678, -0.021573, 0.0498519, -0.00166031, 3.15376, 63.5214, 30.8051, 5.76385, 1.78638, 3.95572, 0.0293689, 3.84337e-05, -0.00174875, 0.00272913, 0.00266476, 0.00137073, 0.000785968, 0.00586009, -0.0212811, -0.00880988, 0.0196693, 0.0363913, 0.0228339, 0.471008, -0.543281, 0.335923, -2.08377, -2.16582, -0.129895, 0.469161, -0.542894, 0.333287, -2.08248, -2.16318, -0.128248, -4.63483e-05, 0.0068141, 0.00179515, 0.0210985, 0.00325658, -0.00845571
0.0601814, 1.69156, -1.22858, -1.5404, -0.900477, -1.19264, 1.22908, -1.30268, 0.0279457, -0.0119968, -0.00762305, -0.00755857, -0.0250845, 0.0512967, 0.00130062, 3.15376, 63.6682, 30.9162, 5.87494, 1.76166, 3.96945, -0.0356336, 3.21305e-05, -0.00172727, 0.00273845, 0.00265007, 0.00132744, 0.000774097, 0.00565212, -0.0226208, -0.00854215, 0.0182929, 0.0412982, 0.0216408, 0.471008, -0.543274, 0.335924, -2.08376, -2.16582, -0.129895, 0.469182, -0.542891, 0.333278, -2.08249, -2.16322, -0.128222, -4.93422e-05, 0.00708797, 0.00186624, 0.0224356, 0.00374947, -0.00812847
0.0611814, 1.69159, -1.2286, -1.5404, -0.900481, -1.19267, 1.22913, -1.30269, 0.0268254, -0.0131488, -0.00524347, -0.00620436, -0.0277985, 0.0568489, -0.00177777, 3.15376, 63.8904, 30.9162, 5.91064, 1.74335, 3.99142, 0.0357776, 2.41642e-05, -0.00170577, 0.00274674, 0.00262309, 0.0012893, 0.000749856, 0.00756601, -0.0228348, -0.0076714, 0.0246996, 0.0450171, 0.0227082, 0.471007, -0.543267, 0.335926, -2.08376, -2.16582, -0.129896, 0.469204, -0.54289, 0.333269, -2.0825, -2.16328, -0.128216, -5.24605e-05, 0.00736687, 0.00193857, 0.0227462, 0.0020137, -0.00750002
0.0621814, 1.69161, -1.22861, -1.5404, -0.900486, -1.1927, 1.22918, -1.30269, 0.0288388, -0.0130931, -0.00445194, -0.00614704, -0.0292726, 0.0576038, -0.000473105, 3.15376, 64.0768, 30.9519, 5.98602, 1.71222, 3.97677, 0.0165515, 1.57957e-05, -0.00168413, 0.00275456, 0.00259796, 0.00124614, 0.000735579, 0.00718122, -0.0240571, -0.0074182, 0.0251226, 0.0468728, 0.0232517, 0.471007, -0.543259, 0.335928, -2.08375, -2.16582, -0.129897, 0.469225, -0.542889, 0.333262, -2.08251, -2.16332, -0.128202, -5.57056e-05, 0.00765073, 0.00201212, 0.023959, 0.00268859, -0.00715369
0.0631814, 1.69165, -1.22863, -1.54042, -0.900489, -1.19273, 1.22924, -1.30268, 0.0330113, -0.0155702, -0.00963108, -0.0042837, -0.027098, 0.0580489, 0.000905299, 3.04267, 64.3704, 31.1027, 5.98602, 1.71863, 3.95572, -0.0164075, 7.77538e-06, -0.00165921, 0.00276969, 0.00258124, 0.00120811, 0.000720447, 0.00709812, -0.0254331, -0.0106635, 0.0220633, 0.0433641, 0.0226697, 0.471007, -0.543252, 0.33593, -2.08374, -2.16582, -0.129897, 0.46925, -0.542886, 0.333247, -2.08252, -2.16337, -0.128184, -5.90798e-05, 0.00793954, 0.00208689, 0.0252095, 0.00361559, -0.0103121
0.0641814, 1.69167, -1.22865, -1.54042, -0.900495, -1.19276, 1.2293, -1.30269, 0.032415, -0.0172281, -0.00674264, -0.00559351, -0.0296205, 0.0629682, -0.00109189, 3.07838, 64.664, 31.1027, 6.09711, 1.70032, 3.94107, 0.0293689, -2.3449e-06, -0.00163772, 0.00277967, 0.00255305, 0.00116765, 0.000699499, 0.00784142, -0.026541, -0.0103629, 0.0270689, 0.0463356, 0.0258262, 0.471007, -0.543244, 0.335932, -2.08374, -2.16582, -0.129898, 0.469271, -0.542885, 0.333237, -2.08253, -2.16342, -0.128177, -6.25855e-05, 0.00823327, 0.00216285, 0.02635, 0.00317471, -0.0100883
0.0651814, 1.6917, -1.22866, -1.54043, -0.900495, -1.19279, 1.22936, -1.30269, 0.0242717, -0.0149045, -0.007335, -0.00383345, -0.0265626, 0.0616403, 0.00022151, 3.07838, 64.8108, 31.2137, 6.09711, 1.6875, 3.93374, 0.00373412, -1.47055e-05, -0.00161787, 0.00278679, 0.00252671, 0.0011192, 0.000693828, 0.0114482, -0.0215253, -0.00868015, 0.0291683, 0.0453403, 0.0156482, 0.471007, -0.543236, 0.335935, -2.08373, -2.16581, -0.129898, 0.469291, -0.542887, 0.333229, -2.08255, -2.16346, -0.128159, -6.6225e-05, 0.00853189, 0.00224002, 0.021527, -0.000551813, -0.00875826
0.0661814, 1.69173, -1.22867, -1.54044, -0.900499, -1.19283, 1.22941, -1.30268, 0.0239476, -0.0133591, -0.00985993, -0.00356198, -0.0301152, 0.0603315, 0.0006563, 3.07838, 64.9576, 31.2891, 6.13678, 1.70032, 3.93374, -0.00999879, -2.52539e-05, -0.00159604, 0.00279388, 0.00250385, 0.00106686, 0.000681015, 0.0129306, -0.0201624, -0.00875672, 0.024522, 0.0494975, 0.0122555, 0.471007, -0.543227, 0.335937, -2.08373, -2.16581, -0.129899, 0.469313, -0.542887, 0.333222, -2.08257, -2.16351, -0.128133, -7.00005e-05, 0.00883538, 0.00231837, 0.0202124, -0.00175567, -0.00894465
0.0671814, 1.69176, -1.22869, -1.54045, -0.900503, -1.19285, 1.22947, -1.30268, 0.0253881, -0.0140948, -0.0109632, -0.00410384, -0.0305841, 0.0596624, 0.00114961, 3.003, 65.1797, 31.3248, 6.20819, 1.66369, 3.92642, -0.0292249, -3.26239e-05, -0.00156989, 0.00280392, 0.00247665, 0.00102591, 0.000660971, 0.0127663, -0.0207288, -0.00982066, 0.0222627, 0.0492099, 0.0130123, 0.471007, -0.543218, 0.335939, -2.08372, -2.16581, -0.1299, 0.469339, -0.542883, 0.333213, -2.08258, -2.16357, -0.128124, -7.39143e-05, 0.00914373, 0.0023979, 0.0207298, -0.00109796, -0.00990737
0.0681814, 1.69179, -1.22869, -1.54045, -0.900495, -1.19289, 1.22953, -1.30268, 0.0254076, -0.0102256, -0.00869885, -0.0001815, -0.0314236, 0.0636912, 0.00147848, 2.96729, 65.2155, 31.3605, 6.09711, 1.62067, 3.9191, -0.0484509, -4.57088e-05, -0.00154899, 0.00280366, 0.00244018, 0.00096752, 0.000657255, 0.0140005, -0.0208305, -0.00587757, 0.0295849, 0.0554919, 0.0100279, 0.471007, -0.543209, 0.335941, -2.08371, -2.16581, -0.1299, 0.46936, -0.542886, 0.333213, -2.08262, -2.16362, -0.128107, -7.79688e-05, 0.0094569, 0.0024786, 0.0210141, -0.00260626, -0.00612808
0.0691814, 1.69182, -1.2287, -1.54046, -0.900497, -1.19292, 1.22959, -1.30269, 0.0292976, -0.00774049, -0.00714339, -0.00108207, -0.0282569, 0.0626555, -0.000947124, 2.89191, 65.2551, 31.4002, 6.13678, 1.61426, 3.89071, 0.00373412, -5.49587e-05, -0.00152384, 0.00280595, 0.00241213, 0.000905659, 0.000633704, 0.0110444, -0.0236069, -0.00431579, 0.0307514, 0.0551924, 0.0188661, 0.471007, -0.5432, 0.335944, -2.08371, -2.16581, -0.129901, 0.469386, -0.542884, 0.333211, -2.08263, -2.16369, -0.128078, -8.21662e-05, 0.00977487, 0.00256046, 0.0237334, 0.000503348, -0.00412905
0.0701814, 1.69185, -1.22871, -1.54047, -0.900498, -1.19295, 1.22966, -1.30268, 0.0312197, -0.00942576, -0.0067448, -0.00158138, -0.0249714, 0.0659586, -0.00110613, 2.85224, 65.4376, 31.4716, 6.17248, 1.58313, 3.88339, 0.0165515, -6.59737e-05, -0.00149902, 0.00281484, 0.00238458, 0.000856259, 0.000619606, 0.0101412, -0.025867, -0.00507875, 0.0348778, 0.0527717, 0.0227057, 0.471007, -0.54319, 0.335947, -2.0837, -2.16581, -0.129902, 0.46941, -0.542883, 0.333202, -2.08265, -2.16374, -0.128061, -8.65087e-05, 0.0100976, 0.00264348, 0.0259263, 0.00192799, -0.00472752
0.0711814, 1.69189, -1.22871, -1.54048, -0.900494, -1.19298, 1.22972, -1.30268, 0.0326896, -0.00711647, -0.00963829, -0.000237624, -0.0237638, 0.0640161, -0.00121214, 2.81654, 65.4733, 31.547, 6.13678, 1.58313, 3.86966, 0.0293689, -7.78763e-05, -0.00147606, 0.00281799, 0.00235433, 0.000799746, 0.000607605, 0.0101679, -0.0256133, -0.00484025, 0.0318767, 0.0534809, 0.0220838, 0.471007, -0.54318, 0.335949, -2.08369, -2.1658, -0.129903, 0.469433, -0.542883, 0.333199, -2.08268, -2.16379, -0.128039, -9.09987e-05, 0.0104251, 0.00272764, 0.0256779, 0.00218211, -0.00440449
0.0721814, 1.69192, -1.22871, -1.54049, -0.900499, -1.19302, 1.22978, -1.30269, 0.0355278, -0.00567039, -0.00862636, -0.00100757, -0.0279183, 0.0631832, -0.000333376, 2.70148, 65.513, 31.6224, 6.17248, 1.59595, 3.84036, 0.0165515, -8.73344e-05, -0.00144886, 0.00282066, 0.0023289, 0.0007312, 0.00058594, 0.00941041, -0.0269044, -0.00399149, 0.0294696, 0.0582498, 0.0237839, 0.471007, -0.543169, 0.335952, -2.08368, -2.1658, -0.129903, 0.469461, -0.54288, 0.333197, -2.08269, -2.16386, -0.128001, -9.56382e-05, 0.0107574, 0.00281294, 0.0269664, 0.00318445, -0.00340263
0.0731814, 1.69197, -1.22872, -1.5405, -0.900492, -1.19305, 1.22984, -1.30268, 0.035537, -0.00544924, -0.00996856, 0.00108107, -0.030873, 0.0607392, -0.000222251, 2.55073, 65.5844, 31.6581, 6.09711, 1.61426, 3.85501, 0.0165515, -9.71093e-05, -0.00142241, 0.0028245, 0.00230328, 0.000673553, 0.000571763, 0.0109593, -0.025415, -0.00429456, 0.0258559, 0.0598371, 0.0202464, 0.471007, -0.543159, 0.335955, -2.08368, -2.1658, -0.129904, 0.469487, -0.542878, 0.333194, -2.08271, -2.16392, -0.127973, -0.00010043, 0.0110943, 0.00289937, 0.0255186, 0.00197808, -0.00381117
0.0741814, 1.692, -1.22873, -1.54051, -0.900491, -1.19308, 1.2299, -1.30268, 0.0347464, -0.00623019, -0.0080744, 0.00387585, -0.0332066, 0.0645012, 0.0013099, 2.55073, 65.6955, 31.6977, 6.09711, 1.63257, 3.84036, -0.0228162, -0.000110279, -0.00139822, 0.00283058, 0.00227641, 0.000614207, 0.00056378, 0.013023, -0.0251147, -0.00335593, 0.0311322, 0.0626963, 0.0156599, 0.471006, -0.543147, 0.335958, -2.08367, -2.1658, -0.129905, 0.469512, -0.542878, 0.333188, -2.08274, -2.16397, -0.127944, -0.000105375, 0.011436, 0.00298692, 0.0253216, 0.000125612, -0.00310844
0.0751814, 1.69204, -1.22874, -1.54053, -0.900487, -1.19312, 1.22996, -1.30268, 0.0354519, -0.0067511, -0.0114111, 0.00367682, -0.0351075, 0.0668476, 0.00158534, 2.51106, 65.8066, 31.8088, 6.0614, 1.65729, 3.84768, -0.0420422, -0.000123931, -0.00137311, 0.00283982, 0.00225516, 0.000556604, 0.000554179, 0.0143667, -0.0251837, -0.00473857, 0.0291741, 0.0654081, 0.014061, 0.471006, -0.543136, 0.335961, -2.08366, -2.1658, -0.129906, 0.469537, -0.542877, 0.333179, -2.08277, -2.16402, -0.127911, -0.000110477, 0.0117823, 0.00307558, 0.0253835, -0.00063865, -0.00459596
0.0761814, 1.69209, -1.22874, -1.54054, -0.900486, -1.19316, 1.23003, -1.30268, 0.0384898, -0.00617055, -0.00814356, 0.00180927, -0.036386, 0.0695087, 0.000107458, 2.3603, 65.878, 31.8088, 6.09711, 1.6756, 3.83304, -0.0164075, -0.000131925, -0.00134091, 0.00284545, 0.00223082, 0.000490862, 0.000525128, 0.0126203, -0.0282102, -0.0034571, 0.0324997, 0.0686521, 0.0213365, 0.471006, -0.543124, 0.335964, -2.08365, -2.16579, -0.129907, 0.469569, -0.542871, 0.333174, -2.08277, -2.16409, -0.127875, -0.000115737, 0.0121332, 0.00316535, 0.0283847, 0.00136314, -0.0030613
0.0771814, 1.69213, -1.22875, -1.54056, -0.900477, -1.1932, 1.23009, -1.30268, 0.038784, -0.00504126, -0.00759439, 0.00708668, -0.0379406, 0.0662259, 0.000783715, 2.28492, 65.9177, 31.8842, 5.98602, 1.71222, 3.83304, -0.0356336, -0.000145478, -0.00131393, 0.00285053, 0.00220995, 0.000420818, 0.000515202, 0.0141675, -0.0264905, -0.00220253, 0.0320119, 0.0692066, 0.0160802, 0.471006, -0.543112, 0.335967, -2.08364, -2.16579, -0.129908, 0.469596, -0.542871, 0.333169, -2.0828, -2.16415, -0.127829, -0.000121158, 0.0124888, 0.00325621, 0.0267626, -7.22901e-05, -0.0019202
0.0781814, 1.69217, -1.22876, -1.54058, -0.900481, -1.19324, 1.23016, -1.30268, 0.0392798, -0.00762939, -0.0132609, 0.00559811, -0.0389704, 0.069088, -0.000698226, 2.32459, 66.1002, 31.9556, 6.09711, 1.74335, 3.81198, -0.00267457, -0.000161459, -0.00128831, 0.00286407, 0.00218939, 0.000361769, 0.000497944, 0.015792, -0.0265481, -0.00575148, 0.02812, 0.0696654, 0.016375, 0.471006, -0.5431, 0.33597, -2.08363, -2.16579, -0.129909, 0.469621, -0.542871, 0.333156, -2.08281, -2.1642, -0.127795, -0.000126741, 0.012849, 0.00334816, 0.0267442, -0.00076663, -0.00558678
0.0791814, 1.69221, -1.22877, -1.5406, -0.900474, -1.19328, 1.23022, -1.30268, 0.0415669, -0.00851967, -0.0144933, 0.00912973, -0.039734, 0.0708522, -0.00165228, 2.28492, 66.2469, 32.031, 6.02173, 1.77997, 3.80466, 0.0293689, -0.000177633, -0.00126068, 0.00287487, 0.00216936, 0.000294211, 0.000486178, 0.0168714, -0.0270716, -0.006223, 0.0295223, 0.0703916, 0.0156956, 0.471006, -0.543087, 0.335973, -2.08362, -2.16579, -0.129909, 0.469649, -0.542871, 0.333145, -2.08284, -2.16426, -0.127751, -0.00013249, 0.0132137, 0.00344119, 0.0272829, -0.00137317, -0.00614306
0.0801814, 1.69227, -1.22877, -1.54062, -0.900466, -1.19332, 1.23029, -1.30268, 0.045015, -0.00567959, -0.0166894, 0.0116312, -0.0397242, 0.0724559, -0.00086416, 2.17384, 66.2469, 32.031, 5.95032, 1.79828, 3.79001, 0.0229602, -0.000187742, -0.0012278, 0.00287806, 0.00214485, 0.000219724, 0.000462498, 0.016818, -0.0282974, -0.00506048, 0.0299495, 0.0743144, 0.0150505, 0.471006, -0.543074, 0.335977, -2.08361, -2.16578, -0.12991, 0.469682, -0.542866, 0.333143, -2.08285, -2.16434, -0.127706, -0.000138406, 0.013583, 0.0035353, 0.0285414, -0.00107982, -0.00493011
0.0811814, 1.69231, -1.22878, -1.54064, -0.900464, -1.19337, 1.23036, -1.30268, 0.0451503, -0.00554948, -0.0164685, 0.0107839, -0.0389443, 0.0682979, -0.000576107, 2.28492, 66.3223, 32.0707, 5.98602, 1.79828, 3.79001, 0.0229602, -0.00020428, -0.00120091, 0.00288579, 0.00212248, 0.00014731, 0.000449958, 0.0162436, -0.02792, -0.00542959, 0.0265444, 0.072087, 0.0160326, 0.471006, -0.54306, 0.33598, -2.0836, -2.16578, -0.129911, 0.469709, -0.542866, 0.333136, -2.08288, -2.1644, -0.12766, -0.00014449, 0.0139569, 0.00363046, 0.0281245, -9.74717e-05, -0.00509901
0.0821814, 1.69237, -1.22878, -1.54067, -0.90046, -1.19342, 1.23042, -1.30268, 0.0517814, -0.00453476, -0.0210539, 0.00802004, -0.0444819, 0.0647538, 9.06466e-05, 2.13416, 66.358, 32.1818, 5.98602, 1.8349, 3.80466, 0.0101428, -0.000215443, -0.00116682, 0.0028973, 0.00211845, 6.92701e-05, 0.000427724, 0.0144482, -0.0301527, -0.00753714, 0.0146794, 0.0769092, 0.0203059, 0.471006, -0.543046, 0.335984, -2.08359, -2.16578, -0.129913, 0.469743, -0.54286, 0.333125, -2.08289, -2.16446, -0.127588, -0.000150747, 0.0143352, 0.00372669, 0.0302073, 0.00246978, -0.00687264
0.0831814, 1.69242, -1.2288, -1.5407, -0.900459, -1.19347, 1.23048, -1.30268, 0.051131, -0.0113437, -0.0234266, 0.00513456, -0.047715, 0.066597, -0.000651646, 2.20954, 66.5802, 32.2532, 6.02173, 1.84772, 3.82663, 0.0293689, -0.000233998, -0.00114034, 0.00291532, 0.00211308, 3.53488e-06, 0.000414439, 0.0162273, -0.0301026, -0.0126245, 0.0109214, 0.0743535, 0.0208807, 0.471005, -0.543032, 0.335988, -2.08358, -2.16578, -0.129914, 0.469769, -0.54286, 0.333107, -2.0829, -2.16451, -0.12753, -0.000157176, 0.014718, 0.00382396, 0.0300302, 0.00187832, -0.0120737
0.0841814, 1.69247, -1.22879, -1.54073, -0.900453, -1.19352, 1.23055, -1.30268, 0.0527455, -0.00605947, -0.0253117, 0.00699598, -0.0497427, 0.0632544, -0.000671789, 2.20954, 66.5048, 32.3285, 6.02173, 1.84772, 3.84768, 0.0357776, -0.000249371, -0.00111196, 0.00292131, 0.00210931, -8.41335e-05, 0.000400901, 0.0164139, -0.029318, -0.0103395, 0.0065647, 0.0799253, 0.0192207, 0.471005, -0.543017, 0.335992, -2.08357, -2.16577, -0.129915, 0.469798, -0.542859, 0.333102, -2.08292, -2.16458, -0.127448, -0.000163782, 0.0151053, 0.00392227, 0.0293295, 0.00169737, -0.00972479
0.0851814, 1.69252, -1.2288, -1.54075, -0.900458, -1.19357, 1.23061, -1.30268, 0.0538812, -0.00599807, -0.0249049, 0.00258201, -0.0513143, 0.0607561, 0.000738935, 2.20954, 66.5802, 32.3285, 6.13678, 1.84772, 3.86966, 0.00373412, -0.000263707, -0.00108043, 0.00293487, 0.00210868, -0.000164918, 0.000382622, 0.0149596, -0.0303724, -0.0110862, 0.00182262, 0.0807202, 0.0225047, 0.471005, -0.543002, 0.335996, -2.08356, -2.16577, -0.129916, 0.469829, -0.542854, 0.333089, -2.08293, -2.16464, -0.12737, -0.000170564, 0.0154971, 0.00402162, 0.0302965, 0.00368336, -0.0101689
0.0861814, 1.69258, -1.22881, -1.54079, -0.900454, -1.19363, 1.23068, -1.30268, 0.05384, -0.00757878, -0.0295442, 0.0021783, -0.0536404, 0.0597725, 0.00123861, 2.24921, 66.727, 32.4039, 6.13678, 1.87244, 3.86966, -0.0164075, -0.000285007, -0.00105326, 0.00295197, 0.00211043, -0.000247294, 0.000377473, 0.0167309, -0.0291996, -0.0138382, -0.0044271, 0.0811961, 0.0193847, 0.471005, -0.542986, 0.336, -2.08355, -2.16577, -0.129917, 0.469856, -0.542856, 0.333072, -2.08296, -2.16469, -0.127286, -0.000177527, 0.0158932, 0.00412199, 0.0290819, 0.00270707, -0.0130259
0.0871814, 1.69258, -1.22881, -1.54079, -0.900454, -1.19363, 1.23068, -1.30268, 0.05384, -0.00757878, -0.0295442, 0.0021783, -0.0536404, 0.0597725, 0.00123861, 2.24921, 66.727, 32.4039, 6.13678, 1.87244, 3.86966, -0.0164075, -0.000301364, -0.00105359, 0.00295359, 0.00210379, -0.000255344, 0.000381233, 0.0171426, -0.0291934, -0.013876, -0.00435948, 0.08149, 0.0194153, 0.471005, -0.542971, 0.336004, -2.08354, -2.16576, -0.129918, 0.469856, -0.542856, 0.333072, -2.08296, -2.16469, -0.127286, -0.000184671, 0.0162937, 0.00422337, 0.0290819, 0.00270707, -0.0130259
0.0881814, 1.69258, -1.22881, -1.54079, -0.900454, -1.19363, 1.23068, -1.30268, 0.05384, -0.00757878, -0.0295442, 0.0021783, -0.0536404, 0.0597725, 0.00123861, 2.24921, 66.727, 32.4039, 6.13678, 1.87244, 3.86966, -0.0164075, -0.000318133, -0.00105393, 0.00295525, 0.00209698, -0.000263598, 0.000385083, 0.0175587, -0.0291873, -0.0139141, -0.0042909, 0.081787, 0.0194463, 0.471005, -0.542954, 0.336008, -2.08353, -2.16576, -0.129919, 0.469856, -0.542856, 0.333072, -2.08296, -2.16469, -0.127286, -0.000192, 0.0166987, 0.00432576, 0.0290819, 0.00270707, -0.0130259
0.0891814, 1.69275, -1.22883, -1.54091, -0.900458, -1.19383, 1.23086, -1.30268, 0.0584578, -0.00461764, -0.0350436, -0.0027358, -0.0669288, 0.0610605, -6.25115e-05, 2.13416, 66.8381, 32.4793, 6.32324, 1.89624, 3.87607, -0.00267457, -0.000339336, -0.000961623, 0.00299955, 0.00215111, -0.000527711, 0.00033292, 0.0180923, -0.0305849, -0.014966, -0.0168976, 0.0975037, 0.0225552, 0.471004, -0.542938, 0.336012, -2.08351, -2.16576, -0.129921, 0.469947, -0.54285, 0.333027, -2.083, -2.16487, -0.126965, -0.000199514, 0.0171079, 0.00442916, 0.0304511, 0.00280939, -0.0140867
0.0901814, 1.69275, -1.22883, -1.54091, -0.900458, -1.19383, 1.23086, -1.30268, 0.0584578, -0.00461764, -0.0350436, -0.0027358, -0.0669288, 0.0610605, -6.25115e-05, 2.13416, 66.8381, 32.4793, 6.32324, 1.89624, 3.87607, -0.00267457, -0.000356943, -0.000961972, 0.00300128, 0.00214396, -0.00053638, 0.000336955, 0.0185173, -0.0305788, -0.0150046, -0.0168271, 0.0978068, 0.0225868, 0.471004, -0.54292, 0.336017, -2.0835, -2.16575, -0.129922, 0.469947, -0.54285, 0.333027, -2.083, -2.16487, -0.126965, -0.000207216, 0.0175215, 0.00453354, 0.0304511, 0.00280939, -0.0140867
0.0911814, 1.69275, -1.22883, -1.54091, -0.900458, -1.19383, 1.23086, -1.30268, 0.0584578, -0.00461764, -0.0350436, -0.0027358, -0.0669288, 0.0610605, -6.25115e-05, 2.13416, 66.8381, 32.4793, 6.32324, 1.89624, 3.87607, -0.00267457, -0.000374976, -0.000962327, 0.00300305, 0.00213663, -0.00054526, 0.000341083, 0.0189468, -0.0305728, -0.0150436, -0.0167557, 0.098113, 0.0226187, 0.471004, -0.542903, 0.336021, -2.08349, -2.16575, -0.129923, 0.469947, -0.54285, 0.333027, -2.083, -2.16487, -0.126965, -0.000215108, 0.0179394, 0.00463891, 0.0304511, 0.00280939, -0.0140867
0.0921814, 1.69293, -1.22883, -1.54105, -0.90045, -1.19405, 1.23104, -1.30269, 0.0612314, 0.000139646, -0.0385627, -0.00079895, -0.0740343, 0.0575639, -0.00122792, 2.05878, 66.8024, 32.515, 6.32324, 1.88434, 3.91269, 0.0559192, -0.000409508, -0.000881834, 0.00304988, 0.00222522, -0.000837223, 0.000308947, 0.0200499, -0.0295421, -0.0137074, -0.0252177, 0.107418, 0.0207407, 0.471004, -0.542885, 0.336026, -2.08348, -2.16575, -0.129924, 0.470027, -0.542855, 0.332978, -2.08305, -2.16503, -0.126575, -0.000223192, 0.0183616, 0.00474526, 0.0295018, 0.00189464, -0.0128016
0.0931814, 1.69299, -1.22883, -1.5411, -0.900455, -1.19414, 1.2311, -1.30268, 0.0618965, -0.000761661, -0.0405445, -0.00214207, -0.0787708, 0.0523227, 0.000402088, 1.98341, 66.8381, 32.4793, 6.39465, 1.87793, 3.9191, 0.0229602, -0.000433143, -0.000854706, 0.00307077, 0.00226371, -0.000945248, 0.000304544, 0.0206787, -0.0283826, -0.0156574, -0.0344536, 0.108396, 0.0184731, 0.471003, -0.542867, 0.336031, -2.08346, -2.16574, -0.129926, 0.470054, -0.542856, 0.332957, -2.08307, -2.16508, -0.126424, -0.00023147, 0.0187881, 0.00485258, 0.0282871, 0.00195371, -0.0146826
0.0941814, 1.69305, -1.22883, -1.54115, -0.900455, -1.19422, 1.23116, -1.30268, 0.0611062, 0.000312788, -0.0450536, -0.00231032, -0.0817118, 0.0571842, 0.000742777, 1.9477, 66.8024, 32.4396, 6.43433, 1.85321, 3.94107, 0.0101428, -0.000457943, -0.000829103, 0.00308881, 0.00230305, -0.00105759, 0.000302223, 0.0233457, -0.0277118, -0.0162159, -0.0353345, 0.114889, 0.0143879, 0.471003, -0.542848, 0.336035, -2.08345, -2.16574, -0.129927, 0.470079, -0.542858, 0.33294, -2.08309, -2.16513, -0.126269, -0.000239944, 0.0192188, 0.00496086, 0.0276841, -0.000189504, -0.0155205
0.0951814, 1.69312, -1.22884, -1.54121, -0.900457, -1.19431, 1.23121, -1.30268, 0.0637212, -0.0014729, -0.0497457, -0.00234112, -0.0846321, 0.0566519, 0.000969902, 1.90803, 66.8738, 32.4396, 6.47003, 1.84772, 3.95572, -0.00267457, -0.000484414, -0.000803163, 0.00311425, 0.00235352, -0.0011675, 0.00029998, 0.0242815, -0.0279566, -0.0191565, -0.0417584, 0.115959, 0.0136266, 0.471003, -0.542829, 0.33604, -2.08343, -2.16574, -0.129929, 0.470105, -0.54286, 0.332915, -2.0831, -2.16517, -0.126103, -0.000248615, 0.0196537, 0.00507009, 0.0278466, -0.000214636, -0.018468
0.0961814, 1.69319, -1.22882, -1.54127, -0.900462, -1.1944, 1.23127, -1.30268, 0.0654815, 0.00420673, -0.0522012, -0.00329825, -0.0815677, 0.0518436, 0.000917869, 1.75727, 66.6516, 32.4039, 6.54541, 1.81018, 3.96213, -0.00999879, -0.000504305, -0.000771704, 0.00312649, 0.00239785, -0.00129777, 0.000288761, 0.0225416, -0.0280806, -0.0173704, -0.0468193, 0.117353, 0.0160303, 0.471003, -0.542809, 0.336045, -2.08342, -2.16573, -0.12993, 0.470137, -0.542856, 0.332903, -2.08312, -2.16523, -0.125924, -0.000257487, 0.0200928, 0.00518027, 0.027964, 0.0016721, -0.0163279
0.0971814, 1.69325, -1.22883, -1.54132, -0.900464, -1.19449, 1.23132, -1.30268, 0.0627559, 0.00103507, -0.0562541, -0.00217953, -0.0845146, 0.0533033, 0.000103286, 1.75727, 66.727, 32.3285, 6.54541, 1.79828, 3.95572, 0.00373412, -0.000531896, -0.000746314, 0.00314931, 0.0024443, -0.0014112, 0.000282631, 0.0264104, -0.0255695, -0.0202841, -0.0497108, 0.117745, 0.0103558, 0.471002, -0.542789, 0.336051, -2.08341, -2.16573, -0.129932, 0.470162, -0.542859, 0.332881, -2.08313, -2.16528, -0.12576, -0.000266561, 0.0205361, 0.00529139, 0.0254799, -0.00135726, -0.0196195
0.0981814, 1.69332, -1.22882, -1.54139, -0.900468, -1.19458, 1.23137, -1.30268, 0.062069, 0.00152063, -0.0581587, -0.00320179, -0.0867491, 0.0588874, -0.00162656, 1.72157, 66.6913, 32.3285, 6.62079, 1.78638, 3.95572, 0.0495105, -0.000560386, -0.00072184, 0.00317238, 0.00249986, -0.00153175, 0.000279356, 0.0282437, -0.0258308, -0.0203263, -0.0478224, 0.123346, 0.0106912, 0.471002, -0.542768, 0.336056, -2.08339, -2.16572, -0.129933, 0.470186, -0.542862, 0.332858, -2.08315, -2.16533, -0.125578, -0.000275838, 0.0209836, 0.00540343, 0.0257958, -0.00270201, -0.0198426
0.0991814, 1.69339, -1.22881, -1.54145, -0.900467, -1.19467, 1.23142, -1.30268, 0.0642185, 0.00444395, -0.0594722, -0.00212367, -0.0883109, 0.0534897, -0.00108438, 1.57081, 66.5445, 32.3285, 6.62079, 1.77356, 3.95572, 0.0495105, -0.000586164, -0.000695146, 0.00318933, 0.00255726, -0.00166218, 0.000273498, 0.0278209, -0.025341, -0.0195445, -0.053881, 0.125267, 0.010161, 0.471002, -0.542747, 0.336061, -2.08338, -2.16572, -0.129935, 0.470213, -0.542863, 0.332842, -2.08316, -2.16538, -0.125384, -0.000285321, 0.0214351, 0.00551641, 0.0253103, -0.00197328, -0.0188775
0.100181, 1.69346, -1.22881, -1.5415, -0.900473, -1.19477, 1.23147, -1.30268, 0.0610615, 0.00296002, -0.0570132, -0.00317087, -0.090158, 0.0540544, -0.000722917, 1.49146, 66.5445, 32.1818, 6.69617, 1.75525, 3.96213, 0.0495105, -0.000611339, -0.000668055, 0.00320935, 0.00260801, -0.00177997, 0.000266573, 0.0294308, -0.0241539, -0.0195125, -0.0521476, 0.12575, 0.00823657, 0.471002, -0.542726, 0.336067, -2.08336, -2.16572, -0.129936, 0.47024, -0.542862, 0.332823, -2.08317, -2.16543, -0.12521, -0.000295012, 0.0218908, 0.00563029, 0.024174, -0.00316022, -0.0189469
0.101181, 1.69353, -1.22881, -1.54156, -0.900475, -1.19487, 1.23152, -1.30268, 0.0625012, 0.00289941, -0.0595685, 9.56859e-05, -0.0902842, 0.0541024, -0.000481945, 1.38038, 66.5048, 32.2175, 6.73187, 1.72504, 3.97677, 0.0495105, -0.00064, -0.000643374, 0.00323212, 0.00267164, -0.00190468, 0.000265935, 0.0307986, -0.0237691, -0.0201102, -0.0529989, 0.126092, 0.00533375, 0.471001, -0.542704, 0.336072, -2.08334, -2.16571, -0.129938, 0.470264, -0.542864, 0.332801, -2.08319, -2.16547, -0.125015, -0.000304912, 0.0223506, 0.00574509, 0.0238071, -0.00397392, -0.0196237
0.102181, 1.69359, -1.2288, -1.54162, -0.900478, -1.19496, 1.23156, -1.30268, 0.0634052, 0.00452993, -0.0587866, -0.00144164, -0.0964339, 0.0493131, 0.00018733, 1.26533, 66.3937, 32.1421, 6.80725, 1.71863, 3.99783, 0.0357776, -0.000667328, -0.000619168, 0.00325032, 0.00273234, -0.00203088, 0.000261138, 0.0308207, -0.0231537, -0.019588, -0.059984, 0.130846, 0.00524362, 0.471001, -0.542682, 0.336078, -2.08333, -2.16571, -0.12994, 0.470288, -0.542864, 0.332784, -2.0832, -2.16552, -0.124822, -0.000315023, 0.0228145, 0.00586078, 0.0232021, -0.00363727, -0.0189776
0.103181, 1.69366, -1.22879, -1.54168, -0.90048, -1.19507, 1.2316, -1.30268, 0.0660288, 0.00645253, -0.0611138, -0.00160296, -0.0952115, 0.045954, 0.00131168, 1.18995, 66.2469, 32.1818, 6.84296, 1.70032, 4.01248, 0.00373412, -0.00069701, -0.000598033, 0.00326747, 0.00280042, -0.00216325, 0.000269655, 0.0298002, -0.0237326, -0.0197752, -0.0645989, 0.130698, 0.00614631, 0.471001, -0.542659, 0.336084, -2.08331, -2.1657, -0.129941, 0.47031, -0.542867, 0.332768, -2.08322, -2.16556, -0.124613, -0.000325348, 0.0232823, 0.00597737, 0.0237264, -0.00210889, -0.0189053
0.104181, 1.69373, -1.22878, -1.54174, -0.900486, -1.19516, 1.23164, -1.30268, 0.0695149, 0.0059713, -0.0557527, -0.00361488, -0.0945856, 0.043062, 0.000874454, 0.928108, 66.1755, 32.0707, 6.95801, 1.68201, 4.03445, 0.00373412, -0.000718698, -0.000567014, 0.00328622, 0.00286077, -0.00228587, 0.000248963, 0.0266409, -0.0266331, -0.0189142, -0.0635696, 0.128555, 0.0146129, 0.471, -0.542636, 0.33609, -2.08329, -2.1657, -0.129943, 0.47034, -0.542861, 0.332751, -2.08321, -2.16562, -0.124425, -0.000335889, 0.0237543, 0.00609484, 0.0265304, 0.0014688, -0.0175349
0.105181, 1.69379, -1.22877, -1.54179, -0.900488, -1.19526, 1.23168, -1.30268, 0.0674351, 0.00741392, -0.0537148, -0.00397159, -0.100121, 0.0419059, 0.00132895, 0.85273, 66.0287, 32.031, 7.02942, 1.70032, 4.02713, -0.0164075, -0.000750461, -0.000547809, 0.003303, 0.00292603, -0.00241637, 0.000258653, 0.0283658, -0.0250389, -0.0174172, -0.065003, 0.134144, 0.0115702, 0.471, -0.542612, 0.336096, -2.08328, -2.16569, -0.129945, 0.47036, -0.542866, 0.332735, -2.08324, -2.16565, -0.124221, -0.000346646, 0.0242302, 0.00621319, 0.0250439, -5.41731e-05, -0.0161589
0.106181, 1.69386, -1.22878, -1.54185, -0.900495, -1.19536, 1.23171, -1.30268, 0.0659858, 0.00410693, -0.0514729, -0.00525742, -0.103156, 0.0411259, 0.000377343, 0.777352, 66.0645, 31.9556, 7.14447, 1.6875, 4.0198, -0.00267457, -0.000780163, -0.000525812, 0.00332676, 0.00299107, -0.00253097, 0.000254138, 0.0294795, -0.0244793, -0.0187774, -0.0657106, 0.133224, 0.012389, 0.471, -0.542588, 0.336102, -2.08326, -2.16569, -0.129946, 0.470381, -0.542866, 0.332712, -2.08324, -2.16569, -0.124035, -0.000357622, 0.0247101, 0.00633241, 0.0244645, -0.000486386, -0.0175395
0.107181, 1.69393, -1.22877, -1.5419, -0.900495, -1.19546, 1.23174, -1.30268, 0.0695915, 0.00450084, -0.047416, -0.00427898, -0.100915, 0.0359257, -0.00144386, 0.511544, 65.9891, 31.9199, 7.18018, 1.6875, 4.01248, 0.0431018, -0.00080528, -0.000500066, 0.003345, 0.00305884, -0.0026507, 0.000236716, 0.0267985, -0.0262913, -0.0176587, -0.0656047, 0.129324, 0.019625, 0.470999, -0.542563, 0.336109, -2.08324, -2.16568, -0.129948, 0.470407, -0.542862, 0.332696, -2.08323, -2.16575, -0.123842, -0.000368819, 0.025194, 0.00645249, 0.0262073, 0.00254644, -0.0159534
0.108181, 1.694, -1.22875, -1.54195, -0.900502, -1.19556, 1.23177, -1.30268, 0.068209, 0.00903243, -0.0463812, -0.00540523, -0.104101, 0.0313511, -0.000453946, 0.400459, 65.7312, 31.8445, 7.29126, 1.68201, 4.0198, 0.0293689, -0.000831317, -0.000476981, 0.00335477, 0.00312085, -0.00278443, 0.00023229, 0.0270996, -0.0246661, -0.0151437, -0.0699943, 0.134536, 0.017644, 0.470999, -0.542538, 0.336115, -2.08322, -2.16568, -0.12995, 0.47043, -0.54286, 0.332688, -2.08324, -2.1658, -0.12364, -0.000380238, 0.0256818, 0.00657343, 0.0246753, 0.00228246, -0.0133472
0.109181, 1.69406, -1.22875, -1.542, -0.900512, -1.19566, 1.2318, -1.30268, 0.0683857, 0.00602142, -0.0468468, -0.00709555, -0.106672, 0.0334906, -0.00104862, 0.245735, 65.7312, 31.8088, 7.44202, 1.6875, 4.00516, 0.0495105, -0.000859334, -0.000454178, 0.00337678, 0.00319034, -0.00290054, 0.000218372, 0.0281289, -0.0252123, -0.0171765, -0.0707324, 0.135249, 0.0189246, 0.470999, -0.542512, 0.336122, -2.0832, -2.16567, -0.129952, 0.470453, -0.542858, 0.332668, -2.08323, -2.16585, -0.123449, -0.000391882, 0.0261735, 0.00669522, 0.025172, 0.00209479, -0.0154099
0.110181, 1.69412, -1.22874, -1.54204, -0.900525, -1.19575, 1.23182, -1.30268, 0.0663813, 0.00744781, -0.0471139, -0.00906625, -0.103435, 0.0343992, -0.000190451, 0.170357, 65.5844, 31.7731, 7.62848, 1.6756, 4.00516, 0.0357776, -0.000885611, -0.000432943, 0.00339122, 0.00325616, -0.00302076, 0.00020871, 0.0283205, -0.0249801, -0.0165624, -0.0690716, 0.134956, 0.0187801, 0.470998, -0.542486, 0.336128, -2.08318, -2.16567, -0.129954, 0.470474, -0.542854, 0.332655, -2.08323, -2.1659, -0.123256, -0.000403753, 0.0266691, 0.00681784, 0.0249574, 0.00229736, -0.0147043
0.111181, 1.69418, -1.22873, -1.54208, -0.90052, -1.19585, 1.23185, -1.30268, 0.0640899, 0.00580031, -0.0462897, -0.00426157, -0.101682, 0.0307187, 0.000822468, 0.0196001, 65.5487, 31.6977, 7.5531, 1.6875, 3.99783, 0.0101428, -0.000915086, -0.000411447, 0.00340479, 0.00330921, -0.00313554, 0.000208773, 0.0305315, -0.0223135, -0.0168163, -0.0681512, 0.129884, 0.0123339, 0.470998, -0.542459, 0.336135, -2.08317, -2.16566, -0.129956, 0.470496, -0.542854, 0.332644, -2.08324, -2.16594, -0.123083, -0.000415851, 0.0271686, 0.0069413, 0.0223525, 0.000544099, -0.0150949
0.112181, 1.69425, -1.22872, -1.54213, -0.900525, -1.19594, 1.23187, -1.30268, 0.0631742, 0.00730047, -0.0444709, -0.00458977, -0.100296, 0.0281548, 0.000310953, -0.166862, 65.4019, 31.6977, 7.62848, 1.70032, 3.9841, 0.0165515, -0.000940458, -0.000387536, 0.00341756, 0.00337286, -0.00325641, 0.000199003, 0.0302999, -0.0218493, -0.0155517, -0.0679297, 0.129222, 0.0135681, 0.470997, -0.542432, 0.336142, -2.08315, -2.16566, -0.129958, 0.470519, -0.542849, 0.332633, -2.08323, -2.16598, -0.122893, -0.000428179, 0.027672, 0.00706559, 0.0219143, 0.00106219, -0.0136725
0.113181, 1.69431, -1.22871, -1.54217, -0.900536, -1.19604, 1.23189, -1.30268, 0.0598331, 0.00570213, -0.0429594, -0.00657543, -0.093484, 0.025856, 0.000444661, -0.242241, 65.3662, 31.6977, 7.77924, 1.6875, 3.9841, 0.0101428, -0.000969122, -0.000368338, 0.00343304, 0.00343406, -0.00336759, 0.000192536, 0.0299636, -0.0210556, -0.0163072, -0.0658936, 0.121243, 0.0149284, 0.470997, -0.542404, 0.336149, -2.08313, -2.16565, -0.12996, 0.470539, -0.542846, 0.33262, -2.08323, -2.16603, -0.122715, -0.000440739, 0.0281791, 0.00719069, 0.0210693, 0.00198583, -0.0142173
0.114181, 1.69437, -1.2287, -1.5422, -0.900546, -1.19613, 1.23191, -1.30268, 0.0592495, 0.00816307, -0.0377615, -0.00697391, -0.0939199, 0.0193473, 0.000771159, -0.392998, 65.1797, 31.6581, 7.89032, 1.68201, 3.9841, -0.00267457, -0.000993155, -0.000344293, 0.00344099, 0.00349199, -0.00349065, 0.000177138, 0.0287307, -0.0204476, -0.0136512, -0.0669887, 0.120879, 0.0166974, 0.470997, -0.542376, 0.336156, -2.08311, -2.16564, -0.129962, 0.470563, -0.542839, 0.332615, -2.08323, -2.16608, -0.12253, -0.000453532, 0.0286901, 0.0073166, 0.020502, 0.00327918, -0.0112592
0.115181, 1.69443, -1.22868, -1.54223, -0.900547, -1.19623, 1.23193, -1.30268, 0.0556652, 0.00804047, -0.0339408, -0.00547837, -0.0897657, 0.0204781, -0.00118132, -0.543754, 65.0687, 31.6224, 7.92602, 1.69391, 3.94839, 0.0431018, -0.00102183, -0.000323316, 0.00344888, 0.00354184, -0.00360975, 0.000164552, 0.0298097, -0.0194505, -0.0119188, -0.0593809, 0.117785, 0.0170522, 0.470996, -0.542347, 0.336164, -2.08308, -2.16564, -0.129964, 0.470584, -0.542837, 0.332609, -2.08323, -2.16614, -0.122357, -0.00046656, 0.0292049, 0.00744332, 0.0195953, 0.00242059, -0.00956018
0.116181, 1.69443, -1.22868, -1.54223, -0.900547, -1.19623, 1.23193, -1.30268, 0.0556652, 0.00804047, -0.0339408, -0.00547837, -0.0897657, 0.0204781, -0.00118132, -0.543754, 65.0687, 31.6224, 7.92602, 1.69391, 3.94839, 0.0431018, -0.00105188, -0.000323791, 0.00345169, 0.00352959, -0.00362461, 0.000171272, 0.0303423, -0.0194462, -0.0119634, -0.059285, 0.11816, 0.0170913, 0.470996, -0.542318, 0.336171, -2.08306, -2.16563, -0.129966, 0.470584, -0.542837, 0.332609, -2.08323, -2.16614, -0.122357, -0.000479825, 0.0297235, 0.00757084, 0.0195953, 0.00242059, -0.00956018
0.117181, 1.69454, -1.22867, -1.54228, -0.900556, -1.19642, 1.23196, -1.30268, 0.0570077, 0.00524394, -0.0280069, -0.00592665, -0.0918748, 0.0123859, -0.00101105, -0.76989, 64.9973, 31.5867, 8.0014, 1.70032, 3.91269, 0.0495105, -0.00108011, -0.000282974, 0.00347131, 0.00364756, -0.00383393, 0.000144181, 0.0287484, -0.0196788, -0.0123886, -0.0626578, 0.113178, 0.0208577, 0.470995, -0.542288, 0.336179, -2.08304, -2.16563, -0.129968, 0.470624, -0.54283, 0.332592, -2.08322, -2.16623, -0.122019, -0.000493328, 0.0302458, 0.00769914, 0.0197412, 0.00459197, -0.00961119
0.118181, 1.6946, -1.22867, -1.5423, -0.90056, -1.19652, 1.23198, -1.30268, 0.0592168, 0.007471, -0.0241271, -0.0049773, -0.0928219, 0.0102291, -0.000911392, -0.884941, 64.9576, 31.5867, 8.03711, 1.70581, 3.88339, 0.0559192, -0.00111031, -0.00026342, 0.00348038, 0.00369658, -0.00394757, 0.000135881, 0.027537, -0.0208484, -0.00991648, -0.0611727, 0.115223, 0.0236422, 0.470995, -0.542258, 0.336186, -2.08302, -2.16562, -0.129971, 0.470644, -0.542828, 0.332585, -2.08322, -2.16628, -0.121852, -0.000507072, 0.0307718, 0.00782823, 0.0209424, 0.00598058, -0.00688899
0.119181, 1.69466, -1.22866, -1.54232, -0.900563, -1.19662, 1.23199, -1.30268, 0.0604505, 0.00523457, -0.0216783, -0.00522468, -0.0979659, 0.00799308, -0.00108231, -1.11108, 64.9576, 31.4716, 8.11249, 1.70581, 3.86966, 0.0687366, -0.00113689, -0.000240147, 0.00348577, 0.00374234, -0.00406413, 0.000117752, 0.0279408, -0.0210785, -0.0106987, -0.0637634, 0.116395, 0.024792, 0.470994, -0.542227, 0.336194, -2.083, -2.16561, -0.129973, 0.470668, -0.542821, 0.332583, -2.08322, -2.16634, -0.121687, -0.000521058, 0.0313016, 0.00795809, 0.0211441, 0.00624248, -0.007602
0.120181, 1.69472, -1.22865, -1.54234, -0.900573, -1.19672, 1.232, -1.30269, 0.0585815, 0.00368015, -0.0182816, -0.00628181, -0.0971271, 0.00637006, -0.000484183, -1.22613, 64.9576, 31.547, 8.22754, 1.70581, 3.85501, 0.0623279, -0.00116592, -0.000220158, 0.00349518, 0.00379541, -0.00417708, 0.000102037, 0.0281083, -0.0206892, -0.0106457, -0.0620491, 0.113552, 0.0252457, 0.470994, -0.542196, 0.336202, -2.08297, -2.16561, -0.129975, 0.470688, -0.542816, 0.332577, -2.08321, -2.1664, -0.121517, -0.000535288, 0.031835, 0.00808872, 0.020749, 0.00658678, -0.00743389
0.121181, 1.69477, -1.22865, -1.54235, -0.90057, -1.19683, 1.23201, -1.30268, 0.0564602, 0.00482254, -0.0137374, -0.00334042, -0.0964972, 0.00516335, 0.000389288, -1.30151, 64.9973, 31.547, 8.18787, 1.71222, 3.84036, 0.0431018, -0.00120076, -0.000203785, 0.00350343, 0.0038409, -0.00429066, 0.000105197, 0.029176, -0.0194712, -0.00799046, -0.0569033, 0.113345, 0.0220961, 0.470993, -0.542164, 0.33621, -2.08295, -2.1656, -0.129978, 0.470705, -0.542817, 0.332571, -2.08322, -2.16643, -0.121354, -0.000549763, 0.0323721, 0.00822011, 0.019654, 0.00560985, -0.00481074
0.122181, 1.69483, -1.22866, -1.54236, -0.900568, -1.19694, 1.23203, -1.30268, 0.0605471, 0.00318168, -0.015253, -0.00145216, -0.101746, 0.00863799, 0.00148023, -1.48797, 65.144, 31.6224, 8.15216, 1.71863, 3.83304, 0.0101428, -0.00123442, -0.000183673, 0.00351565, 0.00388564, -0.00439928, 0.000102853, 0.0303382, -0.0211471, -0.00917899, -0.0574237, 0.118202, 0.0210033, 0.470993, -0.542132, 0.336219, -2.08293, -2.16559, -0.12998, 0.470725, -0.542815, 0.332561, -2.08323, -2.16647, -0.121196, -0.000564485, 0.0329128, 0.00835225, 0.0213113, 0.00525652, -0.00608514
0.123181, 1.69489, -1.22865, -1.54237, -0.900569, -1.19704, 1.23204, -1.30268, 0.0612731, 0.00885995, -0.0137545, -0.00184865, -0.105218, 0.00713598, 0.00146154, -1.7141, 65.144, 31.5867, 8.18787, 1.73053, 3.81198, -0.00267457, -0.00126363, -0.000161071, 0.0035191, 0.00392632, -0.00451709, 8.93241e-05, 0.0301489, -0.021136, -0.00556512, -0.0587337, 0.12632, 0.021579, 0.470992, -0.542099, 0.336227, -2.0829, -2.16559, -0.129982, 0.470748, -0.542809, 0.33256, -2.08323, -2.16653, -0.121036, -0.000579456, 0.0334572, 0.00848514, 0.0214109, 0.0054293, -0.00235516
0.124181, 1.69494, -1.22864, -1.54236, -0.900571, -1.19715, 1.23205, -1.30268, 0.0602525, 0.0109215, -0.0106619, -0.00219444, -0.107636, 0.00574792, 0.00049964, -1.75378, 65.1083, 31.4716, 8.22754, 1.72504, 3.79733, 0.0101428, -0.00129555, -0.000142535, 0.00351764, 0.0039567, -0.00463581, 7.78045e-05, 0.0305619, -0.0206211, -0.00341025, -0.0580786, 0.129858, 0.0225108, 0.470991, -0.542066, 0.336235, -2.08288, -2.16558, -0.129985, 0.470767, -0.542807, 0.332565, -2.08323, -2.16659, -0.120885, -0.000594677, 0.0340052, 0.00861877, 0.0209756, 0.00521563, -0.000143395
0.125181, 1.695, -1.22863, -1.54237, -0.90057, -1.19726, 1.23206, -1.30268, 0.0576989, 0.0112875, -0.0108982, -0.000560435, -0.113513, 0.00521916, 0.000333093, -1.82915, 65.1083, 31.5867, 8.18787, 1.71863, 3.76895, 0.0101428, -0.00133038, -0.000124043, 0.00352204, 0.00399766, -0.00475648, 7.25366e-05, 0.0338729, -0.0180113, -0.00299698, -0.0601765, 0.134975, 0.0166929, 0.470991, -0.542032, 0.336244, -2.08286, -2.16557, -0.129987, 0.470786, -0.542806, 0.332563, -2.08324, -2.16665, -0.12072, -0.000610151, 0.0345567, 0.00875313, 0.0184884, 0.00232752, -3.79511e-05
0.126181, 1.69506, -1.22862, -1.54237, -0.900573, -1.19736, 1.23207, -1.30268, 0.0577501, 0.0142554, -0.00808976, -0.00132076, -0.113075, 0.00907329, -0.000998641, -1.97991, 64.9973, 31.5867, 8.22754, 1.70032, 3.7543, 0.0431018, -0.00135849, -9.94617e-05, 0.00351895, 0.00403199, -0.00488427, 4.85043e-05, 0.033646, -0.0194062, -6.65169e-05, -0.0541642, 0.13976, 0.0202266, 0.47099, -0.541997, 0.336253, -2.08283, -2.16557, -0.12999, 0.470811, -0.542798, 0.33257, -2.08324, -2.16672, -0.120557, -0.000625878, 0.0351119, 0.00888822, 0.0199653, 0.00271158, 0.00298216
0.127181, 1.69511, -1.22862, -1.54237, -0.900571, -1.19747, 1.23208, -1.30268, 0.0559284, 0.0127983, -0.0068466, -0.000894849, -0.112442, 0.0117777, -0.00137784, -2.05529, 65.033, 31.6224, 8.22754, 1.69391, 3.74057, 0.0623279, -0.00139331, -8.03577e-05, 0.00352217, 0.00406589, -0.00500031, 3.87941e-05, 0.035187, -0.0190989, -0.00013625, -0.0499642, 0.139352, 0.0193172, 0.47099, -0.541962, 0.336262, -2.0828, -2.16556, -0.129992, 0.47083, -0.542796, 0.332569, -2.08325, -2.16678, -0.120406, -0.00064186, 0.0356705, 0.00902402, 0.0196957, 0.00174748, 0.00281741
0.128181, 1.69517, -1.22861, -1.54237, -0.900575, -1.19758, 1.23209, -1.30268, 0.0545897, 0.00870298, 0.00210343, -0.00144254, -0.118308, 0.013633, -0.000206481, -2.13067, 65.0687, 31.5867, 8.26324, 1.68201, 3.73324, 0.0431018, -0.00142591, -5.84917e-05, 0.00352517, 0.00409955, -0.00511826, 2.50642e-05, 0.0360657, -0.0198078, 0.000742251, -0.0435359, 0.140821, 0.019765, 0.470989, -0.541926, 0.336271, -2.08278, -2.16555, -0.129995, 0.470852, -0.542791, 0.33257, -2.08325, -2.16684, -0.120253, -0.000658099, 0.0362327, 0.00916054, 0.0204516, 0.00133601, 0.00366158
0.129181, 1.69522, -1.22861, -1.54237, -0.900576, -1.19769, 1.2321, -1.30268, 0.0556395, 0.00562848, 0.000744017, -0.000969759, -0.112061, 0.011422, -0.000612372, -2.16637, 65.1083, 31.6224, 8.26324, 1.6756, 3.69754, 0.0559192, -0.00146353, -4.04185e-05, 0.00352886, 0.00413325, -0.0052386, 1.82347e-05, 0.0354209, -0.0204025, -0.00178818, -0.0438307, 0.132034, 0.0223124, 0.470988, -0.54189, 0.33628, -2.08275, -2.16554, -0.129998, 0.470871, -0.542791, 0.332569, -2.08326, -2.16689, -0.120096, -0.000674597, 0.0367984, 0.00929776, 0.020913, 0.00295436, 0.0013819
0.130181, 1.69528, -1.22861, -1.54237, -0.900576, -1.1978, 1.23212, -1.30268, 0.0600976, 0.00348299, 0.000628722, -0.000652556, -0.108398, 0.00891541, 6.64698e-05, -2.3568, 65.144, 31.6224, 8.26324, 1.66369, 3.68289, 0.0431018, -0.00149643, -1.60338e-05, 0.00353066, 0.00416482, -0.00536174, 3.20274e-06, 0.0333514, -0.0228045, -0.00355479, -0.045007, 0.126193, 0.0269961, 0.470988, -0.541853, 0.336289, -2.08273, -2.16554, -0.13, 0.470896, -0.542785, 0.33257, -2.08326, -2.16696, -0.119941, -0.000691354, 0.0373675, 0.00943568, 0.0231557, 0.0059393, 2.37529e-05
0.131181, 1.69533, -1.2286, -1.54237, -0.900581, -1.19791, 1.23213, -1.30268, 0.0568811, 0.00534487, 0.000518681, -0.00220281, -0.110011, 0.00651226, 0.00126502, -2.39648, 65.033, 31.6224, 8.33862, 1.6756, 3.68289, 0.0101428, -0.00153285, 2.42199e-06, 0.00353021, 0.0042011, -0.00549032, -2.43076e-06, 0.0348303, -0.0206672, -0.00279404, -0.0479002, 0.128637, 0.0233919, 0.470987, -0.541816, 0.336299, -2.0827, -2.16553, -0.130003, 0.470915, -0.542783, 0.332574, -2.08327, -2.16702, -0.119773, -0.000708374, 0.0379402, 0.00957429, 0.0210857, 0.00484648, 0.000747469
0.132181, 1.69538, -1.2286, -1.54238, -0.900581, -1.19802, 1.23214, -1.30268, 0.0576725, 0.00211832, -0.000414781, -0.00147194, -0.10565, 0.0055818, 0.000605985, -2.43218, 65.1083, 31.6581, 8.33862, 1.65088, 3.66092, 0.0165515, -0.00157223, 2.07764e-05, 0.00353824, 0.00423684, -0.00560383, -8.62732e-06, 0.0348194, -0.0211601, -0.00509972, -0.0474376, 0.121827, 0.0252966, 0.470986, -0.541778, 0.336308, -2.08267, -2.16552, -0.130006, 0.470934, -0.542782, 0.332569, -2.08328, -2.16707, -0.119622, -0.000725657, 0.0385162, 0.00971358, 0.0214756, 0.00581071, -0.00140401
0.133181, 1.69544, -1.2286, -1.54237, -0.900576, -1.19812, 1.23216, -1.30268, 0.0596884, 0.000815727, 0.000614685, 0.000779389, -0.103743, 0.0100384, 0.00040399, -2.54723, 65.144, 31.6224, 8.26324, 1.66919, 3.62521, 0.0165515, -0.0016102, 4.28115e-05, 0.00354189, 0.0042581, -0.00571841, -1.81273e-05, 0.0351748, -0.0230241, -0.00495274, -0.041017, 0.121389, 0.0267249, 0.470985, -0.541739, 0.336318, -2.08264, -2.16551, -0.130009, 0.470956, -0.542779, 0.332569, -2.08329, -2.16712, -0.119486, -0.000743204, 0.0390957, 0.00985355, 0.023338, 0.00609424, -0.00123269
0.134181, 1.69548, -1.22859, -1.54237, -0.900581, -1.19823, 1.23217, -1.30268, 0.0569976, 0.00155809, -0.000383437, -0.00124556, -0.101965, 0.00810161, 3.19678e-05, -2.47185, 65.1083, 31.6581, 8.33862, 1.6756, 3.60415, 0.0229602, -0.00165105, 5.87972e-05, 0.00354512, 0.00429021, -0.0058385, -2.30295e-05, 0.0359553, -0.021619, -0.00522541, -0.0431084, 0.120288, 0.0263522, 0.470985, -0.5417, 0.336328, -2.08262, -2.1655, -0.130011, 0.470973, -0.542779, 0.332568, -2.0833, -2.16718, -0.119332, -0.000761018, 0.0396786, 0.00999418, 0.0219353, 0.00589126, -0.00144083
0.135181, 1.69554, -1.2286, -1.54237, -0.900584, -1.19833, 1.23219, -1.30268, 0.0565462, -0.000497424, 0.0014463, -0.000831808, -0.100764, 0.00719561, -0.00143675, -2.58294, 65.1797, 31.5867, 8.33862, 1.69391, 3.56845, 0.0623279, -0.00168539, 8.42713e-05, 0.00355267, 0.00431296, -0.00594133, -4.85138e-05, 0.0363579, -0.0216023, -0.0058347, -0.0415337, 0.117056, 0.0283671, 0.470984, -0.541661, 0.336338, -2.08259, -2.1655, -0.130014, 0.470998, -0.542771, 0.332565, -2.08328, -2.16725, -0.119207, -0.000779099, 0.0402649, 0.0101355, 0.0218928, 0.00617412, -0.00196443
0.136181, 1.6956, -1.2286, -1.54237, -0.900585, -1.19843, 1.2322, -1.30268, 0.056045, 0.00143954, 0.000152604, -0.00139083, -0.099304, 0.010935, 2.55107e-05, -2.69799, 65.1083, 31.6224, 8.37433, 1.69391, 3.53915, 0.0357776, -0.00172247, 0.000107258, 0.00355612, 0.00433905, -0.00605775, -5.9633e-05, 0.0372068, -0.022029, -0.00492088, -0.0386304, 0.120185, 0.0267877, 0.470983, -0.54162, 0.336348, -2.08256, -2.16549, -0.130017, 0.471021, -0.542766, 0.332565, -2.08329, -2.1673, -0.119064, -0.00079745, 0.0408545, 0.0102774, 0.0223652, 0.00580264, -0.001067
0.137181, 1.69565, -1.22859, -1.54237, -0.900579, -1.19853, 1.23222, -1.30268, 0.0564769, 0.00363368, 0.000119451, 0.000835208, -0.0985492, 0.00872705, 0.000491725, -2.69799, 64.9973, 31.6224, 8.29895, 1.71222, 3.5181, 0.0229602, -0.00176333, 0.000126682, 0.00355574, 0.00435843, -0.00617665, -6.30035e-05, 0.0377086, -0.0214062, -0.00359207, -0.0389292, 0.120911, 0.0250236, 0.470982, -0.541579, 0.336358, -2.08253, -2.16548, -0.13002, 0.471041, -0.542764, 0.332569, -2.0833, -2.16736, -0.118925, -0.000816072, 0.0414475, 0.01042, 0.0217918, 0.00566924, 0.000327243
0.138181, 1.69571, -1.2286, -1.54237, -0.900581, -1.19862, 1.23223, -1.30268, 0.0553764, -0.000119348, 9.292e-05, 0.0005562, -0.102696, 0.0109876, -0.000892886, -2.77337, 65.1083, 31.6224, 8.29895, 1.73053, 3.5181, 0.0559192, -0.00180262, 0.000149044, 0.00356593, 0.00438442, -0.00627957, -8.08348e-05, 0.0401351, -0.0208609, -0.00563466, -0.0390896, 0.122111, 0.0243063, 0.470982, -0.541538, 0.336369, -2.0825, -2.16547, -0.130023, 0.471064, -0.542759, 0.332562, -2.08329, -2.16742, -0.118797, -0.000834967, 0.0420438, 0.0105633, 0.0212409, 0.00416451, -0.00190924
0.139181, 1.69576, -1.2286, -1.54237, -0.900584, -1.19872, 1.23225, -1.30268, 0.0527747, -0.000872294, 7.19112e-05, -0.000557674, -0.0957424, 0.0130416, -0.000832617, -2.77337, 65.144, 31.6224, 8.33862, 1.73694, 3.51077, 0.0623279, -0.00184325, 0.000169631, 0.00357292, 0.00440813, -0.0063873, -9.31279e-05, 0.0404878, -0.0208172, -0.00598049, -0.0341565, 0.117117, 0.0250201, 0.470981, -0.541496, 0.336379, -2.08247, -2.16546, -0.130026, 0.471085, -0.542755, 0.332559, -2.08329, -2.16747, -0.118666, -0.000854135, 0.0426434, 0.0107072, 0.0211784, 0.00446822, -0.00216167
0.140181, 1.69581, -1.2286, -1.54237, -0.900582, -1.19881, 1.23226, -1.30268, 0.0488707, -0.00138488, 5.54142e-05, 0.000555896, -0.0962592, 0.0096544, -0.000792437, -2.80907, 65.1797, 31.6224, 8.29895, 1.74335, 3.51077, 0.0687366, -0.00188453, 0.000190697, 0.0035806, 0.00442855, -0.0064898, -0.000103869, 0.0429778, -0.0177022, -0.00626938, -0.0361538, 0.115566, 0.0200113, 0.47098, -0.541453, 0.33639, -2.08244, -2.16545, -0.130029, 0.471106, -0.542751, 0.332555, -2.08329, -2.16753, -0.118543, -0.000873578, 0.0432462, 0.0108517, 0.0181277, 0.0025293, -0.00259632
0.141181, 1.69586, -1.2286, -1.54237, -0.900584, -1.19891, 1.23228, -1.30269, 0.0508406, -6.4135e-05, -0.00079267, 0.000370342, -0.0963817, 0.0166116, -5.35732e-05, -2.80907, 65.144, 31.6581, 8.29895, 1.76166, 3.50345, 0.0559192, -0.00192624, 0.000211627, 0.00358432, 0.00444863, -0.00660381, -0.000115973, 0.0434643, -0.0199356, -0.00535463, -0.0310531, 0.120999, 0.0209833, 0.470979, -0.54141, 0.336401, -2.08241, -2.16544, -0.130032, 0.471128, -0.542748, 0.332555, -2.0833, -2.16759, -0.11841, -0.000893298, 0.0438524, 0.0109968, 0.02039, 0.00260673, -0.00169428
0.142181, 1.69591, -1.22859, -1.54237, -0.900587, -1.199, 1.2323, -1.30268, 0.0494434, 0.00340884, 0.000310975, -0.000681317, -0.0919219, 0.0128884, 0.00142235, -2.80907, 64.9973, 31.6224, 8.33862, 1.78638, 3.48971, 0.0165515, -0.00196638, 0.00023334, 0.00358259, 0.00446552, -0.00672429, -0.000123071, 0.0425782, -0.0193368, -0.00336886, -0.0310953, 0.119371, 0.0210202, 0.470978, -0.541366, 0.336412, -2.08237, -2.16543, -0.130036, 0.47115, -0.542743, 0.33256, -2.08331, -2.16765, -0.118273, -0.000913297, 0.0444617, 0.0111426, 0.0198137, 0.00375887, 0.000567556
0.143181, 1.69596, -1.22859, -1.54237, -0.900588, -1.19909, 1.23231, -1.30268, 0.0505283, 0.00145079, 0.00104569, -0.000454355, -0.0880485, 0.0101138, 0.00142295, -2.77337, 65.033, 31.5867, 8.33862, 1.79828, 3.47507, 0.00373412, -0.00200997, 0.000252799, 0.00358928, 0.004478, -0.0068226, -0.000129915, 0.0417652, -0.0199883, -0.00458629, -0.031164, 0.113279, 0.0236032, 0.470977, -0.541322, 0.336423, -2.08234, -2.16542, -0.130039, 0.47117, -0.542739, 0.332557, -2.08331, -2.1677, -0.118163, -0.000933575, 0.0450743, 0.0112889, 0.0203699, 0.00538998, -0.000382379
0.144181, 1.69602, -1.2286, -1.54237, -0.900592, -1.19918, 1.23234, -1.30268, 0.051125, -0.000785963, -0.000970946, -0.000303011, -0.0890175, 0.0173144, 0.000236556, -2.84875, 65.1083, 31.6581, 8.33862, 1.79187, 3.46042, 0.0229602, -0.00205047, 0.000279095, 0.0035989, 0.00449611, -0.006928, -0.000151178, 0.0437394, -0.0211835, -0.00604108, -0.027214, 0.11599, 0.0240838, 0.470976, -0.541277, 0.336434, -2.08231, -2.16541, -0.130042, 0.471196, -0.542731, 0.332552, -2.0833, -2.16776, -0.118041, -0.000954135, 0.0456901, 0.0114359, 0.0215608, 0.00433277, -0.00201839
0.145181, 1.69607, -1.22859, -1.54237, -0.900599, -1.19927, 1.23235, -1.30268, 0.0496861, 0.00208204, 0.000189694, -0.00196533, -0.0866394, 0.0177943, -7.96551e-05, -2.84875, 64.9973, 31.6224, 8.414, 1.823, 3.45309, 0.0293689, -0.00209144, 0.000301497, 0.00359834, 0.00450987, -0.0070445, -0.000168426, 0.0435911, -0.0212556, -0.00410197, -0.0248596, 0.117596, 0.0257737, 0.470975, -0.541231, 0.336446, -2.08228, -2.1654, -0.130045, 0.471219, -0.542725, 0.332557, -2.0833, -2.16783, -0.117913, -0.000974976, 0.0463091, 0.0115835, 0.0216786, 0.00480122, 6.30978e-05
0.146181, 1.69611, -1.22859, -1.54238, -0.900601, -1.19936, 1.23237, -1.30268, 0.0468139, 0.000558482, -0.00163545, -0.000382258, -0.0893319, 0.0176538, -0.00103645, -2.77337, 65.033, 31.6977, 8.37433, 1.84131, 3.46042, 0.0559192, -0.00214078, 0.000318328, 0.0036081, 0.00452742, -0.0071487, -0.0001729, 0.0470185, -0.018664, -0.0053274, -0.0266549, 0.118553, 0.0208181, 0.470974, -0.541185, 0.336457, -2.08224, -2.16539, -0.130049, 0.471236, -0.542725, 0.332551, -2.08331, -2.16788, -0.117791, -0.000996102, 0.0469312, 0.0117316, 0.0191485, 0.0021231, -0.00145543
0.147181, 1.69616, -1.2286, -1.54238, -0.900607, -1.19944, 1.23239, -1.30268, 0.0502964, -0.00138666, -0.00192452, -0.0011829, -0.0859297, 0.018129, -0.00140304, -2.80907, 65.1083, 31.7335, 8.414, 1.84772, 3.45309, 0.0751453, -0.00218452, 0.000341584, 0.00361847, 0.00454264, -0.00724831, -0.000191185, 0.0454865, -0.0212536, -0.00688365, -0.025863, 0.114713, 0.0264077, 0.470973, -0.541138, 0.336469, -2.08221, -2.16538, -0.130052, 0.471259, -0.542719, 0.332545, -2.0833, -2.16794, -0.117679, -0.00101751, 0.0475565, 0.0118804, 0.0216003, 0.00460994, -0.00268521
0.148181, 1.6962, -1.2286, -1.54238, -0.900618, -1.19952, 1.23242, -1.30268, 0.0473203, -0.000921251, -0.00128226, -0.00245907, -0.0838721, 0.0135443, -0.000698002, -2.7337, 65.1083, 31.7335, 8.48541, 1.86603, 3.45309, 0.0687366, -0.00223016, 0.00036199, 0.00362322, 0.00455347, -0.00735714, -0.000203328, 0.0460188, -0.0193645, -0.00685509, -0.0283006, 0.111644, 0.0248925, 0.470972, -0.54109, 0.336481, -2.08218, -2.16537, -0.130056, 0.47128, -0.542715, 0.332544, -2.0833, -2.168, -0.117561, -0.00103921, 0.0481849, 0.0120297, 0.0197126, 0.00463067, -0.00253383
0.149181, 1.69626, -1.22859, -1.54238, -0.900619, -1.19961, 1.23244, -1.30268, 0.0480179, 0.000316245, -0.000854281, 3.10285e-05, -0.0819242, 0.014257, 9.38301e-06, -2.77337, 65.0687, 31.7335, 8.414, 1.87244, 3.46774, 0.0559192, -0.00227334, 0.000385848, 0.0036259, 0.00456164, -0.00746374, -0.000218031, 0.0465785, -0.019602, -0.00565148, -0.0250892, 0.111861, 0.023567, 0.470971, -0.541042, 0.336493, -2.08214, -2.16536, -0.130059, 0.471304, -0.542708, 0.332546, -2.0833, -2.16806, -0.117449, -0.0010612, 0.0488164, 0.0121795, 0.019993, 0.00453356, -0.00129211
0.150181, 1.6963, -1.2286, -1.54237, -0.900628, -1.19969, 1.23246, -1.30268, 0.0448484, -0.000715395, 0.000266118, -0.00396915, -0.0807817, 0.0154005, 0.00122696, -2.65832, 65.1083, 31.6977, 8.44971, 1.87793, 3.46774, 0.0229602, -0.00232105, 0.000405601, 0.00363184, 0.00456727, -0.00756675, -0.000225747, 0.0472067, -0.0192737, -0.00620041, -0.0239365, 0.111089, 0.0237183, 0.47097, -0.540993, 0.336505, -2.08211, -2.16535, -0.130063, 0.471325, -0.542704, 0.332544, -2.08331, -2.16811, -0.117342, -0.00108347, 0.049451, 0.01233, 0.0196456, 0.00462017, -0.00177314
0.151181, 1.69635, -1.22861, -1.54238, -0.900628, -1.19977, 1.23248, -1.30268, 0.0481939, -0.00298124, -0.00242073, -0.00353844, -0.0794302, 0.0209368, 0.00105533, -2.65832, 65.2155, 31.8088, 8.33862, 1.87793, 3.46774, 0.0165515, -0.00236965, 0.000427845, 0.00364511, 0.00457792, -0.00766059, -0.000235158, 0.0475726, -0.0217894, -0.00816739, -0.0212221, 0.111172, 0.0261024, 0.470969, -0.540944, 0.336517, -2.08207, -2.16534, -0.130066, 0.471347, -0.542699, 0.332535, -2.0833, -2.16816, -0.11724, -0.00110604, 0.0500886, 0.012481, 0.0220759, 0.00530707, -0.00370085
0.152181, 1.69639, -1.2286, -1.54238, -0.900637, -1.19985, 1.23251, -1.30268, 0.0452848, -0.000316047, -0.000778364, -0.00908022, -0.07967, 0.0256993, 0.000228836, -2.54723, 65.144, 31.7731, 8.33862, 1.90265, 3.45309, 0.0293689, -0.00241837, 0.000448046, 0.00364712, 0.00458128, -0.00777339, -0.000247642, 0.0478277, -0.0224848, -0.00625796, -0.0175582, 0.117114, 0.0296416, 0.470968, -0.540894, 0.33653, -2.08203, -2.16533, -0.13007, 0.471368, -0.542696, 0.332537, -2.08331, -2.16823, -0.117126, -0.0011289, 0.0507293, 0.0126325, 0.0228279, 0.0054294, -0.00172745
0.153181, 1.69643, -1.2286, -1.54238, -0.900639, -1.19993, 1.23253, -1.30268, 0.0432693, -0.00104516, -0.000518732, -0.00743398, -0.0786008, 0.0288807, 0.000152558, -2.43218, 65.1797, 31.7731, 8.22754, 1.90265, 3.44668, 0.0293689, -0.0024704, 0.000466214, 0.00365324, 0.00458183, -0.00787422, -0.000251824, 0.0500051, -0.0217483, -0.00602901, -0.0129124, 0.117315, 0.0268411, 0.470967, -0.540843, 0.336542, -2.082, -2.16532, -0.130073, 0.471386, -0.542695, 0.332535, -2.08332, -2.16828, -0.117027, -0.00115205, 0.051373, 0.0127846, 0.0221572, 0.00385854, -0.00166883
0.154181, 1.69648, -1.2286, -1.54238, -0.900654, -1.20001, 1.23256, -1.30268, 0.04071, -0.000696205, -0.00118091, -0.01062, -0.0770717, 0.0307427, -0.001119, -2.39648, 65.1797, 31.8088, 8.29895, 1.88434, 3.44668, 0.0623279, -0.00251618, 0.000490843, 0.00366098, 0.00459207, -0.00797948, -0.000276935, 0.0508563, -0.0214151, -0.00625107, -0.0121115, 0.118027, 0.0286248, 0.470966, -0.540792, 0.336555, -2.08196, -2.16531, -0.130077, 0.471411, -0.542686, 0.332532, -2.08331, -2.16835, -0.116916, -0.0011755, 0.0520197, 0.0129373, 0.0218239, 0.00368633, -0.00185999
0.155181, 1.69652, -1.22861, -1.54238, -0.900663, -1.20009, 1.23258, -1.30268, 0.0397932, -0.00129893, -0.00162239, -0.0111926, -0.0774441, 0.0282349, 0.000237345, -2.28143, 65.2155, 31.8445, 8.29895, 1.90265, 3.43204, 0.0357776, -0.00256857, 0.000508783, 0.00366917, 0.00460071, -0.00808254, -0.000281379, 0.0517231, -0.0204611, -0.00706018, -0.0148904, 0.117011, 0.0265831, 0.470965, -0.54074, 0.336568, -2.08192, -2.1653, -0.130081, 0.471429, -0.542684, 0.332528, -2.08331, -2.1684, -0.116806, -0.00119924, 0.0526694, 0.0130904, 0.0208491, 0.00356704, -0.00261331
0.156181, 1.69656, -1.22861, -1.54239, -0.900665, -1.20016, 1.23261, -1.30268, 0.0431559, -0.000865633, -0.00284476, -0.00583327, -0.0720231, 0.0259043, 0.000632948, -2.20605, 65.2155, 31.9199, 8.18787, 1.89624, 3.43204, 0.0229602, -0.00262235, 0.000527593, 0.00367569, 0.00460324, -0.00818706, -0.000283812, 0.0513865, -0.0211094, -0.00693228, -0.0132745, 0.112033, 0.0260532, 0.470963, -0.540687, 0.336581, -2.08189, -2.16528, -0.130085, 0.471448, -0.542683, 0.332526, -2.08332, -2.16845, -0.116701, -0.00122328, 0.0533221, 0.0132441, 0.0214655, 0.00455985, -0.00230264
0.157181, 1.6966, -1.22861, -1.54239, -0.900679, -1.20024, 1.23263, -1.30268, 0.0424699, -0.0031753, -0.00106123, -0.00776078, -0.0727663, 0.0237937, -0.0010361, -2.13067, 65.3265, 31.8842, 8.18787, 1.89624, 3.43936, 0.0623279, -0.00267219, 0.000549404, 0.00368461, 0.00460523, -0.00828334, -0.000305335, 0.0515633, -0.0210458, -0.00812637, -0.0147654, 0.10979, 0.0294293, 0.470962, -0.540634, 0.336594, -2.08185, -2.16527, -0.130089, 0.47147, -0.542676, 0.332522, -2.08331, -2.16851, -0.116607, -0.00124762, 0.0539777, 0.0133983, 0.0213398, 0.00522449, -0.00335469
0.158181, 1.69663, -1.22862, -1.54238, -0.900687, -1.20031, 1.23265, -1.30268, 0.0403988, -0.00304471, -0.000707444, -0.00421827, -0.073818, 0.0221898, -0.00116545, -1.97991, 65.3662, 31.8842, 8.11249, 1.89075, 3.44668, 0.0751453, -0.00272569, 0.000567809, 0.00369186, 0.00460329, -0.00837907, -0.000315223, 0.05417, -0.0187392, -0.00750685, -0.0142018, 0.110057, 0.0242654, 0.470961, -0.54058, 0.336608, -2.08181, -2.16526, -0.130092, 0.471489, -0.542673, 0.332519, -2.08331, -2.16857, -0.116517, -0.00127226, 0.0546363, 0.013553, 0.0191299, 0.00311856, -0.00292656
0.159181, 1.69667, -1.22862, -1.54238, -0.900702, -1.20038, 1.23267, -1.30268, 0.0404993, -0.00286489, -0.000471598, -0.00750272, -0.0738264, 0.0258677, 0.00017247, -1.90453, 65.4019, 31.8842, 8.15216, 1.87793, 3.45309, 0.0495105, -0.00277622, 0.000588105, 0.00369913, 0.00460823, -0.00847677, -0.000328834, 0.0541424, -0.0202447, -0.00750247, -0.0122019, 0.112813, 0.026085, 0.47096, -0.540525, 0.336621, -2.08177, -2.16525, -0.130096, 0.47151, -0.542666, 0.332517, -2.0833, -2.16862, -0.116417, -0.0012972, 0.0552977, 0.0137082, 0.0206079, 0.00387018, -0.00281155
0.160181, 1.69671, -1.22862, -1.54238, -0.900715, -1.20045, 1.2327, -1.30268, 0.0378665, -0.00190983, 0.00190224, -0.00790783, -0.0739103, 0.0243578, -0.000122379, -1.82915, 65.4019, 31.9199, 8.11249, 1.86603, 3.44668, 0.0559192, -0.00282902, 0.000607767, 0.00370636, 0.00460737, -0.00857285, -0.000342188, 0.0551526, -0.0189754, -0.00619512, -0.0110378, 0.113348, 0.0252655, 0.470958, -0.54047, 0.336635, -2.08173, -2.16524, -0.1301, 0.47153, -0.542661, 0.332514, -2.0833, -2.16868, -0.116326, -0.00132244, 0.0559621, 0.013864, 0.0194011, 0.00328221, -0.00148583
0.161181, 1.69675, -1.22862, -1.54238, -0.900728, -1.20051, 1.23272, -1.30268, 0.0357407, -0.00294358, 0.0015225, -0.0115679, -0.0735648, 0.0275795, 0.00113912, -1.75378, 65.4733, 31.9199, 8.07678, 1.84131, 3.44668, 0.0229602, -0.00288205, 0.000627956, 0.00371574, 0.00460496, -0.00866328, -0.000352912, 0.0561356, -0.0191849, -0.00709991, -0.00975144, 0.114382, 0.0251391, 0.470957, -0.540414, 0.336649, -2.08169, -2.16522, -0.130104, 0.47155, -0.542655, 0.33251, -2.08329, -2.16873, -0.116242, -0.00134799, 0.0566293, 0.0140202, 0.0195871, 0.00312928, -0.00238533
0.162181, 1.69677, -1.22863, -1.54239, -0.900744, -1.20058, 1.23274, -1.30268, 0.0323387, -0.00372557, 0.000370533, -0.0119146, -0.0684822, 0.0212282, 0.00099677, -1.60302, 65.5487, 31.9556, 8.07678, 1.81659, 3.43204, 0.0165515, -0.00293973, 0.000642517, 0.00372617, 0.00460569, -0.00875328, -0.000357834, 0.056887, -0.0165726, -0.00845425, -0.013488, 0.106763, 0.0233995, 0.470956, -0.540357, 0.336663, -2.08165, -2.16521, -0.130108, 0.471565, -0.542653, 0.332504, -2.08329, -2.16877, -0.116155, -0.00137384, 0.0572994, 0.0141769, 0.0169296, 0.00315983, -0.00360362
0.163181, 1.69681, -1.22863, -1.54238, -0.900756, -1.20063, 1.23276, -1.30268, 0.0325235, -0.00331889, 0.0035568, -0.0135482, -0.0647332, 0.0205369, -4.75633e-05, -1.56335, 65.5844, 31.9556, 8.0014, 1.79187, 3.43204, 0.0357776, -0.00299388, 0.00066053, 0.00373426, 0.00460263, -0.00883959, -0.000372209, 0.0554928, -0.0178967, -0.00744002, -0.0101758, 0.104161, 0.0288654, 0.470954, -0.5403, 0.336677, -2.08161, -2.1652, -0.130113, 0.471583, -0.542647, 0.332501, -2.08328, -2.16883, -0.116076, -0.0014, 0.0579723, 0.0143341, 0.0182134, 0.00510726, -0.00227013
0.164181, 1.69683, -1.22863, -1.54239, -0.900764, -1.20069, 1.23278, -1.30268, 0.0337788, 0.00306824, 0.00181437, -0.0122248, -0.0586997, 0.0208911, -3.17088e-05, -1.45226, 65.6241, 31.9953, 7.81494, 1.79828, 3.41006, 0.0357776, -0.00305401, 0.000673303, 0.00374023, 0.00459497, -0.00892969, -0.00037172, 0.0546295, -0.0186241, -0.00419965, -0.00745102, 0.10627, 0.0300235, 0.470953, -0.540242, 0.336692, -2.08157, -2.16519, -0.130117, 0.471596, -0.542646, 0.332499, -2.08329, -2.16887, -0.115997, -0.00142646, 0.058648, 0.0144917, 0.0190037, 0.00616254, 0.00119679
0.165181, 1.69686, -1.22863, -1.54238, -0.900791, -1.20075, 1.2328, -1.30268, 0.0297914, 0.00349094, 0.00148798, -0.0176915, -0.0534718, 0.0250511, -0.000767124, -1.37688, 65.5844, 31.9953, 7.89032, 1.79828, 3.41006, 0.0559192, -0.00310714, 0.000691196, 0.00374633, 0.00459632, -0.00902349, -0.000392967, 0.0549006, -0.0188968, -0.00430776, -0.00347766, 0.105306, 0.0332625, 0.470951, -0.540183, 0.336706, -2.08153, -2.16517, -0.130121, 0.471614, -0.542638, 0.332499, -2.08327, -2.16893, -0.115907, -0.00145324, 0.0593266, 0.0146499, 0.0192556, 0.00660239, 0.00119508
0.166181, 1.69689, -1.22863, -1.54238, -0.900813, -1.2008, 1.23282, -1.30268, 0.0305067, 0.00178734, 0.000365561, -0.0156353, -0.0539499, 0.023993, -0.00149476, -1.33721, 65.6241, 32.031, 7.85065, 1.78638, 3.39633, 0.0824695, -0.00316195, 0.000708975, 0.00375544, 0.00459109, -0.00910546, -0.000412245, 0.0562691, -0.0184265, -0.00560069, -0.00474823, 0.103881, 0.0322806, 0.47095, -0.540124, 0.336721, -2.08148, -2.16516, -0.130125, 0.471632, -0.542631, 0.332495, -2.08326, -2.16898, -0.115836, -0.00148032, 0.0600079, 0.0148084, 0.0187607, 0.00611517, -0.000124594
0.167181, 1.69691, -1.22863, -1.54239, -0.900828, -1.20085, 1.23284, -1.30268, 0.0271988, 0.00148261, -0.00136293, -0.0179098, -0.0502364, 0.0231492, 0.000224196, -1.26183, 65.6241, 32.1064, 7.70386, 1.79187, 3.38168, 0.0495105, -0.00322204, 0.000721772, 0.00376265, 0.00458321, -0.00918952, -0.000412483, 0.0573356, -0.0170441, -0.00666329, -0.00570744, 0.100807, 0.0297535, 0.470949, -0.540064, 0.336735, -2.08144, -2.16515, -0.130129, 0.471645, -0.542628, 0.332493, -2.08326, -2.16902, -0.115764, -0.00150772, 0.0606919, 0.0149675, 0.0173523, 0.00585481, -0.0011405
0.168181, 1.69693, -1.22863, -1.54238, -0.90085, -1.2009, 1.23286, -1.30268, 0.0257775, 0.0012067, 4.40427e-05, -0.0190578, -0.047558, 0.0219173, -0.000325254, -1.22613, 65.6241, 32.0707, 7.66418, 1.79828, 3.38168, 0.0623279, -0.00327741, 0.000737965, 0.00376869, 0.00457586, -0.00927115, -0.00043033, 0.0574066, -0.0168362, -0.00657434, -0.00450164, 0.0981703, 0.0315194, 0.470947, -0.540003, 0.33675, -2.0814, -2.16513, -0.130134, 0.471662, -0.542621, 0.332493, -2.08324, -2.16908, -0.115695, -0.00153542, 0.0613787, 0.015127, 0.0171234, 0.00644975, -0.000899969
0.169181, 1.69695, -1.22863, -1.54238, -0.900878, -1.20094, 1.23288, -1.30268, 0.026578, 0.00273142, 0.00188069, -0.0208519, -0.0412917, 0.021446, 0.00124123, -1.15075, 65.5487, 31.9953, 7.66418, 1.823, 3.37436, 0.0229602, -0.00333215, 0.000754655, 0.00377168, 0.00456418, -0.00935646, -0.000445351, 0.0554087, -0.0186065, -0.00542015, -0.00106449, 0.0948665, 0.0352943, 0.470946, -0.539942, 0.336766, -2.08135, -2.16512, -0.130138, 0.471679, -0.542612, 0.332496, -2.08323, -2.16913, -0.115628, -0.00156344, 0.0620682, 0.0152869, 0.0188342, 0.00900649, 0.000655036
0.170181, 1.69697, -1.22863, -1.54238, -0.900908, -1.20098, 1.2329, -1.30268, 0.0250795, -0.000654722, -0.000443384, -0.0213496, -0.0408801, 0.0165263, 0.00106484, -1.11108, 65.6598, 32.0707, 7.62848, 1.84131, 3.36062, 0.0165515, -0.00338879, 0.000770133, 0.00378411, 0.00455894, -0.00942578, -0.000463109, 0.0568501, -0.0166765, -0.00871192, -0.00733861, 0.0893653, 0.0335526, 0.470944, -0.53988, 0.336781, -2.08131, -2.16511, -0.130143, 0.471694, -0.542603, 0.332489, -2.08321, -2.16918, -0.11557, -0.00159178, 0.0627604, 0.0154473, 0.0168077, 0.00870834, -0.00260161
0.171181, 1.69698, -1.22862, -1.54237, -0.900933, -1.20102, 1.23292, -1.30268, 0.0192417, 0.00225406, -0.000246041, -0.0230809, -0.035493, 0.0128504, -0.000273449, -0.996025, 65.5487, 32.0707, 7.51739, 1.84772, 3.34598, 0.0431018, -0.00344727, 0.000783089, 0.00378542, 0.00454135, -0.00950731, -0.000477715, 0.0578919, -0.0137021, -0.00724142, -0.00738259, 0.0864553, 0.0325013, 0.470942, -0.539817, 0.336796, -2.08126, -2.16509, -0.130147, 0.471708, -0.542597, 0.332494, -2.0832, -2.16923, -0.115512, -0.00162043, 0.0634553, 0.0156081, 0.0139026, 0.00802236, -0.00106137
0.172181, 1.697, -1.22863, -1.54237, -0.900962, -1.20105, 1.23293, -1.30268, 0.0167894, 0.00297526, -0.0017973, -0.0222107, -0.0374391, 0.0143628, 0.000326327, -0.960319, 65.6241, 32.1421, 7.44202, 1.88434, 3.33865, 0.0293689, -0.00350603, 0.000796588, 0.00379505, 0.00453386, -0.00957901, -0.000490881, 0.0607559, -0.0119042, -0.00702269, -0.0073287, 0.0899598, 0.0273771, 0.470941, -0.539753, 0.336812, -2.08122, -2.16508, -0.130152, 0.471721, -0.542589, 0.33249, -2.08318, -2.16928, -0.115454, -0.00164939, 0.0641529, 0.0157694, 0.0121915, 0.00578468, -0.00107955
0.173181, 1.69702, -1.22862, -1.54237, -0.900996, -1.20108, 1.23295, -1.30268, 0.0150389, 0.00406244, -0.00209835, -0.0224958, -0.0328315, 0.0156361, 0.000692269, -0.920646, 65.5487, 32.1818, 7.40631, 1.89075, 3.33133, 0.0165515, -0.00356022, 0.000812909, 0.00379849, 0.00452136, -0.00965396, -0.000513795, 0.0613495, -0.0116671, -0.00638053, -0.00396071, 0.0883729, 0.0269565, 0.470939, -0.539689, 0.336828, -2.08117, -2.16506, -0.130156, 0.471738, -0.542577, 0.332493, -2.08315, -2.16933, -0.115399, -0.00167868, 0.0648531, 0.015931, 0.0119719, 0.00578987, -0.000372047
0.174181, 1.69702, -1.22861, -1.54237, -0.901031, -1.2011, 1.23296, -1.30268, 0.0127239, 0.00378028, -0.001378, -0.0287418, -0.0298767, 0.0169477, -0.000996549, -0.845268, 65.513, 32.1818, 7.36664, 1.90906, 3.31759, 0.0559192, -0.00361678, 0.000826858, 0.00380222, 0.00450309, -0.00972333, -0.00053934, 0.060672, -0.0124759, -0.0069777, -0.00328443, 0.0872319, 0.0332322, 0.470937, -0.539624, 0.336844, -2.08113, -2.16505, -0.130161, 0.471752, -0.542567, 0.332496, -2.08313, -2.16939, -0.115356, -0.00170828, 0.065556, 0.0160931, 0.0127032, 0.00728906, -0.000720807
0.175181, 1.69703, -1.2286, -1.54236, -0.901066, -1.20112, 1.23298, -1.30268, 0.0110461, 0.004461, -0.00173821, -0.0294012, -0.0275976, 0.0174157, -0.00164771, -0.76989, 65.4376, 32.2175, 7.29126, 1.92737, 3.31759, 0.0824695, -0.00367398, 0.000839452, 0.00380279, 0.00448629, -0.00979793, -0.000561347, 0.0615556, -0.0119515, -0.00671769, -0.00197704, 0.0867937, 0.0334327, 0.470936, -0.539559, 0.33686, -2.08108, -2.16503, -0.130166, 0.471765, -0.542557, 0.332502, -2.0831, -2.16945, -0.115306, -0.0017382, 0.0662614, 0.0162556, 0.0121923, 0.00706084, -0.00042627
0.176181, 1.69704, -1.2286, -1.54235, -0.901105, -1.20114, 1.23299, -1.30268, 0.0107296, 0.00134395, 0.000616192, -0.0310143, -0.0260551, 0.0181684, -0.000589847, -0.734184, 65.513, 32.1421, 7.25555, 1.95209, 3.30295, 0.0687366, -0.00372837, 0.000856721, 0.00380703, 0.0044608, -0.00985975, -0.000590117, 0.0615145, -0.0129269, -0.00791563, 0.000634054, 0.0832715, 0.0352367, 0.470934, -0.539493, 0.336876, -2.08103, -2.16502, -0.13017, 0.471782, -0.542543, 0.332505, -2.08307, -2.16951, -0.115279, -0.00176845, 0.0669695, 0.0164185, 0.0130898, 0.00803781, -0.00147257
0.177181, 1.69705, -1.22858, -1.54235, -0.901143, -1.20116, 1.23301, -1.30268, 0.0094932, 0.00979825, 0.000971755, -0.0343615, -0.0252918, 0.0179156, -0.000155873, -0.658806, 65.4019, 32.2532, 7.18018, 1.9823, 3.31027, 0.0623279, -0.00378489, 0.000869745, 0.00380561, 0.00444399, -0.00993534, -0.000611358, 0.0607576, -0.01293, -0.00327382, 0.000592055, 0.0916726, 0.036822, 0.470932, -0.539426, 0.336892, -2.08098, -2.165, -0.130175, 0.471795, -0.542531, 0.332513, -2.08305, -2.16957, -0.115228, -0.00179901, 0.0676801, 0.0165817, 0.0132109, 0.00877309, 0.00338895
0.178181, 1.69705, -1.22857, -1.54234, -0.901184, -1.20117, 1.23302, -1.30268, 0.00572241, 0.00779675, 0.00316445, -0.033789, -0.0194344, 0.0189795, 0.00135415, -0.583427, 65.513, 32.2928, 7.1048, 2.00061, 3.2883, 0.0229602, -0.00384319, 0.000883138, 0.00381065, 0.00442009, -0.00999621, -0.000630881, 0.0620184, -0.0119688, -0.0033665, 0.00699479, 0.0855785, 0.034178, 0.47093, -0.539358, 0.336909, -2.08094, -2.16499, -0.13018, 0.471809, -0.54252, 0.332515, -2.08302, -2.16962, -0.1152, -0.0018299, 0.0683933, 0.0167454, 0.0122634, 0.00821671, 0.00329088
0.179181, 1.69706, -1.22857, -1.54234, -0.901226, -1.20118, 1.23304, -1.30268, 0.00583901, 0.0064764, 0.00395365, -0.0333909, -0.0209129, 0.0237196, 0.00137748, -0.508049, 65.6241, 32.3682, 7.02942, 2.05005, 3.28097, 0.0101428, -0.00390156, 0.000895806, 0.00381698, 0.0044027, -0.0100555, -0.000653585, 0.0635575, -0.0128178, -0.00344169, 0.0113336, 0.0882415, 0.0339151, 0.470929, -0.53929, 0.336926, -2.08089, -2.16497, -0.130185, 0.471821, -0.542507, 0.332516, -2.08299, -2.16967, -0.115167, -0.00186112, 0.069109, 0.0169095, 0.0131341, 0.00746168, 0.00310925
0.180181, 1.69707, -1.22855, -1.54233, -0.901279, -1.20119, 1.23305, -1.30267, 0.0047867, 0.00511837, 0.00642033, -0.0387687, -0.0160781, 0.0226363, 0.000680963, -0.508049, 65.6241, 32.3682, 7.06909, 2.06836, 3.27456, 0.0165515, -0.00395228, 0.000915624, 0.0038171, 0.00438133, -0.0101231, -0.000693704, 0.0617071, -0.0142437, -0.00421769, 0.0124635, 0.0831628, 0.0411518, 0.470927, -0.53922, 0.336943, -2.08084, -2.16496, -0.13019, 0.471841, -0.542487, 0.332524, -2.08294, -2.16974, -0.115131, -0.00189266, 0.0698272, 0.0170739, 0.0144301, 0.0101878, 0.00275106
0.181181, 1.69706, -1.22854, -1.54232, -0.901324, -1.2012, 1.23307, -1.30268, 0.00232155, 0.0143192, 0.00546152, -0.0391869, -0.0129651, 0.022875, 0.000216616, -0.317619, 65.5844, 32.4793, 6.95801, 2.09949, 3.23886, 0.0229602, -0.00401376, 0.000924935, 0.00381503, 0.00435394, -0.010194, -0.000715034, 0.0621676, -0.0130085, 0.000909575, 0.0144192, 0.090414, 0.0399919, 0.470925, -0.539151, 0.33696, -2.08079, -2.16494, -0.130195, 0.471851, -0.542478, 0.332533, -2.08292, -2.1698, -0.115097, -0.00192452, 0.0705479, 0.0172387, 0.013377, 0.00960314, 0.00794081
0.182181, 1.69707, -1.22852, -1.54232, -0.901373, -1.2012, 1.23308, -1.30268, 0.00422956, 0.0120595, 0.00499021, -0.0436947, -0.0108198, 0.0219453, -0.00205964, -0.281914, 65.6598, 32.5904, 6.88263, 2.13611, 3.23153, 0.0824695, -0.00406994, 0.000940491, 0.00381678, 0.00433158, -0.0102578, -0.000754543, 0.0605074, -0.0151253, -0.00145384, 0.0117314, 0.0869415, 0.0486939, 0.470923, -0.53908, 0.336977, -2.08074, -2.16492, -0.1302, 0.471866, -0.542461, 0.332539, -2.08287, -2.16987, -0.115066, -0.00195671, 0.0712712, 0.0174039, 0.0153088, 0.0124233, 0.00596467
0.183181, 1.69707, -1.22851, -1.54231, -0.901424, -1.2012, 1.2331, -1.30268, 0.00268195, 0.00810896, 0.00724621, -0.0471208, -0.00782831, 0.0211322, -0.00137309, -0.242241, 65.8423, 32.5904, 6.80725, 2.13611, 3.23153, 0.0824695, -0.00412437, 0.000958291, 0.00381921, 0.00430193, -0.0103135, -0.000793967, 0.0601445, -0.0156905, -0.00350706, 0.0128325, 0.0807608, 0.0516889, 0.470921, -0.539009, 0.336994, -2.08069, -2.16491, -0.130205, 0.471884, -0.542443, 0.332545, -2.08282, -2.16994, -0.115052, -0.00198923, 0.0719968, 0.0175694, 0.0157501, 0.013852, 0.00414017
0.184181, 1.69707, -1.22849, -1.54231, -0.901475, -1.2012, 1.23311, -1.30268, 0.00175074, 0.011093, 0.00545533, -0.0496907, -0.00612099, 0.0209437, -0.000644127, -0.0914839, 65.9177, 32.7372, 6.73187, 2.14801, 3.21689, 0.0751453, -0.00418469, 0.00097, 0.00381995, 0.00427838, -0.0103802, -0.000819663, 0.0602789, -0.0155329, -0.00275728, 0.0112511, 0.0830676, 0.0520016, 0.470919, -0.538937, 0.337012, -2.08064, -2.16489, -0.13021, 0.471896, -0.542429, 0.332552, -2.08279, -2.17, -0.115018, -0.00202208, 0.072725, 0.0177353, 0.015594, 0.0143247, 0.00502733
0.185181, 1.69706, -1.22849, -1.5423, -0.901532, -1.20119, 1.23313, -1.30268, -0.00250863, 0.0107181, 0.00681638, -0.0514675, -0.004664, 0.0207166, 0.000520018, 0.0949785, 66.1002, 32.7768, 6.65649, 2.15442, 3.20224, 0.0495105, -0.00424392, 0.000983208, 0.00382282, 0.00424847, -0.0104369, -0.000849616, 0.0618364, -0.0139151, -0.00258882, 0.0128719, 0.081824, 0.0493865, 0.470917, -0.538864, 0.33703, -2.08058, -2.16487, -0.130215, 0.471909, -0.542414, 0.332557, -2.08275, -2.17006, -0.115002, -0.00205526, 0.0734555, 0.0179016, 0.0140095, 0.0134244, 0.00516339
