alisrour97/Franka_experiments/Real_Robot_scripts/servo-franka/Data/log_dyn_INIT0_13.csv
Time,q1,q2,q3,q4,q5,q6,q7,dq1,dq2,dq3,dq4,dq5,dq6,dq7,t1,t2,t3,t4,t5,t6,t7,ex1,ex2,ex3,ex4,ex5,ex6,ev1,ev2,ev3,ev4,ev5,ev6,xd,yd,zd,uxd,uyd,uzd,x,y,z,ux,uy,uz,vxd,vyd,vzd,vx,vy,vz
4.88281e-07, 1.69145, -1.22402, -1.53711, -0.899611, -1.19181, 1.22904, -1.30269, -0.00775601, 0.0124754, 0.0121106, 0.00561231, 0.00100539, -0.000662188, -0.00182827, 0.0196001, 51.81, 24.4733, 5.24017, 1.77997, 2.14206, -0.0814099, 0.0011302, -0.00139594, -0.00124399, -0.00134428, -0.00217271, -0.000172761, 0.00113462, 0.00372247, 0.0127383, 0.0153777, 0.00979767, -0.00476718, 0.471008, -0.543389, 0.335894, -2.08385, -2.16584, -0.129887, 0.469625, -0.542514, 0.337317, -2.08545, -2.16777, -0.129189, 1.77043e-06, 3.2e-05, 1.02972e-05, -0.00321552, -0.00320105, 0.0125245
0.0122495, 1.69143, -1.22394, -1.53705, -0.899554, -1.19182, 1.22904, -1.30269, 0.00118651, 0.00772401, 0.0112818, 0.00573639, -0.000103067, -0.000388056, 0.000791924, -0.43267, 52.1432, 24.5884, 5.38696, 1.78638, 2.16311, -0.10796, 0.00112304, -0.00141448, -0.00132124, -0.00142368, -0.00224645, -0.000125777, -0.00188788, -0.00113259, 0.00922284, 0.0126687, 0.00643462, 0.000645519, 0.471008, -0.543389, 0.335894, -2.08385, -2.16584, -0.129887, 0.469603, -0.542542, 0.337415, -2.08563, -2.16779, -0.129201, 1.77746e-06, 6.40623e-05, 1.89552e-05, 0.0013983, 0.000554632, 0.00938467
0.0132495, 1.69143, -1.22394, -1.53705, -0.899554, -1.19182, 1.22904, -1.30269, 0.00118651, 0.00772401, 0.0112818, 0.00573639, -0.000103067, -0.000388056, 0.000791924, -0.43267, 52.1432, 24.5884, 5.38696, 1.78638, 2.16311, -0.10796, 0.00112303, -0.00141448, -0.00132124, -0.00142368, -0.00224645, -0.000125775, -0.00185162, -0.00113144, 0.00921888, 0.0126734, 0.00646116, 0.000648175, 0.471008, -0.543389, 0.335894, -2.08385, -2.16584, -0.129887, 0.469603, -0.542542, 0.337415, -2.08563, -2.16779, -0.129201, 1.77167e-06, 9.92934e-05, 2.84561e-05, 0.0013983, 0.000554632, 0.00938467
0.0142495, 1.69143, -1.22394, -1.53705, -0.899554, -1.19182, 1.22904, -1.30269, 0.00118651, 0.00772401, 0.0112818, 0.00573639, -0.000103067, -0.000388056, 0.000791924, -0.43267, 52.1432, 24.5884, 5.38696, 1.78638, 2.16311, -0.10796, 0.00112301, -0.00141448, -0.00132124, -0.00142369, -0.00224646, -0.00012577, -0.00181198, -0.0011302, 0.00921456, 0.0126785, 0.00649016, 0.000651081, 0.471008, -0.543389, 0.335894, -2.08385, -2.16584, -0.129887, 0.469603, -0.542542, 0.337415, -2.08563, -2.16779, -0.129201, 1.75167e-06, 0.000137819, 3.88327e-05, 0.0013983, 0.000554632, 0.00938467
0.0152495, 1.69143, -1.22394, -1.53705, -0.899554, -1.19182, 1.22904, -1.30269, 0.00118651, 0.00772401, 0.0112818, 0.00573639, -0.000103067, -0.000388056, 0.000791924, -0.43267, 52.1432, 24.5884, 5.38696, 1.78638, 2.16311, -0.10796, 0.00112297, -0.00141449, -0.00132124, -0.0014237, -0.00224648, -0.000125761, -0.00176881, -0.00112886, 0.00920988, 0.012684, 0.00652173, 0.000654248, 0.471008, -0.543389, 0.335894, -2.08385, -2.16584, -0.129887, 0.469603, -0.542542, 0.337415, -2.08563, -2.16779, -0.129201, 1.716e-06, 0.000179762, 5.01169e-05, 0.0013983, 0.000554632, 0.00938467
0.0162495, 1.69143, -1.22394, -1.53705, -0.899554, -1.19182, 1.22904, -1.30269, 0.00118651, 0.00772401, 0.0112818, 0.00573639, -0.000103067, -0.000388056, 0.000791924, -0.43267, 52.1432, 24.5884, 5.38696, 1.78638, 2.16311, -0.10796, 0.00112291, -0.00141449, -0.00132123, -0.00142373, -0.00224651, -0.000125745, -0.00172201, -0.00112742, 0.00920481, 0.0126901, 0.00655594, 0.000657684, 0.471008, -0.543389, 0.335894, -2.08385, -2.16584, -0.129887, 0.469603, -0.542542, 0.337415, -2.08563, -2.16779, -0.129201, 1.66317e-06, 0.000225248, 6.23407e-05, 0.0013983, 0.000554632, 0.00938467
0.0172495, 1.69143, -1.22394, -1.53705, -0.899554, -1.19182, 1.22904, -1.30269, 0.00118651, 0.00772401, 0.0112818, 0.00573639, -0.000103067, -0.000388056, 0.000791924, -0.43267, 52.1432, 24.5884, 5.38696, 1.78638, 2.16311, -0.10796, 0.00112281, -0.00141449, -0.00132122, -0.00142377, -0.00224656, -0.000125721, -0.00167144, -0.00112587, 0.00919935, 0.0126967, 0.00659289, 0.0006614, 0.471008, -0.543389, 0.335894, -2.08385, -2.16584, -0.129887, 0.469603, -0.542542, 0.337415, -2.08563, -2.16779, -0.129201, 1.59159e-06, 0.000274397, 7.55354e-05, 0.0013983, 0.000554632, 0.00938467
0.0182495, 1.69143, -1.22394, -1.53705, -0.899554, -1.19182, 1.22904, -1.30269, 0.00118651, 0.00772401, 0.0112818, 0.00573639, -0.000103067, -0.000388056, 0.000791924, -0.43267, 52.1432, 24.5884, 5.38696, 1.78638, 2.16311, -0.10796, 0.00112268, -0.0014145, -0.0013212, -0.00142382, -0.00224662, -0.000125688, -0.00161698, -0.00112423, 0.00919348, 0.0127038, 0.00663267, 0.000665405, 0.471008, -0.543389, 0.335894, -2.08385, -2.16584, -0.129887, 0.469603, -0.542542, 0.337415, -2.08563, -2.16779, -0.129201, 1.49965e-06, 0.00032733, 8.9732e-05, 0.0013983, 0.000554632, 0.00938467
0.0192495, 1.69143, -1.22394, -1.53705, -0.899554, -1.19182, 1.22904, -1.30269, 0.00118651, 0.00772401, 0.0112818, 0.00573639, -0.000103067, -0.000388056, 0.000791924, -0.43267, 52.1432, 24.5884, 5.38696, 1.78638, 2.16311, -0.10796, 0.0011225, -0.0014145, -0.00132119, -0.00142389, -0.00224671, -0.000125644, -0.0015585, -0.00112247, 0.0091872, 0.0127115, 0.00667536, 0.000669707, 0.471008, -0.543389, 0.335894, -2.08385, -2.16584, -0.129887, 0.469603, -0.542542, 0.337415, -2.08563, -2.16779, -0.129201, 1.38564e-06, 0.000384166, 0.000104961, 0.0013983, 0.000554632, 0.00938467
0.0202495, 1.69143, -1.22394, -1.53705, -0.899554, -1.19182, 1.22904, -1.30269, 0.00118651, 0.00772401, 0.0112818, 0.00573639, -0.000103067, -0.000388056, 0.000791924, -0.43267, 52.1432, 24.5884, 5.38696, 1.78638, 2.16311, -0.10796, 0.00112227, -0.00141451, -0.00132116, -0.00142398, -0.00224682, -0.000125588, -0.00149589, -0.00112061, 0.00918048, 0.0127198, 0.00672106, 0.000674317, 0.471008, -0.543389, 0.335894, -2.08385, -2.16584, -0.129887, 0.469603, -0.542542, 0.337415, -2.08563, -2.16779, -0.129201, 1.24785e-06, 0.00044502, 0.000121252, 0.0013983, 0.000554632, 0.00938467
0.0212495, 1.69142, -1.22389, -1.537, -0.899541, -1.19181, 1.22903, -1.30269, 9.76859e-05, 0.00897033, 0.00802692, 0.000513204, 0.000953154, 0.00284305, 5.92785e-05, -0.920646, 52.8058, 24.8462, 5.68848, 1.76166, 2.22079, -0.0878186, 0.00113176, -0.00141307, -0.00136824, -0.00147845, -0.00228303, -0.000132457, -0.00180689, -0.00179155, 0.00836794, 0.010967, 0.0093856, 0.00367191, 0.471008, -0.543388, 0.335894, -2.08385, -2.16584, -0.129887, 0.469606, -0.542539, 0.337463, -2.08567, -2.16784, -0.129225, 1.08446e-06, 0.000510009, 0.000138634, 0.00202776, 0.00107917, 0.00862778
0.0222495, 1.69143, -1.22388, -1.537, -0.899541, -1.19181, 1.22903, -1.30269, 0.000765311, 0.00617131, 0.00425793, 0.00232799, 0.000398092, 0.00168028, -0.0004352, -0.960319, 52.8415, 24.9216, 5.6131, 1.76807, 2.23453, -0.0750012, 0.00113338, -0.00141198, -0.00137232, -0.00147817, -0.00228974, -0.000138375, -0.000446149, -0.000874125, 0.00549671, 0.00694364, 0.0066323, 0.00128455, 0.471008, -0.543388, 0.335894, -2.08385, -2.16584, -0.129887, 0.469607, -0.542538, 0.337468, -2.08567, -2.16785, -0.129219, 8.93621e-07, 0.000579243, 0.000157137, 0.00105635, 0.000209421, 0.00562762
0.0232495, 1.69142, -1.22389, -1.537, -0.899544, -1.19181, 1.22903, -1.30269, -0.00235193, 0.00228549, 0.00417625, -0.00138545, 0.00165565, 0.000255268, 0.000455852, -0.845268, 52.9526, 24.8859, 5.6131, 1.73053, 2.26382, -0.0951428, 0.0011317, -0.00141387, -0.0013702, -0.0014797, -0.00228439, -0.000135767, -8.98415e-05, 0.000108877, 0.00270025, 0.00461747, 0.00132263, 0.00101595, 0.471008, -0.543388, 0.335894, -2.08384, -2.16584, -0.129887, 0.469605, -0.542539, 0.337466, -2.08567, -2.16784, -0.129225, 6.73433e-07, 0.000652833, 0.000176787, -1.38062e-05, 0.00032146, 0.0028603
0.0242495, 1.69142, -1.22388, -1.537, -0.899546, -1.19181, 1.22903, -1.30269, -0.00429456, 0.00293617, 0.00316098, -0.00105712, -0.00132134, 0.00119572, -0.00142543, -0.734184, 52.9169, 24.8859, 5.6131, 1.66919, 2.37094, -0.0484509, 0.00113064, -0.00141559, -0.0013721, -0.00147867, -0.00228813, -0.000135856, 0.00178702, 0.0016276, 0.00294603, 0.0036808, 0.00491289, -0.000803841, 0.471008, -0.543387, 0.335894, -2.08384, -2.16584, -0.129887, 0.469603, -0.54254, 0.337467, -2.08567, -2.16785, -0.129221, 4.21933e-07, 0.000730885, 0.000197611, -0.00145484, -0.00155336, 0.0028783
0.0252495, 1.69142, -1.22388, -1.537, -0.899551, -1.19182, 1.22903, -1.30269, -0.00212394, 0.00304651, 0.00155471, -0.00256809, -0.00541613, 0.00109104, -0.00264571, -0.76989, 53.024, 24.9216, 5.68848, 1.65088, 2.50735, -0.00267457, 0.0011325, -0.00141324, -0.00137152, -0.00147038, -0.00229508, -0.000143198, 0.00158511, 0.000838005, 0.00210001, -0.000754616, 0.0086877, 0.00173421, 0.471008, -0.543387, 0.335895, -2.08384, -2.16584, -0.129887, 0.469606, -0.542537, 0.337467, -2.08566, -2.16785, -0.129205, 1.37109e-07, 0.000813505, 0.000219637, -0.000704302, -0.00110889, 0.00207249
0.0262495, 1.69143, -1.22388, -1.53699, -0.899554, -1.19183, 1.22903, -1.30269, -0.00148805, 0.00225572, 0.00359747, -0.00262236, -0.00339062, 0.00115903, -0.000305743, -0.76989, 53.1747, 24.9573, 5.72418, 1.62616, 2.64377, -0.0420422, 0.00113521, -0.0014092, -0.00137645, -0.00147365, -0.00230695, -0.000145391, 0.000631633, -0.000141184, 0.00231449, 0.00185692, 0.0062298, 0.0017563, 0.471008, -0.543386, 0.335895, -2.08384, -2.16584, -0.129887, 0.46961, -0.542535, 0.337473, -2.08567, -2.16786, -0.129197, -1.83099e-07, 0.000900793, 0.00024289, 0.00024695, -7.32435e-05, 0.00242599
0.0272495, 1.69142, -1.22389, -1.53699, -0.899555, -1.19183, 1.22905, -1.30269, -0.00280934, 0.000381904, 0.00429748, 0.00350075, -0.00278195, -0.000341777, -0.00139062, -0.694511, 53.6508, 25.0327, 5.76385, 1.62616, 2.70053, -0.00999879, 0.00113095, -0.00140695, -0.00137466, -0.0014875, -0.0023133, -0.000147386, 0.00288619, 0.00202058, 0.00224113, 0.00442431, 0.00256688, -0.00323998, 0.471008, -0.543385, 0.335895, -2.08384, -2.16584, -0.129887, 0.469612, -0.542538, 0.33747, -2.08567, -2.16788, -0.129206, -5.40806e-07, 0.000992849, 0.000267393, -0.00183441, -0.00228412, 0.0020933
0.0282495, 1.69142, -1.22389, -1.53699, -0.899552, -1.19184, 1.22907, -1.30269, -0.00543992, -0.00170047, 0.00226559, 0.00281104, -0.00674117, 0.00436497, -0.00143571, -0.543754, 54.0555, 25.2192, 5.76385, 1.62067, 2.7225, 0.00373412, 0.00112233, -0.00140859, -0.00137703, -0.00150528, -0.00232967, -0.000136697, 0.00584896, 0.00324863, 0.000748983, 0.00481425, 0.00624883, -0.00745622, 0.471008, -0.543384, 0.335895, -2.08384, -2.16584, -0.129887, 0.469611, -0.542546, 0.337472, -2.0857, -2.16788, -0.129208, -9.38169e-07, 0.00108977, 0.000293171, -0.0030092, -0.00493273, 0.000222889
0.0292495, 1.69142, -1.22388, -1.53698, -0.899557, -1.19185, 1.22909, -1.30268, -0.00365702, 0.00116456, 0.00525125, -0.000366522, -0.00494169, 0.013324, 0.000975641, -0.543754, 54.4244, 25.3699, 5.87494, 1.61426, 2.71518, -0.0484509, 0.0011219, -0.00140054, -0.00138423, -0.00152935, -0.00235532, -0.000138348, 0.00389226, -0.00076975, 0.00373398, 0.0145138, 0.0122741, -0.00331592, 0.471008, -0.543383, 0.335895, -2.08384, -2.16584, -0.129887, 0.469619, -0.542546, 0.337479, -2.08573, -2.1679, -0.129209, -1.3774e-06, 0.00119164, 0.000320246, 0.00104135, -0.00319418, 0.00338001
0.0302495, 1.69142, -1.22388, -1.53698, -0.899551, -1.19186, 1.22913, -1.30269, -0.00422406, 0.00470301, 0.00651634, 0.000952102, -0.00975295, 0.0197552, 0.000175709, -0.468376, 54.8688, 25.5564, 5.83527, 1.64447, 2.71518, -0.0356336, 0.00111479, -0.00139672, -0.00139125, -0.00155874, -0.00238335, -0.000132608, 0.00565774, -0.000944176, 0.00703174, 0.0199934, 0.0227842, -0.00528342, 0.471008, -0.543382, 0.335896, -2.08384, -2.16584, -0.129887, 0.469624, -0.542553, 0.337485, -2.08576, -2.16793, -0.129213, -1.86074e-06, 0.00129855, 0.00034864, 0.00139724, -0.00533067, 0.00638543
0.0312495, 1.69142, -1.22386, -1.53697, -0.899547, -1.19187, 1.22916, -1.30269, -0.000497906, 0.00907602, 0.00461581, 0.00167128, -0.00617042, 0.0237536, -0.00181564, -0.43267, 55.1266, 25.7389, 5.79956, 1.61426, 2.73623, 0.0165515, 0.00111223, -0.00139028, -0.00140533, -0.00158887, -0.00242007, -0.000138125, 0.00401091, -0.00359183, 0.00916983, 0.0236223, 0.0264402, -1.45184e-05, 0.471008, -0.543381, 0.335896, -2.08384, -2.16584, -0.129887, 0.469631, -0.542556, 0.337498, -2.08579, -2.16796, -0.12921, -2.39049e-06, 0.00141058, 0.000378373, 0.00405925, -0.00381361, 0.00870216
0.0322495, 1.69142, -1.22385, -1.53697, -0.899554, -1.19187, 1.22919, -1.30269, 0.0013105, 0.00724883, 0.00303981, -0.000498062, -0.008932, 0.0254286, 0.000484994, -0.357292, 55.4559, 25.9253, 5.87494, 1.60144, 2.79391, -0.0292249, 0.00111086, -0.0013823, -0.00141523, -0.0016163, -0.0024535, -0.000139591, 0.0039122, -0.00484069, 0.00727867, 0.0209713, 0.0281414, -0.000279585, 0.471008, -0.54338, 0.335896, -2.08384, -2.16584, -0.129887, 0.469639, -0.542558, 0.337508, -2.08582, -2.16799, -0.129207, -2.969e-06, 0.00152782, 0.000409465, 0.00523412, -0.00325674, 0.00684355
0.0332495, 1.69143, -1.22382, -1.53697, -0.899549, -1.19188, 1.22922, -1.30269, -0.000438179, 0.0109284, 0.00286894, -0.00396626, -0.011492, 0.0261314, -0.000388748, -0.281914, 55.567, 26.0761, 5.76385, 1.60144, 2.86532, -0.00999879, 0.00110569, -0.00137785, -0.00143465, -0.00164831, -0.00250495, -0.000135298, 0.00404625, -0.0043745, 0.00903767, 0.0191804, 0.0346096, 0.000906927, 0.471008, -0.543379, 0.335897, -2.08384, -2.16584, -0.129888, 0.469644, -0.542564, 0.337526, -2.08587, -2.16803, -0.129189, -3.59863e-06, 0.00165034, 0.000441934, 0.0048362, -0.00355638, 0.00860613
0.0342495, 1.69143, -1.2238, -1.53697, -0.899553, -1.19189, 1.22926, -1.30269, 0.00239724, 0.0148911, 0.000244049, -0.00392329, -0.00732299, 0.0321163, -0.00171723, -0.242241, 55.7495, 26.3379, 5.79956, 1.56482, 2.923, 0.0293689, 0.00110305, -0.0013696, -0.00144581, -0.00167036, -0.00254923, -0.0001388, 0.00289207, -0.0069829, 0.0108054, 0.0239604, 0.0384505, 0.00508244, 0.471008, -0.543377, 0.335897, -2.08384, -2.16584, -0.129888, 0.469653, -0.542567, 0.337537, -2.0859, -2.16807, -0.12917, -4.2818e-06, 0.00177822, 0.000475796, 0.0074631, -0.00245444, 0.010486
0.0352495, 1.69143, -1.22378, -1.53697, -0.899558, -1.1919, 1.2293, -1.30269, 0.00177179, 0.0163391, -0.00128628, -0.00378366, -0.00496731, 0.0322012, 4.19766e-05, -0.0914839, 55.8606, 26.449, 5.83527, 1.54651, 2.97336, -0.00267457, 0.00109969, -0.001361, -0.00146257, -0.00170685, -0.00260043, -0.000136947, 0.00307045, -0.00658316, 0.0111584, 0.0240987, 0.0381734, 0.00262416, 0.471008, -0.543375, 0.335898, -2.08384, -2.16584, -0.129888, 0.469662, -0.542571, 0.337553, -2.08594, -2.16811, -0.129158, -5.02096e-06, 0.00191151, 0.000511068, 0.00708227, -0.00256795, 0.0108542
0.0362495, 1.69143, -1.22377, -1.53697, -0.899563, -1.19191, 1.22935, -1.30269, 0.00159591, 0.0138226, -0.00259387, -0.00681804, -0.00815145, 0.0364772, 0.000536611, 0.059273, 55.9717, 26.5601, 5.87494, 1.53461, 3.03012, -0.0164075, 0.00109385, -0.00135286, -0.00147272, -0.00173595, -0.00264896, -0.00013837, 0.00398322, -0.00739901, 0.00917045, 0.0235834, 0.040838, 0.00296504, 0.471008, -0.543374, 0.335898, -2.08383, -2.16584, -0.129888, 0.469671, -0.542576, 0.337563, -2.08598, -2.16815, -0.129141, -5.81861e-06, 0.00205028, 0.000547764, 0.00785715, -0.00299093, 0.00876169
0.0372495, 1.69143, -1.22375, -1.53698, -0.899559, -1.19192, 1.22939, -1.30269, 0.000492601, 0.0148631, -0.00191788, -0.002394, -0.00669691, 0.0395185, -0.000862963, 0.245735, 56.0828, 26.5958, 5.76385, 1.54651, 3.09512, 0.0165515, 0.00108441, -0.00134843, -0.00148375, -0.00176971, -0.00269267, -0.00013299, 0.00571807, -0.00660548, 0.0109486, 0.0298776, 0.0418303, 0.000216923, 0.471008, -0.543372, 0.335899, -2.08383, -2.16584, -0.129888, 0.469676, -0.542585, 0.337573, -2.08602, -2.16818, -0.129134, -6.67726e-06, 0.00219459, 0.000585897, 0.00719003, -0.0048655, 0.0103103
0.0382495, 1.69144, -1.22374, -1.53699, -0.899562, -1.19194, 1.22944, -1.30269, 0.00164066, 0.0133354, -0.010609, -0.00276653, -0.00464015, 0.0371854, 0.00112011, 0.360787, 56.1581, 26.7466, 5.79956, 1.53461, 3.15921, -0.0292249, 0.00107586, -0.00134041, -0.00148854, -0.00179263, -0.00274088, -0.000124289, 0.00656913, -0.00563942, 0.00663721, 0.0207581, 0.0382117, -0.00377147, 0.471008, -0.54337, 0.335899, -2.08383, -2.16584, -0.129888, 0.469685, -0.542591, 0.337576, -2.08607, -2.16821, -0.12911, -7.59945e-06, 0.00234449, 0.000625478, 0.00609908, -0.00493169, 0.00598969
0.0392495, 1.69145, -1.22374, -1.53699, -0.899562, -1.19195, 1.22949, -1.30269, 0.00550922, 0.00904829, -0.00959205, -0.00126063, -0.0133353, 0.0410859, -0.000948679, 0.475838, 56.2296, 26.7069, 5.76385, 1.54651, 3.20224, 0.0165515, 0.0010695, -0.00132792, -0.00149424, -0.00182976, -0.00278311, -0.000129017, 0.00778478, -0.00745949, 0.00481938, 0.0207747, 0.0430201, -0.00154459, 0.471008, -0.543367, 0.3359, -2.08383, -2.16584, -0.129888, 0.469698, -0.542596, 0.337581, -2.0861, -2.16825, -0.129109, -8.58778e-06, 0.00250002, 0.000666519, 0.00789366, -0.00562201, 0.00399222
0.0402495, 1.69145, -1.22373, -1.537, -0.89956, -1.19197, 1.22954, -1.30269, 0.00431267, 0.00907396, -0.00855213, 0.000734203, -0.0151905, 0.0446963, -0.000157735, 0.626595, 56.1581, 26.7823, 5.68848, 1.55932, 3.22421, 0.00373412, 0.00105911, -0.00131919, -0.00150417, -0.0018634, -0.00284127, -0.000122161, 0.00959491, -0.00697006, 0.00584786, 0.0251188, 0.0461912, -0.00536821, 0.471008, -0.543365, 0.3359, -2.08383, -2.16584, -0.129889, 0.469707, -0.542605, 0.33759, -2.08616, -2.16829, -0.129087, -9.64483e-06, 0.00266124, 0.000709027, 0.00750569, -0.00742615, 0.00478406
0.0412495, 1.69146, -1.22373, -1.53701, -0.899561, -1.19199, 1.2296, -1.30269, 0.00458276, 0.00540736, -0.00776031, 0.000348006, -0.0212232, 0.047388, -0.000105157, 0.737679, 56.2296, 26.8577, 5.68848, 1.57123, 3.23886, 0.00373412, 0.00104832, -0.00130638, -0.00149975, -0.00189435, -0.00288066, -0.000118546, 0.0111949, -0.00722193, 0.00413177, 0.0248356, 0.0489234, -0.00638493, 0.471008, -0.543362, 0.335901, -2.08383, -2.16584, -0.129889, 0.46972, -0.542612, 0.337584, -2.0862, -2.16832, -0.129081, -1.07732e-05, 0.00282817, 0.000753011, 0.00775137, -0.00856433, 0.0028776
0.0422495, 1.69147, -1.22372, -1.53702, -0.899558, -1.19201, 1.22966, -1.30269, 0.00777858, 0.00957319, -0.00456006, 0.00188914, -0.0207947, 0.0491474, -0.000544822, 0.85273, 56.0074, 26.822, 5.6131, 1.57764, 3.25992, 0.0165515, 0.00103951, -0.00129414, -0.00150831, -0.00193089, -0.00293666, -0.000117155, 0.00943321, -0.00952, 0.00789553, 0.0299743, 0.0534721, -0.00250197, 0.471008, -0.54336, 0.335902, -2.08382, -2.16584, -0.129889, 0.469733, -0.542618, 0.337591, -2.08624, -2.16836, -0.129065, -1.19756e-05, 0.00300084, 0.000798475, 0.0101182, -0.00713777, 0.00684362
0.0432495, 1.69149, -1.22373, -1.53703, -0.899551, -1.19203, 1.22972, -1.30268, 0.0118338, 0.00696065, -0.00712006, 0.00377831, -0.0264285, 0.045865, 0.000620129, 0.888436, 56.0074, 26.8577, 5.50201, 1.61426, 3.28097, -0.00999879, 0.00102939, -0.0012797, -0.00150726, -0.00195994, -0.00298387, -0.000112256, 0.00993796, -0.00973355, 0.00519695, 0.0223495, 0.0541092, -0.00438639, 0.471008, -0.543357, 0.335903, -2.08382, -2.16584, -0.129889, 0.469748, -0.542625, 0.337589, -2.08629, -2.16839, -0.129049, -1.32547e-05, 0.00317929, 0.000845424, 0.0102508, -0.0070335, 0.00414113
0.0442495, 1.69151, -1.22374, -1.53703, -0.899543, -1.19206, 1.22978, -1.30268, 0.0141107, -0.00162135, -0.00906641, 0.00515045, -0.0301166, 0.0484322, 0.0011255, 0.963814, 56.1581, 26.8934, 5.38696, 1.64447, 3.2883, -0.0292249, 0.00101631, -0.00126551, -0.00149974, -0.0019927, -0.00302132, -0.000105859, 0.0117575, -0.0105694, -0.000249548, 0.0207803, 0.0500567, -0.00586198, 0.471008, -0.543354, 0.335903, -2.08382, -2.16584, -0.129889, 0.469762, -0.542633, 0.33758, -2.08633, -2.16842, -0.129047, -1.46131e-05, 0.00336352, 0.000893861, 0.0109526, -0.00777292, -0.00149606
0.0452495, 1.69153, -1.22374, -1.53704, -0.899533, -1.19209, 1.22983, -1.30269, 0.013908, 0.00250689, -0.00894292, 0.00598733, -0.0273256, 0.0489975, -0.00165717, 1.11457, 56.0074, 26.8577, 5.27588, 1.65088, 3.33133, 0.0357776, 0.00100629, -0.00125214, -0.00150625, -0.0020251, -0.00307889, -0.000109175, 0.011371, -0.010627, 0.0023748, 0.0234762, 0.0522215, -0.00306556, 0.471008, -0.54335, 0.335904, -2.08382, -2.16584, -0.12989, 0.469776, -0.54264, 0.337586, -2.08637, -2.16847, -0.129025, -1.60536e-05, 0.00355356, 0.000943786, 0.0110897, -0.007603, 0.00120341
0.0462495, 1.69155, -1.22374, -1.53704, -0.899533, -1.19212, 1.22989, -1.30268, 0.0163509, -0.000615492, -0.00815174, 0.00395798, -0.0297574, 0.0505771, 0.00177744, 1.15424, 55.9717, 26.7823, 5.27588, 1.65088, 3.34598, -0.0420422, 0.00100049, -0.00123258, -0.00150649, -0.00205532, -0.00312939, -0.000111245, 0.010667, -0.0126575, 0.00053196, 0.0228409, 0.0522236, -0.00267792, 0.471008, -0.543347, 0.335905, -2.08381, -2.16583, -0.12989, 0.469796, -0.542641, 0.337585, -2.08641, -2.16851, -0.129008, -1.75788e-05, 0.0037494, 0.000995199, 0.0130243, -0.00634536, -0.000516811
0.0472495, 1.69157, -1.22375, -1.53705, -0.89952, -1.19214, 1.22994, -1.30268, 0.0162259, -0.00147505, -0.00846525, 0.00604715, -0.0306785, 0.0527833, 0.00518657, 1.26533, 56.0074, 26.7466, 5.12909, 1.62616, 3.33133, -0.0228162, 0.000988581, -0.00121742, -0.00150343, -0.00208611, -0.0031743, -0.000109565, 0.0121089, -0.0123751, 0.00038923, 0.0250337, 0.053192, -0.0084655, 0.471008, -0.543343, 0.335906, -2.08381, -2.16583, -0.12989, 0.469811, -0.542648, 0.337581, -2.08644, -2.16854, -0.128996, -1.91915e-05, 0.00395105, 0.0010481, 0.012787, -0.00755675, -0.000820175
0.0482495, 1.69159, -1.22375, -1.53706, -0.899512, -1.19218, 1.23, -1.30269, 0.0177838, -0.00264556, -0.00858488, 0.00895502, -0.0265986, 0.0504218, 0.00191774, 1.45576, 55.936, 26.7069, 5.05371, 1.59595, 3.29562, 0.0293689, 0.000976105, -0.00120323, -0.0015077, -0.00211995, -0.00323632, -0.000110453, 0.0115774, -0.0126219, -0.000249646, 0.0258495, 0.0474726, -0.00485431, 0.471008, -0.543339, 0.335907, -2.08381, -2.16583, -0.129891, 0.469826, -0.542657, 0.337584, -2.08649, -2.16859, -0.128971, -2.08943e-05, 0.0041585, 0.00110247, 0.0129897, -0.00671615, -0.00132162
0.0492495, 1.69161, -1.22375, -1.53706, -0.899511, -1.19221, 1.23006, -1.30268, 0.0190041, -0.00132096, -0.00873921, 0.00538557, -0.0289422, 0.0521852, 0.0039806, 1.64619, 55.9003, 26.5244, 5.08942, 1.58313, 3.2883, -0.0356336, 0.000968152, -0.00118493, -0.00151026, -0.00215434, -0.00329216, -0.00011129, 0.0107465, -0.014107, 4.79663e-05, 0.0244152, 0.0520998, -0.00345248, 0.471008, -0.543335, 0.335908, -2.08381, -2.16583, -0.129891, 0.469844, -0.54266, 0.337586, -2.08653, -2.16864, -0.128953, -2.269e-05, 0.00437173, 0.00115833, 0.0144522, -0.00566759, -0.000887745
0.0502495, 1.69163, -1.22374, -1.53706, -0.89951, -1.19224, 1.23012, -1.30268, 0.0210861, 6.05847e-05, -0.00750509, 0.00461368, -0.0289497, 0.0540977, 0.000704549, 1.79694, 55.7138, 26.4094, 5.05371, 1.52179, 3.26724, 0.0229602, 0.000960316, -0.00116735, -0.00151648, -0.00218379, -0.00335764, -0.000120627, 0.00962451, -0.0159822, 0.00122697, 0.026608, 0.0546429, 0.00314593, 0.471008, -0.543331, 0.335909, -2.0838, -2.16583, -0.129891, 0.469862, -0.542664, 0.337591, -2.08657, -2.1687, -0.128921, -2.45814e-05, 0.00459073, 0.00121564, 0.0163256, -0.00444568, 0.000451311
0.0512495, 1.69166, -1.22375, -1.53707, -0.899503, -1.19228, 1.23018, -1.30268, 0.0217161, -0.000440885, -0.00754631, 0.00498008, -0.025765, 0.0554959, 0.00134749, 1.98341, 55.7138, 26.3379, 4.97833, 1.49707, 3.24527, 0.00373412, 0.000948076, -0.0011499, -0.00151289, -0.00221475, -0.00341002, -0.000117587, 0.00925553, -0.0168643, 0.00103584, 0.0293408, 0.052382, 0.00388304, 0.471008, -0.543326, 0.335911, -2.0838, -2.16583, -0.129892, 0.46988, -0.54267, 0.337586, -2.08661, -2.16873, -0.128902, -2.6571e-05, 0.00481547, 0.00127442, 0.0171844, -0.00379112, 0.000351988
0.0522495, 1.69168, -1.22374, -1.53708, -0.899505, -1.19231, 1.23024, -1.30268, 0.0182589, 0.000556158, -0.00580032, 0.00259063, -0.0232256, 0.0604834, 0.00224332, 2.20954, 55.5313, 26.1872, 5.01404, 1.46686, 3.23886, -0.0292249, 0.000938891, -0.00113265, -0.00151868, -0.00224453, -0.00347885, -0.000119482, 0.00987258, -0.0169379, 0.00250828, 0.0358967, 0.0539285, 0.00336577, 0.471008, -0.543321, 0.335912, -2.0838, -2.16583, -0.129892, 0.469898, -0.542674, 0.337591, -2.08666, -2.16878, -0.128866, -2.86617e-05, 0.00504591, 0.00133464, 0.0173311, -0.00439349, 0.00176805
0.0532495, 1.69171, -1.22374, -1.53709, -0.899502, -1.19235, 1.23029, -1.30268, 0.0223833, 0.00244369, -0.00733941, 0.00347687, -0.0262635, 0.0591235, -0.000818738, 2.28492, 55.4202, 26.1515, 4.94263, 1.44214, 3.24527, 0.0357776, 0.000930947, -0.00111212, -0.00151898, -0.00226709, -0.00354185, -0.000135127, 0.00914357, -0.018154, 0.00283411, 0.0319331, 0.0579459, 0.0079527, 0.471008, -0.543316, 0.335913, -2.08379, -2.16583, -0.129892, 0.469919, -0.542676, 0.337591, -2.08668, -2.16884, -0.128829, -3.0856e-05, 0.00528201, 0.00139628, 0.0185291, -0.00343806, 0.00222787
0.0542495, 1.69173, -1.22374, -1.53708, -0.899502, -1.19239, 1.23036, -1.30268, 0.0234964, 0.00383343, -0.00376376, 0.00237742, -0.0286926, 0.0588735, 0.00193158, 2.43568, 55.3091, 25.9253, 4.94263, 1.42383, 3.23153, -0.0292249, 0.000921925, -0.00109208, -0.0015233, -0.00230378, -0.00360754, -0.000137501, 0.00814195, -0.0193009, 0.00466037, 0.0331735, 0.0612679, 0.00816995, 0.471008, -0.543311, 0.335915, -2.08379, -2.16583, -0.129893, 0.469939, -0.54268, 0.337595, -2.08673, -2.1689, -0.128804, -3.31567e-05, 0.00552372, 0.00145934, 0.0197024, -0.00244171, 0.00421505
0.0552495, 1.69176, -1.22374, -1.53709, -0.899497, -1.19243, 1.23042, -1.30268, 0.0230151, 0.00485846, -0.00275256, 0.00339282, -0.0307028, 0.0590043, 0.000865438, 2.51106, 55.1981, 25.8896, 4.86725, 1.41192, 3.20956, -0.0164075, 0.000911275, -0.00107275, -0.00152495, -0.00233254, -0.00367335, -0.000143196, 0.00901071, -0.0187538, 0.00577548, 0.0339143, 0.0640157, 0.00768984, 0.471008, -0.543305, 0.335916, -2.08378, -2.16583, -0.129893, 0.469959, -0.542684, 0.337596, -2.08677, -2.16895, -0.12877, -3.55665e-05, 0.00577098, 0.0015238, 0.019225, -0.00324616, 0.00526215
0.0562495, 1.69178, -1.22374, -1.5371, -0.89949, -1.19247, 1.23048, -1.30268, 0.0215186, 0.0046877, -0.000880761, 0.00405859, -0.0375737, 0.0638114, -0.000129701, 2.62611, 55.1266, 25.8143, 4.79187, 1.41742, 3.18851, 0.00373412, 0.000898544, -0.00105483, -0.00152601, -0.00236087, -0.0037399, -0.000145933, 0.0116155, -0.0181948, 0.00691545, 0.0370995, 0.0718141, 0.00525012, 0.471008, -0.5433, 0.335918, -2.08378, -2.16583, -0.129894, 0.469977, -0.542691, 0.337596, -2.08681, -2.169, -0.128734, -3.8088e-05, 0.00602372, 0.00158964, 0.0187986, -0.00576332, 0.00606604
0.0572495, 1.69181, -1.22374, -1.5371, -0.899484, -1.19251, 1.23054, -1.30268, 0.0236384, 0.0055573, 0.000569347, 0.00449407, -0.0425884, 0.0622271, 0.000926371, 2.73719, 55.0156, 25.7389, 4.71649, 1.42383, 3.18118, -0.0228162, 0.000886455, -0.00103714, -0.00152978, -0.00239055, -0.00380907, -0.000144839, 0.0115072, -0.0186652, 0.00772527, 0.0346525, 0.0761228, 0.00492948, 0.471008, -0.543294, 0.335919, -2.08378, -2.16583, -0.129894, 0.469995, -0.542696, 0.337599, -2.08686, -2.16905, -0.128697, -4.07237e-05, 0.00628188, 0.00165682, 0.0192912, -0.0055036, 0.0069354
0.0582495, 1.69184, -1.22374, -1.5371, -0.899476, -1.19256, 1.2306, -1.30268, 0.0228795, 0.00617861, -0.000534872, 0.00477811, -0.0455526, 0.0664125, 0.000164983, 2.81654, 54.9045, 25.6278, 4.64111, 1.41742, 3.1528, -0.00999879, 0.000875624, -0.00101622, -0.00153591, -0.00242733, -0.00388218, -0.000151721, 0.0133903, -0.0183958, 0.00812616, 0.0362894, 0.0814606, 0.00318363, 0.471008, -0.543287, 0.335921, -2.08377, -2.16582, -0.129894, 0.470017, -0.542701, 0.337604, -2.0869, -2.16911, -0.128665, -4.34763e-05, 0.00654537, 0.00172534, 0.0191013, -0.0071719, 0.00711545
0.0592495, 1.69186, -1.22374, -1.53711, -0.899469, -1.1926, 1.23067, -1.30268, 0.0221824, 0.00578878, -0.00237303, 0.00726265, -0.0442384, 0.0697783, -0.000856765, 2.89191, 54.8291, 25.5564, 4.60541, 1.43024, 3.11618, 0.0165515, 0.000861934, -0.000997296, -0.00154101, -0.00246441, -0.00395656, -0.000155415, 0.0152239, -0.0178902, 0.00790108, 0.0395174, 0.0817424, 0.00093185, 0.471008, -0.543281, 0.335923, -2.08377, -2.16582, -0.129895, 0.470036, -0.542708, 0.337608, -2.08695, -2.16917, -0.128632, -4.63483e-05, 0.0068141, 0.00179515, 0.018651, -0.00869939, 0.00669353
0.0602495, 1.69189, -1.22374, -1.53712, -0.899459, -1.19265, 1.23073, -1.30267, 0.0242787, 0.00545947, -0.00546087, 0.00688459, -0.0430173, 0.0721181, 0.00113669, 2.85224, 54.7577, 25.5564, 4.53003, 1.44214, 3.0878, -0.0292249, 0.00084961, -0.000976712, -0.00154325, -0.00249236, -0.00402951, -0.000150164, 0.0151398, -0.0191752, 0.00663106, 0.0389401, 0.0820682, 0.000294172, 0.471008, -0.543274, 0.335924, -2.08376, -2.16582, -0.129895, 0.470057, -0.542713, 0.33761, -2.087, -2.16922, -0.128589, -4.93422e-05, 0.00708797, 0.00186624, 0.0198824, -0.00809431, 0.00548476
0.0612495, 1.69192, -1.22373, -1.53712, -0.899454, -1.19269, 1.23079, -1.30268, 0.0227495, 0.00702071, -0.0048991, 0.00479941, -0.041739, 0.0684738, -0.000690939, 2.92762, 54.6109, 25.4413, 4.53003, 1.44214, 3.07315, 0.0101428, 0.000837457, -0.000956809, -0.00155275, -0.00253088, -0.00411054, -0.000157347, 0.0145872, -0.0183254, 0.00718608, 0.0362713, 0.0810865, 0.00313095, 0.471007, -0.543267, 0.335926, -2.08376, -2.16582, -0.129896, 0.470078, -0.542718, 0.337618, -2.08705, -2.16928, -0.12855, -5.24605e-05, 0.00736687, 0.00193857, 0.019031, -0.00739012, 0.00621645
0.0622495, 1.69195, -1.22372, -1.53712, -0.899443, -1.19273, 1.23086, -1.30268, 0.0237455, 0.00556903, -0.00574392, 0.0073613, -0.0408433, 0.0654977, 0.000529717, 2.92762, 54.5712, 25.3699, 4.49432, 1.44855, 3.06674, -0.0164075, 0.00082343, -0.000936836, -0.0015593, -0.00257258, -0.00418558, -0.000158269, 0.015027, -0.0177405, 0.00604603, 0.0343558, 0.0775027, 0.000590756, 0.471007, -0.543259, 0.335928, -2.08375, -2.16582, -0.129897, 0.470099, -0.542725, 0.337624, -2.08711, -2.16934, -0.128521, -5.57056e-05, 0.00765073, 0.00201212, 0.0184181, -0.00738878, 0.00511356
0.0632495, 1.69198, -1.22371, -1.53712, -0.899434, -1.19278, 1.23093, -1.30267, 0.0275339, 0.00711677, -0.00298361, 0.00528958, -0.0394123, 0.0637132, 0.00130783, 2.92762, 54.4244, 25.2945, 4.49432, 1.43573, 3.05209, -0.0420422, 0.000810294, -0.000916068, -0.00157011, -0.00261463, -0.00427027, -0.000155785, 0.0118273, -0.0206146, 0.00725781, 0.0344942, 0.077314, 0.007176, 0.471007, -0.543252, 0.33593, -2.08374, -2.16582, -0.129897, 0.47012, -0.542731, 0.337634, -2.08717, -2.1694, -0.128482, -5.90798e-05, 0.00793954, 0.00208689, 0.0212146, -0.00401001, 0.00679479
0.0642495, 1.692, -1.2237, -1.53712, -0.899425, -1.19282, 1.231, -1.30268, 0.0311455, 0.00982642, -0.00091401, 0.00381293, -0.0381123, 0.0664821, -0.00153167, 2.89191, 54.2062, 25.2192, 4.49432, 1.41192, 3.05209, 0.0229602, 0.000797607, -0.000894796, -0.00158523, -0.00265882, -0.00436307, -0.000165094, 0.00941703, -0.023931, 0.00940418, 0.0383268, 0.0806376, 0.0162941, 0.471007, -0.543244, 0.335932, -2.08374, -2.16582, -0.129898, 0.470142, -0.542737, 0.337648, -2.08723, -2.16948, -0.128439, -6.25855e-05, 0.00823327, 0.00216285, 0.0245145, -0.00153152, 0.00926412
0.0652495, 1.69203, -1.22369, -1.53712, -0.899415, -1.19287, 1.23107, -1.30267, 0.0294474, 0.00913276, -0.00433898, 0.00595953, -0.0394905, 0.0694964, 0.000914616, 2.89191, 54.0952, 25.2192, 4.49432, 1.44855, 3.03012, -0.0292249, 0.000780813, -0.000876117, -0.00159412, -0.00269858, -0.00445061, -0.000155841, 0.0124846, -0.0222991, 0.00841222, 0.0385896, 0.0827705, 0.00822149, 0.471007, -0.543236, 0.335935, -2.08373, -2.16581, -0.129898, 0.470162, -0.542746, 0.337656, -2.0873, -2.16953, -0.128393, -6.6225e-05, 0.00853189, 0.00224002, 0.0229551, -0.00417528, 0.00793465
0.0662495, 1.69206, -1.22368, -1.53713, -0.899408, -1.19292, 1.23114, -1.30268, 0.0293958, 0.00950969, -0.00658502, 0.00673883, -0.0429787, 0.0708357, -0.000371385, 2.85224, 53.9484, 25.2192, 4.53003, 1.43024, 3.03012, -0.00267457, 0.000766365, -0.00085434, -0.00160422, -0.00274222, -0.00453903, -0.000161751, 0.0143124, -0.0215408, 0.00804153, 0.036624, 0.0869694, 0.00654574, 0.471007, -0.543227, 0.335937, -2.08373, -2.16581, -0.129899, 0.470185, -0.542753, 0.337666, -2.08735, -2.1696, -0.128353, -7.00005e-05, 0.00883538, 0.00231837, 0.0222461, -0.00565026, 0.00738592
0.0672495, 1.69208, -1.22367, -1.53713, -0.899397, -1.19296, 1.23122, -1.30268, 0.0290204, 0.00985691, -0.00429909, 0.00747707, -0.0415983, 0.0731763, -0.00167008, 2.81654, 53.7976, 25.1835, 4.56573, 1.43024, 2.99441, 0.0357776, 0.00074901, -0.000834217, -0.00161634, -0.002792, -0.00463073, -0.000159957, 0.0144708, -0.0221353, 0.00935683, 0.0417832, 0.087346, 0.0084168, 0.471007, -0.543218, 0.335939, -2.08372, -2.16581, -0.1299, 0.470206, -0.542762, 0.337677, -2.08742, -2.16967, -0.128316, -7.39143e-05, 0.00914373, 0.0023979, 0.0228892, -0.00567637, 0.0087215
0.0682495, 1.69212, -1.22366, -1.53713, -0.899384, -1.19302, 1.2313, -1.30267, 0.0298207, 0.00999792, -0.00659724, 0.0120543, -0.0457315, 0.0746839, 0.00177007, 2.73719, 53.6508, 25.1835, 4.56573, 1.44214, 2.96603, -0.0420422, 0.000730662, -0.000812982, -0.00162675, -0.00283735, -0.00472735, -0.000149668, 0.0172351, -0.0209579, 0.00932825, 0.0412879, 0.0916162, -0.000703113, 0.471007, -0.543209, 0.335941, -2.08371, -2.16581, -0.1299, 0.470228, -0.542772, 0.337686, -2.0875, -2.16973, -0.128268, -7.79688e-05, 0.0094569, 0.0024786, 0.0218072, -0.00813604, 0.00838013
0.0692495, 1.69214, -1.22364, -1.53713, -0.899371, -1.19307, 1.23138, -1.30267, 0.0301133, 0.0109289, -0.00415321, 0.0122083, -0.0487494, 0.0747175, 0.00118098, 2.66181, 53.4683, 25.1438, 4.56573, 1.44855, 2.96603, -0.0420422, 0.000713156, -0.000791285, -0.00164102, -0.00289089, -0.00482455, -0.000148643, 0.0174744, -0.0211585, 0.0107228, 0.0422054, 0.0951025, 0.000219615, 0.471007, -0.5432, 0.335944, -2.08371, -2.16581, -0.129901, 0.470251, -0.542781, 0.337699, -2.08757, -2.1698, -0.128229, -8.21662e-05, 0.00977487, 0.00256046, 0.0220624, -0.00826079, 0.00979559
0.0702495, 1.69218, -1.22364, -1.53713, -0.899361, -1.19312, 1.23146, -1.30267, 0.0302647, 0.00728199, -0.0024459, 0.0113548, -0.0513041, 0.0799935, 7.59457e-05, 2.58643, 53.4683, 25.1081, 4.60541, 1.46686, 2.95138, -0.0228162, 0.000694757, -0.000766147, -0.00164802, -0.00294448, -0.00491816, -0.000153677, 0.0185329, -0.0224701, 0.00950001, 0.0464094, 0.0963774, 0.00228226, 0.471007, -0.54319, 0.335947, -2.0837, -2.16581, -0.129902, 0.470276, -0.542789, 0.337705, -2.08764, -2.16988, -0.128195, -8.65087e-05, 0.0100976, 0.00264348, 0.0233617, -0.00874092, 0.00846706
0.0712495, 1.69221, -1.22364, -1.53713, -0.899348, -1.19317, 1.23155, -1.30267, 0.0330594, 0.00745015, -0.000251593, 0.0108856, -0.0532934, 0.0832905, -0.000932188, 2.39997, 53.3572, 25.0327, 4.64111, 1.48517, 2.95871, 0.00373412, 0.000680706, -0.000737826, -0.00165958, -0.00299844, -0.005014, -0.000162726, 0.0177444, -0.024897, 0.0104284, 0.0496825, 0.100025, 0.00688361, 0.471007, -0.54318, 0.335949, -2.08369, -2.1658, -0.129903, 0.470306, -0.542794, 0.337716, -2.0877, -2.16996, -0.128159, -9.09987e-05, 0.0104251, 0.00272764, 0.0257864, -0.00767854, 0.00951681
0.0722495, 1.69224, -1.22363, -1.53713, -0.89933, -1.19323, 1.23163, -1.30267, 0.0304259, 0.00672778, -0.000455902, 0.0154197, -0.0497082, 0.0859167, 0.000836997, 2.39997, 53.2819, 25.0327, 4.60541, 1.49707, 2.95871, -0.0356336, 0.000656113, -0.000718201, -0.00167039, -0.00305767, -0.00511351, -0.000145081, 0.0202767, -0.0232568, 0.0109036, 0.0560126, 0.097449, -0.000306478, 0.471007, -0.543169, 0.335952, -2.08368, -2.1658, -0.129903, 0.470326, -0.542808, 0.337725, -2.08779, -2.17002, -0.128123, -9.56382e-05, 0.0107574, 0.00281294, 0.0242517, -0.00998653, 0.0097275
0.0732495, 1.69227, -1.22362, -1.53713, -0.899317, -1.19328, 1.23172, -1.30267, 0.0317108, 0.00698918, 0.000315154, 0.0170954, -0.0515318, 0.0877705, -0.00137449, 2.39997, 53.1747, 24.997, 4.64111, 1.50348, 2.96603, 0.0165515, 0.000634543, -0.000696393, -0.00168182, -0.0031146, -0.00521304, -0.000145537, 0.0209129, -0.0238595, 0.0116319, 0.0581211, 0.100211, 0.00149715, 0.471007, -0.543159, 0.335955, -2.08368, -2.1658, -0.129904, 0.470349, -0.54282, 0.337735, -2.08786, -2.1701, -0.128086, -0.00010043, 0.0110943, 0.00289937, 0.024898, -0.0103652, 0.0104158
0.0742495, 1.69231, -1.22363, -1.53712, -0.899301, -1.19334, 1.23181, -1.30267, 0.0365529, 0.00215255, 0.00264646, 0.0182213, -0.0525484, 0.0900923, 0.00054196, 2.24921, 53.2819, 24.8859, 4.68079, 1.49707, 2.95138, -0.0228162, 0.000615661, -0.000666727, -0.00168697, -0.00317807, -0.0053037, -0.000147572, 0.0198653, -0.0271257, 0.00969386, 0.0611549, 0.0975075, 0.00427168, 0.471006, -0.543147, 0.335958, -2.08367, -2.1658, -0.129905, 0.47038, -0.542827, 0.337739, -2.08793, -2.17017, -0.128065, -0.000105375, 0.011436, 0.00298692, 0.0280474, -0.00855683, 0.00865347
0.0752495, 1.69234, -1.22362, -1.53712, -0.899285, -1.1934, 1.23191, -1.30267, 0.0374028, 0.0065382, 0.000807516, 0.0199769, -0.0526657, 0.0873594, 0.000836191, 2.20954, 53.0637, 24.9216, 4.68079, 1.47876, 2.93033, -0.0356336, 0.000592799, -0.00064263, -0.00170307, -0.00324231, -0.00541783, -0.000139581, 0.0200615, -0.0262875, 0.0115445, 0.0582497, 0.100868, 0.00231404, 0.471006, -0.543136, 0.335961, -2.08366, -2.1658, -0.129906, 0.470405, -0.54284, 0.337754, -2.08803, -2.17025, -0.128021, -0.000110477, 0.0117823, 0.00307558, 0.0272794, -0.00872359, 0.010564
0.0762495, 1.69234, -1.22362, -1.53712, -0.899285, -1.1934, 1.23191, -1.30267, 0.0374028, 0.0065382, 0.000807516, 0.0199769, -0.0526657, 0.0873594, 0.000836191, 2.20954, 53.0637, 24.9216, 4.68079, 1.47876, 2.93033, -0.0356336, 0.000580697, -0.000642916, -0.00170185, -0.00324721, -0.0054238, -0.000136764, 0.0204221, -0.026281, 0.0115103, 0.0583069, 0.101127, 0.00234146, 0.471006, -0.543124, 0.335964, -2.08365, -2.16579, -0.129907, 0.470405, -0.54284, 0.337754, -2.08803, -2.17025, -0.128021, -0.000115737, 0.0121332, 0.00316535, 0.0272794, -0.00872359, 0.010564
0.0772495, 1.69234, -1.22362, -1.53712, -0.899285, -1.1934, 1.23191, -1.30267, 0.0374028, 0.0065382, 0.000807516, 0.0199769, -0.0526657, 0.0873594, 0.000836191, 2.20954, 53.0637, 24.9216, 4.68079, 1.47876, 2.93033, -0.0356336, 0.000568235, -0.00064321, -0.00170059, -0.00325226, -0.00542994, -0.000133866, 0.0207874, -0.0262745, 0.0114759, 0.058365, 0.101389, 0.00236925, 0.471006, -0.543112, 0.335967, -2.08364, -2.16579, -0.129908, 0.470405, -0.54284, 0.337754, -2.08803, -2.17025, -0.128021, -0.000121158, 0.0124888, 0.00325621, 0.0272794, -0.00872359, 0.010564
0.0782495, 1.69244, -1.22362, -1.53712, -0.899239, -1.19358, 1.2322, -1.30267, 0.0311199, 0.00181245, 0.00211257, 0.015578, -0.0608525, 0.0948928, -0.000490502, 2.09846, 53.0637, 24.8105, 4.86725, 1.43024, 2.89462, 0.00373412, 0.00052237, -0.000562047, -0.00172928, -0.00344025, -0.00572952, -0.000139128, 0.0252295, -0.0244947, 0.00953113, 0.0607719, 0.107501, -0.000644001, 0.471006, -0.5431, 0.33597, -2.08363, -2.16579, -0.129909, 0.470489, -0.542873, 0.337776, -2.08827, -2.1705, -0.127927, -0.000126741, 0.012849, 0.00334816, 0.0255852, -0.012522, 0.0080993
0.0792495, 1.69247, -1.22361, -1.53711, -0.899222, -1.19365, 1.23231, -1.30268, 0.0322056, 0.00380646, 0.00220513, 0.014267, -0.0595527, 0.0997664, -0.00202237, 2.09846, 52.9526, 24.7748, 4.90295, 1.41742, 2.8873, 0.0495105, 0.000496803, -0.00053509, -0.00174338, -0.00351183, -0.00584806, -0.000139158, 0.0247641, -0.0264068, 0.0108978, 0.0651294, 0.111244, 0.00359906, 0.471006, -0.543087, 0.335973, -2.08362, -2.16579, -0.129909, 0.470517, -0.542887, 0.337788, -2.08836, -2.17059, -0.127887, -0.00013249, 0.0132137, 0.00344119, 0.027522, -0.0118299, 0.00955593
0.0802495, 1.69251, -1.2236, -1.53711, -0.8992, -1.19372, 1.23241, -1.30267, 0.0320903, 0.0105438, 0.00320448, 0.0150487, -0.0630523, 0.0977407, 0.00133056, 2.02308, 52.8772, 24.6995, 4.86725, 1.40552, 2.90103, -0.0228162, 0.000470984, -0.00050703, -0.00175731, -0.00358476, -0.00596622, -0.000125986, 0.0250427, -0.0254471, 0.0151165, 0.0636423, 0.11995, -0.00131751, 0.471006, -0.543074, 0.335977, -2.08361, -2.16578, -0.12991, 0.470546, -0.5429, 0.337801, -2.08846, -2.17067, -0.127848, -0.000138406, 0.013583, 0.0035353, 0.0267205, -0.0124249, 0.013801
0.0812495, 1.69255, -1.2236, -1.5371, -0.899188, -1.19379, 1.23251, -1.30267, 0.0331802, 0.00838453, 0.0030427, 0.01281, -0.0656517, 0.100556, -0.000333635, 2.02308, 52.8415, 24.6598, 4.94263, 1.38721, 2.93033, 0.0101428, 0.000445002, -0.000478917, -0.00176765, -0.0036526, -0.00608418, -0.0001282, 0.0253252, -0.0267869, 0.0136415, 0.0633849, 0.121837, 0.00250974, 0.471006, -0.54306, 0.33598, -2.0836, -2.16578, -0.129911, 0.470575, -0.542913, 0.337809, -2.08854, -2.17076, -0.127804, -0.00014449, 0.0139569, 0.00363046, 0.0280093, -0.0120477, 0.012355
0.0822495, 1.69259, -1.22359, -1.53711, -0.89917, -1.19386, 1.23262, -1.30267, 0.0358719, 0.00941344, 0.00108422, 0.0161838, -0.0689393, 0.102606, -0.000222401, 1.9477, 52.6947, 24.6995, 4.94263, 1.40552, 2.95871, 0.0101428, 0.000417729, -0.000449835, -0.00178281, -0.00372071, -0.00621794, -0.000122336, 0.0266881, -0.0271772, 0.0140336, 0.0632695, 0.126758, 8.59774e-05, 0.471006, -0.543046, 0.335984, -2.08359, -2.16578, -0.129913, 0.470606, -0.542927, 0.337823, -2.08864, -2.17085, -0.127744, -0.000150747, 0.0143352, 0.00372669, 0.0284561, -0.0130591, 0.0126145
0.0832495, 1.69263, -1.22358, -1.5371, -0.899151, -1.19393, 1.23274, -1.30267, 0.0336983, 0.00833142, 0.00163866, 0.0146563, -0.0702413, 0.105471, 0.000597735, 1.90803, 52.6193, 24.6598, 4.97833, 1.39911, 2.95871, -0.00999879, 0.00038973, -0.000418938, -0.00179538, -0.00379703, -0.00634585, -0.000116577, 0.0281365, -0.0267856, 0.0137205, 0.0652205, 0.128479, -0.00165363, 0.471005, -0.543032, 0.335988, -2.08358, -2.16578, -0.129914, 0.470638, -0.542941, 0.337834, -2.08875, -2.17095, -0.1277, -0.000157176, 0.014718, 0.00382396, 0.0280993, -0.014074, 0.0121891
0.0842495, 1.69267, -1.22358, -1.5371, -0.89913, -1.19401, 1.23286, -1.30267, 0.0362823, 0.00660891, 0.00108331, 0.0161008, -0.0716569, 0.108063, 0.000635861, 1.83265, 52.5836, 24.6598, 4.90295, 1.39911, 2.94406, -0.0164075, 0.000361295, -0.000386112, -0.00180765, -0.0038768, -0.00647568, -0.000112628, 0.028643, -0.0281542, 0.012776, 0.0665441, 0.129473, -0.00107451, 0.471005, -0.543017, 0.335992, -2.08357, -2.16577, -0.129915, 0.470672, -0.542955, 0.337844, -2.08885, -2.17104, -0.127657, -0.000163782, 0.0151053, 0.00392227, 0.0294436, -0.013985, 0.0112344
0.0852495, 1.69271, -1.22357, -1.5371, -0.899115, -1.19408, 1.23298, -1.30267, 0.0353523, 0.00624094, 0.000715362, 0.014231, -0.0729955, 0.104884, 0.00394315, 1.87232, 52.5122, 24.6598, 4.94263, 1.41192, 2.93765, 0.0165515, 0.000330593, -0.000356479, -0.0018204, -0.00395536, -0.00660822, -0.000109896, 0.0289513, -0.0272557, 0.0119018, 0.0621364, 0.129075, -0.00424963, 0.471005, -0.543002, 0.335996, -2.08356, -2.16577, -0.129916, 0.470703, -0.542971, 0.337855, -2.08895, -2.17114, -0.127611, -0.000170564, 0.0154971, 0.00402162, 0.028519, -0.0137997, 0.0104494
0.0862495, 1.69275, -1.22358, -1.5371, -0.899099, -1.19416, 1.23309, -1.30267, 0.0399371, 0.00428405, 0.00130699, 0.0201728, -0.074346, 0.111887, 0.00400711, 1.83265, 52.5122, 24.6241, 4.94263, 1.43024, 2.93765, -0.00999879, 0.000301247, -0.000324565, -0.00182806, -0.00402431, -0.00673588, -0.000104939, 0.0301367, -0.029757, 0.0121408, 0.0701413, 0.131555, -0.00507089, 0.471005, -0.542986, 0.336, -2.08355, -2.16577, -0.129917, 0.470736, -0.542984, 0.337861, -2.08905, -2.17123, -0.127558, -0.000177527, 0.0158932, 0.00412199, 0.0310614, -0.0145078, 0.0105254
0.0872495, 1.69279, -1.22357, -1.5371, -0.899077, -1.19424, 1.23321, -1.30267, 0.0423469, 0.00387662, 0.000867477, 0.0223711, -0.0708292, 0.112627, 0.00198431, 1.83265, 52.4725, 24.6241, 4.90295, 1.45404, 2.93033, 0.0165515, 0.000270037, -0.000291946, -0.00183983, -0.0041043, -0.00687104, -0.000102545, 0.0296378, -0.0310717, 0.0119541, 0.0727424, 0.128836, -0.00157968, 0.471005, -0.542971, 0.336004, -2.08354, -2.16576, -0.129918, 0.47077, -0.542999, 0.337871, -2.08915, -2.17133, -0.127511, -0.000184671, 0.0162937, 0.00422337, 0.0323427, -0.013532, 0.0104797
0.0882495, 1.69284, -1.22357, -1.5371, -0.899055, -1.19432, 1.23334, -1.30267, 0.0460501, 0.00348905, 0.00141065, 0.0216464, -0.0715406, 0.112484, 0.000832987, 1.75727, 52.4368, 24.5884, 4.82758, 1.44855, 2.93765, 0.0357776, 0.000239891, -0.000257075, -0.00185142, -0.00418485, -0.00700667, -0.000102449, 0.0282367, -0.0333032, 0.011576, 0.0718883, 0.129393, 0.00393404, 0.471005, -0.542954, 0.336008, -2.08353, -2.16576, -0.129919, 0.470806, -0.543013, 0.337881, -2.08925, -2.17144, -0.127464, -0.000192, 0.0166987, 0.00432576, 0.0345003, -0.011594, 0.0103585
0.0892495, 1.69289, -1.22357, -1.53711, -0.89904, -1.1944, 1.23346, -1.30267, 0.0436963, 0.00321332, 0.000103048, 0.0181783, -0.0782459, 0.113504, 0.00241739, 1.75727, 52.4011, 24.6241, 4.86725, 1.47327, 2.91568, -0.00999879, 0.00020939, -0.000223205, -0.00186187, -0.00425548, -0.00714788, -9.27527e-05, 0.0304065, -0.0319602, 0.0106549, 0.0672765, 0.13574, 0.000237613, 0.471004, -0.542938, 0.336012, -2.08351, -2.16576, -0.129921, 0.470841, -0.543027, 0.33789, -2.08936, -2.17153, -0.127399, -0.000199514, 0.0171079, 0.00442916, 0.033196, -0.0132398, 0.00925539
0.0902495, 1.69293, -1.22356, -1.53711, -0.899021, -1.19449, 1.23358, -1.30267, 0.0460496, 0.00477972, -0.000768144, 0.0199354, -0.0777119, 0.113512, 0.000515869, 1.72157, 52.29, 24.6598, 4.86725, 1.47876, 2.90835, 0.0229602, 0.000177905, -0.000188774, -0.00187417, -0.00432998, -0.00729342, -9.53941e-05, 0.0302274, -0.0327612, 0.0113541, 0.0674456, 0.137145, 0.00270329, 0.471004, -0.54292, 0.336017, -2.0835, -2.16575, -0.129922, 0.470877, -0.543041, 0.337901, -2.08946, -2.17164, -0.127335, -0.000207216, 0.0175215, 0.00453354, 0.0340074, -0.0127241, 0.0100532
0.0912495, 1.69298, -1.22356, -1.53711, -0.898994, -1.19457, 1.2337, -1.30268, 0.0445855, 0.00405099, 0.000321903, 0.0237879, -0.0771156, 0.114148, -0.000545696, 1.68189, 52.2543, 24.6241, 4.75616, 1.47876, 2.8873, 0.0495105, 0.000146431, -0.000154848, -0.0018861, -0.00440775, -0.00742854, -9.43821e-05, 0.0322401, -0.031455, 0.0119481, 0.0712877, 0.136102, -0.000278298, 0.471004, -0.542903, 0.336021, -2.08349, -2.16575, -0.129923, 0.470912, -0.543055, 0.337911, -2.08956, -2.17175, -0.127285, -0.000215108, 0.0179394, 0.00463891, 0.0327889, -0.0144382, 0.0104713
0.0922495, 1.69303, -1.22355, -1.5371, -0.898983, -1.19466, 1.23382, -1.30267, 0.0417197, 0.00365065, 0.00197693, 0.0212934, -0.0816683, 0.114134, 0.00191055, 1.72157, 52.2147, 24.5487, 4.86725, 1.48517, 2.87997, -0.00999879, 0.000116151, -0.000119521, -0.00189842, -0.00448321, -0.00757299, -9.11984e-05, 0.033798, -0.0301808, 0.0120718, 0.0699058, 0.139759, -0.00405907, 0.471004, -0.542885, 0.336026, -2.08348, -2.16575, -0.129924, 0.470949, -0.543068, 0.337922, -2.08966, -2.17185, -0.127223, -0.000223192, 0.0183616, 0.00474526, 0.0315689, -0.0156253, 0.0104957
0.0932495, 1.69308, -1.22356, -1.53711, -0.898956, -1.19474, 1.23394, -1.30267, 0.0455985, 0.000687, 0.000389245, 0.0249239, -0.0848622, 0.109934, 0.000343083, 1.64619, 52.29, 24.5884, 4.75616, 1.49158, 2.85892, 0.0165515, 8.20936e-05, -8.45746e-05, -0.00190313, -0.00455554, -0.00770495, -8.85403e-05, 0.0344041, -0.0301889, 0.00965848, 0.0643331, 0.137561, -0.00359064, 0.471003, -0.542867, 0.336031, -2.08346, -2.16574, -0.129926, 0.470985, -0.543082, 0.337925, -2.08976, -2.17195, -0.127171, -0.00023147, 0.0187881, 0.00485258, 0.031503, -0.0154246, 0.00812517
0.0942495, 1.69314, -1.22356, -1.53711, -0.898934, -1.19483, 1.23405, -1.30267, 0.0442895, 0.00130557, 0.000258983, 0.0257384, -0.0864763, 0.11148, 3.0908e-05, 1.60651, 52.2543, 24.5884, 4.71649, 1.48517, 2.83694, 0.0229602, 5.18425e-05, -4.71197e-05, -0.00191318, -0.00462838, -0.0078446, -8.8442e-05, 0.0361149, -0.0293304, 0.0102638, 0.0655245, 0.140481, -0.00585008, 0.471003, -0.542848, 0.336035, -2.08345, -2.16574, -0.129927, 0.471024, -0.543094, 0.337934, -2.08985, -2.17205, -0.127111, -0.000239944, 0.0192188, 0.00496086, 0.0307207, -0.0168112, 0.00859061
0.0952495, 1.69319, -1.22355, -1.53711, -0.898915, -1.19492, 1.23417, -1.30267, 0.0455747, 0.00264289, -0.000662948, 0.0222201, -0.0880442, 0.112348, 0.0009997, 1.60651, 52.179, 24.6241, 4.71649, 1.47327, 2.81589, -0.00267457, 1.92493e-05, -1.2329e-05, -0.00192319, -0.00469522, -0.00798992, -8.57197e-05, 0.0354042, -0.0306314, 0.0102091, 0.0630732, 0.144251, -0.00340858, 0.471003, -0.542829, 0.33604, -2.08343, -2.16574, -0.129929, 0.47106, -0.543107, 0.337943, -2.08995, -2.17215, -0.127039, -0.000248615, 0.0196537, 0.00507009, 0.0319841, -0.0156127, 0.00871635
0.0962495, 1.69324, -1.22356, -1.5371, -0.898891, -1.19501, 1.23429, -1.30267, 0.0487888, 5.63761e-06, 0.0021562, 0.0205777, -0.0853499, 0.1174, -0.000498084, 1.64619, 52.2543, 24.513, 4.68079, 1.48517, 2.78659, 0.0293689, -1.39636e-05, 2.41345e-05, -0.00193183, -0.00477267, -0.00812735, -8.65068e-05, 0.0335871, -0.0345669, 0.00967242, 0.0697666, 0.142283, 0.00505362, 0.471003, -0.542809, 0.336045, -2.08342, -2.16573, -0.12993, 0.471098, -0.54312, 0.33795, -2.09005, -2.17225, -0.126987, -0.000257487, 0.0200928, 0.00518027, 0.0358211, -0.0131352, 0.00845908
0.0972495, 1.6933, -1.22356, -1.53711, -0.898869, -1.1951, 1.23441, -1.30267, 0.0518382, 0.000936991, 0.000602033, 0.0216302, -0.0833742, 0.117266, -0.000315373, 1.64619, 52.2147, 24.5487, 4.68079, 1.49707, 2.75821, 0.0293689, -4.73719e-05, 6.00903e-05, -0.00194056, -0.00484036, -0.00827167, -8.70073e-05, 0.0328237, -0.0359459, 0.00960473, 0.0694071, 0.141947, 0.00690567, 0.471002, -0.542789, 0.336051, -2.08341, -2.16573, -0.129932, 0.471135, -0.543132, 0.337957, -2.09014, -2.17236, -0.126917, -0.000266561, 0.0205361, 0.00529139, 0.0371596, -0.011871, 0.00857959
0.0982495, 1.69335, -1.22356, -1.53711, -0.898847, -1.19519, 1.23452, -1.30267, 0.0524717, 0.00062857, -0.00198173, 0.0215288, -0.0822336, 0.116187, 0.00126033, 1.60651, 52.2147, 24.513, 4.71649, 1.52179, 2.75088, -0.00999879, -7.87466e-05, 9.81658e-05, -0.00194924, -0.00490513, -0.00841602, -8.40207e-05, 0.0332029, -0.0358034, 0.0083253, 0.0666584, 0.140694, 0.00523179, 0.471002, -0.542768, 0.336056, -2.08339, -2.16572, -0.129933, 0.471174, -0.543143, 0.337965, -2.09024, -2.17246, -0.126843, -0.000275838, 0.0209836, 0.00540343, 0.0369753, -0.0116063, 0.00737309
0.0992495, 1.6934, -1.22356, -1.53711, -0.898824, -1.19529, 1.23463, -1.30267, 0.0533112, -0.000506041, -0.0033527, 0.0224338, -0.0818529, 0.110076, -0.000608461, 1.68189, 52.2543, 24.5884, 4.71649, 1.55932, 2.76553, 0.0293689, -0.000116628, 0.000128737, -0.00195402, -0.00496239, -0.00855629, -8.05361e-05, 0.0332509, -0.0347745, 0.00666758, 0.0606037, 0.136602, 0.00665319, 0.471002, -0.542747, 0.336061, -2.08338, -2.16572, -0.129935, 0.471206, -0.543159, 0.337969, -2.09033, -2.17255, -0.126765, -0.000285321, 0.0214351, 0.00551641, 0.0358799, -0.0109886, 0.0058724
0.10025, 1.69347, -1.22356, -1.53711, -0.898806, -1.19538, 1.23474, -1.30267, 0.0575863, -0.0020056, -0.000673118, 0.0222019, -0.0841557, 0.110113, -0.00114459, 1.60651, 52.3257, 24.513, 4.75616, 1.5401, 2.77926, 0.0495105, -0.000144888, 0.000170571, -0.00196014, -0.00503046, -0.00869059, -9.42418e-05, 0.0317848, -0.0374671, 0.0064449, 0.0611043, 0.137307, 0.0122021, 0.471002, -0.542726, 0.336067, -2.08336, -2.16572, -0.129936, 0.471249, -0.543164, 0.337975, -2.09041, -2.17266, -0.126708, -0.000295012, 0.0218908, 0.00563029, 0.0384987, -0.00894029, 0.00591199
0.10125, 1.69353, -1.22357, -1.53712, -0.898777, -1.19547, 1.23486, -1.30267, 0.0618986, -0.00217063, -0.00319812, 0.0215843, -0.0877002, 0.111062, 0.001175, 1.60651, 52.3615, 24.6241, 4.68079, 1.57123, 2.77286, -0.00267457, -0.000182164, 0.000205053, -0.00196409, -0.00508892, -0.00883202, -8.2875e-05, 0.031494, -0.0393581, 0.00519043, 0.0572068, 0.141193, 0.0123401, 0.471001, -0.542704, 0.336072, -2.08334, -2.16571, -0.129938, 0.471284, -0.543178, 0.337977, -2.09051, -2.17275, -0.126629, -0.000304912, 0.0223506, 0.00574509, 0.0403215, -0.00792201, 0.00477525
0.10225, 1.69359, -1.22357, -1.53712, -0.898755, -1.19557, 1.23497, -1.30267, 0.0637662, -0.00237387, -0.00224527, 0.0246776, -0.0894104, 0.117098, 0.000549933, 1.53114, 52.4011, 24.6241, 4.71649, 1.57123, 2.75088, 0.00373412, -0.000213066, 0.000245706, -0.00196762, -0.00514921, -0.00896756, -9.27446e-05, 0.0328346, -0.040786, 0.00624758, 0.06374, 0.145434, 0.0120523, 0.471001, -0.542682, 0.336078, -2.08333, -2.16571, -0.12994, 0.471326, -0.543185, 0.33798, -2.09058, -2.17286, -0.126561, -0.000315023, 0.0228145, 0.00586078, 0.0418242, -0.00888566, 0.0056821
0.10325, 1.69364, -1.22356, -1.53712, -0.898737, -1.19566, 1.23508, -1.30268, 0.0630335, 0.000181584, -0.00301668, 0.0198701, -0.0862953, 0.116372, -0.00132583, 1.68189, 52.3257, 24.5487, 4.79187, 1.58313, 2.73623, 0.0495105, -0.000248777, 0.000279048, -0.00198005, -0.00521412, -0.00911878, -9.58333e-05, 0.031431, -0.0414848, 0.00674018, 0.0620116, 0.145867, 0.0180922, 0.471001, -0.542659, 0.336084, -2.08331, -2.1657, -0.129941, 0.47136, -0.543198, 0.337992, -2.09067, -2.17297, -0.126481, -0.000325348, 0.0232823, 0.00597737, 0.0424795, -0.00707908, 0.00648143
0.10425, 1.69371, -1.22357, -1.53712, -0.89871, -1.19575, 1.23519, -1.30267, 0.064827, -0.0024767, -0.00410454, 0.0212795, -0.0881781, 0.115844, 0.000339044, 1.60651, 52.4368, 24.6241, 4.79187, 1.58313, 2.72983, 0.0165515, -0.000282962, 0.000318454, -0.00198154, -0.00527386, -0.00925348, -9.19016e-05, 0.0323377, -0.041721, 0.00480825, 0.0599909, 0.144841, 0.0159, 0.471, -0.542636, 0.33609, -2.08329, -2.1657, -0.129943, 0.471401, -0.543207, 0.337993, -2.09076, -2.17306, -0.126412, -0.000335889, 0.0237543, 0.00609484, 0.0426673, -0.0071942, 0.00454239
0.10525, 1.69377, -1.22357, -1.53713, -0.898688, -1.19584, 1.2353, -1.30267, 0.0643157, -0.000815396, -0.00381922, 0.0246561, -0.0847842, 0.116027, -9.65967e-06, 1.60651, 52.4011, 24.6598, 4.82758, 1.57764, 2.70785, 0.0229602, -0.000316995, 0.00035669, -0.00198904, -0.00533629, -0.00939851, -9.49525e-05, 0.0331791, -0.0411039, 0.00635927, 0.0638851, 0.143823, 0.0140776, 0.471, -0.542612, 0.336096, -2.08328, -2.16569, -0.129945, 0.47144, -0.543217, 0.338, -2.09085, -2.17316, -0.126336, -0.000346646, 0.0242302, 0.00621319, 0.0421272, -0.00781332, 0.00607924
0.10625, 1.69383, -1.22357, -1.53713, -0.898668, -1.19594, 1.23541, -1.30268, 0.0640482, 0.000384814, -0.00273187, 0.0238564, -0.0871547, 0.115421, -0.00122589, 1.60651, 52.3615, 24.6598, 4.86725, 1.58313, 2.70053, 0.0559192, -0.000349414, 0.000395803, -0.00199657, -0.00539503, -0.00954244, -0.000108633, 0.0336106, -0.0409187, 0.00726385, 0.0630535, 0.147005, 0.0154895, 0.471, -0.542588, 0.336102, -2.08326, -2.16569, -0.129946, 0.47148, -0.543224, 0.338007, -2.09092, -2.17327, -0.126258, -0.000357622, 0.0247101, 0.00633241, 0.0419799, -0.00790627, 0.00702929
0.10725, 1.6939, -1.22358, -1.53713, -0.898648, -1.19603, 1.23552, -1.30267, 0.0653837, -0.00326964, -0.00112533, 0.0203471, -0.0885859, 0.110724, 0.00111646, 1.53114, 52.5122, 24.6241, 4.90295, 1.57123, 2.67947, 0.00373412, -0.000380809, 0.000438836, -0.00199673, -0.00545398, -0.00967446, -0.00011443, 0.0322839, -0.0417842, 0.00466196, 0.0576365, 0.142796, 0.0179244, 0.470999, -0.542563, 0.336109, -2.08324, -2.16568, -0.129948, 0.471524, -0.543229, 0.338008, -2.091, -2.17337, -0.126192, -0.000368819, 0.025194, 0.00645249, 0.0426907, -0.00567534, 0.00475968
0.10825, 1.69396, -1.22358, -1.53714, -0.898624, -1.19612, 1.23562, -1.30267, 0.0659859, -0.00217954, -0.00473694, 0.0216608, -0.0898923, 0.106045, -0.000441784, 1.60651, 52.5122, 24.6598, 4.90295, 1.56482, 2.6868, 0.0357776, -0.000420091, 0.000472616, -0.00200131, -0.00551237, -0.00981602, -0.000111699, 0.0333313, -0.0401691, 0.00371638, 0.0505099, 0.143146, 0.0167767, 0.470999, -0.542538, 0.336115, -2.08322, -2.16568, -0.12995, 0.471559, -0.543242, 0.338011, -2.09108, -2.17347, -0.126114, -0.000380238, 0.0256818, 0.00657343, 0.0410697, -0.00614171, 0.00383236
0.10925, 1.69402, -1.22358, -1.53714, -0.898608, -1.19622, 1.23573, -1.30267, 0.0628284, -0.00228808, -0.00441825, 0.0209321, -0.090172, 0.107821, -0.000293994, 1.57081, 52.5479, 24.6995, 4.97833, 1.5401, 2.6868, 0.0357776, -0.00045234, 0.000513862, -0.00200399, -0.00556645, -0.00995552, -0.000124191, 0.0352065, -0.038904, 0.00395189, 0.0524174, 0.144458, 0.0142625, 0.470999, -0.542512, 0.336122, -2.0832, -2.16567, -0.129952, 0.471601, -0.543247, 0.338014, -2.09115, -2.17358, -0.126036, -0.000391882, 0.0261735, 0.00669522, 0.0398708, -0.00758915, 0.00393253
0.11025, 1.69408, -1.22358, -1.53714, -0.898578, -1.19632, 1.23584, -1.30267, 0.061992, -0.000690044, -0.00143147, 0.02481, -0.0913826, 0.109313, 0.000516477, 1.60651, 52.5122, 24.6241, 4.86725, 1.5401, 2.67947, 0.0165515, -0.000491855, 0.000549158, -0.00201479, -0.00563456, -0.0101055, -0.000116789, 0.0368473, -0.0381859, 0.00663346, 0.0579611, 0.147573, 0.0102858, 0.470998, -0.542486, 0.336128, -2.08318, -2.16567, -0.129954, 0.471638, -0.54326, 0.338024, -2.09125, -2.17367, -0.12596, -0.000403753, 0.0266691, 0.00681784, 0.0392988, -0.00915642, 0.0064684
0.11125, 1.69414, -1.22358, -1.53714, -0.898561, -1.19641, 1.23595, -1.30267, 0.0597161, -0.00213037, -0.000306, 0.0231031, -0.0960839, 0.111023, -0.000367462, 1.57081, 52.5836, 24.5884, 4.94263, 1.52179, 2.6575, 0.0357776, -0.000526668, 0.000590297, -0.00201953, -0.00569687, -0.0102497, -0.000129201, 0.0388754, -0.0372924, 0.00618787, 0.0577454, 0.151215, 0.00946526, 0.470998, -0.542459, 0.336135, -2.08317, -2.16566, -0.129956, 0.47168, -0.543266, 0.338029, -2.09133, -2.17379, -0.125886, -0.000415851, 0.0271686, 0.0069413, 0.0384513, -0.0106267, 0.00586254
0.11225, 1.69421, -1.22359, -1.53714, -0.898539, -1.19651, 1.23606, -1.30267, 0.0622686, -0.00401863, 0.000583842, 0.0236743, -0.0952636, 0.106966, -0.000244751, 1.49146, 52.6947, 24.5487, 4.94263, 1.52179, 2.65018, 0.0357776, -0.00056343, 0.000629764, -0.00202217, -0.00575713, -0.0103885, -0.000138291, 0.0378374, -0.038137, 0.00492926, 0.0552, 0.146981, 0.0121295, 0.470997, -0.542432, 0.336142, -2.08315, -2.16566, -0.129958, 0.47172, -0.543274, 0.338032, -2.0914, -2.17389, -0.125815, -0.000428179, 0.027672, 0.00706559, 0.0391995, -0.00886929, 0.00487906
0.11325, 1.69426, -1.22359, -1.53715, -0.898517, -1.19661, 1.23617, -1.30267, 0.0590934, -0.00267904, -0.00147914, 0.0241171, -0.103767, 0.108383, 0.00126115, 1.49146, 52.6947, 24.6241, 4.94263, 1.50348, 2.64377, -0.00267457, -0.000606521, 0.000662829, -0.00202684, -0.00581239, -0.0105396, -0.000123923, 0.0420341, -0.0351635, 0.00531719, 0.0515767, 0.156368, 0.00330987, 0.470997, -0.542404, 0.336149, -2.08313, -2.16565, -0.12996, 0.471755, -0.543289, 0.338036, -2.0915, -2.17398, -0.125723, -0.000440739, 0.0281791, 0.00719069, 0.0363827, -0.0126869, 0.00482354
0.11425, 1.69433, -1.2236, -1.53715, -0.898489, -1.19671, 1.23628, -1.30267, 0.0581701, -0.00521966, -0.00340519, 0.0252296, -0.101426, 0.114653, -0.000854527, 1.41608, 52.8415, 24.5884, 4.90295, 1.50348, 2.61447, 0.0431018, -0.000648495, 0.000699936, -0.00202715, -0.00587449, -0.0106784, -0.000125941, 0.044135, -0.0355067, 0.00386436, 0.056963, 0.155404, 0.00350275, 0.470997, -0.542376, 0.336156, -2.08311, -2.16564, -0.129962, 0.471793, -0.5433, 0.338036, -2.09159, -2.17408, -0.125653, -0.000453532, 0.0286901, 0.0073166, 0.0367355, -0.0140111, 0.00317641
0.11525, 1.69439, -1.2236, -1.53715, -0.898472, -1.19681, 1.23639, -1.30267, 0.0593389, -0.00264453, -0.00259389, 0.0234144, -0.0997854, 0.115076, -0.00128167, 1.26533, 52.8058, 24.5884, 4.97833, 1.50348, 2.59341, 0.0623279, -0.000687268, 0.000740152, -0.00203468, -0.00593579, -0.0108371, -0.000133746, 0.042895, -0.0369231, 0.00534966, 0.0580857, 0.157345, 0.00762704, 0.470996, -0.542347, 0.336164, -2.08308, -2.16564, -0.129964, 0.471834, -0.54331, 0.338043, -2.09167, -2.17419, -0.125563, -0.00046656, 0.0292049, 0.00744332, 0.0381469, -0.0124429, 0.00491844
0.11625, 1.69445, -1.2236, -1.53715, -0.898452, -1.19691, 1.23651, -1.30267, 0.0585184, -0.00259821, -0.00104406, 0.0222081, -0.102328, 0.114572, 0.00131576, 1.18995, 52.8415, 24.5487, 5.05371, 1.48517, 2.58609, 0.00373412, -0.000728278, 0.000777728, -0.00204094, -0.00599941, -0.0109886, -0.000129127, 0.0435522, -0.0366212, 0.00571994, 0.0574914, 0.159573, 0.00522175, 0.470996, -0.542318, 0.336171, -2.08306, -2.16563, -0.129966, 0.471873, -0.54332, 0.338049, -2.09177, -2.17429, -0.125481, -0.000479825, 0.0297235, 0.00757084, 0.0378697, -0.0126423, 0.00531736
0.11725, 1.69451, -1.22361, -1.53715, -0.898429, -1.19702, 1.23662, -1.30267, 0.0553965, -0.00349536, -4.29356e-05, 0.022401, -0.10483, 0.114674, -7.22065e-05, 1.07887, 52.9169, 24.513, 5.08942, 1.47327, 2.57144, 0.0293689, -0.000770503, 0.000815776, -0.00204522, -0.00606218, -0.0111389, -0.000132349, 0.0459188, -0.0347476, 0.0057117, 0.0578674, 0.160994, 0.00306733, 0.470995, -0.542288, 0.336179, -2.08304, -2.16563, -0.129968, 0.471912, -0.543331, 0.338053, -2.09185, -2.1744, -0.1254, -0.000493328, 0.0302458, 0.00769914, 0.0360702, -0.0145319, 0.00512505
0.11825, 1.69457, -1.22361, -1.53715, -0.898404, -1.19713, 1.23673, -1.30267, 0.0547323, -0.00233023, -0.00192845, 0.0233144, -0.108139, 0.115004, -4.8098e-05, 1.00349, 52.9169, 24.5884, 5.08942, 1.49707, 2.55038, 0.0293689, -0.000817777, 0.000849071, -0.00205102, -0.00612065, -0.0112984, -0.000121303, 0.0479945, -0.0335, 0.00588746, 0.0556971, 0.165445, -0.000382138, 0.470995, -0.542258, 0.336186, -2.08302, -2.16562, -0.129971, 0.471947, -0.543347, 0.338058, -2.09195, -2.17449, -0.125304, -0.000507072, 0.0307718, 0.00782823, 0.0348921, -0.016133, 0.00514135
0.11925, 1.69463, -1.22362, -1.53716, -0.898383, -1.19723, 1.23684, -1.30267, 0.057535, -0.00498715, -0.00222329, 0.0230149, -0.108957, 0.114592, 0.000442682, 0.813057, 53.0637, 24.6241, 5.12909, 1.49158, 2.54306, 0.0165515, -0.000861261, 0.000887318, -0.00205079, -0.00617842, -0.0114448, -0.000121084, 0.0476371, -0.0349697, 0.00395111, 0.0540146, 0.163773, 0.00183666, 0.470994, -0.542227, 0.336194, -2.083, -2.16561, -0.129973, 0.471986, -0.543358, 0.338058, -2.09204, -2.17459, -0.125222, -0.000521058, 0.0313016, 0.00795809, 0.0362624, -0.0148904, 0.00336901
0.12025, 1.69469, -1.22363, -1.53715, -0.898356, -1.19734, 1.23695, -1.30267, 0.0575776, -0.00592322, -0.000723805, 0.0237768, -0.110253, 0.113904, 5.77849e-05, 0.701973, 53.1747, 24.5884, 5.12909, 1.49707, 2.55038, 0.0229602, -0.000909467, 0.000920515, -0.00205492, -0.0062416, -0.0115957, -0.00011184, 0.0483511, -0.0348263, 0.00393446, 0.0544988, 0.163783, 0.00194728, 0.470994, -0.542196, 0.336202, -2.08297, -2.16561, -0.129975, 0.472021, -0.543373, 0.338061, -2.09214, -2.17469, -0.12514, -0.000535288, 0.031835, 0.00808872, 0.0361304, -0.0150648, 0.00337515
0.12125, 1.69474, -1.22363, -1.53716, -0.898338, -1.19745, 1.23706, -1.30267, 0.0577428, -0.00394881, -0.00137538, 0.0216353, -0.105831, 0.108931, -0.000707445, 0.586922, 53.1747, 24.6241, 5.24017, 1.48517, 2.54306, 0.0431018, -0.000956912, 0.000953839, -0.00205886, -0.00629877, -0.0117513, -0.00010736, 0.0467453, -0.0348372, 0.00406245, 0.0508946, 0.160294, 0.00592068, 0.470993, -0.542164, 0.33621, -2.08295, -2.1656, -0.129978, 0.472056, -0.543388, 0.338065, -2.09223, -2.17478, -0.125047, -0.000549763, 0.0323721, 0.00822011, 0.036074, -0.0129614, 0.00388157
0.12225, 1.6948, -1.22363, -1.53716, -0.898315, -1.19755, 1.23717, -1.30267, 0.0575624, -0.00263253, -0.00179535, 0.0210347, -0.106916, 0.105743, 0.000511727, 0.475838, 53.1747, 24.6598, 5.31555, 1.46045, 2.52841, 0.0165515, -0.00100416, 0.000988613, -0.00206539, -0.00636123, -0.0119093, -9.83213e-05, 0.0470446, -0.0340657, 0.00428798, 0.0472207, 0.161383, 0.00451097, 0.470993, -0.542132, 0.336219, -2.08293, -2.16559, -0.12998, 0.472092, -0.543402, 0.338071, -2.09233, -2.17488, -0.124957, -0.000564485, 0.0329128, 0.00835225, 0.0353082, -0.0127824, 0.00421215
0.12325, 1.69486, -1.22362, -1.53716, -0.898302, -1.19766, 1.23728, -1.30267, 0.0545919, -0.000826999, -0.00215733, 0.0189212, -0.108638, 0.107321, -0.000133557, 0.360787, 53.1351, 24.6995, 5.46234, 1.46045, 2.53573, 0.0293689, -0.0010497, 0.00102375, -0.00207248, -0.00641512, -0.012073, -9.86116e-05, 0.0486998, -0.0328647, 0.00519133, 0.0471784, 0.1659, 0.003361, 0.470992, -0.542099, 0.336227, -2.0829, -2.16559, -0.129982, 0.472128, -0.543413, 0.338078, -2.09242, -2.17499, -0.124852, -0.000579456, 0.0334572, 0.00848514, 0.0341869, -0.0140608, 0.00501449
0.12425, 1.69491, -1.22363, -1.53716, -0.898284, -1.19776, 1.23739, -1.30267, 0.055368, -0.00147935, -0.00146253, 0.0160347, -0.104556, 0.104067, -0.000597658, 0.245735, 53.1747, 24.6995, 5.53772, 1.44855, 2.53573, 0.0431018, -0.00109602, 0.00105888, -0.00207671, -0.00647458, -0.0122243, -9.89558e-05, 0.0468296, -0.0339474, 0.00426707, 0.045424, 0.160918, 0.00886579, 0.470991, -0.542066, 0.336235, -2.08288, -2.16558, -0.129985, 0.472165, -0.543425, 0.338082, -2.0925, -2.17509, -0.124767, -0.000594677, 0.0340052, 0.00861877, 0.0351521, -0.0114787, 0.00449267
0.12525, 1.69496, -1.22363, -1.53717, -0.898262, -1.19786, 1.2375, -1.30267, 0.0534442, -0.000986232, -0.00275649, 0.0210007, -0.106288, 0.105772, 0.00129699, 0.245735, 53.1747, 24.7748, 5.57739, 1.43573, 2.55038, -0.00267457, -0.00114802, 0.00108675, -0.00208216, -0.00652987, -0.0123776, -7.78172e-05, 0.0504709, -0.031624, 0.00500999, 0.0477666, 0.163668, -0.000426575, 0.470991, -0.542032, 0.336244, -2.08286, -2.16557, -0.129987, 0.472194, -0.543442, 0.338087, -2.09261, -2.17517, -0.124673, -0.000610151, 0.0345567, 0.00875313, 0.0329752, -0.014732, 0.00486283
0.12625, 1.69502, -1.22363, -1.53717, -0.898241, -1.19797, 1.23761, -1.30267, 0.0525562, -0.00316314, -0.00268655, 0.0224906, -0.104192, 0.102316, -0.000559491, 0.0949785, 53.2819, 24.8105, 5.57739, 1.45404, 2.55771, 0.0357776, -0.00119762, 0.00112223, -0.00208457, -0.00658975, -0.012533, -7.72559e-05, 0.051306, -0.0304446, 0.00364904, 0.046545, 0.15832, 5.02984e-05, 0.47099, -0.541997, 0.336253, -2.08283, -2.16557, -0.12999, 0.472231, -0.543455, 0.33809, -2.09269, -2.17527, -0.124584, -0.000625878, 0.0351119, 0.00888822, 0.0317622, -0.0148392, 0.00355889
0.12725, 1.69507, -1.22364, -1.53717, -0.898224, -1.19807, 1.23771, -1.30267, 0.053074, -0.00303678, -0.00263651, 0.0225597, -0.101338, 0.0999474, -0.000372991, 0.0196001, 53.3215, 24.8462, 5.6131, 1.44214, 2.57144, 0.0357776, -0.00124618, 0.00115471, -0.00208736, -0.00664445, -0.0126802, -7.25559e-05, 0.0508349, -0.0306126, 0.00346221, 0.0459345, 0.155343, 0.00133155, 0.47099, -0.541962, 0.336262, -2.0828, -2.16556, -0.129992, 0.472264, -0.543467, 0.338093, -2.09278, -2.17536, -0.124497, -0.00064186, 0.0356705, 0.00902402, 0.0318905, -0.0137793, 0.0035772
0.12825, 1.69512, -1.22364, -1.53718, -0.898212, -1.19818, 1.23782, -1.30267, 0.0536014, -0.00202452, -0.0035286, 0.0185799, -0.100773, 0.098914, 0.000226059, -0.0557783, 53.3215, 24.9216, 5.68848, 1.46686, 2.56412, 0.0229602, -0.00129521, 0.00118904, -0.00209041, -0.00670064, -0.0128357, -6.95499e-05, 0.0498597, -0.0315028, 0.00302317, 0.042761, 0.156205, 0.00454123, 0.470989, -0.541926, 0.336271, -2.08278, -2.16555, -0.129995, 0.4723, -0.543479, 0.338096, -2.09287, -2.17546, -0.124403, -0.000658099, 0.0362327, 0.00916054, 0.0327124, -0.0121494, 0.00340366
0.12925, 1.69518, -1.22364, -1.53718, -0.898193, -1.19828, 1.23792, -1.30267, 0.0538065, -0.00134968, -0.00319339, 0.0182817, -0.0996446, 0.0972511, -0.00107, -0.131157, 53.3215, 24.9573, 5.6488, 1.48517, 2.57876, 0.0559192, -0.00134375, 0.00122221, -0.0020963, -0.00675703, -0.0129874, -6.93283e-05, 0.049726, -0.0315522, 0.00329261, 0.0421244, 0.155552, 0.00687578, 0.470988, -0.54189, 0.33628, -2.08275, -2.16554, -0.129998, 0.472334, -0.54349, 0.338102, -2.09295, -2.17556, -0.124314, -0.000674597, 0.0367984, 0.00929776, 0.0327507, -0.0114909, 0.00382487
0.13025, 1.69523, -1.22364, -1.53718, -0.898179, -1.19837, 1.23802, -1.30267, 0.0513299, -0.001735, -0.00306127, 0.0160976, -0.0979919, 0.100734, -0.000238611, -0.0914839, 53.3572, 24.997, 5.68848, 1.49158, 2.59341, 0.0431018, -0.00139313, 0.00125222, -0.00209824, -0.00680909, -0.0131268, -6.33362e-05, 0.0508054, -0.0315002, 0.00320903, 0.0454595, 0.156058, 0.00619886, 0.470988, -0.541853, 0.336289, -2.08273, -2.16554, -0.13, 0.472366, -0.543501, 0.338105, -2.09303, -2.17565, -0.124232, -0.000691354, 0.0373675, 0.00943568, 0.0327183, -0.011976, 0.00371211
0.13125, 1.69529, -1.22364, -1.53719, -0.898167, -1.19846, 1.23812, -1.30267, 0.0567946, -0.00199189, -0.00464255, 0.0122381, -0.0974948, 0.103809, 0.00106163, -0.206535, 53.3929, 25.1081, 5.68848, 1.50348, 2.59341, 0.0101428, -0.00143955, 0.00128782, -0.002099, -0.00686013, -0.0132695, -6.41139e-05, 0.0483769, -0.035785, 0.00190388, 0.0444402, 0.15792, 0.013165, 0.470987, -0.541816, 0.336299, -2.0827, -2.16553, -0.130003, 0.472402, -0.543508, 0.338107, -2.0931, -2.17574, -0.124147, -0.000708374, 0.0379402, 0.00957429, 0.0368451, -0.00862663, 0.00280793
0.13225, 1.69534, -1.22364, -1.53719, -0.898147, -1.19855, 1.23821, -1.30267, 0.0553027, -0.000492706, -0.00309747, 0.0150376, -0.0969882, 0.0963486, -0.00122503, -0.242241, 53.3572, 25.1081, 5.57739, 1.5163, 2.60715, 0.0623279, -0.00148817, 0.00132026, -0.00210517, -0.00691633, -0.0134144, -6.6795e-05, 0.0491245, -0.0332518, 0.00308534, 0.0413187, 0.15534, 0.0124325, 0.470986, -0.541778, 0.336308, -2.08267, -2.16552, -0.130006, 0.472436, -0.543518, 0.338114, -2.09317, -2.17584, -0.124065, -0.000725657, 0.0385162, 0.00971358, 0.0343689, -0.00907561, 0.00407342
0.13325, 1.69539, -1.22364, -1.5372, -0.898139, -1.19864, 1.23831, -1.30267, 0.0547883, -0.00209171, -0.00383004, 0.0134765, -0.0974003, 0.0959537, -0.000579324, -0.281914, 53.4326, 25.1835, 5.6131, 1.54651, 2.60715, 0.0559192, -0.00153646, 0.00135499, -0.00210387, -0.00696516, -0.0135566, -7.04139e-05, 0.049834, -0.0330958, 0.00161452, 0.0394641, 0.15448, 0.0122374, 0.470985, -0.541739, 0.336318, -2.08264, -2.16551, -0.130009, 0.472472, -0.543525, 0.338114, -2.09324, -2.17593, -0.123977, -0.000743204, 0.0390957, 0.00985355, 0.0341674, -0.00897483, 0.00265393
0.13425, 1.69545, -1.22364, -1.5372, -0.898127, -1.19873, 1.23841, -1.30267, 0.0533246, -0.000466452, -0.00338995, 0.0109167, -0.0966655, 0.0945157, 0.00107185, -0.281914, 53.3929, 25.2192, 5.57739, 1.55292, 2.62912, 0.0165515, -0.00158445, 0.00138794, -0.00210783, -0.00701646, -0.0136995, -6.76525e-05, 0.0497759, -0.0327146, 0.00227453, 0.0382209, 0.155353, 0.0118657, 0.470985, -0.5417, 0.336328, -2.08262, -2.1655, -0.130011, 0.472506, -0.543533, 0.338119, -2.09331, -2.17602, -0.123892, -0.000761018, 0.0396786, 0.00999418, 0.0337916, -0.00845204, 0.00346547
0.13525, 1.6955, -1.22365, -1.5372, -0.89812, -1.19882, 1.2385, -1.30267, 0.0505477, -0.00290942, -0.00226099, 0.00726543, -0.091749, 0.0947744, 0.000477205, -0.206535, 53.504, 25.2192, 5.6131, 1.56482, 2.62179, 0.0229602, -0.00163303, 0.00141967, -0.00210738, -0.00706588, -0.0138321, -7.20965e-05, 0.0495859, -0.0328182, 0.000842562, 0.0403133, 0.149604, 0.0151838, 0.470984, -0.541661, 0.336338, -2.08259, -2.1655, -0.130014, 0.472538, -0.54354, 0.33812, -2.09338, -2.17611, -0.123815, -0.000779099, 0.0402649, 0.0101355, 0.0338176, -0.00745184, 0.00221799
0.13625, 1.69555, -1.22364, -1.5372, -0.898104, -1.19891, 1.23859, -1.30267, 0.0508705, -0.0011044, -0.0015081, 0.0111771, -0.0882968, 0.0946925, -0.00113992, -0.242241, 53.4683, 25.2192, 5.50201, 1.58313, 2.62179, 0.0623279, -0.00167899, 0.00145474, -0.0021138, -0.00712265, -0.0139708, -7.99339e-05, 0.0501805, -0.0325871, 0.00264488, 0.0445711, 0.148573, 0.0152252, 0.470983, -0.54162, 0.336348, -2.08256, -2.16549, -0.130017, 0.472575, -0.543545, 0.338128, -2.09344, -2.17621, -0.123741, -0.00079745, 0.0408545, 0.0102774, 0.0336569, -0.0077371, 0.00405208
0.13725, 1.6956, -1.22364, -1.53721, -0.8981, -1.19899, 1.23868, -1.30267, 0.049788, -0.000736265, -0.00276921, 0.00817409, -0.0854993, 0.0954047, 0.00117283, -0.206535, 53.4683, 25.2945, 5.50201, 1.60144, 2.60074, 0.0101428, -0.00172634, 0.00148748, -0.00211491, -0.00717125, -0.0141042, -8.33722e-05, 0.0501254, -0.0328709, 0.00206891, 0.0442997, 0.147736, 0.0148566, 0.470982, -0.541579, 0.336358, -2.08253, -2.16548, -0.13002, 0.472608, -0.543549, 0.338131, -2.0935, -2.1763, -0.123662, -0.000816072, 0.0414475, 0.01042, 0.0338989, -0.00698834, 0.00362435
0.13825, 1.69565, -1.22365, -1.53721, -0.898094, -1.19907, 1.23876, -1.30267, 0.0500179, -0.00132606, -0.00268179, 0.0059914, -0.0884234, 0.0950929, 0.000544528, -0.206535, 53.504, 25.3303, 5.50201, 1.62616, 2.60074, 0.0165515, -0.00177441, 0.00152023, -0.00211296, -0.00721603, -0.0142333, -9.19107e-05, 0.0505684, -0.0331315, 0.00136886, 0.0417459, 0.150016, 0.0167599, 0.470982, -0.541538, 0.336369, -2.0825, -2.16547, -0.130023, 0.472642, -0.543554, 0.338131, -2.09355, -2.17639, -0.123585, -0.000834967, 0.0420438, 0.0105633, 0.0341308, -0.00670962, 0.00299767
0.13925, 1.69571, -1.22366, -1.53721, -0.898077, -1.19915, 1.23885, -1.30267, 0.053392, -0.00431771, -0.000952969, 0.00792725, -0.0844296, 0.090627, -0.00109504, -0.206535, 53.6508, 25.2945, 5.35126, 1.60785, 2.58609, 0.0559192, -0.00182484, 0.00155227, -0.00211235, -0.00727451, -0.0143544, -9.81641e-05, 0.0489311, -0.0345855, -0.000149701, 0.041496, 0.14179, 0.0222685, 0.470981, -0.541496, 0.336379, -2.08247, -2.16546, -0.130026, 0.472675, -0.54356, 0.338132, -2.09361, -2.17648, -0.12353, -0.000854135, 0.0426434, 0.0107072, 0.0354489, -0.00419789, 0.00185157
0.14025, 1.69576, -1.22365, -1.53721, -0.898081, -1.19923, 1.23894, -1.30266, 0.0555648, -0.00204326, -0.000635557, 0.00299126, -0.0821824, 0.0865543, 0.000965392, -0.206535, 53.6151, 25.2945, 5.46234, 1.60785, 2.59341, 0.0101428, -0.00186743, 0.00158849, -0.00211448, -0.00731811, -0.0144859, -0.000110455, 0.0459529, -0.0364431, 8.11559e-05, 0.0369627, 0.141093, 0.027589, 0.47098, -0.541453, 0.33639, -2.08244, -2.16545, -0.130029, 0.472712, -0.543558, 0.338137, -2.09365, -2.17658, -0.123449, -0.000873578, 0.0432462, 0.0108517, 0.0371857, -0.000613449, 0.00263017
0.14125, 1.69581, -1.22365, -1.53721, -0.898072, -1.1993, 1.23902, -1.30267, 0.0533089, 0.00245442, -0.00125911, 0.00710028, -0.0807693, 0.0835217, -0.00152654, -0.166862, 53.5794, 25.3303, 5.38696, 1.61426, 2.60074, 0.0687366, -0.00191492, 0.0016206, -0.00211725, -0.00736652, -0.014613, -0.000126714, 0.0479006, -0.0336588, 0.00288341, 0.037211, 0.142981, 0.0243952, 0.470979, -0.54141, 0.336401, -2.08241, -2.16544, -0.130032, 0.472745, -0.543561, 0.338142, -2.0937, -2.17668, -0.123378, -0.000893298, 0.0438524, 0.0109968, 0.0345599, -0.0024787, 0.00532194
0.14225, 1.69587, -1.22365, -1.53721, -0.898071, -1.19938, 1.2391, -1.30267, 0.0535971, 0.000214295, -0.00083954, 0.00516453, -0.0795107, 0.0817821, -6.82602e-05, -0.206535, 53.6508, 25.3303, 5.38696, 1.62067, 2.59341, 0.0431018, -0.00195966, 0.001657, -0.00211649, -0.00741321, -0.0147375, -0.000142976, 0.0475227, -0.0341971, 0.00121995, 0.0356368, 0.139436, 0.0256184, 0.470978, -0.541366, 0.336412, -2.08237, -2.16543, -0.130036, 0.472782, -0.54356, 0.338144, -2.09374, -2.17677, -0.123308, -0.000913297, 0.0444617, 0.0111426, 0.0350026, -0.00121581, 0.00386622
0.14325, 1.69592, -1.22365, -1.53721, -0.898068, -1.19945, 1.23918, -1.30267, 0.0536004, 0.0003292, -0.000559796, 0.0046015, -0.0733439, 0.0844508, 0.00141256, -0.242241, 53.6508, 25.3303, 5.35126, 1.60785, 2.60715, 0.00373412, -0.00200342, 0.0016923, -0.00211756, -0.00746018, -0.0148564, -0.000157293, 0.0469634, -0.0355522, 0.00149282, 0.0409511, 0.136273, 0.0268827, 0.470977, -0.541322, 0.336423, -2.08234, -2.16542, -0.130039, 0.472818, -0.543557, 0.338148, -2.09377, -2.17687, -0.123244, -0.000933575, 0.0450743, 0.0112889, 0.0363259, -3.65153e-05, 0.0043258
0.14425, 1.69597, -1.22366, -1.53722, -0.898068, -1.19952, 1.23925, -1.30267, 0.0567543, -0.00140402, -0.00297173, 0.00642308, -0.0751392, 0.0804747, -0.00122844, -0.281914, 53.7262, 25.4413, 5.35126, 1.63898, 2.65018, 0.0623279, -0.00204936, 0.00172691, -0.00211152, -0.00749811, -0.0149704, -0.000181185, 0.0473505, -0.0355992, -0.000700518, 0.0348947, 0.1346, 0.0293562, 0.470976, -0.541277, 0.336434, -2.08231, -2.16541, -0.130042, 0.472853, -0.543555, 0.338145, -2.0938, -2.17696, -0.123176, -0.000954135, 0.0456901, 0.0114359, 0.0362855, 0.000539557, 0.00224379
0.14525, 1.69602, -1.22366, -1.53721, -0.89807, -1.19959, 1.23933, -1.30266, 0.0539753, -0.00166642, -0.000310776, 0.00388809, -0.070437, 0.0788873, 0.000876464, -0.242241, 53.7619, 25.3699, 5.38696, 1.63898, 2.66482, 0.0165515, -0.00209462, 0.00176103, -0.002111, -0.00754678, -0.015085, -0.000192489, 0.0468429, -0.0353177, -0.000318125, 0.0373711, 0.130091, 0.0296135, 0.470975, -0.541231, 0.336446, -2.08228, -2.1654, -0.130045, 0.472888, -0.543552, 0.338148, -2.09384, -2.17705, -0.123118, -0.000974976, 0.0463091, 0.0115835, 0.0359797, 0.00158924, 0.00285517
0.14625, 1.69607, -1.22366, -1.53722, -0.898062, -1.19966, 1.23941, -1.30266, 0.0488364, -0.00103233, -0.00187766, 0.00552145, -0.0719123, 0.0793939, 0.00105903, -0.206535, 53.7619, 25.4413, 5.27588, 1.64447, 2.62912, 0.00373412, -0.00214544, 0.00179211, -0.00211203, -0.00759695, -0.0152073, -0.000196179, 0.050874, -0.0316987, 5.9077e-06, 0.0374749, 0.132456, 0.0217289, 0.470974, -0.541185, 0.336457, -2.08224, -2.16539, -0.130049, 0.47292, -0.543555, 0.338151, -2.09389, -2.17713, -0.123053, -0.000996102, 0.0469312, 0.0117316, 0.0325029, -0.00196742, 0.00280342
0.14725, 1.69612, -1.22367, -1.53722, -0.89807, -1.19972, 1.23949, -1.30267, 0.0479301, 0.00080314, -0.00217983, 0.00133071, -0.0671789, 0.0761439, -0.00193884, -0.166862, 53.8373, 25.481, 5.38696, 1.62616, 2.56412, 0.0751453, -0.00219117, 0.00182869, -0.00210897, -0.00764906, -0.0153211, -0.000227511, 0.0492833, -0.0319871, 9.34755e-05, 0.035011, 0.129615, 0.0289494, 0.470973, -0.541138, 0.336469, -2.08221, -2.16538, -0.130052, 0.472957, -0.543551, 0.338152, -2.09391, -2.17724, -0.123002, -0.00101751, 0.0475565, 0.0118804, 0.0327155, 0.000226948, 0.00327656
0.14825, 1.69617, -1.22367, -1.53721, -0.898077, -1.19978, 1.23957, -1.30267, 0.049651, 1.07306e-05, 0.000309995, -0.000689945, -0.0601283, 0.0776508, -0.000580482, -0.206535, 53.873, 25.4056, 5.46234, 1.63257, 2.51468, 0.0559192, -0.00223235, 0.0018696, -0.00210882, -0.00770137, -0.0154363, -0.000258838, 0.0468674, -0.0349291, 0.000210917, 0.0406433, 0.124278, 0.0346702, 0.470972, -0.54109, 0.336481, -2.08218, -2.16537, -0.130056, 0.472999, -0.543543, 0.338156, -2.09393, -2.17735, -0.12295, -0.00103921, 0.0481849, 0.0120297, 0.0355492, 0.00334469, 0.00382658
0.14925, 1.69623, -1.22367, -1.53722, -0.898083, -1.19984, 1.23965, -1.30266, 0.0499118, -0.000595173, -0.000628573, -0.00124837, -0.058613, 0.0780191, 0.000596356, -0.206535, 53.9087, 25.4413, 5.50201, 1.61426, 2.47897, 0.0293689, -0.00227722, 0.00190612, -0.00210711, -0.00774758, -0.0155501, -0.000280644, 0.0472252, -0.035287, -0.000586506, 0.0406329, 0.123181, 0.0343625, 0.470971, -0.541042, 0.336493, -2.08214, -2.16536, -0.130059, 0.473036, -0.543537, 0.338158, -2.09395, -2.17744, -0.122891, -0.0010612, 0.0488164, 0.0121795, 0.0358684, 0.00376223, 0.00312038
0.15025, 1.69628, -1.22367, -1.53722, -0.898081, -1.1999, 1.23972, -1.30267, 0.0468536, -0.00115013, -0.00134708, 0.000200484, -0.0578985, 0.0684138, 0.00110965, -0.206535, 53.9484, 25.481, 5.46234, 1.60785, 2.457, 0.0101428, -0.00232509, 0.00194055, -0.00210379, -0.00779615, -0.0156572, -0.000299794, 0.0487523, -0.0314554, -0.00172555, 0.0332134, 0.117585, 0.0294661, 0.47097, -0.540993, 0.336505, -2.08211, -2.16535, -0.130063, 0.473071, -0.543534, 0.338158, -2.09398, -2.17753, -0.122842, -0.00108347, 0.049451, 0.01233, 0.0320331, 0.00290752, 0.00202459
0.15125, 1.69633, -1.22367, -1.53723, -0.898086, -1.19996, 1.2398, -1.30267, 0.0414894, -0.00147097, 0.000524218, -0.000715831, -0.058501, 0.0656287, -0.00166773, -0.206535, 53.9841, 25.5564, 5.50201, 1.63257, 2.44235, 0.0751453, -0.00237246, 0.0019747, -0.00210056, -0.00783963, -0.0157676, -0.000325842, 0.0510012, -0.0284034, -0.00139265, 0.0326001, 0.116653, 0.028486, 0.470969, -0.540944, 0.336517, -2.08207, -2.16534, -0.130066, 0.473105, -0.543529, 0.338158, -2.09399, -2.17763, -0.122784, -0.00110604, 0.0500886, 0.012481, 0.029057, 0.00114749, 0.00224538
0.15225, 1.69638, -1.22368, -1.53722, -0.898093, -1.20001, 1.23987, -1.30266, 0.0446196, -0.00255283, 0.00237817, -0.00218156, -0.0529883, 0.0633524, 0.00105832, -0.242241, 54.0555, 25.481, 5.57739, 1.62616, 2.43594, 0.0165515, -0.00241575, 0.00201354, -0.00209924, -0.0078933, -0.0158721, -0.00035071, 0.0482115, -0.0310454, -0.00201096, 0.0337139, 0.110455, 0.0329159, 0.470968, -0.540894, 0.33653, -2.08203, -2.16533, -0.13007, 0.473145, -0.54352, 0.338162, -2.09401, -2.17772, -0.122744, -0.0011289, 0.0507293, 0.0126325, 0.0315489, 0.00474821, 0.00213907
0.15325, 1.69643, -1.22368, -1.53722, -0.898097, -1.20006, 1.23994, -1.30267, 0.0428547, -0.0016282, 0.00178454, -0.00224542, -0.049117, 0.0613094, -0.00146459, -0.242241, 54.0555, 25.481, 5.6131, 1.62616, 2.44235, 0.0751453, -0.00246173, 0.00204878, -0.00209848, -0.00794395, -0.0159769, -0.00038214, 0.0486985, -0.0300097, -0.001832, 0.0336463, 0.107657, 0.0347839, 0.470967, -0.540843, 0.336542, -2.082, -2.16532, -0.130073, 0.47318, -0.543513, 0.338165, -2.09402, -2.17782, -0.1227, -0.00115205, 0.051373, 0.0127846, 0.0305161, 0.00484106, 0.00242199
0.15425, 1.69648, -1.22368, -1.53722, -0.898101, -1.20011, 1.24001, -1.30267, 0.0452193, -0.00195822, -0.000424231, -0.00229903, -0.0463669, 0.0648011, -0.000739037, -0.281914, 54.0952, 25.5564, 5.6488, 1.62616, 2.44235, 0.0687366, -0.00250999, 0.0020831, -0.00209419, -0.00799186, -0.0160782, -0.000402999, 0.0485982, -0.0319185, -0.00267734, 0.0357625, 0.107479, 0.0363789, 0.470966, -0.540792, 0.336555, -2.08196, -2.16531, -0.130077, 0.473215, -0.543507, 0.338165, -2.09404, -2.17791, -0.122657, -0.0011755, 0.0520197, 0.0129373, 0.0323642, 0.00579818, 0.00169455
0.15525, 1.69652, -1.22368, -1.53722, -0.898103, -1.20016, 1.24008, -1.30266, 0.0463362, -0.00209925, 0.00159241, -0.00150784, -0.0445455, 0.0660279, 0.00167745, -0.281914, 54.1309, 25.481, 5.6488, 1.63898, 2.47897, 0.0101428, -0.00255717, 0.0021173, -0.00209479, -0.00804617, -0.0161799, -0.000420348, 0.0483525, -0.0331527, -0.00193352, 0.0397942, 0.106722, 0.0360046, 0.470965, -0.54074, 0.336568, -2.08192, -2.1653, -0.130081, 0.47325, -0.5435, 0.33817, -2.09407, -2.178, -0.122619, -0.00119924, 0.0526694, 0.0130904, 0.0335922, 0.0066271, 0.0025801
0.15625, 1.69658, -1.22368, -1.53722, -0.898104, -1.20021, 1.24015, -1.30267, 0.0459435, -0.00220363, -0.000617644, -0.000151372, -0.0476433, 0.06763, -0.000577123, -0.357292, 54.1666, 25.5564, 5.6131, 1.63898, 2.50003, 0.0559192, -0.00260527, 0.00215154, -0.00209067, -0.00809262, -0.0162766, -0.000447555, 0.0508528, -0.0321862, -0.00246133, 0.03862, 0.110452, 0.0346633, 0.470963, -0.540687, 0.336581, -2.08189, -2.16528, -0.130085, 0.473285, -0.543493, 0.33817, -2.09407, -2.17809, -0.122579, -0.00122328, 0.0533221, 0.0132441, 0.0326745, 0.00485437, 0.00184942
0.15725, 1.69663, -1.22368, -1.53722, -0.898112, -1.20025, 1.24022, -1.30267, 0.0485903, -0.000610553, -0.00118399, -0.00185018, -0.0451246, 0.0653474, 0.000361237, -0.43267, 54.1309, 25.5921, 5.68848, 1.63898, 2.48538, 0.0357776, -0.00265079, 0.00218867, -0.00208882, -0.00814328, -0.0163769, -0.000476337, 0.0490625, -0.0337977, -0.00236043, 0.0364032, 0.109566, 0.0384201, 0.470962, -0.540634, 0.336594, -2.08185, -2.16527, -0.130089, 0.473322, -0.543483, 0.338173, -2.09408, -2.17818, -0.12254, -0.00124762, 0.0539777, 0.0133983, 0.0341987, 0.00732938, 0.00233131
0.15825, 1.69667, -1.22369, -1.53722, -0.89812, -1.20029, 1.24028, -1.30266, 0.0506728, -0.002988, 9.31379e-05, -0.00516137, -0.0423071, 0.0643055, 0.00560225, -0.392998, 54.2419, 25.5564, 5.72418, 1.61426, 2.457, 0.0165515, -0.00269919, 0.00222298, -0.00208309, -0.00819742, -0.0164644, -0.000501375, 0.0471192, -0.0361136, -0.00403223, 0.0360306, 0.105074, 0.0397734, 0.470961, -0.54058, 0.336608, -2.08181, -2.16526, -0.130092, 0.473357, -0.543474, 0.338172, -2.09409, -2.17827, -0.122518, -0.00127226, 0.0546363, 0.013553, 0.0363542, 0.010263, 0.00106577
0.15925, 1.69672, -1.22369, -1.53721, -0.898124, -1.20033, 1.24035, -1.30267, 0.0512625, -0.00197889, 0.00102555, -0.00692848, -0.0408648, 0.0675944, 0.00195214, -0.43267, 54.2419, 25.5167, 5.72418, 1.60144, 2.44235, 0.0751453, -0.00274577, 0.00225781, -0.0020843, -0.00825598, -0.0165566, -0.000536057, 0.0467602, -0.0377508, -0.00313446, 0.0396553, 0.107111, 0.0465405, 0.47096, -0.540525, 0.336621, -2.08177, -2.16525, -0.130096, 0.473392, -0.543464, 0.338178, -2.09409, -2.17837, -0.122497, -0.0012972, 0.0552977, 0.0137082, 0.0379851, 0.0112086, 0.0021103
0.16025, 1.69677, -1.22369, -1.53721, -0.89813, -1.20036, 1.24041, -1.30267, 0.0535833, -0.00214464, 0.000710272, -0.00600479, -0.0399422, 0.0705769, 0.00305007, -0.543754, 54.2776, 25.5167, 5.76385, 1.59595, 2.41397, 0.0357776, -0.00279207, 0.00229404, -0.00208098, -0.00830655, -0.0166464, -0.000562874, 0.0468815, -0.0394447, -0.00311519, 0.0426289, 0.108134, 0.0471569, 0.470958, -0.54047, 0.336635, -2.08173, -2.16524, -0.1301, 0.473429, -0.543453, 0.33818, -2.0941, -2.17846, -0.122469, -0.00132244, 0.0559621, 0.013864, 0.0396569, 0.0118218, 0.00221102
0.16125, 1.69681, -1.22369, -1.53722, -0.898135, -1.2004, 1.24047, -1.30267, 0.0493943, -0.0022576, -0.00126979, -0.00752075, -0.0436873, 0.0677731, 0.00198005, -0.543754, 54.3134, 25.5921, 5.76385, 1.58954, 2.39291, 0.0431018, -0.00284323, 0.00232438, -0.00207697, -0.00835355, -0.016735, -0.000584085, 0.0498693, -0.0361572, -0.00416595, 0.0367484, 0.110347, 0.0432728, 0.470957, -0.540414, 0.336649, -2.08169, -2.16522, -0.130104, 0.473459, -0.543445, 0.338181, -2.09411, -2.17853, -0.122437, -0.00134799, 0.0566293, 0.0140202, 0.0364181, 0.00956704, 0.000962358
0.16225, 1.69685, -1.22369, -1.53721, -0.898144, -1.20042, 1.24053, -1.30267, 0.0462255, 0.00157044, 0.000931659, -0.00949143, -0.0415637, 0.0657375, 0.000296694, -0.543754, 54.3134, 25.5167, 5.79956, 1.57123, 2.36362, 0.0751453, -0.00288788, 0.00235951, -0.00207903, -0.00841379, -0.0168178, -0.00062241, 0.0499135, -0.0350008, -0.00147066, 0.0379002, 0.111825, 0.0453012, 0.470956, -0.540357, 0.336663, -2.08165, -2.16521, -0.130108, 0.473495, -0.543432, 0.338189, -2.0941, -2.17863, -0.122428, -0.00137384, 0.0572994, 0.0141769, 0.0353403, 0.00972732, 0.00380674
0.16325, 1.6969, -1.2237, -1.53721, -0.898148, -1.20045, 1.24058, -1.30267, 0.0447737, -0.000456301, -0.00113092, -0.00614395, -0.0365334, 0.0633088, 0.00177845, -0.583427, 54.3887, 25.5921, 5.76385, 1.58313, 2.35629, 0.0357776, -0.00293828, 0.002391, -0.00207108, -0.00845888, -0.0168938, -0.000642072, 0.0516403, -0.0332325, -0.00313318, 0.0380944, 0.10476, 0.0402036, 0.470954, -0.5403, 0.336677, -2.08161, -2.1652, -0.130113, 0.473527, -0.543422, 0.338186, -2.0941, -2.1787, -0.122407, -0.0014, 0.0579723, 0.0143341, 0.0335493, 0.00888126, 0.0021052
0.16425, 1.69693, -1.22369, -1.53721, -0.898156, -1.20048, 1.24064, -1.30266, 0.0409486, -0.000944433, -0.000745539, -0.00770128, -0.0272276, 0.0612743, 0.00198965, -0.508049, 54.4244, 25.5921, 5.76385, 1.57764, 2.36362, 0.0165515, -0.00298973, 0.0024193, -0.00206995, -0.00851316, -0.0169741, -0.000662076, 0.0514971, -0.0321872, -0.00355327, 0.0409267, 0.0961121, 0.0409019, 0.470953, -0.540242, 0.336692, -2.08157, -2.16519, -0.130117, 0.473555, -0.543413, 0.33819, -2.09411, -2.17878, -0.122392, -0.00142646, 0.058648, 0.0144917, 0.0324585, 0.00972078, 0.00190111
0.16525, 1.69698, -1.2237, -1.53721, -0.89816, -1.2005, 1.24069, -1.30267, 0.0428393, -0.0014114, -0.000490719, -0.00806538, -0.0253166, 0.0597894, -0.000537388, -0.619133, 54.4641, 25.5921, 5.72418, 1.58313, 2.37094, 0.0687366, -0.00303573, 0.00245424, -0.00206659, -0.00856435, -0.0170469, -0.000701667, 0.0506983, -0.0333331, -0.00407714, 0.0403787, 0.093901, 0.0464292, 0.470951, -0.540183, 0.336706, -2.08153, -2.16517, -0.130121, 0.47359, -0.543398, 0.338193, -2.09409, -2.17887, -0.122384, -0.00145324, 0.0593266, 0.0146499, 0.0335278, 0.0113179, 0.0016292
0.16625, 1.69702, -1.2237, -1.5372, -0.898167, -1.20052, 1.24074, -1.30267, 0.0404495, -0.00250169, 0.000512802, -0.00851633, -0.0194703, 0.0544832, -0.000815168, -0.583427, 54.5355, 25.5564, 5.68848, 1.59595, 2.36362, 0.0824695, -0.00308626, 0.00248512, -0.00206278, -0.00862118, -0.0171176, -0.000730157, 0.0505268, -0.0319802, -0.00484619, 0.0395532, 0.0857808, 0.0472032, 0.47095, -0.540124, 0.336721, -2.08148, -2.16516, -0.130125, 0.473622, -0.543387, 0.338195, -2.09408, -2.17895, -0.122382, -0.00148032, 0.0600079, 0.0148084, 0.032115, 0.0122324, 0.00109572
0.16725, 1.69706, -1.22369, -1.5372, -0.898179, -1.20053, 1.24079, -1.30267, 0.0406386, 0.00328054, -0.000489803, -0.0104472, -0.0192729, 0.0507978, 0.00122467, -0.619133, 54.4641, 25.5921, 5.72418, 1.59595, 2.34988, 0.0357776, -0.00313366, 0.00251728, -0.0020619, -0.00867425, -0.0171914, -0.000757812, 0.0497891, -0.0315899, -0.00245314, 0.035297, 0.090277, 0.0465881, 0.470949, -0.540064, 0.336735, -2.08144, -2.16515, -0.130129, 0.473654, -0.543372, 0.3382, -2.09408, -2.17903, -0.122374, -0.00150772, 0.0606919, 0.0149675, 0.0317612, 0.013257, 0.00374271
0.16825, 1.6971, -1.2237, -1.5372, -0.898188, -1.20055, 1.24084, -1.30267, 0.0396971, 0.000844591, -0.00208711, -0.0109294, -0.0148728, 0.0478095, -0.000137804, -0.619133, 54.5355, 25.6675, 5.72418, 1.60785, 2.34256, 0.0623279, -0.00318394, 0.00254681, -0.00205527, -0.00872206, -0.0172544, -0.000788768, 0.0501714, -0.0308903, -0.00480489, 0.0331811, 0.0833824, 0.0482155, 0.470947, -0.540003, 0.33675, -2.0814, -2.16513, -0.130134, 0.473684, -0.543358, 0.3382, -2.09406, -2.1791, -0.122371, -0.00153542, 0.0613787, 0.015127, 0.0309609, 0.0139038, 0.00154047
0.16925, 1.69713, -1.2237, -1.5372, -0.8982, -1.20056, 1.24088, -1.30267, 0.0361428, 0.00312814, -0.000461393, -0.0113181, -0.0158108, 0.0453133, 0.000404667, -0.619133, 54.5712, 25.6278, 5.72418, 1.60785, 2.34256, 0.0495105, -0.00323361, 0.00257683, -0.00205369, -0.00877543, -0.0173242, -0.000817775, 0.0517129, -0.0286619, -0.00301877, 0.0326981, 0.0855026, 0.0449783, 0.470946, -0.539942, 0.336766, -2.08135, -2.16512, -0.130138, 0.473714, -0.543345, 0.338204, -2.09405, -2.17918, -0.122367, -0.00156344, 0.0620682, 0.0152869, 0.0288314, 0.0127017, 0.00328936
0.17025, 1.69713, -1.2237, -1.5372, -0.8982, -1.20056, 1.24088, -1.30267, 0.0361428, 0.00312814, -0.000461393, -0.0113181, -0.0158108, 0.0453133, 0.000404667, -0.619133, 54.5712, 25.6278, 5.72418, 1.60785, 2.34256, 0.0495105, -0.00329729, 0.00257618, -0.00204849, -0.0088016, -0.0173561, -0.000804399, 0.0524227, -0.0286656, -0.00306588, 0.0328484, 0.0859931, 0.045035, 0.470944, -0.53988, 0.336781, -2.08131, -2.16511, -0.130143, 0.473714, -0.543345, 0.338204, -2.09405, -2.17918, -0.122367, -0.00159178, 0.0627604, 0.0154473, 0.0288314, 0.0127017, 0.00328936
0.17125, 1.69713, -1.2237, -1.5372, -0.8982, -1.20056, 1.24088, -1.30267, 0.0361428, 0.00312814, -0.000461393, -0.0113181, -0.0158108, 0.0453133, 0.000404667, -0.619133, 54.5712, 25.6278, 5.72418, 1.60785, 2.34256, 0.0495105, -0.00336169, 0.00257552, -0.00204324, -0.00882808, -0.0173884, -0.000790891, 0.0531353, -0.0286696, -0.00311293, 0.0329998, 0.0864854, 0.045092, 0.470942, -0.539817, 0.336796, -2.08126, -2.16509, -0.130147, 0.473714, -0.543345, 0.338204, -2.09405, -2.17918, -0.122367, -0.00162043, 0.0634553, 0.0156081, 0.0288314, 0.0127017, 0.00328936
0.17225, 1.69713, -1.2237, -1.5372, -0.8982, -1.20056, 1.24088, -1.30267, 0.0361428, 0.00312814, -0.000461393, -0.0113181, -0.0158108, 0.0453133, 0.000404667, -0.619133, 54.5712, 25.6278, 5.72418, 1.60785, 2.34256, 0.0495105, -0.00342679, 0.00257487, -0.00203795, -0.00885485, -0.017421, -0.00077725, 0.0538507, -0.0286737, -0.00315989, 0.0331521, 0.0869792, 0.0451493, 0.470941, -0.539753, 0.336812, -2.08122, -2.16508, -0.130152, 0.473714, -0.543345, 0.338204, -2.09405, -2.17918, -0.122367, -0.00164939, 0.0641529, 0.0157694, 0.0288314, 0.0127017, 0.00328936
0.17325, 1.69725, -1.22369, -1.53719, -0.898252, -1.20058, 1.24104, -1.30267, 0.0295261, -0.00100212, 0.000882493, -0.0116916, -0.00821234, 0.0394667, 0.00115444, -0.619133, 54.6823, 25.7032, 5.72418, 1.64447, 2.36362, 0.0357776, -0.00343966, 0.00268328, -0.00204151, -0.00897693, -0.0175653, -0.000927617, 0.0554382, -0.0251427, -0.00542035, 0.0333822, 0.0739849, 0.0414365, 0.470939, -0.539689, 0.336828, -2.08117, -2.16506, -0.130156, 0.473821, -0.543289, 0.338218, -2.09398, -2.17945, -0.122376, -0.00167868, 0.0648531, 0.015931, 0.0252492, 0.0120398, 0.00107928
0.17425, 1.69728, -1.22369, -1.53719, -0.898273, -1.20058, 1.24108, -1.30267, 0.0263753, -0.00396021, -9.61428e-05, -0.0168035, -0.00610135, 0.0390266, -0.000208541, -0.658806, 54.8291, 25.7389, 5.79956, 1.64447, 2.36362, 0.0623279, -0.00349113, 0.00271097, -0.00203295, -0.00902428, -0.0176157, -0.000964539, 0.0560825, -0.0245721, -0.00815209, 0.0310639, 0.0700216, 0.0445012, 0.470937, -0.539624, 0.336844, -2.08113, -2.16505, -0.130161, 0.473849, -0.543273, 0.338216, -2.09394, -2.17953, -0.122386, -0.00170828, 0.065556, 0.0160931, 0.0245708, 0.0125093, -0.00154074
0.17525, 1.69732, -1.22368, -1.53718, -0.898289, -1.20058, 1.24111, -1.30267, 0.0287666, -0.000863542, 0.00406341, -0.0156552, -0.00453741, 0.0331339, -0.000135144, -0.76989, 54.7577, 25.7032, 5.79956, 1.64447, 2.38559, 0.0623279, -0.00353982, 0.00273818, -0.00203574, -0.00907351, -0.0176769, -0.000999337, 0.0539778, -0.0254304, -0.00540668, 0.0309241, 0.0690795, 0.0482724, 0.470936, -0.539559, 0.33686, -2.08108, -2.16503, -0.130166, 0.473876, -0.543254, 0.338226, -2.09392, -2.1796, -0.122387, -0.0017382, 0.0662614, 0.0162556, 0.0254252, 0.0149012, 0.00163283
0.17625, 1.69733, -1.22368, -1.53717, -0.898302, -1.20058, 1.24114, -1.30267, 0.025698, 0.00170618, 0.00694452, -0.0130064, -0.00317387, 0.0346198, 0.000387534, -0.694511, 54.7934, 25.6675, 5.72418, 1.63898, 2.37826, 0.0495105, -0.003597, 0.00275731, -0.00203565, -0.00912762, -0.0177305, -0.00101662, 0.0558848, -0.023988, -0.00224902, 0.0374632, 0.0712331, 0.0442509, 0.470934, -0.539493, 0.336876, -2.08103, -2.16502, -0.13017, 0.473896, -0.543244, 0.338233, -2.09391, -2.17966, -0.1224, -0.00176845, 0.0669695, 0.0164185, 0.0241442, 0.0131756, 0.00465593
0.17725, 1.69736, -1.22367, -1.53717, -0.89832, -1.20058, 1.24117, -1.30267, 0.0265154, 0.00545972, 0.00347576, -0.0153062, -0.00190548, 0.0348322, -0.0019096, -0.734184, 54.7577, 25.7389, 5.68848, 1.62616, 2.39291, 0.108104, -0.00365156, 0.00277962, -0.00203489, -0.00917304, -0.0177899, -0.0010458, 0.0556917, -0.0244748, -0.0016592, 0.0344592, 0.0750147, 0.0481459, 0.470932, -0.539426, 0.336892, -2.08098, -2.165, -0.130175, 0.473918, -0.54323, 0.338239, -2.09388, -2.17972, -0.122398, -0.00179901, 0.0676801, 0.0165817, 0.0246156, 0.0140063, 0.00541382
0.17825, 1.69738, -1.22366, -1.53716, -0.898348, -1.20058, 1.2412, -1.30267, 0.0228455, 0.00497418, 0.00671775, -0.0196916, -0.00170589, 0.0314226, -0.00079671, -0.734184, 54.722, 25.7032, 5.76385, 1.63257, 2.37826, 0.0952869, -0.00370284, 0.00280417, -0.00203534, -0.00921999, -0.017848, -0.00107929, 0.0557331, -0.0233819, -0.00157329, 0.0330294, 0.0732375, 0.0489155, 0.47093, -0.539358, 0.336909, -2.08094, -2.16499, -0.13018, 0.473943, -0.543212, 0.338247, -2.09386, -2.1798, -0.1224, -0.0018299, 0.0683933, 0.0167454, 0.0234987, 0.01462, 0.00568782
0.17925, 1.6974, -1.22365, -1.53715, -0.898367, -1.20057, 1.24123, -1.30267, 0.0218429, 0.00285526, 0.00503387, -0.0169563, -0.000607753, 0.0336324, 0.00116551, -0.809562, 54.7577, 25.7032, 5.72418, 1.61426, 2.36362, 0.0495105, -0.00375581, 0.00282874, -0.00203337, -0.00926824, -0.0178993, -0.00110969, 0.0583047, -0.0224789, -0.0028316, 0.0354155, 0.0716637, 0.0432237, 0.470929, -0.53929, 0.336926, -2.08089, -2.16497, -0.130185, 0.473968, -0.543194, 0.338252, -2.09383, -2.17986, -0.12241, -0.00186112, 0.069109, 0.0169095, 0.0226128, 0.012957, 0.00423145
0.18025, 1.69742, -1.22365, -1.53715, -0.898391, -1.20057, 1.24125, -1.30267, 0.023374, -0.000414178, 0.00200921, -0.01821, -0.000279305, 0.0306066, -0.00115485, -0.845268, 54.8688, 25.7786, 5.68848, 1.60785, 2.34256, 0.101696, -0.00381168, 0.00284977, -0.00202858, -0.00930767, -0.0179509, -0.00114485, 0.0585703, -0.0226499, -0.0064144, 0.0293226, 0.0675234, 0.0469112, 0.470927, -0.53922, 0.336943, -2.08084, -2.16496, -0.13019, 0.473989, -0.543178, 0.338255, -2.09379, -2.17993, -0.12241, -0.00189266, 0.0698272, 0.0170739, 0.0226265, 0.0139799, 0.000809661
0.18125, 1.69744, -1.22364, -1.53714, -0.898422, -1.20057, 1.24127, -1.30267, 0.0237276, 0.0047685, 0.00257989, -0.0208088, 0.00441423, 0.0278486, -0.000531851, -0.845268, 54.9402, 25.7389, 5.72418, 1.60785, 2.33523, 0.0952869, -0.00386358, 0.00287298, -0.00202883, -0.00935266, -0.0180036, -0.0011796, 0.0565287, -0.0234642, -0.00384693, 0.028947, 0.068171, 0.0507191, 0.470925, -0.539151, 0.33696, -2.08079, -2.16494, -0.130195, 0.474012, -0.543159, 0.338263, -2.09375, -2.18, -0.122415, -0.00192452, 0.0705479, 0.0172387, 0.023431, 0.0163502, 0.00380138
0.18225, 1.69746, -1.22364, -1.53713, -0.898452, -1.20057, 1.24129, -1.30267, 0.0229285, 0.00748689, 0.000190985, -0.0219614, 0.00211756, 0.0302242, 0.00110401, -0.809562, 55.0513, 25.8143, 5.72418, 1.63898, 2.33523, 0.0559192, -0.00392111, 0.00289176, -0.00202393, -0.00938816, -0.0180566, -0.00120617, 0.0582155, -0.0229859, -0.00303153, 0.0278435, 0.074687, 0.0474369, 0.470923, -0.53908, 0.336977, -2.08074, -2.16492, -0.1302, 0.474031, -0.543144, 0.338266, -2.09372, -2.18005, -0.122409, -0.00195671, 0.0712712, 0.0174039, 0.0230146, 0.0152623, 0.00451841
0.18325, 1.69747, -1.22362, -1.53712, -0.898476, -1.20057, 1.24131, -1.30266, 0.0210624, 0.0117227, 0.00163925, -0.0193817, 0.00145397, 0.0272894, 0.000499038, -0.845268, 54.9402, 25.8896, 5.57739, 1.64447, 2.33523, 0.0623279, -0.00397739, 0.00291132, -0.00202987, -0.00942922, -0.0181247, -0.00123159, 0.059667, -0.020921, 0.000128302, 0.028274, 0.0781364, 0.0443896, 0.470921, -0.539009, 0.336994, -2.08069, -2.16491, -0.130205, 0.474051, -0.543128, 0.338279, -2.0937, -2.18012, -0.122393, -0.00198923, 0.0719968, 0.0175694, 0.021094, 0.0139764, 0.00763718
0.18425, 1.69749, -1.22361, -1.53711, -0.898515, -1.20057, 1.24132, -1.30267, 0.0172273, 0.0102245, 0.00464714, -0.0259652, 0.0011536, 0.0252585, -0.000413001, -0.76989, 55.0156, 25.8896, 5.6488, 1.64447, 2.33523, 0.0824695, -0.004032, 0.00293012, -0.00203047, -0.00946274, -0.0181825, -0.00126937, 0.0595327, -0.0204063, -0.000637481, 0.0264916, 0.0766666, 0.0486945, 0.470919, -0.538937, 0.337012, -2.08064, -2.16489, -0.13021, 0.47407, -0.543109, 0.338288, -2.09365, -2.18019, -0.122381, -0.00202208, 0.072725, 0.0177353, 0.0205139, 0.0149357, 0.00708197
0.18525, 1.6975, -1.2236, -1.53709, -0.898544, -1.20057, 1.24134, -1.30266, 0.0161887, 0.011674, 0.00922697, -0.0255501, -8.24414e-06, 0.0230544, 0.00118295, -0.76989, 55.1266, 25.9253, 5.50201, 1.66919, 2.34988, 0.0431018, -0.00408829, 0.0029497, -0.00202975, -0.00950161, -0.0182338, -0.00130074, 0.0597614, -0.0199729, 0.00170996, 0.0287023, 0.0780962, 0.047538, 0.470917, -0.538864, 0.33703, -2.08058, -2.16487, -0.130215, 0.47409, -0.543091, 0.338295, -2.09362, -2.18025, -0.122381, -0.00205526, 0.0734555, 0.0179016, 0.0201465, 0.0150566, 0.00954014
