alisrour97/Franka_experiments/Real_Robot_scripts/servo-franka/Data/log_dyn_INIT0_4.csv
Time,q1,q2,q3,q4,q5,q6,q7,dq1,dq2,dq3,dq4,dq5,dq6,dq7,t1,t2,t3,t4,t5,t6,t7,ex1,ex2,ex3,ex4,ex5,ex6,ev1,ev2,ev3,ev4,ev5,ev6,xd,yd,zd,uxd,uyd,uzd,x,y,z,ux,uy,uz,vxd,vyd,vzd,vx,vy,vz
4.88281e-07, 1.69104, -1.22778, -1.53921, -0.900373, -1.19204, 1.22798, -1.30261, -0.000144452, 0.00399685, -0.00267775, 0.00267978, 0.00597733, 0.00324241, -0.00162743, -0.357292, 62.1606, 30.4679, 7.5531, 2.06195, 3.85501, -0.133595, 0.000444149, -0.00197745, 0.00188727, 0.00213154, 0.001728, 0.000661483, 0.000229316, -4.08717e-05, 0.00205556, 0.00489356, 0.0006492, -0.000219567, 0.471008, -0.543389, 0.335894, -2.08385, -2.16584, -0.129887, 0.468945, -0.542746, 0.334139, -2.08252, -2.16331, -0.129207, 1.77043e-06, 3.2e-05, 1.02972e-05, 0.000124986, -0.000509102, 0.00200319
0.0122087, 1.69104, -1.22772, -1.53922, -0.900384, -1.19199, 1.22799, -1.30263, 0.000762384, 0.00749465, 0.000683871, -2.52372e-05, 0.00539697, 0.00533006, -0.000826943, -0.0914839, 62.3828, 30.5036, 7.40631, 2.09949, 3.83304, -0.147328, 0.000459122, -0.00197183, 0.00185467, 0.00211062, 0.00169874, 0.000630159, -0.00163447, -0.00199896, 0.00505893, 0.00824458, 0.00571671, 0.00360366, 0.471008, -0.543389, 0.335894, -2.08385, -2.16584, -0.129887, 0.468955, -0.542731, 0.334193, -2.08252, -2.16339, -0.129202, 1.77746e-06, 6.40623e-05, 1.89552e-05, 0.00212232, 0.000980792, 0.0052077
0.0132087, 1.69104, -1.22772, -1.53922, -0.900384, -1.19199, 1.22799, -1.30263, 0.000762384, 0.00749465, 0.000683871, -2.52372e-05, 0.00539697, 0.00533006, -0.000826943, -0.0914839, 62.3828, 30.5036, 7.40631, 2.09949, 3.83304, -0.147328, 0.000459114, -0.00197183, 0.00185467, 0.00211062, 0.00169873, 0.000630161, -0.00159821, -0.00199782, 0.00505497, 0.00824921, 0.00574325, 0.00360627, 0.471008, -0.543389, 0.335894, -2.08385, -2.16584, -0.129887, 0.468955, -0.542731, 0.334193, -2.08252, -2.16339, -0.129202, 1.77167e-06, 9.92934e-05, 2.84561e-05, 0.00212232, 0.000980792, 0.0052077
0.0142087, 1.69104, -1.22772, -1.53922, -0.900384, -1.19199, 1.22799, -1.30263, 0.000762384, 0.00749465, 0.000683871, -2.52372e-05, 0.00539697, 0.00533006, -0.000826943, -0.0914839, 62.3828, 30.5036, 7.40631, 2.09949, 3.83304, -0.147328, 0.000459094, -0.00197183, 0.00185468, 0.00211061, 0.00169872, 0.000630166, -0.00155857, -0.00199657, 0.00505066, 0.00825431, 0.00577226, 0.00360914, 0.471008, -0.543389, 0.335894, -2.08385, -2.16584, -0.129887, 0.468955, -0.542731, 0.334193, -2.08252, -2.16339, -0.129202, 1.75167e-06, 0.000137819, 3.88327e-05, 0.00212232, 0.000980792, 0.0052077
0.0152087, 1.69104, -1.22772, -1.53922, -0.900384, -1.19199, 1.22799, -1.30263, 0.000762384, 0.00749465, 0.000683871, -2.52372e-05, 0.00539697, 0.00533006, -0.000826943, -0.0914839, 62.3828, 30.5036, 7.40631, 2.09949, 3.83304, -0.147328, 0.000459055, -0.00197183, 0.00185468, 0.0021106, 0.0016987, 0.000630176, -0.00151541, -0.00199523, 0.00504597, 0.00825988, 0.00580382, 0.00361226, 0.471008, -0.543389, 0.335894, -2.08385, -2.16584, -0.129887, 0.468955, -0.542731, 0.334193, -2.08252, -2.16339, -0.129202, 1.716e-06, 0.000179762, 5.01169e-05, 0.00212232, 0.000980792, 0.0052077
0.0162087, 1.69104, -1.22772, -1.53922, -0.900384, -1.19199, 1.22799, -1.30263, 0.000762384, 0.00749465, 0.000683871, -2.52372e-05, 0.00539697, 0.00533006, -0.000826943, -0.0914839, 62.3828, 30.5036, 7.40631, 2.09949, 3.83304, -0.147328, 0.00045899, -0.00197183, 0.00185469, 0.00211057, 0.00169867, 0.000630192, -0.0014686, -0.00199379, 0.00504091, 0.00826596, 0.00583804, 0.00361565, 0.471008, -0.543389, 0.335894, -2.08385, -2.16584, -0.129887, 0.468955, -0.542731, 0.334193, -2.08252, -2.16339, -0.129202, 1.66317e-06, 0.000225248, 6.23407e-05, 0.00212232, 0.000980792, 0.0052077
0.0172087, 1.69104, -1.22772, -1.53922, -0.900384, -1.19199, 1.22799, -1.30263, 0.000762384, 0.00749465, 0.000683871, -2.52372e-05, 0.00539697, 0.00533006, -0.000826943, -0.0914839, 62.3828, 30.5036, 7.40631, 2.09949, 3.83304, -0.147328, 0.000458894, -0.00197183, 0.0018547, 0.00211053, 0.00169863, 0.000630215, -0.00141803, -0.00199225, 0.00503544, 0.00827256, 0.005875, 0.00361931, 0.471008, -0.543389, 0.335894, -2.08385, -2.16584, -0.129887, 0.468955, -0.542731, 0.334193, -2.08252, -2.16339, -0.129202, 1.59159e-06, 0.000274397, 7.55354e-05, 0.00212232, 0.000980792, 0.0052077
0.0182087, 1.69104, -1.22772, -1.53922, -0.900384, -1.19199, 1.22799, -1.30263, 0.000762384, 0.00749465, 0.000683871, -2.52372e-05, 0.00539697, 0.00533006, -0.000826943, -0.0914839, 62.3828, 30.5036, 7.40631, 2.09949, 3.83304, -0.147328, 0.000458761, -0.00197184, 0.00185471, 0.00211048, 0.00169856, 0.000630248, -0.00136357, -0.0019906, 0.00502958, 0.0082797, 0.00591478, 0.00362326, 0.471008, -0.543389, 0.335894, -2.08385, -2.16584, -0.129887, 0.468955, -0.542731, 0.334193, -2.08252, -2.16339, -0.129202, 1.49965e-06, 0.00032733, 8.9732e-05, 0.00212232, 0.000980792, 0.0052077
0.0192087, 1.69104, -1.22772, -1.53922, -0.900384, -1.19199, 1.22799, -1.30263, 0.000762384, 0.00749465, 0.000683871, -2.52372e-05, 0.00539697, 0.00533006, -0.000826943, -0.0914839, 62.3828, 30.5036, 7.40631, 2.09949, 3.83304, -0.147328, 0.000458583, -0.00197184, 0.00185473, 0.00211041, 0.00169847, 0.000630292, -0.00130509, -0.00198885, 0.00502329, 0.00828739, 0.00595748, 0.0036275, 0.471008, -0.543389, 0.335894, -2.08385, -2.16584, -0.129887, 0.468955, -0.542731, 0.334193, -2.08252, -2.16339, -0.129202, 1.38564e-06, 0.000384166, 0.000104961, 0.00212232, 0.000980792, 0.0052077
0.0202087, 1.69104, -1.22772, -1.53922, -0.900384, -1.19199, 1.22799, -1.30263, 0.000762384, 0.00749465, 0.000683871, -2.52372e-05, 0.00539697, 0.00533006, -0.000826943, -0.0914839, 62.3828, 30.5036, 7.40631, 2.09949, 3.83304, -0.147328, 0.000458355, -0.00197185, 0.00185476, 0.00211032, 0.00169836, 0.000630348, -0.00124248, -0.00198699, 0.00501658, 0.00829567, 0.00600318, 0.00363205, 0.471008, -0.543389, 0.335894, -2.08385, -2.16584, -0.129887, 0.468955, -0.542731, 0.334193, -2.08252, -2.16339, -0.129202, 1.24785e-06, 0.00044502, 0.000121252, 0.00212232, 0.000980792, 0.0052077
0.0212087, 1.69104, -1.22772, -1.53922, -0.900384, -1.19199, 1.22799, -1.30263, 0.000762384, 0.00749465, 0.000683871, -2.52372e-05, 0.00539697, 0.00533006, -0.000826943, -0.0914839, 62.3828, 30.5036, 7.40631, 2.09949, 3.83304, -0.147328, 0.00045807, -0.00197186, 0.00185479, 0.0021102, 0.00169822, 0.000630418, -0.00117562, -0.00198502, 0.00500942, 0.00830454, 0.00605197, 0.0036369, 0.471008, -0.543388, 0.335894, -2.08385, -2.16584, -0.129887, 0.468955, -0.542731, 0.334193, -2.08252, -2.16339, -0.129202, 1.08446e-06, 0.000510009, 0.000138634, 0.00212232, 0.000980792, 0.0052077
0.0222087, 1.69104, -1.22772, -1.53922, -0.900384, -1.19199, 1.22799, -1.30263, 0.000762384, 0.00749465, 0.000683871, -2.52372e-05, 0.00539697, 0.00533006, -0.000826943, -0.0914839, 62.3828, 30.5036, 7.40631, 2.09949, 3.83304, -0.147328, 0.000457723, -0.00197187, 0.00185483, 0.00211006, 0.00169806, 0.000630503, -0.00110439, -0.00198293, 0.00500181, 0.00831402, 0.00610393, 0.00364208, 0.471008, -0.543388, 0.335894, -2.08385, -2.16584, -0.129887, 0.468955, -0.542731, 0.334193, -2.08252, -2.16339, -0.129202, 8.93621e-07, 0.000579243, 0.000157137, 0.00212232, 0.000980792, 0.0052077
0.0232087, 1.69103, -1.22766, -1.53921, -0.900376, -1.19199, 1.228, -1.30263, -0.00172238, 0.00890692, 0.00184532, 0.00139106, 0.000612858, 0.00216353, 0.000124117, 0.134651, 62.6407, 30.5036, 7.33093, 2.1178, 3.74698, -0.147328, 0.000455264, -0.00197516, 0.0018171, 0.00208138, 0.00163195, 0.000640453, 0.000736115, 0.000669559, 0.00628478, 0.00553464, 0.00964194, -0.00206515, 0.471008, -0.543388, 0.335894, -2.08384, -2.16584, -0.129887, 0.468954, -0.542739, 0.33423, -2.08258, -2.16343, -0.129166, 6.73433e-07, 0.000652833, 0.000176787, -0.000414841, -0.00106861, 0.00628846
0.0242087, 1.69103, -1.22767, -1.53921, -0.900371, -1.19199, 1.22801, -1.30264, -0.00036096, 0.00569841, 0.000312848, 0.00184645, 0.000453537, 0.0019682, -0.0009006, 0.0949785, 62.6764, 30.5433, 7.29126, 2.1178, 3.73324, -0.120778, 0.000454312, -0.0019741, 0.00181823, 0.00208061, 0.00163219, 0.000635929, 0.000977136, 0.000275538, 0.00382247, 0.00369916, 0.00663743, -0.000820733, 0.471008, -0.543387, 0.335894, -2.08384, -2.16584, -0.129887, 0.468955, -0.54274, 0.334229, -2.08258, -2.16343, -0.129168, 4.21933e-07, 0.000730885, 0.000197611, -0.000101843, -0.000833396, 0.00382867
0.0252087, 1.69103, -1.22767, -1.53922, -0.900373, -1.19199, 1.22801, -1.30263, -0.00210942, 0.00242773, -0.00279608, -0.00405881, -0.00677861, 0.00213885, -0.000363041, 0.170357, 62.4899, 30.4322, 7.25555, 2.05646, 3.71127, -0.127186, 0.000449661, -0.00197811, 0.00182041, 0.00208192, 0.00163219, 0.00064702, 0.00248746, 0.00121386, 7.77565e-05, -0.00503746, 0.0101092, -0.00176528, 0.471008, -0.543387, 0.335895, -2.08384, -2.16584, -0.129887, 0.468951, -0.542743, 0.334226, -2.08259, -2.16342, -0.129165, 1.37109e-07, 0.000813505, 0.000219637, -0.00112041, -0.00170384, -5.305e-05
0.0262087, 1.69103, -1.22768, -1.53922, -0.900372, -1.19199, 1.22801, -1.30263, -0.000650221, -0.00265074, -0.0047862, -0.000622306, -0.00232596, 0.00408044, -0.000716745, 0.134651, 62.1249, 30.1703, 7.14447, 1.97681, 3.63986, -0.114369, 0.000446526, -0.00197809, 0.00182714, 0.00208241, 0.00163849, 0.000648986, 0.00315863, 0.000566887, -0.00305114, -0.00201932, 0.00230156, -0.00234643, 0.471008, -0.543386, 0.335895, -2.08384, -2.16584, -0.129887, 0.468951, -0.542745, 0.334219, -2.08259, -2.16341, -0.129171, -1.83099e-07, 0.000900793, 0.00024289, -0.000563532, -0.00177109, -0.003243
0.0272087, 1.69103, -1.22768, -1.53922, -0.900372, -1.19199, 1.22801, -1.30263, -0.000650221, -0.00265074, -0.0047862, -0.000622306, -0.00232596, 0.00408044, -0.000716745, 0.134651, 62.1249, 30.1703, 7.14447, 1.97681, 3.63986, -0.114369, 0.000445776, -0.00197811, 0.00182723, 0.00208211, 0.00163812, 0.000649169, 0.00325333, 0.000569557, -0.00306115, -0.00200648, 0.00237053, -0.00233953, 0.471008, -0.543385, 0.335895, -2.08384, -2.16584, -0.129887, 0.468951, -0.542745, 0.334219, -2.08259, -2.16341, -0.129171, -5.40806e-07, 0.000992849, 0.000267393, -0.000563532, -0.00177109, -0.003243
0.0282087, 1.69103, -1.22768, -1.53922, -0.900372, -1.19199, 1.22801, -1.30263, -0.000650221, -0.00265074, -0.0047862, -0.000622306, -0.00232596, 0.00408044, -0.000716745, 0.134651, 62.1249, 30.1703, 7.14447, 1.97681, 3.63986, -0.114369, 0.000444927, -0.00197814, 0.00182732, 0.00208177, 0.00163771, 0.000649376, 0.00335303, 0.000572348, -0.00307167, -0.00199292, 0.00244311, -0.00233226, 0.471008, -0.543384, 0.335895, -2.08384, -2.16584, -0.129887, 0.468951, -0.542745, 0.334219, -2.08259, -2.16341, -0.129171, -9.38169e-07, 0.00108977, 0.000293171, -0.000563532, -0.00177109, -0.003243
0.0292087, 1.69104, -1.2277, -1.53927, -0.900374, -1.19201, 1.22802, -1.30263, 0.00323404, -0.00499666, -0.0118841, 0.000878202, -0.0027268, -0.000871786, -0.000841559, -0.0914839, 60.8356, 29.4642, 6.73187, 1.76807, 3.59683, -0.0814099, 0.000434066, -0.00198065, 0.00186091, 0.00213315, 0.00164808, 0.000665505, 0.00343568, 0.000891123, -0.00740759, -0.0127639, -0.00149426, -0.00318242, 0.471008, -0.543383, 0.335895, -2.08384, -2.16584, -0.129887, 0.468947, -0.54275, 0.334185, -2.08257, -2.16337, -0.129123, -1.3774e-06, 0.00119164, 0.000320246, -0.0010359, -0.00109648, -0.00750054
0.0302087, 1.69104, -1.22772, -1.5393, -0.900383, -1.19202, 1.22802, -1.30263, 0.00129576, -0.00443372, -0.0150342, -0.00231746, -0.00165855, 0.00935647, -0.00032368, -0.0557783, 60.6491, 29.3134, 6.69617, 1.74335, 3.57577, -0.0878186, 0.000425882, -0.00198355, 0.00188079, 0.00215691, 0.00165432, 0.000674453, 0.00491475, -0.000158047, -0.00765217, -0.0072862, 0.00375435, -0.00397717, 0.471008, -0.543382, 0.335896, -2.08384, -2.16584, -0.129887, 0.468944, -0.542754, 0.334164, -2.08256, -2.16335, -0.129102, -1.86074e-06, 0.00129855, 0.00034864, 5.54905e-05, -0.00236919, -0.00797481
0.0312087, 1.69104, -1.22775, -1.53931, -0.900388, -1.19203, 1.22803, -1.30263, 0.00637793, -0.0135037, -0.0128238, -0.00279763, -0.00680325, 0.00926315, 0.000767557, -0.0161054, 60.6134, 29.0912, 6.58508, 1.75525, 3.51077, -0.114369, 0.0004173, -0.00198474, 0.00190076, 0.00217145, 0.00166396, 0.000684667, 0.00403043, -0.00307047, -0.0125507, -0.00959483, -0.000972143, -0.000114551, 0.471008, -0.543381, 0.335896, -2.08384, -2.16584, -0.129887, 0.468942, -0.542758, 0.334144, -2.08256, -2.16333, -0.129095, -2.39049e-06, 0.00141058, 0.000378373, 0.00275516, -0.000510974, -0.0127326
0.0322087, 1.69104, -1.22777, -1.53933, -0.900403, -1.19204, 1.22804, -1.30263, 0.00570429, -0.0143342, -0.0159089, -0.00661275, -0.00650456, 0.00955506, 0.000274346, -0.0557783, 60.6134, 28.9405, 6.62079, 1.78638, 3.43204, -0.10796, 0.000412539, -0.00198211, 0.00192399, 0.00219568, 0.0016719, 0.00068046, 0.00400782, -0.00309891, -0.0146131, -0.0136593, -0.00130184, 0.00169496, 0.471008, -0.54338, 0.335896, -2.08384, -2.16584, -0.129887, 0.468944, -0.542758, 0.33412, -2.08254, -2.16332, -0.129076, -2.969e-06, 0.00152782, 0.000409465, 0.00270773, -5.2801e-05, -0.0147353
0.0332087, 1.69104, -1.22778, -1.53935, -0.900416, -1.19205, 1.22805, -1.30263, 0.00243286, -0.0143027, -0.015185, -0.00839821, -0.00950853, 0.00936252, 0.000182897, 0.0196001, 60.4666, 28.7937, 6.62079, 1.77997, 3.36062, -0.10796, 0.000405023, -0.00198332, 0.00193706, 0.00221345, 0.00166223, 0.000685405, 0.00547638, -0.0014112, -0.0144436, -0.0149122, 0.00119287, -0.00052837, 0.471008, -0.543379, 0.335897, -2.08384, -2.16584, -0.129888, 0.468943, -0.542762, 0.334107, -2.08254, -2.16331, -0.129047, -3.59863e-06, 0.00165034, 0.000441934, 0.00108019, -0.00147522, -0.0147125
0.0342087, 1.69104, -1.22779, -1.53937, -0.900424, -1.19206, 1.22806, -1.30263, 0.000988818, -0.0103333, -0.014539, -0.0078981, -0.00696054, 0.00785874, -0.000624054, 0.059273, 60.2802, 28.6429, 6.54541, 1.77356, 3.324, -0.0878186, 0.000399192, -0.00198453, 0.00194726, 0.00223102, 0.00165514, 0.000691066, 0.00523045, -0.000539912, -0.0118825, -0.0136537, 0.00228168, -0.000484115, 0.471008, -0.543377, 0.335897, -2.08384, -2.16584, -0.129888, 0.468942, -0.542764, 0.334096, -2.08254, -2.1633, -0.129019, -4.2818e-06, 0.00177822, 0.000475796, 0.000292999, -0.0015344, -0.0120853
0.0352087, 1.69104, -1.2278, -1.53938, -0.900434, -1.19207, 1.22806, -1.30263, 0.00405087, -0.0108329, -0.0141891, -0.0117028, -0.0083438, 0.0054347, -0.000653395, 0.059273, 60.2444, 28.4961, 6.5097, 1.73053, 3.324, -0.0814099, 0.000394816, -0.0019837, 0.00196358, 0.00225326, 0.00165801, 0.000690842, 0.00287604, -0.00257545, -0.0129664, -0.0184071, 0.00222276, 0.00562481, 0.471008, -0.543375, 0.335898, -2.08384, -2.16584, -0.129888, 0.468942, -0.542765, 0.33408, -2.08252, -2.16329, -0.128998, -5.02096e-06, 0.00191151, 0.000511068, 0.00220184, 0.00117337, -0.0128163
0.0362087, 1.69104, -1.22781, -1.5394, -0.900451, -1.19208, 1.22807, -1.30263, 0.00229546, -0.010292, -0.0146633, -0.00986753, -0.0108108, 0.00898466, -0.000435596, 0.0949785, 60.173, 28.3851, 6.54541, 1.71863, 3.31027, -0.0814099, 0.000390084, -0.00198377, 0.00197688, 0.0022765, 0.00165049, 0.000689782, 0.00524763, -0.00145467, -0.0121751, -0.0156765, 0.00645707, 0.00101365, 0.471008, -0.543374, 0.335898, -2.08383, -2.16584, -0.129888, 0.468942, -0.542765, 0.334066, -2.08251, -2.16329, -0.128965, -5.81861e-06, 0.00205028, 0.000547764, 0.00119507, -0.00119682, -0.0123325
0.0372087, 1.69104, -1.22782, -1.53942, -0.900462, -1.19209, 1.22807, -1.30263, 0.00321941, -0.00830392, -0.0175232, -0.00883994, -0.0111726, 0.00598333, -0.000765116, 0.170357, 60.173, 28.3851, 6.47003, 1.66919, 3.324, -0.0685925, 0.000383277, -0.00198679, 0.00199318, 0.00230565, 0.00165113, 0.000694438, 0.00545728, -0.000609362, -0.0122056, -0.0204237, 0.00747921, -0.000165631, 0.471008, -0.543372, 0.335899, -2.08383, -2.16584, -0.129888, 0.468938, -0.542768, 0.33405, -2.0825, -2.16327, -0.128933, -6.67726e-06, 0.00219459, 0.000585897, 0.000356389, -0.00128935, -0.0123315
0.0382087, 1.69104, -1.22782, -1.53942, -0.900462, -1.19209, 1.22807, -1.30263, 0.00321941, -0.00830392, -0.0175232, -0.00883994, -0.0111726, 0.00598333, -0.000765116, 0.170357, 60.173, 28.3851, 6.47003, 1.66919, 3.324, -0.0685925, 0.000381117, -0.00198685, 0.00199342, 0.00230478, 0.00165007, 0.00069496, 0.00561145, -0.000605351, -0.0122216, -0.0204021, 0.00759113, -0.000154357, 0.471008, -0.54337, 0.335899, -2.08383, -2.16584, -0.129888, 0.468938, -0.542768, 0.33405, -2.0825, -2.16327, -0.128933, -7.59945e-06, 0.00234449, 0.000625478, 0.000356389, -0.00128935, -0.0123315
0.0392087, 1.69103, -1.22782, -1.53945, -0.900504, -1.19211, 1.22807, -1.30263, -0.000325252, -0.00449341, -0.0142453, -0.0185472, -0.0175874, 0.00362233, -0.000260932, 0.400459, 59.9866, 28.3097, 6.58508, 1.59595, 3.31027, -0.0750012, 0.000379017, -0.00198571, 0.00201029, 0.00235691, 0.00162341, 0.000683989, 0.00445217, -0.000133298, -0.0102024, -0.0262974, 0.0161159, 0.00371303, 0.471008, -0.543367, 0.3359, -2.08383, -2.16584, -0.129888, 0.468939, -0.542765, 0.334033, -2.08247, -2.16328, -0.128849, -8.58778e-06, 0.00250002, 0.000666519, -8.46067e-05, -0.000319432, -0.0101026
0.0402087, 1.69104, -1.22783, -1.53947, -0.900522, -1.19212, 1.22808, -1.30263, 0.00291786, -0.00724256, -0.0156075, -0.015986, -0.0176619, 0.00706358, -0.000411313, 0.551216, 60.1334, 28.3851, 6.54541, 1.58313, 3.31759, -0.0685925, 0.000373729, -0.00198488, 0.00202651, 0.0023831, 0.00161726, 0.000680937, 0.00485186, -0.00180781, -0.0118326, -0.0240273, 0.0152257, 0.00420589, 0.471008, -0.543365, 0.3359, -2.08383, -2.16584, -0.129889, 0.468939, -0.542765, 0.334017, -2.08246, -2.16327, -0.128814, -9.64483e-06, 0.00266124, 0.000709027, 0.00154211, -0.000233346, -0.0117823
0.0412087, 1.69103, -1.22783, -1.53949, -0.900546, -1.19214, 1.22808, -1.30263, -0.00014259, -0.00460311, -0.0163631, -0.0225339, -0.0176805, 0.00917552, -3.685e-05, 0.813057, 60.0977, 28.4565, 6.58508, 1.56482, 3.33865, -0.0750012, 0.000369945, -0.00198655, 0.00203287, 0.00240943, 0.00159706, 0.000678638, 0.00457401, -0.00175126, -0.0111296, -0.0252506, 0.019565, 0.00613782, 0.471008, -0.543362, 0.335901, -2.08383, -2.16584, -0.129889, 0.468937, -0.542766, 0.334011, -2.08245, -2.16328, -0.128765, -1.07732e-05, 0.00282817, 0.000753011, 0.00149994, 9.73735e-05, -0.0109993
0.0422087, 1.69103, -1.22783, -1.5395, -0.900571, -1.19215, 1.22808, -1.30263, 0.000395008, -0.00528944, -0.0151935, -0.0239322, -0.0181726, 0.0061079, -2.45667e-05, 0.963814, 60.173, 28.4565, 6.62079, 1.56482, 3.36062, -0.0750012, 0.00036806, -0.00198439, 0.00204274, 0.00243517, 0.00158188, 0.000671777, 0.00369713, -0.00196239, -0.0116264, -0.0279029, 0.0179592, 0.00830493, 0.471008, -0.54336, 0.335902, -2.08382, -2.16584, -0.129889, 0.468939, -0.542763, 0.334002, -2.08243, -2.16328, -0.128722, -1.19756e-05, 0.00300084, 0.000798475, 0.00166029, 0.00122087, -0.0113147
0.0432087, 1.69103, -1.22783, -1.53951, -0.900592, -1.19217, 1.22809, -1.30263, 0.00297683, -0.00470462, -0.0151445, -0.0253204, -0.0187048, 0.00991311, -0.000491096, 1.15424, 60.2087, 28.4961, 6.54541, 1.57123, 3.34598, -0.0621838, 0.000364826, -0.00198193, 0.00204819, 0.00245021, 0.00156028, 0.000664153, 0.00276126, -0.00435126, -0.01128, -0.0257881, 0.021192, 0.0123842, 0.471008, -0.543357, 0.335903, -2.08382, -2.16584, -0.129889, 0.468942, -0.542762, 0.333997, -2.08242, -2.1633, -0.128685, -1.32547e-05, 0.00317929, 0.000845424, 0.00402382, 0.00236768, -0.0108524
0.0442087, 1.69102, -1.22785, -1.53953, -0.90062, -1.19219, 1.22811, -1.30263, 0.00105445, -0.00859065, -0.0156098, -0.0254772, -0.0141029, 0.0135895, -0.000327397, 1.38038, 60.4309, 28.6826, 6.54541, 1.57123, 3.31027, -0.0621838, 0.000356239, -0.00198278, 0.00206638, 0.002476, 0.00154882, 0.000663239, 0.00368876, -0.00448206, -0.0133467, -0.0209253, 0.0154908, 0.011863, 0.471008, -0.543354, 0.335903, -2.08382, -2.16584, -0.129889, 0.46894, -0.542765, 0.333978, -2.08241, -2.16329, -0.128645, -1.46131e-05, 0.00336352, 0.000893861, 0.00411161, 0.00195976, -0.0129926
0.0452087, 1.69102, -1.22785, -1.53954, -0.900643, -1.1922, 1.22812, -1.30262, 0.000575294, -0.00592009, -0.0121056, -0.0227962, -0.0155554, 0.0153426, -0.000218265, 1.57081, 60.4309, 28.7183, 6.43433, 1.57764, 3.29562, -0.0621838, 0.000351568, -0.00198149, 0.0020717, 0.0024905, 0.00152569, 0.000661164, 0.004385, -0.00433693, -0.0100051, -0.015416, 0.0198762, 0.0100972, 0.471008, -0.54335, 0.335904, -2.08382, -2.16584, -0.12989, 0.468942, -0.542765, 0.333973, -2.08241, -2.1633, -0.128606, -1.60536e-05, 0.00355356, 0.000943786, 0.00411079, 0.000942134, -0.00974679
0.0462087, 1.69101, -1.22785, -1.53955, -0.900669, -1.19223, 1.22813, -1.30262, -0.00375736, -0.00409147, -0.0104815, -0.0212957, -0.0180707, 0.0155414, -0.00014551, 1.79694, 60.4309, 28.7937, 6.32324, 1.62616, 3.31027, -0.0621838, 0.000346597, -0.00198014, 0.00207778, 0.00250867, 0.00149907, 0.00065604, 0.00696351, -0.00157165, -0.00792226, -0.013426, 0.0236308, 0.00435376, 0.471008, -0.543347, 0.335905, -2.08381, -2.16583, -0.12989, 0.468943, -0.542766, 0.333967, -2.08241, -2.16332, -0.128559, -1.75788e-05, 0.0037494, 0.000995199, 0.00151499, -0.00184137, -0.00795563
0.0472087, 1.69102, -1.22786, -1.53956, -0.900686, -1.19225, 1.22813, -1.30262, 0.00233777, -0.00310938, -0.0109073, -0.02059, -0.0238113, 0.01375, -0.000842992, 1.75727, 60.5777, 28.9405, 6.09711, 1.65088, 3.38168, -0.0420422, 0.000345344, -0.00197327, 0.00209192, 0.00253728, 0.00148666, 0.000640921, 0.00562232, -0.00376201, -0.00789678, -0.0185343, 0.0287308, 0.0083229, 0.471008, -0.543343, 0.335906, -2.08381, -2.16583, -0.12989, 0.468949, -0.542761, 0.333954, -2.08238, -2.16333, -0.128517, -1.91915e-05, 0.00395105, 0.0010481, 0.00365385, -0.000229919, -0.00773545
0.0482087, 1.69102, -1.22786, -1.53957, -0.90071, -1.19227, 1.22814, -1.30262, 0.000341141, 0.000409679, -0.0140383, -0.0221135, -0.0278367, 0.0130708, 0.000183991, 1.98341, 60.6134, 29.0912, 5.95032, 1.66919, 3.43936, -0.0621838, 0.000338813, -0.00197324, 0.00209848, 0.00255949, 0.00145815, 0.000640793, 0.00731688, -0.00178233, -0.00712724, -0.0238284, 0.0356242, 0.0037575, 0.471008, -0.543339, 0.335907, -2.08381, -2.16583, -0.129891, 0.468949, -0.542762, 0.333947, -2.08238, -2.16333, -0.128464, -2.08943e-05, 0.0041585, 0.00110247, 0.00176342, -0.00189485, -0.00712456
0.0492087, 1.69103, -1.22786, -1.53958, -0.900732, -1.19229, 1.22815, -1.30262, 0.00170623, -0.000999528, -0.0152596, -0.0234552, -0.0261906, 0.0129548, -0.000623325, 2.09846, 60.6848, 29.2023, 5.79956, 1.6875, 3.48971, -0.0420422, 0.000335296, -0.0019685, 0.00210546, 0.00258008, 0.00143038, 0.00062826, 0.00657996, -0.00281698, -0.00867835, -0.0251645, 0.0332108, 0.00709417, 0.471008, -0.543335, 0.335908, -2.08381, -2.16583, -0.129891, 0.468954, -0.54276, 0.333941, -2.08237, -2.16335, -0.128414, -2.269e-05, 0.00437173, 0.00115833, 0.00271255, -0.00067297, -0.00851714
0.0502087, 1.69102, -1.22786, -1.53959, -0.900756, -1.19232, 1.22817, -1.30263, 0.000776622, 0.00104171, -0.0116254, -0.0251693, -0.0253045, 0.0137385, -0.00112763, 2.28492, 60.7602, 29.238, 5.68848, 1.71863, 3.5181, -0.0228162, 0.000328874, -0.00196578, 0.00211083, 0.00259377, 0.00139855, 0.000619656, 0.00567059, -0.00352047, -0.00633311, -0.0213581, 0.0349566, 0.0102046, 0.471008, -0.543331, 0.335909, -2.0838, -2.16583, -0.129891, 0.468957, -0.542761, 0.333936, -2.08237, -2.16338, -0.128368, -2.45814e-05, 0.00459073, 0.00121564, 0.00346541, 0.000111568, -0.00602415
0.0512087, 1.69103, -1.22786, -1.5396, -0.900781, -1.19235, 1.22818, -1.30262, 0.00186228, -0.000580594, -0.0117396, -0.0252661, -0.0253307, 0.0189989, 0.00327904, 2.39997, 60.8356, 29.3888, 5.6488, 1.76807, 3.54648, -0.0164075, 0.00032369, -0.00196111, 0.00211915, 0.00261732, 0.0013652, 0.000612701, 0.00612003, -0.00511497, -0.00696079, -0.0172177, 0.0361871, 0.00693933, 0.471008, -0.543326, 0.335911, -2.0838, -2.16583, -0.129892, 0.468961, -0.54276, 0.333928, -2.08236, -2.16339, -0.128309, -2.6571e-05, 0.00481547, 0.00127442, 0.00504926, 5.45225e-05, -0.00670302
0.0522087, 1.69103, -1.22787, -1.53961, -0.9008, -1.19237, 1.22819, -1.30262, 0.00352883, -0.00169137, -0.00993683, -0.0256387, -0.0286656, 0.0178946, 0.00349114, 2.47535, 60.907, 29.4642, 5.50201, 1.77997, 3.58218, -0.0420422, 0.000317352, -0.00195623, 0.00212627, 0.0026329, 0.00133421, 0.000609966, 0.00578121, -0.0058881, -0.00723329, -0.0186495, 0.0374066, 0.00848876, 0.471008, -0.543321, 0.335912, -2.0838, -2.16583, -0.129892, 0.468966, -0.542761, 0.333921, -2.08236, -2.16341, -0.128261, -2.86617e-05, 0.00504591, 0.00133464, 0.00579733, 0.000693071, -0.00688262
0.0532087, 1.69103, -1.22788, -1.53962, -0.900829, -1.19241, 1.2282, -1.30262, 0.000752633, -0.00521468, -0.0103186, -0.0269324, -0.0315661, 0.0167469, 0.00211947, 2.58643, 61.0934, 29.611, 5.53772, 1.80469, 3.62521, -0.0292249, 0.00031137, -0.0019516, 0.00214064, 0.0026588, 0.00131049, 0.000593965, 0.00773371, -0.00407228, -0.00959636, -0.0217707, 0.0359276, 0.00718337, 0.471008, -0.543316, 0.335913, -2.08379, -2.16583, -0.129892, 0.46897, -0.542759, 0.333907, -2.08234, -2.16343, -0.12821, -3.0856e-05, 0.00528201, 0.00139628, 0.00396612, -0.000708895, -0.00940266
0.0542087, 1.69104, -1.22788, -1.53961, -0.900858, -1.19244, 1.22822, -1.30262, 0.00173737, -0.000893773, -0.00707434, -0.0255057, -0.037755, 0.0113095, 0.000629703, 2.70148, 61.1292, 29.611, 5.6131, 1.81018, 3.66824, -0.00267457, 0.000308836, -0.00194338, 0.002142, 0.00266954, 0.00126887, 0.000575001, 0.00754952, -0.00310258, -0.00626076, -0.0256221, 0.0424881, 0.00782303, 0.471008, -0.543311, 0.335915, -2.08379, -2.16583, -0.129893, 0.468978, -0.542756, 0.333906, -2.08233, -2.16346, -0.128159, -3.31567e-05, 0.00552372, 0.00145934, 0.00310929, -0.000838525, -0.00598815
0.0552087, 1.69105, -1.22788, -1.53962, -0.900881, -1.19247, 1.22823, -1.30262, 0.00429521, -0.00184416, -0.00662592, -0.026397, -0.0384476, 0.0114136, 0.000841121, 2.73719, 61.2006, 29.6863, 5.6488, 1.8349, 3.72592, -0.00999879, 0.000303351, -0.00193661, 0.00214944, 0.00269048, 0.00123102, 0.000564886, 0.00654816, -0.0047687, -0.00693414, -0.026325, 0.0424741, 0.0109388, 0.471008, -0.543305, 0.335916, -2.08378, -2.16583, -0.129893, 0.468985, -0.542754, 0.333899, -2.08232, -2.16349, -0.128098, -3.55665e-05, 0.00577098, 0.0015238, 0.00471069, 0.000569206, -0.00648344
0.0562087, 1.69105, -1.22788, -1.53963, -0.900903, -1.19251, 1.22825, -1.30262, 0.00504995, -0.00184087, -0.0080536, -0.0237855, -0.0374976, 0.0118186, 0.00236871, 2.81654, 61.2402, 29.8371, 5.68848, 1.81659, 3.77627, -0.0557752, 0.000296159, -0.00193139, 0.00215755, 0.00271366, 0.00119239, 0.000562399, 0.00739783, -0.00453263, -0.00710671, -0.0256175, 0.0419769, 0.00752117, 0.471008, -0.5433, 0.335918, -2.08378, -2.16583, -0.129894, 0.46899, -0.542754, 0.333892, -2.08232, -2.1635, -0.128034, -3.8088e-05, 0.00602372, 0.00158964, 0.00449655, 6.6569e-08, -0.0067128
0.0572087, 1.69106, -1.22789, -1.53963, -0.900927, -1.19255, 1.22826, -1.30262, 0.00666853, -0.00358826, -0.00368821, -0.0217839, -0.0424147, 0.0115835, 0.00115492, 2.85224, 61.3513, 29.7617, 5.72418, 1.823, 3.84036, -0.0420422, 0.000292243, -0.00192289, 0.00216227, 0.00272706, 0.00115534, 0.000543953, 0.00774367, -0.00519312, -0.00643867, -0.023702, 0.043934, 0.00908666, 0.471008, -0.543294, 0.335919, -2.08378, -2.16583, -0.129894, 0.468999, -0.542751, 0.333888, -2.08231, -2.16354, -0.127984, -4.07237e-05, 0.00628188, 0.00165682, 0.00519005, -0.000158985, -0.00605963
0.0582087, 1.69107, -1.22788, -1.53963, -0.900953, -1.19258, 1.22827, -1.30262, 0.0036438, -0.00128607, -0.00335581, -0.0218929, -0.0446888, 0.0120129, -0.000353547, 2.92762, 61.3116, 29.7974, 5.83527, 1.79187, 3.89071, -0.00999879, 0.000287819, -0.00191556, 0.00216252, 0.00274345, 0.00110627, 0.000525985, 0.00953492, -0.00335343, -0.00481315, -0.0234451, 0.0483896, 0.00708118, 0.471008, -0.543287, 0.335921, -2.08377, -2.16582, -0.129894, 0.469006, -0.542749, 0.333888, -2.0823, -2.16358, -0.127919, -4.34763e-05, 0.00654537, 0.00172534, 0.00347282, -0.00198942, -0.00460867
0.0592087, 1.69107, -1.22789, -1.53963, -0.900972, -1.19263, 1.22828, -1.30262, 0.00457376, -0.00332227, -0.00404679, -0.0224556, -0.048311, 0.00762518, -0.000459488, 3.003, 61.4227, 29.8728, 5.83527, 1.79187, 3.94107, -0.00267457, 0.000277566, -0.0019127, 0.0021703, 0.00276746, 0.00106551, 0.000522719, 0.00982454, -0.00269829, -0.00679143, -0.0300904, 0.0474794, 0.00711292, 0.471008, -0.543281, 0.335923, -2.08377, -2.16582, -0.129895, 0.469009, -0.542751, 0.33388, -2.0823, -2.16359, -0.127852, -4.63483e-05, 0.0068141, 0.00179515, 0.00275452, -0.00172882, -0.00651747
0.0602087, 1.69108, -1.2279, -1.53964, -0.900996, -1.19267, 1.22829, -1.30262, 0.00537626, -0.00239405, -0.00356783, -0.0224687, -0.0453533, 0.00981285, 0.000712627, 3.07838, 61.5695, 29.9085, 5.95032, 1.77997, 3.96945, -0.0292249, 0.000271141, -0.00190525, 0.00217917, 0.00279026, 0.00102653, 0.000515106, 0.00920277, -0.00394731, -0.00595684, -0.0264028, 0.0472652, 0.00796889, 0.471008, -0.543274, 0.335924, -2.08376, -2.16582, -0.129895, 0.469016, -0.542749, 0.333872, -2.0823, -2.16361, -0.127788, -4.93422e-05, 0.00708797, 0.00186624, 0.00400684, -0.000918449, -0.00556349
0.0612087, 1.69109, -1.2279, -1.53964, -0.901017, -1.19272, 1.22831, -1.30262, 0.0077072, -0.00469172, -0.00416786, -0.0236938, -0.0485992, 0.0077644, -0.000210286, 3.07838, 61.7163, 29.9839, 5.98602, 1.78638, 3.96945, -0.00999879, 0.00026309, -0.00189679, 0.0021896, 0.00281401, 0.000983929, 0.000499393, 0.00885966, -0.00471771, -0.00801845, -0.031312, 0.0470464, 0.010957, 0.471007, -0.543267, 0.335926, -2.08376, -2.16582, -0.129896, 0.469025, -0.542748, 0.333862, -2.08229, -2.16364, -0.127721, -5.24605e-05, 0.00736687, 0.00193857, 0.00468632, 4.81934e-05, -0.00749683
0.0622087, 1.6911, -1.22792, -1.53964, -0.901042, -1.19276, 1.22832, -1.30262, 0.0051393, -0.0064008, 0.00289385, -0.0256348, -0.0508868, 0.00741557, -0.000628788, 3.11805, 61.8671, 29.9839, 6.0614, 1.79187, 3.93374, 0.00373412, 0.000255156, -0.0018883, 0.00219897, 0.00283412, 0.000941094, 0.000486755, 0.00882421, -0.0046594, -0.00670987, -0.0271233, 0.0468919, 0.0132231, 0.471007, -0.543259, 0.335928, -2.08375, -2.16582, -0.129897, 0.469033, -0.542746, 0.333854, -2.08228, -2.16367, -0.127657, -5.57056e-05, 0.00765073, 0.00201212, 0.00467087, 0.000163218, -0.00612395
0.0632087, 1.69112, -1.22793, -1.53964, -0.901058, -1.19281, 1.22834, -1.30262, 0.00726141, -0.00751075, 0.00146088, -0.0210301, -0.0522793, 0.0108876, -0.00040417, 3.11805, 62.0139, 30.0236, 6.02173, 1.78638, 3.9191, 0.00373412, 0.000246463, -0.00187988, 0.00221003, 0.00285618, 0.000902987, 0.000474093, 0.0105834, -0.00506215, -0.00706869, -0.024199, 0.0486152, 0.00995161, 0.471007, -0.543252, 0.33593, -2.08374, -2.16582, -0.129897, 0.469041, -0.542745, 0.333843, -2.08227, -2.1637, -0.127596, -5.90798e-05, 0.00793954, 0.00208689, 0.00511969, -0.00121288, -0.00668882
0.0642087, 1.69113, -1.22794, -1.53965, -0.90108, -1.19286, 1.22835, -1.30262, 0.0038619, -0.00746304, -0.000351761, -0.0229756, -0.0528458, 0.0132092, -0.00025818, 3.19343, 62.1249, 30.095, 6.0614, 1.77356, 3.91269, 0.00373412, 0.000235699, -0.00187496, 0.00222018, 0.00288365, 0.000859054, 0.000469908, 0.0125423, -0.00362282, -0.00760065, -0.024374, 0.0506722, 0.00711604, 0.471007, -0.543244, 0.335932, -2.08374, -2.16582, -0.129898, 0.469046, -0.542746, 0.333833, -2.08227, -2.16371, -0.127522, -6.25855e-05, 0.00823327, 0.00216285, 0.00372959, -0.00282998, -0.00739888
0.0652087, 1.69114, -1.22794, -1.53966, -0.901102, -1.19291, 1.22836, -1.30262, 0.00232753, -0.00653885, -0.0025744, -0.0211177, -0.0495301, 0.0145464, 7.3689e-05, 3.22913, 62.1964, 30.206, 6.09711, 1.78638, 3.91269, -0.00267457, 0.000223853, -0.00186974, 0.00223008, 0.00291511, 0.000807033, 0.00046659, 0.0139392, -0.0025502, -0.00742101, -0.0223651, 0.049692, 0.00369017, 0.471007, -0.543236, 0.335935, -2.08373, -2.16581, -0.129898, 0.469051, -0.542748, 0.333824, -2.08227, -2.16373, -0.127435, -6.6225e-05, 0.00853189, 0.00224002, 0.00271121, -0.00398205, -0.00732892
0.0662087, 1.69115, -1.22795, -1.53966, -0.901118, -1.19297, 1.22837, -1.30262, 0.00732279, -0.00864072, -0.000687126, -0.0201539, -0.0513689, 0.0106598, 0.00103881, 3.26881, 62.3828, 30.1703, 6.02173, 1.79187, 3.9191, -0.0292249, 0.000213758, -0.00186197, 0.00224018, 0.00293704, 0.000765685, 0.000457223, 0.0120837, -0.00458474, -0.00848473, -0.0253956, 0.0473613, 0.00716686, 0.471007, -0.543227, 0.335937, -2.08373, -2.16581, -0.129899, 0.469059, -0.542747, 0.333814, -2.08226, -2.16376, -0.12737, -7.00005e-05, 0.00883538, 0.00231837, 0.00463445, -0.00159958, -0.00807428
0.0672087, 1.69116, -1.22795, -1.53966, -0.90114, -1.19302, 1.22837, -1.30262, 0.0111669, -0.00653555, -0.00114786, -0.0224818, -0.0562322, 0.00773496, 0.000697292, 3.30451, 62.4185, 30.206, 6.0614, 1.76166, 3.92642, -0.0292249, 0.000205441, -0.00185546, 0.00224479, 0.00296586, 0.000713257, 0.000447931, 0.0105619, -0.00605298, -0.00822113, -0.0320849, 0.052579, 0.0114783, 0.471007, -0.543218, 0.335939, -2.08372, -2.16581, -0.1299, 0.469066, -0.542746, 0.33381, -2.08225, -2.16378, -0.127287, -7.39143e-05, 0.00914373, 0.0023979, 0.00605193, 0.000230754, -0.00754255
0.0682087, 1.69118, -1.22796, -1.53966, -0.901157, -1.19308, 1.22839, -1.30262, 0.0148434, -0.00598235, -0.000656158, -0.02134, -0.0511355, 0.0102664, -0.000243651, 3.30451, 62.4899, 30.206, 5.98602, 1.74884, 3.93374, -0.00999879, 0.000195582, -0.00184658, 0.00225228, 0.00299068, 0.000661992, 0.000436336, 0.0086926, -0.00896998, -0.00756722, -0.0270122, 0.0504237, 0.017005, 0.471007, -0.543209, 0.335941, -2.08371, -2.16581, -0.1299, 0.469074, -0.542745, 0.333804, -2.08225, -2.16381, -0.127209, -7.79688e-05, 0.0094569, 0.0024786, 0.00891782, 0.00240819, -0.00661404
0.0692087, 1.6912, -1.22797, -1.53967, -0.901176, -1.19313, 1.22839, -1.30262, 0.0145843, -0.00571763, -0.0038821, -0.0216626, -0.0518388, 0.00801378, -0.000431028, 3.30451, 62.5653, 30.3568, 5.95032, 1.72504, 3.92642, -0.00267457, 0.00018509, -0.00183942, 0.00226347, 0.00302585, 0.000613915, 0.000427109, 0.00958817, -0.00782442, -0.00881493, -0.0321583, 0.0506113, 0.0154536, 0.471007, -0.5432, 0.335944, -2.08371, -2.16581, -0.129901, 0.469081, -0.542744, 0.333793, -2.08224, -2.16384, -0.127123, -8.21662e-05, 0.00977487, 0.00256046, 0.00775645, 0.00198734, -0.00786873
0.0702087, 1.69121, -1.22797, -1.53967, -0.901196, -1.19319, 1.2284, -1.30262, 0.0156237, -0.00554962, -0.00252671, -0.0186463, -0.0581526, 0.00601621, 0.000697998, 3.37989, 62.6407, 30.3568, 5.91064, 1.73053, 3.92642, -0.0292249, 0.000171827, -0.00183466, 0.00227101, 0.0030556, 0.000558515, 0.000425798, 0.0110975, -0.0068871, -0.00807636, -0.0343148, 0.0548862, 0.0112702, 0.471007, -0.54319, 0.335947, -2.0837, -2.16581, -0.129902, 0.469086, -0.542746, 0.333786, -2.08224, -2.16385, -0.127035, -8.65087e-05, 0.0100976, 0.00264348, 0.00689675, 0.000667997, -0.00726258
0.0712087, 1.69123, -1.22798, -1.53968, -0.901219, -1.19325, 1.22842, -1.30262, 0.0150899, -0.00618636, -0.00247367, -0.018247, -0.0585572, 0.00950508, -0.000753867, 3.37989, 62.7478, 30.3925, 5.95032, 1.74884, 3.9191, 0.00373412, 0.000162125, -0.00182356, 0.0022795, 0.0030867, 0.000497418, 0.000407102, 0.0122809, -0.00710625, -0.00807486, -0.0311509, 0.0564944, 0.0117756, 0.471007, -0.54318, 0.335949, -2.08369, -2.1658, -0.129903, 0.469097, -0.542743, 0.333779, -2.08223, -2.1639, -0.126941, -9.09987e-05, 0.0104251, 0.00272764, 0.00715353, -0.000163945, -0.00736742
0.0722087, 1.69125, -1.22797, -1.53968, -0.901235, -1.19331, 1.22842, -1.30262, 0.0154392, -0.00243953, -0.00421306, -0.015268, -0.0634323, 0.00710882, -0.00050145, 3.34419, 62.6764, 30.5036, 5.87494, 1.76807, 3.9191, 0.00373412, 0.00015186, -0.00181479, 0.00228412, 0.0031223, 0.000432363, 0.00039784, 0.0140779, -0.00526814, -0.00633585, -0.0353007, 0.0631442, 0.00674731, 0.471007, -0.543169, 0.335952, -2.08368, -2.1658, -0.129903, 0.469106, -0.542742, 0.333775, -2.08223, -2.16393, -0.126837, -9.56382e-05, 0.0107574, 0.00281294, 0.00544044, -0.00194883, -0.00578864
0.0732087, 1.69127, -1.22799, -1.53969, -0.901252, -1.19337, 1.22844, -1.30262, 0.0210982, -0.00504932, -0.00547408, -0.0169248, -0.0575336, 0.00555565, -9.60954e-05, 3.34419, 62.8232, 30.6186, 5.83527, 1.77997, 3.91269, -0.00267457, 0.000137628, -0.00180667, 0.00229747, 0.00315683, 0.000377375, 0.000392616, 0.0105978, -0.0090127, -0.00901369, -0.0368327, 0.0555997, 0.0148224, 0.471007, -0.543159, 0.335955, -2.08368, -2.1658, -0.129904, 0.469114, -0.542743, 0.333762, -2.08222, -2.16395, -0.126745, -0.00010043, 0.0110943, 0.00289937, 0.00895381, 0.00238971, -0.00791908
0.0742087, 1.69129, -1.22799, -1.5397, -0.901269, -1.19344, 1.22844, -1.30262, 0.019827, -0.00595664, -0.00650891, -0.0160127, -0.0622057, 0.00390071, 0.000682556, 3.30451, 62.9343, 30.6186, 5.83527, 1.78638, 3.9191, -0.0228162, 0.000128074, -0.0017954, 0.00230665, 0.00318903, 0.000322812, 0.000379689, 0.0128349, -0.00709344, -0.00989659, -0.0407416, 0.057905, 0.0099738, 0.471006, -0.543147, 0.335958, -2.08367, -2.1658, -0.129905, 0.469125, -0.542739, 0.333754, -2.08221, -2.16398, -0.126656, -0.000105375, 0.011436, 0.00298692, 0.00708022, 0.000580233, -0.00899285
0.0752087, 1.69131, -1.228, -1.53971, -0.901283, -1.1935, 1.22845, -1.30261, 0.0203762, -0.00563551, -0.0079983, -0.0136524, -0.0629388, 0.00238367, 0.00167622, 3.34419, 63.0057, 30.7654, 5.76385, 1.823, 3.93374, -0.0557752, 0.000111449, -0.00179053, 0.00231835, 0.0032318, 0.000261556, 0.000384427, 0.0139135, -0.0062392, -0.0101032, -0.0425858, 0.0582395, 0.00651501, 0.471006, -0.543136, 0.335961, -2.08366, -2.1658, -0.129906, 0.46913, -0.542742, 0.333743, -2.08222, -2.16399, -0.126547, -0.000110477, 0.0117823, 0.00307558, 0.00625312, -0.000141299, -0.00925
0.0762087, 1.69134, -1.22801, -1.53971, -0.901299, -1.19357, 1.22846, -1.30262, 0.0264177, -0.00635094, -0.00550121, -0.0158466, -0.0658293, 0.00129087, -0.000102869, 3.26881, 63.1168, 30.7654, 5.72418, 1.823, 3.94839, -0.0228162, 0.000100293, -0.0017785, 0.00232972, 0.0032682, 0.000202924, 0.000366686, 0.0109489, -0.0100417, -0.0103878, -0.0446786, 0.0598363, 0.0164544, 0.471006, -0.543124, 0.335964, -2.08365, -2.16579, -0.129907, 0.469142, -0.542739, 0.333733, -2.0822, -2.16403, -0.12645, -0.000115737, 0.0121332, 0.00316535, 0.0099289, 0.00333612, -0.00909578
0.0772087, 1.69136, -1.22801, -1.53972, -0.901312, -1.19364, 1.22847, -1.30261, 0.0251139, -0.0051586, -0.00760842, -0.014499, -0.068188, 0.000772537, 0.00115239, 3.30451, 63.1564, 30.8051, 5.68848, 1.8349, 3.95572, -0.0557752, 8.52583e-05, -0.00177095, 0.00233604, 0.00330252, 0.000135188, 0.000366739, 0.0130316, -0.00824855, -0.0102573, -0.0470703, 0.062941, 0.010936, 0.471006, -0.543112, 0.335967, -2.08364, -2.16579, -0.129908, 0.46915, -0.542741, 0.333727, -2.08221, -2.16405, -0.126344, -0.000121158, 0.0124888, 0.00325621, 0.00821197, 0.00154216, -0.00914547
0.0782087, 1.69138, -1.22802, -1.53973, -0.901325, -1.19372, 1.22847, -1.30261, 0.0232676, -0.00770541, -0.0070783, -0.0142416, -0.0706159, 0.00426518, 0.00124318, 3.37989, 63.3389, 30.8765, 5.68848, 1.85321, 3.9841, -0.0685925, 6.54412e-05, -0.00176635, 0.00235183, 0.00334818, 7.30283e-05, 0.000370794, 0.0152684, -0.0076541, -0.0111608, -0.0444449, 0.0642717, 0.00831968, 0.471006, -0.5431, 0.33597, -2.08363, -2.16579, -0.129909, 0.469154, -0.542745, 0.333711, -2.08221, -2.16406, -0.126231, -0.000126741, 0.012849, 0.00334816, 0.0076601, -0.000190964, -0.0102752
0.0792087, 1.69142, -1.22803, -1.53974, -0.901331, -1.1938, 1.22848, -1.30261, 0.0257356, -0.00680547, -0.00866494, -0.0121695, -0.0722429, 0.00306391, 0.00130365, 3.30451, 63.4103, 30.9162, 5.6131, 1.86603, 3.99142, -0.0814099, 5.10349e-05, -0.00175496, 0.00236168, 0.0033907, 3.13577e-06, 0.000366037, 0.0156049, -0.00787068, -0.0111758, -0.0468987, 0.0661762, 0.00758591, 0.471006, -0.543087, 0.335973, -2.08362, -2.16579, -0.129909, 0.469166, -0.542745, 0.333703, -2.08221, -2.16408, -0.126114, -0.00013249, 0.0132137, 0.00344119, 0.00788213, -0.000147142, -0.010256
0.0802087, 1.69145, -1.22804, -1.53975, -0.901348, -1.19388, 1.22849, -1.30261, 0.0264154, -0.00806203, -0.00993711, -0.0119707, -0.0776962, 0.00190277, 0.000157139, 3.26881, 63.5611, 30.9519, 5.72418, 1.86603, 4.00516, -0.0621838, 3.57977e-05, -0.00174413, 0.00237786, 0.00344001, -6.29378e-05, 0.000357294, 0.017081, -0.00717253, -0.0125074, -0.0516148, 0.0691753, 0.00684841, 0.471006, -0.543074, 0.335977, -2.08361, -2.16578, -0.12991, 0.469176, -0.542743, 0.333687, -2.0822, -2.16411, -0.125994, -0.000138406, 0.013583, 0.0035353, 0.00718359, -0.00105842, -0.011685
0.0812087, 1.69147, -1.22805, -1.53977, -0.901356, -1.19396, 1.22849, -1.3026, 0.0251418, -0.00880729, -0.0126806, -0.00808965, -0.0768119, 0.00596897, 0.000816921, 3.30451, 63.7079, 31.063, 5.68848, 1.85962, 4.01248, -0.0814099, 1.46581e-05, -0.00173839, 0.00239138, 0.00348557, -0.000133198, 0.000365904, 0.0200684, -0.00595815, -0.0129932, -0.0480292, 0.0697919, 0.000557861, 0.471006, -0.54306, 0.33598, -2.0836, -2.16578, -0.129911, 0.469182, -0.542748, 0.333674, -2.08221, -2.16412, -0.125873, -0.00014449, 0.0139569, 0.00363046, 0.00605411, -0.0036086, -0.012497
0.0822087, 1.69151, -1.22805, -1.53978, -0.901361, -1.19405, 1.2285, -1.3026, 0.0276869, -0.00587072, -0.0121092, -0.00934744, -0.0818534, 0.00430675, 0.000544678, 3.19343, 63.7079, 31.063, 5.68848, 1.87793, 4.0198, -0.0814099, -1.47269e-06, -0.00172753, 0.00240019, 0.00353782, -0.000215693, 0.000362142, 0.0193871, -0.00683665, -0.0115507, -0.0520044, 0.076461, 0.00300602, 0.471006, -0.543046, 0.335984, -2.08359, -2.16578, -0.129913, 0.469193, -0.542749, 0.333666, -2.08221, -2.16415, -0.125733, -0.000150747, 0.0143352, 0.00372669, 0.00695306, -0.00274372, -0.0108974
0.0832087, 1.69155, -1.22807, -1.53979, -0.90137, -1.19413, 1.2285, -1.30261, 0.0270214, -0.0081821, -0.00974491, -0.00786857, -0.0847963, 0.00304893, -0.000111552, 3.19343, 63.8904, 31.1027, 5.72418, 1.87244, 4.02713, -0.0685925, -2.00239e-05, -0.00171809, 0.00241666, 0.0035905, -0.000284539, 0.000358136, 0.0206898, -0.00602395, -0.0119743, -0.0517229, 0.0759267, 0.00193456, 0.471005, -0.543032, 0.335988, -2.08358, -2.16578, -0.129914, 0.469203, -0.54275, 0.33365, -2.0822, -2.16417, -0.125606, -0.000157176, 0.014718, 0.00382396, 0.00616631, -0.0036149, -0.0113963
0.0842087, 1.69158, -1.22808, -1.53981, -0.901376, -1.19422, 1.2285, -1.30261, 0.0286947, -0.0106512, -0.0114974, -0.00584701, -0.0916386, 0.00209812, 0.000163027, 3.22913, 64.1125, 31.1741, 5.72418, 1.87244, 4.03445, -0.0750012, -4.30516e-05, -0.00171222, 0.00243547, 0.00364645, -0.000354166, 0.000364909, 0.0227935, -0.00529548, -0.01397, -0.0567112, 0.0788779, -0.00150932, 0.471005, -0.543017, 0.335992, -2.08357, -2.16577, -0.129915, 0.469208, -0.542754, 0.333632, -2.0822, -2.16418, -0.125474, -0.000163782, 0.0151053, 0.00392227, 0.0054352, -0.00502653, -0.0135736
0.0852087, 1.69161, -1.22809, -1.53982, -0.901391, -1.19432, 1.2285, -1.3026, 0.0328252, -0.00877089, -0.0140065, -0.00871068, -0.0922696, 0.00165133, -0.000128648, 3.15376, 64.184, 31.1741, 5.91064, 1.87244, 4.03445, -0.0685925, -5.91546e-05, -0.00169967, 0.0024497, 0.00370888, -0.000438287, 0.000356883, 0.0209378, -0.00761718, -0.014443, -0.0613621, 0.0818822, 0.00394883, 0.471005, -0.543002, 0.335996, -2.08356, -2.16577, -0.129916, 0.469221, -0.542753, 0.333619, -2.08219, -2.16421, -0.125321, -0.000170564, 0.0154971, 0.00402162, 0.00766341, -0.00263454, -0.0137234
0.0862087, 1.69165, -1.22809, -1.53983, -0.901386, -1.19442, 1.22851, -1.30261, 0.0346316, -0.00677503, -0.0131957, -0.00354689, -0.0922578, 0.00129032, -0.00130645, 3.11805, 64.2236, 31.1741, 5.79956, 1.85962, 4.03445, -0.0356336, -8.32391e-05, -0.00169311, 0.00245954, 0.00376164, -0.00052651, 0.00036218, 0.0216801, -0.00751405, -0.0124288, -0.0585581, 0.0835257, 0.00277169, 0.471005, -0.542986, 0.336, -2.08355, -2.16577, -0.129917, 0.469228, -0.542759, 0.333609, -2.08221, -2.16423, -0.125174, -0.000177527, 0.0158932, 0.00412199, 0.00765309, -0.00328575, -0.0117467
0.0872087, 1.69169, -1.2281, -1.53985, -0.901392, -1.19452, 1.22851, -1.3026, 0.0359133, -0.00711495, -0.0163188, -0.0043815, -0.0932119, 0.00208736, 0.000349753, 3.07838, 64.3347, 31.2137, 5.87494, 1.85962, 4.00516, -0.0685925, -0.000106974, -0.00168555, 0.00247599, 0.00382317, -0.00061156, 0.000373489, 0.0222269, -0.00790668, -0.0138849, -0.0615949, 0.0849776, 0.00133432, 0.471005, -0.542971, 0.336004, -2.08354, -2.16576, -0.129918, 0.469235, -0.542764, 0.333593, -2.08222, -2.16424, -0.12502, -0.000184671, 0.0162937, 0.00422337, 0.00800483, -0.00318434, -0.0131801
0.0882087, 1.69173, -1.22811, -1.53987, -0.9014, -1.19462, 1.22851, -1.3026, 0.0364035, -0.00641359, -0.0148717, -0.00570971, -0.093293, 0.00200675, 0.000470539, 3.04267, 64.4061, 31.2137, 5.98602, 1.85321, 3.99142, -0.0750012, -0.000128237, -0.00167612, 0.00249041, 0.00388731, -0.000699899, 0.000375096, 0.021673, -0.00869131, -0.0132123, -0.0610122, 0.0860428, 0.00354705, 0.471005, -0.542954, 0.336008, -2.08353, -2.16576, -0.129919, 0.469245, -0.542766, 0.33358, -2.08222, -2.16426, -0.12486, -0.000192, 0.0166987, 0.00432576, 0.00878564, -0.00230388, -0.0123515
0.0892087, 1.69177, -1.22811, -1.53989, -0.9014, -1.19472, 1.22852, -1.3026, 0.0393005, -0.00603886, -0.0175582, -0.00394917, -0.0935299, 0.00168902, 0.000313701, 2.92762, 64.4815, 31.2494, 5.98602, 1.85962, 3.9841, -0.0750012, -0.000149681, -0.00166523, 0.00250445, 0.00395107, -0.000789009, 0.000376895, 0.0218664, -0.00935188, -0.013917, -0.0632607, 0.086867, 0.00367848, 0.471004, -0.542938, 0.336012, -2.08351, -2.16576, -0.129921, 0.469256, -0.542768, 0.333567, -2.08222, -2.16428, -0.1247, -0.000199514, 0.0171079, 0.00442916, 0.00941917, -0.00194961, -0.0129942
0.0902087, 1.69182, -1.22812, -1.53991, -0.901406, -1.19482, 1.22852, -1.3026, 0.0424773, -0.00486104, -0.0176912, -0.00450303, -0.0927501, 0.00172849, 0.000446499, 2.89191, 64.5172, 31.3248, 6.0614, 1.82941, 3.96945, -0.0814099, -0.000172466, -0.00165492, 0.00251982, 0.00401673, -0.00088115, 0.000379694, 0.0204846, -0.0113029, -0.0135492, -0.0635625, 0.0878874, 0.0073748, 0.471004, -0.54292, 0.336017, -2.0835, -2.16575, -0.129922, 0.469266, -0.54277, 0.333552, -2.08222, -2.1643, -0.124535, -0.000207216, 0.0175215, 0.00453354, 0.0113238, -0.000148274, -0.0123712
0.0912087, 1.69187, -1.22812, -1.53993, -0.901406, -1.19493, 1.22852, -1.3026, 0.0436237, -0.00407585, -0.0178695, -0.00308229, -0.0938078, 0.00146855, -0.00139775, 2.77686, 64.5529, 31.2891, 6.0614, 1.8349, 3.96213, -0.0356336, -0.000192129, -0.00164142, 0.00253008, 0.00408168, -0.000979839, 0.000371176, 0.0209723, -0.0114106, -0.0130729, -0.063802, 0.0896369, 0.0086842, 0.471004, -0.542903, 0.336021, -2.08349, -2.16575, -0.129923, 0.46928, -0.54277, 0.333543, -2.08222, -2.16433, -0.124365, -0.000215108, 0.0179394, 0.00463891, 0.0114581, -0.000280603, -0.0118748
0.0922087, 1.69191, -1.22812, -1.53994, -0.901401, -1.19503, 1.22852, -1.3026, 0.0456287, -0.00364521, -0.0208813, -0.00118703, -0.0971075, 0.000470211, 0.000288873, 2.73719, 64.5926, 31.2494, 6.02173, 1.79187, 3.97677, -0.0685925, -0.000216509, -0.00163301, 0.00254138, 0.00414535, -0.00107345, 0.000382531, 0.0222124, -0.0110121, -0.0138522, -0.0681422, 0.0926832, 0.00479234, 0.471004, -0.542885, 0.336026, -2.08348, -2.16575, -0.129924, 0.469288, -0.542774, 0.333532, -2.08223, -2.16435, -0.124199, -0.000223192, 0.0183616, 0.00474526, 0.0110682, -0.00097866, -0.0127189
0.0932087, 1.69196, -1.22812, -1.53997, -0.901408, -1.19514, 1.22852, -1.3026, 0.0433465, -0.000666868, -0.0232496, -0.00352776, -0.0961341, 0.00033876, -0.0005534, 2.73719, 64.5172, 31.3248, 6.13678, 1.77356, 3.97677, -0.0484509, -0.000239541, -0.0016238, 0.00255289, 0.00422015, -0.00117774, 0.000382887, 0.0229772, -0.00986092, -0.013194, -0.0703052, 0.0953861, 0.00459654, 0.471003, -0.542867, 0.336031, -2.08346, -2.16574, -0.129926, 0.469298, -0.542776, 0.333522, -2.08223, -2.16437, -0.124012, -0.00023147, 0.0187881, 0.00485258, 0.00996159, -0.00145579, -0.0120459
0.0942087, 1.692, -1.22811, -1.53998, -0.901408, -1.19525, 1.22852, -1.30261, 0.0458648, 0.000390665, -0.0203921, -0.0023857, -0.101431, -2.64623e-05, -0.00131837, 2.70148, 64.4815, 31.2137, 6.13678, 1.79828, 3.9841, -0.0228162, -0.000261501, -0.00161165, 0.00256017, 0.00428316, -0.00128339, 0.000379503, 0.0229587, -0.0108355, -0.0115985, -0.0702717, 0.100714, 0.00645979, 0.471003, -0.542848, 0.336035, -2.08345, -2.16574, -0.129927, 0.46931, -0.542777, 0.333516, -2.08223, -2.16441, -0.123837, -0.000239944, 0.0192188, 0.00496086, 0.0109837, -0.00121257, -0.0103892
0.0952087, 1.69206, -1.22813, -1.54001, -0.901403, -1.19535, 1.22852, -1.30261, 0.0477621, -0.00400843, -0.0219243, 0.000147373, -0.103254, 0.000539117, -0.00111627, 2.66181, 64.664, 31.2494, 6.0614, 1.77997, 3.96945, -0.0164075, -0.000286057, -0.00159898, 0.00257998, 0.00434875, -0.00136713, 0.000381503, 0.0244612, -0.0110359, -0.0144637, -0.0713548, 0.0983637, 0.00468947, 0.471003, -0.542829, 0.33604, -2.08343, -2.16574, -0.129929, 0.469323, -0.542779, 0.333497, -2.08223, -2.16442, -0.123681, -0.000248615, 0.0196537, 0.00507009, 0.0111249, -0.00181069, -0.0133491
0.0962087, 1.69211, -1.22811, -1.54004, -0.901407, -1.19546, 1.22852, -1.3026, 0.0491573, 0.00252464, -0.0249392, -0.000756016, -0.101791, 0.000370079, -0.00026946, 2.62611, 64.4418, 31.3605, 6.09711, 1.79828, 3.96945, -0.0292249, -0.000307861, -0.00158648, 0.00258675, 0.00442704, -0.00148681, 0.000385655, 0.0237358, -0.0114976, -0.0119426, -0.0734723, 0.104236, 0.00496033, 0.471003, -0.542809, 0.336045, -2.08342, -2.16573, -0.12993, 0.469335, -0.542779, 0.333492, -2.08224, -2.16445, -0.123473, -0.000257487, 0.0200928, 0.00518027, 0.0116428, -0.00102498, -0.010651
0.0972087, 1.69216, -1.22812, -1.54006, -0.901409, -1.19557, 1.22852, -1.3026, 0.0492959, -0.000915352, -0.0235015, -0.00144632, -0.104473, -1.65473e-05, -0.000891716, 2.62611, 64.5529, 31.3248, 6.13678, 1.79828, 3.97677, -0.00999879, -0.000332249, -0.00157465, 0.00260312, 0.00449505, -0.00157894, 0.000384761, 0.0244365, -0.0116672, -0.013628, -0.0743564, 0.103114, 0.00621976, 0.471002, -0.542789, 0.336051, -2.08341, -2.16573, -0.129932, 0.469347, -0.54278, 0.333477, -2.08223, -2.16448, -0.123306, -0.000266561, 0.0205361, 0.00529139, 0.0117669, -0.00100633, -0.0123185
0.0982087, 1.69221, -1.22812, -1.54008, -0.901403, -1.19568, 1.22851, -1.30261, 0.0504048, -0.000610227, -0.0226587, 0.000788313, -0.102386, -0.000547566, -0.000594477, 2.58643, 64.5529, 31.2891, 6.0614, 1.81018, 3.99142, -0.00999879, -0.000355709, -0.00156119, 0.00261435, 0.00456088, -0.00167886, 0.000382559, 0.0243944, -0.0120659, -0.0129846, -0.072114, 0.101562, 0.00618852, 0.471002, -0.542768, 0.336056, -2.08339, -2.16572, -0.129933, 0.469361, -0.54278, 0.333467, -2.08223, -2.16451, -0.123134, -0.000275838, 0.0209836, 0.00540343, 0.0121777, -0.000599886, -0.011577
0.0992087, 1.69227, -1.22812, -1.5401, -0.901411, -1.19578, 1.22852, -1.3026, 0.0487177, 0.00126362, -0.0244731, -0.00208095, -0.106147, -8.9276e-05, 0.000553118, 2.51106, 64.4815, 31.3605, 6.17248, 1.84131, 3.9841, -0.0356336, -0.000376855, -0.00154499, 0.00262832, 0.00463826, -0.00178645, 0.000379323, 0.0257504, -0.0110595, -0.0128293, -0.0759109, 0.10739, 0.00376171, 0.471002, -0.542747, 0.336061, -2.08338, -2.16572, -0.129935, 0.469377, -0.542777, 0.333455, -2.08223, -2.16454, -0.122941, -0.000285321, 0.0214351, 0.00551641, 0.0112174, -0.00155196, -0.0114914
0.100209, 1.69233, -1.22811, -1.54013, -0.901403, -1.19589, 1.22851, -1.3026, 0.0465585, 0.00177044, -0.0240102, 0.000369912, -0.103588, -0.000327409, -0.000851957, 2.47535, 64.4418, 31.3605, 6.09711, 1.85321, 3.99142, -0.00267457, -0.000401372, -0.00153185, 0.00263857, 0.00470445, -0.00188874, 0.00037909, 0.0272285, -0.00961147, -0.0119751, -0.0729013, 0.105696, 0.00198892, 0.471002, -0.542726, 0.336067, -2.08336, -2.16572, -0.129936, 0.46939, -0.542778, 0.333446, -2.08223, -2.16456, -0.122765, -0.000295012, 0.0218908, 0.00563029, 0.00984575, -0.00274648, -0.0107203
0.101209, 1.69238, -1.22811, -1.54016, -0.901405, -1.19599, 1.22852, -1.3026, 0.0482875, 0.0011803, -0.0254881, -0.000685932, -0.10643, 5.55259e-05, 0.000178014, 2.43568, 64.4418, 31.4359, 6.13678, 1.85962, 3.9841, -0.0228162, -0.000425152, -0.00151607, 0.00265338, 0.00477533, -0.00199233, 0.000377569, 0.0275839, -0.0103117, -0.0130857, -0.0759161, 0.108213, 0.00198207, 0.471001, -0.542704, 0.336072, -2.08334, -2.16571, -0.129938, 0.469406, -0.542777, 0.333433, -2.08223, -2.16459, -0.122583, -0.000304912, 0.0223506, 0.00574509, 0.0105075, -0.00243719, -0.011779
0.102209, 1.69244, -1.2281, -1.54018, -0.901403, -1.1961, 1.22852, -1.3026, 0.0567703, 0.00329252, -0.0246929, -0.000460678, -0.10369, -0.00046971, -0.000864668, 2.3603, 64.3347, 31.4359, 6.13678, 1.87244, 3.99783, 0.00373412, -0.000448689, -0.00150196, 0.00266198, 0.00484702, -0.0021025, 0.000376269, 0.0234025, -0.0153324, -0.0120639, -0.0753415, 0.10836, 0.0124928, 0.471001, -0.542682, 0.336078, -2.08333, -2.16571, -0.12994, 0.46942, -0.542776, 0.333426, -2.08223, -2.16462, -0.122394, -0.000315023, 0.0228145, 0.00586078, 0.0153985, 0.00220353, -0.010157
0.103209, 1.69249, -1.2281, -1.5402, -0.901402, -1.19621, 1.22851, -1.3026, 0.0507357, 0.00395825, -0.0233514, -0.000309661, -0.10621, -0.00166805, -6.78188e-05, 2.39997, 64.2593, 31.4002, 6.13678, 1.87793, 4.03445, -0.00999879, -0.000474958, -0.00149046, 0.00266946, 0.00491444, -0.00221402, 0.000378127, 0.0266397, -0.0116271, -0.0109993, -0.0752337, 0.110544, 0.00542587, 0.471001, -0.542659, 0.336084, -2.08331, -2.1657, -0.129941, 0.469432, -0.542777, 0.33342, -2.08223, -2.16466, -0.122208, -0.000325348, 0.0232823, 0.00597737, 0.0118428, -0.000840594, -0.00938055
0.104209, 1.69255, -1.2281, -1.54022, -0.901405, -1.19632, 1.22851, -1.3026, 0.054221, 0.00347406, -0.0231834, -0.00187878, -0.108384, -0.00189086, -4.52125e-05, 2.3603, 64.2236, 31.4002, 6.20819, 1.89075, 4.05551, -0.00999879, -0.000500399, -0.00147735, 0.00268338, 0.00499172, -0.00231951, 0.00037552, 0.0255287, -0.0136814, -0.0116817, -0.0775258, 0.112324, 0.00961962, 0.471, -0.542636, 0.33609, -2.08329, -2.1657, -0.129943, 0.469445, -0.542776, 0.333408, -2.08222, -2.16468, -0.122017, -0.000335889, 0.0237543, 0.00609484, 0.0138192, 0.000918109, -0.00982694
0.105209, 1.69261, -1.22808, -1.54025, -0.901407, -1.19644, 1.22851, -1.3026, 0.055786, 0.00667773, -0.0239694, -0.00218197, -0.105677, -0.00180231, -0.000301409, 2.24921, 64.0372, 31.4359, 6.24786, 1.90906, 4.07016, -0.00267457, -0.000524953, -0.00146273, 0.00269033, 0.00507075, -0.0024437, 0.000371995, 0.024571, -0.0147463, -0.0102339, -0.0769012, 0.113821, 0.0121868, 0.471, -0.542612, 0.336096, -2.08328, -2.16569, -0.129945, 0.46946, -0.542775, 0.333403, -2.08223, -2.16472, -0.121805, -0.000346646, 0.0242302, 0.00621319, 0.0148903, 0.00216014, -0.00816293
0.106209, 1.69266, -1.22808, -1.54027, -0.901409, -1.19655, 1.2285, -1.3026, 0.0551294, 0.0035238, -0.0210147, -0.00321896, -0.107005, -0.0022521, 0.000782405, 2.20954, 64.0768, 31.3248, 6.32324, 1.89624, 4.09854, -0.0292249, -0.000548552, -0.00144727, 0.00270333, 0.00514124, -0.00254367, 0.000366584, 0.0249433, -0.0149518, -0.011229, -0.0758881, 0.111781, 0.0124344, 0.471, -0.542588, 0.336102, -2.08326, -2.16569, -0.129946, 0.469476, -0.542771, 0.333392, -2.08222, -2.16475, -0.121628, -0.000357622, 0.0247101, 0.00633241, 0.0150615, 0.00243482, -0.00909073
0.107209, 1.69272, -1.22808, -1.54029, -0.901409, -1.19667, 1.2285, -1.3026, 0.0589261, 0.00327722, -0.022539, -0.00214678, -0.113528, -0.00282338, 0.00123368, 2.09846, 64.0372, 31.3605, 6.32324, 1.90906, 4.13424, -0.0484509, -0.000576812, -0.00143375, 0.0027159, 0.005218, -0.0026587, 0.000369941, 0.0256432, -0.0157337, -0.0120473, -0.0807615, 0.117086, 0.0119233, 0.470999, -0.542563, 0.336109, -2.08324, -2.16568, -0.129948, 0.469489, -0.542772, 0.333381, -2.08222, -2.16478, -0.121428, -0.000368819, 0.025194, 0.00645249, 0.0158266, 0.00238649, -0.0099118
0.108209, 1.69278, -1.22808, -1.54032, -0.901416, -1.19679, 1.22849, -1.3026, 0.0599754, 0.00385525, -0.0216049, -0.00403024, -0.117783, -0.00296698, 0.000347736, 1.9477, 63.9658, 31.4359, 6.43433, 1.89624, 4.16354, -0.0356336, -0.000601285, -0.00141746, 0.00272988, 0.00530405, -0.0027745, 0.000360031, 0.0256987, -0.0163873, -0.0117397, -0.0829612, 0.121577, 0.0145472, 0.470999, -0.542538, 0.336115, -2.08322, -2.16568, -0.12995, 0.469505, -0.542768, 0.333369, -2.0822, -2.16482, -0.121218, -0.000380238, 0.0256818, 0.00657343, 0.0164811, 0.00279931, -0.00951612
0.109209, 1.69283, -1.22807, -1.54034, -0.901421, -1.19691, 1.22849, -1.3026, 0.0551449, 0.00349819, -0.0209237, -0.0035225, -0.122175, -0.00248636, 0.000469183, 2.02308, 63.9261, 31.4002, 6.47003, 1.90265, 4.17727, -0.0420422, -0.000633924, -0.0014092, 0.00273962, 0.00537892, -0.00289564, 0.000368489, 0.0293091, -0.0132774, -0.0113758, -0.0829416, 0.125172, 0.00811567, 0.470999, -0.542512, 0.336122, -2.0832, -2.16567, -0.129952, 0.469514, -0.542773, 0.333361, -2.08222, -2.16484, -0.121013, -0.000391882, 0.0261735, 0.00669522, 0.0135067, -0.000456939, -0.00950274
0.110209, 1.69288, -1.22806, -1.54036, -0.901427, -1.19704, 1.22848, -1.30259, 0.0533103, 0.00483778, -0.0175294, -0.00411191, -0.1199, -0.00247119, 0.00519783, 1.90803, 63.819, 31.3605, 6.54541, 1.89624, 4.19925, -0.0557752, -0.000661496, -0.00139527, 0.00274847, 0.00546002, -0.0030216, 0.000369666, 0.0291787, -0.0132093, -0.0094112, -0.0786775, 0.124799, 0.00448884, 0.470998, -0.542486, 0.336128, -2.08318, -2.16567, -0.129954, 0.469528, -0.542772, 0.333354, -2.08222, -2.16488, -0.120797, -0.000403753, 0.0266691, 0.00681784, 0.0134939, -0.000138264, -0.00741847
0.111209, 1.69294, -1.22806, -1.54038, -0.901438, -1.19716, 1.22848, -1.30259, 0.0477077, 0.00238997, -0.0189216, -0.006268, -0.122826, -0.00191858, 0.00382992, 1.83265, 63.8547, 31.3605, 6.69617, 1.89075, 4.20657, -0.0557752, -0.000691805, -0.00138239, 0.00276381, 0.00553966, -0.00313829, 0.000368031, 0.0326932, -0.010111, -0.0113362, -0.0810475, 0.125492, 0.000658633, 0.470998, -0.542459, 0.336135, -2.08317, -2.16566, -0.129956, 0.469541, -0.542772, 0.333341, -2.08221, -2.16491, -0.120593, -0.000415851, 0.0271686, 0.0069413, 0.0104437, -0.00293836, -0.00964875
0.112209, 1.69299, -1.22806, -1.5404, -0.90144, -1.19728, 1.22848, -1.3026, 0.044318, 0.00419177, -0.0192043, -0.00501408, -0.124743, -0.00233011, 0.00255554, 1.72157, 63.7436, 31.3248, 6.73187, 1.88434, 4.23495, -0.0484509, -0.000721966, -0.0013695, 0.00277204, 0.00561499, -0.00326326, 0.000364754, 0.0353141, -0.00754885, -0.010097, -0.081181, 0.128815, -0.00328921, 0.470997, -0.542432, 0.336142, -2.08315, -2.16566, -0.129958, 0.469554, -0.542773, 0.333335, -2.08221, -2.16495, -0.120385, -0.000428179, 0.027672, 0.00706559, 0.00801214, -0.00531875, -0.00863142
0.113209, 1.69304, -1.22805, -1.54041, -0.901448, -1.19741, 1.22848, -1.3026, 0.0449656, 0.00455775, -0.0186264, -0.0051061, -0.126526, -0.00182459, 0.000722043, 1.60651, 63.6682, 31.2494, 6.80725, 1.87244, 4.24228, -0.0164075, -0.000752561, -0.00135569, 0.0027806, 0.00568883, -0.00339192, 0.000357678, 0.0357709, -0.0079158, -0.00971714, -0.0810825, 0.131251, -0.00102211, 0.470997, -0.542404, 0.336149, -2.08313, -2.16565, -0.12996, 0.469569, -0.542774, 0.333328, -2.08221, -2.16499, -0.120175, -0.000440739, 0.0281791, 0.00719069, 0.00839643, -0.00530569, -0.00821413
0.114209, 1.69309, -1.22804, -1.54043, -0.901456, -1.19755, 1.22847, -1.30259, 0.0458548, 0.00470894, -0.0162505, -0.00516741, -0.12801, -0.00121634, 0.00209328, 1.60651, 63.5968, 31.2137, 6.88263, 1.87793, 4.24228, -0.0557752, -0.000787446, -0.00134745, 0.00278877, 0.00576561, -0.00352201, 0.000371676, 0.0357312, -0.00878605, -0.00882682, -0.0792151, 0.133179, -0.000782104, 0.470997, -0.542376, 0.336156, -2.08311, -2.16564, -0.129962, 0.469577, -0.542778, 0.333322, -2.08223, -2.16502, -0.119959, -0.000453532, 0.0286901, 0.0073166, 0.00928392, -0.00485681, -0.00723012
0.115209, 1.69314, -1.22804, -1.54045, -0.901459, -1.19767, 1.22847, -1.30259, 0.0502658, 0.00313929, -0.0152792, -0.00428024, -0.128474, -0.000810845, 0.00123965, 1.45576, 63.5968, 31.2137, 6.91833, 1.84772, 4.24228, -0.0484509, -0.00082218, -0.00133585, 0.00280193, 0.00584332, -0.00364637, 0.000376374, 0.0346419, -0.0112823, -0.00951989, -0.078522, 0.132577, 0.00403256, 0.470996, -0.542347, 0.336164, -2.08308, -2.16564, -0.129964, 0.469589, -0.542781, 0.33331, -2.08224, -2.16505, -0.119748, -0.00046656, 0.0292049, 0.00744332, 0.0116994, -0.00305654, -0.00769485
0.116209, 1.6932, -1.22804, -1.54047, -0.901467, -1.1978, 1.22847, -1.3026, 0.0535061, 0.0038561, -0.0135653, -0.00545201, -0.133004, -0.00576845, 0.00118424, 1.305, 63.5214, 31.1741, 7.02942, 1.81659, 4.25601, -0.0557752, -0.000853418, -0.00132222, 0.00281108, 0.00592098, -0.00377447, 0.000370782, 0.0333468, -0.0122298, -0.00929104, -0.0843281, 0.135034, 0.00763089, 0.470996, -0.542318, 0.336171, -2.08306, -2.16563, -0.129966, 0.469603, -0.542781, 0.333303, -2.08224, -2.16509, -0.119535, -0.000479825, 0.0297235, 0.00757084, 0.0125943, -0.00125553, -0.00716924
0.117209, 1.69326, -1.22804, -1.54048, -0.90147, -1.19794, 1.22847, -1.30259, 0.0573651, 0.00164271, -0.0153057, -0.00456274, -0.132594, -0.00373025, 0.000583138, 1.07887, 63.5611, 31.1384, 7.06909, 1.79828, 4.24228, -0.0484509, -0.000886608, -0.0013066, 0.00282378, 0.00599255, -0.00389846, 0.000369833, 0.0331308, -0.014346, -0.0111529, -0.0841488, 0.134047, 0.0106582, 0.470995, -0.542288, 0.336179, -2.08304, -2.16563, -0.129968, 0.469619, -0.542781, 0.333293, -2.08224, -2.16513, -0.119332, -0.000493328, 0.0302458, 0.00769914, 0.0146183, -0.000144808, -0.0089108
0.118209, 1.6933, -1.22804, -1.5405, -0.901476, -1.19807, 1.22846, -1.3026, 0.0503326, 0.00202316, -0.0163086, -0.0048051, -0.132822, -0.00305304, 0.000946067, 1.00349, 63.5214, 31.2137, 7.14447, 1.80469, 4.2496, -0.0621838, -0.000926612, -0.00130051, 0.00283593, 0.00607439, -0.00402836, 0.000382182, 0.0370098, -0.0103619, -0.010928, -0.0834407, 0.135185, 0.00304038, 0.470995, -0.542258, 0.336186, -2.08302, -2.16562, -0.129971, 0.469625, -0.542789, 0.333282, -2.08225, -2.16515, -0.119111, -0.000507072, 0.0307718, 0.00782823, 0.0107737, -0.00364658, -0.00904279
0.119209, 1.69335, -1.22804, -1.54052, -0.901483, -1.1982, 1.22846, -1.30259, 0.0502059, 0.000420754, -0.0141789, -0.00487386, -0.133152, -0.00225656, 0.000158596, 0.85273, 63.5611, 31.1741, 7.21588, 1.80469, 4.2496, -0.0484509, -0.000960538, -0.00128623, 0.00284894, 0.00614543, -0.00414873, 0.00037999, 0.0374436, -0.0108171, -0.0110908, -0.081084, 0.134503, 0.00474818, 0.470994, -0.542227, 0.336194, -2.083, -2.16561, -0.129973, 0.46964, -0.542789, 0.333271, -2.08225, -2.16518, -0.118912, -0.000521058, 0.0313016, 0.00795809, 0.0112241, -0.0035008, -0.00915586
0.120209, 1.6934, -1.22804, -1.54053, -0.901489, -1.19833, 1.22846, -1.30259, 0.0490576, 0.000280503, -0.0136874, -0.0050125, -0.133035, -0.00139901, 0.000404382, 0.737679, 63.5611, 31.1741, 7.29126, 1.81018, 4.24228, -0.0557752, -0.0009963, -0.00127444, 0.0028604, 0.00621621, -0.00426999, 0.000382924, 0.0384365, -0.0104595, -0.0109245, -0.0796491, 0.135025, 0.00381003, 0.470994, -0.542196, 0.336202, -2.08297, -2.16561, -0.129975, 0.469652, -0.54279, 0.333262, -2.08226, -2.16522, -0.118713, -0.000535288, 0.031835, 0.00808872, 0.0108947, -0.00398753, -0.00900542
0.121209, 1.69346, -1.22804, -1.54055, -0.901493, -1.19845, 1.22846, -1.30259, 0.0477116, 0.00195024, -0.0132081, -0.00334168, -0.13254, -0.000243297, 0.0010022, 0.511544, 63.4857, 31.1741, 7.29126, 1.79187, 4.2203, -0.0750012, -0.0010302, -0.0012592, 0.00286896, 0.00628245, -0.0043961, 0.000382377, 0.039847, -0.00964877, -0.0094106, -0.0767476, 0.137024, 0.000823009, 0.470993, -0.542164, 0.33621, -2.08295, -2.1656, -0.129978, 0.469668, -0.54279, 0.333256, -2.08226, -2.16526, -0.118514, -0.000549763, 0.0323721, 0.00822011, 0.0101769, -0.00510976, -0.00757508
0.122209, 1.69351, -1.22804, -1.54056, -0.901498, -1.19857, 1.22846, -1.30259, 0.0465413, -0.000463078, -0.0157201, -0.00717026, -0.132409, 0.000253108, 0.00020882, 0.400459, 63.5611, 31.1741, 7.36664, 1.79187, 4.20657, -0.0621838, -0.00106767, -0.00124778, 0.00288117, 0.00634877, -0.00451347, 0.000383496, 0.0405592, -0.00954934, -0.0121877, -0.0801853, 0.135615, 0.00275089, 0.470993, -0.542132, 0.336219, -2.08293, -2.16559, -0.12998, 0.469679, -0.542792, 0.333246, -2.08226, -2.16529, -0.118324, -0.000564485, 0.0329128, 0.00835225, 0.00998686, -0.00484675, -0.0102935
0.123209, 1.69356, -1.22803, -1.54056, -0.901507, -1.19869, 1.22846, -1.30259, 0.0459434, 0.00145452, -0.00920977, -0.00999262, -0.127451, 0.000370016, -0.000595219, 0.285408, 63.4857, 31.063, 7.44202, 1.78638, 4.19925, -0.0420422, -0.00110061, -0.00123266, 0.00288537, 0.00640512, -0.00463772, 0.000373463, 0.0380455, -0.0115383, -0.00915404, -0.0730494, 0.133722, 0.0102131, 0.470992, -0.542099, 0.336227, -2.0829, -2.16559, -0.129982, 0.469695, -0.54279, 0.333244, -2.08226, -2.16534, -0.118138, -0.000579456, 0.0334572, 0.00848514, 0.011979, -0.00220733, -0.00683535
0.124209, 1.6936, -1.22803, -1.54057, -0.901511, -1.19882, 1.22846, -1.30259, 0.0409488, 0.0018049, -0.0116925, -0.0103245, -0.124682, 0.000465453, 0.000120478, 0.245735, 63.45, 31.1384, 7.44202, 1.80469, 4.19192, -0.0557752, -0.00114145, -0.00122395, 0.00289484, 0.00646902, -0.0047608, 0.000384023, 0.0406728, -0.00868862, -0.00964756, -0.0731018, 0.132272, 0.00462689, 0.470991, -0.542066, 0.336235, -2.08288, -2.16558, -0.129985, 0.469704, -0.542795, 0.333237, -2.08228, -2.16537, -0.117944, -0.000594677, 0.0340052, 0.00861877, 0.00919452, -0.00429386, -0.00751196
0.125209, 1.69366, -1.22803, -1.54058, -0.901519, -1.19894, 1.22846, -1.30259, 0.0433475, 0.0052745, -0.0107299, -0.0124301, -0.121743, -0.00432465, 8.68167e-05, 0.0949785, 63.4103, 31.1027, 7.51739, 1.80469, 4.19192, -0.0557752, -0.00117445, -0.00120756, 0.00290306, 0.00653189, -0.00488081, 0.000374357, 0.0379476, -0.0100626, -0.00814823, -0.0760119, 0.131559, 0.010269, 0.470991, -0.542032, 0.336244, -2.08286, -2.16557, -0.129987, 0.469721, -0.542792, 0.333232, -2.08227, -2.16541, -0.117756, -0.000610151, 0.0345567, 0.00875313, 0.0105081, -0.00122679, -0.00551538
0.126209, 1.69371, -1.22802, -1.54059, -0.901519, -1.19905, 1.22846, -1.3026, 0.0429586, 0.0054487, -0.00812068, -0.0105736, -0.124141, -0.00275305, -0.00139531, 0.0196001, 63.3389, 31.1027, 7.44202, 1.79828, 4.17727, -0.0164075, -0.00121229, -0.00119504, 0.00290787, 0.00658629, -0.00500321, 0.000372382, 0.0393188, -0.00990263, -0.0067455, -0.0724177, 0.134527, 0.0102298, 0.47099, -0.541997, 0.336253, -2.08283, -2.16557, -0.12999, 0.469734, -0.542794, 0.333229, -2.08228, -2.16546, -0.117574, -0.000625878, 0.0351119, 0.00888822, 0.0104337, -0.0022483, -0.00420503
0.127209, 1.69375, -1.22802, -1.5406, -0.901525, -1.19917, 1.22846, -1.3026, 0.0417867, 0.00382892, -0.00913886, -0.0110328, -0.127236, -0.00241601, -0.00143518, -0.0161054, 63.3389, 31.1027, 7.44202, 1.823, 4.1846, -0.00267457, -0.0012497, -0.0011814, 0.00291598, 0.00664411, -0.00512339, 0.000368087, 0.0412863, -0.00890696, -0.00806893, -0.0745191, 0.136092, 0.0080699, 0.47099, -0.541962, 0.336262, -2.0828, -2.16556, -0.129992, 0.469748, -0.542793, 0.333224, -2.08228, -2.1655, -0.117391, -0.00064186, 0.0356705, 0.00902402, 0.0094459, -0.00346801, -0.00565289
0.128209, 1.6938, -1.22802, -1.54061, -0.901532, -1.19929, 1.22845, -1.3026, 0.0411821, 0.00446319, -0.0123631, -0.0121851, -0.124531, -0.0010628, -0.000445418, -0.0557783, 63.2635, 31.2137, 7.47772, 1.84131, 4.16354, -0.0164075, -0.00128935, -0.00116979, 0.00292635, 0.00670923, -0.00524472, 0.000371634, 0.0420062, -0.00879312, -0.00889346, -0.0751899, 0.13588, 0.00688835, 0.470989, -0.541926, 0.336271, -2.08278, -2.16555, -0.129995, 0.46976, -0.542795, 0.333216, -2.08228, -2.16553, -0.117198, -0.000658099, 0.0362327, 0.00916054, 0.00931182, -0.00349328, -0.00644003
0.129209, 1.69386, -1.22802, -1.54061, -0.90154, -1.19941, 1.22845, -1.3026, 0.0425476, 0.00215794, -0.00731423, -0.00904242, -0.116819, -0.00111991, -0.00104087, -0.166862, 63.3032, 31.1384, 7.47772, 1.8349, 4.16995, 0.00373412, -0.00132249, -0.00115093, 0.00293429, 0.00676078, -0.0053576, 0.000354774, 0.040544, -0.0106487, -0.00816252, -0.0660412, 0.12708, 0.01116, 0.470988, -0.54189, 0.33628, -2.08275, -2.16554, -0.129998, 0.469779, -0.542789, 0.333212, -2.08227, -2.16559, -0.117031, -0.000674597, 0.0367984, 0.00929776, 0.0111227, -0.00152026, -0.00541096
0.130209, 1.69391, -1.22802, -1.54062, -0.901549, -1.19952, 1.22845, -1.3026, 0.0487138, 0.00372258, -0.00839928, -0.0107586, -0.116647, -0.000639766, -0.00140445, -0.242241, 63.3389, 31.1384, 7.51739, 1.85962, 4.16354, 0.0229602, -0.00135662, -0.00113287, 0.00294406, 0.00681931, -0.00547215, 0.000342476, 0.037976, -0.014379, -0.00818987, -0.0680019, 0.129582, 0.0186675, 0.470988, -0.541853, 0.336289, -2.08273, -2.16554, -0.13, 0.469797, -0.542784, 0.333206, -2.08225, -2.16563, -0.116854, -0.000691354, 0.0373675, 0.00943568, 0.0147378, 0.00174278, -0.00501494
0.131209, 1.69396, -1.22802, -1.54063, -0.90155, -1.19964, 1.22845, -1.3026, 0.0468648, 0.0027969, -0.00807406, -0.00866166, -0.116153, 0.000289405, -0.000697785, -0.166862, 63.3389, 31.2137, 7.40631, 1.89075, 4.14157, 0.0165515, -0.00140039, -0.0011232, 0.00295368, 0.00687104, -0.00558647, 0.000351898, 0.0400232, -0.0131701, -0.00819492, -0.0653677, 0.128862, 0.0146826, 0.470987, -0.541816, 0.336299, -2.0827, -2.16553, -0.130003, 0.469807, -0.542788, 0.333199, -2.08227, -2.16566, -0.116682, -0.000708374, 0.0379402, 0.00957429, 0.0135873, 0.000245796, -0.00516443
0.132209, 1.69401, -1.22802, -1.54063, -0.901557, -1.19975, 1.22845, -1.3026, 0.0485842, -0.00049747, -0.00498817, -0.00888276, -0.111363, 0.00039079, -0.000701682, -0.206535, 63.45, 31.1741, 7.36664, 1.90906, 4.13424, 0.0229602, -0.0014372, -0.001106, 0.00296478, 0.00692357, -0.00569559, 0.000340852, 0.0385124, -0.0153476, -0.00920811, -0.0608829, 0.121999, 0.0197688, 0.470986, -0.541778, 0.336308, -2.08267, -2.16552, -0.130006, 0.469824, -0.542784, 0.333191, -2.08226, -2.16571, -0.116517, -0.000725657, 0.0385162, 0.00971358, 0.015653, 0.00256037, -0.00585761
0.133209, 1.69406, -1.22802, -1.54063, -0.901564, -1.19986, 1.22845, -1.3026, 0.0489382, 0.00160888, -0.00465357, -0.00995812, -0.112274, 0.000714092, 0.000482299, -0.206535, 63.3746, 31.2137, 7.36664, 1.91546, 4.12051, -0.00267457, -0.00147419, -0.00109027, 0.00297006, 0.00697618, -0.00581419, 0.000332144, 0.0385786, -0.015762, -0.00803108, -0.0609927, 0.125516, 0.0197322, 0.470985, -0.541739, 0.336318, -2.08264, -2.16551, -0.130009, 0.469841, -0.54278, 0.333189, -2.08225, -2.16575, -0.116342, -0.000743204, 0.0390957, 0.00985355, 0.0160951, 0.00291005, -0.00457962
0.134209, 1.69411, -1.22801, -1.54063, -0.901573, -1.19998, 1.22845, -1.3026, 0.052724, 0.00287599, -0.00423768, -0.00993137, -0.113084, 0.00151983, -0.000152698, -0.206535, 63.3032, 31.2494, 7.33093, 1.93378, 4.09122, 0.0101428, -0.00151244, -0.00107358, 0.00297515, 0.00702593, -0.00593785, 0.000324109, 0.0375416, -0.0179867, -0.00730557, -0.0606455, 0.128362, 0.0240306, 0.470985, -0.5417, 0.336328, -2.08262, -2.1655, -0.130011, 0.469858, -0.542777, 0.333187, -2.08225, -2.16581, -0.116165, -0.000761018, 0.0396786, 0.00999418, 0.0182885, 0.00449685, -0.00363031
0.135209, 1.69416, -1.22802, -1.54064, -0.901585, -1.20009, 1.22844, -1.3026, 0.052282, 0.00350587, -0.0039782, -0.00842814, -0.10897, -0.00344531, -0.000338791, -0.206535, 63.3746, 31.2891, 7.36664, 1.95758, 4.08389, 0.0165515, -0.00154972, -0.00105564, 0.00298813, 0.00708375, -0.00604856, 0.000310069, 0.0373434, -0.0169874, -0.00709712, -0.0618698, 0.123419, 0.0239694, 0.470984, -0.541661, 0.336338, -2.08259, -2.1655, -0.130014, 0.469876, -0.542772, 0.333178, -2.08223, -2.16585, -0.115993, -0.000779099, 0.0402649, 0.0101355, 0.0172731, 0.00520568, -0.00322251
0.136209, 1.69421, -1.22801, -1.54064, -0.901589, -1.20021, 1.22844, -1.3026, 0.0513889, 0.00434575, -0.00189291, -0.00374931, -0.110404, -0.00247431, 1.17725e-05, -0.166862, 63.3032, 31.2494, 7.25555, 1.9704, 4.07748, 0.0101428, -0.00158905, -0.00104077, 0.00299144, 0.00712938, -0.00616609, 0.000304738, 0.0396033, -0.015808, -0.00512587, -0.0573256, 0.125754, 0.0191811, 0.470983, -0.54162, 0.336348, -2.08256, -2.16549, -0.130017, 0.469891, -0.542769, 0.333179, -2.08223, -2.1659, -0.115827, -0.00079745, 0.0408545, 0.0102774, 0.0162315, 0.0032111, -0.00145185
0.137209, 1.69426, -1.22802, -1.54064, -0.901602, -1.20032, 1.22844, -1.3026, 0.0502037, 0.00148028, -0.00315178, -0.0103158, -0.111998, -0.00141811, -0.000466664, -0.131157, 63.3746, 31.3248, 7.29126, 1.9823, 4.06283, 0.0229602, -0.00162738, -0.00102352, 0.00300258, 0.00718377, -0.00627729, 0.000289931, 0.0397459, -0.0164537, -0.00805508, -0.0612954, 0.125788, 0.023222, 0.470982, -0.541579, 0.336358, -2.08253, -2.16548, -0.13002, 0.469908, -0.542763, 0.333171, -2.08222, -2.16595, -0.115658, -0.000816072, 0.0414475, 0.01042, 0.016755, 0.0041439, -0.00424434
0.138209, 1.69432, -1.22802, -1.54064, -0.901614, -1.20043, 1.22844, -1.3026, 0.0504062, 0.00117702, -0.00303135, -0.00782348, -0.112699, -0.000636193, 0.000163763, -0.131157, 63.3746, 31.3605, 7.29126, 2.00061, 4.04819, 0.0101428, -0.00166518, -0.00100394, 0.00301218, 0.00723415, -0.00639221, 0.000275199, 0.0412287, -0.0160999, -0.00783097, -0.0595912, 0.126658, 0.0204832, 0.470982, -0.541538, 0.336369, -2.0825, -2.16547, -0.130023, 0.469928, -0.542757, 0.333166, -2.0822, -2.166, -0.11549, -0.000834967, 0.0420438, 0.0105633, 0.0164449, 0.00322768, -0.00410153
0.139209, 1.69437, -1.22801, -1.54064, -0.901624, -1.20054, 1.22844, -1.30259, 0.0487976, 0.00176252, -0.00209211, -0.00912147, -0.116931, -0.00452362, 0.000855276, -0.0557783, 63.3389, 31.3605, 7.29126, 1.98871, 4.02713, -0.00999879, -0.00170584, -0.000987834, 0.00301703, 0.00727697, -0.00651052, 0.000267961, 0.0423585, -0.0144512, -0.00762412, -0.0643039, 0.129225, 0.0183895, 0.470981, -0.541496, 0.336379, -2.08247, -2.16546, -0.130026, 0.469945, -0.542754, 0.333165, -2.0822, -2.16605, -0.115327, -0.000854135, 0.0426434, 0.0107072, 0.0148278, 0.0026122, -0.00388011
0.140209, 1.69442, -1.22802, -1.54064, -0.901636, -1.20065, 1.22844, -1.30259, 0.0480068, -0.000388459, -0.00144815, -0.0100148, -0.115313, -0.00299649, 6.16448e-05, -0.131157, 63.4103, 31.3605, 7.29126, 1.9704, 4.01248, 0.00373412, -0.00174258, -0.000966273, 0.00302812, 0.00732548, -0.00661873, 0.000245562, 0.0429677, -0.0148219, -0.0086599, -0.0620235, 0.126955, 0.0201319, 0.47098, -0.541453, 0.33639, -2.08244, -2.16545, -0.130029, 0.469966, -0.542745, 0.333158, -2.08218, -2.16611, -0.115169, -0.000873578, 0.0432462, 0.0108517, 0.0151626, 0.00279003, -0.00486588
0.141209, 1.69447, -1.22802, -1.54065, -0.901644, -1.20076, 1.22844, -1.30259, 0.0500562, 0.00296938, -0.00193351, -0.0098896, -0.110367, -0.00239012, 4.11617e-05, -0.0557783, 63.4103, 31.4002, 7.25555, 1.97681, 4.01248, 0.00373412, -0.00178735, -0.000952824, 0.00303631, 0.00737443, -0.00673649, 0.000242521, 0.0415873, -0.0164643, -0.00694689, -0.0594628, 0.127074, 0.0234626, 0.470979, -0.54141, 0.336401, -2.08241, -2.16544, -0.130032, 0.46998, -0.542744, 0.333153, -2.08218, -2.16615, -0.114998, -0.000893298, 0.0438524, 0.0109968, 0.0167966, 0.004562, -0.00286585
0.142209, 1.69452, -1.22802, -1.54064, -0.901656, -1.20087, 1.22844, -1.3026, 0.0482302, 0.000538865, -0.000391028, -0.0106987, -0.110322, -0.00549321, 0.000773475, -0.0914839, 63.4857, 31.3605, 7.25555, 1.95209, 3.9841, -0.0164075, -0.00182611, -0.000931331, 0.00304643, 0.00741438, -0.00684419, 0.000221714, 0.0423595, -0.0153725, -0.00816483, -0.0609705, 0.123435, 0.0224712, 0.470978, -0.541366, 0.336412, -2.08237, -2.16543, -0.130036, 0.470001, -0.542735, 0.333148, -2.08216, -2.16621, -0.11485, -0.000913297, 0.0444617, 0.0111426, 0.0156694, 0.00455308, -0.00401057
0.143209, 1.69457, -1.22802, -1.54064, -0.901669, -1.20097, 1.22844, -1.3026, 0.0439578, 0.00143635, 0.0071845, -0.0120337, -0.110984, -0.00454221, 0.000753046, -0.0161054, 63.45, 31.2891, 7.29126, 1.95758, 3.99142, -0.0228162, -0.00186763, -0.000916052, 0.0030507, 0.0074553, -0.00695729, 0.00020933, 0.0430593, -0.0146955, -0.00487723, -0.053588, 0.125262, 0.0228732, 0.470977, -0.541322, 0.336423, -2.08234, -2.16542, -0.130039, 0.470017, -0.542731, 0.333148, -2.08215, -2.16626, -0.114694, -0.000933575, 0.0450743, 0.0112889, 0.0151202, 0.00393802, -0.000708181
0.144209, 1.69462, -1.22801, -1.54064, -0.901681, -1.20108, 1.22844, -1.3026, 0.0451876, 0.002067, 0.00358544, -0.0122297, -0.106577, -0.00294221, 0.000739417, -0.131157, 63.4103, 31.3605, 7.29126, 1.95209, 3.97677, -0.0292249, -0.00190774, -0.000895594, 0.00305851, 0.00750562, -0.00707771, 0.000192972, 0.0430694, -0.0155707, -0.00578554, -0.0533985, 0.123808, 0.0240648, 0.470976, -0.541277, 0.336434, -2.08231, -2.16541, -0.130042, 0.470038, -0.542723, 0.333144, -2.08213, -2.16631, -0.114521, -0.000954135, 0.0456901, 0.0114359, 0.0159407, 0.00472139, -0.0014878
0.145209, 1.69466, -1.22802, -1.54064, -0.901694, -1.20119, 1.22844, -1.30259, 0.0382185, -0.00024918, 0.00357517, -0.0123246, -0.108588, -0.0017614, 0.000967683, -0.0557783, 63.4857, 31.3248, 7.29126, 1.94568, 3.96213, -0.0420422, -0.00195375, -0.000880952, 0.00306825, 0.007547, -0.00718903, 0.000186717, 0.047511, -0.0117095, -0.0067364, -0.0523647, 0.123949, 0.0164608, 0.470975, -0.541231, 0.336446, -2.08228, -2.1654, -0.130045, 0.470053, -0.542721, 0.333138, -2.08213, -2.16636, -0.114367, -0.000974976, 0.0463091, 0.0115835, 0.0121897, 0.000943754, -0.0028549
0.146209, 1.69471, -1.22802, -1.54064, -0.901709, -1.2013, 1.22844, -1.3026, 0.0430254, -6.40747e-05, 0.0034809, -0.0132854, -0.110044, -0.000651212, -0.000541657, -0.131157, 63.4857, 31.2891, 7.33093, 1.95209, 3.94107, -0.00999879, -0.00199602, -0.000861815, 0.00307576, 0.00758829, -0.0073052, 0.000166356, 0.0461337, -0.0146431, -0.00699212, -0.0532051, 0.126579, 0.0230757, 0.470974, -0.541185, 0.336457, -2.08224, -2.16539, -0.130049, 0.470072, -0.542714, 0.333135, -2.08211, -2.16642, -0.114208, -0.000996102, 0.0469312, 0.0117316, 0.0150392, 0.00308741, -0.00283605
0.147209, 1.69476, -1.22801, -1.54064, -0.901721, -1.2014, 1.22844, -1.30259, 0.0457552, 0.00263227, 0.000846849, -0.00894951, -0.106441, -0.000626772, 0.000825702, -0.166862, 63.3746, 31.3605, 7.29126, 1.95209, 3.94107, -0.0420422, -0.00203994, -0.000846544, 0.0030801, 0.0076356, -0.00742487, 0.000160396, 0.0464323, -0.0151002, -0.00592961, -0.0518185, 0.126655, 0.0205339, 0.470973, -0.541138, 0.336469, -2.08221, -2.16538, -0.130052, 0.470088, -0.542709, 0.333135, -2.0821, -2.16646, -0.114038, -0.00101751, 0.0475565, 0.0118804, 0.0155247, 0.0032728, -0.00170057
0.148209, 1.6948, -1.22802, -1.54064, -0.901732, -1.20151, 1.22844, -1.30259, 0.0437581, -0.000786207, 0.000712077, -0.0090783, -0.103785, 0.000251481, 0.000787835, -0.166862, 63.4857, 31.3605, 7.25555, 1.96399, 3.9191, -0.0484509, -0.0020887, -0.000832374, 0.0030912, 0.00767555, -0.00753459, 0.000155537, 0.0478382, -0.0145075, -0.00787813, -0.049857, 0.121909, 0.0196611, 0.470972, -0.54109, 0.336481, -2.08218, -2.16537, -0.130056, 0.470102, -0.542707, 0.333128, -2.0821, -2.16651, -0.113887, -0.00103921, 0.0481849, 0.0120297, 0.0148901, 0.00279151, -0.00367771
0.149209, 1.69485, -1.22801, -1.54064, -0.901745, -1.20161, 1.22844, -1.30259, 0.0469374, 0.00128215, 0.000585351, -0.0100416, -0.101739, 5.92991e-05, -0.000424206, -0.242241, 63.4103, 31.3605, 7.25555, 1.96399, 3.9191, -0.0228162, -0.00213218, -0.00081398, 0.00309622, 0.007716, -0.00765184, 0.000140752, 0.0461956, -0.016643, -0.00707274, -0.0498167, 0.122853, 0.0254818, 0.470971, -0.541042, 0.336493, -2.08214, -2.16536, -0.130059, 0.470121, -0.5427, 0.333128, -2.08209, -2.16656, -0.113728, -0.0010612, 0.0488164, 0.0121795, 0.0169713, 0.00500879, -0.00254351
0.150209, 1.6949, -1.22801, -1.54063, -0.901765, -1.20172, 1.22844, -1.30259, 0.0452876, 0.000887055, 0.00214365, -0.0125929, -0.104906, -4.17334e-05, 0.000429278, -0.281914, 63.4103, 31.2891, 7.33093, 1.97681, 3.9191, -0.0420422, -0.00217691, -0.000796901, 0.00310227, 0.00775611, -0.00776887, 0.000127527, 0.0471523, -0.0161956, -0.00706756, -0.0508581, 0.125538, 0.0249769, 0.47097, -0.540993, 0.336505, -2.08211, -2.16535, -0.130063, 0.470138, -0.542694, 0.333127, -2.08207, -2.16662, -0.11357, -0.00108347, 0.049451, 0.01233, 0.0165375, 0.00468032, -0.00252514
0.151209, 1.69494, -1.228, -1.54063, -0.901778, -1.20182, 1.22844, -1.30259, 0.047232, 0.00542433, 0.00241935, -0.0115857, -0.101633, 0.00123366, 0.000523548, -0.317619, 63.3389, 31.2494, 7.29126, 1.96399, 3.88339, -0.0484509, -0.00222353, -0.000780307, 0.00310453, 0.00778811, -0.00788893, 0.000117625, 0.0462427, -0.0176301, -0.00420214, -0.0472815, 0.128422, 0.0270999, 0.470969, -0.540944, 0.336517, -2.08207, -2.16534, -0.130066, 0.470155, -0.542689, 0.333129, -2.08207, -2.16667, -0.113417, -0.00110604, 0.0500886, 0.012481, 0.0180212, 0.0058316, 0.000550873
0.152209, 1.69498, -1.228, -1.54064, -0.901797, -1.20192, 1.22844, -1.30259, 0.0447739, 0.00389591, -0.000938884, -0.0161105, -0.100574, 0.000776725, 0.000349035, -0.317619, 63.3389, 31.3605, 7.33093, 1.9823, 3.88339, -0.0484509, -0.00227293, -0.000766928, 0.00311483, 0.00783305, -0.00800084, 0.000109913, 0.0472365, -0.0167323, -0.00687511, -0.0518841, 0.126808, 0.0276424, 0.470968, -0.540894, 0.33653, -2.08203, -2.16533, -0.13007, 0.470169, -0.542686, 0.333123, -2.08206, -2.16672, -0.113258, -0.0011289, 0.0507293, 0.0126325, 0.0170389, 0.00586917, -0.00206542
0.153209, 1.69502, -1.228, -1.54064, -0.901812, -1.20202, 1.22844, -1.30259, 0.0478185, 0.00337156, 0.000244301, -0.0173356, -0.0948929, 0.000483533, 0.000503959, -0.392998, 63.45, 31.3248, 7.29126, 2.00061, 3.88339, -0.0557752, -0.00232, -0.000749873, 0.00312508, 0.00786919, -0.00810458, 9.65507e-05, 0.0448284, -0.0195219, -0.00718151, -0.0494133, 0.122086, 0.0340913, 0.470967, -0.540843, 0.336542, -2.082, -2.16532, -0.130073, 0.470186, -0.542679, 0.333118, -2.08204, -2.16676, -0.113118, -0.00115205, 0.051373, 0.0127846, 0.019703, 0.00905408, -0.00192723
0.154209, 1.69506, -1.228, -1.54064, -0.901831, -1.2021, 1.22844, -1.30259, 0.0482889, 0.00443185, 0.000189121, -0.0162287, -0.0945132, 0.000296642, 6.4707e-05, -0.392998, 63.3746, 31.3248, 7.29126, 1.99512, 3.88339, -0.0484509, -0.00236706, -0.000734769, 0.00313022, 0.00790299, -0.00821288, 8.25175e-05, 0.0454281, -0.0195184, -0.0065109, -0.0487691, 0.123121, 0.0341479, 0.470966, -0.540792, 0.336555, -2.08196, -2.16531, -0.130077, 0.470201, -0.542673, 0.333117, -2.08203, -2.16682, -0.112976, -0.0011755, 0.0520197, 0.0129373, 0.0197231, 0.00900537, -0.00120786
0.155209, 1.6951, -1.22799, -1.54063, -0.901855, -1.2022, 1.22844, -1.30259, 0.0463774, 0.00726969, 0.000980989, -0.01717, -0.0905044, 0.000687103, -0.000906297, -0.43267, 63.3389, 31.2891, 7.36664, 2.00702, 3.86966, -0.0228162, -0.00241255, -0.00071642, 0.00313741, 0.00793772, -0.00832182, 5.87382e-05, 0.0454811, -0.0192673, -0.00461062, -0.0456467, 0.123283, 0.0357628, 0.470965, -0.54074, 0.336568, -2.08192, -2.1653, -0.130081, 0.47022, -0.542664, 0.333116, -2.082, -2.16688, -0.112833, -0.00119924, 0.0526694, 0.0130904, 0.0195216, 0.00929804, 0.000819173
0.156209, 1.69514, -1.22799, -1.54064, -0.901867, -1.20228, 1.22844, -1.30259, 0.0431779, 0.00711014, -0.000166458, -0.0172941, -0.0866207, 0.000714872, 0.00010788, -0.392998, 63.2635, 31.3248, 7.29126, 2.00702, 3.86233, -0.0420422, -0.00246389, -0.000704879, 0.00314121, 0.00796888, -0.00842935, 5.6822e-05, 0.0470233, -0.0177421, -0.00501202, -0.0442644, 0.120399, 0.0324988, 0.470963, -0.540687, 0.336581, -2.08189, -2.16528, -0.130085, 0.470232, -0.542661, 0.333116, -2.082, -2.16692, -0.112693, -0.00122328, 0.0533221, 0.0132441, 0.0180158, 0.00842786, 0.000381066
0.157209, 1.69517, -1.22798, -1.54063, -0.901893, -1.20237, 1.22844, -1.30259, 0.0427004, 0.00832244, 0.000735322, -0.0172409, -0.0800339, 0.00100827, 0.00030928, -0.43267, 63.2635, 31.2891, 7.33093, 2.03174, 3.84768, -0.0484509, -0.00251077, -0.000688149, 0.003147, 0.00800033, -0.00853605, 3.79768e-05, 0.0463485, -0.018396, -0.00398392, -0.0398162, 0.11674, 0.0344357, 0.470962, -0.540634, 0.336594, -2.08185, -2.16527, -0.130089, 0.470249, -0.542652, 0.333116, -2.08198, -2.16697, -0.112556, -0.00124762, 0.0539777, 0.0133983, 0.0186587, 0.00961777, 0.00163384
0.158209, 1.69521, -1.22798, -1.54063, -0.901918, -1.20245, 1.22844, -1.30259, 0.0388962, 0.00433381, -0.000336696, -0.0201069, -0.0787, 0.000935311, -0.000743249, -0.468376, 63.3389, 31.3248, 7.36664, 2.03174, 3.84036, -0.0228162, -0.0025592, -0.000671689, 0.00315859, 0.00803493, -0.00863354, 1.68077e-05, 0.0481901, -0.0169241, -0.0069653, -0.0411788, 0.112301, 0.0343149, 0.470961, -0.54058, 0.336608, -2.08181, -2.16526, -0.130092, 0.470265, -0.542643, 0.33311, -2.08195, -2.16703, -0.112425, -0.00127226, 0.0546363, 0.013553, 0.0171202, 0.00886081, -0.00139873
0.159209, 1.69524, -1.22798, -1.54063, -0.901938, -1.20253, 1.22844, -1.30259, 0.0369582, 0.0064526, 0.00265659, -0.0173937, -0.0786033, 0.00112606, 0.000216578, -0.392998, 63.3389, 31.3248, 7.33093, 2.04364, 3.82663, -0.0420422, -0.00261327, -0.000661461, 0.00316399, 0.00806225, -0.00873856, 1.41497e-05, 0.0497121, -0.0157667, -0.00421043, -0.0364412, 0.114394, 0.0305263, 0.47096, -0.540525, 0.336621, -2.08177, -2.16525, -0.130096, 0.470276, -0.54264, 0.333109, -2.08195, -2.16707, -0.112292, -0.0012972, 0.0552977, 0.0137082, 0.0160979, 0.00754467, 0.00127204
0.160209, 1.69527, -1.22797, -1.54063, -0.901957, -1.20262, 1.22844, -1.30259, 0.0339825, 0.00875292, 0.00118008, -0.018628, -0.0789344, 0.000746134, -0.00104241, -0.392998, 63.3032, 31.3605, 7.29126, 2.07477, 3.82663, -0.00999879, -0.00266531, -0.000649485, 0.00316962, 0.00809365, -0.00884179, 1.42089e-06, 0.0514685, -0.0139627, -0.0034697, -0.0380109, 0.117343, 0.0291077, 0.470958, -0.54047, 0.336635, -2.08173, -2.16524, -0.1301, 0.470288, -0.542635, 0.333109, -2.08193, -2.16711, -0.112158, -0.00132244, 0.0559621, 0.013864, 0.0143632, 0.00628571, 0.00193841
0.161209, 1.6953, -1.22797, -1.54063, -0.901984, -1.20269, 1.22844, -1.30259, 0.0348279, 0.00714892, 0.000969902, -0.0212574, -0.0777771, 0.00049399, -0.00120357, -0.392998, 63.4103, 31.3605, 7.33093, 2.07477, 3.82663, 0.00373412, -0.00271544, -0.000633714, 0.0031805, 0.00811986, -0.00893378, -1.89695e-05, 0.0509366, -0.0151046, -0.00496958, -0.0392407, 0.11543, 0.0327803, 0.470957, -0.540414, 0.336649, -2.08169, -2.16522, -0.130104, 0.470304, -0.542626, 0.333104, -2.0819, -2.16716, -0.112042, -0.00134799, 0.0566293, 0.0140202, 0.015403, 0.00775919, 0.00065992
0.162209, 1.69534, -1.22796, -1.54063, -0.902006, -1.20277, 1.22844, -1.3026, 0.0371853, 0.00720947, 0.0016192, -0.0174134, -0.0783006, 0.000869287, -0.00151445, -0.43267, 63.3389, 31.3248, 7.25555, 2.10498, 3.81198, 0.0229602, -0.00276592, -0.000619385, 0.00318254, 0.00814398, -0.00903871, -3.59358e-05, 0.0517157, -0.0156943, -0.00430801, -0.0369858, 0.116275, 0.0322327, 0.470956, -0.540357, 0.336663, -2.08165, -2.16521, -0.130108, 0.470319, -0.542618, 0.333107, -2.08188, -2.16722, -0.111914, -0.00137384, 0.0572994, 0.0141769, 0.0160195, 0.00758277, 0.00132735
0.163209, 1.69537, -1.22795, -1.54064, -0.902032, -1.20284, 1.22844, -1.30259, 0.0309242, 0.00622134, -0.00141595, -0.0186018, -0.0737532, 0.0013914, 0.000923144, -0.43267, 63.3032, 31.4359, 7.21588, 2.12421, 3.79001, -0.0292249, -0.0028208, -0.000607767, 0.00319101, 0.00817695, -0.00914288, -3.89622e-05, 0.0547149, -0.0125363, -0.00581013, -0.0366146, 0.112395, 0.024799, 0.470954, -0.5403, 0.336677, -2.08161, -2.1652, -0.130113, 0.470331, -0.542613, 0.333104, -2.08187, -2.16726, -0.111776, -0.0014, 0.0579723, 0.0143341, 0.012893, 0.00539767, -0.000371428
0.164209, 1.69539, -1.22796, -1.54064, -0.902058, -1.20292, 1.22844, -1.30259, 0.0325312, 0.00427608, -0.0017019, -0.0228051, -0.0741694, 0.00170604, 0.00109015, -0.43267, 63.45, 31.4716, 7.18018, 2.1297, 3.76895, -0.0420422, -0.00287655, -0.000595724, 0.00320431, 0.00820379, -0.00923277, -4.83693e-05, 0.053805, -0.0143786, -0.00774242, -0.0390317, 0.111895, 0.0297258, 0.470953, -0.540242, 0.336692, -2.08157, -2.16519, -0.130117, 0.470343, -0.542608, 0.333096, -2.08185, -2.16729, -0.111661, -0.00142646, 0.058648, 0.0144917, 0.0146013, 0.00734947, -0.00203812
0.165209, 1.69542, -1.22795, -1.54064, -0.902089, -1.20299, 1.22844, -1.30259, 0.0315172, 0.00343748, -0.00107664, -0.0237517, -0.0756037, 0.00140754, 0.000489406, -0.468376, 63.45, 31.4716, 7.18018, 2.15442, 3.76163, -0.0356336, -0.00292835, -0.000581066, 0.00321053, 0.00822829, -0.00933193, -6.8201e-05, 0.0548722, -0.013934, -0.00816163, -0.0396281, 0.11258, 0.0300411, 0.470951, -0.540183, 0.336706, -2.08153, -2.16517, -0.130121, 0.470357, -0.542598, 0.333096, -2.08183, -2.16735, -0.111539, -0.00145324, 0.0593266, 0.0146499, 0.014154, 0.00702204, -0.00244913
0.166209, 1.69544, -1.22794, -1.54064, -0.902118, -1.20306, 1.22844, -1.30259, 0.0288824, 0.00776994, -0.000674292, -0.0266071, -0.0755287, 0.00066628, 0.00334487, -0.43267, 63.3746, 31.4716, 7.14447, 2.16083, 3.76895, -0.00267457, -0.00298266, -0.000570036, 0.00321367, 0.00825136, -0.009433, -8.44082e-05, 0.0553147, -0.0129588, -0.00583497, -0.0402936, 0.117105, 0.0272535, 0.47095, -0.540124, 0.336721, -2.08148, -2.16516, -0.130125, 0.470369, -0.542592, 0.333098, -2.08181, -2.1674, -0.111417, -0.00148032, 0.0600079, 0.0148084, 0.013257, 0.00686471, -3.46104e-05
0.167209, 1.69546, -1.22794, -1.54064, -0.902152, -1.20312, 1.22844, -1.30259, 0.0238135, 0.00578292, -0.00134495, -0.0307925, -0.0704744, 0.00125738, 0.00427861, -0.392998, 63.3746, 31.5113, 7.18018, 2.14801, 3.74698, -0.0484509, -0.00303808, -0.000559335, 0.00322295, 0.00827841, -0.0095257, -9.02096e-05, 0.0564158, -0.0116484, -0.00756417, -0.0392403, 0.112009, 0.0264533, 0.470949, -0.540064, 0.336735, -2.08144, -2.16515, -0.130129, 0.47038, -0.542584, 0.333095, -2.08179, -2.16744, -0.111298, -0.00150772, 0.0606919, 0.0149675, 0.0118966, 0.00667687, -0.00171606
0.168209, 1.69548, -1.22794, -1.54063, -0.902179, -1.20319, 1.22844, -1.30259, 0.0234306, 0.00254427, 0.000891059, -0.0278608, -0.066918, 0.00134642, 0.00193057, -0.357292, 63.45, 31.4359, 7.1048, 2.14801, 3.73324, -0.0164075, -0.00309584, -0.000549476, 0.00323094, 0.00829098, -0.00961033, -0.000106112, 0.0573012, -0.0116538, -0.00830403, -0.0342535, 0.105964, 0.0282335, 0.470947, -0.540003, 0.33675, -2.0814, -2.16513, -0.130134, 0.47039, -0.542579, 0.333093, -2.08177, -2.16748, -0.111204, -0.00153542, 0.0613787, 0.015127, 0.0118792, 0.00660586, -0.00242799
0.169209, 1.6955, -1.22794, -1.54064, -0.902213, -1.20325, 1.22845, -1.30259, 0.0216299, 0.00120013, -0.00198608, -0.0265469, -0.0596211, 0.00116854, 0.000977138, -0.392998, 63.4857, 31.547, 7.06909, 2.14801, 3.72592, -0.00267457, -0.00315412, -0.000538966, 0.00324219, 0.00831593, -0.00970227, -0.000119738, 0.0584605, -0.0106573, -0.00991838, -0.0326183, 0.0990429, 0.027403, 0.470946, -0.539942, 0.336766, -2.08135, -2.16512, -0.130138, 0.4704, -0.542573, 0.333087, -2.08174, -2.16753, -0.111089, -0.00156344, 0.0620682, 0.0152869, 0.0108381, 0.00636136, -0.00401424
0.170209, 1.69552, -1.22793, -1.54064, -0.902251, -1.20331, 1.22845, -1.3026, 0.0192887, 0.00105446, -0.00047508, -0.0303456, -0.0582146, 0.00105003, 0.000325745, -0.392998, 63.4857, 31.5113, 7.1048, 2.1297, 3.7186, 0.0101428, -0.00320852, -0.000525853, 0.00324936, 0.00833086, -0.0097896, -0.00014269, 0.0584937, -0.010603, -0.00993424, -0.0320431, 0.0983395, 0.0303202, 0.470944, -0.53988, 0.336781, -2.08131, -2.16511, -0.130143, 0.470414, -0.542563, 0.333086, -2.08171, -2.16758, -0.110991, -0.00159178, 0.0627604, 0.0154473, 0.0107566, 0.00702183, -0.00387508
0.171209, 1.69554, -1.22792, -1.54063, -0.902289, -1.20337, 1.22845, -1.30259, 0.0167891, 0.00665271, 0.000621616, -0.0365294, -0.0578161, 0.000428562, 0.00080366, -0.357292, 63.3746, 31.4716, 7.14447, 2.12421, 3.72592, -0.00267457, -0.00326469, -0.000515932, 0.00325149, 0.00834731, -0.00988571, -0.000157458, 0.0575889, -0.0106066, -0.00707594, -0.0333332, 0.10418, 0.0333757, 0.470942, -0.539817, 0.336796, -2.08126, -2.16509, -0.130147, 0.470424, -0.542554, 0.33309, -2.08169, -2.16763, -0.110881, -0.00162043, 0.0634553, 0.0156081, 0.0108065, 0.0081658, -0.000752981
0.172209, 1.69556, -1.22792, -1.54063, -0.902323, -1.20342, 1.22845, -1.30259, 0.018329, 0.00528539, -0.000505873, -0.0351296, -0.0577634, 0.000828098, 0.00184031, -0.468376, 63.4857, 31.5113, 7.06909, 2.1297, 3.71127, -0.0356336, -0.00332112, -0.000501614, 0.00326368, 0.00836628, -0.00996925, -0.000173979, 0.0584281, -0.0110678, -0.00817886, -0.0334821, 0.103474, 0.0321964, 0.470941, -0.539753, 0.336812, -2.08122, -2.16508, -0.130152, 0.470438, -0.542544, 0.333085, -2.08166, -2.16767, -0.110782, -0.00164939, 0.0641529, 0.0157694, 0.0112277, 0.00822689, -0.00182884
0.173209, 1.69557, -1.22791, -1.54063, -0.902366, -1.20348, 1.22845, -1.3026, 0.0159161, 0.0058452, -0.000331446, -0.0394175, -0.0574721, 0.000551957, -0.000643031, -0.43267, 63.4103, 31.5113, 7.06909, 2.12421, 3.71127, 0.0165515, -0.00337894, -0.000493128, 0.00326865, 0.00838869, -0.0100632, -0.000195886, 0.0587734, -0.0106791, -0.00832607, -0.0348979, 0.104436, 0.0362753, 0.470939, -0.539689, 0.336828, -2.08117, -2.16506, -0.130156, 0.470447, -0.542536, 0.333086, -2.08162, -2.16773, -0.110669, -0.00167868, 0.0648531, 0.015931, 0.0108178, 0.00859372, -0.00185663
0.174209, 1.69557, -1.22791, -1.54063, -0.902366, -1.20348, 1.22845, -1.3026, 0.0159161, 0.0058452, -0.000331446, -0.0394175, -0.0574721, 0.000551957, -0.000643031, -0.43267, 63.4103, 31.5113, 7.06909, 2.12421, 3.71127, 0.0165515, -0.00344561, -0.000493629, 0.00327411, 0.00836126, -0.0100964, -0.000181794, 0.059494, -0.0106837, -0.00837321, -0.0347435, 0.104933, 0.0363279, 0.470937, -0.539624, 0.336844, -2.08113, -2.16505, -0.130161, 0.470447, -0.542536, 0.333086, -2.08162, -2.16773, -0.110669, -0.00170828, 0.065556, 0.0160931, 0.0108178, 0.00859372, -0.00185663
0.175209, 1.69557, -1.22791, -1.54063, -0.902366, -1.20348, 1.22845, -1.3026, 0.0159161, 0.0058452, -0.000331446, -0.0394175, -0.0574721, 0.000551957, -0.000643031, -0.43267, 63.4103, 31.5113, 7.06909, 2.12421, 3.71127, 0.0165515, -0.00351301, -0.000494125, 0.00327962, 0.00833353, -0.01013, -0.000167566, 0.0602173, -0.0106885, -0.00842027, -0.0345882, 0.105432, 0.0363808, 0.470936, -0.539559, 0.33686, -2.08108, -2.16503, -0.130166, 0.470447, -0.542536, 0.333086, -2.08162, -2.16773, -0.110669, -0.0017382, 0.0662614, 0.0162556, 0.0108178, 0.00859372, -0.00185663
0.176209, 1.69561, -1.22789, -1.54063, -0.902498, -1.20363, 1.22845, -1.30259, 0.00744684, 0.0062076, 0.000578588, -0.0424399, -0.0481917, 0.000962151, 0.00024976, -0.43267, 63.4857, 31.5113, 6.99371, 2.09949, 3.67557, 0.00373412, -0.0035527, -0.000460294, 0.00329169, 0.00843424, -0.0103199, -0.000256019, 0.0617933, -0.00788752, -0.00789409, -0.0290687, 0.0988077, 0.0333594, 0.470934, -0.539493, 0.336876, -2.08103, -2.16502, -0.13017, 0.47048, -0.542505, 0.333083, -2.08152, -2.16788, -0.110378, -0.00176845, 0.0669695, 0.0164185, 0.00806847, 0.00754753, -0.00133582
0.177209, 1.69561, -1.22788, -1.54063, -0.902551, -1.20368, 1.22845, -1.3026, 0.00374358, 0.0087542, -0.00137568, -0.0478052, -0.0506388, 9.88652e-05, -5.09583e-05, -0.357292, 63.45, 31.5867, 6.99371, 2.10498, 3.69021, 0.0101428, -0.00361134, -0.000451185, 0.00329801, 0.00845515, -0.0104106, -0.000278424, 0.0631426, -0.006186, -0.00774788, -0.034256, 0.103911, 0.0329445, 0.470932, -0.539426, 0.336892, -2.08098, -2.165, -0.130175, 0.470489, -0.542495, 0.333084, -2.08149, -2.16793, -0.11027, -0.00179901, 0.0676801, 0.0165817, 0.00639416, 0.006833, -0.00118879
0.178209, 1.69562, -1.22787, -1.54062, -0.902597, -1.20372, 1.22845, -1.30259, 0.00513863, 0.0049032, 0.00290155, -0.049049, -0.0522092, 0.000608419, 0.00120165, -0.317619, 63.5214, 31.547, 6.88263, 2.10498, 3.67557, -0.0228162, -0.00367116, -0.00044076, 0.00330512, 0.00846256, -0.0104916, -0.000296011, 0.0627181, -0.00799891, -0.00874805, -0.0317588, 0.102012, 0.0358225, 0.47093, -0.539358, 0.336909, -2.08094, -2.16499, -0.13018, 0.470499, -0.542484, 0.333083, -2.08146, -2.16797, -0.110187, -0.0018299, 0.0683933, 0.0167454, 0.00812083, 0.00819806, -0.0020053
0.179209, 1.69563, -1.22786, -1.54062, -0.90265, -1.20377, 1.22845, -1.3026, 0.00315924, 0.00465715, -0.000422282, -0.054403, -0.0485653, 0.000405593, -0.000645771, -0.281914, 63.4857, 31.6581, 6.80725, 2.10498, 3.67557, 0.0165515, -0.00372994, -0.000429923, 0.00331301, 0.00848323, -0.0105799, -0.000324585, 0.06272, -0.00788053, -0.0107812, -0.035251, 0.0998101, 0.0400998, 0.470929, -0.53929, 0.336926, -2.08089, -2.16497, -0.130185, 0.47051, -0.542472, 0.333083, -2.08141, -2.16803, -0.110082, -0.00186112, 0.069109, 0.0169095, 0.00789497, 0.00922467, -0.00384693
0.180209, 1.69564, -1.22785, -1.54062, -0.90271, -1.20381, 1.22845, -1.30259, 0.00571192, 0.00584365, 0.000735051, -0.0548117, -0.045419, 0.000270381, -0.000422121, -0.281914, 63.5214, 31.6224, 6.84296, 2.09308, 3.67557, 0.0165515, -0.0037841, -0.000414588, 0.00332004, 0.00849614, -0.010662, -0.000359223, 0.0612107, -0.00992212, -0.00993258, -0.0332112, 0.0989078, 0.0443867, 0.470927, -0.53922, 0.336943, -2.08084, -2.16496, -0.13019, 0.470525, -0.542455, 0.333083, -2.08136, -2.16809, -0.109993, -0.00189266, 0.0698272, 0.0170739, 0.00987961, 0.011387, -0.00267458
0.181209, 1.69564, -1.22784, -1.54062, -0.902767, -1.20384, 1.22845, -1.30259, 0.00489337, 0.00763191, -0.000209168, -0.0555908, -0.0439292, 0.000180243, 0.000436958, -0.166862, 63.5214, 31.6581, 6.77154, 2.09949, 3.67557, -0.00267457, -0.00384387, -0.000405083, 0.00332661, 0.00850718, -0.010743, -0.000384813, 0.0618071, -0.00959276, -0.00933667, -0.0333479, 0.100039, 0.0434617, 0.470925, -0.539151, 0.33696, -2.08079, -2.16494, -0.130195, 0.470535, -0.542442, 0.333084, -2.08132, -2.16815, -0.109906, -0.00192452, 0.0705479, 0.0172387, 0.0095638, 0.0114132, -0.00200739
0.182209, 1.69566, -1.22783, -1.54061, -0.90283, -1.20388, 1.22845, -1.30259, 0.00702471, 0.00891321, 0.00190629, -0.0568109, -0.0434847, 0.000120154, 0.000567293, -0.166862, 63.5214, 31.6977, 6.73187, 2.1297, 3.67557, -0.00999879, -0.00389829, -0.000388847, 0.00333337, 0.00852213, -0.010828, -0.000424658, 0.0605834, -0.0114568, -0.00816913, -0.0319659, 0.101484, 0.0476893, 0.470923, -0.53908, 0.336977, -2.08074, -2.16492, -0.1302, 0.470551, -0.542423, 0.333086, -2.08126, -2.16822, -0.109813, -0.00195671, 0.0712712, 0.0174039, 0.0113931, 0.0132413, -0.00055889
0.183209, 1.69565, -1.22781, -1.5406, -0.902896, -1.20391, 1.22845, -1.30259, 0.00193995, 0.010606, 0.00625065, -0.0623916, -0.0425697, 0.000351364, 0.000381736, -0.0161054, 63.4857, 31.6224, 6.73187, 2.14252, 3.66824, -0.00999879, -0.0039553, -0.000377457, 0.00333402, 0.00852555, -0.0109136, -0.000456841, 0.0607112, -0.0107376, -0.00617148, -0.0290839, 0.103092, 0.0501452, 0.470921, -0.539009, 0.336994, -2.08069, -2.16491, -0.130205, 0.470562, -0.542408, 0.333093, -2.08122, -2.16828, -0.109731, -0.00198923, 0.0719968, 0.0175694, 0.0107236, 0.0134998, 0.00157865
0.184209, 1.69565, -1.2278, -1.5406, -0.902959, -1.20394, 1.22845, -1.30259, 0.00249453, 0.00930436, 0.00390648, -0.062581, -0.0411505, 0.000234238, 0.000969223, 0.0949785, 63.5611, 31.7731, 6.58508, 2.14252, 3.66824, -0.0292249, -0.00401598, -0.000367274, 0.00334535, 0.00854159, -0.0109888, -0.000482791, 0.0614732, -0.0108459, -0.0078834, -0.0306994, 0.10128, 0.0497096, 0.470919, -0.538937, 0.337012, -2.08064, -2.16489, -0.13021, 0.470572, -0.542393, 0.333089, -2.08117, -2.16833, -0.109645, -0.00202208, 0.072725, 0.0177353, 0.0107623, 0.0137485, -7.1085e-05
