alisrour97/Franka_experiments/Real_Robot_scripts/servo-franka/Data/log_dyn_PI0_2.csv
Time,q1,q2,q3,q4,q5,q6,q7,dq1,dq2,dq3,dq4,dq5,dq6,dq7,t1,t2,t3,t4,t5,t6,t7,ex1,ex2,ex3,ex4,ex5,ex6,ev1,ev2,ev3,ev4,ev5,ev6,xd,yd,zd,uxd,uyd,uzd,x,y,z,ux,uy,uz,vxd,vyd,vzd,vx,vy,vz
4.88281e-07, 1.69145, -1.22427, -1.53797, -0.899783, -1.19145, 1.22832, -1.3026, -0.0060381, 0.00174012, 0.00162694, -0.00246152, -0.00188287, -4.00339e-05, 0.000843986, -0.357292, 55.1981, 27.1909, 6.17248, 1.31305, 3.37436, -0.205922, 0.00112365, -0.00159658, -0.000704276, -2.86038e-05, -0.00133787, 5.46927e-05, 0.00194802, 0.00276531, 0.00152486, 0.000346206, 0.00327761, -0.00465089, 0.471008, -0.543389, 0.335894, -2.08385, -2.16584, -0.129887, 0.469398, -0.542453, 0.336806, -2.0846, -2.16654, -0.128563, -4.06186e-05, 0.000124715, 6.6488e-05, -0.00267766, -0.00214627, 0.00135318
0.012113, 1.69143, -1.22424, -1.53794, -0.899781, -1.19145, 1.22832, -1.30261, -0.00349446, 0.00346804, 0.00373115, -0.000339663, -8.17336e-06, -0.000178048, -0.000388521, -0.694511, 54.9799, 27.0441, 6.09711, 1.30755, 3.37436, -0.193104, 0.00112482, -0.00160062, -0.000732828, -6.49485e-05, -0.00136302, 4.81727e-05, 0.000556941, 0.00126469, 0.00340053, 0.00365523, 0.00321619, -0.00122844, 0.471008, -0.543389, 0.335894, -2.08385, -2.16584, -0.129887, 0.469396, -0.542457, 0.33684, -2.08464, -2.16658, -0.128571, -6.68636e-05, 0.000218577, 0.000115026, -0.00118726, -0.000906389, 0.00342447
0.013113, 1.69143, -1.22424, -1.53794, -0.899781, -1.19145, 1.22832, -1.30261, -0.00349446, 0.00346804, 0.00373115, -0.000339663, -8.17336e-06, -0.000178048, -0.000388521, -0.694511, 54.9799, 27.0441, 6.09711, 1.30755, 3.37436, -0.193104, 0.00112479, -0.00160061, -0.00073282, -6.49594e-05, -0.00136302, 4.81849e-05, 0.000667811, 0.0012386, 0.00336488, 0.00360793, 0.00328867, -0.00131803, 0.471008, -0.543389, 0.335894, -2.08385, -2.16584, -0.129887, 0.469396, -0.542457, 0.33684, -2.08464, -2.16658, -0.128571, -9.5592e-05, 0.000321476, 0.000168224, -0.00118726, -0.000906389, 0.00342447
0.014113, 1.69143, -1.22424, -1.53794, -0.899781, -1.19145, 1.22832, -1.30261, -0.00349446, 0.00346804, 0.00373115, -0.000339663, -8.17336e-06, -0.000178048, -0.000388521, -0.694511, 54.9799, 27.0441, 6.09711, 1.30755, 3.37436, -0.193104, 0.00112473, -0.0016006, -0.0007328, -6.49889e-05, -0.001363, 4.82178e-05, 0.000788784, 0.00121019, 0.00332599, 0.00355642, 0.00336772, -0.0014157, 0.471008, -0.543389, 0.335894, -2.08385, -2.16584, -0.129887, 0.469396, -0.542457, 0.33684, -2.08464, -2.16658, -0.128571, -0.000126895, 0.000433757, 0.000226255, -0.00118726, -0.000906389, 0.00342447
0.015113, 1.69143, -1.22424, -1.53794, -0.899781, -1.19145, 1.22832, -1.30261, -0.00349446, 0.00346804, 0.00373115, -0.000339663, -8.17336e-06, -0.000178048, -0.000388521, -0.694511, 54.9799, 27.0441, 6.09711, 1.30755, 3.37436, -0.193104, 0.00112461, -0.00160057, -0.000732762, -6.50463e-05, -0.00136297, 4.82819e-05, 0.000920224, 0.00117936, 0.00328374, 0.00350053, 0.00345357, -0.00152175, 0.471008, -0.543389, 0.335894, -2.08385, -2.16584, -0.129887, 0.469396, -0.542457, 0.33684, -2.08464, -2.16658, -0.128571, -0.000160861, 0.000555757, 0.000289294, -0.00118726, -0.000906389, 0.00342447
0.016113, 1.69143, -1.22424, -1.53794, -0.899781, -1.19145, 1.22832, -1.30261, -0.00349446, 0.00346804, 0.00373115, -0.000339663, -8.17336e-06, -0.000178048, -0.000388521, -0.694511, 54.9799, 27.0441, 6.09711, 1.30755, 3.37436, -0.193104, 0.00112441, -0.00160052, -0.000732698, -6.51406e-05, -0.00136293, 4.83873e-05, 0.00106249, 0.00114603, 0.00323804, 0.00344013, 0.00354646, -0.00163645, 0.471008, -0.543389, 0.335894, -2.08385, -2.16584, -0.129886, 0.469396, -0.542457, 0.33684, -2.08464, -2.16658, -0.128571, -0.000197581, 0.000687809, 0.000357511, -0.00118726, -0.000906389, 0.00342447
0.017113, 1.69143, -1.22424, -1.53794, -0.899781, -1.19145, 1.22832, -1.30261, -0.00349446, 0.00346804, 0.00373115, -0.000339663, -8.17336e-06, -0.000178048, -0.000388521, -0.694511, 54.9799, 27.0441, 6.09711, 1.30755, 3.37436, -0.193104, 0.00112412, -0.00160046, -0.000732603, -6.52811e-05, -0.00136286, 4.8544e-05, 0.00121594, 0.00111013, 0.00318875, 0.00337507, 0.00364662, -0.00176009, 0.471008, -0.543389, 0.335894, -2.08385, -2.16584, -0.129886, 0.469396, -0.542457, 0.33684, -2.08464, -2.16658, -0.128571, -0.000237139, 0.000830243, 0.000431075, -0.00118726, -0.000906389, 0.00342447
0.018113, 1.69143, -1.22424, -1.53794, -0.899781, -1.19145, 1.22832, -1.30261, -0.00349446, 0.00346804, 0.00373115, -0.000339663, -8.17336e-06, -0.000178048, -0.000388521, -0.694511, 54.9799, 27.0441, 6.09711, 1.30755, 3.37436, -0.193104, 0.00112371, -0.00160036, -0.000732472, -6.54766e-05, -0.00136276, 4.87621e-05, 0.00138091, 0.00107159, 0.00313577, 0.00330522, 0.00375426, -0.00189292, 0.471008, -0.543388, 0.335894, -2.08385, -2.16584, -0.129886, 0.469396, -0.542457, 0.33684, -2.08464, -2.16658, -0.128571, -0.000279621, 0.000983381, 0.00051015, -0.00118726, -0.000906389, 0.00342447
0.019113, 1.69143, -1.22424, -1.53794, -0.899781, -1.19145, 1.22832, -1.30261, -0.00349446, 0.00346804, 0.00373115, -0.000339663, -8.17336e-06, -0.000178048, -0.000388521, -0.694511, 54.9799, 27.0441, 6.09711, 1.30755, 3.37436, -0.193104, 0.00112317, -0.00160023, -0.000732297, -6.57362e-05, -0.00136264, 4.90515e-05, 0.00155775, 0.00103032, 0.003079, 0.00323044, 0.00386961, -0.00203523, 0.471008, -0.543388, 0.335895, -2.08385, -2.16584, -0.129886, 0.469396, -0.542457, 0.33684, -2.08464, -2.16658, -0.128571, -0.00032511, 0.00114754, 0.000594898, -0.00118726, -0.000906389, 0.00342447
0.020113, 1.69143, -1.22424, -1.53794, -0.899781, -1.19145, 1.22832, -1.30261, -0.00349446, 0.00346804, 0.00373115, -0.000339663, -8.17336e-06, -0.000178048, -0.000388521, -0.694511, 54.9799, 27.0441, 6.09711, 1.30755, 3.37436, -0.193104, 0.00112247, -0.00160007, -0.000732073, -6.60687e-05, -0.00136248, 4.94222e-05, 0.0017468, 0.00098626, 0.00301832, 0.00315061, 0.00399288, -0.00218727, 0.471007, -0.543387, 0.335895, -2.08384, -2.16584, -0.129885, 0.469396, -0.542457, 0.33684, -2.08464, -2.16658, -0.128571, -0.000373687, 0.00132303, 0.000685479, -0.00118726, -0.000906389, 0.00342447
0.021113, 1.69143, -1.22424, -1.53794, -0.899781, -1.19145, 1.22832, -1.30261, -0.00349446, 0.00346804, 0.00373115, -0.000339663, -8.17336e-06, -0.000178048, -0.000388521, -0.694511, 54.9799, 27.0441, 6.09711, 1.30755, 3.37436, -0.193104, 0.00112161, -0.00159986, -0.000731793, -6.64829e-05, -0.00136227, 4.98838e-05, 0.00194837, 0.00093933, 0.00295363, 0.00306558, 0.00412428, -0.00234929, 0.471007, -0.543386, 0.335895, -2.08384, -2.16584, -0.129884, 0.469396, -0.542457, 0.33684, -2.08464, -2.16658, -0.128571, -0.000425431, 0.00151016, 0.000782046, -0.00118726, -0.000906389, 0.00342447
0.022113, 1.69143, -1.22421, -1.53788, -0.899806, -1.19144, 1.22832, -1.30261, 0.000572331, 0.00331571, 0.00476856, -0.000982103, 0.000818881, -4.10132e-05, 6.93722e-05, -0.884941, 54.6109, 26.7466, 6.28357, 1.27002, 3.38168, -0.226063, 0.00114424, -0.0015847, -0.000768483, -0.000113744, -0.00138606, 2.06407e-06, -0.000185057, -0.00183829, 0.00287109, 0.00343826, 0.00361492, 0.00238015, 0.471007, -0.543385, 0.335896, -2.08384, -2.16584, -0.129884, 0.469411, -0.542439, 0.33688, -2.08462, -2.16667, -0.128603, -0.000480419, 0.00170921, 0.00088475, 0.00145252, 0.00152521, 0.00369306
0.023113, 1.69143, -1.22421, -1.53787, -0.899812, -1.19144, 1.22832, -1.30261, -0.000412234, 0.00318416, 0.00520905, -0.0016146, 0.000307607, 0.000515168, -0.000937103, -0.845268, 54.5712, 26.6712, 6.32324, 1.27643, 3.36703, -0.199513, 0.00114616, -0.00158198, -0.000774556, -0.000122126, -0.00139426, -5.43278e-06, 0.000371876, -0.00160397, 0.00288988, 0.00381156, 0.00432342, 0.00282813, 0.471007, -0.543384, 0.335896, -2.08384, -2.16585, -0.129883, 0.469414, -0.542437, 0.336887, -2.08462, -2.16668, -0.128604, -0.000538724, 0.00192048, 0.000993739, 0.00118079, 0.00117418, 0.00374123
0.024113, 1.69143, -1.22421, -1.53786, -0.89981, -1.19144, 1.22832, -1.30261, 0.00218754, 0.00215702, 0.00450799, 0.000662954, 0.000645165, 0.000580786, -0.00279488, -0.809562, 54.5712, 26.6355, 6.24786, 1.26453, 3.36062, -0.140919, 0.00114409, -0.00158132, -0.000772009, -0.000126302, -0.00138805, -9.89836e-06, 0.000318515, -0.00255524, 0.0021473, 0.00390934, 0.00313606, 0.00486082, 0.471006, -0.543383, 0.335897, -2.08384, -2.16585, -0.129882, 0.469414, -0.542437, 0.336885, -2.08462, -2.16669, -0.128615, -0.000600418, 0.00214425, 0.00110915, 0.00204043, 0.00160385, 0.00310302
0.025113, 1.69144, -1.2242, -1.53786, -0.89981, -1.19144, 1.22832, -1.30261, 0.00356352, 0.00350269, 0.00273059, -0.000933059, 0.0013451, 0.000149818, -0.0016259, -0.884941, 54.353, 26.5244, 6.17248, 1.23981, 3.36703, -0.147328, 0.00114771, -0.00157644, -0.00077644, -0.000131918, -0.00138958, -1.75382e-05, -0.000451712, -0.003406, 0.00189297, 0.00134051, 0.00415338, 0.00559626, 0.471006, -0.543381, 0.335898, -2.08384, -2.16585, -0.129881, 0.469418, -0.542432, 0.33689, -2.08461, -2.1667, -0.128619, -0.00066557, 0.00238079, 0.00123113, 0.00278822, 0.00267473, 0.00306776
0.026113, 1.69144, -1.2242, -1.53785, -0.899814, -1.19144, 1.22832, -1.30261, 0.00346733, 0.0124529, 0.00520747, -0.000895504, 0.00113369, 0.000608494, -0.0037627, -0.920646, 54.3134, 26.3736, 6.17248, 1.2334, 3.3533, -0.0750012, 0.0011518, -0.00156996, -0.000780535, -0.00013684, -0.00139515, -3.12012e-05, -0.00141811, -0.00373749, 0.00798769, 0.00446816, 0.0134799, 0.00835946, 0.471005, -0.543379, 0.335899, -2.08384, -2.16585, -0.129879, 0.469424, -0.542427, 0.336896, -2.0846, -2.16672, -0.128619, -0.000734245, 0.00263035, 0.0013598, 0.00323607, 0.00295386, 0.00935449
0.027113, 1.69144, -1.2242, -1.53785, -0.899815, -1.19144, 1.22832, -1.30261, 0.000740643, 0.011632, 0.00513034, 3.31174e-05, 0.000518132, -0.000374239, 0.00267127, -0.845268, 54.4641, 26.2983, 6.13678, 1.23981, 3.37436, -0.0878186, 0.00114848, -0.00157156, -0.000779587, -0.000136934, -0.00139274, -2.07625e-05, 0.000465643, -0.00181852, 0.00757423, 0.00394155, 0.012705, -0.00203677, 0.471005, -0.543377, 0.3359, -2.08384, -2.16585, -0.129878, 0.469422, -0.542428, 0.336895, -2.08461, -2.16671, -0.128618, -0.000806507, 0.00289319, 0.0014953, 0.00129976, 0.00134213, 0.00884721
0.028113, 1.69144, -1.2242, -1.53786, -0.899818, -1.19144, 1.22832, -1.30261, -0.00196045, 0.00809758, 0.00157858, -0.000131745, 0.000819913, -0.000520766, 0.00193557, -0.734184, 54.7577, 26.3736, 6.13678, 1.22699, 3.38168, -0.0814099, 0.00114393, -0.0015725, -0.000776899, -0.000134413, -0.00139496, -1.53406e-05, 0.00292119, 0.000142832, 0.00425283, 0.000771644, 0.00922042, -0.00561426, 0.471004, -0.543375, 0.335901, -2.08384, -2.16585, -0.129876, 0.469421, -0.54243, 0.336893, -2.08461, -2.1667, -0.128611, -0.000882416, 0.00316954, 0.00163773, -0.000767048, -0.000374765, 0.00538805
0.029113, 1.69144, -1.22419, -1.53786, -0.899819, -1.19144, 1.22833, -1.3026, 0.00103867, 0.00780958, 0.00015836, -0.000203198, 0.000749889, 0.000195353, 0.00158445, -0.694511, 54.9799, 26.4094, 6.13678, 1.2215, 3.36703, -0.0814099, 0.00114305, -0.00156859, -0.000780489, -0.000142003, -0.00140372, -1.79282e-05, 0.00229356, -0.00150659, 0.00337592, -0.000531289, 0.00973639, -0.0031925, 0.471003, -0.543372, 0.335903, -2.08383, -2.16585, -0.129874, 0.469424, -0.542428, 0.336898, -2.08462, -2.16672, -0.128609, -0.000962028, 0.00345964, 0.00178723, 0.00074653, 0.000737416, 0.00471935
0.030113, 1.69144, -1.22417, -1.53785, -0.899817, -1.19144, 1.22833, -1.30261, 0.000202155, 0.0112307, 0.000896686, 0.000706029, 0.000296348, 0.00145266, 0.00178547, -0.658806, 55.0513, 26.3736, 6.09711, 1.22699, 3.33133, -0.0951428, 0.00114405, -0.00156393, -0.000795032, -0.000159017, -0.00142482, -2.3684e-05, 0.00299869, -0.00115585, 0.00582194, 0.00170631, 0.014198, -0.00513133, 0.471002, -0.543369, 0.335904, -2.08383, -2.16585, -0.129871, 0.469428, -0.542426, 0.336914, -2.08463, -2.16674, -0.128605, -0.0010454, 0.0037637, 0.0019439, 0.000426428, -4.54786e-05, 0.00719242
0.031113, 1.69145, -1.22417, -1.53785, -0.89982, -1.19144, 1.22834, -1.3026, 0.00184374, 0.00623095, -0.00119853, -0.000522228, 0.00040092, 0.00174833, 0.00277988, -0.583427, 55.3091, 26.449, 6.13678, 1.2215, 3.31027, -0.133595, 0.00114302, -0.00155931, -0.00079529, -0.000165583, -0.00142704, -2.51571e-05, 0.00317755, -0.00221923, 0.00180438, -0.00121593, 0.0097927, -0.00459374, 0.471002, -0.543366, 0.335906, -2.08383, -2.16586, -0.129869, 0.469432, -0.542424, 0.336916, -2.08463, -2.16675, -0.128607, -0.00113257, 0.00408193, 0.00210783, 0.0012626, 0.000758038, 0.00332952
0.032113, 1.69145, -1.22416, -1.53785, -0.899817, -1.19143, 1.22834, -1.3026, 0.0022863, 0.009245, -0.00165904, -0.000396823, 0.000504568, 0.00116555, 0.00197731, -0.468376, 55.4202, 26.4847, 6.13678, 1.21509, 3.31027, -0.133595, 0.00114084, -0.00155781, -0.000803072, -0.000172392, -0.00143913, -2.0452e-05, 0.00310157, -0.00229118, 0.00323821, -0.00198387, 0.0126877, -0.00398991, 0.471001, -0.543362, 0.335908, -2.08383, -2.16586, -0.129866, 0.469433, -0.542423, 0.336925, -2.08464, -2.16675, -0.128599, -0.0012236, 0.00441451, 0.00227914, 0.00129251, 0.000947905, 0.00492624
0.033113, 1.69146, -1.22413, -1.53784, -0.899821, -1.19143, 1.22834, -1.3026, 0.00214445, 0.0109676, -0.00112464, -0.00113627, 0.000777134, 0.000505766, 0.000224455, -0.468376, 55.4202, 26.4847, 6.17248, 1.20318, 3.31759, -0.101552, 0.00114432, -0.00155012, -0.000814379, -0.000177247, -0.00146085, -3.42888e-05, 0.00291928, -0.0024351, 0.00416503, -0.00230783, 0.0141241, -0.00170963, 0.470999, -0.543358, 0.33591, -2.08382, -2.16586, -0.129863, 0.46944, -0.542417, 0.336938, -2.08464, -2.16679, -0.128581, -0.00131852, 0.00476163, 0.0024579, 0.00136828, 0.00133825, 0.00604412
0.034113, 1.69146, -1.22412, -1.53785, -0.899814, -1.19143, 1.22834, -1.3026, 0.00244449, 0.0120777, -0.00336217, 0.00181357, 0.00123013, 0.00422666, 0.000219419, -0.357292, 55.4202, 26.5958, 6.0614, 1.18396, 3.33865, -0.101552, 0.00113946, -0.00155046, -0.000820759, -0.000175625, -0.00147536, -2.47192e-05, 0.0047073, -0.00235254, 0.00462224, 0.000473432, 0.016846, -0.00524396, 0.470998, -0.543354, 0.335912, -2.08382, -2.16586, -0.12986, 0.469439, -0.542419, 0.336946, -2.08465, -2.16679, -0.12856, -0.00141737, 0.00512346, 0.00264421, 0.00126747, -0.000138871, 0.0064069
0.035113, 1.69146, -1.22412, -1.53785, -0.899814, -1.19143, 1.22834, -1.3026, 0.00244449, 0.0120777, -0.00336217, 0.00181357, 0.00123013, 0.00422666, 0.000219419, -0.357292, 55.4202, 26.5958, 6.0614, 1.18396, 3.33865, -0.101552, 0.00113433, -0.00154926, -0.000819111, -0.000178073, -0.00147419, -2.20041e-05, 0.00511296, -0.00244563, 0.00449245, 0.000304856, 0.0171094, -0.00556769, 0.470997, -0.543349, 0.335915, -2.08382, -2.16586, -0.129856, 0.469439, -0.542419, 0.336946, -2.08465, -2.16679, -0.12856, -0.00152019, 0.00550014, 0.00283813, 0.00126747, -0.000138871, 0.0064069
0.036113, 1.69146, -1.22412, -1.53785, -0.899814, -1.19143, 1.22834, -1.3026, 0.00244449, 0.0120777, -0.00336217, 0.00181357, 0.00123013, 0.00422666, 0.000219419, -0.357292, 55.4202, 26.5958, 6.0614, 1.18396, 3.33865, -0.101552, 0.00112877, -0.00154797, -0.000817323, -0.000180728, -0.00147291, -1.90613e-05, 0.00553476, -0.00254233, 0.00435751, 0.000129754, 0.0173833, -0.00590414, 0.470995, -0.543344, 0.335917, -2.08381, -2.16587, -0.129852, 0.469439, -0.542419, 0.336946, -2.08465, -2.16679, -0.12856, -0.00162701, 0.00589181, 0.00303974, 0.00126747, -0.000138871, 0.0064069
0.037113, 1.69146, -1.22412, -1.53785, -0.899814, -1.19143, 1.22834, -1.3026, 0.00244449, 0.0120777, -0.00336217, 0.00181357, 0.00123013, 0.00422666, 0.000219419, -0.357292, 55.4202, 26.5958, 6.0614, 1.18396, 3.33865, -0.101552, 0.00112276, -0.00154657, -0.000815392, -0.000183597, -0.00147154, -1.58824e-05, 0.00597282, -0.00264266, 0.0042174, -5.19137e-05, 0.0176676, -0.0062534, 0.470994, -0.543338, 0.33592, -2.08381, -2.16587, -0.129848, 0.469439, -0.542419, 0.336946, -2.08465, -2.16679, -0.12856, -0.00173785, 0.0062986, 0.00324909, 0.00126747, -0.000138871, 0.0064069
0.038113, 1.69148, -1.22406, -1.53786, -0.899815, -1.19143, 1.22835, -1.3026, 0.00224381, 0.0109139, -0.000947157, -0.000365664, 0.000224107, 0.00433236, -0.000445884, 0.21003, 55.5313, 26.5601, 5.98602, 1.17847, 3.36703, -0.0685925, 0.0011303, -0.00153271, -0.000841011, -0.000185396, -0.00152651, -3.13249e-05, 0.00568775, -0.00347194, 0.00396115, 0.000387348, 0.0177086, -0.00339474, 0.470992, -0.543332, 0.335923, -2.0838, -2.16587, -0.129843, 0.469451, -0.542409, 0.336975, -2.08466, -2.16684, -0.128503, -0.00185274, 0.00672061, 0.00346625, 0.00196136, 0.000637985, 0.00639026
0.039113, 1.69149, -1.22406, -1.53787, -0.899813, -1.19143, 1.22835, -1.30261, 0.00535378, 0.00982147, -0.00239799, 0.000435978, 0.000149395, 0.00303354, -0.0112893, 0.360787, 55.6027, 26.6355, 5.95032, 1.17847, 3.37436, -0.0228162, 0.00112684, -0.00152675, -0.000840761, -0.000184077, -0.00153268, -3.82914e-05, 0.00530344, -0.00466437, 0.00248899, -0.0024358, 0.0164623, 0.00873648, 0.470991, -0.543326, 0.335927, -2.0838, -2.16588, -0.129838, 0.469456, -0.542405, 0.336978, -2.08465, -2.16685, -0.128491, -0.0019717, 0.00715794, 0.00369125, 0.00296638, 0.00173013, 0.00518528
0.040113, 1.6915, -1.22405, -1.53787, -0.899805, -1.19143, 1.22835, -1.30261, 0.0046277, 0.00501079, -0.00327158, 0.00286531, -0.000103861, 0.00124971, -0.00805255, 0.511544, 55.7138, 26.7069, 5.83527, 1.18396, 3.40365, -0.0292249, 0.00111973, -0.00152294, -0.000838053, -0.000183924, -0.00153435, -3.20584e-05, 0.0073434, -0.00340564, -0.000580245, -0.00419656, 0.011131, 0.00184524, 0.470989, -0.543319, 0.33593, -2.08379, -2.16588, -0.129833, 0.469458, -0.542405, 0.336977, -2.08465, -2.16685, -0.128484, -0.00209472, 0.00761066, 0.00392413, 0.00154842, 0.000589751, 0.00210893
0.041113, 1.69151, -1.22405, -1.53788, -0.899805, -1.19143, 1.22835, -1.3026, 0.00557688, 0.00647322, -0.00311093, 0.00265798, 0.00937885, 0.000830099, -0.00546641, 0.737679, 55.7495, 26.7466, 5.79956, 1.18396, 3.41006, -0.0420422, 0.00111392, -0.0015186, -0.000837088, -0.000184763, -0.00153833, -2.9996e-05, 0.00526959, -0.00509185, 5.5278e-05, -0.000336823, 0.00498008, 0.00321697, 0.470987, -0.543312, 0.335934, -2.08379, -2.16589, -0.129827, 0.46946, -0.542403, 0.336979, -2.08465, -2.16685, -0.128475, -0.00222183, 0.00807884, 0.00416491, 0.00305408, 0.00307655, 0.00324819
0.042113, 1.69152, -1.22404, -1.53788, -0.899797, -1.19143, 1.22835, -1.3026, 0.00483805, 0.008236, -0.00207535, 0.00430485, 0.0070399, 0.000186602, -0.00210716, 0.888436, 55.7495, 26.7466, 5.68848, 1.18396, 3.42471, -0.0951428, 0.00110896, -0.00151213, -0.000837311, -0.000189525, -0.00154022, -2.45621e-05, 0.00661621, -0.00419683, 0.00150235, -0.000246398, 0.00843625, -0.00304389, 0.470984, -0.543304, 0.335938, -2.08378, -2.16589, -0.129821, 0.469465, -0.5424, 0.336983, -2.08465, -2.16686, -0.128471, -0.00235303, 0.00856251, 0.00441363, 0.00212956, 0.00197145, 0.00474381
0.043113, 1.69153, -1.22404, -1.53788, -0.899792, -1.19143, 1.22835, -1.30261, 0.00442377, 0.00639168, -0.00221983, 0.00458395, 0.00480905, -0.00028633, -0.0051517, 1.03919, 55.7495, 26.7823, 5.6131, 1.19678, 3.43936, -0.00267457, 0.00110167, -0.00150755, -0.000835435, -0.00018727, -0.00154464, -3.12008e-05, 0.00802051, -0.00369513, 0.000216683, -0.00200254, 0.00851209, -0.00186802, 0.470982, -0.543295, 0.335942, -2.08378, -2.16589, -0.129815, 0.469467, -0.542398, 0.336984, -2.08464, -2.16687, -0.128459, -0.00248832, 0.00906169, 0.00467028, 0.00149708, 0.00126158, 0.00352819
0.044113, 1.69154, -1.22403, -1.53789, -0.899783, -1.19143, 1.22835, -1.3026, 0.00712019, 0.0057721, -0.00324391, 0.00561753, 0.00364891, 0.00468473, -0.00170941, 1.18995, 55.7138, 26.8577, 5.50201, 1.19678, 3.43936, -0.0557752, 0.00109243, -0.00150291, -0.000831374, -0.000187396, -0.00154479, -1.82251e-05, 0.00870337, -0.0057128, -0.000245883, 0.000683346, 0.0117175, -0.00486227, 0.47098, -0.543286, 0.335947, -2.08377, -2.1659, -0.129808, 0.46947, -0.542397, 0.336983, -2.08465, -2.16686, -0.128451, -0.00262768, 0.00957641, 0.00493487, 0.00338055, 0.00125602, 0.00316919
0.045113, 1.69156, -1.22403, -1.5379, -0.899771, -1.19143, 1.22835, -1.3026, 0.0108652, 0.00519011, -0.0021632, 0.00724383, 0.00300213, 0.00227292, -0.00132083, 1.26533, 55.6781, 26.8577, 5.35126, 1.19037, 3.47507, -0.0557752, 0.00108661, -0.00149352, -0.000828084, -0.000189793, -0.00154391, -1.9216e-05, 0.00780048, -0.00726641, -0.000570157, -0.000855904, 0.0107439, -0.00311542, 0.470977, -0.543277, 0.335952, -2.08376, -2.1659, -0.129801, 0.469476, -0.542393, 0.336983, -2.08464, -2.16687, -0.128447, -0.00277111, 0.0101066, 0.00520739, 0.0047447, 0.00279122, 0.00321472
0.046113, 1.69157, -1.22404, -1.53791, -0.899764, -1.19143, 1.22834, -1.3026, 0.0108968, 0.00300497, -0.00543457, 0.0127638, 0.00133501, 0.0013269, -0.000541757, 1.45576, 55.7138, 26.8934, 5.27588, 1.21509, 3.48971, -0.0685925, 0.0010761, -0.00148794, -0.000819293, -0.000187139, -0.00153911, -8.94055e-06, 0.0111351, -0.00528963, -0.00251476, -0.00310727, 0.00957046, -0.0112597, 0.470974, -0.543267, 0.335957, -2.08375, -2.16591, -0.129793, 0.469479, -0.542392, 0.336978, -2.08464, -2.16686, -0.12844, -0.00291859, 0.0106523, 0.00548782, 0.00267219, 0.00026317, 0.00111723
0.047113, 1.69159, -1.22403, -1.53791, -0.89976, -1.19143, 1.22835, -1.3026, 0.0117758, 0.00655729, -0.00527025, 0.00984486, 0.000839485, 0.00142148, -0.000937829, 1.60651, 55.5313, 26.822, 5.24017, 1.2215, 3.48239, -0.0557752, 0.00107033, -0.00147838, -0.000820081, -0.000190423, -0.001548, -1.62159e-05, 0.0102159, -0.00649695, -0.00100875, -0.00459167, 0.0142264, -0.0080707, 0.470971, -0.543256, 0.335962, -2.08375, -2.16592, -0.129785, 0.469486, -0.542387, 0.336983, -2.08463, -2.16688, -0.128428, -0.0030701, 0.0112135, 0.00577613, 0.00374802, 0.0015495, 0.00299879
0.048113, 1.6916, -1.22403, -1.53791, -0.899753, -1.19144, 1.22835, -1.3026, 0.0157757, 0.00458534, -0.00220233, 0.00870181, 0.000496335, 0.000875598, 1.04033e-05, 1.75727, 55.5313, 26.7466, 5.16479, 1.22699, 3.48971, -0.0750012, 0.00106332, -0.00146831, -0.000816415, -0.00019483, -0.00154659, -1.74765e-05, 0.00828134, -0.00957254, -0.00169533, -0.00412695, 0.0126969, -0.00316196, 0.470968, -0.543245, 0.335968, -2.08374, -2.16592, -0.129777, 0.469493, -0.542381, 0.336984, -2.08462, -2.16689, -0.128426, -0.0032256, 0.01179, 0.00607228, 0.00657, 0.00426772, 0.00282431
0.049113, 1.69163, -1.22403, -1.53792, -0.899749, -1.19144, 1.22834, -1.3026, 0.0163543, 0.00238204, -0.00486392, 0.00691793, -0.000242181, -4.6754e-05, -0.000762482, 1.87232, 55.567, 26.7466, 5.12909, 1.2453, 3.51077, -0.0557752, 0.00105771, -0.0014553, -0.000806591, -0.000189858, -0.00154084, -2.54606e-05, 0.00895197, -0.00976083, -0.00449436, -0.00898214, 0.0114092, -0.00225785, 0.470965, -0.543234, 0.335974, -2.08373, -2.16593, -0.129768, 0.469503, -0.542373, 0.336979, -2.0846, -2.1669, -0.128418, -0.00338507, 0.0123818, 0.00637623, 0.00652141, 0.00463593, 0.000254652
0.050113, 1.69164, -1.22404, -1.53793, -0.899738, -1.19144, 1.22835, -1.3026, 0.0169572, -0.000890158, -0.00375162, 0.00834955, -8.26316e-05, 0.00086078, -0.00153467, 2.09846, 55.6781, 26.7466, 4.97833, 1.2453, 3.48971, -0.0292249, 0.00104391, -0.0014484, -0.000794656, -0.000191337, -0.00153079, -1.92544e-05, 0.00990678, -0.0103659, -0.00598171, -0.00709876, 0.0087098, -0.00201214, 0.470962, -0.543221, 0.335981, -2.08372, -2.16594, -0.129759, 0.469507, -0.542372, 0.336971, -2.0846, -2.16689, -0.12842, -0.00354847, 0.0129888, 0.00668792, 0.00694278, 0.00455402, -0.00106876
0.051113, 1.69166, -1.22403, -1.53793, -0.899736, -1.19144, 1.22834, -1.3026, 0.0199187, 0.00209522, -0.00867323, 0.00572471, -0.000708048, -0.000121998, -0.00105537, 2.24921, 55.567, 26.5958, 4.97833, 1.26453, 3.51077, -0.0292249, 0.00103816, -0.00143606, -0.000793959, -0.000194249, -0.00153614, -2.72721e-05, 0.00924714, -0.0115958, -0.00679396, -0.0142756, 0.0127822, -0.000439354, 0.470958, -0.543208, 0.335987, -2.08371, -2.16594, -0.129749, 0.469516, -0.542364, 0.336976, -2.08458, -2.16691, -0.128409, -0.00371575, 0.0136108, 0.00700727, 0.00795075, 0.00600275, -0.00148629
0.052113, 1.69168, -1.22403, -1.53795, -0.899736, -1.19144, 1.22835, -1.3026, 0.0217845, 0.000629248, -0.0126088, 0.00393523, -0.000868503, 0.000761593, -0.000965129, 2.39997, 55.6027, 26.7069, 4.97833, 1.27643, 3.48971, -0.0228162, 0.00102892, -0.00142297, -0.000780685, -0.000184006, -0.00153427, -3.29557e-05, 0.00966154, -0.012676, -0.00953612, -0.0185629, 0.0128017, 0.000408008, 0.470955, -0.543195, 0.335994, -2.0837, -2.16595, -0.129738, 0.469525, -0.542357, 0.336968, -2.08456, -2.16692, -0.128389, -0.00388686, 0.0142477, 0.0073342, 0.0087741, 0.00669686, -0.00396401
0.053113, 1.6917, -1.22403, -1.53795, -0.899722, -1.19144, 1.22835, -1.3026, 0.0231061, 0.00306869, -0.00910178, 0.00707425, 0.000369778, -0.000496159, -0.000661562, 2.55073, 55.4916, 26.5601, 4.79187, 1.25171, 3.5181, -0.0228162, 0.00102006, -0.00141032, -0.000779285, -0.000194832, -0.00153377, -3.47558e-05, 0.00936208, -0.0133546, -0.00682958, -0.0148061, 0.0135861, 0.000175534, 0.470951, -0.54318, 0.336002, -2.08369, -2.16596, -0.129728, 0.469534, -0.542351, 0.336972, -2.08455, -2.16693, -0.128391, -0.00406174, 0.0148993, 0.00766863, 0.00936411, 0.00725562, -0.000931156
0.054113, 1.69172, -1.22403, -1.53796, -0.899722, -1.19144, 1.22835, -1.3026, 0.0223992, 0.00208385, -0.0071192, 0.00478297, 3.40999e-05, -2.405e-05, -0.000692008, 2.77686, 55.4916, 26.5601, 4.79187, 1.25812, 3.51077, -0.0164075, 0.00100803, -0.0013994, -0.000767435, -0.000190223, -0.00153018, -3.35892e-05, 0.0095101, -0.0140455, -0.00717406, -0.0141778, 0.0136287, 0.00180649, 0.470947, -0.543166, 0.336009, -2.08368, -2.16597, -0.129716, 0.469541, -0.542346, 0.336966, -2.08454, -2.16694, -0.128378, -0.00424034, 0.0155655, 0.00801045, 0.00986845, 0.00785711, -0.000973398
0.055113, 1.69174, -1.22403, -1.53796, -0.899717, -1.19144, 1.22835, -1.3026, 0.0182023, -0.000916218, -0.00611166, 0.00500198, 0.000278797, 0.000281825, -0.00098017, 2.89191, 55.4559, 26.449, 4.71649, 1.25171, 3.50345, -0.00267457, 0.000999932, -0.00138355, -0.000761592, -0.000196097, -0.00152841, -4.30947e-05, 0.0122325, -0.0121222, -0.00853324, -0.012714, 0.0108525, -0.00219925, 0.470942, -0.54315, 0.336017, -2.08367, -2.16597, -0.129705, 0.469552, -0.542337, 0.336966, -2.08452, -2.16696, -0.128376, -0.00442257, 0.0162459, 0.00835954, 0.00781391, 0.00598016, -0.00233066
0.056113, 1.69177, -1.22403, -1.53797, -0.899707, -1.19144, 1.22835, -1.3026, 0.0184077, 0.000816928, -0.00807366, 0.00597069, 0.000199894, -0.000334708, -0.000661101, 3.003, 55.3845, 26.449, 4.60541, 1.25171, 3.5181, -0.00267457, 0.000988242, -0.00136968, -0.000754251, -0.000198475, -0.00152835, -4.71757e-05, 0.0133708, -0.011691, -0.00837925, -0.0147288, 0.0128696, -0.00475681, 0.470938, -0.543134, 0.336026, -2.08366, -2.16598, -0.129692, 0.469562, -0.54233, 0.336965, -2.0845, -2.16697, -0.128367, -0.00460838, 0.0169405, 0.00871578, 0.00724396, 0.0055096, -0.00198596
0.057113, 1.69179, -1.22403, -1.53798, -0.899701, -1.19144, 1.22835, -1.3026, 0.0165518, -0.00047262, -0.00841863, 0.00577188, 0.000381143, 0.000334354, 6.21519e-05, 3.19343, 55.4202, 26.4094, 4.53003, 1.2453, 3.50345, -0.0164075, 0.000974642, -0.00135653, -0.000742492, -0.000199512, -0.00152253, -4.39343e-05, 0.0151283, -0.010971, -0.00937222, -0.0145887, 0.0122431, -0.00782331, 0.470933, -0.543117, 0.336034, -2.08364, -2.16599, -0.129679, 0.46957, -0.542325, 0.33696, -2.08449, -2.16697, -0.128361, -0.00479766, 0.0176488, 0.00907903, 0.0063628, 0.00460607, -0.00285412
0.058113, 1.69181, -1.22403, -1.538, -0.899698, -1.19144, 1.22835, -1.3026, 0.0169354, 0.000383622, -0.00876683, 0.00386905, -0.000212731, 0.000742747, 0.00122392, 3.30451, 55.3845, 26.3736, 4.53003, 1.25812, 3.48971, -0.0484509, 0.000963287, -0.00134046, -0.000731879, -0.000197558, -0.00152169, -4.97699e-05, 0.0153216, -0.011716, -0.00948929, -0.016023, 0.0144872, -0.00793697, 0.470929, -0.543099, 0.336043, -2.08363, -2.166, -0.129666, 0.469582, -0.542316, 0.336956, -2.08447, -2.16699, -0.128347, -0.00499035, 0.0183707, 0.00944913, 0.00691687, 0.00518581, -0.00265216
0.059113, 1.69184, -1.22403, -1.53801, -0.899693, -1.19144, 1.22836, -1.3026, 0.0181851, -0.000681857, -0.0117365, 0.00259522, 0.000101456, 0.00575608, 0.000100643, 3.37989, 55.4202, 26.449, 4.53003, 1.25171, 3.47507, -0.0292249, 0.00094995, -0.00132371, -0.000717609, -0.000195474, -0.00151723, -5.71657e-05, 0.0163624, -0.0133286, -0.0112192, -0.015323, 0.0164997, -0.00639501, 0.470924, -0.543081, 0.336053, -2.08362, -2.16601, -0.129652, 0.469593, -0.542308, 0.336949, -2.08445, -2.167, -0.128336, -0.00518633, 0.0191057, 0.00982594, 0.00830613, 0.00522588, -0.00419384
0.060113, 1.69186, -1.22404, -1.53802, -0.899682, -1.19144, 1.22836, -1.30259, 0.0173016, -0.00136658, -0.00937168, 0.00757476, 0.000309435, 0.00477873, 0.00128538, 3.53065, 55.4559, 26.3379, 4.41894, 1.2453, 3.46042, -0.0621838, 0.000933204, -0.0013109, -0.000708712, -0.000206555, -0.00151047, -4.68613e-05, 0.0184636, -0.0121729, -0.0103863, -0.0118812, 0.0150644, -0.0122187, 0.470918, -0.543062, 0.336063, -2.0836, -2.16602, -0.129638, 0.469601, -0.542303, 0.336947, -2.08444, -2.167, -0.128339, -0.00538552, 0.0198537, 0.0102093, 0.00705856, 0.00372393, -0.00327901
0.061113, 1.69189, -1.22403, -1.53803, -0.899681, -1.19144, 1.22837, -1.3026, 0.0193646, 0.00070179, -0.0144799, 0.00760604, 0.00041307, 0.00375619, -0.000128243, 3.57032, 55.3845, 26.3736, 4.45465, 1.23981, 3.45309, -0.0356336, 0.000920238, -0.00129331, -0.000698532, -0.000204439, -0.00151399, -5.56929e-05, 0.0191174, -0.0123956, -0.011436, -0.0176454, 0.0174528, -0.0119064, 0.470913, -0.543042, 0.336073, -2.08359, -2.16603, -0.129623, 0.469614, -0.542294, 0.336945, -2.08442, -2.16702, -0.128319, -0.0055878, 0.0206142, 0.0105989, 0.00706417, 0.00400968, -0.00403409
0.062113, 1.69192, -1.22404, -1.53804, -0.899672, -1.19144, 1.22837, -1.30259, 0.0213637, -0.00124577, -0.0132722, 0.00730217, -0.000162933, 0.00272846, 0.000659128, 3.57032, 55.4559, 26.3379, 4.37927, 1.25171, 3.45309, -0.0557752, 0.000906198, -0.00127339, -0.0006843, -0.000209854, -0.00150584, -6.04749e-05, 0.0189131, -0.0137646, -0.0126539, -0.0187027, 0.0160204, -0.0106854, 0.470907, -0.543021, 0.336083, -2.08357, -2.16604, -0.129607, 0.469628, -0.542284, 0.336938, -2.0844, -2.16704, -0.128318, -0.00579309, 0.0213869, 0.0109948, 0.00817471, 0.00522785, -0.00485058
0.063113, 1.69194, -1.22402, -1.53805, -0.899665, -1.19144, 1.22838, -1.30259, 0.0170091, 0.00340598, -0.0121993, 0.00605452, -0.000106749, 0.00249585, 0.000913115, 3.6814, 55.2734, 26.2983, 4.34357, 1.25171, 3.43936, -0.0685925, 0.00088832, -0.0012597, -0.000682623, -0.000220042, -0.00151843, -5.46175e-05, 0.0206153, -0.0118552, -0.0097774, -0.0178152, 0.0209472, -0.0143567, 0.470902, -0.543, 0.336094, -2.08356, -2.16606, -0.129591, 0.469636, -0.54228, 0.336944, -2.0844, -2.16705, -0.1283, -0.00600136, 0.0221719, 0.0113968, 0.00622528, 0.00381138, -0.00181448
0.064113, 1.69197, -1.22403, -1.53806, -0.899658, -1.19144, 1.22838, -1.30259, 0.0206135, -0.00176432, -0.0107017, 0.00741014, -6.97617e-05, 0.00101019, 0.000607977, 3.6457, 55.3091, 26.2229, 4.34357, 1.25171, 3.46042, -0.0685925, 0.000875366, -0.0012379, -0.000670553, -0.000224798, -0.0015132, -6.59647e-05, 0.0202961, -0.0138546, -0.0126862, -0.0184682, 0.0154753, -0.0115271, 0.470896, -0.542978, 0.336106, -2.08354, -2.16607, -0.129574, 0.469652, -0.542267, 0.336941, -2.08437, -2.16708, -0.128295, -0.00621258, 0.0229689, 0.0118049, 0.00789387, 0.00545329, -0.00428971
0.065113, 1.69199, -1.22403, -1.53807, -0.899647, -1.19144, 1.22839, -1.30259, 0.0234791, -0.00145906, -0.0124979, 0.0102718, 0.000395355, 0.00127672, 0.000642102, 3.72108, 55.3091, 26.2626, 4.26819, 1.23981, 3.44668, -0.0750012, 0.000853753, -0.00122363, -0.000659013, -0.000233171, -0.00151043, -5.78135e-05, 0.0210235, -0.0147959, -0.0131485, -0.0189906, 0.0160415, -0.0126331, 0.470889, -0.542955, 0.336118, -2.08352, -2.16608, -0.129557, 0.469661, -0.542263, 0.336938, -2.08437, -2.16708, -0.128289, -0.0064267, 0.0237778, 0.012219, 0.00862933, 0.00565416, -0.00447352
0.066113, 1.69202, -1.22402, -1.53808, -0.899643, -1.19144, 1.22839, -1.30259, 0.0292798, -0.000349623, -0.00853602, 0.00962126, -0.000176449, 0.00068477, -0.00150514, 3.6457, 55.2734, 26.2229, 4.30786, 1.25171, 3.45309, -0.0228162, 0.00083914, -0.00120168, -0.000649013, -0.00023914, -0.00151149, -7.10828e-05, 0.0182542, -0.0188925, -0.0118222, -0.0177792, 0.0178663, -0.00318091, 0.470883, -0.542931, 0.33613, -2.0835, -2.16609, -0.129539, 0.469676, -0.542252, 0.336937, -2.08434, -2.16711, -0.128278, -0.00664368, 0.0245986, 0.0126391, 0.0124521, 0.00917387, -0.00243855
0.067113, 1.69205, -1.22402, -1.53809, -0.899637, -1.19143, 1.22839, -1.30259, 0.0325319, 0.000443036, -0.00653974, 0.00712387, 0.000561128, 0.00475145, -0.000766393, 3.60603, 55.2377, 26.2229, 4.30786, 1.2334, 3.46774, -0.0292249, 0.000822843, -0.00118087, -0.000637376, -0.000245074, -0.00150654, -7.61405e-05, 0.0167485, -0.0226346, -0.0110945, -0.0141416, 0.0208276, 0.00197409, 0.470876, -0.542906, 0.336143, -2.08349, -2.16611, -0.12952, 0.46969, -0.542241, 0.336935, -2.08432, -2.16713, -0.128272, -0.00686349, 0.0254311, 0.0130651, 0.0159418, 0.0115354, -0.0011741
0.068113, 1.69208, -1.22402, -1.53809, -0.899631, -1.19144, 1.2284, -1.30259, 0.0320905, 0.00110405, -0.00649415, 0.00844078, 0.000137171, 0.00306371, -0.000273812, 3.6814, 55.1981, 26.1515, 4.30786, 1.23981, 3.48239, -0.0356336, 0.000802, -0.00116328, -0.000629879, -0.00025761, -0.00151136, -7.44834e-05, 0.0180785, -0.0219328, -0.0109209, -0.0153773, 0.0214504, -0.00095073, 0.470869, -0.542881, 0.336156, -2.08347, -2.16612, -0.129501, 0.469702, -0.542234, 0.336937, -2.08431, -2.16715, -0.128261, -0.00708609, 0.0262753, 0.013497, 0.0150726, 0.0110112, -0.000755945
0.069113, 1.69211, -1.22402, -1.53811, -0.899624, -1.19144, 1.22841, -1.30259, 0.0314257, -0.000281479, -0.00989206, 0.0125719, -0.000586388, 0.0026427, -0.000182723, 3.6457, 55.2377, 26.2229, 4.30786, 1.25812, 3.47507, -0.0356336, 0.000781371, -0.00114206, -0.000613722, -0.000262426, -0.00150764, -7.78404e-05, 0.0214613, -0.0201107, -0.0126567, -0.0174588, 0.020882, -0.0078915, 0.470862, -0.542854, 0.336169, -2.08345, -2.16613, -0.129481, 0.469716, -0.542225, 0.336931, -2.08429, -2.16717, -0.128251, -0.00731145, 0.027131, 0.0139346, 0.0130865, 0.00871925, -0.00250168
0.070113, 1.69214, -1.22402, -1.5381, -0.89962, -1.19144, 1.22841, -1.30259, 0.0315316, 0.000673247, -0.004815, 0.0085664, -0.000153316, 0.00667607, -0.000121952, 3.57032, 55.1981, 26.1118, 4.34357, 1.25171, 3.47507, -0.0356336, 0.000766016, -0.00111554, -0.000606856, -0.000281661, -0.00150995, -9.33947e-05, 0.0203404, -0.0229295, -0.0108019, -0.0115347, 0.0240986, -0.00249249, 0.470855, -0.542827, 0.336183, -2.08343, -2.16615, -0.129461, 0.469735, -0.54221, 0.336935, -2.08426, -2.16721, -0.128251, -0.00753952, 0.0279981, 0.014378, 0.0157007, 0.0105243, -0.000138667
0.071113, 1.69218, -1.22401, -1.53812, -0.899614, -1.19144, 1.22842, -1.30259, 0.0347398, 0.000398491, -0.00780752, 0.00962805, -0.000102023, 0.00945599, 0.000393314, 3.49494, 55.1981, 26.1515, 4.34357, 1.25171, 3.48239, -0.0484509, 0.000746211, -0.00109216, -0.000593044, -0.000288259, -0.00150766, -9.87164e-05, 0.0211056, -0.0246932, -0.0120982, -0.0120956, 0.0259614, -0.00292758, 0.470847, -0.542799, 0.336197, -2.08341, -2.16616, -0.12944, 0.469751, -0.542199, 0.336932, -2.08424, -2.16723, -0.12824, -0.00777026, 0.0288765, 0.0148271, 0.0172119, 0.0109197, -0.00114202
0.072113, 1.6922, -1.22402, -1.53812, -0.89961, -1.19144, 1.22842, -1.30259, 0.0272064, -0.00153533, -0.00592018, 0.00642009, -0.000305234, 0.0068551, 0.000262133, 3.57032, 55.2734, 26.1515, 4.37927, 1.25812, 3.48971, -0.0484509, 0.000722757, -0.0010721, -0.000577151, -0.000297687, -0.00149937, -0.000100793, 0.02402, -0.0212624, -0.0131491, -0.0137114, 0.0234618, -0.00730336, 0.47084, -0.54277, 0.336212, -2.08339, -2.16618, -0.129418, 0.469764, -0.54219, 0.336927, -2.08421, -2.16724, -0.128238, -0.00800365, 0.0297661, 0.0152818, 0.0136194, 0.00895238, -0.00207278
0.073113, 1.69224, -1.22401, -1.53813, -0.899606, -1.19144, 1.22843, -1.30259, 0.0340976, 0.00154658, -0.00848884, 0.00709002, 3.39751e-05, 0.00467823, 0.000174698, 3.53065, 55.1624, 26.1872, 4.41894, 1.25171, 3.50345, -0.0484509, 0.000703976, -0.00104711, -0.000568058, -0.000307194, -0.00150239, -0.00011159, 0.0220738, -0.0243225, -0.0130174, -0.0185599, 0.026116, -0.00293352, 0.470832, -0.542741, 0.336228, -2.08336, -2.16619, -0.129396, 0.469781, -0.542176, 0.336929, -2.08419, -2.16728, -0.128224, -0.00823965, 0.0306668, 0.015742, 0.0163741, 0.0118809, -0.00127398
0.074113, 1.69227, -1.22401, -1.53813, -0.899599, -1.19144, 1.22843, -1.30258, 0.0326436, 0.00100982, -0.00549049, 0.00638451, -0.000655439, 0.00800712, 0.00133713, 3.49494, 55.1624, 26.1515, 4.37927, 1.27002, 3.51077, -0.0814099, 0.000683729, -0.00101984, -0.000556828, -0.000324997, -0.00150096, -0.000116305, 0.0233983, -0.0249459, -0.0123096, -0.0139128, 0.0282436, -0.00445337, 0.470823, -0.54271, 0.336243, -2.08334, -2.16621, -0.129373, 0.469801, -0.542163, 0.33693, -2.08417, -2.1673, -0.128222, -0.00847821, 0.0315785, 0.0162078, 0.016832, 0.0114024, -0.000333783
0.075113, 1.69231, -1.22401, -1.53814, -0.899591, -1.19144, 1.22844, -1.30258, 0.0347902, 0.000657285, -0.00583063, 0.00563891, 0.000241268, 0.00526263, 0.00163737, 3.45527, 55.1624, 26.2229, 4.34357, 1.25171, 3.53274, -0.101552, 0.000661343, -0.000994757, -0.000542601, -0.000336243, -0.00149441, -0.000119799, 0.0228587, -0.0260787, -0.0134103, -0.0172865, 0.0265902, -0.0026135, 0.470815, -0.542678, 0.33626, -2.08332, -2.16623, -0.129349, 0.469817, -0.54215, 0.336928, -2.08414, -2.16733, -0.128218, -0.0087193, 0.0325011, 0.016679, 0.0176628, 0.0130742, -0.0009004
0.076113, 1.69233, -1.22401, -1.53815, -0.899592, -1.19144, 1.22844, -1.30258, 0.0305386, -0.000408974, -0.00519, 0.00240655, -0.000991996, 0.00406219, 0.00034557, 3.53065, 55.1981, 26.2626, 4.41894, 1.28284, 3.53274, -0.0814099, 0.000635948, -0.000971993, -0.000526657, -0.000345421, -0.00149093, -0.000130298, 0.0248818, -0.0244084, -0.0144599, -0.0197162, 0.026702, -0.00356311, 0.470806, -0.542646, 0.336276, -2.08329, -2.16625, -0.129324, 0.469832, -0.542139, 0.336924, -2.08411, -2.16736, -0.128209, -0.00896288, 0.0334345, 0.0171556, 0.0157861, 0.0121029, -0.00172325
0.077113, 1.69237, -1.22402, -1.53815, -0.899589, -1.19144, 1.22845, -1.30258, 0.0299724, -0.00120963, -0.00678701, 0.00191225, -0.000423939, 0.00261482, 0.000230362, 3.49494, 55.2377, 26.2626, 4.41894, 1.27643, 3.54648, -0.0814099, 0.000614075, -0.000943902, -0.000511274, -0.000358864, -0.00148238, -0.000141311, 0.0261503, -0.0239557, -0.0159841, -0.0227207, 0.025504, -0.00493196, 0.470797, -0.542612, 0.336293, -2.08327, -2.16626, -0.129299, 0.469851, -0.542124, 0.336922, -2.08408, -2.16739, -0.128208, -0.00920893, 0.0343785, 0.0176375, 0.0150786, 0.0120105, -0.00292943
0.078113, 1.69241, -1.22402, -1.53816, -0.899586, -1.19144, 1.22845, -1.30258, 0.0297933, 0.00551531, -0.00758783, 0.00383725, -0.00072341, 0.00151218, 0.00560951, 3.45527, 55.2377, 26.3736, 4.45465, 1.28833, 3.56112, -0.101552, 0.000590432, -0.000916306, -0.000495053, -0.000366528, -0.00147839, -0.000145729, 0.0272928, -0.0231483, -0.0124651, -0.02341, 0.0324375, -0.0135758, 0.470788, -0.542578, 0.336311, -2.08324, -2.16628, -0.129273, 0.46987, -0.542109, 0.336919, -2.08405, -2.16741, -0.128195, -0.00945739, 0.0353331, 0.0181247, 0.0141938, 0.0112632, 0.000879944
0.079113, 1.69244, -1.22402, -1.53816, -0.899587, -1.19144, 1.22845, -1.30257, 0.0289553, 0.00252877, -0.00457186, 0.00123201, -0.000956973, 0.000699203, 0.00413216, 3.45527, 55.3091, 26.3379, 4.53003, 1.30115, 3.57577, -0.101552, 0.000567017, -0.000888127, -0.00048036, -0.000382614, -0.00147091, -0.000159061, 0.0275495, -0.0238943, -0.0138691, -0.0233632, 0.0299239, -0.0100257, 0.470779, -0.542543, 0.336329, -2.08322, -2.1663, -0.129247, 0.469889, -0.542094, 0.336918, -2.08401, -2.16745, -0.128196, -0.00970824, 0.0362982, 0.0186171, 0.0146463, 0.012222, -7.66814e-05
0.080113, 1.69247, -1.22401, -1.53816, -0.899579, -1.19145, 1.22845, -1.30257, 0.0302505, 0.00467605, -0.00590776, 0.00291239, -0.00131614, 0.000641351, 0.00304914, 3.49494, 55.1981, 26.449, 4.45465, 1.31946, 3.57577, -0.101552, 0.000537074, -0.000866243, -0.000469895, -0.000395042, -0.00147394, -0.000155249, 0.0286593, -0.0241475, -0.0132528, -0.0243789, 0.0329778, -0.0107514, 0.470769, -0.542506, 0.336348, -2.08319, -2.16632, -0.12922, 0.469901, -0.542084, 0.336921, -2.084, -2.16747, -0.128179, -0.00996144, 0.0372736, 0.0191147, 0.0147089, 0.0120179, 0.000849634
0.081113, 1.69251, -1.22401, -1.53816, -0.899581, -1.19145, 1.22846, -1.30257, 0.0305632, 0.00464315, -0.00413455, 0.000424209, -0.00111477, 0.000558979, 0.00201618, 3.41956, 55.2734, 26.449, 4.53003, 1.32587, 3.57577, -0.0951428, 0.000514041, -0.000835483, -0.000453885, -0.000409092, -0.00146422, -0.000174352, 0.0284273, -0.0254267, -0.0133496, -0.0244616, 0.0335308, -0.00713249, 0.470759, -0.542469, 0.336367, -2.08316, -2.16634, -0.129192, 0.469922, -0.542066, 0.33692, -2.08395, -2.16751, -0.128178, -0.010217, 0.0382593, 0.0196175, 0.0157193, 0.0133011, 0.00125354
0.082113, 1.69254, -1.22401, -1.53816, -0.899574, -1.19145, 1.22845, -1.30257, 0.0322845, 0.00356539, -0.00373862, 0.00223044, -0.00142134, 0.000233852, -0.000219632, 3.41956, 55.2734, 26.4847, 4.45465, 1.34418, 3.58218, -0.0484509, 0.000485177, -0.000810029, -0.00043972, -0.000425322, -0.00145532, -0.000177267, 0.0293166, -0.026215, -0.0140482, -0.0244566, 0.0330993, -0.00550092, 0.470749, -0.542431, 0.336386, -2.08313, -2.16636, -0.129163, 0.469938, -0.542053, 0.336921, -2.08393, -2.16753, -0.128177, -0.0104747, 0.0392552, 0.0201252, 0.0162558, 0.0135595, 0.0009094
0.083113, 1.69258, -1.22401, -1.53817, -0.899577, -1.19145, 1.22846, -1.30257, 0.0353907, 0.0027294, -0.00353071, -0.000137985, -0.000710197, 0.000467179, -0.000259595, 3.34419, 55.2734, 26.5244, 4.53003, 1.33777, 3.57577, -0.0420422, 0.000460405, -0.000778317, -0.000423106, -0.000435799, -0.00144951, -0.000193627, 0.0282369, -0.0288934, -0.0152793, -0.0258424, 0.0327797, -0.000806388, 0.470738, -0.542392, 0.336407, -2.0831, -2.16638, -0.129134, 0.46996, -0.542034, 0.33692, -2.08388, -2.16757, -0.128167, -0.0107348, 0.0402611, 0.020638, 0.0185866, 0.0159322, 0.000291812
0.084113, 1.69261, -1.22401, -1.53817, -0.899576, -1.19145, 1.22846, -1.30257, 0.0369781, 0.00208395, -0.00243651, 1.17307e-05, -0.000710819, 0.00063816, 0.000428702, 3.30451, 55.2734, 26.5244, 4.53003, 1.34418, 3.56845, -0.0557752, 0.000431809, -0.000749292, -0.000406969, -0.000449666, -0.00144287, -0.000201825, 0.0285197, -0.0302199, -0.0156631, -0.0253916, 0.0328828, -0.000365191, 0.470727, -0.542351, 0.336427, -2.08308, -2.1664, -0.129103, 0.469978, -0.542019, 0.336919, -2.08385, -2.1676, -0.128159, -0.010997, 0.0412769, 0.0211557, 0.0196457, 0.0167836, 0.00034587
0.085113, 1.69265, -1.22401, -1.53817, -0.899574, -1.19145, 1.22846, -1.30257, 0.0369466, 0.00158756, -0.00168637, 8.56112e-05, -0.000677326, 0.000467019, 0.000355656, 3.30451, 55.2734, 26.5244, 4.53003, 1.34967, 3.56845, -0.0557752, 0.000400678, -0.000722065, -0.000391238, -0.000465996, -0.00143474, -0.000207721, 0.0295251, -0.0305356, -0.0160405, -0.0253009, 0.0329238, -0.000859861, 0.470716, -0.54231, 0.336448, -2.08304, -2.16642, -0.129072, 0.469995, -0.542005, 0.336919, -2.08382, -2.16763, -0.128155, -0.0112614, 0.0423026, 0.0216783, 0.0197196, 0.0168884, 0.000330077
0.086113, 1.69269, -1.22401, -1.53817, -0.899573, -1.19145, 1.22846, -1.30257, 0.0405406, 0.00297031, -0.00200599, 0.000115417, -0.000688907, 0.000342531, 0.00448155, 3.15376, 55.1981, 26.5601, 4.53003, 1.35608, 3.56845, -0.0420422, 0.000374268, -0.000688536, -0.000378747, -0.000481134, -0.00143418, -0.000223134, 0.0289739, -0.032677, -0.0158887, -0.0265482, 0.0350857, -0.00250628, 0.470705, -0.542268, 0.33647, -2.08301, -2.16645, -0.129041, 0.470018, -0.541985, 0.336923, -2.08378, -2.16768, -0.128143, -0.011528, 0.0433381, 0.0222057, 0.0215774, 0.0185344, 0.00102702
0.087113, 1.69272, -1.22402, -1.53817, -0.89957, -1.19145, 1.22846, -1.30257, 0.0414759, -0.00226996, -0.00220743, 0.00095592, -0.000696629, -1.95252e-05, 0.00365608, 3.07838, 55.3845, 26.5958, 4.49432, 1.36249, 3.57577, -0.0484509, 0.000340972, -0.000659442, -0.000355693, -0.000495657, -0.00141502, -0.000228527, 0.0304407, -0.0332487, -0.019355, -0.0276623, 0.0303759, -0.00236919, 0.470694, -0.542224, 0.336492, -2.08298, -2.16647, -0.129008, 0.470036, -0.54197, 0.336917, -2.08374, -2.1677, -0.128146, -0.0117966, 0.0443832, 0.0227379, 0.0218063, 0.0186884, -0.0021087
0.088113, 1.69276, -1.22401, -1.53817, -0.899573, -1.19145, 1.22846, -1.30257, 0.0420398, 0.00116879, -0.000662574, -0.00016512, -0.000227059, 0.000818327, 0.00252329, 3.003, 55.2734, 26.5601, 4.53003, 1.35608, 3.5538, -0.0420422, 0.000311484, -0.000626901, -0.000344538, -0.000517115, -0.00141517, -0.000247064, 0.0303327, -0.0344704, -0.0172587, -0.0261399, 0.0345701, 0.000268642, 0.470682, -0.54218, 0.336515, -2.08295, -2.16649, -0.128975, 0.470057, -0.541952, 0.336923, -2.0837, -2.16775, -0.128139, -0.0120673, 0.0454378, 0.0232748, 0.0228289, 0.0195792, 0.000477102
0.089113, 1.6928, -1.22401, -1.53817, -0.89958, -1.19145, 1.22846, -1.30257, 0.0423831, 0.000841926, -0.000461343, -0.0018487, -0.000151371, 0.000829974, 0.00192464, 2.92762, 55.2734, 26.5601, 4.60541, 1.35608, 3.54648, -0.0420422, 0.00028089, -0.000594314, -0.000328399, -0.000534381, -0.00140892, -0.000261555, 0.030801, -0.0353344, -0.0179916, -0.0272451, 0.035063, 0.00192414, 0.47067, -0.542135, 0.336538, -2.08291, -2.16652, -0.128941, 0.470078, -0.541933, 0.336924, -2.08365, -2.16779, -0.128132, -0.0123401, 0.0465019, 0.0238164, 0.0234094, 0.0203304, 0.000195648
0.090113, 1.69284, -1.224, -1.53816, -0.899581, -1.19145, 1.22846, -1.30256, 0.0412989, -0.000226885, 0.00685136, -0.00121401, -0.000100913, 0.000834451, 0.00292299, 2.77686, 55.3091, 26.5244, 4.60541, 1.35608, 3.53915, -0.0814099, 0.000249774, -0.000559311, -0.000310882, -0.000553061, -0.00140019, -0.000272957, 0.0311891, -0.0361385, -0.0162474, -0.0208958, 0.0341293, 0.00197432, 0.470657, -0.542088, 0.336562, -2.08288, -2.16654, -0.128906, 0.470101, -0.541913, 0.336925, -2.08361, -2.16783, -0.128128, -0.0126148, 0.0475753, 0.0243626, 0.0240164, 0.0207871, 0.00237895
0.091113, 1.69288, -1.22401, -1.53817, -0.899576, -1.19145, 1.22846, -1.30256, 0.0394315, 0.000572163, 0.0034143, 0.000132525, -0.000304634, 0.00107233, 0.00161032, 2.66181, 55.4202, 26.5958, 4.56573, 1.36249, 3.52542, -0.0685925, 0.000212434, -0.000528177, -0.00028745, -0.000570915, -0.00138217, -0.000279116, 0.034289, -0.0344405, -0.0170569, -0.0232393, 0.0359985, -0.0023733, 0.470645, -0.542041, 0.336586, -2.08285, -2.16657, -0.128871, 0.47012, -0.541897, 0.336919, -2.08357, -2.16786, -0.128131, -0.0128915, 0.048658, 0.0249134, 0.0221278, 0.0188637, 0.00170193
0.092113, 1.69291, -1.22401, -1.53817, -0.899578, -1.19145, 1.22846, -1.30256, 0.0413559, 0.00068179, 0.00266407, -0.000829286, -0.000440448, 0.00126297, 0.00117583, 2.55073, 55.4202, 26.5958, 4.60541, 1.3689, 3.51077, -0.0685925, 0.000178589, -0.000493599, -0.00027082, -0.000592359, -0.00137518, -0.000293477, 0.0345158, -0.0358689, -0.0178459, -0.0249908, 0.0372519, -0.000510508, 0.470632, -0.541992, 0.336611, -2.08281, -2.16659, -0.128834, 0.470142, -0.541878, 0.336922, -2.08353, -2.16791, -0.128127, -0.0131701, 0.0497497, 0.0254687, 0.0232553, 0.0199132, 0.00139873
0.093113, 1.69295, -1.22402, -1.53817, -0.899583, -1.19145, 1.22846, -1.30256, 0.0405812, -0.00191867, 0.00206695, -0.00138029, 0.000181086, 0.00138868, 0.000623238, 2.51106, 55.5313, 26.5958, 4.64111, 1.35608, 3.49612, -0.0621838, 0.000140701, -0.000461043, -0.000247679, -0.000611167, -0.00136007, -0.000304472, 0.0361449, -0.0358443, -0.0199821, -0.0259307, 0.0350305, -0.00118522, 0.470619, -0.541942, 0.336637, -2.08277, -2.16662, -0.128797, 0.470162, -0.541861, 0.336917, -2.08348, -2.16794, -0.128127, -0.0134506, 0.0508506, 0.0260284, 0.0229316, 0.0197335, -0.000402988
0.094113, 1.69299, -1.22401, -1.53817, -0.899581, -1.19145, 1.22847, -1.30256, 0.0375801, 0.000653071, 0.000668124, -0.000914351, 0.000120724, 0.0017088, 0.00142246, 2.32459, 55.4559, 26.6355, 4.64111, 1.35608, 3.47507, -0.0878186, 0.000104336, -0.000425536, -0.000232071, -0.000631283, -0.00135925, -0.000312753, 0.0389004, -0.0340675, -0.0190941, -0.0264596, 0.0385167, -0.00701344, 0.470605, -0.541891, 0.336663, -2.08274, -2.16665, -0.128759, 0.470185, -0.541842, 0.336921, -2.08344, -2.16799, -0.128113, -0.013733, 0.0519604, 0.0265925, 0.0210089, 0.0179131, 0.000665563
0.095113, 1.69303, -1.22401, -1.53817, -0.899586, -1.19145, 1.22847, -1.30256, 0.0378991, 0.000308901, 0.00060905, -0.00153321, -0.000394235, 0.00195534, 0.000754099, 2.28492, 55.6027, 26.6355, 4.68079, 1.3689, 3.45309, -0.0814099, 6.44019e-05, -0.000392373, -0.000209036, -0.000652918, -0.00134341, -0.000319636, 0.039951, -0.034621, -0.0197767, -0.027371, 0.0395493, -0.00660833, 0.470592, -0.541839, 0.33669, -2.0827, -2.16667, -0.128721, 0.470205, -0.541824, 0.336918, -2.0834, -2.16802, -0.128115, -0.0140172, 0.053079, 0.027161, 0.0212913, 0.0181233, 0.000379858
0.096113, 1.69307, -1.22401, -1.53817, -0.899587, -1.19145, 1.22847, -1.30256, 0.0385404, 0.00140122, 0.000528758, -0.00185407, -0.000262823, 0.00181394, -0.000176981, 2.09846, 55.567, 26.6355, 4.71649, 1.3689, 3.43936, -0.0621838, 2.67752e-05, -0.000355297, -0.000191869, -0.000675565, -0.00133913, -0.000334538, 0.0406541, -0.0352614, -0.0196362, -0.0281279, 0.0412826, -0.00570746, 0.470578, -0.541786, 0.336717, -2.08266, -2.1667, -0.128681, 0.470229, -0.541804, 0.336921, -2.08336, -2.16807, -0.128107, -0.0143032, 0.0542063, 0.0277337, 0.0216764, 0.0185627, 0.000962404
0.097113, 1.69311, -1.22402, -1.53817, -0.899593, -1.19145, 1.22847, -1.30256, 0.0402275, -0.00222947, -0.00122589, -0.00299682, 6.21437e-05, 0.00175315, -0.000331075, 1.98341, 55.7138, 26.7069, 4.79187, 1.36249, 3.42471, -0.0557752, -1.22872e-05, -0.000317673, -0.000166344, -0.000692685, -0.00132394, -0.000347686, 0.0414317, -0.0365042, -0.023026, -0.0311383, 0.0384101, -0.0044981, 0.470563, -0.541732, 0.336744, -2.08262, -2.16673, -0.128641, 0.470253, -0.541783, 0.336917, -2.0833, -2.16811, -0.128102, -0.0145909, 0.0553423, 0.0283107, 0.0225338, 0.0195043, -0.00196697
0.098113, 1.69311, -1.22402, -1.53817, -0.899593, -1.19145, 1.22847, -1.30256, 0.0402275, -0.00222947, -0.00122589, -0.00299682, 6.21437e-05, 0.00175315, -0.000331075, 1.98341, 55.7138, 26.7069, 4.79187, 1.36249, 3.42471, -0.0557752, -7.18424e-05, -0.000304555, -0.00014741, -0.00072097, -0.00131119, -0.000317111, 0.0426631, -0.0367626, -0.023413, -0.0316069, 0.0391908, -0.00544106, 0.470549, -0.541677, 0.336773, -2.08258, -2.16676, -0.128599, 0.470253, -0.541783, 0.336917, -2.0833, -2.16811, -0.128102, -0.0148804, 0.0564869, 0.0288918, 0.0225338, 0.0195043, -0.00196697
0.099113, 1.6932, -1.22401, -1.53817, -0.899597, -1.19145, 1.22847, -1.30256, 0.0421098, 0.00140415, -0.000447042, -0.00281413, -0.000729669, 0.00147005, -0.00133076, 1.68189, 55.7495, 26.7069, 4.86725, 1.3808, 3.40365, -0.00999879, -9.11809e-05, -0.000239937, -0.000127118, -0.000740664, -0.00130529, -0.000381712, 0.0427349, -0.0379631, -0.0214918, -0.0319136, 0.044095, -0.00364625, 0.470534, -0.54162, 0.336802, -2.08254, -2.16679, -0.128557, 0.470302, -0.54174, 0.33692, -2.0832, -2.16821, -0.128095, -0.0151716, 0.0576399, 0.0294771, 0.0235158, 0.020343, 0.000466952
0.100113, 1.69323, -1.22402, -1.53817, -0.899606, -1.19145, 1.22847, -1.30256, 0.0427086, -0.00311536, -0.00118722, -0.00363829, -0.000249087, 0.000980587, -0.000876931, 1.57081, 55.936, 26.7466, 4.94263, 1.37439, 3.40365, -0.00999879, -0.000135233, -0.000204143, -0.000100312, -0.000758588, -0.00128766, -0.000395955, 0.0439156, -0.0386625, -0.0249888, -0.0341005, 0.0398863, -0.00385929, 0.470519, -0.541563, 0.336831, -2.08249, -2.16682, -0.128514, 0.470323, -0.54172, 0.336916, -2.08315, -2.16826, -0.128091, -0.0154644, 0.0588012, 0.0300665, 0.0238361, 0.0209057, -0.00260164
0.101113, 1.69327, -1.22401, -1.53817, -0.89961, -1.19145, 1.22847, -1.30256, 0.0401354, -0.00184424, -0.00159757, -0.00409518, -0.000166058, 0.000654142, -0.000339582, 1.45576, 55.936, 26.7823, 5.01404, 1.37439, 3.40365, -0.0164075, -0.000179053, -0.00016677, -7.93881e-05, -0.000778826, -0.00128038, -0.000403667, 0.0460945, -0.0374371, -0.0247415, -0.0348955, 0.0417076, -0.00769223, 0.470503, -0.541504, 0.336861, -2.08245, -2.16685, -0.128471, 0.470346, -0.5417, 0.336917, -2.0831, -2.1683, -0.128078, -0.0157588, 0.0599708, 0.0306599, 0.022408, 0.0198356, -0.00206386
0.102113, 1.69332, -1.22401, -1.53817, -0.899612, -1.19145, 1.22847, -1.30256, 0.0386305, -0.00272543, -0.00104321, -0.00272954, -0.000348064, 0.000436407, -0.000966613, 1.34071, 56.0074, 26.7823, 5.01404, 1.3808, 3.40365, 0.00373412, -0.000225618, -0.000130092, -5.82557e-05, -0.000800917, -0.00127403, -0.000412189, 0.0484163, -0.0366046, -0.0252111, -0.0343566, 0.0414696, -0.0104912, 0.470487, -0.541444, 0.336892, -2.08241, -2.16688, -0.128426, 0.470368, -0.541681, 0.336918, -2.08306, -2.16835, -0.128065, -0.0160548, 0.0611486, 0.0312573, 0.0213495, 0.0187592, -0.00226425
0.103113, 1.69336, -1.22401, -1.53817, -0.89962, -1.19145, 1.22847, -1.30256, 0.0401652, -0.00428453, -0.00244233, -0.00681293, 5.31623e-06, 0.000291172, -0.000640089, 1.22962, 56.1185, 26.8577, 5.08942, 1.37439, 3.40365, 0.00373412, -0.000271489, -9.17472e-05, -3.25885e-05, -0.000820699, -0.00125903, -0.00042413, 0.0481557, -0.0384383, -0.0276831, -0.038336, 0.0408596, -0.0072323, 0.470471, -0.541383, 0.336923, -2.08236, -2.16691, -0.128381, 0.470391, -0.541659, 0.336916, -2.083, -2.16839, -0.128058, -0.0163524, 0.0623344, 0.0318586, 0.0227826, 0.0206598, -0.00412078
0.104113, 1.6934, -1.22401, -1.53817, -0.899632, -1.19145, 1.22847, -1.30256, 0.0386466, -0.0013422, -0.00161593, -0.00833731, -0.000471174, 0.000194291, -0.000660845, 1.11457, 56.1938, 26.8577, 5.24017, 1.38721, 3.40365, 0.0101428, -0.000315583, -5.04326e-05, -1.05026e-05, -0.000842995, -0.00125086, -0.000443343, 0.0492911, -0.0382107, -0.0262075, -0.0386507, 0.0449788, -0.00817027, 0.470455, -0.54132, 0.336955, -2.08231, -2.16694, -0.128334, 0.470417, -0.541636, 0.336918, -2.08294, -2.16845, -0.128047, -0.0166515, 0.0635282, 0.0324637, 0.0223537, 0.0204977, -0.00222754
0.105113, 1.69344, -1.224, -1.53817, -0.899637, -1.19145, 1.22848, -1.30256, 0.0402464, -9.92621e-05, -0.00190329, -0.00659508, 0.000601412, 0.000400926, -0.000200774, 1.00349, 56.3049, 26.8934, 5.27588, 1.36249, 3.39633, 0.00373412, -0.000364196, -1.15432e-05, 1.3561e-05, -0.000867735, -0.00123761, -0.000452093, 0.0501381, -0.0390701, -0.0258081, -0.0380217, 0.0461702, -0.00935856, 0.470438, -0.541257, 0.336987, -2.08227, -2.16698, -0.128287, 0.47044, -0.541615, 0.336918, -2.08289, -2.16849, -0.128041, -0.0169521, 0.0647298, 0.0330727, 0.0229582, 0.0208393, -0.00138233
0.106113, 1.69348, -1.224, -1.53817, -0.899649, -1.19145, 1.22847, -1.30256, 0.0424942, -0.000392857, -0.00126195, -0.00714642, -0.000277227, -3.88421e-06, 0.00132603, 0.85273, 56.3406, 26.8934, 5.38696, 1.3808, 3.40365, -0.0356336, -0.00040998, 3.03875e-05, 3.36052e-05, -0.0008893, -0.00123532, -0.000465904, 0.0503016, -0.0406662, -0.0263904, -0.0393446, 0.0472927, -0.00915401, 0.470421, -0.541192, 0.337021, -2.08222, -2.16701, -0.128239, 0.470466, -0.54159, 0.336923, -2.08284, -2.16855, -0.128021, -0.0172541, 0.0659392, 0.0336855, 0.0242353, 0.0220452, -0.00141985
0.107113, 1.69352, -1.22399, -1.53817, -0.899661, -1.19145, 1.22847, -1.30256, 0.0372356, 0.00303425, 0.000573606, -0.0107146, 5.25407e-05, -0.000239874, 0.00088539, 0.737679, 56.4874, 26.9687, 5.50201, 1.37439, 3.41006, -0.0356336, -0.00045962, 7.05506e-05, 5.95121e-05, -0.000908951, -0.00122389, -0.000478823, 0.052087, -0.0390341, -0.0243822, -0.0388875, 0.0511815, -0.0108455, 0.470404, -0.541126, 0.337054, -2.08217, -2.16705, -0.12819, 0.470489, -0.541568, 0.336922, -2.08278, -2.1686, -0.128007, -0.0175576, 0.0671563, 0.0343019, 0.0224438, 0.0211237, 0.000953734
0.108113, 1.69356, -1.22399, -1.53818, -0.899669, -1.19145, 1.22847, -1.30256, 0.0391514, 0.00743063, -0.00194775, -0.0114397, 0.000238478, -0.000702395, 0.000591285, 0.626595, 56.5628, 27.0798, 5.53772, 1.3689, 3.42471, -0.0356336, -0.000511329, 0.00011, 8.39721e-05, -0.000926492, -0.00121705, -0.000487087, 0.0523576, -0.0399518, -0.023349, -0.0421716, 0.0562973, -0.0102584, 0.470387, -0.541059, 0.337088, -2.08212, -2.16708, -0.12814, 0.470512, -0.541546, 0.336923, -2.08273, -2.16864, -0.127984, -0.0178624, 0.068381, 0.034922, 0.023105, 0.0219629, 0.0025233
0.109113, 1.69361, -1.22398, -1.53818, -0.899679, -1.19145, 1.22847, -1.30256, 0.0415396, 0.00972959, -0.000262057, -0.0131516, -4.44654e-05, -0.000196954, 0.000394959, 0.475838, 56.6739, 27.0441, 5.6131, 1.37439, 3.41739, -0.0356336, -0.000561895, 0.00015276, 0.000105617, -0.000953823, -0.00121141, -0.000501357, 0.0516487, -0.0422566, -0.0221347, -0.0418786, 0.0600191, -0.0065347, 0.470369, -0.54099, 0.337123, -2.08207, -2.16712, -0.128089, 0.470538, -0.541523, 0.336927, -2.08268, -2.1687, -0.127971, -0.0181686, 0.0696132, 0.0355458, 0.0251204, 0.0238078, 0.00438357
0.110113, 1.69365, -1.22398, -1.53818, -0.899692, -1.19144, 1.22847, -1.30256, 0.0421021, 0.00995868, 0.000399835, -0.0143065, 0.000648525, 0.000139996, 2.65237e-05, 0.400459, 56.8564, 27.1552, 5.68848, 1.35608, 3.41006, -0.0292249, -0.000614506, 0.000193667, 0.000133008, -0.000974689, -0.00119553, -0.000514436, 0.0521261, -0.0433527, -0.0223432, -0.0418011, 0.0607621, -0.00506352, 0.470351, -0.540921, 0.337159, -2.08202, -2.16715, -0.128038, 0.470562, -0.541499, 0.336927, -2.08262, -2.16875, -0.12796, -0.0184762, 0.0708527, 0.036173, 0.0259185, 0.0246559, 0.00469638
0.111113, 1.69368, -1.22396, -1.53818, -0.899695, -1.19144, 1.22847, -1.30256, 0.0413928, 0.0105176, 0.00373959, -0.00852913, 0.000194991, 9.33539e-05, 0.000255474, 0.360787, 56.8921, 27.1552, 5.6131, 1.36249, 3.41006, -0.0356336, -0.000671662, 0.000232613, 0.000150348, -0.00100809, -0.00119737, -0.000515842, 0.0548272, -0.0424528, -0.0204157, -0.0367258, 0.0617613, -0.0106134, 0.470332, -0.54085, 0.337195, -2.08197, -2.16719, -0.127985, 0.470584, -0.54148, 0.336936, -2.08258, -2.1688, -0.127943, -0.018785, 0.0720996, 0.0368038, 0.0248846, 0.0229038, 0.00684034
0.112113, 1.69373, -1.22396, -1.53818, -0.89972, -1.19145, 1.22847, -1.30256, 0.0448118, 0.00642311, 0.00359784, -0.0137521, -0.000107365, 6.22536e-05, 0.00017064, 0.170357, 57.1143, 27.2663, 5.79956, 1.3689, 3.41006, -0.0356336, -0.000721586, 0.00028028, 0.00018197, -0.00101732, -0.00118755, -0.000541991, 0.0535861, -0.0458222, -0.0241975, -0.0408788, 0.0593379, -0.00370224, 0.470313, -0.540778, 0.337232, -2.08192, -2.16723, -0.127932, 0.470613, -0.54145, 0.336932, -2.0825, -2.16886, -0.127913, -0.0190951, 0.0733536, 0.0374381, 0.0277529, 0.0261077, 0.00382634
0.113113, 1.69377, -1.22395, -1.53818, -0.899728, -1.19144, 1.22847, -1.30256, 0.039928, 0.00938717, 0.00517299, -0.00985412, -0.000512386, 0.000550142, 0.000351362, 0.134651, 57.2253, 27.306, 5.79956, 1.3808, 3.39633, -0.0420422, -0.00078026, 0.00032089, 0.000202074, -0.00105012, -0.00118656, -0.000545549, 0.057785, -0.0427516, -0.0214856, -0.0369125, 0.0631189, -0.0125705, 0.470294, -0.540705, 0.337269, -2.08186, -2.16726, -0.127878, 0.470636, -0.54143, 0.336939, -2.08246, -2.16892, -0.127896, -0.0194064, 0.0746148, 0.0380757, 0.0246345, 0.0226786, 0.00658807
0.114113, 1.69381, -1.22394, -1.53818, -0.899741, -1.19144, 1.22847, -1.30256, 0.0374929, 0.00809476, 0.00252929, -0.0103118, 0.000336578, 9.55038e-05, -0.00217307, 0.059273, 57.4832, 27.3774, 5.79956, 1.36249, 3.40365, 0.0229602, -0.000837319, 0.000363608, 0.000229529, -0.00107456, -0.00117181, -0.000561333, 0.0605559, -0.0413377, -0.0235855, -0.0396809, 0.0619061, -0.0140485, 0.470275, -0.54063, 0.337307, -2.08181, -2.1673, -0.127822, 0.47066, -0.541406, 0.33694, -2.08239, -2.16897, -0.127885, -0.0197189, 0.075883, 0.0387168, 0.0229362, 0.0214741, 0.0047709
0.115113, 1.69385, -1.22393, -1.53818, -0.89976, -1.19144, 1.22847, -1.30256, 0.0357444, 0.00870364, 0.000486248, -0.0124582, -1.29738e-05, 6.36766e-05, -0.00168594, -0.0161054, 57.5546, 27.4528, 5.87494, 1.3689, 3.40365, 0.0293689, -0.000894746, 0.000406403, 0.000249673, -0.00109975, -0.00117452, -0.000576324, 0.0625018, -0.0406985, -0.0245915, -0.0428661, 0.063912, -0.0165348, 0.470255, -0.540554, 0.337346, -2.08175, -2.16734, -0.127766, 0.470685, -0.541382, 0.336949, -2.08234, -2.16904, -0.127855, -0.0200326, 0.0771581, 0.0393611, 0.0220206, 0.0209564, 0.0041406
0.116113, 1.69388, -1.22391, -1.53819, -0.899775, -1.19144, 1.22847, -1.30256, 0.0303889, 0.0101139, 0.0014296, -0.0130049, -0.0002121, -0.00046617, -0.00112386, -0.0557783, 57.7054, 27.5638, 5.91064, 1.37439, 3.41739, 0.0293689, -0.000957171, 0.000446181, 0.000274447, -0.00112243, -0.00117106, -0.00058079, 0.0657501, -0.0381141, -0.0237058, -0.0424221, 0.0659051, -0.0225853, 0.470235, -0.540477, 0.337386, -2.0817, -2.16738, -0.127709, 0.470706, -0.541361, 0.336953, -2.08228, -2.16909, -0.127827, -0.0203474, 0.07844, 0.0400087, 0.0192813, 0.0187867, 0.00524133
0.117113, 1.69392, -1.2239, -1.53819, -0.899797, -1.19144, 1.22847, -1.30256, 0.0325059, 0.015237, -0.00105508, -0.0175646, -0.0001414, -3.95082e-05, -0.000511801, -0.0914839, 57.8125, 27.6749, 5.98602, 1.37439, 3.41006, 0.0229602, -0.00101786, 0.000488541, 0.00029684, -0.00114808, -0.0011712, -0.000590872, 0.064901, -0.0401508, -0.0227181, -0.0467696, 0.0726602, -0.01943, 0.470215, -0.540398, 0.337426, -2.08164, -2.16742, -0.127651, 0.470729, -0.541337, 0.33696, -2.08223, -2.16915, -0.127799, -0.0206634, 0.0797287, 0.0406595, 0.0210065, 0.0208508, 0.00693457
0.118113, 1.69396, -1.22389, -1.53819, -0.899819, -1.19144, 1.22847, -1.30256, 0.0329443, 0.0134662, -0.0020239, -0.0177268, -9.42666e-05, 0.000211023, 0.00087956, -0.206535, 58.0347, 27.7503, 6.0614, 1.37439, 3.40365, -0.00999879, -0.00108004, 0.000532562, 0.000324459, -0.0011715, -0.00116565, -0.000598642, 0.0664392, -0.0406266, -0.0245594, -0.0481815, 0.0719431, -0.0217156, 0.470194, -0.540319, 0.337466, -2.08158, -2.16746, -0.127592, 0.470754, -0.541312, 0.336962, -2.08217, -2.16921, -0.127773, -0.0209804, 0.081024, 0.0413134, 0.0211548, 0.0209315, 0.00551732
0.119113, 1.69399, -1.22387, -1.53818, -0.89984, -1.19144, 1.22847, -1.30256, 0.0355742, 0.0196663, 0.00299848, -0.020114, -0.000300203, 0.000140685, 0.000823776, -0.281914, 58.0704, 27.7146, 6.09711, 1.3808, 3.40365, -0.0164075, -0.00114228, 0.000576129, 0.000341902, -0.00120566, -0.00117086, -0.000609004, 0.0643509, -0.0436389, -0.0200511, -0.0454896, 0.079098, -0.0157856, 0.470173, -0.540238, 0.337508, -2.08152, -2.1675, -0.127533, 0.470778, -0.541288, 0.336975, -2.08212, -2.16928, -0.127746, -0.0212984, 0.0823259, 0.0419705, 0.0239382, 0.0237353, 0.0108538
0.120113, 1.69402, -1.22386, -1.53819, -0.899863, -1.19143, 1.22847, -1.30256, 0.035322, 0.0125848, 0.000489114, -0.0251086, 3.72234e-05, -0.000143568, 0.000549216, -0.392998, 58.3282, 27.9368, 6.13678, 1.37439, 3.41006, -0.0164075, -0.00120962, 0.00061652, 0.000374744, -0.00122191, -0.00115759, -0.000613387, 0.0654958, -0.0445744, -0.0262425, -0.0512224, 0.0731031, -0.0134195, 0.470152, -0.540155, 0.33755, -2.08146, -2.16755, -0.127472, 0.470799, -0.541266, 0.336973, -2.08206, -2.16932, -0.127718, -0.0216174, 0.0836343, 0.0426306, 0.0243647, 0.0249032, 0.00519324
0.121113, 1.69405, -1.22383, -1.53819, -0.899882, -1.19143, 1.22846, -1.30256, 0.0362771, 0.0166154, 0.00319026, -0.0230277, 2.48156e-05, -0.000366978, -0.000142458, -0.43267, 58.3282, 27.9725, 6.0614, 1.37439, 3.41739, -0.00267457, -0.00127684, 0.000656814, 0.000390117, -0.00125541, -0.0011667, -0.00061715, 0.0661293, -0.04528, -0.0231405, -0.0483994, 0.0775735, -0.01344, 0.47013, -0.540072, 0.337592, -2.0814, -2.16759, -0.12741, 0.470819, -0.541244, 0.336989, -2.08202, -2.16939, -0.127684, -0.0219375, 0.084949, 0.0432937, 0.024892, 0.0251497, 0.00879896
0.122113, 1.69408, -1.22381, -1.53819, -0.899915, -1.19143, 1.22847, -1.30256, 0.0357784, 0.0167516, 0.00334764, -0.0284334, 0.000457353, -0.00453341, 0.000888391, -0.543754, 58.4393, 28.0875, 6.13678, 1.36249, 3.40365, -0.0292249, -0.00134404, 0.000699645, 0.000414309, -0.00127881, -0.00117137, -0.000624014, 0.0656041, -0.0458006, -0.0245414, -0.0546899, 0.0766366, -0.0110832, 0.470108, -0.539987, 0.337635, -2.08134, -2.16763, -0.127348, 0.470842, -0.54122, 0.336997, -2.08196, -2.16945, -0.127644, -0.0222584, 0.08627, 0.0439598, 0.0250201, 0.0272279, 0.00814584
0.123113, 1.69411, -1.22379, -1.53819, -0.899943, -1.19143, 1.22846, -1.30256, 0.03607, 0.0200245, 0.00452863, -0.0274496, 6.75432e-05, -0.00365942, 0.000592274, -0.694511, 58.5504, 28.1589, 6.13678, 1.3689, 3.41006, -0.0292249, -0.00141079, 0.000743905, 0.00043697, -0.00130626, -0.00117234, -0.000635996, 0.0667996, -0.0462864, -0.022448, -0.0529033, 0.0813853, -0.0120503, 0.470086, -0.5399, 0.337679, -2.08127, -2.16768, -0.127284, 0.470865, -0.541194, 0.337007, -2.0819, -2.16952, -0.127611, -0.0225803, 0.0875972, 0.0446288, 0.0253095, 0.0270771, 0.0106815
0.124113, 1.69414, -1.22377, -1.53819, -0.899976, -1.19143, 1.22846, -1.30256, 0.0345872, 0.0193688, 0.00449974, -0.0276517, 4.50288e-05, -0.00250209, 0.00039486, -0.76989, 58.6615, 28.274, 6.17248, 1.3689, 3.40365, -0.0292249, -0.00148199, 0.000785217, 0.000461074, -0.00133206, -0.00117643, -0.000641982, 0.0690252, -0.0459991, -0.0231396, -0.0523786, 0.082191, -0.0142242, 0.470063, -0.539813, 0.337724, -2.08121, -2.16772, -0.127219, 0.470886, -0.541172, 0.337015, -2.08185, -2.16958, -0.127572, -0.0229031, 0.0889305, 0.0453006, 0.0247598, 0.0263086, 0.0103353
0.125113, 1.69417, -1.22375, -1.53819, -0.900017, -1.19143, 1.22846, -1.30255, 0.0312273, 0.0188123, 0.00368059, -0.0317114, -0.00041079, -0.00107913, 2.58885e-05, -0.884941, 58.7726, 28.4208, 6.24786, 1.3808, 3.38168, -0.0228162, -0.00155183, 0.000829851, 0.000487305, -0.00135483, -0.00118161, -0.000652871, 0.0712168, -0.0453808, -0.0244707, -0.0540579, 0.0839198, -0.0152389, 0.47004, -0.539724, 0.337769, -2.08114, -2.16777, -0.127154, 0.470909, -0.541146, 0.337022, -2.08179, -2.16965, -0.127527, -0.0232267, 0.0902698, 0.0459753, 0.0238533, 0.0256631, 0.00937607
0.126113, 1.69419, -1.22374, -1.53819, -0.900057, -1.19143, 1.22846, -1.30256, 0.0299842, 0.0176753, 0.0056338, -0.0329323, -0.00027386, -0.00115935, -0.00072872, -0.920646, 58.9194, 28.4565, 6.24786, 1.3808, 3.38901, -0.00267457, -0.00162437, 0.000870912, 0.000513195, -0.00138396, -0.00117595, -0.000666347, 0.0725183, -0.0456043, -0.0250091, -0.0533694, 0.0834808, -0.0147168, 0.470017, -0.539634, 0.337815, -2.08108, -2.16781, -0.127088, 0.470929, -0.541121, 0.33703, -2.08172, -2.16972, -0.1275, -0.0235512, 0.0916151, 0.0466527, 0.0237831, 0.0258173, 0.0093134
0.127113, 1.69421, -1.22371, -1.53819, -0.900095, -1.19143, 1.22846, -1.30256, 0.0301127, 0.0217097, 0.00521403, -0.0361821, -0.000860742, -0.000356858, -0.00190996, -0.996025, 58.9908, 28.5715, 6.20819, 1.39911, 3.37436, 0.0357776, -0.00170081, 0.000911691, 0.000535099, -0.00141563, -0.00118689, -0.000670931, 0.0728503, -0.046616, -0.0236299, -0.0550704, 0.0896024, -0.0121248, 0.469994, -0.539542, 0.337862, -2.08101, -2.16786, -0.12702, 0.470948, -0.5411, 0.337042, -2.08167, -2.16979, -0.127458, -0.0238765, 0.0929661, 0.0473329, 0.0245355, 0.0266754, 0.0112717
0.128113, 1.69422, -1.22369, -1.53818, -0.900144, -1.19143, 1.22846, -1.30256, 0.0239806, 0.0205306, 0.0036384, -0.0414574, -0.000573828, -0.000604042, 0.000422116, -1.07537, 59.1019, 28.6072, 6.28357, 1.39911, 3.38168, -0.00999879, -0.00177504, 0.000953441, 0.00055959, -0.0014424, -0.00118997, -0.000676785, 0.0758297, -0.044374, -0.0257743, -0.0587244, 0.0893563, -0.0176303, 0.46997, -0.539449, 0.337909, -2.08094, -2.16791, -0.126952, 0.470968, -0.541075, 0.337052, -2.08161, -2.16986, -0.127417, -0.0242025, 0.094323, 0.0480157, 0.0220046, 0.0253234, 0.00944776
0.129113, 1.69424, -1.22366, -1.53817, -0.90019, -1.19142, 1.22846, -1.30255, 0.0233593, 0.0230175, 0.00458853, -0.0435581, -0.00106072, -0.00020258, 0.000281413, -1.18645, 59.0662, 28.6826, 6.28357, 1.41742, 3.37436, -0.00999879, -0.00185031, 0.000995112, 0.000579389, -0.00146966, -0.00120211, -0.000685593, 0.0766482, -0.0449165, -0.0246588, -0.059, 0.0934481, -0.0171092, 0.469946, -0.539355, 0.337957, -2.08087, -2.16796, -0.126882, 0.470987, -0.54105, 0.337068, -2.08155, -2.16993, -0.127366, -0.0245292, 0.0956855, 0.0487012, 0.0222958, 0.0257327, 0.0110908
0.130113, 1.69425, -1.22364, -1.53816, -0.900237, -1.19142, 1.22846, -1.30256, 0.0179234, 0.0197098, 0.00798473, -0.0432937, -0.000944506, 8.28495e-05, -0.00103309, -1.22613, 59.2487, 28.6429, 6.20819, 1.42383, 3.36703, 0.0229602, -0.00193157, 0.00103376, 0.000605009, -0.00150686, -0.00119994, -0.000695063, 0.0802261, -0.042818, -0.0255124, -0.0555768, 0.0907031, -0.0207518, 0.469921, -0.539259, 0.338006, -2.0808, -2.168, -0.126812, 0.471004, -0.541029, 0.337078, -2.08149, -2.17, -0.12734, -0.0248567, 0.0970535, 0.0493892, 0.0199791, 0.0236096, 0.0104503
0.131113, 1.69426, -1.22362, -1.53816, -0.900295, -1.19142, 1.22845, -1.30256, 0.0156143, 0.0199488, 0.010655, -0.0498062, -0.000392312, -0.000256058, -0.00116344, -1.33721, 59.324, 28.7183, 6.28357, 1.41742, 3.37436, 0.0357776, -0.00200858, 0.00107646, 0.000629576, -0.00153503, -0.00120504, -0.000711995, 0.0800719, -0.0437255, -0.025701, -0.0565434, 0.0915736, -0.0168354, 0.469896, -0.539162, 0.338055, -2.08073, -2.16805, -0.126741, 0.471024, -0.541002, 0.337089, -2.08142, -2.17008, -0.127297, -0.0251848, 0.0984271, 0.0500798, 0.020547, 0.0252057, 0.0109492
0.132113, 1.69427, -1.22358, -1.53815, -0.900351, -1.19142, 1.22845, -1.30256, 0.0139009, 0.0225549, 0.010619, -0.0491075, -0.000736259, 0.000579171, 0.000411166, -1.45226, 59.2883, 28.754, 6.24786, 1.43024, 3.3533, 0.00373412, -0.00208799, 0.00111739, 0.00064733, -0.00156745, -0.00122119, -0.000717628, 0.0824344, -0.042952, -0.0243876, -0.0557279, 0.0956706, -0.0219966, 0.469871, -0.539064, 0.338106, -2.08066, -2.1681, -0.126669, 0.471042, -0.540977, 0.337108, -2.08137, -2.17016, -0.127245, -0.0255136, 0.099806, 0.0507728, 0.0195891, 0.0240196, 0.0125992
0.133113, 1.69428, -1.22356, -1.53815, -0.900418, -1.19142, 1.22845, -1.30256, 0.0124659, 0.0218742, 0.00646564, -0.0574072, -0.000931649, 0.000363601, 0.00051147, -1.56335, 59.3597, 28.8294, 6.32324, 1.44214, 3.3533, -0.00267457, -0.00216835, 0.00115886, 0.00067559, -0.0015854, -0.00122836, -0.000730767, 0.0830488, -0.043512, -0.0278217, -0.0639607, 0.0969269, -0.0194186, 0.469845, -0.538964, 0.338156, -2.08059, -2.16815, -0.126595, 0.47106, -0.540951, 0.337118, -2.08129, -2.17024, -0.127186, -0.025843, 0.10119, 0.0514683, 0.0197139, 0.0253484, 0.00979061
0.134113, 1.69428, -1.22352, -1.53814, -0.900484, -1.19141, 1.22845, -1.30256, 0.00437073, 0.0229275, 0.00741128, -0.0586956, 5.70692e-05, 0.00103932, 0.00132432, -1.63873, 59.3597, 28.8691, 6.32324, 1.42383, 3.33133, -0.0292249, -0.00225104, 0.00119956, 0.000698489, -0.00161667, -0.00123877, -0.000737919, 0.0873326, -0.0399265, -0.027038, -0.0619052, 0.0982273, -0.0274387, 0.46982, -0.538862, 0.338208, -2.08052, -2.16821, -0.126521, 0.471077, -0.540926, 0.337132, -2.08123, -2.17031, -0.127137, -0.026173, 0.10258, 0.0521662, 0.0160008, 0.022234, 0.0107163
0.135114, 1.69429, -1.22349, -1.53813, -0.900557, -1.19141, 1.22845, -1.30255, 0.00542988, 0.0265979, 0.0089056, -0.0635181, -0.000640122, 0.000951482, 0.00112024, -1.75378, 59.3597, 28.8691, 6.35895, 1.44214, 3.324, -0.0356336, -0.0023319, 0.00124201, 0.000719977, -0.00164489, -0.00125249, -0.000751494, 0.0863952, -0.0419793, -0.0255531, -0.063694, 0.103706, -0.0226643, 0.469793, -0.53876, 0.33826, -2.08044, -2.16826, -0.126446, 0.471095, -0.540898, 0.337149, -2.08117, -2.1704, -0.12708, -0.0265036, 0.103974, 0.0528664, 0.0177445, 0.0244189, 0.0129616
0.136114, 1.69428, -1.22347, -1.53812, -0.900625, -1.1914, 1.22845, -1.30255, 0.00115827, 0.022073, 0.00687447, -0.0646842, -0.000426748, 0.000862183, 0.000272111, -1.78948, 59.5462, 28.8691, 6.28357, 1.44214, 3.31759, -0.0228162, -0.00241908, 0.00128116, 0.000747341, -0.00168206, -0.00124974, -0.000759376, 0.0902578, -0.0398716, -0.0293482, -0.0662605, 0.100011, -0.0269541, 0.469767, -0.538656, 0.338313, -2.08036, -2.16831, -0.12637, 0.47111, -0.540874, 0.337161, -2.0811, -2.17047, -0.127049, -0.0268347, 0.105374, 0.0535689, 0.0153146, 0.0224942, 0.00938836
0.137114, 1.69428, -1.22344, -1.5381, -0.900712, -1.1914, 1.22845, -1.30255, 0.00217308, 0.0247034, 0.00846024, -0.0700961, 0.00363468, -0.00329341, 0.000418766, -1.86486, 59.6176, 28.8691, 6.39465, 1.46045, 3.29562, -0.0292249, -0.00250059, 0.0013258, 0.000773234, -0.0017084, -0.00125979, -0.000783754, 0.087892, -0.0418588, -0.0288837, -0.0696551, 0.0985979, -0.0203999, 0.46974, -0.538551, 0.338366, -2.08029, -2.16836, -0.126293, 0.47113, -0.540843, 0.337175, -2.08102, -2.17057, -0.126994, -0.0271662, 0.106779, 0.0542736, 0.0168976, 0.0262526, 0.0108527
0.138114, 1.69428, -1.22341, -1.5381, -0.900798, -1.19139, 1.22844, -1.30255, -0.00188089, 0.0267229, 0.00712269, -0.0742818, 0.00280623, -0.00231925, 4.18189e-05, -1.86486, 59.693, 28.9802, 6.39465, 1.46045, 3.2883, -0.0228162, -0.0025869, 0.00136521, 0.000801186, -0.00172615, -0.00126784, -0.000799458, 0.0903178, -0.0406187, -0.0289334, -0.0721076, 0.103036, -0.0224492, 0.469713, -0.538444, 0.338421, -2.08021, -2.16842, -0.126215, 0.471145, -0.540815, 0.337187, -2.08094, -2.17065, -0.126929, -0.0274983, 0.108188, 0.0549806, 0.0154223, 0.0252221, 0.0111765
0.139114, 1.69427, -1.22338, -1.53809, -0.900884, -1.19139, 1.22844, -1.30255, -0.00611452, 0.027279, 0.00691829, -0.0799947, 0.00168344, -0.00106246, -0.000446839, -1.94024, 59.8041, 29.0555, 6.35895, 1.47327, 3.26724, -0.00999879, -0.00267422, 0.00140757, 0.000829707, -0.00175463, -0.00127348, -0.000818632, 0.0923664, -0.0398643, -0.029619, -0.0742842, 0.106457, -0.0227559, 0.469685, -0.538336, 0.338476, -2.08013, -2.16847, -0.126136, 0.471162, -0.540787, 0.337199, -2.08085, -2.17074, -0.126878, -0.0278308, 0.109602, 0.0556897, 0.0143925, 0.024687, 0.0109172
0.140114, 1.69426, -1.22334, -1.53807, -0.90098, -1.19138, 1.22844, -1.30255, -0.00723376, 0.0314458, 0.00949844, -0.0852626, 0.00647253, -0.00065918, -0.000297892, -1.97991, 59.7644, 29.0159, 6.35895, 1.46686, 3.25992, -0.00999879, -0.00275704, 0.00145248, 0.000849881, -0.00178711, -0.0012872, -0.000847427, 0.0909803, -0.0416813, -0.0273734, -0.0719896, 0.108097, -0.0177494, 0.469658, -0.538226, 0.338531, -2.08005, -2.16853, -0.126055, 0.471182, -0.540754, 0.33722, -2.08077, -2.17085, -0.126823, -0.0281637, 0.111021, 0.0564009, 0.015911, 0.0272137, 0.014001
0.141114, 1.69425, -1.2233, -1.53806, -0.901077, -1.19137, 1.22843, -1.30255, -0.00982703, 0.0316011, 0.00769711, -0.0861301, 0.00444395, -0.000334791, 0.000276123, -1.94024, 59.8398, 29.1269, 6.35895, 1.47876, 3.25259, -0.0228162, -0.00284602, 0.00149174, 0.000875643, -0.00180887, -0.00129748, -0.000864243, 0.0942013, -0.0402209, -0.028358, -0.0747711, 0.111125, -0.0228106, 0.469629, -0.538115, 0.338588, -2.07997, -2.16858, -0.125974, 0.471195, -0.540725, 0.337236, -2.08069, -2.17093, -0.126757, -0.028497, 0.112445, 0.0571142, 0.0142097, 0.025545, 0.0132929
0.142114, 1.69423, -1.22326, -1.53805, -0.901175, -1.19136, 1.22843, -1.30256, -0.0145891, 0.0356846, 0.00982189, -0.0912916, 0.00670037, -0.00407561, -0.00151134, -1.90453, 59.8755, 29.238, 6.28357, 1.5163, 3.22421, 0.0229602, -0.00293718, 0.00153117, 0.000899003, -0.00183846, -0.00131111, -0.000885799, 0.0946498, -0.038851, -0.0264923, -0.0770565, 0.11262, -0.0206357, 0.469601, -0.538002, 0.338645, -2.07989, -2.16864, -0.125892, 0.471209, -0.540697, 0.337255, -2.0806, -2.17103, -0.126696, -0.0288307, 0.113873, 0.0578295, 0.0126021, 0.0261869, 0.015826
0.143114, 1.69421, -1.22323, -1.53802, -0.901284, -1.19135, 1.22842, -1.30256, -0.0173974, 0.0361646, 0.0150842, -0.0967459, 0.00963372, -0.00266648, -0.00100756, -1.90453, 60.0223, 29.2023, 6.28357, 1.5282, 3.20956, 0.0229602, -0.00302409, 0.00157549, 0.000923816, -0.00187401, -0.00131534, -0.000917756, 0.0942373, -0.040278, -0.0253124, -0.0725456, 0.112405, -0.0167582, 0.469572, -0.537889, 0.338703, -2.07981, -2.1687, -0.125809, 0.471227, -0.540664, 0.337273, -2.08051, -2.17114, -0.126652, -0.0291647, 0.115306, 0.0585467, 0.0137269, 0.0279119, 0.0177259
0.144114, 1.6942, -1.22319, -1.53801, -0.901392, -1.19133, 1.22841, -1.30256, -0.0175168, 0.0384257, 0.0152639, -0.100131, 0.00668642, -0.00668594, -0.000434347, -1.97991, 60.0977, 29.3134, 6.24786, 1.54651, 3.20224, 0.0165515, -0.00311163, 0.0016201, 0.000949104, -0.00189991, -0.00132392, -0.000947902, 0.094742, -0.0401736, -0.0252234, -0.0792102, 0.116321, -0.0165749, 0.469543, -0.537773, 0.338761, -2.07972, -2.16875, -0.125725, 0.471245, -0.540629, 0.337292, -2.08041, -2.17124, -0.126591, -0.029499, 0.116743, 0.0592659, 0.0133158, 0.0288344, 0.0184589
0.145114, 1.69417, -1.22315, -1.53799, -0.901506, -1.19132, 1.22841, -1.30256, -0.0224049, 0.0344088, 0.0177915, -0.103691, 0.00894934, -0.00905198, 0.000185153, -1.86486, 60.2802, 29.4642, 6.24786, 1.57123, 3.18118, 0.00373412, -0.0032064, 0.00165741, 0.000977206, -0.00192624, -0.00132745, -0.000965635, 0.0965681, -0.0388561, -0.0276196, -0.0798324, 0.110252, -0.0179899, 0.469513, -0.537657, 0.338821, -2.07964, -2.16881, -0.12564, 0.471255, -0.5406, 0.337308, -2.08032, -2.17133, -0.126533, -0.0298335, 0.118184, 0.059987, 0.0116478, 0.0287816, 0.0165755
0.146114, 1.69415, -1.2231, -1.53797, -0.901622, -1.1913, 1.2284, -1.30256, -0.0233665, 0.040614, 0.0193377, -0.108337, 0.0110052, -0.006663, -0.000351282, -1.97991, 60.2087, 29.4999, 6.20819, 1.58954, 3.17386, 0.0165515, -0.0032929, 0.00170315, 0.000994341, -0.00195998, -0.00134313, -0.00100389, 0.0960918, -0.0404555, -0.0243014, -0.0775563, 0.117173, -0.0141595, 0.469484, -0.537538, 0.338881, -2.07955, -2.16887, -0.125554, 0.471274, -0.540562, 0.337336, -2.08022, -2.17146, -0.126473, -0.0301683, 0.119629, 0.0607099, 0.0130253, 0.0302646, 0.0205967
0.147114, 1.69412, -1.22306, -1.53794, -0.901744, -1.19129, 1.22839, -1.30256, -0.0240218, 0.0389964, 0.0225849, -0.112061, 0.0126157, -0.00484544, -0.000234188, -1.97991, 60.3912, 29.5752, 6.17248, 1.60785, 3.16653, 0.0165515, -0.0033846, 0.00174638, 0.00101975, -0.00199658, -0.00134549, -0.00103731, 0.0961799, -0.0423173, -0.024905, -0.0747483, 0.116205, -0.0106689, 0.469453, -0.537419, 0.338941, -2.07946, -2.16893, -0.125467, 0.471289, -0.540527, 0.337356, -2.08012, -2.17157, -0.126427, -0.0305034, 0.121079, 0.0614347, 0.0145336, 0.0318044, 0.0206512
0.148114, 1.69409, -1.22302, -1.53791, -0.901873, -1.19126, 1.22839, -1.30256, -0.0277756, 0.0435528, 0.0251133, -0.115418, 0.0143348, -0.0032277, 8.12334e-05, -1.97991, 60.4666, 29.6506, 6.17248, 1.60785, 3.1528, 0.0101428, -0.00347635, 0.00178831, 0.00104095, -0.00203146, -0.00135392, -0.00107063, 0.0972737, -0.0420874, -0.0219553, -0.0715363, 0.121117, -0.0111885, 0.469423, -0.537298, 0.339003, -2.07938, -2.16899, -0.125378, 0.471304, -0.540491, 0.337381, -2.08002, -2.17168, -0.126373, -0.0308386, 0.122533, 0.0621611, 0.0141318, 0.0317206, 0.0241298
0.149114, 1.69406, -1.22297, -1.53788, -0.902003, -1.19124, 1.22838, -1.30256, -0.0325851, 0.0463827, 0.0317789, -0.12293, 0.014598, -0.00198879, 0.000291515, -2.01562, 60.5777, 29.6506, 6.13678, 1.63257, 3.13815, 0.00373412, -0.00356694, 0.00183243, 0.00105911, -0.00207802, -0.00135819, -0.00110973, 0.0971575, -0.0427162, -0.0191065, -0.0676792, 0.125396, -0.00747452, 0.469392, -0.537175, 0.339065, -2.07929, -2.16905, -0.125289, 0.47132, -0.540453, 0.33741, -2.07992, -2.1718, -0.126335, -0.031174, 0.12399, 0.0628893, 0.0145363, 0.0328892, 0.0276688
0.150114, 1.69402, -1.22292, -1.53785, -0.902143, -1.19122, 1.22837, -1.30255, -0.0360699, 0.0422641, 0.0284266, -0.126938, 0.0191539, -0.00575571, 0.00212712, -2.05529, 60.6848, 29.8728, 6.13678, 1.66919, 3.1235, -0.0484509, -0.00366118, 0.00187288, 0.00108416, -0.00210528, -0.00136278, -0.00113934, 0.0988874, -0.0412605, -0.0239151, -0.0740309, 0.11712, -0.0104007, 0.469361, -0.537051, 0.339128, -2.0792, -2.16911, -0.125199, 0.471332, -0.540417, 0.337432, -2.07981, -2.17191, -0.126274, -0.0315095, 0.125452, 0.0636192, 0.0126315, 0.0333127, 0.0234315
0.151114, 1.69398, -1.22288, -1.53782, -0.902283, -1.19119, 1.22836, -1.30255, -0.0389237, 0.0430052, 0.0296977, -0.131973, 0.0187952, -0.00339011, 0.00141808, -2.091, 60.7602, 29.9482, 6.09711, 1.68201, 3.09512, -0.0484509, -0.00375447, 0.00191587, 0.00110267, -0.00215138, -0.00136752, -0.0011766, 0.100213, -0.0416675, -0.0238652, -0.0734885, 0.120566, -0.00877851, 0.469329, -0.536926, 0.339191, -2.07911, -2.16918, -0.125108, 0.471347, -0.540378, 0.337462, -2.07971, -2.17203, -0.126233, -0.0318451, 0.126917, 0.0643506, 0.0127614, 0.0334824, 0.0239951
0.152114, 1.69393, -1.22283, -1.53777, -0.902433, -1.19116, 1.22835, -1.30255, -0.0421376, 0.0419786, 0.0291859, -0.1411, 0.0184231, -0.00271317, 0.000945388, -2.20605, 60.907, 29.9482, 6.13678, 1.70032, 3.09512, -0.0484509, -0.00384467, 0.00196179, 0.00112333, -0.00219751, -0.00136382, -0.00122742, 0.100858, -0.0421985, -0.0261855, -0.0780192, 0.121894, -0.0050039, 0.469298, -0.536799, 0.339256, -2.07902, -2.16924, -0.125016, 0.471364, -0.540335, 0.33749, -2.07958, -2.17217, -0.126201, -0.0321808, 0.128386, 0.0650837, 0.0128951, 0.0346936, 0.0223202
0.153114, 1.69388, -1.22277, -1.53774, -0.902589, -1.19112, 1.22834, -1.30255, -0.0448315, 0.0448647, 0.0298704, -0.146555, 0.0229813, -0.00669553, 0.000630259, -2.20605, 60.907, 30.0236, 6.13678, 1.71863, 3.0878, -0.0484509, -0.00394028, 0.00200085, 0.00114072, -0.00223934, -0.0013687, -0.00126829, 0.100281, -0.0420345, -0.0257189, -0.0812758, 0.1204, -0.00192294, 0.469265, -0.53667, 0.339321, -2.07892, -2.1693, -0.124922, 0.471374, -0.540297, 0.337522, -2.07947, -2.17229, -0.126154, -0.0325166, 0.129859, 0.0658182, 0.0123962, 0.0366606, 0.02361
0.154114, 1.69383, -1.22273, -1.5377, -0.902754, -1.19109, 1.22833, -1.30255, -0.047728, 0.0439458, 0.0326877, -0.151582, 0.0216327, -0.00980966, -0.000766622, -2.28143, 61.0181, 30.1346, 6.17248, 1.73053, 3.0878, -0.0164075, -0.00403357, 0.0020435, 0.0011637, -0.00227692, -0.00136432, -0.00132044, 0.101102, -0.0416036, -0.0265785, -0.0847369, 0.120205, 0.00077658, 0.469233, -0.53654, 0.339387, -2.07883, -2.16937, -0.124828, 0.471387, -0.540253, 0.33755, -2.07934, -2.17242, -0.126111, -0.0328524, 0.131335, 0.0665543, 0.0116339, 0.0374399, 0.0233854
0.155114, 1.69377, -1.22268, -1.53766, -0.902919, -1.19105, 1.22831, -1.30255, -0.0511329, 0.0456768, 0.0349733, -0.156899, 0.0241544, -0.0120977, -0.00074844, -2.3211, 61.1649, 30.2457, 6.13678, 1.76807, 3.0878, -0.00999879, -0.0041313, 0.00208332, 0.00118811, -0.00231756, -0.00135654, -0.00136581, 0.101242, -0.041392, -0.0260165, -0.0859886, 0.119934, 0.00280706, 0.4692, -0.536409, 0.339453, -2.07873, -2.16943, -0.124733, 0.471397, -0.540213, 0.337576, -2.07921, -2.17255, -0.126074, -0.0331882, 0.132814, 0.0672918, 0.0111198, 0.0386879, 0.0246634
0.156114, 1.69371, -1.22263, -1.5376, -0.903087, -1.19101, 1.2283, -1.30254, -0.0552425, 0.0449672, 0.0425149, -0.160601, 0.0326126, -0.0139448, -0.000261601, -2.43218, 61.2759, 30.2457, 6.09711, 1.76166, 3.0878, -0.0164075, -0.00422479, 0.00212851, 0.00120698, -0.00237351, -0.00134694, -0.00142249, 0.100182, -0.0421369, -0.0247179, -0.0788271, 0.112102, 0.00684707, 0.469167, -0.536276, 0.33952, -2.07864, -2.1695, -0.124636, 0.471412, -0.540167, 0.337609, -2.07908, -2.17269, -0.126055, -0.033524, 0.134297, 0.0680307, 0.0115426, 0.0410566, 0.0268234
0.157114, 1.69364, -1.22258, -1.53755, -0.903265, -1.19097, 1.22829, -1.30254, -0.0565649, 0.044327, 0.0462535, -0.167789, 0.0329275, -0.0146366, -0.000174401, -2.47185, 61.387, 30.3211, 6.09711, 1.79828, 3.07315, -0.0164075, -0.00432257, 0.00216874, 0.00122645, -0.00242487, -0.00134046, -0.00147166, 0.0993753, -0.0438533, -0.0252536, -0.0798536, 0.112214, 0.0125031, 0.469133, -0.536142, 0.339588, -2.07854, -2.16956, -0.124539, 0.471422, -0.540125, 0.337641, -2.07896, -2.17283, -0.126027, -0.0338597, 0.135784, 0.0687709, 0.0128725, 0.0435012, 0.0271018
0.158114, 1.69356, -1.22253, -1.53751, -0.903448, -1.19093, 1.22828, -1.30254, -0.0596967, 0.0479715, 0.0482311, -0.172294, 0.0387572, -0.0102622, -0.000116267, -2.54723, 61.4584, 30.4322, 6.0614, 1.80469, 3.05209, -0.0164075, -0.00442283, 0.00220735, 0.00124711, -0.00247339, -0.00133445, -0.00152067, 0.0995608, -0.0451081, -0.022995, -0.0735481, 0.114394, 0.0149786, 0.469099, -0.536006, 0.339657, -2.07844, -2.16963, -0.124441, 0.47143, -0.540083, 0.337673, -2.07883, -2.17296, -0.125993, -0.0341954, 0.137273, 0.0695125, 0.0138923, 0.0445237, 0.0300038
0.159114, 1.69349, -1.22247, -1.53745, -0.903647, -1.19088, 1.22826, -1.30254, -0.0633698, 0.0512628, 0.0497832, -0.183777, 0.0426257, -0.0122342, -0.00031487, -2.62261, 61.4981, 30.5433, 6.09711, 1.82941, 3.04477, -0.00999879, -0.00451907, 0.00224776, 0.00126632, -0.0025187, -0.00132734, -0.00158396, 0.0977736, -0.0461671, -0.0226007, -0.0773237, 0.115329, 0.0224161, 0.469065, -0.535869, 0.339727, -2.07834, -2.1697, -0.124341, 0.471439, -0.540036, 0.337707, -2.07868, -2.17311, -0.125958, -0.0345309, 0.138766, 0.0702554, 0.014564, 0.0477721, 0.0313754
0.160114, 1.6934, -1.22242, -1.53739, -0.903844, -1.19083, 1.22824, -1.30254, -0.0678371, 0.0480592, 0.0531265, -0.19059, 0.0451182, -0.0136593, 2.74453e-05, -2.7337, 61.6449, 30.5433, 6.0614, 1.85962, 3.03744, -0.0164075, -0.00461786, 0.00228739, 0.00128782, -0.00256977, -0.00131095, -0.00164102, 0.0983037, -0.0461266, -0.0246355, -0.0778704, 0.11064, 0.0249742, 0.469031, -0.53573, 0.339797, -2.07824, -2.16977, -0.124241, 0.471448, -0.539989, 0.33774, -2.07854, -2.17325, -0.125937, -0.0348663, 0.140262, 0.0709994, 0.0141335, 0.0490551, 0.0300298
0.161114, 1.69332, -1.22236, -1.53733, -0.904057, -1.19078, 1.22823, -1.30253, -0.06661, 0.0509702, 0.0583073, -0.200256, 0.0473825, -0.0134372, 0.000255656, -2.77337, 61.5695, 30.579, 6.09711, 1.88434, 2.99441, -0.0228162, -0.00471335, 0.0023294, 0.00130324, -0.00262152, -0.00130721, -0.00171129, 0.0947079, -0.0503856, -0.0229741, -0.0772319, 0.113372, 0.0364524, 0.468996, -0.53559, 0.339868, -2.07814, -2.16984, -0.12414, 0.471458, -0.539939, 0.337779, -2.07839, -2.17341, -0.125904, -0.0352016, 0.141761, 0.0717447, 0.0179784, 0.0540492, 0.0328258
0.162114, 1.69322, -1.2223, -1.53727, -0.904272, -1.19072, 1.22821, -1.30253, -0.0747969, 0.0516779, 0.0571483, -0.202818, 0.0489192, -0.0144636, 0.00186586, -2.80907, 61.6806, 30.6901, 6.0614, 1.90906, 2.98068, -0.0685925, -0.00481289, 0.00236837, 0.00132599, -0.00267283, -0.00128626, -0.0017702, 0.0989523, -0.046411, -0.0235117, -0.0788997, 0.113335, 0.0277753, 0.468961, -0.535448, 0.33994, -2.07804, -2.16991, -0.124037, 0.471465, -0.53989, 0.337812, -2.07824, -2.17355, -0.125886, -0.0355366, 0.143262, 0.0724911, 0.0138292, 0.0512634, 0.0325219
0.163114, 1.69312, -1.22225, -1.5372, -0.9045, -1.19066, 1.22819, -1.30253, -0.0850822, 0.0499545, 0.0621353, -0.208782, 0.0503399, -0.0158292, 0.00100655, -2.80907, 61.756, 30.6901, 6.0614, 1.92737, 2.98068, -0.0621838, -0.00491027, 0.00240831, 0.00134572, -0.00272788, -0.00126587, -0.00184661, 0.102056, -0.0430627, -0.0236835, -0.0770482, 0.110676, 0.025446, 0.468925, -0.535305, 0.340012, -2.07793, -2.16998, -0.123934, 0.471473, -0.539838, 0.337849, -2.07808, -2.17371, -0.125873, -0.0358715, 0.144767, 0.0732387, 0.0102751, 0.0495791, 0.0327354
0.164114, 1.69303, -1.22219, -1.53713, -0.904734, -1.1906, 1.22817, -1.30252, -0.0878293, 0.0576921, 0.0647629, -0.213303, 0.0516984, -0.0207009, 0.00090839, -2.92413, 61.7163, 30.7297, 6.0614, 1.93927, 2.95871, -0.0685925, -0.00500433, 0.00245169, 0.00136134, -0.00278449, -0.00124989, -0.00193128, 0.10148, -0.0423659, -0.019648, -0.0800508, 0.116023, 0.0271899, 0.468889, -0.53516, 0.340086, -2.07783, -2.17005, -0.123829, 0.471484, -0.539781, 0.337891, -2.0779, -2.17389, -0.125856, -0.0362061, 0.146274, 0.0739872, 0.00938983, 0.0510129, 0.0375813
0.165114, 1.69292, -1.22214, -1.53706, -0.904966, -1.19053, 1.22815, -1.30252, -0.0934006, 0.0523983, 0.0660159, -0.220542, 0.0571395, -0.0244576, 0.00525857, -2.95983, 61.8671, 30.8051, 5.95032, 1.96399, 2.94406, -0.0685925, -0.00510678, 0.00248854, 0.00138545, -0.00284254, -0.00121686, -0.0020007, 0.102198, -0.0413786, -0.0238637, -0.0832818, 0.10582, 0.0250459, 0.468853, -0.535014, 0.34016, -2.07772, -2.17012, -0.123723, 0.471488, -0.539731, 0.337924, -2.07774, -2.17404, -0.125856, -0.0365405, 0.147784, 0.0747369, 0.00793514, 0.0524121, 0.0340908
0.166114, 1.6928, -1.22208, -1.53698, -0.905214, -1.19047, 1.22813, -1.30252, -0.107206, 0.0551082, 0.0736307, -0.227183, 0.0610433, -0.0274136, 0.00314748, -2.95983, 61.8671, 30.7297, 5.91064, 1.98871, 2.93033, -0.0484509, -0.00520499, 0.00252757, 0.00140188, -0.00290733, -0.00119082, -0.00208448, 0.105036, -0.0365596, -0.020568, -0.0788033, 0.104566, 0.0231016, 0.468816, -0.534866, 0.340234, -2.07762, -2.17019, -0.123617, 0.471494, -0.539676, 0.337966, -2.07756, -2.17421, -0.125856, -0.0368746, 0.149297, 0.0754875, 0.00304382, 0.0504022, 0.0378232
0.167114, 1.69268, -1.22202, -1.5369, -0.905462, -1.19039, 1.22811, -1.30251, -0.113227, 0.054073, 0.0746908, -0.230325, 0.0642519, -0.0292838, 0.00238913, -3.03521, 61.8671, 30.8408, 5.76385, 2.00061, 2.90835, -0.0484509, -0.00530614, 0.00256522, 0.0014211, -0.00297092, -0.00116021, -0.00216163, 0.107442, -0.034378, -0.021605, -0.0792443, 0.10101, 0.0211072, 0.46878, -0.534717, 0.34031, -2.07751, -2.17026, -0.123509, 0.471498, -0.539621, 0.338006, -2.07739, -2.17437, -0.125858, -0.0372084, 0.150812, 0.076239, 0.000594229, 0.0496013, 0.0372558
0.168114, 1.69255, -1.22196, -1.53681, -0.905732, -1.19032, 1.22808, -1.30251, -0.117251, 0.0541945, 0.0815465, -0.241452, 0.0667044, -0.0307244, 0.00011544, -3.03521, 61.8274, 30.8408, 5.72418, 2.01343, 2.8873, -0.00267457, -0.00540306, 0.00260322, 0.00143967, -0.00302941, -0.00112628, -0.00225844, 0.105465, -0.0360729, -0.0210718, -0.078631, 0.0998789, 0.0321018, 0.468742, -0.534566, 0.340386, -2.0774, -2.17034, -0.123401, 0.471502, -0.539561, 0.338047, -2.07719, -2.17455, -0.125859, -0.0375418, 0.15233, 0.0769914, 0.00190112, 0.0530709, 0.0387817
0.169114, 1.69242, -1.22191, -1.53672, -0.90601, -1.19024, 1.22806, -1.30251, -0.124825, 0.0516417, 0.0865032, -0.250913, 0.0682836, -0.0265959, 0.000511809, -3.03521, 61.9028, 30.8408, 5.6131, 2.04364, 2.85159, -0.00999879, -0.00550226, 0.00264151, 0.00146033, -0.00310002, -0.00108468, -0.00235151, 0.106961, -0.036049, -0.0218762, -0.074107, 0.0993961, 0.0343045, 0.468705, -0.534414, 0.340463, -2.07729, -2.17041, -0.123291, 0.471507, -0.539502, 0.338087, -2.077, -2.17473, -0.12588, -0.0378749, 0.15385, 0.0777447, 0.00157918, 0.0532366, 0.0385125
0.170114, 1.69227, -1.22184, -1.53662, -0.906292, -1.19015, 1.22803, -1.3025, -0.132967, 0.0571567, 0.089367, -0.257063, 0.0775114, -0.0277577, 0.00141333, -2.95983, 61.7917, 30.8765, 5.57739, 2.09949, 2.80124, -0.0356336, -0.00560575, 0.00267394, 0.00147465, -0.00317114, -0.00105424, -0.00243361, 0.107293, -0.0343289, -0.018693, -0.0701655, 0.0978926, 0.0339548, 0.468667, -0.53426, 0.340541, -2.07718, -2.17049, -0.12318, 0.471505, -0.539446, 0.338134, -2.07682, -2.1749, -0.125888, -0.0382076, 0.155372, 0.0784988, -0.000320886, 0.0538706, 0.0424185
0.171114, 1.69212, -1.22179, -1.53653, -0.90659, -1.19007, 1.228, -1.3025, -0.1353, 0.0567788, 0.0937421, -0.266983, 0.0806303, -0.0298356, 0.00127159, -3.07488, 61.8671, 30.9519, 5.6488, 2.13611, 2.77926, -0.0420422, -0.00570445, 0.0027109, 0.00149773, -0.00322959, -0.00100979, -0.00253487, 0.105297, -0.0362328, -0.0193095, -0.0716884, 0.0955047, 0.0424681, 0.468629, -0.534104, 0.340619, -2.07707, -2.17056, -0.123068, 0.471507, -0.539383, 0.338173, -2.07661, -2.17508, -0.125896, -0.0385399, 0.156897, 0.0792537, 0.00114815, 0.0575506, 0.0428068
0.172114, 1.69196, -1.22172, -1.53642, -0.906889, -1.18998, 1.22798, -1.30249, -0.143343, 0.0600528, 0.0994759, -0.275078, 0.0832628, -0.0262898, 0.00596092, -3.03521, 61.7917, 30.9162, 5.6131, 2.16083, 2.75088, -0.0484509, -0.00580546, 0.00274417, 0.00150873, -0.00331066, -0.000970752, -0.00262903, 0.106419, -0.0356636, -0.0162726, -0.0653321, 0.0995033, 0.0393331, 0.46859, -0.533947, 0.340699, -2.07696, -2.17064, -0.122956, 0.471506, -0.539322, 0.338225, -2.07642, -2.17526, -0.125923, -0.0388718, 0.158424, 0.0800094, 0.000424956, 0.0574857, 0.0464098
0.173114, 1.6918, -1.22166, -1.53631, -0.907202, -1.18988, 1.22795, -1.30248, -0.150636, 0.0606818, 0.102109, -0.286826, 0.0854138, -0.0294153, 0.00442628, -3.11059, 61.7917, 30.9519, 5.68848, 2.19104, 2.75088, -0.0484509, -0.0059049, 0.00277934, 0.00152404, -0.00338451, -0.000927599, -0.00273537, 0.106433, -0.034567, -0.0170249, -0.0697809, 0.0985128, 0.0447495, 0.468551, -0.533789, 0.340779, -2.07684, -2.17071, -0.122842, 0.471506, -0.539258, 0.338273, -2.07621, -2.17546, -0.125946, -0.0392032, 0.159952, 0.0807657, -0.0010239, 0.059066, 0.0464592
0.174114, 1.69162, -1.22159, -1.5362, -0.907524, -1.18979, 1.22792, -1.30247, -0.160284, 0.0652351, 0.107305, -0.293279, 0.0864893, -0.0263984, 0.00356136, -3.11059, 61.756, 30.9876, 5.68848, 2.23407, 2.73623, -0.0557752, -0.00600565, 0.00281178, 0.00153755, -0.00346122, -0.000882433, -0.0028388, 0.108998, -0.0323364, -0.013175, -0.0639579, 0.104649, 0.0433334, 0.468512, -0.533629, 0.340859, -2.07673, -2.17079, -0.122727, 0.471503, -0.539194, 0.338324, -2.076, -2.17565, -0.125973, -0.0395341, 0.161483, 0.0815227, -0.00331098, 0.0573784, 0.0507024
0.175114, 1.69144, -1.22153, -1.53608, -0.907856, -1.18968, 1.22789, -1.30246, -0.171284, 0.0660357, 0.107128, -0.300457, 0.0930578, -0.0241479, 0.00704884, -3.07488, 61.8274, 31.063, 5.76385, 2.25238, 2.7225, -0.0484509, -0.00611121, 0.00283956, 0.00155484, -0.00354045, -0.000829225, -0.00293857, 0.112265, -0.0291269, -0.0135371, -0.061372, 0.102492, 0.0361982, 0.468473, -0.533468, 0.340941, -2.07661, -2.17087, -0.122611, 0.471495, -0.539132, 0.338372, -2.0758, -2.17583, -0.12601, -0.0398646, 0.163016, 0.0822803, -0.00671767, 0.0555925, 0.0507131
0.176114, 1.69125, -1.22146, -1.53596, -0.908192, -1.18958, 1.22786, -1.30246, -0.174712, 0.0684246, 0.111115, -0.308434, 0.0989447, -0.0226923, 0.00528101, -3.15026, 61.8274, 31.1027, 5.68848, 2.24048, 2.71518, -0.0484509, -0.00621258, 0.00287117, 0.001567, -0.0036228, -0.000778857, -0.00305056, 0.110966, -0.0308053, -0.0120418, -0.0575824, 0.102176, 0.0442476, 0.468433, -0.533304, 0.341023, -2.07649, -2.17095, -0.122494, 0.471491, -0.539066, 0.338425, -2.07558, -2.17603, -0.126047, -0.0401944, 0.164551, 0.0830385, -0.00535564, 0.0582641, 0.0530908
0.177114, 1.69106, -1.2214, -1.53584, -0.908542, -1.18947, 1.22782, -1.30245, -0.177464, 0.0661133, 0.117781, -0.322932, 0.102527, -0.0269221, 0.00771568, -3.18597, 61.8671, 31.1027, 5.68848, 2.25238, 2.7225, -0.0228162, -0.00631217, 0.00290381, 0.00158172, -0.00370449, -0.000720713, -0.00316988, 0.107192, -0.0335757, -0.0137762, -0.0610468, 0.0967117, 0.0550787, 0.468392, -0.53314, 0.341106, -2.07637, -2.17103, -0.122376, 0.471487, -0.538996, 0.338477, -2.07534, -2.17624, -0.126091, -0.0405238, 0.166087, 0.0837972, -0.00313834, 0.0639222, 0.0526204
0.178114, 1.69086, -1.22133, -1.53571, -0.908909, -1.18935, 1.22779, -1.30244, -0.185372, 0.0667785, 0.125997, -0.335139, 0.105157, -0.0254187, 0.00940269, -3.15026, 61.9385, 31.2137, 5.76385, 2.25879, 2.73623, 0.0101428, -0.00641106, 0.00293484, 0.00159875, -0.00378132, -0.000655945, -0.00329796, 0.106556, -0.0340923, -0.0121384, -0.0565045, 0.097368, 0.0599234, 0.468352, -0.532974, 0.34119, -2.07626, -2.17111, -0.122257, 0.471482, -0.538923, 0.338528, -2.0751, -2.17645, -0.126136, -0.0408525, 0.167625, 0.0845564, -0.00290205, 0.0658682, 0.0550777
0.179114, 1.69065, -1.22127, -1.53557, -0.909275, -1.18924, 1.22775, -1.30243, -0.186649, 0.0642781, 0.131814, -0.344626, 0.106545, -0.0291118, 0.0123821, -3.07488, 62.0139, 31.2494, 5.6131, 2.28992, 2.75088, -0.00267457, -0.00651188, 0.00296571, 0.00161024, -0.00387283, -0.000594525, -0.003424, 0.104303, -0.0362767, -0.0136122, -0.0591082, 0.0934363, 0.0661415, 0.468311, -0.532806, 0.341275, -2.07613, -2.17119, -0.122137, 0.471476, -0.538851, 0.338585, -2.07486, -2.17666, -0.126193, -0.0411807, 0.169165, 0.0853161, -0.00119597, 0.0699616, 0.0546521
0.180114, 1.69044, -1.2212, -1.53542, -0.909662, -1.18912, 1.22771, -1.30242, -0.194998, 0.0653449, 0.133239, -0.358795, 0.111799, -0.0315585, 0.00962013, -2.9995, 61.9742, 31.4002, 5.72418, 2.32013, 2.75821, -0.00999879, -0.00660829, 0.00299839, 0.00162083, -0.00396067, -0.000532245, -0.00355987, 0.103733, -0.0353607, -0.0147694, -0.0635668, 0.0909606, 0.0743124, 0.46827, -0.532637, 0.34136, -2.07601, -2.17127, -0.122016, 0.471471, -0.538774, 0.338644, -2.07461, -2.17689, -0.126247, -0.0415082, 0.170706, 0.0860762, -0.00250165, 0.0722004, 0.054389
0.181114, 1.69022, -1.22114, -1.53526, -0.910046, -1.18899, 1.22767, -1.30241, -0.200943, 0.0623703, 0.143513, -0.367169, 0.11653, -0.0332544, 0.00794611, -2.92413, 62.0853, 31.4359, 5.6131, 2.33844, 2.76553, -0.0292249, -0.00670681, 0.00302952, 0.00163337, -0.00406071, -0.000451972, -0.00369523, 0.102534, -0.0361979, -0.0143586, -0.05778, 0.0843306, 0.0828985, 0.468228, -0.532466, 0.341446, -2.07589, -2.17135, -0.121894, 0.471465, -0.538697, 0.338701, -2.07435, -2.17711, -0.126332, -0.0418351, 0.172249, 0.0868367, -0.00201779, 0.0749074, 0.0557103
0.182114, 1.69001, -1.22108, -1.5351, -0.910453, -1.18886, 1.22763, -1.30241, -0.204721, 0.0609245, 0.149338, -0.381063, 0.11921, -0.0396612, 0.009273, -2.88445, 62.1606, 31.547, 5.53772, 2.37598, 2.77926, 0.0101428, -0.0067976, 0.00306835, 0.00164726, -0.00415643, -0.000371792, -0.00386479, 0.0994411, -0.0375767, -0.01594, -0.0637906, 0.0793935, 0.0925728, 0.468187, -0.532294, 0.341533, -2.07577, -2.17143, -0.121771, 0.471465, -0.53861, 0.338759, -2.07406, -2.17736, -0.126414, -0.0421613, 0.173793, 0.0875976, -0.00115496, 0.0798135, 0.0553353
0.183114, 1.68977, -1.221, -1.53494, -0.910864, -1.18872, 1.22759, -1.3024, -0.213456, 0.0655116, 0.156272, -0.391407, 0.127161, -0.0396404, 0.0118186, -2.69799, 62.1249, 31.6977, 5.46234, 2.39429, 2.79391, 0.00373412, -0.00689265, 0.00309999, 0.00165363, -0.00425953, -0.000295722, -0.00401828, 0.0984031, -0.0372175, -0.0123016, -0.057899, 0.0787881, 0.0952181, 0.468144, -0.53212, 0.34162, -2.07564, -2.17152, -0.121646, 0.471459, -0.538528, 0.338825, -2.07379, -2.1776, -0.126497, -0.0424869, 0.175339, 0.0883587, -0.00172321, 0.0818197, 0.0598615
0.184114, 1.68954, -1.22094, -1.53476, -0.911298, -1.18859, 1.22754, -1.30239, -0.223009, 0.0678107, 0.162541, -0.403871, 0.131987, -0.0381714, 0.0143437, -2.58294, 62.1249, 31.8088, 5.50201, 2.43091, 2.77286, -0.0164075, -0.00698092, 0.00313924, 0.00166398, -0.00435627, -0.000218338, -0.00419351, 0.0982251, -0.0367142, -0.0103616, -0.0538413, 0.0793804, 0.0975956, 0.468102, -0.531945, 0.341709, -2.07552, -2.1716, -0.121521, 0.471459, -0.538436, 0.338888, -2.07348, -2.17787, -0.126576, -0.0428117, 0.176886, 0.0891202, -0.00246905, 0.0832283, 0.062584
0.185114, 1.68931, -1.22087, -1.53458, -0.911715, -1.18845, 1.22749, -1.30237, -0.223378, 0.065028, 0.171775, -0.411466, 0.135127, -0.0382511, 0.0151674, -2.58294, 62.1964, 31.8445, 5.27588, 2.47394, 2.77926, -0.00999879, -0.00707203, 0.00317674, 0.00167032, -0.00447153, -0.000128193, -0.00436086, 0.0954674, -0.0404183, -0.0102231, -0.0487676, 0.075239, 0.107472, 0.468059, -0.531768, 0.341798, -2.07539, -2.17169, -0.121395, 0.471458, -0.538346, 0.338956, -2.07319, -2.17812, -0.126687, -0.0431357, 0.178434, 0.0898818, 0.000802152, 0.0876594, 0.063775
