alisrour97/Franka_experiments/Real_Robot_scripts/servo-franka/Data/log_dyn_PI0_8.csv
Time,q1,q2,q3,q4,q5,q6,q7,dq1,dq2,dq3,dq4,dq5,dq6,dq7,t1,t2,t3,t4,t5,t6,t7,ex1,ex2,ex3,ex4,ex5,ex6,ev1,ev2,ev3,ev4,ev5,ev6,xd,yd,zd,uxd,uyd,uzd,x,y,z,ux,uy,uz,vxd,vyd,vzd,vx,vy,vz
9.76563e-07, 1.69134, -1.22756, -1.53933, -0.900375, -1.19234, 1.22794, -1.30259, -0.00716769, 0.00601662, -0.00359392, 0.0104504, -0.000201845, 0.00327988, -0.00041607, 0.551216, 61.7917, 31.2137, 6.80725, 2.97107, 3.99783, -0.251698, 0.000516331, -0.00187466, 0.00182172, 0.00243838, 0.00126317, 0.000547507, 0.00697811, 0.00648286, 0.00432729, 0.00612957, 0.00696479, -0.0178366, 0.471008, -0.543389, 0.335894, -2.08385, -2.16584, -0.129887, 0.46906, -0.542667, 0.334225, -2.08246, -2.16361, -0.128416, -4.06186e-05, 0.000124715, 6.6488e-05, -0.0061094, -0.00769557, 0.00345174
0.012134, 1.69131, -1.22755, -1.53932, -0.900304, -1.19234, 1.22795, -1.30259, -0.00805146, 0.00619603, 0.00104003, 0.0107469, 0.000883532, 0.00276953, -0.000184387, 0.170357, 61.9742, 31.1741, 6.91833, 2.95276, 3.97677, -0.218739, 0.00048602, -0.00190414, 0.00179808, 0.00239171, 0.00125165, 0.000633149, 0.00631166, 0.0061787, 0.0060861, 0.0104943, 0.00571678, -0.0166937, 0.471008, -0.543389, 0.335894, -2.08385, -2.16584, -0.129887, 0.469024, -0.542711, 0.334251, -2.08261, -2.16353, -0.128437, -6.68636e-05, 0.000218577, 0.000115026, -0.00579222, -0.00720204, 0.00533123
0.013134, 1.69131, -1.22755, -1.53932, -0.900304, -1.19234, 1.22795, -1.30259, -0.00805146, 0.00619603, 0.00104003, 0.0107469, 0.000883532, 0.00276953, -0.000184387, 0.170357, 61.9742, 31.1741, 6.91833, 2.95276, 3.97677, -0.218739, 0.000485997, -0.00190414, 0.00179808, 0.0023917, 0.00125166, 0.000633161, 0.00642253, 0.00615261, 0.00605045, 0.0104472, 0.00578916, -0.0167834, 0.471008, -0.543389, 0.335894, -2.08385, -2.16584, -0.129887, 0.469024, -0.542711, 0.334251, -2.08261, -2.16353, -0.128437, -9.5592e-05, 0.000321476, 0.000168224, -0.00579222, -0.00720204, 0.00533123
0.014134, 1.69131, -1.22755, -1.53932, -0.900304, -1.19234, 1.22795, -1.30259, -0.00805146, 0.00619603, 0.00104003, 0.0107469, 0.000883532, 0.00276953, -0.000184387, 0.170357, 61.9742, 31.1741, 6.91833, 2.95276, 3.97677, -0.218739, 0.000485935, -0.00190412, 0.0017981, 0.00239167, 0.00125167, 0.000633194, 0.00654351, 0.0061242, 0.00601156, 0.0103958, 0.0058681, -0.0168813, 0.471008, -0.543389, 0.335894, -2.08385, -2.16584, -0.129887, 0.469024, -0.542711, 0.334251, -2.08261, -2.16353, -0.128437, -0.000126895, 0.000433757, 0.000226255, -0.00579222, -0.00720204, 0.00533123
0.015134, 1.69131, -1.22755, -1.53932, -0.900304, -1.19234, 1.22795, -1.30259, -0.00805146, 0.00619603, 0.00104003, 0.0107469, 0.000883532, 0.00276953, -0.000184387, 0.170357, 61.9742, 31.1741, 6.91833, 2.95276, 3.97677, -0.218739, 0.000485815, -0.00190409, 0.00179814, 0.00239161, 0.0012517, 0.000633258, 0.00667495, 0.00609337, 0.00596932, 0.0103401, 0.00595384, -0.0169875, 0.471008, -0.543389, 0.335894, -2.08385, -2.16584, -0.129887, 0.469024, -0.542711, 0.334251, -2.08261, -2.16353, -0.128437, -0.000160861, 0.000555757, 0.000289294, -0.00579222, -0.00720204, 0.00533123
0.016134, 1.69131, -1.22755, -1.53932, -0.900304, -1.19234, 1.22795, -1.30259, -0.00805146, 0.00619603, 0.00104003, 0.0107469, 0.000883532, 0.00276953, -0.000184387, 0.170357, 61.9742, 31.1741, 6.91833, 2.95276, 3.97677, -0.218739, 0.000485618, -0.00190405, 0.00179821, 0.00239152, 0.00125175, 0.000633363, 0.00681721, 0.00606004, 0.00592361, 0.0102799, 0.00604661, -0.0171024, 0.471008, -0.543389, 0.335894, -2.08385, -2.16584, -0.129886, 0.469024, -0.542711, 0.334251, -2.08261, -2.16353, -0.128437, -0.000197581, 0.000687809, 0.000357511, -0.00579222, -0.00720204, 0.00533123
0.017134, 1.69131, -1.22755, -1.53932, -0.900304, -1.19234, 1.22795, -1.30259, -0.00805146, 0.00619603, 0.00104003, 0.0107469, 0.000883532, 0.00276953, -0.000184387, 0.170357, 61.9742, 31.1741, 6.91833, 2.95276, 3.97677, -0.218739, 0.000485325, -0.00190398, 0.0017983, 0.00239138, 0.00125182, 0.00063352, 0.00697066, 0.00602415, 0.00587432, 0.010215, 0.00614663, -0.0172262, 0.471008, -0.543389, 0.335894, -2.08385, -2.16584, -0.129886, 0.469024, -0.542711, 0.334251, -2.08261, -2.16353, -0.128437, -0.000237139, 0.000830243, 0.000431075, -0.00579222, -0.00720204, 0.00533123
0.018134, 1.69131, -1.22755, -1.53932, -0.900304, -1.19234, 1.22795, -1.30259, -0.00805146, 0.00619603, 0.00104003, 0.0107469, 0.000883532, 0.00276953, -0.000184387, 0.170357, 61.9742, 31.1741, 6.91833, 2.95276, 3.97677, -0.218739, 0.000484916, -0.00190388, 0.00179843, 0.00239118, 0.00125191, 0.000633737, 0.00713563, 0.0059856, 0.00582134, 0.0101454, 0.00625413, -0.0173593, 0.471008, -0.543388, 0.335894, -2.08385, -2.16584, -0.129886, 0.469024, -0.542711, 0.334251, -2.08261, -2.16353, -0.128437, -0.000279621, 0.000983381, 0.00051015, -0.00579222, -0.00720204, 0.00533123
0.019134, 1.69131, -1.22755, -1.53932, -0.900304, -1.19234, 1.22795, -1.30259, -0.00805146, 0.00619603, 0.00104003, 0.0107469, 0.000883532, 0.00276953, -0.000184387, 0.170357, 61.9742, 31.1741, 6.91833, 2.95276, 3.97677, -0.218739, 0.000484374, -0.00190375, 0.00179861, 0.00239092, 0.00125204, 0.000634026, 0.00731247, 0.00594434, 0.00576456, 0.0100708, 0.00636933, -0.0175019, 0.471008, -0.543388, 0.335895, -2.08385, -2.16584, -0.129886, 0.469024, -0.542711, 0.334251, -2.08261, -2.16353, -0.128437, -0.00032511, 0.00114754, 0.000594898, -0.00579222, -0.00720204, 0.00533123
0.020134, 1.69131, -1.22755, -1.53932, -0.900304, -1.19234, 1.22795, -1.30259, -0.00805146, 0.00619603, 0.00104003, 0.0107469, 0.000883532, 0.00276953, -0.000184387, 0.170357, 61.9742, 31.1741, 6.91833, 2.95276, 3.97677, -0.218739, 0.000483679, -0.00190359, 0.00179883, 0.00239059, 0.0012522, 0.000634396, 0.00750152, 0.00590028, 0.00570388, 0.00999119, 0.00649243, -0.0176541, 0.471007, -0.543387, 0.335895, -2.08384, -2.16584, -0.129885, 0.469024, -0.542711, 0.334251, -2.08261, -2.16353, -0.128437, -0.000373687, 0.00132303, 0.000685479, -0.00579222, -0.00720204, 0.00533123
0.021134, 1.69129, -1.2275, -1.53931, -0.900282, -1.19233, 1.22796, -1.30259, -0.0021944, 0.00482264, 0.00219661, 0.00406597, 0.00161883, 0.00134516, 0.00117304, -0.43267, 62.0139, 31.063, 7.18018, 2.8548, 3.9191, -0.245289, 0.000473272, -0.00191775, 0.00176395, 0.00235065, 0.00121498, 0.000669502, 0.00271827, 0.00102378, 0.00388404, 0.00582044, 0.004645, -0.00671366, 0.471007, -0.543386, 0.335895, -2.08384, -2.16584, -0.129884, 0.469011, -0.542726, 0.334285, -2.08268, -2.16353, -0.12844, -0.000425431, 0.00151016, 0.000782046, -0.00121048, -0.00181312, 0.00422624
0.022134, 1.69128, -1.22749, -1.53931, -0.900285, -1.19233, 1.22796, -1.30259, -0.00282289, 0.0044221, 0.00146231, 0.00299702, 0.00107924, 0.000909971, 6.99473e-05, -0.392998, 61.9742, 31.063, 7.18018, 2.8548, 3.9191, -0.226063, 0.000470264, -0.00192034, 0.00175907, 0.002347, 0.00120457, 0.000675092, 0.00314604, 0.00135068, 0.00316648, 0.0040158, 0.00473201, -0.00599419, 0.471007, -0.543385, 0.335896, -2.08384, -2.16584, -0.129884, 0.469009, -0.542729, 0.33429, -2.0827, -2.16353, -0.128432, -0.000480419, 0.00170921, 0.00088475, -0.00160255, -0.0019393, 0.00356387
0.023134, 1.69128, -1.2275, -1.53932, -0.900282, -1.19233, 1.22796, -1.3026, -0.00127786, -0.00371621, -0.00190164, 0.00481126, -0.00113918, -0.00709935, -0.000699354, -0.43267, 61.8671, 30.9162, 7.06909, 2.77515, 3.87607, -0.205922, 0.000466958, -0.00192068, 0.00176297, 0.00234424, 0.00121092, 0.00067782, 0.00429071, 0.00299818, -0.00341046, -0.00707347, -0.00526924, -0.00768202, 0.471007, -0.543384, 0.335896, -2.08384, -2.16585, -0.129883, 0.469008, -0.54273, 0.334286, -2.0827, -2.16353, -0.12844, -0.000538724, 0.00192048, 0.000993739, -0.00350271, -0.0019132, -0.00294938
0.024134, 1.69128, -1.2275, -1.53931, -0.900289, -1.19233, 1.22796, -1.30259, -0.00202289, -0.00125227, -0.000720529, 0.00119829, -0.00140453, -0.00285642, -0.000466236, -0.392998, 61.387, 30.4679, 7.02942, 2.65155, 3.80466, -0.205922, 0.000467152, -0.00191992, 0.00175991, 0.00234087, 0.00120593, 0.00067719, 0.00381012, 0.00164311, -0.00171194, -0.00397308, -0.000123611, -0.0052472, 0.471006, -0.543383, 0.335897, -2.08384, -2.16585, -0.129882, 0.469009, -0.542729, 0.33429, -2.0827, -2.16353, -0.128438, -0.000600418, 0.00214425, 0.00110915, -0.00216696, -0.00142097, -0.00112305
0.025134, 1.69128, -1.2275, -1.53933, -0.900291, -1.19234, 1.22797, -1.30259, -0.000602795, -0.000136506, -0.00506136, 0.000928441, -0.000993, -0.000106969, -0.0010229, -0.43267, 60.907, 30.206, 6.88263, 2.51056, 3.74057, -0.186696, 0.000462033, -0.00192031, 0.00176946, 0.00236006, 0.00120116, 0.000688882, 0.00435738, 0.000962813, -0.00254883, -0.00555004, 0.00252396, -0.00522715, 0.471006, -0.543381, 0.335898, -2.08384, -2.16585, -0.129881, 0.469008, -0.542731, 0.33428, -2.0827, -2.16352, -0.128409, -0.00066557, 0.00238079, 0.00123113, -0.00156333, -0.00156807, -0.00193287
0.026134, 1.69128, -1.22751, -1.53935, -0.900301, -1.19235, 1.22797, -1.30259, -0.00146655, 0.00158642, -0.00899013, 0.00118005, -0.00527487, 0.00109017, 0.00242569, -0.392998, 60.5023, 29.8371, 6.84296, 2.35675, 3.69754, -0.140919, 0.000455173, -0.00192258, 0.00178, 0.00238151, 0.00119293, 0.000693052, 0.00671081, 0.0024291, -0.00283062, -0.00965752, 0.00872169, -0.0133198, 0.471005, -0.543379, 0.335899, -2.08384, -2.16585, -0.129879, 0.469005, -0.542735, 0.33427, -2.0827, -2.16351, -0.128375, -0.000734245, 0.00263035, 0.0013598, -0.0030224, -0.00365852, -0.00240348
0.027134, 1.69128, -1.22751, -1.53938, -0.900306, -1.19237, 1.22797, -1.30258, 0.00197284, -6.62167e-05, -0.0125213, 1.03391e-05, -0.0107715, 0.00121643, 0.00174611, -0.392998, 60.2087, 29.611, 6.73187, 2.25879, 3.67557, -0.133595, 0.000444488, -0.00192752, 0.00179553, 0.00242112, 0.00117941, 0.00071573, 0.0071104, 0.00136182, -0.00547585, -0.0165451, 0.0122596, -0.0119558, 0.471005, -0.543377, 0.3359, -2.08384, -2.16585, -0.129878, 0.468999, -0.542741, 0.334254, -2.08271, -2.16348, -0.128314, -0.000806507, 0.00289319, 0.0014953, -0.00210996, -0.00333937, -0.00497412
0.028134, 1.69128, -1.22752, -1.5394, -0.900308, -1.1924, 1.22797, -1.30259, 0.00065755, -0.000685938, -0.0143641, -0.000969871, -0.015625, 0.00161899, 0.0044364, -0.357292, 60.0223, 29.3531, 6.62079, 2.18555, 3.64718, -0.0878186, 0.000431238, -0.00193272, 0.00181199, 0.00245933, 0.00116214, 0.000729636, 0.00914397, 0.0025999, -0.00661975, -0.0205077, 0.0161756, -0.0178249, 0.471004, -0.543375, 0.335901, -2.08384, -2.16585, -0.129876, 0.468993, -0.542749, 0.334237, -2.08271, -2.16346, -0.128251, -0.000882416, 0.00316954, 0.00163773, -0.00339092, -0.00494524, -0.00623947
0.029134, 1.69129, -1.22753, -1.53943, -0.900318, -1.19244, 1.22797, -1.30258, -0.000356495, -0.00349381, -0.0148316, -0.00350049, -0.0210693, 0.000625722, 0.00455505, -0.317619, 59.9509, 29.0555, 6.58508, 2.16083, 3.65451, -0.114369, 0.000419269, -0.00193645, 0.00182993, 0.0025082, 0.00113787, 0.000750061, 0.0104895, 0.00335945, -0.00891898, -0.0257268, 0.017768, -0.0189749, 0.471003, -0.543372, 0.335903, -2.08383, -2.16585, -0.129874, 0.468988, -0.542756, 0.334219, -2.08271, -2.16344, -0.128168, -0.000962028, 0.00345964, 0.00178723, -0.00426398, -0.00566076, -0.00854621
0.030134, 1.69129, -1.22754, -1.53946, -0.90032, -1.19248, 1.22797, -1.30258, -0.000973012, -0.00466088, -0.0191455, -0.00347657, -0.0305899, 0.00160282, 0.00543006, -0.281914, 59.9866, 28.7937, 6.47003, 2.16724, 3.6188, -0.166554, 0.000402136, -0.00194137, 0.00184827, 0.00254982, 0.00110884, 0.00077765, 0.0140882, 0.0052702, -0.0111169, -0.0332153, 0.0253551, -0.0259817, 0.471002, -0.543369, 0.335904, -2.08383, -2.16585, -0.129871, 0.468983, -0.542767, 0.3342, -2.08273, -2.16341, -0.128087, -0.0010454, 0.0037637, 0.0019439, -0.00620627, -0.00864939, -0.0110607
0.031134, 1.6913, -1.22755, -1.5395, -0.900328, -1.19253, 1.22798, -1.30258, 0.000693338, -0.0042296, -0.0247265, -0.00549989, -0.0366252, 0.00255968, 0.00420283, -0.206535, 59.9866, 28.6429, 6.43433, 2.14252, 3.57577, -0.172963, 0.000383262, -0.00194884, 0.00186828, 0.00260232, 0.00107519, 0.000805193, 0.0155045, 0.00530244, -0.0132353, -0.0414044, 0.0320105, -0.0263233, 0.471002, -0.543366, 0.335906, -2.08383, -2.16586, -0.129869, 0.468974, -0.54278, 0.334179, -2.08275, -2.16338, -0.127989, -0.00113257, 0.00408193, 0.00210783, -0.00635145, -0.00940468, -0.0132073
0.032134, 1.69131, -1.22754, -1.53953, -0.900342, -1.19257, 1.22799, -1.30257, 0.00383362, -0.00199106, -0.0273578, -0.00536631, -0.0409147, 0.00322322, 0.00380695, -0.206535, 59.9152, 28.4208, 6.47003, 2.1178, 3.53274, -0.193104, 0.000371778, -0.00194815, 0.00188083, 0.00265088, 0.00102669, 0.000820382, 0.0157644, 0.00435454, -0.0130551, -0.0455152, 0.0385709, -0.0259723, 0.471001, -0.543362, 0.335908, -2.08383, -2.16586, -0.129866, 0.468974, -0.542786, 0.334167, -2.08276, -2.16338, -0.127882, -0.0012236, 0.00441451, 0.00227914, -0.00547999, -0.00931757, -0.012927
0.033134, 1.69131, -1.22754, -1.53958, -0.900342, -1.19262, 1.22799, -1.30257, 0.00761519, -0.000195451, -0.033747, -0.00397021, -0.0477316, 0.00263366, 0.00249491, -0.131157, 59.8398, 28.3851, 6.32324, 2.06836, 3.5181, -0.186696, 0.000351903, -0.00195603, 0.00189488, 0.00270773, 0.000978124, 0.000853482, 0.0173208, 0.004495, -0.0144398, -0.0547227, 0.0463, -0.0278349, 0.470999, -0.543358, 0.33591, -2.08382, -2.16586, -0.129863, 0.468965, -0.542799, 0.334152, -2.08279, -2.16335, -0.127763, -0.00131852, 0.00476163, 0.0024579, -0.00570951, -0.0102997, -0.0143528
0.034134, 1.69132, -1.22753, -1.53961, -0.900347, -1.19268, 1.228, -1.30258, 0.00813907, 0.00115945, -0.0298713, -0.00472935, -0.0487763, 0.0025263, -0.000157682, -0.0914839, 59.7644, 28.274, 6.24786, 2.02533, 3.49612, -0.133595, 0.000335484, -0.00195858, 0.00190659, 0.00276015, 0.000922974, 0.000870037, 0.0165169, 0.00342046, -0.0125354, -0.0524032, 0.0485353, -0.0228223, 0.470998, -0.543354, 0.335912, -2.08382, -2.16586, -0.12986, 0.468961, -0.542809, 0.334141, -2.0828, -2.16334, -0.127644, -0.00141737, 0.00512346, 0.00264421, -0.00469518, -0.00939336, -0.0121936
0.035134, 1.69133, -1.22752, -1.53964, -0.900358, -1.19274, 1.228, -1.30258, 0.0069272, 0.00385152, -0.0299863, -0.00708956, -0.0545172, 0.00188911, 4.17611e-06, 0.0196001, 59.6176, 28.1589, 6.24786, 2.00061, 3.48971, -0.133595, 0.000320762, -0.00196128, 0.00191545, 0.00281741, 0.000861543, 0.000891111, 0.0176022, 0.00431388, -0.0114411, -0.056609, 0.0560431, -0.0244649, 0.470997, -0.543349, 0.335915, -2.08382, -2.16586, -0.129856, 0.468958, -0.542818, 0.334132, -2.08282, -2.16334, -0.127513, -0.00152019, 0.00550014, 0.00283813, -0.0056119, -0.0102931, -0.0110607
0.036134, 1.69134, -1.22751, -1.53969, -0.900366, -1.1928, 1.228, -1.30258, 0.00825096, 0.00740545, -0.032266, -0.00778686, -0.0590686, 0.00072644, -0.00110204, 0.170357, 59.3994, 28.274, 6.20819, 1.97681, 3.50345, -0.101552, 0.000301232, -0.00196787, 0.00192502, 0.00288689, 0.000789179, 0.000921971, 0.0181507, 0.00451183, -0.0105612, -0.0621485, 0.0632579, -0.0244636, 0.470995, -0.543344, 0.335917, -2.08381, -2.16587, -0.129852, 0.46895, -0.542831, 0.334123, -2.08285, -2.16332, -0.127355, -0.00162701, 0.00589181, 0.00303974, -0.00586498, -0.0105865, -0.0100693
0.037134, 1.69136, -1.2275, -1.53972, -0.900378, -1.19286, 1.228, -1.30257, 0.0102074, 0.00733567, -0.0321445, -0.00921905, -0.0571846, -7.64956e-05, -0.000435853, 0.285408, 59.2883, 28.1986, 6.20819, 1.93378, 3.5181, -0.10796, 0.000288638, -0.0019672, 0.00193354, 0.00294581, 0.000726227, 0.000935867, 0.0168215, 0.00290566, -0.0110696, -0.0630329, 0.0617133, -0.021603, 0.470994, -0.543338, 0.33592, -2.08381, -2.16587, -0.129848, 0.468949, -0.542836, 0.334115, -2.08286, -2.16332, -0.127221, -0.00173785, 0.0062986, 0.00324909, -0.00443763, -0.00872352, -0.0102041
0.038134, 1.69136, -1.22749, -1.53975, -0.90039, -1.19293, 1.228, -1.30257, 0.00658102, 0.00733909, -0.0347089, -0.0102066, -0.060133, -0.000607223, 0.000976245, 0.626595, 59.1772, 28.2343, 6.20819, 1.89075, 3.53274, -0.140919, 0.000268481, -0.00197464, 0.00194422, 0.00300888, 0.000662794, 0.000970422, 0.019652, 0.00549992, -0.0121123, -0.0672038, 0.0643022, -0.0283125, 0.470992, -0.543332, 0.335923, -2.0838, -2.16587, -0.129843, 0.46894, -0.542849, 0.334105, -2.08289, -2.1633, -0.127078, -0.00185274, 0.00672061, 0.00346625, -0.00707977, -0.0110416, -0.0113775
0.039134, 1.69137, -1.22747, -1.5398, -0.9004, -1.193, 1.228, -1.30257, 0.0092771, 0.00821404, -0.0361366, -0.0123701, -0.0634586, -0.000415083, 0.000414145, 0.888436, 59.0305, 28.3851, 6.13678, 1.87793, 3.53274, -0.133595, 0.000247422, -0.00198082, 0.00195576, 0.00308001, 0.00059051, 0.00100006, 0.0191788, 0.00400423, -0.0126769, -0.071403, 0.0686641, -0.0253845, 0.470991, -0.543326, 0.335927, -2.0838, -2.16588, -0.129838, 0.468933, -0.542862, 0.334094, -2.08292, -2.16329, -0.126918, -0.0019717, 0.00715794, 0.00369125, -0.00574227, -0.00998906, -0.0116817
0.040134, 1.69138, -1.22747, -1.53982, -0.900416, -1.19307, 1.228, -1.30256, 0.00641165, 0.00539175, -0.0323277, -0.0125968, -0.066472, -0.00265801, 0.00081066, 1.22962, 59.0305, 28.3454, 6.13678, 1.87793, 3.59683, -0.147328, 0.000227643, -0.00198615, 0.00196839, 0.00314249, 0.000529051, 0.00102679, 0.0207049, 0.00547844, -0.0132158, -0.0715251, 0.0672105, -0.027925, 0.470989, -0.543319, 0.33593, -2.08379, -2.16588, -0.129833, 0.468926, -0.542873, 0.334082, -2.08294, -2.16327, -0.126779, -0.00209472, 0.00761066, 0.00392413, -0.0073024, -0.0110205, -0.0121732
0.041134, 1.69139, -1.22747, -1.53985, -0.900426, -1.19315, 1.228, -1.30256, 0.00444726, 0.00572762, -0.0332463, -0.0141683, -0.0692251, -0.00177778, 0.000322533, 1.57081, 59.0662, 28.4565, 6.0614, 1.89075, 3.59683, -0.140919, 0.000203479, -0.00199252, 0.00198455, 0.00320917, 0.000463684, 0.00105742, 0.0224102, 0.00643364, -0.0135403, -0.0734673, 0.0706955, -0.0297693, 0.470987, -0.543312, 0.335934, -2.08379, -2.16589, -0.129827, 0.468918, -0.542887, 0.334066, -2.08296, -2.16325, -0.12663, -0.00222183, 0.00807884, 0.00416491, -0.00833411, -0.0122251, -0.0124886
0.042134, 1.6914, -1.22747, -1.53988, -0.900444, -1.19323, 1.228, -1.30256, 0.0083859, 0.00318842, -0.0327767, -0.0131114, -0.0716085, -0.00200332, -0.00122845, 1.83265, 59.1019, 28.5319, 6.02173, 1.91546, 3.6188, -0.101552, 0.000184611, -0.00199365, 0.00200049, 0.00327924, 0.000397578, 0.00107316, 0.0220851, 0.00452195, -0.0151102, -0.0749, 0.0703435, -0.0261924, 0.470984, -0.543304, 0.335938, -2.08378, -2.16589, -0.129821, 0.468914, -0.542895, 0.334051, -2.08297, -2.16325, -0.126477, -0.00235303, 0.00856251, 0.00441363, -0.00662442, -0.0111006, -0.0137972
0.043134, 1.69141, -1.22747, -1.53991, -0.90045, -1.19331, 1.22799, -1.30256, 0.0122383, 0.00394997, -0.0349934, -0.0120503, -0.0779142, 0.00311712, -0.000808025, 2.05878, 59.0305, 28.7183, 5.83527, 1.94568, 3.62521, -0.101552, 0.000161724, -0.00199671, 0.00201359, 0.00334873, 0.000322584, 0.00110506, 0.023399, 0.00265396, -0.0152237, -0.0755801, 0.0793223, -0.0273517, 0.470982, -0.543295, 0.335942, -2.08378, -2.16589, -0.129815, 0.468909, -0.542908, 0.334039, -2.083, -2.16324, -0.126315, -0.00248832, 0.00906169, 0.00467028, -0.00485114, -0.0118046, -0.0139128
0.044134, 1.69143, -1.22747, -1.53994, -0.900456, -1.1934, 1.22799, -1.30256, 0.0147381, 0.000150295, -0.0345586, -0.0113888, -0.0792455, 0.00114432, -0.00175118, 2.28492, 59.1415, 28.8294, 5.6488, 2.00061, 3.66092, -0.0685925, 0.000137105, -0.00199917, 0.00203122, 0.00341675, 0.000253637, 0.00112997, 0.0233626, 0.00163888, -0.0176892, -0.0781547, 0.0760022, -0.0251242, 0.47098, -0.543286, 0.335947, -2.08377, -2.1659, -0.129808, 0.468905, -0.54292, 0.334023, -2.08302, -2.16323, -0.12616, -0.00262768, 0.00957641, 0.00493487, -0.00406711, -0.0108331, -0.0161077
0.045134, 1.69145, -1.22747, -1.53997, -0.90047, -1.19349, 1.22799, -1.30256, 0.0153231, -0.000648441, -0.035209, -0.00977229, -0.0844142, 0.00505309, 0.00389311, 2.43568, 59.1772, 28.9802, 5.53772, 2.05005, 3.68289, -0.0814099, 0.000116864, -0.00199716, 0.00204917, 0.0034901, 0.000182556, 0.00114794, 0.0257925, 0.00151055, -0.0180326, -0.0773609, 0.0816729, -0.0340824, 0.470977, -0.543277, 0.335952, -2.08376, -2.1659, -0.129801, 0.468904, -0.542928, 0.334007, -2.08303, -2.16323, -0.125998, -0.00277111, 0.0101066, 0.00520739, -0.0040077, -0.0126437, -0.0165551
0.046134, 1.69148, -1.22747, -1.54, -0.900477, -1.19359, 1.22799, -1.30255, 0.0204097, -0.00036736, -0.0316048, -0.0107616, -0.0928584, 0.00266597, 0.00250694, 2.51106, 59.1772, 29.0912, 5.38696, 2.09949, 3.7186, -0.0685925, 9.5852e-05, -0.00199454, 0.00206346, 0.00356426, 0.000101782, 0.00116843, 0.024478, -0.000941132, -0.0173849, -0.0816943, 0.0880836, -0.0283739, 0.470974, -0.543267, 0.335957, -2.08375, -2.16591, -0.129793, 0.468904, -0.542937, 0.333995, -2.08304, -2.16323, -0.125824, -0.00291859, 0.0106523, 0.00548782, -0.0017303, -0.0107994, -0.0155051
0.047134, 1.69149, -1.22747, -1.54002, -0.900476, -1.19368, 1.22799, -1.30255, 0.0172284, -0.00186664, -0.0279606, -0.00589473, -0.0981173, 0.0011909, 0.00219835, 2.73719, 59.2487, 29.1666, 5.12909, 2.11139, 3.74698, -0.0750012, 6.70527e-05, -0.0019973, 0.00207656, 0.00362191, 2.46276e-05, 0.00120439, 0.0282044, 0.00198865, -0.0164501, -0.0798091, 0.0897944, -0.0359283, 0.470971, -0.543256, 0.335962, -2.08375, -2.16592, -0.129785, 0.468899, -0.542953, 0.333983, -2.08308, -2.16322, -0.12567, -0.0030701, 0.0112135, 0.00577613, -0.0046404, -0.0141811, -0.0147834
0.048134, 1.69152, -1.22748, -1.54004, -0.900484, -1.19379, 1.22799, -1.30255, 0.0167545, -0.00297114, -0.0282777, -0.00683545, -0.0979168, 0.000599963, 0.00266618, 2.89191, 59.324, 29.238, 5.05371, 2.15442, 3.76163, -0.101552, 4.27246e-05, -0.00199434, 0.00209247, 0.00369416, -6.10585e-05, 0.00122814, 0.0288239, 0.00202613, -0.0175642, -0.0812251, 0.0887285, -0.0365954, 0.470968, -0.543245, 0.335968, -2.08374, -2.16592, -0.129777, 0.468899, -0.542963, 0.333969, -2.08311, -2.16322, -0.125492, -0.0032256, 0.01179, 0.00607228, -0.00485133, -0.0140464, -0.0156823
0.049134, 1.69154, -1.22748, -1.54007, -0.90049, -1.1939, 1.22799, -1.30254, 0.0185626, 0.000374399, -0.0264982, -0.00734638, -0.101938, -0.000389763, 0.00288984, 3.07838, 59.3597, 29.3531, 4.97833, 2.16724, 3.79001, -0.127186, 1.50828e-05, -0.00199561, 0.00210739, 0.00377322, -0.000150677, 0.00126319, 0.0285181, 0.0011341, -0.0154176, -0.0829044, 0.095267, -0.0356464, 0.470965, -0.543234, 0.335974, -2.08373, -2.16593, -0.129768, 0.468895, -0.542976, 0.333956, -2.08314, -2.16321, -0.125301, -0.00338507, 0.0123818, 0.00637623, -0.00405316, -0.0134465, -0.0132381
0.050134, 1.69157, -1.22748, -1.54009, -0.9005, -1.19402, 1.22799, -1.30254, 0.0167415, -0.00289995, -0.0256142, -0.00620176, -0.105228, -0.000606309, 0.00181142, 3.26881, 59.5065, 29.3531, 4.97833, 2.19104, 3.80466, -0.120778, -1.22855e-05, -0.00199285, 0.00212616, 0.00384585, -0.000236898, 0.00128553, 0.0310681, 0.00246078, -0.0169978, -0.083568, 0.094797, -0.0384979, 0.470962, -0.543221, 0.335981, -2.08372, -2.16594, -0.129759, 0.468895, -0.542988, 0.333939, -2.08316, -2.16321, -0.125122, -0.00354847, 0.0129888, 0.00668792, -0.00550715, -0.0151683, -0.0148423
0.051134, 1.69159, -1.22749, -1.54011, -0.90051, -1.19413, 1.22799, -1.30254, 0.0195042, -0.00431866, -0.0254284, -0.00594785, -0.106699, -0.00107096, 0.000824553, 3.41956, 59.6176, 29.4999, 5.01404, 2.19104, 3.82663, -0.10796, -4.12554e-05, -0.00199146, 0.00214618, 0.0039283, -0.000327433, 0.00131029, 0.0309239, 0.00100832, -0.018126, -0.0851944, 0.0948448, -0.0359103, 0.470958, -0.543208, 0.335987, -2.08371, -2.16594, -0.129749, 0.468893, -0.543, 0.333922, -2.08318, -2.16321, -0.124926, -0.00371575, 0.0136108, 0.00700727, -0.00426974, -0.0141708, -0.0156584
0.052134, 1.69162, -1.2275, -1.54013, -0.900513, -1.19426, 1.22798, -1.30255, 0.0247382, -0.00615296, -0.0185259, -0.00386361, -0.112289, -0.00138358, -0.000839615, 3.57032, 59.7644, 29.4999, 4.97833, 2.17914, 3.84768, -0.0685925, -7.17222e-05, -0.00198999, 0.0021632, 0.00399758, -0.000414613, 0.00133751, 0.0297168, -0.00218417, -0.0169849, -0.0822891, 0.0974226, -0.0299656, 0.470955, -0.543195, 0.335994, -2.0837, -2.16595, -0.129738, 0.468891, -0.543014, 0.333907, -2.0832, -2.16321, -0.124748, -0.00388686, 0.0142477, 0.0073342, -0.00125438, -0.0123869, -0.0141138
0.053134, 1.69164, -1.2275, -1.54015, -0.900524, -1.19438, 1.22798, -1.30255, 0.0232629, -0.00658056, -0.0202316, -0.0079997, -0.120861, -0.0013822, -0.00196625, 3.6814, 59.8755, 29.6506, 5.05371, 2.17273, 3.86233, -0.0292249, -0.000103247, -0.00198882, 0.00218337, 0.00408277, -0.000511963, 0.00136221, 0.0319365, -0.0011768, -0.0185517, -0.0898295, 0.104895, -0.0309048, 0.470951, -0.54318, 0.336002, -2.08369, -2.16596, -0.129728, 0.468889, -0.543028, 0.33389, -2.08322, -2.16322, -0.124541, -0.00406174, 0.0148993, 0.00766863, -0.00241229, -0.013727, -0.0156402
0.054134, 1.69166, -1.22751, -1.54017, -0.900536, -1.19452, 1.22798, -1.30254, 0.0225074, -0.00445455, -0.016735, -0.0117739, -0.127605, -0.00191059, -0.0010348, 3.90754, 60.0223, 29.611, 5.16479, 2.16083, 3.89071, -0.0356336, -0.000138861, -0.00199079, 0.00219981, 0.00415902, -0.000615648, 0.00140003, 0.032225, -0.00147897, -0.0168134, -0.0921578, 0.112823, -0.0304613, 0.470947, -0.543166, 0.336009, -2.08368, -2.16597, -0.129716, 0.468884, -0.543046, 0.333876, -2.08326, -2.16321, -0.124337, -0.00424034, 0.0155655, 0.00801045, -0.00221569, -0.0136007, -0.0136358
0.055134, 1.69166, -1.22751, -1.54017, -0.900536, -1.19452, 1.22798, -1.30254, 0.0225074, -0.00445455, -0.016735, -0.0117739, -0.127605, -0.00191059, -0.0010348, 3.90754, 60.0223, 29.611, 5.16479, 2.16083, 3.89071, -0.0356336, -0.000155591, -0.00198694, 0.00220519, 0.00415103, -0.000611859, 0.00140881, 0.0329574, -0.00164343, -0.0170469, -0.0924554, 0.113294, -0.0310413, 0.470942, -0.54315, 0.336017, -2.08367, -2.16597, -0.129705, 0.468884, -0.543046, 0.333876, -2.08326, -2.16321, -0.124337, -0.00442257, 0.0162459, 0.00835954, -0.00221569, -0.0136007, -0.0136358
0.056134, 1.69172, -1.22752, -1.54019, -0.900548, -1.19478, 1.22798, -1.30254, 0.0257507, -0.00582826, -0.010404, -0.00749648, -0.129869, -0.00316813, 0.000643638, 3.98292, 60.2444, 29.5395, 5.24017, 2.08667, 3.96945, -0.0621838, -0.000198886, -0.00198006, 0.00223035, 0.00430576, -0.000812807, 0.00144872, 0.0326638, -0.00333452, -0.0155281, -0.0879514, 0.112967, -0.0315447, 0.470938, -0.543134, 0.336026, -2.08366, -2.16598, -0.129692, 0.468887, -0.543068, 0.333852, -2.08331, -2.16323, -0.123945, -0.00460838, 0.0169405, 0.00871578, -0.000667954, -0.0127806, -0.0117853
0.057134, 1.69175, -1.22754, -1.5402, -0.900551, -1.19493, 1.22797, -1.30254, 0.0253858, -0.00889092, -0.01345, -0.0085099, -0.138026, -0.00367961, 0.000920123, 4.02259, 60.4666, 29.6506, 5.24017, 2.06195, 4.01248, -0.0750012, -0.000236874, -0.00197964, 0.00225341, 0.00439037, -0.000911099, 0.00148287, 0.0357654, -0.0020288, -0.0188074, -0.0958523, 0.117111, -0.0360265, 0.470933, -0.543117, 0.336034, -2.08364, -2.16599, -0.129679, 0.468883, -0.543085, 0.333832, -2.08334, -2.16323, -0.123735, -0.00479766, 0.0176488, 0.00907903, -0.00216851, -0.0146835, -0.0151017
0.058134, 1.69178, -1.22754, -1.54022, -0.900561, -1.19507, 1.22797, -1.30254, 0.0280875, -0.00745409, -0.0115512, -0.0111169, -0.135272, -0.00348461, -8.64261e-05, 4.06226, 60.538, 29.722, 5.31555, 2.03815, 4.04086, -0.0557752, -0.000271319, -0.00197604, 0.00226868, 0.0044724, -0.00102416, 0.00150999, 0.0335196, -0.00495918, -0.0180206, -0.0945834, 0.117078, -0.0288758, 0.470929, -0.543099, 0.336043, -2.08363, -2.166, -0.129666, 0.468883, -0.543099, 0.333821, -2.08337, -2.16324, -0.123513, -0.00499035, 0.0183707, 0.00944913, 0.000513402, -0.0117452, -0.0136948
0.059134, 1.69181, -1.22755, -1.54023, -0.900562, -1.19522, 1.22796, -1.30254, 0.0330137, -0.00829535, -0.00838636, -0.00634184, -0.139025, -0.00339342, -4.8441e-05, 4.09797, 60.6848, 29.722, 5.24017, 2.03815, 4.07016, -0.0557752, -0.000308464, -0.00197393, 0.0022846, 0.00454947, -0.00112962, 0.00154424, 0.0337137, -0.00700292, -0.017228, -0.0923704, 0.119405, -0.0285759, 0.470924, -0.543081, 0.336053, -2.08362, -2.16601, -0.129652, 0.46888, -0.543115, 0.333809, -2.08341, -2.16324, -0.123304, -0.00518633, 0.0191057, 0.00982594, 0.00239437, -0.0112396, -0.0126273
0.060134, 1.69184, -1.22756, -1.54024, -0.900574, -1.19536, 1.22796, -1.30255, 0.0305603, -0.0080479, -0.0119706, -0.00734674, -0.141614, -0.00275986, -0.0019921, 4.13764, 60.7959, 29.8371, 5.35126, 2.02533, 4.08389, -0.00267457, -0.000344039, -0.00196854, 0.00230402, 0.00463439, -0.00123958, 0.00156407, 0.0366077, -0.00521426, -0.0185568, -0.0965635, 0.122842, -0.0313979, 0.470918, -0.543062, 0.336063, -2.0836, -2.16602, -0.129638, 0.468881, -0.543128, 0.333794, -2.08343, -2.16326, -0.123082, -0.00538552, 0.0198537, 0.0102093, 0.000464899, -0.0132179, -0.0139508
0.061134, 1.69186, -1.22756, -1.54025, -0.900578, -1.19551, 1.22796, -1.30255, 0.035066, -0.00790313, -0.0126374, -0.00528811, -0.143351, -0.00237416, -0.00156026, 4.17335, 60.907, 29.8728, 5.35126, 2.03174, 4.09854, 0.00373412, -0.000383107, -0.00196541, 0.00231856, 0.00470795, -0.00135204, 0.00159689, 0.0365464, -0.00722081, -0.0188797, -0.0976571, 0.125137, -0.0307313, 0.470913, -0.543042, 0.336073, -2.08359, -2.16603, -0.129623, 0.46888, -0.543144, 0.333784, -2.08346, -2.16327, -0.122868, -0.0055878, 0.0206142, 0.0105989, 0.00225286, -0.0122648, -0.0139311
0.062134, 1.6919, -1.22757, -1.54026, -0.900586, -1.19566, 1.22796, -1.30254, 0.0334765, -0.00865698, -0.0100121, -0.00558136, -0.14891, -0.00184783, 0.000421757, 4.13764, 61.0538, 29.9085, 5.42664, 2.00702, 4.10586, -0.0356336, -0.000418515, -0.00195648, 0.00233599, 0.00478512, -0.00146373, 0.00162343, 0.0386751, -0.00652541, -0.0185601, -0.0977809, 0.129545, -0.0352636, 0.470907, -0.543021, 0.336083, -2.08357, -2.16604, -0.129607, 0.468884, -0.543155, 0.333771, -2.08349, -2.16329, -0.12265, -0.00579309, 0.0213869, 0.0109948, 0.00144147, -0.0136714, -0.0135286
0.063134, 1.69193, -1.22758, -1.54027, -0.900594, -1.1958, 1.22796, -1.30255, 0.0327779, -0.00833569, -0.00816669, -0.00477566, -0.144194, -0.00176976, -0.000665361, 4.21302, 61.1649, 29.9482, 5.46234, 1.99512, 4.12051, -0.00999879, -0.000458973, -0.00195252, 0.00235395, 0.00485518, -0.00156876, 0.00165252, 0.0387304, -0.00700771, -0.0178308, -0.0937226, 0.12637, -0.033779, 0.470902, -0.543, 0.336094, -2.08356, -2.16606, -0.129591, 0.468883, -0.543171, 0.333758, -2.08352, -2.1633, -0.122447, -0.00600136, 0.0221719, 0.0113968, 0.00174358, -0.0130334, -0.0124296
0.064134, 1.69195, -1.22758, -1.54028, -0.9006, -1.19595, 1.22795, -1.30254, 0.0333845, -0.0072948, -0.00930109, -0.00651639, -0.14099, -0.00141371, 0.00125402, 4.24873, 61.2402, 30.095, 5.46234, 2.00061, 4.12692, -0.0557752, -0.000499292, -0.00194838, 0.00237054, 0.0049319, -0.00167884, 0.00169026, 0.0383453, -0.00813548, -0.018133, -0.0940837, 0.125763, -0.03374, 0.470896, -0.542978, 0.336106, -2.08354, -2.16607, -0.129574, 0.468882, -0.543186, 0.333747, -2.08356, -2.16331, -0.12223, -0.00621258, 0.0229689, 0.0118049, 0.00263411, -0.0117633, -0.0122942
0.065134, 1.69199, -1.22759, -1.54028, -0.900607, -1.19609, 1.22795, -1.30254, 0.0346561, -0.00651447, -0.00651794, -0.00874236, -0.142289, -0.00175365, 0.00083765, 4.24873, 61.3116, 30.095, 5.50201, 1.9704, 4.14889, -0.0557752, -0.000535377, -0.00193903, 0.00238495, 0.00499964, -0.00178424, 0.00171192, 0.0375639, -0.00981015, -0.0173643, -0.0940803, 0.128055, -0.0299172, 0.470889, -0.542955, 0.336118, -2.08352, -2.16608, -0.129557, 0.468886, -0.543196, 0.333738, -2.08359, -2.16333, -0.122028, -0.0064267, 0.0237778, 0.012219, 0.00409254, -0.0102322, -0.0110505
0.066134, 1.69202, -1.22758, -1.54029, -0.900613, -1.19623, 1.22795, -1.30254, 0.0323402, -0.00349338, -0.00634645, -0.00637574, -0.142011, -0.00143841, 0.000559658, 4.24873, 61.2759, 30.1703, 5.50201, 1.92737, 4.15622, -0.0557752, -0.000575265, -0.00193264, 0.00239484, 0.00506856, -0.00190384, 0.00174199, 0.0398355, -0.00823954, -0.0153258, -0.0921452, 0.131264, -0.0345781, 0.470883, -0.542931, 0.33613, -2.0835, -2.16609, -0.129539, 0.468887, -0.54321, 0.333735, -2.08362, -2.16335, -0.12181, -0.00664368, 0.0245986, 0.0126391, 0.00246316, -0.0120322, -0.00892218
0.067134, 1.69205, -1.22758, -1.54029, -0.900616, -1.19638, 1.22795, -1.30254, 0.0328899, -0.00231814, -0.0044094, -0.00689981, -0.13876, -0.000686196, -0.000134602, 4.2884, 61.2759, 30.1703, 5.46234, 1.90265, 4.14889, -0.0420422, -0.00061618, -0.00192586, 0.00240353, 0.00512807, -0.00201964, 0.00177108, 0.0392562, -0.00968993, -0.0142676, -0.0888715, 0.130658, -0.0315905, 0.470876, -0.542906, 0.336143, -2.08349, -2.16611, -0.12952, 0.468888, -0.543224, 0.333732, -2.08366, -2.16338, -0.121605, -0.00686349, 0.0254311, 0.0130651, 0.00370979, -0.0107307, -0.00740523
0.068134, 1.69208, -1.22759, -1.54029, -0.900622, -1.19652, 1.22795, -1.30254, 0.0333862, -0.00497101, -0.00483666, -0.00433652, -0.135806, -0.000456358, -0.000801123, 4.3241, 61.4227, 30.2457, 5.42664, 1.86603, 4.14889, -0.0228162, -0.000658539, -0.0019185, 0.00242194, 0.00519339, -0.0021211, 0.00179844, 0.0404789, -0.0099436, -0.0159181, -0.0871177, 0.126108, -0.0325548, 0.470869, -0.542881, 0.336156, -2.08347, -2.16612, -0.129501, 0.468889, -0.543238, 0.33372, -2.08369, -2.16339, -0.121407, -0.00708609, 0.0262753, 0.013497, 0.00372497, -0.0108293, -0.00880037
0.069134, 1.69212, -1.22758, -1.5403, -0.900626, -1.19666, 1.22795, -1.30255, 0.0349732, -0.00330794, -0.00416003, -0.00557237, -0.138253, -0.0010833, -0.00199163, 4.17335, 61.4227, 30.2814, 5.38696, 1.84131, 4.16995, 0.0165515, -0.000695102, -0.00190452, 0.00243201, 0.0052597, -0.00223856, 0.00181273, 0.0404533, -0.0110131, -0.0152943, -0.0892656, 0.130166, -0.0299652, 0.470862, -0.542854, 0.336169, -2.08345, -2.16613, -0.129481, 0.468897, -0.543245, 0.333718, -2.08371, -2.16343, -0.121193, -0.00731145, 0.027131, 0.0139346, 0.00458983, -0.0100002, -0.00777518
0.070134, 1.69215, -1.22759, -1.54029, -0.900628, -1.19681, 1.22795, -1.30255, 0.0354934, -0.00656244, -0.00201341, -0.00263119, -0.144896, 5.83131e-05, -0.000615287, 4.17335, 61.6092, 30.2457, 5.31555, 1.82941, 4.14889, -0.00267457, -0.000739273, -0.00189513, 0.00244758, 0.00531645, -0.00234505, 0.00184484, 0.0433165, -0.0107499, -0.0162549, -0.0888213, 0.133151, -0.0352607, 0.470855, -0.542827, 0.336183, -2.08343, -2.16615, -0.129461, 0.4689, -0.543259, 0.333709, -2.08375, -2.16345, -0.120999, -0.00753952, 0.0279981, 0.014378, 0.00416774, -0.0118228, -0.00871616
0.071134, 1.69219, -1.2276, -1.5403, -0.900629, -1.19695, 1.22795, -1.30255, 0.0353287, -0.00464968, -0.00399719, -0.000430924, -0.145468, 0.000310609, -0.000138633, 4.06226, 61.756, 30.3568, 5.24017, 1.81659, 4.14157, -0.00999879, -0.0007824, -0.00188304, 0.00246534, 0.00538218, -0.00245412, 0.00187281, 0.0453585, -0.00996813, -0.0157914, -0.0897493, 0.136185, -0.0397478, 0.470847, -0.542799, 0.336197, -2.08341, -2.16616, -0.12944, 0.468905, -0.54327, 0.333699, -2.08378, -2.16347, -0.120791, -0.00777026, 0.0288765, 0.0148271, 0.00324723, -0.0130638, -0.0081022
0.072134, 1.69223, -1.2276, -1.5403, -0.900633, -1.1971, 1.22795, -1.30254, 0.0374258, -0.0045047, -0.00354235, -0.00280595, -0.142105, 0.000207422, 0.00184058, 3.98292, 61.8274, 30.3925, 5.2005, 1.81659, 4.14157, -0.0621838, -0.000825676, -0.00187115, 0.00248128, 0.00544637, -0.00256422, 0.00190502, 0.043899, -0.0123269, -0.0162955, -0.0896832, 0.134394, -0.0369832, 0.47084, -0.54277, 0.336212, -2.08339, -2.16618, -0.129418, 0.46891, -0.543281, 0.333691, -2.08381, -2.16349, -0.120583, -0.00800365, 0.0297661, 0.0152818, 0.00529896, -0.0105583, -0.00799052
0.073134, 1.69227, -1.22761, -1.5403, -0.900635, -1.19724, 1.22795, -1.30254, 0.038994, -0.00716569, -0.00239333, -0.00154265, -0.144047, 0.000918438, 0.00170193, 3.90754, 62.0139, 30.3925, 5.16479, 1.81018, 4.12051, -0.0750012, -0.000869886, -0.00185784, 0.002499, 0.00550202, -0.00266663, 0.00193171, 0.045014, -0.0133, -0.0176011, -0.0892157, 0.134173, -0.0372034, 0.470832, -0.542741, 0.336228, -2.08336, -2.16619, -0.129396, 0.468917, -0.543292, 0.333682, -2.08384, -2.16351, -0.120393, -0.00823965, 0.0306668, 0.015742, 0.00602803, -0.0105174, -0.00902181
0.074134, 1.69231, -1.22762, -1.5403, -0.900636, -1.19739, 1.22795, -1.30254, 0.040031, -0.00806144, -0.00161937, -0.00374411, -0.145802, 0.000612488, 0.0013721, 3.83216, 62.1606, 30.3925, 5.12909, 1.8349, 4.12051, -0.0814099, -0.000915016, -0.00184388, 0.00251784, 0.00556526, -0.00277428, 0.00195841, 0.0451211, -0.0144892, -0.0185446, -0.0912854, 0.135374, -0.0348846, 0.470823, -0.54271, 0.336243, -2.08334, -2.16621, -0.129373, 0.468923, -0.543303, 0.333671, -2.08387, -2.16354, -0.120187, -0.00847821, 0.0315785, 0.0162078, 0.00694703, -0.00951714, -0.00954034
0.075134, 1.69235, -1.22762, -1.5403, -0.900634, -1.19754, 1.22796, -1.30254, 0.0377923, -0.00526228, -0.00202546, -0.00211758, -0.15123, 0.00176481, -0.000780594, 3.75678, 62.1606, 30.4322, 5.08942, 1.84772, 4.08389, -0.0356336, -0.000962708, -0.00183115, 0.00253149, 0.0056216, -0.00289058, 0.00198798, 0.0486043, -0.0125584, -0.0169018, -0.0922117, 0.143616, -0.0392075, 0.470815, -0.542678, 0.33626, -2.08332, -2.16623, -0.129349, 0.468929, -0.543315, 0.333666, -2.08391, -2.16357, -0.11998, -0.0087193, 0.0325011, 0.016679, 0.00496408, -0.0123655, -0.00792816
0.076134, 1.69239, -1.22763, -1.54031, -0.900634, -1.19769, 1.22796, -1.30254, 0.0408719, -0.00602263, -0.00219892, -0.00182387, -0.146063, 0.00195654, -0.00146976, 3.60603, 62.2717, 30.4679, 5.08942, 1.85321, 4.06283, -0.00999879, -0.00100846, -0.00181431, 0.00254999, 0.00567591, -0.00299566, 0.00200681, 0.0474349, -0.0150442, -0.0178347, -0.090584, 0.13945, -0.0348556, 0.470806, -0.542646, 0.336276, -2.08329, -2.16625, -0.129324, 0.468938, -0.543325, 0.333657, -2.08393, -2.1636, -0.119787, -0.00896288, 0.0334345, 0.0171556, 0.00712728, -0.0100314, -0.00826697
0.077134, 1.69243, -1.22765, -1.54031, -0.900638, -1.19783, 1.22797, -1.30255, 0.0435111, -0.00822097, -0.00231122, -0.00328826, -0.142636, 0.00184698, -0.00148842, 3.57032, 62.4542, 30.5036, 5.16479, 1.86603, 4.04819, 0.00373412, -0.00105486, -0.00179721, 0.00257228, 0.00573519, -0.00309641, 0.00202692, 0.0463855, -0.017464, -0.0198405, -0.0908632, 0.135274, -0.0306, 0.470797, -0.542612, 0.336293, -2.08327, -2.16626, -0.129299, 0.468947, -0.543333, 0.333645, -2.08394, -2.16363, -0.119592, -0.00920893, 0.0343785, 0.0176375, 0.00918717, -0.0076426, -0.00967651
0.078134, 1.69247, -1.22765, -1.54031, -0.900635, -1.19797, 1.22797, -1.30254, 0.0433517, -0.00803184, -0.00154835, -0.002424, -0.144701, 0.00174001, -8.89458e-06, 3.49494, 62.5653, 30.5036, 5.16479, 1.87244, 4.03445, -0.0228162, -0.00110242, -0.0017818, 0.00259048, 0.00579024, -0.0031965, 0.00205661, 0.0479601, -0.0172825, -0.0196593, -0.0912015, 0.137631, -0.0341245, 0.470788, -0.542578, 0.336311, -2.08324, -2.16628, -0.129273, 0.468954, -0.543342, 0.333636, -2.08397, -2.16365, -0.1194, -0.00945739, 0.0353331, 0.0181247, 0.00882164, -0.00827777, -0.00924889
0.079134, 1.69251, -1.22766, -1.54031, -0.900642, -1.19811, 1.22797, -1.30254, 0.0416994, -0.00708236, -0.00280112, -0.00127659, -0.140483, 0.00224512, 0.000706176, 3.49494, 62.6407, 30.579, 5.27588, 1.86603, 4.00516, -0.0420422, -0.00115147, -0.00176686, 0.00261018, 0.00585041, -0.00330243, 0.00208483, 0.0494602, -0.0166521, -0.0195847, -0.0894224, 0.135961, -0.0374916, 0.470779, -0.542543, 0.336329, -2.08322, -2.1663, -0.129247, 0.46896, -0.543352, 0.333627, -2.084, -2.16368, -0.119197, -0.00970824, 0.0362982, 0.0186171, 0.00799889, -0.00883101, -0.00889602
0.080134, 1.69256, -1.22767, -1.54032, -0.900639, -1.19825, 1.22797, -1.30254, 0.0438597, -0.00720064, -0.00363489, 0.000113068, -0.138715, 0.00227668, 0.00121679, 3.34419, 62.7478, 30.6544, 5.24017, 1.88434, 3.9841, -0.0621838, -0.00119889, -0.00174647, 0.0026305, 0.00590205, -0.00340193, 0.00210937, 0.0498005, -0.0178423, -0.0201981, -0.0893947, 0.135085, -0.0377077, 0.470769, -0.542506, 0.336348, -2.08319, -2.16632, -0.12922, 0.468972, -0.543358, 0.333618, -2.08402, -2.16371, -0.119009, -0.00996144, 0.0372736, 0.0191147, 0.00892487, -0.00804774, -0.00909304
0.081134, 1.69261, -1.22767, -1.54032, -0.900641, -1.19838, 1.22798, -1.30254, 0.0464776, -0.00737895, -0.00242644, -0.000663159, -0.135972, 0.00206035, 0.00104857, 3.26881, 62.8589, 30.6544, 5.27588, 1.86603, 3.96945, -0.0685925, -0.00124333, -0.00172402, 0.00264908, 0.00594975, -0.00349615, 0.00212775, 0.0486712, -0.0202047, -0.020474, -0.0884434, 0.133309, -0.0335981, 0.470759, -0.542469, 0.336367, -2.08316, -2.16634, -0.129192, 0.468985, -0.543361, 0.333611, -2.08403, -2.16374, -0.11883, -0.010217, 0.0382593, 0.0196175, 0.0109782, -0.00580656, -0.00875976
0.082134, 1.69266, -1.22768, -1.54032, -0.900641, -1.19851, 1.22798, -1.30253, 0.0477825, -0.00583237, -0.00338325, -0.000369596, -0.135002, 0.00188221, 0.000699059, 3.22913, 62.8986, 30.7297, 5.27588, 1.87793, 3.95572, -0.0685925, -0.00129074, -0.0017035, 0.0026687, 0.0060004, -0.00359063, 0.00214927, 0.0490948, -0.020983, -0.0202818, -0.0893317, 0.134729, -0.0332151, 0.470749, -0.542431, 0.336386, -2.08313, -2.16636, -0.129163, 0.468997, -0.543366, 0.333603, -2.08405, -2.16378, -0.118647, -0.0104747, 0.0392552, 0.0201252, 0.0115207, -0.00522587, -0.00815154
0.083134, 1.6927, -1.22769, -1.54033, -0.900641, -1.19864, 1.22798, -1.30253, 0.0456645, -0.0073107, -0.00569096, -0.000192015, -0.135378, 0.00233989, 0.000228689, 3.19343, 63.0453, 30.8765, 5.27588, 1.93927, 3.92642, -0.0621838, -0.00134077, -0.00168235, 0.00269428, 0.00605639, -0.00368274, 0.00217115, 0.051906, -0.0196455, -0.022132, -0.0912696, 0.134543, -0.0370294, 0.470738, -0.542392, 0.336407, -2.0831, -2.16638, -0.129134, 0.469008, -0.543371, 0.33359, -2.08406, -2.1638, -0.11846, -0.0107348, 0.0402611, 0.020638, 0.00996003, -0.00676624, -0.00986044
0.084134, 1.69276, -1.2277, -1.54033, -0.900643, -1.19876, 1.22798, -1.30254, 0.0482288, -0.00746385, -0.00379532, -8.7223e-05, -0.133157, 0.00233983, -0.00228894, 3.11805, 63.1564, 30.8765, 5.27588, 1.92737, 3.90536, 0.00373412, -0.00138635, -0.00165705, 0.00271537, 0.00610079, -0.00376954, 0.00217555, 0.0510745, -0.0218881, -0.022016, -0.0893607, 0.133213, -0.0312647, 0.470727, -0.542351, 0.336427, -2.08308, -2.1664, -0.129103, 0.469024, -0.543372, 0.333582, -2.08406, -2.16385, -0.118292, -0.010997, 0.0412769, 0.0211557, 0.0119122, -0.00485385, -0.00916787
0.085134, 1.6928, -1.22771, -1.54034, -0.900649, -1.19889, 1.22798, -1.30254, 0.0451345, -0.00747524, -0.00512967, -0.0017908, -0.12963, 0.00210243, -0.000542611, 3.11805, 63.2635, 30.9876, 5.35126, 1.9704, 3.89071, -0.0228162, -0.00143732, -0.00163604, 0.00274089, 0.00615598, -0.00385959, 0.0021987, 0.0526006, -0.0208865, -0.0229401, -0.0898494, 0.131038, -0.034887, 0.470716, -0.54231, 0.336448, -2.08304, -2.16642, -0.129072, 0.469034, -0.543376, 0.333569, -2.08407, -2.16388, -0.118106, -0.0112614, 0.0423026, 0.0216783, 0.0106699, -0.00523415, -0.0097635
0.086134, 1.69285, -1.22772, -1.54035, -0.90065, -1.19901, 1.22799, -1.30254, 0.0470927, -0.00841244, -0.00518377, -0.00117092, -0.126499, 0.00194416, -0.000361736, 3.07838, 63.4103, 31.063, 5.35126, 2.01343, 3.87607, -0.0228162, -0.00148635, -0.001611, 0.00276622, 0.00620391, -0.00394234, 0.00221426, 0.0524923, -0.0224196, -0.0238948, -0.089094, 0.128186, -0.0334991, 0.470705, -0.542268, 0.33647, -2.08301, -2.16645, -0.129041, 0.469049, -0.543377, 0.333558, -2.08407, -2.16391, -0.117936, -0.011528, 0.0433381, 0.0222057, 0.0118961, -0.00388104, -0.0102089
0.087134, 1.69291, -1.22772, -1.54035, -0.900647, -1.19914, 1.22799, -1.30254, 0.0462356, -0.0082032, -0.0114505, 7.18105e-05, -0.123993, 0.00153347, -0.00098714, 3.003, 63.5214, 31.1384, 5.31555, 2.05646, 3.86966, -0.00267457, -0.00153635, -0.00158568, 0.00278994, 0.00625133, -0.00402803, 0.00222916, 0.0551055, -0.0209943, -0.0261643, -0.0934722, 0.127117, -0.0378449, 0.470694, -0.542224, 0.336492, -2.08298, -2.16647, -0.129008, 0.469064, -0.543379, 0.333548, -2.08407, -2.16395, -0.117762, -0.0117966, 0.0443832, 0.0227379, 0.0102167, -0.00512623, -0.0122789
0.088134, 1.69296, -1.22773, -1.54037, -0.90065, -1.19926, 1.22799, -1.30254, 0.0484771, -0.00889981, -0.012515, -0.000774439, -0.121116, 0.00129359, -0.000149465, 2.92762, 63.6682, 31.3248, 5.35126, 2.08118, 3.86233, -0.0164075, -0.00158639, -0.00155814, 0.00281865, 0.00630279, -0.00410988, 0.00224425, 0.0546868, -0.0227919, -0.0275655, -0.0945115, 0.124893, -0.0361357, 0.470682, -0.54218, 0.336515, -2.08295, -2.16649, -0.128975, 0.46908, -0.543378, 0.333534, -2.08407, -2.16398, -0.117588, -0.0120673, 0.0454378, 0.0232748, 0.0116753, -0.00336788, -0.0131156
0.089134, 1.69302, -1.22774, -1.54037, -0.90065, -1.19938, 1.22799, -1.30254, 0.0471741, -0.00852967, -0.0104963, -0.000506614, -0.120168, 0.000591125, 0.000612435, 2.85224, 63.7793, 31.4002, 5.35126, 2.1297, 3.86966, -0.0356336, -0.00163778, -0.00153263, 0.00284438, 0.00635534, -0.00419385, 0.00226318, 0.0557741, -0.0225726, -0.0269493, -0.092995, 0.124667, -0.0380306, 0.47067, -0.542135, 0.336538, -2.08291, -2.16652, -0.128941, 0.469095, -0.543379, 0.333523, -2.08407, -2.16401, -0.117408, -0.0123401, 0.0465019, 0.0238164, 0.0112465, -0.00348075, -0.0121273
0.090134, 1.69308, -1.22774, -1.54038, -0.900652, -1.1995, 1.22799, -1.30254, 0.0502694, -0.00484973, -0.0107235, -0.0011657, -0.118219, 0.000665353, 0.00115428, 2.73719, 63.7436, 31.547, 5.38696, 2.13611, 3.86233, -0.0557752, -0.00168635, -0.00150187, 0.00286581, 0.00640461, -0.00428851, 0.00227475, 0.0546885, -0.0248326, -0.0254723, -0.0931355, 0.127688, -0.0353622, 0.470657, -0.542088, 0.336562, -2.08288, -2.16654, -0.128906, 0.469114, -0.543376, 0.333517, -2.08407, -2.16406, -0.117222, -0.0126148, 0.0475753, 0.0243626, 0.0132442, -0.00146773, -0.0100237
0.091134, 1.69314, -1.22776, -1.54039, -0.900657, -1.19962, 1.22799, -1.30254, 0.0516635, -0.0100994, -0.0091315, -0.00169971, -0.117899, 0.00474555, 0.000769519, 2.66181, 64.0372, 31.6224, 5.42664, 2.16724, 3.87607, -0.0557752, -0.00173533, -0.00146833, 0.00289971, 0.00645079, -0.00435664, 0.00227766, 0.0555951, -0.0271456, -0.0281566, -0.0894097, 0.124948, -0.0330362, 0.470645, -0.542041, 0.336586, -2.08285, -2.16657, -0.128871, 0.469135, -0.54337, 0.333499, -2.08405, -2.1641, -0.117065, -0.0128915, 0.048658, 0.0249134, 0.0152126, -0.00077095, -0.0123349
0.092134, 1.69319, -1.22775, -1.54039, -0.900658, -1.19973, 1.22799, -1.30254, 0.0517936, -0.00413362, -0.00708731, -0.00196427, -0.116422, 0.00329332, 0.000513013, 2.62611, 63.9261, 31.6581, 5.46234, 2.18555, 3.88339, -0.0557752, -0.00178559, -0.00143963, 0.00291704, 0.0064933, -0.00444717, 0.00228948, 0.055212, -0.0276805, -0.0244591, -0.0882801, 0.129602, -0.0319846, 0.470632, -0.541992, 0.336611, -2.08281, -2.16659, -0.128834, 0.469152, -0.543367, 0.333499, -2.08405, -2.16415, -0.116889, -0.0131701, 0.0497497, 0.0254687, 0.015591, 0.000154114, -0.00808563
0.093134, 1.69325, -1.22776, -1.5404, -0.900661, -1.19985, 1.22799, -1.30254, 0.0536565, -0.00535357, -0.00661143, -0.00223447, -0.120016, 0.00222494, -0.00135341, 2.51106, 64.0372, 31.7335, 5.50201, 2.19104, 3.89071, -0.00999879, -0.00183569, -0.00140602, 0.00294297, 0.00653587, -0.00452724, 0.00228991, 0.0561034, -0.0285439, -0.0256014, -0.0914398, 0.131603, -0.0299055, 0.470619, -0.541942, 0.336637, -2.08277, -2.16662, -0.128797, 0.469173, -0.543361, 0.33349, -2.08403, -2.1642, -0.116723, -0.0134506, 0.0508506, 0.0260284, 0.0161642, 0.000586874, -0.0088185
0.0941343, 1.69332, -1.22778, -1.54041, -0.900663, -1.19997, 1.22799, -1.30254, 0.0541071, -0.00876549, -0.00802658, -0.00148735, -0.117691, 0.00143753, -0.00117354, 2.43568, 64.2593, 31.8842, 5.50201, 2.19104, 3.89804, -0.00267457, -0.00188962, -0.00137372, 0.00297759, 0.00658599, -0.00459798, 0.0022989, 0.0573864, -0.0288126, -0.0284781, -0.092745, 0.126708, -0.0310429, 0.470605, -0.541891, 0.336663, -2.08274, -2.16665, -0.128759, 0.469193, -0.543357, 0.333472, -2.08401, -2.16424, -0.116557, -0.013733, 0.0519604, 0.0265925, 0.016092, 0.000883488, -0.011302
0.0951343, 1.69338, -1.22779, -1.54041, -0.900671, -1.20009, 1.22799, -1.30254, 0.0550975, -0.00927698, -0.00542042, -0.0035883, -0.117211, 0.00139874, -0.00125708, 2.32459, 64.4061, 31.8842, 5.6131, 2.22217, 3.89071, 0.0101428, -0.00193864, -0.00133669, 0.00300634, 0.00663189, -0.00467493, 0.00229453, 0.0569362, -0.0306126, -0.0285794, -0.0919188, 0.126602, -0.0276466, 0.470592, -0.541839, 0.33669, -2.0827, -2.16667, -0.128721, 0.469217, -0.543348, 0.333462, -2.08398, -2.1643, -0.11639, -0.0140172, 0.053079, 0.027161, 0.0175859, 0.00253802, -0.0108193
0.0961343, 1.69344, -1.22779, -1.54042, -0.900679, -1.2002, 1.22799, -1.30254, 0.0562674, -0.0070196, -0.00802733, -0.00415415, -0.116504, 0.000245535, 0.000382651, 2.32459, 64.4418, 32.0707, 5.68848, 2.24048, 3.91269, -0.0228162, -0.00199446, -0.00130648, 0.00303451, 0.00668186, -0.00475675, 0.00231067, 0.057533, -0.031018, -0.0287915, -0.0955858, 0.128733, -0.0296278, 0.470578, -0.541786, 0.336717, -2.08266, -2.1667, -0.128681, 0.469234, -0.543344, 0.333452, -2.08397, -2.16434, -0.11621, -0.0143032, 0.0542063, 0.0277337, 0.0177198, 0.00312634, -0.010561
0.0971343, 1.6935, -1.22781, -1.54043, -0.900687, -1.20032, 1.22799, -1.30254, 0.0562794, -0.00904123, -0.0101225, -0.0045317, -0.115404, 0.000530089, 0.00120454, 2.24921, 64.6283, 32.1421, 5.76385, 2.25879, 3.90536, -0.0484509, -0.00204749, -0.00127004, 0.00306907, 0.00673101, -0.00482657, 0.00231477, 0.059071, -0.0312089, -0.0311355, -0.0974778, 0.126906, -0.0316335, 0.470563, -0.541732, 0.336744, -2.08262, -2.16673, -0.128641, 0.469257, -0.543336, 0.333436, -2.08395, -2.16438, -0.116044, -0.0145909, 0.0553423, 0.0283107, 0.0175934, 0.00311243, -0.0125426
0.0981343, 1.69356, -1.22781, -1.54043, -0.900688, -1.20044, 1.22799, -1.30254, 0.0541699, -0.00769777, -0.00796073, -0.00302041, -0.114803, 0.000696009, 0.000565666, 2.24921, 64.6997, 32.1818, 5.76385, 2.2652, 3.89804, -0.0420422, -0.00210585, -0.00123746, 0.00309408, 0.00676793, -0.00491121, 0.00232782, 0.0610095, -0.0303984, -0.0296322, -0.0944809, 0.128262, -0.034142, 0.470549, -0.541677, 0.336773, -2.08258, -2.16676, -0.128599, 0.469276, -0.543333, 0.33343, -2.08394, -2.16443, -0.115874, -0.0148804, 0.0564869, 0.0288918, 0.0166222, 0.00207899, -0.0107522
0.0991343, 1.69362, -1.22782, -1.54045, -0.900697, -1.20055, 1.22799, -1.30254, 0.0560922, -0.00773019, -0.0107174, -0.0036835, -0.114571, 0.000246251, 0.000614469, 2.09846, 64.8108, 32.4039, 5.83527, 2.2771, 3.90536, -0.0484509, -0.0021616, -0.0012007, 0.00312792, 0.00682287, -0.00499105, 0.00233272, 0.0616819, -0.0313438, -0.0312446, -0.0982579, 0.128907, -0.0339012, 0.470534, -0.54162, 0.336802, -2.08254, -2.16679, -0.128557, 0.469299, -0.543325, 0.333415, -2.08392, -2.16448, -0.11569, -0.0151716, 0.0576399, 0.0294771, 0.0172413, 0.00285591, -0.0118925
0.100134, 1.69369, -1.22782, -1.54045, -0.900706, -1.20067, 1.22799, -1.30254, 0.056041, -0.00691661, -0.00977185, -0.00649993, -0.113603, -6.69665e-05, -0.000539789, 2.02308, 64.8862, 32.3682, 5.87494, 2.28351, 3.91269, -0.0228162, -0.00221626, -0.00116241, 0.00315573, 0.00686394, -0.00507046, 0.00233344, 0.0616238, -0.0324122, -0.0312358, -0.0989783, 0.129744, -0.0305268, 0.470519, -0.541563, 0.336831, -2.08249, -2.16682, -0.128514, 0.469323, -0.543315, 0.333408, -2.0839, -2.16454, -0.115521, -0.0154644, 0.0588012, 0.0300665, 0.0180146, 0.00411883, -0.0113185
0.101134, 1.69375, -1.22784, -1.54046, -0.90072, -1.20078, 1.22799, -1.30254, 0.0568109, -0.00980792, -0.00858016, -0.00719116, -0.116883, -0.000251903, -0.00181792, 1.90803, 65.1083, 32.4396, 5.98602, 2.27161, 3.9191, 0.0165515, -0.00227125, -0.00112203, 0.00319255, 0.0069112, -0.0051382, 0.00232268, 0.0629852, -0.0331223, -0.0330563, -0.100793, 0.130261, -0.0293102, 0.470503, -0.541504, 0.336861, -2.08245, -2.16685, -0.128471, 0.469348, -0.543303, 0.333392, -2.08385, -2.1646, -0.115357, -0.0157588, 0.0599708, 0.0306599, 0.018413, 0.00425429, -0.0127555
0.102134, 1.69381, -1.22783, -1.54046, -0.900734, -1.2009, 1.22799, -1.30254, 0.0578639, -0.00477533, -0.0069445, -0.00675191, -0.115519, -0.000416627, -0.00144931, 1.90803, 65.033, 32.4793, 6.0614, 2.2771, 3.92642, 0.0229602, -0.00232956, -0.00108743, 0.00321533, 0.00695279, -0.00522692, 0.00233085, 0.0628219, -0.0342001, -0.0299182, -0.0988676, 0.134766, -0.0288647, 0.470487, -0.541444, 0.336892, -2.08241, -2.16688, -0.128426, 0.469368, -0.543296, 0.33339, -2.08384, -2.16466, -0.115175, -0.0160548, 0.0611486, 0.0312573, 0.0193047, 0.00515796, -0.00906746
0.103134, 1.69387, -1.22784, -1.54047, -0.90075, -1.20101, 1.22799, -1.30254, 0.0582517, -0.00578197, -0.00661518, -0.012705, -0.114172, 1.04472e-05, 0.000254499, 1.79694, 65.144, 32.5547, 6.13678, 2.2652, 3.9191, -0.00999879, -0.00238628, -0.00104737, 0.00325025, 0.0070019, -0.00529898, 0.00232885, 0.0619659, -0.0363259, -0.0315991, -0.10101, 0.134211, -0.0253065, 0.470471, -0.541383, 0.336923, -2.08236, -2.16691, -0.128381, 0.469393, -0.543284, 0.333377, -2.0838, -2.16471, -0.115002, -0.0163524, 0.0623344, 0.0318586, 0.0210372, 0.00753719, -0.0100595
0.104134, 1.69393, -1.22785, -1.54048, -0.900768, -1.20112, 1.22798, -1.30254, 0.0598138, -0.00552506, -0.00624726, -0.0140138, -0.113029, -0.000794139, 0.000169666, 1.75727, 65.2155, 32.6261, 6.20819, 2.25238, 3.94107, -0.00999879, -0.00244468, -0.00100906, 0.00328256, 0.0070475, -0.00537157, 0.00232747, 0.0617593, -0.0378062, -0.0320516, -0.10217, 0.134089, -0.0229615, 0.470455, -0.54132, 0.336955, -2.08231, -2.16694, -0.128334, 0.469416, -0.543273, 0.333367, -2.08377, -2.16477, -0.114832, -0.0166515, 0.0635282, 0.0324637, 0.022193, 0.00906771, -0.00991534
0.105134, 1.69401, -1.22785, -1.54048, -0.900788, -1.20123, 1.22798, -1.30254, 0.0615107, -0.00461137, -0.00521789, -0.0149667, -0.112547, -0.000791169, 0.00153726, 1.57081, 65.2551, 32.6658, 6.28357, 2.25238, 3.94839, -0.0484509, -0.00249906, -0.000963502, 0.00331346, 0.00709232, -0.00545112, 0.00231872, 0.0616232, -0.0394619, -0.0317718, -0.102151, 0.135503, -0.02217, 0.470438, -0.541257, 0.336987, -2.08227, -2.16698, -0.128287, 0.469445, -0.543256, 0.333359, -2.08373, -2.16484, -0.114655, -0.0169521, 0.0647298, 0.0330727, 0.0235523, 0.0104317, -0.00906055
0.106134, 1.69406, -1.22785, -1.54048, -0.900815, -1.20135, 1.22798, -1.30254, 0.056332, -0.00474467, -0.00357237, -0.0165951, -0.115853, -0.000249036, 7.54071e-05, 1.64619, 65.3265, 32.6658, 6.39465, 2.23407, 3.94107, -0.0228162, -0.00256106, -0.000926409, 0.00334479, 0.00713237, -0.00552797, 0.00231843, 0.0651187, -0.037203, -0.0315762, -0.102261, 0.139022, -0.0257012, 0.470421, -0.541192, 0.337021, -2.08222, -2.16701, -0.128239, 0.469467, -0.543247, 0.33335, -2.0837, -2.1649, -0.114485, -0.0172541, 0.0659392, 0.0336855, 0.0211322, 0.00806561, -0.00872561
0.107134, 1.69412, -1.22786, -1.54048, -0.90084, -1.20146, 1.22798, -1.30254, 0.0572511, -0.00576156, -0.00412234, -0.0200144, -0.110827, -0.00121183, 0.000762348, 1.53114, 65.4376, 32.7372, 6.47003, 2.25238, 3.96945, -0.0420422, -0.00261994, -0.000883981, 0.00337926, 0.00717914, -0.00560078, 0.0023104, 0.0641218, -0.0390697, -0.0333904, -0.103566, 0.134618, -0.0220407, 0.470404, -0.541126, 0.337054, -2.08217, -2.16705, -0.12819, 0.469493, -0.543232, 0.333339, -2.08365, -2.16497, -0.114311, -0.0175576, 0.0671563, 0.0343019, 0.0225897, 0.010625, -0.00980459
0.108134, 1.69418, -1.22786, -1.54048, -0.900869, -1.20157, 1.22798, -1.30253, 0.0586392, -0.00467625, -0.00196576, -0.0203321, -0.110754, 0.000247294, 0.000270873, 1.38038, 65.4733, 32.7015, 6.58508, 2.24689, 3.94107, -0.0356336, -0.00267632, -0.000836677, 0.00340888, 0.00721641, -0.00568139, 0.00229521, 0.064318, -0.0408297, -0.0323865, -0.101135, 0.137125, -0.0198648, 0.470387, -0.541059, 0.337088, -2.08212, -2.16708, -0.12814, 0.469523, -0.543214, 0.333334, -2.08361, -2.16505, -0.114139, -0.0178624, 0.068381, 0.034922, 0.0240882, 0.0115777, -0.00827851
0.109134, 1.69423, -1.22786, -1.54048, -0.900901, -1.20167, 1.22798, -1.30254, 0.0537261, -0.00311749, -0.00135007, -0.0225975, -0.110942, -0.000103391, -0.000768854, 1.34071, 65.4733, 32.7015, 6.65649, 2.24048, 3.94839, -0.00999879, -0.00273941, -0.000797326, 0.00343929, 0.00725456, -0.00575813, 0.00228903, 0.0668791, -0.0388414, -0.0317509, -0.101673, 0.139481, -0.0225029, 0.470369, -0.54099, 0.337123, -2.08207, -2.16712, -0.128089, 0.469546, -0.543202, 0.333328, -2.08357, -2.16512, -0.113969, -0.0181686, 0.0696132, 0.0355458, 0.0219164, 0.0101007, -0.00736168
0.110134, 1.69423, -1.22786, -1.54048, -0.900901, -1.20167, 1.22798, -1.30254, 0.0537261, -0.00311749, -0.00135007, -0.0225975, -0.110942, -0.000103391, -0.000768854, 1.34071, 65.4733, 32.7015, 6.65649, 2.24048, 3.94839, -0.00999879, -0.00281423, -0.00078101, 0.00346312, 0.00721914, -0.00574212, 0.00232725, 0.0682123, -0.039114, -0.0321685, -0.102173, 0.140316, -0.0235172, 0.470351, -0.540921, 0.337159, -2.08202, -2.16715, -0.128038, 0.469546, -0.543202, 0.333328, -2.08357, -2.16512, -0.113969, -0.0184762, 0.0708527, 0.036173, 0.0219164, 0.0101007, -0.00736168
0.111134, 1.69434, -1.22787, -1.54048, -0.90097, -1.20189, 1.22798, -1.30254, 0.0551452, -0.00404587, -0.000642063, -0.0275267, -0.103188, 0.000771052, -0.0010877, 1.15424, 65.6241, 32.7015, 6.73187, 2.24689, 3.92642, 0.0101428, -0.00286613, -0.000712984, 0.0035076, 0.00733246, -0.00590276, 0.00226655, 0.0659606, -0.0424715, -0.0335715, -0.100296, 0.134763, -0.015532, 0.470332, -0.54085, 0.337195, -2.08197, -2.16719, -0.127985, 0.469596, -0.543172, 0.33331, -2.08348, -2.16527, -0.113634, -0.018785, 0.0720996, 0.0368038, 0.0248257, 0.0139295, -0.00787307
0.112134, 1.6944, -1.22787, -1.54048, -0.901012, -1.20199, 1.22798, -1.30254, 0.0568667, -0.00176922, -0.000444731, -0.0312802, -0.100587, 0.000244039, 0.000495571, 1.00349, 65.5844, 32.7015, 6.80725, 2.24048, 3.93374, -0.0228162, -0.00292527, -0.000666884, 0.00353775, 0.00737063, -0.00597694, 0.00224975, 0.0646133, -0.0447463, -0.033237, -0.1017, 0.135878, -0.0122328, 0.470313, -0.540778, 0.337232, -2.08192, -2.16723, -0.127932, 0.469624, -0.543152, 0.333307, -2.08342, -2.16535, -0.113465, -0.0190951, 0.0733536, 0.0374381, 0.0267509, 0.0165605, -0.00677148
0.113134, 1.69445, -1.22787, -1.54048, -0.901047, -1.20209, 1.22798, -1.30253, 0.05498, -0.00117948, -0.000309005, -0.0348077, -0.0991122, 0.000706181, 0.0020258, 0.85273, 65.5844, 32.7015, 6.77154, 2.24689, 3.9191, -0.0685925, -0.00299032, -0.000623826, 0.00356954, 0.00740187, -0.00604662, 0.00224892, 0.065435, -0.0450169, -0.0336146, -0.102315, 0.136588, -0.0130123, 0.470294, -0.540705, 0.337269, -2.08186, -2.16726, -0.127878, 0.469649, -0.543136, 0.333302, -2.08339, -2.16542, -0.113305, -0.0194064, 0.0746148, 0.0380757, 0.0267275, 0.0170811, -0.00664267
0.114134, 1.69449, -1.22787, -1.54048, -0.901089, -1.20218, 1.22798, -1.30253, 0.0525721, 0.00143749, -0.000215391, -0.0353361, -0.0979669, 0.000980129, 0.00111318, 0.737679, 65.6241, 32.7015, 6.77154, 2.25238, 3.90536, -0.0621838, -0.00305576, -0.00058071, 0.00360322, 0.00743341, -0.0061121, 0.00223755, 0.0672497, -0.044205, -0.0323902, -0.101628, 0.1392, -0.0146764, 0.470275, -0.54063, 0.337307, -2.08181, -2.1673, -0.127822, 0.469674, -0.543119, 0.333295, -2.08334, -2.16549, -0.11315, -0.0197189, 0.075883, 0.0387168, 0.0257192, 0.0163369, -0.00504825
0.115134, 1.69454, -1.22787, -1.54048, -0.901136, -1.20228, 1.22798, -1.30253, 0.0476776, 0.00122098, -0.000150635, -0.0406308, -0.0966864, 0.00119649, 0.00121683, 0.626595, 65.6241, 32.7015, 6.84296, 2.25879, 3.89071, -0.0750012, -0.00312215, -0.000537743, 0.00363711, 0.00746519, -0.0061779, 0.00222682, 0.0689994, -0.0431178, -0.0333821, -0.103064, 0.139205, -0.0155413, 0.470255, -0.540554, 0.337346, -2.08175, -2.16734, -0.127766, 0.469698, -0.543102, 0.333289, -2.08329, -2.16557, -0.112993, -0.0200326, 0.0771581, 0.0393611, 0.0243494, 0.0159915, -0.00562023
0.116134, 1.69459, -1.22786, -1.54047, -0.901184, -1.20237, 1.22798, -1.30253, 0.045549, 0.00277422, 0.000729514, -0.0428515, -0.0956611, 0.00106933, -0.00040948, 0.436165, 65.5487, 32.6658, 6.84296, 2.25238, 3.88339, -0.0420422, -0.00318535, -0.00049145, 0.00366772, 0.0074957, -0.00624463, 0.00220322, 0.0701217, -0.0429164, -0.0327934, -0.10303, 0.140775, -0.0143837, 0.470235, -0.540477, 0.337386, -2.0817, -2.16738, -0.127709, 0.469726, -0.543081, 0.333287, -2.08322, -2.16566, -0.112836, -0.0203474, 0.07844, 0.0400087, 0.0238991, 0.0160681, -0.00455879
0.117134, 1.69463, -1.22786, -1.54047, -0.901236, -1.20246, 1.22798, -1.30254, 0.0461877, 0.00199722, 0.00377676, -0.0445565, -0.0916963, 0.000984455, -0.00145978, 0.285408, 65.5487, 32.6658, 6.84296, 2.28351, 3.87607, -0.00999879, -0.00325299, -0.000446525, 0.00370323, 0.00752646, -0.00630942, 0.00218369, 0.0693667, -0.0449236, -0.0328876, -0.100067, 0.137552, -0.00945582, 0.470215, -0.540398, 0.337426, -2.08164, -2.16742, -0.127651, 0.469751, -0.543062, 0.33328, -2.08316, -2.16574, -0.112681, -0.0206634, 0.0797287, 0.0406595, 0.0255574, 0.0182038, -0.00394767
0.118134, 1.69467, -1.22785, -1.54047, -0.901295, -1.20254, 1.22799, -1.30254, 0.0468252, 0.00227751, 0.00195418, -0.0476522, -0.087058, 0.00116516, -0.000973188, 0.134651, 65.513, 32.7015, 6.91833, 2.28351, 3.86233, -0.00999879, -0.00331931, -0.000401027, 0.00373635, 0.00755628, -0.00637437, 0.00216343, 0.0690132, -0.0464857, -0.0342536, -0.101389, 0.135414, -0.00697041, 0.470194, -0.540319, 0.337466, -2.08158, -2.16746, -0.127592, 0.469777, -0.543041, 0.333276, -2.0831, -2.16583, -0.112525, -0.0209804, 0.081024, 0.0413134, 0.0267372, 0.0201258, -0.00463751
0.119134, 1.69471, -1.22785, -1.54046, -0.901354, -1.20263, 1.22799, -1.30253, 0.0450365, 0.00568129, 0.0032697, -0.0488824, -0.0894918, 0.00186201, 0.000300644, -0.0557783, 65.4733, 32.6261, 6.95801, 2.32013, 3.83304, -0.0356336, -0.00338564, -0.000353606, 0.00376632, 0.00757656, -0.00644092, 0.00214596, 0.0708073, -0.0460577, -0.0322284, -0.101289, 0.141987, -0.010247, 0.470173, -0.540238, 0.337508, -2.08152, -2.1675, -0.127533, 0.469805, -0.543019, 0.333276, -2.08304, -2.16592, -0.112377, -0.0212984, 0.0823259, 0.0419705, 0.026137, 0.0193295, -0.00224486
0.120134, 1.69475, -1.22784, -1.54046, -0.901411, -1.2027, 1.22799, -1.30253, 0.0414988, 0.00883478, 0.00233255, -0.0553559, -0.0902835, 0.00229263, -3.69295e-05, -0.166862, 65.4019, 32.6261, 6.95801, 2.32654, 3.80466, -0.0292249, -0.00345678, -0.000311413, 0.00379598, 0.00759476, -0.00650258, 0.00213366, 0.0719699, -0.0455662, -0.0318088, -0.104864, 0.14739, -0.00956426, 0.470152, -0.540155, 0.33755, -2.08146, -2.16755, -0.127472, 0.469827, -0.543, 0.333277, -2.08299, -2.16601, -0.112234, -0.0216174, 0.0836343, 0.0426306, 0.0253883, 0.0194063, -0.00133499
0.121134, 1.69478, -1.22783, -1.54045, -0.901476, -1.20278, 1.22799, -1.30252, 0.0428076, 0.0125967, 0.00250482, -0.0586992, -0.0867502, 0.00179978, 0.0016708, -0.43267, 65.4019, 32.5904, 7.02942, 2.33844, 3.79733, -0.0750012, -0.00352321, -0.000263725, 0.00382861, 0.0076209, -0.00656102, 0.0021125, 0.0706793, -0.0476025, -0.0305482, -0.105457, 0.149225, -0.00693288, 0.47013, -0.540072, 0.337592, -2.0814, -2.16759, -0.12741, 0.469855, -0.542975, 0.333275, -2.08292, -2.16609, -0.112087, -0.0219375, 0.084949, 0.0432937, 0.0271026, 0.0218913, 0.000707708
0.122134, 1.69481, -1.22782, -1.54045, -0.901538, -1.20286, 1.228, -1.30252, 0.0377247, 0.0124542, 0.0040214, -0.0595601, -0.0793333, 0.00197982, 0.00135123, -0.583427, 65.4019, 32.6261, 7.02942, 2.35126, 3.77627, -0.0814099, -0.00359715, -0.000221584, 0.00385941, 0.0076388, -0.00662298, 0.0021009, 0.0723495, -0.0463614, -0.0303946, -0.100689, 0.143779, -0.00873879, 0.470108, -0.539987, 0.337635, -2.08134, -2.16763, -0.127348, 0.469876, -0.542957, 0.333276, -2.08287, -2.16618, -0.111942, -0.0222584, 0.08627, 0.0439598, 0.0256129, 0.0214883, 0.00130615
0.123136, 1.69484, -1.2278, -1.54044, -0.90161, -1.20293, 1.228, -1.30252, 0.0346957, 0.014974, 0.00617924, -0.0637275, -0.0741233, 0.00264236, -0.000794603, -0.76989, 65.2908, 32.6261, 7.18018, 2.37598, 3.74057, -0.0356336, -0.00366834, -0.000177643, 0.00388588, 0.0076596, -0.0066929, 0.00207867, 0.0722442, -0.0469203, -0.0289611, -0.0976132, 0.14336, -0.00428288, 0.470086, -0.5399, 0.337679, -2.08127, -2.16768, -0.127284, 0.4699, -0.542935, 0.333281, -2.08281, -2.16628, -0.111787, -0.0225803, 0.0875972, 0.0446288, 0.0259014, 0.0227259, 0.00338886
0.124136, 1.69487, -1.22778, -1.54044, -0.90168, -1.203, 1.228, -1.30252, 0.0324594, 0.0171236, 0.00672977, -0.0670188, -0.0742051, 0.00311795, 0.000453609, -0.960319, 65.2908, 32.6658, 7.21588, 2.38788, 3.70395, -0.0621838, -0.0037429, -0.000133587, 0.00391686, 0.00767662, -0.00675572, 0.00206595, 0.0734472, -0.0468192, -0.0282416, -0.0983008, 0.146885, -0.00573974, 0.470063, -0.539813, 0.337724, -2.08121, -2.16772, -0.127219, 0.469923, -0.542915, 0.333282, -2.08275, -2.16636, -0.111641, -0.0229031, 0.0889305, 0.0453006, 0.0255523, 0.0227589, 0.00458813
0.125136, 1.69489, -1.22777, -1.54043, -0.901755, -1.20307, 1.22801, -1.30252, 0.0307862, 0.0212753, 0.00829718, -0.0702032, -0.0743482, 0.00340109, -0.00115566, -1.15075, 65.3265, 32.6658, 7.29126, 2.39429, 3.66824, -0.0228162, -0.00381744, -8.98071e-05, 0.00394507, 0.00768933, -0.00681834, 0.00204267, 0.074035, -0.047111, -0.0260151, -0.098168, 0.152296, -0.00346305, 0.47004, -0.539724, 0.337769, -2.08114, -2.16777, -0.127154, 0.469945, -0.542893, 0.333287, -2.08269, -2.16647, -0.1115, -0.0232267, 0.0902698, 0.0459753, 0.025629, 0.0231918, 0.00736102
0.126136, 1.69491, -1.22774, -1.54043, -0.901834, -1.20314, 1.22801, -1.30253, 0.0272984, 0.0199959, 0.00955093, -0.0697861, -0.0699823, 0.00386111, -0.0010078, -1.37688, 65.2908, 32.6658, 7.36664, 2.40619, 3.62521, -0.0164075, -0.00389119, -4.4709e-05, 0.00397118, 0.00770039, -0.00688333, 0.00201877, 0.0761936, -0.0461634, -0.0265083, -0.0945503, 0.148328, -0.00641721, 0.470017, -0.539634, 0.337815, -2.08108, -2.16781, -0.127088, 0.469969, -0.54287, 0.333294, -2.08262, -2.16657, -0.111358, -0.0235512, 0.0916151, 0.0466527, 0.0244236, 0.0224422, 0.0072477
0.127136, 1.69493, -1.22772, -1.54042, -0.901915, -1.2032, 1.22802, -1.30252, 0.0236741, 0.01817, 0.00376147, -0.0716757, -0.0662844, 0.00416779, 0.00051493, -1.56335, 65.2908, 32.8126, 7.40631, 2.40619, 3.58218, -0.0484509, -0.00396897, -2.44645e-06, 0.00400083, 0.0077167, -0.00694592, 0.0020087, 0.0793622, -0.0443176, -0.0301411, -0.0986593, 0.144953, -0.0124299, 0.469994, -0.539542, 0.337862, -2.08101, -2.16786, -0.12702, 0.469989, -0.542849, 0.333299, -2.08257, -2.16666, -0.11121, -0.0238765, 0.0929661, 0.0473329, 0.0222396, 0.0211427, 0.00390947
0.128136, 1.69494, -1.2277, -1.54041, -0.902003, -1.20326, 1.22802, -1.30251, 0.0201443, 0.0212291, 0.00818356, -0.0766838, -0.0685467, 0.0038297, 0.00156399, -1.7141, 65.3662, 32.7372, 7.59277, 2.4245, 3.5538, -0.0814099, -0.00404663, 3.97908e-05, 0.00402809, 0.00772442, -0.00700567, 0.00199162, 0.0801163, -0.0441482, -0.0277595, -0.0982165, 0.150642, -0.0123831, 0.46997, -0.539449, 0.337909, -2.08094, -2.16791, -0.126952, 0.47001, -0.542826, 0.333306, -2.08251, -2.16675, -0.111074, -0.0242025, 0.094323, 0.0480157, 0.0218662, 0.0213852, 0.00683289
0.129136, 1.69495, -1.22768, -1.54041, -0.902086, -1.20332, 1.22802, -1.30251, 0.0129452, 0.0222222, 0.0065336, -0.0765228, -0.0657263, 0.0036043, 0.00128002, -1.94024, 65.3662, 32.8522, 7.62848, 2.43732, 3.52542, -0.0878186, -0.00412557, 8.26411e-05, 0.00405467, 0.00773771, -0.00707067, 0.00197802, 0.0844892, -0.0403147, -0.0278493, -0.097832, 0.149948, -0.0203151, 0.469946, -0.539355, 0.337957, -2.08087, -2.16796, -0.126882, 0.47003, -0.542804, 0.333314, -2.08245, -2.16685, -0.110926, -0.0245292, 0.0956855, 0.0487012, 0.017877, 0.0182795, 0.00687647
0.130136, 1.69496, -1.22765, -1.5404, -0.902176, -1.20338, 1.22803, -1.30251, 0.013021, 0.0235766, 0.00678449, -0.0807942, -0.0631938, 0.00267414, 0.000853346, -2.13067, 65.4733, 32.9236, 7.70386, 2.43732, 3.5181, -0.0878186, -0.00420538, 0.000124561, 0.00408502, 0.00774919, -0.00712326, 0.00195886, 0.0838868, -0.0417356, -0.0280986, -0.0996814, 0.150046, -0.016233, 0.469921, -0.539259, 0.338006, -2.0808, -2.168, -0.126812, 0.47005, -0.542781, 0.333319, -2.08238, -2.16694, -0.110791, -0.0248567, 0.0970535, 0.0493892, 0.0189389, 0.0203438, 0.0073659
0.131136, 1.69497, -1.22762, -1.54038, -0.902268, -1.20344, 1.22803, -1.30251, 0.00998061, 0.0241028, 0.00623809, -0.0861727, -0.0619715, 0.00283393, 9.41794e-05, -2.3211, 65.4733, 32.8879, 7.73956, 2.45563, 3.48971, -0.0750012, -0.00428447, 0.000168158, 0.00410658, 0.0077514, -0.00718933, 0.00193713, 0.0849579, -0.0415793, -0.029015, -0.102017, 0.150975, -0.0147222, 0.469896, -0.539162, 0.338055, -2.08073, -2.16805, -0.126741, 0.47007, -0.542757, 0.333334, -2.08232, -2.16705, -0.110652, -0.0251848, 0.0984271, 0.0500798, 0.0184634, 0.0207949, 0.00699111
0.132136, 1.69497, -1.22761, -1.54037, -0.902368, -1.20349, 1.22803, -1.30251, 0.00988552, 0.0210376, 0.00939882, -0.0888438, -0.0646448, 0.00243182, 0.00361325, -2.47185, 65.6241, 32.9633, 7.85065, 2.45563, 3.47507, -0.0420422, -0.00436601, 0.000211102, 0.00413824, 0.00776172, -0.00724228, 0.00190995, 0.0858062, -0.0426533, -0.0305548, -0.102865, 0.150882, -0.0164154, 0.469871, -0.539064, 0.338106, -2.08066, -2.1681, -0.126669, 0.47009, -0.542732, 0.333339, -2.08224, -2.16716, -0.110518, -0.0255136, 0.099806, 0.0507728, 0.0191836, 0.0216203, 0.00599833
0.133136, 1.69498, -1.22758, -1.54036, -0.902465, -1.20355, 1.22803, -1.30251, 0.00660532, 0.0230102, 0.0078702, -0.0899477, -0.0626863, 0.00267238, 0.00280643, -2.62261, 65.7312, 33.0744, 7.92602, 2.46753, 3.44668, -0.0420422, -0.00445055, 0.0002523, 0.00416712, 0.00777054, -0.00730106, 0.00189485, 0.0881931, -0.0412998, -0.0303643, -0.103481, 0.152357, -0.0191071, 0.469845, -0.538964, 0.338156, -2.08059, -2.16815, -0.126595, 0.470108, -0.54271, 0.333347, -2.08218, -2.16725, -0.110377, -0.025843, 0.10119, 0.0514683, 0.0176042, 0.0205615, 0.00655688
0.134136, 1.69497, -1.22755, -1.54035, -0.902564, -1.20361, 1.22804, -1.3025, 0.00346717, 0.0230205, 0.00682048, -0.091365, -0.0562698, 0.00205286, 0.00145707, -2.7337, 65.7709, 33.1855, 7.89032, 2.46753, 3.43936, -0.0228162, -0.0045372, 0.000292266, 0.00419221, 0.00777632, -0.00736655, 0.00188132, 0.0895412, -0.0405648, -0.0312984, -0.102691, 0.147802, -0.0190828, 0.46982, -0.538862, 0.338208, -2.08052, -2.16821, -0.126521, 0.470124, -0.542689, 0.333359, -2.08212, -2.16735, -0.110231, -0.026173, 0.10258, 0.0521662, 0.0165593, 0.0207324, 0.00614788
0.135136, 1.69497, -1.22752, -1.54033, -0.902675, -1.20366, 1.22804, -1.3025, 0.00131758, 0.024573, 0.0127642, -0.0985133, -0.055968, 0.00218237, 0.00241573, -2.84875, 65.878, 33.1498, 7.9657, 2.46112, 3.41739, -0.0557752, -0.00461836, 0.000338049, 0.00421825, 0.00777573, -0.00742259, 0.00185269, 0.0884548, -0.0423264, -0.0296086, -0.100669, 0.150291, -0.0141079, 0.469793, -0.53876, 0.33826, -2.08044, -2.16826, -0.126446, 0.470146, -0.54266, 0.333371, -2.08204, -2.16747, -0.110103, -0.0265036, 0.103974, 0.0528664, 0.0180142, 0.0230201, 0.00862793
0.136136, 1.69497, -1.22749, -1.54031, -0.90278, -1.20371, 1.22804, -1.30249, -0.00264508, 0.0268623, 0.0135804, -0.100967, -0.0568751, 0.00145492, 0.00296502, -2.9995, 66.0645, 33.2609, 7.92602, 2.49225, 3.41739, -0.0878186, -0.00470405, 0.000380843, 0.00424801, 0.00778686, -0.00747856, 0.00183577, 0.0907124, -0.0407996, -0.0286354, -0.101908, 0.153915, -0.0175095, 0.469767, -0.538656, 0.338313, -2.08036, -2.16831, -0.12637, 0.470164, -0.542635, 0.33338, -2.08197, -2.16756, -0.109959, -0.0268347, 0.105374, 0.0535689, 0.016286, 0.0219772, 0.00999234
0.137136, 1.69497, -1.22747, -1.5403, -0.902898, -1.20376, 1.22804, -1.30249, -0.00337151, 0.0307376, 0.0150089, -0.104584, -0.0567112, 0.000427411, 0.00210248, -3.11059, 66.1755, 33.3362, 7.9657, 2.50415, 3.43204, -0.0878186, -0.00478837, 0.000424303, 0.00427629, 0.00779478, -0.00753336, 0.00180854, 0.0906793, -0.0414979, -0.0268666, -0.103279, 0.158273, -0.0146722, 0.46974, -0.538551, 0.338366, -2.08029, -2.16836, -0.126293, 0.470183, -0.542606, 0.333392, -2.08189, -2.16767, -0.10982, -0.0271662, 0.106779, 0.0542736, 0.0167221, 0.0231768, 0.0124264
0.138136, 1.69496, -1.22743, -1.54028, -0.90301, -1.20381, 1.22804, -1.30248, -0.0045988, 0.0307151, 0.0163361, -0.108869, -0.0561904, 0.0013361, 0.00125865, -3.18597, 66.2866, 33.4076, 7.92602, 2.50415, 3.40365, -0.0814099, -0.00487565, 0.000468003, 0.00430212, 0.00779411, -0.00759157, 0.00178585, 0.091187, -0.0425167, -0.0273299, -0.103462, 0.159467, -0.0115924, 0.469713, -0.538444, 0.338421, -2.08021, -2.16842, -0.126215, 0.470202, -0.54258, 0.333406, -2.08182, -2.16779, -0.109686, -0.0274983, 0.108188, 0.0549806, 0.0174128, 0.0242025, 0.0125649
0.139136, 1.69495, -1.2274, -1.54026, -0.903127, -1.20386, 1.22804, -1.30248, -0.00951357, 0.034631, 0.0193975, -0.112268, -0.0573096, 0.000653377, -3.95736e-05, -3.22564, 66.358, 33.5187, 7.89032, 2.53528, 3.41006, -0.0557752, -0.00496622, 0.000508078, 0.00432792, 0.00780125, -0.0076547, 0.00176935, 0.0930329, -0.0410169, -0.024686, -0.102968, 0.164816, -0.0123048, 0.469685, -0.538336, 0.338476, -2.08013, -2.16847, -0.126136, 0.470217, -0.542556, 0.33342, -2.08175, -2.16789, -0.109537, -0.0278308, 0.109602, 0.0556897, 0.0157597, 0.0233267, 0.0156487
0.140136, 1.69494, -1.22736, -1.54024, -0.903254, -1.20391, 1.22804, -1.30247, -0.0130443, 0.0373357, 0.0195098, -0.115808, -0.0574532, 0.000672944, -0.000719295, -3.26134, 66.4334, 33.5941, 7.89032, 2.55359, 3.40365, -0.0356336, -0.00505357, 0.000552934, 0.00435203, 0.00779833, -0.00771627, 0.00173856, 0.0948311, -0.0400671, -0.0238329, -0.104372, 0.168763, -0.0131952, 0.469658, -0.538226, 0.338531, -2.08005, -2.16853, -0.126055, 0.470237, -0.542527, 0.333437, -2.08167, -2.16802, -0.1094, -0.0281637, 0.111021, 0.0564009, 0.0145849, 0.0228002, 0.016956
0.141136, 1.69493, -1.22732, -1.54022, -0.903377, -1.20395, 1.22804, -1.30247, -0.0137478, 0.0410551, 0.0220129, -0.120601, -0.0523059, 0.000719897, 0.00473197, -3.3764, 66.4334, 33.7052, 7.85065, 2.56, 3.39633, -0.0484509, -0.00514164, 0.000597166, 0.00437378, 0.00779985, -0.00778064, 0.00171389, 0.0933772, -0.0419943, -0.0218635, -0.102103, 0.16949, -0.0134399, 0.469629, -0.538115, 0.338588, -2.07997, -2.16858, -0.125974, 0.470255, -0.542497, 0.333457, -2.0816, -2.16813, -0.109255, -0.028497, 0.112445, 0.0571142, 0.0162002, 0.0254458, 0.019776
0.142136, 1.69491, -1.22729, -1.5402, -0.903508, -1.204, 1.22804, -1.30246, -0.0180092, 0.0384086, 0.0214617, -0.124219, -0.0534973, 0.000208664, 0.0031012, -3.33672, 66.6516, 33.7806, 7.81494, 2.57831, 3.40365, -0.0356336, -0.00523446, 0.000638173, 0.00440428, 0.00779959, -0.00782871, 0.00169149, 0.0962699, -0.0404215, -0.0244183, -0.105423, 0.168725, -0.0145803, 0.469601, -0.538002, 0.338645, -2.07989, -2.16864, -0.125892, 0.47027, -0.54247, 0.333468, -2.08152, -2.16824, -0.109126, -0.0288307, 0.113873, 0.0578295, 0.0143134, 0.0243404, 0.0175737
0.143136, 1.69489, -1.22725, -1.54017, -0.903636, -1.20404, 1.22804, -1.30246, -0.0191941, 0.0397711, 0.0193064, -0.127625, -0.0503562, 0.000681644, 0.00167134, -3.3764, 66.6159, 33.9313, 7.70386, 2.60852, 3.38901, -0.0164075, -0.00532787, 0.000679502, 0.00442514, 0.00779433, -0.00789357, 0.00166901, 0.0970734, -0.0408399, -0.0252336, -0.107305, 0.169087, -0.0124754, 0.469572, -0.537889, 0.338703, -2.07981, -2.1687, -0.125809, 0.470285, -0.542444, 0.33349, -2.08144, -2.16836, -0.108985, -0.0291647, 0.115306, 0.0585467, 0.0144012, 0.0251247, 0.0173487
0.144136, 1.69486, -1.22722, -1.54014, -0.903779, -1.20408, 1.22804, -1.30244, -0.0208724, 0.0343388, 0.0199005, -0.132879, -0.0477351, 0.000183162, 0.00328397, -3.3764, 66.8381, 34.0027, 7.66418, 2.63324, 3.39633, -0.0685925, -0.00542016, 0.000722853, 0.00445509, 0.00779279, -0.00794252, 0.00164594, 0.0976129, -0.0417765, -0.0293906, -0.109217, 0.162618, -0.0109864, 0.469543, -0.537773, 0.338761, -2.07972, -2.16875, -0.125725, 0.470302, -0.542413, 0.333503, -2.08136, -2.16847, -0.108856, -0.029499, 0.116743, 0.0592659, 0.0148656, 0.0267067, 0.0138494
0.145136, 1.69483, -1.22718, -1.54012, -0.903929, -1.20412, 1.22804, -1.30243, -0.0252362, 0.0309762, 0.0190301, -0.137619, -0.0455786, 0.000664643, 0.00307911, -3.3764, 66.9095, 34.1178, 7.66418, 2.65155, 3.38168, -0.0878186, -0.00551338, 0.000765776, 0.00448216, 0.00779153, -0.00799983, 0.00161576, 0.0998052, -0.0409151, -0.0325558, -0.110968, 0.159018, -0.0116846, 0.469513, -0.537657, 0.338821, -2.07964, -2.16881, -0.12564, 0.470318, -0.542382, 0.33352, -2.08127, -2.1686, -0.108717, -0.0298335, 0.118184, 0.059987, 0.0136374, 0.02643, 0.0111353
0.146136, 1.6948, -1.22714, -1.54009, -0.90408, -1.20417, 1.22804, -1.30243, -0.0246582, 0.0327555, 0.0225847, -0.145269, -0.048539, 0.000171828, 0.00194867, -3.4121, 67.0602, 34.1892, 7.70386, 2.67627, 3.38901, -0.0814099, -0.00560811, 0.000808584, 0.00451119, 0.00778904, -0.00805153, 0.00158521, 0.098469, -0.0434124, -0.0318482, -0.113744, 0.164421, -0.00375539, 0.469484, -0.537538, 0.338881, -2.07955, -2.16887, -0.125554, 0.470334, -0.542351, 0.333536, -2.08118, -2.16872, -0.108584, -0.0301683, 0.119629, 0.0607099, 0.0157758, 0.0291999, 0.0126815
0.147136, 1.69477, -1.2271, -1.54006, -0.904238, -1.2042, 1.22804, -1.30242, -0.0261978, 0.035578, 0.0232401, -0.148616, -0.046128, -0.00893469, 0.00572364, -3.48748, 67.0206, 34.34, 7.66418, 2.69458, 3.38168, -0.0685925, -0.00570195, 0.000852338, 0.00453516, 0.00778899, -0.00811518, 0.00155517, 0.0978994, -0.0422459, -0.0316235, -0.121603, 0.161928, -0.00625849, 0.469453, -0.537419, 0.338941, -2.07946, -2.16893, -0.125467, 0.47035, -0.542319, 0.333557, -2.0811, -2.16885, -0.108436, -0.0305034, 0.121079, 0.0614347, 0.0142669, 0.0311278, 0.013754
0.148136, 1.69473, -1.22706, -1.54003, -0.9044, -1.20424, 1.22804, -1.30241, -0.0313612, 0.0339563, 0.0225395, -0.152558, -0.0404169, -0.0064619, 0.00283262, -3.52715, 67.1317, 34.4153, 7.66418, 2.73212, 3.37436, -0.0292249, -0.00579801, 0.00089549, 0.00456222, 0.00778417, -0.00817087, 0.00151931, 0.100002, -0.0415178, -0.0333924, -0.119195, 0.158016, -0.00452622, 0.469423, -0.537298, 0.339003, -2.07938, -2.16899, -0.125378, 0.470365, -0.542287, 0.333575, -2.081, -2.16898, -0.1083, -0.0308386, 0.122533, 0.0621611, 0.0132221, 0.0307449, 0.0124339
0.149136, 1.69468, -1.22702, -1.54, -0.904567, -1.20427, 1.22804, -1.3024, -0.0372424, 0.0328454, 0.0260521, -0.158654, -0.0346735, -0.0046192, 0.00633368, -3.48748, 67.2427, 34.451, 7.66418, 2.73212, 3.36703, -0.00999879, -0.00589656, 0.000934817, 0.0045898, 0.00777553, -0.00821679, 0.0014881, 0.100796, -0.0414916, -0.0336832, -0.114461, 0.154212, -0.00600449, 0.469392, -0.537175, 0.339065, -2.07929, -2.16905, -0.125289, 0.470377, -0.542256, 0.333594, -2.08091, -2.1691, -0.108177, -0.031174, 0.12399, 0.0628893, 0.0128846, 0.031463, 0.0127536
0.150136, 1.69464, -1.22698, -1.53996, -0.904744, -1.2043, 1.22804, -1.30239, -0.0401294, 0.037787, 0.0276381, -0.160745, -0.0316042, -0.00327901, 0.009884, -3.6422, 67.2427, 34.5264, 7.70386, 2.76233, 3.36062, -0.0164075, -0.00599079, 0.000980692, 0.00461733, 0.00777342, -0.00827195, 0.00144526, 0.101771, -0.041397, -0.0307333, -0.111156, 0.158243, -0.0100539, 0.469361, -0.537051, 0.339128, -2.0792, -2.16911, -0.125199, 0.470394, -0.542218, 0.333614, -2.0808, -2.16924, -0.108038, -0.0315095, 0.125452, 0.0636192, 0.0126133, 0.0315109, 0.01625
0.151136, 1.69459, -1.22694, -1.53993, -0.90491, -1.20433, 1.22804, -1.30238, -0.0453902, 0.0392854, 0.0321189, -0.162809, -0.0326539, -0.00197114, 0.0128116, -3.67791, 67.3181, 34.6018, 7.62848, 2.76233, 3.34598, -0.0356336, -0.00609241, 0.00102111, 0.00464276, 0.00775693, -0.00832097, 0.00142274, 0.104338, -0.0400693, -0.0286536, -0.107176, 0.161937, -0.015768, 0.469329, -0.536926, 0.339191, -2.07911, -2.16918, -0.125108, 0.470406, -0.542188, 0.333635, -2.08072, -2.16936, -0.107917, -0.0318451, 0.126917, 0.0643506, 0.0111396, 0.0300668, 0.0186841
0.152136, 1.69454, -1.22689, -1.53988, -0.905098, -1.20436, 1.22804, -1.30236, -0.0478522, 0.0383431, 0.0356283, -0.173178, -0.02968, -0.00155985, 0.0147231, -3.75329, 67.3538, 34.5264, 7.66418, 2.78064, 3.34598, -0.0420422, -0.00618918, 0.00106501, 0.00466698, 0.00774088, -0.00837086, 0.00137922, 0.102748, -0.042344, -0.0297285, -0.107493, 0.160383, -0.00947369, 0.469298, -0.536799, 0.339256, -2.07902, -2.16924, -0.125016, 0.470421, -0.542151, 0.33366, -2.08062, -2.16951, -0.107797, -0.0321808, 0.128386, 0.0650837, 0.0129752, 0.0333742, 0.0185258
0.153136, 1.69448, -1.22685, -1.53985, -0.905287, -1.20438, 1.22804, -1.30235, -0.0559888, 0.0393003, 0.033487, -0.18267, -0.027332, -0.00618138, 0.0166627, -3.71758, 67.3181, 34.6375, 7.62848, 2.79346, 3.3533, -0.0685925, -0.00629228, 0.00110278, 0.00469477, 0.00773334, -0.00841929, 0.00134963, 0.104534, -0.0392006, -0.0317254, -0.116012, 0.158804, -0.0125623, 0.469265, -0.53667, 0.339321, -2.07892, -2.1693, -0.124922, 0.47043, -0.542118, 0.33368, -2.08052, -2.16963, -0.107666, -0.0325166, 0.129859, 0.0658182, 0.00949763, 0.0332483, 0.0171175
0.154136, 1.69442, -1.2268, -1.53981, -0.905477, -1.20441, 1.22804, -1.30234, -0.0583905, 0.0436488, 0.0363766, -0.188152, -0.0257344, -0.00383585, 0.0126346, -3.82867, 67.2427, 34.7129, 7.51739, 2.81177, 3.33133, -0.0750012, -0.0063941, 0.00114377, 0.00471698, 0.0077163, -0.00847437, 0.00131238, 0.104483, -0.0403975, -0.0290682, -0.11313, 0.164178, -0.0054373, 0.469233, -0.53654, 0.339387, -2.07883, -2.16937, -0.124828, 0.470441, -0.542084, 0.333707, -2.08042, -2.16977, -0.107538, -0.0328524, 0.131335, 0.0665543, 0.010465, 0.0344261, 0.0204465
0.155136, 1.69434, -1.22676, -1.53976, -0.905685, -1.20443, 1.22804, -1.30234, -0.0629135, 0.0417986, 0.0394778, -0.193459, -0.0247128, -0.00217389, 0.012853, -3.82867, 67.3895, 34.7486, 7.47772, 2.83649, 3.31027, -0.0420422, -0.00649887, 0.00118238, 0.00474919, 0.00770454, -0.00851604, 0.00126719, 0.105999, -0.0403304, -0.0299116, -0.111021, 0.163421, -0.00475298, 0.4692, -0.536409, 0.339453, -2.07873, -2.16943, -0.124733, 0.47045, -0.542049, 0.333725, -2.08031, -2.16991, -0.107418, -0.0331882, 0.132814, 0.0672918, 0.0100941, 0.0345368, 0.0201206
0.156136, 1.69426, -1.22671, -1.53971, -0.905898, -1.20445, 1.22804, -1.30233, -0.0716003, 0.043302, 0.0411955, -0.202037, -0.023637, -0.00201793, 0.0127303, -3.82867, 67.4252, 34.6732, 7.47772, 2.8548, 3.31759, 0.00373412, -0.00660102, 0.00122106, 0.00477353, 0.0076881, -0.00856082, 0.00121824, 0.108204, -0.0380735, -0.029648, -0.112051, 0.16545, -0.00570478, 0.469167, -0.536276, 0.33952, -2.07864, -2.1695, -0.124636, 0.470459, -0.542012, 0.333751, -2.08019, -2.17006, -0.1073, -0.033524, 0.134297, 0.0680307, 0.00760843, 0.0337027, 0.020856
0.157136, 1.69419, -1.22666, -1.53967, -0.90612, -1.20446, 1.22804, -1.30232, -0.0732472, 0.0460458, 0.0449207, -0.207417, -0.0184702, -0.000754545, 0.0104644, -3.94372, 67.3895, 34.7486, 7.44202, 2.87952, 3.29562, -0.0164075, -0.00670196, 0.0012633, 0.00479857, 0.00767551, -0.00861236, 0.00116442, 0.107015, -0.0400519, -0.0277704, -0.107915, 0.165745, 0.00193522, 0.469133, -0.536142, 0.339588, -2.07854, -2.16956, -0.124539, 0.47047, -0.541972, 0.333778, -2.08007, -2.17022, -0.10717, -0.0338597, 0.135784, 0.0687709, 0.00928096, 0.0361691, 0.0235682
0.158136, 1.69409, -1.22661, -1.53961, -0.906355, -1.20447, 1.22804, -1.30231, -0.0814406, 0.0462014, 0.0495065, -0.211323, -0.0150173, -0.000127789, 0.00813735, -3.90404, 67.4252, 34.7486, 7.40631, 2.91614, 3.28097, -0.0228162, -0.00680797, 0.0012994, 0.00482464, 0.00765826, -0.00865876, 0.00111842, 0.109498, -0.0379101, -0.0266313, -0.102917, 0.164125, 0.0017705, 0.469099, -0.536006, 0.339657, -2.07844, -2.16963, -0.124441, 0.470476, -0.541935, 0.333803, -2.07995, -2.17037, -0.107048, -0.0341954, 0.137273, 0.0695125, 0.0069569, 0.0349382, 0.0251247
0.159136, 1.694, -1.22656, -1.53956, -0.906585, -1.20449, 1.22804, -1.3023, -0.0863361, 0.0432452, 0.0522033, -0.219312, -0.0169043, 0.000297964, 0.00611767, -3.90404, 67.4649, 34.7883, 7.44202, 2.95276, 3.26724, -0.0228162, -0.00691742, 0.00133394, 0.00485059, 0.00763757, -0.00870387, 0.00107243, 0.11103, -0.0376279, -0.0287245, -0.104899, 0.164299, 0.00552707, 0.469065, -0.535869, 0.339727, -2.07834, -2.1697, -0.124341, 0.47048, -0.5419, 0.333829, -2.07984, -2.17052, -0.106931, -0.0345309, 0.138766, 0.0702554, 0.00632331, 0.0352267, 0.0235751
0.160136, 1.69389, -1.22651, -1.5395, -0.90683, -1.20449, 1.22804, -1.30229, -0.0919822, 0.0431776, 0.0580774, -0.225514, -0.0128455, -0.00388659, 0.00554746, -3.94372, 67.5363, 34.7883, 7.51739, 2.96466, 3.24527, -0.0484509, -0.00702432, 0.00136918, 0.00487641, 0.00761618, -0.00874286, 0.00102104, 0.110846, -0.0368492, -0.0281267, -0.104144, 0.159821, 0.00893032, 0.469031, -0.53573, 0.339797, -2.07824, -2.16977, -0.124241, 0.470484, -0.541861, 0.333856, -2.07972, -2.17068, -0.10682, -0.0348663, 0.140262, 0.0709994, 0.00523309, 0.0367793, 0.0249644
0.161136, 1.69379, -1.22646, -1.53945, -0.907071, -1.2045, 1.22804, -1.30228, -0.0956385, 0.0424214, 0.0586017, -0.23823, -0.00988971, -0.00282469, 0.00435926, -4.0191, 67.6474, 34.824, 7.44202, 2.97748, 3.23886, -0.0557752, -0.00713554, 0.00140285, 0.00490281, 0.00759355, -0.00878359, 0.00097505, 0.109789, -0.0385578, -0.0303693, -0.107454, 0.159153, 0.0177626, 0.468996, -0.53559, 0.339868, -2.07814, -2.16984, -0.12414, 0.470486, -0.541825, 0.333883, -2.0796, -2.17083, -0.106707, -0.0352016, 0.141761, 0.0717447, 0.00647788, 0.0397433, 0.0236011
0.162136, 1.69367, -1.2264, -1.53938, -0.907338, -1.20451, 1.22804, -1.30227, -0.100323, 0.0486329, 0.0598767, -0.250513, -0.00767246, -0.00169383, 0.00268981, -4.0191, 67.6117, 34.824, 7.5531, 2.98938, 3.22421, -0.0420422, -0.00724511, 0.00143455, 0.00492273, 0.00757015, -0.00883504, 0.000921124, 0.108671, -0.0395119, -0.0281329, -0.109471, 0.165944, 0.0256131, 0.468961, -0.535448, 0.33994, -2.07804, -2.16991, -0.124037, 0.470486, -0.541787, 0.333918, -2.07948, -2.17099, -0.106584, -0.0355366, 0.143262, 0.0724911, 0.00714612, 0.0420548, 0.0266965
0.163136, 1.69355, -1.22634, -1.53932, -0.907615, -1.20451, 1.22804, -1.30225, -0.104273, 0.0515408, 0.0608474, -0.254387, -0.00583121, -0.00112289, 0.00224976, -4.13018, 67.6474, 34.824, 7.59277, 2.99579, 3.21689, -0.0484509, -0.00735232, 0.00147005, 0.00494676, 0.00754981, -0.00888082, 0.000856598, 0.110105, -0.0388588, -0.0268757, -0.108835, 0.168751, 0.025387, 0.468925, -0.535305, 0.340012, -2.07793, -2.16998, -0.123934, 0.47049, -0.541745, 0.333949, -2.07934, -2.17116, -0.106463, -0.0358715, 0.144767, 0.0732387, 0.00627346, 0.0419247, 0.0284879
0.164136, 1.69342, -1.22629, -1.53926, -0.907887, -1.20451, 1.22805, -1.30224, -0.115337, 0.0499701, 0.0612071, -0.263165, -0.00448399, -0.000167395, 0.00627403, -4.16985, 67.8339, 34.9708, 7.59277, 3.0022, 3.19583, -0.0484509, -0.00746706, 0.00150039, 0.00497453, 0.00752939, -0.00892252, 0.000804327, 0.113916, -0.0353005, -0.0287557, -0.110221, 0.16793, 0.0176298, 0.468889, -0.53516, 0.340086, -2.07783, -2.17005, -0.123829, 0.470488, -0.541708, 0.333976, -2.07921, -2.17132, -0.106344, -0.0362061, 0.146274, 0.0739872, 0.00247067, 0.0397934, 0.0269148
0.165136, 1.69328, -1.22623, -1.53919, -0.908166, -1.20451, 1.22804, -1.30224, -0.120446, 0.0543026, 0.0658995, -0.270959, -0.00346215, 1.06469e-05, 0.00797595, -4.20556, 67.941, 34.9351, 7.51739, 3.00769, 3.18851, -0.00999879, -0.00757881, 0.00153111, 0.00499265, 0.00749598, -0.00896578, 0.000742801, 0.113925, -0.0353358, -0.0258547, -0.108594, 0.172746, 0.0190146, 0.468853, -0.535014, 0.34016, -2.07772, -2.17012, -0.123723, 0.470486, -0.541668, 0.334014, -2.07908, -2.1715, -0.106238, -0.0365405, 0.147784, 0.0747369, 0.00229541, 0.0408579, 0.0305278
0.166136, 1.69315, -1.22616, -1.53911, -0.908462, -1.2045, 1.22805, -1.30222, -0.129041, 0.058317, 0.0676512, -0.276509, -0.00298485, 0.0009804, 0.0065651, -4.28094, 68.0164, 34.9708, 7.5531, 3.02051, 3.15921, -0.0228162, -0.0076884, 0.00156634, 0.00501062, 0.00746104, -0.00901668, 0.000672482, 0.116971, -0.0324775, -0.0236368, -0.10758, 0.177909, 0.0165277, 0.468816, -0.534866, 0.340234, -2.07762, -2.17019, -0.123617, 0.470489, -0.541624, 0.334053, -2.07894, -2.17169, -0.106126, -0.0368746, 0.149297, 0.0754875, -0.000672652, 0.0388969, 0.0330987
0.167136, 1.693, -1.22609, -1.53904, -0.908762, -1.2045, 1.22805, -1.30221, -0.131184, 0.0629053, 0.0695089, -0.28519, 0.00335028, 0.000569774, 0.0083961, -4.28094, 68.0164, 35.1215, 7.51739, 2.99579, 3.15921, 0.0101428, -0.00780342, 0.00159285, 0.00502602, 0.00743599, -0.00907242, 0.000612177, 0.114859, -0.0343625, -0.0219345, -0.107332, 0.178695, 0.0219096, 0.46878, -0.534717, 0.34031, -2.07751, -2.17026, -0.123509, 0.470483, -0.541585, 0.334095, -2.07881, -2.17187, -0.105996, -0.0372084, 0.150812, 0.076239, 0.000866045, 0.042328, 0.035793
0.168136, 1.69284, -1.22603, -1.53896, -0.909086, -1.2045, 1.22805, -1.3022, -0.139387, 0.0602123, 0.0728073, -0.298526, 0.00250123, 0.000554339, 0.0124021, -4.28094, 68.2742, 35.1969, 7.51739, 2.99579, 3.1528, -0.0228162, -0.00791579, 0.00162379, 0.00505221, 0.00741157, -0.00911223, 0.000540796, 0.115887, -0.0335439, -0.0242827, -0.110671, 0.178443, 0.0216806, 0.468742, -0.534566, 0.340386, -2.0774, -2.17034, -0.123401, 0.47048, -0.541539, 0.334127, -2.07866, -2.17205, -0.105881, -0.0375418, 0.15233, 0.0769914, -0.000330518, 0.0431505, 0.0340973
0.169136, 1.69269, -1.22596, -1.53886, -0.909408, -1.2045, 1.22805, -1.30218, -0.143869, 0.0629542, 0.0811797, -0.310774, 0.000952738, 0.00113621, 0.0151925, -4.35632, 68.3496, 35.1572, 7.59277, 3.02051, 3.13083, -0.0557752, -0.00802699, 0.00165742, 0.0050664, 0.00737659, -0.00917128, 0.00046698, 0.114239, -0.035388, -0.0216141, -0.108981, 0.184222, 0.0274352, 0.468705, -0.534414, 0.340463, -2.07729, -2.17041, -0.123291, 0.47048, -0.541493, 0.334172, -2.07852, -2.17225, -0.105758, -0.0378749, 0.15385, 0.0777447, 0.00122602, 0.0459809, 0.0376776
0.170136, 1.69252, -1.22589, -1.53878, -0.909741, -1.2045, 1.22805, -1.30217, -0.155174, 0.0698106, 0.0864781, -0.31691, 0.000582294, 0.00177327, 0.0146247, -4.32061, 68.3496, 35.2683, 7.5531, 3.026, 3.10245, -0.0164075, -0.00814385, 0.00168312, 0.00507974, 0.0073475, -0.00923434, 0.000394814, 0.11745, -0.0315415, -0.0164466, -0.105194, 0.192509, 0.023265, 0.468667, -0.53426, 0.340541, -2.07718, -2.17049, -0.12318, 0.470473, -0.541451, 0.334218, -2.07838, -2.17245, -0.105623, -0.0382076, 0.155372, 0.0784988, -0.00259816, 0.0433719, 0.0431742
0.171136, 1.69234, -1.22582, -1.53869, -0.910095, -1.20449, 1.22805, -1.30215, -0.160589, 0.0642017, 0.0894568, -0.326813, 0.000704585, 0.000375763, 0.0124717, -4.32061, 68.5321, 35.4191, 7.59277, 3.02051, 3.1235, -0.0557752, -0.0082583, 0.00171136, 0.00510453, 0.00732708, -0.009279, 0.000316505, 0.118267, -0.0313748, -0.0204115, -0.108628, 0.187666, 0.0291746, 0.468629, -0.534104, 0.340619, -2.07707, -2.17056, -0.123068, 0.470467, -0.541404, 0.334254, -2.07822, -2.17264, -0.105497, -0.0385399, 0.156897, 0.0792537, -0.00321682, 0.044686, 0.0398952
0.172136, 1.69216, -1.22575, -1.53859, -0.910438, -1.20449, 1.22805, -1.30214, -0.166388, 0.0618992, 0.0902482, -0.334635, 0.00489921, 0.00101051, 0.0136806, -4.24523, 68.6432, 35.5301, 7.51739, 3.026, 3.10245, -0.0484509, -0.00838099, 0.00173328, 0.00512174, 0.00729292, -0.00933352, 0.000251328, 0.119422, -0.0309055, -0.0227432, -0.109011, 0.183716, 0.0297685, 0.46859, -0.533947, 0.340699, -2.07696, -2.17064, -0.122956, 0.470455, -0.541365, 0.334296, -2.07808, -2.17283, -0.105373, -0.0388718, 0.158424, 0.0800094, -0.00405695, 0.0454059, 0.0381883
0.173136, 1.69197, -1.22569, -1.53849, -0.910816, -1.20448, 1.22805, -1.30212, -0.171649, 0.0643458, 0.0947127, -0.346592, 0.00391214, 0.000930022, 0.0129734, -4.24523, 68.8257, 35.6055, 7.59277, 3.02051, 3.09512, 0.00373412, -0.00849549, 0.00176233, 0.00514482, 0.00726464, -0.00938023, 0.000154444, 0.118866, -0.031497, -0.0216243, -0.110858, 0.188584, 0.0363215, 0.468551, -0.533789, 0.340779, -2.07684, -2.17071, -0.122842, 0.470449, -0.541314, 0.334335, -2.0779, -2.17305, -0.105253, -0.0392032, 0.159952, 0.0807657, -0.0037667, 0.0473437, 0.0401162
0.174136, 1.69178, -1.22562, -1.53838, -0.911183, -1.20448, 1.22805, -1.30211, -0.178569, 0.0700108, 0.0999267, -0.351934, 0.00709655, 0.00115136, 0.0155588, -4.24523, 68.8614, 35.6055, 7.47772, 3.03241, 3.08047, -0.0228162, -0.00861328, 0.00178949, 0.00515819, 0.00722489, -0.00943871, 7.29109e-05, 0.119757, -0.0302636, -0.0173438, -0.106228, 0.192689, 0.0338107, 0.468512, -0.533629, 0.340859, -2.07673, -2.17079, -0.122727, 0.470441, -0.541267, 0.334384, -2.07775, -2.17326, -0.105132, -0.0395341, 0.161483, 0.0815227, -0.00510875, 0.0472904, 0.0450077
0.175136, 1.69157, -1.22554, -1.53828, -0.911568, -1.20448, 1.22805, -1.30209, -0.184235, 0.0701381, 0.103073, -0.363975, 0.00536308, 0.00126781, 0.0153874, -4.24523, 68.9368, 35.7523, 7.44202, 3.03241, 3.06674, 0.00373412, -0.00873298, 0.001814, 0.00517334, 0.007193, -0.00950152, -1.72202e-05, 0.120012, -0.0304104, -0.018031, -0.109573, 0.196034, 0.0386833, 0.468473, -0.533468, 0.340941, -2.07661, -2.17087, -0.122611, 0.470431, -0.541221, 0.334432, -2.07759, -2.17348, -0.104997, -0.0398646, 0.163016, 0.0822803, -0.00530158, 0.0486843, 0.045044
0.176136, 1.69136, -1.22547, -1.53817, -0.911974, -1.20447, 1.22805, -1.30208, -0.194159, 0.0712876, 0.1034, -0.376879, 0.00337125, 0.00192398, 0.0123741, -4.13018, 68.9725, 35.8674, 7.44202, 3.05072, 3.03744, -0.0164075, -0.00885106, 0.00183794, 0.00518841, 0.0071637, -0.00956409, -0.000112343, 0.122492, -0.0279058, -0.0189893, -0.114754, 0.200945, 0.0414918, 0.468433, -0.533304, 0.341023, -2.07649, -2.17095, -0.122494, 0.470419, -0.541171, 0.33448, -2.07742, -2.17371, -0.104859, -0.0401944, 0.164551, 0.0830385, -0.00806014, 0.0478002, 0.0445636
0.177136, 1.69115, -1.2254, -1.53805, -0.912377, -1.20447, 1.22805, -1.30206, -0.197474, 0.0713439, 0.108693, -0.385766, 0.0016875, 0.00100667, 0.014321, -4.0548, 69.1589, 35.9031, 7.40631, 3.07544, 3.04477, -0.0228162, -0.00897089, 0.00186222, 0.00520647, 0.00712854, -0.0096155, -0.000208934, 0.122088, -0.0288592, -0.0187239, -0.115951, 0.20336, 0.0448366, 0.468392, -0.53314, 0.341106, -2.07637, -2.17103, -0.122376, 0.470408, -0.541121, 0.334526, -2.07724, -2.17393, -0.104737, -0.0405238, 0.166087, 0.0837972, -0.00743445, 0.0497422, 0.0456153
0.178136, 1.69093, -1.22532, -1.53793, -0.912793, -1.20446, 1.22805, -1.30205, -0.201006, 0.0739227, 0.106511, -0.394783, 0.00543757, 0.0012101, 0.0146749, -4.0548, 69.2303, 36.0538, 7.36664, 3.08826, 3.03012, -0.00267457, -0.00908896, 0.00188916, 0.00522346, 0.00709914, -0.00967666, -0.000316555, 0.122099, -0.0291677, -0.0195762, -0.120063, 0.204797, 0.047874, 0.468352, -0.532974, 0.34119, -2.07626, -2.17111, -0.122257, 0.470399, -0.541068, 0.334574, -2.07705, -2.17417, -0.1046, -0.0408525, 0.167625, 0.0845564, -0.00748099, 0.0514154, 0.0455222
0.179136, 1.6907, -1.22524, -1.53782, -0.913218, -1.20445, 1.22805, -1.30203, -0.21271, 0.0746049, 0.109498, -0.413325, 0.00308277, 0.00131271, 0.0130202, -3.82867, 69.3771, 36.1649, 7.36664, 3.11847, 3.01639, -0.0557752, -0.00921511, 0.00190646, 0.00524342, 0.00707471, -0.00973488, -0.000402881, 0.123201, -0.0272541, -0.0206009, -0.125982, 0.209585, 0.0536642, 0.468311, -0.532806, 0.341275, -2.07613, -2.17119, -0.122137, 0.47038, -0.541021, 0.33462, -2.07688, -2.17439, -0.104457, -0.0411807, 0.169165, 0.0853161, -0.00970699, 0.0519336, 0.045169
0.180136, 1.69046, -1.22515, -1.5377, -0.91365, -1.20445, 1.22805, -1.30202, -0.215803, 0.0778556, 0.114715, -0.420798, 0.00180954, 0.00168695, 0.0140566, -3.67791, 69.27, 36.276, 7.25555, 3.13678, 2.99441, -0.0484509, -0.00933741, 0.00192794, 0.00525325, 0.00704392, -0.00980998, -0.000505838, 0.122891, -0.0282132, -0.0182017, -0.125073, 0.215373, 0.0569182, 0.46827, -0.532637, 0.34136, -2.07601, -2.17127, -0.122016, 0.470365, -0.54097, 0.334676, -2.07671, -2.17464, -0.104305, -0.0415082, 0.170706, 0.0860762, -0.00898134, 0.0534653, 0.0483148
0.181136, 1.69023, -1.22508, -1.53758, -0.914111, -1.20443, 1.22805, -1.302, -0.218651, 0.0754221, 0.120624, -0.422851, 0.00616969, 0.000851872, 0.0142634, -3.6422, 69.4882, 36.3117, 7.14447, 3.13678, 3.00174, -0.0228162, -0.00945163, 0.00195853, 0.0052781, 0.00701939, -0.0098584, -0.00064217, 0.12322, -0.0287433, -0.0182667, -0.119915, 0.209747, 0.0588551, 0.468228, -0.532466, 0.341446, -2.07589, -2.17135, -0.121894, 0.470359, -0.540907, 0.334719, -2.07648, -2.1749, -0.104175, -0.0418351, 0.172249, 0.0868367, -0.00875867, 0.05472, 0.0489441
0.182136, 1.68999, -1.225, -1.53746, -0.914567, -1.20442, 1.22805, -1.30199, -0.227854, 0.0727859, 0.122019, -0.434359, 0.00883919, 0.000566794, 0.020037, -3.45177, 69.4882, 36.4625, 7.14447, 3.1496, 3.00174, -0.0164075, -0.00957377, 0.00198017, 0.0052974, 0.00699766, -0.00991842, -0.000757082, 0.124902, -0.0269365, -0.0210078, -0.122523, 0.206478, 0.054531, 0.468187, -0.532294, 0.341533, -2.07577, -2.17143, -0.121771, 0.470343, -0.540851, 0.334767, -2.07627, -2.17515, -0.104027, -0.0421613, 0.173793, 0.0875976, -0.0109228, 0.0549339, 0.0468051
0.183136, 1.68974, -1.22491, -1.53731, -0.915033, -1.20441, 1.22805, -1.30198, -0.230869, 0.078681, 0.132144, -0.442668, 0.00698347, 0.000377023, 0.0145625, -3.26134, 69.4168, 36.3514, 7.02942, 3.14319, 3.00174, -0.00267457, -0.00969132, 0.00200546, 0.00530399, 0.00695276, -0.00998508, -0.000886568, 0.123103, -0.0287567, -0.0154715, -0.118313, 0.214919, 0.067175, 0.468144, -0.53212, 0.34162, -2.07564, -2.17152, -0.121646, 0.470331, -0.540791, 0.33483, -2.07607, -2.17542, -0.103898, -0.0424869, 0.175339, 0.0883587, -0.00926625, 0.0575078, 0.0532479
0.184136, 1.68974, -1.22491, -1.53731, -0.915033, -1.20441, 1.22805, -1.30198, -0.230869, 0.078681, 0.132144, -0.442668, 0.00698347, 0.000377023, 0.0145625, -3.26134, 69.4168, 36.3514, 7.02942, 3.14319, 3.00174, -0.00267457, -0.00987974, 0.00204215, 0.00536314, 0.00686474, -0.00994881, -0.000794646, 0.124762, -0.0290235, -0.0159779, -0.118836, 0.215907, 0.0660079, 0.468102, -0.531945, 0.341709, -2.07552, -2.1716, -0.121521, 0.470331, -0.540791, 0.33483, -2.07607, -2.17542, -0.103898, -0.0428117, 0.176886, 0.0891202, -0.00926625, 0.0575078, 0.0532479
0.185136, 1.68923, -1.22476, -1.53705, -0.915999, -1.20437, 1.22804, -1.30195, -0.241696, 0.0767568, 0.133646, -0.464916, 0.00746334, -0.00455731, 0.0150564, -2.9995, 69.5993, 36.5735, 6.77154, 3.17981, 2.99441, 0.0293689, -0.009935, 0.00205213, 0.00534877, 0.0069044, -0.0100942, -0.00114763, 0.123816, -0.0275764, -0.0200883, -0.131274, 0.213815, 0.0740337, 0.468059, -0.531768, 0.341798, -2.07539, -2.17169, -0.121395, 0.470302, -0.54067, 0.334925, -2.07562, -2.17595, -0.103617, -0.0431357, 0.178434, 0.0898818, -0.0112368, 0.0605442, 0.0501471
0.186136, 1.68896, -1.22467, -1.53691, -0.916502, -1.20436, 1.22804, -1.30194, -0.249335, 0.0798558, 0.135485, -0.470961, 0.00966071, -0.00343976, 0.0156007, -2.88445, 69.5993, 36.5735, 6.62079, 3.19812, 2.99441, 0.0431018, -0.0100546, 0.00207551, 0.00536438, 0.00687487, -0.0101558, -0.00128932, 0.126039, -0.0255797, -0.018517, -0.129758, 0.216868, 0.0715966, 0.468016, -0.53159, 0.341888, -2.07526, -2.17177, -0.121268, 0.470287, -0.540607, 0.33498, -2.07538, -2.17623, -0.103475, -0.043459, 0.179984, 0.0906437, -0.0133838, 0.0595674, 0.0521931
0.187136, 1.68868, -1.22459, -1.53677, -0.917, -1.20433, 1.22804, -1.30192, -0.258156, 0.0787997, 0.137287, -0.486928, 0.0112959, -0.00154318, 0.0171423, -2.77337, 69.5993, 36.6846, 6.5097, 3.21643, 2.96603, 0.0293689, -0.01018, 0.00209529, 0.00538223, 0.00684144, -0.0102114, -0.001417, 0.126424, -0.0252954, -0.0206321, -0.132658, 0.217506, 0.0756114, 0.467972, -0.53141, 0.341978, -2.07513, -2.17186, -0.121139, 0.470268, -0.540547, 0.335033, -2.07517, -2.1765, -0.10334, -0.0437815, 0.181534, 0.0914057, -0.0140526, 0.0610448, 0.0508195
