alisrour97/Franka_experiments/Real_Robot_scripts/servo-franka/Data3/log_dyn_INIT0_l_ki_6.csv
Time,q1,q2,q3,q4,q5,q6,q7,dq1,dq2,dq3,dq4,dq5,dq6,dq7,t1,t2,t3,t4,t5,t6,t7,ex1,ex2,ex3,ex4,ex5,ex6,ev1,ev2,ev3,ev4,ev5,ev6,xd,yd,zd,uxd,uyd,uzd,x,y,z,ux,uy,uz,vxd,vyd,vzd,vx,vy,vz
1.2207e-06, 1.69153, -1.22718, -1.53905, -0.900401, -1.19174, 1.22817, -1.30267, 0.00633588, 0.00942154, 0.0150761, 0.0030781, 0.011626, 0.006794, 0.0012922, -1.22613, 60.3912, 29.1666, 7.21588, 1.50989, 3.324, -0.0420422, 0.000799449, -0.00160754, 0.00148963, 0.00172609, 0.00126432, -7.27429e-05, -0.0075099, -0.00790465, 0.0115683, 0.0257637, 0.00218362, 0.0132475, 0.471008, -0.543389, 0.335894, -2.08385, -2.16584, -0.129887, 0.469308, -0.542445, 0.334571, -2.0822, -2.16449, -0.129222, -4.82042e-07, 4.44613e-06, 1.21621e-06, 0.00804299, 0.00596132, 0.0123513
0.0122563, 1.69154, -1.22714, -1.53896, -0.900385, -1.1917, 1.22825, -1.30268, 0.000776455, 0.00434176, 0.0110806, 0.00121521, 0.00106627, 0.00919008, 0.000344866, -1.26183, 60.7959, 29.2777, 7.18018, 1.53461, 3.2883, -0.0951428, 0.00082343, -0.00157094, 0.00142799, 0.00155048, 0.00123812, -0.000133493, -0.00193696, -0.00383999, 0.00741081, 0.0189921, 0.00720688, 0.00496904, 0.471008, -0.543389, 0.335894, -2.08385, -2.16584, -0.129887, 0.469358, -0.542421, 0.334659, -2.08225, -2.16468, -0.129435, -1.47349e-06, 1.36697e-05, 3.70923e-06, 0.0040318, 0.000942355, 0.00750623
0.0132566, 1.69154, -1.22714, -1.53896, -0.900385, -1.1917, 1.22825, -1.30268, 0.000776455, 0.00434176, 0.0110806, 0.00121521, 0.00106627, 0.00919008, 0.000344866, -1.26183, 60.7959, 29.2777, 7.18018, 1.53461, 3.2883, -0.0951428, 0.000823423, -0.00157094, 0.00142799, 0.00155047, 0.00123812, -0.000133493, -0.00192321, -0.00384098, 0.00740937, 0.0189941, 0.00721305, 0.00497018, 0.471008, -0.543389, 0.335894, -2.08385, -2.16584, -0.129887, 0.469358, -0.542421, 0.334659, -2.08225, -2.16468, -0.129435, -2.9032e-06, 2.69793e-05, 7.30333e-06, 0.0040318, 0.000942355, 0.00750623
0.0142568, 1.69154, -1.22714, -1.53896, -0.900385, -1.1917, 1.22825, -1.30268, 0.000776455, 0.00434176, 0.0110806, 0.00121521, 0.00106627, 0.00919008, 0.000344866, -1.26183, 60.7959, 29.2777, 7.18018, 1.53461, 3.2883, -0.0951428, 0.000823403, -0.00157094, 0.00142799, 0.00155047, 0.00123811, -0.00013349, -0.00190459, -0.00384233, 0.00740741, 0.0189967, 0.00722142, 0.00497173, 0.471008, -0.543389, 0.335894, -2.08385, -2.16584, -0.129887, 0.469358, -0.542421, 0.334659, -2.08225, -2.16468, -0.129435, -4.83863e-06, 4.50071e-05, 1.21677e-05, 0.0040318, 0.000942355, 0.00750623
0.0152571, 1.69154, -1.22714, -1.53896, -0.900385, -1.1917, 1.22825, -1.30268, 0.000776455, 0.00434176, 0.0110806, 0.00121521, 0.00106627, 0.00919008, 0.000344866, -1.26183, 60.7959, 29.2777, 7.18018, 1.53461, 3.2883, -0.0951428, 0.000823363, -0.00157093, 0.001428, 0.00155046, 0.0012381, -0.000133486, -0.00188051, -0.00384406, 0.00740488, 0.0190001, 0.00723226, 0.00497373, 0.471008, -0.543389, 0.335894, -2.08385, -2.16584, -0.129887, 0.469358, -0.542421, 0.334659, -2.08225, -2.16468, -0.129435, -7.34058e-06, 6.83239e-05, 1.84546e-05, 0.0040318, 0.000942355, 0.00750623
0.0162573, 1.69154, -1.22714, -1.53896, -0.900385, -1.1917, 1.22825, -1.30268, 0.000776455, 0.00434176, 0.0110806, 0.00121521, 0.00106627, 0.00919008, 0.000344866, -1.26183, 60.7959, 29.2777, 7.18018, 1.53461, 3.2883, -0.0951428, 0.000823299, -0.00157093, 0.001428, 0.00155044, 0.00123807, -0.000133478, -0.00185046, -0.00384622, 0.00740173, 0.0190044, 0.00724579, 0.00497624, 0.471008, -0.543389, 0.335894, -2.08385, -2.16584, -0.129887, 0.469358, -0.542421, 0.334659, -2.08225, -2.16468, -0.129435, -1.04607e-05, 9.7416e-05, 2.62933e-05, 0.0040318, 0.000942355, 0.00750623
0.0172576, 1.69154, -1.22714, -1.53896, -0.900385, -1.1917, 1.22825, -1.30268, 0.000776455, 0.00434176, 0.0110806, 0.00121521, 0.00106627, 0.00919008, 0.000344866, -1.26183, 60.7959, 29.2777, 7.18018, 1.53461, 3.2883, -0.0951428, 0.000823202, -0.00157092, 0.00142801, 0.00155042, 0.00123804, -0.000133467, -0.00181406, -0.00384884, 0.00739792, 0.0190096, 0.00726219, 0.00497927, 0.471008, -0.543389, 0.335894, -2.08385, -2.16584, -0.129887, 0.469358, -0.542421, 0.334659, -2.08225, -2.16468, -0.129435, -1.42391e-05, 0.000132663, 3.57838e-05, 0.0040318, 0.000942355, 0.00750623
0.0182578, 1.69154, -1.22714, -1.53896, -0.900385, -1.1917, 1.22825, -1.30268, 0.000776455, 0.00434176, 0.0110806, 0.00121521, 0.00106627, 0.00919008, 0.000344866, -1.26183, 60.7959, 29.2777, 7.18018, 1.53461, 3.2883, -0.0951428, 0.000823068, -0.00157091, 0.00142803, 0.00155038, 0.00123799, -0.000133451, -0.00177104, -0.00385193, 0.00739342, 0.0190158, 0.00728157, 0.00498285, 0.471008, -0.543389, 0.335894, -2.08385, -2.16584, -0.129887, 0.469358, -0.542421, 0.334659, -2.08225, -2.16468, -0.129435, -1.87016e-05, 0.000174312, 4.69907e-05, 0.0040318, 0.000942355, 0.00750623
0.0192581, 1.69154, -1.22714, -1.53896, -0.900385, -1.1917, 1.22825, -1.30268, 0.000776455, 0.00434176, 0.0110806, 0.00121521, 0.00106627, 0.00919008, 0.000344866, -1.26183, 60.7959, 29.2777, 7.18018, 1.53461, 3.2883, -0.0951428, 0.000822889, -0.0015709, 0.00142805, 0.00155033, 0.00123793, -0.00013343, -0.00172131, -0.0038555, 0.00738824, 0.0190229, 0.007304, 0.00498699, 0.471008, -0.543389, 0.335894, -2.08385, -2.16584, -0.129887, 0.469358, -0.542421, 0.334659, -2.08225, -2.16468, -0.129435, -2.38577e-05, 0.00022246, 5.99368e-05, 0.0040318, 0.000942355, 0.00750623
0.0202583, 1.69154, -1.22714, -1.53896, -0.900385, -1.1917, 1.22825, -1.30268, 0.000776455, 0.00434176, 0.0110806, 0.00121521, 0.00106627, 0.00919008, 0.000344866, -1.26183, 60.7959, 29.2777, 7.18018, 1.53461, 3.2883, -0.0951428, 0.000822661, -0.00157088, 0.00142807, 0.00155027, 0.00123785, -0.000133403, -0.00166496, -0.00385954, 0.00738237, 0.019031, 0.00732944, 0.00499169, 0.471008, -0.543389, 0.335894, -2.08385, -2.16584, -0.129887, 0.469358, -0.542421, 0.334659, -2.08225, -2.16468, -0.129435, -2.96979e-05, 0.000277024, 7.45974e-05, 0.0040318, 0.000942355, 0.00750623
0.0212625, 1.69154, -1.22714, -1.53896, -0.900385, -1.1917, 1.22825, -1.30268, 0.000776455, 0.00434176, 0.0110806, 0.00121521, 0.00106627, 0.00919008, 0.000344866, -1.26183, 60.7959, 29.2777, 7.18018, 1.53461, 3.2883, -0.0951428, 0.000822375, -0.00157086, 0.0014281, 0.0015502, 0.00123775, -0.00013337, -0.00160227, -0.00386403, 0.00737586, 0.0190401, 0.00735775, 0.00499691, 0.471008, -0.543388, 0.335894, -2.08385, -2.16584, -0.129887, 0.469358, -0.542421, 0.334659, -2.08225, -2.16468, -0.129435, -3.61913e-05, 0.000337726, 9.08941e-05, 0.0040318, 0.000942355, 0.00750623
0.0222625, 1.69154, -1.22714, -1.53896, -0.900385, -1.1917, 1.22825, -1.30268, 0.000776455, 0.00434176, 0.0110806, 0.00121521, 0.00106627, 0.00919008, 0.000344866, -1.26183, 60.7959, 29.2777, 7.18018, 1.53461, 3.2883, -0.0951428, 0.000822027, -0.00157084, 0.00142814, 0.00155011, 0.00123763, -0.000133329, -0.00153346, -0.00386896, 0.00736872, 0.0190501, 0.00738886, 0.00500265, 0.471008, -0.543388, 0.335894, -2.08385, -2.16584, -0.129887, 0.469358, -0.542421, 0.334659, -2.08225, -2.16468, -0.129435, -4.33151e-05, 0.00040436, 0.000108769, 0.0040318, 0.000942355, 0.00750623
0.0232625, 1.69154, -1.22714, -1.53896, -0.900385, -1.1917, 1.22825, -1.30268, 0.000776455, 0.00434176, 0.0110806, 0.00121521, 0.00106627, 0.00919008, 0.000344866, -1.26183, 60.7959, 29.2777, 7.18018, 1.53461, 3.2883, -0.0951428, 0.00082161, -0.00157081, 0.00142818, 0.00155, 0.00123749, -0.00013328, -0.00145855, -0.00387432, 0.00736097, 0.0190609, 0.00742275, 0.00500889, 0.471008, -0.543388, 0.335894, -2.08385, -2.16584, -0.129887, 0.469358, -0.542421, 0.334659, -2.08225, -2.16468, -0.129435, -5.10658e-05, 0.000476901, 0.000128212, 0.0040318, 0.000942355, 0.00750623
0.0242627, 1.69157, -1.2271, -1.5389, -0.900386, -1.19169, 1.22835, -1.30269, 0.00419601, 0.00386806, 0.00203518, -0.000235941, 0.000621215, 0.00816308, -0.00160669, -1.33721, 61.2759, 29.6863, 7.29126, 1.50989, 3.23886, -0.0356336, 0.000840595, -0.00152664, 0.001376, 0.00140917, 0.00115574, -0.000206777, -0.00141974, -0.00429967, 0.00339526, 0.00880424, 0.00765781, 0.0071206, 0.471008, -0.543387, 0.335894, -2.08385, -2.16584, -0.129887, 0.469403, -0.542408, 0.334712, -2.08229, -2.16486, -0.129516, -5.94401e-05, 0.000555325, 0.000149214, 0.00430647, 0.00161025, 0.00359256
0.0252629, 1.69157, -1.22711, -1.53889, -0.900384, -1.19169, 1.22835, -1.30269, 0.00310222, 0.00130162, 0.00167444, 0.000678196, 0.00109727, 0.00613751, 0.000149578, -1.33721, 61.3513, 29.6863, 7.25555, 1.49158, 3.23886, -0.0685925, 0.000838718, -0.00152616, 0.00137717, 0.00140125, 0.00115953, -0.000201578, -0.000564651, -0.00315414, 0.00175813, 0.0073528, 0.00365948, 0.00352365, 0.471008, -0.543387, 0.335895, -2.08385, -2.16584, -0.129887, 0.469404, -0.542409, 0.334711, -2.0823, -2.16486, -0.129528, -6.84344e-05, 0.000639605, 0.000171766, 0.0031249, 0.00105547, 0.00190038
0.0262629, 1.69157, -1.22711, -1.53889, -0.900385, -1.19169, 1.22836, -1.30269, 0.00322482, -0.0047115, -0.00229266, -0.00184247, 0.00141341, 0.0051558, -0.000374999, -1.37688, 61.2006, 29.5752, 7.21588, 1.47327, 3.22421, -0.0557752, 0.000839262, -0.00152208, 0.0013795, 0.00139787, 0.00115887, -0.000208446, -4.79256e-05, -0.00305817, -0.00363185, 0.00147392, -0.00255401, 0.00468843, 0.471008, -0.543386, 0.335895, -2.08384, -2.16584, -0.129887, 0.469408, -0.542407, 0.334709, -2.08229, -2.16487, -0.129532, -7.80454e-05, 0.000729718, 0.000195859, 0.00284336, 0.00146114, -0.00347503
0.0272629, 1.69158, -1.22712, -1.53889, -0.900391, -1.19169, 1.22836, -1.30269, 0.00535528, -0.00683789, -0.000154482, -0.00389833, -0.00177827, 0.00437093, -1.26404e-05, -1.37688, 60.7959, 29.238, 7.18018, 1.41742, 3.20956, -0.0621838, 0.000842279, -0.00151692, 0.00138209, 0.00139594, 0.0011623, -0.000218706, -0.0011995, -0.00463075, -0.00459873, -0.000298249, -0.00229388, 0.00823564, 0.471008, -0.543385, 0.335895, -2.08384, -2.16584, -0.129887, 0.469413, -0.542403, 0.334707, -2.08228, -2.16488, -0.129538, -8.82697e-05, 0.000825639, 0.000221482, 0.00432761, 0.00290709, -0.0042728
0.0282629, 1.69159, -1.22713, -1.5389, -0.900396, -1.19169, 1.22836, -1.30269, 0.0120733, -0.00852221, -0.00176358, -0.00362331, 1.0963e-05, 0.00266481, -0.000991771, -1.45226, 60.5023, 29.0159, 7.06909, 1.37439, 3.22421, -0.0356336, 0.000845174, -0.00150995, 0.00139607, 0.00141165, 0.0011743, -0.00023137, -0.00403484, -0.00798132, -0.00663448, -0.00339447, -0.00594729, 0.0154711, 0.471008, -0.543384, 0.335895, -2.08384, -2.16584, -0.129887, 0.469419, -0.542397, 0.334693, -2.08225, -2.16488, -0.129534, -9.91039e-05, 0.000927342, 0.000248628, 0.00748815, 0.00625836, -0.00591672
0.0292629, 1.69159, -1.22713, -1.5389, -0.900396, -1.19169, 1.22836, -1.30269, 0.0120733, -0.00852221, -0.00176358, -0.00362331, 1.0963e-05, 0.00266481, -0.000991771, -1.45226, 60.5023, 29.0159, 7.06909, 1.37439, 3.22421, -0.0356336, 0.000844217, -0.00150989, 0.00139617, 0.0014114, 0.00117396, -0.000231259, -0.00392389, -0.00798921, -0.00664582, -0.00337803, -0.00589687, 0.0154803, 0.471007, -0.543383, 0.335895, -2.08384, -2.16584, -0.129887, 0.469419, -0.542397, 0.334693, -2.08225, -2.16488, -0.129534, -0.000110545, 0.0010348, 0.000277287, 0.00748815, 0.00625836, -0.00591672
0.0302629, 1.69161, -1.22716, -1.53894, -0.900398, -1.1917, 1.22836, -1.30268, 0.0127965, -0.0135729, -0.0100639, -0.00541176, -0.00536338, 0.00035451, -0.000429484, -1.33721, 60.0223, 28.7183, 6.77154, 1.37439, 3.25992, -0.0164075, 0.000838952, -0.00150769, 0.00142616, 0.00145123, 0.00119251, -0.000225009, -0.0016343, -0.00640421, -0.013057, -0.0165138, -0.00690201, 0.0115046, 0.471007, -0.543382, 0.335896, -2.08384, -2.16584, -0.129887, 0.46942, -0.542396, 0.334663, -2.08223, -2.16484, -0.129508, -0.000122588, 0.001148, 0.000307449, 0.00574359, 0.00503314, -0.0125247
0.0312629, 1.69162, -1.22718, -1.53895, -0.900408, -1.19171, 1.22836, -1.30269, 0.0159422, -0.0183154, -0.008309, -0.00686784, -0.00529599, 0.000360116, -0.00249037, -1.33721, 59.9152, 28.5715, 6.73187, 1.40552, 3.25992, 0.0431018, 0.000841007, -0.00149914, 0.00144286, 0.00147127, 0.00119844, -0.000248874, -0.00327285, -0.00890529, -0.0155994, -0.0165016, -0.0115139, 0.0189087, 0.471007, -0.543381, 0.335896, -2.08384, -2.16584, -0.129887, 0.469428, -0.54239, 0.334647, -2.08219, -2.16486, -0.129495, -0.000135232, 0.0012669, 0.000339106, 0.00807842, 0.00726333, -0.0148245
0.0322629, 1.69163, -1.2272, -1.53897, -0.900415, -1.19171, 1.22837, -1.30269, 0.0130049, -0.0219109, -0.0125169, -0.00387938, -0.00554999, 0.0011128, -0.000914262, -1.11108, 59.9509, 28.5319, 6.65649, 1.44855, 3.23886, 0.0229602, 0.000835786, -0.00149769, 0.00146208, 0.00149114, 0.00120656, -0.000246551, 0.000387851, -0.00603333, -0.0185816, -0.0180479, -0.014537, 0.00978221, 0.471007, -0.54338, 0.335896, -2.08384, -2.16584, -0.129887, 0.469429, -0.542391, 0.334627, -2.08218, -2.16484, -0.129481, -0.000148472, 0.00139149, 0.000372248, 0.00522017, 0.00411547, -0.0182177
0.0332629, 1.69164, -1.22721, -1.53899, -0.900426, -1.19172, 1.22838, -1.30269, 0.0137774, -0.0153087, -0.0187327, -0.00658447, -0.00605373, 0.000811493, 0.00132327, -0.996025, 59.8755, 28.4961, 6.65649, 1.50348, 3.23886, -0.0292249, 0.000836221, -0.00149169, 0.00147543, 0.0015129, 0.00120473, -0.000250811, 0.00011751, -0.00575402, -0.0173649, -0.0248156, -0.00697063, 0.00740886, 0.471007, -0.543379, 0.335897, -2.08384, -2.16584, -0.129888, 0.469434, -0.542387, 0.334615, -2.08216, -2.16484, -0.129455, -0.000162305, 0.00152173, 0.000406866, 0.00496163, 0.00431393, -0.0169313
0.0342629, 1.69164, -1.22721, -1.539, -0.900429, -1.19173, 1.22839, -1.30269, 0.00876443, -0.0103839, -0.0159785, -0.00675489, -0.00986015, 0.000355854, 0.000882181, -0.76989, 59.8041, 28.4208, 6.58508, 1.5282, 3.24527, -0.0292249, 0.000831851, -0.00148943, 0.00148349, 0.00152308, 0.00119645, -0.000248745, 0.0021037, -0.00287428, -0.0133097, -0.0234452, 0.000574831, 0.00302395, 0.471007, -0.543377, 0.335897, -2.08384, -2.16584, -0.129888, 0.469436, -0.542388, 0.334606, -2.08216, -2.16484, -0.129436, -0.000176727, 0.00165761, 0.000442951, 0.00228859, 0.001747, -0.0131125
0.0352629, 1.69166, -1.22722, -1.53902, -0.900435, -1.19173, 1.22839, -1.30268, 0.0132422, -0.0130276, -0.0194677, -0.00365314, -0.00737947, 0.00364356, 0.00106284, -0.619133, 59.8755, 28.4565, 6.5097, 1.53461, 3.28097, -0.0420422, 0.000831213, -0.00148379, 0.00149933, 0.00154614, 0.00120021, -0.000251136, 0.00200652, -0.00501836, -0.0156323, -0.021904, -0.00230652, 0.0037603, 0.471007, -0.543375, 0.335898, -2.08384, -2.16584, -0.129888, 0.469441, -0.542385, 0.334591, -2.08214, -2.16483, -0.129414, -0.000191736, 0.0017991, 0.000480493, 0.00432756, 0.00242964, -0.0154178
0.0362629, 1.69167, -1.22722, -1.53904, -0.900445, -1.19174, 1.22839, -1.30268, 0.0136447, -0.00830843, -0.0189629, -0.00629322, -0.0099251, 0.00575071, 0.00464764, -0.468376, 59.8041, 28.4961, 6.5097, 1.5282, 3.33133, -0.0228162, 0.000831921, -0.00147809, 0.0015092, 0.00157023, 0.00119133, -0.000261346, 0.00137137, -0.00594647, -0.0129, -0.0217204, 0.00580543, 0.00220244, 0.471006, -0.543374, 0.335898, -2.08384, -2.16584, -0.129888, 0.469446, -0.542381, 0.334581, -2.08212, -2.16484, -0.12938, -0.000207328, 0.00194618, 0.000519485, 0.0053148, 0.00282118, -0.0126104
0.0372629, 1.69169, -1.22722, -1.53906, -0.900447, -1.19174, 1.2284, -1.30268, 0.0186913, -0.00474607, -0.0183209, -0.00321028, -0.0119729, 0.00481741, 0.00202796, -0.392998, 59.7287, 28.5319, 6.43433, 1.5282, 3.324, 0.0165515, 0.000834711, -0.00146806, 0.00151508, 0.00158687, 0.0011773, -0.000274312, 4.25534e-05, -0.00774762, -0.010516, -0.0219223, 0.0104857, 0.00667839, 0.471006, -0.543372, 0.335899, -2.08384, -2.16584, -0.129888, 0.469455, -0.542375, 0.334576, -2.08211, -2.16485, -0.129348, -0.0002235, 0.00209882, 0.000559916, 0.00713599, 0.00399243, -0.010064
0.0382629, 1.69171, -1.22722, -1.53908, -0.900451, -1.19175, 1.22841, -1.30268, 0.0218526, -0.00472702, -0.0167798, -0.00410124, -0.00755274, 0.00877074, 0.00164267, -0.281914, 59.7644, 28.5319, 6.35895, 1.49158, 3.31759, 0.0165515, 0.000836214, -0.00145695, 0.00152299, 0.00159209, 0.00116932, -0.000285968, -0.00224842, -0.011223, -0.00991832, -0.0159685, 0.00898975, 0.0131994, 0.471006, -0.54337, 0.335899, -2.08384, -2.16584, -0.129888, 0.469466, -0.542369, 0.334569, -2.08209, -2.16487, -0.129336, -0.000240248, 0.00225699, 0.000601779, 0.0105298, 0.00646253, -0.00918106
0.0392629, 1.69172, -1.22722, -1.53909, -0.90046, -1.19174, 1.22843, -1.30269, 0.0203563, -0.00202673, -0.0166801, -0.00426876, -0.00389948, 0.0130032, 0.000838421, -0.0161054, 59.693, 28.5715, 6.39465, 1.44214, 3.27456, 0.0293689, 0.000836285, -0.00144945, 0.00152678, 0.00159747, 0.00115409, -0.000299611, -0.00202176, -0.0115877, -0.00788754, -0.0100951, 0.0108192, 0.0139093, 0.471006, -0.543367, 0.3359, -2.08384, -2.16584, -0.129888, 0.469473, -0.542366, 0.334566, -2.08208, -2.16489, -0.129316, -0.000257569, 0.00242068, 0.000645063, 0.0109581, 0.00610479, -0.00717871
0.0402629, 1.69174, -1.22722, -1.53911, -0.900467, -1.19175, 1.22845, -1.30268, 0.0217449, -0.00435898, -0.0194398, -0.00570937, -0.00176485, 0.0102079, 0.00241789, 0.0196001, 59.8041, 28.6072, 6.35895, 1.40552, 3.25992, -0.0164075, 0.000840275, -0.00143347, 0.00153735, 0.00160592, 0.00114419, -0.000316529, -0.0028121, -0.0119847, -0.0107714, -0.0150127, 0.00579362, 0.014406, 0.471005, -0.543365, 0.3359, -2.08384, -2.16584, -0.129889, 0.469488, -0.542357, 0.334556, -2.08207, -2.16491, -0.129298, -0.00027546, 0.00258986, 0.000689759, 0.0112043, 0.00751438, -0.00987094
0.0412629, 1.69175, -1.22722, -1.53914, -0.900474, -1.19175, 1.22846, -1.30268, 0.0162164, 0.0017157, -0.0242413, -0.0075637, -0.000889551, 0.0112681, 0.00292136, 0.325081, 59.7287, 28.754, 6.35895, 1.38721, 3.2883, -0.0484509, 0.00083626, -0.00143062, 0.00154244, 0.00162328, 0.00112356, -0.000312377, -0.000361211, -0.00864742, -0.00879781, -0.0173668, 0.0120377, 0.00795614, 0.471005, -0.543362, 0.335901, -2.08383, -2.16584, -0.129889, 0.469491, -0.542358, 0.334551, -2.08207, -2.16491, -0.129258, -0.000293917, 0.0027645, 0.00073586, 0.00801178, 0.00482909, -0.00815586
0.0422629, 1.69176, -1.22723, -1.53916, -0.900483, -1.19176, 1.22848, -1.30268, 0.014144, -0.00225635, -0.0217974, -0.00985604, 0.000503848, 0.0117839, 0.00231082, 0.551216, 59.8755, 28.7937, 6.39465, 1.34967, 3.33133, -0.0557752, 0.000835042, -0.00142134, 0.0015546, 0.00163184, 0.00111815, -0.000322982, -0.000292971, -0.00876269, -0.0104461, -0.015202, 0.00725733, 0.0102571, 0.471005, -0.54336, 0.335902, -2.08383, -2.16584, -0.129889, 0.469499, -0.542354, 0.334539, -2.08206, -2.16492, -0.129244, -0.000312938, 0.00294458, 0.000783355, 0.00805081, 0.00520025, -0.00974998
0.0432629, 1.69178, -1.22723, -1.53917, -0.900495, -1.19176, 1.22849, -1.30268, 0.0170189, -0.00324233, -0.0191932, -0.00916662, -0.0005962, 0.00766084, -8.58924e-05, 0.737679, 59.9509, 28.7937, 6.47003, 1.3689, 3.36703, -0.00999879, 0.000834585, -0.00141154, 0.0015642, 0.00164247, 0.00110514, -0.000338209, -0.00183455, -0.0098325, -0.0105376, -0.017193, 0.00508417, 0.0158079, 0.471005, -0.543357, 0.335903, -2.08383, -2.16584, -0.129889, 0.469509, -0.54235, 0.33453, -2.08204, -2.16494, -0.129221, -0.000332518, 0.00313007, 0.000832236, 0.00904121, 0.00696552, -0.00958443
0.0442629, 1.69179, -1.22724, -1.53919, -0.900499, -1.19177, 1.22851, -1.30268, 0.016585, -0.00381313, -0.0182976, -0.00673559, -0.00124065, 0.00936667, -0.00170094, 0.888436, 60.0223, 28.8294, 6.47003, 1.38721, 3.40365, 0.0357776, 0.000832389, -0.0014025, 0.00157449, 0.00165088, 0.0010957, -0.000350695, -0.000551433, -0.00946836, -0.0100652, -0.0140205, 0.00569224, 0.0151084, 0.471004, -0.543354, 0.335903, -2.08383, -2.16584, -0.129889, 0.469517, -0.542347, 0.33452, -2.08203, -2.16495, -0.129204, -0.000352655, 0.00332096, 0.000882495, 0.00872034, 0.00580207, -0.00925592
0.0452673, 1.69181, -1.22724, -1.5392, -0.900505, -1.19178, 1.22853, -1.30268, 0.00903556, -0.0051264, -0.020613, -0.00412356, -0.00674288, 0.0111784, -0.00109516, 1.07887, 60.1334, 28.8691, 6.43433, 1.41742, 3.42471, 0.0357776, 0.000827956, -0.00139446, 0.00158454, 0.00165702, 0.00108204, -0.000355481, 0.00566166, -0.00399394, -0.0107591, -0.0146944, 0.00956787, 0.00184757, 0.471004, -0.54335, 0.335904, -2.08383, -2.16584, -0.12989, 0.469524, -0.542346, 0.33451, -2.08202, -2.16496, -0.129184, -0.000373345, 0.00351722, 0.000934121, 0.00342942, -0.000252607, -0.0106888
0.0462673, 1.69182, -1.22725, -1.53922, -0.900501, -1.19179, 1.22855, -1.30269, 0.012409, -0.00517023, -0.0240428, -0.00364632, -0.00589302, 0.0125518, -0.000972271, 1.15424, 60.2087, 28.9802, 6.32324, 1.44214, 3.44668, 0.0431018, 0.0008227, -0.00138538, 0.00159326, 0.00166143, 0.00106479, -0.00035821, 0.00520518, -0.00553767, -0.0120132, -0.0163732, 0.00988736, 0.00329044, 0.471004, -0.543347, 0.335905, -2.08383, -2.16583, -0.12989, 0.469533, -0.542346, 0.334501, -2.08202, -2.16497, -0.129162, -0.000394586, 0.00371881, 0.000987107, 0.0048883, 0.000655853, -0.0118498
0.0472673, 1.69184, -1.22726, -1.53924, -0.900508, -1.1918, 1.22857, -1.30268, 0.0125518, -0.00603732, -0.023883, -0.0037916, -0.0056467, 0.0139996, -0.000117728, 1.18995, 60.3198, 28.9802, 6.35895, 1.47876, 3.46042, 0.0293689, 0.000821395, -0.00137275, 0.0016035, 0.00166929, 0.0010487, -0.000370448, 0.00546195, -0.00600158, -0.0123877, -0.0149909, 0.0096436, 0.00289744, 0.471003, -0.543343, 0.335906, -2.08382, -2.16583, -0.12989, 0.469545, -0.542341, 0.334492, -2.08201, -2.16499, -0.129139, -0.000416373, 0.00392573, 0.00104144, 0.00532547, 0.000685936, -0.0122191
0.0482673, 1.69186, -1.22726, -1.53925, -0.900509, -1.19182, 1.22859, -1.30268, 0.0121865, -0.00485413, -0.0216587, -0.00519472, -0.00495126, 0.0142841, 0.00187067, 1.22962, 60.3555, 29.0159, 6.32324, 1.50348, 3.48971, -0.0228162, 0.000817617, -0.00136155, 0.00160893, 0.00167295, 0.00102213, -0.000374811, 0.00474487, -0.00662566, -0.0110758, -0.0129526, 0.010464, 0.00307714, 0.471003, -0.543339, 0.335907, -2.08382, -2.16583, -0.129891, 0.469556, -0.54234, 0.334486, -2.08202, -2.16501, -0.129108, -0.000438704, 0.00413795, 0.00109712, 0.00594813, 0.00142969, -0.0107756
0.0492673, 1.69189, -1.22727, -1.53927, -0.900504, -1.19183, 1.22861, -1.30268, 0.0167932, -0.00750051, -0.0177764, -0.00225451, -0.00842754, 0.0146138, 0.00173411, 1.18995, 60.538, 29.0912, 6.24786, 1.50989, 3.5181, -0.0356336, 0.000812946, -0.00134956, 0.0016217, 0.00167698, 0.00101122, -0.000377552, 0.00395843, -0.00896983, -0.0110812, -0.0103969, 0.0105766, 0.00595922, 0.471002, -0.543335, 0.335908, -2.08382, -2.16583, -0.129891, 0.469567, -0.542338, 0.334474, -2.08202, -2.16501, -0.129093, -0.000461575, 0.00435543, 0.00115413, 0.00823807, 0.00252034, -0.0106724
0.0502673, 1.69191, -1.22728, -1.5393, -0.900497, -1.19185, 1.22864, -1.30268, 0.0189744, -0.00843066, -0.0195098, -0.000155719, -0.0116033, 0.0190958, 0.00116528, 1.18995, 60.6848, 29.238, 6.17248, 1.5282, 3.56112, -0.0356336, 0.000804886, -0.00134009, 0.00163446, 0.00168424, 0.000994446, -0.000375581, 0.00538485, -0.00991551, -0.011696, -0.00887934, 0.0145694, 0.00498428, 0.471002, -0.543331, 0.335909, -2.08382, -2.16583, -0.129891, 0.469576, -0.542339, 0.334461, -2.08202, -2.16502, -0.129068, -0.000484983, 0.00457817, 0.00121247, 0.00918792, 0.00146822, -0.0114711
0.0512673, 1.69193, -1.22729, -1.5393, -0.900502, -1.19186, 1.22866, -1.30268, 0.0207604, -0.00821638, -0.0115472, -0.00301423, -0.0130013, 0.0228586, -0.000165677, 1.18995, 60.7959, 29.1269, 6.28357, 1.52179, 3.59683, -0.00999879, 0.000803653, -0.00132515, 0.00164086, 0.0016785, 0.000976216, -0.000392008, 0.00296986, -0.0135014, -0.00893007, -0.000878494, 0.017686, 0.0139601, 0.471001, -0.543326, 0.335911, -2.08382, -2.16583, -0.129892, 0.46959, -0.542334, 0.334455, -2.08202, -2.16505, -0.129058, -0.000508925, 0.00480613, 0.00127212, 0.0127587, 0.00380132, -0.00841362
0.0522673, 1.69194, -1.2273, -1.53932, -0.900494, -1.19188, 1.22868, -1.30268, 0.0194814, -0.00890937, -0.0158314, 0.00262299, -0.0197012, 0.0158524, -0.00156333, 1.305, 60.9427, 29.1666, 6.20819, 1.53461, 3.63986, 0.0293689, 0.000792608, -0.0013192, 0.00165156, 0.00168288, 0.000958139, -0.000388105, 0.00700472, -0.00876466, -0.0106441, -0.0109768, 0.0188761, 0.00489046, 0.471001, -0.543321, 0.335912, -2.08381, -2.16583, -0.129892, 0.469595, -0.542338, 0.334444, -2.08202, -2.16505, -0.129035, -0.000533398, 0.00503929, 0.00133308, 0.00808603, 0.000121185, -0.0105286
0.0532673, 1.69197, -1.22729, -1.53933, -0.900493, -1.1919, 1.2287, -1.30268, 0.021241, -0.00426773, -0.0147534, 0.00183178, -0.0243659, 0.0200164, -0.000326261, 1.305, 60.8713, 29.1666, 6.20819, 1.5401, 3.68289, 0.0101428, 0.000788965, -0.0013063, 0.00165347, 0.00168339, 0.000924949, -0.000394662, 0.00693117, -0.0102885, -0.00739669, -0.00881057, 0.0295495, 0.00497887, 0.471, -0.543316, 0.335913, -2.08381, -2.16583, -0.129892, 0.469608, -0.542336, 0.334442, -2.08203, -2.16507, -0.129002, -0.000558399, 0.00527762, 0.00139533, 0.00969751, -5.38917e-06, -0.00729437
0.0542673, 1.69199, -1.22731, -1.53935, -0.900486, -1.19192, 1.22873, -1.30268, 0.0201907, -0.008041, -0.0188644, 0.00128353, -0.0279554, 0.0237247, 2.27651e-05, 1.26533, 61.0934, 29.238, 6.20819, 1.54651, 3.7186, 0.00373412, 0.00077998, -0.00129534, 0.00166739, 0.00168838, 0.000907535, -0.000394486, 0.00979154, -0.00945793, -0.0107914, -0.0112264, 0.0309624, 0.000984962, 0.471, -0.543311, 0.335915, -2.08381, -2.16583, -0.129893, 0.469618, -0.542337, 0.334428, -2.08204, -2.16508, -0.128979, -0.000583923, 0.00552111, 0.00145888, 0.00882221, -0.00209711, -0.0110018
0.0552673, 1.69201, -1.2273, -1.53937, -0.900489, -1.19194, 1.22875, -1.30267, 0.0196355, -0.00443185, -0.0221796, 0.00237475, -0.0258687, 0.0268392, 0.00171278, 1.34071, 61.0538, 29.3134, 6.28357, 1.55292, 3.74698, -0.0420422, 0.000774434, -0.00128359, 0.0016707, 0.00169448, 0.000869165, -0.000399301, 0.0108804, -0.00907666, -0.00941819, -0.00949784, 0.0346115, -0.00314747, 0.470999, -0.543305, 0.335916, -2.08381, -2.16583, -0.129893, 0.469629, -0.542336, 0.334425, -2.08205, -2.16511, -0.128934, -0.000609969, 0.00576973, 0.0015237, 0.00850392, -0.00315045, -0.0097386
0.0562673, 1.69203, -1.2273, -1.53938, -0.900489, -1.19196, 1.22878, -1.30267, 0.0212302, -0.00295397, -0.0235195, 0.000959842, -0.024014, 0.0239087, 0.00165212, 1.34071, 61.0538, 29.3531, 6.32324, 1.55292, 3.7836, -0.0557752, 0.000768572, -0.00127069, 0.00167667, 0.00169925, 0.000836156, -0.000403179, 0.00948162, -0.00971431, -0.00958746, -0.0131071, 0.0334976, -0.000301162, 0.470999, -0.5433, 0.335918, -2.0838, -2.16583, -0.129894, 0.469641, -0.542335, 0.33442, -2.08205, -2.16513, -0.128897, -0.000636533, 0.00602345, 0.0015898, 0.00905802, -0.00146359, -0.00964177
0.0572673, 1.69205, -1.2273, -1.5394, -0.900491, -1.19198, 1.2288, -1.30267, 0.0198992, -0.00196887, -0.0222176, 3.31986e-05, -0.0221752, 0.0219841, -0.00011806, 1.45576, 61.0538, 29.4245, 6.35895, 1.5401, 3.81198, -0.0228162, 0.000760234, -0.00126208, 0.0016805, 0.00170699, 0.000799205, -0.000407321, 0.00913722, -0.00925907, -0.00879955, -0.0128918, 0.0320997, 0.00221293, 0.470998, -0.543294, 0.335919, -2.0838, -2.16582, -0.129894, 0.46965, -0.542336, 0.334416, -2.08206, -2.16515, -0.128851, -0.000663611, 0.00628226, 0.00165716, 0.00859242, -0.00100468, -0.00872925
0.0582673, 1.69207, -1.22731, -1.53942, -0.900488, -1.192, 1.22883, -1.30267, 0.0238845, -0.0039107, -0.0204286, 0.00102874, -0.0214392, 0.0256184, -0.000315144, 1.49146, 61.1649, 29.4642, 6.32324, 1.5401, 3.82663, -0.0164075, 0.000750834, -0.00125117, 0.00168892, 0.00170976, 0.000769553, -0.000409685, 0.00797632, -0.0123894, -0.00908523, -0.00809093, 0.0314063, 0.00663906, 0.470997, -0.543287, 0.335921, -2.0838, -2.16582, -0.129894, 0.46966, -0.542337, 0.334408, -2.08207, -2.16516, -0.128819, -0.000691201, 0.00654612, 0.00172578, 0.0116392, 0.000577384, -0.00885695
0.0592673, 1.6921, -1.2273, -1.53944, -0.90049, -1.19203, 1.22885, -1.30268, 0.0236076, 0.00128017, -0.0215207, -2.08467e-05, -0.0248083, 0.0286096, -0.00119275, 1.53114, 61.1292, 29.611, 6.35895, 1.52179, 3.84036, 0.0101428, 0.000743834, -0.00123832, 0.00169335, 0.00171902, 0.000725988, -0.000419112, 0.00878356, -0.0123696, -0.00631825, -0.00799029, 0.0410994, 0.00644141, 0.470997, -0.543281, 0.335923, -2.0838, -2.16582, -0.129895, 0.469672, -0.542336, 0.334403, -2.08207, -2.16519, -0.128766, -0.0007193, 0.00681502, 0.00179564, 0.0117202, -0.000377411, -0.00617967
0.0602673, 1.69212, -1.22731, -1.53945, -0.900488, -1.19206, 1.22888, -1.30267, 0.0234756, -0.0014905, -0.0179972, 0.000917728, -0.0278451, 0.025614, -0.000319929, 1.57081, 61.2402, 29.5752, 6.32324, 1.5163, 3.86233, -0.00267457, 0.000734502, -0.00122736, 0.00170101, 0.00172278, 0.000695245, -0.000417536, 0.00921921, -0.0118865, -0.00684806, -0.00864757, 0.0391646, 0.00536999, 0.470996, -0.543274, 0.335924, -2.08379, -2.16582, -0.129895, 0.469682, -0.542337, 0.334396, -2.08209, -2.16521, -0.128731, -0.000747904, 0.00708893, 0.00186675, 0.0112055, -0.000471762, -0.00668481
0.0612673, 1.69214, -1.22731, -1.53947, -0.900485, -1.19209, 1.2289, -1.30267, 0.0192683, -0.000802785, -0.0150117, 0.00161214, -0.025965, 0.0281926, 0.00148252, 1.64619, 61.2402, 29.6506, 6.28357, 1.5282, 3.87607, -0.0484509, 0.000724238, -0.00121674, 0.00170457, 0.00172824, 0.000651245, -0.000411684, 0.0107923, -0.0105889, -0.0048682, -0.0018308, 0.0393359, 0.000883283, 0.470995, -0.543267, 0.335926, -2.08379, -2.16582, -0.129896, 0.469692, -0.542339, 0.334392, -2.08211, -2.16522, -0.12868, -0.00077701, 0.00736784, 0.00193908, 0.0100083, -0.00210375, -0.00486264
0.0622673, 1.69216, -1.22731, -1.53948, -0.900485, -1.19212, 1.22893, -1.30267, 0.020156, 0.000173741, -0.0117807, 0.00112899, -0.0241592, 0.0263455, 0.000513923, 1.68189, 61.3513, 29.6863, 6.28357, 1.5282, 3.86966, -0.0356336, 0.000714542, -0.00120434, 0.00171437, 0.00173604, 0.000617278, -0.000420771, 0.00923348, -0.0116314, -0.00345201, -7.39577e-06, 0.0379128, 0.00531682, 0.470994, -0.543259, 0.335928, -2.08379, -2.16582, -0.129897, 0.469704, -0.542339, 0.334383, -2.08211, -2.16525, -0.128639, -0.000806615, 0.0076517, 0.00201263, 0.0110153, -0.000456308, -0.00318022
0.0632673, 1.69219, -1.22731, -1.5395, -0.900485, -1.19215, 1.22896, -1.30267, 0.0185379, 0.000486884, -0.0125417, 0.000793333, -0.0282318, 0.0252012, 0.000580193, 1.68189, 61.3513, 29.722, 6.28357, 1.54651, 3.85501, -0.0420422, 0.000705067, -0.00119058, 0.00171939, 0.00174206, 0.000570067, -0.00042661, 0.0109665, -0.0100118, -0.00362704, -0.00339668, 0.0411637, 0.0022396, 0.470993, -0.543252, 0.33593, -2.08378, -2.16582, -0.129897, 0.469717, -0.54234, 0.334378, -2.08212, -2.16528, -0.128585, -0.000836715, 0.00794051, 0.00208739, 0.00942335, -0.00191775, -0.00349852
0.0642673, 1.69222, -1.22732, -1.53951, -0.900485, -1.19218, 1.22898, -1.30267, 0.0203178, -0.00190277, -0.0139661, 0.000559393, -0.0306368, 0.0281918, -0.000562476, 1.68189, 61.4584, 29.7974, 6.28357, 1.54651, 3.86233, -0.0164075, 0.000696908, -0.00117608, 0.00172833, 0.00175137, 0.000533959, -0.000435354, 0.0117165, -0.0111522, -0.00542866, -0.00370044, 0.0425406, 0.00392587, 0.470993, -0.543244, 0.335932, -2.08378, -2.16582, -0.129898, 0.469731, -0.542338, 0.334369, -2.08212, -2.1653, -0.12854, -0.000867309, 0.00823424, 0.00216336, 0.0104934, -0.00204029, -0.00535238
0.0652673, 1.69224, -1.22732, -1.53953, -0.900483, -1.19222, 1.22901, -1.30267, 0.0205517, -0.00198782, -0.0181443, 0.000395807, -0.0322282, 0.030657, -0.00135821, 1.72157, 61.4981, 29.8728, 6.28357, 1.54651, 3.86233, 0.0101428, 0.00068526, -0.00116355, 0.00173647, 0.00176029, 0.000490693, -0.000439621, 0.0133204, -0.0108785, -0.006808, -0.00602194, 0.0454148, 0.00258429, 0.470992, -0.543236, 0.335935, -2.08378, -2.16581, -0.129898, 0.469742, -0.542339, 0.334361, -2.08213, -2.16532, -0.128487, -0.000898392, 0.00853286, 0.00224052, 0.0101965, -0.0031239, -0.00687801
0.0662673, 1.69226, -1.22733, -1.53954, -0.900478, -1.19225, 1.22904, -1.30267, 0.0200785, -0.00376713, -0.0155727, 0.00111625, -0.0336427, 0.0321069, 0.000552684, 1.79694, 61.6092, 29.8371, 6.24786, 1.54651, 3.86966, -0.0292249, 0.000672423, -0.00115232, 0.0017417, 0.00175806, 0.000451228, -0.000435042, 0.0141197, -0.0110655, -0.00671834, -0.00285344, 0.0454219, 0.000399076, 0.470991, -0.543227, 0.335937, -2.08377, -2.16581, -0.129899, 0.469753, -0.542342, 0.334356, -2.08215, -2.16534, -0.12845, -0.000929962, 0.00883635, 0.00231887, 0.0103835, -0.0036156, -0.00684092
0.0672673, 1.69229, -1.22733, -1.53955, -0.900474, -1.19229, 1.22907, -1.30267, 0.0216559, -0.00322923, -0.0137539, 0.00168505, -0.0391474, 0.0288554, -0.000852178, 1.79694, 61.6449, 29.7974, 6.20819, 1.5401, 3.86966, 0.00373412, 0.000662184, -0.00113716, 0.00174674, 0.00175856, 0.000406959, -0.000445486, 0.0142279, -0.0109413, -0.00607524, -0.00653, 0.04889, 0.00191521, 0.47099, -0.543218, 0.335939, -2.08377, -2.16581, -0.1299, 0.469767, -0.542342, 0.334351, -2.08216, -2.16538, -0.128406, -0.000962015, 0.00914469, 0.0023984, 0.0102545, -0.00351815, -0.0061395
0.0682673, 1.69232, -1.22734, -1.53957, -0.900474, -1.19232, 1.22909, -1.30267, 0.022545, -0.0037352, -0.0150854, 0.000205001, -0.0341182, 0.0261364, -0.000568067, 1.79694, 61.7163, 29.8728, 6.24786, 1.5401, 3.88339, 0.00373412, 0.000652259, -0.00112215, 0.00175677, 0.00177367, 0.000364112, -0.000453814, 0.0127621, -0.0116349, -0.0073659, -0.00854463, 0.0433169, 0.00488331, 0.470989, -0.543209, 0.335941, -2.08376, -2.16581, -0.1299, 0.469781, -0.542341, 0.334342, -2.08216, -2.1654, -0.128347, -0.000994548, 0.00945786, 0.0024791, 0.0108156, -0.00153066, -0.00712664
0.0692673, 1.69235, -1.22734, -1.53958, -0.900473, -1.19236, 1.22912, -1.30267, 0.0214671, -0.0024241, -0.0134724, 0.000143906, -0.0346538, 0.0248307, 0.00107939, 1.87232, 61.7163, 29.8371, 6.24786, 1.5282, 3.87607, -0.0356336, 0.000640538, -0.00110887, 0.00176011, 0.00177567, 0.000315101, -0.000454124, 0.0130622, -0.0110277, -0.00611969, -0.00821484, 0.0444395, 0.00282632, 0.470988, -0.5432, 0.335944, -2.08376, -2.16581, -0.129901, 0.469794, -0.542342, 0.334339, -2.08218, -2.16543, -0.128296, -0.00102756, 0.00977584, 0.00256097, 0.0102319, -0.00172566, -0.00584259
0.0702673, 1.69237, -1.22735, -1.53959, -0.900468, -1.1924, 1.22914, -1.30267, 0.024859, -0.00509301, -0.0140734, 0.00102939, -0.0309506, 0.0235099, 0.000956981, 1.90803, 61.8671, 29.8728, 6.20819, 1.53461, 3.87607, -0.0420422, 0.000626357, -0.00109678, 0.00176996, 0.00178483, 0.000274176, -0.000453638, 0.0116548, -0.0128725, -0.008104, -0.00843805, 0.0383172, 0.00654857, 0.470987, -0.54319, 0.335947, -2.08375, -2.1658, -0.129902, 0.469805, -0.542344, 0.334329, -2.08219, -2.16544, -0.128245, -0.00106104, 0.0100986, 0.00264398, 0.0119188, 0.000367636, -0.00755613
0.0712673, 1.69241, -1.22734, -1.53961, -0.900463, -1.19244, 1.22917, -1.30267, 0.026033, -0.00243017, -0.0183772, 0.00152555, -0.0332776, 0.0231152, 0.000875368, 1.87232, 61.8274, 29.9482, 6.17248, 1.55292, 3.85501, -0.0484509, 0.000614502, -0.00108076, 0.00177299, 0.00179258, 0.000214873, -0.000457816, 0.0126832, -0.0123027, -0.00812373, -0.013294, 0.043114, 0.00448987, 0.470986, -0.54318, 0.335949, -2.08375, -2.1658, -0.129903, 0.46982, -0.542344, 0.334327, -2.08221, -2.16548, -0.128178, -0.001095, 0.0104261, 0.00272814, 0.0113518, -0.000340406, -0.00763401
0.0722673, 1.69244, -1.22734, -1.53962, -0.900462, -1.19248, 1.2292, -1.30267, 0.0250479, -0.00159225, -0.01357, 0.000184867, -0.0338295, 0.0260858, -0.00036584, 1.90803, 61.8274, 29.9482, 6.20819, 1.5401, 3.87607, -0.0228162, 0.000603792, -0.00106544, 0.00177736, 0.00179949, 0.000165124, -0.000465994, 0.0124043, -0.0133866, -0.0058316, -0.00711955, 0.0458038, 0.00807505, 0.470985, -0.543169, 0.335952, -2.08374, -2.1658, -0.129903, 0.469835, -0.542343, 0.334323, -2.08222, -2.16551, -0.128121, -0.00112942, 0.0107583, 0.00281344, 0.0124727, -4.13491e-05, -0.00527493
0.0732673, 1.69247, -1.22735, -1.53963, -0.900456, -1.19253, 1.22923, -1.30267, 0.0269679, -0.00196863, -0.0132097, 0.00414375, -0.0405397, 0.0246528, -0.00146458, 1.83265, 61.8671, 29.9482, 6.17248, 1.57123, 3.87607, 0.0101428, 0.000593074, -0.0010468, 0.00178239, 0.00180506, 0.000111123, -0.000481981, 0.0142128, -0.0126568, -0.00563263, -0.00956601, 0.0500727, 0.00557019, 0.470984, -0.543159, 0.335955, -2.08374, -2.1658, -0.129904, 0.469853, -0.542341, 0.334318, -2.08222, -2.16555, -0.128063, -0.00116431, 0.0110953, 0.00289987, 0.011781, -0.00155028, -0.00525092
0.0742673, 1.6925, -1.22735, -1.53965, -0.900448, -1.19257, 1.22926, -1.30267, 0.0263873, -0.0038024, -0.0136949, 0.00788375, -0.0447886, 0.028069, -0.000739021, 1.83265, 61.9742, 29.9839, 6.09711, 1.58313, 3.86966, 0.00373412, 0.000576846, -0.00103318, 0.00179083, 0.00181068, 6.26689e-05, -0.000481121, 0.017402, -0.0116158, -0.00606412, -0.00722755, 0.0532703, -0.000591025, 0.470983, -0.543147, 0.335958, -2.08373, -2.1658, -0.129905, 0.469865, -0.542345, 0.33431, -2.08224, -2.16557, -0.128008, -0.00119966, 0.0114369, 0.00298742, 0.0108044, -0.00433318, -0.00605331
0.0752673, 1.69253, -1.22736, -1.53966, -0.900442, -1.19262, 1.22929, -1.30267, 0.0252256, -0.00428642, -0.0172875, 0.00654887, -0.0488318, 0.0309982, -0.000492674, 1.87232, 62.0496, 30.0236, 6.0614, 1.61426, 3.86233, 0.00373412, 0.000561461, -0.00101848, 0.00179798, 0.00181742, 9.65707e-06, -0.000480337, 0.0197767, -0.0107432, -0.00752135, -0.0101389, 0.0580326, -0.00385128, 0.470981, -0.543136, 0.335961, -2.08373, -2.16579, -0.129906, 0.469879, -0.542347, 0.334303, -2.08226, -2.1656, -0.127948, -0.00123547, 0.0117833, 0.00307608, 0.00992947, -0.00614251, -0.00774605
0.0762673, 1.69256, -1.22737, -1.53967, -0.900434, -1.19266, 1.22932, -1.30266, 0.0274997, -0.00461203, -0.0198051, 0.00881025, -0.0460639, 0.0375387, 0.000892259, 1.90803, 62.1249, 30.0593, 6.02173, 1.62067, 3.85501, -0.0292249, 0.000544745, -0.00100459, 0.00180653, 0.00182288, -3.90257e-05, -0.000475318, 0.020485, -0.0126098, -0.00787122, -0.00461038, 0.0588833, -0.00521495, 0.47098, -0.543124, 0.335964, -2.08372, -2.16579, -0.129907, 0.469892, -0.542349, 0.334295, -2.08228, -2.16562, -0.127893, -0.00127174, 0.0121342, 0.00316585, 0.01177, -0.00636035, -0.00816822
0.0772673, 1.6926, -1.22737, -1.53969, -0.900431, -1.19271, 1.22935, -1.30266, 0.0296654, -0.00306808, -0.0187333, 0.00855725, -0.0442551, 0.0382805, 0.00181555, 1.79694, 62.1249, 30.095, 6.0614, 1.63257, 3.84036, -0.0621838, 0.000534599, -0.000982899, 0.00181184, 0.0018315, -9.88094e-05, -0.00048648, 0.0191643, -0.0144063, -0.00670131, -0.00244823, 0.0595005, -0.00265318, 0.470979, -0.543112, 0.335967, -2.08372, -2.16579, -0.129908, 0.469913, -0.542346, 0.334291, -2.08229, -2.16566, -0.127825, -0.00130846, 0.0124898, 0.00325671, 0.0135225, -0.00480749, -0.00677146
0.0782673, 1.69264, -1.22737, -1.5397, -0.900419, -1.19276, 1.22938, -1.30266, 0.0292247, -0.00371086, -0.0147883, 0.0113475, -0.0434958, 0.0383092, 0.00121037, 1.75727, 62.1964, 30.1346, 5.98602, 1.66369, 3.84036, -0.0621838, 0.000519032, -0.000966092, 0.00181723, 0.00183825, -0.000157257, -0.000488944, 0.0196509, -0.0143594, -0.00530033, 0.00278365, 0.0579136, -0.00273222, 0.470978, -0.5431, 0.33597, -2.08371, -2.16579, -0.129909, 0.469928, -0.542347, 0.334286, -2.0823, -2.16569, -0.127759, -0.00134563, 0.01285, 0.00334867, 0.0135066, -0.00514535, -0.00537046
0.0792673, 1.69267, -1.22736, -1.53972, -0.900413, -1.1928, 1.2294, -1.30266, 0.0263827, -0.000799754, -0.0147733, 0.0137555, -0.0412508, 0.0382534, -0.000176431, 1.83265, 62.1249, 30.1703, 6.02173, 1.65088, 3.83304, -0.0356336, 0.00050369, -0.000951031, 0.00181928, 0.001845, -0.000219203, -0.000494257, 0.0212783, -0.0124457, -0.00313852, 0.00568873, 0.0588246, -0.00552251, 0.470976, -0.543087, 0.335973, -2.08371, -2.16578, -0.129909, 0.469943, -0.542348, 0.334284, -2.08232, -2.16572, -0.12769, -0.00138324, 0.0132147, 0.0034417, 0.0116943, -0.00679847, -0.00333792
0.0802673, 1.69272, -1.22737, -1.53973, -0.900409, -1.19285, 1.22943, -1.30267, 0.0309733, -0.0013656, -0.0132122, 0.0125022, -0.0402276, 0.0373352, 0.00312315, 1.75727, 62.1606, 30.1346, 6.0614, 1.65088, 3.85501, 0.00373412, 0.000491624, -0.000930062, 0.00182468, 0.00185262, -0.00027903, -0.000512064, 0.0186756, -0.0155585, -0.00344849, 0.00544423, 0.0573028, -0.00205589, 0.470975, -0.543074, 0.335977, -2.0837, -2.16578, -0.12991, 0.469962, -0.542345, 0.33428, -2.08232, -2.16577, -0.127624, -0.0014213, 0.013584, 0.0035358, 0.0146606, -0.00368444, -0.00323985
0.0812683, 1.69276, -1.22737, -1.53975, -0.900395, -1.19291, 1.22947, -1.30266, 0.0324194, -0.00174352, -0.0155958, 0.014351, -0.0451642, 0.0369716, 0.00247367, 1.75727, 62.1964, 30.2457, 5.98602, 1.6756, 3.86966, 0.00373412, 0.000471812, -0.000914351, 0.0018322, 0.00186622, -0.000345934, -0.000504914, 0.0204375, -0.0149477, -0.00439995, 0.00143335, 0.0610141, -0.00435093, 0.470973, -0.54306, 0.33598, -2.08369, -2.16578, -0.129911, 0.469977, -0.542349, 0.334272, -2.08235, -2.16579, -0.127541, -0.0014598, 0.0139578, 0.00363097, 0.0140408, -0.00492834, -0.00433949
0.0822683, 1.69279, -1.22738, -1.53976, -0.900386, -1.19296, 1.2295, -1.30266, 0.0337372, -0.00375924, -0.0153357, 0.00980738, -0.0428213, 0.0372755, 0.00194279, 1.75727, 62.3074, 30.2814, 6.02173, 1.66369, 3.87607, 0.00373412, 0.000454271, -0.000896959, 0.00184253, 0.0018785, -0.000402333, -0.000507101, 0.0185945, -0.0171287, -0.00620172, 0.000553377, 0.0578422, 0.00243998, 0.470972, -0.543046, 0.335984, -2.08369, -2.16578, -0.129913, 0.469993, -0.542351, 0.334262, -2.08236, -2.16582, -0.127472, -0.00149874, 0.0143362, 0.00372719, 0.0160488, -0.00236369, -0.00580216
0.0832683, 1.69284, -1.22737, -1.53978, -0.900384, -1.19302, 1.22952, -1.30266, 0.0348059, -0.00166976, -0.0193521, 0.00783519, -0.0466001, 0.0323635, 0.00321087, 1.75727, 62.2717, 30.3568, 6.13678, 1.6756, 3.89071, -0.0420422, 0.000440049, -0.000877282, 0.00184944, 0.00189944, -0.000470933, -0.000511968, 0.0188057, -0.0161245, -0.0071922, -0.00984405, 0.0612501, 0.0007571, 0.47097, -0.543032, 0.335988, -2.08368, -2.16577, -0.129914, 0.470012, -0.542348, 0.334257, -2.08238, -2.16585, -0.127381, -0.00153811, 0.014719, 0.00382447, 0.0149783, -0.00207778, -0.0066855
0.0842683, 1.69288, -1.22738, -1.5398, -0.900369, -1.19308, 1.22955, -1.30266, 0.0355692, -0.00194751, -0.0196828, 0.0133599, -0.0495152, 0.0335855, 0.0015937, 1.75727, 62.3074, 30.3211, 6.09711, 1.6875, 3.89804, -0.0228162, 0.000420899, -0.000859372, 0.00185452, 0.00190762, -0.000539891, -0.000514225, 0.0213039, -0.0151892, -0.00667259, -0.00787808, 0.0637187, -0.00280168, 0.470969, -0.543017, 0.335992, -2.08367, -2.16577, -0.129915, 0.470028, -0.542351, 0.334252, -2.0824, -2.16589, -0.127303, -0.00157792, 0.0151063, 0.00392278, 0.0141125, -0.00427505, -0.00643407
0.0852683, 1.69292, -1.22738, -1.53982, -0.900362, -1.19314, 1.22958, -1.30266, 0.0361781, -0.00129768, -0.01935, 0.0123922, -0.0513647, 0.0297731, 0.00240706, 1.75727, 62.3074, 30.3925, 6.13678, 1.69391, 3.90536, -0.0557752, 0.000403235, -0.000841286, 0.00186443, 0.00193173, -0.000606574, -0.000517936, 0.0209888, -0.0149146, -0.00670809, -0.0121891, 0.0642732, -0.00260226, 0.470967, -0.543002, 0.335996, -2.08367, -2.16577, -0.129916, 0.470045, -0.542351, 0.334243, -2.08241, -2.16592, -0.12721, -0.00161815, 0.015498, 0.00402212, 0.0137855, -0.00357791, -0.00631269
0.0862683, 1.69296, -1.22738, -1.53984, -0.900352, -1.1932, 1.22961, -1.30266, 0.0392694, -0.000864623, -0.021446, 0.0117504, -0.0527206, 0.0271106, 0.00142636, 1.75727, 62.3074, 30.4322, 6.17248, 1.70032, 3.91269, -0.0484509, 0.000384281, -0.000823955, 0.0018705, 0.00195116, -0.000679664, -0.000518342, 0.0202189, -0.0158017, -0.00771734, -0.0176426, 0.064984, 0.000560144, 0.470966, -0.542986, 0.336, -2.08366, -2.16576, -0.129917, 0.470061, -0.542353, 0.334237, -2.08243, -2.16595, -0.127116, -0.00165881, 0.0158942, 0.00412249, 0.0145668, -0.0022298, -0.00711626
0.0872683, 1.69301, -1.22739, -1.53986, -0.900344, -1.19326, 1.22964, -1.30266, 0.0349546, -0.00484493, -0.022927, 0.00812869, -0.0538401, 0.0253236, 0.00129187, 1.79694, 62.4899, 30.4679, 6.20819, 1.70581, 3.90536, -0.0557752, 0.000362619, -0.000805961, 0.00188693, 0.00196988, -0.000737971, -0.000518226, 0.0221916, -0.0135753, -0.0110501, -0.0223255, 0.0615295, -0.00137048, 0.470964, -0.542971, 0.336004, -2.08365, -2.16576, -0.129918, 0.470078, -0.542355, 0.334221, -2.08244, -2.16597, -0.127037, -0.0016999, 0.0162947, 0.00422387, 0.012252, -0.00335443, -0.010545
0.0882683, 1.69306, -1.2274, -1.53989, -0.900332, -1.19332, 1.22966, -1.30266, 0.0405059, -0.00499291, -0.0208636, 0.0102813, -0.0548339, 0.0236699, -6.98308e-05, 1.72157, 62.5653, 30.5036, 6.17248, 1.71863, 3.91269, -0.0292249, 0.000343272, -0.000787126, 0.00189948, 0.00199974, -0.000805357, -0.000523781, 0.0203881, -0.0161885, -0.0105804, -0.0221984, 0.0614286, 0.00428528, 0.470962, -0.542954, 0.336008, -2.08364, -2.16576, -0.129919, 0.470095, -0.542355, 0.334209, -2.08245, -2.166, -0.126937, -0.0017414, 0.0166996, 0.00432627, 0.0147727, -0.00113417, -0.00977779
0.0892683, 1.69311, -1.22741, -1.53991, -0.900325, -1.19339, 1.22969, -1.30266, 0.0414104, -0.00592686, -0.0238962, 0.00691971, -0.054728, 0.0227554, -0.000990697, 1.64619, 62.6764, 30.4679, 6.20819, 1.70581, 3.90536, -0.00267457, 0.000327936, -0.00076225, 0.00191145, 0.00202196, -0.000872713, -0.00054211, 0.0200115, -0.0168011, -0.0128361, -0.0273351, 0.0606817, 0.0076769, 0.470961, -0.542938, 0.336012, -2.08364, -2.16575, -0.129921, 0.470118, -0.54235, 0.334199, -2.08244, -2.16605, -0.126847, -0.00178332, 0.0171089, 0.00442966, 0.0152474, 1.96005e-05, -0.0118618
0.0902683, 1.69315, -1.2274, -1.53993, -0.900315, -1.19345, 1.22972, -1.30266, 0.0408, -0.00218784, -0.0273761, 0.00612391, -0.0594738, 0.0269018, -0.000868423, 1.75727, 62.601, 30.4679, 6.17248, 1.69391, 3.89804, 0.00373412, 0.000305731, -0.000746654, 0.00191778, 0.0020491, -0.00095294, -0.000539755, 0.0222166, -0.0162087, -0.0116203, -0.0288735, 0.0708297, 0.00436719, 0.470959, -0.54292, 0.336017, -2.08363, -2.16575, -0.129922, 0.470133, -0.542354, 0.334193, -2.08246, -2.16608, -0.126737, -0.00182565, 0.0175225, 0.00453405, 0.0147365, -0.00195513, -0.0108819
0.0912683, 1.69321, -1.22741, -1.53995, -0.900311, -1.19352, 1.22974, -1.30266, 0.0450347, -0.0040569, -0.025977, 0.00595256, -0.0637796, 0.0250745, -0.000319539, 1.68189, 62.7121, 30.4322, 6.24786, 1.70581, 3.89804, -0.00267457, 0.000289788, -0.000723276, 0.00193203, 0.00208324, -0.00102098, -0.000554458, 0.0212588, -0.0181126, -0.0126659, -0.0320601, 0.0718575, 0.00745558, 0.470957, -0.542903, 0.336021, -2.08362, -2.16575, -0.129923, 0.470154, -0.542349, 0.33418, -2.08246, -2.16611, -0.126633, -0.0018684, 0.0179404, 0.00463942, 0.0165229, -0.000352336, -0.011718
0.0922683, 1.69326, -1.22741, -1.53998, -0.9003, -1.19359, 1.22976, -1.30266, 0.0460483, -0.00353973, -0.0234128, 0.00769874, -0.0653607, 0.0221051, 0.00126157, 1.68189, 62.7478, 30.4679, 6.24786, 1.68201, 3.93374, -0.0420422, 0.000268968, -0.000705211, 0.00194433, 0.00211947, -0.00109247, -0.000552009, 0.0211829, -0.0180416, -0.0115605, -0.032339, 0.0721239, 0.00607616, 0.470955, -0.542885, 0.336026, -2.08361, -2.16574, -0.129924, 0.470171, -0.542349, 0.334169, -2.08247, -2.16613, -0.126521, -0.00191155, 0.0183626, 0.00474577, 0.0164461, -2.83198e-05, -0.0105064
0.0932683, 1.69331, -1.22742, -1.54001, -0.900299, -1.19366, 1.22977, -1.30265, 0.0502309, -0.00412299, -0.0294952, 0.00639599, -0.0626645, 0.0161377, 0.00159944, 1.68189, 62.8232, 30.579, 6.35895, 1.66919, 3.94839, -0.0621838, 0.000250274, -0.000684444, 0.00196205, 0.00216783, -0.00116459, -0.000560472, 0.0195421, -0.0188561, -0.0150232, -0.0428256, 0.0672411, 0.00903331, 0.470953, -0.542867, 0.336031, -2.0836, -2.16574, -0.129926, 0.47019, -0.542345, 0.334153, -2.08246, -2.16616, -0.126397, -0.00195511, 0.0187891, 0.00485308, 0.0170317, 0.0025851, -0.013588
0.0942683, 1.69336, -1.22742, -1.54003, -0.900295, -1.19373, 1.22979, -1.30265, 0.0460332, -0.00451185, -0.0254725, 0.00424253, -0.0698549, 0.0161111, 9.22506e-05, 1.72157, 62.8986, 30.4679, 6.39465, 1.65088, 3.96945, -0.0356336, 0.000230188, -0.000666014, 0.00197471, 0.0022088, -0.00123823, -0.000567684, 0.0218322, -0.0169144, -0.0139398, -0.0430017, 0.0727399, 0.00785989, 0.470951, -0.542848, 0.336035, -2.08359, -2.16574, -0.129927, 0.470206, -0.542344, 0.334142, -2.08246, -2.16619, -0.126279, -0.00199908, 0.0192197, 0.00496136, 0.0151698, 0.000508572, -0.0127073
0.0952683, 1.69341, -1.22742, -1.54007, -0.900286, -1.19381, 1.22981, -1.30265, 0.0470203, -0.00207984, -0.03096, 0.0065905, -0.0707061, 0.0169786, 6.84774e-05, 1.72157, 62.8589, 30.579, 6.39465, 1.63257, 3.96945, -0.0356336, 0.000206563, -0.000649344, 0.00198762, 0.00225761, -0.00132215, -0.000564952, 0.0237111, -0.0160249, -0.0141412, -0.0461938, 0.0766931, 0.00387948, 0.470949, -0.542829, 0.33604, -2.08358, -2.16573, -0.129929, 0.470221, -0.542345, 0.33413, -2.08247, -2.16621, -0.126141, -0.00204344, 0.0196547, 0.0050706, 0.014297, -0.000916552, -0.0130623
0.0962683, 1.69347, -1.22741, -1.54009, -0.900284, -1.19389, 1.22982, -1.30266, 0.0488247, -0.000551316, -0.0299585, 0.00647117, -0.0720812, 0.017709, -0.0018819, 1.68189, 62.8232, 30.4679, 6.47003, 1.63898, 3.96945, 0.0165515, 0.000189656, -0.000626427, 0.00199473, 0.00229966, -0.001411, -0.000585964, 0.0233209, -0.0172216, -0.0129718, -0.0454459, 0.0799227, 0.00775126, 0.470947, -0.542809, 0.336045, -2.08357, -2.16573, -0.12993, 0.470242, -0.54234, 0.334124, -2.08246, -2.16627, -0.126007, -0.0020882, 0.0200938, 0.00518077, 0.0154759, -0.000223275, -0.0117733
0.0972683, 1.69351, -1.22742, -1.54012, -0.900275, -1.19397, 1.22984, -1.30266, 0.0505654, -0.00213076, -0.0266704, 0.00906018, -0.0716313, 0.0178571, -0.00172539, 1.75727, 62.8986, 30.5036, 6.43433, 1.61426, 3.97677, 0.0293689, 0.000162972, -0.000612431, 0.00201136, 0.00234818, -0.00148572, -0.000582232, 0.0231608, -0.0183366, -0.0124928, -0.0413228, 0.0778879, 0.00884446, 0.470945, -0.542789, 0.336051, -2.08357, -2.16572, -0.129932, 0.470255, -0.542343, 0.334109, -2.08247, -2.16628, -0.125879, -0.00213335, 0.0205371, 0.00529189, 0.0165558, 0.000350152, -0.0111983
0.0982683, 1.69357, -1.22742, -1.54015, -0.900273, -1.19405, 1.22985, -1.30266, 0.0515736, -0.000492471, -0.0293981, 0.00606435, -0.0773817, 0.0184928, -0.000909958, 1.72157, 62.8589, 30.5036, 6.47003, 1.61426, 3.96945, 0.0229602, 0.000142748, -0.000592806, 0.00202356, 0.00240018, -0.00156925, -0.000590853, 0.023902, -0.01856, -0.0129442, -0.0471834, 0.0852462, 0.00843231, 0.470943, -0.542768, 0.336056, -2.08356, -2.16572, -0.129933, 0.470272, -0.54234, 0.334098, -2.08247, -2.16631, -0.125739, -0.0021789, 0.0209845, 0.00540394, 0.0167435, 0.000144801, -0.0116542
0.0992683, 1.69362, -1.22741, -1.54018, -0.900268, -1.19413, 1.22985, -1.30266, 0.0552358, 0.00134213, -0.0323186, 0.00780784, -0.0766811, 0.0133472, 0.000616272, 1.68189, 62.7875, 30.5433, 6.47003, 1.60785, 3.9841, -0.00999879, 0.000120586, -0.00057631, 0.00203415, 0.00246057, -0.00165803, -0.000590214, 0.0230186, -0.0188435, -0.0133409, -0.0533796, 0.0843404, 0.0078276, 0.470941, -0.542747, 0.336061, -2.08355, -2.16572, -0.129935, 0.470287, -0.542338, 0.334089, -2.08247, -2.16634, -0.125583, -0.00222483, 0.0214361, 0.00551691, 0.0169347, 0.00154144, -0.0118045
0.100268, 1.69367, -1.22742, -1.5402, -0.900269, -1.19421, 1.22986, -1.30265, 0.0520473, -0.000775671, -0.0277888, 0.00732745, -0.0769346, 0.00979779, 0.0015993, 1.64619, 62.8589, 30.4322, 6.54541, 1.62067, 3.99142, -0.0420422, 9.94341e-05, -0.000557121, 0.0020496, 0.00251371, -0.00173526, -0.000598334, 0.0236998, -0.0173521, -0.0132294, -0.0524463, 0.0805579, 0.00628238, 0.470939, -0.542726, 0.336067, -2.08354, -2.16571, -0.129936, 0.470304, -0.542335, 0.334075, -2.08246, -2.16636, -0.125449, -0.00227115, 0.0218918, 0.0056308, 0.0154272, 0.00124653, -0.0116414
0.101268, 1.69373, -1.22741, -1.54023, -0.900263, -1.1943, 1.22987, -1.30265, 0.0557087, 0.00115333, -0.02184, 0.00653962, -0.0805804, 0.00717269, 0.0013048, 1.60651, 62.7875, 30.4679, 6.5097, 1.60785, 3.99783, -0.0484509, 7.51108e-05, -0.000541444, 0.00206235, 0.00257575, -0.00182257, -0.00059837, 0.0213397, -0.0197363, -0.0105558, -0.0519071, 0.0841942, 0.0125234, 0.470936, -0.542704, 0.336072, -2.08353, -2.16571, -0.129938, 0.470318, -0.542334, 0.334064, -2.08246, -2.16638, -0.125293, -0.00231785, 0.0223516, 0.00574559, 0.0177741, 0.00372204, -0.00859249
0.102268, 1.69378, -1.22742, -1.54026, -0.900264, -1.19438, 1.22987, -1.30265, 0.0498534, -0.000901545, -0.0226134, 0.00413911, -0.0798463, 0.00435536, 0.000158721, 1.53114, 62.8589, 30.4679, 6.54541, 1.62067, 4.02713, -0.0292249, 5.14381e-05, -0.000525008, 0.00208068, 0.00264302, -0.00190214, -0.000607163, 0.0236247, -0.0164865, -0.0123492, -0.0550098, 0.0804613, 0.00994015, 0.470934, -0.542682, 0.336078, -2.08351, -2.1657, -0.12994, 0.470332, -0.542332, 0.334048, -2.08245, -2.16641, -0.12514, -0.00236493, 0.0228154, 0.00586128, 0.0144982, 0.00207348, -0.0105045
0.103268, 1.69383, -1.22741, -1.54029, -0.900262, -1.19447, 1.22987, -1.30265, 0.0539137, 0.00106941, -0.0224819, 0.00229232, -0.0832128, 0.00339756, 0.000818589, 1.49146, 62.7875, 30.4322, 6.58508, 1.61426, 4.02713, -0.0484509, 2.7771e-05, -0.000509699, 0.00209026, 0.00270403, -0.001992, -0.000609039, 0.0221065, -0.0186411, -0.0117347, -0.0585364, 0.0852288, 0.013851, 0.470932, -0.542659, 0.336084, -2.0835, -2.1657, -0.129941, 0.470346, -0.54233, 0.33404, -2.08245, -2.16643, -0.124983, -0.00241239, 0.0232833, 0.00597787, 0.0165704, 0.00403397, -0.00961081
0.104268, 1.69387, -1.2274, -1.54031, -0.900256, -1.19456, 1.22987, -1.30265, 0.053477, 0.0033114, -0.0223513, 0.00363715, -0.0857902, 0.0021269, -0.000403186, 1.45576, 62.6764, 30.3925, 6.5097, 1.62067, 4.04086, -0.0228162, -1.56002e-07, -0.000498793, 0.00209821, 0.00276591, -0.00208536, -0.00060277, 0.0233269, -0.0175874, -0.0103079, -0.0597382, 0.089043, 0.0126637, 0.470929, -0.542636, 0.33609, -2.08349, -2.16569, -0.129943, 0.470355, -0.542333, 0.334033, -2.08246, -2.16645, -0.124821, -0.00246022, 0.0237552, 0.00609534, 0.0155658, 0.00303811, -0.00824264
0.105268, 1.69392, -1.2274, -1.54034, -0.900258, -1.19464, 1.22987, -1.30266, 0.0517643, 0.00304282, -0.0232348, 0.000920802, -0.0878262, 0.00220442, -0.00196382, 1.34071, 62.6407, 30.3925, 6.58508, 1.62067, 4.02713, 0.0229602, -2.40722e-05, -0.000482597, 0.00211187, 0.00283054, -0.00217067, -0.000617263, 0.0243923, -0.0168993, -0.0110967, -0.062345, 0.0909625, 0.0138569, 0.470927, -0.542612, 0.336096, -2.08348, -2.16569, -0.129945, 0.470369, -0.54233, 0.334022, -2.08244, -2.16648, -0.124666, -0.00250842, 0.0242312, 0.00621369, 0.0148398, 0.00255582, -0.00904817
0.106268, 1.69397, -1.2274, -1.54036, -0.90026, -1.19473, 1.22987, -1.30266, 0.0496905, 0.00202855, -0.0220669, -2.6894e-05, -0.0848392, -0.00802451, -0.00107156, 1.26533, 62.6407, 30.3211, 6.62079, 1.62616, 4.02713, 0.0165515, -4.85883e-05, -0.000467393, 0.00212484, 0.00289503, -0.00225487, -0.000624185, 0.0237266, -0.0146665, -0.0122405, -0.0689448, 0.0826316, 0.0133482, 0.470924, -0.542588, 0.336102, -2.08347, -2.16568, -0.129946, 0.470382, -0.542327, 0.334011, -2.08243, -2.16651, -0.124511, -0.00255699, 0.0247111, 0.00633291, 0.0124959, 0.00377791, -0.00988741
0.107268, 1.69402, -1.22739, -1.5404, -0.900258, -1.19482, 1.22987, -1.30266, 0.0457749, 0.00395082, -0.0238786, -0.000707305, -0.082574, -0.00627319, -0.000714152, 1.15424, 62.5296, 30.3568, 6.65649, 1.63257, 4.03445, 0.0165515, -7.75289e-05, -0.000456504, 0.00213441, 0.00296378, -0.00235126, -0.000619837, 0.0256952, -0.0128754, -0.0115264, -0.0674101, 0.0838547, 0.00961602, 0.470922, -0.542563, 0.336109, -2.08346, -2.16568, -0.129948, 0.470391, -0.542329, 0.334003, -2.08244, -2.16653, -0.124339, -0.00260593, 0.0251949, 0.006453, 0.0107547, 0.00213499, -0.00931431
0.108268, 1.69407, -1.22738, -1.54042, -0.900262, -1.19491, 1.22987, -1.30265, 0.0427505, 0.0035619, -0.023493, 5.83343e-05, -0.0851068, -0.00517993, 0.0016942, 1.03919, 62.4899, 30.3211, 6.77154, 1.62616, 4.04819, -0.0420422, -0.000103067, -0.000442198, 0.00214514, 0.00302811, -0.00244025, -0.000619518, 0.0283411, -0.0110312, -0.0112942, -0.0664043, 0.0861455, 0.00294162, 0.470919, -0.542538, 0.336115, -2.08345, -2.16567, -0.12995, 0.470403, -0.542327, 0.333995, -2.08244, -2.16655, -0.124179, -0.00265523, 0.0256827, 0.00657393, 0.00896689, -0.000100534, -0.00931989
0.109269, 1.69411, -1.22738, -1.54045, -0.900264, -1.19501, 1.22986, -1.30265, 0.0428628, 0.00404504, -0.0217409, -0.00045498, -0.0875485, -0.00490525, 0.000892234, 0.963814, 62.4185, 30.3568, 6.80725, 1.63898, 4.07748, -0.0356336, -0.000132204, -0.000431375, 0.00215723, 0.00310223, -0.00253372, -0.000618314, 0.0287465, -0.0113178, -0.01048, -0.0658909, 0.0889443, 0.00436409, 0.470916, -0.542512, 0.336122, -2.08343, -2.16567, -0.129952, 0.470412, -0.542327, 0.333984, -2.08243, -2.16657, -0.124004, -0.00270489, 0.0261745, 0.00669572, 0.00924752, -0.000122604, -0.0084663
0.110269, 1.69416, -1.22738, -1.54047, -0.900261, -1.1951, 1.22985, -1.30265, 0.0445786, 0.00269669, -0.0201807, -4.73087e-05, -0.0928817, -0.00459649, 0.00106963, 0.813057, 62.4185, 30.2457, 6.80725, 1.63257, 4.10586, -0.0484509, -0.00016083, -0.000418851, 0.00216692, 0.00316178, -0.00262117, -0.000614293, 0.0295033, -0.011979, -0.0107631, -0.0668264, 0.0922926, 0.00456147, 0.470914, -0.542486, 0.336128, -2.08342, -2.16566, -0.129954, 0.470422, -0.542328, 0.333977, -2.08244, -2.16658, -0.123851, -0.00275491, 0.0266701, 0.00681835, 0.00987468, -0.00030305, -0.00876129
0.111269, 1.6942, -1.22737, -1.54049, -0.900268, -1.19519, 1.22985, -1.30265, 0.0459051, 0.00672277, -0.0194824, 0.000795007, -0.0942357, -0.00381324, -0.000236276, 0.6623, 62.3431, 30.2814, 6.91833, 1.66369, 4.12051, -0.0228162, -0.000188393, -0.000405793, 0.00217677, 0.003233, -0.0027184, -0.00062409, 0.0295037, -0.0126096, -0.00806967, -0.0655265, 0.0979733, 0.00629128, 0.470911, -0.542459, 0.336135, -2.08341, -2.16566, -0.129956, 0.470433, -0.542326, 0.333969, -2.08243, -2.16662, -0.123676, -0.00280528, 0.0271696, 0.00694181, 0.0105521, -0.000193403, -0.00599808
0.112269, 1.69424, -1.22736, -1.54051, -0.900268, -1.19528, 1.22985, -1.30266, 0.0426016, 0.008179, -0.0146887, 1.54072e-05, -0.0890083, -0.0029343, -0.00185289, 0.551216, 62.1964, 30.2814, 6.95801, 1.65729, 4.12692, 0.0229602, -0.000218962, -0.000395161, 0.002182, 0.00329153, -0.00281593, -0.00062419, 0.0291811, -0.012533, -0.00541674, -0.0577719, 0.0954702, 0.00939021, 0.470908, -0.542432, 0.336142, -2.0834, -2.16565, -0.129958, 0.470442, -0.542328, 0.333966, -2.08243, -2.16664, -0.123514, -0.00285601, 0.0276729, 0.00706609, 0.0105099, 0.000216266, -0.00320226
0.113269, 1.69429, -1.22735, -1.54054, -0.900273, -1.19538, 1.22984, -1.30266, 0.0420746, 0.00565028, -0.0167743, 0.00174579, -0.090853, -0.00234355, -0.00147258, 0.360787, 62.1964, 30.3925, 7.02942, 1.6756, 4.13424, 0.0293689, -0.00025011, -0.000384052, 0.0021947, 0.00336267, -0.00290889, -0.000626461, 0.031549, -0.0114635, -0.00736184, -0.0591541, 0.0949821, 0.00545, 0.470905, -0.542404, 0.336149, -2.08338, -2.16565, -0.12996, 0.470451, -0.542328, 0.333955, -2.08243, -2.16666, -0.123343, -0.00290708, 0.0281801, 0.00719119, 0.00940482, -0.00135778, -0.00533391
0.114269, 1.69433, -1.22734, -1.54056, -0.900275, -1.19547, 1.22984, -1.30266, 0.0423901, 0.00558549, -0.0196524, -0.000108835, -0.0863897, -0.00246323, -0.000506971, 0.134651, 62.1249, 30.4322, 7.1048, 1.66919, 4.15622, 0.0165515, -0.000278127, -0.000369411, 0.00220244, 0.00342496, -0.00300378, -0.000631897, 0.0310934, -0.0120617, -0.00874907, -0.0605272, 0.0918228, 0.00657475, 0.470902, -0.542376, 0.336156, -2.08337, -2.16564, -0.129962, 0.470463, -0.542326, 0.33395, -2.08242, -2.16669, -0.12318, -0.0029585, 0.0286911, 0.00731711, 0.00988403, -0.000158288, -0.00652542
0.115269, 1.69437, -1.22734, -1.54057, -0.900277, -1.19556, 1.22984, -1.30265, 0.0437961, 0.00216438, -0.0166463, -0.000632671, -0.0879769, -0.00143619, 0.000374119, -0.0161054, 62.1964, 30.3925, 7.14447, 1.6756, 4.14889, -0.00267457, -0.00030993, -0.000357645, 0.00221225, 0.00348061, -0.00309158, -0.000627776, 0.0309567, -0.0136044, -0.00979447, -0.058395, 0.0903783, 0.00856506, 0.470899, -0.542347, 0.336164, -2.08336, -2.16563, -0.129964, 0.470473, -0.542327, 0.333942, -2.08243, -2.16671, -0.123031, -0.00301027, 0.0292059, 0.00744383, 0.01133, 0.00071633, -0.00745695
0.116269, 1.69441, -1.22733, -1.54058, -0.900282, -1.19565, 1.22983, -1.30265, 0.0448127, 0.00623182, -0.0156012, -0.00181629, -0.0895945, -0.00100643, 0.00170749, -0.166862, 62.1249, 30.3925, 7.21588, 1.68201, 4.14889, -0.0420422, -0.000340811, -0.000346074, 0.00221769, 0.00353826, -0.00318752, -0.000624803, 0.0304525, -0.0144808, -0.00725073, -0.0581197, 0.0963013, 0.00920246, 0.470896, -0.542318, 0.336171, -2.08334, -2.16563, -0.129966, 0.470482, -0.542327, 0.333939, -2.08244, -2.16673, -0.122872, -0.00306237, 0.0297245, 0.00757134, 0.0122276, 0.0013764, -0.00476649
0.117269, 1.69445, -1.22732, -1.54059, -0.90029, -1.19574, 1.22983, -1.30265, 0.0446994, 0.00706845, -0.0141012, -0.00369517, -0.0909058, -0.00566669, 0.00113834, -0.281914, 62.0139, 30.3568, 7.33093, 1.69391, 4.15622, -0.0420422, -0.000371393, -0.000335035, 0.00221986, 0.00359488, -0.00328793, -0.000628227, 0.0298682, -0.0141195, -0.00693088, -0.0621631, 0.0962328, 0.0116056, 0.470893, -0.542288, 0.336179, -2.08333, -2.16562, -0.129968, 0.470491, -0.542326, 0.333939, -2.08244, -2.16677, -0.12271, -0.00311481, 0.0302468, 0.00769965, 0.0118051, 0.00241143, -0.00422093
0.118269, 1.69449, -1.22732, -1.54062, -0.900292, -1.19583, 1.22982, -1.30265, 0.0451085, 0.00327845, -0.0132194, -0.00230824, -0.0917943, -0.00470462, 0.000521544, -0.392998, 62.0853, 30.4679, 7.33093, 1.70032, 4.16995, -0.0356336, -0.000406768, -0.000326724, 0.00223201, 0.00365716, -0.00337291, -0.000623777, 0.0310861, -0.0143754, -0.00863425, -0.0605935, 0.0937602, 0.011657, 0.47089, -0.542258, 0.336186, -2.08331, -2.16562, -0.129971, 0.470497, -0.542329, 0.333929, -2.08244, -2.16678, -0.122556, -0.00316759, 0.0307728, 0.00782873, 0.0119895, 0.00200886, -0.00597143
0.119269, 1.69453, -1.22732, -1.54062, -0.900301, -1.19592, 1.22981, -1.30265, 0.0470391, 0.00236308, -0.0120608, -0.0103793, -0.0878755, -0.00372132, -0.000601733, -0.583427, 62.0853, 30.4322, 7.44202, 1.71222, 4.17727, -0.00999879, -0.000435401, -0.000311474, 0.00223912, 0.00371121, -0.00346112, -0.000638681, 0.0275465, -0.0181379, -0.00994669, -0.0609935, 0.0910835, 0.0236881, 0.470887, -0.542227, 0.336194, -2.0833, -2.16561, -0.129973, 0.47051, -0.542324, 0.333925, -2.08243, -2.16682, -0.122411, -0.0032207, 0.0313025, 0.00795859, 0.0155191, 0.00639017, -0.00670153
0.120269, 1.69457, -1.22731, -1.54063, -0.900308, -1.19601, 1.22981, -1.30265, 0.0463801, 0.00254368, -0.0120236, -0.00912536, -0.0888603, -0.00713443, -0.000672417, -0.694511, 62.0496, 30.4322, 7.51739, 1.70032, 4.16995, -0.00267457, -0.00046623, -0.000298998, 0.00224441, 0.00376679, -0.00355278, -0.000646421, 0.0285774, -0.0167906, -0.00995825, -0.0635654, 0.0905212, 0.0217318, 0.470884, -0.542196, 0.336202, -2.08328, -2.1656, -0.129975, 0.47052, -0.542322, 0.333923, -2.08242, -2.16685, -0.122259, -0.00327414, 0.031836, 0.00808922, 0.0141567, 0.00585261, -0.00670222
0.121269, 1.6946, -1.2273, -1.54065, -0.900312, -1.1961, 1.2298, -1.30266, 0.0419978, 0.0017956, -0.012867, -0.00725071, -0.0854231, -0.00508615, -0.00139771, -0.76989, 62.0496, 30.4679, 7.5531, 1.70032, 4.16354, 0.0229602, -0.00050293, -0.00029115, 0.00225057, 0.00382069, -0.0036451, -0.000647652, 0.0314142, -0.0145761, -0.0100714, -0.059317, 0.0879911, 0.0172942, 0.470881, -0.542164, 0.33621, -2.08327, -2.1656, -0.129978, 0.470526, -0.542325, 0.333919, -2.08242, -2.16688, -0.122108, -0.00332791, 0.0323731, 0.00822061, 0.011989, 0.00351602, -0.00705715
0.122269, 1.69464, -1.22729, -1.54065, -0.900317, -1.19619, 1.2298, -1.30266, 0.0427003, 0.00210714, -0.011773, -0.00601077, -0.0872392, -0.00354492, -0.000931804, -0.884941, 62.0139, 30.4322, 7.59277, 1.70032, 4.15622, 0.0229602, -0.000536519, -0.000278963, 0.00225391, 0.00387247, -0.0037437, -0.000649266, 0.0322879, -0.0149949, -0.00927053, -0.0572457, 0.0906693, 0.0163979, 0.470877, -0.542132, 0.336219, -2.08325, -2.16559, -0.12998, 0.470536, -0.542325, 0.333918, -2.08243, -2.16691, -0.121953, -0.00338201, 0.0329138, 0.00835276, 0.0124137, 0.00308815, -0.00628352
0.123269, 1.69468, -1.22728, -1.54066, -0.90032, -1.19628, 1.2298, -1.30266, 0.0462921, 0.00238892, -0.0120034, -0.00728131, -0.0841948, -0.00652152, -0.000858559, -1.11108, 61.9742, 30.4322, 7.59277, 1.70032, 4.13424, 0.0293689, -0.000568162, -0.000262944, 0.00225715, 0.00392174, -0.00384206, -0.000658156, 0.0299826, -0.0170805, -0.0098598, -0.0596355, 0.0875035, 0.0219238, 0.470874, -0.542099, 0.336227, -2.08324, -2.16558, -0.129982, 0.470549, -0.542322, 0.333918, -2.08243, -2.16695, -0.121802, -0.00343642, 0.0334582, 0.00848565, 0.0143379, 0.00608513, -0.00643764
0.124269, 1.69471, -1.22728, -1.54066, -0.900325, -1.19637, 1.22979, -1.30265, 0.0433308, 0.00387342, -0.0112484, -0.00919474, -0.0860094, -0.00497473, 0.000614424, -1.11108, 62.0139, 30.3925, 7.62848, 1.68201, 4.13424, -0.00267457, -0.000605796, -0.000254815, 0.00226212, 0.00396774, -0.00393125, -0.000652201, 0.0315193, -0.0160685, -0.00873313, -0.0586803, 0.0915392, 0.0189816, 0.47087, -0.542066, 0.336235, -2.08322, -2.16557, -0.129985, 0.470555, -0.542325, 0.333915, -2.08244, -2.16697, -0.121662, -0.00349116, 0.0340062, 0.00861928, 0.0133688, 0.00490083, -0.00540054
0.125269, 1.69476, -1.22727, -1.54068, -0.900329, -1.19647, 1.22978, -1.30265, 0.0426491, 0.00602959, -0.0111152, -0.00752203, -0.0876413, -0.00246434, 0.00186768, -1.30151, 62.0139, 30.5036, 7.66418, 1.66919, 4.09854, -0.0420422, -0.000639221, -0.000240052, 0.00227003, 0.00402782, -0.00402621, -0.000654695, 0.0332396, -0.0156097, -0.00696871, -0.0559399, 0.0963717, 0.0151204, 0.470867, -0.542032, 0.336244, -2.0832, -2.16557, -0.129987, 0.470567, -0.542322, 0.333911, -2.08244, -2.16699, -0.121502, -0.00354621, 0.0345577, 0.00875364, 0.0129817, 0.00346318, -0.00377853
0.126269, 1.69479, -1.22727, -1.54068, -0.900334, -1.19656, 1.22978, -1.30265, 0.0384061, 0.00450398, -0.00967476, -0.00951475, -0.0846741, -0.00172434, 0.000295684, -1.33721, 62.0139, 30.4322, 7.70386, 1.66919, 4.09122, -0.0164075, -0.000675278, -0.000228725, 0.00227421, 0.00407447, -0.0041181, -0.000661044, 0.0344394, -0.0144627, -0.00739145, -0.052966, 0.093007, 0.0160079, 0.470863, -0.541997, 0.336253, -2.08319, -2.16556, -0.12999, 0.470576, -0.542322, 0.333909, -2.08243, -2.16702, -0.12136, -0.00360158, 0.0351128, 0.00888872, 0.0118085, 0.00285226, -0.00421325
0.127269, 1.69484, -1.22726, -1.54068, -0.90034, -1.19666, 1.22978, -1.30265, 0.0411892, 0.00649927, -0.00858008, -0.0117894, -0.0868368, -0.00486768, 0.000434483, -1.48797, 62.0139, 30.3568, 7.77924, 1.66919, 4.05551, -0.0228162, -0.000708707, -0.000211817, 0.00227607, 0.00411703, -0.00421866, -0.000672497, 0.0327875, -0.0159062, -0.00660863, -0.0569614, 0.0957185, 0.020414, 0.47086, -0.541962, 0.336262, -2.08317, -2.16555, -0.129992, 0.470591, -0.542319, 0.333911, -2.08243, -2.16707, -0.121215, -0.00365725, 0.0356715, 0.00902453, 0.0131638, 0.00498033, -0.00309193
0.128269, 1.69487, -1.22726, -1.54068, -0.90034, -1.19675, 1.22977, -1.30265, 0.0383039, 0.00486636, -0.00743761, -0.00762262, -0.0883329, -0.00306163, -0.00045633, -1.56335, 62.0139, 30.3925, 7.73956, 1.66919, 4.03445, -0.00267457, -0.000748057, -0.000201467, 0.00228189, 0.00416653, -0.00431189, -0.000672274, 0.0362847, -0.0137885, -0.0063166, -0.0526959, 0.0959591, 0.0149361, 0.470856, -0.541926, 0.336271, -2.08315, -2.16554, -0.129995, 0.470598, -0.542321, 0.333907, -2.08244, -2.1671, -0.121068, -0.00371324, 0.0362337, 0.00916105, 0.0111291, 0.00195836, -0.00314771
0.12927, 1.69492, -1.22725, -1.54069, -0.900344, -1.19685, 1.22977, -1.30266, 0.0371784, 0.00364438, -0.00562016, -0.00652804, -0.0897723, -0.00646018, -0.00172837, -1.6784, 62.0139, 30.3925, 7.77924, 1.66919, 4.01248, 0.0357776, -0.000784474, -0.00018657, 0.0022854, 0.00421354, -0.00441208, -0.000683484, 0.0373609, -0.0125083, -0.00652039, -0.0540272, 0.0942752, 0.0145895, 0.470852, -0.54189, 0.33628, -2.08314, -2.16554, -0.129998, 0.470611, -0.542319, 0.333907, -2.08243, -2.16714, -0.120918, -0.00376953, 0.0367994, 0.00929827, 0.00982558, 0.00144065, -0.00334089
0.13027, 1.69496, -1.22725, -1.54068, -0.900348, -1.19694, 1.22976, -1.30266, 0.0353195, 0.00189447, -0.00340787, -0.00557595, -0.090595, -0.00449853, -0.00115225, -1.75378, 62.0496, 30.3568, 7.81494, 1.66369, 3.99783, 0.0357776, -0.000820873, -0.000172132, 0.00229044, 0.00425963, -0.00450492, -0.000695177, 0.039125, -0.01198, -0.00640739, -0.0500619, 0.0941768, 0.0122166, 0.470849, -0.541853, 0.336289, -2.08312, -2.16553, -0.13, 0.470622, -0.542317, 0.333905, -2.08243, -2.16718, -0.120777, -0.00382613, 0.0373685, 0.00943618, 0.00930896, 0.000229494, -0.00335071
0.13127, 1.69499, -1.22726, -1.54069, -0.900347, -1.19704, 1.22976, -1.30266, 0.0386427, 0.00193185, -0.00440739, -0.00317361, -0.0916555, -0.00689518, -0.000768165, -1.75378, 62.1606, 30.4322, 7.77924, 1.66369, 3.95572, 0.0357776, -0.000864009, -0.000160954, 0.00230129, 0.00430448, -0.00459272, -0.000689388, 0.0391144, -0.0126094, -0.00683318, -0.0527617, 0.0941553, 0.0122165, 0.470845, -0.541816, 0.336299, -2.0831, -2.16552, -0.130003, 0.470631, -0.54232, 0.333897, -2.08244, -2.1672, -0.12064, -0.00388303, 0.0379411, 0.00957479, 0.00986473, 0.00090456, -0.00365074
0.132271, 1.69503, -1.22725, -1.54069, -0.900352, -1.19714, 1.22975, -1.30265, 0.0397374, 0.00254544, -0.00321744, -0.0031696, -0.0967173, -0.00514732, 0.000912044, -1.82915, 62.1249, 30.4322, 7.81494, 1.66369, 3.94839, -0.00267457, -0.00090116, -0.000146493, 0.00230518, 0.00435252, -0.00468923, -0.000692678, 0.0400981, -0.0132104, -0.0059913, -0.052541, 0.100036, 0.0105363, 0.470841, -0.541778, 0.336308, -2.08308, -2.16551, -0.130006, 0.470643, -0.542317, 0.333896, -2.08244, -2.16723, -0.120492, -0.00394022, 0.0385172, 0.00971408, 0.0104739, 0.00040451, -0.00285259
0.133271, 1.69508, -1.22725, -1.54068, -0.900357, -1.19723, 1.22975, -1.30265, 0.0407633, 0.00201371, -0.00142632, -0.00311227, -0.095274, -0.00350536, 0.00159137, -1.90453, 62.1249, 30.3925, 7.85065, 1.63898, 3.93374, -0.0292249, -0.00093742, -0.000128437, 0.00230942, 0.00439001, -0.00478245, -0.000703343, 0.0398147, -0.0146004, -0.00561874, -0.0489259, 0.0993423, 0.0122245, 0.470837, -0.541739, 0.336318, -2.08306, -2.1655, -0.130009, 0.470658, -0.542313, 0.333896, -2.08244, -2.16727, -0.12036, -0.00399771, 0.0390967, 0.00985405, 0.0118081, 0.00126364, -0.00234386
0.134271, 1.69512, -1.22726, -1.54068, -0.900355, -1.19732, 1.22974, -1.30265, 0.0365619, 0.00235064, -0.00110792, -0.000527398, -0.0941616, -0.00225664, 0.000348839, -1.90453, 62.2321, 30.3925, 7.77924, 1.61426, 3.9191, -0.00999879, -0.000979763, -0.000116087, 0.00231907, 0.00443143, -0.00486516, -0.000706146, 0.0428621, -0.0121084, -0.00466242, -0.0450267, 0.0992913, 0.00762245, 0.470833, -0.5417, 0.336328, -2.08305, -2.1655, -0.130011, 0.470667, -0.542314, 0.333889, -2.08243, -2.16729, -0.120233, -0.0040555, 0.0396796, 0.00999469, 0.00940617, -0.00141175, -0.00165845
0.135271, 1.69516, -1.22726, -1.54068, -0.900361, -1.19742, 1.22975, -1.30265, 0.0413957, 0.00201829, -2.11724e-05, -0.00127906, -0.0934567, -0.000528693, 0.000469918, -1.97991, 62.2321, 30.3568, 7.81494, 1.59595, 3.88339, -0.0164075, -0.00101777, -9.74367e-05, 0.00232443, 0.00446869, -0.00496022, -0.000718801, 0.0409337, -0.0156203, -0.00472719, -0.043246, 0.0996898, 0.013752, 0.470829, -0.541661, 0.336338, -2.08303, -2.16549, -0.130014, 0.470683, -0.54231, 0.333887, -2.08243, -2.16734, -0.120099, -0.00411357, 0.0402659, 0.010136, 0.0127838, 0.00123296, -0.00138881
0.136271, 1.6952, -1.22726, -1.54068, -0.900362, -1.19751, 1.22974, -1.30266, 0.0401107, 0.00168392, -0.000102448, -0.00316927, -0.0985143, 0.000167409, -0.00138214, -1.97991, 62.2321, 30.3568, 7.77924, 1.59595, 3.86233, 0.0293689, -0.00106076, -8.40364e-05, 0.00233013, 0.00450873, -0.00505506, -0.000725797, 0.0426727, -0.0149106, -0.00512295, -0.045668, 0.104277, 0.0143231, 0.470825, -0.54162, 0.336348, -2.08301, -2.16548, -0.130017, 0.470694, -0.542311, 0.333885, -2.08243, -2.16738, -0.119962, -0.00417194, 0.0408555, 0.0102779, 0.0120648, 0.00013826, -0.00188772
0.137271, 1.69524, -1.22726, -1.54068, -0.900363, -1.19761, 1.22974, -1.30266, 0.0401033, 0.00137641, -0.000969767, -0.00242161, -0.0974643, -0.00446484, -0.00214213, -2.01562, 62.2321, 30.3925, 7.77924, 1.59595, 3.84768, 0.0623279, -0.00110392, -6.92447e-05, 0.0023368, 0.00454963, -0.00515139, -0.000732816, 0.0430298, -0.0138992, -0.00595843, -0.0495125, 0.101115, 0.0143961, 0.470821, -0.541579, 0.336358, -2.08299, -2.16547, -0.13002, 0.470706, -0.542311, 0.333881, -2.08243, -2.16741, -0.119823, -0.00423059, 0.0414484, 0.0104206, 0.0109784, 0.000466418, -0.00259552
0.138271, 1.69527, -1.22727, -1.54068, -0.900365, -1.1977, 1.22974, -1.30266, 0.037727, -0.0014905, 0.000139019, -0.00496387, -0.096216, -0.00299062, -0.000444743, -1.94024, 62.3431, 30.3568, 7.77924, 1.58313, 3.83304, 0.0357776, -0.00114811, -5.61866e-05, 0.00234515, 0.00458611, -0.00523714, -0.000732877, 0.0438895, -0.0138318, -0.00739893, -0.047634, 0.0983478, 0.0136398, 0.470816, -0.541538, 0.336369, -2.08297, -2.16546, -0.130023, 0.470716, -0.542311, 0.333876, -2.08244, -2.16744, -0.119698, -0.00428952, 0.0420447, 0.0105638, 0.0108303, 0.000434361, -0.00400726
0.139271, 1.69532, -1.22727, -1.54068, -0.90037, -1.19779, 1.22974, -1.30265, 0.0373352, -0.00085091, 5.54136e-05, -0.00374276, -0.095662, -0.0016313, 0.000415581, -2.05529, 62.3431, 30.3568, 7.77924, 1.57764, 3.81198, 0.0165515, -0.00118679, -3.67657e-05, 0.00235217, 0.00462359, -0.00532496, -0.000746513, 0.0450307, -0.0136632, -0.00678759, -0.0454431, 0.0993973, 0.0115098, 0.470812, -0.541496, 0.336379, -2.08295, -2.16545, -0.130026, 0.470732, -0.542305, 0.333873, -2.08243, -2.16748, -0.119572, -0.00434873, 0.0426443, 0.0107077, 0.0106663, -0.000193737, -0.00343345
0.140271, 1.69536, -1.22726, -1.54068, -0.900369, -1.19788, 1.22974, -1.30265, 0.0372013, 0.00121023, 8.99309e-06, -0.00501017, -0.0959722, -0.000858082, 0.00149776, -2.05529, 62.2717, 30.3568, 7.73956, 1.60144, 3.79733, -0.0164075, -0.00123236, -2.25977e-05, 0.00235448, 0.0046552, -0.00542509, -0.00074369, 0.0452915, -0.0139711, -0.00573535, -0.0452229, 0.102511, 0.0112934, 0.470808, -0.541453, 0.33639, -2.08293, -2.16544, -0.130029, 0.470743, -0.542307, 0.333874, -2.08244, -2.16751, -0.119438, -0.00440822, 0.0432472, 0.0108522, 0.0109623, 2.0668e-06, -0.00230106
0.141271, 1.69539, -1.22727, -1.54067, -0.900379, -1.19797, 1.22974, -1.30265, 0.0360087, -0.00171133, 0.000820251, -0.00560702, -0.0959565, -0.0005356, 0.00025252, -2.01562, 62.3828, 30.3211, 7.81494, 1.61426, 3.79001, 0.00373412, -0.00127516, -6.89889e-06, 0.00236326, 0.00469144, -0.00551022, -0.000757468, 0.0464036, -0.0137325, -0.00720504, -0.0444499, 0.100016, 0.0123881, 0.470803, -0.54141, 0.336401, -2.08291, -2.16543, -0.130032, 0.470756, -0.542304, 0.333869, -2.08243, -2.16755, -0.119316, -0.00446799, 0.0438533, 0.0109973, 0.0106504, -0.000271859, -0.00377397
0.142271, 1.69543, -1.22727, -1.54068, -0.900385, -1.19805, 1.22974, -1.30265, 0.0364273, -0.00191588, -0.000304105, -0.00723366, -0.0956119, -0.000804444, 0.000405705, -2.01562, 62.4185, 30.3568, 7.81494, 1.61426, 3.79733, -0.00267457, -0.00131752, 1.01446e-05, 0.00237179, 0.00472904, -0.00559531, -0.00076812, 0.0465185, -0.0141647, -0.00804027, -0.0462262, 0.0999449, 0.0137054, 0.470799, -0.541366, 0.336412, -2.08288, -2.16542, -0.130036, 0.470769, -0.5423, 0.333864, -2.08242, -2.16759, -0.119193, -0.00452802, 0.0444627, 0.0111431, 0.0109956, 0.000371428, -0.00448495
0.143271, 1.69547, -1.22726, -1.54068, -0.900386, -1.19814, 1.22975, -1.30265, 0.0393558, 0.00136637, -0.00104975, -0.00360234, -0.0961056, 0.000111515, 0.000541738, -1.97991, 62.3074, 30.3925, 7.73956, 1.63898, 3.77627, -0.00999879, -0.00136385, 2.47993e-05, 0.00237326, 0.00475774, -0.00569443, -0.000769606, 0.0469615, -0.0149563, -0.00598482, -0.0446249, 0.104212, 0.0127467, 0.470794, -0.541322, 0.336423, -2.08286, -2.16541, -0.130039, 0.470781, -0.5423, 0.333866, -2.08243, -2.16762, -0.119064, -0.00458833, 0.0450753, 0.0112895, 0.0118174, 0.000261809, -0.00240365
0.144271, 1.69551, -1.22726, -1.54068, -0.900398, -1.19822, 1.22974, -1.30265, 0.0389746, 0.00178001, -0.000708674, -0.00540737, -0.0956416, -0.000533344, 0.000361158, -1.97991, 62.2717, 30.3925, 7.85065, 1.63898, 3.79001, -0.00999879, -0.00140451, 4.26381e-05, 0.00237959, 0.00479504, -0.00577966, -0.000783571, 0.0469599, -0.0151719, -0.00595339, -0.0452966, 0.104367, 0.0144926, 0.47079, -0.541277, 0.336434, -2.08284, -2.1654, -0.130042, 0.470795, -0.542293, 0.333864, -2.08242, -2.16766, -0.11894, -0.00464891, 0.0456911, 0.0114364, 0.0119732, 0.000883555, -0.00223303
0.145271, 1.69554, -1.22726, -1.54067, -0.900395, -1.19829, 1.22974, -1.30265, 0.0378927, -0.000458354, 0.000356136, -0.00358973, -0.0855845, 7.87671e-05, 0.00071549, -1.94024, 62.3431, 30.3568, 7.70386, 1.63898, 3.77627, -0.0228162, -0.00145209, 5.64049e-05, 0.00238689, 0.00481705, -0.00585458, -0.000786573, 0.046677, -0.015671, -0.00659377, -0.0381918, 0.0942445, 0.0154434, 0.470785, -0.541231, 0.336446, -2.08282, -2.16539, -0.130045, 0.470806, -0.542293, 0.333861, -2.08242, -2.16769, -0.118844, -0.00470975, 0.04631, 0.011584, 0.0123772, 0.00190183, -0.00268991
0.146271, 1.69557, -1.22727, -1.54068, -0.900407, -1.19836, 1.22974, -1.30265, 0.0361358, -0.00121453, -0.000602768, -0.00371692, -0.082924, -0.000274478, -0.00121843, -1.86486, 62.3828, 30.3925, 7.73956, 1.65088, 3.7836, 0.0229602, -0.00149668, 7.17617e-05, 0.00239676, 0.00484953, -0.00592976, -0.00080434, 0.0477685, -0.0148326, -0.00738391, -0.0378289, 0.0914689, 0.0162491, 0.47078, -0.541185, 0.336457, -2.0828, -2.16538, -0.130049, 0.470818, -0.542288, 0.333855, -2.0824, -2.16773, -0.118736, -0.00477085, 0.0469322, 0.0117321, 0.0114892, 0.00153453, -0.00346743
0.147271, 1.6956, -1.22726, -1.54068, -0.900409, -1.19843, 1.22974, -1.30266, 0.0318478, 0.000132623, -0.000405576, -0.00108112, -0.0812095, 4.64903e-05, -0.001287, -1.78948, 62.3431, 30.3925, 7.66418, 1.65729, 3.77627, 0.0357776, -0.00154472, 8.41757e-05, 0.00240007, 0.00486965, -0.0060087, -0.000808596, 0.0506283, -0.0121399, -0.00594792, -0.0344245, 0.0914964, 0.0104662, 0.470776, -0.541138, 0.336469, -2.08277, -2.16537, -0.130052, 0.470827, -0.542288, 0.333856, -2.0824, -2.16776, -0.118638, -0.00483222, 0.0475574, 0.0118809, 0.00889455, -0.000996022, -0.00226554
0.148271, 1.69563, -1.22726, -1.54068, -0.900421, -1.1985, 1.22975, -1.30265, 0.0317233, 9.91347e-05, -0.0012012, -0.00503778, -0.0749732, -3.50211e-07, -0.000383284, -1.7141, 62.3431, 30.4322, 7.70386, 1.65729, 3.77627, 0.0229602, -0.00159129, 9.91707e-05, 0.00240774, 0.0048955, -0.00608645, -0.000817566, 0.049085, -0.0135469, -0.00685282, -0.0339785, 0.0870536, 0.0146632, 0.470771, -0.54109, 0.336481, -2.08275, -2.16536, -0.130056, 0.470839, -0.542284, 0.333852, -2.0824, -2.16779, -0.118535, -0.00489384, 0.0481858, 0.0120302, 0.0101494, 0.00135429, -0.0028131
0.149271, 1.69566, -1.22726, -1.54068, -0.900429, -1.19856, 1.22974, -1.30265, 0.0312998, 0.000909347, 0.00229792, -0.00598354, -0.070825, 0.000518793, 0.000219195, -1.75378, 62.3074, 30.4322, 7.66418, 1.66919, 3.76163, 0.0101428, -0.00163522, 0.000116084, 0.00241203, 0.00491866, -0.00616267, -0.000830628, 0.0480679, -0.0147254, -0.00525463, -0.0287084, 0.0848804, 0.0175717, 0.470766, -0.541042, 0.336493, -2.08273, -2.16535, -0.130059, 0.470852, -0.542278, 0.333853, -2.08239, -2.16783, -0.118437, -0.00495572, 0.0488173, 0.01218, 0.0112868, 0.00279139, -0.000963996
0.150271, 1.69569, -1.22726, -1.54068, -0.900442, -1.19862, 1.22974, -1.30265, 0.0292468, 0.000612261, 0.000953556, -0.00459553, -0.0681489, -0.00461616, 0.00112947, -1.7141, 62.3074, 30.4679, 7.66418, 1.70032, 3.76163, -0.0164075, -0.00168154, 0.000130242, 0.00241943, 0.00494785, -0.00623639, -0.000839455, 0.0492938, -0.0124313, -0.00610468, -0.0320189, 0.0800814, 0.0137061, 0.470761, -0.540993, 0.336505, -2.0827, -2.16534, -0.130063, 0.470862, -0.542273, 0.33385, -2.08237, -2.16786, -0.118334, -0.00501785, 0.0494519, 0.0123305, 0.00894648, 0.00225314, -0.00177462
0.151271, 1.69572, -1.22726, -1.54068, -0.900449, -1.19869, 1.22974, -1.30265, 0.0314806, 0.00262931, 0.00314989, -0.00502234, -0.0651917, -0.00296016, 0.000515624, -1.7141, 62.3431, 30.5036, 7.59277, 1.70032, 3.74698, -0.00999879, -0.00172963, 0.0001457, 0.00242587, 0.00496636, -0.00631019, -0.000849954, 0.0477654, -0.0148071, -0.00422345, -0.0275129, 0.0807779, 0.0189599, 0.470756, -0.540944, 0.336517, -2.08268, -2.16533, -0.130066, 0.470874, -0.542269, 0.333848, -2.08237, -2.16789, -0.118243, -0.00508023, 0.0500896, 0.0124815, 0.0112712, 0.00420669, 0.000397962
0.152271, 1.69574, -1.22726, -1.54068, -0.900459, -1.19874, 1.22974, -1.30265, 0.0281889, 0.00108256, 0.00250745, -0.00924938, -0.0641001, -0.00229238, -0.000876954, -1.63873, 62.3828, 30.5036, 7.5531, 1.73053, 3.74698, 0.0229602, -0.00177962, 0.000157454, 0.0024322, 0.00498361, -0.00637783, -0.000859722, 0.0487675, -0.0141058, -0.00576436, -0.0284802, 0.0793106, 0.0209519, 0.470751, -0.540894, 0.33653, -2.08266, -2.16532, -0.13007, 0.470883, -0.542267, 0.333846, -2.08236, -2.16792, -0.11816, -0.00514285, 0.0507303, 0.012633, 0.0104877, 0.00406816, -0.00110777
0.153271, 1.69577, -1.22726, -1.54067, -0.900475, -1.1988, 1.22974, -1.30265, 0.0276637, 0.00184301, 0.0028125, -0.0143543, -0.0581485, -0.00125884, -0.000109918, -1.63873, 62.3431, 30.4679, 7.59277, 1.75525, 3.73324, 0.0101428, -0.00182623, 0.000172566, 0.00243695, 0.00500513, -0.0064512, -0.000873537, 0.0469413, -0.015891, -0.00585651, -0.026672, 0.0764507, 0.0263182, 0.470746, -0.540843, 0.336542, -2.08263, -2.16531, -0.130073, 0.470894, -0.542261, 0.333846, -2.08234, -2.16796, -0.118067, -0.00520573, 0.051374, 0.0127851, 0.0121386, 0.00660292, -0.000817651
0.154271, 1.69579, -1.22726, -1.54068, -0.900482, -1.19885, 1.22974, -1.30266, 0.0222887, 0.000445618, 0.000340999, -0.0112253, -0.0539747, -0.000747361, -0.0017687, -1.56335, 62.3828, 30.5433, 7.47772, 1.78638, 3.72592, 0.0559192, -0.00187971, 0.000181567, 0.00244449, 0.00502185, -0.00651425, -0.000878399, 0.0508011, -0.01237, -0.00684346, -0.0241341, 0.0719269, 0.0202207, 0.470741, -0.540792, 0.336555, -2.08261, -2.1653, -0.130077, 0.470899, -0.542261, 0.333843, -2.08234, -2.16798, -0.117988, -0.00526884, 0.0520207, 0.0129378, 0.00866185, 0.00344751, -0.0021348
0.155271, 1.69581, -1.22725, -1.54068, -0.900498, -1.1989, 1.22974, -1.30266, 0.0169638, 0.00345164, 0.00261828, -0.0127838, -0.0499314, -0.000361527, -0.000195789, -1.56335, 62.3828, 30.579, 7.51739, 1.79187, 3.7186, 0.0293689, -0.00192788, 0.000195769, 0.00244995, 0.00504019, -0.0065822, -0.000889173, 0.0518587, -0.0106438, -0.00422242, -0.0194389, 0.071947, 0.0171918, 0.470735, -0.54074, 0.336568, -2.08258, -2.16528, -0.130081, 0.47091, -0.542255, 0.333842, -2.08233, -2.16802, -0.117904, -0.0053322, 0.0526704, 0.0130909, 0.00700956, 0.00257642, 0.00049282
0.156271, 1.69583, -1.22725, -1.54067, -0.900515, -1.19894, 1.22974, -1.30265, 0.0152167, 0.000966015, 0.0029642, -0.0159752, -0.0519651, -7.06658e-05, 0.00081891, -1.52764, 62.4542, 30.5433, 7.51739, 1.80469, 3.71127, 0.00373412, -0.00197641, 0.000208837, 0.00245695, 0.00505281, -0.0066377, -0.00090111, 0.0529547, -0.0103495, -0.00593231, -0.0211372, 0.0718281, 0.0168426, 0.47073, -0.540687, 0.336581, -2.08255, -2.16527, -0.130085, 0.470919, -0.542248, 0.33384, -2.08231, -2.16804, -0.117839, -0.0053958, 0.0533231, 0.0132446, 0.00662864, 0.00240028, -0.00120494
0.157271, 1.69585, -1.22724, -1.54067, -0.900528, -1.19899, 1.22974, -1.30265, 0.0157242, 0.00585126, 0.00226373, -0.0165779, -0.0534315, 0.000928364, 0.000308581, -1.56335, 62.3828, 30.5433, 7.44202, 1.81659, 3.68289, 0.0101428, -0.00202509, 0.000223616, 0.00245823, 0.00506135, -0.00670612, -0.000915758, 0.0533037, -0.0106145, -0.00336921, -0.0213572, 0.0788473, 0.0175188, 0.470725, -0.540634, 0.336594, -2.08253, -2.16526, -0.130089, 0.47093, -0.542242, 0.333844, -2.0823, -2.16808, -0.117765, -0.00545963, 0.0539787, 0.0133988, 0.00693685, 0.00232568, 0.00141567
0.158271, 1.69587, -1.22724, -1.54067, -0.900545, -1.19903, 1.22974, -1.30265, 0.0159219, 0.00436326, 0.00265288, -0.0180342, -0.0540973, 0.00110468, 0.000951706, -1.60302, 62.3828, 30.5036, 7.40631, 1.823, 3.66824, -0.00999879, -0.00207307, 0.0002396, 0.00246287, 0.00506994, -0.00676655, -0.000931771, 0.053669, -0.0111458, -0.00435061, -0.0218713, 0.0784535, 0.0183984, 0.470719, -0.54058, 0.336608, -2.0825, -2.16525, -0.130092, 0.470942, -0.542234, 0.333845, -2.08228, -2.16812, -0.1177, -0.00552369, 0.0546373, 0.0135535, 0.00738048, 0.0027981, 0.00052672
0.159271, 1.69588, -1.22724, -1.54067, -0.900566, -1.19906, 1.22975, -1.30265, 0.015403, 0.00158521, 0.00100234, -0.019965, -0.0495905, 0.000965147, 0.000634471, -1.48797, 62.4542, 30.5433, 7.40631, 1.81659, 3.66092, -0.00999879, -0.00212605, 0.000249279, 0.00247074, 0.00508038, -0.00681987, -0.000941315, 0.0537058, -0.0115687, -0.00687884, -0.0222723, 0.0725299, 0.0207226, 0.470714, -0.540525, 0.336621, -2.08248, -2.16524, -0.130096, 0.470948, -0.54223, 0.333842, -2.08227, -2.16814, -0.117639, -0.00558799, 0.0552987, 0.0137087, 0.00764653, 0.00383287, -0.00183414
0.160271, 1.6959, -1.22724, -1.54067, -0.900583, -1.1991, 1.22974, -1.30265, 0.0149531, -0.000446321, -4.56619e-05, -0.0194306, -0.0424963, 0.000340234, 0.000151713, -1.48797, 62.5296, 30.579, 7.33093, 1.8349, 3.66824, -0.00267457, -0.00217828, 0.000260943, 0.00247923, 0.00508929, -0.00686918, -0.000953649, 0.0536879, -0.0117739, -0.00846306, -0.0201461, 0.0647313, 0.0222551, 0.470708, -0.54047, 0.336635, -2.08245, -2.16522, -0.1301, 0.470955, -0.542225, 0.333839, -2.08225, -2.16817, -0.117585, -0.00565251, 0.0559631, 0.0138645, 0.00772786, 0.00476943, -0.00324728
0.161271, 1.6959, -1.22723, -1.54067, -0.900602, -1.19912, 1.22975, -1.30265, 0.0119573, 0.000825554, 0.0022733, -0.0193287, -0.0355543, 0.000711501, -0.000610935, -1.37688, 62.4899, 30.6186, 7.25555, 1.81018, 3.65451, 0.0165515, -0.00223147, 0.000270448, 0.00248178, 0.00509218, -0.00692439, -0.000964761, 0.0537975, -0.0113465, -0.00674878, -0.0138055, 0.06057, 0.0234314, 0.470702, -0.540414, 0.336649, -2.08242, -2.16521, -0.130104, 0.470961, -0.54222, 0.333842, -2.08223, -2.1682, -0.117531, -0.00571726, 0.0566303, 0.0140207, 0.00730377, 0.00504546, -0.00140396
0.162271, 1.69592, -1.22723, -1.54066, -0.900626, -1.19915, 1.22975, -1.30266, 0.00927114, 0.0029304, 0.00184551, -0.0232541, -0.0328834, -0.00379246, -0.000882008, -1.37688, 62.5296, 30.6186, 7.21588, 1.84772, 3.63986, 0.0293689, -0.00228097, 0.000285156, 0.0024854, 0.00509579, -0.00698021, -0.000987103, 0.0534147, -0.0101179, -0.00651111, -0.0179681, 0.058889, 0.0251732, 0.470697, -0.540357, 0.336663, -2.08239, -2.1652, -0.130108, 0.470972, -0.542211, 0.333844, -2.08221, -2.16824, -0.117476, -0.00578224, 0.0573004, 0.0141774, 0.006007, 0.00600618, -0.000916074
0.163271, 1.69593, -1.22722, -1.54066, -0.900652, -1.19918, 1.22975, -1.30266, 0.00622746, 0.00149159, 0.00240584, -0.0263374, -0.0291862, -0.00266979, -0.00180871, -1.33721, 62.5653, 30.579, 7.18018, 1.84772, 3.63254, 0.0623279, -0.00233234, 0.000297439, 0.00248989, 0.00509781, -0.00703038, -0.00100872, 0.0539488, -0.00988826, -0.00738339, -0.0157538, 0.0554636, 0.0273915, 0.470691, -0.5403, 0.336677, -2.08237, -2.16519, -0.130113, 0.47098, -0.542203, 0.333845, -2.08218, -2.16828, -0.11743, -0.00584743, 0.0579733, 0.0143346, 0.0056996, 0.00627809, -0.00169779
0.164271, 1.69593, -1.22722, -1.54065, -0.900683, -1.1992, 1.22975, -1.30266, 0.00629867, -0.000488933, 0.00402821, -0.0262763, -0.0273143, -0.00181816, 1.48976e-05, -1.26183, 62.6407, 30.6186, 7.18018, 1.87244, 3.62521, 0.0293689, -0.00238442, 0.000309091, 0.00249771, 0.005102, -0.00707484, -0.00102427, 0.0541943, -0.0106462, -0.00794724, -0.0127192, 0.0526232, 0.0270885, 0.470685, -0.540242, 0.336692, -2.08234, -2.16517, -0.130117, 0.470987, -0.542195, 0.333843, -2.08216, -2.1683, -0.117386, -0.00591285, 0.058649, 0.0144922, 0.00637923, 0.00683077, -0.00216005
0.165271, 1.69594, -1.22721, -1.54066, -0.900709, -1.19922, 1.22975, -1.30266, 0.00501233, 0.00492605, -0.000345101, -0.0275494, -0.0252591, -0.000935651, 9.93173e-06, -1.26183, 62.5653, 30.7654, 7.1048, 1.87793, 3.61148, 0.0293689, -0.00243709, 0.000320135, 0.002503, 0.00511462, -0.00712832, -0.00103935, 0.0551738, -0.00977137, -0.00638686, -0.0146077, 0.0574836, 0.0254831, 0.470679, -0.540183, 0.336706, -2.08231, -2.16516, -0.130121, 0.470994, -0.542187, 0.333844, -2.08213, -2.16833, -0.117323, -0.00597848, 0.0593275, 0.0146504, 0.0055333, 0.00626477, -0.000589007
0.166271, 1.69594, -1.22721, -1.54066, -0.900736, -1.19923, 1.22975, -1.30265, 0.00218823, 0.00509839, 0.000907478, -0.0285973, -0.019998, -0.000255362, 0.00146468, -1.18645, 62.6407, 30.7297, 7.02942, 1.90906, 3.59683, -0.00999879, -0.00249108, 0.000331427, 0.00250694, 0.00510662, -0.00717228, -0.0010518, 0.0555708, -0.00939733, -0.00583625, -0.0103659, 0.0539521, 0.0245728, 0.470673, -0.540124, 0.336721, -2.08228, -2.16515, -0.130125, 0.471001, -0.54218, 0.333846, -2.08212, -2.16836, -0.117293, -0.00604433, 0.0600088, 0.0148089, 0.00512887, 0.00645369, 6.11821e-05
0.167271, 1.69595, -1.2272, -1.54065, -0.900769, -1.19924, 1.22975, -1.30265, 0.000153016, 0.00768734, 0.00315577, -0.0303306, -0.019524, 0.000241696, 0.00121381, -1.11108, 62.7478, 30.7654, 6.99371, 1.90906, 3.58218, -0.0164075, -0.00254322, 0.000344457, 0.00251518, 0.00510612, -0.00721092, -0.00107441, 0.0559095, -0.0091781, -0.00365395, -0.0078752, 0.0566825, 0.0255762, 0.470667, -0.540064, 0.336735, -2.08225, -2.16513, -0.130129, 0.471009, -0.542169, 0.333844, -2.08208, -2.16839, -0.117261, -0.00611038, 0.0606929, 0.014968, 0.00493734, 0.00645625, 0.00232693
0.168271, 1.69595, -1.2272, -1.54065, -0.900802, -1.19925, 1.22976, -1.30265, 0.00278659, 0.004318, 0.0039332, -0.0306732, -0.0194362, 0.000843076, 6.32244e-05, -1.07537, 62.8232, 30.8408, 6.91833, 1.91546, 3.56112, 0.00373412, -0.00259517, 0.000357952, 0.00252096, 0.00510367, -0.0072519, -0.00109706, 0.05554, -0.0110942, -0.00554479, -0.00733666, 0.0539758, 0.03016, 0.470661, -0.540003, 0.33675, -2.08222, -2.16512, -0.130134, 0.471018, -0.542159, 0.333844, -2.08205, -2.16843, -0.117229, -0.00617665, 0.0613797, 0.0151275, 0.00670127, 0.00788093, 0.000616582
0.169271, 1.69595, -1.2272, -1.54065, -0.900802, -1.19925, 1.22976, -1.30265, 0.00278659, 0.004318, 0.0039332, -0.0306732, -0.0194362, 0.000843076, 6.32244e-05, -1.07537, 62.8232, 30.8408, 6.91833, 1.91546, 3.56112, 0.00373412, -0.00265841, 0.000362077, 0.00252606, 0.00508454, -0.00727653, -0.00109011, 0.0562483, -0.0111367, -0.00559162, -0.00717985, 0.0543371, 0.0302194, 0.470655, -0.539942, 0.336766, -2.08219, -2.1651, -0.130138, 0.471018, -0.542159, 0.333844, -2.08205, -2.16843, -0.117229, -0.00624313, 0.0620692, 0.0152874, 0.00670127, 0.00788093, 0.000616582
0.170271, 1.69595, -1.2272, -1.54065, -0.900802, -1.19925, 1.22976, -1.30265, 0.00278659, 0.004318, 0.0039332, -0.0306732, -0.0194362, 0.000843076, 6.32244e-05, -1.07537, 62.8232, 30.8408, 6.91833, 1.91546, 3.56112, 0.00373412, -0.00272236, 0.000366244, 0.00253122, 0.00506519, -0.00730144, -0.00108307, 0.0569592, -0.0111793, -0.00563839, -0.00702202, 0.0547, 0.030279, 0.470649, -0.53988, 0.336781, -2.08216, -2.16509, -0.130143, 0.471018, -0.542159, 0.333844, -2.08205, -2.16843, -0.117229, -0.00630981, 0.0627614, 0.0154478, 0.00670127, 0.00788093, 0.000616582
0.171271, 1.69594, -1.22717, -1.54064, -0.900919, -1.19926, 1.22976, -1.30266, -0.0025718, 0.00636676, 0.0078424, -0.0395093, -0.00841534, 0.00117142, -0.00137528, -0.734184, 62.8589, 30.9162, 6.69617, 1.93378, 3.5181, 0.0559192, -0.00275269, 0.000393224, 0.00252755, 0.00508417, -0.0073784, -0.00118164, 0.0542786, -0.0121397, -0.00403524, -0.00122611, 0.0485764, 0.0397438, 0.470642, -0.539817, 0.336796, -2.08213, -2.16508, -0.130147, 0.47104, -0.542125, 0.333858, -2.08195, -2.16855, -0.117145, -0.00637669, 0.0634563, 0.0156086, 0.00755651, 0.011013, 0.00274822
0.172271, 1.69594, -1.22717, -1.54064, -0.900969, -1.19926, 1.22976, -1.30265, -0.00404273, 0.00290797, 0.00655832, -0.0426246, -0.00645822, 0.00102122, 0.00030385, -0.619133, 63.0811, 31.0273, 6.69617, 1.93927, 3.51077, 0.0229602, -0.00280605, 0.000405931, 0.00254113, 0.0050872, -0.00740645, -0.0012093, 0.0549168, -0.012083, -0.00694562, -0.00295439, 0.0441375, 0.0395115, 0.470636, -0.539753, 0.336812, -2.0821, -2.16506, -0.130152, 0.471048, -0.542112, 0.333851, -2.0819, -2.16858, -0.117121, -0.00644377, 0.0641539, 0.0157699, 0.0073478, 0.0115307, -6.33521e-05
0.173271, 1.69593, -1.22715, -1.54063, -0.901009, -1.19926, 1.22976, -1.30266, -0.00418609, 0.00776799, 0.00845361, -0.0422763, -0.00570442, 0.000386305, -0.000272151, -0.543754, 63.0057, 31.0273, 6.58508, 1.96399, 3.5181, 0.0357776, -0.00285802, 0.000418041, 0.0025369, 0.00507676, -0.00745458, -0.00123897, 0.0547338, -0.0121792, -0.00346177, -0.000731935, 0.048252, 0.040758, 0.470629, -0.539689, 0.336828, -2.08207, -2.16505, -0.130156, 0.471056, -0.542099, 0.333863, -2.08187, -2.16863, -0.117091, -0.00651106, 0.0648541, 0.0159315, 0.00749994, 0.0118751, 0.00356151
0.174271, 1.69593, -1.22714, -1.54062, -0.901054, -1.19926, 1.22976, -1.30265, -0.00342172, 0.0073224, 0.00574209, -0.0429478, -0.0041655, 0.00105391, 0.00151399, -0.508049, 63.0811, 31.063, 6.5097, 1.96399, 3.49612, -0.00999879, -0.00291028, 0.000432848, 0.0025409, 0.00506804, -0.0074927, -0.00126735, 0.0552881, -0.0126257, -0.00480845, -0.00211588, 0.0475162, 0.0396034, 0.470623, -0.539624, 0.336844, -2.08204, -2.16503, -0.130161, 0.471066, -0.542084, 0.333866, -2.08183, -2.16867, -0.11707, -0.00657853, 0.0655569, 0.0160936, 0.00784839, 0.012259, 0.00229179
0.175271, 1.69592, -1.22713, -1.54061, -0.901107, -1.19926, 1.22976, -1.30265, -0.00389122, 0.00402202, 0.0108852, -0.0483263, -0.00281156, 0.000418262, 0.00124668, -0.43267, 63.1564, 31.063, 6.5097, 1.95758, 3.50345, -0.0164075, -0.00296058, 0.000447581, 0.00254267, 0.00505726, -0.00752865, -0.00130317, 0.0535284, -0.0146106, -0.00576165, -0.000134986, 0.0433005, 0.0471628, 0.470616, -0.539559, 0.33686, -2.082, -2.16502, -0.130166, 0.471075, -0.542067, 0.333872, -2.08178, -2.16872, -0.117054, -0.0066462, 0.0662624, 0.0162561, 0.00966403, 0.0149322, 0.00172542
0.176271, 1.69591, -1.22712, -1.5406, -0.901158, -1.19926, 1.22976, -1.30265, -0.00693377, 0.00701382, 0.00972162, -0.0513569, -0.00255303, 0.000269036, -0.000389581, -0.242241, 63.2635, 31.1384, 6.47003, 1.9704, 3.50345, 0.0165515, -0.00301854, 0.000455549, 0.0025468, 0.00505076, -0.00756714, -0.0013306, 0.0546052, -0.013364, -0.00473248, -0.00171519, 0.0466104, 0.0479784, 0.47061, -0.539493, 0.336876, -2.08197, -2.165, -0.13017, 0.471079, -0.542057, 0.333875, -2.08174, -2.16876, -0.117029, -0.00671407, 0.0669704, 0.016419, 0.00842881, 0.0143663, 0.00277274
0.177271, 1.6959, -1.22711, -1.5406, -0.901211, -1.19926, 1.22976, -1.30265, -0.00780336, 0.00879837, 0.00810635, -0.0526776, -0.00209233, 0.000172003, 0.000960983, -0.242241, 63.2635, 31.2494, 6.39465, 1.97681, 3.50345, -0.0164075, -0.00307082, 0.000470764, 0.00254958, 0.0050489, -0.00761249, -0.00136462, 0.0553978, -0.0129293, -0.00444719, -0.00316793, 0.0485371, 0.0463305, 0.470603, -0.539426, 0.336892, -2.08194, -2.16499, -0.130175, 0.471089, -0.542041, 0.33388, -2.0817, -2.16881, -0.116994, -0.00678212, 0.0676811, 0.0165822, 0.00796622, 0.0142328, 0.00310528
0.178271, 1.69589, -1.22709, -1.54058, -0.901267, -1.19926, 1.22976, -1.30265, -0.00800833, 0.0122957, 0.012695, -0.0547524, -0.00171305, 0.00038042, -0.00129212, -0.131157, 63.3032, 31.2494, 6.35895, 1.9823, 3.49612, 0.0357776, -0.00312465, 0.00048398, 0.00254825, 0.00503735, -0.00765875, -0.00141029, 0.0542624, -0.0141451, -0.00107226, 0.000713988, 0.0520595, 0.0525149, 0.470596, -0.539358, 0.336909, -2.0819, -2.16497, -0.13018, 0.471097, -0.542026, 0.333889, -2.08165, -2.16887, -0.116969, -0.00685036, 0.0683942, 0.0167459, 0.00919744, 0.015593, 0.00673872
0.179271, 1.69589, -1.22709, -1.54057, -0.901323, -1.19926, 1.22976, -1.30265, -0.00725785, 0.00837879, 0.0119886, -0.055329, -0.00146543, 0.000249477, -0.000386699, -0.0557783, 63.4857, 31.2891, 6.28357, 1.98871, 3.49612, 0.0229602, -0.00317874, 0.000498922, 0.00255377, 0.00502817, -0.00769436, -0.00144711, 0.0549462, -0.0146899, -0.00380674, -0.000460454, 0.0483957, 0.0527418, 0.470589, -0.53929, 0.336926, -2.08187, -2.16495, -0.130185, 0.471107, -0.542009, 0.333891, -2.0816, -2.16892, -0.116952, -0.00691878, 0.06911, 0.01691, 0.00959586, 0.016082, 0.00407744
0.180271, 1.69587, -1.22708, -1.54055, -0.901384, -1.19926, 1.22976, -1.30266, -0.0115702, 0.00915617, 0.0147198, -0.0567375, -0.00171965, -0.00037932, -0.00100378, 0.0949785, 63.5214, 31.3248, 6.24786, 2.00702, 3.51077, 0.0431018, -0.00323367, 0.000510607, 0.00255207, 0.00501799, -0.00774009, -0.00148948, 0.0565269, -0.0129518, -0.002452, 0.0014899, 0.0492482, 0.0516005, 0.470582, -0.53922, 0.336943, -2.08184, -2.16494, -0.13019, 0.471114, -0.541994, 0.3339, -2.08155, -2.16898, -0.116927, -0.00698738, 0.0698282, 0.0170744, 0.0078996, 0.0149578, 0.0053839
0.181271, 1.69586, -1.22706, -1.54054, -0.901446, -1.19925, 1.22976, -1.30266, -0.0140272, 0.00866847, 0.0157492, -0.0586079, -0.00119483, 0.000287328, -0.000906549, 0.21003, 63.5968, 31.4002, 6.24786, 2.00702, 3.49612, 0.0495105, -0.0032885, 0.000524814, 0.00255265, 0.00500821, -0.00778603, -0.00153186, 0.0576011, -0.0124061, -0.00249425, 0.00283081, 0.049061, 0.0514594, 0.470575, -0.539151, 0.33696, -2.0818, -2.16492, -0.130195, 0.471123, -0.541977, 0.333908, -2.0815, -2.16904, -0.1169, -0.00705617, 0.0705489, 0.0172392, 0.00732342, 0.0146027, 0.00535376
0.182271, 1.69584, -1.22705, -1.54052, -0.901505, -1.19925, 1.22977, -1.30265, -0.0134098, 0.0106658, 0.0144391, -0.0604156, -0.00198574, 0.000698433, 0.000616337, 0.360787, 63.7079, 31.4359, 6.13678, 2.03815, 3.48239, 0.0165515, -0.00334553, 0.000537976, 0.00255447, 0.00499525, -0.00782813, -0.00156671, 0.0578158, -0.0129169, -0.00207482, 0.00107179, 0.0525597, 0.0512617, 0.470568, -0.53908, 0.336977, -2.08177, -2.16491, -0.1302, 0.471131, -0.541962, 0.333914, -2.08145, -2.16909, -0.116881, -0.00712513, 0.0712721, 0.0174044, 0.00778835, 0.0150705, 0.00588138
0.183271, 1.69584, -1.22704, -1.5405, -0.901575, -1.19926, 1.22976, -1.30265, -0.0102668, 0.0138701, 0.01344, -0.0614191, -0.00202922, -4.43132e-05, 0.00163159, 0.400459, 63.7436, 31.4716, 6.13678, 2.05646, 3.49612, -0.0164075, -0.00339702, 0.000555882, 0.00255431, 0.00499005, -0.0078776, -0.00161204, 0.0567006, -0.0145686, -0.000959984, -0.00097488, 0.056071, 0.0537294, 0.470561, -0.539009, 0.336994, -2.08173, -2.16489, -0.130205, 0.471144, -0.541941, 0.333922, -2.0814, -2.16915, -0.116846, -0.00719427, 0.0719978, 0.0175699, 0.00937049, 0.0167926, 0.00726865
0.184271, 1.69581, -1.22703, -1.54049, -0.901642, -1.19926, 1.22976, -1.30264, -0.0124334, 0.00863249, 0.0147569, -0.0642222, -0.00157668, -0.000573059, 0.00179981, 0.626595, 63.9658, 31.547, 6.09711, 2.06195, 3.51077, -0.0356336, -0.00345721, 0.000565816, 0.0025608, 0.00498298, -0.00791373, -0.00164556, 0.0576561, -0.0143067, -0.00394615, -0.0013473, 0.0507013, 0.0548282, 0.470554, -0.538937, 0.337012, -2.0817, -2.16487, -0.13021, 0.471148, -0.541927, 0.333924, -2.08135, -2.16919, -0.116826, -0.00726359, 0.0727259, 0.0177358, 0.0089625, 0.0170318, 0.00434318
