alisrour97/Franka_experiments/Real_Robot_scripts/servo-franka/Data3/log_dyn_INIT0_3.csv
Time,q1,q2,q3,q4,q5,q6,q7,dq1,dq2,dq3,dq4,dq5,dq6,dq7,t1,t2,t3,t4,t5,t6,t7,ex1,ex2,ex3,ex4,ex5,ex6,ev1,ev2,ev3,ev4,ev5,ev6,xd,yd,zd,uxd,uyd,uzd,x,y,z,ux,uy,uz,vxd,vyd,vzd,vx,vy,vz
7.32422e-07, 1.69123, -1.22674, -1.53863, -0.900011, -1.19222, 1.22813, -1.30265, -0.0070058, -0.00127421, 0.000219721, 0.0069154, 0.00313126, 0.00062985, -0.00144252, 0.134651, 60.173, 29.1666, 6.5097, 2.33844, 3.6188, -0.0951428, 0.000587942, -0.00186014, 0.00101986, 0.00135166, 0.000533688, 0.00055178, 0.00471161, 0.0049497, 0.000706502, 0.00647028, -0.00433438, -0.0103473, 0.471008, -0.543389, 0.335894, -2.08385, -2.16584, -0.129887, 0.469101, -0.542718, 0.335034, -2.08342, -2.16444, -0.128846, 1.77043e-06, 3.2e-05, 1.02972e-05, -0.00474756, -0.00493071, 0.000125842
0.012155, 1.69121, -1.22671, -1.53863, -0.900002, -1.19218, 1.22814, -1.30266, 0.000471177, -0.000253384, -0.000284846, 0.000302436, 0.00779363, 0.00120711, -0.00169702, -0.0914839, 60.2087, 29.238, 6.5097, 2.33844, 3.56845, -0.0750012, 0.000583543, -0.00187089, 0.000999189, 0.00131645, 0.000532107, 0.000562141, -0.00138655, -0.00124686, -0.000136049, 0.00448689, -0.00598072, 0.00438295, 0.471008, -0.543389, 0.335894, -2.08385, -2.16584, -0.129887, 0.469083, -0.542736, 0.335054, -2.08347, -2.16443, -0.128908, 1.77746e-06, 6.40623e-05, 1.89552e-05, 0.00119254, 0.00150487, 6.2232e-05
0.013155, 1.69121, -1.22671, -1.53863, -0.900002, -1.19218, 1.22814, -1.30266, 0.000471177, -0.000253384, -0.000284846, 0.000302436, 0.00779363, 0.00120711, -0.00169702, -0.0914839, 60.2087, 29.238, 6.5097, 2.33844, 3.56845, -0.0750012, 0.000583536, -0.00187089, 0.00099919, 0.00131645, 0.000532104, 0.000562143, -0.0013503, -0.00124571, -0.000140008, 0.00449152, -0.00595418, 0.00438558, 0.471008, -0.543389, 0.335894, -2.08385, -2.16584, -0.129887, 0.469083, -0.542736, 0.335054, -2.08347, -2.16443, -0.128908, 1.77167e-06, 9.92934e-05, 2.84561e-05, 0.00119254, 0.00150487, 6.2232e-05
0.014155, 1.69121, -1.22671, -1.53863, -0.900002, -1.19218, 1.22814, -1.30266, 0.000471177, -0.000253384, -0.000284846, 0.000302436, 0.00779363, 0.00120711, -0.00169702, -0.0914839, 60.2087, 29.238, 6.5097, 2.33844, 3.56845, -0.0750012, 0.000583515, -0.00187089, 0.000999192, 0.00131644, 0.000532094, 0.000562148, -0.00131065, -0.00124447, -0.000144323, 0.00449662, -0.00592517, 0.00438845, 0.471008, -0.543389, 0.335894, -2.08385, -2.16584, -0.129887, 0.469083, -0.542736, 0.335054, -2.08347, -2.16443, -0.128908, 1.75167e-06, 0.000137819, 3.88327e-05, 0.00119254, 0.00150487, 6.2232e-05
0.015155, 1.69121, -1.22671, -1.53863, -0.900002, -1.19218, 1.22814, -1.30266, 0.000471177, -0.000253384, -0.000284846, 0.000302436, 0.00779363, 0.00120711, -0.00169702, -0.0914839, 60.2087, 29.238, 6.5097, 2.33844, 3.56845, -0.0750012, 0.000583476, -0.00187089, 0.000999197, 0.00131643, 0.000532075, 0.000562158, -0.00126749, -0.00124313, -0.000149008, 0.00450219, -0.00589361, 0.00439158, 0.471008, -0.543389, 0.335894, -2.08385, -2.16584, -0.129887, 0.469083, -0.542736, 0.335054, -2.08347, -2.16443, -0.128908, 1.716e-06, 0.000179762, 5.01169e-05, 0.00119254, 0.00150487, 6.2232e-05
0.016155, 1.69121, -1.22671, -1.53863, -0.900002, -1.19218, 1.22814, -1.30266, 0.000471177, -0.000253384, -0.000284846, 0.000302436, 0.00779363, 0.00120711, -0.00169702, -0.0914839, 60.2087, 29.238, 6.5097, 2.33844, 3.56845, -0.0750012, 0.000583412, -0.00187089, 0.000999204, 0.0013164, 0.000532044, 0.000562174, -0.00122069, -0.00124169, -0.000154076, 0.00450827, -0.00585939, 0.00439498, 0.471008, -0.543389, 0.335894, -2.08385, -2.16584, -0.129887, 0.469083, -0.542736, 0.335054, -2.08347, -2.16443, -0.128908, 1.66317e-06, 0.000225248, 6.23407e-05, 0.00119254, 0.00150487, 6.2232e-05
0.017155, 1.69121, -1.22671, -1.53863, -0.900002, -1.19218, 1.22814, -1.30266, 0.000471177, -0.000253384, -0.000284846, 0.000302436, 0.00779363, 0.00120711, -0.00169702, -0.0914839, 60.2087, 29.238, 6.5097, 2.33844, 3.56845, -0.0750012, 0.000583316, -0.0018709, 0.000999214, 0.00131636, 0.000531997, 0.000562197, -0.00117012, -0.00124014, -0.000159537, 0.00451487, -0.00582244, 0.00439866, 0.471008, -0.543389, 0.335894, -2.08385, -2.16584, -0.129887, 0.469083, -0.542736, 0.335054, -2.08347, -2.16443, -0.128908, 1.59159e-06, 0.000274397, 7.55354e-05, 0.00119254, 0.00150487, 6.2232e-05
0.018155, 1.69121, -1.22671, -1.53863, -0.900002, -1.19218, 1.22814, -1.30266, 0.000471177, -0.000253384, -0.000284846, 0.000302436, 0.00779363, 0.00120711, -0.00169702, -0.0914839, 60.2087, 29.238, 6.5097, 2.33844, 3.56845, -0.0750012, 0.000583182, -0.0018709, 0.000999229, 0.00131631, 0.000531932, 0.00056223, -0.00111565, -0.0012385, -0.000165405, 0.00452201, -0.00578265, 0.00440262, 0.471008, -0.543389, 0.335894, -2.08385, -2.16584, -0.129887, 0.469083, -0.542736, 0.335054, -2.08347, -2.16443, -0.128908, 1.49965e-06, 0.00032733, 8.9732e-05, 0.00119254, 0.00150487, 6.2232e-05
0.0191558, 1.69121, -1.22671, -1.53863, -0.900002, -1.19218, 1.22814, -1.30266, 0.000471177, -0.000253384, -0.000284846, 0.000302436, 0.00779363, 0.00120711, -0.00169702, -0.0914839, 60.2087, 29.238, 6.5097, 2.33844, 3.56845, -0.0750012, 0.000583004, -0.00187091, 0.000999249, 0.00131624, 0.000531845, 0.000562274, -0.00105717, -0.00123675, -0.00017169, 0.00452971, -0.00573996, 0.00440687, 0.471008, -0.543389, 0.335894, -2.08385, -2.16584, -0.129887, 0.469083, -0.542736, 0.335054, -2.08347, -2.16443, -0.128908, 1.38564e-06, 0.000384166, 0.000104961, 0.00119254, 0.00150487, 6.2232e-05
0.020156, 1.69121, -1.22671, -1.53863, -0.900002, -1.19218, 1.22814, -1.30266, 0.000471177, -0.000253384, -0.000284846, 0.000302436, 0.00779363, 0.00120711, -0.00169702, -0.0914839, 60.2087, 29.238, 6.5097, 2.33844, 3.56845, -0.0750012, 0.000582776, -0.00187091, 0.000999274, 0.00131615, 0.000531734, 0.00056233, -0.000994562, -0.00123489, -0.000178405, 0.00453798, -0.00569426, 0.00441143, 0.471008, -0.543389, 0.335894, -2.08385, -2.16584, -0.129887, 0.469083, -0.542736, 0.335054, -2.08347, -2.16443, -0.128908, 1.24785e-06, 0.00044502, 0.000121252, 0.00119254, 0.00150487, 6.2232e-05
0.021156, 1.69121, -1.22671, -1.53863, -0.900002, -1.19218, 1.22814, -1.30266, 0.000471177, -0.000253384, -0.000284846, 0.000302436, 0.00779363, 0.00120711, -0.00169702, -0.0914839, 60.2087, 29.238, 6.5097, 2.33844, 3.56845, -0.0750012, 0.000582492, -0.00187092, 0.000999305, 0.00131603, 0.000531595, 0.0005624, -0.0009277, -0.00123291, -0.00018556, 0.00454686, -0.00564547, 0.0044163, 0.471008, -0.543388, 0.335894, -2.08385, -2.16584, -0.129887, 0.469083, -0.542736, 0.335054, -2.08347, -2.16443, -0.128908, 1.08446e-06, 0.000510009, 0.000138634, 0.00119254, 0.00150487, 6.2232e-05
0.022156, 1.69121, -1.22671, -1.53863, -0.900002, -1.19218, 1.22814, -1.30266, 0.000471177, -0.000253384, -0.000284846, 0.000302436, 0.00779363, 0.00120711, -0.00169702, -0.0914839, 60.2087, 29.238, 6.5097, 2.33844, 3.56845, -0.0750012, 0.000582145, -0.00187093, 0.000999343, 0.00131589, 0.000531426, 0.000562485, -0.000856471, -0.00123083, -0.000193166, 0.00455634, -0.00559351, 0.00442149, 0.471008, -0.543388, 0.335894, -2.08385, -2.16584, -0.129887, 0.469083, -0.542736, 0.335054, -2.08347, -2.16443, -0.128908, 8.93621e-07, 0.000579243, 0.000157137, 0.00119254, 0.00150487, 6.2232e-05
0.023156, 1.69119, -1.22672, -1.53864, -0.900019, -1.19212, 1.22815, -1.30266, -0.00068343, -0.00054371, -0.000608524, -0.00129666, 0.0055945, 0.00181151, 0.00116715, -0.0914839, 60.3198, 29.2777, 6.62079, 2.2652, 3.54648, -0.147328, 0.000590624, -0.00186559, 0.00100244, 0.00128697, 0.000572767, 0.000544582, -0.000149549, -0.000748815, -0.000594284, 0.003178, -0.00360048, 0.000934538, 0.471008, -0.543388, 0.335894, -2.08384, -2.16584, -0.129887, 0.469088, -0.542727, 0.335052, -2.08345, -2.16444, -0.128984, 6.73433e-07, 0.000652833, 0.000176787, 0.000721723, 0.000922577, -0.000409378
0.024156, 1.6912, -1.22671, -1.53863, -0.900025, -1.19212, 1.22815, -1.30266, 0.00127904, 0.000570132, 0.00135777, -0.00586434, 0.00463709, 0.00205718, 0.000540096, -0.166862, 60.2802, 29.2023, 6.69617, 2.25238, 3.52542, -0.140919, 0.000596919, -0.0018592, 0.000998081, 0.00127921, 0.000571085, 0.000528769, -0.00259291, -0.00313127, 3.35032e-05, 0.00229102, -0.00119226, 0.00810874, 0.471008, -0.543387, 0.335894, -2.08384, -2.16584, -0.129887, 0.469094, -0.54272, 0.335058, -2.08344, -2.16446, -0.128992, 4.21933e-07, 0.000730885, 0.000197611, 0.00303615, 0.00341364, 0.000538748
0.025156, 1.6912, -1.22672, -1.53863, -0.900021, -1.19211, 1.22815, -1.30266, -3.95618e-06, -0.00415974, -0.000784915, -0.00478271, 0.00545043, 0.00250873, 0.00035958, -0.131157, 60.2087, 29.1269, 6.58508, 2.19745, 3.49612, -0.140919, 0.00059298, -0.00186155, 0.00100593, 0.00128003, 0.000585778, 0.000535103, -0.000839821, -0.00204989, -0.00325606, 0.00152047, -0.00628203, 0.00540829, 0.471008, -0.543387, 0.335895, -2.08384, -2.16584, -0.129887, 0.469091, -0.542723, 0.335049, -2.08343, -2.16444, -0.129005, 1.37109e-07, 0.000813505, 0.000219637, 0.00189981, 0.00222763, -0.0029269
0.026156, 1.6912, -1.22673, -1.53863, -0.900027, -1.19211, 1.22816, -1.30266, -1.87117e-05, -0.00691169, -0.000454514, -0.00689634, 0.00261034, 0.00303408, -0.000743988, -0.131157, 59.9509, 28.8294, 6.58508, 2.10498, 3.46042, -0.114369, 0.000592663, -0.00185933, 0.00100958, 0.00127342, 0.000591082, 0.000530126, -0.000562234, -0.00239517, -0.00501082, -0.000277374, -0.00621018, 0.00761013, 0.471008, -0.543386, 0.335895, -2.08384, -2.16584, -0.129887, 0.469094, -0.542722, 0.335046, -2.08343, -2.16445, -0.129019, -1.83099e-07, 0.000900793, 0.00024289, 0.00219091, 0.00232509, -0.00468983
0.027156, 1.6912, -1.22673, -1.53863, -0.900031, -1.19211, 1.22816, -1.30266, 0.000810688, -0.00173347, 0.00148268, -0.00747835, 0.00560084, 0.00232335, -0.00219169, -0.166862, 59.5065, 28.5715, 6.54541, 1.99512, 3.45309, -0.0685925, 0.000593859, -0.00185759, 0.00101139, 0.00128081, 0.000589169, 0.000525049, -0.00256555, -0.00344234, -0.0014795, 0.00223138, -0.00383104, 0.0122352, 0.471008, -0.543385, 0.335895, -2.08384, -2.16584, -0.129887, 0.469095, -0.542719, 0.335044, -2.08342, -2.16445, -0.129009, -5.40806e-07, 0.000992849, 0.000267393, 0.00329221, 0.0038942, -0.000899064
0.028156, 1.69121, -1.22673, -1.53864, -0.900029, -1.19212, 1.22816, -1.30266, 0.00229465, 0.0019483, 0.000453732, -0.00314824, 0.00229609, 0.00157093, -0.00193605, -0.242241, 59.1772, 28.4208, 6.43433, 1.90265, 3.45309, -0.0557752, 0.000592, -0.00185634, 0.00101589, 0.00128885, 0.000585854, 0.00052664, -0.00139878, -0.00254711, 0.000763947, 0.00128622, 0.00197527, 0.00799222, 0.471008, -0.543384, 0.335895, -2.08384, -2.16584, -0.129887, 0.469096, -0.54272, 0.33504, -2.08342, -2.16445, -0.128997, -9.38169e-07, 0.00108977, 0.000293171, 0.00252044, 0.00245731, 0.00118784
0.029156, 1.69121, -1.22675, -1.53865, -0.900032, -1.19212, 1.22816, -1.30266, 0.00152299, -0.00223133, -0.00401812, -0.000906438, -0.0018576, 0.00106381, -0.00129085, -0.242241, 59.1415, 28.274, 6.35895, 1.85321, 3.45309, -0.0557752, 0.00058835, -0.00185618, 0.00102946, 0.00130177, 0.000595903, 0.000528302, 0.00180658, -0.00033776, -0.00298023, -0.00414806, 0.00110505, 0.00116049, 0.471008, -0.543383, 0.335895, -2.08384, -2.16584, -0.129887, 0.469096, -0.54272, 0.335026, -2.08341, -2.16443, -0.128993, -1.3774e-06, 0.00119164, 0.000320246, 0.000292964, -0.00011935, -0.00291306
0.030156, 1.6912, -1.22676, -1.53866, -0.900035, -1.19213, 1.22817, -1.30266, -0.00158822, -0.0057997, -0.00635248, -0.0033225, -0.000893981, 0.00712212, -0.000623323, -0.131157, 59.1415, 28.2343, 6.32324, 1.823, 3.41006, -0.0621838, 0.000581071, -0.00185985, 0.0010398, 0.00131059, 0.000599741, 0.000539001, 0.00384366, 1.07088e-06, -0.00555522, -0.00142226, 0.00010515, -0.00119177, 0.471008, -0.543382, 0.335896, -2.08384, -2.16584, -0.129887, 0.469092, -0.542725, 0.335015, -2.08341, -2.16442, -0.128986, -1.86074e-06, 0.00129855, 0.00034864, -6.60251e-05, -0.00164104, -0.00573321
0.031156, 1.69121, -1.22678, -1.53867, -0.900035, -1.19213, 1.22818, -1.30266, -0.000227407, -0.00756524, -0.00438925, -0.00103331, -0.00601226, 0.00753153, 0.000296442, -0.166862, 59.2487, 28.0478, 6.24786, 1.823, 3.34598, -0.0814099, 0.000578183, -0.0018555, 0.0010485, 0.00130789, 0.000601801, 0.000538329, 0.00484719, -0.000123563, -0.00562651, -0.000990601, 0.00253803, -0.0035027, 0.471008, -0.543381, 0.335896, -2.08384, -2.16584, -0.129887, 0.469096, -0.542725, 0.335006, -2.08341, -2.16442, -0.128991, -2.39049e-06, 0.00141058, 0.000378373, 9.12271e-05, -0.00250365, -0.00593337
0.032156, 1.69121, -1.22678, -1.53867, -0.900042, -1.19214, 1.22819, -1.30266, 0.00228145, -0.00686636, -0.00770704, -0.00196025, -0.00508417, 0.0126647, -0.000277155, -0.131157, 59.2883, 28.0478, 6.28357, 1.82941, 3.27456, -0.0685925, 0.000575308, -0.00185296, 0.00105642, 0.00131451, 0.000597376, 0.000534944, 0.00455517, -0.00218229, -0.00621527, 0.000246746, 0.00547396, -0.000929388, 0.471008, -0.54338, 0.335896, -2.08384, -2.16584, -0.129887, 0.469099, -0.542725, 0.334998, -2.0834, -2.16442, -0.128979, -2.969e-06, 0.00152782, 0.000409465, 0.00211502, -0.00192327, -0.00650036
0.033156, 1.69122, -1.2268, -1.53868, -0.900046, -1.19215, 1.22819, -1.30266, 0.00262663, -0.0118491, -0.00632993, -0.00163395, -0.00378106, 0.0106583, 5.25406e-05, -0.166862, 59.4351, 28.0478, 6.28357, 1.823, 3.23153, -0.0750012, 0.000572099, -0.00184934, 0.00106822, 0.0013223, 0.000599071, 0.000533445, 0.00434125, -0.00241213, -0.00881582, 1.76731e-05, -0.00156508, -5.38163e-06, 0.471008, -0.543379, 0.335897, -2.08384, -2.16584, -0.129888, 0.469102, -0.542725, 0.334986, -2.0834, -2.16442, -0.128973, -3.59863e-06, 0.00165034, 0.000441934, 0.0022424, -0.00117987, -0.00900947
0.034156, 1.69122, -1.2268, -1.53869, -0.900051, -1.19215, 1.2282, -1.30266, 0.000190685, -0.0103371, -0.00604189, -0.00444884, -0.00608465, 0.00757168, 0.00473938, -0.0914839, 59.5065, 28.0875, 6.28357, 1.77997, 3.23153, -0.0750012, 0.000568411, -0.00184947, 0.00107479, 0.00133179, 0.000595499, 0.000535162, 0.00465092, -0.000869383, -0.00837208, -0.00430324, 0.000552644, -0.00528457, 0.471008, -0.543377, 0.335897, -2.08384, -2.16584, -0.129888, 0.469102, -0.542726, 0.33498, -2.08339, -2.16441, -0.128959, -4.2818e-06, 0.00177822, 0.000475796, 0.000728051, -0.00148913, -0.00853901
0.035156, 1.69123, -1.2268, -1.53869, -0.900047, -1.19216, 1.22821, -1.30266, 0.000279251, -0.0106435, -0.00293513, -0.000810958, -0.00388519, 0.00566865, 0.00307688, -0.0914839, 59.5065, 28.0121, 6.17248, 1.75525, 3.22421, -0.0621838, 0.000566311, -0.0018451, 0.00107695, 0.00132764, 0.000588866, 0.000535435, 0.00457613, -0.000555002, -0.00713224, -0.000506296, -0.00291342, -0.00447115, 0.471008, -0.543375, 0.335898, -2.08384, -2.16584, -0.129888, 0.469106, -0.542726, 0.334978, -2.0834, -2.16442, -0.128957, -5.02096e-06, 0.00191151, 0.000511068, 0.000455418, -0.00148569, -0.00725842
0.036156, 1.69123, -1.22681, -1.5387, -0.900048, -1.19217, 1.22821, -1.30266, 0.0034558, -0.00779199, -0.00646138, -0.000873279, -0.00131729, 0.0032614, 0.00159927, -0.0914839, 59.5065, 28.0478, 6.17248, 1.70581, 3.24527, -0.0420422, 0.000564804, -0.00184087, 0.00108121, 0.00133452, 0.000579137, 0.000531224, 0.00299645, -0.00152456, -0.00710933, -0.00474961, -0.00293223, -0.00067961, 0.471008, -0.543374, 0.335898, -2.08383, -2.16584, -0.129888, 0.46911, -0.542725, 0.334974, -2.08339, -2.16443, -0.12894, -5.81861e-06, 0.00205028, 0.000547764, 0.00136726, 0.000248748, -0.00698315
0.037156, 1.69124, -1.2268, -1.53871, -0.900048, -1.19217, 1.22822, -1.30266, 0.00405837, -0.00488166, -0.00494859, 3.55134e-06, -0.00464306, 0.00260827, 0.000337247, -0.0161054, 59.4708, 28.0478, 6.13678, 1.66919, 3.23886, -0.0164075, 0.000562542, -0.00183708, 0.00108119, 0.00133258, 0.000565207, 0.000530456, 0.0031383, -0.00138226, -0.00484631, -0.00495781, 0.00231844, -1.85422e-05, 0.471008, -0.543372, 0.335899, -2.08383, -2.16584, -0.129888, 0.469114, -0.542725, 0.334974, -2.0834, -2.16443, -0.128928, -6.67726e-06, 0.00219459, 0.000585897, 0.00131106, -0.000101135, -0.00472819
0.038156, 1.69125, -1.2268, -1.53871, -0.900054, -1.19218, 1.22823, -1.30266, 0.00542385, -0.00281089, -0.00470783, -0.00406453, -0.0064508, 0.00606361, 0.000390208, 0.0196001, 59.4351, 28.0875, 6.17248, 1.61426, 3.25259, -0.0164075, 0.00056369, -0.00183052, 0.00108288, 0.00133606, 0.000553542, 0.000522021, 0.0019531, -0.00348666, -0.00389339, -0.00453896, 0.00806696, 0.00432212, 0.471008, -0.54337, 0.335899, -2.08383, -2.16584, -0.129888, 0.469121, -0.542721, 0.334973, -2.08339, -2.16445, -0.128913, -7.59945e-06, 0.00234449, 0.000625478, 0.00340383, 0.00115826, -0.00362715
0.039156, 1.69126, -1.2268, -1.53872, -0.90006, -1.19219, 1.22824, -1.30265, 0.00378651, -0.0030029, -0.00349912, -0.00393895, -0.00924094, 0.00349235, 0.00255431, 0.170357, 59.4708, 28.0875, 6.20819, 1.59595, 3.28097, -0.0750012, 0.000562738, -0.00182602, 0.00108434, 0.00133934, 0.000539939, 0.000519329, 0.0029277, -0.00196697, -0.00371599, -0.00669698, 0.00886624, 9.28798e-05, 0.471008, -0.543367, 0.3359, -2.08383, -2.16584, -0.129888, 0.469125, -0.54272, 0.334971, -2.0834, -2.16446, -0.128896, -8.58778e-06, 0.00250002, 0.000666519, 0.00192637, 0.000262166, -0.00351641
0.040156, 1.69126, -1.2268, -1.53872, -0.900061, -1.1922, 1.22825, -1.30266, 0.00513239, -0.00305746, -0.00762508, -0.0029215, -0.00656384, 0.00632153, -0.000882867, 0.360787, 59.5065, 28.1589, 6.20819, 1.57764, 3.31027, -0.00267457, 0.000559753, -0.00182198, 0.00108728, 0.00134065, 0.000528042, 0.000508415, 0.00342623, -0.00258464, -0.00490966, -0.00630335, 0.00835582, 0.00289374, 0.471008, -0.543365, 0.3359, -2.08383, -2.16584, -0.129889, 0.469129, -0.54272, 0.334969, -2.08339, -2.16447, -0.128884, -9.64483e-06, 0.00266124, 0.000709027, 0.00251691, 0.000140226, -0.00474855
0.041156, 1.69127, -1.22681, -1.53872, -0.900073, -1.19221, 1.22826, -1.30266, 0.00625961, -0.004802, -0.00649351, -0.00704186, -0.0100165, 0.00437947, 0.000227176, 0.551216, 59.6176, 28.1986, 6.28357, 1.57764, 3.324, -0.0228162, 0.00055799, -0.00181547, 0.00109521, 0.00134511, 0.000518108, 0.000500002, 0.00228636, -0.0036197, -0.00635162, -0.0108664, 0.00893274, 0.00593478, 0.471008, -0.543362, 0.335901, -2.08383, -2.16584, -0.129889, 0.469135, -0.542717, 0.334961, -2.08338, -2.16449, -0.12887, -1.07732e-05, 0.00282817, 0.000753011, 0.00345668, 0.0016968, -0.00598268
0.042156, 1.69128, -1.22683, -1.53873, -0.900077, -1.19223, 1.22827, -1.30266, 0.00503058, -0.00852217, -0.00552581, -0.00834147, -0.0121573, 0.00206863, -3.35819e-05, 0.701973, 59.8398, 28.2343, 6.28357, 1.57123, 3.36062, -0.0164075, 0.000554722, -0.00180856, 0.00110751, 0.00135035, 0.000515689, 0.000491646, 0.00295631, -0.00278945, -0.00853003, -0.0137381, 0.00597826, 0.00594787, 0.471008, -0.54336, 0.335902, -2.08382, -2.16584, -0.129889, 0.469142, -0.542715, 0.334949, -2.08337, -2.1645, -0.128863, -1.19756e-05, 0.00300084, 0.000798475, 0.00257159, 0.00150944, -0.00816719
0.043156, 1.69129, -1.22684, -1.53873, -0.90008, -1.19224, 1.22828, -1.30265, 0.00653932, -0.00660961, -0.00655351, -0.00531324, -0.00949249, 0.006563, 0.000491575, 0.888436, 59.8755, 28.3454, 6.24786, 1.57764, 3.36062, -0.0292249, 0.000551006, -0.00180357, 0.00111255, 0.00135541, 0.000500572, 0.000493204, 0.00334218, -0.00386208, -0.00705536, -0.00809817, 0.00790578, 0.00463999, 0.471008, -0.543357, 0.335903, -2.08382, -2.16584, -0.129889, 0.469147, -0.542715, 0.334944, -2.08337, -2.1645, -0.128842, -1.32547e-05, 0.00317929, 0.000845424, 0.00370859, 0.00112384, -0.00675635
0.044156, 1.6913, -1.22684, -1.53874, -0.900083, -1.19226, 1.2283, -1.30266, 0.00660321, -0.00790979, -0.00550042, -0.00539624, -0.0123344, 0.010008, -0.000626194, 1.11457, 60.0223, 28.3851, 6.17248, 1.58954, 3.3533, -0.00267457, 0.00054665, -0.00179766, 0.00111849, 0.00135475, 0.000487512, 0.000487241, 0.00430336, -0.00443063, -0.00717772, -0.00563859, 0.0107195, 0.00548575, 0.471008, -0.543354, 0.335903, -2.08382, -2.16584, -0.129889, 0.469153, -0.542715, 0.334938, -2.08337, -2.16451, -0.12883, -1.46131e-05, 0.00336352, 0.000893861, 0.00430501, 0.000401289, -0.00699507
0.045156, 1.69132, -1.22684, -1.53875, -0.900087, -1.19227, 1.22831, -1.30266, 0.014555, -0.00532547, -0.00725316, -0.00564467, -0.0188416, 0.011758, -0.000632746, 1.15424, 60.0223, 28.5319, 6.09711, 1.59595, 3.36703, 0.00373412, 0.000547897, -0.00178503, 0.00112361, 0.00136734, 0.000462363, 0.000472054, 0.00248722, -0.00817527, -0.00660009, -0.0097931, 0.0200103, 0.0105052, 0.471008, -0.54335, 0.335904, -2.08382, -2.16584, -0.12989, 0.469165, -0.542709, 0.334934, -2.08336, -2.16454, -0.128793, -1.60536e-05, 0.00355356, 0.000943786, 0.00799926, 0.00244861, -0.00620578
0.046156, 1.69134, -1.22686, -1.53875, -0.900089, -1.19229, 1.22832, -1.30266, 0.0128413, -0.007116, -0.00494985, -0.00505069, -0.0194939, 0.0127773, -0.000167916, 1.38038, 60.173, 28.5319, 5.98602, 1.61426, 3.38901, -0.00267457, 0.000543923, -0.00177692, 0.00113115, 0.00136529, 0.000450788, 0.000466034, 0.00354994, -0.00762681, -0.00659382, -0.00676936, 0.0191574, 0.00876559, 0.471008, -0.543347, 0.335905, -2.08381, -2.16583, -0.12989, 0.469173, -0.542708, 0.334926, -2.08336, -2.16455, -0.128784, -1.75788e-05, 0.0037494, 0.000995199, 0.00748821, 0.00157191, -0.00629661
0.047156, 1.69136, -1.22686, -1.53876, -0.900085, -1.19231, 1.22834, -1.30266, 0.0151614, -0.00644385, -0.00514894, 0.000194516, -0.0154712, 0.0130733, 0.000171741, 1.45576, 60.2444, 28.6072, 5.79956, 1.63898, 3.42471, -0.00999879, 0.000542177, -0.00176628, 0.00113607, 0.0013724, 0.00042895, 0.00045529, 0.00349516, -0.0082124, -0.00565985, -0.00259288, 0.0164542, 0.00738104, 0.471008, -0.543343, 0.335906, -2.08381, -2.16583, -0.12989, 0.469184, -0.542705, 0.334922, -2.08335, -2.16457, -0.128755, -1.91915e-05, 0.00395105, 0.0010481, 0.0081032, 0.00170785, -0.00533066
0.048156, 1.69138, -1.22687, -1.53877, -0.900087, -1.19233, 1.22835, -1.30266, 0.0170315, -0.00608119, -0.00609544, -0.00104236, -0.0168387, 0.0175139, 0.000598525, 1.64619, 60.3198, 28.7183, 5.68848, 1.65729, 3.47507, -0.0228162, 0.000538396, -0.00175762, 0.00114491, 0.00138154, 0.000411624, 0.000451927, 0.00340757, -0.0100181, -0.0056844, -0.00101591, 0.0205145, 0.00898013, 0.471008, -0.543339, 0.335907, -2.08381, -2.16583, -0.129891, 0.469192, -0.542703, 0.334913, -2.08335, -2.16458, -0.128728, -2.08943e-05, 0.0041585, 0.00110247, 0.00990088, 0.00207947, -0.00534139
0.049156, 1.6914, -1.22688, -1.53877, -0.900084, -1.19235, 1.22836, -1.30265, 0.0133073, -0.00666913, -0.00494711, 0.00211733, -0.0169562, 0.0167603, 0.00233878, 1.79694, 60.4309, 28.754, 5.53772, 1.65088, 3.51077, -0.0750012, 0.000535535, -0.00174666, 0.00115179, 0.00138235, 0.000395522, 0.000449694, 0.00597735, -0.00727875, -0.0050769, 0.00134143, 0.0193456, 0.00133678, 0.471008, -0.543335, 0.335908, -2.08381, -2.16583, -0.129891, 0.469203, -0.5427, 0.334907, -2.08335, -2.16459, -0.128712, -2.269e-05, 0.00437173, 0.00115833, 0.00727708, -0.00044987, -0.00500199
0.050156, 1.69142, -1.22688, -1.53877, -0.900081, -1.19237, 1.22838, -1.30265, 0.0178869, -0.00529371, -0.00333427, 0.00347434, -0.0177811, 0.015961, -0.000605713, 1.90803, 60.4666, 28.754, 5.42664, 1.66369, 3.5538, -0.0164075, 0.000535703, -0.00173262, 0.00115394, 0.00138121, 0.000371766, 0.000428718, 0.00418699, -0.00956018, -0.00384282, 0.00175392, 0.0210751, 0.00810656, 0.471008, -0.543331, 0.335909, -2.0838, -2.16583, -0.129891, 0.469217, -0.542695, 0.334905, -2.08334, -2.16463, -0.128691, -2.45814e-05, 0.00459073, 0.00121564, 0.0095342, 0.00144005, -0.00351702
0.051156, 1.69145, -1.22688, -1.53878, -0.900084, -1.1924, 1.22839, -1.30265, 0.0190809, -0.00437366, -0.00494125, 0.00191447, -0.018652, 0.0164527, 0.00177026, 2.09846, 60.5023, 28.8691, 5.42664, 1.68201, 3.56845, -0.0750012, 0.0005325, -0.00172126, 0.00115977, 0.00138983, 0.000341798, 0.000428436, 0.00389657, -0.0102655, -0.00413125, -0.000445954, 0.0233948, 0.00721131, 0.471008, -0.543326, 0.335911, -2.0838, -2.16583, -0.129892, 0.469228, -0.542692, 0.3349, -2.08334, -2.16464, -0.128652, -2.6571e-05, 0.00481547, 0.00127442, 0.0102158, 0.0020248, -0.00371927
0.052156, 1.69147, -1.22689, -1.53878, -0.900093, -1.19242, 1.22841, -1.30265, 0.0193266, -0.00375797, -0.00583044, -0.000788243, -0.0185827, 0.0118269, 0.000471043, 2.32459, 60.538, 28.8294, 5.50201, 1.68201, 3.58951, -0.0557752, 0.000533038, -0.00170761, 0.00116426, 0.00139495, 0.000316726, 0.000407825, 0.0028544, -0.00999547, -0.00490205, -0.00644722, 0.0221361, 0.0107206, 0.471008, -0.543321, 0.335912, -2.0838, -2.16583, -0.129892, 0.469241, -0.542686, 0.334897, -2.08333, -2.16467, -0.128623, -2.86617e-05, 0.00504591, 0.00133464, 0.0098789, 0.00339173, -0.00425025
0.053156, 1.69149, -1.2269, -1.53879, -0.900089, -1.19244, 1.22842, -1.30265, 0.0197353, -0.00594422, -0.00595247, 0.00101175, -0.0185301, 0.0135372, -0.000429747, 2.55073, 60.6848, 28.9048, 5.42664, 1.68201, 3.59683, -0.0356336, 0.000527088, -0.00169751, 0.00117168, 0.00139451, 0.000296639, 0.000400842, 0.00384831, -0.0101541, -0.00587595, -0.00439789, 0.0207983, 0.0104661, 0.471008, -0.543316, 0.335913, -2.08379, -2.16583, -0.129892, 0.469251, -0.542685, 0.334889, -2.08333, -2.16469, -0.128604, -3.0856e-05, 0.00528201, 0.00139628, 0.0100355, 0.00280307, -0.00530934
0.054156, 1.69152, -1.2269, -1.5388, -0.900087, -1.19247, 1.22844, -1.30264, 0.0244632, -0.00572998, -0.00679347, 0.000505012, -0.0188665, 0.0139467, 0.000698504, 2.58643, 60.7602, 29.0159, 5.42664, 1.6875, 3.62521, -0.0621838, 0.000525837, -0.00168186, 0.00117851, 0.00140646, 0.000265237, 0.000389183, 0.00211169, -0.0127999, -0.00635631, -0.0058547, 0.0219154, 0.0139476, 0.471008, -0.543311, 0.335915, -2.08379, -2.16583, -0.129893, 0.469267, -0.542679, 0.334883, -2.08332, -2.16472, -0.128561, -3.31567e-05, 0.00552372, 0.00145934, 0.012596, 0.0049415, -0.00553084
0.055156, 1.69154, -1.22691, -1.5388, -0.900094, -1.1925, 1.22846, -1.30264, 0.0200154, -0.00780505, -0.004699, -0.0023889, -0.023067, 0.0187486, 0.000466912, 2.81654, 60.7959, 29.0159, 5.53772, 1.6756, 3.65451, -0.0621838, 0.000523042, -0.00166949, 0.00118339, 0.00141445, 0.000232504, 0.000378099, 0.00457299, -0.0117562, -0.00660362, -0.00262723, 0.025828, 0.0119793, 0.471008, -0.543305, 0.335916, -2.08378, -2.16583, -0.129893, 0.469279, -0.542675, 0.334879, -2.08332, -2.16474, -0.12852, -3.55665e-05, 0.00577098, 0.0015238, 0.0116304, 0.00275429, -0.00606121
0.056156, 1.69157, -1.22691, -1.53881, -0.900089, -1.19253, 1.22847, -1.30264, 0.0235631, -0.00806627, -0.00846952, -0.00085272, -0.0269678, 0.0179271, 7.48483e-05, 2.89191, 60.907, 29.0912, 5.50201, 1.68201, 3.68289, -0.0557752, 0.000518499, -0.00165626, 0.00119058, 0.00142071, 0.000204245, 0.000369141, 0.00520865, -0.0121491, -0.00816509, -0.00825967, 0.028762, 0.011433, 0.471008, -0.5433, 0.335918, -2.08378, -2.16583, -0.129894, 0.469292, -0.542672, 0.334873, -2.08332, -2.16476, -0.128486, -3.8088e-05, 0.00602372, 0.00158964, 0.0119866, 0.00263602, -0.00764777
0.057156, 1.6916, -1.22691, -1.53881, -0.900087, -1.19256, 1.22849, -1.30264, 0.0260955, -0.00474063, -0.00933102, 0.00248531, -0.0283478, 0.0126357, -0.000220669, 2.96729, 60.8713, 29.0912, 5.50201, 1.64447, 3.71127, -0.0484509, 0.000517507, -0.00164043, 0.00119138, 0.00142488, 0.000166943, 0.000353163, 0.0049272, -0.0114831, -0.00667755, -0.0127438, 0.0306209, 0.0103887, 0.471008, -0.543294, 0.335919, -2.08378, -2.16583, -0.129894, 0.469308, -0.542666, 0.334873, -2.08331, -2.1648, -0.128446, -4.07237e-05, 0.00628188, 0.00165682, 0.0113625, 0.0029158, -0.00604802
0.058156, 1.69163, -1.22692, -1.53881, -0.900083, -1.19259, 1.22851, -1.30264, 0.0256426, -0.00414439, -0.00837263, 0.00279171, -0.0300071, 0.0142647, 0.000124679, 3.003, 60.907, 29.0159, 5.46234, 1.62616, 3.7186, -0.0557752, 0.000515541, -0.00162378, 0.00119372, 0.0014227, 0.000133395, 0.000334617, 0.00573199, -0.0114236, -0.00580488, -0.0109566, 0.0334727, 0.00924335, 0.471008, -0.543287, 0.335921, -2.08377, -2.16582, -0.129894, 0.469324, -0.542661, 0.334871, -2.08331, -2.16484, -0.128417, -4.34763e-05, 0.00654537, 0.00172534, 0.0113606, 0.00224802, -0.005241
0.059156, 1.69166, -1.22692, -1.53882, -0.900077, -1.19262, 1.22853, -1.30265, 0.0232669, -0.00463773, -0.0080461, 0.00377948, -0.0312345, 0.0106156, -0.00212053, 3.11805, 60.9824, 29.0912, 5.38696, 1.60144, 3.72592, 0.00373412, 0.000508573, -0.00161181, 0.00120002, 0.00142781, 0.000100974, 0.000324786, 0.00719697, -0.00912424, -0.00606414, -0.0135758, 0.0321981, 0.0080529, 0.471008, -0.543281, 0.335923, -2.08377, -2.16582, -0.129895, 0.469336, -0.54266, 0.334865, -2.0833, -2.16486, -0.128379, -4.63483e-05, 0.0068141, 0.00179515, 0.00910442, 0.0010163, -0.00558528
0.060156, 1.69169, -1.22693, -1.53882, -0.90007, -1.19265, 1.22854, -1.30264, 0.024371, -0.00484593, -0.00412666, 0.00430642, -0.0326867, 0.0125282, -0.000904768, 3.11805, 61.0538, 29.0159, 5.31555, 1.58954, 3.73324, -0.00999879, 0.00050643, -0.00159518, 0.00120175, 0.00142528, 6.87807e-05, 0.000314453, 0.00683496, -0.0105002, -0.0046418, -0.00905908, 0.0340642, 0.00889022, 0.471008, -0.543274, 0.335924, -2.08376, -2.16582, -0.129895, 0.469353, -0.542654, 0.334865, -2.08331, -2.16489, -0.128351, -4.93422e-05, 0.00708797, 0.00186624, 0.0105141, 0.00148494, -0.00409511
0.061156, 1.69173, -1.22693, -1.53882, -0.900069, -1.19269, 1.22856, -1.30264, 0.0279582, -0.0042214, -0.00490872, 0.0029582, -0.0339626, 0.0196921, -0.000365599, 3.11805, 61.0934, 29.0912, 5.31555, 1.58313, 3.71127, -0.0164075, 0.000502984, -0.00157789, 0.00120688, 0.00143335, 2.69201e-05, 0.000297563, 0.00623104, -0.0138264, -0.00432731, -0.00521266, 0.0397623, 0.0122831, 0.471007, -0.543267, 0.335926, -2.08376, -2.16582, -0.129896, 0.46937, -0.542649, 0.33486, -2.0833, -2.16493, -0.128302, -5.24605e-05, 0.00736687, 0.00193857, 0.0138226, 0.00244785, -0.00371891
0.062156, 1.69176, -1.22693, -1.53883, -0.900072, -1.19272, 1.22858, -1.30264, 0.0264768, -0.00286133, -0.00440348, 0.00347032, -0.035596, 0.0202278, -0.000243567, 3.15376, 61.0934, 29.1269, 5.38696, 1.59595, 3.69021, -0.0164075, 0.00049958, -0.00156131, 0.00120898, 0.00143766, -1.81274e-05, 0.000280242, 0.00747762, -0.0128529, -0.0031813, -0.00443431, 0.0428073, 0.00994406, 0.471007, -0.543259, 0.335928, -2.08375, -2.16582, -0.129897, 0.469387, -0.542644, 0.334859, -2.0833, -2.16497, -0.128254, -5.57056e-05, 0.00765073, 0.00201212, 0.0129331, 0.0012848, -0.002678
0.063156, 1.69179, -1.22694, -1.53883, -0.900069, -1.19276, 1.2286, -1.30265, 0.0326134, -0.00361329, -0.00148705, 0.00345644, -0.0364958, 0.020618, -0.0011456, 3.15376, 61.1649, 29.0555, 5.35126, 1.60785, 3.66824, 0.0101428, 0.000494973, -0.00154492, 0.0012134, 0.00144003, -5.60889e-05, 0.000262491, 0.0047281, -0.0167906, -0.00290886, -0.00294096, 0.0432034, 0.0180552, 0.471007, -0.543252, 0.33593, -2.08374, -2.16582, -0.129897, 0.469403, -0.54264, 0.334856, -2.08329, -2.16501, -0.128215, -5.90798e-05, 0.00793954, 0.00208689, 0.0167738, 0.00440734, -0.00202624
0.064156, 1.69181, -1.22694, -1.53883, -0.900064, -1.1928, 1.22862, -1.30265, 0.0322217, -0.00327055, -0.0044883, 0.00337027, -0.0313887, 0.0205417, -0.00028892, 3.22913, 61.2006, 29.0555, 5.31555, 1.58954, 3.65451, -0.00267457, 0.000487883, -0.00153147, 0.00121696, 0.00143851, -9.16926e-05, 0.000255241, 0.00475141, -0.0166106, -0.00379976, -0.00315688, 0.0397329, 0.0171715, 0.471007, -0.543244, 0.335932, -2.08374, -2.16582, -0.129898, 0.469416, -0.542638, 0.334853, -2.0833, -2.16504, -0.128182, -6.25855e-05, 0.00823327, 0.00216285, 0.0165592, 0.00480792, -0.00282822
0.065156, 1.69184, -1.22695, -1.53884, -0.900058, -1.19284, 1.22864, -1.30265, 0.0328639, -0.00396346, -0.00506496, 0.00334794, -0.0333464, 0.0209086, 7.87238e-05, 3.26881, 61.2759, 29.1269, 5.27588, 1.59595, 3.63254, -0.00999879, 0.000477824, -0.00151794, 0.00122282, 0.00144195, -0.000136275, 0.000251499, 0.00537703, -0.0167274, -0.00444544, -0.00437512, 0.0411082, 0.016561, 0.471007, -0.543236, 0.335935, -2.08373, -2.16581, -0.129898, 0.46943, -0.542638, 0.334847, -2.08331, -2.16506, -0.128134, -6.6225e-05, 0.00853189, 0.00224002, 0.0166712, 0.00459319, -0.00348933
0.066156, 1.69188, -1.22695, -1.53883, -0.900063, -1.19287, 1.22867, -1.30264, 0.0384151, -0.00182198, -0.00107993, -0.000236698, -0.0340442, 0.0205013, 5.2535e-05, 3.22913, 61.2402, 29.0159, 5.38696, 1.58313, 3.62521, -0.00999879, 0.00047729, -0.00149713, 0.00122265, 0.00144119, -0.000182878, 0.000228525, 0.00122506, -0.0211467, -0.00262964, -0.00390546, 0.0440647, 0.0268749, 0.471007, -0.543227, 0.335937, -2.08373, -2.16581, -0.129899, 0.469451, -0.542629, 0.334849, -2.0833, -2.16511, -0.128091, -7.00005e-05, 0.00883538, 0.00231837, 0.020998, 0.00889705, -0.00110684
0.067156, 1.69191, -1.22696, -1.53883, -0.900064, -1.19291, 1.22869, -1.30264, 0.0360745, -0.0046595, -0.000946266, -0.000988468, -0.0343266, 0.0199129, -0.000236205, 3.19343, 61.387, 29.0159, 5.42664, 1.56482, 3.62521, -0.00267457, 0.000472229, -0.00147876, 0.00123043, 0.0014425, -0.000218616, 0.000209958, 0.00259196, -0.0199304, -0.00431274, -0.00461375, 0.0413911, 0.0255558, 0.471007, -0.543218, 0.335939, -2.08372, -2.16581, -0.1299, 0.469469, -0.542623, 0.334842, -2.08329, -2.16515, -0.128056, -7.39143e-05, 0.00914373, 0.0023979, 0.0197674, 0.0080654, -0.00286482
0.068156, 1.69194, -1.22696, -1.53883, -0.900062, -1.19295, 1.22871, -1.30264, 0.0364161, -0.00544496, -0.00415205, -0.000585965, -0.0340496, 0.0239862, -0.00015744, 3.19343, 61.3513, 29.0159, 5.42664, 1.53461, 3.63254, -0.00267457, 0.000466604, -0.00146186, 0.00123076, 0.00143921, -0.000264002, 0.000195729, 0.00399103, -0.0202523, -0.00554646, -0.00362466, 0.0428113, 0.0240541, 0.471007, -0.543209, 0.335941, -2.08371, -2.16581, -0.1299, 0.469486, -0.542619, 0.334843, -2.0833, -2.16519, -0.128015, -7.79688e-05, 0.0094569, 0.0024786, 0.0200903, 0.00720065, -0.00422936
0.069156, 1.69198, -1.22696, -1.53883, -0.900061, -1.19299, 1.22874, -1.30264, 0.0415387, -0.00390005, -0.0023394, -0.000335884, -0.0351168, 0.0230455, 0.00111577, 3.11805, 61.3513, 28.9802, 5.42664, 1.53461, 3.62521, -0.0356336, 0.000460959, -0.00144223, 0.00123138, 0.00143522, -0.00031686, 0.000181857, 0.0017069, -0.0230634, -0.00434492, -0.00384868, 0.0450143, 0.0281313, 0.471007, -0.5432, 0.335944, -2.08371, -2.16581, -0.129901, 0.469506, -0.542614, 0.334843, -2.0833, -2.16524, -0.127968, -8.21662e-05, 0.00977487, 0.00256046, 0.0228552, 0.00970375, -0.00269137
0.070156, 1.69201, -1.22696, -1.53883, -0.900058, -1.19302, 1.22877, -1.30264, 0.0392286, -0.00187456, -0.00186454, 0.000745167, -0.0391676, 0.0224418, -0.000476843, 3.04267, 61.3116, 28.9802, 5.38696, 1.49707, 3.61148, -0.00267457, 0.000456546, -0.001422, 0.00123036, 0.0014292, -0.000367133, 0.000159459, 0.00383337, -0.0209993, -0.00279861, -0.00475115, 0.0500916, 0.0253569, 0.471007, -0.54319, 0.335947, -2.0837, -2.16581, -0.129902, 0.469526, -0.542608, 0.334846, -2.0833, -2.16529, -0.127927, -8.65087e-05, 0.0100976, 0.00264348, 0.0209215, 0.00760459, -0.00134949
0.071156, 1.69205, -1.22696, -1.53884, -0.900059, -1.19306, 1.22879, -1.30264, 0.037155, 0.000268811, -0.00230695, 0.00194986, -0.0394784, 0.0217289, -0.000555242, 2.96729, 61.2402, 29.0159, 5.46234, 1.50989, 3.60415, 0.00373412, 0.000451041, -0.00140293, 0.00123046, 0.00142982, -0.000421751, 0.000140775, 0.0053247, -0.019278, -0.00151419, -0.00477494, 0.0522299, 0.0220034, 0.471007, -0.54318, 0.335949, -2.08369, -2.1658, -0.129903, 0.469545, -0.542602, 0.334847, -2.0833, -2.16534, -0.127874, -9.09987e-05, 0.0104251, 0.00272764, 0.0192979, 0.00619157, -0.000176787
0.072156, 1.69209, -1.22696, -1.53884, -0.900055, -1.19311, 1.22882, -1.30264, 0.0356405, -0.00160517, -0.00263752, 0.00560041, -0.0395374, 0.0258114, 0.0018339, 2.89191, 61.3116, 29.0555, 5.42664, 1.52179, 3.59683, -0.0557752, 0.000442428, -0.00138314, 0.00123455, 0.00142509, -0.000472963, 0.000133038, 0.00810254, -0.0183225, -0.00182064, 0.000323203, 0.0523311, 0.0148062, 0.471007, -0.543169, 0.335952, -2.08368, -2.1658, -0.129903, 0.469565, -0.542599, 0.334843, -2.08332, -2.16537, -0.127828, -9.56382e-05, 0.0107574, 0.00281294, 0.0184273, 0.0037896, -0.00079672
0.073156, 1.69212, -1.22696, -1.53884, -0.900052, -1.19315, 1.22885, -1.30264, 0.0384566, -0.00262589, -0.00188699, 0.00421475, -0.039555, 0.0284524, -0.000472817, 2.77686, 61.2402, 29.0555, 5.42664, 1.53461, 3.59683, -0.00999879, 0.000435356, -0.00136278, 0.00123153, 0.00141528, -0.000533527, 0.000111494, 0.0070045, -0.0208379, -0.00229573, 0.00214128, 0.0530419, 0.021509, 0.471007, -0.543159, 0.335955, -2.08368, -2.1658, -0.129904, 0.469585, -0.542595, 0.334847, -2.08332, -2.16543, -0.127781, -0.00010043, 0.0110943, 0.00289937, 0.0208781, 0.00538689, -0.00108499
0.074156, 1.69215, -1.22696, -1.53884, -0.900055, -1.19319, 1.22889, -1.30264, 0.0365449, -0.00467487, -0.0021897, 0.00140746, -0.0400809, 0.0304122, 0.00063423, 2.70148, 61.3513, 29.0912, 5.50201, 1.55932, 3.60415, -0.0356336, 0.000426097, -0.00134304, 0.00123744, 0.00141249, -0.000585374, 9.77538e-05, 0.0079354, -0.0206693, -0.00375661, 0.00218302, 0.052861, 0.0207166, 0.471006, -0.543147, 0.335958, -2.08367, -2.1658, -0.129905, 0.469605, -0.542591, 0.334843, -2.08333, -2.16548, -0.127734, -0.000105375, 0.011436, 0.00298692, 0.0206853, 0.00502774, -0.00257952
0.075156, 1.69218, -1.22697, -1.53885, -0.900052, -1.19323, 1.22892, -1.30263, 0.033266, -0.00419616, -0.00236738, 0.00120895, -0.0403818, 0.027773, 0.00164353, 2.70148, 61.387, 29.1269, 5.50201, 1.58313, 3.59683, -0.0685925, 0.000412806, -0.00132714, 0.00124109, 0.00140496, -0.000638905, 9.48594e-05, 0.00946509, -0.0183106, -0.00365816, 0.000105442, 0.0524632, 0.0164751, 0.471006, -0.543136, 0.335961, -2.08366, -2.1658, -0.129906, 0.469621, -0.542592, 0.334839, -2.08335, -2.16551, -0.127689, -0.000110477, 0.0117823, 0.00307558, 0.0183829, 0.00375218, -0.00256009
0.076156, 1.69222, -1.22696, -1.53885, -0.900051, -1.19328, 1.22895, -1.30264, 0.0344891, -0.00355522, -0.00256055, 0.000173734, -0.0397187, 0.029393, 0.00062097, 2.55073, 61.2759, 29.1666, 5.53772, 1.58954, 3.6188, -0.0557752, 0.000406811, -0.00130362, 0.00123847, 0.00139871, -0.000705218, 7.20511e-05, 0.00899148, -0.0195474, -0.00344965, 0.00108452, 0.0537594, 0.0197591, 0.471006, -0.543124, 0.335964, -2.08365, -2.16579, -0.129907, 0.469645, -0.542585, 0.334843, -2.08335, -2.16557, -0.127632, -0.000115737, 0.0121332, 0.00316535, 0.0196034, 0.00458936, -0.00222839
0.077156, 1.69226, -1.22697, -1.53885, -0.900048, -1.19332, 1.22899, -1.30264, 0.0374599, -0.00453525, 1.55018e-05, -0.000659959, -0.0396719, 0.0316893, 0.000142715, 2.43568, 61.3513, 29.0912, 5.57739, 1.60144, 3.61148, -0.0484509, 0.000398311, -0.00127949, 0.00124154, 0.00138365, -0.000759724, 5.04478e-05, 0.00757459, -0.0222911, -0.0032172, 0.00447549, 0.0541394, 0.0252028, 0.471006, -0.543112, 0.335967, -2.08364, -2.16579, -0.129908, 0.469669, -0.54258, 0.334841, -2.08336, -2.16563, -0.127596, -0.000121158, 0.0124888, 0.00325621, 0.0222958, 0.00642047, -0.00177102
0.078156, 1.69229, -1.22697, -1.53886, -0.900049, -1.19337, 1.22903, -1.30263, 0.0338886, -0.00156166, -0.00687651, -0.00199623, -0.0395194, 0.0328814, 0.000366412, 2.43568, 61.2759, 29.238, 5.6488, 1.61426, 3.6188, -0.0557752, 0.000382832, -0.00126316, 0.00124425, 0.00138187, -0.00082941, 4.94212e-05, 0.0103821, -0.0195476, -0.00383947, -0.000214813, 0.0582885, 0.0193382, 0.471006, -0.5431, 0.33597, -2.08363, -2.16579, -0.129909, 0.469686, -0.542582, 0.334839, -2.08338, -2.16567, -0.127529, -0.000126741, 0.012849, 0.00334816, 0.0196283, 0.0039925, -0.0026468
0.079156, 1.69234, -1.22697, -1.53886, -0.900049, -1.19341, 1.22907, -1.30263, 0.0347382, -0.00528286, -0.00405724, -0.00300842, -0.0376048, 0.0334107, -2.69914e-05, 2.28492, 61.3116, 29.2023, 5.72418, 1.57764, 3.63986, -0.0484509, 0.000375678, -0.00123783, 0.00124597, 0.00136978, -0.000887405, 2.53662e-05, 0.00951834, -0.0211205, -0.00520129, 0.00273848, 0.0534745, 0.02355, 0.471006, -0.543087, 0.335973, -2.08362, -2.16579, -0.129909, 0.469711, -0.542575, 0.334839, -2.08338, -2.16573, -0.127487, -0.00013249, 0.0132137, 0.00344119, 0.0211131, 0.00548441, -0.00381196
0.080156, 1.69237, -1.22697, -1.53886, -0.900046, -1.19346, 1.22911, -1.30263, 0.0341985, -0.00312127, -0.00210069, 0.000247249, -0.0386491, 0.0331479, 0.000253274, 2.17384, 61.2759, 29.1666, 5.76385, 1.60144, 3.67557, -0.0557752, 0.000364315, -0.00121585, 0.00124432, 0.00136067, -0.000959852, 1.15369e-05, 0.0106706, -0.0202234, -0.00281519, 0.00560841, 0.0561953, 0.0204675, 0.471006, -0.543074, 0.335977, -2.08361, -2.16578, -0.12991, 0.469733, -0.542572, 0.334842, -2.0834, -2.16579, -0.127426, -0.000138406, 0.013583, 0.0035353, 0.020339, 0.00431192, -0.00151387
0.081156, 1.69242, -1.22696, -1.53886, -0.900044, -1.19352, 1.22915, -1.30263, 0.0357304, 0.000191675, -0.00157378, -0.000362494, -0.0424073, 0.0384109, -0.000102417, 1.98341, 61.1649, 29.1666, 5.79956, 1.58313, 3.69754, -0.0484509, 0.000355673, -0.00119096, 0.00124312, 0.00135624, -0.0010332, -9.90654e-06, 0.0110608, -0.0217855, -0.000418194, 0.00870911, 0.0655187, 0.0218403, 0.471006, -0.54306, 0.33598, -2.0836, -2.16578, -0.129911, 0.469758, -0.542566, 0.334844, -2.08341, -2.16585, -0.127359, -0.00014449, 0.0139569, 0.00363046, 0.0219939, 0.0039954, 0.000840022
0.082156, 1.69245, -1.22697, -1.53887, -0.900044, -1.19357, 1.22919, -1.30263, 0.0353444, -0.00271512, -0.00284961, 0.00133899, -0.0458697, 0.0375643, -6.82777e-05, 1.98341, 61.2759, 29.238, 5.87494, 1.58954, 3.7186, -0.0484509, 0.000338323, -0.00117318, 0.0012514, 0.00135231, -0.0010941, -1.69269e-05, 0.0132622, -0.020466, -0.00243149, 0.0059316, 0.0652408, 0.0182457, 0.471006, -0.543046, 0.335984, -2.08359, -2.16578, -0.129913, 0.469776, -0.542567, 0.334836, -2.08342, -2.16589, -0.127304, -0.000150747, 0.0143352, 0.00372669, 0.0206757, 0.00245672, -0.00135396
0.083156, 1.69249, -1.22697, -1.53887, -0.900042, -1.19362, 1.22923, -1.30264, 0.0379895, -0.000230182, -0.00199723, 0.00366301, -0.0488724, 0.0369154, -0.00146967, 1.87232, 61.2006, 29.238, 5.91064, 1.59595, 3.74057, -0.00999879, 0.000324704, -0.00115048, 0.00125056, 0.00134249, -0.00117273, -3.54267e-05, 0.0132836, -0.0210728, -0.000577604, 0.00568218, 0.069958, 0.0196148, 0.471005, -0.543032, 0.335988, -2.08358, -2.16578, -0.129914, 0.469799, -0.542566, 0.334838, -2.08344, -2.16596, -0.127238, -0.000157176, 0.014718, 0.00382396, 0.0213433, 0.00255775, 0.000551932
0.084156, 1.69253, -1.22697, -1.53888, -0.900044, -1.19369, 1.22927, -1.30263, 0.0377698, -0.000889713, -0.00393688, 0.000432414, -0.0509487, 0.0367662, -0.000505063, 1.72157, 61.0934, 29.2023, 6.02173, 1.60144, 3.7543, -0.0228162, 0.000312908, -0.00112658, 0.00124951, 0.00133995, -0.00125542, -4.96202e-05, 0.0136812, -0.0210748, -0.00213758, 0.00140199, 0.071618, 0.0196796, 0.471005, -0.543017, 0.335992, -2.08357, -2.16577, -0.129915, 0.469824, -0.542562, 0.334841, -2.08346, -2.16602, -0.127159, -0.000163782, 0.0151053, 0.00392227, 0.0212964, 0.00279313, -0.000952113
0.085156, 1.69257, -1.22698, -1.53888, -0.900043, -1.19375, 1.22931, -1.30263, 0.0388335, -0.00438864, -0.00296005, -0.000198095, -0.0574869, 0.0360814, -0.000336708, 1.64619, 61.2402, 29.2023, 6.0614, 1.61426, 3.7836, -0.0228162, 0.000295607, -0.00110591, 0.00125832, 0.00134074, -0.00132425, -5.89404e-05, 0.0147726, -0.0211805, -0.00408562, -0.00207508, 0.073463, 0.0194901, 0.471005, -0.543002, 0.335996, -2.08356, -2.16577, -0.129916, 0.469844, -0.542562, 0.334832, -2.08347, -2.16606, -0.127091, -0.000170564, 0.0154971, 0.00402162, 0.0213637, 0.00241201, -0.00294927
0.086156, 1.69262, -1.22698, -1.53889, -0.900035, -1.19381, 1.22935, -1.30263, 0.0353227, -0.00623819, -0.0039882, 0.00112719, -0.0580056, 0.0373184, 1.28868e-05, 1.49146, 61.2402, 29.2777, 6.02173, 1.63898, 3.76895, -0.0292249, 0.000278251, -0.00108289, 0.00126128, 0.00133546, -0.00140591, -6.68111e-05, 0.0177518, -0.018929, -0.00509606, -0.00105586, 0.0727907, 0.0139132, 0.471005, -0.542986, 0.336, -2.08355, -2.16577, -0.129917, 0.469868, -0.542562, 0.33483, -2.0835, -2.16612, -0.127016, -0.000177527, 0.0158932, 0.00412199, 0.0191783, -6.9341e-05, -0.0042416
0.087156, 1.69266, -1.22699, -1.53889, -0.900038, -1.19388, 1.22939, -1.30263, 0.0359321, -0.00628618, -0.00191948, -0.000763348, -0.057579, 0.038012, -0.000974753, 1.45576, 61.3116, 29.238, 6.09711, 1.63898, 3.7543, -0.00267457, 0.000261674, -0.00106058, 0.00126795, 0.00133543, -0.00148199, -8.43195e-05, 0.0168919, -0.0202274, -0.00466158, 0.00062811, 0.0730805, 0.0183301, 0.471005, -0.542971, 0.336004, -2.08354, -2.16576, -0.129918, 0.46989, -0.54256, 0.334825, -2.08351, -2.16617, -0.126942, -0.000184671, 0.0162937, 0.00422337, 0.0204528, 0.00116655, -0.00361716
0.088156, 1.69271, -1.22698, -1.5389, -0.900036, -1.19395, 1.22944, -1.30263, 0.0385934, -0.00193504, -0.00567287, 0.0018636, -0.066718, 0.0380018, -0.000887194, 1.34071, 61.2006, 29.2777, 6.13678, 1.63898, 3.7543, 0.00373412, 0.00024529, -0.00103746, 0.00126731, 0.00133821, -0.00157686, -9.6892e-05, 0.0190824, -0.0193571, -0.0032438, -0.00564621, 0.0852925, 0.0136647, 0.471005, -0.542954, 0.336008, -2.08353, -2.16576, -0.129919, 0.469914, -0.542559, 0.334826, -2.08353, -2.16624, -0.126845, -0.000192, 0.0166987, 0.00432576, 0.0197064, -0.000845079, -0.0024292
0.089156, 1.69276, -1.22699, -1.5389, -0.900037, -1.19402, 1.22948, -1.30264, 0.0412901, -0.00247508, -0.00240179, 0.000806442, -0.0684049, 0.0382828, -0.00130354, 1.18995, 61.2402, 29.2023, 6.17248, 1.63257, 3.74698, 0.0229602, 0.00023212, -0.00100972, 0.00127175, 0.00133873, -0.0016595, -0.000125356, 0.0177221, -0.0215479, -0.00270256, -0.00421914, 0.0865388, 0.0187214, 0.471004, -0.542938, 0.336012, -2.08351, -2.16576, -0.129921, 0.469941, -0.542554, 0.334823, -2.08353, -2.16631, -0.126764, -0.000199514, 0.0171079, 0.00442916, 0.0218577, 0.000913717, -0.00164664
0.090156, 1.6928, -1.22699, -1.53891, -0.900037, -1.19409, 1.22951, -1.30264, 0.0414154, -0.00408652, -0.00508647, 1.85318e-06, -0.0704241, 0.0377491, -0.00110639, 1.11457, 61.2006, 29.2023, 6.20819, 1.63898, 3.7543, 0.0293689, 0.000215974, -0.000985587, 0.00127577, 0.0013472, -0.00174815, -0.00013934, 0.0189069, -0.0210239, -0.00480313, -0.00843534, 0.0868789, 0.017451, 0.471004, -0.54292, 0.336017, -2.0835, -2.16575, -0.129922, 0.469966, -0.542551, 0.33482, -2.08354, -2.16637, -0.126668, -0.000207216, 0.0175215, 0.00453354, 0.021293, 0.000460142, -0.00378488
0.091156, 1.69285, -1.22699, -1.53892, -0.900039, -1.19416, 1.22955, -1.30263, 0.0447741, -0.00229802, -0.00802808, -0.000702202, -0.0710604, 0.0417916, 0.000720472, 1.03919, 61.1649, 29.238, 6.24786, 1.62067, 3.76163, -0.00999879, 0.000199709, -0.000961084, 0.0012816, 0.00135999, -0.00183727, -0.000150751, 0.0186227, -0.0231781, -0.00475099, -0.00841667, 0.0918484, 0.0179399, 0.471004, -0.542903, 0.336021, -2.08349, -2.16575, -0.129923, 0.46999, -0.542548, 0.334816, -2.08356, -2.16642, -0.126566, -0.000215108, 0.0179394, 0.00463891, 0.0234282, 0.00123917, -0.00364944
0.092156, 1.69291, -1.22699, -1.53893, -0.900039, -1.19424, 1.22959, -1.30263, 0.048069, -0.00183868, -0.00599021, -0.00113492, -0.0719851, 0.0407498, -0.00050303, 0.928108, 61.1649, 29.238, 6.28357, 1.61426, 3.76163, 0.0165515, 0.000184521, -0.000933967, 0.00128687, 0.00137107, -0.0019284, -0.000173396, 0.0170689, -0.0251735, -0.00412158, -0.0085717, 0.0928653, 0.0234921, 0.471004, -0.542885, 0.336026, -2.08348, -2.16575, -0.129924, 0.470018, -0.542543, 0.334812, -2.08356, -2.16649, -0.126465, -0.000223192, 0.0183616, 0.00474526, 0.02538, 0.00318035, -0.00274091
0.093156, 1.69296, -1.22699, -1.53894, -0.900038, -1.19432, 1.22963, -1.30263, 0.0508538, -0.00062057, -0.00600223, -0.000630283, -0.0767945, 0.0344493, 0.000139365, 0.928108, 61.1292, 29.1666, 6.28357, 1.58954, 3.7836, 0.00373412, 0.000167567, -0.000909538, 0.00128962, 0.00137922, -0.00202034, -0.000188028, 0.0166027, -0.0248989, -0.00407628, -0.0163086, 0.0952613, 0.0235497, 0.471003, -0.542867, 0.336031, -2.08346, -2.16574, -0.129926, 0.470042, -0.54254, 0.334811, -2.08357, -2.16655, -0.126365, -0.00023147, 0.0187881, 0.00485258, 0.0250825, 0.004049, -0.00250839
0.094156, 1.69301, -1.22699, -1.53895, -0.900043, -1.1944, 1.22966, -1.30263, 0.0533457, -0.000586214, -0.00907948, -0.00125346, -0.0768057, 0.0308793, -0.000381808, 0.928108, 61.1292, 29.2023, 6.32324, 1.59595, 3.77627, 0.0165515, 0.000149396, -0.000885208, 0.00129769, 0.00139908, -0.00211435, -0.000205961, 0.0160203, -0.025234, -0.00571702, -0.0227092, 0.0941906, 0.0256278, 0.471003, -0.542848, 0.336035, -2.08345, -2.16574, -0.129927, 0.470067, -0.542537, 0.334804, -2.08358, -2.16661, -0.126251, -0.000239944, 0.0192188, 0.00496086, 0.0253281, 0.00532152, -0.00394009
0.095156, 1.69307, -1.22699, -1.53895, -0.900043, -1.19448, 1.22969, -1.30263, 0.0580597, 0.000315033, -0.00930528, -0.000764583, -0.081332, 0.0326244, 0.000966165, 0.813057, 61.0934, 29.1666, 6.32324, 1.59595, 3.77627, -0.0164075, 0.000135879, -0.000856716, 0.00130092, 0.00141557, -0.0022097, -0.000227077, 0.0155538, -0.027518, -0.00533048, -0.0238357, 0.100099, 0.0269069, 0.471003, -0.542829, 0.33604, -2.08343, -2.16574, -0.129929, 0.470095, -0.542529, 0.334803, -2.08358, -2.16668, -0.126139, -0.000248615, 0.0196537, 0.00507009, 0.0275978, 0.00625139, -0.0034463
0.096156, 1.69312, -1.22699, -1.53897, -0.900044, -1.19456, 1.22973, -1.30263, 0.0558501, 0.00011299, -0.00872837, -0.00129165, -0.0844257, 0.033876, 0.00064411, 0.813057, 61.0934, 29.238, 6.35895, 1.58954, 3.77627, -0.0164075, 0.00011522, -0.000834557, 0.00130862, 0.00144023, -0.00230693, -0.000237787, 0.0174707, -0.0263765, -0.005128, -0.0235298, 0.103315, 0.0247937, 0.471003, -0.542809, 0.336045, -2.08342, -2.16573, -0.12993, 0.470118, -0.542528, 0.334797, -2.08359, -2.16673, -0.126016, -0.000257487, 0.0200928, 0.00518027, 0.0265251, 0.00472031, -0.00339996
0.097156, 1.69318, -1.227, -1.53898, -0.900045, -1.19465, 1.22976, -1.30263, 0.0550215, -0.000832665, -0.00995218, -0.000821126, -0.0828277, 0.0358559, 0.000192048, 0.777352, 61.1292, 29.238, 6.35895, 1.60785, 3.74698, -0.00999879, 9.7803e-05, -0.000807253, 0.00131648, 0.00146074, -0.0024033, -0.000259202, 0.0186659, -0.026145, -0.00587461, -0.021784, 0.102382, 0.0240198, 0.471002, -0.542789, 0.336051, -2.08341, -2.16573, -0.129932, 0.470145, -0.542522, 0.33479, -2.08359, -2.1668, -0.125899, -0.000266561, 0.0205361, 0.00529139, 0.0263006, 0.00408959, -0.00420521
0.098156, 1.69324, -1.22699, -1.53898, -0.900046, -1.19474, 1.22979, -1.30263, 0.0534477, 0.00115355, -0.00480798, -0.000517439, -0.0818107, 0.0364816, 0.00107747, 0.777352, 61.0538, 29.1269, 6.35895, 1.63257, 3.74057, -0.0356336, 8.25568e-05, -0.000779256, 0.00131677, 0.00147745, -0.00250779, -0.00027992, 0.018518, -0.0262868, -0.0027431, -0.0156279, 0.103752, 0.0241264, 0.471002, -0.542768, 0.336056, -2.08339, -2.16572, -0.129933, 0.470173, -0.542516, 0.334792, -2.0836, -2.16687, -0.125778, -0.000275838, 0.0209836, 0.00540343, 0.0265416, 0.00420621, -0.000982905
0.099156, 1.6933, -1.22699, -1.53899, -0.900051, -1.19483, 1.22981, -1.30263, 0.0556197, -0.000199923, -0.00554729, -0.00208571, -0.079485, 0.0314665, 0.000718312, 0.777352, 61.0934, 29.2023, 6.43433, 1.62067, 3.7543, -0.0356336, 6.60474e-05, -0.000752723, 0.00132758, 0.00151357, -0.00260288, -0.000302763, 0.0168501, -0.0270891, -0.00461561, -0.0206621, 0.0986054, 0.0284823, 0.471002, -0.542747, 0.336061, -2.08338, -2.16572, -0.129935, 0.4702, -0.542508, 0.334784, -2.08359, -2.16693, -0.125646, -0.000285321, 0.0214351, 0.00551641, 0.0272053, 0.00662628, -0.00248416
0.100156, 1.69336, -1.22699, -1.539, -0.900054, -1.19492, 1.22984, -1.30263, 0.0548832, 0.000764036, -0.00329703, -0.00220883, -0.0881677, 0.033082, 0.000241515, 0.737679, 61.0538, 29.1666, 6.47003, 1.64447, 3.7543, -0.0292249, 4.89006e-05, -0.000725876, 0.00133324, 0.00154491, -0.00270806, -0.000325479, 0.018934, -0.0263951, -0.00312082, -0.0211096, 0.107654, 0.0265394, 0.471002, -0.542726, 0.336067, -2.08336, -2.16572, -0.129936, 0.470226, -0.542502, 0.33478, -2.08359, -2.167, -0.125508, -0.000295012, 0.0218908, 0.00563029, 0.0266318, 0.00476595, -0.0011978
0.101156, 1.69342, -1.22699, -1.53901, -0.900049, -1.19502, 1.22986, -1.30263, 0.0584794, 0.00308479, -0.00076032, 0.000303331, -0.0940969, 0.0293387, 0.00536129, 0.6623, 60.9427, 29.0912, 6.39465, 1.63898, 3.76163, -0.0356336, 3.21721e-05, -0.000698943, 0.00133326, 0.00156833, -0.00281439, -0.000344695, 0.0185884, -0.0268979, -0.00106319, -0.0239774, 0.11304, 0.021995, 0.471001, -0.542704, 0.336072, -2.08334, -2.16571, -0.129938, 0.470254, -0.542495, 0.334782, -2.08359, -2.16707, -0.125378, -0.000304912, 0.0223506, 0.00574509, 0.0271866, 0.00527042, 0.000986675
0.102156, 1.69348, -1.22699, -1.53902, -0.900055, -1.19511, 1.22988, -1.30263, 0.0591504, 0.000276017, -0.00508326, -0.00247955, -0.0938845, 0.0267225, 0.00276706, 0.6623, 61.0181, 29.1269, 6.5097, 1.63257, 3.76163, -0.00267457, 1.27735e-05, -0.000674509, 0.001345, 0.0016073, -0.00291055, -0.00036815, 0.0187918, -0.0267267, -0.00493873, -0.0315129, 0.109665, 0.0257715, 0.471001, -0.542682, 0.336078, -2.08333, -2.16571, -0.12994, 0.470278, -0.542489, 0.334773, -2.08358, -2.16713, -0.125241, -0.000315023, 0.0228145, 0.00586078, 0.0268717, 0.00612451, -0.00275105
0.103156, 1.69354, -1.22699, -1.53903, -0.900051, -1.19521, 1.2299, -1.30263, 0.056855, 0.0019343, -0.00386338, -0.000717901, -0.0991998, 0.0192411, 0.00290088, 0.6623, 60.9427, 29.1269, 6.47003, 1.64447, 3.7836, -0.0228162, -7.72161e-06, -0.000652666, 0.00134969, 0.00164784, -0.00301592, -0.000375303, 0.0206803, -0.0232566, -0.0038598, -0.0380048, 0.112012, 0.0206309, 0.471001, -0.542659, 0.336084, -2.08331, -2.1657, -0.129941, 0.4703, -0.542485, 0.33477, -2.08359, -2.16717, -0.125091, -0.000325348, 0.0232823, 0.00597737, 0.023503, 0.00441922, -0.00175789
0.104156, 1.69361, -1.22699, -1.53903, -0.900056, -1.19531, 1.22991, -1.30263, 0.0608648, 0.000351797, -0.00126105, -0.0022365, -0.0979464, 0.0189725, 0.00264127, 0.551216, 60.9824, 29.0555, 6.54541, 1.64447, 3.79001, -0.0356336, -2.2166e-05, -0.000622154, 0.00135743, 0.00168476, -0.00311748, -0.000407821, 0.0182602, -0.0264197, -0.00435584, -0.0367614, 0.10971, 0.0279155, 0.471, -0.542636, 0.33609, -2.08329, -2.1657, -0.129943, 0.47033, -0.542474, 0.334765, -2.08357, -2.16725, -0.124953, -0.000335889, 0.0237543, 0.00609484, 0.0265465, 0.00748708, -0.00185032
0.105156, 1.69367, -1.22698, -1.53904, -0.900059, -1.19541, 1.22993, -1.30263, 0.0617896, 0.00366092, -0.00455963, -0.00241502, -0.0973454, 0.0148088, 0.00146061, 0.511544, 60.8356, 29.0555, 6.58508, 1.65088, 3.77627, -0.0228162, -4.0871e-05, -0.000598191, 0.00135926, 0.00172745, -0.00323212, -0.000429058, 0.0181075, -0.0256378, -0.00405884, -0.0428439, 0.111067, 0.0287544, 0.471, -0.542612, 0.336096, -2.08328, -2.16569, -0.129945, 0.470355, -0.542467, 0.334766, -2.08357, -2.16731, -0.124793, -0.000346646, 0.0242302, 0.00621319, 0.0257602, 0.00803607, -0.00139162
0.106156, 1.69373, -1.22698, -1.53905, -0.900057, -1.1955, 1.22994, -1.30263, 0.0594565, 0.000764713, -0.00593153, -0.00160701, -0.101635, 0.0113827, 0.000867238, 0.475838, 60.907, 29.0159, 6.58508, 1.65729, 3.76895, -0.0164075, -6.24685e-05, -0.000575664, 0.00136951, 0.00176936, -0.00332765, -0.000442041, 0.0209305, -0.0228446, -0.00635182, -0.0484333, 0.110303, 0.024328, 0.471, -0.542588, 0.336102, -2.08326, -2.16569, -0.129946, 0.470377, -0.542462, 0.334758, -2.08356, -2.16736, -0.124652, -0.000357622, 0.0247101, 0.00633241, 0.0229776, 0.00596836, -0.00389108
0.107156, 1.69379, -1.22698, -1.53906, -0.900059, -1.19561, 1.22995, -1.30263, 0.0577126, 0.000505711, -0.00809189, -0.00190431, -0.100021, 0.013609, 0.000913661, 0.436165, 60.907, 29.0159, 6.62079, 1.66919, 3.76163, -0.0228162, -8.22672e-05, -0.000551417, 0.00137735, 0.00181423, -0.00343079, -0.0004604, 0.0224997, -0.0221413, -0.00706481, -0.0474394, 0.110292, 0.0223706, 0.470999, -0.542563, 0.336109, -2.08324, -2.16568, -0.129948, 0.470401, -0.542454, 0.334753, -2.08355, -2.16742, -0.124502, -0.000368819, 0.025194, 0.00645249, 0.0222945, 0.00498448, -0.00469821
0.108156, 1.69385, -1.22698, -1.53907, -0.900064, -1.19571, 1.22996, -1.30263, 0.0565177, 0.00293252, -0.00936636, -0.00303109, -0.0986964, 0.0148278, -0.000300629, 0.400459, 60.7959, 29.0159, 6.69617, 1.66919, 3.76163, 0.00373412, -0.00010259, -0.000529066, 0.00138131, 0.0018606, -0.00354128, -0.000481546, 0.0230972, -0.0218214, -0.0061165, -0.046931, 0.11273, 0.0232203, 0.470999, -0.542538, 0.336115, -2.08322, -2.16568, -0.12995, 0.470424, -0.542448, 0.334751, -2.08355, -2.16748, -0.124342, -0.000380238, 0.0256818, 0.00657343, 0.0220196, 0.00472328, -0.00372469
0.109156, 1.69391, -1.22697, -1.53907, -0.900069, -1.19581, 1.22996, -1.30263, 0.0564738, 0.00278793, -0.0087666, -0.0037827, -0.102559, 0.0108259, 9.21455e-05, 0.325081, 60.7602, 28.9405, 6.77154, 1.6756, 3.76895, -0.00267457, -0.000121485, -0.000505364, 0.00138638, 0.00190534, -0.00364505, -0.000503922, 0.0236361, -0.020901, -0.00648078, -0.0519489, 0.114161, 0.0224724, 0.470999, -0.542512, 0.336122, -2.0832, -2.16567, -0.129952, 0.470448, -0.542439, 0.334749, -2.08353, -2.16754, -0.124191, -0.000391882, 0.0261735, 0.00669522, 0.0210949, 0.00470167, -0.00401891
0.110156, 1.69397, -1.22696, -1.53908, -0.900067, -1.19591, 1.22997, -1.30263, 0.0544857, 0.00529056, -0.00676611, -0.00252085, -0.104644, 0.00785496, 0.000611461, 0.325081, 60.6134, 28.9405, 6.77154, 1.66369, 3.77627, -0.0164075, -0.000144392, -0.000486265, 0.00138747, 0.00194934, -0.00375423, -0.000513742, 0.0248545, -0.0190265, -0.00432032, -0.0525382, 0.116953, 0.0191329, 0.470998, -0.542486, 0.336128, -2.08318, -2.16567, -0.129954, 0.470467, -0.542434, 0.334751, -2.08354, -2.16759, -0.124035, -0.000403753, 0.0266691, 0.00681784, 0.0193337, 0.00358417, -0.0018962
0.111156, 1.69403, -1.22697, -1.53908, -0.900068, -1.19601, 1.22997, -1.30263, 0.0573006, 0.00269053, -0.00686215, -0.00251507, -0.106808, 0.0064609, -0.00125673, 0.134651, 60.6491, 28.8691, 6.80725, 1.66369, 3.76163, 0.0293689, -0.000163186, -0.000460347, 0.00139542, 0.00199608, -0.00385445, -0.000544444, 0.0246653, -0.020132, -0.00619386, -0.0554007, 0.115906, 0.02309, 0.470998, -0.542459, 0.336135, -2.08317, -2.16566, -0.129956, 0.470493, -0.542424, 0.334746, -2.08351, -2.16765, -0.123886, -0.000415851, 0.0271686, 0.0069413, 0.0203505, 0.00460535, -0.00362734
0.112156, 1.69409, -1.22696, -1.53909, -0.900069, -1.19611, 1.22997, -1.30263, 0.0568704, 0.00439117, -0.00620599, 0.000702578, -0.107646, 0.0053611, -0.000102451, 0.059273, 60.538, 28.9048, 6.84296, 1.64447, 3.74698, 0.0101428, -0.000187419, -0.000441666, 0.00139938, 0.00204656, -0.0039638, -0.000553654, 0.0260821, -0.0189554, -0.00462904, -0.0543378, 0.117772, 0.018731, 0.470997, -0.542432, 0.336142, -2.08315, -2.16566, -0.129958, 0.470512, -0.542419, 0.334745, -2.08351, -2.1677, -0.123722, -0.000428179, 0.027672, 0.00706559, 0.0192713, 0.00342038, -0.00214327
0.113156, 1.69415, -1.22696, -1.53909, -0.900066, -1.19622, 1.22997, -1.30263, 0.0557192, 0.00376193, -0.0029711, 0.000736617, -0.108828, 0.00368627, -0.000288192, 0.0196001, 60.5023, 28.8294, 6.84296, 1.63257, 3.7543, 0.0165515, -0.000212866, -0.000423668, 0.00140348, 0.00209334, -0.00406949, -0.000564542, 0.0265698, -0.0184387, -0.00397569, -0.0532761, 0.117403, 0.0189528, 0.470997, -0.542404, 0.336149, -2.08313, -2.16565, -0.12996, 0.47053, -0.542415, 0.334743, -2.08351, -2.16775, -0.123566, -0.000440739, 0.0281791, 0.00719069, 0.0187843, 0.00332432, -0.00143381
0.114156, 1.69421, -1.22695, -1.53909, -0.900067, -1.19633, 1.22997, -1.30263, 0.059361, 0.00250741, -0.00242849, 0.000692252, -0.109459, 0.00352501, 5.83313e-05, -0.206535, 60.5023, 28.8294, 6.84296, 1.61426, 3.73324, 0.0101428, -0.000234182, -0.000400076, 0.00141005, 0.00214645, -0.00417627, -0.000588323, 0.0255734, -0.0205056, -0.00477544, -0.0538233, 0.117049, 0.0223529, 0.470997, -0.542376, 0.336156, -2.08311, -2.16564, -0.129962, 0.470554, -0.542406, 0.33474, -2.08349, -2.16781, -0.123403, -0.000453532, 0.0286901, 0.0073166, 0.0207707, 0.00502779, -0.00200601
0.115156, 1.69427, -1.22695, -1.53909, -0.90007, -1.19644, 1.22997, -1.30263, 0.0589994, 0.00510487, -0.000191571, 0.00197197, -0.115267, 0.00283698, -0.00140935, -0.317619, 60.3555, 28.754, 6.91833, 1.62067, 3.72592, 0.0495105, -0.000258743, -0.000381404, 0.00141191, 0.00219862, -0.00429121, -0.000605368, 0.0270083, -0.0195793, -0.00235416, -0.0541842, 0.124159, 0.0214618, 0.470996, -0.542347, 0.336164, -2.08308, -2.16564, -0.129964, 0.470573, -0.542401, 0.334741, -2.08348, -2.16787, -0.123233, -0.00046656, 0.0292049, 0.00744332, 0.0199727, 0.00371434, 0.000315556
0.116156, 1.69432, -1.22695, -1.5391, -0.900075, -1.19655, 1.22997, -1.30263, 0.0589246, 0.00256772, -0.00463265, 0.00225381, -0.113845, 0.00205309, -0.000694838, -0.43267, 60.3912, 28.7937, 7.02942, 1.58954, 3.72592, 0.0431018, -0.000286985, -0.000363596, 0.00142236, 0.00225286, -0.00439685, -0.000615122, 0.0284603, -0.0187513, -0.00548919, -0.05806, 0.120726, 0.018857, 0.470996, -0.542318, 0.336171, -2.08306, -2.16563, -0.129966, 0.470591, -0.542397, 0.334733, -2.08347, -2.16791, -0.123069, -0.000479825, 0.0297235, 0.00757084, 0.0190704, 0.00324991, -0.00285369
0.117156, 1.69437, -1.22695, -1.53909, -0.900075, -1.19667, 1.22997, -1.30263, 0.0570125, 0.0025468, -0.00179118, 0.00111825, -0.11313, 0.000710169, -0.000186431, -0.468376, 60.3555, 28.7183, 7.06909, 1.57764, 3.74698, 0.0357776, -0.000318239, -0.00035013, 0.00142501, 0.00229956, -0.00451009, -0.000617083, 0.0286385, -0.0182634, -0.00471271, -0.0565513, 0.11969, 0.0190931, 0.470995, -0.542288, 0.336179, -2.08304, -2.16563, -0.129968, 0.470605, -0.542397, 0.334733, -2.08348, -2.16795, -0.122904, -0.000493328, 0.0302458, 0.00769914, 0.0186044, 0.00345654, -0.00197223
0.118156, 1.69442, -1.22695, -1.53909, -0.900072, -1.19679, 1.22997, -1.30263, 0.0581105, 0.00169769, -0.00070839, 0.00432751, -0.117758, 0.000801804, 0.000117217, -0.619133, 60.3555, 28.6826, 7.06909, 1.58954, 3.74057, 0.0293689, -0.000349459, -0.00033415, 0.00142738, 0.0023449, -0.00462787, -0.000620864, 0.0304219, -0.0178604, -0.0044704, -0.0562946, 0.122746, 0.0160885, 0.470995, -0.542258, 0.336186, -2.08302, -2.16562, -0.129971, 0.470621, -0.542396, 0.334733, -2.08349, -2.168, -0.122737, -0.000507072, 0.0307718, 0.00782823, 0.0182615, 0.00216837, -0.00187002
0.119156, 1.69447, -1.22694, -1.53909, -0.900079, -1.19691, 1.22997, -1.30263, 0.0604062, 0.00373012, -0.000734376, 0.00405003, -0.115459, 0.000365427, -0.000156106, -0.694511, 60.2444, 28.6826, 7.18018, 1.55292, 3.74698, 0.0357776, -0.000379762, -0.000319931, 0.00142964, 0.00240196, -0.00474973, -0.000628544, 0.0291737, -0.0193436, -0.00352645, -0.055833, 0.123155, 0.0196293, 0.470994, -0.542227, 0.336194, -2.083, -2.16561, -0.129973, 0.470636, -0.542395, 0.334733, -2.08349, -2.16805, -0.122553, -0.000521058, 0.0313016, 0.00795809, 0.0197184, 0.00384595, -0.000659747
0.120156, 1.69453, -1.22693, -1.53909, -0.900082, -1.19703, 1.22997, -1.30264, 0.0586496, 0.00415709, -0.000686171, 0.00163065, -0.113687, 0.000532164, -0.000610365, -0.884941, 60.173, 28.6826, 7.25555, 1.5163, 3.74057, 0.0495105, -0.000409826, -0.000302142, 0.00143181, 0.00244837, -0.00486991, -0.000643131, 0.0294001, -0.0191257, -0.00353061, -0.0555569, 0.122755, 0.0211172, 0.470994, -0.542196, 0.336202, -2.08297, -2.16561, -0.129975, 0.470654, -0.542392, 0.334734, -2.08349, -2.16811, -0.122383, -0.000535288, 0.031835, 0.00808872, 0.0194947, 0.00414779, -0.000562531
0.121156, 1.69458, -1.22694, -1.53909, -0.900083, -1.19715, 1.22997, -1.30263, 0.0529672, 0.0019361, -0.00227532, 0.00077228, -0.11835, -0.00011546, -0.000167802, -1.0357, 60.2087, 28.754, 7.29126, 1.50989, 3.7543, 0.0431018, -0.000444057, -0.000288515, 0.00144104, 0.00250835, -0.00498435, -0.000642468, 0.0336232, -0.0152436, -0.00531251, -0.0592968, 0.12444, 0.0135733, 0.470993, -0.542164, 0.33621, -2.08295, -2.1656, -0.129978, 0.470668, -0.542392, 0.334727, -2.0835, -2.16814, -0.122203, -0.000549763, 0.0323721, 0.00822011, 0.0156902, 0.000631632, -0.00273038
0.122156, 1.69458, -1.22694, -1.53909, -0.900083, -1.19715, 1.22997, -1.30263, 0.0529672, 0.0019361, -0.00227532, 0.00077228, -0.11835, -0.00011546, -0.000167802, -1.0357, 60.2087, 28.754, 7.29126, 1.50989, 3.7543, 0.0431018, -0.000477335, -0.000289035, 0.00144413, 0.00249477, -0.00500084, -0.000635069, 0.0341783, -0.0152398, -0.00535812, -0.059195, 0.124831, 0.0136143, 0.470993, -0.542132, 0.336219, -2.08293, -2.16559, -0.12998, 0.470668, -0.542392, 0.334727, -2.0835, -2.16814, -0.122203, -0.000564485, 0.0329128, 0.00835225, 0.0156902, 0.000631632, -0.00273038
0.123156, 1.69458, -1.22694, -1.53909, -0.900083, -1.19715, 1.22997, -1.30263, 0.0529672, 0.0019361, -0.00227532, 0.00077228, -0.11835, -0.00011546, -0.000167802, -1.0357, 60.2087, 28.754, 7.29126, 1.50989, 3.7543, 0.0431018, -0.000511169, -0.000289558, 0.00144726, 0.00248095, -0.0050176, -0.000627555, 0.0347371, -0.0152362, -0.00540386, -0.0590922, 0.125224, 0.0136555, 0.470992, -0.542099, 0.336227, -2.0829, -2.16559, -0.129982, 0.470668, -0.542392, 0.334727, -2.0835, -2.16814, -0.122203, -0.000579456, 0.0334572, 0.00848514, 0.0156902, 0.000631632, -0.00273038
0.124156, 1.69472, -1.22693, -1.53909, -0.900093, -1.19752, 1.22996, -1.30263, 0.0520269, 0.00302767, -0.00130482, -0.00219392, -0.118341, -0.000412793, -0.00049232, -1.41259, 60.062, 28.754, 7.44202, 1.47327, 3.76163, 0.0293689, -0.00055091, -0.000248927, 0.00145379, 0.00266984, -0.00535591, -0.000645546, 0.0344978, -0.0154665, -0.00484142, -0.0595439, 0.126733, 0.0161376, 0.470991, -0.542066, 0.336235, -2.08288, -2.16558, -0.129985, 0.470709, -0.542395, 0.334722, -2.08353, -2.16827, -0.121654, -0.000594677, 0.0340052, 0.00861877, 0.0159171, 0.00133871, -0.00201198
0.125156, 1.69477, -1.22692, -1.53909, -0.900098, -1.19764, 1.22996, -1.30263, 0.0526, 0.00461688, -8.13121e-05, -0.00213318, -0.120707, -0.000534315, 0.0011304, -1.48797, 59.9509, 28.7183, 7.47772, 1.44855, 3.76895, -0.00999879, -0.000586942, -0.000237795, 0.00145294, 0.00272072, -0.00548281, -0.000643881, 0.0348764, -0.0156692, -0.00354479, -0.0594859, 0.130531, 0.0148332, 0.470991, -0.542032, 0.336244, -2.08286, -2.16557, -0.129987, 0.470721, -0.542396, 0.334725, -2.08354, -2.16831, -0.121471, -0.000610151, 0.0345567, 0.00875313, 0.0161655, 0.0013248, -0.000663468
0.126156, 1.69482, -1.22691, -1.53909, -0.900102, -1.19777, 1.22996, -1.30263, 0.051815, 0.00484114, -0.000924414, -0.00222664, -0.11898, -7.58327e-05, 0.000482749, -1.63873, 59.8755, 28.754, 7.51739, 1.44855, 3.76163, -0.00267457, -0.000624109, -0.000224581, 0.00145632, 0.0027749, -0.00561049, -0.000646274, 0.0356275, -0.0153722, -0.00368732, -0.0588174, 0.130008, 0.0149994, 0.47099, -0.541997, 0.336253, -2.08283, -2.16557, -0.12999, 0.470735, -0.542397, 0.334725, -2.08355, -2.16836, -0.121284, -0.000625878, 0.0351119, 0.00888822, 0.0158752, 0.00114865, -0.000777902
0.127156, 1.69486, -1.22691, -1.53909, -0.900109, -1.19789, 1.22996, -1.30263, 0.0502437, 0.00406263, -0.000642517, -0.00315505, -0.121922, -0.000586257, 0.00083077, -1.75378, 59.8398, 28.754, 7.59277, 1.43024, 3.77627, -0.0164075, -0.000661887, -0.000211867, 0.00146274, 0.00283093, -0.00573332, -0.000644359, 0.037169, -0.0143348, -0.00417497, -0.060534, 0.131814, 0.0131188, 0.47099, -0.541962, 0.336262, -2.0828, -2.16556, -0.129992, 0.470748, -0.542398, 0.334721, -2.08356, -2.1684, -0.1211, -0.00064186, 0.0356705, 0.00902402, 0.0148611, 0.000218515, -0.00133291
0.128156, 1.69491, -1.22691, -1.53909, -0.900112, -1.19802, 1.22996, -1.30263, 0.0513064, 0.00270841, -0.000448026, -0.00286912, -0.115109, 0.000156821, 0.00055408, -1.82915, 59.8398, 28.754, 7.62848, 1.42383, 3.76163, -0.0164075, -0.000700979, -0.000200014, 0.00146805, 0.00288252, -0.00585381, -0.00064264, 0.0361727, -0.0158261, -0.00490744, -0.0565824, 0.12565, 0.0166365, 0.470989, -0.541926, 0.336271, -2.08278, -2.16555, -0.129995, 0.470761, -0.542399, 0.334718, -2.08357, -2.16844, -0.120923, -0.000658099, 0.0362327, 0.00916054, 0.0162715, 0.00193936, -0.00181082
0.129156, 1.69496, -1.2269, -1.53909, -0.900117, -1.19814, 1.22995, -1.30263, 0.0519976, 0.00264082, 0.00135699, -0.00269586, -0.11489, 0.000379658, 0.000369562, -1.90453, 59.8041, 28.6826, 7.66418, 1.43024, 3.7543, -0.0164075, -0.000737481, -0.000185657, 0.00147129, 0.00293188, -0.00597477, -0.00064812, 0.0361059, -0.016557, -0.00434497, -0.0546228, 0.125811, 0.0183339, 0.470988, -0.54189, 0.33628, -2.08275, -2.16554, -0.129998, 0.470775, -0.542398, 0.334718, -2.08357, -2.16849, -0.120748, -0.000674597, 0.0367984, 0.00929776, 0.0170034, 0.00251466, -0.00113116
0.130156, 1.695, -1.2269, -1.53909, -0.90012, -1.19826, 1.22995, -1.30263, 0.049576, 0.00352378, 0.00089359, -0.00175817, -0.109866, 0.000764614, 9.14696e-06, -1.97991, 59.7287, 28.6826, 7.66418, 1.43573, 3.74057, -0.00999879, -0.000777071, -0.000173471, 0.00147413, 0.00297881, -0.00609709, -0.000651371, 0.0371039, -0.0155235, -0.00374845, -0.0513555, 0.123044, 0.0169656, 0.470988, -0.541853, 0.336289, -2.08273, -2.16554, -0.13, 0.470788, -0.542399, 0.334718, -2.08358, -2.16853, -0.120575, -0.000691354, 0.0373675, 0.00943568, 0.0160126, 0.00196406, -0.000529126
0.131156, 1.69505, -1.2269, -1.53908, -0.900129, -1.19837, 1.22995, -1.30263, 0.0500041, -0.000249274, 0.00151544, -0.00383406, -0.110209, 0.00105444, 0.000718273, -2.01562, 59.8398, 28.6429, 7.77924, 1.43573, 3.72592, -0.0292249, -0.000814353, -0.000157819, 0.00148262, 0.00302182, -0.00620524, -0.00065653, 0.03721, -0.0164195, -0.00607808, -0.0519728, 0.120285, 0.0187983, 0.470987, -0.541816, 0.336299, -2.0827, -2.16553, -0.130003, 0.470804, -0.542397, 0.334713, -2.08358, -2.16858, -0.120421, -0.000708374, 0.0379402, 0.00957429, 0.0168087, 0.00282971, -0.00273551
0.132156, 1.6951, -1.2269, -1.53909, -0.900134, -1.19848, 1.22995, -1.30263, 0.049162, 0.000669032, -0.000759169, -0.00336928, -0.111294, 0.000704581, 0.000241564, -2.13067, 59.8041, 28.7183, 7.81494, 1.44214, 3.72592, -0.0228162, -0.00085259, -0.00014349, 0.00148934, 0.00307591, -0.00632271, -0.000661157, 0.0388797, -0.0152372, -0.00630642, -0.054229, 0.122416, 0.0166076, 0.470986, -0.541778, 0.336308, -2.08267, -2.16552, -0.130006, 0.470819, -0.542395, 0.334709, -2.08358, -2.16862, -0.120245, -0.000725657, 0.0385162, 0.00971358, 0.0156628, 0.00174437, -0.00304675
0.133156, 1.69514, -1.2269, -1.53909, -0.90013, -1.1986, 1.22995, -1.30263, 0.047567, 0.00304447, -0.000510783, -0.000466466, -0.112407, 0.000470937, -7.6261e-05, -2.20605, 59.693, 28.7183, 7.73956, 1.46045, 3.72592, -0.0164075, -0.000894354, -0.000131726, 0.00149111, 0.00311783, -0.00644199, -0.000657402, 0.0409645, -0.0135224, -0.00439596, -0.0527943, 0.125671, 0.0125487, 0.470985, -0.541739, 0.336318, -2.08264, -2.16551, -0.130009, 0.470831, -0.542397, 0.33471, -2.08359, -2.16866, -0.12008, -0.000743204, 0.0390957, 0.00985355, 0.0140785, -0.000100146, -0.00129416
0.134156, 1.69519, -1.22689, -1.53908, -0.900132, -1.1987, 1.22995, -1.30263, 0.0478811, 0.00286487, 0.00141921, -0.000298614, -0.112657, 0.00031487, -0.000796784, -2.20605, 59.6573, 28.6429, 7.73956, 1.46045, 3.72592, 0.00373412, -0.000933119, -0.00011725, 0.00149314, 0.00315483, -0.00655519, -0.000664772, 0.0411197, -0.0139454, -0.00386972, -0.051225, 0.125907, 0.0143193, 0.470985, -0.5417, 0.336328, -2.08262, -2.1655, -0.130011, 0.470846, -0.542395, 0.334712, -2.08359, -2.16871, -0.119927, -0.000761018, 0.0396786, 0.00999418, 0.0145084, 0.000266035, -0.00067221
0.135156, 1.69524, -1.22689, -1.53909, -0.900133, -1.19881, 1.22995, -1.30263, 0.0500353, 0.00190991, -0.000819723, -0.000189803, -0.112765, 0.000753132, -0.000293799, -2.28143, 59.6573, 28.7183, 7.73956, 1.46686, 3.71127, -0.00267457, -0.000973894, -0.000102963, 0.00150114, 0.00320342, -0.00666738, -0.000669403, 0.0414185, -0.0148197, -0.00532844, -0.053093, 0.125895, 0.0148039, 0.470984, -0.541661, 0.336338, -2.08259, -2.1655, -0.130014, 0.470861, -0.542394, 0.334707, -2.08359, -2.16875, -0.119763, -0.000779099, 0.0402649, 0.0101355, 0.0153207, 0.00081969, -0.00204564
0.136156, 1.69529, -1.22689, -1.53909, -0.900135, -1.19892, 1.22995, -1.30263, 0.046479, 0.00220129, -0.000548452, -0.000119581, -0.108984, 0.000773868, -0.00212862, -2.28143, 59.6176, 28.7183, 7.73956, 1.48517, 3.70395, 0.0495105, -0.00101524, -8.9851e-05, 0.00150568, 0.0032435, -0.00677892, -0.000674926, 0.0427963, -0.0132779, -0.00491214, -0.0503652, 0.12338, 0.0144978, 0.470983, -0.54162, 0.336348, -2.08256, -2.16549, -0.130017, 0.470875, -0.542393, 0.334706, -2.08359, -2.16879, -0.119609, -0.00079745, 0.0408545, 0.0102774, 0.013828, -7.8546e-05, -0.00166132
0.137156, 1.69533, -1.22689, -1.53908, -0.900138, -1.19902, 1.22995, -1.30263, 0.0471733, 0.000539507, 0.000468105, -0.00321721, -0.110992, 0.00102492, 0.000513716, -2.28143, 59.6573, 28.6826, 7.73956, 1.50989, 3.69021, -0.00267457, -0.00105695, -7.56617e-05, 0.00151266, 0.00328006, -0.00688477, -0.000675521, 0.0425451, -0.0143889, -0.00601628, -0.051774, 0.124161, 0.015149, 0.470982, -0.541579, 0.336358, -2.08253, -2.16548, -0.13002, 0.470889, -0.542392, 0.334702, -2.0836, -2.16883, -0.119464, -0.000816072, 0.0414475, 0.01042, 0.0148693, 0.000979667, -0.0026049
0.138156, 1.69538, -1.22689, -1.53909, -0.900137, -1.19913, 1.22995, -1.30263, 0.0463436, -0.000475547, -0.00135947, -0.00156757, -0.107269, 0.00122611, 0.000613758, -2.3568, 59.693, 28.754, 7.70386, 1.5282, 3.67557, -0.00999879, -0.00109921, -6.12577e-05, 0.00152009, 0.00332293, -0.00699346, -0.000674198, 0.0437765, -0.0137054, -0.00702147, -0.0505275, 0.120575, 0.0132189, 0.470982, -0.541538, 0.336369, -2.0825, -2.16547, -0.130023, 0.470904, -0.54239, 0.334698, -2.0836, -2.16887, -0.119309, -0.000834967, 0.0420438, 0.0105633, 0.0141755, 0.00048823, -0.00362632
0.139156, 1.69543, -1.22689, -1.53909, -0.900137, -1.19923, 1.22995, -1.30264, 0.0469167, 0.000518186, -0.000907147, -0.000310511, -0.104468, 0.00136015, -0.00250694, -2.3568, 59.6573, 28.754, 7.66418, 1.54651, 3.66092, 0.0687366, -0.00114138, -4.67193e-05, 0.00152528, 0.00335788, -0.00710019, -0.000685374, 0.0437796, -0.0141452, -0.00617049, -0.0480098, 0.119637, 0.0169835, 0.470981, -0.541496, 0.336379, -2.08247, -2.16546, -0.130026, 0.470919, -0.542388, 0.334696, -2.08359, -2.16892, -0.119166, -0.000854135, 0.0426434, 0.0107072, 0.0146273, 0.000971733, -0.00265748
0.140156, 1.69547, -1.22689, -1.53909, -0.900145, -1.19933, 1.22995, -1.30263, 0.0467475, 0.000345457, -0.000605388, -0.00211536, -0.102101, 0.00141556, -0.00119657, -2.3211, 59.6573, 28.754, 7.73956, 1.55932, 3.64718, 0.0559192, -0.00118266, -3.12942e-05, 0.00153138, 0.0033965, -0.00720957, -0.000692088, 0.043428, -0.0147856, -0.00645113, -0.0473112, 0.118126, 0.0180736, 0.47098, -0.541453, 0.33639, -2.08244, -2.16545, -0.130029, 0.470935, -0.542385, 0.334694, -2.08359, -2.16896, -0.119016, -0.000873578, 0.0432462, 0.0108517, 0.0152246, 0.00199216, -0.00275603
0.141156, 1.69552, -1.22689, -1.53909, -0.900143, -1.19943, 1.22995, -1.30263, 0.0474544, -0.000604913, 0.00130857, -0.00279572, -0.0956016, 0.00175763, -0.000560349, -2.3211, 59.693, 28.8294, 7.66418, 1.56482, 3.62521, 0.0495105, -0.00122755, -1.69338e-05, 0.00154143, 0.00343292, -0.00731065, -0.000691768, 0.0419718, -0.0164816, -0.00649252, -0.0427041, 0.112415, 0.0218886, 0.470979, -0.54141, 0.336401, -2.08241, -2.16544, -0.130032, 0.47095, -0.542384, 0.334688, -2.08359, -2.16899, -0.118876, -0.000893298, 0.0438524, 0.0109968, 0.0168446, 0.00411283, -0.00247786
0.142156, 1.69557, -1.22689, -1.53909, -0.900146, -1.19953, 1.22995, -1.30264, 0.0471935, -0.000403276, 0.00116168, -0.00628977, -0.0917072, 0.0014092, -0.000136203, -2.28143, 59.693, 28.8294, 7.70386, 1.59595, 3.6188, 0.0431018, -0.00127011, -2.68455e-06, 0.00154743, 0.00347005, -0.00741442, -0.000699937, 0.0408807, -0.0174606, -0.00697976, -0.0427935, 0.110006, 0.0255427, 0.470978, -0.541366, 0.336412, -2.08237, -2.16543, -0.130036, 0.470964, -0.54238, 0.334686, -2.08358, -2.16904, -0.118733, -0.000913297, 0.0444617, 0.0111426, 0.0177451, 0.00591579, -0.00267412
0.143156, 1.69562, -1.22689, -1.53909, -0.900148, -1.19962, 1.22995, -1.30263, 0.0512067, 0.000566367, 0.000991434, -0.00687706, -0.0964944, 0.000702178, -0.000328158, -2.28143, 59.6573, 28.8294, 7.66418, 1.58954, 3.62521, 0.0495105, -0.00131053, 1.4619e-05, 0.00155257, 0.0035034, -0.00751573, -0.000709077, 0.0403659, -0.0191276, -0.00686172, -0.0464605, 0.115184, 0.0285545, 0.470977, -0.541322, 0.336423, -2.08234, -2.16542, -0.130039, 0.470982, -0.542374, 0.334685, -2.08358, -2.16908, -0.118598, -0.000933575, 0.0450743, 0.0112889, 0.0193755, 0.007088, -0.00238351
0.144156, 1.69562, -1.22689, -1.53909, -0.900148, -1.19962, 1.22995, -1.30263, 0.0512067, 0.000566367, 0.000991434, -0.00687706, -0.0964944, 0.000702178, -0.000328158, -2.28143, 59.6573, 28.8294, 7.66418, 1.58954, 3.62521, 0.0495105, -0.00135686, 1.4045e-05, 0.00155667, 0.00348443, -0.00753876, -0.000699001, 0.0409978, -0.0191268, -0.00690935, -0.0463367, 0.115626, 0.0286012, 0.470976, -0.541277, 0.336434, -2.08231, -2.16541, -0.130042, 0.470982, -0.542374, 0.334685, -2.08358, -2.16908, -0.118598, -0.000954135, 0.0456901, 0.0114359, 0.0193755, 0.007088, -0.00238351
0.145156, 1.69566, -1.22689, -1.5391, -0.900152, -1.19971, 1.22995, -1.30264, 0.0468986, -0.00129286, -0.000939548, -0.00522889, -0.0967853, 0.00124806, -0.000218769, -2.24175, 59.7287, 28.9048, 7.66418, 1.61426, 3.60415, 0.0495105, -0.00140207, 2.93277e-05, 0.00156811, 0.00351947, -0.00763495, -0.000706946, 0.044733, -0.0161019, -0.00822801, -0.0462838, 0.114568, 0.0218551, 0.470975, -0.541231, 0.336446, -2.08228, -2.1654, -0.130045, 0.470997, -0.542371, 0.334677, -2.08357, -2.16912, -0.118465, -0.000974976, 0.0463091, 0.0115835, 0.0164204, 0.00409938, -0.00402921
0.146156, 1.69566, -1.22689, -1.5391, -0.900152, -1.19971, 1.22995, -1.30264, 0.0468986, -0.00129286, -0.000939548, -0.00522889, -0.0967853, 0.00124806, -0.000218769, -2.24175, 59.7287, 28.9048, 7.66418, 1.61426, 3.60415, 0.0495105, -0.00144966, 2.87519e-05, 0.0015723, 0.00349997, -0.00765862, -0.000696617, 0.0453714, -0.0161014, -0.00827569, -0.0461579, 0.115013, 0.0219024, 0.470974, -0.541185, 0.336457, -2.08224, -2.16539, -0.130049, 0.470997, -0.542371, 0.334677, -2.08357, -2.16912, -0.118465, -0.000996102, 0.0469312, 0.0117316, 0.0164204, 0.00409938, -0.00402921
0.147156, 1.6958, -1.2269, -1.53909, -0.900154, -1.19997, 1.22995, -1.30263, 0.0487059, -0.00239378, 0.00120477, -0.0013406, -0.0925196, 0.000882249, 9.34214e-05, -2.16637, 59.8398, 28.8294, 7.47772, 1.60785, 3.58951, 0.0431018, -0.00148811, 7.70395e-05, 0.00158318, 0.00361617, -0.00789972, -0.00073347, 0.0451341, -0.0170562, -0.00780538, -0.0410126, 0.110259, 0.0224864, 0.470973, -0.541138, 0.336469, -2.08221, -2.16538, -0.130052, 0.471046, -0.542358, 0.334671, -2.08355, -2.16924, -0.118099, -0.00101751, 0.0475565, 0.0118804, 0.0173616, 0.00492621, -0.00341002
0.148156, 1.69584, -1.22689, -1.53909, -0.90016, -1.20006, 1.22995, -1.30263, 0.0474289, 0.0010026, -7.33522e-05, -0.00449549, -0.0882101, 0.00109681, 6.22817e-05, -2.091, 59.7287, 28.8691, 7.47772, 1.61426, 3.57577, 0.0431018, -0.00153327, 9.1577e-05, 0.00158652, 0.00364628, -0.00800567, -0.000739867, 0.0445244, -0.0172813, -0.00666236, -0.0408137, 0.110994, 0.0248339, 0.470972, -0.54109, 0.336481, -2.08218, -2.16537, -0.130056, 0.47106, -0.542354, 0.334672, -2.08355, -2.16929, -0.117962, -0.00103921, 0.0481849, 0.0120297, 0.0175852, 0.00598919, -0.00204531
0.149156, 1.69588, -1.2269, -1.5391, -0.900164, -1.20014, 1.22995, -1.30264, 0.0433952, -0.00193005, -0.00260874, -0.00272965, -0.0857148, 0.000731218, -0.000195837, -2.01562, 59.8398, 28.9802, 7.44202, 1.63257, 3.57577, 0.0495105, -0.0015811, 0.000104738, 0.00160031, 0.00368225, -0.0080928, -0.000747406, 0.047768, -0.0144445, -0.00891154, -0.0408671, 0.106178, 0.0192846, 0.470971, -0.541042, 0.336493, -2.08214, -2.16536, -0.130059, 0.471074, -0.54235, 0.334662, -2.08353, -2.16932, -0.117838, -0.0010612, 0.0488164, 0.0121795, 0.0147646, 0.00365044, -0.00453651
0.150156, 1.69593, -1.2269, -1.53909, -0.900168, -1.20022, 1.22995, -1.30264, 0.042217, -0.0012867, -0.000782177, -0.00535375, -0.0824466, 0.00103002, 0.000378069, -2.01562, 59.8398, 28.9405, 7.44202, 1.61426, 3.56112, 0.0357776, -0.00162385, 0.000123707, 0.00160635, 0.0037046, -0.00818534, -0.00076201, 0.0471059, -0.0151027, -0.00821476, -0.0383595, 0.104819, 0.021852, 0.47097, -0.540993, 0.336505, -2.08211, -2.16535, -0.130063, 0.471093, -0.542342, 0.334661, -2.08352, -2.16937, -0.117724, -0.00108347, 0.049451, 0.01233, 0.0154017, 0.0048585, -0.00361649
0.151156, 1.69597, -1.22691, -1.5391, -0.900174, -1.20031, 1.22995, -1.30264, 0.0426065, -0.00512669, -0.00142775, -0.0041476, -0.0809229, 0.000686688, -1.92214e-05, -1.94024, 60.0223, 28.9802, 7.44202, 1.62067, 3.56112, 0.0431018, -0.00167277, 0.00013754, 0.00162074, 0.00373437, -0.00826943, -0.000768591, 0.0481065, -0.0151183, -0.0106381, -0.0382066, 0.0999794, 0.0219, 0.470969, -0.540944, 0.336517, -2.08207, -2.16534, -0.130066, 0.471107, -0.542338, 0.334651, -2.0835, -2.1694, -0.11761, -0.00110604, 0.0500886, 0.012481, 0.0153412, 0.00488572, -0.00601629
0.152156, 1.69602, -1.2269, -1.53909, -0.900177, -1.20038, 1.22995, -1.30263, 0.0417631, -0.00174736, -7.52081e-06, -0.00236367, -0.0791459, 0.000729065, 0.00144525, -1.94024, 59.9509, 28.9405, 7.40631, 1.60785, 3.5538, 0.00373412, -0.00171541, 0.000156957, 0.00162411, 0.00375107, -0.00836097, -0.000777574, 0.0487026, -0.0146406, -0.00790008, -0.0346954, 0.102088, 0.0192946, 0.470968, -0.540894, 0.33653, -2.08203, -2.16533, -0.13007, 0.471127, -0.542328, 0.334653, -2.08349, -2.16945, -0.117503, -0.0011289, 0.0507293, 0.0126325, 0.0149651, 0.00449401, -0.00324167
0.153156, 1.69606, -1.2269, -1.53909, -0.900186, -1.20046, 1.22995, -1.30263, 0.0422842, -0.00116491, 0.00348157, -0.00499341, -0.077738, 0.000757314, 0.000251422, -1.86486, 59.9509, 28.9405, 7.40631, 1.59595, 3.54648, 0.0229602, -0.00176282, 0.000171513, 0.00162957, 0.00377238, -0.00845475, -0.000790938, 0.0472904, -0.0162891, -0.00676231, -0.0321028, 0.102008, 0.0254869, 0.470967, -0.540843, 0.336542, -2.082, -2.16532, -0.130073, 0.471142, -0.542323, 0.334653, -2.08348, -2.16949, -0.11739, -0.00115205, 0.051373, 0.0127846, 0.0165795, 0.00642439, -0.00179815
0.154156, 1.6961, -1.2269, -1.53909, -0.90019, -1.20053, 1.22995, -1.30263, 0.0373209, -0.00161182, 0.00261974, -0.00607935, -0.0719209, 0.000776147, 0.000167615, -1.82915, 59.9866, 28.9405, 7.36664, 1.57764, 3.53915, 0.0229602, -0.00181045, 0.000186718, 0.00163741, 0.00378953, -0.00853783, -0.0007974, 0.0489142, -0.0142618, -0.00727559, -0.0297997, 0.0972577, 0.0232126, 0.470966, -0.540792, 0.336555, -2.08196, -2.16531, -0.130077, 0.471157, -0.542317, 0.33465, -2.08347, -2.16953, -0.117291, -0.0011755, 0.0520197, 0.0129373, 0.0145717, 0.00546417, -0.00234483
0.155156, 1.69613, -1.2269, -1.53909, -0.900196, -1.2006, 1.22995, -1.30264, 0.0421813, -0.00107455, 0.000207277, -0.00703541, -0.0719497, 0.000754792, -0.000634242, -1.75378, 59.9866, 29.0159, 7.33093, 1.55292, 3.53274, 0.0431018, -0.00186066, 0.000200068, 0.00164471, 0.00380889, -0.00862728, -0.000806568, 0.0475885, -0.016763, -0.00825045, -0.0329552, 0.0986774, 0.0285282, 0.470965, -0.54074, 0.336568, -2.08192, -2.1653, -0.130081, 0.471171, -0.542312, 0.334647, -2.08346, -2.16957, -0.117183, -0.00119924, 0.0526694, 0.0130904, 0.0169616, 0.00767851, -0.00302593
0.156156, 1.69617, -1.22691, -1.53908, -0.900211, -1.20066, 1.22995, -1.30263, 0.0409333, -0.0024796, 0.0046537, -0.0103022, -0.0679875, 0.001317, 0.000797875, -1.60302, 60.062, 28.9802, 7.40631, 1.54651, 3.51077, 0.0101428, -0.0019082, 0.000215057, 0.0016532, 0.00382429, -0.00870763, -0.000815007, 0.0463225, -0.0181524, -0.00789853, -0.0280642, 0.094734, 0.0322616, 0.470963, -0.540687, 0.336581, -2.08189, -2.16528, -0.130085, 0.471186, -0.542305, 0.334644, -2.08344, -2.16961, -0.117089, -0.00122328, 0.0533221, 0.0132441, 0.0182925, 0.00958471, -0.00237149
0.157156, 1.6962, -1.22691, -1.53909, -0.900218, -1.20073, 1.22995, -1.30263, 0.0397452, -0.00508674, 0.00175793, -0.00986712, -0.0646549, 0.00114927, 0.000294558, -1.56335, 60.2087, 29.0555, 7.36664, 1.5282, 3.50345, 0.0165515, -0.00195732, 0.000230648, 0.00166678, 0.0038439, -0.00878041, -0.000825537, 0.0478285, -0.0172729, -0.0104041, -0.0289016, 0.0899046, 0.0310406, 0.470962, -0.540634, 0.336594, -2.08185, -2.16527, -0.130089, 0.471201, -0.542297, 0.334635, -2.08342, -2.16964, -0.116999, -0.00124762, 0.0539777, 0.0133983, 0.0173514, 0.00910698, -0.00490067
0.158156, 1.69624, -1.22691, -1.53909, -0.900225, -1.20079, 1.22995, -1.30263, 0.0418284, -0.00339116, 0.00065076, -0.00661525, -0.067121, 0.000494912, -0.000515705, -1.52764, 60.2087, 29.0912, 7.33093, 1.52179, 3.51077, 0.0357776, -0.00200583, 0.000245674, 0.00167315, 0.00385788, -0.00886106, -0.000838596, 0.0490312, -0.0170919, -0.00955556, -0.0300822, 0.0936099, 0.0297151, 0.470961, -0.54058, 0.336608, -2.08181, -2.16526, -0.130092, 0.471217, -0.542289, 0.334634, -2.0834, -2.16969, -0.116907, -0.00127226, 0.0546363, 0.013553, 0.0172216, 0.00843993, -0.0040927
0.159156, 1.69627, -1.22691, -1.53908, -0.900234, -1.20085, 1.22996, -1.30263, 0.0416074, -0.000497537, 0.00416182, -0.00723846, -0.0598826, 0.000872477, 0.000605633, -1.41259, 60.1334, 29.0912, 7.29126, 1.52179, 3.49612, 0.0101428, -0.00205511, 0.000259665, 0.00167483, 0.00386636, -0.00894779, -0.000845696, 0.0472195, -0.0185556, -0.00671393, -0.0231826, 0.091032, 0.0330194, 0.47096, -0.540525, 0.336621, -2.08177, -2.16525, -0.130096, 0.471231, -0.542282, 0.334638, -2.08339, -2.16973, -0.116814, -0.0012972, 0.0552977, 0.0137082, 0.0186989, 0.01051, -0.000895907
0.160156, 1.69631, -1.22691, -1.53908, -0.900249, -1.2009, 1.22996, -1.30263, 0.0440821, 0.000956904, 0.00240701, -0.00961586, -0.054381, 0.000819011, -0.000308322, -1.41259, 60.2087, 29.1269, 7.33093, 1.52179, 3.48971, 0.0293689, -0.0021017, 0.000277821, 0.00168516, 0.00387859, -0.0090194, -0.000871831, 0.0452264, -0.0207511, -0.00700227, -0.0234473, 0.0888301, 0.0394858, 0.470958, -0.54047, 0.336635, -2.08173, -2.16524, -0.1301, 0.471249, -0.542271, 0.334634, -2.08336, -2.16978, -0.116734, -0.00132244, 0.0559621, 0.013864, 0.0207833, 0.0132786, -0.000782818
0.161156, 1.69634, -1.22692, -1.53908, -0.900261, -1.20096, 1.22996, -1.30263, 0.040281, -0.00254142, 0.00102741, -0.0072319, -0.0558737, 0.00135981, -0.000442907, -1.30151, 60.3555, 29.1666, 7.33093, 1.54651, 3.46774, 0.0357776, -0.00215366, 0.000291959, 0.00169977, 0.00388804, -0.00908275, -0.000882134, 0.0492829, -0.0178406, -0.00901536, -0.0233358, 0.0870633, 0.0327391, 0.470957, -0.540414, 0.336649, -2.08169, -2.16522, -0.130104, 0.471263, -0.542263, 0.334624, -2.08333, -2.16981, -0.116665, -0.00134799, 0.0566293, 0.0140202, 0.0179238, 0.0101342, -0.00316024
0.162156, 1.69637, -1.22693, -1.53908, -0.900271, -1.20101, 1.22996, -1.30263, 0.0382635, -0.00326678, 0.00011279, -0.00989262, -0.0522876, 0.00090654, -5.79122e-05, -1.22613, 60.4309, 29.2023, 7.25555, 1.57123, 3.46774, 0.0293689, -0.00220662, 0.000304041, 0.00170933, 0.0038964, -0.00915188, -0.000891434, 0.0495826, -0.0174792, -0.0101233, -0.0237334, 0.0838903, 0.0335205, 0.470956, -0.540357, 0.336663, -2.08165, -2.16521, -0.130108, 0.471276, -0.542257, 0.33462, -2.08331, -2.16984, -0.11659, -0.00137384, 0.0572994, 0.0141769, 0.0175067, 0.0106662, -0.00413468
0.163156, 1.6964, -1.22693, -1.53907, -0.900284, -1.20105, 1.22996, -1.30263, 0.0376769, -0.00287001, 0.00370243, -0.00985999, -0.043816, 0.00138425, 0.00114819, -1.18645, 60.4666, 29.2023, 7.21588, 1.57123, 3.44668, -0.00267457, -0.00225637, 0.000319455, 0.00171535, 0.0038969, -0.00922122, -0.000904501, 0.048127, -0.018809, -0.00860921, -0.0159539, 0.0777939, 0.0363064, 0.470954, -0.5403, 0.336677, -2.08161, -2.1652, -0.130113, 0.471291, -0.542247, 0.33462, -2.08329, -2.16988, -0.116525, -0.0014, 0.0579723, 0.0143341, 0.0188126, 0.0125969, -0.0022981
0.164156, 1.69643, -1.22693, -1.53907, -0.900295, -1.2011, 1.22996, -1.30263, 0.0331397, -0.00347649, 0.00381438, -0.0090825, -0.0428523, 0.000922836, 0.00029074, -1.11108, 60.538, 29.3134, 7.14447, 1.58954, 3.44668, 0.0101428, -0.00230992, 0.000331416, 0.00172623, 0.00390323, -0.00928369, -0.000911461, 0.0508672, -0.016146, -0.00866919, -0.0146635, 0.0764228, 0.0324381, 0.470953, -0.540242, 0.336692, -2.08157, -2.16519, -0.130117, 0.471303, -0.542239, 0.334615, -2.08327, -2.16991, -0.11646, -0.00142646, 0.058648, 0.0144917, 0.0162246, 0.010467, -0.00254769
0.165156, 1.69645, -1.22693, -1.53907, -0.90031, -1.20113, 1.22996, -1.30263, 0.03048, -0.00316521, 0.00984408, -0.0124923, -0.0376555, 0.000615224, 0.00117717, -1.07537, 60.5777, 29.3134, 7.1048, 1.61426, 3.44668, -0.0164075, -0.00236016, 0.000346986, 0.00173248, 0.00389958, -0.00934857, -0.000925258, 0.0493851, -0.017002, -0.00677243, -0.00826759, 0.072622, 0.0365837, 0.470951, -0.540183, 0.336706, -2.08153, -2.16517, -0.130121, 0.471319, -0.542229, 0.334615, -2.08325, -2.16995, -0.116404, -0.00145324, 0.0593266, 0.0146499, 0.0170701, 0.0123499, -0.000313468
0.166156, 1.69648, -1.22693, -1.53906, -0.900326, -1.20117, 1.22996, -1.30263, 0.0284592, -0.00112177, 0.00944167, -0.0150105, -0.0336721, 0.000681417, -0.000910641, -1.0357, 60.538, 29.3888, 7.06909, 1.63898, 3.43936, 0.0293689, -0.00240992, 0.000361263, 0.00173679, 0.00389978, -0.00941388, -0.000947443, 0.0493442, -0.0167851, -0.0060038, -0.00728045, 0.0720923, 0.0400362, 0.47095, -0.540124, 0.336721, -2.08148, -2.16516, -0.130125, 0.471333, -0.542217, 0.334617, -2.08322, -2.17, -0.116344, -0.00148032, 0.0600079, 0.0148084, 0.0168541, 0.0129437, 0.000615229
0.167156, 1.69651, -1.22693, -1.53907, -0.900338, -1.2012, 1.22996, -1.30263, 0.0270334, -0.00413626, 0.00809869, -0.0152221, -0.0305973, 0.00126808, 0.00108833, -0.996025, 60.6848, 29.4999, 6.95801, 1.66369, 3.41739, -0.0164075, -0.00246499, 0.00037335, 0.00174899, 0.00389813, -0.00946675, -0.00095485, 0.0506371, -0.0163093, -0.00821097, -0.00650727, 0.06741, 0.0373178, 0.470949, -0.540064, 0.336735, -2.08144, -2.16515, -0.130129, 0.471346, -0.542209, 0.334611, -2.0832, -2.17002, -0.116297, -0.00150772, 0.0606919, 0.0149675, 0.0163162, 0.0126758, -0.00159424
0.168156, 1.69652, -1.22693, -1.53906, -0.900357, -1.20123, 1.22997, -1.30263, 0.0250174, -0.00188834, 0.00731263, -0.018083, -0.0284617, 0.00135401, 0.00120027, -0.920646, 60.6491, 29.4642, 6.95801, 1.6875, 3.40365, -0.0292249, -0.00251695, 0.000386057, 0.0017523, 0.00388812, -0.00952721, -0.000967897, 0.0509267, -0.0158968, -0.00749933, -0.00682887, 0.0686737, 0.0380702, 0.470947, -0.540003, 0.33675, -2.0814, -2.16513, -0.130134, 0.471358, -0.542198, 0.334614, -2.08317, -2.17006, -0.116253, -0.00153542, 0.0613787, 0.015127, 0.0159142, 0.0129496, -0.000766664
0.169156, 1.69654, -1.22692, -1.53906, -0.90037, -1.20126, 1.22997, -1.30263, 0.0196477, -0.000398214, 0.00658845, -0.0174078, -0.0274246, 0.000902675, 8.81028e-05, -0.809562, 60.6134, 29.5752, 6.84296, 1.73053, 3.40365, -0.00999879, -0.00257362, 0.000394824, 0.00175699, 0.00388365, -0.00958945, -0.000974957, 0.0539832, -0.012614, -0.00658924, -0.00596356, 0.0693802, 0.0333077, 0.470946, -0.539942, 0.336766, -2.08135, -2.16512, -0.130138, 0.471368, -0.542192, 0.334615, -2.08316, -2.17009, -0.1162, -0.00156344, 0.0620682, 0.0152869, 0.012754, 0.0103442, -8.68112e-05
0.170156, 1.69657, -1.22693, -1.53905, -0.900387, -1.20128, 1.22997, -1.30263, 0.0201124, -0.00284484, 0.00445555, -0.0157817, -0.0265976, 0.000873051, -0.000924609, -0.884941, 60.7245, 29.611, 6.80725, 1.77356, 3.39633, 0.0165515, -0.00262499, 0.000410728, 0.00176634, 0.00387361, -0.00963719, -0.00099929, 0.0554802, -0.0122729, -0.00863556, -0.00684337, 0.0667501, 0.0327128, 0.470944, -0.53988, 0.336781, -2.08131, -2.16511, -0.130143, 0.471383, -0.542178, 0.334612, -2.08312, -2.17014, -0.116169, -0.00159178, 0.0627604, 0.0154473, 0.0123631, 0.00986384, -0.00217262
0.171156, 1.69657, -1.22692, -1.53905, -0.900406, -1.2013, 1.22997, -1.30262, 0.0147513, -0.000954216, 0.000117737, -0.0175593, -0.0253428, 0.000853301, 0.00131637, -0.734184, 60.6848, 29.7617, 6.77154, 1.79828, 3.38901, -0.0356336, -0.00268435, 0.000415831, 0.00177145, 0.00386527, -0.00969267, -0.000996052, 0.0585298, -0.00900515, -0.00906993, -0.00977227, 0.0683641, 0.0250949, 0.470942, -0.539817, 0.336796, -2.08126, -2.16509, -0.130147, 0.471389, -0.542173, 0.334613, -2.08311, -2.17015, -0.116127, -0.00162043, 0.0634553, 0.0156081, 0.00916652, 0.00748038, -0.00281854
0.172156, 1.69659, -1.22693, -1.53905, -0.900428, -1.20132, 1.22997, -1.30262, 0.0177227, -0.0049871, 0.0024268, -0.0188845, -0.0205546, 0.0011114, 0.000640224, -0.734184, 60.8713, 29.8371, 6.73187, 1.84772, 3.37436, -0.0292249, -0.00273943, 0.000429004, 0.00178443, 0.00385815, -0.00973722, -0.00101446, 0.0565082, -0.0120413, -0.0110061, -0.00658455, 0.0611068, 0.0327136, 0.470941, -0.539753, 0.336812, -2.08122, -2.16508, -0.130152, 0.471402, -0.542161, 0.334607, -2.08307, -2.17019, -0.116096, -0.00164939, 0.0641529, 0.0157694, 0.0120232, 0.0106027, -0.0043487
0.173156, 1.6966, -1.22693, -1.53904, -0.900445, -1.20133, 1.22997, -1.30262, 0.0167212, -0.000991395, 0.00481496, -0.0157811, -0.0155152, 0.00124956, 0.000664175, -0.734184, 60.907, 29.8728, 6.65649, 1.85962, 3.36062, -0.0356336, -0.00279573, 0.000439392, 0.00178973, 0.00384017, -0.00978426, -0.00102649, 0.0567282, -0.0117245, -0.00737171, 8.39287e-05, 0.061043, 0.0317846, 0.470939, -0.539689, 0.336828, -2.08117, -2.16506, -0.130156, 0.471412, -0.542151, 0.334608, -2.08304, -2.17022, -0.116074, -0.00167868, 0.0648531, 0.015931, 0.0118231, 0.0105074, -0.000626298
0.174156, 1.69661, -1.22692, -1.53903, -0.90047, -1.20134, 1.22997, -1.30262, 0.0142324, 0.00683499, 0.00668532, -0.0184502, -0.0127283, 0.00137558, 0.000205424, -0.658806, 60.8713, 29.9085, 6.65649, 1.89624, 3.34598, -0.0292249, -0.00285187, 0.000448677, 0.00179162, 0.0038226, -0.00983758, -0.00104162, 0.056089, -0.0114464, -0.00238144, 0.00307533, 0.0671465, 0.0338506, 0.470937, -0.539624, 0.336844, -2.08113, -2.16505, -0.130161, 0.471422, -0.542141, 0.334613, -2.08302, -2.17026, -0.116046, -0.00170828, 0.065556, 0.0160931, 0.0116812, 0.011053, 0.00456862
0.175156, 1.69663, -1.22693, -1.53904, -0.900495, -1.20135, 1.22997, -1.30263, 0.015868, 0.00503187, 0.00516563, -0.0226844, -0.00996895, 0.00091705, -0.00108375, -0.734184, 61.0181, 30.0593, 6.62079, 1.91546, 3.34598, 0.00373412, -0.00290658, 0.000462517, 0.00180434, 0.00381572, -0.0098789, -0.00106671, 0.0547238, -0.0133096, -0.00474885, 0.00036913, 0.0638994, 0.0407536, 0.470936, -0.539559, 0.33686, -2.08108, -2.16503, -0.130166, 0.471436, -0.542127, 0.334607, -2.08297, -2.1703, -0.116019, -0.0017382, 0.0662614, 0.0162556, 0.0133733, 0.0135535, 0.00254782
0.176156, 1.69663, -1.22692, -1.53903, -0.900518, -1.20136, 1.22997, -1.30262, 0.0133338, 0.00240686, 0.00784628, -0.0216279, -0.0127994, 0.00142517, -0.000485143, -0.658806, 61.0934, 30.0593, 6.54541, 1.93927, 3.324, -0.00267457, -0.00296514, 0.000471225, 0.00180793, 0.0037927, -0.00992603, -0.00107561, 0.0571941, -0.0119518, -0.00506207, 0.00266051, 0.0639996, 0.0371712, 0.470934, -0.539493, 0.336876, -2.08103, -2.16502, -0.13017, 0.471445, -0.542117, 0.33461, -2.08295, -2.17033, -0.116003, -0.00176845, 0.0669695, 0.0164185, 0.0120661, 0.0118161, 0.002054
0.177156, 1.69664, -1.22692, -1.53902, -0.900547, -1.20137, 1.22997, -1.30262, 0.0115435, 0.00195926, 0.00539125, -0.0226673, -0.0100361, 0.000950113, 0.000185197, -0.583427, 61.2402, 30.095, 6.54541, 1.95758, 3.324, -0.0164075, -0.00302326, 0.000480159, 0.00181663, 0.00377631, -0.00996513, -0.00109249, 0.0583717, -0.0109851, -0.00633855, 0.00128308, 0.0617552, 0.0354565, 0.470932, -0.539426, 0.336892, -2.08098, -2.165, -0.130175, 0.471454, -0.542106, 0.334609, -2.08291, -2.17036, -0.115988, -0.00179901, 0.0676801, 0.0165817, 0.0110655, 0.0115235, 0.000800531
0.178156, 1.69665, -1.22692, -1.53902, -0.90057, -1.20137, 1.22998, -1.30262, 0.0129157, 0.00177393, 0.00257764, -0.0208654, -0.00730946, 0.00114203, 0.000360824, -0.619133, 61.387, 30.1703, 6.43433, 1.95758, 3.31027, -0.0228162, -0.00308056, 0.000492111, 0.0018239, 0.00375752, -0.0100073, -0.00110745, 0.0591117, -0.0112074, -0.00730171, 0.00103631, 0.0600032, 0.0346839, 0.47093, -0.539358, 0.336909, -2.08094, -2.16499, -0.13018, 0.471465, -0.542093, 0.334609, -2.08288, -2.17039, -0.115972, -0.0018299, 0.0683933, 0.0167454, 0.0112477, 0.0116667, -0.000112171
0.179156, 1.69666, -1.22692, -1.53901, -0.900601, -1.20137, 1.22998, -1.30263, 0.0089535, 0.00244703, 0.00144324, -0.0245081, -0.00625256, 0.0104155, -0.00169223, -0.583427, 61.4981, 30.206, 6.39465, 1.9823, 3.30295, 0.0293689, -0.00313738, 0.000504301, 0.00182804, 0.00373452, -0.0100547, -0.00113795, 0.0614481, -0.0114113, -0.00683173, 0.00768613, 0.0651641, 0.0359194, 0.470929, -0.53929, 0.336926, -2.08089, -2.16497, -0.130185, 0.471478, -0.54208, 0.334612, -2.08283, -2.17044, -0.115958, -0.00186112, 0.069109, 0.0169095, 0.011524, 0.0100127, 0.000139487
0.180156, 1.69666, -1.22691, -1.53901, -0.90063, -1.20137, 1.22998, -1.30263, 0.00648425, 0.000821104, 0.00116708, -0.0264785, -0.00475378, 0.00799683, -0.000416077, -0.43267, 61.5695, 30.3568, 6.32324, 1.98871, 3.29562, 0.0101428, -0.00319926, 0.000509298, 0.0018343, 0.00372075, -0.0100983, -0.00114299, 0.0623671, -0.0101798, -0.00829364, 0.00550732, 0.0617452, 0.0343779, 0.470927, -0.53922, 0.336943, -2.08084, -2.16496, -0.13019, 0.471483, -0.54207, 0.334613, -2.08281, -2.17046, -0.115935, -0.00189266, 0.0698272, 0.0170739, 0.0102414, 0.010001, -0.00124698
0.181156, 1.69666, -1.2269, -1.539, -0.900667, -1.20137, 1.22998, -1.30263, 0.00665226, 0.00162444, 0.00482103, -0.0296373, 0.00531155, 0.00591765, -0.000752103, -0.357292, 61.6806, 30.3568, 6.32324, 2.00702, 3.29562, 0.0229602, -0.00325557, 0.000521682, 0.00183907, 0.0036979, -0.0101416, -0.00117354, 0.0590451, -0.0123634, -0.00723053, 0.0102782, 0.0538217, 0.0428, 0.470925, -0.539151, 0.33696, -2.08079, -2.16494, -0.130195, 0.471495, -0.542055, 0.334616, -2.08276, -2.17051, -0.115924, -0.00192452, 0.0705479, 0.0172387, 0.0123094, 0.013927, 0.000418102
0.182156, 1.69667, -1.2269, -1.539, -0.900702, -1.20137, 1.22998, -1.30263, 0.00362996, 0.00148888, 0.00488032, -0.0323555, 0.00436761, 0.00492746, -2.66838e-05, -0.281914, 61.8274, 30.4679, 6.20819, 2.00061, 3.28097, 0.0101428, -0.00331475, 0.000531542, 0.00184667, 0.00368269, -0.0101835, -0.00119335, 0.0604119, -0.0110071, -0.00763829, 0.00836116, 0.0546255, 0.0412384, 0.470923, -0.53908, 0.336977, -2.08074, -2.16492, -0.1302, 0.471505, -0.542041, 0.334616, -2.08272, -2.17055, -0.115906, -0.00195671, 0.0712712, 0.0174039, 0.0109579, 0.0133088, 6.35187e-06
0.183156, 1.69667, -1.22689, -1.539, -0.900741, -1.20137, 1.22998, -1.30263, 0.000447482, 0.00497269, 0.00233297, -0.0332688, 0.00817946, 0.0038522, -0.000492507, -0.166862, 61.8274, 30.5433, 6.17248, 2.00061, 3.27456, 0.0229602, -0.00337242, 0.000542418, 0.00184868, 0.00366657, -0.0102366, -0.00121976, 0.0616368, -0.0091486, -0.00659637, 0.00747996, 0.055095, 0.0393993, 0.470921, -0.539009, 0.336994, -2.08069, -2.16491, -0.130205, 0.471516, -0.542026, 0.334621, -2.08268, -2.1706, -0.115878, -0.00198923, 0.0719968, 0.0175694, 0.00915455, 0.0125856, 0.00106409
0.184156, 1.69667, -1.22688, -1.53899, -0.900789, -1.20137, 1.22998, -1.30263, -0.000925842, 0.00706975, 0.00568432, -0.0377585, 0.00571185, 0.00257817, -0.000565697, -0.0914839, 61.9742, 30.5433, 6.17248, 2.01343, 3.28097, 0.0293689, -0.00343019, 0.000553981, 0.00185709, 0.00365356, -0.0102809, -0.00124781, 0.0611186, -0.00942693, -0.0048798, 0.00659473, 0.0592312, 0.0428363, 0.470919, -0.538937, 0.337012, -2.08064, -2.16489, -0.13021, 0.471527, -0.542009, 0.334621, -2.08262, -2.17064, -0.115856, -0.00202208, 0.072725, 0.0177353, 0.00944658, 0.0135697, 0.00299449
