alisrour97/Franka_experiments/Real_Robot_scripts/servo-franka/Data3/log_dyn_INIT0_l_ki_13.csv
Time,q1,q2,q3,q4,q5,q6,q7,dq1,dq2,dq3,dq4,dq5,dq6,dq7,t1,t2,t3,t4,t5,t6,t7,ex1,ex2,ex3,ex4,ex5,ex6,ev1,ev2,ev3,ev4,ev5,ev6,xd,yd,zd,uxd,uyd,uzd,x,y,z,ux,uy,uz,vxd,vyd,vzd,vx,vy,vz
1.46484e-06, 1.69151, -1.22729, -1.53862, -0.900388, -1.19183, 1.22828, -1.30272, -0.0027934, 0.0019265, -0.00592147, 0.0128004, -0.001337, -0.000170118, 0.000429683, -0.619133, 61.7163, 29.8728, 6.84296, 2.05646, 3.47507, -0.0685925, 0.000836167, -0.00153664, 0.00138944, 0.00129786, 0.00128167, -0.000271477, 0.00633903, 0.00568164, 0.000936153, 0.000732158, 0.00210542, -0.0177246, 0.471008, -0.543389, 0.335894, -2.08385, -2.16584, -0.129887, 0.469405, -0.542402, 0.334702, -2.08219, -2.16494, -0.12979, -4.82042e-07, 4.44613e-06, 1.21621e-06, -0.00541434, -0.0066302, 0.000113014
0.0122327, 1.69147, -1.22728, -1.53865, -0.900316, -1.19184, 1.22829, -1.30273, -0.00291364, 0.000117052, -0.0102655, 0.00472766, -0.000195599, 0.00358291, -0.00177882, -0.694511, 61.8671, 30.0236, 6.99371, 2.06195, 3.46042, -0.0292249, 0.000784548, -0.00158396, 0.0013843, 0.0012841, 0.00126409, -0.000148497, 0.00524539, 0.00386354, -0.00245168, -0.00323812, 0.00221097, -0.0102429, 0.471008, -0.543389, 0.335894, -2.08385, -2.16584, -0.129887, 0.469348, -0.542467, 0.334696, -2.08236, -2.16479, -0.129758, -1.47349e-06, 1.36697e-05, 3.70923e-06, -0.00376097, -0.00494547, -0.00311478
0.0132327, 1.69147, -1.22728, -1.53865, -0.900316, -1.19184, 1.22829, -1.30273, -0.00291364, 0.000117052, -0.0102655, 0.00472766, -0.000195599, 0.00358291, -0.00177882, -0.694511, 61.8671, 30.0236, 6.99371, 2.06195, 3.46042, -0.0292249, 0.000784541, -0.00158396, 0.0013843, 0.0012841, 0.00126408, -0.000148496, 0.00525914, 0.00386255, -0.00245313, -0.00323618, 0.00221714, -0.0102417, 0.471008, -0.543389, 0.335894, -2.08385, -2.16584, -0.129887, 0.469348, -0.542467, 0.334696, -2.08236, -2.16479, -0.129758, -2.9032e-06, 2.69793e-05, 7.30333e-06, -0.00376097, -0.00494547, -0.00311478
0.0142327, 1.69147, -1.22728, -1.53865, -0.900316, -1.19184, 1.22829, -1.30273, -0.00291364, 0.000117052, -0.0102655, 0.00472766, -0.000195599, 0.00358291, -0.00177882, -0.694511, 61.8671, 30.0236, 6.99371, 2.06195, 3.46042, -0.0292249, 0.00078452, -0.00158396, 0.0013843, 0.00128409, 0.00126408, -0.000148493, 0.00527776, 0.00386121, -0.00245509, -0.00323354, 0.00222552, -0.0102402, 0.471008, -0.543389, 0.335894, -2.08385, -2.16584, -0.129887, 0.469348, -0.542467, 0.334696, -2.08236, -2.16479, -0.129758, -4.83863e-06, 4.50071e-05, 1.21677e-05, -0.00376097, -0.00494547, -0.00311478
0.0152327, 1.69147, -1.22728, -1.53865, -0.900316, -1.19184, 1.22829, -1.30273, -0.00291364, 0.000117052, -0.0102655, 0.00472766, -0.000195599, 0.00358291, -0.00177882, -0.694511, 61.8671, 30.0236, 6.99371, 2.06195, 3.46042, -0.0292249, 0.000784481, -0.00158396, 0.0013843, 0.00128408, 0.00126406, -0.000148489, 0.00530185, 0.00385948, -0.00245762, -0.00323012, 0.00223635, -0.0102382, 0.471008, -0.543389, 0.335894, -2.08385, -2.16584, -0.129887, 0.469348, -0.542467, 0.334696, -2.08236, -2.16479, -0.129758, -7.34058e-06, 6.83239e-05, 1.84546e-05, -0.00376097, -0.00494547, -0.00311478
0.0162327, 1.69147, -1.22728, -1.53865, -0.900316, -1.19184, 1.22829, -1.30273, -0.00291364, 0.000117052, -0.0102655, 0.00472766, -0.000195599, 0.00358291, -0.00177882, -0.694511, 61.8671, 30.0236, 6.99371, 2.06195, 3.46042, -0.0292249, 0.000784416, -0.00158395, 0.00138431, 0.00128407, 0.00126404, -0.000148481, 0.0053319, 0.00385731, -0.00246077, -0.00322584, 0.00224988, -0.0102357, 0.471008, -0.543389, 0.335894, -2.08385, -2.16584, -0.129887, 0.469348, -0.542467, 0.334696, -2.08236, -2.16479, -0.129758, -1.04607e-05, 9.7416e-05, 2.62933e-05, -0.00376097, -0.00494547, -0.00311478
0.0172327, 1.69147, -1.22728, -1.53865, -0.900316, -1.19184, 1.22829, -1.30273, -0.00291364, 0.000117052, -0.0102655, 0.00472766, -0.000195599, 0.00358291, -0.00177882, -0.694511, 61.8671, 30.0236, 6.99371, 2.06195, 3.46042, -0.0292249, 0.00078432, -0.00158395, 0.00138432, 0.00128404, 0.00126401, -0.00014847, 0.0053683, 0.0038547, -0.00246458, -0.00322064, 0.00226627, -0.0102326, 0.471008, -0.543389, 0.335894, -2.08385, -2.16584, -0.129887, 0.469348, -0.542467, 0.334696, -2.08236, -2.16479, -0.129758, -1.42391e-05, 0.000132663, 3.57838e-05, -0.00376097, -0.00494547, -0.00311478
0.0182327, 1.69147, -1.22728, -1.53865, -0.900316, -1.19184, 1.22829, -1.30273, -0.00291364, 0.000117052, -0.0102655, 0.00472766, -0.000195599, 0.00358291, -0.00177882, -0.694511, 61.8671, 30.0236, 6.99371, 2.06195, 3.46042, -0.0292249, 0.000784186, -0.00158394, 0.00138434, 0.00128401, 0.00126396, -0.000148454, 0.00541132, 0.00385161, -0.00246907, -0.00321448, 0.00228566, -0.010229, 0.471008, -0.543389, 0.335894, -2.08385, -2.16584, -0.129887, 0.469348, -0.542467, 0.334696, -2.08236, -2.16479, -0.129758, -1.87016e-05, 0.000174312, 4.69907e-05, -0.00376097, -0.00494547, -0.00311478
0.0192327, 1.69147, -1.22728, -1.53865, -0.900316, -1.19184, 1.22829, -1.30273, -0.00291364, 0.000117052, -0.0102655, 0.00472766, -0.000195599, 0.00358291, -0.00177882, -0.694511, 61.8671, 30.0236, 6.99371, 2.06195, 3.46042, -0.0292249, 0.000784007, -0.00158392, 0.00138435, 0.00128396, 0.0012639, -0.000148433, 0.00546104, 0.00384804, -0.00247426, -0.00320734, 0.00230809, -0.0102249, 0.471008, -0.543389, 0.335894, -2.08385, -2.16584, -0.129887, 0.469348, -0.542467, 0.334696, -2.08236, -2.16479, -0.129758, -2.38577e-05, 0.00022246, 5.99368e-05, -0.00376097, -0.00494547, -0.00311478
0.0202327, 1.69147, -1.22728, -1.53865, -0.900316, -1.19184, 1.22829, -1.30273, -0.00291364, 0.000117052, -0.0102655, 0.00472766, -0.000195599, 0.00358291, -0.00177882, -0.694511, 61.8671, 30.0236, 6.99371, 2.06195, 3.46042, -0.0292249, 0.000783778, -0.00158391, 0.00138438, 0.0012839, 0.00126382, -0.000148406, 0.0055174, 0.00384399, -0.00248012, -0.00319922, 0.00233353, -0.0102202, 0.471008, -0.543389, 0.335894, -2.08385, -2.16584, -0.129887, 0.469348, -0.542467, 0.334696, -2.08236, -2.16479, -0.129758, -2.96979e-05, 0.000277024, 7.45974e-05, -0.00376097, -0.00494547, -0.00311478
0.0212327, 1.69147, -1.22728, -1.53865, -0.900316, -1.19184, 1.22829, -1.30273, -0.00291364, 0.000117052, -0.0102655, 0.00472766, -0.000195599, 0.00358291, -0.00177882, -0.694511, 61.8671, 30.0236, 6.99371, 2.06195, 3.46042, -0.0292249, 0.000783493, -0.00158389, 0.00138441, 0.00128383, 0.00126372, -0.000148373, 0.00558009, 0.0038395, -0.00248664, -0.00319016, 0.00236184, -0.010215, 0.471008, -0.543388, 0.335894, -2.08385, -2.16584, -0.129887, 0.469348, -0.542467, 0.334696, -2.08236, -2.16479, -0.129758, -3.61913e-05, 0.000337726, 9.08941e-05, -0.00376097, -0.00494547, -0.00311478
0.0222327, 1.69147, -1.22728, -1.53865, -0.900316, -1.19184, 1.22829, -1.30273, -0.00291364, 0.000117052, -0.0102655, 0.00472766, -0.000195599, 0.00358291, -0.00177882, -0.694511, 61.8671, 30.0236, 6.99371, 2.06195, 3.46042, -0.0292249, 0.000783145, -0.00158386, 0.00138445, 0.00128373, 0.0012636, -0.000148332, 0.0056489, 0.00383457, -0.00249377, -0.00318019, 0.00239294, -0.0102092, 0.471008, -0.543388, 0.335894, -2.08385, -2.16584, -0.129887, 0.469348, -0.542467, 0.334696, -2.08236, -2.16479, -0.129758, -4.33151e-05, 0.00040436, 0.000108769, -0.00376097, -0.00494547, -0.00311478
0.0232327, 1.69147, -1.22728, -1.53865, -0.900316, -1.19184, 1.22829, -1.30273, -0.00291364, 0.000117052, -0.0102655, 0.00472766, -0.000195599, 0.00358291, -0.00177882, -0.694511, 61.8671, 30.0236, 6.99371, 2.06195, 3.46042, -0.0292249, 0.000782728, -0.00158383, 0.00138449, 0.00128362, 0.00126345, -0.000148283, 0.00572381, 0.00382921, -0.00250153, -0.0031693, 0.00242683, -0.010203, 0.471008, -0.543388, 0.335894, -2.08385, -2.16584, -0.129887, 0.469348, -0.542467, 0.334696, -2.08236, -2.16479, -0.129758, -5.10658e-05, 0.000476901, 0.000128212, -0.00376097, -0.00494547, -0.00311478
0.0242327, 1.69142, -1.22732, -1.53875, -0.900242, -1.19184, 1.2283, -1.30273, -0.00242993, -0.00292457, -0.00966837, 0.0033951, 0.000404908, 0.00126498, 0.00119518, -0.658806, 62.3074, 30.1346, 6.84296, 2.01343, 3.33865, -0.0557752, 0.000714088, -0.00164178, 0.00142587, 0.00131831, 0.00129455, 1.33125e-05, 0.00499565, 0.00345197, -0.00449746, -0.00533437, -0.00210945, -0.0109824, 0.471008, -0.543387, 0.335894, -2.08385, -2.16584, -0.129887, 0.469291, -0.54253, 0.334647, -2.0825, -2.16458, -0.129735, -5.94401e-05, 0.000555325, 0.000149214, -0.00349067, -0.00382554, -0.00496297
0.0252327, 1.69141, -1.22732, -1.53875, -0.900244, -1.19184, 1.2283, -1.30273, -0.00525769, -0.00280208, -0.00540549, 0.000632079, 0.000269939, 0.00139451, 0.00103414, -0.508049, 62.3431, 30.0593, 6.91833, 2.01343, 3.324, -0.0621838, 0.000708159, -0.00164667, 0.00142789, 0.00131554, 0.00129511, 2.37451e-05, 0.00466083, 0.0036588, -0.00314512, -0.00240718, -0.00189317, -0.00918363, 0.471008, -0.543387, 0.335895, -2.08385, -2.16584, -0.129887, 0.469286, -0.542535, 0.334644, -2.08251, -2.16457, -0.129737, -6.84344e-05, 0.000639605, 0.000171766, -0.00366938, -0.00362732, -0.00354689
0.0262327, 1.69141, -1.22733, -1.53877, -0.900235, -1.19184, 1.2283, -1.30273, -0.00358857, -0.00978262, -0.00660258, 0.00311878, 0.00201102, 0.00117352, -0.00175198, -0.508049, 62.2321, 30.0236, 6.80725, 1.96399, 3.31759, 0.00373412, 0.000701655, -0.00165111, 0.00143648, 0.00132501, 0.00130455, 3.05708e-05, 0.00528755, 0.00319989, -0.00744159, -0.00247871, -0.0104324, -0.00678632, 0.471008, -0.543386, 0.335895, -2.08384, -2.16584, -0.129887, 0.469282, -0.54254, 0.334635, -2.08251, -2.16456, -0.129736, -7.80454e-05, 0.000729718, 0.000195859, -0.00335335, -0.00347586, -0.00787633
0.0272327, 1.6914, -1.22733, -1.53879, -0.900233, -1.19184, 1.2283, -1.30273, -0.0042182, -0.0101198, -0.0101934, 0.00166201, 0.00473152, 0.00132975, -0.000184645, -0.43267, 61.756, 29.8371, 6.69617, 1.87244, 3.30295, -0.0228162, 0.000694669, -0.00165624, 0.00144465, 0.00133915, 0.00130611, 5.02916e-05, 0.00548989, 0.00351197, -0.00907821, -0.00482327, -0.0125331, -0.00850181, 0.471008, -0.543385, 0.335895, -2.08384, -2.16584, -0.129887, 0.469277, -0.542545, 0.334626, -2.08252, -2.16453, -0.12972, -8.82697e-05, 0.000825639, 0.000221482, -0.0037271, -0.00334056, -0.00948875
0.0282327, 1.69141, -1.22735, -1.53881, -0.900239, -1.19184, 1.22831, -1.30273, -0.00202385, -0.00844699, -0.0153359, 0.000906174, 0.00214342, 0.000618881, -0.000123098, -0.468376, 61.3116, 29.611, 6.69617, 1.77356, 3.31027, -0.0228162, 0.000690796, -0.00165652, 0.00146194, 0.0013625, 0.00131642, 5.39058e-05, 0.00574659, 0.00346188, -0.0102134, -0.0116899, -0.00858567, -0.00909707, 0.471008, -0.543384, 0.335895, -2.08384, -2.16584, -0.129887, 0.469276, -0.542545, 0.334609, -2.08251, -2.16451, -0.129704, -9.91039e-05, 0.000927342, 0.000248628, -0.00371971, -0.0033155, -0.0106238
0.0292327, 1.69141, -1.22735, -1.53884, -0.900235, -1.19185, 1.2283, -1.30273, -0.000456415, -0.00459362, -0.0196605, 0.00158526, -0.000967171, -0.000635836, -0.00201485, -0.508049, 60.7245, 29.3888, 6.5097, 1.69391, 3.33865, 0.0293689, 0.000683214, -0.00166105, 0.00147318, 0.00139228, 0.00131082, 6.75563e-05, 0.00638506, 0.00413732, -0.00959398, -0.0175939, -0.00250298, -0.0094342, 0.471007, -0.543383, 0.335895, -2.08384, -2.16584, -0.129887, 0.469271, -0.54255, 0.334597, -2.08251, -2.16449, -0.129664, -0.000110545, 0.0010348, 0.000277287, -0.00436053, -0.00396133, -0.0100623
0.0302327, 1.69141, -1.22736, -1.53887, -0.900242, -1.19186, 1.22831, -1.30273, -0.00209392, -0.00806384, -0.0228593, 0.000674213, -0.00419923, -0.000421837, -0.00256393, -0.43267, 60.3912, 29.1666, 6.5097, 1.64447, 3.33865, 0.0623279, 0.000672225, -0.00166675, 0.00149456, 0.00142664, 0.00131195, 7.72395e-05, 0.00861114, 0.00567015, -0.0128003, -0.0221605, -0.00291997, -0.0122532, 0.471007, -0.543382, 0.335896, -2.08384, -2.16584, -0.129887, 0.469265, -0.542557, 0.334574, -2.0825, -2.16446, -0.129626, -0.000122588, 0.001148, 0.000307449, -0.00593957, -0.00561499, -0.0134975
0.0312327, 1.69141, -1.22738, -1.5389, -0.90024, -1.19188, 1.22831, -1.30273, -0.000580527, -0.00987672, -0.021562, 0.00285376, -0.00805357, 0.00026285, 0.000969475, -0.468376, 60.173, 28.9048, 6.39465, 1.63257, 3.324, -0.00999879, 0.00066186, -0.00167015, 0.0015157, 0.00145961, 0.00131338, 0.000100016, 0.00944292, 0.00534697, -0.0131355, -0.0215631, -0.00140052, -0.0168243, 0.471007, -0.543381, 0.335896, -2.08384, -2.16584, -0.129887, 0.469261, -0.542563, 0.334552, -2.0825, -2.16442, -0.129589, -0.000135232, 0.0012669, 0.000339106, -0.00561181, -0.00625243, -0.0139356
0.0322327, 1.69141, -1.22742, -1.53893, -0.900239, -1.19189, 1.22832, -1.30273, -0.00216511, -0.0186992, -0.02285, 0.00428573, -0.0111606, 0.00309251, -0.000337028, -0.392998, 60.2802, 28.6072, 6.28357, 1.63257, 3.24527, 0.0165515, 0.000646561, -0.00167496, 0.0015454, 0.00148619, 0.00132719, 0.000116892, 0.0127045, 0.00644672, -0.0182582, -0.0214666, -0.00628049, -0.0198263, 0.471007, -0.54338, 0.335896, -2.08384, -2.16584, -0.129887, 0.469255, -0.542572, 0.334521, -2.0825, -2.16439, -0.129571, -0.000148472, 0.00139149, 0.000372248, -0.00679168, -0.00860427, -0.0194338
0.0332327, 1.69141, -1.22743, -1.53898, -0.900243, -1.19192, 1.22833, -1.30273, -0.00089622, -0.0202264, -0.0270212, -0.000478477, -0.0133081, 0.00984573, -0.00120803, -0.281914, 60.2087, 28.5715, 6.28357, 1.63257, 3.17386, 0.0431018, 0.00062887, -0.00168249, 0.00156977, 0.0015264, 0.00131323, 0.000141071, 0.0130011, 0.0043755, -0.0207843, -0.0228144, -0.00191742, -0.0162185, 0.471007, -0.543379, 0.335897, -2.08384, -2.16584, -0.129888, 0.469247, -0.542585, 0.334495, -2.08251, -2.16435, -0.12951, -0.000162305, 0.00152173, 0.000406866, -0.00481756, -0.00829327, -0.0220019
0.0342327, 1.69142, -1.22745, -1.53901, -0.900252, -1.19193, 1.22835, -1.30273, -0.00210601, -0.0194634, -0.0294583, -0.0048043, -0.0153074, 0.013892, 0.000652709, -0.206535, 60.2087, 28.3851, 6.32324, 1.64447, 3.13083, 0.00373412, 0.000617526, -0.00168379, 0.00159318, 0.00155772, 0.00130753, 0.000156685, 0.013647, 0.00400691, -0.0213965, -0.0241446, 0.00304543, -0.0173296, 0.471007, -0.543377, 0.335897, -2.08384, -2.16584, -0.129888, 0.469246, -0.542591, 0.334471, -2.08251, -2.16433, -0.129468, -0.000176727, 0.00165761, 0.000442951, -0.00446288, -0.00868572, -0.0226817
0.0352327, 1.69142, -1.22747, -1.53905, -0.90025, -1.19196, 1.22836, -1.30273, -0.00214099, -0.0151357, -0.0339165, -0.0050878, -0.016778, 0.0105677, 0.000435139, -0.166862, 60.2087, 28.3097, 6.24786, 1.65729, 3.11618, 0.00373412, 0.000601146, -0.00168922, 0.0016166, 0.00159636, 0.0012945, 0.000181381, 0.0141891, 0.00559099, -0.0207791, -0.0313643, 0.00729521, -0.0195989, 0.471007, -0.543375, 0.335898, -2.08384, -2.16584, -0.129888, 0.46924, -0.542602, 0.334445, -2.08252, -2.16429, -0.12941, -0.000191736, 0.0017991, 0.000480493, -0.00601826, -0.00923926, -0.022071
0.0362327, 1.69142, -1.22748, -1.53909, -0.900254, -1.19198, 1.22837, -1.30273, -0.000860432, -0.0150664, -0.0397807, -0.00406488, -0.0165081, 0.0121851, -0.000896702, -0.0557783, 60.2087, 28.3454, 6.24786, 1.63257, 3.13083, 0.0357776, 0.000586686, -0.00169499, 0.00163993, 0.00164034, 0.00128375, 0.000202941, 0.0154027, 0.00579887, -0.0226176, -0.0346446, 0.00833999, -0.020616, 0.471006, -0.543374, 0.335898, -2.08384, -2.16584, -0.129888, 0.469233, -0.542611, 0.334421, -2.08253, -2.16426, -0.129348, -0.000207328, 0.00194618, 0.000519485, -0.00626444, -0.0100158, -0.0240294
0.0372327, 1.69143, -1.22749, -1.53912, -0.900257, -1.192, 1.22838, -1.30273, 0.0011755, -0.0115389, -0.0323574, -0.00321468, -0.0210527, 0.00870756, 0.000114275, 0.0196001, 60.2087, 28.1589, 6.24786, 1.60785, 3.13815, 0.0165515, 0.000577121, -0.00169491, 0.00165427, 0.00166553, 0.00126663, 0.000216193, 0.013572, 0.00473981, -0.0182225, -0.0328908, 0.0134392, -0.0183614, 0.471006, -0.543372, 0.335899, -2.08384, -2.16584, -0.129888, 0.469233, -0.542617, 0.334406, -2.08254, -2.16425, -0.129302, -0.0002235, 0.00209882, 0.000559916, -0.00512972, -0.00868903, -0.019397
0.0382327, 1.69144, -1.22748, -1.53917, -0.900258, -1.19202, 1.22839, -1.30272, 0.00271689, -0.00969407, -0.0379291, -0.00252169, -0.0242464, 0.0113359, 0.00078826, 0.0949785, 60.0977, 28.3097, 6.24786, 1.57764, 3.14548, -0.00267457, 0.000564831, -0.0016967, 0.00166919, 0.00170814, 0.00123371, 0.000237283, 0.0151475, 0.00491275, -0.018886, -0.0367, 0.0196152, -0.021888, 0.471006, -0.54337, 0.335899, -2.08384, -2.16584, -0.129888, 0.469231, -0.542624, 0.33439, -2.08255, -2.16422, -0.129219, -0.000240248, 0.00225699, 0.000601779, -0.00528681, -0.00999113, -0.0202496
0.0392327, 1.69144, -1.22749, -1.5392, -0.900258, -1.19204, 1.22841, -1.30273, 0.00343002, -0.00249808, -0.037595, -0.00421626, -0.0214672, 0.00768861, -0.00116991, 0.325081, 60.173, 28.274, 6.20819, 1.5282, 3.16653, 0.0431018, 0.000550439, -0.00170089, 0.00168239, 0.0017292, 0.00121463, 0.00024967, 0.0128231, 0.00454815, -0.0151486, -0.0385713, 0.0229294, -0.0167658, 0.471006, -0.543367, 0.3359, -2.08384, -2.16584, -0.129888, 0.469227, -0.542635, 0.334375, -2.08256, -2.16421, -0.129175, -0.000257569, 0.00242068, 0.000645063, -0.0048882, -0.00809307, -0.0161661
0.0402327, 1.69145, -1.22748, -1.53923, -0.900263, -1.19207, 1.22842, -1.30272, 0.00716683, 0.0041027, -0.0354461, -0.00636892, -0.0246164, 0.00989138, 0.000915478, 0.436165, 60.062, 28.3097, 6.20819, 1.49707, 3.19583, -0.00267457, 0.000543716, -0.00169949, 0.00168788, 0.00176341, 0.00117533, 0.000264148, 0.0104884, 0.00165099, -0.010828, -0.0372742, 0.0334225, -0.0134023, 0.471005, -0.543365, 0.3359, -2.08384, -2.16584, -0.129889, 0.469228, -0.542638, 0.334369, -2.08258, -2.16421, -0.129096, -0.00027546, 0.00258986, 0.000689759, -0.00194018, -0.00616553, -0.0115801
0.0412327, 1.69146, -1.22749, -1.53926, -0.90027, -1.19209, 1.22843, -1.30272, 0.00921985, -0.000618713, -0.0364744, -0.00895577, -0.022849, 0.0105668, 0.000881586, 0.701973, 60.2087, 28.4565, 6.24786, 1.47876, 3.25259, -0.00999879, 0.000529446, -0.00170346, 0.00170444, 0.00179612, 0.00115265, 0.000283829, 0.00936698, -0.000317479, -0.0143916, -0.038678, 0.0280442, -0.00887746, 0.471005, -0.543362, 0.335901, -2.08383, -2.16584, -0.129889, 0.469223, -0.542647, 0.334352, -2.08259, -2.16419, -0.129035, -0.000293917, 0.0027645, 0.00073586, -0.000161479, -0.0042547, -0.0149381
0.0422327, 1.69146, -1.22749, -1.53926, -0.90027, -1.19209, 1.22843, -1.30272, 0.00921985, -0.000618713, -0.0364744, -0.00895577, -0.022849, 0.0105668, 0.000881586, 0.701973, 60.2087, 28.4565, 6.24786, 1.47876, 3.25259, -0.00999879, 0.000526591, -0.00170326, 0.00170473, 0.00179536, 0.00115164, 0.00028416, 0.00955283, -0.000330546, -0.0144101, -0.0386493, 0.0281295, -0.00886193, 0.471005, -0.54336, 0.335902, -2.08383, -2.16584, -0.129889, 0.469223, -0.542647, 0.334352, -2.08259, -2.16419, -0.129035, -0.000312938, 0.00294458, 0.000783355, -0.000161479, -0.0042547, -0.0149381
0.0432327, 1.69146, -1.22749, -1.53926, -0.90027, -1.19209, 1.22843, -1.30272, 0.00921985, -0.000618713, -0.0364744, -0.00895577, -0.022849, 0.0105668, 0.000881586, 0.701973, 60.2087, 28.4565, 6.24786, 1.47876, 3.25259, -0.00999879, 0.000523551, -0.00170304, 0.00170504, 0.00179455, 0.00115056, 0.000284512, 0.00974426, -0.000343994, -0.0144291, -0.0386196, 0.0282174, -0.00884594, 0.471005, -0.543357, 0.335903, -2.08383, -2.16584, -0.129889, 0.469223, -0.542647, 0.334352, -2.08259, -2.16419, -0.129035, -0.000332518, 0.00313007, 0.000832236, -0.000161479, -0.0042547, -0.0149381
0.0442327, 1.69147, -1.22749, -1.53935, -0.9003, -1.19216, 1.22845, -1.30273, 0.00261834, -0.00436199, -0.0341801, -0.0140126, -0.0225113, 0.00668083, 0.000449591, 1.60651, 60.3912, 28.8691, 6.28357, 1.52179, 3.49612, 0.0165515, 0.000500547, -0.00170816, 0.00173895, 0.00189417, 0.00107577, 0.000307515, 0.0107735, 0.0024199, -0.0165273, -0.0414894, 0.0224683, -0.00920008, 0.471004, -0.543354, 0.335903, -2.08383, -2.16584, -0.129889, 0.469218, -0.542662, 0.334316, -2.0826, -2.16416, -0.128847, -0.000352655, 0.00332096, 0.000882495, -0.0029809, -0.00486995, -0.0170361
0.0452327, 1.69147, -1.22749, -1.53937, -0.900307, -1.19218, 1.22846, -1.30272, 0.00181452, -0.00548119, -0.0340504, -0.0118467, -0.022732, 0.00837758, 0.0010118, 1.9477, 60.5023, 28.9802, 6.20819, 1.54651, 3.56112, -0.00267457, 0.000489818, -0.00170883, 0.00174977, 0.00191857, 0.00105084, 0.000319133, 0.0122733, 0.00301203, -0.0166675, -0.0389124, 0.0222446, -0.0124255, 0.471004, -0.54335, 0.335904, -2.08383, -2.16584, -0.12989, 0.469217, -0.542667, 0.334304, -2.08261, -2.16416, -0.128793, -0.000373345, 0.00351722, 0.000934121, -0.00354439, -0.00615701, -0.0173379
0.0462327, 1.69148, -1.2275, -1.53939, -0.900322, -1.19221, 1.22848, -1.30273, 0.000881599, -0.00539842, -0.0322869, -0.0152518, -0.0239947, 0.0112175, -0.000749618, 2.17384, 60.5777, 29.1666, 6.20819, 1.60785, 3.58218, 0.0357776, 0.000483653, -0.00170245, 0.00176238, 0.00194619, 0.00102013, 0.00031059, 0.012057, 0.00207411, -0.0161883, -0.036923, 0.025015, -0.00816085, 0.471004, -0.543347, 0.335905, -2.08383, -2.16583, -0.12989, 0.469222, -0.542668, 0.334291, -2.0826, -2.16417, -0.128733, -0.000394586, 0.00371881, 0.000987107, -0.00261937, -0.00577725, -0.0168065
0.0472327, 1.69149, -1.2275, -1.53942, -0.900318, -1.19224, 1.2285, -1.30273, 0.00216503, -0.00358474, -0.0317045, -0.00862023, -0.0238151, 0.0141568, -0.000771012, 2.43568, 60.5777, 29.3888, 5.95032, 1.63898, 3.57577, 0.0431018, 0.000468893, -0.00170432, 0.00176985, 0.00196402, 0.000987407, 0.000329507, 0.0136473, 0.00219197, -0.0138277, -0.0306403, 0.0276508, -0.0123528, 0.471003, -0.543343, 0.335906, -2.08382, -2.16583, -0.12989, 0.46922, -0.542677, 0.334283, -2.08263, -2.16416, -0.128678, -0.000416373, 0.00392573, 0.00104144, -0.00261677, -0.00750855, -0.0146644
0.0482327, 1.69151, -1.22751, -1.53943, -0.900317, -1.19227, 1.22851, -1.30272, 0.00445425, -0.00581284, -0.0254098, -0.00584864, -0.0238625, 0.0205998, 0.0019274, 2.51106, 60.7245, 29.4999, 5.76385, 1.68201, 3.59683, -0.0228162, 0.000461188, -0.00169788, 0.0017823, 0.00198417, 0.000965031, 0.000337563, 0.0132533, -0.000812795, -0.0120981, -0.0187516, 0.0281845, -0.0121465, 0.471003, -0.543339, 0.335907, -2.08382, -2.16583, -0.129891, 0.469226, -0.542679, 0.33427, -2.08264, -2.16416, -0.128633, -0.000438704, 0.00413795, 0.00109712, 0.000410139, -0.00705064, -0.0129303
0.0492327, 1.69152, -1.22752, -1.53946, -0.900314, -1.1923, 1.22852, -1.30272, 0.00941893, -0.00730091, -0.0256848, -0.00295916, -0.0235895, 0.0197993, 0.000810214, 2.70148, 60.8713, 29.6863, 5.53772, 1.71222, 3.62521, -0.00999879, 0.000447859, -0.00169643, 0.00179571, 0.00200556, 0.000940034, 0.000348931, 0.01219, -0.00283173, -0.0130224, -0.0190495, 0.0261052, -0.00865135, 0.471002, -0.543335, 0.335908, -2.08382, -2.16583, -0.129891, 0.469227, -0.542686, 0.334256, -2.08265, -2.16415, -0.128583, -0.000461575, 0.00435543, 0.00115413, 0.00233217, -0.00555846, -0.0136819
0.0502327, 1.69153, -1.22753, -1.53947, -0.900318, -1.19232, 1.22854, -1.30273, 0.0118688, -0.0100582, -0.0254947, -0.0044835, -0.0225488, 0.0189673, -0.00190126, 2.81654, 61.0934, 29.722, 5.46234, 1.72504, 3.66092, 0.0559192, 0.000438901, -0.00169061, 0.00181023, 0.00202122, 0.000923414, 0.000341866, 0.0108061, -0.00461118, -0.0150107, -0.0204197, 0.0223952, -0.00167594, 0.471002, -0.543331, 0.335909, -2.08382, -2.16583, -0.129891, 0.469232, -0.542688, 0.334241, -2.08264, -2.16416, -0.12855, -0.000484983, 0.00457817, 0.00121247, 0.00396461, -0.00359056, -0.0154257
0.0512327, 1.69155, -1.22755, -1.53949, -0.900314, -1.19235, 1.22855, -1.30272, 0.0144388, -0.0109699, -0.0232608, -0.00288874, -0.0251469, 0.018851, 0.000427912, 2.89191, 61.2759, 29.7974, 5.27588, 1.70032, 3.68289, 0.0101428, 0.000429523, -0.00168414, 0.00182142, 0.00203233, 0.000902771, 0.000350077, 0.0104964, -0.00580989, -0.0147013, -0.019461, 0.0234655, -0.00262196, 0.471001, -0.543326, 0.335911, -2.08382, -2.16583, -0.129892, 0.469238, -0.54269, 0.33423, -2.08265, -2.16416, -0.128516, -0.000508925, 0.00480613, 0.00127212, 0.00513792, -0.00305547, -0.0150486
0.0522327, 1.69156, -1.22756, -1.5395, -0.900317, -1.19238, 1.22857, -1.30272, 0.013571, -0.0107435, -0.0226044, -0.00538689, -0.0288509, 0.0197067, 0.000522634, 3.07838, 61.4227, 29.9085, 5.24017, 1.71863, 3.67557, 0.00373412, 0.00041678, -0.00168077, 0.00183295, 0.00204682, 0.000874229, 0.000358421, 0.0110456, -0.00574821, -0.0145845, -0.0208646, 0.0274085, -0.00229211, 0.471001, -0.543321, 0.335912, -2.08381, -2.16583, -0.129892, 0.469241, -0.542696, 0.334217, -2.08266, -2.16416, -0.12847, -0.000533398, 0.00503929, 0.00133308, 0.00507568, -0.00338492, -0.0149558
0.0532327, 1.69157, -1.22758, -1.53951, -0.900313, -1.1924, 1.22859, -1.30273, 0.0147657, -0.0140272, -0.0163301, -0.00293158, -0.0255697, 0.0202135, -0.000126295, 3.19343, 61.7163, 29.9085, 5.16479, 1.70032, 3.67557, 0.0165515, 0.000406015, -0.00167459, 0.00184773, 0.00205463, 0.000862201, 0.000359783, 0.00989595, -0.00751578, -0.0139912, -0.0126629, 0.0212318, 0.00158222, 0.471, -0.543316, 0.335913, -2.08381, -2.16583, -0.129892, 0.469247, -0.542699, 0.334202, -2.08266, -2.16416, -0.12845, -0.000558399, 0.00527762, 0.00139533, 0.00679626, -0.0020306, -0.0141825
0.0542327, 1.69158, -1.22759, -1.53952, -0.900314, -1.19244, 1.22861, -1.30273, 0.0157102, -0.0137112, -0.0127601, -0.00278206, -0.0288957, 0.0198329, -0.000796274, 3.30451, 61.9028, 29.9482, 5.16479, 1.70581, 3.69021, 0.0357776, 0.000395187, -0.00166749, 0.00185991, 0.00206402, 0.000837762, 0.000358896, 0.00961903, -0.00820929, -0.012626, -0.0114314, 0.0239842, 0.00367371, 0.471, -0.543311, 0.335915, -2.08381, -2.16583, -0.129893, 0.469253, -0.542703, 0.33419, -2.08267, -2.16417, -0.128415, -0.000583923, 0.00552111, 0.00145888, 0.00750274, -0.00169548, -0.0127489
0.0552327, 1.6916, -1.2276, -1.53954, -0.900312, -1.19247, 1.22863, -1.30272, 0.0146575, -0.0134083, -0.018329, -0.000191552, -0.031593, 0.0193732, 0.00116457, 3.34419, 62.0853, 30.0593, 5.2005, 1.71863, 3.71127, -0.00999879, 0.00038453, -0.00165978, 0.00186995, 0.00207443, 0.000807787, 0.000366065, 0.0127255, -0.00568204, -0.0140729, -0.0164984, 0.02649, -0.00515715, 0.470999, -0.543305, 0.335916, -2.08381, -2.16583, -0.129893, 0.46926, -0.542706, 0.334179, -2.08268, -2.16418, -0.128373, -0.000609969, 0.00576973, 0.0015237, 0.00501154, -0.00439429, -0.0145188
0.0562327, 1.69162, -1.22761, -1.53954, -0.900316, -1.1925, 1.22865, -1.30273, 0.0111075, -0.0132995, -0.0146777, -0.00209658, -0.0329778, 0.0182584, -0.00119031, 3.49494, 62.2717, 29.9839, 5.27588, 1.71863, 3.7543, 0.0431018, 0.000375526, -0.00165221, 0.00187986, 0.0020823, 0.000784435, 0.000356601, 0.0133866, -0.00441529, -0.0129141, -0.0152199, 0.0271201, -0.00332629, 0.470999, -0.5433, 0.335918, -2.0838, -2.16583, -0.129894, 0.469267, -0.542707, 0.33417, -2.08268, -2.16419, -0.128342, -0.000636533, 0.00602345, 0.0015898, 0.00378535, -0.00502343, -0.0133729
0.0572327, 1.69163, -1.22763, -1.53955, -0.900314, -1.19253, 1.22867, -1.30273, 0.0126349, -0.0131344, -0.0126166, -0.00247997, -0.0342258, 0.0177508, -0.000793538, 3.60603, 62.4542, 30.0593, 5.31555, 1.71222, 3.79001, 0.0431018, 0.00036259, -0.00164617, 0.00189108, 0.00208813, 0.000759433, 0.000361737, 0.012612, -0.00550356, -0.0122897, -0.0148034, 0.0281284, -0.00128557, 0.470998, -0.543294, 0.335919, -2.0838, -2.16582, -0.129894, 0.469273, -0.542712, 0.334158, -2.08269, -2.1642, -0.12831, -0.000663611, 0.00628226, 0.00165716, 0.00483997, -0.00405142, -0.0126017
0.0582327, 1.69164, -1.22764, -1.53956, -0.900305, -1.19256, 1.22869, -1.30272, 0.0106246, -0.0131174, -0.0109755, -5.74362e-06, -0.0346456, 0.01823, 0.0011664, 3.72108, 62.6407, 30.1346, 5.24017, 1.70032, 3.80466, -0.00267457, 0.000347097, -0.00164257, 0.00190058, 0.00209081, 0.000734792, 0.000378869, 0.0143004, -0.0041711, -0.011233, -0.0116152, 0.0284705, -0.00672506, 0.470997, -0.543287, 0.335921, -2.0838, -2.16582, -0.129894, 0.469276, -0.542719, 0.334148, -2.08272, -2.16419, -0.128281, -0.000691201, 0.00654612, 0.00172578, 0.00358019, -0.00567163, -0.0117115
0.0592327, 1.69166, -1.22765, -1.53956, -0.900307, -1.19259, 1.22871, -1.30272, 0.0157402, -0.0121781, -0.0102124, -0.00185382, -0.0298656, 0.0187651, -0.000409198, 3.6814, 62.7875, 30.095, 5.31555, 1.6756, 3.81198, 0.0293689, 0.000342701, -0.00162642, 0.00190568, 0.00208557, 0.000704622, 0.000362949, 0.010622, -0.00822842, -0.010916, -0.00980338, 0.0261555, 0.00349225, 0.470997, -0.543281, 0.335923, -2.0838, -2.16582, -0.129895, 0.469291, -0.542716, 0.334143, -2.08271, -2.16423, -0.128258, -0.0007193, 0.00681502, 0.00179564, 0.00748404, -0.00165405, -0.0108801
0.0602327, 1.69168, -1.22766, -1.53957, -0.900308, -1.19261, 1.22873, -1.30273, 0.013598, -0.0107169, -0.00929069, -0.00213616, -0.0255966, 0.0187748, -0.000510157, 3.75678, 62.8986, 30.1703, 5.35126, 1.63257, 3.82663, 0.0357776, 0.000332855, -0.00161782, 0.00191334, 0.00208862, 0.000677922, 0.000357386, 0.0105995, -0.00772783, -0.00968327, -0.0066312, 0.0241495, 0.00359382, 0.470996, -0.543274, 0.335924, -2.08379, -2.16582, -0.129895, 0.469299, -0.542717, 0.334136, -2.08272, -2.16425, -0.128229, -0.000747904, 0.00708893, 0.00186675, 0.00699922, -0.0015681, -0.00957318
0.0612327, 1.69169, -1.22767, -1.53958, -0.90031, -1.19265, 1.22876, -1.30272, 0.0152987, -0.010578, -0.00849643, 0.000808534, -0.0292504, 0.0186149, 0.00135532, 3.83216, 63.0453, 30.2457, 5.38696, 1.63898, 3.84768, -0.00999879, 0.000322839, -0.0016076, 0.00192021, 0.00208935, 0.000645812, 0.000357485, 0.0115337, -0.00774105, -0.00904216, -0.00658692, 0.0270823, 1.09196e-05, 0.470995, -0.543267, 0.335926, -2.08379, -2.16582, -0.129896, 0.469309, -0.542718, 0.334129, -2.08273, -2.16426, -0.128196, -0.00077701, 0.00736784, 0.00193908, 0.00703988, -0.00230963, -0.00901327
0.0622327, 1.69171, -1.22768, -1.53958, -0.900303, -1.19268, 1.22879, -1.30272, 0.0172996, -0.0121559, -0.00783208, 0.0033606, -0.0269616, 0.0187537, 0.000632277, 3.87183, 63.2635, 30.3211, 5.27588, 1.64447, 3.86233, -0.00267457, 0.000309764, -0.00159661, 0.00193015, 0.00208086, 0.00062066, 0.000360636, 0.011266, -0.00874322, -0.00950132, -0.00400189, 0.0236369, 0.00161346, 0.470994, -0.543259, 0.335928, -2.08379, -2.16582, -0.129897, 0.469319, -0.542722, 0.334119, -2.08275, -2.16428, -0.12818, -0.000806615, 0.0076517, 0.00201263, 0.00798496, -0.00164971, -0.00938181
0.0632327, 1.69173, -1.22769, -1.53959, -0.900305, -1.1927, 1.22881, -1.30273, 0.0177735, -0.0115375, -0.00812326, 0.00147972, -0.0285464, 0.0189028, -0.00151126, 3.94721, 63.4103, 30.4322, 5.31555, 1.60144, 3.87607, 0.0495105, 0.000300395, -0.00158533, 0.00193791, 0.00207986, 0.000593191, 0.000346092, 0.0111271, -0.00923598, -0.0095418, -0.005731, 0.0259598, 0.00521681, 0.470993, -0.543252, 0.33593, -2.08378, -2.16582, -0.129897, 0.469329, -0.542722, 0.334111, -2.08274, -2.16431, -0.128155, -0.000836715, 0.00794051, 0.00208739, 0.00844054, -0.00119733, -0.00934037
0.0642327, 1.69175, -1.22771, -1.53959, -0.900308, -1.19273, 1.22884, -1.30273, 0.0168529, -0.0120532, -0.00564307, 0.00027677, -0.0270794, 0.018888, -0.000498882, 3.94721, 63.5968, 30.4322, 5.35126, 1.62067, 3.89071, 0.0357776, 0.000292606, -0.00157007, 0.00194658, 0.0020751, 0.000565564, 0.000333675, 0.0107225, -0.0096183, -0.00911382, -0.00331208, 0.0242956, 0.00606704, 0.470993, -0.543244, 0.335932, -2.08378, -2.16582, -0.129898, 0.469344, -0.54272, 0.334103, -2.08274, -2.16434, -0.128134, -0.000867309, 0.00823424, 0.00216336, 0.00879275, -0.000554372, -0.00879058
0.0652327, 1.69177, -1.22771, -1.5396, -0.900305, -1.19276, 1.22887, -1.30272, 0.016069, -0.0106339, -0.00560315, 0.00111386, -0.0259687, 0.0242848, 0.00109157, 3.94721, 63.7079, 30.5036, 5.31555, 1.63898, 3.89804, -0.00267457, 0.000281542, -0.0015578, 0.00195238, 0.00207008, 0.000531112, 0.000336619, 0.0118277, -0.0101069, -0.00766466, 0.00261978, 0.0275155, 0.00336226, 0.470992, -0.543236, 0.335935, -2.08378, -2.16581, -0.129898, 0.469355, -0.542721, 0.334097, -2.08276, -2.16435, -0.128105, -0.000898392, 0.00853286, 0.00224052, 0.00934153, -0.00154998, -0.00746887
0.0662327, 1.69179, -1.22772, -1.53961, -0.9003, -1.19279, 1.2289, -1.30272, 0.0166714, -0.0079244, -0.00738991, 0.00257641, -0.0236696, 0.0234905, 0.0014737, 4.02259, 63.7436, 30.6544, 5.24017, 1.62616, 3.89804, -0.0228162, 0.000268834, -0.0015467, 0.00195603, 0.00206104, 0.000494355, 0.000337138, 0.011887, -0.00988948, -0.00663392, 0.00231815, 0.0280927, 0.0021815, 0.470991, -0.543227, 0.335937, -2.08377, -2.16581, -0.129899, 0.469366, -0.542724, 0.334094, -2.08278, -2.16437, -0.128079, -0.000929962, 0.00883635, 0.00231887, 0.00913219, -0.00147259, -0.00637545
0.0672327, 1.69181, -1.22772, -1.53961, -0.900305, -1.19281, 1.22893, -1.30273, 0.0171895, -0.00704613, -0.00678585, 7.31654e-06, -0.0223396, 0.022822, -0.00145894, 4.09797, 63.819, 30.7297, 5.31555, 1.62067, 3.89804, 0.0431018, 0.000258685, -0.00153288, 0.00196072, 0.00205286, 0.000456546, 0.000319646, 0.0106721, -0.0108941, -0.00637542, 0.00171292, 0.027895, 0.00862189, 0.47099, -0.543218, 0.335939, -2.08377, -2.16581, -0.1299, 0.469379, -0.542724, 0.334089, -2.08278, -2.16442, -0.128052, -0.000962015, 0.00914469, 0.0023984, 0.0100694, 3.65224e-05, -0.00588243
0.0682327, 1.69183, -1.22773, -1.53962, -0.900306, -1.19284, 1.22896, -1.30272, 0.0208244, -0.0055326, -0.00635914, -0.000790629, -0.0211308, 0.027273, 0.00123142, 4.17335, 63.8547, 30.8051, 5.35126, 1.60785, 3.90536, -0.0164075, 0.00024695, -0.0015204, 0.00196312, 0.00204228, 0.00041646, 0.000324399, 0.00913831, -0.0141334, -0.00527698, 0.00575468, 0.0309243, 0.0108303, 0.470989, -0.543209, 0.335941, -2.08376, -2.16581, -0.1299, 0.469391, -0.542725, 0.334087, -2.08281, -2.16444, -0.128023, -0.000994548, 0.00945786, 0.0024791, 0.0132567, 0.00182742, -0.00457678
0.0692327, 1.69185, -1.22773, -1.53962, -0.900305, -1.19287, 1.229, -1.30272, 0.0190257, -0.00452359, -0.00512865, 0.000337915, -0.0257168, 0.0303071, 0.00129566, 4.17335, 63.8904, 30.8408, 5.31555, 1.62067, 3.9191, -0.0292249, 0.000236983, -0.00150537, 0.00196341, 0.002031, 0.000372174, 0.000317997, 0.0114726, -0.0131316, -0.00376028, 0.00828546, 0.0371066, 0.0070709, 0.470988, -0.5432, 0.335944, -2.08376, -2.16581, -0.129901, 0.469405, -0.542725, 0.334088, -2.08283, -2.16447, -0.127992, -0.00102756, 0.00977584, 0.00256097, 0.0123616, -0.000433608, -0.00332958
0.0702327, 1.69187, -1.22773, -1.53962, -0.900313, -1.19289, 1.22903, -1.30272, 0.0175625, -0.00561417, -0.00429482, -0.00235084, -0.028089, 0.0317895, 0.000151699, 4.17335, 64.0015, 30.8765, 5.42664, 1.60144, 3.95572, -0.00999879, 0.000231217, -0.00148603, 0.00196978, 0.00202164, 0.000341107, 0.000294707, 0.0122094, -0.0131046, -0.004302, 0.00811371, 0.0389867, 0.00878224, 0.470987, -0.54319, 0.335947, -2.08375, -2.1658, -0.129902, 0.469423, -0.542719, 0.334082, -2.08282, -2.16451, -0.127974, -0.00106104, 0.0100986, 0.00264398, 0.0123079, -0.000755874, -0.00389512
0.0712327, 1.6919, -1.22772, -1.53963, -0.900306, -1.19292, 1.22906, -1.30272, 0.0204562, -0.00114431, -0.00465682, 0.000212763, -0.0272166, 0.0338574, -0.00111957, 4.13764, 63.8904, 30.9519, 5.35126, 1.63898, 3.96945, 0.0229602, 0.000219976, -0.00147114, 0.00196565, 0.00200947, 0.000287132, 0.00028671, 0.0117223, -0.0145112, -0.00144992, 0.0112005, 0.0437958, 0.0107315, 0.470986, -0.54318, 0.335949, -2.08375, -2.1658, -0.129903, 0.469438, -0.54272, 0.334087, -2.08284, -2.16456, -0.127935, -0.001095, 0.0104261, 0.00272814, 0.0137644, -0.000329014, -0.000961686
0.0722327, 1.69193, -1.22773, -1.53963, -0.900295, -1.19295, 1.2291, -1.30271, 0.0233101, -0.0025261, -0.00312733, 0.00275286, -0.0257271, 0.0356449, 0.00142376, 4.06226, 63.9658, 30.9519, 5.24017, 1.65729, 3.97677, -0.0356336, 0.000209749, -0.00145227, 0.00196678, 0.0019878, 0.000248438, 0.000283169, 0.0112533, -0.0163587, -0.00139294, 0.0154903, 0.0420147, 0.0100696, 0.470985, -0.543169, 0.335952, -2.08374, -2.1658, -0.129903, 0.469456, -0.542719, 0.334086, -2.08286, -2.16459, -0.127921, -0.00112942, 0.0107583, 0.00281344, 0.0155603, 0.000533106, -0.000803157
0.0732327, 1.69195, -1.22773, -1.53965, -0.900294, -1.19297, 1.22913, -1.30271, 0.0236616, -0.00335449, -0.00646367, 0.00506876, -0.0297025, 0.036949, 0.000949172, 4.06226, 64.0372, 31.1384, 5.24017, 1.68201, 3.9841, -0.0356336, 0.000197047, -0.00143697, 0.00197444, 0.00198511, 0.00020877, 0.000276628, 0.0138246, -0.0152796, -0.00267724, 0.0128868, 0.0452795, 0.00597765, 0.470984, -0.543159, 0.335955, -2.08374, -2.1658, -0.129904, 0.46947, -0.542719, 0.334079, -2.08287, -2.16462, -0.127885, -0.00116431, 0.0110953, 0.00289987, 0.0144933, -0.00151471, -0.00235164
0.0742327, 1.69198, -1.22773, -1.53966, -0.900291, -1.193, 1.22916, -1.30272, 0.027972, -0.00140111, -0.0100685, 0.00458293, -0.0329228, 0.0369109, -0.00106264, 4.02259, 64.0015, 31.2494, 5.2005, 1.71863, 3.99142, 0.0101428, 0.000186238, -0.00142003, 0.00197602, 0.00197834, 0.000161399, 0.000262205, 0.0133179, -0.0167903, -0.00313654, 0.00752405, 0.0504198, 0.00985841, 0.470983, -0.543147, 0.335958, -2.08373, -2.1658, -0.129905, 0.469486, -0.542717, 0.334078, -2.08288, -2.16466, -0.127847, -0.00119966, 0.0114369, 0.00298742, 0.015932, -0.00054022, -0.00268464
0.0752327, 1.69202, -1.22775, -1.53966, -0.900284, -1.19303, 1.2292, -1.30272, 0.0297499, -0.00520296, -0.0100409, 0.00493253, -0.0345702, 0.0380931, 0.000512277, 3.90754, 64.184, 31.2494, 5.12909, 1.73053, 3.99142, -0.0228162, 0.000176849, -0.00139752, 0.00198342, 0.00196214, 0.000127601, 0.000248993, 0.0137873, -0.0178386, -0.0053355, 0.00743952, 0.0487594, 0.00929671, 0.470981, -0.543136, 0.335961, -2.08373, -2.16579, -0.129906, 0.469508, -0.542713, 0.334072, -2.08289, -2.1647, -0.127832, -0.00123547, 0.0117833, 0.00307608, 0.0168804, -0.000275712, -0.0048719
0.0762327, 1.69205, -1.22775, -1.53966, -0.900283, -1.19306, 1.22924, -1.30272, 0.0282141, -0.00439665, -0.00715265, 0.00569687, -0.031841, 0.0380149, 0.000578877, 3.90754, 64.2236, 31.2494, 5.16479, 1.76807, 3.99142, -0.0292249, 0.000166583, -0.00137764, 0.00198548, 0.00194671, 8.2237e-05, 0.000234504, 0.0138332, -0.0176187, -0.0036906, 0.0119016, 0.0471569, 0.00936064, 0.47098, -0.543124, 0.335964, -2.08372, -2.16579, -0.129907, 0.469526, -0.54271, 0.334071, -2.0829, -2.16474, -0.127806, -0.00127174, 0.0121342, 0.00316585, 0.0166856, -0.000232358, -0.00315855
0.0772327, 1.69208, -1.22775, -1.53967, -0.900275, -1.19309, 1.22928, -1.30272, 0.0288818, -0.00376632, -0.0123485, 0.00593486, -0.0340686, 0.0347649, -0.000834785, 3.83216, 64.2593, 31.2891, 5.08942, 1.79187, 3.96213, 0.00373412, 0.000155743, -0.00135617, 0.00198841, 0.00193295, 3.56812e-05, 0.000217871, 0.0150967, -0.0161915, -0.00548228, 0.0036197, 0.0485118, 0.00800454, 0.470979, -0.543112, 0.335967, -2.08372, -2.16579, -0.129908, 0.469547, -0.542708, 0.334069, -2.08291, -2.16479, -0.127777, -0.00130846, 0.0124898, 0.00325671, 0.015204, -0.000906573, -0.00499003
0.0782327, 1.69212, -1.22776, -1.53968, -0.900272, -1.19312, 1.22932, -1.30272, 0.0316012, -0.00510933, -0.0149232, 0.0064255, -0.0355076, 0.0315815, -0.000319165, 3.79646, 64.3704, 31.4002, 5.12909, 1.81018, 3.94839, -0.00267457, 0.000143324, -0.00133536, 0.00199848, 0.00192697, -4.95291e-06, 0.000208518, 0.0150193, -0.0164588, -0.00757239, -0.00230782, 0.0471637, 0.0080828, 0.470978, -0.5431, 0.33597, -2.08371, -2.16579, -0.129909, 0.469566, -0.542705, 0.334059, -2.08292, -2.16482, -0.127744, -0.00134563, 0.01285, 0.00334867, 0.0153553, -0.000137042, -0.00695803
0.0792327, 1.69215, -1.22777, -1.53969, -0.900261, -1.19315, 1.22936, -1.30271, 0.0329635, -0.00507666, -0.0108123, 0.00962614, -0.0364976, 0.0298542, 0.00124529, 3.79646, 64.4418, 31.4002, 5.05371, 1.82941, 3.9191, -0.0420422, 0.000130223, -0.001313, 0.00200178, 0.00190521, -5.17957e-05, 0.000202808, 0.0148978, -0.0168307, -0.00590837, 0.000700732, 0.0468283, 0.00673524, 0.470976, -0.543087, 0.335973, -2.08371, -2.16578, -0.129909, 0.469588, -0.542704, 0.334057, -2.08294, -2.16486, -0.127722, -0.00138324, 0.0132147, 0.0034417, 0.015745, 0.000106736, -0.00521442
0.0802327, 1.69219, -1.22778, -1.5397, -0.900263, -1.19318, 1.2294, -1.30272, 0.0348787, -0.00691091, -0.0100286, 0.00761101, -0.0367864, 0.0326807, -0.00181467, 3.75678, 64.5926, 31.3605, 5.16479, 1.8349, 3.9191, 0.0293689, 0.000121292, -0.00128753, 0.00201023, 0.00189489, -9.37152e-05, 0.000167918, 0.0141889, -0.0190377, -0.00687572, 0.00236666, 0.0469976, 0.0137997, 0.470975, -0.543074, 0.335977, -2.0837, -2.16578, -0.12991, 0.469612, -0.542697, 0.33405, -2.08292, -2.16492, -0.127696, -0.0014213, 0.013584, 0.0035358, 0.0178507, 0.00141533, -0.00603219
0.0812327, 1.69223, -1.22778, -1.53972, -0.900254, -1.19322, 1.22944, -1.30272, 0.0330248, -0.00460727, -0.014082, 0.0120964, -0.0380278, 0.0347698, -0.000972419, 3.72108, 64.5926, 31.5113, 5.16479, 1.86603, 3.9191, 0.0229602, 0.000106581, -0.00126598, 0.00201713, 0.00189137, -0.000149046, 0.000162158, 0.0178182, -0.0165071, -0.00608999, 0.00273519, 0.0513418, 0.00483018, 0.470973, -0.54306, 0.33598, -2.08369, -2.16578, -0.129911, 0.469632, -0.542696, 0.334044, -2.08294, -2.16496, -0.127645, -0.0014598, 0.0139578, 0.00363097, 0.0154433, -0.00201839, -0.00564855
0.0822327, 1.69227, -1.22779, -1.53972, -0.90025, -1.19326, 1.22948, -1.30271, 0.0339927, -0.00557717, -0.00844334, 0.0114208, -0.0376419, 0.0356498, 6.37978e-05, 3.72108, 64.6997, 31.4359, 5.2005, 1.86603, 3.91269, 0.00373412, 9.5302e-05, -0.00124017, 0.0020225, 0.001875, -0.000198654, 0.000144979, 0.0165105, -0.0184443, -0.00476317, 0.0081286, 0.0504026, 0.00823076, 0.470972, -0.543046, 0.335984, -2.08369, -2.16578, -0.129913, 0.469657, -0.542691, 0.334039, -2.08295, -2.16501, -0.127616, -0.00149874, 0.0143362, 0.00372719, 0.0173402, -0.000474024, -0.0040978
0.0832327, 1.69231, -1.22779, -1.53974, -0.900241, -1.19329, 1.22953, -1.30271, 0.0347712, -0.00548135, -0.0112862, 0.00867497, -0.0374226, 0.041873, 4.25318e-05, 3.72108, 64.7751, 31.5113, 5.2005, 1.84772, 3.91269, 0.00373412, 8.05285e-05, -0.00121713, 0.00203038, 0.00186779, -0.000250742, 0.000134074, 0.0169297, -0.0201818, -0.00562631, 0.00980684, 0.0540333, 0.0101711, 0.47097, -0.543032, 0.335988, -2.08368, -2.16577, -0.129914, 0.469678, -0.542689, 0.334032, -2.08296, -2.16505, -0.127573, -0.00153811, 0.014719, 0.00382447, 0.0190198, -0.000300831, -0.00497058
0.0842327, 1.69236, -1.2278, -1.53975, -0.900239, -1.19333, 1.22957, -1.30272, 0.0371364, -0.00448945, -0.011411, 0.00796897, -0.036952, 0.0409442, -0.00115844, 3.6457, 64.8108, 31.5113, 5.27588, 1.8349, 3.93374, 0.0357776, 6.99535e-05, -0.00119124, 0.00203654, 0.00186659, -0.000306991, 0.000109185, 0.0158109, -0.0215369, -0.00542689, 0.00856208, 0.0545088, 0.0144403, 0.470969, -0.543017, 0.335992, -2.08367, -2.16577, -0.129915, 0.469703, -0.542683, 0.334028, -2.08296, -2.16511, -0.127521, -0.00157792, 0.0151063, 0.00392278, 0.0203006, 0.00121585, -0.0045427
0.0852327, 1.6924, -1.2278, -1.53977, -0.900236, -1.19337, 1.22961, -1.30272, 0.0380339, -0.00559142, -0.0124911, 0.00752078, -0.0376075, 0.041004, -0.000534934, 3.60603, 64.9219, 31.547, 5.35126, 1.84131, 3.93374, 0.0293689, 5.69978e-05, -0.00116502, 0.00204699, 0.00186558, -0.000360777, 9.11417e-05, 0.0161454, -0.0219345, -0.00659763, 0.00699091, 0.0543082, 0.0144144, 0.470967, -0.543002, 0.335996, -2.08367, -2.16577, -0.129916, 0.469728, -0.542678, 0.334018, -2.08296, -2.16515, -0.12747, -0.00161815, 0.015498, 0.00402212, 0.0206269, 0.00147414, -0.0056635
0.0862327, 1.69244, -1.2278, -1.53979, -0.900237, -1.19342, 1.22965, -1.30271, 0.0398054, -0.00205718, -0.014987, 0.00549948, -0.0425492, 0.0402703, 0.00228823, 3.6457, 64.8505, 31.6581, 5.50201, 1.84772, 3.93374, -0.0420422, 4.17906e-05, -0.00114236, 0.00205285, 0.00186879, -0.000428261, 8.54794e-05, 0.0162557, -0.0222127, -0.00587707, 0.00100526, 0.0621074, 0.0122351, 0.470966, -0.542986, 0.336, -2.08366, -2.16576, -0.129917, 0.469749, -0.542676, 0.334014, -2.08298, -2.16519, -0.1274, -0.00165881, 0.0158942, 0.00412249, 0.0208942, 0.00166189, -0.00487737
0.0872327, 1.69249, -1.2278, -1.5398, -0.90023, -1.19345, 1.22969, -1.30272, 0.0449801, -0.00220667, -0.0124312, 0.00376813, -0.0446665, 0.0409769, -0.000407291, 3.53065, 64.8862, 31.5867, 5.53772, 1.81018, 3.92642, 0.0101428, 3.08173e-05, -0.00111291, 0.0020577, 0.00185759, -0.000485921, 5.62038e-05, 0.0138291, -0.0258757, -0.00554523, 0.00130569, 0.0643828, 0.0221172, 0.470964, -0.542971, 0.336004, -2.08365, -2.16576, -0.129918, 0.469777, -0.542669, 0.33401, -2.08298, -2.16526, -0.127358, -0.0016999, 0.0162947, 0.00422387, 0.0244365, 0.00455708, -0.00418231
0.0882327, 1.69253, -1.22781, -1.53981, -0.90022, -1.1935, 1.22973, -1.30272, 0.0441361, -0.00314155, -0.010645, 0.00722805, -0.0432307, 0.0407977, -0.00122096, 3.60603, 64.9576, 31.5113, 5.50201, 1.81659, 3.93374, 0.0357776, 1.13359e-05, -0.00109217, 0.00206622, 0.00185733, -0.000546322, 4.75685e-05, 0.0150605, -0.0251181, -0.00498972, 0.00514921, 0.0619404, 0.0204578, 0.470962, -0.542954, 0.336008, -2.08364, -2.16576, -0.129919, 0.469796, -0.542669, 0.334003, -2.08299, -2.1653, -0.127299, -0.0017414, 0.0166996, 0.00432627, 0.0237025, 0.00362982, -0.0037
0.0892327, 1.69258, -1.22782, -1.53983, -0.900223, -1.19355, 1.22977, -1.30271, 0.0465924, -0.00469282, -0.0122116, 0.00532383, -0.0466725, 0.0399629, 0.0011188, 3.57032, 65.0687, 31.547, 5.6488, 1.81659, 3.93374, -0.0164075, -3.15946e-06, -0.0010663, 0.00207942, 0.00186808, -0.000605966, 3.27395e-05, 0.0148894, -0.0261616, -0.00696007, 0.000111655, 0.0633515, 0.0203765, 0.470961, -0.542938, 0.336012, -2.08364, -2.16575, -0.129921, 0.46982, -0.542664, 0.333991, -2.08299, -2.16534, -0.12723, -0.00178332, 0.0171089, 0.00442966, 0.0246253, 0.00455445, -0.00554731
0.0902327, 1.69263, -1.22782, -1.53986, -0.900219, -1.1936, 1.22981, -1.30271, 0.0491602, -0.00145811, -0.015034, 0.0044054, -0.0535343, 0.0352398, 0.00074587, 3.49494, 64.9973, 31.6581, 5.6488, 1.81018, 3.93374, -0.0164075, -1.88305e-05, -0.0010403, 0.00208763, 0.00188129, -0.000679839, 1.82078e-05, 0.0150518, -0.0256428, -0.00677027, -0.0101428, 0.0704101, 0.0204208, 0.470959, -0.54292, 0.336017, -2.08363, -2.16575, -0.129922, 0.469845, -0.54266, 0.333984, -2.083, -2.16539, -0.127143, -0.00182565, 0.0175225, 0.00453405, 0.0240775, 0.00475736, -0.00526525
0.0912327, 1.69268, -1.22783, -1.53989, -0.900216, -1.19365, 1.22985, -1.30272, 0.0520358, -0.00357053, -0.0174413, 0.00265104, -0.0532694, 0.0312282, -0.00119817, 3.37989, 65.1083, 31.6581, 5.68848, 1.77997, 3.93374, 0.0293689, -3.45121e-05, -0.00101383, 0.0021023, 0.00189549, -0.000739079, -5.21124e-06, 0.0139109, -0.0265865, -0.0096505, -0.0169905, 0.0667101, 0.0257487, 0.470957, -0.542903, 0.336021, -2.08362, -2.16575, -0.129923, 0.469869, -0.542655, 0.333971, -2.08299, -2.16544, -0.127071, -0.0018684, 0.0179404, 0.00463942, 0.024832, 0.00678419, -0.0078553
0.0922327, 1.69272, -1.22784, -1.53991, -0.900212, -1.1937, 1.22989, -1.30271, 0.0472364, -0.00488601, -0.0207006, 0.00224896, -0.0539212, 0.0330429, 0.000659279, 3.41956, 65.2155, 31.5867, 5.68848, 1.77356, 3.92642, -0.00999879, -5.42926e-05, -0.000991157, 0.00211541, 0.00190421, -0.000799945, -1.15102e-05, 0.017477, -0.0237196, -0.0112606, -0.0180461, 0.0671409, 0.0177877, 0.470955, -0.542885, 0.336026, -2.08361, -2.16574, -0.129924, 0.46989, -0.542653, 0.333959, -2.083, -2.16547, -0.127001, -0.00191155, 0.0183626, 0.00474577, 0.0219949, 0.00381672, -0.00980631
0.0932327, 1.69278, -1.22784, -1.53993, -0.900209, -1.19376, 1.22992, -1.30271, 0.0505087, -0.00325734, -0.0262149, 0.0018605, -0.0541449, 0.0346656, 0.000168252, 3.30451, 65.2155, 31.6224, 5.68848, 1.75525, 3.94107, -0.00267457, -7.07978e-05, -0.000965526, 0.00212823, 0.00192624, -0.000867822, -2.85065e-05, 0.0175529, -0.0249417, -0.0123796, -0.0220373, 0.070458, 0.0191409, 0.470953, -0.542867, 0.336031, -2.0836, -2.16574, -0.129926, 0.469914, -0.542648, 0.333947, -2.083, -2.16552, -0.126911, -0.00195511, 0.0187891, 0.00485308, 0.0231339, 0.00439087, -0.0108529
0.0942327, 1.69283, -1.22783, -1.53995, -0.900211, -1.19381, 1.22996, -1.30272, 0.0536237, -0.000501123, -0.0232343, -0.000252003, -0.0549346, 0.0305668, -0.00107463, 3.15376, 65.144, 31.5113, 5.76385, 1.75525, 3.94839, 0.0293689, -8.34364e-05, -0.000936517, 0.00213498, 0.00194497, -0.000945345, -5.77971e-05, 0.0148361, -0.0268281, -0.0105563, -0.0245294, 0.0721236, 0.0264641, 0.470951, -0.542848, 0.336035, -2.08359, -2.16574, -0.129927, 0.469942, -0.54264, 0.333943, -2.08299, -2.16558, -0.126816, -0.00199908, 0.0192197, 0.00496136, 0.0249427, 0.00730017, -0.00857945
0.0952327, 1.69288, -1.22784, -1.53998, -0.900207, -1.19387, 1.22999, -1.30271, 0.0480829, -0.0011693, -0.0270007, 3.51719e-05, -0.0550755, 0.0329701, 0.00121636, 3.19343, 65.1797, 31.5113, 5.76385, 1.73694, 3.95572, -0.0228162, -0.000105749, -0.000916631, 0.00214755, 0.00196847, -0.00101691, -5.74839e-05, 0.0189549, -0.0234559, -0.0117797, -0.0247793, 0.0730296, 0.0166512, 0.470949, -0.542829, 0.33604, -2.08358, -2.16573, -0.129929, 0.46996, -0.54264, 0.333931, -2.083, -2.16561, -0.126719, -0.00204344, 0.0196547, 0.0050706, 0.0216336, 0.00371944, -0.0102164
0.0962327, 1.69293, -1.22783, -1.54001, -0.900206, -1.19393, 1.23003, -1.30271, 0.0474462, 0.00181892, -0.0266342, 0.0033538, -0.0601157, 0.0351833, 0.000810908, 3.07838, 65.0687, 31.5113, 5.76385, 1.73053, 3.94839, -0.0228162, -0.000123801, -0.000890578, 0.00215645, 0.00199116, -0.00109952, -7.29754e-05, 0.0215463, -0.0222352, -0.0092396, -0.0228744, 0.0811169, 0.0120036, 0.470947, -0.542809, 0.336045, -2.08357, -2.16573, -0.12993, 0.469984, -0.542635, 0.333924, -2.08301, -2.16566, -0.126613, -0.0020882, 0.0200938, 0.00518077, 0.0205547, 0.00115894, -0.00796418
0.0972327, 1.69298, -1.22784, -1.54004, -0.900209, -1.19399, 1.23005, -1.30272, 0.0471897, 0.000284595, -0.0277074, 0.000944548, -0.0633189, 0.0308086, -0.00162953, 2.96729, 65.1083, 31.4359, 5.83527, 1.71222, 3.95572, 0.0357776, -0.00014223, -0.00086668, 0.00217235, 0.00202332, -0.0011672, -9.61824e-05, 0.0219467, -0.0213368, -0.0112643, -0.030257, 0.0805417, 0.0147835, 0.470945, -0.542789, 0.336051, -2.08357, -2.16572, -0.129932, 0.470006, -0.54263, 0.33391, -2.08299, -2.16571, -0.126513, -0.00213335, 0.0205371, 0.00529189, 0.0195532, 0.00148234, -0.00988748
0.0982327, 1.69304, -1.22783, -1.54007, -0.900211, -1.19405, 1.23008, -1.30271, 0.051086, 0.00455142, -0.0301781, -1.39839e-05, -0.0623194, 0.0288357, 0.000846424, 2.81654, 64.9219, 31.4359, 5.87494, 1.72504, 3.94107, -0.0164075, -0.000158863, -0.000840464, 0.00217932, 0.00205778, -0.00125795, -0.0001089, 0.020102, -0.0230061, -0.0101807, -0.034275, 0.0835922, 0.0161049, 0.470943, -0.542768, 0.336056, -2.08356, -2.16572, -0.129933, 0.47003, -0.542624, 0.333905, -2.083, -2.16575, -0.126385, -0.0021789, 0.0209845, 0.00540394, 0.0211479, 0.00365253, -0.00846967
0.0992327, 1.69309, -1.22782, -1.5401, -0.900213, -1.19412, 1.23011, -1.30271, 0.0497525, 0.00470472, -0.0298456, -0.000631288, -0.0561623, 0.0301902, 0.000564283, 2.70148, 64.8505, 31.3248, 5.91064, 1.72504, 3.96213, -0.0164075, -0.000176691, -0.000815832, 0.00218951, 0.00209166, -0.00133838, -0.000126567, 0.0198142, -0.0234234, -0.0099108, -0.029924, 0.0795847, 0.0178657, 0.470941, -0.542747, 0.336061, -2.08355, -2.16572, -0.129935, 0.470053, -0.542618, 0.333897, -2.08299, -2.1658, -0.126269, -0.00222483, 0.0214361, 0.00551691, 0.0215183, 0.00436388, -0.00805839
0.100233, 1.69314, -1.22782, -1.54014, -0.900221, -1.19418, 1.23013, -1.30271, 0.0447284, 0.00313648, -0.030785, -0.00285937, -0.059775, 0.0270747, 0.00013883, 2.62611, 64.8505, 31.4002, 6.02173, 1.69391, 3.96945, -0.00999879, -0.000197992, -0.00079445, 0.00220838, 0.00214179, -0.00141456, -0.000139834, 0.0225884, -0.0200181, -0.011521, -0.0354603, 0.0797695, 0.0136948, 0.470939, -0.542726, 0.336067, -2.08354, -2.16571, -0.129936, 0.470072, -0.542613, 0.33388, -2.08298, -2.16583, -0.126139, -0.00227115, 0.0218918, 0.0056308, 0.018112, 0.00218968, -0.0098627
0.101233, 1.6932, -1.22781, -1.54017, -0.900218, -1.19424, 1.23016, -1.30272, 0.0506305, 0.0072879, -0.030048, -0.000951077, -0.059791, 0.0304463, -0.000653432, 2.39997, 64.6283, 31.2891, 5.98602, 1.69391, 3.96945, 0.0101428, -0.000215173, -0.000767981, 0.00221163, 0.00217214, -0.00150751, -0.000160096, 0.0208153, -0.0236053, -0.00860708, -0.0314593, 0.0857855, 0.0189618, 0.470936, -0.542704, 0.336072, -2.08353, -2.16571, -0.129938, 0.470097, -0.542607, 0.333879, -2.08298, -2.16589, -0.126015, -0.00231785, 0.0223516, 0.00574559, 0.0216901, 0.00409801, -0.00670413
0.102233, 1.69325, -1.22781, -1.54021, -0.900224, -1.19431, 1.23018, -1.30271, 0.0512021, 0.0048586, -0.0312346, -0.00314254, -0.058547, 0.0275535, 0.000785082, 2.32459, 64.6283, 31.2494, 6.09711, 1.68201, 3.96945, -0.0228162, -0.000237367, -0.000747213, 0.00222831, 0.00221916, -0.00158423, -0.000168276, 0.0203146, -0.0238921, -0.0110852, -0.0356738, 0.0814374, 0.0199381, 0.470934, -0.542682, 0.336078, -2.08351, -2.1657, -0.12994, 0.470115, -0.542603, 0.333864, -2.08297, -2.16592, -0.125888, -0.00236493, 0.0228154, 0.00586128, 0.0218214, 0.00545006, -0.00896641
0.103233, 1.6933, -1.22779, -1.54024, -0.900236, -1.19437, 1.2302, -1.30272, 0.0505578, 0.00760076, -0.0313936, -0.00555403, -0.0624686, 0.0258168, -0.00191802, 2.17384, 64.4418, 31.1741, 6.24786, 1.65729, 3.96945, 0.0431018, -0.000253771, -0.00072204, 0.00223622, 0.00226848, -0.00167803, -0.000195987, 0.0207386, -0.0232635, -0.0100185, -0.039869, 0.0869576, 0.0227247, 0.470932, -0.542659, 0.336084, -2.0835, -2.1657, -0.129941, 0.470138, -0.542594, 0.333859, -2.08296, -2.16598, -0.125742, -0.00241239, 0.0232833, 0.00597787, 0.0212001, 0.00530937, -0.00784383
0.104233, 1.69336, -1.22778, -1.54027, -0.900231, -1.19444, 1.23022, -1.30272, 0.054253, 0.00850085, -0.0307699, -0.00272406, -0.061471, 0.0240703, -0.0017534, 1.98341, 64.295, 31.063, 6.20819, 1.66369, 3.96945, 0.0559192, -0.000274778, -0.000699392, 0.0022427, 0.00230735, -0.00176713, -0.000211382, 0.0198279, -0.0246231, -0.00926333, -0.0394372, 0.0862388, 0.0243857, 0.470929, -0.542636, 0.33609, -2.08349, -2.16569, -0.129943, 0.470159, -0.54259, 0.333854, -2.08295, -2.16603, -0.125612, -0.00246022, 0.0237552, 0.00609534, 0.0225048, 0.0066199, -0.00688064
0.105233, 1.69341, -1.22777, -1.54031, -0.900246, -1.19451, 1.23024, -1.30271, 0.0503796, 0.00826569, -0.0328005, -0.00613978, -0.064938, 0.0232581, 0.000763849, 1.79694, 64.184, 31.063, 6.39465, 1.66369, 3.95572, 0.00373412, -0.000293835, -0.000676922, 0.00225785, 0.00236842, -0.0018522, -0.000223618, 0.022072, -0.0223513, -0.0105001, -0.0444773, 0.0889978, 0.0189536, 0.470927, -0.542612, 0.336096, -2.08348, -2.16569, -0.129945, 0.470179, -0.542581, 0.333842, -2.08294, -2.16606, -0.125461, -0.00250842, 0.0242312, 0.00621369, 0.0202232, 0.00497813, -0.0082638
0.106233, 1.69346, -1.22776, -1.54035, -0.900247, -1.19458, 1.23026, -1.30271, 0.0489189, 0.00894413, -0.0367199, -0.00406472, -0.06288, 0.022847, 0.00125522, 1.68189, 64.0372, 31.0273, 6.39465, 1.66369, 3.94839, -0.0164075, -0.000317251, -0.000656934, 0.00226734, 0.00241429, -0.00193963, -0.000232862, 0.0241335, -0.0205524, -0.011202, -0.0459432, 0.088057, 0.0140388, 0.470924, -0.542588, 0.336102, -2.08347, -2.16568, -0.129946, 0.470197, -0.542578, 0.333834, -2.08294, -2.1661, -0.125324, -0.00255699, 0.0247111, 0.00633291, 0.0184265, 0.00345762, -0.0091039
0.107233, 1.69352, -1.22775, -1.54039, -0.900257, -1.19464, 1.23027, -1.30272, 0.0487761, 0.00763319, -0.034193, -0.00621494, -0.061829, 0.0173605, -0.00160459, 1.53114, 63.9658, 31.0273, 6.54541, 1.6756, 3.94107, 0.0495105, -0.000338663, -0.000635774, 0.00228273, 0.00247535, -0.00202395, -0.000257409, 0.0228751, -0.0205684, -0.0118911, -0.0490268, 0.0834343, 0.0202648, 0.470922, -0.542563, 0.336109, -2.08346, -2.16568, -0.129948, 0.470216, -0.542571, 0.333821, -2.08291, -2.16614, -0.125175, -0.00260593, 0.0251949, 0.006453, 0.0183234, 0.00529086, -0.00946937
0.108233, 1.69357, -1.22774, -1.54041, -0.900263, -1.19471, 1.23028, -1.30272, 0.0495761, 0.00945049, -0.0269684, -0.00589052, -0.0654835, 0.0135096, -0.000561103, 1.34071, 63.7793, 30.8051, 6.62079, 1.68201, 3.92642, 0.0357776, -0.000356976, -0.000611604, 0.00228904, 0.00251942, -0.00211055, -0.000278378, 0.021767, -0.0211034, -0.00863442, -0.0474709, 0.0861049, 0.0219779, 0.470919, -0.542538, 0.336115, -2.08345, -2.16567, -0.12995, 0.470238, -0.542562, 0.333818, -2.0829, -2.16619, -0.125043, -0.00265523, 0.0256827, 0.00657393, 0.018887, 0.00639248, -0.00597714
0.109233, 1.69362, -1.22773, -1.54045, -0.900268, -1.19478, 1.23029, -1.30271, 0.0450565, 0.00889878, -0.0270272, -0.00567824, -0.0724565, 0.0160098, 0.00132135, 1.22962, 63.6682, 30.8051, 6.69617, 1.6756, 3.90536, -0.00999879, -0.000381712, -0.000593156, 0.00230105, 0.0025749, -0.00219732, -0.000282879, 0.0260496, -0.0182254, -0.00852774, -0.0477439, 0.092601, 0.0131519, 0.470916, -0.542512, 0.336122, -2.08343, -2.16567, -0.129952, 0.470254, -0.542558, 0.333808, -2.0829, -2.16622, -0.124896, -0.00270489, 0.0261745, 0.00669572, 0.0161204, 0.00252215, -0.00632901
0.110233, 1.69368, -1.22772, -1.54048, -0.90027, -1.19485, 1.2303, -1.30272, 0.0490599, 0.00936619, -0.0282002, -0.00461171, -0.0726512, 0.0118886, -0.000577161, 1.07887, 63.5214, 30.7297, 6.73187, 1.66369, 3.90536, 0.0293689, -0.000403005, -0.000572143, 0.00231045, 0.00262774, -0.00228015, -0.000303083, 0.0249065, -0.0192744, -0.00913367, -0.0524192, 0.0915474, 0.0174705, 0.470914, -0.542486, 0.336128, -2.08342, -2.16566, -0.129954, 0.470273, -0.542551, 0.333802, -2.08288, -2.16626, -0.124757, -0.00275491, 0.0266701, 0.00681835, 0.0170551, 0.00428291, -0.00665911
0.111233, 1.69373, -1.22771, -1.54051, -0.900283, -1.19492, 1.23031, -1.30271, 0.0519041, 0.0096778, -0.0304175, -0.00659419, -0.0688013, 0.0148004, 0.000327303, 0.928108, 63.3746, 30.6901, 6.88263, 1.66369, 3.88339, 0.0101428, -0.000422554, -0.000548113, 0.00231994, 0.00268321, -0.00237118, -0.000321777, 0.023539, -0.021916, -0.00994976, -0.051285, 0.0908053, 0.0213763, 0.470911, -0.542459, 0.336135, -2.08341, -2.16566, -0.129956, 0.470294, -0.542541, 0.333796, -2.08286, -2.16631, -0.124607, -0.00280528, 0.0271696, 0.00694181, 0.0195641, 0.00636699, -0.00720935
0.112233, 1.69379, -1.2277, -1.54054, -0.900288, -1.19499, 1.23031, -1.30271, 0.0519024, 0.0081223, -0.0318344, -0.0083149, -0.0702561, 0.011251, 0.000455561, 0.737679, 63.3032, 30.6544, 6.91833, 1.65729, 3.87607, 0.00373412, -0.000444654, -0.000526701, 0.00233374, 0.00274363, -0.00245162, -0.000337663, 0.0239065, -0.0212971, -0.0119575, -0.0571331, 0.0891927, 0.0216577, 0.470908, -0.542432, 0.336142, -2.0834, -2.16565, -0.129958, 0.470313, -0.542533, 0.333785, -2.08284, -2.16634, -0.124462, -0.00285601, 0.0276729, 0.00706609, 0.0188354, 0.00679211, -0.00910614
0.113233, 1.69384, -1.22768, -1.54056, -0.900292, -1.19506, 1.23032, -1.30271, 0.0498394, 0.011447, -0.0318947, -0.00672488, -0.0669323, 0.00833521, -0.000645728, 0.626595, 63.0453, 30.579, 6.95801, 1.65088, 3.87607, 0.0293689, -0.000467858, -0.000506676, 0.00233586, 0.00279381, -0.00255076, -0.000354143, 0.024559, -0.019587, -0.00999187, -0.0567157, 0.0883935, 0.0203851, 0.470905, -0.542404, 0.336149, -2.08338, -2.16565, -0.12996, 0.470331, -0.542527, 0.333786, -2.08283, -2.16639, -0.124309, -0.00290708, 0.0281801, 0.00719119, 0.0171714, 0.0062819, -0.00709021
0.114233, 1.69389, -1.22767, -1.54058, -0.9003, -1.19514, 1.23033, -1.30272, 0.0522652, 0.0102298, -0.0279017, -0.0072719, -0.0700638, 0.00723388, -0.000667845, 0.475838, 62.9343, 30.4679, 7.06909, 1.6756, 3.84768, 0.0357776, -0.000488007, -0.000482749, 0.0023426, 0.00284283, -0.00263822, -0.000382433, 0.0236308, -0.0212775, -0.00963304, -0.0562704, 0.0893241, 0.0242188, 0.470902, -0.542376, 0.336156, -2.08337, -2.16564, -0.129962, 0.470352, -0.542516, 0.333782, -2.08281, -2.16644, -0.124171, -0.0029585, 0.0286911, 0.00731711, 0.0187879, 0.00772348, -0.00651739
0.115233, 1.69395, -1.22766, -1.54061, -0.900305, -1.19521, 1.23033, -1.30271, 0.0521836, 0.0102535, -0.0245865, -0.00582579, -0.0709727, 0.00634319, 0.00148755, 0.285408, 62.7875, 30.4679, 7.1048, 1.66369, 3.8193, -0.0164075, -0.000509322, -0.000459955, 0.00234906, 0.00289413, -0.00272573, -0.000395417, 0.0240207, -0.0212624, -0.00835816, -0.0537589, 0.0895693, 0.0220452, 0.470899, -0.542347, 0.336164, -2.08336, -2.16563, -0.129964, 0.470373, -0.542507, 0.333779, -2.0828, -2.16648, -0.124029, -0.00301027, 0.0292059, 0.00744383, 0.0187814, 0.00765634, -0.00519252
0.116233, 1.694, -1.22765, -1.54062, -0.900309, -1.19528, 1.23034, -1.30271, 0.0493098, 0.0121127, -0.0201541, -0.00575408, -0.0722782, 0.0059033, 8.35597e-06, 0.21003, 62.7121, 30.3925, 7.18018, 1.66919, 3.7836, 0.0101428, -0.000534186, -0.000439971, 0.00235699, 0.00293971, -0.00280772, -0.000416867, 0.0249695, -0.0201897, -0.00561116, -0.0501308, 0.0921445, 0.0223235, 0.470896, -0.542318, 0.336171, -2.08334, -2.16563, -0.129966, 0.47039, -0.5425, 0.333774, -2.08278, -2.16653, -0.1239, -0.00306237, 0.0297245, 0.00757134, 0.0177921, 0.00677055, -0.00246818
0.117233, 1.69405, -1.22764, -1.54064, -0.900313, -1.19535, 1.23034, -1.30272, 0.0523065, 0.0126369, -0.0179685, -0.00475151, -0.0739011, 0.00501339, -0.00192721, 0.059273, 62.5296, 30.3568, 7.21588, 1.68201, 3.76163, 0.0623279, -0.000555406, -0.000415937, 0.0023593, 0.00298158, -0.00289785, -0.000443738, 0.0241955, -0.0217127, -0.00466595, -0.0495853, 0.0936827, 0.0268805, 0.470893, -0.542288, 0.336179, -2.08333, -2.16562, -0.129968, 0.470412, -0.54249, 0.333776, -2.08276, -2.16659, -0.123767, -0.00311481, 0.0302468, 0.00769965, 0.0192673, 0.00797387, -0.00133295
0.118233, 1.69411, -1.22763, -1.54065, -0.900314, -1.19542, 1.23034, -1.30271, 0.0558117, 0.0112426, -0.0102495, -0.00322785, -0.0741202, 0.00381158, 0.000885333, -0.0161054, 62.4185, 30.206, 7.21588, 1.68201, 3.7543, 0.00373412, -0.000577745, -0.000393357, 0.00236058, 0.00301662, -0.00298129, -0.000461319, 0.0220703, -0.0245177, -0.00287302, -0.0438028, 0.0916187, 0.0298913, 0.47089, -0.542258, 0.336186, -2.08331, -2.16562, -0.129971, 0.470432, -0.54248, 0.333778, -2.08275, -2.16663, -0.123647, -0.00316759, 0.0307728, 0.00782873, 0.0220051, 0.0104366, 0.000811282
0.119233, 1.69417, -1.22762, -1.54066, -0.900319, -1.19549, 1.23034, -1.30271, 0.0579947, 0.00942305, -0.0131395, -0.00713699, -0.0707741, 0.00296085, -0.000121855, -0.206535, 62.3431, 30.2814, 7.29126, 1.6875, 3.74698, 0.0229602, -0.000598925, -0.000368112, 0.00236832, 0.00306608, -0.00306477, -0.000487855, 0.0205041, -0.0263941, -0.00574669, -0.0477494, 0.087513, 0.0362886, 0.470887, -0.542227, 0.336194, -2.0833, -2.16561, -0.129973, 0.470455, -0.542468, 0.333774, -2.08273, -2.16668, -0.123513, -0.0032207, 0.0313025, 0.00795859, 0.023665, 0.0130332, -0.00171
0.120233, 1.69422, -1.22761, -1.54067, -0.900321, -1.19557, 1.23035, -1.30272, 0.0539258, 0.00985609, -0.00827353, -0.00505657, -0.0723047, 0.00259393, -0.00130194, -0.281914, 62.3431, 30.206, 7.29126, 1.70032, 3.73324, 0.0559192, -0.000623138, -0.000345707, 0.00237314, 0.00310049, -0.00314285, -0.000516042, 0.0226912, -0.0242937, -0.00333757, -0.0427654, 0.0886531, 0.033487, 0.470884, -0.542196, 0.336202, -2.08328, -2.1656, -0.129975, 0.470474, -0.542459, 0.333773, -2.0827, -2.16674, -0.1234, -0.00327414, 0.031836, 0.00808922, 0.0216802, 0.0109497, 0.000522337
0.121233, 1.69427, -1.22761, -1.54067, -0.900317, -1.19564, 1.23035, -1.30271, 0.0539638, 0.0111434, -0.00563827, -0.00275976, -0.0682586, 0.0020841, 0.000827461, -0.357292, 62.3074, 30.1703, 7.25555, 1.6875, 3.72592, 0.0101428, -0.000648421, -0.000322719, 0.00237662, 0.00312827, -0.00322001, -0.000531533, 0.0223847, -0.0246412, -0.00142101, -0.0377129, 0.0862678, 0.0320154, 0.470881, -0.542164, 0.33621, -2.08327, -2.1656, -0.129978, 0.470495, -0.542451, 0.333773, -2.0827, -2.16678, -0.123295, -0.00332791, 0.0323731, 0.00822061, 0.0220324, 0.011508, 0.00258266
0.122233, 1.69432, -1.22761, -1.54067, -0.900317, -1.1957, 1.23035, -1.30271, 0.0511488, 0.00882908, -0.00752184, -0.00200779, -0.0654152, 0.00145206, 0.000789, -0.43267, 62.2717, 30.1703, 7.25555, 1.6875, 3.72592, 0.00373412, -0.000674324, -0.00030154, 0.00238039, 0.00315982, -0.00329609, -0.000550198, 0.0243968, -0.0228431, -0.00329876, -0.0378842, 0.081562, 0.0287485, 0.470877, -0.542132, 0.336219, -2.08325, -2.16559, -0.12998, 0.470513, -0.542443, 0.333773, -2.08268, -2.16682, -0.123187, -0.00338201, 0.0329138, 0.00835276, 0.0201863, 0.0102786, 0.000601901
0.123233, 1.69438, -1.2276, -1.54067, -0.900315, -1.19577, 1.23035, -1.30271, 0.0555373, 0.0089082, -0.00580705, -0.00146449, -0.0678383, 0.00155757, -0.000186077, -0.658806, 62.1606, 30.1703, 7.25555, 1.6875, 3.71127, 0.0229602, -0.000694483, -0.000272399, 0.00238276, 0.0031888, -0.00337368, -0.000581656, 0.0232902, -0.0252679, -0.00283306, -0.0377201, 0.0839344, 0.0336411, 0.470874, -0.542099, 0.336227, -2.08324, -2.16558, -0.129982, 0.47054, -0.542428, 0.333775, -2.08266, -2.16688, -0.123082, -0.00343642, 0.0334582, 0.00848565, 0.0225308, 0.0119434, 0.00129246
0.124233, 1.69443, -1.2276, -1.54067, -0.900319, -1.19584, 1.23035, -1.30272, 0.0519912, 0.00625657, -0.00446573, -0.00283403, -0.0692093, 0.000531096, -0.00158211, -0.734184, 62.1606, 30.1703, 7.33093, 1.6756, 3.72592, 0.0623279, -0.00071794, -0.000249924, 0.00238653, 0.00322131, -0.00344397, -0.000614874, 0.0251585, -0.0235631, -0.00405414, -0.0382953, 0.0821038, 0.0330161, 0.47087, -0.542066, 0.336235, -2.08322, -2.16557, -0.129985, 0.470559, -0.542416, 0.333775, -2.08263, -2.16694, -0.122981, -0.00349116, 0.0340062, 0.00861928, 0.0207961, 0.0107658, -1.89586e-05
0.125233, 1.69448, -1.22759, -1.54067, -0.900314, -1.1959, 1.23035, -1.30271, 0.0534584, 0.00869659, -0.00342292, -0.000196972, -0.0654745, 0.00143166, 0.000640679, -0.845268, 62.1249, 30.1703, 7.25555, 1.65088, 3.69754, 0.0165515, -0.000744366, -0.000225877, 0.00238867, 0.00324107, -0.00351758, -0.000628589, 0.0247632, -0.0245583, -0.00192838, -0.0335113, 0.0819479, 0.0316794, 0.470867, -0.542032, 0.336244, -2.0832, -2.16557, -0.129987, 0.470581, -0.542407, 0.333777, -2.08262, -2.16698, -0.122888, -0.00354621, 0.0345577, 0.00875364, 0.0217983, 0.0114204, 0.00224489
0.126233, 1.69453, -1.22758, -1.54067, -0.900314, -1.19597, 1.23035, -1.30271, 0.0515432, 0.0114399, -0.0034515, -0.00101967, -0.071837, 0.00124553, 0.0011392, -0.960319, 62.0496, 30.206, 7.29126, 1.62616, 3.69021, -0.00267457, -0.000768769, -0.000201957, 0.00238891, 0.00327115, -0.0035973, -0.000651144, 0.026931, -0.022899, -0.000390183, -0.0364007, 0.0901018, 0.0278705, 0.470863, -0.541997, 0.336253, -2.08319, -2.16556, -0.12999, 0.470602, -0.542395, 0.333781, -2.08261, -2.16703, -0.122779, -0.00360158, 0.0351128, 0.00888872, 0.0202199, 0.00953001, 0.00361116
0.127233, 1.69458, -1.22757, -1.54067, -0.900313, -1.19604, 1.23036, -1.30272, 0.054578, 0.010024, -0.00255175, -0.000719637, -0.0730686, 0.00216765, -0.00164803, -0.996025, 61.9742, 30.206, 7.29126, 1.62616, 3.65451, 0.0623279, -0.000798746, -0.000181327, 0.00238896, 0.00329388, -0.00368042, -0.000677512, 0.0265277, -0.0247864, -0.000985323, -0.03572, 0.0904482, 0.0334894, 0.47086, -0.541962, 0.336262, -2.08317, -2.16555, -0.129992, 0.47062, -0.542389, 0.333784, -2.08259, -2.16709, -0.122674, -0.00365725, 0.0356715, 0.00902453, 0.022013, 0.0106565, 0.00316399
0.128233, 1.69463, -1.22757, -1.54067, -0.900311, -1.1961, 1.23036, -1.30272, 0.056598, 0.00799351, -0.000218788, 0.00266707, -0.0731842, 0.00145626, -0.000386612, -1.15075, 61.9385, 30.1346, 7.29126, 1.61426, 3.65451, 0.0431018, -0.000824015, -0.000156038, 0.00238868, 0.00331388, -0.00375584, -0.000700045, 0.0268646, -0.0255056, -0.00109704, -0.0331121, 0.0880702, 0.032419, 0.470856, -0.541926, 0.336271, -2.08315, -2.16554, -0.129995, 0.470643, -0.542377, 0.333789, -2.08258, -2.16714, -0.122581, -0.00371324, 0.0362337, 0.00916105, 0.0226833, 0.0109332, 0.00311517
0.129233, 1.69468, -1.22756, -1.54067, -0.900313, -1.19617, 1.23036, -1.30271, 0.0569488, 0.0116429, -0.000286904, 0.00109233, -0.0743434, 0.00152174, 0.00170895, -1.26183, 61.8274, 30.1346, 7.33093, 1.60785, 3.63986, -0.00999879, -0.000852059, -0.00013329, 0.00238873, 0.00334277, -0.00384086, -0.000715637, 0.0267305, -0.025894, 0.000752699, -0.0340162, 0.0931348, 0.0316101, 0.470852, -0.54189, 0.33628, -2.08314, -2.16554, -0.129998, 0.470663, -0.542368, 0.333793, -2.08257, -2.16719, -0.122466, -0.00376953, 0.0367994, 0.00929827, 0.0230778, 0.0113618, 0.00508708
0.130233, 1.69473, -1.22756, -1.54066, -0.90031, -1.19624, 1.23036, -1.30272, 0.0565083, 0.00571094, 0.0023014, 0.00183797, -0.0696006, 0.00180066, -0.00130211, -1.33721, 61.9385, 30.0236, 7.29126, 1.59595, 3.6188, 0.0559192, -0.000881355, -0.000110067, 0.00239321, 0.0033572, -0.00390467, -0.000748685, 0.0268385, -0.0266673, -0.00172155, -0.0292782, 0.0835081, 0.0365168, 0.470849, -0.541853, 0.336289, -2.08312, -2.16553, -0.13, 0.470683, -0.542358, 0.333792, -2.08255, -2.16724, -0.122392, -0.00382613, 0.0373685, 0.00943618, 0.0237071, 0.0122385, 0.00274101
0.131233, 1.69477, -1.22755, -1.54066, -0.900313, -1.1963, 1.23036, -1.30272, 0.0537811, 0.00588831, 0.00145493, 0.000433594, -0.0660468, 0.00174768, -0.000630713, -1.45226, 61.8671, 30.0236, 7.33093, 1.57764, 3.60415, 0.0495105, -0.00090947, -8.78569e-05, 0.00239329, 0.00338446, -0.00398327, -0.000772476, 0.0276744, -0.0257255, -0.00202124, -0.0285196, 0.0811301, 0.0352076, 0.470845, -0.541816, 0.336299, -2.0831, -2.16552, -0.130003, 0.470702, -0.542347, 0.333797, -2.08253, -2.1673, -0.122287, -0.00388303, 0.0379411, 0.00957479, 0.0227287, 0.0119939, 0.00248163
0.132233, 1.69482, -1.22755, -1.54065, -0.90032, -1.19637, 1.23037, -1.30271, 0.0514273, 0.00688315, 0.00267369, -0.00220717, -0.0682274, 0.00276234, 0.000562869, -1.56335, 61.9028, 29.9482, 7.44202, 1.57123, 3.56112, 0.0229602, -0.00093748, -6.08351e-05, 0.00239666, 0.00340125, -0.00406055, -0.000797757, 0.0287192, -0.02517, -0.00119976, -0.028263, 0.0847826, 0.0338945, 0.470841, -0.541778, 0.336308, -2.08308, -2.16551, -0.130006, 0.470726, -0.542336, 0.333798, -2.08251, -2.16735, -0.122195, -0.00394022, 0.0385172, 0.00971408, 0.0221844, 0.0113891, 0.0032855
0.133233, 1.69487, -1.22753, -1.54065, -0.900323, -1.19643, 1.23037, -1.30271, 0.0477501, 0.00947182, 0.00266585, -0.00223, -0.0647723, 0.00289537, 0.000849964, -1.7141, 61.7163, 29.9085, 7.47772, 1.55292, 3.53274, 0.0101428, -0.000965721, -3.73119e-05, 0.00239126, 0.00342117, -0.00414778, -0.000820545, 0.0300332, -0.023514, 0.000475528, -0.0256456, 0.0847746, 0.0311446, 0.470837, -0.541739, 0.336318, -2.08306, -2.1655, -0.130009, 0.470747, -0.542325, 0.333808, -2.08251, -2.16741, -0.12209, -0.00399771, 0.0390967, 0.00985405, 0.0205816, 0.0103446, 0.00492469
0.134233, 1.69491, -1.22754, -1.54064, -0.900328, -1.1965, 1.23038, -1.30272, 0.0471551, 0.00317909, 0.00257898, -0.0031924, -0.0624693, 0.00352593, -0.00136614, -1.82915, 61.8671, 29.8728, 7.5531, 1.5401, 3.48971, 0.0623279, -0.000997684, -1.34302e-05, 0.00239952, 0.00343713, -0.00421222, -0.000851307, 0.0308282, -0.0239074, -0.00335483, -0.0248896, 0.077295, 0.034515, 0.470833, -0.5417, 0.336328, -2.08305, -2.1655, -0.130011, 0.470768, -0.542315, 0.333804, -2.08248, -2.16746, -0.122013, -0.0040555, 0.0396796, 0.00999469, 0.0208051, 0.010751, 0.00114693
0.135233, 1.69495, -1.22754, -1.54064, -0.90033, -1.19656, 1.23038, -1.30271, 0.0459287, 0.00157744, 0.000859, -0.00208514, -0.0652379, 0.00289464, 0.00102202, -1.90453, 61.9028, 29.9085, 7.5531, 1.52179, 3.47507, 0.0101428, -0.001033, 5.62542e-06, 0.00240537, 0.00346125, -0.00428375, -0.00086087, 0.033297, -0.0223089, -0.00478518, -0.0275272, 0.0779398, 0.028277, 0.470829, -0.541661, 0.336338, -2.08303, -2.16549, -0.130014, 0.470784, -0.542308, 0.333802, -2.08247, -2.1675, -0.121917, -0.00411357, 0.0402659, 0.010136, 0.0191871, 0.00905585, -0.000460533
0.136233, 1.695, -1.22753, -1.54063, -0.900339, -1.19662, 1.23039, -1.30271, 0.0466963, 0.00303481, 0.0031523, -0.00395621, -0.0623959, 0.00274468, 0.00115607, -2.05529, 61.8274, 29.7974, 7.66418, 1.50348, 3.45309, -0.00267457, -0.00106053, 3.30192e-05, 0.00240346, 0.00347416, -0.00436302, -0.000893809, 0.031812, -0.0238657, -0.00347787, -0.0250806, 0.0773261, 0.03261, 0.470825, -0.54162, 0.336348, -2.08301, -2.16548, -0.130017, 0.470808, -0.542294, 0.333809, -2.08245, -2.16756, -0.121829, -0.00417194, 0.0408555, 0.0102779, 0.0206781, 0.0109737, 0.00115517
0.137233, 1.69505, -1.22753, -1.54063, -0.900339, -1.19668, 1.2304, -1.30271, 0.0463819, 0.00218817, 0.00292263, -0.00261321, -0.0560119, 0.00261052, -0.000653443, -2.16637, 61.8274, 29.7617, 7.66418, 1.49158, 3.43204, 0.0357776, -0.00109519, 5.52886e-05, 0.00240699, 0.00348838, -0.00443498, -0.000917839, 0.0318091, -0.0240958, -0.00391967, -0.0216962, 0.0713687, 0.0350175, 0.470821, -0.541579, 0.336358, -2.08299, -2.16547, -0.13002, 0.470827, -0.542286, 0.333809, -2.08244, -2.16762, -0.121746, -0.00423059, 0.0414484, 0.0104206, 0.020833, 0.0116475, 0.000854221
0.138233, 1.69509, -1.22753, -1.54063, -0.900349, -1.19674, 1.2304, -1.30272, 0.0461835, 0.000654481, 0.00193783, -0.0106605, -0.0555516, 0.00696205, -0.000944255, -2.28143, 61.8671, 29.7617, 7.77924, 1.47327, 3.41739, 0.0495105, -0.00112791, 7.91996e-05, 0.00241264, 0.00350965, -0.00450796, -0.000949678, 0.0308286, -0.026524, -0.00594336, -0.0223443, 0.0726874, 0.0419409, 0.470816, -0.541538, 0.336369, -2.08297, -2.16546, -0.130023, 0.470848, -0.542275, 0.333808, -2.08241, -2.16767, -0.121654, -0.00428952, 0.0420447, 0.0105638, 0.0230896, 0.0136249, -0.00092283
0.139233, 1.69513, -1.22752, -1.54062, -0.900355, -1.1968, 1.23041, -1.30271, 0.0449658, 0.00229235, 0.00221196, -0.00928423, -0.0562544, 0.0112058, 0.00157454, -2.3568, 61.7917, 29.722, 7.85065, 1.47327, 3.38901, -0.00999879, -0.00116266, 0.000102261, 0.0024125, 0.00351875, -0.00458669, -0.000963779, 0.0327628, -0.0262893, -0.00429826, -0.0176276, 0.0771256, 0.0369428, 0.470812, -0.541496, 0.336379, -2.08295, -2.16545, -0.130026, 0.470868, -0.542266, 0.333813, -2.08241, -2.16772, -0.121569, -0.00434873, 0.0426443, 0.0107077, 0.022926, 0.0120516, 0.000550074
0.140233, 1.69517, -1.22752, -1.54062, -0.90036, -1.19686, 1.23042, -1.30271, 0.0420656, 0.00159783, 0.00463291, -0.00749761, -0.0513291, 0.0087327, 0.00054107, -2.47185, 61.7917, 29.722, 7.89032, 1.46045, 3.37436, 0.00373412, -0.00119857, 0.000124538, 0.0024179, 0.00353377, -0.00465583, -0.000986329, 0.033533, -0.0248427, -0.00371775, -0.0140106, 0.0710682, 0.0364069, 0.470808, -0.541453, 0.33639, -2.08293, -2.16544, -0.130029, 0.470887, -0.542257, 0.333812, -2.08239, -2.16777, -0.121487, -0.00440822, 0.0432472, 0.0108522, 0.0214708, 0.0117451, 0.00119112
0.141233, 1.69521, -1.22751, -1.54062, -0.900363, -1.19691, 1.23043, -1.30271, 0.0380882, 0.00288065, 0.0024198, -0.0061187, -0.0519932, 0.0114359, -0.000114005, -2.50756, 61.7163, 29.7617, 7.92602, 1.44214, 3.36703, 0.0165515, -0.00123728, 0.000144206, 0.0024202, 0.00354563, -0.00472993, -0.00100307, 0.0370887, -0.0223493, -0.00315133, -0.0124036, 0.0744337, 0.0306791, 0.470803, -0.54141, 0.336401, -2.08291, -2.16543, -0.130032, 0.470903, -0.542251, 0.333814, -2.08238, -2.16781, -0.121404, -0.00446799, 0.0438533, 0.0109973, 0.0190697, 0.00865132, 0.00141659
0.142233, 1.69525, -1.22751, -1.54061, -0.900376, -1.19697, 1.23044, -1.30271, 0.0420422, 0.0027948, 0.00440607, -0.00781942, -0.0540303, 0.0146519, -0.000313362, -2.69799, 61.6806, 29.6506, 8.07678, 1.46045, 3.33865, 0.0229602, -0.00126739, 0.000174155, 0.00242188, 0.00355001, -0.00480143, -0.00104306, 0.0357781, -0.0256987, -0.00270507, -0.010105, 0.0780665, 0.0366107, 0.470799, -0.541366, 0.336412, -2.08288, -2.16542, -0.130036, 0.470929, -0.542236, 0.333818, -2.08236, -2.16789, -0.121334, -0.00452802, 0.0444627, 0.0111431, 0.022324, 0.0106238, 0.00210366
0.143233, 1.69529, -1.22751, -1.54062, -0.900382, -1.19702, 1.23045, -1.30271, 0.0370575, 0.00189256, 0.00141276, -0.00929956, -0.0499536, 0.0158789, 2.84508e-05, -2.69799, 61.6806, 29.722, 8.11249, 1.45404, 3.33133, 0.0165515, -0.00130873, 0.000192222, 0.00242671, 0.00356053, -0.00487006, -0.00105888, 0.0382165, -0.023444, -0.00418164, -0.00964243, 0.074915, 0.0326431, 0.470794, -0.541322, 0.336423, -2.08286, -2.16541, -0.130039, 0.470944, -0.54223, 0.333817, -2.08235, -2.16793, -0.121257, -0.00458833, 0.0450753, 0.0112895, 0.0200456, 0.00896521, 0.000480153
0.144233, 1.69529, -1.22751, -1.54062, -0.900382, -1.19702, 1.23045, -1.30271, 0.0370575, 0.00189256, 0.00141276, -0.00929956, -0.0499536, 0.0158789, 2.84508e-05, -2.69799, 61.6806, 29.722, 8.11249, 1.45404, 3.33133, 0.0165515, -0.00135519, 0.000195318, 0.00243069, 0.00354681, -0.00488781, -0.00105373, 0.0388496, -0.0234835, -0.00422825, -0.00951141, 0.075231, 0.0326963, 0.47079, -0.541277, 0.336434, -2.08284, -2.1654, -0.130042, 0.470944, -0.54223, 0.333817, -2.08235, -2.16793, -0.121257, -0.00464891, 0.0456911, 0.0114364, 0.0200456, 0.00896521, 0.000480153
0.145233, 1.69529, -1.22751, -1.54062, -0.900382, -1.19702, 1.23045, -1.30271, 0.0370575, 0.00189256, 0.00141276, -0.00929956, -0.0499536, 0.0158789, 2.84508e-05, -2.69799, 61.6806, 29.722, 8.11249, 1.45404, 3.33133, 0.0165515, -0.00140229, 0.000198455, 0.00243472, 0.00353289, -0.00490581, -0.00104851, 0.039486, -0.0235231, -0.00427491, -0.00937937, 0.0755489, 0.0327497, 0.470785, -0.541231, 0.336446, -2.08282, -2.16539, -0.130045, 0.470944, -0.54223, 0.333817, -2.08235, -2.16793, -0.121257, -0.00470975, 0.04631, 0.011584, 0.0200456, 0.00896521, 0.000480153
0.146233, 1.69529, -1.22751, -1.54062, -0.900382, -1.19702, 1.23045, -1.30271, 0.0370575, 0.00189256, 0.00141276, -0.00929956, -0.0499536, 0.0158789, 2.84508e-05, -2.69799, 61.6806, 29.722, 8.11249, 1.45404, 3.33133, 0.0165515, -0.00145002, 0.00020163, 0.00243879, 0.00351877, -0.00492407, -0.00104322, 0.0401256, -0.0235629, -0.00432161, -0.0092463, 0.0758687, 0.0328034, 0.47078, -0.541185, 0.336457, -2.0828, -2.16538, -0.130049, 0.470944, -0.54223, 0.333817, -2.08235, -2.16793, -0.121257, -0.00477085, 0.0469322, 0.0117321, 0.0200456, 0.00896521, 0.000480153
0.147233, 1.69529, -1.22751, -1.54062, -0.900382, -1.19702, 1.23045, -1.30271, 0.0370575, 0.00189256, 0.00141276, -0.00929956, -0.0499536, 0.0158789, 2.84508e-05, -2.69799, 61.6806, 29.722, 8.11249, 1.45404, 3.33133, 0.0165515, -0.0014984, 0.000204846, 0.0024429, 0.00350444, -0.0049426, -0.00103787, 0.0407684, -0.0236028, -0.00436835, -0.00911221, 0.0761903, 0.0328574, 0.470776, -0.541138, 0.336469, -2.08277, -2.16537, -0.130052, 0.470944, -0.54223, 0.333817, -2.08235, -2.16793, -0.121257, -0.00483222, 0.0475574, 0.0118809, 0.0200456, 0.00896521, 0.000480153
0.148233, 1.69546, -1.22751, -1.5406, -0.900414, -1.19725, 1.23051, -1.30271, 0.0396894, -0.00243475, 0.00761247, -0.00596814, -0.0452259, 0.0124882, 0.000395577, -2.95983, 61.756, 29.722, 8.22754, 1.44855, 3.30295, 0.0101428, -0.00150715, 0.000302548, 0.00244746, 0.00357565, -0.00519366, -0.00116359, 0.0390536, -0.0254584, -0.00474706, -0.0034931, 0.0660342, 0.0368456, 0.470771, -0.54109, 0.336481, -2.08275, -2.16536, -0.130056, 0.471037, -0.542187, 0.33382, -2.08228, -2.16817, -0.12094, -0.00489384, 0.0481858, 0.0120302, 0.0217616, 0.0114219, 0.000465071
0.149233, 1.6955, -1.22749, -1.5406, -0.90042, -1.19729, 1.23052, -1.30272, 0.0397247, 0.00181573, 0.00478023, -0.00639617, -0.0431346, 0.0135358, -0.00190642, -2.9995, 61.6092, 29.7617, 8.18787, 1.43573, 3.31759, 0.0687366, -0.00154581, 0.000326337, 0.00244611, 0.00357718, -0.00526572, -0.00119342, 0.0394449, -0.0254629, -0.00326562, -0.00379794, 0.0696201, 0.0388746, 0.470766, -0.541042, 0.336493, -2.08273, -2.16535, -0.130059, 0.471057, -0.542176, 0.333826, -2.08226, -2.16823, -0.120872, -0.00495572, 0.0488173, 0.01218, 0.0217729, 0.0114384, 0.00201522
0.150233, 1.69554, -1.22749, -1.54059, -0.900429, -1.19733, 1.23053, -1.30271, 0.0363365, -0.00129125, 0.00458979, -0.00784413, -0.0375756, 0.0145111, 0.000661833, -3.03521, 61.7163, 29.722, 8.18787, 1.44855, 3.324, 0.0165515, -0.00158446, 0.000350949, 0.00245128, 0.00357415, -0.00531988, -0.00121661, 0.0405072, -0.0247531, -0.0051534, -0.000820718, 0.0628109, 0.0361103, 0.470761, -0.540993, 0.336505, -2.0827, -2.16534, -0.130063, 0.471078, -0.542163, 0.333827, -2.08224, -2.16827, -0.120826, -0.00501785, 0.0494519, 0.0123305, 0.0209707, 0.0112877, 0.000156852
0.151233, 1.69557, -1.22749, -1.5406, -0.900438, -1.19736, 1.23055, -1.30271, 0.0355718, 0.00248202, 0.00248806, -0.00900704, -0.0378935, 0.0199868, 0.00091594, -2.9995, 61.7163, 29.7617, 8.18787, 1.45404, 3.33133, 0.00373412, -0.00162741, 0.000371267, 0.00245552, 0.00357418, -0.00537992, -0.00123501, 0.0418702, -0.025152, -0.00336158, 0.00198652, 0.0700836, 0.0350079, 0.470756, -0.540944, 0.336517, -2.08268, -2.16533, -0.130066, 0.471095, -0.542155, 0.333828, -2.08223, -2.16832, -0.12077, -0.00508023, 0.0500896, 0.0124815, 0.0214219, 0.0103195, 0.00185061
0.152233, 1.6956, -1.22749, -1.54059, -0.900445, -1.1974, 1.23056, -1.30272, 0.0318461, 0.00277043, 0.00490954, -0.00901026, -0.0333442, 0.0197606, -0.00010145, -2.95983, 61.6806, 29.7617, 8.15216, 1.46045, 3.34598, 0.0229602, -0.00167035, 0.000392692, 0.00245745, 0.00356925, -0.00544192, -0.00126145, 0.04273, -0.0239951, -0.00221094, 0.00675668, 0.0665752, 0.0350754, 0.470751, -0.540894, 0.33653, -2.08266, -2.16532, -0.13007, 0.471113, -0.542146, 0.333831, -2.08221, -2.16837, -0.120719, -0.00514285, 0.0507303, 0.012633, 0.0202774, 0.00988592, 0.00303835
0.153233, 1.69563, -1.22749, -1.54059, -0.900457, -1.19743, 1.23057, -1.30272, 0.0301782, 0.000294115, 0.00700236, -0.0100279, -0.0297443, 0.019689, -0.0015257, -2.95983, 61.756, 29.7617, 8.15216, 1.46045, 3.34598, 0.0623279, -0.00171175, 0.000416947, 0.00246419, 0.00356349, -0.00549413, -0.00129196, 0.0429073, -0.0241336, -0.00303982, 0.00989703, 0.0613475, 0.0380514, 0.470746, -0.540843, 0.336542, -2.08263, -2.16531, -0.130073, 0.471133, -0.542134, 0.333829, -2.08219, -2.16842, -0.12068, -0.00520573, 0.051374, 0.0127851, 0.0203289, 0.0104892, 0.00233899
0.154233, 1.69566, -1.22749, -1.54059, -0.90047, -1.19746, 1.23059, -1.30271, 0.0311726, -0.00131656, 0.00444314, -0.0147386, -0.0315806, 0.0189386, 0.00115301, -2.92413, 61.8274, 29.7974, 8.18787, 1.46045, 3.36062, 0.00373412, -0.00175468, 0.000439069, 0.00247042, 0.00356028, -0.0055473, -0.00130994, 0.0427008, -0.0250186, -0.00571182, 0.00378083, 0.0618381, 0.038731, 0.470741, -0.540792, 0.336555, -2.08261, -2.1653, -0.130077, 0.471151, -0.542123, 0.333829, -2.08217, -2.16846, -0.120635, -0.00526884, 0.0520207, 0.0129378, 0.0210436, 0.0117904, -0.000142566
0.155233, 1.69569, -1.22748, -1.54058, -0.900479, -1.19749, 1.2306, -1.30271, 0.0269829, 7.58596e-05, 0.00566087, -0.0123532, -0.0287145, 0.019225, 0.000293954, -2.80907, 61.7917, 29.8371, 8.11249, 1.46686, 3.36703, 0.0165515, -0.00179958, 0.000457627, 0.00247175, 0.00355108, -0.00560001, -0.00133311, 0.04502, -0.0227404, -0.0039332, 0.00846013, 0.0609227, 0.034931, 0.470735, -0.54074, 0.336568, -2.08258, -2.16528, -0.130081, 0.471166, -0.542114, 0.333833, -2.08215, -2.16851, -0.120598, -0.0053322, 0.0526704, 0.0130909, 0.0188544, 0.0097818, 0.00147331
0.156233, 1.69572, -1.22748, -1.54059, -0.900486, -1.19751, 1.23061, -1.30272, 0.0267283, 0.00170597, 0.00410679, -0.0107072, -0.026216, 0.0142191, -0.00126209, -2.80907, 61.8671, 29.9839, 8.03711, 1.46686, 3.37436, 0.0559192, -0.00184572, 0.000477818, 0.00247944, 0.0035505, -0.005651, -0.00135379, 0.0454515, -0.0213297, -0.00377194, 0.00500677, 0.05831, 0.0348904, 0.47073, -0.540687, 0.336581, -2.08255, -2.16527, -0.130085, 0.471182, -0.542105, 0.33383, -2.08213, -2.16855, -0.120553, -0.0053958, 0.0533231, 0.0132446, 0.0174037, 0.00992564, 0.00176107
0.157233, 1.69574, -1.22748, -1.54059, -0.900502, -1.19753, 1.23062, -1.30271, 0.0214443, 0.00148137, 0.00664717, -0.0154696, -0.0249052, 0.0107346, 0.000141949, -2.7337, 61.8671, 29.9839, 8.07678, 1.47876, 3.37436, 0.0293689, -0.00188843, 0.000499821, 0.00248212, 0.00354168, -0.00570216, -0.00137845, 0.0459358, -0.0194314, -0.00374262, 0.0034975, 0.0557129, 0.0341463, 0.470725, -0.540634, 0.336594, -2.08253, -2.16526, -0.130089, 0.4712, -0.542092, 0.333834, -2.08211, -2.1686, -0.120517, -0.00545963, 0.0539787, 0.0133988, 0.0154628, 0.0100206, 0.00192592
0.158233, 1.69576, -1.22747, -1.54058, -0.900514, -1.19755, 1.23063, -1.30271, 0.0241306, 0.000410408, 0.00924081, -0.0161321, -0.0240152, 0.0122412, 0.00104407, -2.65832, 61.9028, 29.9482, 8.0014, 1.49707, 3.38901, 0.00373412, -0.00193347, 0.000520012, 0.00248355, 0.00352486, -0.00574904, -0.00140246, 0.0447569, -0.0219805, -0.00360537, 0.00682141, 0.0549771, 0.0381004, 0.470719, -0.54058, 0.336608, -2.0825, -2.16525, -0.130092, 0.471216, -0.542082, 0.333838, -2.08209, -2.16864, -0.120494, -0.00552369, 0.0546373, 0.0135535, 0.0179072, 0.0119274, 0.00232032
0.159233, 1.69579, -1.22747, -1.54058, -0.900528, -1.19756, 1.23064, -1.30272, 0.02393, -0.0012033, 0.00771002, -0.014633, -0.0177181, 0.00898609, -0.00123673, -2.62261, 61.9742, 30.0593, 7.9657, 1.49158, 3.39633, 0.0559192, -0.00197827, 0.000541201, 0.00249042, 0.00351778, -0.00579102, -0.00143193, 0.0448585, -0.021445, -0.00522136, 0.00631767, 0.0468997, 0.0403139, 0.470714, -0.540525, 0.336621, -2.08248, -2.16524, -0.130096, 0.471233, -0.542069, 0.333837, -2.08206, -2.16869, -0.120467, -0.00558799, 0.0552987, 0.0137087, 0.0172521, 0.0127173, 0.000879566
0.160233, 1.69581, -1.22747, -1.54058, -0.900543, -1.19758, 1.23065, -1.30272, 0.0187164, 0.00106915, 0.00681294, -0.0133642, -0.0186134, 0.00681315, -0.00129921, -2.50756, 62.0496, 30.1703, 7.92602, 1.50989, 3.39633, 0.0687366, -0.00202634, 0.000558792, 0.00249725, 0.00350954, -0.00583206, -0.00145296, 0.0481672, -0.0175798, -0.0039849, 0.00497153, 0.0489479, 0.0333931, 0.470708, -0.54047, 0.336635, -2.08245, -2.16522, -0.1301, 0.471247, -0.54206, 0.333836, -2.08203, -2.16873, -0.12044, -0.00565251, 0.0559631, 0.0138645, 0.0134927, 0.0097647, 0.00185701
0.161233, 1.69583, -1.22747, -1.54058, -0.900562, -1.19759, 1.23066, -1.30271, 0.0199537, 0.00184956, 0.00875995, -0.0156192, -0.0145531, 0.00488765, 0.000829283, -2.47185, 62.1606, 30.1703, 7.89032, 1.5282, 3.40365, 0.0229602, -0.00207056, 0.000580419, 0.00250353, 0.00349523, -0.00586663, -0.00147861, 0.046148, -0.0192506, -0.00343806, 0.00585381, 0.045905, 0.0367868, 0.470702, -0.540414, 0.336649, -2.08242, -2.16521, -0.130104, 0.471264, -0.542045, 0.333836, -2.082, -2.16877, -0.120428, -0.00571726, 0.0566303, 0.0140207, 0.0150441, 0.0124097, 0.00281571
0.162233, 1.69585, -1.22747, -1.54056, -0.900584, -1.19759, 1.23067, -1.30271, 0.0187908, 0.0042505, 0.0117757, -0.0151624, -0.0101233, 0.00810958, 0.00102757, -2.3568, 62.1964, 30.095, 7.89032, 1.50989, 3.41006, 0.0101428, -0.00211403, 0.000600967, 0.00250492, 0.00347221, -0.00589947, -0.00150984, 0.0460894, -0.0201132, -0.000602145, 0.0141053, 0.0463244, 0.0379846, 0.470697, -0.540357, 0.336663, -2.08239, -2.1652, -0.130108, 0.47128, -0.54203, 0.333841, -2.08197, -2.16881, -0.120427, -0.00578224, 0.0573004, 0.0141774, 0.0159437, 0.0127341, 0.00575318
0.163233, 1.69587, -1.22747, -1.54057, -0.900598, -1.19759, 1.23068, -1.30272, 0.0176052, 0.00526303, 0.00844125, -0.0183808, -0.00848903, 0.0109682, -0.00124773, -2.3568, 62.2717, 30.2457, 7.77924, 1.53461, 3.40365, 0.0623279, -0.00216093, 0.000620826, 0.00251115, 0.00346325, -0.00593677, -0.00154077, 0.0469251, -0.0203094, -0.00136925, 0.0133225, 0.04822, 0.0409067, 0.470691, -0.5403, 0.336677, -2.08237, -2.16519, -0.130113, 0.471296, -0.542018, 0.333841, -2.08194, -2.16886, -0.120407, -0.00584743, 0.0579733, 0.0143346, 0.0160764, 0.0127096, 0.00501491
0.164233, 1.69588, -1.22747, -1.54056, -0.90062, -1.1976, 1.23069, -1.30272, 0.016342, 0.00517946, 0.009677, -0.0194546, -0.00627781, 0.0140059, -0.000594462, -2.20605, 62.3828, 30.2457, 7.73956, 1.53461, 3.37436, 0.0559192, -0.00221016, 0.00063688, 0.00251587, 0.00344185, -0.00596609, -0.00156395, 0.0474882, -0.0209071, -0.000846598, 0.0179047, 0.0481486, 0.0413477, 0.470685, -0.540242, 0.336692, -2.08234, -2.16517, -0.130117, 0.471307, -0.542007, 0.333842, -2.08191, -2.1689, -0.120408, -0.00591285, 0.058649, 0.0144922, 0.0166478, 0.0127736, 0.00558051
0.165233, 1.69589, -1.22746, -1.54055, -0.900645, -1.1976, 1.23069, -1.30271, 0.0181458, 0.00528355, 0.00663301, -0.0202655, -0.00532721, 0.010426, 0.00129911, -2.16637, 62.3431, 30.2814, 7.70386, 1.55292, 3.37436, 0.0101428, -0.0022551, 0.000657592, 0.00251637, 0.00342503, -0.00600726, -0.00159208, 0.0472079, -0.0210532, -0.00243481, 0.0120758, 0.0463959, 0.04085, 0.470679, -0.540183, 0.336706, -2.08231, -2.16516, -0.130121, 0.471324, -0.541991, 0.333849, -2.08188, -2.16894, -0.120392, -0.00597848, 0.0593275, 0.0146504, 0.0166592, 0.0139816, 0.0042086
0.166233, 1.6959, -1.22746, -1.54054, -0.900667, -1.19759, 1.2307, -1.30271, 0.0131823, 0.00410408, 0.00742338, -0.0222677, -0.00389936, 0.0124495, -0.000354628, -2.13067, 62.4899, 30.3211, 7.59277, 1.55292, 3.37436, 0.0431018, -0.00230293, 0.000674814, 0.00252265, 0.00340741, -0.00602982, -0.00162431, 0.0493966, -0.0194511, -0.0027361, 0.0150511, 0.0453654, 0.0403011, 0.470673, -0.540124, 0.336721, -2.08228, -2.16515, -0.130125, 0.471336, -0.541978, 0.333849, -2.08184, -2.16898, -0.120396, -0.00604433, 0.0600088, 0.0148089, 0.0150615, 0.0124834, 0.00377557
0.167233, 1.69591, -1.22745, -1.54053, -0.900696, -1.19759, 1.2307, -1.30272, 0.0138138, 0.00352195, 0.0113952, -0.0232365, -0.00286048, 0.0143372, -0.000948495, -2.01562, 62.4899, 30.3568, 7.59277, 1.55292, 3.36703, 0.0623279, -0.00235198, 0.00069026, 0.0025246, 0.00339119, -0.00606477, -0.00165707, 0.0487438, -0.0212372, -0.00172351, 0.0201981, 0.0450645, 0.0446949, 0.470667, -0.540064, 0.336735, -2.08225, -2.16513, -0.130129, 0.471347, -0.541965, 0.333854, -2.0818, -2.16903, -0.120386, -0.00611038, 0.0606929, 0.014968, 0.0167934, 0.0137292, 0.00497942
0.168233, 1.69591, -1.22745, -1.54052, -0.900732, -1.19759, 1.23071, -1.30272, 0.00904923, 0.00033893, 0.0119338, -0.0279049, -0.00162795, 0.0112157, -0.000157612, -1.94024, 62.601, 30.3568, 7.62848, 1.5401, 3.3533, 0.0495105, -0.00239823, 0.000709968, 0.00252964, 0.00337358, -0.00609433, -0.00169177, 0.0498064, -0.0193698, -0.00412732, 0.0169329, 0.039925, 0.0440707, 0.470661, -0.540003, 0.33675, -2.08222, -2.16512, -0.130134, 0.471363, -0.541948, 0.333856, -2.08176, -2.16908, -0.120384, -0.00617665, 0.0613797, 0.0151275, 0.0148115, 0.0136632, 0.00265609
0.169233, 1.69592, -1.22745, -1.54051, -0.900756, -1.19759, 1.23071, -1.30271, 0.00859935, 0.00235679, 0.0113269, -0.0260895, -0.00170678, 0.00833882, 0.00111563, -1.86486, 62.6764, 30.3925, 7.44202, 1.55292, 3.3533, 0.0165515, -0.00244896, 0.000724913, 0.00253152, 0.00335324, -0.00612364, -0.00171279, 0.0509093, -0.0180735, -0.00317769, 0.0151259, 0.0408078, 0.0404558, 0.470655, -0.539942, 0.336766, -2.08219, -2.1651, -0.130138, 0.471373, -0.541936, 0.333861, -2.08173, -2.16911, -0.120383, -0.00624313, 0.0620692, 0.0152874, 0.0135257, 0.0130635, 0.0036196
0.170233, 1.69592, -1.22745, -1.5405, -0.900794, -1.19759, 1.23071, -1.30272, 0.0051321, 0.00320123, 0.0118293, -0.029412, -0.00148529, 0.00620549, -0.000951669, -1.78948, 62.7875, 30.3925, 7.44202, 1.55932, 3.3533, 0.0623279, -0.00249822, 0.00074107, 0.00253832, 0.00334174, -0.0061507, -0.00175179, 0.0517296, -0.0166197, -0.00301607, 0.0129974, 0.0409218, 0.0423622, 0.470649, -0.53988, 0.336781, -2.08216, -2.16509, -0.130143, 0.471384, -0.541921, 0.333861, -2.08168, -2.16916, -0.120377, -0.00630981, 0.0627614, 0.0154478, 0.012043, 0.0128611, 0.00385475
0.171233, 1.69593, -1.22744, -1.54049, -0.900826, -1.19759, 1.23071, -1.30272, 0.00429322, 0.00638877, 0.0114011, -0.0323182, -0.000598026, 0.00489296, -0.00110916, -1.78948, 62.7875, 30.4322, 7.33093, 1.54651, 3.34598, 0.0751453, -0.00254687, 0.000758264, 0.00253845, 0.00332759, -0.00618839, -0.00178632, 0.0514313, -0.0165643, -0.00181484, 0.0110801, 0.0433446, 0.0443232, 0.470642, -0.539817, 0.336796, -2.08213, -2.16508, -0.130147, 0.471397, -0.541905, 0.333868, -2.08164, -2.16921, -0.120363, -0.00637669, 0.0634563, 0.0156086, 0.0119551, 0.0136621, 0.00524823
0.172233, 1.69593, -1.22744, -1.54048, -0.900864, -1.19759, 1.23071, -1.30272, 0.00583511, 0.000854962, 0.0140363, -0.0354783, -0.000935317, 0.00467666, -0.00124807, -1.75378, 62.97, 30.4679, 7.25555, 1.55932, 3.31759, 0.0888782, -0.00259749, 0.000775884, 0.00254622, 0.00331376, -0.00621649, -0.00182339, 0.0505367, -0.0186666, -0.00472634, 0.0109901, 0.0385244, 0.0500727, 0.470636, -0.539753, 0.336812, -2.0821, -2.16506, -0.130152, 0.47141, -0.54189, 0.333867, -2.08159, -2.16925, -0.120358, -0.00644377, 0.0641539, 0.0157699, 0.013847, 0.0157824, 0.00260833
0.173233, 1.69593, -1.22743, -1.54047, -0.900908, -1.19758, 1.23071, -1.30271, 0.00288009, 0.00288892, 0.0153, -0.0418102, -0.000195264, 0.00366169, 0.00232144, -1.6784, 62.8986, 30.5433, 7.21588, 1.54651, 3.31027, 0.00373412, -0.00264654, 0.000791027, 0.00254663, 0.00330396, -0.00625306, -0.00185019, 0.0499843, -0.0185471, -0.00394339, 0.00936153, 0.0401978, 0.0500049, 0.470629, -0.539689, 0.336828, -2.08207, -2.16505, -0.130156, 0.47142, -0.541873, 0.333875, -2.08156, -2.16929, -0.120339, -0.00651106, 0.0648541, 0.0159315, 0.0136697, 0.0169018, 0.00363152
0.174233, 1.69593, -1.22743, -1.54045, -0.900945, -1.19758, 1.23071, -1.30271, -0.000206249, -0.00102135, 0.0190192, -0.0407764, -0.000639721, 0.00264561, 0.000598189, -1.56335, 63.0453, 30.5036, 7.06909, 1.55932, 3.31027, 0.0293689, -0.0027009, 0.000804759, 0.00255091, 0.0032826, -0.00628106, -0.0018826, 0.051963, -0.0171204, -0.00475614, 0.0123077, 0.0360942, 0.049542, 0.470623, -0.539624, 0.336844, -2.08204, -2.16503, -0.130161, 0.471429, -0.541861, 0.333877, -2.08152, -2.16934, -0.120343, -0.00657853, 0.0655569, 0.0160936, 0.0122188, 0.0157192, 0.00272416
0.175233, 1.69592, -1.22742, -1.54043, -0.900994, -1.19759, 1.23072, -1.30272, -0.00231225, 0.00305577, 0.0174613, -0.0459505, 0.003461, 0.00245964, -0.00129663, -1.45226, 63.0453, 30.5036, 7.02942, 1.58313, 3.29562, 0.0751453, -0.00275232, 0.00082041, 0.00255158, 0.00326902, -0.00632297, -0.00192569, 0.051198, -0.0172123, -0.00358574, 0.0110696, 0.0375626, 0.054495, 0.470616, -0.539559, 0.33686, -2.082, -2.16502, -0.130166, 0.47144, -0.541845, 0.333884, -2.08147, -2.1694, -0.120324, -0.0066462, 0.0662624, 0.0162561, 0.0122592, 0.0170022, 0.00415732
0.176233, 1.69592, -1.22741, -1.54042, -0.901042, -1.19758, 1.23071, -1.30272, -0.00298695, 0.000921327, 0.0127207, -0.0490753, 0.00244999, 0.00148351, -0.000389701, -1.37688, 63.1168, 30.6544, 6.95801, 1.58954, 3.30295, 0.0623279, -0.00280412, 0.000835401, 0.00255866, 0.00326609, -0.00635396, -0.0019618, 0.052589, -0.0164862, -0.00705075, 0.00420862, 0.0367296, 0.053151, 0.47061, -0.539493, 0.336876, -2.08197, -2.165, -0.13017, 0.47145, -0.541828, 0.333885, -2.08141, -2.16944, -0.120305, -0.00671407, 0.0669704, 0.016419, 0.0113873, 0.0168461, 0.000702734
0.177233, 1.69591, -1.22741, -1.54041, -0.901094, -1.19758, 1.23071, -1.30271, -0.00444422, 0.0035795, 0.0153702, -0.0488616, 0.00147753, 0.00134654, 0.00143562, -1.26183, 63.1564, 30.6901, 6.91833, 1.60144, 3.29562, 0.0165515, -0.00285719, 0.000850191, 0.00255999, 0.00324709, -0.00638978, -0.0019948, 0.0534051, -0.0159467, -0.00449798, 0.00668042, 0.0402441, 0.0506537, 0.470603, -0.539426, 0.336892, -2.08194, -2.16499, -0.130175, 0.47146, -0.541812, 0.333891, -2.08137, -2.16948, -0.120298, -0.00678212, 0.0676811, 0.0165822, 0.0109056, 0.0163328, 0.00327322
0.178233, 1.69591, -1.2274, -1.54039, -0.901148, -1.19758, 1.23071, -1.30272, -0.00361928, 0.00480404, 0.0164068, -0.0518965, 0.00187694, 0.00123366, -0.0009757, -1.22613, 63.2278, 30.7654, 6.88263, 1.58313, 3.2883, 0.0687366, -0.00290816, 0.000866802, 0.00256302, 0.00323529, -0.00642367, -0.00204428, 0.0524444, -0.0173128, -0.00393343, 0.00637408, 0.0416819, 0.0572074, 0.470596, -0.539358, 0.336909, -2.0819, -2.16497, -0.13018, 0.471471, -0.541794, 0.333896, -2.08131, -2.16955, -0.120287, -0.00685036, 0.0683942, 0.0167459, 0.0121881, 0.0179637, 0.00410032
0.179233, 1.69589, -1.22739, -1.54037, -0.901199, -1.19758, 1.23072, -1.30272, -0.00580527, 0.00739653, 0.0181936, -0.0553107, 0.000936894, 0.000870966, -0.000175749, -1.07537, 63.2278, 30.8051, 6.77154, 1.59595, 3.2883, 0.0559192, -0.00296431, 0.000879254, 0.00256312, 0.00321518, -0.00646162, -0.00207689, 0.0526693, -0.016986, -0.00221103, 0.00629738, 0.0453502, 0.0577939, 0.470589, -0.53929, 0.336926, -2.08187, -2.16495, -0.130185, 0.471479, -0.54178, 0.333903, -2.08127, -2.16959, -0.120279, -0.00691878, 0.06911, 0.01691, 0.0118662, 0.0181766, 0.00593781
0.180233, 1.69588, -1.2274, -1.54034, -0.901259, -1.19757, 1.23071, -1.30271, -0.00646089, 0.0032788, 0.0243681, -0.0576222, 0.00523466, 0.000345771, 0.00062882, -0.960319, 63.4857, 30.7654, 6.77154, 1.60144, 3.29562, 0.0357776, -0.00301666, 0.000895812, 0.00257247, 0.00319826, -0.00647906, -0.00212313, 0.0512034, -0.0187271, -0.00283416, 0.0120609, 0.0376212, 0.0629028, 0.470582, -0.53922, 0.336943, -2.08184, -2.16494, -0.13019, 0.47149, -0.541761, 0.333902, -2.08121, -2.16964, -0.12029, -0.00698738, 0.0698282, 0.0170744, 0.0134602, 0.0205114, 0.00566071
0.181233, 1.69587, -1.22738, -1.54032, -0.901321, -1.19757, 1.23071, -1.30271, -0.00599508, 0.00836471, 0.0221249, -0.0614833, 0.00820445, 0.000800344, 0.000893931, -0.884941, 63.4103, 30.8765, 6.73187, 1.61426, 3.28097, 0.0229602, -0.00306771, 0.000913176, 0.00256937, 0.0031836, -0.00652587, -0.00216998, 0.050035, -0.0198182, -0.00120899, 0.0105783, 0.0413656, 0.0663623, 0.470575, -0.539151, 0.33696, -2.0818, -2.16492, -0.130195, 0.471502, -0.541741, 0.333914, -2.08116, -2.16971, -0.120268, -0.00705617, 0.0705489, 0.0172392, 0.0144999, 0.0221785, 0.00757704
0.182233, 1.69586, -1.22738, -1.5403, -0.901387, -1.19757, 1.23072, -1.30271, -0.00746664, 0.0022012, 0.0253054, -0.0612774, 0.00554477, 0.00106266, -0.00109947, -0.734184, 63.5968, 30.9162, 6.69617, 1.63257, 3.26724, 0.0687366, -0.00312218, 0.000930174, 0.0025745, 0.00316457, -0.0065601, -0.00222028, 0.0519646, -0.0194152, -0.00362149, 0.0123099, 0.0376429, 0.0675436, 0.470568, -0.53908, 0.336977, -2.08177, -2.16491, -0.1302, 0.471514, -0.541722, 0.333917, -2.0811, -2.16977, -0.120265, -0.00712513, 0.0712721, 0.0174044, 0.0140082, 0.0213562, 0.00506887
0.183233, 1.69585, -1.22738, -1.54028, -0.90145, -1.19756, 1.23071, -1.30271, -0.0076266, 0.00137207, 0.0229842, -0.063355, 0.00901087, 0.000452526, 0.000487725, -0.619133, 63.6325, 31.0273, 6.62079, 1.63257, 3.27456, 0.0357776, -0.0031763, 0.000944989, 0.00257636, 0.00315009, -0.0065936, -0.00226421, 0.0519769, -0.0197153, -0.00531775, 0.0105008, 0.0343943, 0.0677409, 0.470561, -0.539009, 0.336994, -2.08173, -2.16489, -0.130205, 0.471523, -0.541704, 0.333923, -2.08104, -2.16983, -0.120257, -0.00719427, 0.0719978, 0.0175699, 0.0141759, 0.0223467, 0.00354678
0.184233, 1.69583, -1.22737, -1.54025, -0.901519, -1.19756, 1.23072, -1.30271, -0.0117483, 0.00222259, 0.0231408, -0.0626715, 0.00591123, 0.000313199, 0.000799868, -0.468376, 63.7436, 31.063, 6.58508, 1.65729, 3.27456, 0.0229602, -0.0032305, 0.000961936, 0.00257859, 0.00312711, -0.00662747, -0.00231504, 0.0552505, -0.0169332, -0.00450079, 0.0102791, 0.037899, 0.061846, 0.470554, -0.538937, 0.337012, -2.0817, -2.16487, -0.13021, 0.471535, -0.541684, 0.333929, -2.08098, -2.16989, -0.120259, -0.00726359, 0.0727259, 0.0177358, 0.0114776, 0.0196016, 0.00409078
0.185233, 1.69581, -1.22737, -1.54022, -0.901586, -1.19755, 1.23072, -1.30271, -0.0115989, 0.00307572, 0.0276048, -0.0644536, 0.00411465, 0.000759971, 5.85274e-05, -0.317619, 63.8547, 31.1741, 6.5097, 1.66919, 3.25992, 0.0357776, -0.00328498, 0.000978012, 0.00258041, 0.0031055, -0.00665855, -0.00236717, 0.0547911, -0.0181073, -0.00267689, 0.0131156, 0.0407011, 0.0658854, 0.470547, -0.538864, 0.33703, -2.08166, -2.16485, -0.130215, 0.471546, -0.541664, 0.333936, -2.08092, -2.16996, -0.120262, -0.00733307, 0.0734565, 0.0179021, 0.0126327, 0.0205513, 0.00609067
