alisrour97/Franka_experiments/Real_Robot_scripts/servo-franka/Data3/log_dyn_INIT0_l_ki_4.csv
Time,q1,q2,q3,q4,q5,q6,q7,dq1,dq2,dq3,dq4,dq5,dq6,dq7,t1,t2,t3,t4,t5,t6,t7,ex1,ex2,ex3,ex4,ex5,ex6,ev1,ev2,ev3,ev4,ev5,ev6,xd,yd,zd,uxd,uyd,uzd,x,y,z,ux,uy,uz,vxd,vyd,vzd,vx,vy,vz
2.44141e-07, 1.69147, -1.22592, -1.53807, -0.900163, -1.19192, 1.22813, -1.30264, -0.00463247, -0.0021037, -0.0103151, 0.00211433, 0.000631991, -0.00710093, 0.000910864, -0.619133, 59.3994, 28.6826, 6.80725, 2.01343, 3.76895, -0.147328, 0.000993812, -0.00157378, 0.000367231, 0.000756803, -3.12433e-05, -0.000160923, 0.00417389, 0.00607276, -0.00497858, -0.0133423, -0.00578473, -0.012056, 0.471008, -0.543389, 0.335894, -2.08385, -2.16584, -0.129887, 0.469403, -0.542405, 0.335748, -2.08329, -2.16579, -0.129052, -4.82042e-07, 4.44613e-06, 1.21621e-06, -0.00609586, -0.00359831, -0.00537954
0.0120671, 1.69142, -1.22594, -1.53817, -0.900165, -1.19191, 1.22811, -1.30264, -0.00711103, 9.76154e-05, -0.0083735, 0.00113944, 0.000937648, -0.00346187, 9.91981e-05, -0.694511, 59.3597, 28.6826, 6.77154, 1.9823, 3.7836, -0.186696, 0.00095357, -0.0016225, 0.000414164, 0.000859205, 1.09765e-06, -6.47338e-05, 0.00469879, 0.0062436, -0.00268399, -0.00823449, -0.00215374, -0.0118382, 0.471008, -0.543389, 0.335894, -2.08385, -2.16584, -0.129887, 0.469339, -0.542451, 0.335682, -2.08333, -2.16558, -0.12894, -1.47349e-06, 1.36697e-05, 3.70923e-06, -0.00616588, -0.00446745, -0.00318763
0.0130671, 1.69142, -1.22594, -1.53817, -0.900165, -1.19191, 1.22811, -1.30264, -0.00711103, 9.76154e-05, -0.0083735, 0.00113944, 0.000937648, -0.00346187, 9.91981e-05, -0.694511, 59.3597, 28.6826, 6.77154, 1.9823, 3.7836, -0.186696, 0.000953563, -0.0016225, 0.000414165, 0.000859204, 1.09507e-06, -6.4733e-05, 0.00471254, 0.00624261, -0.00268544, -0.00823254, -0.00214756, -0.011837, 0.471008, -0.543389, 0.335894, -2.08385, -2.16584, -0.129887, 0.469339, -0.542451, 0.335682, -2.08333, -2.16558, -0.12894, -2.9032e-06, 2.69793e-05, 7.30333e-06, -0.00616588, -0.00446745, -0.00318763
0.0140671, 1.69142, -1.22594, -1.53817, -0.900165, -1.19191, 1.22811, -1.30264, -0.00711103, 9.76154e-05, -0.0083735, 0.00113944, 0.000937648, -0.00346187, 9.91981e-05, -0.694511, 59.3597, 28.6826, 6.77154, 1.9823, 3.7836, -0.186696, 0.000953543, -0.0016225, 0.000414167, 0.000859198, 1.08809e-06, -6.47306e-05, 0.00473116, 0.00624127, -0.0026874, -0.00822991, -0.00213919, -0.0118355, 0.471008, -0.543389, 0.335894, -2.08385, -2.16584, -0.129887, 0.469339, -0.542451, 0.335682, -2.08333, -2.16558, -0.12894, -4.83863e-06, 4.50071e-05, 1.21677e-05, -0.00616588, -0.00446745, -0.00318763
0.0150671, 1.69142, -1.22594, -1.53817, -0.900165, -1.19191, 1.22811, -1.30264, -0.00711103, 9.76154e-05, -0.0083735, 0.00113944, 0.000937648, -0.00346187, 9.91981e-05, -0.694511, 59.3597, 28.6826, 6.77154, 1.9823, 3.7836, -0.186696, 0.000953504, -0.0016225, 0.000414171, 0.000859188, 1.07449e-06, -6.4726e-05, 0.00475524, 0.00623953, -0.00268993, -0.00822648, -0.00212836, -0.0118335, 0.471008, -0.543389, 0.335894, -2.08385, -2.16584, -0.129887, 0.469339, -0.542451, 0.335682, -2.08333, -2.16558, -0.12894, -7.34058e-06, 6.83239e-05, 1.84546e-05, -0.00616588, -0.00446745, -0.00318763
0.0160671, 1.69142, -1.22594, -1.53817, -0.900165, -1.19191, 1.22811, -1.30264, -0.00711103, 9.76154e-05, -0.0083735, 0.00113944, 0.000937648, -0.00346187, 9.91981e-05, -0.694511, 59.3597, 28.6826, 6.77154, 1.9823, 3.7836, -0.186696, 0.000953439, -0.00162249, 0.000414178, 0.000859171, 1.05208e-06, -6.47184e-05, 0.00478529, 0.00623737, -0.00269308, -0.0082222, -0.00211483, -0.0118309, 0.471008, -0.543389, 0.335894, -2.08385, -2.16584, -0.129887, 0.469339, -0.542451, 0.335682, -2.08333, -2.16558, -0.12894, -1.04607e-05, 9.7416e-05, 2.62933e-05, -0.00616588, -0.00446745, -0.00318763
0.0170671, 1.69142, -1.22594, -1.53817, -0.900165, -1.19191, 1.22811, -1.30264, -0.00711103, 9.76154e-05, -0.0083735, 0.00113944, 0.000937648, -0.00346187, 9.91981e-05, -0.694511, 59.3597, 28.6826, 6.77154, 1.9823, 3.7836, -0.186696, 0.000953342, -0.00162248, 0.000414188, 0.000859146, 1.01868e-06, -6.47071e-05, 0.0048217, 0.00623475, -0.00269689, -0.008217, -0.00209843, -0.0118279, 0.471008, -0.543389, 0.335894, -2.08385, -2.16584, -0.129887, 0.469339, -0.542451, 0.335682, -2.08333, -2.16558, -0.12894, -1.42391e-05, 0.000132663, 3.57838e-05, -0.00616588, -0.00446745, -0.00318763
0.0180671, 1.69142, -1.22594, -1.53817, -0.900165, -1.19191, 1.22811, -1.30264, -0.00711103, 9.76154e-05, -0.0083735, 0.00113944, 0.000937648, -0.00346187, 9.91981e-05, -0.694511, 59.3597, 28.6826, 6.77154, 1.9823, 3.7836, -0.186696, 0.000953208, -0.00162248, 0.000414202, 0.000859111, 9.72087e-07, -6.46913e-05, 0.00486471, 0.00623166, -0.00270138, -0.00821083, -0.00207904, -0.0118243, 0.471008, -0.543389, 0.335894, -2.08385, -2.16584, -0.129887, 0.469339, -0.542451, 0.335682, -2.08333, -2.16558, -0.12894, -1.87016e-05, 0.000174312, 4.69907e-05, -0.00616588, -0.00446745, -0.00318763
0.0190671, 1.69142, -1.22594, -1.53817, -0.900165, -1.19191, 1.22811, -1.30264, -0.00711103, 9.76154e-05, -0.0083735, 0.00113944, 0.000937648, -0.00346187, 9.91981e-05, -0.694511, 59.3597, 28.6826, 6.77154, 1.9823, 3.7836, -0.186696, 0.00095303, -0.00162246, 0.000414221, 0.000859064, 9.10128e-07, -6.46703e-05, 0.00491444, 0.00622809, -0.00270657, -0.00820369, -0.00205662, -0.0118202, 0.471008, -0.543389, 0.335894, -2.08385, -2.16584, -0.129887, 0.469339, -0.542451, 0.335682, -2.08333, -2.16558, -0.12894, -2.38577e-05, 0.00022246, 5.99368e-05, -0.00616588, -0.00446745, -0.00318763
0.0200671, 1.69142, -1.22594, -1.53817, -0.900165, -1.19191, 1.22811, -1.30264, -0.00711103, 9.76154e-05, -0.0083735, 0.00113944, 0.000937648, -0.00346187, 9.91981e-05, -0.694511, 59.3597, 28.6826, 6.77154, 1.9823, 3.7836, -0.186696, 0.000952801, -0.00162245, 0.000414245, 0.000859004, 8.30622e-07, -6.46435e-05, 0.00497079, 0.00622405, -0.00271244, -0.00819557, -0.00203119, -0.0118155, 0.471008, -0.543389, 0.335894, -2.08385, -2.16584, -0.129887, 0.469339, -0.542451, 0.335682, -2.08333, -2.16558, -0.12894, -2.96979e-05, 0.000277024, 7.45974e-05, -0.00616588, -0.00446745, -0.00318763
0.0210671, 1.69142, -1.22594, -1.53817, -0.900165, -1.19191, 1.22811, -1.30264, -0.00711103, 9.76154e-05, -0.0083735, 0.00113944, 0.000937648, -0.00346187, 9.91981e-05, -0.694511, 59.3597, 28.6826, 6.77154, 1.9823, 3.7836, -0.186696, 0.000952516, -0.00162243, 0.000414275, 0.00085893, 7.31393e-07, -6.461e-05, 0.00503348, 0.00621956, -0.00271895, -0.00818651, -0.00200287, -0.0118103, 0.471008, -0.543388, 0.335894, -2.08385, -2.16584, -0.129887, 0.469339, -0.542451, 0.335682, -2.08333, -2.16558, -0.12894, -3.61913e-05, 0.000337726, 9.08941e-05, -0.00616588, -0.00446745, -0.00318763
0.0220671, 1.69139, -1.22596, -1.53824, -0.900153, -1.19191, 1.22812, -1.30264, -0.00107228, -0.00373636, -0.0109678, 0.00103096, -0.000232291, 0.00108456, 0.000146855, -0.468376, 59.4708, 28.5319, 6.65649, 1.99512, 3.73324, -0.160145, 0.000916675, -0.00165341, 0.0004483, 0.000903678, 1.57928e-05, 3.2667e-06, 0.00399817, 0.00248976, -0.00583013, -0.00834503, -0.00222464, -0.00736776, 0.471008, -0.543388, 0.335894, -2.08385, -2.16584, -0.129887, 0.469308, -0.542482, 0.335644, -2.08337, -2.16548, -0.128899, -4.33151e-05, 0.00040436, 0.000108769, -0.00259734, -0.00274728, -0.00619352
0.0230671, 1.69138, -1.22596, -1.53825, -0.900153, -1.19191, 1.22812, -1.30264, -0.00253471, -0.00181006, -0.00924329, 0.000688909, 8.25009e-05, 0.000707579, 0.00155597, -0.392998, 59.4351, 28.5715, 6.65649, 1.98871, 3.73324, -0.199513, 0.000911829, -0.00165801, 0.000451185, 0.000909043, 1.5826e-05, 1.72347e-05, 0.0039771, 0.00299378, -0.00409928, -0.00678346, -0.000840728, -0.00901323, 0.471008, -0.543388, 0.335894, -2.08385, -2.16584, -0.129887, 0.469303, -0.542486, 0.33564, -2.08338, -2.16546, -0.128892, -5.10658e-05, 0.000476901, 0.000128212, -0.00304674, -0.00294097, -0.00444653
0.0240671, 1.69138, -1.22596, -1.53825, -0.900148, -1.19191, 1.22812, -1.30264, -0.00256749, -0.00254597, -0.00973419, -0.00426983, 0.00141134, 0.00178255, 5.3966e-05, -0.357292, 59.213, 28.4208, 6.58508, 1.95209, 3.69754, -0.172963, 0.000908255, -0.00166068, 0.000451184, 0.000906515, 1.65632e-05, 2.51854e-05, 0.00262385, 0.00162588, -0.00530599, -0.00806327, -0.00162725, -0.00297459, 0.471008, -0.543387, 0.335894, -2.08385, -2.16584, -0.129887, 0.469301, -0.542489, 0.33564, -2.08339, -2.16545, -0.128895, -5.94401e-05, 0.000555325, 0.000149214, -0.00178092, -0.00128487, -0.00544826
0.0250671, 1.69138, -1.22596, -1.53826, -0.900147, -1.19191, 1.22812, -1.30264, -0.0017435, -0.00204453, -0.01049, -0.000687786, 0.00412829, 0.00253601, -0.00115082, -0.357292, 58.8083, 28.274, 6.47003, 1.86603, 3.66092, -0.140919, 0.000904394, -0.00166352, 0.000454574, 0.000917328, 1.30758e-05, 3.41439e-05, 0.00305725, 0.00165538, -0.00476872, -0.00517229, -0.00318226, -0.0035445, 0.471008, -0.543387, 0.335895, -2.08385, -2.16584, -0.129887, 0.469298, -0.542492, 0.335636, -2.08339, -2.16544, -0.128878, -6.84344e-05, 0.000639605, 0.000171766, -0.0017845, -0.00171236, -0.00496157
0.0260671, 1.69138, -1.22596, -1.53828, -0.900153, -1.19192, 1.22812, -1.30264, -0.00211424, -0.00579641, -0.011109, -0.000857893, 0.000339998, -0.00146231, -0.00175056, -0.317619, 58.4036, 28.1232, 6.47003, 1.80469, 3.6188, -0.114369, 0.000899138, -0.00166708, 0.000464727, 0.000937412, 1.21059e-05, 4.29143e-05, 0.00408338, 0.00301776, -0.00755536, -0.0112751, -0.00571048, -0.00465795, 0.471008, -0.543386, 0.335895, -2.08384, -2.16584, -0.129887, 0.469294, -0.542495, 0.335626, -2.08339, -2.16542, -0.128854, -7.80454e-05, 0.000729718, 0.000195859, -0.00321862, -0.00226209, -0.00780728
0.0270671, 1.69138, -1.22597, -1.53828, -0.900149, -1.19193, 1.22812, -1.30264, 0.00348643, -0.00437221, -0.00914773, -0.00144846, 0.00119266, -0.000558149, -0.0026251, -0.392998, 58.0704, 27.8614, 6.35895, 1.76807, 3.59683, -0.0750012, 0.000896038, -0.00166583, 0.000472861, 0.00094799, 1.22144e-05, 4.28793e-05, 0.000902583, -0.000843499, -0.00633171, -0.00939521, -0.00440097, 0.00347771, 0.471008, -0.543385, 0.335895, -2.08384, -2.16584, -0.129887, 0.469295, -0.542496, 0.335617, -2.08339, -2.16542, -0.128843, -8.82697e-05, 0.000825639, 0.000221482, 0.000557858, 0.000943644, -0.0061961
0.0280671, 1.69138, -1.22599, -1.5383, -0.900153, -1.19194, 1.22812, -1.30264, 0.00398437, -0.00510575, -0.0105652, -0.0038128, -0.00345678, -0.000398641, -0.00320813, -0.317619, 57.8125, 27.7146, 6.32324, 1.74884, 3.58951, -0.0356336, 0.000888907, -0.00166986, 0.00048573, 0.000967232, 1.52317e-05, 4.89255e-05, 0.00138757, -0.000927792, -0.00761552, -0.0139089, -0.000883944, 0.00440024, 0.471008, -0.543384, 0.335895, -2.08384, -2.16584, -0.129887, 0.469291, -0.5425, 0.335604, -2.08338, -2.1654, -0.128824, -9.91039e-05, 0.000927342, 0.000248628, 0.000602207, 0.000767606, -0.00751443
0.0290671, 1.69138, -1.226, -1.53832, -0.900151, -1.19195, 1.22812, -1.30264, 0.00227239, -0.0122379, -0.0102212, -0.00141167, -0.0076196, -0.00021785, -0.000443331, -0.281914, 57.7054, 27.6392, 6.24786, 1.74884, 3.58218, -0.0814099, 0.000880167, -0.00167322, 0.000503169, 0.00099159, 1.98048e-05, 6.67176e-05, 0.00441785, 0.000806876, -0.0112527, -0.0145594, -0.00472631, -0.00325099, 0.471007, -0.543383, 0.335895, -2.08384, -2.16584, -0.129887, 0.469287, -0.542506, 0.335586, -2.08338, -2.16537, -0.1288, -0.000110545, 0.0010348, 0.000277287, -0.0011646, -0.00162768, -0.0114952
0.0300671, 1.69138, -1.22602, -1.53833, -0.900155, -1.19197, 1.22813, -1.30264, 9.02013e-05, -0.0184734, -0.00721745, -0.0014159, -0.00752224, 0.00100968, -0.000532913, -0.206535, 57.7768, 27.4528, 6.24786, 1.79187, 3.54648, -0.0750012, 0.000870724, -0.00167588, 0.000517959, 0.00100223, 2.16727e-05, 7.55645e-05, 0.0055761, 0.00114511, -0.013639, -0.0109874, -0.0106188, -0.00371141, 0.471007, -0.543382, 0.335896, -2.08384, -2.16584, -0.129887, 0.469284, -0.542512, 0.33557, -2.08339, -2.16536, -0.128789, -0.000122588, 0.001148, 0.000307449, -0.00155917, -0.00230449, -0.0139909
0.0310671, 1.69138, -1.22603, -1.53834, -0.900159, -1.19198, 1.22813, -1.30263, -0.00144922, -0.0167748, -0.00851916, -0.00213523, -0.01056, 0.00214118, 0.00134015, -0.131157, 57.7411, 27.417, 6.28357, 1.79828, 3.50345, -0.120778, 0.000863163, -0.0016782, 0.000529537, 0.00101941, 1.67909e-05, 8.97619e-05, 0.00699782, 0.00223431, -0.0130348, -0.0125002, -0.00572263, -0.00814078, 0.471007, -0.543381, 0.335896, -2.08384, -2.16584, -0.129887, 0.469281, -0.542516, 0.335558, -2.08339, -2.16534, -0.128764, -0.000135232, 0.0012669, 0.000339106, -0.00258696, -0.00372671, -0.0135505
0.0320671, 1.69138, -1.22605, -1.53835, -0.900154, -1.192, 1.22814, -1.30263, -0.00253897, -0.0188717, -0.00836652, 7.26834e-05, -0.0133898, 0.0119798, 0.00136815, -0.0557783, 57.8522, 27.3417, 6.20819, 1.81659, 3.46774, -0.133595, 0.000852508, -0.0016824, 0.000540616, 0.00102923, 1.50578e-05, 0.000106714, 0.0100153, 0.00178347, -0.012997, -0.00406953, -0.000808238, -0.0120022, 0.471007, -0.54338, 0.335896, -2.08384, -2.16584, -0.129887, 0.469277, -0.542524, 0.335546, -2.08341, -2.16532, -0.128749, -0.000148472, 0.00139149, 0.000372248, -0.00204069, -0.00656848, -0.0139619
0.0330671, 1.69138, -1.22606, -1.53836, -0.900157, -1.19202, 1.22814, -1.30263, -0.000147601, -0.0199514, -0.0101372, -0.00107986, -0.0147971, 0.00923541, -0.000783322, 0.0196001, 57.9633, 27.3417, 6.24786, 1.81659, 3.45309, -0.0878186, 0.000843533, -0.00168553, 0.000551835, 0.00104457, 8.83611e-06, 0.000115368, 0.00921066, 0.00112749, -0.014799, -0.00964734, -0.00173979, -0.00777563, 0.471007, -0.543379, 0.335897, -2.08384, -2.16584, -0.129888, 0.469273, -0.54253, 0.335534, -2.08341, -2.16531, -0.128725, -0.000162305, 0.00152173, 0.000406866, -0.00149321, -0.00533963, -0.0156015
0.0340671, 1.69139, -1.22606, -1.53837, -0.900151, -1.19204, 1.22814, -1.30263, 0.0043354, -0.0148444, -0.0101985, 0.000893105, -0.0148487, 0.00746659, -0.000996933, -0.0161054, 57.9633, 27.306, 6.17248, 1.79187, 3.43204, -0.0750012, 0.000840119, -0.00168406, 0.000554131, 0.00105695, -5.84086e-06, 0.00011891, 0.00730028, -0.000524131, -0.0119538, -0.010573, 0.00254791, -0.00498857, 0.471007, -0.543377, 0.335897, -2.08384, -2.16584, -0.129888, 0.469275, -0.542531, 0.335531, -2.08341, -2.1653, -0.128696, -0.000176727, 0.00165761, 0.000442951, 0.000176246, -0.00368812, -0.0125093
0.0350671, 1.69139, -1.22607, -1.53837, -0.900151, -1.19205, 1.22815, -1.30264, 0.0026022, -0.0127243, -0.011985, 0.000482736, -0.01453, 0.00618885, -0.00188532, 0.0196001, 58.0347, 27.3417, 6.17248, 1.75525, 3.41006, -0.0420422, 0.000834526, -0.00168362, 0.000559014, 0.00106684, -1.9447e-05, 0.00012038, 0.00806902, 0.000896824, -0.0114349, -0.0128242, 0.00393183, -0.00623157, 0.471007, -0.543375, 0.335898, -2.08384, -2.16584, -0.129888, 0.469275, -0.542534, 0.335526, -2.08342, -2.16531, -0.128671, -0.000191736, 0.0017991, 0.000480493, -0.00121167, -0.00444355, -0.0120358
0.0360671, 1.69139, -1.22607, -1.53837, -0.900149, -1.19207, 1.22815, -1.30264, 0.00690618, -0.0101863, -0.00737292, 0.000237323, -0.0150132, 0.0101702, -0.00149424, 0.0949785, 58.0704, 27.2663, 6.17248, 1.73694, 3.38168, -0.0356336, 0.000828951, -0.00168282, 0.000557911, 0.00106778, -4.05444e-05, 0.000127918, 0.00554604, -0.00302247, -0.00823608, -0.00610805, 0.0087511, -0.000130265, 0.471006, -0.543374, 0.335898, -2.08384, -2.16584, -0.129888, 0.469276, -0.542538, 0.335527, -2.08343, -2.16531, -0.128648, -0.000207328, 0.00194618, 0.000519485, 0.00271223, -0.0021377, -0.00856484
0.0370671, 1.69139, -1.22606, -1.53838, -0.900148, -1.1921, 1.22816, -1.30263, 0.00100108, -0.00744202, -0.00930135, 0.000930057, -0.0199899, 0.00766613, 0.000224542, 0.285408, 58.0704, 27.417, 6.13678, 1.71222, 3.37436, -0.0685925, 0.000819664, -0.00168627, 0.000559194, 0.00108152, -6.71464e-05, 0.000146389, 0.009396, 0.00184177, -0.00713618, -0.0107895, 0.0142774, -0.0109209, 0.471006, -0.543372, 0.335899, -2.08384, -2.16584, -0.129888, 0.469273, -0.542545, 0.335524, -2.08346, -2.1653, -0.128604, -0.0002235, 0.00209882, 0.000559916, -0.00198453, -0.00615418, -0.00788928
0.0380671, 1.6914, -1.22606, -1.53837, -0.900151, -1.19212, 1.22816, -1.30263, 0.00166776, -0.00377928, -0.00424715, 0.000572506, -0.0185187, 0.00530055, -0.00130837, 0.400459, 57.999, 27.306, 6.13678, 1.6756, 3.38168, -0.0292249, 0.000818682, -0.00168373, 0.000552361, 0.00108427, -9.32275e-05, 0.000138783, 0.00721975, 0.000820959, -0.00350294, -0.00768618, 0.0153522, -0.00554152, 0.471006, -0.54337, 0.335899, -2.08384, -2.16584, -0.129888, 0.469275, -0.542545, 0.335532, -2.08346, -2.16532, -0.128576, -0.000240248, 0.00225699, 0.000601779, -0.00092844, -0.00436501, -0.00395287
0.0390671, 1.6914, -1.22606, -1.53838, -0.900156, -1.19214, 1.22816, -1.30263, 0.00149545, -0.00139076, -0.00674863, -0.000489196, -0.0226067, 0.0022858, 0.00129789, 0.551216, 58.0704, 27.4528, 6.17248, 1.65088, 3.42471, -0.0878186, 0.000812514, -0.00168594, 0.00055906, 0.00110923, -0.000109273, 0.000150667, 0.00794049, 0.00216397, -0.0034063, -0.0146501, 0.0199167, -0.00999449, 0.471006, -0.543367, 0.3359, -2.08384, -2.16584, -0.129888, 0.469273, -0.542548, 0.335525, -2.08347, -2.16531, -0.128531, -0.000257569, 0.00242068, 0.000645063, -0.00225778, -0.00498267, -0.00388556
0.0400671, 1.69141, -1.22606, -1.53838, -0.90016, -1.19217, 1.22815, -1.30263, 0.00373891, -0.000102871, -0.00569695, -0.00118809, -0.0214457, -0.000353013, 0.000627904, 0.737679, 58.0347, 27.4885, 6.20819, 1.63898, 3.48239, -0.0814099, 0.00080792, -0.00168673, 0.000557971, 0.0011272, -0.000136254, 0.000153245, 0.00606652, 0.000927365, -0.00274156, -0.01603, 0.0190866, -0.00561087, 0.471005, -0.543365, 0.3359, -2.08384, -2.16584, -0.129889, 0.469272, -0.54255, 0.335526, -2.08347, -2.16531, -0.128484, -0.00027546, 0.00258986, 0.000689759, -0.00108367, -0.00301517, -0.00293091
0.0410671, 1.69141, -1.22606, -1.53838, -0.900154, -1.1922, 1.22815, -1.30263, 0.00350385, -0.000911987, -0.00406995, -0.000487733, -0.0211459, -0.00109199, 0.000418602, 1.00349, 58.0704, 27.4885, 6.0614, 1.64447, 3.51077, -0.0814099, 0.000798188, -0.00169118, 0.000557778, 0.00113725, -0.000157833, 0.000167486, 0.00616019, 0.00100361, -0.00261319, -0.0147807, 0.0175783, -0.00533319, 0.471005, -0.543362, 0.335901, -2.08383, -2.16584, -0.129889, 0.469268, -0.542558, 0.335525, -2.08349, -2.16531, -0.128449, -0.000293917, 0.0027645, 0.00073586, -0.0011703, -0.00295588, -0.0027703
0.0420671, 1.69141, -1.22606, -1.53838, -0.900163, -1.19223, 1.22815, -1.30263, 0.00426832, -0.00237737, -0.00384531, -0.00236254, -0.0244614, -0.00112465, -0.00019565, 1.11457, 58.1458, 27.5281, 6.13678, 1.62616, 3.52542, -0.0685925, 0.000795665, -0.00168682, 0.000561255, 0.00115452, -0.000182436, 0.000156317, 0.00619604, 0.000456281, -0.00371515, -0.0172608, 0.019076, -0.00328569, 0.471005, -0.54336, 0.335902, -2.08383, -2.16584, -0.129889, 0.469272, -0.542557, 0.335522, -2.08348, -2.16532, -0.128406, -0.000312938, 0.00294458, 0.000783355, -0.000681195, -0.00261918, -0.00383297
0.0430671, 1.69142, -1.22606, -1.53838, -0.90016, -1.19226, 1.22815, -1.30263, 0.00587868, 0.00222364, -0.00271653, -0.0021999, -0.0282435, -0.00142025, -0.000367792, 1.305, 58.11, 27.5281, 6.02173, 1.63257, 3.54648, -0.0621838, 0.000788881, -0.00168793, 0.000558065, 0.0011672, -0.000213198, 0.000165249, 0.00576715, -5.93055e-05, -0.000719652, -0.0180517, 0.0266612, -0.00245784, 0.471005, -0.543357, 0.335903, -2.08383, -2.16584, -0.129889, 0.46927, -0.542561, 0.335525, -2.0835, -2.16533, -0.128361, -0.000332518, 0.00313007, 0.000832236, -9.304e-05, -0.00245026, -0.000775247
0.0440671, 1.69143, -1.22606, -1.53839, -0.900159, -1.19229, 1.22815, -1.30264, 0.00640297, -0.00170654, -0.003689, -0.00249051, -0.0310584, -0.00140731, -0.00194062, 1.53114, 58.2568, 27.6035, 5.91064, 1.64447, 3.56112, -0.0164075, 0.00077875, -0.00169033, 0.000565235, 0.00118987, -0.000234625, 0.000172221, 0.00677908, -1.76673e-05, -0.00345774, -0.0207183, 0.0252508, -0.00143878, 0.471004, -0.543354, 0.335903, -2.08383, -2.16584, -0.129889, 0.469268, -0.542567, 0.335517, -2.08351, -2.16532, -0.128313, -0.000352655, 0.00332096, 0.000882495, -0.000217435, -0.00283862, -0.00358445
0.0450671, 1.69144, -1.22606, -1.53839, -0.900155, -1.19233, 1.22815, -1.30263, 0.00950796, -0.00178938, -0.00421583, 0.00119586, -0.0320583, -0.000605392, -0.0015311, 1.64619, 58.2925, 27.6749, 5.76385, 1.62616, 3.5538, -0.00999879, 0.000772725, -0.0016875, 0.000568504, 0.00120785, -0.000260733, 0.000178353, 0.0070948, -0.000893594, -0.00329414, -0.0196507, 0.0262819, -0.00257899, 0.471004, -0.54335, 0.335904, -2.08383, -2.16584, -0.12989, 0.46927, -0.542569, 0.335514, -2.08351, -2.16532, -0.128266, -0.000373345, 0.00351722, 0.000934121, 0.000653866, -0.00294339, -0.00344669
0.0460671, 1.69145, -1.22606, -1.5384, -0.900154, -1.19237, 1.22815, -1.30263, 0.0110006, -0.00105527, -0.00380311, 0.00212737, -0.0299241, -0.00117124, -0.000783376, 1.79694, 58.2925, 27.7146, 5.68848, 1.65729, 3.57577, -0.0164075, 0.000766847, -0.00168525, 0.000569248, 0.00123166, -0.000296668, 0.000182863, 0.0062794, -0.00173376, -0.00273638, -0.0184819, 0.0250197, -0.0017492, 0.471004, -0.543347, 0.335905, -2.08383, -2.16583, -0.12989, 0.469272, -0.542571, 0.335513, -2.08352, -2.16533, -0.128203, -0.000394586, 0.00371881, 0.000987107, 0.00146268, -0.00198828, -0.00274173
0.0470671, 1.69147, -1.22606, -1.5384, -0.900144, -1.19241, 1.22815, -1.30263, 0.012005, -0.00236352, -0.00341903, 0.00227965, -0.0369421, -0.00125483, 0.000189826, 1.9477, 58.3679, 27.7503, 5.50201, 1.66919, 3.58951, -0.0356336, 0.000759252, -0.00168282, 0.000571636, 0.00125067, -0.000326775, 0.000191999, 0.00751655, -0.00156362, -0.00342691, -0.0216462, 0.0295133, -0.00399252, 0.471003, -0.543343, 0.335906, -2.08382, -2.16583, -0.12989, 0.469275, -0.542574, 0.33551, -2.08354, -2.16533, -0.128151, -0.000416373, 0.00392573, 0.00104144, 0.00129029, -0.00290337, -0.00355614
0.0480671, 1.69148, -1.22606, -1.53841, -0.900142, -1.19245, 1.22815, -1.30263, 0.00868988, 0.000264987, -0.00491412, 0.00193954, -0.0379279, -0.00162439, 0.00134725, 2.13416, 58.2925, 27.8614, 5.46234, 1.69391, 3.61148, -0.0685925, 0.000752039, -0.0016803, 0.000572854, 0.00127601, -0.000367147, 0.000200262, 0.00932504, 0.000694521, -0.00233919, -0.0231267, 0.0328831, -0.00920537, 0.471003, -0.543339, 0.335907, -2.08382, -2.16583, -0.129891, 0.469277, -0.542577, 0.335509, -2.08355, -2.16533, -0.128081, -0.000438704, 0.00413795, 0.00109712, -0.000883316, -0.00473639, -0.00263907
0.0490671, 1.6915, -1.22606, -1.53841, -0.900133, -1.19249, 1.22815, -1.30262, 0.0142014, -0.00152851, -0.00423133, 0.00434552, -0.0384359, -0.00184335, 0.00161025, 2.24921, 58.3679, 27.9011, 5.31555, 1.71222, 3.63254, -0.0878186, 0.000744315, -0.00167615, 0.000575037, 0.00129097, -0.000398819, 0.000207272, 0.00792154, -0.0019315, -0.00314749, -0.0227809, 0.0314214, -0.00592264, 0.471002, -0.543335, 0.335908, -2.08382, -2.16583, -0.129891, 0.469281, -0.54258, 0.335507, -2.08356, -2.16534, -0.128032, -0.000461575, 0.00435543, 0.00115413, 0.00163705, -0.00290143, -0.00324152
0.0500671, 1.69152, -1.22606, -1.53841, -0.900123, -1.19253, 1.22815, -1.30262, 0.0165494, -0.000975454, -0.00451174, 0.00437436, -0.0440707, -0.00175683, 0.000598779, 2.43568, 58.3679, 27.9725, 5.24017, 1.74335, 3.64718, -0.0750012, 0.000734417, -0.00167464, 0.000577036, 0.00131459, -0.00043777, 0.000216032, 0.00824774, -0.0025802, -0.00305482, -0.0258427, 0.0368228, -0.00463421, 0.471002, -0.543331, 0.335909, -2.08382, -2.16583, -0.129891, 0.469282, -0.542585, 0.335504, -2.08358, -2.16534, -0.127966, -0.000484983, 0.00457817, 0.00121247, 0.00227652, -0.00298845, -0.00316188
0.0510671, 1.69154, -1.22607, -1.53842, -0.900122, -1.19258, 1.22815, -1.30262, 0.0183998, -0.00171607, -0.00395116, 0.00497713, -0.0484732, -0.00166889, -7.55316e-05, 2.62611, 58.5504, 28.0121, 5.27588, 1.77997, 3.66092, -0.0621838, 0.000725435, -0.00166997, 0.000586695, 0.00134095, -0.000469487, 0.00021947, 0.00867405, -0.00313235, -0.00331864, -0.0273512, 0.0398098, -0.00383433, 0.471001, -0.543326, 0.335911, -2.08382, -2.16583, -0.129892, 0.469286, -0.542588, 0.335494, -2.08358, -2.16534, -0.127905, -0.000508925, 0.00480613, 0.00127212, 0.00280974, -0.00311814, -0.00344556
0.0520671, 1.69156, -1.22607, -1.53842, -0.900116, -1.19263, 1.22815, -1.30263, 0.0166905, -0.000855343, -0.00348081, 0.00742471, -0.0514766, -0.00110438, -0.00174578, 2.81654, 58.5504, 28.0478, 5.24017, 1.81018, 3.66092, -0.0164075, 0.000717186, -0.00166679, 0.000588428, 0.00136577, -0.000509325, 0.000216964, 0.0108721, -0.00147539, -0.00218939, -0.0263093, 0.0432174, -0.00677053, 0.471001, -0.543321, 0.335912, -2.08381, -2.16583, -0.129892, 0.469289, -0.542591, 0.335493, -2.08359, -2.16536, -0.127837, -0.000533398, 0.00503929, 0.00133308, 0.00124984, -0.00529663, -0.00256081
0.0530671, 1.69158, -1.22607, -1.53842, -0.900113, -1.19268, 1.22815, -1.30263, 0.0153701, -0.000353701, -0.0040924, 0.00528802, -0.0532695, -0.00100136, -0.000926491, 3.003, 58.5504, 28.1232, 5.24017, 1.82941, 3.66824, -0.0228162, 0.000708398, -0.00166274, 0.000591205, 0.00139164, -0.000552658, 0.00022085, 0.0115162, -0.000929007, -0.00235224, -0.0283189, 0.0455382, -0.00790779, 0.471, -0.543316, 0.335913, -2.08381, -2.16583, -0.129892, 0.469293, -0.542594, 0.33549, -2.0836, -2.16537, -0.127765, -0.000558399, 0.00527762, 0.00139533, 0.00069632, -0.00569145, -0.00274288
0.0540671, 1.6916, -1.22607, -1.53843, -0.900107, -1.19273, 1.22816, -1.30263, 0.0203582, 0.000761813, -0.00356994, 0.00782369, -0.0493795, -0.000391684, -0.00085502, 3.07838, 58.5147, 28.1589, 5.2005, 1.8349, 3.66092, -0.0164075, 0.000701327, -0.00165389, 0.000589763, 0.00141161, -0.000608315, 0.000222145, 0.00938337, -0.00380032, -0.00139387, -0.0249535, 0.0437793, -0.00371498, 0.471, -0.543311, 0.335915, -2.08381, -2.16583, -0.129893, 0.469302, -0.542595, 0.335491, -2.08361, -2.16539, -0.127686, -0.000583923, 0.00552111, 0.00145888, 0.00349674, -0.00337237, -0.00148855
0.0550671, 1.69162, -1.22607, -1.53842, -0.900101, -1.19278, 1.22816, -1.30262, 0.0230073, -0.000205546, -0.00154959, 0.0073362, -0.0507978, -2.02981e-05, 0.000379423, 3.19343, 58.5504, 28.1232, 5.12909, 1.82941, 3.65451, -0.0420422, 0.000693121, -0.00164751, 0.000590511, 0.00143022, -0.000653063, 0.000226848, 0.00830944, -0.0056946, -0.00144447, -0.0242059, 0.0442749, -0.00137097, 0.470999, -0.543305, 0.335916, -2.08381, -2.16583, -0.129893, 0.469308, -0.542598, 0.33549, -2.08363, -2.1654, -0.12762, -0.000609969, 0.00576973, 0.0015237, 0.00532228, -0.00197821, -0.00136413
0.0560671, 1.69163, -1.22607, -1.53842, -0.900099, -1.19284, 1.22817, -1.30263, 0.0181286, 0.000789535, -0.000201477, 0.00522827, -0.0468096, -0.000248292, -0.000459128, 3.45527, 58.5147, 28.0875, 5.12909, 1.81018, 3.66092, -0.0228162, 0.00068096, -0.00164671, 0.00058853, 0.00144895, -0.000703667, 0.000234239, 0.00892381, -0.0040728, -0.000463813, -0.0214892, 0.041957, -0.00151397, 0.470999, -0.5433, 0.335918, -2.0838, -2.16583, -0.129894, 0.469308, -0.542604, 0.335492, -2.08365, -2.16541, -0.127548, -0.000636533, 0.00602345, 0.0015898, 0.00373341, -0.00254834, -0.000376201
0.0570671, 1.69166, -1.22608, -1.53842, -0.900095, -1.19289, 1.22817, -1.30262, 0.0208581, -0.00200359, -0.000972262, 0.00776983, -0.0480692, 0.00455571, 0.00064335, 3.45527, 58.6258, 28.1232, 5.08942, 1.77997, 3.66092, -0.0484509, 0.000674144, -0.00163641, 0.00059518, 0.00147392, -0.000745094, 0.000231643, 0.00990658, -0.00570737, -0.00177151, -0.0179778, 0.0426166, -0.00286314, 0.470998, -0.543294, 0.335919, -2.0838, -2.16582, -0.129894, 0.469318, -0.542603, 0.335486, -2.08365, -2.16543, -0.127479, -0.000663611, 0.00628226, 0.00165716, 0.00532671, -0.00299153, -0.00180196
0.0580671, 1.69169, -1.22608, -1.53842, -0.900087, -1.19295, 1.22818, -1.30262, 0.022627, 0.00188237, 0.00111302, 0.00822677, -0.0542445, 0.00366924, 0.00117489, 3.45527, 58.6258, 28.0478, 4.97833, 1.76166, 3.65451, -0.0685925, 0.000667989, -0.00162504, 0.000593959, 0.00149106, -0.00079794, 0.00022821, 0.00985568, -0.00605515, 0.00111867, -0.0194875, 0.0511134, -0.00316417, 0.470997, -0.543287, 0.335921, -2.0838, -2.16582, -0.129894, 0.469329, -0.542603, 0.335487, -2.08366, -2.16545, -0.127407, -0.000691201, 0.00654612, 0.00172578, 0.00574904, -0.00310812, 0.00111786
0.0590671, 1.69172, -1.22608, -1.53842, -0.900081, -1.19302, 1.22818, -1.30262, 0.0220878, -0.00011309, -0.000187541, 0.00758408, -0.059587, 0.00250485, 0.00545813, 3.53065, 58.6972, 28.0875, 4.90295, 1.76166, 3.66092, -0.0685925, 0.000655095, -0.00162036, 0.000598592, 0.0015196, -0.000850963, 0.000234971, 0.0115783, -0.00490782, -0.000701286, -0.0244657, 0.0531812, -0.00977721, 0.470997, -0.543281, 0.335923, -2.0838, -2.16582, -0.129895, 0.469333, -0.542608, 0.335482, -2.08368, -2.16546, -0.127321, -0.0007193, 0.00681502, 0.00179564, 0.00457097, -0.00430657, -0.000842171
0.0600671, 1.69174, -1.22608, -1.53842, -0.900074, -1.19308, 1.22819, -1.30263, 0.0213089, 0.00015143, -0.000126177, 0.010294, -0.0589339, 0.0021293, 0.00233291, 3.60603, 58.6972, 28.0875, 4.82758, 1.76807, 3.65451, -0.0228162, 0.000642497, -0.00161425, 0.000598683, 0.00153992, -0.000910167, 0.000235986, 0.0128032, -0.00389573, -0.00016657, -0.0229579, 0.0525862, -0.00952571, 0.470996, -0.543274, 0.335924, -2.08379, -2.16582, -0.129895, 0.469339, -0.542614, 0.335482, -2.0837, -2.16549, -0.127239, -0.000747904, 0.00708893, 0.00186675, 0.00359472, -0.00536569, -0.000402749
0.0610671, 1.69177, -1.22609, -1.53842, -0.900069, -1.19315, 1.2282, -1.30263, 0.0185435, -0.00936424, -8.49807e-05, 0.00732042, -0.0581812, 0.00666416, 0.00110147, 3.6457, 58.844, 28.0875, 4.82758, 1.76166, 3.64718, -0.00267457, 0.000629433, -0.00160603, 0.000606496, 0.00156378, -0.000961558, 0.000236157, 0.0146537, -0.0041228, -0.0056373, -0.0203652, 0.0450399, -0.00794925, 0.470995, -0.543267, 0.335926, -2.08379, -2.16582, -0.129896, 0.469347, -0.542618, 0.335474, -2.08371, -2.16551, -0.127161, -0.00077701, 0.00736784, 0.00193908, 0.00366093, -0.00606208, -0.00602647
0.0620671, 1.69179, -1.22609, -1.53842, -0.90006, -1.19322, 1.22821, -1.30263, 0.0236678, -0.00579683, -5.73007e-05, 0.00689401, -0.0577624, 0.0104901, 0.000953445, 3.6457, 58.8083, 28.0875, 4.75616, 1.76166, 3.62521, -0.00267457, 0.000617219, -0.00159777, 0.000605706, 0.00158732, -0.00102854, 0.000240172, 0.0125158, -0.00780106, -0.00355214, -0.0174688, 0.050475, -0.00225052, 0.470994, -0.543259, 0.335928, -2.08379, -2.16582, -0.129897, 0.469355, -0.542622, 0.335474, -2.08373, -2.16553, -0.127067, -0.000806615, 0.0076517, 0.00201263, 0.0073037, -0.00383808, -0.0036731
0.0630671, 1.69182, -1.2261, -1.53842, -0.900053, -1.19329, 1.22822, -1.30263, 0.0236128, -0.0059197, -3.86856e-05, 0.00485348, -0.0629626, 0.0124529, 0.00130861, 3.6814, 58.8837, 28.0875, 4.75616, 1.77997, 3.62521, -0.0164075, 0.000603584, -0.0015905, 0.000608033, 0.00161137, -0.00109004, 0.000246918, 0.0134742, -0.00802551, -0.00375098, -0.0190897, 0.055899, -0.00258001, 0.470993, -0.543252, 0.33593, -2.08378, -2.16582, -0.129897, 0.469361, -0.542627, 0.335472, -2.08375, -2.16555, -0.126978, -0.000836715, 0.00794051, 0.00208739, 0.00752485, -0.00445559, -0.00395029
0.0640671, 1.69185, -1.2261, -1.53842, -0.900048, -1.19336, 1.22823, -1.30262, 0.0273987, -0.00500062, 0.000901866, 0.00259354, -0.0648546, 0.0144961, 0.0019451, 3.6814, 58.9194, 28.0478, 4.79187, 1.74884, 3.61148, -0.0420422, 0.000592229, -0.00158021, 0.000608909, 0.00163278, -0.00115444, 0.000248334, 0.0117301, -0.0109853, -0.0032383, -0.0189036, 0.0597734, 0.00232939, 0.470993, -0.543244, 0.335932, -2.08378, -2.16582, -0.129898, 0.469371, -0.54263, 0.335471, -2.08377, -2.16557, -0.126889, -0.000867309, 0.00823424, 0.00216336, 0.0104064, -0.00239776, -0.00318666
0.0650671, 1.69188, -1.22609, -1.53842, -0.900047, -1.19343, 1.22824, -1.30262, 0.0269356, -0.00173471, -0.000327049, 0.000110613, -0.0676467, 0.0153338, 0.00237253, 3.6814, 58.844, 28.0875, 4.86725, 1.74884, 3.6188, -0.0685925, 0.00057965, -0.0015721, 0.000609203, 0.00166237, -0.00122546, 0.000255994, 0.0120934, -0.0108648, -0.00202834, -0.0213316, 0.0661582, 0.0020584, 0.470992, -0.543236, 0.335935, -2.08378, -2.16581, -0.129898, 0.469379, -0.542634, 0.33547, -2.0838, -2.16559, -0.126784, -0.000898392, 0.00853286, 0.00224052, 0.0103116, -0.00264907, -0.00196759
0.0660671, 1.6919, -1.22609, -1.53842, -0.900041, -1.1935, 1.22824, -1.30262, 0.0256509, -0.00127962, -0.000218237, -0.000652856, -0.0685685, 0.0161731, 0.00141366, 3.72108, 58.844, 28.0875, 4.90295, 1.71863, 3.6188, -0.0621838, 0.00056382, -0.00156659, 0.000609435, 0.00168756, -0.00129405, 0.000264931, 0.0129541, -0.0103967, -0.00171492, -0.0210094, 0.0679486, 0.00217974, 0.470991, -0.543227, 0.335937, -2.08377, -2.16581, -0.129899, 0.469384, -0.542641, 0.33547, -2.08382, -2.16561, -0.126687, -0.000929962, 0.00883635, 0.00231887, 0.00985468, -0.00326263, -0.00169933
0.0670671, 1.69192, -1.22608, -1.53843, -0.900037, -1.19359, 1.22826, -1.30262, 0.0225588, 0.00165301, -0.000980863, 0.00186634, -0.0698558, 0.0160203, 0.000485817, 3.72108, 58.7329, 28.1232, 4.94263, 1.70581, 3.63986, -0.0484509, 0.000547776, -0.00156047, 0.000606391, 0.0017178, -0.0013779, 0.000272178, 0.0155106, -0.00776001, 0.000208855, -0.0204334, 0.0717286, -0.00297588, 0.47099, -0.543218, 0.335939, -2.08377, -2.16581, -0.1299, 0.46939, -0.542648, 0.335472, -2.08385, -2.16563, -0.126568, -0.000962015, 0.00914469, 0.0023984, 0.00735039, -0.0058823, -3.76627e-05
0.0680671, 1.69195, -1.22609, -1.53842, -0.900025, -1.19366, 1.22826, -1.30262, 0.023995, 0.000104716, 0.00110921, 0.00555086, -0.0697574, 0.0117949, -0.00133254, 3.6814, 58.7726, 28.0478, 4.90295, 1.66369, 3.64718, -0.00267457, 0.00053277, -0.0015512, 0.000607433, 0.00173781, -0.00144417, 0.000271648, 0.0155401, -0.00739846, 7.47228e-05, -0.0207802, 0.0677489, -0.00187486, 0.470989, -0.543209, 0.335941, -2.08376, -2.16581, -0.1299, 0.469399, -0.542653, 0.335471, -2.08387, -2.16566, -0.126479, -0.000994548, 0.00945786, 0.0024791, 0.00695299, -0.00559231, -8.3136e-05
0.0690671, 1.69199, -1.22608, -1.53843, -0.900016, -1.19375, 1.22828, -1.30262, 0.021913, 0.00261631, -0.00018863, 0.00731196, -0.0706353, 0.00863143, -0.000350484, 3.6457, 58.6615, 28.0875, 4.90295, 1.64447, 3.65451, -0.0164075, 0.000516402, -0.00154295, 0.000604425, 0.00176514, -0.00152893, 0.000281215, 0.0171908, -0.00490718, 0.0011379, -0.0236465, 0.0694244, -0.00739455, 0.470988, -0.5432, 0.335944, -2.08376, -2.16581, -0.129901, 0.469407, -0.54266, 0.335474, -2.08391, -2.16569, -0.126363, -0.00102756, 0.00977584, 0.00256097, 0.00452943, -0.00716966, 0.000867342
0.0700671, 1.69201, -1.22608, -1.53842, -0.900014, -1.19383, 1.22829, -1.30262, 0.0235833, 0.00170524, 0.000802202, 0.00607523, -0.0759468, 0.0111109, -0.000957703, 3.60603, 58.6615, 28.0478, 5.01404, 1.62616, 3.66092, 0.00373412, 0.000501523, -0.0015333, 0.000604208, 0.00179357, -0.00160901, 0.000279591, 0.0176041, -0.00618996, 0.000884958, -0.0239634, 0.0743462, -0.00531274, 0.470987, -0.54319, 0.335947, -2.08375, -2.1658, -0.129902, 0.469416, -0.542664, 0.335474, -2.08393, -2.16572, -0.126251, -0.00106104, 0.0100986, 0.00264398, 0.00578273, -0.00716345, 0.00059763
0.0710671, 1.69205, -1.22608, -1.53842, -0.900004, -1.19392, 1.2283, -1.30262, 0.0294702, 0.00287084, 0.00136997, 0.00562356, -0.0799755, 0.00839318, -0.000622015, 3.49494, 58.5861, 28.0121, 4.97833, 1.60785, 3.66092, 0.00373412, 0.000485966, -0.00152355, 0.000601248, 0.00182077, -0.00169274, 0.000284313, 0.0154796, -0.0087451, 0.00113181, -0.0286716, 0.0778084, -0.000513794, 0.470986, -0.54318, 0.335949, -2.08375, -2.1658, -0.129903, 0.469425, -0.54267, 0.335477, -2.08396, -2.16575, -0.126136, -0.001095, 0.0104261, 0.00272814, 0.00823353, -0.00467197, 0.0011782
0.0720671, 1.69208, -1.22608, -1.53843, -0.900001, -1.19401, 1.22831, -1.30262, 0.03141, 0.000963957, -0.0025204, 0.00253944, -0.0834662, 0.00657224, 0.000343649, 3.49494, 58.6258, 28.1589, 5.05371, 1.60785, 3.65451, -0.0164075, 0.000466549, -0.00151644, 0.000607155, 0.00186135, -0.00177369, 0.000295521, 0.0155397, -0.00917004, -0.00208466, -0.0371451, 0.0786161, 0.000156278, 0.470985, -0.543169, 0.335952, -2.08374, -2.1658, -0.129903, 0.469432, -0.542677, 0.335471, -2.08398, -2.16577, -0.126008, -0.00112942, 0.0107583, 0.00281344, 0.00850937, -0.00388634, -0.00193473
0.0730671, 1.69211, -1.22608, -1.53842, -0.899991, -1.1941, 1.22832, -1.30262, 0.032273, 0.000626199, 0.000918164, 0.00515159, -0.0861698, 0.0097203, 0.00193378, 3.37989, 58.6258, 28.0478, 5.05371, 1.60785, 3.65451, -0.0621838, 0.000450089, -0.00150482, 0.000604665, 0.00188449, -0.00186061, 0.000302876, 0.0164553, -0.00997703, -0.000500777, -0.0315193, 0.0817887, -0.00208207, 0.470984, -0.543159, 0.335955, -2.08374, -2.1658, -0.129904, 0.469443, -0.542683, 0.335473, -2.08402, -2.1658, -0.125895, -0.00116431, 0.0110953, 0.00289987, 0.00937046, -0.00466411, -0.000450979
0.0740671, 1.69215, -1.22608, -1.53842, -0.899979, -1.19419, 1.22833, -1.30262, 0.0349922, -0.00171868, 0.00144731, 0.00816163, -0.0929351, 0.00705745, 0.000787499, 3.30451, 58.5861, 28.0121, 5.01404, 1.60785, 3.66092, -0.0484509, 0.000432388, -0.00149493, 0.000602442, 0.0019126, -0.00194762, 0.00030789, 0.0176661, -0.0097404, -0.00167773, -0.0356469, 0.0836252, -0.0028318, 0.470983, -0.543147, 0.335958, -2.08373, -2.1658, -0.129905, 0.469452, -0.542689, 0.335475, -2.08405, -2.16583, -0.125775, -0.00119966, 0.0114369, 0.00298742, 0.00909956, -0.00534618, -0.00170653
0.0750671, 1.69219, -1.22609, -1.53842, -0.899971, -1.19429, 1.22835, -1.30262, 0.0370226, -0.00484302, 0.000964856, 0.00613438, -0.0928708, 0.0105289, 0.00103883, 3.22913, 58.7329, 28.0121, 5.01404, 1.59595, 3.64718, -0.0621838, 0.000413292, -0.00148316, 0.000609914, 0.00194478, -0.00202594, 0.000313098, 0.0172653, -0.011972, -0.00379902, -0.0344975, 0.082621, 0.000579506, 0.470981, -0.543136, 0.335961, -2.08373, -2.16579, -0.129906, 0.469463, -0.542695, 0.335467, -2.08407, -2.16585, -0.125661, -0.00123547, 0.0117833, 0.00307608, 0.0112014, -0.0041861, -0.0037177
0.0760671, 1.69222, -1.22608, -1.53842, -0.899963, -1.19438, 1.22836, -1.30262, 0.0328475, -0.00175592, 0.000643226, 0.00368154, -0.0931003, 0.00814082, 0.0004591, 3.26881, 58.6615, 28.0121, 5.05371, 1.58954, 3.63986, -0.0557752, 0.000391232, -0.00147601, 0.0006079, 0.00197322, -0.00212088, 0.000324539, 0.018325, -0.00962616, -0.00245989, -0.0371586, 0.0849828, -0.00107656, 0.47098, -0.543124, 0.335964, -2.08372, -2.16579, -0.129907, 0.46947, -0.542705, 0.335469, -2.08411, -2.16588, -0.125532, -0.00127174, 0.0121342, 0.00316585, 0.00890872, -0.0051836, -0.0023995
0.0770671, 1.69226, -1.22608, -1.53842, -0.899948, -1.19448, 1.22837, -1.30262, 0.0380891, -0.000483652, 0.000428809, 0.0108676, -0.0930239, 0.00633617, -0.00138643, 3.07838, 58.6258, 28.0121, 4.97833, 1.57764, 3.63254, -0.00999879, 0.000374485, -0.00146128, 0.000606666, 0.00200652, -0.0022162, 0.000321452, 0.018214, -0.0106038, -0.00125789, -0.0361047, 0.0850073, -0.000418848, 0.470979, -0.543112, 0.335967, -2.08372, -2.16579, -0.129908, 0.469484, -0.542709, 0.33547, -2.08413, -2.16592, -0.1254, -0.00130846, 0.0124898, 0.00325671, 0.00988788, -0.00486347, -0.00113417
0.0780671, 1.6923, -1.22608, -1.53842, -0.899941, -1.19458, 1.22839, -1.30262, 0.0353432, -0.00126884, 0.00121389, 0.0104383, -0.0929877, 0.005211, -0.00143071, 3.04267, 58.6615, 27.9725, 5.01404, 1.57764, 3.6188, 0.00373412, 0.000355611, -0.0014479, 0.000608853, 0.00203178, -0.0023031, 0.000321282, 0.0194637, -0.00913456, -0.00148729, -0.03616, 0.0837164, -0.00227603, 0.470978, -0.5431, 0.33597, -2.08371, -2.16579, -0.129909, 0.469497, -0.542714, 0.335468, -2.08416, -2.16596, -0.125285, -0.00134563, 0.01285, 0.00334867, 0.00841983, -0.00576183, -0.00141856
0.0790671, 1.69235, -1.22609, -1.53841, -0.899939, -1.19467, 1.2284, -1.30262, 0.0389556, -0.00176451, 0.00164447, 0.00832031, -0.0928954, 0.0137915, 0.00370991, 2.89191, 58.6972, 27.9368, 5.12909, 1.56482, 3.60415, 0.00373412, 0.000341944, -0.00142976, 0.000610821, 0.00206588, -0.00239419, 0.000310506, 0.0184378, -0.0133268, -0.00138859, -0.0298134, 0.0878483, -0.00170216, 0.470976, -0.543087, 0.335973, -2.08371, -2.16578, -0.129909, 0.469514, -0.542714, 0.335467, -2.08417, -2.16601, -0.125157, -0.00138324, 0.0132147, 0.0034417, 0.0125359, -0.00422767, -0.00119549
0.0800671, 1.69239, -1.22608, -1.53842, -0.899925, -1.19477, 1.22842, -1.30262, 0.0389617, -0.000403666, -0.000666928, 0.0106092, -0.0934022, 0.0145313, 0.00384636, 2.85224, 58.6615, 28.0121, 5.08942, 1.56482, 3.6188, -0.0228162, 0.000320662, -0.00141847, 0.000612558, 0.00210243, -0.00248825, 0.000322255, 0.0200229, -0.0124911, -0.00105735, -0.0301584, 0.0901141, -0.00510881, 0.470975, -0.543074, 0.335977, -2.0837, -2.16578, -0.12991, 0.469525, -0.542721, 0.335465, -2.0842, -2.16603, -0.12502, -0.0014213, 0.013584, 0.0035358, 0.0117319, -0.00550843, -0.000995395
0.0810671, 1.69243, -1.22609, -1.53842, -0.899922, -1.19487, 1.22843, -1.30262, 0.034973, -0.00198646, 0.000483399, 0.00866236, -0.0982317, 0.0103713, 0.00380598, 2.85224, 58.7329, 27.9725, 5.2005, 1.55932, 3.63254, -0.0484509, 0.000303336, -0.00140254, 0.000616527, 0.00213292, -0.00257565, 0.000319522, 0.0220363, -0.00963965, -0.00203521, -0.0353895, 0.0905924, -0.00831396, 0.470973, -0.54306, 0.33598, -2.08369, -2.16578, -0.129911, 0.469539, -0.542723, 0.335461, -2.08422, -2.16607, -0.124899, -0.0014598, 0.0139578, 0.00363097, 0.00888239, -0.0070884, -0.00209247
0.0820671, 1.69248, -1.22609, -1.53842, -0.89991, -1.19497, 1.22844, -1.30262, 0.0380173, 0.00031095, -0.000605756, 0.0075992, -0.0974377, 0.0118263, 0.00251919, 2.73719, 58.6615, 28.0121, 5.16479, 1.56482, 3.65451, -0.0420422, 0.00028529, -0.00138645, 0.000615738, 0.00216956, -0.0026774, 0.000318571, 0.0207613, -0.0117347, -0.00128392, -0.0354182, 0.0933962, -0.0033532, 0.470972, -0.543046, 0.335984, -2.08369, -2.16578, -0.129913, 0.469555, -0.542726, 0.335462, -2.08425, -2.16611, -0.124756, -0.00149874, 0.0143362, 0.00372719, 0.0109174, -0.00548122, -0.00111985
0.0830671, 1.69251, -1.2261, -1.53842, -0.899903, -1.19507, 1.22846, -1.30262, 0.0366636, -0.00241754, -0.000403839, 0.00721266, -0.101191, 0.00895756, 0.00282723, 2.77686, 58.7726, 28.0121, 5.24017, 1.55932, 3.65451, -0.0685925, 0.000261972, -0.00137521, 0.000623461, 0.00220484, -0.00276328, 0.000327378, 0.0223038, -0.0102253, -0.00308133, -0.0396155, 0.092501, -0.00574187, 0.47097, -0.543032, 0.335988, -2.08368, -2.16577, -0.129914, 0.469565, -0.542733, 0.335454, -2.08428, -2.16613, -0.12463, -0.00153811, 0.014719, 0.00382447, 0.00936073, -0.00640609, -0.00299147
0.0840671, 1.69256, -1.22609, -1.53842, -0.899898, -1.19518, 1.22847, -1.30262, 0.0406805, -0.000703465, 0.00149401, 0.007909, -0.100615, 0.0101513, 0.00126215, 2.73719, 58.7329, 27.9368, 5.27588, 1.58954, 3.69021, -0.0484509, 0.000245191, -0.00135929, 0.000620576, 0.00223625, -0.00286138, 0.000319495, 0.0205762, -0.0129374, -0.0014461, -0.0367223, 0.0944564, 0.000290093, 0.470969, -0.543017, 0.335992, -2.08367, -2.16577, -0.129915, 0.46958, -0.542735, 0.335458, -2.08429, -2.16618, -0.124498, -0.00157792, 0.0151063, 0.00392278, 0.0120269, -0.00445407, -0.00109233
0.0850671, 1.6926, -1.2261, -1.53843, -0.899889, -1.19527, 1.22848, -1.30262, 0.0436459, -0.000483819, -0.00160245, 0.00830574, -0.0989802, 0.0119418, -0.00123622, 2.70148, 58.7329, 28.0478, 5.31555, 1.59595, 3.70395, 0.0101428, 0.000223644, -0.00134572, 0.000627641, 0.0022773, -0.00295036, 0.000319156, 0.0202665, -0.0145034, -0.00239257, -0.037293, 0.0946724, 0.00446443, 0.470967, -0.543002, 0.335996, -2.08367, -2.16577, -0.129916, 0.469593, -0.54274, 0.335451, -2.08431, -2.16622, -0.124363, -0.00161815, 0.015498, 0.00402212, 0.0135053, -0.00354656, -0.00192693
0.0860671, 1.69265, -1.22609, -1.53843, -0.899879, -1.19537, 1.22849, -1.30262, 0.046029, -0.000333678, -0.0010683, 0.00964922, -0.0984184, 0.0133325, -0.000280062, 2.66181, 58.7329, 28.0478, 5.31555, 1.61426, 3.7186, -0.00267457, 0.000204796, -0.0013303, 0.000628942, 0.00231297, -0.00304282, 0.000316591, 0.0199212, -0.0159772, -0.00196716, -0.0349959, 0.0951667, 0.00516519, 0.470966, -0.542986, 0.336, -2.08366, -2.16576, -0.129917, 0.469607, -0.542742, 0.335451, -2.08433, -2.16625, -0.124231, -0.00165881, 0.0158942, 0.00412249, 0.0149396, -0.00281461, -0.00139761
0.0870671, 1.6927, -1.2261, -1.53842, -0.899864, -1.19547, 1.22851, -1.30262, 0.0485907, -0.000230801, -0.000712201, 0.0114904, -0.0970852, 0.0149498, 0.000848661, 2.58643, 58.7329, 28.0478, 5.27588, 1.60785, 3.7186, -0.0292249, 0.00018542, -0.00131145, 0.000630085, 0.00234071, -0.00313857, 0.000315559, 0.0195608, -0.0175382, -0.00155415, -0.0320923, 0.0950695, 0.00560921, 0.470964, -0.542971, 0.336004, -2.08365, -2.16576, -0.129918, 0.469625, -0.542744, 0.33545, -2.08435, -2.1663, -0.124104, -0.0016999, 0.0162947, 0.00422387, 0.0164595, -0.00205783, -0.000879818
0.0880671, 1.69275, -1.2261, -1.53842, -0.89986, -1.19558, 1.22852, -1.30262, 0.047546, -0.00108815, 0.00128844, 0.00928996, -0.0971109, 0.0157368, -0.00109063, 2.51106, 58.7726, 27.9725, 5.38696, 1.62616, 3.72592, 0.0165515, 0.000167664, -0.00129297, 0.0006332, 0.00237664, -0.0032322, 0.000301057, 0.0195404, -0.017981, -0.00156582, -0.0305524, 0.0948561, 0.0094498, 0.470962, -0.542954, 0.336008, -2.08364, -2.16576, -0.129919, 0.469642, -0.542744, 0.335448, -2.08436, -2.16635, -0.123972, -0.0017414, 0.0166996, 0.00432627, 0.0168591, -0.00161278, -0.000799373
0.0890671, 1.69279, -1.2261, -1.53843, -0.899849, -1.19567, 1.22853, -1.30262, 0.0481136, -0.00156535, -0.00090428, 0.0103147, -0.0966118, 0.0160455, 0.00076024, 2.51106, 58.8083, 28.0478, 5.38696, 1.63257, 3.74057, -0.0228162, 0.000146368, -0.00127763, 0.000638332, 0.00241311, -0.00332057, 0.000308581, 0.0204484, -0.0178343, -0.00251924, -0.03153, 0.0943995, 0.00642215, 0.470961, -0.542938, 0.336012, -2.08364, -2.16575, -0.129921, 0.469656, -0.542747, 0.335443, -2.08439, -2.16637, -0.123842, -0.00178332, 0.0171089, 0.00442966, 0.0166687, -0.0019589, -0.00177421
0.0900671, 1.69285, -1.22609, -1.53843, -0.899839, -1.19576, 1.22854, -1.30262, 0.0486895, 0.00155137, -0.000602854, 0.0111032, -0.0948637, 0.0163223, 0.000766133, 2.3603, 58.6972, 28.0478, 5.38696, 1.60785, 3.7543, -0.0292249, 0.000131278, -0.00125738, 0.00063477, 0.00244599, -0.00341827, 0.000299234, 0.0201752, -0.0182538, -0.0005139, -0.0295828, 0.0963424, 0.00700479, 0.470959, -0.54292, 0.336017, -2.08363, -2.16575, -0.129922, 0.469675, -0.542745, 0.335448, -2.0844, -2.16642, -0.123709, -0.00182565, 0.0175225, 0.00453405, 0.0171082, -0.00156736, 0.000339779
0.0910671, 1.6929, -1.22609, -1.53842, -0.899829, -1.19586, 1.22854, -1.30261, 0.0485127, 0.00270204, 0.000433315, 0.00842984, -0.0954611, 0.0112669, 0.00198528, 2.3603, 58.6258, 28.0121, 5.38696, 1.62616, 3.7836, -0.0685925, 0.000112997, -0.00124107, 0.000634363, 0.00248369, -0.00351081, 0.000298268, 0.0191596, -0.01795, -0.000311519, -0.0344087, 0.0958513, 0.00825417, 0.470957, -0.542903, 0.336021, -2.08362, -2.16575, -0.129923, 0.46969, -0.542744, 0.33545, -2.08442, -2.16646, -0.123575, -0.0018684, 0.0179404, 0.00463942, 0.0167331, -0.000190375, 0.000811755
0.0920671, 1.69295, -1.22609, -1.53843, -0.899823, -1.19595, 1.22855, -1.30261, 0.0505173, 0.000128943, -0.000546341, 0.0078094, -0.0948153, 0.0129793, 0.00109851, 2.28492, 58.6972, 28.0478, 5.46234, 1.61426, 3.79001, -0.0621838, 9.54029e-05, -0.00122165, 0.00064127, 0.00252156, -0.00359205, 0.000286547, 0.0190178, -0.0195039, -0.0022495, -0.0342175, 0.0939972, 0.0114991, 0.470955, -0.542885, 0.336026, -2.08361, -2.16574, -0.129924, 0.469708, -0.542742, 0.335444, -2.08442, -2.1665, -0.123453, -0.00191155, 0.0183626, 0.00474577, 0.0181665, 0.000734181, -0.00102065
0.0930671, 1.693, -1.22609, -1.53842, -0.899815, -1.19605, 1.22856, -1.30261, 0.0510649, 0.00175491, 0.00047099, 0.00826963, -0.0944673, 0.00959227, -0.000241748, 2.24921, 58.6258, 28.0121, 5.50201, 1.60785, 3.79733, -0.0356336, 7.66223e-05, -0.0012049, 0.000640242, 0.00255808, -0.00368675, 0.000276764, 0.0185626, -0.0193062, -0.00123295, -0.0357573, 0.0937763, 0.0135817, 0.470953, -0.542867, 0.336031, -2.0836, -2.16574, -0.129926, 0.469724, -0.542742, 0.335447, -2.08443, -2.16654, -0.123318, -0.00195511, 0.0187891, 0.00485308, 0.0179461, 0.00144542, 0.000166893
0.0940671, 1.69306, -1.22609, -1.53843, -0.899808, -1.19615, 1.22856, -1.30262, 0.0602537, 0.00209685, -0.00144924, 0.00891151, -0.0950002, 0.0067603, -0.00039158, 2.09846, 58.5861, 28.0875, 5.53772, 1.62067, 3.81198, -0.0292249, 6.09627e-05, -0.00118309, 0.000644057, 0.00260522, -0.00378025, 0.000261237, 0.0152923, -0.0234272, -0.00239201, -0.0411399, 0.0937259, 0.0211685, 0.470951, -0.542848, 0.336035, -2.08359, -2.16574, -0.129927, 0.469744, -0.542737, 0.335445, -2.08443, -2.16659, -0.123174, -0.00199908, 0.0192197, 0.00496136, 0.0218586, 0.00545214, -0.000486073
0.0950671, 1.69311, -1.22609, -1.53843, -0.899806, -1.19624, 1.22857, -1.30262, 0.0610278, 0.000469042, -3.8143e-05, 0.00745984, -0.0941894, 0.0101709, -0.00171391, 2.05878, 58.6258, 28.0478, 5.6488, 1.60785, 3.80466, 0.0101428, 4.38574e-05, -0.00116288, 0.000649184, 0.00264536, -0.00386654, 0.000241612, 0.0150191, -0.0252102, -0.00283009, -0.0374273, 0.0934034, 0.0255528, 0.470949, -0.542829, 0.33604, -2.08358, -2.16573, -0.129929, 0.469763, -0.542733, 0.335441, -2.08442, -2.16664, -0.123045, -0.00204344, 0.0196547, 0.0050706, 0.0235692, 0.0062975, -0.000821154
0.0960671, 1.69316, -1.22609, -1.53843, -0.899799, -1.19634, 1.22857, -1.30262, 0.0620707, 0.00124009, -2.54287e-05, 0.00825037, -0.093875, 0.00768403, -0.000155354, 2.02308, 58.5861, 28.0478, 5.68848, 1.59595, 3.80466, -0.0164075, 2.52607e-05, -0.00114516, 0.000651187, 0.00268714, -0.00395613, 0.000235023, 0.0148452, -0.0252171, -0.00257392, -0.0390619, 0.0928665, 0.0244612, 0.470947, -0.542809, 0.336045, -2.08357, -2.16573, -0.12993, 0.469779, -0.542731, 0.335441, -2.08443, -2.16668, -0.12291, -0.0020882, 0.0200938, 0.00518077, 0.0235345, 0.00686924, -0.000431461
0.0970671, 1.69322, -1.22609, -1.53842, -0.899792, -1.19644, 1.22857, -1.30262, 0.0623561, 0.000826255, 0.00174629, 0.00878032, -0.0985549, 0.00712266, 0.000136719, 1.87232, 58.5861, 27.9725, 5.72418, 1.58954, 3.76895, -0.0228162, 9.58957e-06, -0.00112182, 0.000652954, 0.00272433, -0.00404744, 0.00021699, 0.0158688, -0.0249786, -0.00221385, -0.0399169, 0.0960773, 0.0233126, 0.470945, -0.542789, 0.336051, -2.08357, -2.16572, -0.129932, 0.469801, -0.542725, 0.335441, -2.08442, -2.16673, -0.12278, -0.00213335, 0.0205371, 0.00529189, 0.0233008, 0.00623691, -0.000116911
0.0980671, 1.69327, -1.22609, -1.53843, -0.899788, -1.19653, 1.22857, -1.30261, 0.0604515, 0.000550484, 0.00023617, 0.00510065, -0.101398, 0.0052566, 0.00104278, 1.79694, 58.5861, 28.0121, 5.79956, 1.57123, 3.76895, -0.0484509, -9.42548e-06, -0.00110293, 0.000659257, 0.00277261, -0.00413511, 0.00020766, 0.0167948, -0.0238407, -0.00351858, -0.0455676, 0.0978016, 0.0221095, 0.470943, -0.542768, 0.336056, -2.08356, -2.16572, -0.129933, 0.469818, -0.542721, 0.335437, -2.08442, -2.16677, -0.12264, -0.0021789, 0.0209845, 0.00540394, 0.0221048, 0.00592475, -0.00140285
0.0990671, 1.69333, -1.22609, -1.53842, -0.899784, -1.19664, 1.22858, -1.30261, 0.0598961, 0.000366725, 0.00108547, 0.00239494, -0.104508, 0.00520795, 0.000968101, 1.68189, 58.5861, 27.9725, 5.87494, 1.57123, 3.73324, -0.0557752, -2.78829e-05, -0.00108142, 0.000662599, 0.00281542, -0.00423056, 0.000192822, 0.0171549, -0.0239588, -0.00371036, -0.0474371, 0.100537, 0.0234126, 0.470941, -0.542747, 0.336061, -2.08355, -2.16572, -0.129935, 0.469838, -0.542717, 0.335436, -2.08442, -2.16682, -0.122498, -0.00222483, 0.0214361, 0.00551691, 0.0221827, 0.00605539, -0.00153906
0.100067, 1.69338, -1.22609, -1.53842, -0.899771, -1.19674, 1.22858, -1.30261, 0.0618478, -0.00208348, 0.000723645, 0.00622943, -0.10564, 0.0037578, 0.000646637, 1.60651, 58.5504, 27.9725, 5.83527, 1.5401, 3.73324, -0.0557752, -4.924e-05, -0.00106391, 0.000664307, 0.00285695, -0.00432208, 0.000186622, 0.0182741, -0.0238156, -0.00501544, -0.0481414, 0.0982765, 0.0218309, 0.470939, -0.542726, 0.336067, -2.08354, -2.16571, -0.129936, 0.469854, -0.542716, 0.335436, -2.08443, -2.16685, -0.122361, -0.00227115, 0.0218918, 0.0056308, 0.0219861, 0.0056016, -0.00288369
0.101067, 1.69344, -1.22609, -1.53843, -0.899775, -1.19684, 1.22858, -1.30261, 0.064642, -0.00165272, -0.00044559, 0.000478865, -0.107908, 0.00353338, 0.000160751, 1.34071, 58.5504, 28.0121, 6.02173, 1.5401, 3.71127, -0.0484509, -6.54038e-05, -0.00103873, 0.000672134, 0.00291222, -0.0044199, 0.000161115, 0.0164292, -0.0261917, -0.00617513, -0.0534399, 0.101364, 0.0288234, 0.470936, -0.542704, 0.336072, -2.08353, -2.16571, -0.129938, 0.469877, -0.542708, 0.33543, -2.08442, -2.16691, -0.122205, -0.00231785, 0.0223516, 0.00574559, 0.0242042, 0.00815905, -0.00369947
0.102067, 1.69349, -1.22609, -1.53842, -0.899767, -1.19694, 1.22858, -1.30261, 0.0618196, -0.00530404, 0.00146618, 0.000834949, -0.10832, 0.00278764, 0.00037913, 1.26533, 58.5861, 27.9368, 6.02173, 1.50989, 3.70395, -0.0557752, -8.56934e-05, -0.00101863, 0.00067594, 0.00295168, -0.00450789, 0.000148613, 0.0182186, -0.0247796, -0.00755209, -0.0522245, 0.0976814, 0.0263913, 0.470934, -0.542682, 0.336078, -2.08351, -2.1657, -0.12994, 0.469895, -0.542704, 0.335428, -2.08442, -2.16695, -0.122075, -0.00236493, 0.0228154, 0.00586128, 0.022761, 0.00701094, -0.00517901
0.103067, 1.69355, -1.22609, -1.53842, -0.899761, -1.19705, 1.22858, -1.30262, 0.0615968, -0.00311326, 0.000977452, 0.00311007, -0.10944, 0.00275891, -0.00073007, 1.11457, 58.5504, 27.9368, 6.0614, 1.50989, 3.68289, -0.0292249, -0.000106391, -0.000998054, 0.000677344, 0.00299701, -0.00460907, 0.000132926, 0.0195848, -0.0239202, -0.00614906, -0.0518072, 0.100821, 0.0246764, 0.470932, -0.542659, 0.336084, -2.0835, -2.1657, -0.129941, 0.469914, -0.5427, 0.335429, -2.08442, -2.16701, -0.121925, -0.00241239, 0.0232833, 0.00597787, 0.0219551, 0.00587875, -0.00386374
0.104067, 1.69361, -1.22608, -1.53842, -0.899754, -1.19715, 1.22859, -1.30262, 0.0604877, -0.000621604, 0.000651635, 0.00489414, -0.105421, 0.00274352, -0.00194438, 1.00349, 58.475, 27.9368, 6.09711, 1.50348, 3.66092, 0.0101428, -0.000128501, -0.000978412, 0.000678962, 0.00304149, -0.0047096, 0.000121212, 0.0201254, -0.0232775, -0.00453816, -0.0489167, 0.100065, 0.0244174, 0.470929, -0.542636, 0.33609, -2.08349, -2.16569, -0.129943, 0.469932, -0.542698, 0.335429, -2.08442, -2.16705, -0.121777, -0.00246022, 0.0237552, 0.00609534, 0.0213434, 0.00554239, -0.00222058
0.105067, 1.69366, -1.22609, -1.53842, -0.899755, -1.19726, 1.22859, -1.30261, 0.0589453, -0.000646405, 0.00126964, 0.00133429, -0.107091, 0.0021342, 0.000162099, 0.928108, 58.475, 27.9011, 6.20819, 1.49158, 3.65451, -0.0292249, -0.000149466, -0.000957991, 0.000683306, 0.00308846, -0.00480535, 0.000110335, 0.0203862, -0.0230503, -0.00483654, -0.0510336, 0.101579, 0.0236823, 0.470927, -0.542612, 0.336096, -2.08348, -2.16569, -0.129945, 0.469951, -0.542693, 0.335427, -2.08442, -2.1671, -0.12163, -0.00250842, 0.0242312, 0.00621369, 0.0210667, 0.00579778, -0.00243082
0.106067, 1.69371, -1.22609, -1.53842, -0.899751, -1.19736, 1.22859, -1.30261, 0.0579108, -0.000604939, -0.000824009, -0.000371228, -0.103853, 0.00228748, -0.000603791, 0.85273, 58.475, 27.9725, 6.28357, 1.48517, 3.63254, -0.00999879, -0.000175703, -0.000940995, 0.000690594, 0.00314011, -0.00490358, 0.000102672, 0.0206417, -0.0229073, -0.00576446, -0.0517779, 0.0995423, 0.025043, 0.470924, -0.542588, 0.336102, -2.08347, -2.16568, -0.129946, 0.469966, -0.542693, 0.335422, -2.08442, -2.16714, -0.121476, -0.00255699, 0.0247111, 0.00633291, 0.0208508, 0.00616278, -0.00326353
0.107067, 1.69377, -1.22608, -1.53842, -0.899744, -1.19747, 1.2286, -1.30261, 0.0574259, 0.00113664, 0.00204912, 0.000129379, -0.106198, 0.00288557, 0.00153042, 0.626595, 58.4036, 27.8614, 6.28357, 1.47876, 3.59683, -0.0621838, -0.000195893, -0.000915996, 0.000689142, 0.00317456, -0.0050083, 8.94373e-05, 0.0212639, -0.0228753, -0.00361242, -0.0492703, 0.103491, 0.0225939, 0.470922, -0.542563, 0.336109, -2.08346, -2.16568, -0.129948, 0.469989, -0.542688, 0.335426, -2.08443, -2.16719, -0.121334, -0.00260593, 0.0251949, 0.006453, 0.0208704, 0.00569945, -0.00111471
0.108067, 1.69382, -1.22609, -1.53842, -0.899748, -1.19758, 1.22859, -1.30261, 0.0514549, -0.00101055, 0.000438058, 4.76261e-05, -0.103379, 0.00249486, 0.0010204, 0.511544, 58.475, 27.9011, 6.43433, 1.48517, 3.58218, -0.0621838, -0.000219907, -0.00089646, 0.000698855, 0.00323146, -0.00510461, 7.47037e-05, 0.0243372, -0.019577, -0.0052197, -0.0489198, 0.0990176, 0.017532, 0.470919, -0.542538, 0.336115, -2.08345, -2.16567, -0.12995, 0.470006, -0.542684, 0.335418, -2.08442, -2.16723, -0.121177, -0.00265523, 0.0256827, 0.00657393, 0.0175788, 0.00326603, -0.00295891
0.109067, 1.69388, -1.22609, -1.53842, -0.899744, -1.19768, 1.22859, -1.30261, 0.0548579, 0.000923328, -0.00184021, -0.000324381, -0.104711, 0.0016847, 0.000443002, 0.325081, 58.4036, 27.8614, 6.47003, 1.45404, 3.58218, -0.0557752, -0.000242688, -0.000875913, 0.000701664, 0.00327823, -0.00520283, 5.97136e-05, 0.0236906, -0.0208687, -0.00522812, -0.0526695, 0.102175, 0.0202595, 0.470916, -0.542512, 0.336122, -2.08343, -2.16567, -0.129952, 0.470025, -0.542679, 0.335418, -2.08442, -2.16728, -0.121029, -0.00270489, 0.0261745, 0.00669572, 0.0187958, 0.00445055, -0.00278446
0.110067, 1.69393, -1.22608, -1.53841, -0.899751, -1.19779, 1.2286, -1.30261, 0.0516773, 0.00139571, 0.000188606, -0.00104435, -0.106779, 0.00191913, -0.000450581, 0.245735, 58.3679, 27.79, 6.65649, 1.44855, 3.56112, -0.0356336, -0.00026617, -0.000856362, 0.000703927, 0.0033223, -0.00530363, 4.01298e-05, 0.0253662, -0.0194367, -0.004181, -0.0513675, 0.104533, 0.0189561, 0.470914, -0.542486, 0.336128, -2.08342, -2.16566, -0.129954, 0.470042, -0.542675, 0.335418, -2.08442, -2.16734, -0.120881, -0.00275491, 0.0266701, 0.00681835, 0.0174137, 0.00307186, -0.00184545
0.111067, 1.69398, -1.22608, -1.53841, -0.899746, -1.1979, 1.2286, -1.30261, 0.0516711, 5.3967e-05, -6.55298e-05, 0.00298345, -0.11299, 0.00129149, -0.00152104, 0.059273, 58.4036, 27.79, 6.65649, 1.44214, 3.56112, -0.00267457, -0.000292857, -0.000837969, 0.000708726, 0.00337045, -0.00540299, 2.72999e-05, 0.0284209, -0.0177312, -0.00458845, -0.0531308, 0.10788, 0.0143524, 0.470911, -0.542459, 0.336135, -2.08341, -2.16566, -0.129956, 0.470059, -0.542673, 0.335415, -2.08442, -2.16738, -0.12073, -0.00280528, 0.0271696, 0.00694181, 0.0157548, 0.00054882, -0.00254802
0.112067, 1.69404, -1.22608, -1.53841, -0.899746, -1.198, 1.2286, -1.30261, 0.0518065, 0.000840227, -0.000187137, 0.00172359, -0.112921, 0.00059878, -0.00101399, -0.131157, 58.3679, 27.79, 6.69617, 1.43573, 3.56845, -0.00267457, -0.000315935, -0.000816346, 0.000712193, 0.00341871, -0.00550194, 1.30715e-05, 0.0283699, -0.0179681, -0.00445176, -0.0542523, 0.108645, 0.0150735, 0.470908, -0.542432, 0.336142, -2.0834, -2.16565, -0.129958, 0.470078, -0.542667, 0.335415, -2.08441, -2.16743, -0.12058, -0.00285601, 0.0276729, 0.00706609, 0.0159439, 0.00109133, -0.00228845
0.113067, 1.69408, -1.22608, -1.53841, -0.89975, -1.1981, 1.2286, -1.30261, 0.05087, 0.00230016, 0.000695675, -0.00095241, -0.107807, 0.00121978, -0.00115068, -0.281914, 58.2925, 27.7503, 6.80725, 1.42383, 3.54648, 0.0101428, -0.000341486, -0.000797083, 0.000714579, 0.00346323, -0.00560373, -5.4416e-06, 0.0272438, -0.0188937, -0.00359517, -0.051458, 0.106625, 0.0187862, 0.470905, -0.542404, 0.336149, -2.08338, -2.16565, -0.12996, 0.470095, -0.542664, 0.335415, -2.08441, -2.16748, -0.120431, -0.00290708, 0.0281801, 0.00719119, 0.016808, 0.00261627, -0.00117096
0.114067, 1.69413, -1.22607, -1.53841, -0.899747, -1.1982, 1.2286, -1.30261, 0.0493967, 0.0049497, 0.00121831, -0.000262201, -0.105159, 0.00081828, 0.000928323, -0.392998, 58.1458, 27.7146, 6.80725, 1.43573, 3.54648, -0.0356336, -0.000368295, -0.000779896, 0.000711366, 0.00350407, -0.0057095, -6.65611e-06, 0.0277017, -0.0182147, -0.00175785, -0.0492281, 0.107013, 0.0157773, 0.470902, -0.542376, 0.336156, -2.08337, -2.16564, -0.129962, 0.470111, -0.542662, 0.33542, -2.08443, -2.16752, -0.12028, -0.0029585, 0.0286911, 0.00731711, 0.0161618, 0.00236403, 0.00071801
0.115067, 1.69419, -1.22607, -1.53841, -0.899748, -1.1983, 1.2286, -1.3026, 0.053885, 0.00328673, -8.35292e-05, -0.000730465, -0.102511, 0.000278072, 0.00136488, -0.619133, 58.1458, 27.7503, 6.84296, 1.43573, 3.5538, -0.0557752, -0.0003926, -0.000758267, 0.000717677, 0.00355251, -0.00580206, -2.20275e-05, 0.0259462, -0.0208737, -0.00359122, -0.0505486, 0.103455, 0.020522, 0.470899, -0.542347, 0.336164, -2.08336, -2.16563, -0.129964, 0.47013, -0.542655, 0.335417, -2.08442, -2.16757, -0.120136, -0.00301027, 0.0292059, 0.00744383, 0.0186359, 0.00500399, -0.000773634
0.116067, 1.69423, -1.22606, -1.53841, -0.899751, -1.19839, 1.2286, -1.30261, 0.0505723, 0.00394459, 0.000734143, 0.00188935, -0.099911, 0.000730781, 0.000638668, -0.694511, 58.0704, 27.7146, 6.88263, 1.42383, 3.53915, -0.0484509, -0.000421327, -0.000742299, 0.000718567, 0.0035914, -0.00589867, -3.49868e-05, 0.0280276, -0.0189704, -0.00238279, -0.0463241, 0.102067, 0.0169778, 0.470896, -0.542318, 0.336171, -2.08334, -2.16563, -0.129966, 0.470144, -0.542654, 0.335419, -2.08442, -2.16761, -0.119998, -0.00306237, 0.0297245, 0.00757134, 0.0168017, 0.00320344, 0.000280613
0.117067, 1.69428, -1.22606, -1.53841, -0.899753, -1.19849, 1.2286, -1.30261, 0.0510773, 0.00169436, 0.000455387, 0.000839485, -0.0988563, 0.000218069, 0.000188429, -0.884941, 58.11, 27.7146, 6.91833, 1.43024, 3.54648, -0.0420422, -0.000446888, -0.000720788, 0.000726012, 0.0036377, -0.00598816, -5.2342e-05, 0.0280393, -0.0195407, -0.0040661, -0.0471844, 0.0991016, 0.0191529, 0.470893, -0.542288, 0.336179, -2.08333, -2.16562, -0.129968, 0.470163, -0.542647, 0.335414, -2.08441, -2.16766, -0.11986, -0.00311481, 0.0302468, 0.00769965, 0.017258, 0.00399757, -0.00127274
0.118067, 1.69433, -1.22606, -1.53841, -0.899758, -1.19859, 1.2286, -1.3026, 0.051245, 0.00372252, -0.000557157, -0.000892227, -0.0974624, 0.000418258, 0.000362985, -1.07537, 57.999, 27.7503, 6.99371, 1.42383, 3.53915, -0.0484509, -0.000471562, -0.000698998, 0.00072762, 0.00368233, -0.00608819, -7.12627e-05, 0.0277552, -0.0200357, -0.00350553, -0.0478098, 0.100575, 0.0206498, 0.47089, -0.542258, 0.336186, -2.08331, -2.16562, -0.129971, 0.470183, -0.54264, 0.335416, -2.0844, -2.16771, -0.119713, -0.00316759, 0.0307728, 0.00782873, 0.0177098, 0.00473804, -0.000561516
0.119067, 1.69438, -1.22605, -1.5384, -0.899763, -1.19868, 1.2286, -1.30261, 0.0471975, 0.00331276, 0.00304309, -0.00119652, -0.10218, 0.000280047, -0.000470082, -1.22613, 57.9633, 27.6035, 7.02942, 1.44214, 3.53915, -0.0292249, -0.000497691, -0.000678619, 0.000728832, 0.00371857, -0.00618153, -9.24236e-05, 0.0302168, -0.0179521, -0.00234868, -0.0464261, 0.103889, 0.0179475, 0.470887, -0.542227, 0.336194, -2.0833, -2.16561, -0.129973, 0.470201, -0.542634, 0.335418, -2.08439, -2.16777, -0.119583, -0.0032207, 0.0313025, 0.00795859, 0.0157063, 0.00257384, 0.000390402
0.120067, 1.69442, -1.22605, -1.5384, -0.899766, -1.19877, 1.2286, -1.30261, 0.0425186, 0.00137019, 0.000343928, -0.00155056, -0.100602, 0.000696231, -0.00129673, -1.30151, 57.999, 27.6749, 7.06909, 1.45404, 3.52542, -0.00267457, -0.000528487, -0.000661977, 0.000735599, 0.0037608, -0.0062695, -0.000105409, 0.03322, -0.0152554, -0.00425641, -0.0472066, 0.101196, 0.0137822, 0.470884, -0.542196, 0.336202, -2.08328, -2.1656, -0.129975, 0.470215, -0.542632, 0.335414, -2.08438, -2.16781, -0.11945, -0.00327414, 0.031836, 0.00808922, 0.012998, 0.000326457, -0.00174838
0.121067, 1.69447, -1.22605, -1.5384, -0.899767, -1.19886, 1.2286, -1.30261, 0.0462838, 0.000911135, 0.00105373, -0.0040468, -0.0990995, 0.000736101, -0.000355856, -1.41259, 57.999, 27.6392, 7.06909, 1.46045, 3.5181, -0.0164075, -0.000558826, -0.00064383, 0.000741303, 0.00379929, -0.00635674, -0.000115706, 0.0309603, -0.0182728, -0.00486154, -0.0475334, 0.100102, 0.0196471, 0.470881, -0.542164, 0.33621, -2.08327, -2.1656, -0.129978, 0.470231, -0.542628, 0.335411, -2.08438, -2.16785, -0.119322, -0.00332791, 0.0323731, 0.00822061, 0.0158546, 0.00331183, -0.00195518
0.122067, 1.69452, -1.22606, -1.5384, -0.899772, -1.19895, 1.2286, -1.30261, 0.0469279, 0.000605679, -0.000140808, -0.00462463, -0.102937, 0.00103378, -0.00098322, -1.56335, 57.999, 27.6749, 7.14447, 1.47327, 3.50345, 0.00373412, -0.000586882, -0.000622818, 0.000747925, 0.00384041, -0.00644468, -0.000136886, 0.0321273, -0.0182175, -0.00558746, -0.0503907, 0.103516, 0.0196101, 0.470877, -0.542132, 0.336219, -2.08325, -2.16559, -0.12998, 0.470249, -0.542621, 0.335408, -2.08437, -2.1679, -0.119192, -0.00338201, 0.0329138, 0.00835276, 0.0157607, 0.00281057, -0.00272028
0.123067, 1.69456, -1.22605, -1.5384, -0.899772, -1.19904, 1.2286, -1.30261, 0.0455067, -0.00321766, 0.00157051, -0.00320573, -0.096491, 0.000960836, 0.000327866, -1.63873, 57.8879, 27.6035, 7.14447, 1.48517, 3.49612, -0.0228162, -0.000617013, -0.00060496, 0.000746594, 0.00387194, -0.00653866, -0.000146224, 0.0324628, -0.0182221, -0.00702142, -0.0452845, 0.0943805, 0.0187545, 0.470874, -0.542099, 0.336227, -2.08324, -2.16558, -0.129982, 0.470265, -0.542618, 0.335412, -2.08437, -2.16794, -0.119065, -0.00343642, 0.0334582, 0.00848565, 0.0156707, 0.00324554, -0.00405612
0.124067, 1.69461, -1.22605, -1.5384, -0.899777, -1.19913, 1.2286, -1.3026, 0.0449028, -0.00349952, 0.000207242, -0.00389957, -0.0963769, 9.83091e-05, 0.00116801, -1.7141, 57.9236, 27.6392, 7.21588, 1.49707, 3.51077, -0.0484509, -0.000648521, -0.00058755, 0.000754999, 0.00391542, -0.00662224, -0.000156507, 0.0332887, -0.0176949, -0.00785249, -0.0473177, 0.0939943, 0.0173597, 0.47087, -0.542066, 0.336235, -2.08322, -2.16557, -0.129985, 0.470279, -0.542613, 0.335407, -2.08436, -2.16798, -0.118935, -0.00349116, 0.0340062, 0.00861928, 0.0150888, 0.00308515, -0.00485613
0.125067, 1.69466, -1.22605, -1.53839, -0.899782, -1.19921, 1.2286, -1.3026, 0.046147, -0.00188719, 0.000969971, -0.00359672, -0.0918255, 0.000608289, 0.0012873, -1.86486, 57.8879, 27.6035, 7.25555, 1.5163, 3.49612, -0.0621838, -0.000675823, -0.000565375, 0.000757847, 0.00395517, -0.00671373, -0.000177133, 0.0322309, -0.0190723, -0.00666383, -0.0438836, 0.0923663, 0.0201141, 0.470867, -0.542032, 0.336244, -2.0832, -2.16557, -0.129987, 0.470299, -0.542605, 0.335408, -2.08435, -2.16803, -0.118803, -0.00354621, 0.0345577, 0.00875364, 0.0164147, 0.00455424, -0.00342605
0.126067, 1.69471, -1.22604, -1.5384, -0.899785, -1.1993, 1.2286, -1.30261, 0.0488139, -0.00071496, -0.00102634, -0.00328477, -0.0877208, 0.000643046, -0.0003625, -1.97991, 57.8522, 27.6749, 7.29126, 1.52179, 3.48971, -0.0292249, -0.000706364, -0.000544409, 0.000764805, 0.00399456, -0.00680041, -0.000197803, 0.0312036, -0.0206314, -0.00682476, -0.0437407, 0.0906579, 0.02457, 0.470863, -0.541997, 0.336253, -2.08319, -2.16556, -0.12999, 0.470317, -0.542599, 0.335404, -2.08434, -2.16808, -0.118676, -0.00360158, 0.0351128, 0.00888872, 0.0178737, 0.00621269, -0.00333805
0.127067, 1.69471, -1.22604, -1.5384, -0.899785, -1.1993, 1.2286, -1.30261, 0.0488139, -0.00071496, -0.00102634, -0.00328477, -0.0877208, 0.000643046, -0.0003625, -1.97991, 57.8522, 27.6749, 7.29126, 1.52179, 3.48971, -0.0292249, -0.000742547, -0.000541981, 0.000768023, 0.00398405, -0.00681405, -0.000193736, 0.0317784, -0.0206682, -0.00686989, -0.043627, 0.0909405, 0.0246176, 0.47086, -0.541962, 0.336262, -2.08317, -2.16555, -0.129992, 0.470317, -0.542599, 0.335404, -2.08434, -2.16808, -0.118676, -0.00365725, 0.0356715, 0.00902453, 0.0178737, 0.00621269, -0.00333805
0.128067, 1.6948, -1.22604, -1.5384, -0.899788, -1.19947, 1.2286, -1.30261, 0.0458171, 0.000299958, -0.00166529, -0.00244289, -0.0871548, 0.000557237, -0.00169829, -2.091, 57.8125, 27.7146, 7.33093, 1.52179, 3.48239, 0.0165515, -0.000771199, -0.0005076, 0.000774366, 0.00406994, -0.0069733, -0.000226147, 0.0338538, -0.0187518, -0.00627402, -0.0429386, 0.0916005, 0.0221667, 0.470856, -0.541926, 0.336271, -2.08315, -2.16554, -0.129995, 0.470349, -0.542589, 0.335402, -2.08432, -2.16816, -0.118424, -0.00371324, 0.0362337, 0.00916105, 0.0160003, 0.00455558, -0.00287858
0.129067, 1.69484, -1.22603, -1.5384, -0.899796, -1.19954, 1.2286, -1.30261, 0.0473299, 0.00351044, -0.000183255, -0.00341366, -0.0888777, -0.000137067, -0.00113219, -2.13067, 57.6657, 27.6749, 7.40631, 1.52179, 3.49612, 0.0165515, -0.000800446, -0.000486588, 0.000774189, 0.00410028, -0.00706232, -0.000250166, 0.0331287, -0.0197357, -0.00417631, -0.0433366, 0.0961959, 0.0240602, 0.470852, -0.54189, 0.33628, -2.08314, -2.16554, -0.129998, 0.470367, -0.542581, 0.335406, -2.08431, -2.16822, -0.118306, -0.00376953, 0.0367994, 0.00929827, 0.0169772, 0.00555383, -0.000587993
0.130067, 1.69489, -1.22604, -1.5384, -0.899801, -1.19963, 1.2286, -1.30261, 0.0461714, -0.00035057, -0.000122979, -0.00312736, -0.0908907, -9.13268e-05, 0.00535806, -2.20605, 57.7768, 27.6749, 7.44202, 1.5401, 3.49612, -0.0228162, -0.000831545, -0.000464883, 0.000784388, 0.0041396, -0.00713886, -0.000268044, 0.0350723, -0.0189224, -0.00636322, -0.0440571, 0.0942594, 0.0156522, 0.470849, -0.541853, 0.336289, -2.08312, -2.16553, -0.13, 0.470386, -0.542572, 0.335399, -2.08429, -2.16826, -0.118189, -0.00382613, 0.0373685, 0.00943618, 0.0160982, 0.00450896, -0.00288785
0.131067, 1.69494, -1.22604, -1.5384, -0.899802, -1.19971, 1.2286, -1.3026, 0.0476512, -0.00113824, -0.00277385, -0.00126197, -0.0913428, 0.000176513, 0.00443466, -2.24175, 57.8125, 27.79, 7.40631, 1.53461, 3.48971, -0.0356336, -0.000867854, -0.000446933, 0.000792493, 0.00417704, -0.00722316, -0.00027648, 0.0363008, -0.0189192, -0.00760315, -0.0456473, 0.0943242, 0.015046, 0.470845, -0.541816, 0.336299, -2.0831, -2.16552, -0.130003, 0.470401, -0.542568, 0.335395, -2.08428, -2.16829, -0.118065, -0.00388303, 0.0379411, 0.00957479, 0.016037, 0.00406058, -0.00416543
0.132067, 1.69498, -1.22603, -1.5384, -0.899803, -1.19979, 1.2286, -1.3026, 0.04486, 0.00169485, -0.000921668, -0.00085052, -0.0882138, 0.000117704, 0.00348472, -2.24175, 57.7054, 27.7503, 7.40631, 1.55932, 3.48971, -0.0420422, -0.00090241, -0.00042981, 0.000792385, 0.00420889, -0.00731273, -0.000284545, 0.0369743, -0.0179134, -0.00513144, -0.0416406, 0.0945939, 0.0148084, 0.470841, -0.541778, 0.336308, -2.08308, -2.16551, -0.130006, 0.470415, -0.542564, 0.335398, -2.08429, -2.16833, -0.117942, -0.00394022, 0.0385172, 0.00971408, 0.01509, 0.00354885, -0.00166069
0.133067, 1.69503, -1.22603, -1.5384, -0.899805, -1.19987, 1.2286, -1.30261, 0.0469035, 0.000255699, -0.000614787, -0.00057392, -0.0846046, -0.000158868, 0.00159191, -2.28143, 57.7411, 27.7503, 7.40631, 1.55292, 3.49612, -0.0164075, -0.000935545, -0.000408494, 0.000800054, 0.00424437, -0.00739194, -0.000308621, 0.0360726, -0.0194722, -0.00601554, -0.0401248, 0.0903796, 0.0199117, 0.470837, -0.541739, 0.336318, -2.08306, -2.1655, -0.130009, 0.470433, -0.542556, 0.335395, -2.08426, -2.16838, -0.117828, -0.00399771, 0.0390967, 0.00985405, 0.0165245, 0.00521948, -0.0023015
0.134067, 1.69507, -1.22604, -1.53839, -0.899806, -1.19994, 1.2286, -1.3026, 0.0452714, -0.000693989, 0.00135312, -0.000387793, -0.0816902, 0.00040273, 0.00241171, -2.3211, 57.7768, 27.6749, 7.40631, 1.5401, 3.48239, -0.0484509, -0.000968466, -0.000385755, 0.000806046, 0.00426865, -0.00746721, -0.000327208, 0.0366135, -0.0193472, -0.00576817, -0.0361794, 0.0874218, 0.0193079, 0.470833, -0.5417, 0.336328, -2.08305, -2.1655, -0.130011, 0.470453, -0.542548, 0.335393, -2.08425, -2.16842, -0.117729, -0.0040555, 0.0396796, 0.00999469, 0.0163705, 0.00522537, -0.00199784
0.135067, 1.69512, -1.22603, -1.5384, -0.899811, -1.20002, 1.2286, -1.3026, 0.0440343, -0.000484588, -0.000861347, -0.00109763, -0.0804266, 0.000539766, 0.00125582, -2.24175, 57.7768, 27.7503, 7.44202, 1.54651, 3.47507, -0.0356336, -0.00100575, -0.000368135, 0.000813044, 0.00430473, -0.00755042, -0.00034121, 0.0377625, -0.0186238, -0.00649538, -0.0374204, 0.0871321, 0.0192732, 0.470829, -0.541661, 0.336338, -2.08303, -2.16549, -0.130014, 0.470468, -0.542543, 0.33539, -2.08424, -2.16846, -0.117609, -0.00411357, 0.0402659, 0.010136, 0.0156047, 0.00476037, -0.00273222
0.136067, 1.69516, -1.22603, -1.5384, -0.899809, -1.2001, 1.2286, -1.3026, 0.046482, 0.000495713, -0.000574375, 0.00010055, -0.0796935, 0.000631121, -2.017e-05, -2.28143, 57.7411, 27.7503, 7.40631, 1.55932, 3.46774, -0.00999879, -0.00104246, -0.000348548, 0.000816799, 0.00433397, -0.007635, -0.00035418, 0.0373452, -0.0198993, -0.00581837, -0.0363491, 0.0878046, 0.0223315, 0.470825, -0.54162, 0.336348, -2.08301, -2.16548, -0.130017, 0.470484, -0.542537, 0.33539, -2.08423, -2.1685, -0.117495, -0.00417194, 0.0408555, 0.0102779, 0.01683, 0.00571011, -0.00189663
0.137067, 1.69521, -1.22603, -1.5384, -0.899812, -1.20017, 1.2286, -1.30261, 0.0482557, -0.000517077, -0.00131104, 6.48481e-05, -0.0786939, 0.000963289, 0.00029295, -2.3211, 57.7768, 27.79, 7.40631, 1.55932, 3.45309, -0.0164075, -0.00107748, -0.000326027, 0.00082544, 0.00436553, -0.00771172, -0.000375643, 0.0372414, -0.0210036, -0.00679137, -0.0364873, 0.0865563, 0.0238563, 0.470821, -0.541579, 0.336358, -2.08299, -2.16547, -0.13002, 0.470504, -0.542529, 0.335385, -2.08421, -2.16855, -0.117387, -0.00423059, 0.0414484, 0.0104206, 0.0178349, 0.00660179, -0.00273311
0.138067, 1.69525, -1.22603, -1.5384, -0.899815, -1.20025, 1.2286, -1.30261, 0.0435194, -0.000353969, -0.00254455, -0.000793625, -0.0784466, 0.00037093, -0.00121098, -2.24175, 57.7768, 27.8614, 7.44202, 1.57764, 3.46042, 0.0229602, -0.00111816, -0.000310763, 0.000831267, 0.00439938, -0.0077951, -0.00038535, 0.0398391, -0.0182756, -0.00709725, -0.0375166, 0.0865313, 0.0209707, 0.470816, -0.541538, 0.336369, -2.08297, -2.16546, -0.130023, 0.470516, -0.542526, 0.335383, -2.08421, -2.16858, -0.117269, -0.00428952, 0.0420447, 0.0105638, 0.0151338, 0.00456902, -0.0032141
0.139067, 1.6953, -1.22603, -1.5384, -0.899815, -1.20032, 1.22861, -1.3026, 0.0476122, 0.00142752, -0.00169643, 0.000304906, -0.0766977, 0.00129845, 0.000180947, -2.3568, 57.7054, 27.8614, 7.40631, 1.55932, 3.43204, -0.00267457, -0.00115196, -0.000285979, 0.000833722, 0.00442367, -0.00787879, -0.000404738, 0.0383618, -0.0208485, -0.00577988, -0.0349698, 0.08762, 0.0236721, 0.470812, -0.541496, 0.336379, -2.08295, -2.16545, -0.130026, 0.470537, -0.542516, 0.335385, -2.0842, -2.16863, -0.117162, -0.00434873, 0.0426443, 0.0107077, 0.0176393, 0.00652955, -0.00161895
0.140067, 1.69534, -1.22604, -1.5384, -0.89982, -1.2004, 1.2286, -1.3026, 0.0441916, -0.00332242, 0.00053944, -0.000632869, -0.0764255, 0.00059437, 0.0011331, -2.3211, 57.8879, 27.79, 7.44202, 1.55932, 3.43936, -0.0292249, -0.00119064, -0.000266593, 0.000844548, 0.00445, -0.00794561, -0.000422453, 0.0400851, -0.0195604, -0.00784361, -0.0337002, 0.0824541, 0.0214672, 0.470808, -0.541453, 0.33639, -2.08293, -2.16544, -0.130029, 0.470553, -0.542509, 0.335379, -2.08418, -2.16867, -0.11707, -0.00440822, 0.0432472, 0.0108522, 0.0162797, 0.00569769, -0.00374205
0.141067, 1.69539, -1.22603, -1.5384, -0.899821, -1.20047, 1.22861, -1.3026, 0.0433159, 0.000379609, -0.000475625, -0.0027566, -0.0760348, 0.00121005, 0.000539886, -2.3568, 57.7768, 27.8257, 7.40631, 1.55292, 3.41739, -0.0228162, -0.00122855, -0.000245553, 0.000845565, 0.00447613, -0.00803506, -0.000437153, 0.0403133, -0.0194932, -0.00626205, -0.0342932, 0.0866686, 0.0226826, 0.470803, -0.54141, 0.336401, -2.08291, -2.16543, -0.130032, 0.470571, -0.542502, 0.335382, -2.08417, -2.16872, -0.116955, -0.00446799, 0.0438533, 0.0109973, 0.0162192, 0.00583162, -0.00206987
0.142067, 1.69543, -1.22603, -1.5384, -0.899824, -1.20054, 1.22861, -1.3026, 0.0415825, 0.00257915, -0.000317109, -0.00210235, -0.0714992, 0.00107797, 0.00132574, -2.3568, 57.8125, 27.8257, 7.40631, 1.55932, 3.41006, -0.0484509, -0.0012687, -0.000226076, 0.000852947, 0.00450375, -0.00811253, -0.000448753, 0.0407499, -0.0188866, -0.00479523, -0.0312649, 0.0852651, 0.0212167, 0.470799, -0.541366, 0.336412, -2.08288, -2.16542, -0.130036, 0.470587, -0.542496, 0.335379, -2.08416, -2.16875, -0.11685, -0.00452802, 0.0444627, 0.0111431, 0.0156229, 0.00575846, -0.000526351
0.143067, 1.69547, -1.22603, -1.5384, -0.899824, -1.20061, 1.22861, -1.3026, 0.0407054, 0.000217688, 0.00295654, -0.000672012, -0.0723094, 0.000956007, 0.000421398, -2.3568, 57.8879, 27.8257, 7.36664, 1.55292, 3.40365, -0.0356336, -0.00130938, -0.000206525, 0.000861187, 0.00452632, -0.00818248, -0.000464781, 0.0418828, -0.0186196, -0.00483936, -0.0281484, 0.0834528, 0.0213953, 0.470794, -0.541322, 0.336423, -2.08286, -2.16541, -0.130039, 0.470604, -0.54249, 0.335375, -2.08415, -2.16879, -0.116759, -0.00458833, 0.0450753, 0.0112895, 0.0153352, 0.0052489, -0.000593008
0.144067, 1.69551, -1.22604, -1.53839, -0.89983, -1.20068, 1.22861, -1.30261, 0.0401086, -0.00142199, 0.00223501, -0.00466883, -0.068461, 0.00145114, -0.00116791, -2.3568, 57.9633, 27.8257, 7.40631, 1.55932, 3.38168, 0.00373412, -0.00134963, -0.000185769, 0.000868633, 0.00455064, -0.00825877, -0.000490885, 0.0411932, -0.019646, -0.00659195, -0.028377, 0.0796166, 0.0269314, 0.47079, -0.541277, 0.336434, -2.08284, -2.1654, -0.130042, 0.470621, -0.542482, 0.335372, -2.08413, -2.16884, -0.11666, -0.00464891, 0.0456911, 0.0114364, 0.0162106, 0.00685921, -0.00210123
0.145067, 1.69555, -1.22603, -1.53839, -0.899831, -1.20075, 1.22861, -1.30261, 0.0417753, 0.000962329, 0.000852774, -0.00255817, -0.0698272, 0.0012387, -0.000263072, -2.3211, 57.8879, 27.8614, 7.36664, 1.54651, 3.37436, -0.00999879, -0.00139121, -0.00016768, 0.000870816, 0.0045707, -0.00833674, -0.000502846, 0.0420224, -0.0196686, -0.00553357, -0.0293159, 0.0832824, 0.0247065, 0.470785, -0.541231, 0.336446, -2.08282, -2.16539, -0.130045, 0.470636, -0.542476, 0.335374, -2.08412, -2.16888, -0.116563, -0.00470975, 0.04631, 0.011584, 0.0162411, 0.00649725, -0.0010398
0.146067, 1.69559, -1.22603, -1.53839, -0.899839, -1.20082, 1.22861, -1.30261, 0.0398356, -8.33488e-05, 0.00155222, -0.00291369, -0.0673938, 0.00133442, -0.0013909, -2.28143, 57.9236, 27.8257, 7.40631, 1.57123, 3.36062, 0.0229602, -0.00143354, -0.000148984, 0.000877747, 0.00459388, -0.00841195, -0.000520181, 0.0429013, -0.0191332, -0.00589152, -0.0273243, 0.0805341, 0.0254557, 0.47078, -0.541185, 0.336457, -2.0828, -2.16538, -0.130049, 0.470651, -0.54247, 0.335371, -2.0841, -2.16892, -0.116466, -0.00477085, 0.0469322, 0.0117321, 0.0156639, 0.00628553, -0.00136673
0.147067, 1.69562, -1.22604, -1.53839, -0.899838, -1.20088, 1.22861, -1.3026, 0.0385665, -0.000352264, 0.00349649, -0.00038939, -0.0689903, 0.000889616, 2.60563e-05, -2.24175, 58.0704, 27.8614, 7.33093, 1.56482, 3.36062, -0.00267457, -0.00147974, -0.000132828, 0.000889492, 0.00461454, -0.00847295, -0.000524347, 0.0447461, -0.0179818, -0.00502807, -0.0252455, 0.0812794, 0.0210242, 0.470776, -0.541138, 0.336469, -2.08277, -2.16537, -0.130052, 0.470664, -0.542466, 0.335364, -2.0841, -2.16894, -0.116385, -0.00483222, 0.0475574, 0.0118809, 0.0145509, 0.00490902, -0.000619064
0.148067, 1.69567, -1.22604, -1.53838, -0.899846, -1.20094, 1.22862, -1.3026, 0.0402742, 0.000916948, 0.00435041, -0.00454998, -0.0651338, 0.00113561, 0.000766272, -2.3211, 58.0347, 27.79, 7.36664, 1.54651, 3.34598, -0.0228162, -0.00151622, -0.000107966, 0.00089131, 0.00462843, -0.00854596, -0.000551267, 0.042361, -0.0205169, -0.00467826, -0.0244687, 0.0802097, 0.0273502, 0.470771, -0.54109, 0.336481, -2.08275, -2.16536, -0.130056, 0.470685, -0.542453, 0.335367, -2.08408, -2.169, -0.116302, -0.00489384, 0.0481858, 0.0120302, 0.0169482, 0.00794261, 0.000168807
0.149067, 1.69571, -1.22604, -1.53838, -0.899852, -1.201, 1.22862, -1.3026, 0.0436936, 0.00401544, 0.00362504, -0.00342634, -0.063942, 0.00102834, 0.000513035, -2.3568, 58.0347, 27.9011, 7.36664, 1.57123, 3.33865, -0.0228162, -0.00156002, -8.90631e-05, 0.000898719, 0.00465379, -0.00862072, -0.000566587, 0.0414292, -0.0221537, -0.00319312, -0.0242251, 0.0826511, 0.0300403, 0.470766, -0.541042, 0.336493, -2.08273, -2.16535, -0.130059, 0.4707, -0.542446, 0.335365, -2.08406, -2.16904, -0.116203, -0.00495572, 0.0488173, 0.01218, 0.0185422, 0.00933194, 0.00187891
0.150067, 1.69574, -1.22604, -1.53837, -0.899861, -1.20106, 1.22862, -1.3026, 0.0386138, 0.000520473, 0.00379614, -0.00665472, -0.0620183, 0.000685562, -0.000639681, -2.3568, 58.1458, 27.8614, 7.40631, 1.57123, 3.33865, 0.00373412, -0.00160307, -6.99617e-05, 0.000905915, 0.00466819, -0.00868414, -0.000589422, 0.0432673, -0.0203146, -0.00544989, -0.0244044, 0.0778653, 0.0298542, 0.470761, -0.540993, 0.336505, -2.0827, -2.16534, -0.130063, 0.470715, -0.542438, 0.335362, -2.08404, -2.16908, -0.116129, -0.00501785, 0.0494519, 0.0123305, 0.0166265, 0.00842591, -0.000430095
0.151067, 1.69577, -1.22604, -1.53838, -0.899869, -1.20112, 1.22862, -1.3026, 0.0355228, 0.00151367, 0.00110609, -0.00809532, -0.0616183, 0.000457041, 0.000795479, -2.24175, 58.11, 27.9368, 7.40631, 1.59595, 3.33865, -0.0292249, -0.00165209, -5.73106e-05, 0.000911865, 0.00469181, -0.00875866, -0.000591677, 0.0452359, -0.0184546, -0.00591828, -0.0267504, 0.0789567, 0.0255074, 0.470756, -0.540944, 0.336517, -2.08268, -2.16533, -0.130066, 0.470725, -0.542436, 0.335361, -2.08404, -2.16911, -0.116031, -0.00508023, 0.0500896, 0.0124815, 0.0147604, 0.00711651, -0.000992693
0.152067, 1.6958, -1.22605, -1.53837, -0.899876, -1.20118, 1.22862, -1.3026, 0.0332726, -0.000412715, 0.000991323, -0.00835732, -0.0558857, 0.000575962, 0.000768601, -2.24175, 58.1815, 27.9368, 7.36664, 1.60785, 3.33133, -0.0356336, -0.00169832, -3.95476e-05, 0.000919707, 0.00470727, -0.00882385, -0.000606018, 0.0459032, -0.0179734, -0.00705934, -0.0238957, 0.0726869, 0.0255039, 0.470751, -0.540894, 0.33653, -2.08266, -2.16532, -0.13007, 0.470739, -0.542429, 0.335358, -2.08402, -2.16914, -0.115952, -0.00514285, 0.0507303, 0.012633, 0.0141993, 0.00725572, -0.00205816
0.153067, 1.69584, -1.22604, -1.53837, -0.899885, -1.20123, 1.22862, -1.3026, 0.0363005, 0.000746529, 1.61105e-05, -0.00954796, -0.0560215, 0.000655242, 0.000750452, -2.3211, 58.1458, 27.9725, 7.36664, 1.60785, 3.324, -0.0420422, -0.00174094, -1.90682e-05, 0.000923113, 0.00472126, -0.0088929, -0.000627396, 0.0449919, -0.0197859, -0.00708516, -0.0255226, 0.0746004, 0.0290762, 0.470746, -0.540843, 0.336542, -2.08263, -2.16531, -0.130073, 0.470755, -0.542419, 0.33536, -2.084, -2.16919, -0.115873, -0.00520573, 0.051374, 0.0127851, 0.0159128, 0.00887825, -0.00184628
0.154067, 1.69586, -1.22604, -1.53837, -0.899897, -1.20129, 1.22862, -1.3026, 0.030609, 0.00202736, -0.000774445, -0.0104571, -0.0617621, 0.000674187, 0.000263461, -2.20605, 58.2172, 28.0121, 7.36664, 1.63257, 3.31759, -0.0356336, -0.00179052, -5.36973e-06, 0.000930269, 0.00473654, -0.00895808, -0.000638618, 0.049102, -0.0160316, -0.00646634, -0.0281752, 0.0808735, 0.0224615, 0.470741, -0.540792, 0.336555, -2.08261, -2.1653, -0.130077, 0.470765, -0.542415, 0.335357, -2.08399, -2.16922, -0.115794, -0.00526884, 0.0520207, 0.0129378, 0.0122713, 0.00521756, -0.00161005
0.155067, 1.69588, -1.22604, -1.53836, -0.899907, -1.20133, 1.22862, -1.3026, 0.0277057, 0.00570968, 0.00191984, -0.0102596, -0.0558613, 0.000212099, -0.000773406, -2.13067, 58.1815, 28.0478, 7.33093, 1.63898, 3.324, -0.00999879, -0.00183778, 9.53073e-06, 0.000931976, 0.00474562, -0.00902369, -0.00065519, 0.0489894, -0.0153833, -0.00326586, -0.0224867, 0.0795162, 0.0237069, 0.470735, -0.54074, 0.336568, -2.08258, -2.16528, -0.130081, 0.470777, -0.542409, 0.335361, -2.08398, -2.16926, -0.115723, -0.0053322, 0.0526704, 0.0130909, 0.0116747, 0.00545627, 0.00173912
0.156067, 1.69591, -1.22604, -1.53835, -0.899917, -1.20138, 1.22862, -1.30261, 0.025018, 0.0058659, 0.000695902, -0.0100303, -0.0569417, 0.000378758, -0.00197337, -2.16637, 58.2568, 28.0875, 7.29126, 1.66369, 3.31759, 0.0293689, -0.00188389, 2.72541e-05, 0.000938479, 0.00475706, -0.00908126, -0.000678617, 0.0513962, -0.0135558, -0.00346146, -0.0232452, 0.080948, 0.0211549, 0.47073, -0.540687, 0.336581, -2.08255, -2.16527, -0.130085, 0.47079, -0.5424, 0.33536, -2.08395, -2.1693, -0.115658, -0.0053958, 0.0533231, 0.0132446, 0.00986572, 0.00368844, 0.00137886
0.157067, 1.69594, -1.22604, -1.53835, -0.899929, -1.20142, 1.22862, -1.3026, 0.0220395, 0.00764027, 0.000721957, -0.0130534, -0.0566436, 1.51466e-05, 0.00395602, -2.16637, 58.2568, 28.0875, 7.25555, 1.66369, 3.324, 0.0101428, -0.00193161, 4.36807e-05, 0.00094257, 0.00476252, -0.00914132, -0.000693754, 0.0522283, -0.0125407, -0.00274749, -0.024049, 0.0828226, 0.0150638, 0.470725, -0.540634, 0.336594, -2.08253, -2.16526, -0.130089, 0.470803, -0.542392, 0.335361, -2.08393, -2.16934, -0.115597, -0.00545963, 0.0539787, 0.0133988, 0.00884471, 0.00337044, 0.00213798
0.158067, 1.69596, -1.22604, -1.53834, -0.899945, -1.20147, 1.22861, -1.30261, 0.0228382, 0.00418337, 0.00206466, -0.0172255, -0.0572905, 0.000247457, 0.0027801, -2.16637, 58.3282, 28.1589, 7.29126, 1.68201, 3.31759, 0.0165515, -0.00197874, 6.05351e-05, 0.000949695, 0.00477497, -0.00919799, -0.000714671, 0.0515151, -0.0142344, -0.0049535, -0.0252235, 0.0806836, 0.0212381, 0.470719, -0.54058, 0.336608, -2.0825, -2.16525, -0.130092, 0.470816, -0.542383, 0.335359, -2.08391, -2.16937, -0.115531, -0.00552369, 0.0546373, 0.0135535, 0.0103651, 0.00514527, 0.000172674
0.159067, 1.69598, -1.22604, -1.53834, -0.899968, -1.2015, 1.22862, -1.3026, 0.0195208, 0.00243112, 1.33594e-05, -0.0210491, -0.0520265, -7.23878e-05, 0.00312182, -2.13067, 58.3679, 28.2343, 7.36664, 1.6756, 3.324, -0.00999879, -0.00202622, 7.67619e-05, 0.000956306, 0.00478283, -0.00925258, -0.0007338, 0.0520595, -0.0134756, -0.00715108, -0.026161, 0.0751877, 0.0218458, 0.470714, -0.540525, 0.336621, -2.08248, -2.16524, -0.130096, 0.470828, -0.542374, 0.335358, -2.08388, -2.16941, -0.115473, -0.00558799, 0.0552987, 0.0137087, 0.00948146, 0.00557892, -0.00190457
0.160067, 1.696, -1.22604, -1.53833, -0.899973, -1.20154, 1.22862, -1.3026, 0.0161537, 0.00270947, 0.00252914, -0.0175403, -0.0443272, 0.0001891, 0.0030071, -2.05529, 58.475, 28.274, 7.18018, 1.69391, 3.31759, -0.0292249, -0.00207981, 8.8862e-05, 0.000960516, 0.00477876, -0.00930348, -0.000738727, 0.0532305, -0.0121932, -0.00547643, -0.0178182, 0.0690269, 0.0194005, 0.470708, -0.54047, 0.336635, -2.08245, -2.16522, -0.1301, 0.470836, -0.54237, 0.335359, -2.08388, -2.16943, -0.115431, -0.00565251, 0.0559631, 0.0138645, 0.00824064, 0.00477533, -0.000240284
0.161067, 1.69602, -1.22603, -1.53832, -0.899997, -1.20157, 1.22862, -1.3026, 0.018081, 0.00626603, 0.00533154, -0.0205516, -0.0431009, 0.000126067, 0.00240245, -2.16637, 58.4393, 28.274, 7.21588, 1.70581, 3.31759, -0.0356336, -0.00212204, 0.000109885, 0.000961442, 0.00478418, -0.0093614, -0.000771777, 0.0509902, -0.0145428, -0.00296624, -0.0161096, 0.0720325, 0.0262868, 0.470702, -0.540414, 0.336649, -2.08242, -2.16521, -0.130104, 0.470853, -0.542355, 0.335365, -2.08384, -2.16949, -0.115373, -0.00571726, 0.0566303, 0.0140207, 0.0105347, 0.0073623, 0.00267019
0.162067, 1.69603, -1.22603, -1.53831, -0.900014, -1.2016, 1.22861, -1.3026, 0.0129079, 0.00143549, 0.00568688, -0.0241866, -0.0424604, 8.40446e-05, 0.00195926, -2.01562, 58.5861, 28.3454, 7.18018, 1.73053, 3.31759, -0.0420422, -0.00217716, 0.000119287, 0.000967654, 0.00478734, -0.00941207, -0.000779428, 0.0531614, -0.0127125, -0.00596701, -0.0167424, 0.0671616, 0.0253453, 0.470697, -0.540357, 0.336663, -2.08239, -2.1652, -0.130108, 0.470858, -0.542351, 0.335364, -2.08383, -2.16951, -0.115323, -0.00578224, 0.0573004, 0.0141774, 0.00860917, 0.00627925, -0.000419686
0.163067, 1.69604, -1.22603, -1.5383, -0.900042, -1.20163, 1.22862, -1.3026, 0.0136605, 0.00285705, 0.00679877, -0.0254819, -0.0365487, 0.000598564, 0.000921657, -1.90453, 58.6615, 28.3851, 7.21588, 1.73694, 3.30295, -0.0292249, -0.00222853, 0.000131812, 0.000972887, 0.00478887, -0.00946224, -0.000800337, 0.0516477, -0.0143944, -0.00497194, -0.0130354, 0.0644041, 0.0308106, 0.470691, -0.5403, 0.336677, -2.08237, -2.16519, -0.130113, 0.470867, -0.542343, 0.335364, -2.08381, -2.16955, -0.115277, -0.00584743, 0.0579733, 0.0143346, 0.0102061, 0.00836202, 0.000903044
0.164067, 1.69605, -1.22602, -1.5383, -0.900053, -1.20166, 1.22861, -1.3026, 0.0146207, 0.00339109, 0.00451597, -0.0180513, -0.0329028, 0.000127776, -0.000538614, -1.94024, 58.6258, 28.4208, 7.02942, 1.76166, 3.31027, 0.00373412, -0.00228073, 0.000145276, 0.000972589, 0.00478294, -0.00951545, -0.000817457, 0.0537713, -0.0132243, -0.00458254, -0.0101947, 0.0615673, 0.0268815, 0.470685, -0.540242, 0.336692, -2.08234, -2.16517, -0.130117, 0.470876, -0.542336, 0.33537, -2.08379, -2.16958, -0.115235, -0.00591285, 0.058649, 0.0144922, 0.00906341, 0.00683326, 0.00114783
0.165067, 1.69607, -1.22603, -1.53829, -0.90008, -1.20168, 1.22861, -1.3026, 0.0111491, 0.00235649, 0.00597875, -0.0201035, -0.0291968, 8.51838e-05, -7.0979e-05, -1.94024, 58.7726, 28.4565, 7.02942, 1.76166, 3.31027, -0.00267457, -0.00233012, 0.000161553, 0.000980517, 0.0047826, -0.00955622, -0.000843248, 0.0544606, -0.012463, -0.0048352, -0.00760969, 0.0578087, 0.0268069, 0.470679, -0.540183, 0.336706, -2.08231, -2.16516, -0.130121, 0.470888, -0.542324, 0.335369, -2.08376, -2.16962, -0.115201, -0.00597848, 0.0593275, 0.0146504, 0.00825315, 0.00683948, 0.000970855
0.166067, 1.69607, -1.22602, -1.53828, -0.900103, -1.2017, 1.22862, -1.30261, 0.0107027, 0.00135548, 0.00599831, -0.0211746, -0.0222361, 0.000599324, -0.000721343, -1.90453, 58.8083, 28.5319, 6.99371, 1.77356, 3.29562, 0.0165515, -0.00238303, 0.000173501, 0.000981495, 0.00477658, -0.00960594, -0.000862286, 0.053808, -0.0133934, -0.00556094, -0.00429146, 0.0517965, 0.0303832, 0.470673, -0.540124, 0.336721, -2.08228, -2.16515, -0.130125, 0.470896, -0.542316, 0.335374, -2.08374, -2.16966, -0.115164, -0.00604433, 0.0600088, 0.0148089, 0.00906615, 0.00831645, 0.000484735
0.167067, 1.69608, -1.22602, -1.53827, -0.900131, -1.20171, 1.22862, -1.3026, 0.00641494, 0.00193919, 0.00709608, -0.0247159, -0.0225888, 0.000670817, 2.2363e-05, -1.82915, 58.9194, 28.5715, 6.95801, 1.81018, 3.2883, 0.00373412, -0.00243589, 0.000185931, 0.000985625, 0.00476952, -0.0096478, -0.000881325, 0.0551621, -0.0119778, -0.00513266, -0.00424517, 0.0531712, 0.0289624, 0.470667, -0.540064, 0.336735, -2.08225, -2.16513, -0.130129, 0.470904, -0.542307, 0.335376, -2.08371, -2.16969, -0.115136, -0.00611038, 0.0606929, 0.014968, 0.00765138, 0.00753937, 0.000897154
0.168067, 1.69608, -1.22601, -1.53826, -0.900159, -1.20172, 1.22862, -1.30261, 0.00634032, 0.00234808, 0.00793645, -0.0265613, -0.0167586, 0.000718478, -0.000438404, -1.75378, 59.0305, 28.6072, 6.88263, 1.81018, 3.28097, 0.0165515, -0.00248708, 0.000200526, 0.000990066, 0.00475987, -0.0096851, -0.000908055, 0.0539893, -0.0131953, -0.00490359, -0.00143553, 0.0492922, 0.0333783, 0.470661, -0.540003, 0.33675, -2.08222, -2.16512, -0.130134, 0.470914, -0.542296, 0.335378, -2.08368, -2.16973, -0.115116, -0.00617665, 0.0613797, 0.0151275, 0.00876739, 0.00939913, 0.00142698
0.169067, 1.69609, -1.226, -1.53826, -0.900184, -1.20173, 1.22862, -1.3026, 0.00506731, 0.00556362, 0.00685681, -0.0270676, -0.0129217, 0.000716345, -3.88566e-05, -1.75378, 59.0305, 28.7183, 6.77154, 1.823, 3.27456, 0.0101428, -0.00253884, 0.000214606, 0.000990258, 0.00475147, -0.00973068, -0.000929474, 0.0542718, -0.0128175, -0.00345072, -0.000210701, 0.0497871, 0.0329305, 0.470655, -0.539942, 0.336766, -2.08219, -2.1651, -0.130138, 0.470924, -0.542285, 0.335384, -2.08365, -2.16977, -0.115085, -0.00624313, 0.0620692, 0.0152874, 0.00838808, 0.00956913, 0.00298716
0.170067, 1.69609, -1.22599, -1.53825, -0.90022, -1.20174, 1.22862, -1.3026, 0.00262059, 0.00451755, 0.00607941, -0.0270209, -0.0102486, 0.00074883, 0.000460854, -1.56335, 59.0305, 28.8294, 6.77154, 1.84131, 3.26724, -0.00267457, -0.00259413, 0.000223255, 0.000990929, 0.00474559, -0.00977729, -0.000942972, 0.0558225, -0.0116661, -0.00425595, 0.000839354, 0.0469003, 0.030579, 0.470649, -0.53988, 0.336781, -2.08216, -2.16509, -0.130143, 0.470928, -0.542277, 0.33539, -2.08363, -2.1698, -0.11505, -0.00630981, 0.0627614, 0.0154478, 0.0071978, 0.00880843, 0.00214411
0.171067, 1.69609, -1.22599, -1.53823, -0.900255, -1.20174, 1.22862, -1.3026, 0.00469197, 0.00249115, 0.00988314, -0.028871, -0.00778669, 0.000227953, 0.00153697, -1.52764, 59.213, 28.754, 6.73187, 1.84772, 3.27456, -0.0356336, -0.00264348, 0.000240289, 0.000996218, 0.00472935, -0.00980402, -0.000973513, 0.0539228, -0.0141723, -0.00457026, 0.00365682, 0.0429599, 0.0359175, 0.470642, -0.539817, 0.336796, -2.08213, -2.16508, -0.130147, 0.470941, -0.542261, 0.335391, -2.08359, -2.16984, -0.115049, -0.00637669, 0.0634563, 0.0156086, 0.00955362, 0.0115315, 0.00221249
0.172068, 1.69609, -1.22598, -1.53822, -0.900293, -1.20175, 1.22862, -1.30259, 0.005342, 0.00721203, 0.00898477, -0.030766, -0.00640701, 0.000151969, 0.00150614, -1.45226, 59.1415, 28.8294, 6.69617, 1.86603, 3.27456, -0.0484509, -0.00269493, 0.000253492, 0.000993219, 0.00471854, -0.00985144, -0.00100004, 0.0532426, -0.014898, -0.00246178, 0.00301965, 0.0471159, 0.0382481, 0.470636, -0.539753, 0.336812, -2.0821, -2.16506, -0.130152, 0.470949, -0.542249, 0.335401, -2.08356, -2.16988, -0.11502, -0.00644377, 0.0641539, 0.0157699, 0.0102655, 0.0126038, 0.00453747
0.173068, 1.69608, -1.22597, -1.53822, -0.900325, -1.20174, 1.22862, -1.30259, 0.00490192, 0.0031035, 0.0076708, -0.0292527, -0.00511543, 0.000643847, 0.00100917, -1.33721, 59.2487, 28.9405, 6.54541, 1.87793, 3.25992, -0.0484509, -0.00275142, 0.000264403, 0.000999406, 0.00470406, -0.00987979, -0.00102115, 0.0550692, -0.0144368, -0.00511865, 0.00347895, 0.0425091, 0.036935, 0.470629, -0.539689, 0.336828, -2.08207, -2.16505, -0.130156, 0.470956, -0.542239, 0.335402, -2.08353, -2.16991, -0.115014, -0.00651106, 0.0648541, 0.0159315, 0.00970481, 0.011895, 0.00180299
0.174068, 1.69608, -1.22597, -1.53821, -0.900362, -1.20174, 1.22862, -1.30259, 0.00549809, 0.00324311, 0.00743248, -0.032461, -0.00418747, 0.000700499, 0.00067659, -1.26183, 59.3597, 29.0159, 6.43433, 1.89075, 3.25259, -0.0484509, -0.00280601, 0.000276697, 0.00100485, 0.00469532, -0.00991135, -0.00104756, 0.0544332, -0.015602, -0.00564068, 0.00231506, 0.0426155, 0.0409241, 0.470623, -0.539624, 0.336844, -2.08204, -2.16503, -0.130161, 0.470963, -0.542226, 0.335403, -2.08349, -2.16995, -0.115, -0.00657853, 0.0655569, 0.0160936, 0.0107588, 0.0133555, 0.00151134
0.175068, 1.69608, -1.22596, -1.53819, -0.900403, -1.20174, 1.22862, -1.3026, 0.00284343, 0.00511447, 0.0099817, -0.033336, -0.0034593, 0.000738267, -0.000732877, -1.18645, 59.3994, 28.9802, 6.39465, 1.90265, 3.24527, -0.0164075, -0.00285809, 0.000291247, 0.00100521, 0.00467692, -0.00994569, -0.00108531, 0.0552269, -0.0148523, -0.0036642, 0.00522394, 0.0440921, 0.0419665, 0.470616, -0.539559, 0.33686, -2.082, -2.16502, -0.130166, 0.470973, -0.542212, 0.33541, -2.08345, -2.17, -0.114994, -0.0066462, 0.0662624, 0.0162561, 0.0100451, 0.01294, 0.00352225
0.176068, 1.69607, -1.22596, -1.53818, -0.900445, -1.20174, 1.22862, -1.3026, 3.12081e-06, 0.00580011, 0.00921761, -0.0359692, -0.00339186, 0.0010008, -0.00123243, -1.07537, 59.4708, 29.0555, 6.28357, 1.92737, 3.23153, 0.00373412, -0.00291475, 0.000302846, 0.00100855, 0.00466275, -0.00998176, -0.00111419, 0.0565459, -0.0137994, -0.00376851, 0.00422161, 0.04542, 0.0416733, 0.47061, -0.539493, 0.336876, -2.08197, -2.165, -0.13017, 0.47098, -0.5422, 0.335414, -2.08341, -2.17004, -0.114981, -0.00671407, 0.0669704, 0.016419, 0.00896971, 0.0123192, 0.0034066
0.177068, 1.69607, -1.22595, -1.53816, -0.900495, -1.20174, 1.22862, -1.3026, -0.000396472, 0.00607249, 0.0086945, -0.0423949, -0.00194803, 0.000158576, -0.000582652, -1.0357, 59.5462, 29.1269, 6.24786, 1.91546, 3.24527, -0.00267457, -0.00296768, 0.00031761, 0.00101422, 0.00465481, -0.0100146, -0.00115099, 0.0552599, -0.0149664, -0.00478666, 0.000915429, 0.0450806, 0.046546, 0.470603, -0.539426, 0.336892, -2.08194, -2.16499, -0.130175, 0.47099, -0.542184, 0.335416, -2.08336, -2.17009, -0.114965, -0.00678212, 0.0676811, 0.0165822, 0.00998287, 0.0145062, 0.00272814
0.178068, 1.69606, -1.22595, -1.53815, -0.900545, -1.20174, 1.22862, -1.3026, -0.00163045, 0.00412502, 0.00823866, -0.04322, -0.00139439, 0.000614344, -0.000861947, -0.960319, 59.5819, 29.2023, 6.17248, 1.91546, 3.23153, 0.0101428, -0.00302113, 0.000332854, 0.00101754, 0.00464172, -0.0100505, -0.00119039, 0.0565162, -0.0146039, -0.00615098, 0.000961204, 0.0433536, 0.0464006, 0.470596, -0.539358, 0.336909, -2.0819, -2.16497, -0.13018, 0.471, -0.542168, 0.33542, -2.08331, -2.17014, -0.114952, -0.00685036, 0.0683942, 0.0167459, 0.00954726, 0.014177, 0.00135766
0.179068, 1.69605, -1.22594, -1.53814, -0.9006, -1.20174, 1.22862, -1.3026, -0.00524364, 0.00399971, 0.00877121, -0.0477826, -0.00120482, 0.000409563, 0.000409617, -0.76989, 59.693, 29.238, 6.13678, 1.92096, 3.23153, -0.0164075, -0.00307754, 0.000344795, 0.00102184, 0.00462897, -0.0100851, -0.00122195, 0.0573496, -0.0137202, -0.00654254, -0.000109151, 0.0436174, 0.0459404, 0.470589, -0.53929, 0.336926, -2.08187, -2.16495, -0.130185, 0.471007, -0.542154, 0.335424, -2.08327, -2.17018, -0.114939, -0.00691878, 0.06911, 0.01691, 0.00861205, 0.0140949, 0.00103035
0.180068, 1.69604, -1.22594, -1.53812, -0.900649, -1.20174, 1.22862, -1.30259, -0.00587085, 0.00566213, 0.0132396, -0.0495131, -0.00153521, 0.000544309, 0.00146055, -0.658806, 59.7287, 29.238, 6.02173, 1.93927, 3.22421, -0.0484509, -0.00313346, 0.000359182, 0.00102368, 0.00461216, -0.0101235, -0.00125131, 0.0568376, -0.0145392, -0.00422546, 0.0033599, 0.0458357, 0.0478446, 0.470582, -0.53922, 0.336943, -2.08184, -2.16494, -0.13019, 0.471016, -0.542139, 0.335429, -2.08323, -2.17023, -0.114927, -0.00698738, 0.0698282, 0.0170744, 0.00942977, 0.0149928, 0.00353485
0.181068, 1.69603, -1.22594, -1.5381, -0.900706, -1.20174, 1.22862, -1.30259, -0.00467439, 0.0042108, 0.0133364, -0.0547737, 0.00375435, 9.16054e-05, 0.00073685, -0.619133, 59.8755, 29.238, 5.95032, 1.93927, 3.23153, -0.0420422, -0.00318749, 0.000375705, 0.00102956, 0.0045997, -0.0101559, -0.00129497, 0.0545102, -0.0169857, -0.00593753, 0.00287303, 0.0407282, 0.0562736, 0.470575, -0.539151, 0.33696, -2.0818, -2.16492, -0.130195, 0.471027, -0.542121, 0.335432, -2.08317, -2.17028, -0.114918, -0.00705617, 0.0705489, 0.0172392, 0.0116561, 0.0183791, 0.00229617
0.182068, 1.69601, -1.22593, -1.53808, -0.900764, -1.20174, 1.22862, -1.30259, -0.00828033, 0.0067383, 0.013676, -0.0559475, 0.00219597, 0.000874872, 0.000254256, -0.392998, 59.8755, 29.3531, 5.87494, 1.95758, 3.20956, -0.0356336, -0.00324706, 0.000384956, 0.00103091, 0.00458758, -0.0101968, -0.00132654, 0.0565856, -0.0152488, -0.00427482, 0.0035068, 0.0452581, 0.0538766, 0.470568, -0.53908, 0.336977, -2.08177, -2.16491, -0.1302, 0.471032, -0.542108, 0.335438, -2.08313, -2.17032, -0.114898, -0.00712513, 0.0712721, 0.0174044, 0.00999021, 0.0167238, 0.00382962
0.183068, 1.696, -1.22593, -1.53806, -0.900831, -1.20173, 1.22862, -1.30259, -0.0121229, 0.00501655, 0.0191868, -0.0570527, 0.00618543, 0.000583248, 0.000644508, -0.242241, 60.0223, 29.3888, 5.83527, 1.96399, 3.20956, -0.0484509, -0.00330201, 0.000401257, 0.00103826, 0.00457368, -0.0102277, -0.00137312, 0.0569047, -0.0147779, -0.00337268, 0.0100096, 0.0401233, 0.0547358, 0.470561, -0.539009, 0.336994, -2.08173, -2.16489, -0.130205, 0.471042, -0.54209, 0.335439, -2.08307, -2.17038, -0.114892, -0.00719427, 0.0719978, 0.0175699, 0.00949642, 0.0169752, 0.00484845
