alisrour97/Franka_experiments/Real_Robot_scripts/servo-franka/Data3/log_dyn_INIT0_l_ki_5.csv
Time,q1,q2,q3,q4,q5,q6,q7,dq1,dq2,dq3,dq4,dq5,dq6,dq7,t1,t2,t3,t4,t5,t6,t7,ex1,ex2,ex3,ex4,ex5,ex6,ev1,ev2,ev3,ev4,ev5,ev6,xd,yd,zd,uxd,uyd,uzd,x,y,z,ux,uy,uz,vxd,vyd,vzd,vx,vy,vz
1.46484e-06, 1.69155, -1.22515, -1.53738, -0.900006, -1.19169, 1.228, -1.30264, -0.00186684, -0.000986557, 0.00101726, 0.000653454, 0.000450639, 0.00844383, 0.000280526, -0.960319, 56.3406, 26.2229, 6.39465, 1.45404, 3.72592, -0.120778, 0.00125747, -0.00145473, -0.000329709, 3.92038e-05, -0.00048697, -0.000501439, 0.00169767, -0.000599306, 0.000713585, 0.00895791, 0.00264398, -0.00203431, 0.471008, -0.543389, 0.335894, -2.08385, -2.16584, -0.129887, 0.469516, -0.542264, 0.336459, -2.08356, -2.16662, -0.129392, -4.82042e-07, 4.44613e-06, 1.21621e-06, 0.00068451, -0.00175687, 0.000424301
0.0122031, 1.69154, -1.22515, -1.53738, -0.899995, -1.19169, 1.22802, -1.30265, -0.000876971, 0.00076251, 0.000103115, 0.00110699, -4.8002e-05, 0.00183224, 0.000395545, -0.960319, 56.3763, 26.1872, 6.35895, 1.45404, 3.74057, -0.147328, 0.00125168, -0.00145842, -0.000335627, 1.75846e-05, -0.000489446, -0.000493899, 0.000837094, 0.000403877, 0.000843749, 0.00238912, 0.00157999, -0.00220801, 0.471008, -0.543389, 0.335894, -2.08385, -2.16584, -0.129887, 0.469519, -0.542265, 0.336463, -2.08357, -2.16664, -0.129421, -1.47349e-06, 1.36697e-05, 3.70923e-06, -0.000344442, -0.000959128, 0.000719105
0.0132031, 1.69154, -1.22515, -1.53738, -0.899995, -1.19169, 1.22802, -1.30265, -0.000876971, 0.00076251, 0.000103115, 0.00110699, -4.8002e-05, 0.00183224, 0.000395545, -0.960319, 56.3763, 26.1872, 6.35895, 1.45404, 3.74057, -0.147328, 0.00125167, -0.00145842, -0.000335626, 1.75827e-05, -0.000489448, -0.000493899, 0.000850842, 0.000402885, 0.0008423, 0.00239106, 0.00158617, -0.00220686, 0.471008, -0.543389, 0.335894, -2.08385, -2.16584, -0.129887, 0.469519, -0.542265, 0.336463, -2.08357, -2.16664, -0.129421, -2.9032e-06, 2.69793e-05, 7.30333e-06, -0.000344442, -0.000959128, 0.000719105
0.0142031, 1.69154, -1.22515, -1.53738, -0.899995, -1.19169, 1.22802, -1.30265, -0.000876971, 0.00076251, 0.000103115, 0.00110699, -4.8002e-05, 0.00183224, 0.000395545, -0.960319, 56.3763, 26.1872, 6.35895, 1.45404, 3.74057, -0.147328, 0.00125165, -0.00145842, -0.000335624, 1.75774e-05, -0.000489455, -0.000493896, 0.000869464, 0.000401543, 0.000840341, 0.00239369, 0.00159454, -0.00220531, 0.471008, -0.543389, 0.335894, -2.08385, -2.16584, -0.129887, 0.469519, -0.542265, 0.336463, -2.08357, -2.16664, -0.129421, -4.83863e-06, 4.50071e-05, 1.21677e-05, -0.000344442, -0.000959128, 0.000719105
0.0152031, 1.69154, -1.22515, -1.53738, -0.899995, -1.19169, 1.22802, -1.30265, -0.000876971, 0.00076251, 0.000103115, 0.00110699, -4.8002e-05, 0.00183224, 0.000395545, -0.960319, 56.3763, 26.1872, 6.35895, 1.45404, 3.74057, -0.147328, 0.00125161, -0.00145842, -0.00033562, 1.75672e-05, -0.000489469, -0.000493892, 0.000893549, 0.000399809, 0.000837813, 0.00239712, 0.00160537, -0.0022033, 0.471008, -0.543389, 0.335894, -2.08385, -2.16584, -0.129887, 0.469519, -0.542265, 0.336463, -2.08357, -2.16664, -0.129421, -7.34058e-06, 6.83239e-05, 1.84546e-05, -0.000344442, -0.000959128, 0.000719105
0.0162031, 1.69154, -1.22515, -1.53738, -0.899995, -1.19169, 1.22802, -1.30265, -0.000876971, 0.00076251, 0.000103115, 0.00110699, -4.8002e-05, 0.00183224, 0.000395545, -0.960319, 56.3763, 26.1872, 6.35895, 1.45404, 3.74057, -0.147328, 0.00125155, -0.00145841, -0.000335613, 1.75504e-05, -0.000489491, -0.000493884, 0.000923597, 0.000397647, 0.000834663, 0.0024014, 0.0016189, -0.00220079, 0.471008, -0.543389, 0.335894, -2.08385, -2.16584, -0.129887, 0.469519, -0.542265, 0.336463, -2.08357, -2.16664, -0.129421, -1.04607e-05, 9.7416e-05, 2.62933e-05, -0.000344442, -0.000959128, 0.000719105
0.0172031, 1.69154, -1.22515, -1.53738, -0.899995, -1.19169, 1.22802, -1.30265, -0.000876971, 0.00076251, 0.000103115, 0.00110699, -4.8002e-05, 0.00183224, 0.000395545, -0.960319, 56.3763, 26.1872, 6.35895, 1.45404, 3.74057, -0.147328, 0.00125145, -0.0014584, -0.000335602, 1.75252e-05, -0.000489525, -0.000493873, 0.000960002, 0.000395029, 0.000830853, 0.00240659, 0.0016353, -0.00219775, 0.471008, -0.543389, 0.335894, -2.08385, -2.16584, -0.129887, 0.469519, -0.542265, 0.336463, -2.08357, -2.16664, -0.129421, -1.42391e-05, 0.000132663, 3.57838e-05, -0.000344442, -0.000959128, 0.000719105
0.0182034, 1.69154, -1.22515, -1.53738, -0.899995, -1.19169, 1.22802, -1.30265, -0.000876971, 0.00076251, 0.000103115, 0.00110699, -4.8002e-05, 0.00183224, 0.000395545, -0.960319, 56.3763, 26.1872, 6.35895, 1.45404, 3.74057, -0.147328, 0.00125132, -0.00145839, -0.000335588, 1.74902e-05, -0.000489571, -0.000493857, 0.00100302, 0.000391939, 0.000826359, 0.00241275, 0.00165468, -0.00219416, 0.471008, -0.543389, 0.335894, -2.08385, -2.16584, -0.129887, 0.469519, -0.542265, 0.336463, -2.08357, -2.16664, -0.129421, -1.87016e-05, 0.000174312, 4.69907e-05, -0.000344442, -0.000959128, 0.000719105
0.0192036, 1.69154, -1.22515, -1.53738, -0.899995, -1.19169, 1.22802, -1.30265, -0.000876971, 0.00076251, 0.000103115, 0.00110699, -4.8002e-05, 0.00183224, 0.000395545, -0.960319, 56.3763, 26.1872, 6.35895, 1.45404, 3.74057, -0.147328, 0.00125114, -0.00145838, -0.000335569, 1.74435e-05, -0.000489633, -0.000493836, 0.00105275, 0.000388369, 0.000821172, 0.0024199, 0.00167711, -0.00219001, 0.471008, -0.543389, 0.335894, -2.08385, -2.16584, -0.129887, 0.469519, -0.542265, 0.336463, -2.08357, -2.16664, -0.129421, -2.38577e-05, 0.00022246, 5.99368e-05, -0.000344442, -0.000959128, 0.000719105
0.0202036, 1.69154, -1.22515, -1.53738, -0.899995, -1.19169, 1.22802, -1.30265, -0.000876971, 0.00076251, 0.000103115, 0.00110699, -4.8002e-05, 0.00183224, 0.000395545, -0.960319, 56.3763, 26.1872, 6.35895, 1.45404, 3.74057, -0.147328, 0.00125091, -0.00145836, -0.000335545, 1.73837e-05, -0.000489713, -0.000493809, 0.0011091, 0.000384327, 0.000815305, 0.00242801, 0.00170254, -0.0021853, 0.471008, -0.543389, 0.335894, -2.08385, -2.16584, -0.129887, 0.469519, -0.542265, 0.336463, -2.08357, -2.16664, -0.129421, -2.96979e-05, 0.000277024, 7.45974e-05, -0.000344442, -0.000959128, 0.000719105
0.0212041, 1.69154, -1.22515, -1.53738, -0.899995, -1.19169, 1.22802, -1.30265, -0.000876971, 0.00076251, 0.000103115, 0.00110699, -4.8002e-05, 0.00183224, 0.000395545, -0.960319, 56.3763, 26.1872, 6.35895, 1.45404, 3.74057, -0.147328, 0.00125063, -0.00145834, -0.000335515, 1.7309e-05, -0.000489812, -0.000493776, 0.00117179, 0.000379834, 0.000808791, 0.00243707, 0.00173086, -0.00218006, 0.471008, -0.543388, 0.335894, -2.08385, -2.16584, -0.129887, 0.469519, -0.542265, 0.336463, -2.08357, -2.16664, -0.129421, -3.61913e-05, 0.000337726, 9.08941e-05, -0.000344442, -0.000959128, 0.000719105
0.0222041, 1.69154, -1.22515, -1.53738, -0.899995, -1.19169, 1.22802, -1.30265, -0.000876971, 0.00076251, 0.000103115, 0.00110699, -4.8002e-05, 0.00183224, 0.000395545, -0.960319, 56.3763, 26.1872, 6.35895, 1.45404, 3.74057, -0.147328, 0.00125028, -0.00145832, -0.000335478, 1.72177e-05, -0.000489933, -0.000493735, 0.0012406, 0.000374907, 0.000801655, 0.00244704, 0.00176196, -0.00217431, 0.471008, -0.543388, 0.335894, -2.08385, -2.16584, -0.129887, 0.469519, -0.542265, 0.336463, -2.08357, -2.16664, -0.129421, -4.33151e-05, 0.00040436, 0.000108769, -0.000344442, -0.000959128, 0.000719105
0.0232041, 1.69154, -1.22515, -1.53738, -0.899995, -1.19169, 1.22802, -1.30265, -0.000876971, 0.00076251, 0.000103115, 0.00110699, -4.8002e-05, 0.00183224, 0.000395545, -0.960319, 56.3763, 26.1872, 6.35895, 1.45404, 3.74057, -0.147328, 0.00124986, -0.00145829, -0.000335435, 1.71084e-05, -0.000490078, -0.000493686, 0.00131551, 0.000369548, 0.000793901, 0.00245793, 0.00179584, -0.00216805, 0.471008, -0.543388, 0.335894, -2.08385, -2.16584, -0.129887, 0.469519, -0.542265, 0.336463, -2.08357, -2.16664, -0.129421, -5.10658e-05, 0.000476901, 0.000128212, -0.000344442, -0.000959128, 0.000719105
0.0242043, 1.69155, -1.22514, -1.53738, -0.899987, -1.19168, 1.22801, -1.30265, -0.00428416, 0.000473834, -0.000649843, -0.000131347, 7.73096e-06, -0.00475303, -0.000174421, -0.960319, 56.2653, 26.2229, 6.32324, 1.46045, 3.76163, -0.140919, 0.00125002, -0.00145905, -0.000342537, 1.30444e-05, -0.000496215, -0.000490608, 0.00203221, 0.00332317, -0.000222962, -0.00397273, -0.0017001, -0.00421321, 0.471008, -0.543387, 0.335894, -2.08385, -2.16584, -0.129887, 0.469518, -0.542266, 0.336471, -2.08358, -2.16664, -0.129419, -5.94401e-05, 0.000555325, 0.000149214, -0.0033137, -0.00155257, -0.000286198
0.0252046, 1.69155, -1.22515, -1.53738, -0.899989, -1.19168, 1.22801, -1.30265, -0.00319373, -0.0020206, 0.0012372, -8.73696e-05, 0.000683323, -0.00189988, 0.000121078, -0.960319, 56.2296, 26.1515, 6.32324, 1.44214, 3.7186, -0.147328, 0.00124994, -0.00145698, -0.000338127, 1.30686e-05, -0.000490761, -0.000490346, 0.0016556, 0.00174099, -0.000827169, 0.000127972, -0.00338184, -0.00228226, 0.471008, -0.543387, 0.335895, -2.08385, -2.16584, -0.129887, 0.46952, -0.542264, 0.336466, -2.08358, -2.16663, -0.129424, -6.84344e-05, 0.000639605, 0.000171766, -0.00177783, -0.000938768, -0.000849482
0.0262048, 1.69155, -1.22515, -1.53738, -0.899981, -1.19168, 1.22802, -1.30265, -0.00238237, 0.000450895, 0.00342326, 0.000509359, -0.00756133, 0.00218577, -0.000665267, -0.960319, 56.0074, 26.0404, 6.17248, 1.3927, 3.6188, -0.127186, 0.00124699, -0.0014565, -0.00033892, 1.14266e-06, -0.000489876, -0.000486704, 0.00292924, 0.00125445, 0.00178908, 0.00212967, 0.00772301, -0.00296881, 0.471008, -0.543386, 0.335895, -2.08384, -2.16584, -0.129887, 0.469521, -0.542267, 0.336467, -2.08359, -2.16663, -0.129438, -7.80454e-05, 0.000729718, 0.000195859, -0.00116156, -0.00248882, 0.00154563
0.0272051, 1.69155, -1.22515, -1.53738, -0.899986, -1.19169, 1.22802, -1.30265, -0.00354139, 0.0023468, 0.00144695, 9.30978e-05, -0.0106684, -0.00184557, -0.00190157, -0.884941, 55.9003, 26.0761, 6.17248, 1.3927, 3.57577, -0.0878186, 0.00124517, -0.00145795, -0.00033593, 1.34606e-05, -0.000495093, -0.000486407, 0.00384697, 0.00327258, 0.00183972, -0.00439428, 0.0103377, -0.00453584, 0.471008, -0.543385, 0.335895, -2.08384, -2.16584, -0.129887, 0.469519, -0.542267, 0.336464, -2.08358, -2.16663, -0.129419, -8.82697e-05, 0.000825639, 0.000221482, -0.00315266, -0.00338928, 0.00153964
0.0282051, 1.69155, -1.22515, -1.53738, -0.899987, -1.19169, 1.22801, -1.30265, -0.000890303, 0.00121995, 0.00179985, 0.000712427, -0.00792487, -0.00121772, 0.00393974, -0.809562, 55.9003, 26.0404, 6.13678, 1.38721, 3.56112, -0.101552, 0.00124532, -0.00145799, -0.000337602, 1.63228e-05, -0.000499003, -0.00048541, 0.00251434, 0.00141074, 0.00129405, -0.00245579, 0.00732903, -0.00718013, 0.471008, -0.543384, 0.335895, -2.08384, -2.16584, -0.129887, 0.469519, -0.542267, 0.336466, -2.08359, -2.16663, -0.129412, -9.91039e-05, 0.000927342, 0.000248628, -0.0013714, -0.00181179, 0.0011787
0.0292051, 1.69155, -1.22515, -1.53738, -0.899986, -1.1917, 1.22801, -1.30265, -0.00218224, 0.00180418, -0.000835273, 0.00126433, -0.00624874, -0.00148048, 0.00156, -0.734184, 56.1185, 26.2626, 6.09711, 1.3927, 3.56845, -0.0621838, 0.00124118, -0.00146077, -0.00033151, 2.50034e-05, -0.000494052, -0.000479659, 0.00349756, 0.0025828, 0.000813012, -0.00367889, 0.00654174, -0.0072669, 0.471007, -0.543383, 0.335895, -2.08384, -2.16584, -0.129887, 0.469516, -0.542269, 0.336459, -2.08358, -2.16662, -0.129407, -0.000110545, 0.0010348, 0.000277287, -0.0025356, -0.00264892, 0.000615094
0.0302051, 1.69155, -1.22516, -1.53738, -0.899988, -1.1917, 1.22801, -1.30265, -0.00308717, 0.000349677, 0.00213742, -0.00225602, -0.00544944, -0.00206493, 0.00082505, -0.658806, 56.3049, 26.2983, 6.09711, 1.41192, 3.58951, -0.0484509, 0.00124172, -0.001459, -0.00033263, 2.11589e-05, -0.000495095, -0.000484796, 0.00227272, 0.00176528, 0.0005085, -0.00285789, 0.00429476, -0.00260885, 0.471007, -0.543382, 0.335896, -2.08384, -2.16584, -0.129887, 0.469518, -0.542267, 0.336461, -2.08358, -2.16663, -0.129411, -0.000122588, 0.001148, 0.000307449, -0.00178597, -0.0012462, 0.00051003
0.0312051, 1.69155, -1.22516, -1.53737, -0.89999, -1.1917, 1.22801, -1.30265, -0.00372317, 0.000463707, 0.000966702, -0.0027596, -0.00473978, -0.0021427, 0.000770291, -0.583427, 56.4517, 26.3379, 6.13678, 1.43024, 3.60415, -0.0484509, 0.00124145, -0.00145852, -0.00033463, 1.72332e-05, -0.000496547, -0.000489985, 0.00261354, 0.00214259, 0.000104671, -0.00373154, 0.00394579, -0.00305919, 0.471007, -0.543381, 0.335896, -2.08384, -2.16584, -0.129887, 0.469518, -0.542267, 0.336463, -2.08358, -2.16663, -0.129414, -0.000135232, 0.0012669, 0.000339106, -0.00217782, -0.00141704, 0.000101412
0.0322051, 1.69155, -1.22516, -1.53736, -0.899989, -1.1917, 1.22801, -1.30265, -0.0033365, -0.00163988, 0.00643331, -0.0020854, -0.00368479, -0.00159612, 0.00142471, -0.543754, 56.5628, 26.3736, 6.13678, 1.43573, 3.60415, -0.0685925, 0.0012428, -0.0014553, -0.000336313, 9.38375e-06, -0.000494847, -0.000495191, 0.00167854, 0.000851424, 0.000915879, 0.00211641, 0.000913924, -0.000883707, 0.471007, -0.54338, 0.335896, -2.08384, -2.16584, -0.129887, 0.469521, -0.542264, 0.336465, -2.08358, -2.16664, -0.129425, -0.000148472, 0.00139149, 0.000372248, -0.000905714, -0.000441429, 0.00104176
0.0332051, 1.69155, -1.22515, -1.53736, -0.899992, -1.19171, 1.22801, -1.30264, 0.000467035, 0.000321851, 0.00331253, -0.00324496, -0.0024942, -0.00196971, 0.00131106, -0.508049, 56.5231, 26.449, 6.20819, 1.43024, 3.62521, -0.0750012, 0.00124318, -0.00145438, -0.000338472, 1.26772e-05, -0.000501197, -0.000494765, -3.09846e-05, -0.00103245, 0.000552971, -0.00133915, 0.002189, 0.00287296, 0.471007, -0.543379, 0.335897, -2.08384, -2.16584, -0.129888, 0.469522, -0.542263, 0.336468, -2.08358, -2.16664, -0.129415, -0.000162305, 0.00152173, 0.000406866, 0.000887667, 0.00150945, 0.000926579
0.0342051, 1.69155, -1.22515, -1.53736, -0.899991, -1.19171, 1.22801, -1.30265, -0.000285964, 0.0014151, 0.0019633, -0.00146628, -0.00136892, -0.00117009, 0.00144168, -0.468376, 56.4874, 26.4847, 6.17248, 1.41742, 3.6188, -0.0878186, 0.00124313, -0.00145257, -0.000340801, 9.62804e-06, -0.000504802, -0.000497972, 0.00100813, -0.000239457, 0.00105905, -0.000223203, 0.00272319, 0.00016351, 0.471007, -0.543377, 0.335897, -2.08384, -2.16584, -0.129888, 0.469524, -0.542262, 0.33647, -2.08358, -2.16665, -0.129415, -0.000176727, 0.00165761, 0.000442951, 0.000136699, 0.000509139, 0.001325
0.0352051, 1.69155, -1.22515, -1.53736, -0.899991, -1.19171, 1.22801, -1.30264, 0.00513487, 0.00288782, 0.0022889, -0.00108116, -0.00515994, -0.00135941, 0.00103081, -0.392998, 56.416, 26.5958, 6.17248, 1.39911, 3.63254, -0.0878186, 0.00124215, -0.00145338, -0.000342384, 1.5823e-05, -0.00050978, -0.00049489, -0.000617296, -0.00277277, 0.00177549, -0.00237987, 0.0073756, 0.00445935, 0.471007, -0.543375, 0.335898, -2.08384, -2.16584, -0.129888, 0.469523, -0.542261, 0.336472, -2.08358, -2.16665, -0.129403, -0.000191736, 0.0017991, 0.000480493, 0.00261948, 0.00224867, 0.0022459
0.0362051, 1.69156, -1.22514, -1.53736, -0.899989, -1.19171, 1.228, -1.30264, 0.00671014, 0.00389394, 0.00295445, -0.00586584, -0.00350003, -0.000688056, 0.000502115, -0.357292, 56.3406, 26.5601, 6.13678, 1.38721, 3.62521, -0.0814099, 0.00124469, -0.00144817, -0.000345056, 9.82092e-06, -0.000510971, -0.00050362, -0.00307748, -0.00514281, 0.00189818, -0.00285853, 0.00784824, 0.0116038, 0.471006, -0.543374, 0.335898, -2.08384, -2.16584, -0.129888, 0.469528, -0.542257, 0.336476, -2.08357, -2.16666, -0.12941, -0.000207328, 0.00194618, 0.000519485, 0.00488732, 0.0049026, 0.00271643
0.0372051, 1.69156, -1.22515, -1.53735, -0.899986, -1.19171, 1.22801, -1.30264, 0.0035298, 0.00191486, 0.00324982, -0.0026975, -0.00695358, 1.01374e-05, 0.000611304, -0.131157, 56.3763, 26.5244, 6.0614, 1.37439, 3.61148, -0.0878186, 0.0012398, -0.00145106, -0.000346042, 2.15516e-06, -0.00050898, -0.000492792, 0.00031587, -0.00249029, 0.00149489, -0.00173977, 0.00872569, 0.0046113, 0.471006, -0.543372, 0.335899, -2.08384, -2.16584, -0.129888, 0.469525, -0.54226, 0.336476, -2.08359, -2.16665, -0.129419, -0.0002235, 0.00209882, 0.000559916, 0.00232883, 0.00165876, 0.00191194
0.0382051, 1.69157, -1.22515, -1.53735, -0.899987, -1.19171, 1.22801, -1.30264, 0.0102112, 0.00584996, 0.00166505, -0.00221097, -0.00929465, -2.30806e-05, 0.000708204, -0.131157, 56.4517, 26.5601, 6.0614, 1.35608, 3.61148, -0.0951428, 0.00124293, -0.00144331, -0.000341285, 7.00815e-06, -0.000506334, -0.000503714, -0.00193011, -0.00552083, 0.00293891, -0.00469411, 0.014882, 0.00908066, 0.471006, -0.54337, 0.335899, -2.08384, -2.16584, -0.129888, 0.469532, -0.542254, 0.336473, -2.08357, -2.16666, -0.129418, -0.000240248, 0.00225699, 0.000601779, 0.00531053, 0.00393597, 0.0036369
0.0392051, 1.69157, -1.22515, -1.53736, -0.899989, -1.19171, 1.228, -1.30264, 0.00698613, 0.00366987, 0.00136033, -0.00178345, -0.0070912, -0.00081766, -0.0014725, 0.059273, 56.4874, 26.5601, 6.0614, 1.35608, 3.63254, -0.0420422, 0.00124089, -0.00144278, -0.000338278, 1.38236e-05, -0.000507471, -0.000510542, -0.000448558, -0.00371762, 0.00169373, -0.00407828, 0.0104751, 0.00834841, 0.471006, -0.543367, 0.3359, -2.08384, -2.16584, -0.129888, 0.469533, -0.542253, 0.33647, -2.08356, -2.16666, -0.12941, -0.000257569, 0.00242068, 0.000645063, 0.00350036, 0.0027549, 0.00227507
0.0402051, 1.69158, -1.22515, -1.53736, -0.899989, -1.19172, 1.228, -1.30264, 0.0092302, 0.00290041, 0.000259391, -0.000493056, -0.00516119, -0.00137569, -0.000456504, 0.21003, 56.4874, 26.5958, 6.02173, 1.34967, 3.65451, -0.0557752, 0.0012405, -0.00143992, -0.000336291, 2.10766e-05, -0.000510795, -0.000513101, -0.00102488, -0.00463626, 0.000846095, -0.00439709, 0.0079569, 0.00856538, 0.471005, -0.543365, 0.3359, -2.08384, -2.16584, -0.129889, 0.469535, -0.542251, 0.336468, -2.08355, -2.16666, -0.129399, -0.00027546, 0.00258986, 0.000689759, 0.00434871, 0.0036611, 0.00154455
0.0412051, 1.69159, -1.22516, -1.53735, -0.899985, -1.19172, 1.228, -1.30264, 0.0144866, -0.000324474, 0.00291217, 0.00116765, -0.00374065, -0.00143834, -0.00127528, 0.360787, 56.5985, 26.4847, 5.95032, 1.34418, 3.66824, -0.0292249, 0.00124216, -0.00143432, -0.000332467, 1.88447e-05, -0.000499699, -0.000522695, -0.00321987, -0.00789806, -0.000176311, -0.00173713, 0.00347224, 0.0149495, 0.471005, -0.543362, 0.335901, -2.08383, -2.16584, -0.129889, 0.46954, -0.542246, 0.336465, -2.08354, -2.16667, -0.129414, -0.000293917, 0.0027645, 0.00073586, 0.00747244, 0.00629354, 0.000823468
0.0422051, 1.6916, -1.22517, -1.53736, -0.899985, -1.19173, 1.228, -1.30264, 0.0158031, -0.00172427, -0.000551413, 0.000647875, -0.00378677, -0.0012396, -0.000128805, 0.475838, 56.6739, 26.5958, 5.95032, 1.3689, 3.67557, -0.0484509, 0.00124012, -0.00142956, -0.000324062, 3.0934e-05, -0.000502088, -0.000524069, -0.00288617, -0.00821461, -0.00236789, -0.00515101, 0.00260824, 0.0139122, 0.471005, -0.54336, 0.335902, -2.08383, -2.16584, -0.129889, 0.469545, -0.542244, 0.336457, -2.08353, -2.16666, -0.129398, -0.000312938, 0.00294458, 0.000783355, 0.00770236, 0.00649447, -0.00135438
0.0432051, 1.69162, -1.22516, -1.53735, -0.899985, -1.19173, 1.228, -1.30263, 0.016905, 0.0016404, 0.00231004, 0.00126202, -0.00368925, -0.000833484, 0.000667092, 0.586922, 56.5628, 26.4847, 5.91064, 1.3927, 3.67557, -0.0685925, 0.00124549, -0.0014204, -0.000329545, 2.9451e-05, -0.000512714, -0.000538183, -0.00389878, -0.00923456, 0.00066475, -0.00182088, 0.00596355, 0.0150374, 0.471005, -0.543357, 0.335903, -2.08383, -2.16584, -0.129889, 0.469553, -0.542236, 0.336464, -2.08352, -2.16669, -0.129391, -0.000332518, 0.00313007, 0.000832236, 0.0087747, 0.00725458, 0.00181541
0.0442051, 1.69163, -1.22517, -1.53735, -0.899978, -1.19174, 1.228, -1.30264, 0.0190608, -0.000433239, 0.000671404, 0.00336636, -0.00267183, -1.84317e-05, -0.000533383, 0.777352, 56.6342, 26.5244, 5.79956, 1.3927, 3.66092, -0.0420422, 0.00124222, -0.00141712, -0.000326409, 3.03346e-05, -0.000514473, -0.000541173, -0.00361188, -0.0100015, -0.000902285, -0.00154466, 0.0035422, 0.0161303, 0.471004, -0.543354, 0.335903, -2.08383, -2.16584, -0.129889, 0.469556, -0.542235, 0.336461, -2.08351, -2.16669, -0.129389, -0.000352655, 0.00332096, 0.000882495, 0.00947419, 0.00743483, 0.000250697
0.0452051, 1.69164, -1.22517, -1.53736, -0.899975, -1.19174, 1.228, -1.30264, 0.016825, -0.00018113, -0.00117829, 0.0039524, -0.0072258, 0.00103489, -0.00106374, 1.00349, 56.6342, 26.5958, 5.72418, 1.40552, 3.63254, -0.0228162, 0.0012388, -0.00141398, -0.000323904, 3.58307e-05, -0.000523207, -0.000543569, -0.000869528, -0.00798256, -0.00113749, -0.00368649, 0.00813604, 0.0115301, 0.471004, -0.54335, 0.335904, -2.08383, -2.16584, -0.12989, 0.469559, -0.542235, 0.336459, -2.08351, -2.16669, -0.129374, -0.000373345, 0.00351722, 0.000934121, 0.00752673, 0.00487734, -0.000294713
0.0462051, 1.69166, -1.22517, -1.53735, -0.899966, -1.19175, 1.228, -1.30264, 0.0222221, -0.000968001, 0.000918322, 0.00435686, -0.00557488, 0.000415672, 0.000243218, 1.07887, 56.6739, 26.5244, 5.6488, 1.41192, 3.63986, -0.0484509, 0.00124223, -0.00140329, -0.000324715, 3.36837e-05, -0.000527696, -0.00055471, -0.00369259, -0.0113875, -0.00115974, -0.00230095, 0.00578131, 0.0167956, 0.471004, -0.543347, 0.335905, -2.08383, -2.16583, -0.12989, 0.469569, -0.542228, 0.336461, -2.0835, -2.16671, -0.129374, -0.000394586, 0.00371881, 0.000987107, 0.0108043, 0.00800871, 7.18291e-05
0.0472051, 1.69167, -1.22517, -1.53736, -0.89996, -1.19176, 1.22799, -1.30263, 0.0208305, 0.000343266, -0.000197945, 0.00454403, -0.00855537, -0.000505019, 0.00162242, 1.22962, 56.6342, 26.5601, 5.57739, 1.40552, 3.66092, -0.0878186, 0.00124217, -0.00139801, -0.000323715, 4.25798e-05, -0.00053375, -0.000556082, -0.00220361, -0.00985696, -0.000788262, -0.00501586, 0.00918522, 0.0123332, 0.471003, -0.543343, 0.335906, -2.08382, -2.16583, -0.12989, 0.469574, -0.542224, 0.336461, -2.0835, -2.16671, -0.129358, -0.000416373, 0.00392573, 0.00104144, 0.00932058, 0.00662586, 0.000308001
0.0482051, 1.69168, -1.22519, -1.53736, -0.89996, -1.19177, 1.22799, -1.30263, 0.0171359, -0.00408742, -0.000948388, 0.00300611, -0.00662411, -0.00115216, 0.000845907, 1.49146, 56.8207, 26.5958, 5.57739, 1.41192, 3.68289, -0.0814099, 0.00123829, -0.00139381, -0.000312747, 5.11422e-05, -0.00052785, -0.000561118, -0.000668317, -0.00819178, -0.00375194, -0.00583006, 0.003044, 0.0111894, 0.471003, -0.543339, 0.335907, -2.08382, -2.16583, -0.129891, 0.469578, -0.542222, 0.33645, -2.08348, -2.16671, -0.129355, -0.000438704, 0.00413795, 0.00109712, 0.00758311, 0.00571046, -0.00275083
0.0492051, 1.6917, -1.22518, -1.53736, -0.899952, -1.19178, 1.22798, -1.30263, 0.0184733, -0.00324795, 0.000217054, 0.00374989, -0.00957272, -0.00236306, 0.000802539, 1.60651, 56.7096, 26.5601, 5.50201, 1.40552, 3.72592, -0.0878186, 0.00124024, -0.00138605, -0.000315347, 5.8839e-05, -0.000540107, -0.000567414, -0.000683184, -0.0084271, -0.00294175, -0.00698437, 0.00569887, 0.0114772, 0.471002, -0.543335, 0.335908, -2.08382, -2.16583, -0.129891, 0.469585, -0.542216, 0.336454, -2.08348, -2.16672, -0.129335, -0.000461575, 0.00435543, 0.00115413, 0.00782397, 0.00582755, -0.00189861
0.0502051, 1.69172, -1.22518, -1.53736, -0.899946, -1.19179, 1.22798, -1.30263, 0.0148812, -0.000639468, -0.00160796, 0.00425009, -0.0113933, -0.00157632, 0.000298598, 1.75727, 56.6342, 26.6355, 5.42664, 1.3927, 3.72592, -0.0814099, 0.00123865, -0.00138029, -0.000315456, 6.64707e-05, -0.000553349, -0.000571368, 0.00186384, -0.00588887, -0.0017519, -0.00769381, 0.010249, 0.00647869, 0.471002, -0.543331, 0.335909, -2.08382, -2.16583, -0.129891, 0.46959, -0.542213, 0.336455, -2.08347, -2.16673, -0.129314, -0.000484983, 0.00457817, 0.00121247, 0.00539967, 0.00324876, -0.000984218
0.0512051, 1.69172, -1.22518, -1.53736, -0.899946, -1.19179, 1.22798, -1.30263, 0.0148812, -0.000639468, -0.00160796, 0.00425009, -0.0113933, -0.00157632, 0.000298598, 1.75727, 56.6342, 26.6355, 5.42664, 1.3927, 3.72592, -0.0814099, 0.00123392, -0.00137995, -0.000314978, 6.5196e-05, -0.000555031, -0.000570822, 0.00209901, -0.00590526, -0.00177483, -0.00765649, 0.0103577, 0.00649847, 0.471001, -0.543326, 0.335911, -2.08382, -2.16583, -0.129892, 0.46959, -0.542213, 0.336455, -2.08347, -2.16673, -0.129314, -0.000508925, 0.00480613, 0.00127212, 0.00539967, 0.00324876, -0.000984218
0.0522051, 1.69175, -1.22518, -1.53736, -0.899935, -1.19181, 1.22798, -1.30263, 0.00918089, -0.00417107, 0.000750479, 0.00363828, -0.0118945, -0.000792014, -0.000261898, 2.05878, 56.7096, 26.5601, 5.35126, 1.41192, 3.72592, -0.0621838, 0.00123441, -0.00136653, -0.000310381, 7.26509e-05, -0.000568761, -0.000583308, 0.00471674, -0.00342719, -0.00275041, -0.00481149, 0.00747813, 0.0030156, 0.471001, -0.543321, 0.335912, -2.08381, -2.16583, -0.129892, 0.469603, -0.542206, 0.336451, -2.08346, -2.16674, -0.129293, -0.000533398, 0.00503929, 0.00133308, 0.00295871, 0.000946406, -0.00221819
0.0532051, 1.69177, -1.22519, -1.53736, -0.89993, -1.19183, 1.22798, -1.30263, 0.0137454, -0.0030858, -0.000330439, 0.00633782, -0.0137749, 0.000285394, -0.000920191, 2.09846, 56.7096, 26.5958, 5.31555, 1.41742, 3.70395, -0.0420422, 0.00123388, -0.00135728, -0.000306755, 8.30814e-05, -0.000579692, -0.000594655, 0.00434103, -0.00517745, -0.00229119, -0.00498652, 0.0107138, 0.00466825, 0.471, -0.543316, 0.335913, -2.08381, -2.16583, -0.129892, 0.469612, -0.542201, 0.336449, -2.08345, -2.16676, -0.129272, -0.000558399, 0.00527762, 0.00139533, 0.00468486, 0.00155659, -0.00169695
0.0542051, 1.69179, -1.22519, -1.53736, -0.899926, -1.19184, 1.22799, -1.30263, 0.0162304, -0.00615395, -0.000216948, 0.00540598, -0.0102895, 0.000427323, -0.00179996, 2.17384, 56.7453, 26.5958, 5.27588, 1.41742, 3.69754, -0.00999879, 0.00123259, -0.00134755, -0.000302661, 8.79416e-05, -0.000589488, -0.000608924, 0.0028066, -0.00729002, -0.00432426, -0.00418653, 0.00513965, 0.0101181, 0.471, -0.543311, 0.335915, -2.08381, -2.16583, -0.129893, 0.469621, -0.542196, 0.336446, -2.08343, -2.16677, -0.129259, -0.000583923, 0.00552111, 0.00145888, 0.00664086, 0.00371435, -0.00346643
0.0552051, 1.69181, -1.22519, -1.53736, -0.899916, -1.19186, 1.22798, -1.30263, 0.0153201, -0.00452697, -0.000142123, 0.00866608, -0.0126144, -0.000223969, -0.000725035, 2.20954, 56.7453, 26.5958, 5.2005, 1.42383, 3.71127, -0.0228162, 0.00122963, -0.00134128, -0.000301528, 9.52518e-05, -0.000600518, -0.000611492, 0.00465504, -0.00567257, -0.0029242, -0.00389863, 0.00814023, 0.00453967, 0.470999, -0.543305, 0.335916, -2.08381, -2.16583, -0.129893, 0.469627, -0.542193, 0.336445, -2.08343, -2.16678, -0.12924, -0.000609969, 0.00576973, 0.0015237, 0.00511614, 0.00185643, -0.00225733
0.0562051, 1.69183, -1.2252, -1.53736, -0.899907, -1.19188, 1.22798, -1.30263, 0.0155205, -0.00417145, 0.00250559, 0.0108669, -0.0145826, 0.000121787, -0.000245832, 2.20954, 56.781, 26.4847, 5.12909, 1.43573, 3.70395, -0.0292249, 0.00122713, -0.00133272, -0.000301445, 9.66635e-05, -0.000614731, -0.000618558, 0.00531889, -0.00561152, -0.00147688, -0.00111167, 0.0100379, 0.0029636, 0.470999, -0.5433, 0.335918, -2.0838, -2.16583, -0.129894, 0.469635, -0.542189, 0.336446, -2.08342, -2.16679, -0.129225, -0.000636533, 0.00602345, 0.0015898, 0.00510462, 0.00122948, -0.000863343
0.0572051, 1.69185, -1.2252, -1.53736, -0.899909, -1.1919, 1.22798, -1.30263, 0.0139001, -0.00301966, -0.000926652, 0.00612662, -0.0156146, -0.00046147, 0.000548313, 2.28492, 56.781, 26.5958, 5.2005, 1.43573, 3.7186, -0.0484509, 0.00122312, -0.00132673, -0.00029524, 0.000116218, -0.000630218, -0.000622804, 0.00565047, -0.0049338, -0.00266662, -0.00696447, 0.0124599, 0.00271711, 0.470998, -0.543294, 0.335919, -2.0838, -2.16582, -0.129894, 0.46964, -0.542186, 0.336441, -2.08341, -2.1668, -0.129189, -0.000663611, 0.00628226, 0.00165716, 0.00436958, 0.00131637, -0.00200181
0.0582051, 1.69187, -1.22519, -1.53737, -0.899896, -1.19192, 1.22798, -1.30262, 0.0185647, -0.00285943, -0.00061671, 0.0101834, -0.0169125, -0.000579009, 0.00111162, 2.24921, 56.6739, 26.5958, 5.08942, 1.44855, 3.72592, -0.0685925, 0.00121969, -0.00131983, -0.000298765, 0.000124367, -0.000653517, -0.000623376, 0.00521755, -0.00654653, -0.00218175, -0.00613283, 0.0135117, 0.00294376, 0.470997, -0.543287, 0.335921, -2.0838, -2.16582, -0.129894, 0.469646, -0.542183, 0.336445, -2.08342, -2.16681, -0.129157, -0.000691201, 0.00654612, 0.00172578, 0.00595467, 0.001999, -0.00143588
0.0592051, 1.69189, -1.22519, -1.53735, -0.89989, -1.19193, 1.22798, -1.30262, 0.0174521, -0.00137694, 0.00302333, 0.0103863, -0.0161761, 0.000427725, 0.00172449, 2.24921, 56.6342, 26.449, 5.08942, 1.41742, 3.70395, -0.0951428, 0.00121775, -0.0013093, -0.000302154, 0.000118534, -0.000673386, -0.00063215, 0.00510606, -0.00677485, 0.000127028, -0.00129651, 0.014725, 0.00305523, 0.470997, -0.543281, 0.335923, -2.0838, -2.16582, -0.129895, 0.469656, -0.542179, 0.33645, -2.08342, -2.16683, -0.129144, -0.0007193, 0.00681502, 0.00179564, 0.00623401, 0.00203187, 0.000924116
0.0602051, 1.6919, -1.22519, -1.53736, -0.899889, -1.19196, 1.22798, -1.30262, 0.0141019, -0.00214499, 0.00118093, 0.00583934, -0.0175939, 1.38297e-05, 0.000641089, 2.3603, 56.6739, 26.4847, 5.16479, 1.43573, 3.71127, -0.0814099, 0.00120808, -0.00130738, -0.00029809, 0.000133527, -0.000696074, -0.000627314, 0.00622505, -0.00538642, -0.0014943, -0.00559017, 0.0154691, 0.00348035, 0.470996, -0.543274, 0.335924, -2.08379, -2.16582, -0.129895, 0.469658, -0.542181, 0.336446, -2.08342, -2.16683, -0.129105, -0.000747904, 0.00708893, 0.00186675, 0.00480022, 0.00139389, -0.000737564
0.0612051, 1.69192, -1.2252, -1.53736, -0.89988, -1.19199, 1.22798, -1.30262, 0.0180331, -0.00248946, 0.000787733, 0.00440169, -0.0218227, 0.000517806, -0.000284645, 2.3603, 56.7096, 26.4847, 5.16479, 1.41742, 3.69754, -0.0621838, 0.00120107, -0.00130094, -0.00029533, 0.000141555, -0.000715421, -0.000632936, 0.0053447, -0.00748523, -0.00222495, -0.00873878, 0.019243, 0.00796472, 0.470995, -0.543267, 0.335926, -2.08379, -2.16582, -0.129896, 0.469664, -0.54218, 0.336444, -2.08342, -2.16684, -0.129077, -0.00077701, 0.00736784, 0.00193908, 0.00680932, 0.0027403, -0.00131335
0.0622051, 1.69194, -1.22519, -1.53736, -0.899873, -1.19201, 1.22798, -1.30262, 0.0179648, -6.45965e-05, -0.00040253, 0.00331606, -0.0210393, 0.000345174, -0.000427093, 2.32459, 56.6342, 26.5244, 5.16479, 1.41192, 3.69754, -0.0557752, 0.00119618, -0.00129294, -0.000295797, 0.000151317, -0.000740841, -0.000636551, 0.00518911, -0.007513, -0.00141364, -0.00981997, 0.0212403, 0.00866155, 0.470994, -0.543259, 0.335928, -2.08379, -2.16582, -0.129897, 0.469671, -0.542177, 0.336445, -2.08342, -2.16685, -0.129042, -0.000806615, 0.0076517, 0.00201263, 0.0068312, 0.00305401, -0.000415416
0.0632051, 1.69196, -1.22519, -1.53736, -0.89987, -1.19204, 1.22798, -1.30262, 0.0205281, -0.000169208, 0.00149514, 0.000733669, -0.0248608, -7.26528e-06, -0.00126805, 2.32459, 56.6342, 26.449, 5.24017, 1.39911, 3.70395, -0.0292249, 0.00119205, -0.00128449, -0.000297264, 0.0001579, -0.000765668, -0.000647683, 0.00391649, -0.00938739, -0.00135472, -0.0118328, 0.0244134, 0.0139496, 0.470993, -0.543252, 0.33593, -2.08378, -2.16582, -0.129897, 0.469679, -0.542173, 0.336448, -2.08341, -2.16688, -0.129011, -0.000836715, 0.00794051, 0.00208739, 0.00862967, 0.00466685, -0.00014148
0.0642051, 1.69197, -1.2252, -1.53736, -0.899858, -1.19206, 1.22798, -1.30262, 0.018077, -0.00197065, -0.00160151, 0.000703762, -0.0271366, -0.000276128, -0.000607991, 2.3603, 56.7096, 26.5601, 5.24017, 1.3689, 3.71127, -0.0356336, 0.00117873, -0.00128323, -0.000289684, 0.000175375, -0.000784415, -0.000636038, 0.00654112, -0.0072253, -0.00343608, -0.0155658, 0.0246201, 0.00869407, 0.470993, -0.543244, 0.335932, -2.08378, -2.16582, -0.129898, 0.469679, -0.542177, 0.33644, -2.08342, -2.16687, -0.128972, -0.000867309, 0.00823424, 0.00216336, 0.00645846, 0.00260145, -0.00246295
0.0652051, 1.692, -1.22519, -1.53736, -0.899851, -1.19209, 1.22798, -1.30262, 0.0190503, 0.00204895, 0.000695706, -0.000205056, -0.0250576, -0.000184098, -0.00162602, 2.28492, 56.5628, 26.4847, 5.27588, 1.36249, 3.71127, -0.00267457, 0.00117446, -0.00127362, -0.000294772, 0.000181881, -0.000818551, -0.000644521, 0.00488046, -0.00857523, -0.000461396, -0.012708, 0.0270734, 0.0132308, 0.470992, -0.543236, 0.335935, -2.08378, -2.16581, -0.129898, 0.469688, -0.542174, 0.336446, -2.08342, -2.16689, -0.128932, -0.000898392, 0.00853286, 0.00224052, 0.00782366, 0.00413679, 0.000768518
0.0662051, 1.69202, -1.22519, -1.53736, -0.899838, -1.19212, 1.22798, -1.30262, 0.0176156, -0.00185771, 0.00129913, 0.00380625, -0.0236763, -0.000122741, -0.000338018, 2.28492, 56.5628, 26.449, 5.24017, 1.36249, 3.71127, -0.0228162, 0.00116637, -0.00126735, -0.000294504, 0.000191204, -0.000842386, -0.0006448, 0.00700072, -0.00724056, -0.00193244, -0.00962624, 0.0217884, 0.00786619, 0.470991, -0.543227, 0.335937, -2.08377, -2.16581, -0.129899, 0.469694, -0.542173, 0.336447, -2.08343, -2.1669, -0.128898, -0.000929962, 0.00883635, 0.00231887, 0.00648182, 0.00251899, -0.000894599
0.0672051, 1.69205, -1.22519, -1.53736, -0.899831, -1.19215, 1.22798, -1.30263, 0.0250395, -0.00237781, 3.09466e-05, 0.00506453, -0.0270413, -0.000353102, -0.000700056, 2.20954, 56.5985, 26.4847, 5.27588, 1.36249, 3.7186, -0.00999879, 0.00116045, -0.00125746, -0.000291703, 0.000208367, -0.000870704, -0.000654439, 0.00534997, -0.0105105, -0.00295323, -0.0130411, 0.0242556, 0.0127511, 0.47099, -0.543218, 0.335939, -2.08377, -2.16581, -0.1299, 0.469703, -0.542169, 0.336445, -2.08342, -2.16692, -0.128852, -0.000962015, 0.00914469, 0.0023984, 0.00961953, 0.00474805, -0.00166543
0.0682051, 1.69207, -1.22519, -1.53736, -0.899822, -1.19218, 1.22797, -1.30263, 0.0254278, -5.00559e-05, -0.00229839, 0.00697269, -0.0297729, -0.000506674, -0.00022934, 2.20954, 56.5231, 26.449, 5.27588, 1.35608, 3.72592, -0.0164075, 0.00115324, -0.00124965, -0.000293921, 0.000216772, -0.000900853, -0.000657688, 0.00685412, -0.0095382, -0.00221095, -0.0153834, 0.0288806, 0.00893958, 0.470989, -0.543209, 0.335941, -2.08376, -2.16581, -0.1299, 0.46971, -0.542167, 0.336448, -2.08342, -2.16693, -0.128813, -0.000994548, 0.00945786, 0.0024791, 0.0086966, 0.00342222, -0.00105603
0.0692051, 1.69209, -1.22519, -1.53736, -0.899813, -1.19222, 1.22798, -1.30262, 0.0257538, -0.000204437, -0.00263029, 0.00745862, -0.0318644, -0.000609054, -0.000152889, 2.20954, 56.5231, 26.4847, 5.31555, 1.35608, 3.73324, -0.0164075, 0.00114355, -0.0012421, -0.000292038, 0.000228602, -0.000931473, -0.00065562, 0.00766858, -0.00932556, -0.00240793, -0.0165121, 0.0305309, 0.00792688, 0.470988, -0.5432, 0.335944, -2.08376, -2.16581, -0.129901, 0.469717, -0.542167, 0.336447, -2.08343, -2.16694, -0.128769, -0.00102756, 0.00977584, 0.00256097, 0.00847324, 0.00295778, -0.00128875
0.0702051, 1.69212, -1.2252, -1.53736, -0.899807, -1.19225, 1.22798, -1.30262, 0.0234306, -0.00379107, -0.00111542, 0.00719766, -0.0288644, -0.000134772, 0.000372795, 2.17384, 56.6739, 26.449, 5.38696, 1.36249, 3.72592, -0.0292249, 0.00113679, -0.00123089, -0.000284824, 0.00024313, -0.000951675, -0.000667166, 0.00843845, -0.00885914, -0.00388004, -0.0133884, 0.0247464, 0.00716513, 0.470987, -0.54319, 0.335947, -2.08375, -2.1658, -0.129902, 0.469727, -0.542162, 0.336441, -2.08342, -2.16696, -0.128734, -0.00106104, 0.0100986, 0.00264398, 0.00794826, 0.00272812, -0.00276483
0.0712051, 1.69214, -1.22519, -1.53736, -0.899797, -1.19228, 1.22797, -1.30262, 0.0245632, -2.51466e-05, 3.65722e-05, 0.00876586, -0.026086, -0.000361117, 0.00072325, 2.17384, 56.5628, 26.4094, 5.38696, 1.35608, 3.73324, -0.0420422, 0.00112969, -0.00122181, -0.000289234, 0.000252944, -0.000988863, -0.00066862, 0.00756259, -0.00957157, -0.00115515, -0.0103422, 0.0260907, 0.00801327, 0.470986, -0.54318, 0.335949, -2.08375, -2.1658, -0.129903, 0.469736, -0.542159, 0.336447, -2.08342, -2.16698, -0.128687, -0.001095, 0.0104261, 0.00272814, 0.00869299, 0.00352989, 0.000124363
0.0722051, 1.69217, -1.2252, -1.53736, -0.899783, -1.19232, 1.22797, -1.30262, 0.0253035, -0.000924151, -0.00101451, 0.0114058, -0.025068, -0.000240747, 0.00122815, 2.17384, 56.5985, 26.449, 5.31555, 1.37439, 3.73324, -0.0621838, 0.00111904, -0.00121332, -0.000286276, 0.000266635, -0.0010189, -0.000665546, 0.00847494, -0.00938935, -0.0017492, -0.00955683, 0.0244383, 0.0058099, 0.470985, -0.543169, 0.335952, -2.08374, -2.1658, -0.129903, 0.469743, -0.542158, 0.336445, -2.08343, -2.16698, -0.128641, -0.00112942, 0.0107583, 0.00281344, 0.00848775, 0.00304549, -0.000513129
0.0732051, 1.6922, -1.22519, -1.53736, -0.899781, -1.19235, 1.22797, -1.30262, 0.0249848, 0.00192823, -0.000759498, 0.00591259, -0.0232437, 0.000110768, 0.00105613, 2.20954, 56.4874, 26.449, 5.42664, 1.3689, 3.72592, -0.0685925, 0.00111346, -0.00120177, -0.000287462, 0.00027945, -0.0010539, -0.000677122, 0.0066842, -0.0107225, -0.000731459, -0.0104472, 0.0265855, 0.0111895, 0.470984, -0.543159, 0.335955, -2.08374, -2.1658, -0.129904, 0.469754, -0.542153, 0.336448, -2.08342, -2.16701, -0.128594, -0.00116431, 0.0110953, 0.00289987, 0.00975706, 0.0050482, 0.000815982
0.0742051, 1.69223, -1.22519, -1.53736, -0.899761, -1.19238, 1.22797, -1.30261, 0.0298744, 0.00208011, -0.000568699, 0.010286, -0.0272419, -0.000197423, 0.00141616, 2.17384, 56.4517, 26.449, 5.31555, 1.3808, 3.73324, -0.0878186, 0.00110395, -0.00119103, -0.000288279, 0.000289928, -0.00108896, -0.000676904, 0.006865, -0.0120365, -0.000284134, -0.0110101, 0.0297715, 0.0106058, 0.470983, -0.543147, 0.335958, -2.08373, -2.1658, -0.129905, 0.469764, -0.542151, 0.33645, -2.08343, -2.16702, -0.128547, -0.00119966, 0.0114369, 0.00298742, 0.0110566, 0.00519628, 0.00127742
0.0752051, 1.69226, -1.22519, -1.53736, -0.899746, -1.19242, 1.22797, -1.30261, 0.0283636, 0.000521075, -0.000425908, 0.0115057, -0.0294581, -0.000402883, 0.000469392, 2.20954, 56.4874, 26.449, 5.27588, 1.3689, 3.74057, -0.0750012, 0.00109244, -0.00118271, -0.000285385, 0.000301739, -0.00111669, -0.000678114, 0.00879169, -0.010708, -0.000950067, -0.0113504, 0.0299361, 0.00837414, 0.470981, -0.543136, 0.335961, -2.08373, -2.16579, -0.129906, 0.469771, -0.54215, 0.336448, -2.08343, -2.16703, -0.128507, -0.00123547, 0.0117833, 0.00307608, 0.00973887, 0.00368871, 0.000449391
0.0762051, 1.69229, -1.22519, -1.53736, -0.899736, -1.19245, 1.22797, -1.30262, 0.0317834, 0.000324549, 0.00144422, 0.0147627, -0.0320758, -0.000268589, -0.000399148, 2.20954, 56.4874, 26.3736, 5.27588, 1.3808, 3.74057, -0.0557752, 0.00108501, -0.00116989, -0.0002856, 0.000310555, -0.00114952, -0.000690797, 0.00875956, -0.0119845, -0.000151867, -0.00975081, 0.0318131, 0.00982488, 0.47098, -0.543124, 0.335964, -2.08372, -2.16579, -0.129907, 0.469783, -0.542145, 0.33645, -2.08343, -2.16706, -0.128466, -0.00127174, 0.0121342, 0.00316585, 0.0110052, 0.00400076, 0.00129367
0.0772051, 1.69232, -1.22519, -1.53736, -0.899729, -1.19249, 1.22797, -1.30262, 0.0298022, 0.00019924, -0.00166195, 0.0131407, -0.0342108, -0.00017906, -0.00172416, 2.24921, 56.4874, 26.4847, 5.31555, 1.39911, 3.74057, -0.0164075, 0.00107503, -0.00115859, -0.000280379, 0.000331901, -0.00118439, -0.000702268, 0.0106181, -0.0104945, -0.00147128, -0.0137938, 0.03394, 0.00843068, 0.470979, -0.543112, 0.335967, -2.08372, -2.16579, -0.129908, 0.469793, -0.542141, 0.336446, -2.08341, -2.16708, -0.128409, -0.00130846, 0.0124898, 0.00325671, 0.00949916, 0.00266378, -0.00016195
0.0782051, 1.69235, -1.22519, -1.53736, -0.899712, -1.19253, 1.22797, -1.30262, 0.0286016, 0.000119982, 0.000635535, 0.0147318, -0.0342595, 0.000151894, -0.00213278, 2.28492, 56.4874, 26.4094, 5.24017, 1.37439, 3.73324, 0.0101428, 0.00106556, -0.00114617, -0.000281549, 0.000335701, -0.00121657, -0.000711732, 0.011566, -0.00995058, -0.000424441, -0.0105208, 0.0339122, 0.00738527, 0.470978, -0.5431, 0.33597, -2.08371, -2.16579, -0.129909, 0.469805, -0.542138, 0.336448, -2.08341, -2.1671, -0.128374, -0.00134563, 0.01285, 0.00334867, 0.00899061, 0.00190468, 0.000832784
0.0792051, 1.69239, -1.22519, -1.53736, -0.899702, -1.19256, 1.22797, -1.30262, 0.0301521, 0.00266881, 0.00040889, 0.0162033, -0.0353099, -0.000170005, 3.62061e-05, 2.20954, 56.3763, 26.4094, 5.27588, 1.3808, 3.74057, -0.0292249, 0.00106058, -0.00112954, -0.00028321, 0.000351857, -0.00125818, -0.000723812, 0.0116664, -0.0102535, 0.00105203, -0.010746, 0.0372619, 0.00498429, 0.470976, -0.543087, 0.335973, -2.08371, -2.16578, -0.129909, 0.46982, -0.54213, 0.336452, -2.08341, -2.16713, -0.128316, -0.00138324, 0.0132147, 0.0034417, 0.00931258, 0.00195539, 0.00235886
0.0802051, 1.69243, -1.22519, -1.53736, -0.899684, -1.1926, 1.22797, -1.30262, 0.0327625, 0.000843962, 0.00109671, 0.0159723, -0.0369581, -0.000113337, -0.000687939, 2.20954, 56.416, 26.3736, 5.24017, 1.39911, 3.74057, -0.00999879, 0.00104976, -0.00111683, -0.000281428, 0.000362147, -0.00129185, -0.000731645, 0.0111815, -0.0117732, 2.56338e-05, -0.0114634, 0.0370564, 0.00832942, 0.470975, -0.543074, 0.335977, -2.0837, -2.16578, -0.12991, 0.469832, -0.542126, 0.336452, -2.0834, -2.16715, -0.128273, -0.0014213, 0.013584, 0.0035358, 0.0107378, 0.0030237, 0.00146879
0.0812051, 1.69246, -1.22519, -1.53736, -0.899671, -1.19264, 1.22797, -1.30262, 0.0384844, -0.000277995, -0.00187564, 0.0150559, -0.0375285, -7.55581e-05, 0.00123679, 2.20954, 56.4517, 26.4847, 5.24017, 1.41192, 3.74057, -0.0557752, 0.00103649, -0.00110612, -0.000274629, 0.000382671, -0.0013249, -0.000728718, 0.0095969, -0.014654, -0.00214609, -0.0156397, 0.0370561, 0.0112847, 0.470973, -0.54306, 0.33598, -2.08369, -2.16578, -0.129911, 0.469842, -0.542124, 0.336446, -2.08341, -2.16716, -0.128217, -0.0014598, 0.0139578, 0.00363097, 0.013441, 0.00541443, -0.000421435
0.0822051, 1.69249, -1.22519, -1.53736, -0.899656, -1.19268, 1.22797, -1.30261, 0.0415493, 0.00157384, -0.000421452, 0.014255, -0.0379619, -0.000287731, 0.00082453, 2.24921, 56.3763, 26.449, 5.24017, 1.42383, 3.74698, -0.0557752, 0.00102573, -0.0010948, -0.000278019, 0.000397307, -0.00136935, -0.000730691, 0.00796954, -0.0167109, -0.000870061, -0.0153863, 0.0394057, 0.0159794, 0.470972, -0.543046, 0.335984, -2.08369, -2.16578, -0.129913, 0.469852, -0.542121, 0.336451, -2.08341, -2.16718, -0.128157, -0.00149874, 0.0143362, 0.00372719, 0.0154442, 0.00728709, 0.00112524
0.0832051, 1.69254, -1.22519, -1.53736, -0.899637, -1.19272, 1.22797, -1.30261, 0.0444134, 0.00104618, -0.00427641, 0.0146962, -0.038161, -0.000191821, 0.000278419, 2.13416, 56.3763, 26.4847, 5.2005, 1.43024, 3.74698, -0.0484509, 0.00101605, -0.0010779, -0.000275172, 0.000410316, -0.00140689, -0.00074113, 0.00812629, -0.0175736, -0.00266198, -0.0189719, 0.0395768, 0.0170856, 0.47097, -0.543032, 0.335988, -2.08368, -2.16577, -0.129914, 0.469868, -0.542115, 0.33645, -2.08341, -2.1672, -0.128106, -0.00153811, 0.014719, 0.00382447, 0.0162072, 0.00782659, -0.00059736
0.0842051, 1.69257, -1.22519, -1.53736, -0.899619, -1.19276, 1.22797, -1.30262, 0.0389913, 0.00153039, -0.00135418, 0.017078, -0.0390024, 0.000109478, -5.17459e-05, 2.17384, 56.3406, 26.4094, 5.2005, 1.45404, 3.74057, -0.0420422, 0.00100282, -0.00106713, -0.000276604, 0.000420426, -0.00144648, -0.00074683, 0.011182, -0.0144927, -0.000734945, -0.0144649, 0.0405192, 0.0111279, 0.470969, -0.543017, 0.335992, -2.08367, -2.16577, -0.129915, 0.469877, -0.542113, 0.336453, -2.08341, -2.16722, -0.128057, -0.00157792, 0.0151063, 0.00392278, 0.0132697, 0.00477419, 0.00102207
0.0852051, 1.6926, -1.22519, -1.53736, -0.899603, -1.19281, 1.22797, -1.30261, 0.0399446, 0.00185376, -0.00203066, 0.0158485, -0.0428451, 7.29855e-05, 0.000711488, 2.17384, 56.3049, 26.449, 5.2005, 1.44855, 3.74057, -0.0621838, 0.000989889, -0.00105504, -0.000276376, 0.00043442, -0.00148735, -0.000746349, 0.0116646, -0.0147654, -0.00104335, -0.0175082, 0.0443448, 0.0107918, 0.470967, -0.543002, 0.335996, -2.08367, -2.16577, -0.129916, 0.469888, -0.54211, 0.336454, -2.08342, -2.16724, -0.128001, -0.00161815, 0.015498, 0.00402212, 0.0135079, 0.00474828, 0.000733572
0.0862051, 1.69264, -1.22519, -1.53736, -0.899582, -1.19284, 1.22797, -1.30262, 0.0403077, -0.000435881, -0.00150366, 0.0157928, -0.0413622, 4.8657e-05, -0.000746378, 2.17384, 56.3763, 26.449, 5.16479, 1.44214, 3.74057, -0.0292249, 0.000975117, -0.00104309, -0.000271799, 0.000443895, -0.00151672, -0.000751236, 0.0117077, -0.0153052, -0.00226695, -0.016583, 0.0410127, 0.0134839, 0.470966, -0.542986, 0.336, -2.08366, -2.16576, -0.129917, 0.469899, -0.542108, 0.336451, -2.08341, -2.16725, -0.127962, -0.00165881, 0.0158942, 0.00412249, 0.0139636, 0.00531253, -0.000397387
0.0872051, 1.69269, -1.2252, -1.53736, -0.899568, -1.19289, 1.22797, -1.30261, 0.0450522, -0.00121957, -0.00195008, 0.0122293, -0.0407229, 0.000574973, -2.28673e-05, 1.98341, 56.416, 26.4847, 5.27588, 1.44855, 3.72592, -0.0420422, 0.000967248, -0.00102174, -0.000266647, 0.000463182, -0.00155805, -0.000769633, 0.00905089, -0.0188926, -0.00362039, -0.0186389, 0.0406565, 0.0206126, 0.470964, -0.542971, 0.336004, -2.08365, -2.16576, -0.129918, 0.469919, -0.542099, 0.336448, -2.0834, -2.16728, -0.127902, -0.0016999, 0.0162947, 0.00422387, 0.0173611, 0.00869148, -0.00132827
0.0882051, 1.69272, -1.22519, -1.53737, -0.899549, -1.19293, 1.22796, -1.30262, 0.0428425, 0.000949467, -0.00138437, 0.0156116, -0.0443315, -0.00485805, -0.000489963, 2.02308, 56.3406, 26.4847, 5.27588, 1.44214, 3.74057, -0.0292249, 0.000951289, -0.00101267, -0.000267849, 0.000479801, -0.00160145, -0.000771974, 0.0112773, -0.015586, -0.00207451, -0.0223385, 0.0428812, 0.0149895, 0.470962, -0.542954, 0.336008, -2.08364, -2.16576, -0.129919, 0.469927, -0.542098, 0.336451, -2.0834, -2.1673, -0.127841, -0.0017414, 0.0166996, 0.00432627, 0.014153, 0.00652483, 5.45027e-05
0.0892051, 1.69276, -1.22518, -1.53736, -0.899532, -1.19298, 1.22796, -1.30261, 0.0389528, 0.00323089, 0.000777091, 0.016189, -0.0469726, -0.00363027, 0.000148076, 2.02308, 56.2296, 26.4094, 5.35126, 1.43024, 3.74057, -0.0420422, 0.000939115, -0.000997839, -0.000272437, 0.000492205, -0.00165407, -0.000777222, 0.0135789, -0.0135693, 0.00038809, -0.019466, 0.0478139, 0.0101545, 0.470961, -0.542938, 0.336012, -2.08364, -2.16575, -0.129921, 0.46994, -0.542093, 0.336457, -2.08341, -2.16733, -0.127776, -0.00178332, 0.0171089, 0.00442966, 0.0122686, 0.00419999, 0.00229275
0.0902051, 1.69281, -1.22519, -1.53737, -0.899515, -1.19303, 1.22796, -1.30262, 0.0422366, -0.000444935, -0.00222062, 0.0174895, -0.0453061, -0.00295121, -0.000850718, 1.90803, 56.3406, 26.5244, 5.38696, 1.44214, 3.74698, -0.0164075, 0.000925328, -0.000980955, -0.000261877, 0.000516936, -0.00168881, -0.000788853, 0.0136492, -0.0150018, -0.002803, -0.0208426, 0.0435061, 0.0124751, 0.470959, -0.54292, 0.336017, -2.08363, -2.16575, -0.129922, 0.469955, -0.542087, 0.336449, -2.08339, -2.16735, -0.127715, -0.00182565, 0.0175225, 0.00453405, 0.0135439, 0.00509463, -0.000808136
0.0912051, 1.69285, -1.22518, -1.53736, -0.899498, -1.19307, 1.22796, -1.30262, 0.0434893, 0.00313675, 0.00117527, 0.0155542, -0.0422514, -0.00167911, -0.000329787, 1.83265, 56.1938, 26.4094, 5.42664, 1.41192, 3.73324, -0.0228162, 0.000915755, -0.000962381, -0.000269984, 0.00052183, -0.00174288, -0.000803414, 0.0114228, -0.0172709, 0.000241362, -0.0160825, 0.045396, 0.0175226, 0.470957, -0.542903, 0.336021, -2.08362, -2.16575, -0.129923, 0.469973, -0.54208, 0.336459, -2.08339, -2.16739, -0.127658, -0.0018684, 0.0179404, 0.00463942, 0.0157978, 0.00733439, 0.00258032
0.0922051, 1.69289, -1.22519, -1.53736, -0.899479, -1.19312, 1.22796, -1.30262, 0.039452, -0.000507521, 0.00159206, 0.0171, -0.0464833, -0.0012846, -0.000694576, 1.83265, 56.3049, 26.3736, 5.46234, 1.42383, 3.73324, -0.00999879, 0.000897444, -0.000950795, -0.000264018, 0.000538939, -0.00178068, -0.000805852, 0.0152518, -0.0144272, -0.00132507, -0.0162129, 0.0453453, 0.0114258, 0.470955, -0.542885, 0.336026, -2.08361, -2.16574, -0.129924, 0.469983, -0.542079, 0.336455, -2.08339, -2.1674, -0.127602, -0.00191155, 0.0183626, 0.00474577, 0.0129951, 0.0041015, 0.000630929
0.0932051, 1.69294, -1.22519, -1.53736, -0.899461, -1.19317, 1.22796, -1.30262, 0.043253, 0.00142472, 0.000206144, 0.0202, -0.0492413, -0.00176019, 1.16675e-05, 1.68189, 56.2296, 26.4094, 5.53772, 1.40552, 3.7543, -0.0228162, 0.000885131, -0.000933076, -0.000262656, 0.000558846, -0.00182693, -0.00081629, 0.0155206, -0.0152199, -0.000530559, -0.0179889, 0.0494344, 0.0101676, 0.470953, -0.542867, 0.336031, -2.0836, -2.16574, -0.129926, 0.469999, -0.542071, 0.336456, -2.08339, -2.16743, -0.127536, -0.00195511, 0.0187891, 0.00485308, 0.0137815, 0.00417271, 0.0014568
0.0942051, 1.69297, -1.22519, -1.53736, -0.899447, -1.19322, 1.22796, -1.30261, 0.0415262, -0.00305475, 0.000122423, 0.0230305, -0.0515987, -0.000995112, 0.00122848, 1.72157, 56.2653, 26.4094, 5.6131, 1.41192, 3.74698, -0.0557752, 0.00086775, -0.000919442, -0.000258767, 0.000576947, -0.00187356, -0.000818226, 0.0185637, -0.0135916, -0.002677, -0.0171756, 0.0471933, 0.00405216, 0.470951, -0.542848, 0.336035, -2.08359, -2.16574, -0.129927, 0.470011, -0.542069, 0.336454, -2.08339, -2.16745, -0.12747, -0.00199908, 0.0192197, 0.00496136, 0.0121426, 0.00186332, -0.000978072
0.0952051, 1.69302, -1.2252, -1.53736, -0.899426, -1.19327, 1.22796, -1.30261, 0.0448331, -0.00489915, 0.000905579, 0.0237842, -0.0474295, -0.000224473, 7.30024e-05, 1.57081, 56.3763, 26.3736, 5.6131, 1.3927, 3.73324, -0.0356336, 0.000851945, -0.000901423, -0.000252848, 0.000591072, -0.00191408, -0.000829921, 0.0170319, -0.0160878, -0.00352571, -0.01411, 0.042519, 0.00966411, 0.470949, -0.542829, 0.33604, -2.08358, -2.16573, -0.129929, 0.470028, -0.542063, 0.33645, -2.08338, -2.16747, -0.127416, -0.00204344, 0.0196547, 0.0050706, 0.0145056, 0.00404368, -0.00154458
0.0962051, 1.69307, -1.22519, -1.53737, -0.899411, -1.19332, 1.22796, -1.30261, 0.0453779, -0.000865792, -0.00116796, 0.0225792, -0.0498197, 6.93508e-05, 0.00150673, 1.49146, 56.2653, 26.449, 5.68848, 1.38721, 3.72592, -0.0750012, 0.000837012, -0.000885648, -0.000252353, 0.000612889, -0.00196607, -0.000835065, 0.0174343, -0.0160399, -0.00209896, -0.0170104, 0.0491177, 0.00798723, 0.470947, -0.542809, 0.336045, -2.08357, -2.16573, -0.12993, 0.470042, -0.542058, 0.336452, -2.08338, -2.16749, -0.127341, -0.0020882, 0.0200938, 0.00518077, 0.0144792, 0.00386375, -8.69476e-05
0.0972051, 1.69311, -1.22519, -1.53737, -0.899398, -1.19337, 1.22795, -1.30261, 0.0424004, -0.000725806, -0.00078497, 0.0176292, -0.0516227, -0.00442795, 0.000767128, 1.41608, 56.2653, 26.449, 5.79956, 1.3927, 3.7186, -0.0685925, 0.000821384, -0.000869725, -0.000249953, 0.000635857, -0.00201634, -0.000842747, 0.0175443, -0.0145446, -0.00284507, -0.0232236, 0.049057, 0.00972718, 0.470945, -0.542789, 0.336051, -2.08357, -2.16572, -0.129932, 0.470056, -0.542052, 0.336451, -2.08338, -2.16752, -0.127266, -0.00213335, 0.0205371, 0.00529189, 0.0129175, 0.0042523, -0.000684534
0.0982051, 1.69315, -1.22519, -1.53737, -0.899372, -1.19342, 1.22795, -1.30261, 0.0465142, 0.00107511, -0.000528062, 0.0193524, -0.0524726, -0.00337355, -0.000471926, 1.34071, 56.1938, 26.449, 5.68848, 1.36249, 3.7186, -0.0420422, 0.000803823, -0.000853904, -0.000250304, 0.000647295, -0.00206388, -0.000849164, 0.0167374, -0.016606, -0.00162073, -0.0220573, 0.052244, 0.0133665, 0.470943, -0.542768, 0.336056, -2.08356, -2.16572, -0.129933, 0.47007, -0.542048, 0.336454, -2.08338, -2.16754, -0.127208, -0.0021789, 0.0209845, 0.00540394, 0.0149463, 0.00539221, 0.000699151
0.0992051, 1.6932, -1.2252, -1.53736, -0.899353, -1.19348, 1.22795, -1.30261, 0.0473965, -0.00103729, 0.000572418, 0.0208105, -0.0539124, -0.00229396, 0.000431368, 1.22962, 56.2653, 26.4094, 5.68848, 1.3689, 3.71127, -0.0621838, 0.000786092, -0.00083635, -0.000246404, 0.000664802, -0.0021138, -0.00085889, 0.0176115, -0.0170731, -0.00226, -0.0203607, 0.0519006, 0.0121817, 0.470941, -0.542747, 0.336061, -2.08355, -2.16572, -0.129935, 0.470086, -0.542044, 0.336452, -2.08338, -2.16757, -0.12714, -0.00222483, 0.0214361, 0.00551691, 0.0153749, 0.0050986, 3.06654e-05
0.100205, 1.69324, -1.2252, -1.53736, -0.899335, -1.19353, 1.22795, -1.30261, 0.0428873, 8.09949e-05, 0.000378941, 0.0178783, -0.0539579, -0.00149518, -0.000695765, 1.18995, 56.2296, 26.4094, 5.72418, 1.34418, 3.70395, -0.0356336, 0.000766969, -0.000820686, -0.000244935, 0.000681438, -0.00216711, -0.00086519, 0.0192412, -0.0153173, -0.00180978, -0.0203744, 0.0538092, 0.0113337, 0.470939, -0.542726, 0.336067, -2.08354, -2.16571, -0.129936, 0.4701, -0.54204, 0.336453, -2.08338, -2.1676, -0.12707, -0.00227115, 0.0218918, 0.0056308, 0.0136499, 0.00380423, 0.000388749
0.101205, 1.69329, -1.2252, -1.53736, -0.899324, -1.19359, 1.22795, -1.30261, 0.0446972, 6.97512e-06, 0.00108584, 0.0148513, -0.0593242, -0.00066602, -0.000938561, 1.07887, 56.2296, 26.3736, 5.79956, 1.33777, 3.69021, -0.0228162, 0.000752996, -0.000799837, -0.000242768, 0.000701698, -0.00222071, -0.000885839, 0.0190201, -0.0167126, -0.00208268, -0.0231681, 0.0590477, 0.0145899, 0.470936, -0.542704, 0.336072, -2.08353, -2.16571, -0.129938, 0.470119, -0.542031, 0.336453, -2.08336, -2.16764, -0.126997, -0.00231785, 0.0223516, 0.00574559, 0.0149788, 0.0045816, 0.000225905
0.102205, 1.69333, -1.2252, -1.53736, -0.899306, -1.19365, 1.22795, -1.30261, 0.0433168, -0.00415631, -0.000112825, 0.0175803, -0.0588924, -0.000306139, -0.000625708, 1.07887, 56.2653, 26.4094, 5.79956, 1.33777, 3.68289, -0.0228162, 0.00072968, -0.000787383, -0.000238034, 0.000723335, -0.00227331, -0.000888159, 0.0215218, -0.0153415, -0.00450971, -0.0224539, 0.0547473, 0.0102074, 0.470934, -0.542682, 0.336078, -2.08351, -2.1657, -0.12994, 0.47013, -0.54203, 0.336451, -2.08336, -2.16766, -0.126921, -0.00236493, 0.0228154, 0.00586128, 0.013564, 0.00289386, -0.00240238
0.103205, 1.69338, -1.2252, -1.53736, -0.899292, -1.19371, 1.22795, -1.30261, 0.0483659, -0.00223631, -7.63436e-05, 0.0185319, -0.0627086, -0.00496439, -0.000417138, 0.963814, 56.2296, 26.4094, 5.83527, 1.33777, 3.68289, -0.0228162, 0.000713209, -0.000766976, -0.000235057, 0.000745274, -0.0023295, -0.000901637, 0.0201207, -0.0166808, -0.00395247, -0.0283196, 0.057784, 0.0128872, 0.470932, -0.542659, 0.336084, -2.0835, -2.1657, -0.129941, 0.470149, -0.542022, 0.33645, -2.08336, -2.16769, -0.126843, -0.00241239, 0.0232833, 0.00597787, 0.0148241, 0.00471411, -0.00155865
0.104205, 1.69343, -1.2252, -1.53736, -0.899281, -1.19377, 1.22795, -1.30261, 0.0446607, -0.00255158, 0.0016187, 0.015406, -0.0614692, -0.00377298, 0.000433985, 0.888436, 56.2653, 26.3379, 5.91064, 1.33777, 3.68289, -0.0420422, 0.000695085, -0.000748968, -0.000231485, 0.000767383, -0.00238335, -0.000913077, 0.0208814, -0.0159936, -0.00371197, -0.0260752, 0.0573338, 0.0123932, 0.470929, -0.542636, 0.33609, -2.08349, -2.16569, -0.129943, 0.470165, -0.542016, 0.336449, -2.08335, -2.16772, -0.126767, -0.00246022, 0.0237552, 0.00609534, 0.014126, 0.00436985, -0.00130143
0.105205, 1.69347, -1.2252, -1.53736, -0.899262, -1.19382, 1.22795, -1.30261, 0.0398312, -0.00187018, -0.00059194, 0.0166007, -0.0598142, -0.0025916, 0.000797949, 0.888436, 56.2653, 26.4094, 5.83527, 1.32587, 3.67557, -0.0557752, 0.000671813, -0.000733835, -0.000228697, 0.000784602, -0.00244028, -0.000913661, 0.024064, -0.013054, -0.00361116, -0.0247466, 0.0573686, 0.00573693, 0.470927, -0.542612, 0.336096, -2.08348, -2.16569, -0.129945, 0.470178, -0.542014, 0.336449, -2.08336, -2.16774, -0.126692, -0.00250842, 0.0242312, 0.00621369, 0.0112597, 0.00156789, -0.0014895
0.106205, 1.69352, -1.2252, -1.53736, -0.899252, -1.19388, 1.22795, -1.30261, 0.0416621, -0.000538405, -0.000395102, 0.0145442, -0.0637843, -0.00668721, 0.00100668, 0.813057, 56.2296, 26.4094, 5.87494, 1.32587, 3.67557, -0.0685925, 0.000652927, -0.000715508, -0.000226042, 0.000811474, -0.00250138, -0.000925758, 0.0233266, -0.0133859, -0.00354058, -0.0310346, 0.0603904, 0.0079077, 0.470924, -0.542588, 0.336102, -2.08347, -2.16568, -0.129946, 0.470194, -0.542007, 0.336449, -2.08335, -2.16777, -0.126603, -0.00255699, 0.0247111, 0.00633291, 0.0115189, 0.00277862, -0.0011963
0.107205, 1.69356, -1.22519, -1.53737, -0.899244, -1.19395, 1.22794, -1.30261, 0.0413936, 0.00121637, -0.00119178, 0.00923804, -0.067392, -0.00477394, -0.0010243, 0.813057, 56.1581, 26.449, 5.95032, 1.34418, 3.66824, -0.0228162, 0.00063261, -0.000698963, -0.000224708, 0.00084043, -0.00256736, -0.000942437, 0.0232818, -0.0142255, -0.00338366, -0.033985, 0.066799, 0.0127326, 0.470922, -0.542563, 0.336109, -2.08346, -2.16568, -0.129948, 0.470209, -0.542002, 0.33645, -2.08334, -2.16781, -0.126507, -0.00260593, 0.0251949, 0.006453, 0.0123125, 0.00331709, -0.000940102
0.108205, 1.69361, -1.2252, -1.53736, -0.899233, -1.19401, 1.22795, -1.30261, 0.0465489, -9.56518e-05, 0.000133234, 0.0100932, -0.0693227, -0.00335165, 0.00124991, 0.737679, 56.1938, 26.4094, 5.95032, 1.33777, 3.66092, -0.0750012, 0.000612232, -0.000679044, -0.000220489, 0.000860684, -0.00262655, -0.000951355, 0.0221229, -0.017257, -0.00375397, -0.0328887, 0.0680153, 0.0148569, 0.470919, -0.542538, 0.336115, -2.08345, -2.16567, -0.12995, 0.470227, -0.541995, 0.336449, -2.08334, -2.16784, -0.126428, -0.00265523, 0.0256827, 0.00657393, 0.0152358, 0.00513064, -0.00109691
0.109205, 1.69365, -1.2252, -1.53737, -0.899221, -1.19407, 1.22794, -1.30261, 0.0440364, -0.000952496, -0.000839398, 0.0108112, -0.0711184, -0.00310719, -0.000387427, 0.777352, 56.2296, 26.449, 5.95032, 1.34418, 3.67557, -0.0420422, 0.000587475, -0.000665309, -0.000214573, 0.000889752, -0.00268381, -0.000959275, 0.0246255, -0.0154094, -0.00438804, -0.0336103, 0.0689212, 0.0123698, 0.470916, -0.542512, 0.336122, -2.08343, -2.16567, -0.129952, 0.470239, -0.541992, 0.336445, -2.08333, -2.16787, -0.12634, -0.00270489, 0.0261745, 0.00669572, 0.0134076, 0.00317393, -0.00193463
0.110205, 1.6937, -1.22519, -1.53736, -0.899208, -1.19414, 1.22794, -1.30261, 0.044105, 0.000995306, 0.000368271, 0.0130311, -0.0675657, -0.00649029, 0.000487701, 0.737679, 56.1581, 26.4094, 5.87494, 1.34418, 3.66092, -0.0621838, 0.000566102, -0.000646512, -0.00021545, 0.000908451, -0.00275034, -0.000968991, 0.024269, -0.0149414, -0.00285418, -0.0325351, 0.0662527, 0.0113997, 0.470914, -0.542486, 0.336128, -2.08342, -2.16566, -0.129954, 0.470256, -0.541987, 0.336449, -2.08333, -2.1679, -0.126255, -0.00275491, 0.0266701, 0.00681835, 0.0129332, 0.00376581, -0.000228209
0.111205, 1.69375, -1.22519, -1.53736, -0.899199, -1.1942, 1.22794, -1.30261, 0.0485898, 0.00879702, 0.00108062, 0.00885312, -0.0649659, -0.00466806, 0.000799852, 0.6623, 56.0828, 26.3736, 5.91064, 1.34967, 3.65451, -0.0750012, 0.000545745, -0.000626978, -0.000214887, 0.00093262, -0.0028169, -0.000983937, 0.0203252, -0.0190291, 0.0012821, -0.0310348, 0.0735124, 0.0202974, 0.470911, -0.542459, 0.336135, -2.08341, -2.16566, -0.129956, 0.470273, -0.541979, 0.336451, -2.08332, -2.16794, -0.126164, -0.00280528, 0.0271696, 0.00694181, 0.0169743, 0.00768852, 0.00446816
0.112205, 1.69379, -1.2252, -1.53737, -0.899191, -1.19426, 1.22794, -1.30261, 0.0485732, 0.00461223, -0.00730488, 0.00974381, -0.0625283, -0.00300342, -0.000687469, 0.586922, 56.1581, 26.449, 5.91064, 1.33777, 3.63986, -0.0420422, 0.000522275, -0.000608389, -0.00020636, 0.000962707, -0.0028757, -0.000996882, 0.0229581, -0.0180408, -0.00391638, -0.0356147, 0.0688945, 0.0178915, 0.470908, -0.542432, 0.336142, -2.0834, -2.16565, -0.129958, 0.470289, -0.541973, 0.336446, -2.08331, -2.16797, -0.126074, -0.00285601, 0.0276729, 0.00706609, 0.0158419, 0.00635416, -0.000920212
0.113205, 1.69384, -1.22519, -1.53736, -0.899187, -1.19433, 1.22794, -1.30261, 0.0509194, 0.00345791, -0.00446379, 0.00857452, -0.0665964, -0.00675528, -0.00164511, 0.551216, 56.1581, 26.4094, 5.98602, 1.35608, 3.63254, -0.00999879, 0.0005007, -0.000588145, -0.000203761, 0.000987168, -0.00294349, -0.00102104, 0.0220234, -0.0190259, -0.00424528, -0.0392002, 0.0694671, 0.0222473, 0.470905, -0.542404, 0.336149, -2.08338, -2.16565, -0.12996, 0.470307, -0.541966, 0.336446, -2.08329, -2.16802, -0.125983, -0.00290708, 0.0281801, 0.00719119, 0.0167292, 0.00787538, -0.00100477
0.114205, 1.69388, -1.22519, -1.53736, -0.89917, -1.1944, 1.22794, -1.30261, 0.0430138, 0.00435583, -0.00336728, 0.00918203, -0.0698516, -0.00541044, -0.00136801, 0.626595, 56.0828, 26.4094, 5.87494, 1.37439, 3.63986, -0.00267457, 0.000471096, -0.000577425, -0.000204618, 0.00100942, -0.00301094, -0.00101569, 0.0267144, -0.0145486, -0.00274922, -0.0368993, 0.0735783, 0.0130934, 0.470902, -0.542376, 0.336156, -2.08337, -2.16564, -0.129962, 0.470316, -0.541966, 0.336449, -2.08331, -2.16804, -0.125891, -0.0029585, 0.0286911, 0.00731711, 0.012429, 0.00334103, 4.22606e-06
0.115205, 1.69393, -1.22519, -1.53736, -0.899168, -1.19446, 1.22794, -1.30261, 0.0442296, 0.00311937, -0.00346644, 0.00809475, -0.0662245, -0.00381243, -0.000912004, 0.551216, 56.0828, 26.449, 5.95032, 1.3689, 3.63254, -0.00267457, 0.000448416, -0.000557345, -0.000198859, 0.00104002, -0.00307681, -0.00103298, 0.0259672, -0.0162129, -0.00362996, -0.0346161, 0.0705667, 0.0160313, 0.470899, -0.542347, 0.336164, -2.08336, -2.16563, -0.129964, 0.470334, -0.541958, 0.336447, -2.0833, -2.16808, -0.125794, -0.00301027, 0.0292059, 0.00744383, 0.0139806, 0.00479782, -0.000673414
0.116205, 1.69393, -1.22519, -1.53736, -0.899168, -1.19446, 1.22794, -1.30261, 0.0442296, 0.00311937, -0.00346644, 0.00809475, -0.0662245, -0.00381243, -0.000912004, 0.551216, 56.0828, 26.449, 5.95032, 1.3689, 3.63254, -0.00267457, 0.000418323, -0.000555312, -0.000196116, 0.00103137, -0.00308808, -0.00102961, 0.0265009, -0.0162475, -0.00367352, -0.0345137, 0.0708267, 0.0160762, 0.470896, -0.542318, 0.336171, -2.08334, -2.16563, -0.129966, 0.470334, -0.541958, 0.336447, -2.0833, -2.16808, -0.125794, -0.00306237, 0.0297245, 0.00757134, 0.0139806, 0.00479782, -0.000673414
0.117205, 1.69393, -1.22519, -1.53736, -0.899168, -1.19446, 1.22794, -1.30261, 0.0442296, 0.00311937, -0.00346644, 0.00809475, -0.0662245, -0.00381243, -0.000912004, 0.551216, 56.0828, 26.449, 5.95032, 1.3689, 3.63254, -0.00267457, 0.000387697, -0.000553245, -0.000193329, 0.00102255, -0.00309955, -0.00102618, 0.0270385, -0.0162822, -0.00371724, -0.0344104, 0.0710888, 0.0161214, 0.470893, -0.542288, 0.336179, -2.08333, -2.16562, -0.129968, 0.470334, -0.541958, 0.336447, -2.0833, -2.16808, -0.125794, -0.00311481, 0.0302468, 0.00769965, 0.0139806, 0.00479782, -0.000673414
0.118205, 1.69405, -1.22519, -1.53736, -0.899153, -1.19465, 1.22793, -1.3026, 0.0389731, 8.51158e-05, 0.00277557, 0.00267371, -0.0606318, -0.00148757, 0.00105974, 0.511544, 56.1581, 26.449, 6.0614, 1.37439, 3.62521, -0.0621838, 0.000370684, -0.000506792, -0.000182838, 0.00112011, -0.00326042, -0.0010659, 0.0264301, -0.0167847, -0.00360631, -0.0262467, 0.0648154, 0.0186925, 0.47089, -0.542258, 0.336186, -2.08331, -2.16562, -0.129971, 0.470377, -0.541941, 0.33644, -2.08327, -2.16817, -0.125529, -0.00316759, 0.0307728, 0.00782873, 0.0144119, 0.00592817, -0.000355857
0.119205, 1.6941, -1.2252, -1.53736, -0.899141, -1.19472, 1.22793, -1.3026, 0.0421815, -0.000710292, 0.00215101, 0.00400593, -0.0597959, -0.00114256, 0.000706494, 0.400459, 56.1938, 26.449, 5.98602, 1.3808, 3.62521, -0.0621838, 0.000342946, -0.000488807, -0.000177292, 0.00114497, -0.00332346, -0.00107369, 0.0260193, -0.0183832, -0.00429309, -0.0259262, 0.0637966, 0.0210894, 0.470887, -0.542227, 0.336194, -2.0833, -2.16561, -0.129973, 0.470393, -0.541936, 0.336438, -2.08327, -2.16819, -0.12544, -0.0032207, 0.0313025, 0.00795859, 0.0159155, 0.0070353, -0.000889262
0.120205, 1.69414, -1.22519, -1.53736, -0.899137, -1.19478, 1.22793, -1.3026, 0.0399318, 0.000412826, 0.00165948, 0.00218056, -0.0590389, -9.49434e-05, 0.000708355, 0.325081, 56.1581, 26.449, 6.02173, 1.37439, 3.60415, -0.0685925, 0.000316919, -0.000470329, -0.000173912, 0.0011707, -0.00338974, -0.00108727, 0.0269809, -0.0177352, -0.00389298, -0.02541, 0.0652096, 0.0205092, 0.470884, -0.542196, 0.336202, -2.08328, -2.1656, -0.129975, 0.470409, -0.541929, 0.336438, -2.08326, -2.16823, -0.125348, -0.00327414, 0.031836, 0.00808922, 0.0152639, 0.00653123, -0.000493993
0.121205, 1.69418, -1.22519, -1.53737, -0.89913, -1.19484, 1.22793, -1.3026, 0.0340545, 0.00124159, 0.000440207, 0.0025478, -0.0625128, 0.00039439, 0.00387563, 0.285408, 56.1185, 26.4847, 5.98602, 1.3689, 3.58951, -0.0356336, 0.000287876, -0.00045389, -0.000170514, 0.0011948, -0.00345665, -0.00109971, 0.031171, -0.0138645, -0.00347341, -0.0263996, 0.0692614, 0.00949255, 0.470881, -0.542164, 0.33621, -2.08327, -2.1656, -0.129978, 0.470423, -0.541925, 0.336437, -2.08325, -2.16826, -0.125257, -0.00332791, 0.0323731, 0.00822061, 0.0115102, 0.00270838, -0.000483131
0.122205, 1.69422, -1.22519, -1.53736, -0.899127, -1.19491, 1.22792, -1.30261, 0.0356995, 0.00169171, 0.00218354, 0.00105747, -0.0613888, -0.000614512, 0.00174839, 0.285408, 56.0828, 26.4094, 6.02173, 1.3689, 3.61148, -0.00267457, 0.000259646, -0.000438418, -0.000168773, 0.00122046, -0.003523, -0.00111514, 0.0298186, -0.0153939, -0.0030193, -0.0260472, 0.0686327, 0.0158025, 0.470877, -0.542132, 0.336219, -2.08325, -2.16559, -0.12998, 0.470436, -0.54192, 0.336439, -2.08324, -2.1683, -0.125165, -0.00338201, 0.0329138, 0.00835276, 0.0129516, 0.00457709, 0.000260797
0.123205, 1.69427, -1.22519, -1.53736, -0.899124, -1.19497, 1.22792, -1.30261, 0.0395583, 0.000314161, -0.000212425, -7.7425e-05, -0.0606203, -0.000186135, 0.00172587, 0.170357, 56.1185, 26.4847, 6.0614, 1.3808, 3.60415, -0.00999879, 0.000232014, -0.00041933, -0.000160896, 0.00125231, -0.00358589, -0.00113008, 0.0288503, -0.0176167, -0.00504441, -0.0285513, 0.067499, 0.0198071, 0.470874, -0.542099, 0.336227, -2.08324, -2.16558, -0.129982, 0.470453, -0.541912, 0.336435, -2.08322, -2.16833, -0.12507, -0.00343642, 0.0334582, 0.00848565, 0.0150085, 0.0064815, -0.0015233
0.124205, 1.69431, -1.22519, -1.53736, -0.899122, -1.19503, 1.22792, -1.30261, 0.0380641, -0.000702399, 0.00169296, 0.00232679, -0.0588555, 0.000111382, 0.00109607, 0.0949785, 56.1581, 26.4094, 6.09711, 1.36249, 3.59683, -0.00267457, 0.000205922, -0.000398802, -0.000156753, 0.00127217, -0.00364598, -0.00115124, 0.0301717, -0.0168837, -0.00457492, -0.0244105, 0.065076, 0.018434, 0.47087, -0.542066, 0.336235, -2.08322, -2.16557, -0.129985, 0.47047, -0.541903, 0.336434, -2.0832, -2.16838, -0.124992, -0.00349116, 0.0340062, 0.00861928, 0.0142864, 0.00562271, -0.00111003
0.125205, 1.69435, -1.22519, -1.53736, -0.899118, -1.19509, 1.22791, -1.30261, 0.03516, 0.00130711, 0.000254128, 0.00272702, -0.0585972, -0.00438572, 0.00163926, 0.0949785, 56.0828, 26.449, 6.0614, 1.3689, 3.58951, -0.0228162, 0.000174173, -0.000384878, -0.000155189, 0.00129756, -0.00371545, -0.00115583, 0.0317407, -0.0141192, -0.00413471, -0.028535, 0.064894, 0.0140693, 0.470867, -0.542032, 0.336244, -2.0832, -2.16557, -0.129987, 0.470482, -0.541899, 0.336436, -2.0832, -2.1684, -0.124896, -0.00354621, 0.0345577, 0.00875364, 0.0115429, 0.0044439, -0.000701595
0.126205, 1.69439, -1.22518, -1.53737, -0.899118, -1.19516, 1.22791, -1.3026, 0.0340607, 0.00347896, -0.00155369, 0.00123825, -0.0587839, -0.00306471, 0.00243547, 0.059273, 55.9717, 26.5244, 6.09711, 1.3808, 3.58218, -0.0557752, 0.000144029, -0.00036876, -0.000152682, 0.00132939, -0.00378856, -0.00116404, 0.0327023, -0.013736, -0.00357365, -0.0292896, 0.0683654, 0.0125685, 0.470863, -0.541997, 0.336253, -2.08319, -2.16556, -0.12999, 0.470496, -0.541894, 0.336437, -2.0832, -2.16843, -0.12479, -0.00360158, 0.0351128, 0.00888872, 0.0111599, 0.00394759, -0.000151154
0.127205, 1.69442, -1.22519, -1.53736, -0.899125, -1.19521, 1.22791, -1.3026, 0.0330929, -0.00110754, 0.000757541, -0.00158136, -0.0578336, -0.00184364, 0.00120646, 0.0196001, 56.1185, 26.449, 6.20819, 1.3689, 3.56845, -0.0420422, 0.00011558, -0.000349221, -0.000142541, 0.00134915, -0.00383809, -0.00118509, 0.0327675, -0.0146799, -0.00572915, -0.0272362, 0.0639752, 0.0168754, 0.47086, -0.541962, 0.336262, -2.08317, -2.16555, -0.129992, 0.470512, -0.541884, 0.336431, -2.08317, -2.16847, -0.124723, -0.00365725, 0.0356715, 0.00902453, 0.0119705, 0.0048138, -0.00218306
0.128205, 1.69446, -1.22519, -1.53736, -0.899117, -1.19527, 1.22791, -1.3026, 0.0334124, -0.000733241, -0.000307618, 0.00168791, -0.057916, -0.00118967, 0.00161888, -0.0557783, 56.1185, 26.4847, 6.09711, 1.3808, 3.56112, -0.0621838, 8.18902e-05, -0.000333952, -0.000137225, 0.00137397, -0.00390163, -0.00119153, 0.0344431, -0.0140828, -0.00543642, -0.0259838, 0.0648103, 0.0134195, 0.470856, -0.541926, 0.336271, -2.08315, -2.16554, -0.129995, 0.470525, -0.54188, 0.336429, -2.08317, -2.1685, -0.124634, -0.00371324, 0.0362337, 0.00916105, 0.0113891, 0.00365243, -0.00200084
0.129205, 1.69451, -1.22519, -1.53736, -0.899122, -1.19532, 1.2279, -1.3026, 0.0307118, -0.00141301, -0.000188149, 0.000305024, -0.057624, -0.00123826, 0.00113069, -0.166862, 56.1581, 26.4847, 6.13678, 1.3808, 3.56845, -0.0621838, 5.52364e-05, -0.000312757, -0.000128392, 0.00139924, -0.00395237, -0.00121494, 0.0357941, -0.0129723, -0.00589201, -0.0259694, 0.0641904, 0.0126677, 0.470852, -0.54189, 0.33628, -2.08314, -2.16554, -0.129998, 0.470543, -0.541868, 0.336425, -2.08314, -2.16853, -0.124559, -0.00376953, 0.0367994, 0.00929827, 0.0102557, 0.00290937, -0.00249059
0.130205, 1.69454, -1.22518, -1.53736, -0.899115, -1.19538, 1.2279, -1.3026, 0.0303672, 0.00258735, -0.000112735, 0.00204742, -0.0525686, -0.000413387, 0.00079237, -0.206535, 56.0074, 26.4847, 6.0614, 1.37439, 3.5538, -0.0621838, 2.24586e-05, -0.000297738, -0.000130334, 0.00141919, -0.00402289, -0.00122195, 0.0357325, -0.0130857, -0.0032314, -0.0214973, 0.0645581, 0.0128565, 0.470849, -0.541853, 0.336289, -2.08312, -2.16553, -0.13, 0.470555, -0.541863, 0.33643, -2.08314, -2.16856, -0.124469, -0.00382613, 0.0373685, 0.00943618, 0.0104074, 0.00313329, 0.000279722
0.131205, 1.69458, -1.22519, -1.53736, -0.899122, -1.19543, 1.2279, -1.3026, 0.0327433, -3.61779e-05, 0.0016976, -0.000337673, -0.0490952, -0.000102133, 0.000794539, -0.206535, 56.0828, 26.4094, 6.13678, 1.3808, 3.54648, -0.0685925, -7.07721e-06, -0.000279068, -0.000123455, 0.00143821, -0.00407402, -0.00124366, 0.0337747, -0.0158003, -0.00461039, -0.0196349, 0.0597142, 0.0194264, 0.470845, -0.541816, 0.336299, -2.0831, -2.16552, -0.130003, 0.470571, -0.541853, 0.336428, -2.08312, -2.1686, -0.124401, -0.00388303, 0.0379411, 0.00957479, 0.0129409, 0.00596348, -0.000721771
0.132205, 1.69462, -1.22518, -1.53736, -0.899121, -1.19548, 1.22789, -1.3026, 0.0348395, 0.00174074, -0.00155238, -0.00017965, -0.0506024, 0.00036718, -0.000431952, -0.357292, 56.0074, 26.5244, 6.13678, 1.3689, 3.53274, -0.0420422, -3.79608e-05, -0.000260067, -0.000118225, 0.00146521, -0.00413589, -0.0012631, 0.0343366, -0.0162919, -0.00480672, -0.0227451, 0.0635104, 0.020532, 0.470841, -0.541778, 0.336308, -2.08308, -2.16551, -0.130006, 0.470587, -0.541844, 0.336427, -2.08309, -2.16864, -0.124313, -0.00394022, 0.0385172, 0.00971408, 0.0133877, 0.00603569, -0.000879544
0.133205, 1.69466, -1.22518, -1.53736, -0.899125, -1.19553, 1.22789, -1.3026, 0.0368813, -0.00060153, -0.00102956, -0.000920885, -0.0477292, 0.000189769, -0.00196711, -0.392998, 56.0828, 26.5244, 6.17248, 1.3808, 3.53274, 0.00373412, -7.00969e-05, -0.000241677, -0.00011032, 0.00148623, -0.00418995, -0.00128694, 0.0333323, -0.0180648, -0.00627302, -0.0218569, 0.0591265, 0.0260434, 0.470837, -0.541739, 0.336318, -2.08306, -2.1655, -0.130009, 0.470602, -0.541836, 0.336423, -2.08307, -2.16868, -0.12424, -0.00399771, 0.0390967, 0.00985405, 0.0150111, 0.00790641, -0.00208567
0.134205, 1.69469, -1.22518, -1.53736, -0.89913, -1.19558, 1.22789, -1.30261, 0.0373962, -0.000400109, 0.000245662, -0.00142357, -0.0495234, 0.000899052, -0.00201128, -0.392998, 56.0828, 26.4847, 6.20819, 1.3689, 3.51077, 0.0229602, -0.000101401, -0.000222985, -0.000106331, 0.00150085, -0.00424504, -0.00131006, 0.0336958, -0.0186515, -0.00578176, -0.0211375, 0.0614215, 0.0270941, 0.470833, -0.5417, 0.336328, -2.08305, -2.1655, -0.130011, 0.470618, -0.541826, 0.336424, -2.08304, -2.16872, -0.124173, -0.0040555, 0.0396796, 0.00999469, 0.0155703, 0.00807893, -0.0015353
0.135205, 1.69473, -1.22519, -1.53736, -0.899133, -1.19562, 1.22788, -1.3026, 0.0356943, -0.00110127, 0.000166788, -0.00185788, -0.0467605, 0.00111095, -0.000856981, -0.43267, 56.1185, 26.4847, 6.24786, 1.37439, 3.49612, 0.0101428, -0.000134674, -0.000206635, -9.89008e-05, 0.00152168, -0.00429395, -0.00132558, 0.0344858, -0.0181809, -0.0062217, -0.0196183, 0.0588563, 0.0255949, 0.470829, -0.541661, 0.336338, -2.08303, -2.16549, -0.130014, 0.470631, -0.541817, 0.336421, -2.08302, -2.16875, -0.124105, -0.00411357, 0.0402659, 0.010136, 0.0150546, 0.00793427, -0.00193778
0.136205, 1.69477, -1.22518, -1.53736, -0.899138, -1.19567, 1.22788, -1.3026, 0.0395543, 0.000936766, -0.000814568, -0.00517919, -0.049454, 0.000954785, 0.000656249, -0.543754, 56.0471, 26.5244, 6.28357, 1.3808, 3.48971, -0.0228162, -0.000164214, -0.000185001, -9.43552e-05, 0.0015408, -0.00434961, -0.00135065, 0.0329158, -0.0205832, -0.00609224, -0.0237316, 0.0638049, 0.0294358, 0.470825, -0.54162, 0.336348, -2.08301, -2.16548, -0.130017, 0.470649, -0.541805, 0.336421, -2.08299, -2.16879, -0.124033, -0.00417194, 0.0408555, 0.0102779, 0.0173438, 0.010153, -0.00149756
0.137205, 1.6948, -1.22518, -1.53736, -0.899144, -1.1957, 1.22788, -1.3026, 0.0353169, -0.00104554, -0.00221179, -0.00463001, -0.046589, 0.000890383, 0.00190071, -0.508049, 56.1185, 26.5958, 6.32324, 1.3808, 3.48239, -0.0621838, -0.000199516, -0.000169525, -8.53714e-05, 0.00155948, -0.00439489, -0.00136283, 0.0354831, -0.018226, -0.00750562, -0.0228083, 0.0596668, 0.0239049, 0.470821, -0.541579, 0.336358, -2.08299, -2.16547, -0.13002, 0.470662, -0.541797, 0.336417, -2.08298, -2.16881, -0.123971, -0.00423059, 0.0414484, 0.0104206, 0.0149715, 0.00833339, -0.00307915
0.138205, 1.69484, -1.22519, -1.53736, -0.899142, -1.19574, 1.22788, -1.3026, 0.0357236, -0.00245998, 0.000197183, -0.00542334, -0.0450405, 0.000580533, 0.00103364, -0.619133, 56.1938, 26.5244, 6.28357, 1.3927, 3.48239, -0.0557752, -0.000231574, -0.000147992, -7.77899e-05, 0.00156597, -0.00443456, -0.00138429, 0.034973, -0.0192349, -0.00769162, -0.0206896, 0.0570654, 0.0276253, 0.470816, -0.541538, 0.336369, -2.08297, -2.16546, -0.130023, 0.47068, -0.541785, 0.336414, -2.08295, -2.16885, -0.123928, -0.00428952, 0.0420447, 0.0105638, 0.015895, 0.00950386, -0.00307168
0.139205, 1.69488, -1.22519, -1.53736, -0.899152, -1.19578, 1.22787, -1.3026, 0.0342381, -0.00080455, 0.000132408, -0.00577545, -0.0387845, 0.000919764, -5.39929e-05, -0.658806, 56.1581, 26.5244, 6.35895, 1.39911, 3.46774, -0.0356336, -0.00026174, -0.000126504, -7.30954e-05, 0.001581, -0.00448487, -0.00141424, 0.0347959, -0.0192423, -0.00673458, -0.0172187, 0.0540534, 0.0296513, 0.470812, -0.541496, 0.336379, -2.08295, -2.16545, -0.130026, 0.470698, -0.541771, 0.336414, -2.08292, -2.16889, -0.123867, -0.00434873, 0.0426443, 0.0107077, 0.015872, 0.0101309, -0.00195632
0.140205, 1.69491, -1.22518, -1.53736, -0.899156, -1.19581, 1.22787, -1.3026, 0.0341434, 0.000391815, 8.89873e-05, -0.00414779, -0.0333391, 0.000605832, -0.000271182, -0.583427, 56.1185, 26.5244, 6.35895, 1.38721, 3.46774, -0.0292249, -0.000295791, -0.00011005, -7.08677e-05, 0.00158932, -0.00452997, -0.00143322, 0.0347228, -0.0193888, -0.00589585, -0.0139837, 0.0507909, 0.030192, 0.470808, -0.541453, 0.33639, -2.08293, -2.16544, -0.130029, 0.470711, -0.541761, 0.336417, -2.08289, -2.16893, -0.123817, -0.00440822, 0.0432472, 0.0108522, 0.0159871, 0.0106827, -0.000977617
0.141205, 1.69495, -1.22519, -1.53736, -0.899162, -1.19584, 1.22787, -1.3026, 0.0341962, -0.00233712, -0.00161057, -0.00382353, -0.0345461, 0.00144954, -0.0011625, -0.658806, 56.2296, 26.5958, 6.39465, 1.3927, 3.43936, -0.00267457, -0.000328786, -8.77268e-05, -5.71414e-05, 0.00160637, -0.00456645, -0.0014631, 0.0363628, -0.0191569, -0.0080293, -0.0152578, 0.0498737, 0.0297321, 0.470803, -0.54141, 0.336401, -2.08291, -2.16543, -0.130032, 0.47073, -0.541747, 0.336409, -2.08285, -2.16896, -0.123767, -0.00446799, 0.0438533, 0.0109973, 0.0156763, 0.00999062, -0.00318825
0.142205, 1.69498, -1.22518, -1.53735, -0.89917, -1.19586, 1.22786, -1.3026, 0.0366424, -0.000722774, -0.000238096, -0.00364438, -0.0299321, 0.000453604, -0.00172322, -0.694511, 56.1938, 26.5601, 6.43433, 1.37439, 3.45309, 0.0229602, -0.000357635, -6.50097e-05, -5.38151e-05, 0.00161499, -0.00460672, -0.00149582, 0.0344933, -0.0210728, -0.00683906, -0.012806, 0.0474921, 0.0347864, 0.470799, -0.541366, 0.336412, -2.08288, -2.16542, -0.130036, 0.470749, -0.54173, 0.336411, -2.08281, -2.16901, -0.123723, -0.00452802, 0.0444627, 0.0111431, 0.0175062, 0.0123407, -0.00163544
0.143205, 1.69502, -1.22519, -1.53736, -0.899171, -1.19589, 1.22786, -1.3026, 0.0342656, -0.00215222, -0.00192167, -0.00392162, -0.0281027, 0.000299304, -0.000435817, -0.694511, 56.2653, 26.6355, 6.35895, 1.39911, 3.45309, 0.00373412, -0.00039378, -4.58171e-05, -4.43174e-05, 0.00162401, -0.00464309, -0.00151581, 0.0362102, -0.0197508, -0.00824938, -0.013318, 0.0448716, 0.0312791, 0.470794, -0.541322, 0.336423, -2.08286, -2.16541, -0.130039, 0.470764, -0.541719, 0.336407, -2.08278, -2.16904, -0.123682, -0.00458833, 0.0450753, 0.0112895, 0.0161356, 0.0114225, -0.00310954
0.144205, 1.69505, -1.22519, -1.53735, -0.899177, -1.19592, 1.22786, -1.3026, 0.0315768, -0.00143476, 0.00180803, -0.00600923, -0.0257344, 0.000705839, -0.000289857, -0.658806, 56.2653, 26.6355, 6.35895, 1.39911, 3.43936, 0.00373412, -0.000428365, -2.6041e-05, -3.877e-05, 0.00163023, -0.00468375, -0.00154131, 0.0361445, -0.0197294, -0.00666945, -0.00898963, 0.0440204, 0.0329382, 0.47079, -0.541277, 0.336434, -2.08284, -2.1654, -0.130042, 0.470781, -0.541707, 0.336406, -2.08275, -2.16907, -0.12364, -0.00464891, 0.0456911, 0.0114364, 0.0161094, 0.0118582, -0.00139271
0.145205, 1.69509, -1.22519, -1.53736, -0.899181, -1.19594, 1.22786, -1.3026, 0.0325474, -0.00012125, 0.000627715, -0.00680344, -0.0294551, 0.000740084, 0.00174006, -0.734184, 56.2296, 26.6712, 6.32324, 1.41742, 3.43204, -0.0484509, -0.000461951, -3.64816e-06, -3.31368e-05, 0.00163661, -0.0047254, -0.001563, 0.036974, -0.0198474, -0.00651578, -0.011995, 0.0488952, 0.0307713, 0.470785, -0.541231, 0.336446, -2.08282, -2.16539, -0.130045, 0.470799, -0.541692, 0.336406, -2.08272, -2.16911, -0.123596, -0.00470975, 0.04631, 0.011584, 0.0162019, 0.0116399, -0.00122736
0.146205, 1.69512, -1.22519, -1.53735, -0.899182, -1.19596, 1.22786, -1.3026, 0.0335621, 0.00226446, 0.00144688, -0.00733927, -0.0271938, -0.00393178, 0.00143169, -0.694511, 56.2653, 26.6355, 6.28357, 1.43024, 3.42471, -0.0557752, -0.00049702, 1.62292e-05, -2.92229e-05, 0.00163279, -0.00475756, -0.00158677, 0.0356706, -0.0200723, -0.00541326, -0.0143648, 0.0474584, 0.033705, 0.47078, -0.541185, 0.336457, -2.0828, -2.16538, -0.130049, 0.470816, -0.541679, 0.336408, -2.08269, -2.16914, -0.123573, -0.00477085, 0.0469322, 0.0117321, 0.0163591, 0.0133877, 0.000204842
0.147205, 1.69512, -1.22519, -1.53735, -0.899182, -1.19596, 1.22786, -1.3026, 0.0335621, 0.00226446, 0.00144688, -0.00733927, -0.0271938, -0.00393178, 0.00143169, -0.694511, 56.2653, 26.6355, 6.28357, 1.43024, 3.42471, -0.0557752, -0.000545348, 1.94147e-05, -2.50876e-05, 0.00161847, -0.0047761, -0.00158143, 0.0363134, -0.0201122, -0.00546014, -0.0142307, 0.0477801, 0.0337595, 0.470776, -0.541138, 0.336469, -2.08277, -2.16537, -0.130052, 0.470816, -0.541679, 0.336408, -2.08269, -2.16914, -0.123573, -0.00483222, 0.0475574, 0.0118809, 0.0163591, 0.0133877, 0.000204842
0.148205, 1.69512, -1.22519, -1.53735, -0.899182, -1.19596, 1.22786, -1.3026, 0.0335621, 0.00226446, 0.00144688, -0.00733927, -0.0271938, -0.00393178, 0.00143169, -0.694511, 56.2653, 26.6355, 6.28357, 1.43024, 3.42471, -0.0557752, -0.000594319, 2.26398e-05, -2.09065e-05, 0.00160394, -0.00479489, -0.00157603, 0.0369594, -0.0201523, -0.00550705, -0.0140956, 0.0481036, 0.0338142, 0.470771, -0.54109, 0.336481, -2.08275, -2.16536, -0.130056, 0.470816, -0.541679, 0.336408, -2.08269, -2.16914, -0.123573, -0.00489384, 0.0481858, 0.0120302, 0.0163591, 0.0133877, 0.000204842
0.149205, 1.69512, -1.22519, -1.53735, -0.899182, -1.19596, 1.22786, -1.3026, 0.0335621, 0.00226446, 0.00144688, -0.00733927, -0.0271938, -0.00393178, 0.00143169, -0.694511, 56.2653, 26.6355, 6.28357, 1.43024, 3.42471, -0.0557752, -0.000643935, 2.59046e-05, -1.66796e-05, 0.00158921, -0.00481394, -0.00157055, 0.0376086, -0.0201925, -0.005554, -0.0139595, 0.048429, 0.0338692, 0.470766, -0.541042, 0.336493, -2.08273, -2.16535, -0.130059, 0.470816, -0.541679, 0.336408, -2.08269, -2.16914, -0.123573, -0.00495572, 0.0488173, 0.01218, 0.0163591, 0.0133877, 0.000204842
0.150205, 1.69525, -1.2252, -1.53735, -0.89921, -1.19602, 1.22785, -1.3026, 0.035453, -0.00210988, 0.00141462, -0.00621316, -0.0167776, -0.000904163, 0.00604349, -0.694511, 56.4517, 26.822, 6.24786, 1.42383, 3.41006, -0.0164075, -0.000641353, 9.77681e-05, 3.07927e-06, 0.00163759, -0.00487178, -0.00169423, 0.0364279, -0.0228395, -0.00787227, -0.0065025, 0.0373262, 0.0337736, 0.470761, -0.540993, 0.336505, -2.0827, -2.16534, -0.130063, 0.470882, -0.541622, 0.336399, -2.08254, -2.16928, -0.123477, -0.00501785, 0.0494519, 0.0123305, 0.0188126, 0.0156562, -0.00183161
0.151205, 1.69527, -1.22518, -1.53734, -0.899221, -1.19602, 1.22785, -1.3026, 0.0333993, 0.00127574, 0.00360173, -0.0118936, -0.0175698, 0.000324279, 0.0050978, -0.694511, 56.3406, 26.8577, 6.28357, 1.43024, 3.38168, -0.0292249, -0.000675638, 0.000119851, 1.87815e-06, 0.00162995, -0.00491227, -0.0017247, 0.0358132, -0.0234525, -0.00572587, -0.00584547, 0.0425881, 0.0384453, 0.470756, -0.540944, 0.336517, -2.08268, -2.16533, -0.130066, 0.4709, -0.541605, 0.336406, -2.08251, -2.16933, -0.123451, -0.00508023, 0.0500896, 0.0124815, 0.0194194, 0.0165941, 0.000514514
0.152205, 1.6953, -1.22519, -1.53733, -0.899223, -1.19603, 1.22784, -1.3026, 0.0317718, -0.00252028, 0.00597398, -0.00717024, -0.0138187, -0.00041943, 0.00238603, -0.694511, 56.4874, 26.8577, 6.20819, 1.44855, 3.39633, 0.0101428, -0.000714457, 0.000139299, 1.07023e-05, 0.00162289, -0.00493004, -0.00175408, 0.0376453, -0.0222973, -0.00649406, -0.000377941, 0.0350581, 0.0379438, 0.470751, -0.540894, 0.33653, -2.08266, -2.16532, -0.13007, 0.470915, -0.541591, 0.336403, -2.08247, -2.16936, -0.123448, -0.00514285, 0.0507303, 0.012633, 0.0182409, 0.015498, -0.000343844
0.153205, 1.69533, -1.22519, -1.53733, -0.899232, -1.19604, 1.22784, -1.3026, 0.027441, -0.000797795, 0.00601741, -0.00865137, -0.0102829, -0.00034943, 0.00239958, -0.694511, 56.4517, 26.933, 6.20819, 1.44855, 3.39633, -0.00267457, -0.000751643, 0.000160209, 1.55603e-05, 0.00161798, -0.00495912, -0.0017851, 0.0389275, -0.0206268, -0.00548747, 0.00161232, 0.0342401, 0.0361859, 0.470746, -0.540843, 0.336542, -2.08263, -2.16531, -0.130073, 0.470932, -0.541576, 0.336405, -2.08243, -2.1694, -0.123431, -0.00520573, 0.051374, 0.0127851, 0.0165931, 0.0146516, 0.000652209
0.154205, 1.69536, -1.22519, -1.53733, -0.899249, -1.19605, 1.22784, -1.3026, 0.0241821, -0.0013317, 0.00804406, -0.00835563, -0.00786156, -0.000285311, 0.00330841, -0.694511, 56.4874, 26.933, 6.28357, 1.45404, 3.39633, -0.0420422, -0.00078711, 0.000182221, 2.18205e-05, 0.00161428, -0.0049843, -0.00181495, 0.0402846, -0.0194233, -0.00491543, 0.00530221, 0.0318278, 0.0336568, 0.470741, -0.540792, 0.336555, -2.08261, -2.1653, -0.130077, 0.47095, -0.541558, 0.336405, -2.08239, -2.16944, -0.123416, -0.00526884, 0.0520207, 0.0129378, 0.0153982, 0.0138209, 0.00119366
0.155205, 1.69539, -1.22519, -1.53732, -0.899247, -1.19605, 1.22784, -1.30259, 0.0259311, -2.60456e-05, 0.00853381, -0.00593332, -0.00584317, -0.00464595, 0.00239358, -0.734184, 56.4517, 26.9687, 6.13678, 1.45404, 3.38901, -0.0420422, -0.000827714, 0.000201672, 2.4255e-05, 0.00159909, -0.00500993, -0.00183598, 0.0398123, -0.0193922, -0.00416584, 0.00400835, 0.0294607, 0.0351159, 0.470735, -0.54074, 0.336568, -2.08258, -2.16528, -0.130081, 0.470966, -0.541544, 0.336409, -2.08236, -2.16947, -0.123413, -0.0053322, 0.0526704, 0.0130909, 0.0153145, 0.0148197, 0.00216049
0.156205, 1.69541, -1.22519, -1.53732, -0.899256, -1.19604, 1.22784, -1.30259, 0.0219277, -0.0016679, 0.00565229, -0.00776814, -0.00414359, -0.0035174, 0.00224533, -0.694511, 56.5231, 27.0084, 6.13678, 1.44855, 3.38901, -0.0557752, -0.000868237, 0.000219694, 3.22518e-05, 0.00158738, -0.00502278, -0.00186065, 0.0422633, -0.0175233, -0.00614164, 0.00300527, 0.0275604, 0.0321923, 0.47073, -0.540687, 0.336581, -2.08255, -2.16527, -0.130085, 0.470979, -0.54153, 0.336407, -2.08232, -2.16949, -0.123419, -0.0053958, 0.0533231, 0.0132446, 0.0133999, 0.0132824, 3.72695e-05
0.157205, 1.69544, -1.22519, -1.53731, -0.899265, -1.19605, 1.22783, -1.3026, 0.0216948, -0.00202503, 0.00443652, -0.00598233, -0.00377926, -0.00266, 0.000856633, -0.76989, 56.5628, 27.0084, 6.13678, 1.46686, 3.38901, -0.0356336, -0.000905129, 0.000243565, 3.68982e-05, 0.00157358, -0.00504498, -0.00189889, 0.043875, -0.017027, -0.00649333, 0.00385105, 0.0275801, 0.0313918, 0.470725, -0.540634, 0.336594, -2.08253, -2.16526, -0.130089, 0.470999, -0.541511, 0.336409, -2.08227, -2.16954, -0.12342, -0.00545963, 0.0539787, 0.0133988, 0.0128856, 0.0123815, -0.000393374
0.158205, 1.69546, -1.2252, -1.5373, -0.899279, -1.19605, 1.22783, -1.3026, 0.0224365, -0.00393728, 0.00567314, -0.00853175, -0.00321434, -0.00618485, -0.000570314, -0.734184, 56.6739, 27.0441, 6.17248, 1.47876, 3.37436, -0.00267457, -0.000946497, 0.000262822, 4.64636e-05, 0.00156364, -0.00506076, -0.00193239, 0.042915, -0.0177221, -0.00793163, 0.000780268, 0.0239862, 0.0366519, 0.470719, -0.54058, 0.336608, -2.0825, -2.16525, -0.130092, 0.471014, -0.541496, 0.336406, -2.08223, -2.16958, -0.123422, -0.00552369, 0.0546373, 0.0135535, 0.013428, 0.0142398, -0.00153122
0.159205, 1.69548, -1.22519, -1.53729, -0.89929, -1.19604, 1.22783, -1.3026, 0.0237446, 0.00148703, 0.00828365, -0.00639864, -0.00233341, -0.00418498, 0.000187893, -0.734184, 56.6342, 27.0084, 6.17248, 1.47876, 3.36062, -0.0164075, -0.000986707, 0.000282692, 4.51381e-05, 0.00154192, -0.005088, -0.00196075, 0.0426057, -0.0188405, -0.00346592, 0.00663621, 0.0296733, 0.036835, 0.470714, -0.540525, 0.336621, -2.08248, -2.16524, -0.130096, 0.47103, -0.54148, 0.336414, -2.0822, -2.16962, -0.123426, -0.00558799, 0.0552987, 0.0137087, 0.0146348, 0.0145611, 0.00304523
0.160205, 1.6955, -1.22519, -1.53728, -0.899304, -1.19605, 1.22783, -1.3026, 0.0219972, 0.00524439, 0.0108035, -0.00875198, -0.00217322, -0.00240396, -0.000813476, -0.76989, 56.5985, 27.0798, 6.20819, 1.49158, 3.33865, 0.0101428, -0.0010295, 0.000300874, 4.77912e-05, 0.00153286, -0.00512011, -0.00199069, 0.0426303, -0.0191426, -0.000490834, 0.0100802, 0.0345001, 0.0394307, 0.470708, -0.54047, 0.336635, -2.08245, -2.16522, -0.1301, 0.471044, -0.541466, 0.336418, -2.08216, -2.16966, -0.12341, -0.00565251, 0.0559631, 0.0138645, 0.0149831, 0.014753, 0.00612361
0.161205, 1.69552, -1.22519, -1.53727, -0.899312, -1.19605, 1.22783, -1.3026, 0.0241868, 0.000528018, 0.00910056, -0.00791613, -0.00108126, -0.00219474, 0.000711841, -0.809562, 56.7453, 27.0441, 6.13678, 1.47876, 3.34598, -0.0228162, -0.00107317, 0.000320231, 5.47751e-05, 0.00151385, -0.00513441, -0.00201455, 0.043205, -0.0201751, -0.00389472, 0.00908694, 0.0294657, 0.0390305, 0.470702, -0.540414, 0.336649, -2.08242, -2.16521, -0.130104, 0.471059, -0.541451, 0.336417, -2.08212, -2.16969, -0.123424, -0.00571726, 0.0566303, 0.0140207, 0.0158444, 0.0154237, 0.00279638
0.162205, 1.69554, -1.22519, -1.53726, -0.899329, -1.19605, 1.22783, -1.30259, 0.0232581, -0.000134132, 0.00736308, -0.010862, -0.000801214, -0.00143252, 0.00144909, -0.884941, 56.781, 27.1552, 6.20819, 1.47876, 3.33865, -0.0484509, -0.00111473, 0.00034095, 6.08785e-05, 0.00150526, -0.00515849, -0.00204561, 0.0438843, -0.020233, -0.0052378, 0.0071984, 0.0296568, 0.0392855, 0.470697, -0.540357, 0.336663, -2.08239, -2.1652, -0.130108, 0.471075, -0.541434, 0.336418, -2.08208, -2.16973, -0.123416, -0.00578224, 0.0573004, 0.0141774, 0.0158121, 0.0156343, 0.00151788
0.163205, 1.69556, -1.22519, -1.53725, -0.899344, -1.19604, 1.22783, -1.30259, 0.0215416, 0.00157711, 0.0127942, -0.0111784, -0.000390973, -0.000864217, 0.00125614, -0.920646, 56.8564, 27.1195, 6.20819, 1.47327, 3.33133, -0.0557752, -0.00115734, 0.000361307, 6.39749e-05, 0.00148427, -0.00517938, -0.00207763, 0.0439204, -0.0204514, -0.00226219, 0.0130401, 0.0312701, 0.0408416, 0.470691, -0.5403, 0.336677, -2.08237, -2.16519, -0.130113, 0.471091, -0.541417, 0.336422, -2.08204, -2.16977, -0.123426, -0.00584743, 0.0579733, 0.0143346, 0.0160767, 0.0158197, 0.0045989
0.164205, 1.69558, -1.22519, -1.53724, -0.899355, -1.19604, 1.22782, -1.3026, 0.020276, 0.00280396, 0.0106157, -0.0106366, -0.00050931, -0.00044023, -0.00036916, -0.960319, 56.9318, 27.0798, 6.17248, 1.47876, 3.324, -0.0228162, -0.00120199, 0.000380382, 6.71611e-05, 0.0014636, -0.00520005, -0.00211037, 0.0457436, -0.0193234, -0.00217874, 0.0121541, 0.0332058, 0.0396922, 0.470685, -0.540242, 0.336692, -2.08234, -2.16517, -0.130117, 0.471106, -0.541402, 0.336425, -2.082, -2.16981, -0.123435, -0.00591285, 0.058649, 0.0144922, 0.0149538, 0.0146366, 0.00458739
0.165205, 1.6956, -1.22519, -1.53723, -0.899376, -1.19604, 1.22782, -1.30259, 0.0219519, 0.00246919, 0.00945625, -0.0129488, 0.00432723, -0.000395001, 0.000239197, -0.960319, 56.9318, 27.1552, 6.24786, 1.47876, 3.324, -0.0356336, -0.00124601, 0.000399631, 7.05519e-05, 0.00144844, -0.00522521, -0.00214177, 0.0443295, -0.021174, -0.00324384, 0.0121919, 0.0296273, 0.0439, 0.470679, -0.540183, 0.336706, -2.08231, -2.16516, -0.130121, 0.47112, -0.541385, 0.336429, -2.08196, -2.16985, -0.123434, -0.00597848, 0.0593275, 0.0146504, 0.016646, 0.0169532, 0.00385647
0.166205, 1.69561, -1.22519, -1.53722, -0.899388, -1.19604, 1.22782, -1.30259, 0.0153844, 0.00257866, 0.00953646, -0.0141509, 0.00301376, 0.000440424, 0.000642121, -0.920646, 57.0389, 27.1909, 6.17248, 1.48517, 3.30295, -0.0484509, -0.00129741, 0.000413752, 7.50073e-05, 0.00142609, -0.00524811, -0.00215893, 0.0479174, -0.0178228, -0.00294153, 0.0129824, 0.031478, 0.0377196, 0.470673, -0.540124, 0.336721, -2.08228, -2.16515, -0.130125, 0.47113, -0.541376, 0.336431, -2.08193, -2.16988, -0.123442, -0.00604433, 0.0600088, 0.0148089, 0.0133744, 0.0139078, 0.00385475
0.167205, 1.69563, -1.22519, -1.5372, -0.899412, -1.19604, 1.22782, -1.30259, 0.0168779, 0.00137755, 0.0113122, -0.0187332, 0.0027247, -0.00366711, -4.06827e-05, -0.996025, 57.0786, 27.1552, 6.24786, 1.47327, 3.28097, -0.0356336, -0.00133898, 0.000437302, 7.76114e-05, 0.00140642, -0.00527307, -0.00220325, 0.0459731, -0.0192713, -0.00414351, 0.0084695, 0.029195, 0.0447167, 0.470667, -0.540064, 0.336735, -2.08225, -2.16513, -0.130129, 0.471149, -0.541355, 0.336436, -2.08188, -2.16993, -0.123447, -0.00611038, 0.0606929, 0.014968, 0.0146403, 0.0167578, 0.00308503
0.168205, 1.69564, -1.2252, -1.53719, -0.899431, -1.19603, 1.22782, -1.3026, 0.0202823, 0.000972765, 0.0130768, -0.0192953, 0.00738676, -0.00288068, -0.000497374, -1.0357, 57.2253, 27.2306, 6.20819, 1.46045, 3.28097, -0.0228162, -0.00138525, 0.000456513, 8.48141e-05, 0.0013897, -0.00528802, -0.00223759, 0.0438213, -0.0223286, -0.00399889, 0.0121857, 0.0257612, 0.0515177, 0.470661, -0.540003, 0.33675, -2.08222, -2.16512, -0.130134, 0.471164, -0.541338, 0.336436, -2.08183, -2.16997, -0.123459, -0.00617665, 0.0613797, 0.0151275, 0.017555, 0.0196733, 0.00362764
0.169205, 1.69565, -1.22519, -1.53716, -0.899457, -1.19603, 1.22782, -1.3026, 0.0175573, 0.00206763, 0.0109075, -0.021694, 0.0054865, -0.00224741, -0.00107422, -0.996025, 57.1896, 27.1909, 6.24786, 1.46045, 3.28097, -0.00267457, -0.0014304, 0.000475827, 8.29357e-05, 0.00136635, -0.00531887, -0.00227716, 0.0458225, -0.0208822, -0.00429968, 0.0094869, 0.0293592, 0.0498605, 0.470655, -0.539942, 0.336766, -2.08219, -2.1651, -0.130138, 0.471178, -0.541321, 0.336445, -2.08179, -2.17002, -0.123462, -0.00624313, 0.0620692, 0.0152874, 0.0161053, 0.0183748, 0.0032209
0.170205, 1.69566, -1.22519, -1.53715, -0.899477, -1.19603, 1.22782, -1.3026, 0.0165354, 0.00014591, 0.0135035, -0.0238917, 0.00451997, -0.00123487, -0.000205007, -0.996025, 57.261, 27.2306, 6.17248, 1.44855, 3.26724, -0.0164075, -0.00147996, 0.000493574, 8.52817e-05, 0.00134212, -0.00534453, -0.00230493, 0.0462744, -0.0214092, -0.00471785, 0.0112952, 0.0290958, 0.0509287, 0.470649, -0.53988, 0.336781, -2.08216, -2.16509, -0.130143, 0.471192, -0.541307, 0.33645, -2.08175, -2.17006, -0.12347, -0.00630981, 0.0627614, 0.0154478, 0.0165659, 0.0187082, 0.00287983
0.171205, 1.69568, -1.22519, -1.53713, -0.899496, -1.19603, 1.22781, -1.3026, 0.0192142, 0.00100022, 0.0169555, -0.0208372, 0.00288862, -0.00151579, -0.000643414, -0.996025, 57.3721, 27.3417, 6.02173, 1.46045, 3.28097, -0.00267457, -0.0015308, 0.000510165, 9.16854e-05, 0.00132678, -0.00536579, -0.002331, 0.0461881, -0.0226233, -0.00278299, 0.0145802, 0.0310873, 0.052496, 0.470642, -0.539817, 0.336796, -2.08213, -2.16508, -0.130147, 0.471204, -0.541292, 0.33645, -2.08171, -2.17009, -0.123473, -0.00637669, 0.0634563, 0.0156086, 0.0177805, 0.0192388, 0.00492487
0.172205, 1.69568, -1.22519, -1.53711, -0.899528, -1.19603, 1.22781, -1.30259, 0.0170127, -0.000585676, 0.0183749, -0.0231881, 0.00260365, -0.00114846, 0.000793173, -0.960319, 57.4475, 27.3774, 6.0614, 1.44855, 3.28097, -0.0356336, -0.0015766, 0.000529722, 9.23249e-05, 0.00130398, -0.00538953, -0.00237092, 0.047138, -0.0222698, -0.0034362, 0.015256, 0.0303407, 0.0516219, 0.470636, -0.539753, 0.336812, -2.0821, -2.16506, -0.130152, 0.471218, -0.541273, 0.336457, -2.08166, -2.17014, -0.123483, -0.00644377, 0.0641539, 0.0157699, 0.0173706, 0.0190861, 0.00430197
0.173205, 1.69569, -1.22519, -1.53708, -0.899556, -1.19602, 1.22781, -1.30259, 0.0155013, -0.000842609, 0.0180375, -0.0221338, 0.00191358, -0.000360465, 0.00127583, -0.920646, 57.4832, 27.3417, 5.98602, 1.44855, 3.26724, -0.0557752, -0.00162319, 0.000551203, 9.03062e-05, 0.00127504, -0.00541997, -0.00241069, 0.049156, -0.0212431, -0.00345618, 0.0161991, 0.0312869, 0.0483976, 0.470629, -0.539689, 0.336828, -2.08207, -2.16505, -0.130156, 0.471235, -0.541254, 0.336467, -2.08162, -2.1702, -0.123493, -0.00651106, 0.0648541, 0.0159315, 0.0163503, 0.0177556, 0.00415819
0.174205, 1.6957, -1.22518, -1.53707, -0.899588, -1.19602, 1.2278, -1.30259, 0.0135409, 0.00122184, 0.0171766, -0.0253518, 0.00545582, -0.000826525, 0.000580079, -0.845268, 57.5546, 27.4528, 5.95032, 1.46686, 3.28097, -0.0484509, -0.00167522, 0.000565654, 9.36796e-05, 0.0012589, -0.00544569, -0.00244265, 0.0490273, -0.0210276, -0.00298222, 0.0157928, 0.0308696, 0.0507755, 0.470623, -0.539624, 0.336844, -2.08204, -2.16503, -0.130161, 0.471245, -0.54124, 0.336471, -2.08158, -2.17024, -0.123493, -0.00657853, 0.0655569, 0.0160936, 0.0160808, 0.0185034, 0.00481337
0.175205, 1.6957, -1.22519, -1.53704, -0.899625, -1.19602, 1.2278, -1.30259, 0.0130377, -0.00390299, 0.0185341, -0.0284626, 0.00436834, -0.00503393, 0.000149956, -0.809562, 57.7768, 27.4885, 5.95032, 1.46045, 3.27456, -0.0420422, -0.00172292, 0.000586963, 0.00010157, 0.00123857, -0.00546159, -0.00248635, 0.0490459, -0.0209227, -0.00633459, 0.011135, 0.0251296, 0.053864, 0.470616, -0.539559, 0.33686, -2.082, -2.16502, -0.130166, 0.471261, -0.541219, 0.336471, -2.08152, -2.17029, -0.123509, -0.0066462, 0.0662624, 0.0162561, 0.0157843, 0.0197074, 0.00166519
0.176205, 1.69571, -1.22518, -1.53701, -0.899657, -1.19602, 1.2278, -1.30259, 0.00906874, 0.00425027, 0.0195534, -0.0282608, 0.00236702, -0.00402546, -0.000611659, -0.76989, 57.63, 27.5281, 5.83527, 1.48517, 3.28097, -0.0228162, -0.00177088, 0.000605821, 9.26695e-05, 0.00121419, -0.00550559, -0.00252742, 0.0510987, -0.0186817, -0.000900591, 0.0135422, 0.0355512, 0.0502596, 0.47061, -0.539493, 0.336876, -2.08197, -2.165, -0.13017, 0.471275, -0.541201, 0.336488, -2.08148, -2.17035, -0.1235, -0.00671407, 0.0669704, 0.016419, 0.0137556, 0.0174526, 0.00693886
0.177205, 1.69571, -1.22518, -1.53699, -0.899698, -1.19602, 1.22779, -1.30259, 0.00872818, -0.000910817, 0.0202625, -0.0309346, 0.00185576, -0.00249913, -0.00139078, -0.694511, 57.8125, 27.5638, 5.83527, 1.48517, 3.26724, 0.00373412, -0.00181951, 0.000626021, 9.77759e-05, 0.00118812, -0.00552125, -0.00257703, 0.0517963, -0.0195733, -0.00394543, 0.0137527, 0.0321436, 0.053374, 0.470603, -0.539426, 0.336892, -2.08194, -2.16499, -0.130175, 0.47129, -0.54118, 0.336491, -2.08141, -2.17041, -0.123523, -0.00678212, 0.0676811, 0.0165822, 0.0144898, 0.0179854, 0.00395751
0.178205, 1.69572, -1.22519, -1.53696, -0.899742, -1.19602, 1.22779, -1.30259, 0.00684172, -0.00457548, 0.0221922, -0.0360696, 0.00100467, -0.00632012, -0.000689577, -0.694511, 57.999, 27.6749, 5.83527, 1.49707, 3.25992, -0.00267457, -0.00186809, 0.00064761, 0.000104292, 0.00117115, -0.005544, -0.00262528, 0.051571, -0.0193151, -0.00641087, 0.00942324, 0.0279645, 0.0560661, 0.470596, -0.539358, 0.336909, -2.0819, -2.16497, -0.13018, 0.471307, -0.541159, 0.336493, -2.08135, -2.17046, -0.123529, -0.00685036, 0.0683942, 0.0167459, 0.0140636, 0.019294, 0.00172906
0.179205, 1.69572, -1.22518, -1.53693, -0.899786, -1.19602, 1.22778, -1.30259, 0.0027299, -0.00275525, 0.0223524, -0.0389475, 0.000351291, -0.00478591, -0.00045953, -0.583427, 57.999, 27.7146, 5.79956, 1.50989, 3.25992, -0.00267457, -0.00191935, 0.000664399, 0.000100949, 0.00114652, -0.00557882, -0.00266741, 0.053362, -0.0178982, -0.00537582, 0.0101829, 0.0315717, 0.0541842, 0.470589, -0.53929, 0.336926, -2.08187, -2.16495, -0.130185, 0.471318, -0.541141, 0.336504, -2.0813, -2.17052, -0.12353, -0.00691878, 0.06911, 0.01691, 0.0126838, 0.0180228, 0.00267658
0.180205, 1.69572, -1.22518, -1.5369, -0.899828, -1.19601, 1.22778, -1.30259, 0.00146731, -0.001875, 0.0262435, -0.037992, 0.00463359, -0.00813858, 0.000677133, -0.543754, 58.1458, 27.7146, 5.76385, 1.52179, 3.25259, -0.0292249, -0.00196848, 0.000684329, 0.000101837, 0.00111886, -0.00559899, -0.00271354, 0.052849, -0.0175488, -0.00363023, 0.0135459, 0.0272837, 0.0543202, 0.470582, -0.53922, 0.336943, -2.08184, -2.16494, -0.13019, 0.471333, -0.541119, 0.336512, -2.08125, -2.17058, -0.12355, -0.00698738, 0.0698282, 0.0170744, 0.0123133, 0.018962, 0.0046537
0.181205, 1.69572, -1.22518, -1.53687, -0.899878, -1.19601, 1.22777, -1.30259, 0.000574544, 0.00139471, 0.028982, -0.0412546, 0.00377397, -0.0111078, 0.00143487, -0.508049, 58.1815, 27.8614, 5.76385, 1.5163, 3.25992, -0.0557752, -0.00201901, 0.000702855, 0.000102632, 0.00110065, -0.00562897, -0.00275831, 0.0519921, -0.0175945, -0.00145361, 0.011994, 0.0302528, 0.0565596, 0.470575, -0.539151, 0.33696, -2.0818, -2.16492, -0.130195, 0.471346, -0.541098, 0.33652, -2.08119, -2.17063, -0.12355, -0.00705617, 0.0705489, 0.0172392, 0.0123409, 0.0201925, 0.00709825
0.182205, 1.69571, -1.22517, -1.53683, -0.89992, -1.19601, 1.22776, -1.30259, -0.000221326, 0.00478692, 0.0315067, -0.039987, 0.00219891, -0.00860813, 0.000210676, -0.468376, 58.1815, 27.8614, 5.6131, 1.53461, 3.26724, -0.0356336, -0.00206993, 0.000719984, 9.77143e-05, 0.00107408, -0.00565789, -0.0028059, 0.0531759, -0.0175667, 0.00182716, 0.0168248, 0.0362326, 0.0565809, 0.470568, -0.53908, 0.336977, -2.08177, -2.16491, -0.1302, 0.471359, -0.541078, 0.336533, -2.08113, -2.17069, -0.12356, -0.00712513, 0.0712721, 0.0174044, 0.0124102, 0.0192363, 0.0103153
0.183205, 1.69571, -1.22517, -1.5368, -0.899976, -1.19601, 1.22775, -1.30259, -0.00074002, 0.00516567, 0.0315446, -0.0468884, 0.00636294, -0.00670879, 0.000377869, -0.43267, 58.2568, 27.9368, 5.6488, 1.5401, 3.27456, -0.0420422, -0.00212171, 0.000736886, 0.000100327, 0.0010596, -0.00568487, -0.00285491, 0.0514301, -0.0196713, 0.00124993, 0.0174417, 0.0351333, 0.0634254, 0.470561, -0.539009, 0.336994, -2.08173, -2.16489, -0.130205, 0.47137, -0.541057, 0.336539, -2.08107, -2.17075, -0.123559, -0.00719427, 0.0719978, 0.0175699, 0.0143584, 0.0218628, 0.010117
