alisrour97/Franka_experiments/Real_Robot_scripts/servo-franka/Data3/log_dyn_INIT0_2.csv
Time,q1,q2,q3,q4,q5,q6,q7,dq1,dq2,dq3,dq4,dq5,dq6,dq7,t1,t2,t3,t4,t5,t6,t7,ex1,ex2,ex3,ex4,ex5,ex6,ev1,ev2,ev3,ev4,ev5,ev6,xd,yd,zd,uxd,uyd,uzd,x,y,z,ux,uy,uz,vxd,vyd,vzd,vx,vy,vz
1.2207e-06, 1.69135, -1.22424, -1.53734, -0.899816, -1.1914, 1.22839, -1.3026, -0.00591097, -0.00240135, 0.000614009, 0.000780318, 0.0011995, -0.00257243, -0.00131834, -0.583427, 56.0074, 26.4847, 6.24786, 1.19037, 3.33133, -0.205922, 0.00122755, -0.00151399, -0.000951207, -0.000665261, -0.00132316, -0.00019855, 0.00248763, 0.00367632, -0.00100415, -5.60689e-05, -0.00490454, -0.00445973, 0.471008, -0.543389, 0.335894, -2.08385, -2.16584, -0.129887, 0.469489, -0.542385, 0.337079, -2.08469, -2.16707, -0.129294, 1.77043e-06, 3.2e-05, 1.02972e-05, -0.0036171, -0.00241972, -0.00125652
0.0124685, 1.69136, -1.22427, -1.53734, -0.899833, -1.1914, 1.22839, -1.30262, 0.00208908, -0.00111888, 1.77291e-05, -0.00114022, 0.00167051, -9.61592e-05, -0.00128088, -0.809562, 55.7138, 26.2983, 6.28357, 1.17847, 3.33133, -0.153737, 0.00123241, -0.00150602, -0.000933139, -0.000658853, -0.00129712, -0.000237016, -0.00143614, -0.00161654, -0.000936633, -0.000246234, -0.00231756, 0.00493512, 0.471008, -0.543389, 0.335894, -2.08385, -2.16584, -0.129887, 0.469494, -0.542378, 0.337052, -2.08462, -2.16708, -0.129326, 1.77746e-06, 6.40623e-05, 1.89552e-05, 0.00153107, 0.00169217, -0.000731727
0.0134687, 1.69136, -1.22427, -1.53734, -0.899833, -1.1914, 1.22839, -1.30262, 0.00208908, -0.00111888, 1.77291e-05, -0.00114022, 0.00167051, -9.61592e-05, -0.00128088, -0.809562, 55.7138, 26.2983, 6.28357, 1.17847, 3.33133, -0.153737, 0.0012324, -0.00150602, -0.000933139, -0.000658856, -0.00129713, -0.000237014, -0.00139988, -0.00161539, -0.000940591, -0.00024161, -0.00229102, 0.00493777, 0.471008, -0.543389, 0.335894, -2.08385, -2.16584, -0.129887, 0.469494, -0.542378, 0.337052, -2.08462, -2.16708, -0.129326, 1.77167e-06, 9.92934e-05, 2.84561e-05, 0.00153107, 0.00169217, -0.000731727
0.0144688, 1.69136, -1.22427, -1.53734, -0.899833, -1.1914, 1.22839, -1.30262, 0.00208908, -0.00111888, 1.77291e-05, -0.00114022, 0.00167051, -9.61592e-05, -0.00128088, -0.809562, 55.7138, 26.2983, 6.28357, 1.17847, 3.33133, -0.153737, 0.00123238, -0.00150602, -0.000933136, -0.000658864, -0.00129714, -0.000237009, -0.00136024, -0.00161414, -0.000944907, -0.000236524, -0.00226202, 0.00494066, 0.471008, -0.543389, 0.335894, -2.08385, -2.16584, -0.129887, 0.469494, -0.542378, 0.337052, -2.08462, -2.16708, -0.129326, 1.75167e-06, 0.000137819, 3.88327e-05, 0.00153107, 0.00169217, -0.000731727
0.0154687, 1.69136, -1.22427, -1.53734, -0.899833, -1.1914, 1.22839, -1.30262, 0.00208908, -0.00111888, 1.77291e-05, -0.00114022, 0.00167051, -9.61592e-05, -0.00128088, -0.809562, 55.7138, 26.2983, 6.28357, 1.17847, 3.33133, -0.153737, 0.00123234, -0.00150602, -0.000933132, -0.00065888, -0.00129716, -0.000237, -0.00131708, -0.0016128, -0.000949592, -0.000230957, -0.00223046, 0.00494382, 0.471008, -0.543389, 0.335894, -2.08385, -2.16584, -0.129887, 0.469494, -0.542378, 0.337052, -2.08462, -2.16708, -0.129326, 1.716e-06, 0.000179762, 5.01169e-05, 0.00153107, 0.00169217, -0.000731727
0.016469, 1.69136, -1.22427, -1.53734, -0.899833, -1.1914, 1.22839, -1.30262, 0.00208908, -0.00111888, 1.77291e-05, -0.00114022, 0.00167051, -9.61592e-05, -0.00128088, -0.809562, 55.7138, 26.2983, 6.28357, 1.17847, 3.33133, -0.153737, 0.00123227, -0.00150602, -0.000933125, -0.000658905, -0.00129719, -0.000236984, -0.00127027, -0.00161136, -0.000954659, -0.00022489, -0.00219624, 0.00494725, 0.471008, -0.543389, 0.335894, -2.08385, -2.16584, -0.129887, 0.469494, -0.542378, 0.337052, -2.08462, -2.16708, -0.129326, 1.66317e-06, 0.000225248, 6.23407e-05, 0.00153107, 0.00169217, -0.000731727
0.017469, 1.69136, -1.22427, -1.53734, -0.899833, -1.1914, 1.22839, -1.30262, 0.00208908, -0.00111888, 1.77291e-05, -0.00114022, 0.00167051, -9.61592e-05, -0.00128088, -0.809562, 55.7138, 26.2983, 6.28357, 1.17847, 3.33133, -0.153737, 0.00123218, -0.00150602, -0.000933114, -0.000658944, -0.00129723, -0.00023696, -0.0012197, -0.00160982, -0.000960121, -0.000218303, -0.00215929, 0.00495095, 0.471008, -0.543389, 0.335894, -2.08385, -2.16584, -0.129887, 0.469494, -0.542378, 0.337052, -2.08462, -2.16708, -0.129326, 1.59159e-06, 0.000274397, 7.55354e-05, 0.00153107, 0.00169217, -0.000731727
0.018469, 1.69136, -1.22427, -1.53734, -0.899833, -1.1914, 1.22839, -1.30262, 0.00208908, -0.00111888, 1.77291e-05, -0.00114022, 0.00167051, -9.61592e-05, -0.00128088, -0.809562, 55.7138, 26.2983, 6.28357, 1.17847, 3.33133, -0.153737, 0.00123205, -0.00150603, -0.0009331, -0.000658998, -0.0012973, -0.000236927, -0.00116524, -0.00160818, -0.000965988, -0.000211177, -0.00211951, 0.00495494, 0.471008, -0.543389, 0.335894, -2.08385, -2.16584, -0.129887, 0.469494, -0.542378, 0.337052, -2.08462, -2.16708, -0.129326, 1.49965e-06, 0.00032733, 8.9732e-05, 0.00153107, 0.00169217, -0.000731727
0.0194692, 1.69136, -1.22427, -1.53734, -0.899833, -1.1914, 1.22839, -1.30262, 0.00208908, -0.00111888, 1.77291e-05, -0.00114022, 0.00167051, -9.61592e-05, -0.00128088, -0.809562, 55.7138, 26.2983, 6.28357, 1.17847, 3.33133, -0.153737, 0.00123187, -0.00150603, -0.00093308, -0.000659069, -0.00129739, -0.000236883, -0.00110676, -0.00160642, -0.000972274, -0.000203492, -0.00207681, 0.00495923, 0.471008, -0.543389, 0.335894, -2.08385, -2.16584, -0.129887, 0.469494, -0.542378, 0.337052, -2.08462, -2.16708, -0.129326, 1.38564e-06, 0.000384166, 0.000104961, 0.00153107, 0.00169217, -0.000731727
0.0204692, 1.69136, -1.22427, -1.53734, -0.899833, -1.1914, 1.22839, -1.30262, 0.00208908, -0.00111888, 1.77291e-05, -0.00114022, 0.00167051, -9.61592e-05, -0.00128088, -0.809562, 55.7138, 26.2983, 6.28357, 1.17847, 3.33133, -0.153737, 0.00123164, -0.00150604, -0.000933055, -0.00065916, -0.0012975, -0.000236827, -0.00104415, -0.00160456, -0.000978988, -0.000195231, -0.00203111, 0.00496383, 0.471008, -0.543389, 0.335894, -2.08385, -2.16584, -0.129887, 0.469494, -0.542378, 0.337052, -2.08462, -2.16708, -0.129326, 1.24785e-06, 0.00044502, 0.000121252, 0.00153107, 0.00169217, -0.000731727
0.0214695, 1.69136, -1.22427, -1.53734, -0.899833, -1.1914, 1.22839, -1.30262, 0.00208908, -0.00111888, 1.77291e-05, -0.00114022, 0.00167051, -9.61592e-05, -0.00128088, -0.809562, 55.7138, 26.2983, 6.28357, 1.17847, 3.33133, -0.153737, 0.00123136, -0.00150605, -0.000933024, -0.000659275, -0.00129764, -0.000236758, -0.000977286, -0.00160259, -0.000986143, -0.000186373, -0.00198233, 0.00496874, 0.471008, -0.543388, 0.335894, -2.08385, -2.16584, -0.129887, 0.469494, -0.542378, 0.337052, -2.08462, -2.16708, -0.129326, 1.08446e-06, 0.000510009, 0.000138634, 0.00153107, 0.00169217, -0.000731727
0.0224695, 1.69136, -1.22427, -1.53734, -0.899833, -1.1914, 1.22839, -1.30262, 0.00208908, -0.00111888, 1.77291e-05, -0.00114022, 0.00167051, -9.61592e-05, -0.00128088, -0.809562, 55.7138, 26.2983, 6.28357, 1.17847, 3.33133, -0.153737, 0.00123101, -0.00150606, -0.000932985, -0.000659414, -0.0012978, -0.000236673, -0.000906057, -0.00160051, -0.00099375, -0.000176901, -0.00193037, 0.00497397, 0.471008, -0.543388, 0.335894, -2.08385, -2.16584, -0.129887, 0.469494, -0.542378, 0.337052, -2.08462, -2.16708, -0.129326, 8.93621e-07, 0.000579243, 0.000157137, 0.00153107, 0.00169217, -0.000731727
0.0234695, 1.69136, -1.22427, -1.53734, -0.899833, -1.1914, 1.22839, -1.30262, 0.00208908, -0.00111888, 1.77291e-05, -0.00114022, 0.00167051, -9.61592e-05, -0.00128088, -0.809562, 55.7138, 26.2983, 6.28357, 1.17847, 3.33133, -0.153737, 0.00123059, -0.00150607, -0.00093294, -0.00065958, -0.00129801, -0.000236571, -0.000830349, -0.00159831, -0.00100182, -0.000166795, -0.00187517, 0.00497954, 0.471008, -0.543388, 0.335894, -2.08384, -2.16584, -0.129887, 0.469494, -0.542378, 0.337052, -2.08462, -2.16708, -0.129326, 6.73433e-07, 0.000652833, 0.000176787, 0.00153107, 0.00169217, -0.000731727
0.0244695, 1.69139, -1.22433, -1.53734, -0.899852, -1.19138, 1.22839, -1.30262, -0.000470749, -0.00280278, -0.000220352, -0.000218513, 0.00135069, 0.00401009, -4.40641e-05, -0.920646, 55.6424, 26.2229, 6.32324, 1.04938, 3.31027, -0.180287, 0.00124594, -0.00148258, -0.000894571, -0.000653449, -0.00122706, -0.000294523, 0.00136158, -0.000658179, -0.00145729, 0.00375244, -0.00134542, 0.000222309, 0.471008, -0.543387, 0.335894, -2.08384, -2.16584, -0.129887, 0.469515, -0.542355, 0.337016, -2.08452, -2.1671, -0.129397, 4.21933e-07, 0.000730885, 0.000197611, 0.000653833, -0.000362087, -0.0014725
0.0254695, 1.69139, -1.22433, -1.53733, -0.899854, -1.19138, 1.2284, -1.30263, 0.00266978, -0.00127479, 0.0015143, -0.000980522, 0.00158192, 0.0035427, -0.00199786, -0.920646, 55.6027, 26.1515, 6.35895, 1.03107, 3.29562, -0.127186, 0.00124826, -0.00147919, -0.000894404, -0.000658537, -0.00122389, -0.00030823, -0.000778051, -0.00280413, -0.000267783, 0.00425744, -0.00013197, 0.0068388, 0.471008, -0.543387, 0.335895, -2.08384, -2.16584, -0.129887, 0.469518, -0.542352, 0.337016, -2.0845, -2.16711, -0.129408, 1.37109e-07, 0.000813505, 0.000219637, 0.00276316, 0.00173756, -8.52366e-06
0.0264695, 1.69139, -1.22434, -1.53734, -0.899857, -1.19138, 1.2284, -1.30263, 0.00519132, -0.00425241, -0.00521844, -0.000653403, 0.000853635, 0.00314941, -0.000349904, -0.920646, 55.6027, 26.1515, 6.35895, 1.03656, 3.28097, -0.153737, 0.001248, -0.00147706, -0.000886436, -0.000655411, -0.00121306, -0.000308942, 8.59886e-05, -0.00286275, -0.00453219, -0.00277259, -0.002151, 0.00395822, 0.471008, -0.543386, 0.335895, -2.08384, -2.16584, -0.129887, 0.46952, -0.542351, 0.337008, -2.0845, -2.16711, -0.129415, -1.83099e-07, 0.000900793, 0.00024289, 0.00269834, 0.0016306, -0.00433191
0.0274695, 1.6914, -1.22434, -1.53733, -0.899857, -1.19138, 1.2284, -1.30263, 0.00800308, 0.000414997, -0.00455718, -0.00275077, 0.00145256, 0.00201215, -0.0031504, -0.960319, 55.3091, 26.0404, 6.32324, 1.01276, 3.2883, -0.0750012, 0.00125216, -0.00147235, -0.000890366, -0.000656192, -0.00121925, -0.000323623, -0.00251389, -0.00479566, -0.00210944, -0.00394024, 0.00174314, 0.0118174, 0.471008, -0.543385, 0.335895, -2.08384, -2.16584, -0.129887, 0.469525, -0.542346, 0.337013, -2.08448, -2.16712, -0.129411, -5.40806e-07, 0.000992849, 0.000267393, 0.00462289, 0.00399552, -0.00156988
0.0284695, 1.6914, -1.22435, -1.53733, -0.89986, -1.19137, 1.2284, -1.30263, 0.00500685, -0.00116047, -0.00193035, -0.00209624, 0.00120712, 0.00120802, -0.00308437, -0.920646, 55.3448, 25.965, 6.32324, 1.00635, 3.29562, -0.0484509, 0.00125282, -0.00147004, -0.000882958, -0.000657536, -0.00120317, -0.000331992, -0.00132184, -0.00328088, -0.00193563, -0.00180116, -0.000267393, 0.00943894, 0.471008, -0.543384, 0.335895, -2.08384, -2.16584, -0.129887, 0.469527, -0.542344, 0.337006, -2.08447, -2.16713, -0.12943, -9.38169e-07, 0.00108977, 0.000293171, 0.00315857, 0.00282689, -0.00151183
0.0294695, 1.69141, -1.22435, -1.53733, -0.899865, -1.19137, 1.22839, -1.30263, 0.0029523, 0.00405816, -0.000850482, -0.00159429, 0.00148396, -0.000413688, -0.00178554, -0.884941, 55.3845, 25.9253, 6.32324, 0.988036, 3.33133, -0.0557752, 0.00125622, -0.00146533, -0.000880714, -0.000657125, -0.00119951, -0.000339115, -0.00110717, -0.00184229, 0.00153309, -0.00113313, 0.00380468, 0.00620458, 0.471008, -0.543383, 0.335895, -2.08384, -2.16584, -0.129887, 0.469532, -0.542339, 0.337004, -2.08446, -2.16713, -0.129434, -1.3774e-06, 0.00119164, 0.000320246, 0.00185429, 0.00212407, 0.00195037
0.0304695, 1.69141, -1.22436, -1.53733, -0.899864, -1.19137, 1.2284, -1.30263, -0.000385847, 0.00177856, -0.00446216, 0.000552782, 0.00122745, -0.00101205, -0.000953429, -0.76989, 55.567, 26.0761, 6.24786, 0.981627, 3.3533, -0.0621838, 0.0012532, -0.00146617, -0.000875648, -0.000657684, -0.00119156, -0.000333922, 0.00208463, 0.0012423, -0.000674166, -0.00356179, 0.00147159, -0.00158429, 0.471008, -0.543382, 0.335896, -2.08384, -2.16584, -0.129887, 0.469531, -0.54234, 0.336999, -2.08446, -2.16712, -0.129442, -1.86074e-06, 0.00129855, 0.00034864, -0.00119235, -0.00070653, -0.00060314
0.0314695, 1.69141, -1.22436, -1.53733, -0.899867, -1.19137, 1.2284, -1.30263, 0.0014029, 0.000456655, -0.00197468, 0.000257824, 0.00125969, -0.000345274, -0.000635938, -0.694511, 55.7495, 26.1515, 6.24786, 0.969725, 3.34598, -0.0621838, 0.00125486, -0.00146313, -0.000874998, -0.000663519, -0.00118669, -0.000340858, 0.000988208, -0.00040941, -0.000656929, -0.00130543, 0.000459991, 0.00136508, 0.471008, -0.543381, 0.335896, -2.08384, -2.16584, -0.129887, 0.469534, -0.542337, 0.336999, -2.08445, -2.16713, -0.129455, -2.39049e-06, 0.00141058, 0.000378373, 0.000418112, 0.000552852, -0.000435999
0.0324695, 1.69141, -1.22436, -1.53733, -0.899863, -1.19137, 1.2284, -1.30262, 0.00380467, -0.0017338, -0.00386898, -0.00129604, 0.00508348, 0.000627238, -0.000661557, -0.658806, 55.8606, 26.2626, 6.17248, 0.981627, 3.324, -0.0557752, 0.00125516, -0.00146087, -0.000876095, -0.000664489, -0.00118905, -0.000340036, -0.000467633, -0.00241615, -0.00288358, -0.00161247, -0.00395357, 0.00553999, 0.471008, -0.54338, 0.335896, -2.08384, -2.16584, -0.129887, 0.469536, -0.542336, 0.337, -2.08445, -2.16713, -0.129453, -2.969e-06, 0.00152782, 0.000409465, 0.00228924, 0.00253218, -0.00243809
0.0334695, 1.69142, -1.22436, -1.53732, -0.899863, -1.19137, 1.2284, -1.30262, 0.00453759, -0.00333415, 0.000618108, -0.00118863, 0.00422047, 0.000688231, 0.0012542, -0.583427, 55.9717, 26.2626, 6.17248, 0.969725, 3.31759, -0.101552, 0.00125681, -0.00145668, -0.000878929, -0.000673913, -0.00119177, -0.00034466, -0.00124194, -0.0035297, -0.00226396, 0.00178165, -0.00499806, 0.00616566, 0.471008, -0.543379, 0.335897, -2.08384, -2.16584, -0.129888, 0.46954, -0.542333, 0.337004, -2.08445, -2.16714, -0.129461, -3.59863e-06, 0.00165034, 0.000441934, 0.0033954, 0.00336931, -0.00170717
0.0344695, 1.69142, -1.22436, -1.53732, -0.899871, -1.19137, 1.2284, -1.30262, 0.00508627, -0.00367088, -0.00013373, -0.00279912, 0.00290319, -0.000296537, 0.00107336, -0.508049, 56.0471, 26.2983, 6.24786, 0.975218, 3.33865, -0.10796, 0.00126048, -0.0014524, -0.000879128, -0.000672009, -0.00119256, -0.000356696, -0.00148331, -0.0037395, -0.00308126, -0.0012066, -0.00443912, 0.00750627, 0.471008, -0.543377, 0.335897, -2.08384, -2.16584, -0.129888, 0.469544, -0.542327, 0.337005, -2.08444, -2.16715, -0.12946, -4.2818e-06, 0.00177822, 0.000475796, 0.00356611, 0.00386986, -0.0024492
0.0354695, 1.69143, -1.22435, -1.53731, -0.899869, -1.19137, 1.2284, -1.30262, 0.00643282, -0.00221091, 0.00326011, -0.00112065, 0.00235866, -0.000450557, -3.05127e-05, -0.468376, 56.0471, 26.2983, 6.20819, 0.969725, 3.34598, -0.0878186, 0.00126327, -0.00144765, -0.000883861, -0.000674817, -0.0012009, -0.000366929, -0.00220506, -0.00459512, -0.000887285, 0.0021021, -0.00284216, 0.00991164, 0.471008, -0.543375, 0.335898, -2.08384, -2.16584, -0.129888, 0.469549, -0.542324, 0.33701, -2.08443, -2.16717, -0.129456, -5.02096e-06, 0.00191151, 0.000511068, 0.00447328, 0.00441299, -0.000161312
0.0364695, 1.69144, -1.22435, -1.53731, -0.899875, -1.19136, 1.2284, -1.30262, 0.0113734, 0.0010003, 0.00259722, -0.00264729, 0.00197461, -0.000829105, -0.000495135, -0.468376, 56.0828, 26.2983, 6.28357, 0.963317, 3.36062, -0.0750012, 0.00126901, -0.00143863, -0.000881373, -0.000674775, -0.00119839, -0.000383523, -0.00484316, -0.00741574, 0.000241212, -0.000189877, 0.000913347, 0.0160972, 0.471008, -0.543374, 0.335898, -2.08383, -2.16584, -0.129888, 0.469558, -0.542315, 0.337009, -2.08441, -2.16718, -0.12946, -5.81861e-06, 0.00205028, 0.000547764, 0.00723586, 0.00709789, 0.00131412
0.0374695, 1.69145, -1.22436, -1.53732, -0.899867, -1.19136, 1.2284, -1.30262, 0.0101521, -0.00070241, -0.000549115, 0.000730889, 0.00167738, -0.00132228, 0.000144571, -0.392998, 56.1581, 26.4094, 6.17248, 0.956908, 3.38168, -0.0878186, 0.00126704, -0.00143718, -0.000878036, -0.000672898, -0.00119427, -0.000379184, -0.00232197, -0.0053284, -0.00139752, -0.00182656, -0.000807454, 0.00971828, 0.471008, -0.543372, 0.335899, -2.08383, -2.16584, -0.129888, 0.469559, -0.542315, 0.337006, -2.08441, -2.16717, -0.129462, -6.67726e-06, 0.00219459, 0.000585897, 0.00518135, 0.00492003, -0.00059426
0.0384695, 1.69145, -1.22435, -1.53731, -0.899869, -1.19137, 1.2284, -1.30262, 0.00764366, 0.000755217, 0.00154275, -0.00042499, 0.00121096, -0.000873756, -0.000853098, -0.242241, 56.1185, 26.3379, 6.20819, 0.956908, 3.38168, -0.0621838, 0.00126808, -0.00143389, -0.000880626, -0.000674383, -0.00120149, -0.000385286, -0.00183484, -0.00454533, 0.000194151, 0.000152526, 0.00125294, 0.0100891, 0.471008, -0.54337, 0.335899, -2.08383, -2.16584, -0.129888, 0.469562, -0.542312, 0.337009, -2.08441, -2.16718, -0.129457, -7.59945e-06, 0.00234449, 0.000625478, 0.00447325, 0.00431199, 0.000964971
0.0394695, 1.69147, -1.22435, -1.53731, -0.899869, -1.19136, 1.2284, -1.30261, 0.0107819, -0.000202939, -0.00417824, 0.000494117, 0.000639478, -0.000847949, 0.000889298, -0.166862, 56.1581, 26.2983, 6.17248, 0.963317, 3.38901, -0.101552, 0.00127155, -0.00142699, -0.00087955, -0.000673811, -0.00120099, -0.000391739, -0.00139261, -0.00505088, -0.00244707, -0.00519147, 0.00127642, 0.00771729, 0.471008, -0.543367, 0.3359, -2.08383, -2.16584, -0.129888, 0.469569, -0.542306, 0.337009, -2.0844, -2.16719, -0.129458, -8.58778e-06, 0.00250002, 0.000666519, 0.00489761, 0.00445818, -0.00168587
0.0404695, 1.69147, -1.22436, -1.53731, -0.899872, -1.19136, 1.2284, -1.30261, 0.00912637, -0.00247474, -0.00410554, -0.000549137, 0.000478467, -0.00134083, 0.000355483, -0.0557783, 56.2653, 26.3379, 6.20819, 0.963317, 3.41006, -0.0951428, 0.001273, -0.00142133, -0.000873976, -0.000671164, -0.00119598, -0.000402564, -0.000616445, -0.00429701, -0.0038728, -0.00603854, -0.000940351, 0.00756041, 0.471008, -0.543365, 0.3359, -2.08383, -2.16584, -0.129889, 0.469575, -0.542301, 0.337004, -2.08438, -2.1672, -0.129461, -9.64483e-06, 0.00266124, 0.000709027, 0.00411994, 0.00404176, -0.0031489
0.0414695, 1.69148, -1.22436, -1.53731, -0.89987, -1.19136, 1.2284, -1.30261, 0.00910902, 0.000145258, 0.00315866, 0.00127185, 0.00103626, -0.00116188, -3.42969e-05, 0.134651, 56.1938, 26.3379, 6.13678, 0.945006, 3.41739, -0.0878186, 0.00127277, -0.00141894, -0.000877071, -0.000674842, -0.00120069, -0.000406045, -0.00175998, -0.00519741, 0.000490838, 0.00183427, 0.000795752, 0.0100015, 0.471008, -0.543362, 0.335901, -2.08383, -2.16584, -0.129889, 0.469577, -0.542299, 0.337007, -2.08438, -2.16721, -0.129461, -1.07732e-05, 0.00282817, 0.000753011, 0.00513471, 0.00470279, 0.00135418
0.0424695, 1.69149, -1.22436, -1.53732, -0.89987, -1.19136, 1.2284, -1.30262, 0.007204, 0.000190327, 0.000730628, 0.00175154, 0.000482812, -0.00131466, -0.00219302, 0.285408, 56.1938, 26.4094, 6.09711, 0.951415, 3.43204, -0.0292249, 0.00127265, -0.00141549, -0.000874529, -0.000669005, -0.00120263, -0.000417572, 2.82409e-06, -0.00350075, -0.00020765, -0.000126134, 0.00140562, 0.00851395, 0.471008, -0.54336, 0.335902, -2.08382, -2.16584, -0.129889, 0.46958, -0.542296, 0.337006, -2.08436, -2.16722, -0.129454, -1.19756e-05, 0.00300084, 0.000798475, 0.00347685, 0.00317326, 0.000487477
0.0434695, 1.6915, -1.22436, -1.53731, -0.899863, -1.19136, 1.2284, -1.30262, 0.00758418, 0.000197001, 0.000708554, 0.00291265, -0.000537744, -0.00141713, -0.00122466, 0.360787, 56.1938, 26.4094, 6.02173, 0.975218, 3.44668, -0.0356336, 0.00127456, -0.00140765, -0.000875209, -0.000673047, -0.00120692, -0.000426421, 0.000556882, -0.0033125, -9.78369e-05, -0.000187564, 0.00224007, 0.0065651, 0.471008, -0.543357, 0.335903, -2.08382, -2.16584, -0.129889, 0.469588, -0.542291, 0.337007, -2.08436, -2.16723, -0.129455, -1.32547e-05, 0.00317929, 0.000845424, 0.00331135, 0.00278012, 0.000562533
0.0444695, 1.69152, -1.22436, -1.53732, -0.899857, -1.19136, 1.2284, -1.30261, 0.00683025, -0.000651296, 0.000638471, 0.00452652, -0.000341996, -0.000672107, 0.00419158, 0.475838, 56.2296, 26.4094, 5.91064, 0.975218, 3.43936, -0.0557752, 0.00127494, -0.00140121, -0.000873189, -0.000675356, -0.00120692, -0.000427897, 0.0016944, -0.00268607, -0.000309956, 0.00133553, 0.00157782, -0.000946418, 0.471008, -0.543354, 0.335903, -2.08382, -2.16584, -0.129889, 0.469595, -0.542287, 0.337006, -2.08435, -2.16723, -0.129458, -1.46131e-05, 0.00336352, 0.000893861, 0.00271739, 0.00184838, 0.000243842
0.0454695, 1.69153, -1.22436, -1.53732, -0.899855, -1.19136, 1.22841, -1.30262, 0.0127035, -0.00122998, 0.000550223, 0.00384261, 0.000225187, -0.000718303, 0.00192885, 0.586922, 56.2653, 26.4094, 5.87494, 0.963317, 3.44668, -0.0228162, 0.00127655, -0.00139341, -0.000870179, -0.000675923, -0.0012068, -0.000444648, -0.000964803, -0.00617806, -0.00110961, 0.000226533, 0.000897383, 0.00788696, 0.471008, -0.54335, 0.335904, -2.08382, -2.16584, -0.12989, 0.469602, -0.542281, 0.337004, -2.08433, -2.16725, -0.129461, -1.60536e-05, 0.00355356, 0.000943786, 0.00607945, 0.00492966, -0.000188361
0.0464695, 1.69155, -1.22436, -1.53732, -0.899855, -1.19137, 1.22841, -1.30262, 0.0137699, -0.00171842, 0.00129547, 0.00255403, -0.000756122, -0.00071545, 0.00155227, 0.701973, 56.3049, 26.3736, 5.87494, 0.988036, 3.45309, -0.0228162, 0.00128022, -0.00138377, -0.00086865, -0.000676954, -0.00120854, -0.000458641, -0.00153329, -0.00708843, -0.00138774, -0.000367828, 0.00145889, 0.0104966, 0.471008, -0.543347, 0.335905, -2.08381, -2.16583, -0.12989, 0.469612, -0.542273, 0.337003, -2.08432, -2.16726, -0.129462, -1.75788e-05, 0.0037494, 0.000995199, 0.00695673, 0.0057668, -0.000350787
0.0474695, 1.69156, -1.22436, -1.53732, -0.899846, -1.19137, 1.22841, -1.30262, 0.0138073, 0.00147503, 9.84996e-05, 0.00429536, -0.000700571, -0.00101892, 0.00123463, 0.85273, 56.1938, 26.4094, 5.76385, 0.993529, 3.46774, -0.0228162, 0.00127967, -0.00137898, -0.000870548, -0.00067634, -0.00121578, -0.000460445, -0.000926339, -0.0063982, 0.000254266, -0.000531753, 0.00452031, 0.00873019, 0.471008, -0.543343, 0.335906, -2.08381, -2.16583, -0.12989, 0.469616, -0.54227, 0.337006, -2.08432, -2.16727, -0.129454, -1.91915e-05, 0.00395105, 0.0010481, 0.00634679, 0.00508825, 0.00125005
0.0484695, 1.69158, -1.22436, -1.53732, -0.899842, -1.19137, 1.2284, -1.30261, 0.0116675, 0.000164772, -0.000809798, 0.00378725, -0.0011739, -0.00149264, 0.00338042, 0.963814, 56.2296, 26.449, 5.72418, 1.01276, 3.48971, -0.0878186, 0.00128145, -0.00137121, -0.000867648, -0.000670874, -0.00121773, -0.00046404, 0.000447427, -0.00503128, -0.00085773, -0.00194546, 0.00356184, 0.00435621, 0.471008, -0.543339, 0.335907, -2.08381, -2.16583, -0.129891, 0.469624, -0.542264, 0.337004, -2.08431, -2.16727, -0.129447, -2.08943e-05, 0.0041585, 0.00110247, 0.00498891, 0.00405472, 3.4391e-05
0.0494695, 1.6916, -1.22436, -1.53732, -0.899839, -1.19137, 1.2284, -1.30261, 0.0122163, 0.000122327, -0.000500449, 0.0033568, -0.000541328, -0.00177466, 0.00117919, 1.11457, 56.2296, 26.449, 5.68848, 1.00635, 3.51077, -0.0557752, 0.00128438, -0.00136271, -0.000866684, -0.00066945, -0.00121885, -0.000481155, 8.00974e-05, -0.00550445, -0.000909074, -0.00188924, 0.00305602, 0.00785487, 0.471008, -0.543335, 0.335908, -2.08381, -2.16583, -0.129891, 0.469632, -0.542256, 0.337005, -2.08429, -2.16729, -0.129446, -2.269e-05, 0.00437173, 0.00115833, 0.00544467, 0.00465787, 8.22874e-05
0.0504695, 1.6916, -1.22436, -1.53732, -0.899839, -1.19137, 1.2284, -1.30261, 0.0122163, 0.000122327, -0.000500449, 0.0033568, -0.000541328, -0.00177466, 0.00117919, 1.11457, 56.2296, 26.449, 5.68848, 1.00635, 3.51077, -0.0557752, 0.00127991, -0.00136283, -0.000866211, -0.000671257, -0.00122105, -0.000480086, 0.000305274, -0.0054991, -0.000931878, -0.00185654, 0.00321893, 0.00787165, 0.471008, -0.543331, 0.335909, -2.0838, -2.16583, -0.129891, 0.469632, -0.542256, 0.337005, -2.08429, -2.16729, -0.129446, -2.45814e-05, 0.00459073, 0.00121564, 0.00544467, 0.00465787, 8.22874e-05
0.0514695, 1.6916, -1.22436, -1.53732, -0.899839, -1.19137, 1.2284, -1.30261, 0.0122163, 0.000122327, -0.000500449, 0.0033568, -0.000541328, -0.00177466, 0.00117919, 1.11457, 56.2296, 26.449, 5.68848, 1.00635, 3.51077, -0.0557752, 0.0012752, -0.00136296, -0.000865714, -0.000673157, -0.00122336, -0.000478964, 0.000536345, -0.00549367, -0.000955232, -0.00182288, 0.00338606, 0.00788888, 0.471008, -0.543326, 0.335911, -2.0838, -2.16583, -0.129892, 0.469632, -0.542256, 0.337005, -2.08429, -2.16729, -0.129446, -2.6571e-05, 0.00481547, 0.00127442, 0.00544467, 0.00465787, 8.22874e-05
0.0524695, 1.69165, -1.22435, -1.53732, -0.899824, -1.19137, 1.22841, -1.3026, 0.0169586, 0.00302001, -0.000309959, 0.00372343, -0.000871812, -0.000435033, 0.00432599, 1.45576, 56.0828, 26.449, 5.53772, 1.03656, 3.51077, -0.0878186, 0.00128981, -0.00133388, -0.000868307, -0.000679541, -0.00123818, -0.000510363, -0.0013395, -0.00825361, 0.000707935, -0.000926401, 0.00747267, 0.00905412, 0.471008, -0.543321, 0.335912, -2.0838, -2.16583, -0.129892, 0.469661, -0.542236, 0.33701, -2.08426, -2.16733, -0.129442, -2.86617e-05, 0.00504591, 0.00133464, 0.00819193, 0.00659713, 0.00199269
0.0534695, 1.69167, -1.22436, -1.53732, -0.899815, -1.19137, 1.22841, -1.30261, 0.0170256, 0.000254053, -0.000194168, 0.00825142, 9.8199e-05, 0.000252617, 0.00264758, 1.57081, 56.1581, 26.449, 5.42664, 1.01825, 3.49612, -0.0750012, 0.00128996, -0.00132582, -0.000865592, -0.000683281, -0.00123456, -0.000521074, 0.000336761, -0.00758032, -0.000211779, 0.00217605, 0.00403281, 0.00728593, 0.471008, -0.543316, 0.335913, -2.08379, -2.16583, -0.129892, 0.469669, -0.54223, 0.337008, -2.08425, -2.16734, -0.129451, -3.0856e-05, 0.00528201, 0.00139628, 0.00754406, 0.00529242, 0.000906281
0.0544695, 1.69169, -1.22436, -1.53733, -0.89981, -1.19137, 1.22841, -1.30261, 0.017038, -0.00776495, -0.000120091, 0.00669251, -0.000611773, -0.000102778, 0.00194378, 1.68189, 56.2296, 26.449, 5.38696, 1.03656, 3.50345, -0.0750012, 0.00129039, -0.00131615, -0.000861405, -0.000683208, -0.0012354, -0.000533271, 0.000977973, -0.00794409, -0.00516474, 0.00022471, -0.00323842, 0.00931723, 0.471008, -0.543311, 0.335915, -2.08379, -2.16583, -0.129893, 0.469678, -0.542223, 0.337005, -2.08423, -2.16736, -0.129452, -3.31567e-05, 0.00552372, 0.00145934, 0.00774905, 0.00567854, -0.00403183
0.0554695, 1.69171, -1.22435, -1.53732, -0.899806, -1.19137, 1.22841, -1.30261, 0.0130848, -0.00309819, 0.00169019, 0.00549454, -0.000644511, -6.84606e-05, 0.00119254, 1.83265, 56.1185, 26.3736, 5.35126, 1.04297, 3.50345, -0.0685925, 0.0012922, -0.00130752, -0.0008668, -0.00068973, -0.00124696, -0.000547045, 0.00181556, -0.00622364, -0.00176554, 0.00228646, 0.0015099, 0.00801464, 0.471008, -0.543305, 0.335916, -2.08378, -2.16583, -0.129893, 0.469687, -0.542217, 0.337012, -2.08422, -2.16738, -0.129449, -3.55665e-05, 0.00577098, 0.0015238, 0.00618118, 0.00450518, -0.000689084
0.0564695, 1.69173, -1.22436, -1.53732, -0.899804, -1.19137, 1.22841, -1.3026, 0.0145076, -0.00421871, 0.00113206, 0.00381127, -0.00066651, 0.0050036, 0.000420846, 1.79694, 56.1938, 26.3736, 5.35126, 1.04938, 3.49612, -0.0557752, 0.00129607, -0.00129276, -0.000862345, -0.000691953, -0.00124792, -0.000567412, 0.00169974, -0.008239, -0.00250832, 0.00512024, 0.00333323, 0.0114272, 0.471008, -0.5433, 0.335918, -2.08378, -2.16583, -0.129894, 0.469701, -0.542206, 0.337009, -2.0842, -2.1674, -0.129453, -3.8088e-05, 0.00602372, 0.00158964, 0.00816043, 0.00506914, -0.00139952
0.0574695, 1.69175, -1.22435, -1.53732, -0.899798, -1.19137, 1.22842, -1.3026, 0.0158301, -0.00134175, 0.00075865, 0.00441526, 3.07697e-05, 0.00397128, 0.000593324, 1.87232, 56.1185, 26.3736, 5.27588, 1.03656, 3.48971, -0.0621838, 0.00129737, -0.00128289, -0.000864759, -0.00069698, -0.00125606, -0.000578574, 0.00111221, -0.00861136, -0.00105588, 0.00458367, 0.00532035, 0.0120573, 0.471008, -0.543294, 0.335919, -2.08378, -2.16583, -0.129894, 0.469711, -0.542198, 0.337013, -2.08419, -2.16742, -0.129452, -4.07237e-05, 0.00628188, 0.00165682, 0.00856114, 0.00569898, 0.000181786
0.0584695, 1.69177, -1.22435, -1.53732, -0.899793, -1.19137, 1.22842, -1.3026, 0.0176496, -0.000278661, 0.00134394, 0.00302689, -0.000453911, 0.00270881, 0.00462026, 1.90803, 56.0828, 26.3379, 5.27588, 1.04938, 3.49612, -0.0621838, 0.0012993, -0.00127227, -0.000865942, -0.000699964, -0.00126279, -0.000593894, -9.68995e-05, -0.00973323, -0.000652054, 0.00296015, 0.00648547, 0.0111627, 0.471008, -0.543287, 0.335921, -2.08377, -2.16582, -0.129894, 0.469722, -0.54219, 0.337016, -2.08417, -2.16744, -0.129451, -4.34763e-05, 0.00654537, 0.00172534, 0.00965012, 0.0071399, 0.000802884
0.0594695, 1.69179, -1.22436, -1.53733, -0.899787, -1.19137, 1.22842, -1.3026, 0.012664, -0.00378398, -0.000772253, 0.00607991, -6.50277e-05, 0.00226722, 0.00323257, 1.9477, 56.2296, 26.4094, 5.24017, 1.04297, 3.48971, -0.0557752, 0.00129662, -0.00126287, -0.000855559, -0.00069907, -0.00125561, -0.000604162, 0.00395657, -0.00590623, -0.0028378, 0.00288315, 0.00237489, 0.00414632, 0.471008, -0.543281, 0.335923, -2.08377, -2.16582, -0.129895, 0.469731, -0.542184, 0.337007, -2.08415, -2.16744, -0.129459, -4.63483e-05, 0.0068141, 0.00179515, 0.00589125, 0.00358681, -0.00179939
0.0604695, 1.69181, -1.22436, -1.53732, -0.899781, -1.19137, 1.22843, -1.3026, 0.0152075, -0.000975622, 0.000322047, 0.00529188, -0.000721355, 0.002222, 0.00122666, 1.98341, 56.1581, 26.3736, 5.2005, 1.06128, 3.47507, -0.0228162, 0.0012969, -0.00125174, -0.000859066, -0.000709723, -0.00126772, -0.000618466, 0.00250022, -0.00756055, -0.00107762, 0.00300035, 0.0059662, 0.00963394, 0.471008, -0.543274, 0.335924, -2.08376, -2.16582, -0.129895, 0.469742, -0.542177, 0.337012, -2.08414, -2.16747, -0.12946, -4.93422e-05, 0.00708797, 0.00186624, 0.00755193, 0.00509516, 0.000185881
0.0614695, 1.69184, -1.22436, -1.53732, -0.899776, -1.19137, 1.22843, -1.3026, 0.0179104, -0.000742967, 0.00197918, 0.00376086, -0.000480779, 0.00214986, 0.00127438, 1.98341, 56.1581, 26.2983, 5.2005, 1.06128, 3.46042, -0.0292249, 0.00129838, -0.00123939, -0.000859289, -0.000717571, -0.00127253, -0.000634097, 0.000707869, -0.00971163, -0.00074419, 0.00341178, 0.00628029, 0.0144926, 0.471007, -0.543267, 0.335926, -2.08376, -2.16582, -0.129896, 0.469754, -0.542168, 0.337014, -2.08413, -2.16749, -0.129466, -5.24605e-05, 0.00736687, 0.00193857, 0.00964503, 0.00718028, 0.000800779
0.0624695, 1.69186, -1.22436, -1.53733, -0.899767, -1.19137, 1.22843, -1.3026, 0.0197361, -0.00139994, -0.000442845, 0.0075104, -0.000320426, 0.001799, 0.00101401, 1.98341, 56.1938, 26.3736, 5.12909, 1.06128, 3.45309, -0.0292249, 0.00129606, -0.00123014, -0.00085433, -0.000715361, -0.00127471, -0.000642431, 0.00180113, -0.00943353, -0.00162244, 0.00255981, 0.00541147, 0.0121945, 0.471007, -0.543259, 0.335928, -2.08375, -2.16582, -0.129897, 0.469763, -0.542162, 0.33701, -2.08411, -2.1675, -0.129463, -5.57056e-05, 0.00765073, 0.00201212, 0.00937141, 0.00650872, -0.000154237
0.0634695, 1.69188, -1.22437, -1.53732, -0.899764, -1.19137, 1.22843, -1.3026, 0.0163357, -0.00182057, 0.00146871, 0.00456592, -1.00973e-05, 0.00608081, 0.00127405, 2.05878, 56.2296, 26.2983, 5.16479, 1.05578, 3.45309, -0.0420422, 0.00129535, -0.00121992, -0.000853395, -0.000724143, -0.00127716, -0.000655665, 0.0027599, -0.00933857, -0.00107354, 0.00722864, 0.00710287, 0.0122097, 0.471007, -0.543252, 0.33593, -2.08374, -2.16582, -0.129897, 0.469774, -0.542154, 0.337011, -2.0841, -2.16751, -0.129472, -5.90798e-05, 0.00793954, 0.00208689, 0.00932736, 0.00576263, 0.000316482
0.0644695, 1.6919, -1.22436, -1.53732, -0.899758, -1.19137, 1.22844, -1.3026, 0.0195981, -0.000417543, 5.16469e-05, 0.00644156, -0.000447489, 0.0092272, 0.000229781, 2.02308, 56.1938, 26.3379, 5.16479, 1.06769, 3.45309, -0.0228162, 0.00129545, -0.0012065, -0.000853888, -0.000731851, -0.00128873, -0.000674143, 0.00274219, -0.010995, -0.000415328, 0.00907456, 0.0106547, 0.0140043, 0.471007, -0.543244, 0.335932, -2.08374, -2.16582, -0.129898, 0.469787, -0.542146, 0.337013, -2.08408, -2.16754, -0.129471, -6.25855e-05, 0.00823327, 0.00216285, 0.0110013, 0.00604035, 0.000995092
0.0654695, 1.69192, -1.22436, -1.53732, -0.899754, -1.19138, 1.22845, -1.3026, 0.0192374, 0.00145559, 0.00272608, 0.00701359, -0.000739096, 0.0112706, 0.000459915, 2.09846, 56.1185, 26.2229, 5.2005, 1.07959, 3.46042, -0.0292249, 0.0012955, -0.001195, -0.00085838, -0.000743902, -0.00130147, -0.000686427, 0.00290887, -0.011434, 0.00188041, 0.0135831, 0.0137554, 0.0141023, 0.471007, -0.543236, 0.335935, -2.08373, -2.16581, -0.129898, 0.469798, -0.542138, 0.337019, -2.08408, -2.16757, -0.129474, -6.6225e-05, 0.00853189, 0.00224002, 0.0115251, 0.00583891, 0.00329992
0.0664695, 1.69194, -1.22435, -1.53732, -0.899747, -1.19138, 1.22845, -1.3026, 0.020974, 0.00178365, 0.00181769, 0.0061273, 0.000185467, 0.00763834, 0.000595996, 2.09846, 56.0828, 26.2229, 5.16479, 1.06128, 3.48239, -0.0356336, 0.00129463, -0.00118356, -0.000858717, -0.000748619, -0.00131064, -0.000702058, 0.00178437, -0.0118736, 0.00118494, 0.00944621, 0.0119437, 0.0163454, 0.471007, -0.543227, 0.335937, -2.08373, -2.16581, -0.129899, 0.46981, -0.54213, 0.337021, -2.08406, -2.16759, -0.129472, -7.00005e-05, 0.00883538, 0.00231837, 0.0118949, 0.00737766, 0.00285283
0.0674695, 1.69197, -1.22436, -1.53732, -0.899749, -1.19137, 1.22845, -1.3026, 0.0244206, -0.00059061, 0.00121201, 0.00504943, 0.000564476, 0.00501614, -0.000275726, 2.13416, 56.1581, 26.2229, 5.27588, 1.04938, 3.50345, -0.0164075, 0.00129591, -0.00116993, -0.000853379, -0.000751129, -0.00130917, -0.00072448, 0.000257997, -0.0135404, -0.00101705, 0.00561696, 0.0084374, 0.0214617, 0.471007, -0.543218, 0.335939, -2.08372, -2.16581, -0.1299, 0.469823, -0.542118, 0.337018, -2.08403, -2.16761, -0.129479, -7.39143e-05, 0.00914373, 0.0023979, 0.0134214, 0.00960027, 0.000944735
0.0684695, 1.69199, -1.22436, -1.53732, -0.899738, -1.19137, 1.22846, -1.30259, 0.0253786, 0.000521926, -0.00317048, 0.00894734, 0.000138975, 0.00830321, 0.00154087, 2.09846, 56.1185, 26.2626, 5.2005, 1.05578, 3.51077, -0.0621838, 0.00129451, -0.00115693, -0.000852312, -0.000757181, -0.00131649, -0.000732333, 0.00254394, -0.0129661, -0.00116639, 0.00630234, 0.0117177, 0.0149307, 0.471007, -0.543209, 0.335941, -2.08371, -2.16581, -0.1299, 0.469836, -0.54211, 0.337019, -2.08403, -2.16762, -0.12948, -7.79688e-05, 0.0094569, 0.0024786, 0.0129202, 0.00765623, 0.000540305
0.0694695, 1.69202, -1.22436, -1.53732, -0.899734, -1.19137, 1.22846, -1.30259, 0.0274055, 0.000338685, -0.00236775, 0.00668644, 9.26625e-05, 0.00527208, 0.00176127, 2.13416, 56.1185, 26.2626, 5.2005, 1.05578, 3.53915, -0.0814099, 0.00129358, -0.00114487, -0.000850413, -0.000761005, -0.00132152, -0.000746786, 0.000843835, -0.014185, -0.00171016, 0.0029909, 0.0105182, 0.0190877, 0.471007, -0.5432, 0.335944, -2.08371, -2.16581, -0.129901, 0.469848, -0.5421, 0.337019, -2.08401, -2.16764, -0.129481, -8.21662e-05, 0.00977487, 0.00256046, 0.0140528, 0.0097863, 0.000312382
0.0704695, 1.69202, -1.22436, -1.53732, -0.899734, -1.19137, 1.22846, -1.30259, 0.0274055, 0.000338685, -0.00236775, 0.00668644, 9.26625e-05, 0.00527208, 0.00176127, 2.13416, 56.1185, 26.2626, 5.2005, 1.05578, 3.53915, -0.0814099, 0.00128354, -0.00114511, -0.000849382, -0.000765074, -0.00132646, -0.000744436, 0.00117555, -0.0141786, -0.0017422, 0.00304236, 0.0107566, 0.0191127, 0.471007, -0.54319, 0.335947, -2.0837, -2.16581, -0.129902, 0.469848, -0.5421, 0.337019, -2.08401, -2.16764, -0.129481, -8.65087e-05, 0.0100976, 0.00264348, 0.0140528, 0.0097863, 0.000312382
0.0714695, 1.69206, -1.22436, -1.53732, -0.899727, -1.19137, 1.22847, -1.30259, 0.0255819, -0.000137724, -0.0010439, 0.00253197, -0.000557852, 0.00333839, -0.000177237, 2.17384, 56.1185, 26.2626, 5.24017, 1.06769, 3.53274, -0.0484509, 0.00128971, -0.00111974, -0.000846598, -0.000771428, -0.00133833, -0.000783373, 0.000787698, -0.0138905, -0.00223752, 0.000527886, 0.0103286, 0.0233367, 0.471007, -0.54318, 0.335949, -2.08369, -2.1658, -0.129903, 0.469873, -0.542083, 0.337019, -2.08397, -2.16769, -0.129481, -9.09987e-05, 0.0104251, 0.00272764, 0.0137288, 0.0105612, -2.36591e-05
0.0724695, 1.69209, -1.22436, -1.53733, -0.899724, -1.19138, 1.22847, -1.30259, 0.0295907, 0.000739493, -0.00163835, 0.00115717, -0.000812706, 0.0028292, 0.000874446, 2.13416, 56.0828, 26.2983, 5.27588, 1.07959, 3.52542, -0.0750012, 0.00129047, -0.00110423, -0.00084506, -0.000771944, -0.00134913, -0.000799617, -0.00102314, -0.0161962, -0.00241388, -0.00170057, 0.011684, 0.0270844, 0.471007, -0.543169, 0.335952, -2.08368, -2.1658, -0.129903, 0.469888, -0.542071, 0.33702, -2.08395, -2.16771, -0.129473, -9.56382e-05, 0.0107574, 0.00281294, 0.0159555, 0.0128029, 9.90176e-05
0.0734695, 1.69212, -1.22436, -1.53732, -0.899714, -1.19138, 1.22847, -1.30259, 0.0302993, -0.000345154, 0.00142583, 0.00276299, -0.0005418, 0.00213539, 0.000827268, 2.05878, 56.1185, 26.1872, 5.2005, 1.07959, 3.52542, -0.0814099, 0.00129033, -0.00108905, -0.00084499, -0.000781855, -0.00135448, -0.000818687, -0.00117826, -0.0166886, -0.00187332, 0.001118, 0.00996714, 0.0280409, 0.471007, -0.543159, 0.335955, -2.08368, -2.1658, -0.129904, 0.469903, -0.54206, 0.337022, -2.08393, -2.16774, -0.129481, -0.00010043, 0.0110943, 0.00289937, 0.0164565, 0.01323, 0.00072835
0.0744695, 1.69215, -1.22435, -1.53732, -0.899712, -1.19138, 1.22847, -1.30259, 0.032016, -0.000798072, 5.50357e-05, 0.00424818, -0.000598556, 0.00133926, -0.000663983, 2.05878, 56.0074, 26.2229, 5.24017, 1.086, 3.53274, -0.0484509, 0.00128977, -0.00107505, -0.000846686, -0.000783442, -0.00137129, -0.000841729, -0.000891354, -0.016929, -0.00261267, -0.000339005, 0.00943041, 0.0292817, 0.471006, -0.543147, 0.335958, -2.08367, -2.1658, -0.129905, 0.469917, -0.542049, 0.337026, -2.08391, -2.16777, -0.129469, -0.000105375, 0.011436, 0.00298692, 0.0166751, 0.0134122, 3.39846e-05
0.0754695, 1.69218, -1.22436, -1.53732, -0.8997, -1.19138, 1.22848, -1.30259, 0.0293454, -0.00256062, -8.53286e-06, 0.00498736, -0.0010772, 0.000795689, -0.000438749, 2.09846, 56.0828, 26.2229, 5.16479, 1.10431, 3.53915, -0.0484509, 0.00128464, -0.00106267, -0.000841284, -0.000787127, -0.00137563, -0.000853334, 0.00109193, -0.0151282, -0.00350769, -0.000415522, 0.00791212, 0.0256376, 0.471006, -0.543136, 0.335961, -2.08366, -2.1658, -0.129906, 0.46993, -0.542041, 0.337023, -2.08389, -2.16778, -0.129471, -0.000110477, 0.0117823, 0.00307558, 0.0149102, 0.0118647, -0.00101478
0.0764695, 1.69221, -1.22435, -1.53732, -0.899691, -1.19138, 1.22847, -1.30259, 0.0291781, 0.00152759, 0.000795612, 0.00756465, -0.00163366, 0.000635614, -0.00198499, 2.05878, 55.936, 26.1872, 5.12909, 1.12903, 3.53915, -0.00267457, 0.00128589, -0.0010468, -0.000845342, -0.000793348, -0.00138858, -0.000881081, 0.00182191, -0.0144267, -0.000504786, 0.00154077, 0.0123359, 0.0249234, 0.471006, -0.543124, 0.335964, -2.08365, -2.16579, -0.129907, 0.469945, -0.542028, 0.33703, -2.08386, -2.16782, -0.129468, -0.000115737, 0.0121332, 0.00316535, 0.0143392, 0.0110037, 0.0019478
0.0774695, 1.69224, -1.22436, -1.53733, -0.899687, -1.19139, 1.22848, -1.30259, 0.0319668, -0.000801292, -0.00125827, 0.00468759, -0.00132647, 0.000502608, -0.00132113, 2.02308, 56.0074, 26.2626, 5.16479, 1.13544, 3.53915, -0.00267457, 0.0012838, -0.00103096, -0.000838033, -0.000791415, -0.00139357, -0.000902506, 0.000673778, -0.0163184, -0.00319301, -0.00216488, 0.0104311, 0.0287088, 0.471006, -0.543112, 0.335967, -2.08364, -2.16579, -0.129908, 0.469961, -0.542016, 0.337025, -2.08383, -2.16784, -0.129464, -0.000121158, 0.0124888, 0.00325621, 0.0160845, 0.0129845, -0.000494616
0.0784695, 1.69227, -1.22436, -1.53732, -0.899684, -1.19139, 1.22848, -1.30259, 0.0292527, -0.000646132, 0.000905314, 0.00578061, -0.00132512, 0.00063158, -0.000879105, 2.05878, 56.0074, 26.1872, 5.2005, 1.14734, 3.53274, -0.00267457, 0.00128204, -0.00101638, -0.000837785, -0.000799489, -0.0014022, -0.000924003, 0.00211957, -0.0149463, -0.00206388, 0.000850494, 0.010595, 0.0257007, 0.471006, -0.5431, 0.33597, -2.08363, -2.16579, -0.129909, 0.469975, -0.542005, 0.337027, -2.08381, -2.16787, -0.129468, -0.000126741, 0.012849, 0.00334816, 0.0148013, 0.0116872, 0.000529067
0.0794695, 1.6923, -1.22436, -1.53733, -0.89968, -1.19139, 1.22848, -1.30259, 0.0283778, -0.000514708, -0.001174, 0.00656577, -0.00156158, 0.000228056, 0.00363646, 2.05878, 56.0074, 26.2626, 5.24017, 1.16565, 3.53915, -0.00267457, 0.00127957, -0.00100175, -0.000832606, -0.000793863, -0.00141137, -0.000944048, 0.00354301, -0.0138069, -0.00263904, -0.000842873, 0.0110269, 0.0185773, 0.471006, -0.543087, 0.335973, -2.08362, -2.16579, -0.129909, 0.46999, -0.541993, 0.337025, -2.08378, -2.16789, -0.129455, -0.00013249, 0.0132137, 0.00344119, 0.0136878, 0.0106887, -0.000132565
0.0804695, 1.69233, -1.22435, -1.53733, -0.899674, -1.19139, 1.22847, -1.30259, 0.0284296, 0.000429114, -0.000793401, 0.00736336, -0.00104105, -8.59583e-05, 0.00399771, 2.02308, 55.9717, 26.2626, 5.27588, 1.16565, 3.54648, -0.0356336, 0.0012794, -0.000985566, -0.000830403, -0.000791337, -0.00141934, -0.000964195, 0.00382919, -0.0137018, -0.00190572, -2.92147e-05, 0.0115637, 0.017941, 0.471006, -0.543074, 0.335977, -2.08361, -2.16578, -0.12991, 0.470006, -0.541979, 0.337025, -2.08375, -2.16792, -0.129447, -0.000138406, 0.013583, 0.0035353, 0.0136137, 0.0106583, 0.00064425
0.0814695, 1.69236, -1.22434, -1.53733, -0.899664, -1.19139, 1.22848, -1.30259, 0.0306396, 0.00367253, 0.000391037, 0.00958932, -0.00688544, -0.000303619, 0.00245495, 2.02308, 55.8249, 26.2229, 5.24017, 1.20318, 3.5538, -0.0228162, 0.0012762, -0.00097148, -0.000835582, -0.000798682, -0.00144049, -0.000982606, 0.00446478, -0.0138885, 0.000556094, -0.000850811, 0.0195408, 0.0182993, 0.471006, -0.54306, 0.33598, -2.0836, -2.16578, -0.129911, 0.47002, -0.541969, 0.337033, -2.08374, -2.16795, -0.129437, -0.00014449, 0.0139569, 0.00363046, 0.0139061, 0.0100331, 0.00306571
0.0824695, 1.6924, -1.22435, -1.53733, -0.899659, -1.1914, 1.22848, -1.30259, 0.0333109, 0.00157771, -0.00150858, 0.00855277, -0.0054312, -0.000183698, 0.00183503, 1.98341, 55.8606, 26.2983, 5.31555, 1.21509, 3.5538, -0.0228162, 0.00127295, -0.000955276, -0.000829726, -0.000795285, -0.00145006, -0.00100384, 0.00368192, -0.0155016, -0.00165752, -0.00274953, 0.0168956, 0.0221011, 0.471006, -0.543046, 0.335984, -2.08359, -2.16578, -0.129913, 0.470036, -0.541956, 0.33703, -2.08371, -2.16797, -0.129427, -0.000150747, 0.0143352, 0.00372669, 0.0154026, 0.0115915, 0.00104894
0.0834695, 1.69242, -1.22434, -1.53733, -0.899649, -1.1914, 1.22848, -1.30259, 0.0312144, 0.00186046, -0.00334424, 0.00657865, -0.00459904, 0.000162839, 0.00160951, 1.98341, 55.8249, 26.2626, 5.31555, 1.2334, 3.54648, -0.0292249, 0.00126796, -0.000941428, -0.000829738, -0.000801385, -0.00146287, -0.00101599, 0.00464966, -0.0145906, -0.00231221, -0.00419394, 0.0171803, 0.021402, 0.471005, -0.543032, 0.335988, -2.08358, -2.16578, -0.129914, 0.47005, -0.541946, 0.337033, -2.08369, -2.16799, -0.129423, -0.000157176, 0.014718, 0.00382396, 0.0144972, 0.0110826, 0.000376873
0.0844695, 1.69246, -1.22435, -1.53734, -0.899644, -1.1914, 1.22848, -1.30258, 0.0345022, 0.000385169, -0.00249699, 0.00652267, -0.00329108, -0.000152181, 0.0024053, 1.90803, 55.8606, 26.2626, 5.38696, 1.2334, 3.5538, -0.0621838, 0.00126629, -0.000923852, -0.000825269, -0.000802811, -0.00146842, -0.00103707, 0.00324186, -0.0167041, -0.00312436, -0.00371311, 0.0148157, 0.0248058, 0.471005, -0.543017, 0.335992, -2.08357, -2.16577, -0.129915, 0.470067, -0.541932, 0.337031, -2.08366, -2.16802, -0.129422, -0.000163782, 0.0151053, 0.00392227, 0.0165215, 0.0130716, -0.000172062
0.0854695, 1.6925, -1.22435, -1.53733, -0.899642, -1.19141, 1.22847, -1.30258, 0.0335687, 0.00107706, -0.000937263, 0.00241287, -0.00327837, -0.000364826, 0.00117861, 1.83265, 55.8249, 26.2229, 5.50201, 1.25812, 3.56112, -0.0484509, 0.00126638, -0.000905204, -0.000822018, -0.000799842, -0.00147774, -0.00106831, 0.0024227, -0.0173141, -0.0027445, -0.00422203, 0.0159122, 0.0294808, 0.471005, -0.543002, 0.335996, -2.08356, -2.16577, -0.129916, 0.470085, -0.541916, 0.337031, -2.08362, -2.16805, -0.129414, -0.000170564, 0.0154971, 0.00402162, 0.0171083, 0.0142386, 0.000411057
0.0864695, 1.69253, -1.22434, -1.53734, -0.899633, -1.19141, 1.22848, -1.30258, 0.0326251, 0.00070683, -0.00487504, 0.00217534, -0.00299034, 3.39717e-05, 0.000848512, 1.75727, 55.8249, 26.2626, 5.50201, 1.27643, 3.5538, -0.0484509, 0.00126158, -0.000888529, -0.000820513, -0.000804474, -0.00149306, -0.001088, 0.00402236, -0.0162541, -0.00434257, -0.00711251, 0.0160451, 0.0273206, 0.471005, -0.542986, 0.336, -2.08355, -2.16577, -0.129917, 0.470102, -0.541904, 0.337033, -2.0836, -2.16808, -0.129406, -0.000177527, 0.0158932, 0.00412199, 0.0160421, 0.0132585, -0.00128309
0.0874695, 1.69256, -1.22433, -1.53734, -0.899621, -1.19141, 1.22848, -1.30258, 0.0304234, 0.00389649, -0.00362718, 0.00596505, -0.00185115, 0.000298356, 0.00112138, 1.75727, 55.6781, 26.2626, 5.46234, 1.27002, 3.54648, -0.0621838, 0.00125654, -0.000874051, -0.000824814, -0.000814236, -0.00151025, -0.00110263, 0.00576912, -0.0145045, -0.00140011, -0.00278089, 0.0182322, 0.0225217, 0.471005, -0.542971, 0.336004, -2.08354, -2.16576, -0.129918, 0.470117, -0.541893, 0.33704, -2.08359, -2.16811, -0.129402, -0.000184671, 0.0162937, 0.00422337, 0.014457, 0.0114094, 0.00150505
0.0884695, 1.6926, -1.22433, -1.53734, -0.899612, -1.19141, 1.22848, -1.30258, 0.0344934, 0.00342657, -0.00353621, 0.00673293, -0.00178002, -6.90322e-05, 0.000274271, 1.64619, 55.6424, 26.2983, 5.50201, 1.28284, 3.5538, -0.0484509, 0.00125267, -0.000856595, -0.00082284, -0.000814734, -0.0015246, -0.00112654, 0.00457648, -0.0165731, -0.00182249, -0.00322281, 0.0178691, 0.0268237, 0.471005, -0.542954, 0.336008, -2.08353, -2.16576, -0.129919, 0.470134, -0.54188, 0.337041, -2.08356, -2.16814, -0.129392, -0.000192, 0.0166987, 0.00432576, 0.0164575, 0.0131418, 0.00131294
0.0894695, 1.69263, -1.22434, -1.53734, -0.899607, -1.19141, 1.22848, -1.30258, 0.0335075, 0.000609219, -0.00173441, 0.00653971, -0.0016809, -0.000314791, -2.80293e-05, 1.57081, 55.7138, 26.2626, 5.57739, 1.29474, 3.56112, -0.0420422, 0.0012485, -0.000839096, -0.000817133, -0.000816953, -0.00153009, -0.00115228, 0.00522708, -0.0163905, -0.0028728, -0.00192344, 0.01503, 0.027304, 0.471004, -0.542938, 0.336012, -2.08351, -2.16576, -0.129921, 0.470151, -0.541865, 0.337039, -2.08352, -2.16816, -0.129393, -0.000199514, 0.0171079, 0.00442916, 0.0162528, 0.0130633, 0.000283549
0.0904695, 1.69267, -1.22433, -1.53734, -0.899597, -1.19142, 1.22848, -1.30258, 0.0318487, 0.00383627, -0.000387366, 0.00824677, -0.00163537, 0.000334548, 0.000238535, 1.53114, 55.567, 26.2229, 5.57739, 1.30755, 3.54648, -0.0484509, 0.00124373, -0.000822425, -0.000820635, -0.000826671, -0.00154913, -0.00117255, 0.00636039, -0.0153741, -0.000158359, 0.00125032, 0.0185431, 0.0245498, 0.471004, -0.54292, 0.336017, -2.0835, -2.16575, -0.129922, 0.470168, -0.541853, 0.337045, -2.0835, -2.1682, -0.129388, -0.000207216, 0.0175215, 0.00453354, 0.0153692, 0.0118981, 0.00292264
0.0914695, 1.6927, -1.22432, -1.53735, -0.89959, -1.19142, 1.22848, -1.30258, 0.0325617, 0.00431809, -0.00306884, 0.0117743, -0.0015611, 0.000224437, 0.000445187, 1.41608, 55.4916, 26.3379, 5.6131, 1.31946, 3.54648, -0.0557752, 0.00123852, -0.000805426, -0.0008181, -0.000822355, -0.00156705, -0.00119286, 0.0080066, -0.0144902, -0.000421243, 0.000530517, 0.0190982, 0.0207173, 0.471004, -0.542903, 0.336021, -2.08349, -2.16575, -0.129923, 0.470185, -0.541839, 0.337046, -2.08348, -2.16822, -0.129368, -0.000215108, 0.0179394, 0.00463891, 0.0145281, 0.0106952, 0.00253919
0.0924695, 1.69274, -1.22432, -1.53734, -0.899577, -1.19142, 1.22848, -1.30259, 0.0349125, 0.00454717, -0.000372155, 0.0129462, -0.000622454, 0.000150679, -0.00213344, 1.34071, 55.4202, 26.2626, 5.57739, 1.30755, 3.54648, 0.0101428, 0.00123452, -0.000786411, -0.000819478, -0.000832976, -0.00158083, -0.0012249, 0.00696155, -0.0160998, 0.000661086, 0.00354251, 0.0186216, 0.0262389, 0.471004, -0.542885, 0.336026, -2.08348, -2.16575, -0.129924, 0.470204, -0.541825, 0.337051, -2.08344, -2.16827, -0.129371, -0.000223192, 0.0183616, 0.00474526, 0.0161293, 0.0120484, 0.00382768
0.0934695, 1.69277, -1.22431, -1.53734, -0.899573, -1.19142, 1.22848, -1.30259, 0.0310238, 0.00479319, 0.00061279, 0.0111844, -0.00111004, -0.000170024, -0.00141392, 1.38038, 55.3448, 26.2229, 5.6488, 1.32587, 3.5538, 0.0101428, 0.00122737, -0.000772665, -0.000822919, -0.000839391, -0.00160153, -0.00124371, 0.00843969, -0.0143616, 0.00104658, 0.00375341, 0.0193952, 0.0235606, 0.471003, -0.542867, 0.336031, -2.08346, -2.16574, -0.129926, 0.470218, -0.541814, 0.337057, -2.08342, -2.1683, -0.12936, -0.00023147, 0.0187881, 0.00485258, 0.0144522, 0.0108849, 0.00413837
0.0944695, 1.69281, -1.22431, -1.53734, -0.899569, -1.19142, 1.22848, -1.30259, 0.0343298, 0.00226632, 0.000358182, 0.00679546, -0.000752697, 0.000158511, -0.000461608, 1.305, 55.3845, 26.2229, 5.72418, 1.32587, 3.54648, -0.00267457, 0.00122311, -0.000752441, -0.000816678, -0.000841563, -0.00160901, -0.0012682, 0.00637016, -0.0172891, -0.00132298, 0.00124205, 0.017566, 0.0297855, 0.471003, -0.542848, 0.336035, -2.08345, -2.16574, -0.129927, 0.470238, -0.541797, 0.337055, -2.08339, -2.16833, -0.129359, -0.000239944, 0.0192188, 0.00496086, 0.017207, 0.0138443, 0.00213977
0.0954695, 1.69284, -1.22432, -1.53735, -0.899562, -1.19142, 1.22847, -1.30259, 0.0316212, -0.000160399, 0.00020103, 0.00759584, -0.000952113, 0.000106118, -0.000540385, 1.305, 55.4559, 26.2229, 5.76385, 1.33777, 3.54648, 0.00373412, 0.00121472, -0.00073731, -0.000809549, -0.000841426, -0.00161364, -0.00129085, 0.00855962, -0.0155715, -0.0025933, 0.00163834, 0.0154625, 0.0264217, 0.471003, -0.542829, 0.33604, -2.08343, -2.16574, -0.129929, 0.470252, -0.541785, 0.337051, -2.08335, -2.16835, -0.129358, -0.000248615, 0.0196537, 0.00507009, 0.0155155, 0.0122432, 0.000706244
0.0964695, 1.69288, -1.22431, -1.53735, -0.899557, -1.19143, 1.22848, -1.30259, 0.0356053, 0.00249089, -0.000822319, 0.00818093, -0.000201061, 7.1079e-05, 0.000863982, 1.18995, 55.3448, 26.2626, 5.79956, 1.32587, 3.54648, -0.0292249, 0.00121028, -0.00071695, -0.000809505, -0.000844114, -0.0016349, -0.00131604, 0.00721735, -0.0175174, -0.00157278, 0.00102575, 0.0179261, 0.0281882, 0.471003, -0.542809, 0.336045, -2.08342, -2.16573, -0.12993, 0.470273, -0.541768, 0.337055, -2.08333, -2.16838, -0.129343, -0.000257487, 0.0200928, 0.00518027, 0.0174389, 0.0139301, 0.0019735
0.0974695, 1.69292, -1.22431, -1.53734, -0.899548, -1.19143, 1.22848, -1.30258, 0.0376426, -0.000103116, -0.00110198, 0.0103196, -0.000342838, -0.000223631, 0.000578639, 1.11457, 55.4202, 26.1515, 5.76385, 1.33136, 3.5538, -0.0292249, 0.00120424, -0.000697302, -0.000806311, -0.000856362, -0.00164093, -0.00134032, 0.00770643, -0.0181047, -0.00307112, 0.00102256, 0.0155257, 0.0285108, 0.471002, -0.542789, 0.336051, -2.08341, -2.16573, -0.129932, 0.470292, -0.541753, 0.337055, -2.08329, -2.16841, -0.129355, -0.000266561, 0.0205361, 0.00529139, 0.0179794, 0.0141459, 0.000511128
0.0984695, 1.69296, -1.22431, -1.53735, -0.899539, -1.19143, 1.22848, -1.30259, 0.034917, 0.00169414, -0.00184672, 0.0109762, -0.000232569, 0.000122367, 0.000387748, 1.07887, 55.3448, 26.1872, 5.76385, 1.33136, 3.54648, -0.0292249, 0.00119666, -0.000679523, -0.000805778, -0.00086231, -0.00165793, -0.00136487, 0.009569, -0.0163371, -0.00205543, 0.00168777, 0.0176332, 0.0251184, 0.471002, -0.542768, 0.336056, -2.08339, -2.16572, -0.129933, 0.47031, -0.541739, 0.337058, -2.08327, -2.16845, -0.129348, -0.000275838, 0.0209836, 0.00540343, 0.0163086, 0.0125256, 0.00138984
0.0994695, 1.693, -1.2243, -1.53734, -0.899532, -1.19143, 1.22848, -1.30258, 0.0389154, 0.00456283, 0.000324461, 0.00829108, 4.53972e-05, 0.000352986, -0.000214728, 0.928108, 55.1981, 26.1118, 5.76385, 1.32587, 3.53915, -0.0164075, 0.00119357, -0.000657675, -0.00080932, -0.000868099, -0.00168044, -0.00139582, 0.00669448, -0.0195709, -0.000208889, 0.00233457, 0.0209228, 0.0331462, 0.471002, -0.542747, 0.336061, -2.08338, -2.16572, -0.129935, 0.470332, -0.541721, 0.337066, -2.08323, -2.16849, -0.129336, -0.000285321, 0.0214351, 0.00551641, 0.0194927, 0.0156631, 0.00367462
0.100469, 1.69304, -1.2243, -1.53734, -0.899528, -1.19143, 1.22847, -1.30258, 0.0380146, 0.00387691, 0.00173102, 0.00858908, -0.00434443, 0.00023543, 0.00131603, 0.928108, 55.1624, 26.0404, 5.79956, 1.31946, 3.53915, -0.0557752, 0.00118768, -0.000638159, -0.000808718, -0.000876263, -0.0016941, -0.00141987, 0.00828005, -0.0187378, -7.52089e-05, 0.00172504, 0.0239631, 0.0297148, 0.471002, -0.542726, 0.336067, -2.08336, -2.16572, -0.129936, 0.470351, -0.541704, 0.337069, -2.0832, -2.16852, -0.129336, -0.000295012, 0.0218908, 0.00563029, 0.0187128, 0.0144988, 0.00369897
0.101469, 1.69307, -1.2243, -1.53735, -0.899521, -1.19143, 1.22848, -1.30258, 0.0383759, 0.00174924, -0.00156124, 0.00961419, -0.00304477, 0.000157032, 0.000878191, 0.888436, 55.1981, 26.1515, 5.79956, 1.31305, 3.53915, -0.0557752, 0.0011776, -0.000619657, -0.000801328, -0.000876462, -0.00170755, -0.00144521, 0.00952405, -0.0183003, -0.0024155, -0.000279647, 0.0212114, 0.0285331, 0.471001, -0.542704, 0.336072, -2.08334, -2.16571, -0.129938, 0.470369, -0.541691, 0.337066, -2.08317, -2.16856, -0.129326, -0.000304912, 0.0223506, 0.00574509, 0.0182255, 0.0140737, 0.00132261
0.102469, 1.69311, -1.2243, -1.53735, -0.899515, -1.19143, 1.22848, -1.30258, 0.0378753, 0.00116605, -0.00112842, 0.0072745, -0.00231923, 0.000613374, 0.00058609, 0.888436, 55.1981, 26.1515, 5.79956, 1.31305, 3.52542, -0.0557752, 0.00116791, -0.000601479, -0.000798319, -0.00088496, -0.00172159, -0.00146654, 0.00939795, -0.0187871, -0.00290561, -0.000172931, 0.0207642, 0.0308767, 0.471001, -0.542682, 0.336078, -2.08333, -2.16571, -0.12994, 0.470387, -0.541677, 0.337066, -2.08314, -2.16858, -0.129326, -0.000315023, 0.0228145, 0.00586078, 0.0186792, 0.0147578, 0.000958954
0.103469, 1.69314, -1.2243, -1.53734, -0.899506, -1.19144, 1.22848, -1.30258, 0.037571, 0.00077728, 0.000945261, 0.00633367, -0.00244135, 0.000137693, 0.000628557, 0.888436, 55.1981, 26.0761, 5.76385, 1.33136, 3.53274, -0.0621838, 0.00115714, -0.000584315, -0.000796475, -0.000892957, -0.0017376, -0.0014865, 0.00931244, -0.0190899, -0.00259852, 0.000816401, 0.0205217, 0.0323596, 0.471001, -0.542659, 0.336084, -2.08331, -2.1657, -0.129941, 0.470405, -0.541663, 0.337068, -2.08311, -2.16861, -0.129322, -0.000325348, 0.0232823, 0.00597737, 0.0189795, 0.0152753, 0.00138257
0.104469, 1.69319, -1.2243, -1.53734, -0.899507, -1.19144, 1.22848, -1.30258, 0.0408285, 0.000518123, 0.000580902, 0.00303859, -0.00627833, 0.000363096, 0.00089411, 0.737679, 55.1981, 26.0761, 5.83527, 1.32587, 3.52542, -0.0750012, 0.00115469, -0.000558407, -0.000791074, -0.000892093, -0.00175034, -0.00152676, 0.00825453, -0.0211951, -0.00353218, -0.00310225, 0.0242746, 0.0367673, 0.471, -0.542636, 0.33609, -2.08329, -2.1657, -0.129943, 0.47043, -0.541641, 0.337068, -2.08306, -2.16866, -0.129314, -0.000335889, 0.0237543, 0.00609484, 0.0209993, 0.0170224, 0.000678473
0.105469, 1.69323, -1.22429, -1.53734, -0.899508, -1.19144, 1.22848, -1.30258, 0.0387537, 0.00294382, 0.00211355, 0.000627429, -0.00469859, 0.000242089, -0.000861723, 0.777352, 55.087, 26.0007, 5.91064, 1.32587, 3.52542, -0.0356336, 0.00114781, -0.000537629, -0.000793923, -0.000902895, -0.00177491, -0.00156401, 0.00806981, -0.0209432, -0.00184566, -0.00167591, 0.0257368, 0.0398506, 0.471, -0.542612, 0.336096, -2.08328, -2.16569, -0.129945, 0.470451, -0.541623, 0.337075, -2.08302, -2.16871, -0.129307, -0.000346646, 0.0242302, 0.00621319, 0.0207918, 0.0174103, 0.00249814
0.106469, 1.69326, -1.22429, -1.53734, -0.899503, -1.19145, 1.22848, -1.30258, 0.0363074, 0.00103449, 0.000453299, 0.00152721, -0.00372062, -0.000347215, 0.000883779, 0.85273, 55.1266, 26.0404, 5.87494, 1.33136, 3.53915, -0.0750012, 0.00113567, -0.000521395, -0.000786973, -0.00090211, -0.00178478, -0.00158087, 0.0101947, -0.019113, -0.00339503, -0.00244958, 0.0230475, 0.0344998, 0.471, -0.542588, 0.336102, -2.08326, -2.16569, -0.129946, 0.470467, -0.541609, 0.337072, -2.08299, -2.16873, -0.129299, -0.000357622, 0.0247101, 0.00633241, 0.018973, 0.0159565, 0.000812353
0.107469, 1.6933, -1.22429, -1.53734, -0.899494, -1.19145, 1.22848, -1.30258, 0.0385292, 0.00161766, -0.000553806, 0.00298665, -0.00300635, 5.8965e-06, -0.000631368, 0.777352, 55.087, 26.0761, 5.79956, 1.33777, 3.53274, -0.0420422, 0.00112532, -0.000501218, -0.00078404, -0.000905461, -0.00180435, -0.00161006, 0.0101847, -0.0199846, -0.00333607, -0.00220362, 0.0235739, 0.0367152, 0.470999, -0.542563, 0.336109, -2.08324, -2.16568, -0.129948, 0.470487, -0.541594, 0.337073, -2.08295, -2.16877, -0.129288, -0.000368819, 0.025194, 0.00645249, 0.019834, 0.0164773, 0.000965376
0.108469, 1.69335, -1.2243, -1.53735, -0.899496, -1.19145, 1.22848, -1.30258, 0.042051, -0.000684821, -0.00122001, 0.000381824, -0.0015425, 0.000275209, -0.00187886, 0.737679, 55.1624, 26.1118, 5.87494, 1.31946, 3.52542, -0.00267457, 0.00111653, -0.000479027, -0.000775114, -0.000905328, -0.00181568, -0.00164852, 0.00844495, -0.0226723, -0.00549206, -0.0037653, 0.0209497, 0.043967, 0.470999, -0.542538, 0.336115, -2.08322, -2.16568, -0.12995, 0.470509, -0.541575, 0.337069, -2.0829, -2.16881, -0.129282, -0.000380238, 0.0256818, 0.00657343, 0.0223656, 0.0191261, -0.000853799
0.109469, 1.69338, -1.22429, -1.53734, -0.899493, -1.19145, 1.22848, -1.30258, 0.0377113, 0.000378656, 1.01841e-05, 0.000370018, -0.00119066, 0.000183481, -0.000981223, 0.737679, 55.1266, 26.0761, 5.87494, 1.31946, 3.52542, -0.00999879, 0.00110667, -0.000458626, -0.000773341, -0.000913299, -0.00183309, -0.00167407, 0.0104372, -0.0204565, -0.0042564, -0.00176233, 0.021824, 0.0395272, 0.470999, -0.542512, 0.336122, -2.0832, -2.16567, -0.129952, 0.470529, -0.541558, 0.337071, -2.08287, -2.16885, -0.129278, -0.000391882, 0.0261735, 0.00669522, 0.0202577, 0.0173694, 0.000245119
0.110469, 1.69342, -1.22429, -1.53734, -0.899492, -1.19146, 1.22848, -1.30258, 0.0383884, 0.00285088, 0.00176126, 0.00343891, -0.00591475, 0.000122326, -0.000654086, 0.701973, 55.0156, 26.0007, 5.87494, 1.32587, 3.52542, -0.00999879, 0.00109728, -0.000437716, -0.000774573, -0.000920168, -0.00185861, -0.00170424, 0.0118782, -0.0198654, -0.00184212, -0.000825231, 0.0281194, 0.0364378, 0.470998, -0.542486, 0.336128, -2.08318, -2.16567, -0.129954, 0.47055, -0.54154, 0.337077, -2.08283, -2.16889, -0.129265, -0.000403753, 0.0266691, 0.00681784, 0.0197954, 0.0160459, 0.00254486
0.111469, 1.69346, -1.22428, -1.53734, -0.899489, -1.19146, 1.22848, -1.30258, 0.0389713, 0.0027358, 0.000239575, 0.00261636, -0.0044313, 0.000352823, -0.000198651, 0.6623, 54.9799, 26.0404, 5.87494, 1.32587, 3.5181, -0.0164075, 0.00108611, -0.000416784, -0.000771203, -0.000923856, -0.00187983, -0.00173578, 0.0119467, -0.0203146, -0.002618, -0.00166526, 0.0274568, 0.0370832, 0.470998, -0.542459, 0.336135, -2.08317, -2.16566, -0.129956, 0.470571, -0.541523, 0.337078, -2.08279, -2.16893, -0.129252, -0.000415851, 0.0271686, 0.0069413, 0.0202061, 0.0166161, 0.00187753
0.112469, 1.6935, -1.22428, -1.53734, -0.899491, -1.19147, 1.22848, -1.30258, 0.0362326, 0.00182386, 0.000154784, 0.00115184, -0.00264213, -3.60489e-05, 0.000342319, 0.626595, 54.9799, 26.0404, 5.91064, 1.30755, 3.52542, -0.0292249, 0.0010757, -0.000395751, -0.000767619, -0.000927123, -0.00189883, -0.00176785, 0.0129585, -0.0192333, -0.00332139, -0.00150521, 0.0253102, 0.0357346, 0.470997, -0.542432, 0.336142, -2.08315, -2.16566, -0.129958, 0.470592, -0.541505, 0.33708, -2.08275, -2.16897, -0.129242, -0.000428179, 0.027672, 0.00706559, 0.0191246, 0.016185, 0.00118243
0.113469, 1.69354, -1.22428, -1.53734, -0.899488, -1.19147, 1.22848, -1.30258, 0.0402727, 0.00214392, -0.000735728, 0.00178522, -0.00271416, 0.000247237, 0.000465598, 0.586922, 54.9402, 26.0761, 5.87494, 1.32587, 3.5181, -0.0356336, 0.00106188, -0.000376547, -0.000764571, -0.000929928, -0.0019234, -0.00179296, 0.0120675, -0.0212322, -0.00359382, -0.00227352, 0.0263194, 0.0386276, 0.470997, -0.542404, 0.336149, -2.08313, -2.16565, -0.12996, 0.470611, -0.54149, 0.337081, -2.08272, -2.16901, -0.129225, -0.000440739, 0.0281791, 0.00719069, 0.0210664, 0.0176964, 0.00111593
0.114469, 1.69358, -1.22428, -1.53734, -0.899489, -1.19148, 1.22848, -1.30258, 0.0395194, -0.000333961, 0.0021052, 0.000491513, -0.00221882, 0.000436094, 7.30599e-05, 0.586922, 55.0156, 25.965, 5.91064, 1.33136, 3.51077, -0.0292249, 0.00104969, -0.000355019, -0.000759685, -0.000940443, -0.00193815, -0.00182333, 0.0121085, -0.0217265, -0.00421025, -1.42576e-05, 0.0238153, 0.0410285, 0.470997, -0.542376, 0.336156, -2.08311, -2.16564, -0.129962, 0.470632, -0.541472, 0.337081, -2.08268, -2.16905, -0.129227, -0.000453532, 0.0286901, 0.0073166, 0.0215261, 0.0182827, 0.00061137
0.115469, 1.69361, -1.22428, -1.53734, -0.899491, -1.19148, 1.22848, -1.30258, 0.0397501, 0.000612575, 0.000566165, -0.000497907, -0.00119285, 1.94634e-05, 0.000523439, 0.551216, 54.9799, 26.0007, 5.95032, 1.31946, 3.5181, -0.0420422, 0.00103682, -0.000334574, -0.00075388, -0.000941114, -0.00195711, -0.00185158, 0.0122247, -0.0218234, -0.0044317, -0.0015767, 0.0242818, 0.0412977, 0.470996, -0.542347, 0.336164, -2.08308, -2.16564, -0.129964, 0.470652, -0.541454, 0.33708, -2.08264, -2.16908, -0.129213, -0.00046656, 0.0292049, 0.00744332, 0.021606, 0.0187212, 0.000497984
0.116469, 1.69366, -1.22428, -1.53735, -0.89948, -1.19149, 1.22848, -1.30257, 0.0409399, 0.00217162, -0.00222257, 0.00243615, -0.00114843, -0.000258291, 0.00156967, 0.475838, 54.9045, 26.1118, 5.83527, 1.32587, 3.52542, -0.0750012, 0.0010186, -0.000317528, -0.000749486, -0.00093911, -0.0019842, -0.0018642, 0.0134932, -0.0212687, -0.00422842, -0.00278989, 0.0259958, 0.0375433, 0.470996, -0.542318, 0.336171, -2.08306, -2.16563, -0.129966, 0.470669, -0.541442, 0.33708, -2.08262, -2.16911, -0.129187, -0.000479825, 0.0297235, 0.00757084, 0.0210918, 0.0179336, 0.00064518
0.117469, 1.69369, -1.22429, -1.53735, -0.899485, -1.19149, 1.22848, -1.30257, 0.0392497, -0.00198593, -0.000647668, 0.00301195, -0.000852497, 9.90744e-05, 0.00057174, 0.511544, 55.0513, 26.0761, 5.91064, 1.32587, 3.5181, -0.0621838, 0.00100335, -0.000298055, -0.000740775, -0.000946538, -0.00199468, -0.00189604, 0.0150022, -0.0206398, -0.0059547, -0.000685519, 0.0219618, 0.0373407, 0.470995, -0.542288, 0.336179, -2.08304, -2.16563, -0.129968, 0.470688, -0.541425, 0.337076, -2.08257, -2.16914, -0.12919, -0.000493328, 0.0302458, 0.00769914, 0.0204415, 0.0172073, -0.00114717
0.118469, 1.69373, -1.22428, -1.53734, -0.899484, -1.1915, 1.22848, -1.30257, 0.0435678, -0.000488736, 0.00133058, 0.00230897, -0.00039613, 0.000337318, 0.000618525, 0.436165, 55.0156, 26.0007, 5.91064, 1.31946, 3.51077, -0.0685925, 0.000990983, -0.000275253, -0.000739695, -0.000957527, -0.00201718, -0.00192653, 0.0127855, -0.0236235, -0.00472622, 0.000681264, 0.0236403, 0.0432979, 0.470995, -0.542258, 0.336186, -2.08302, -2.16562, -0.129971, 0.470711, -0.541406, 0.33708, -2.08254, -2.16919, -0.129185, -0.000507072, 0.0307718, 0.00782823, 0.0233726, 0.0198552, 0.000448501
0.119469, 1.69376, -1.22429, -1.53734, -0.899482, -1.1915, 1.22848, -1.30257, 0.0419932, 0.00188959, -4.16243e-05, 0.00176507, -0.000550314, 0.000496146, -6.23631e-05, 0.436165, 55.0513, 26.0404, 5.91064, 1.32587, 3.50345, -0.0557752, 0.000971519, -0.000258639, -0.000733074, -0.00096211, -0.00203631, -0.00194753, 0.0139729, -0.022586, -0.00384027, -0.00016782, 0.0266902, 0.0421867, 0.470994, -0.542227, 0.336194, -2.083, -2.16561, -0.129973, 0.470728, -0.541392, 0.337077, -2.0825, -2.16921, -0.129175, -0.000521058, 0.0313016, 0.00795809, 0.0223977, 0.0190334, 0.00129934
0.120469, 1.6938, -1.22428, -1.53734, -0.899485, -1.19151, 1.22848, -1.30256, 0.0416082, 0.00318438, -0.000863461, -0.000417212, 0.000274641, 0.000602032, 0.00141649, 0.400459, 54.9799, 26.0761, 5.98602, 1.30755, 3.49612, -0.0951428, 0.000954331, -0.000240157, -0.000730057, -0.000964956, -0.00206396, -0.00196895, 0.0139383, -0.0227965, -0.00369144, -0.00118076, 0.027979, 0.0421371, 0.470994, -0.542196, 0.336202, -2.08297, -2.16561, -0.129975, 0.470746, -0.541377, 0.337079, -2.08247, -2.16925, -0.129155, -0.000535288, 0.031835, 0.00808872, 0.0225979, 0.0195869, 0.00157537
0.121469, 1.69383, -1.22428, -1.53734, -0.899478, -1.19151, 1.22848, -1.30257, 0.0389108, 0.0032416, 0.00118723, 0.00161208, -0.00472089, 0.000401355, 0.000673062, 0.325081, 54.9402, 26.0007, 5.91064, 1.31305, 3.49612, -0.0878186, 0.000936533, -0.000221003, -0.000729411, -0.000977388, -0.00208846, -0.0019942, 0.0168256, -0.0205895, -0.00256846, -0.000395573, 0.032022, 0.0377927, 0.470993, -0.542164, 0.33621, -2.08295, -2.1656, -0.129978, 0.470765, -0.541362, 0.337083, -2.08244, -2.16929, -0.129149, -0.000549763, 0.0323721, 0.00822011, 0.0205245, 0.0170097, 0.00243264
0.122469, 1.69387, -1.22428, -1.53734, -0.899486, -1.19152, 1.22848, -1.30256, 0.0402605, 0.00137605, -0.000136813, 0.00170737, -0.0079271, 0.00026757, -2.60078e-05, 0.245735, 54.9799, 26.0404, 6.02173, 1.30115, 3.49612, -0.0750012, 0.000920646, -0.000199666, -0.000720654, -0.00097712, -0.00210735, -0.00202617, 0.0178868, -0.0207387, -0.00424708, -0.003378, 0.0332345, 0.0380972, 0.470993, -0.542132, 0.336219, -2.08293, -2.16559, -0.12998, 0.470786, -0.541343, 0.33708, -2.0824, -2.16932, -0.129135, -0.000564485, 0.0329128, 0.00835225, 0.0206356, 0.0167687, 0.000737007
0.123469, 1.69391, -1.22429, -1.53734, -0.899488, -1.19152, 1.22847, -1.30256, 0.0417815, -0.000645822, -9.14172e-05, 0.000542978, -0.00995889, -0.000364155, 0.00120337, 0.134651, 55.0513, 26.0404, 6.0614, 1.28284, 3.51077, -0.10796, 0.000903843, -0.000179642, -0.000711769, -0.000977893, -0.00212049, -0.00205259, 0.0179457, -0.0215478, -0.00576143, -0.00568947, 0.0331123, 0.0388031, 0.470992, -0.542099, 0.336227, -2.0829, -2.16559, -0.129982, 0.470806, -0.541324, 0.337076, -2.08235, -2.16935, -0.129128, -0.000579456, 0.0334572, 0.00848514, 0.0213753, 0.0175227, -0.000659719
0.124469, 1.69394, -1.22428, -1.53734, -0.899486, -1.19153, 1.22848, -1.30257, 0.0380949, 0.000485106, -0.000896319, 0.00153957, -0.00755756, 0.000537124, -0.0014018, 0.0949785, 55.0156, 26.0761, 6.02173, 1.28284, 3.48971, -0.0484509, 0.000881926, -0.000163375, -0.000708729, -0.00098711, -0.00214537, -0.00207845, 0.0201213, -0.0195298, -0.0050162, -0.00325086, 0.0329683, 0.0373407, 0.470991, -0.542066, 0.336235, -2.08288, -2.16558, -0.129985, 0.470822, -0.541311, 0.337078, -2.08232, -2.16939, -0.129118, -0.000594677, 0.0340052, 0.00861877, 0.0194506, 0.0157249, -6.8179e-05
0.125469, 1.69398, -1.22428, -1.53734, -0.899483, -1.19153, 1.22847, -1.30256, 0.0393472, 0.00121895, -0.000597663, 0.00204877, -0.00504893, 0.000358083, -0.000663267, 0.0196001, 54.9799, 26.0761, 5.98602, 1.26453, 3.48971, -0.0557752, 0.000861304, -0.000146113, -0.00070743, -0.000995033, -0.00217238, -0.00209961, 0.019631, -0.0204012, -0.00453809, -0.00176431, 0.0319273, 0.0384132, 0.470991, -0.542032, 0.336244, -2.08286, -2.16557, -0.129987, 0.47084, -0.541297, 0.337081, -2.08229, -2.16943, -0.129104, -0.000610151, 0.0345567, 0.00875313, 0.0203052, 0.0167229, 0.00058737
0.126469, 1.69401, -1.22428, -1.53734, -0.899489, -1.19153, 1.22848, -1.30256, 0.0362655, 2.26603e-05, 0.00136471, -0.00109223, -0.0038825, 0.000509989, -0.000713444, -0.0161054, 55.0156, 26.0007, 6.09711, 1.26453, 3.48239, -0.0484509, 0.000842072, -0.000126163, -0.000701437, -0.00100394, -0.00219229, -0.00213133, 0.0201294, -0.0198954, -0.00485288, -0.000393289, 0.0303141, 0.0395716, 0.47099, -0.541997, 0.336253, -2.08283, -2.16557, -0.12999, 0.47086, -0.541279, 0.33708, -2.08224, -2.16947, -0.1291, -0.000625878, 0.0351119, 0.00888822, 0.0197908, 0.0168141, 0.000348861
0.127469, 1.69404, -1.22428, -1.53734, -0.899488, -1.19154, 1.22848, -1.30256, 0.0368346, 4.9041e-05, 0.000909739, -0.000622868, -0.00273838, 0.000339993, -0.000475629, -0.0557783, 55.0156, 26.0007, 6.09711, 1.25812, 3.48239, -0.0484509, 0.000819311, -0.000109297, -0.000696285, -0.00101194, -0.0022142, -0.00215001, 0.0204366, -0.0201232, -0.00502525, -0.000162485, 0.029728, 0.0396945, 0.47099, -0.541962, 0.336262, -2.0828, -2.16556, -0.129992, 0.470876, -0.541265, 0.33708, -2.08221, -2.1695, -0.129091, -0.00064186, 0.0356705, 0.00902402, 0.0200071, 0.017106, 0.000258994
0.128469, 1.69408, -1.22428, -1.53734, -0.899491, -1.19154, 1.22848, -1.30256, 0.0352955, 0.000893362, -0.000321576, -0.0012643, -0.00164143, 0.000226662, -0.00102916, -0.131157, 54.9799, 26.0404, 6.13678, 1.2453, 3.48239, -0.0292249, 0.000798332, -9.06833e-05, -0.000693166, -0.00101861, -0.002241, -0.00217756, 0.0214553, -0.0192721, -0.00503074, -0.000716292, 0.0301129, 0.039094, 0.470989, -0.541926, 0.336271, -2.08278, -2.16555, -0.129995, 0.470895, -0.541249, 0.337082, -2.08218, -2.16954, -0.129076, -0.000658099, 0.0362327, 0.00916054, 0.0191776, 0.0166285, 0.000256717
0.129469, 1.69411, -1.22428, -1.53734, -0.899491, -1.19154, 1.22847, -1.30256, 0.0300145, -0.000220555, -0.00188486, -0.000783645, -0.00154956, -0.000120159, -0.000686108, -0.166862, 55.0156, 26.1118, 6.13678, 1.25171, 3.48971, -0.0292249, 0.000773598, -7.4855e-05, -0.00068542, -0.00102331, -0.00226039, -0.00219707, 0.0249112, -0.0158988, -0.00596903, -0.00127874, 0.0290666, 0.0324555, 0.470988, -0.54189, 0.33628, -2.08275, -2.16554, -0.129998, 0.470911, -0.541235, 0.33708, -2.08214, -2.16956, -0.129067, -0.000674597, 0.0367984, 0.00929776, 0.0158825, 0.0137889, -0.000968493
0.130469, 1.69414, -1.22428, -1.53735, -0.899496, -1.19155, 1.22848, -1.30256, 0.0316087, -0.000967939, -0.00218462, -0.00214845, -0.000959119, 0.000191161, 0.00391917, -0.166862, 55.0513, 26.1515, 6.20819, 1.2453, 3.48239, -0.0356336, 0.00074799, -5.9143e-05, -0.000675538, -0.00102674, -0.00227931, -0.00221749, 0.0244306, -0.0171772, -0.00680777, -0.00184191, 0.0285893, 0.03073, 0.470988, -0.541853, 0.336289, -2.08273, -2.16554, -0.13, 0.470926, -0.541222, 0.337075, -2.08211, -2.16959, -0.129056, -0.000691354, 0.0373675, 0.00943568, 0.0170944, 0.0150155, -0.00162361
0.131469, 1.69417, -1.22428, -1.53734, -0.899501, -1.19154, 1.22848, -1.30256, 0.0275742, -0.000634555, 0.000306804, -0.00316222, 0.000119628, 0.000669975, 0.00319507, -0.206535, 55.0513, 26.0761, 6.28357, 1.2215, 3.46774, -0.0420422, 0.000726937, -3.92273e-05, -0.000673039, -0.00104315, -0.00230054, -0.00224789, 0.0257946, -0.0157787, -0.00566255, 0.00153001, 0.0284924, 0.0299632, 0.470987, -0.541816, 0.336299, -2.0827, -2.16553, -0.130003, 0.470946, -0.541204, 0.337078, -2.08207, -2.16963, -0.129059, -0.000708374, 0.0379402, 0.00957429, 0.0157721, 0.014007, -0.000524843
0.132469, 1.6942, -1.22428, -1.53734, -0.8995, -1.19154, 1.22848, -1.30256, 0.0304549, -0.000414984, 0.00020452, -0.00124795, -0.00424, -0.00450684, 0.00238875, -0.357292, 55.0513, 26.0761, 6.24786, 1.20868, 3.47507, -0.0420422, 0.000704873, -1.90127e-05, -0.000667949, -0.00105375, -0.00232025, -0.00227317, 0.0259992, -0.015504, -0.00595929, -0.00449118, 0.0300665, 0.0304614, 0.470986, -0.541778, 0.336308, -2.08267, -2.16552, -0.130006, 0.470966, -0.541186, 0.337078, -2.08203, -2.16966, -0.129056, -0.000725657, 0.0385162, 0.00971358, 0.015477, 0.0144161, -0.000702695
0.133469, 1.69423, -1.22428, -1.53734, -0.899501, -1.19155, 1.22848, -1.30256, 0.0286255, 0.00111674, -0.000698883, -0.000813226, -0.00352485, -0.00312347, 0.00154917, -0.357292, 55.1266, 26.1118, 6.24786, 1.21509, 3.46774, -0.0356336, 0.000676183, -4.30903e-06, -0.000658982, -0.0010616, -0.00233959, -0.00229334, 0.0275796, -0.0145271, -0.00514803, -0.00301322, 0.0320732, 0.0289398, 0.470985, -0.541739, 0.336318, -2.08264, -2.16551, -0.130009, 0.470981, -0.541174, 0.337074, -2.08199, -2.16969, -0.12905, -0.000743204, 0.0390957, 0.00985355, 0.0145708, 0.01327, 2.09342e-05
0.134469, 1.69427, -1.22428, -1.53734, -0.899506, -1.19155, 1.22848, -1.30256, 0.0291663, 0.0019396, -0.000465931, -0.00136331, -0.00201736, -0.00183242, 0.0011783, -0.43267, 55.087, 26.1118, 6.28357, 1.19678, 3.45309, -0.0356336, 0.00065284, 1.54837e-05, -0.000654682, -0.00107262, -0.00236388, -0.00232003, 0.0274793, -0.0153805, -0.00462158, -0.00115054, 0.032765, 0.0309792, 0.470985, -0.5417, 0.336328, -2.08262, -2.1655, -0.130011, 0.471001, -0.541157, 0.337075, -2.08195, -2.16973, -0.129043, -0.000761018, 0.0396786, 0.00999418, 0.0154212, 0.0139061, 0.000669974
0.135469, 1.69429, -1.22428, -1.53735, -0.899507, -1.19155, 1.22848, -1.30256, 0.030914, 0.00149337, -0.00123865, -0.00182636, -0.00204493, -0.00171236, 0.000182593, -0.43267, 55.087, 26.1515, 6.32324, 1.20868, 3.46042, -0.0164075, 0.000623511, 2.92518e-05, -0.000648323, -0.00108059, -0.00238627, -0.00233802, 0.027388, -0.016352, -0.00535081, -0.00214984, 0.0329696, 0.0337774, 0.470984, -0.541661, 0.336338, -2.08259, -2.1655, -0.130014, 0.471015, -0.541144, 0.337074, -2.08192, -2.16976, -0.129034, -0.000779099, 0.0402649, 0.0101355, 0.0163433, 0.0147359, 7.49002e-05
0.136469, 1.69432, -1.22429, -1.53734, -0.899512, -1.19155, 1.22848, -1.30255, 0.0299665, -0.000617424, 0.00010225, -0.00204488, -0.00111689, -0.00130618, 0.00213636, -0.468376, 55.1624, 26.1118, 6.35895, 1.19678, 3.46042, -0.0685925, 0.00059775, 4.77688e-05, -0.000641016, -0.00109523, -0.00240156, -0.00235959, 0.0281309, -0.0163199, -0.0061068, -0.000213242, 0.0306328, 0.0321225, 0.470983, -0.54162, 0.336348, -2.08256, -2.16549, -0.130017, 0.471033, -0.541128, 0.337073, -2.08189, -2.16979, -0.12904, -0.00079745, 0.0408545, 0.0102774, 0.016292, 0.0147083, -0.000645283
0.137469, 1.69436, -1.22428, -1.53734, -0.89952, -1.19154, 1.22848, -1.30256, 0.0342659, 0.000536276, -0.000859857, -0.00312056, -0.000890401, -0.000722978, 0.000739648, -0.583427, 55.1266, 26.1515, 6.43433, 1.19678, 3.45309, -0.0484509, 0.000575242, 6.94803e-05, -0.000637492, -0.00110388, -0.002429, -0.00239569, 0.0266101, -0.0189069, -0.00614404, -0.00140817, 0.0326003, 0.0383449, 0.470982, -0.541579, 0.336358, -2.08253, -2.16548, -0.13002, 0.471055, -0.541107, 0.337075, -2.08184, -2.16983, -0.129029, -0.000816072, 0.0414475, 0.01042, 0.0188007, 0.0169158, -0.00038256
0.138469, 1.69438, -1.22428, -1.53734, -0.89952, -1.19155, 1.22848, -1.30255, 0.0300206, 0.000442023, 0.00202522, -0.00207593, -0.000465599, -0.000574578, 0.00128513, -0.508049, 55.1266, 26.0404, 6.43433, 1.19037, 3.45309, -0.0685925, 0.000544108, 8.17019e-05, -0.000634533, -0.00112112, -0.00244926, -0.00240942, 0.0287574, -0.0168759, -0.00484206, 0.00270329, 0.0322492, 0.0342797, 0.470982, -0.541538, 0.336369, -2.0825, -2.16547, -0.130023, 0.471067, -0.541096, 0.337077, -2.08181, -2.16986, -0.129032, -0.000834967, 0.0420438, 0.0105633, 0.0168793, 0.0151072, 0.000772579
0.139469, 1.69441, -1.22428, -1.53734, -0.899523, -1.19154, 1.22847, -1.30255, 0.0327055, -0.00131237, -0.000320294, -0.00138062, 0.000285752, -0.000452497, 0.000653925, -0.543754, 55.1981, 26.1118, 6.43433, 1.17206, 3.45309, -0.0621838, 0.000516311, 9.97961e-05, -0.00062566, -0.00113105, -0.00246484, -0.00243216, 0.0289083, -0.0179519, -0.0067846, 0.000994709, 0.0305508, 0.0361523, 0.470981, -0.541496, 0.336379, -2.08247, -2.16546, -0.130026, 0.471085, -0.541079, 0.337074, -2.08177, -2.16989, -0.129033, -0.000854135, 0.0426434, 0.0107072, 0.0178685, 0.0159037, -0.00105893
0.140469, 1.69444, -1.22429, -1.53734, -0.899523, -1.19154, 1.22848, -1.30255, 0.0334303, -0.00342584, -0.00197677, 1.01092e-05, -0.00054918, 0.000154879, -4.67771e-05, -0.543754, 55.3091, 26.1872, 6.39465, 1.19037, 3.43936, -0.0484509, 0.000483769, 0.000114954, -0.0006157, -0.00114046, -0.00248442, -0.00244957, 0.0303969, -0.0178139, -0.00844971, 0.000179442, 0.0298694, 0.0353562, 0.47098, -0.541453, 0.33639, -2.08244, -2.16545, -0.130029, 0.4711, -0.541066, 0.33707, -2.08174, -2.16991, -0.129028, -0.000873578, 0.0432462, 0.0108517, 0.0177037, 0.0152898, -0.00278741
0.141469, 1.69447, -1.22428, -1.53734, -0.899534, -1.19154, 1.22848, -1.30255, 0.0352192, 0.00257897, 0.000445391, -0.00175462, 0.000265913, 0.000335457, -1.17603e-05, -0.583427, 55.2377, 26.1118, 6.47003, 1.17206, 3.43204, -0.0484509, 0.000458388, 0.000136256, -0.000614352, -0.00115851, -0.002514, -0.00248343, 0.0284645, -0.0196421, -0.00444114, 0.00233898, 0.0357599, 0.0400211, 0.470979, -0.54141, 0.336401, -2.08241, -2.16544, -0.130032, 0.471121, -0.541047, 0.337075, -2.08169, -2.16996, -0.129025, -0.000893298, 0.0438524, 0.0109968, 0.019588, 0.0172589, 0.00155962
0.142469, 1.6945, -1.22428, -1.53735, -0.899533, -1.19154, 1.22848, -1.30255, 0.0348671, 0.00421734, -0.00406477, -0.000333123, -0.000298135, -0.000348194, 6.72816e-06, -0.543754, 55.2734, 26.2983, 6.43433, 1.18396, 3.44668, -0.0484509, 0.000423324, 0.000148151, -0.000605169, -0.00115791, -0.00253922, -0.00249405, 0.0304966, -0.0181201, -0.00496819, -0.00146296, 0.0381145, 0.0360635, 0.470978, -0.541366, 0.336412, -2.08237, -2.16543, -0.130036, 0.471133, -0.541036, 0.337071, -2.08166, -2.16998, -0.129003, -0.000913297, 0.0444617, 0.0111426, 0.0181023, 0.0158813, 0.000913664
0.143469, 1.69453, -1.22429, -1.53734, -0.899533, -1.19154, 1.22848, -1.30255, 0.0336063, -0.00015114, -0.00011139, -0.00240108, 0.000656911, 1.71657e-05, -0.000221947, -0.468376, 55.4202, 26.1872, 6.39465, 1.16015, 3.43936, -0.0420422, 0.000391361, 0.000164474, -0.000599332, -0.00118203, -0.00255334, -0.00251667, 0.0305152, -0.0188198, -0.00636898, 0.00171106, 0.0334856, 0.0392107, 0.470977, -0.541322, 0.336423, -2.08234, -2.16542, -0.130039, 0.471149, -0.541021, 0.337071, -2.08163, -2.17001, -0.129021, -0.000933575, 0.0450743, 0.0112889, 0.0187297, 0.0167221, -0.000348404
0.144469, 1.69456, -1.22429, -1.53734, -0.899541, -1.19154, 1.22848, -1.30255, 0.0346623, -0.000582748, 0.00309745, -0.00278696, 0.000215027, -5.03574e-06, -0.00108921, -0.468376, 55.4559, 26.1872, 6.43433, 1.16565, 3.43936, -0.0164075, 0.000361439, 0.000184054, -0.000593425, -0.00119526, -0.00258082, -0.00254806, 0.0300151, -0.0200106, -0.00564552, 0.00402584, 0.0337037, 0.042916, 0.470976, -0.541277, 0.336434, -2.08231, -2.16541, -0.130042, 0.471169, -0.541004, 0.337071, -2.08158, -2.17005, -0.129014, -0.000954135, 0.0456901, 0.0114359, 0.0199073, 0.0177693, 0.000553086
0.145469, 1.69459, -1.22429, -1.53734, -0.899539, -1.19154, 1.22848, -1.30255, 0.0347531, -0.00188681, 0.000566037, -0.00347488, 0.000806923, 0.000255551, -0.000719991, -0.43267, 55.5313, 26.2626, 6.35895, 1.14734, 3.43204, -0.0164075, 0.000328095, 0.000200261, -0.000586653, -0.00120751, -0.00260291, -0.00256711, 0.0309725, -0.01991, -0.00743289, 0.00198895, 0.0327225, 0.0422866, 0.470975, -0.541231, 0.336446, -2.08228, -2.1654, -0.130045, 0.471185, -0.54099, 0.33707, -2.08155, -2.17008, -0.129011, -0.000974976, 0.0463091, 0.0115835, 0.0197545, 0.0177166, -0.00121142
0.146469, 1.69463, -1.22429, -1.53734, -0.899545, -1.19154, 1.22848, -1.30255, 0.0332443, 0.00138186, 0.000575589, -0.00272737, 0.00972297, 0.000161097, -0.000712744, -0.468376, 55.567, 26.2626, 6.35895, 1.15375, 3.43204, -0.00999879, 0.00029833, 0.000220883, -0.00058031, -0.00122037, -0.00262748, -0.00259834, 0.0304076, -0.0198202, -0.00538727, 0.00704619, 0.0289616, 0.043137, 0.470974, -0.541185, 0.336457, -2.08224, -2.16539, -0.130049, 0.471206, -0.540971, 0.33707, -2.0815, -2.17012, -0.129007, -0.000996102, 0.0469312, 0.0117316, 0.0196992, 0.0185761, 0.00104623
0.147469, 1.69466, -1.22429, -1.53734, -0.899548, -1.19153, 1.22848, -1.30255, 0.0335267, 0.00491966, 0.00146042, -0.00129112, 0.00841276, 0.000642981, -0.000234346, -0.43267, 55.6781, 26.2229, 6.32324, 1.12262, 3.41739, -0.0164075, 0.000265049, 0.000238685, -0.000572967, -0.00123784, -0.00264756, -0.00262175, 0.0311293, -0.0196871, -0.00281788, 0.008697, 0.0340668, 0.0416579, 0.470973, -0.541138, 0.336469, -2.08221, -2.16538, -0.130052, 0.471223, -0.540955, 0.337069, -2.08146, -2.17016, -0.129012, -0.00101751, 0.0475565, 0.0118804, 0.0196664, 0.0180857, 0.00362173
0.148469, 1.69469, -1.22428, -1.53734, -0.899555, -1.19154, 1.22848, -1.30256, 0.0296938, 0.00411088, -0.00160614, -0.00419744, 0.00571722, -0.000390363, -0.0016117, -0.357292, 55.6781, 26.3379, 6.32324, 1.13544, 3.43936, 0.0229602, 0.000230172, 0.000253806, -0.000567233, -0.00124247, -0.00267959, -0.00264601, 0.0337686, -0.0171765, -0.00471866, 0.00313415, 0.035756, 0.0394657, 0.470972, -0.54109, 0.336481, -2.08218, -2.16537, -0.130056, 0.471239, -0.54094, 0.337069, -2.08142, -2.17019, -0.128991, -0.00103921, 0.0481849, 0.0120297, 0.0171629, 0.0162998, 0.00155861
0.149469, 1.69472, -1.22429, -1.53734, -0.899554, -1.19153, 1.22848, -1.30256, 0.0308349, 0.000765453, -0.000987131, -0.00146716, 0.00472376, 0.000278382, -0.000835163, -0.317619, 55.7892, 26.3379, 6.24786, 1.12262, 3.42471, 0.0165515, 0.000194544, 0.000271534, -0.000559452, -0.00126053, -0.00270099, -0.00266625, 0.0351783, -0.0173889, -0.00613109, 0.00476645, 0.0337684, 0.0375018, 0.470971, -0.541042, 0.336493, -2.08214, -2.16536, -0.130059, 0.471256, -0.540925, 0.337067, -2.08139, -2.17022, -0.128995, -0.0010612, 0.0488164, 0.0121795, 0.0173518, 0.0157682, 8.5938e-05
0.150469, 1.69475, -1.22429, -1.53734, -0.899561, -1.19153, 1.22848, -1.30256, 0.0320025, 0.000142578, -0.000595365, -0.00130218, 0.00391816, 0.00072519, -0.000317958, -0.281914, 55.8249, 26.3379, 6.24786, 1.11072, 3.41006, 0.0101428, 0.000163119, 0.000291454, -0.000554742, -0.00127533, -0.00272608, -0.0026964, 0.0355415, -0.018077, -0.00640505, 0.00509761, 0.0344766, 0.0379733, 0.47097, -0.540993, 0.336505, -2.08211, -2.16535, -0.130063, 0.471276, -0.540906, 0.337069, -2.08134, -2.17026, -0.128992, -0.00108347, 0.049451, 0.01233, 0.0180199, 0.016116, -0.000113412
0.151469, 1.69478, -1.22428, -1.53734, -0.899566, -1.19153, 1.22848, -1.30256, 0.0358389, -0.000389545, -0.00118509, -0.00328757, 0.00285824, 0.00048126, -0.000210878, -0.242241, 55.8606, 26.3736, 6.20819, 1.11072, 3.41006, 0.0101428, 0.000127, 0.000308811, -0.000549845, -0.00129073, -0.00275663, -0.0027184, 0.0342571, -0.0204102, -0.00747537, 0.00242145, 0.0354821, 0.0428085, 0.470969, -0.540944, 0.336517, -2.08207, -2.16534, -0.130066, 0.471293, -0.540891, 0.33707, -2.08131, -2.1703, -0.128984, -0.00110604, 0.0500886, 0.012481, 0.0202413, 0.018285, -0.000891787
0.152469, 1.69482, -1.22428, -1.53734, -0.89957, -1.19153, 1.22848, -1.30255, 0.0333155, 0.00220623, -0.00158999, -0.00490434, 0.00256481, 0.000556549, 0.0013183, -0.242241, 55.9003, 26.4094, 6.17248, 1.0979, 3.40365, -0.0292249, 9.24424e-05, 0.000328802, -0.000543874, -0.00130669, -0.00278436, -0.0027411, 0.0354573, -0.019219, -0.00622863, 0.00197031, 0.0388974, 0.0399136, 0.470968, -0.540894, 0.33653, -2.08203, -2.16533, -0.13007, 0.471313, -0.540873, 0.337071, -2.08127, -2.17034, -0.12898, -0.0011289, 0.0507293, 0.0126325, 0.0191189, 0.0174987, 0.000338544
0.153469, 1.69484, -1.22428, -1.53735, -0.899574, -1.19152, 1.22848, -1.30256, 0.0296092, 0.00414077, -0.00196156, -0.00302399, 0.00205177, 0.00091233, -0.0010533, -0.166862, 55.936, 26.449, 6.13678, 1.09241, 3.38901, 0.0229602, 5.36366e-05, 0.000343047, -0.000538421, -0.00132139, -0.00281082, -0.00276459, 0.0383551, -0.0166323, -0.0047831, 0.0034819, 0.0416266, 0.0366479, 0.470967, -0.540843, 0.336542, -2.082, -2.16532, -0.130073, 0.471328, -0.540859, 0.337072, -2.08123, -2.17037, -0.128976, -0.00115205, 0.051373, 0.0127846, 0.0166717, 0.0149509, 0.00154334
0.154469, 1.69487, -1.22428, -1.53734, -0.89958, -1.19152, 1.22848, -1.30255, 0.0299933, 0.00224469, -0.00128786, -0.00556264, 0.00103088, 6.47574e-05, 0.000756324, -0.0914839, 56.1185, 26.449, 6.13678, 1.10431, 3.40365, -0.0164075, 1.51626e-05, 0.000360362, -0.000528413, -0.00133753, -0.0028323, -0.00278373, 0.0382511, -0.0172969, -0.00615403, 0.0015631, 0.0408103, 0.0375025, 0.470966, -0.540792, 0.336555, -2.08196, -2.16531, -0.130077, 0.471345, -0.540844, 0.337068, -2.08119, -2.1704, -0.128978, -0.0011755, 0.0520197, 0.0129373, 0.0172573, 0.0159412, 0.000336892
0.155469, 1.6949, -1.22428, -1.53734, -0.899586, -1.19152, 1.22848, -1.30255, 0.0299364, 0.00455967, -0.000843688, -0.00650787, 0.00212147, 4.24756e-05, 0.000504562, -0.131157, 56.1581, 26.449, 6.09711, 1.06769, 3.40365, -0.0164075, -1.94846e-05, 0.000381508, -0.00052352, -0.00135492, -0.00286078, -0.00281409, 0.0381251, -0.0176279, -0.00481783, 0.0023251, 0.0427295, 0.0391189, 0.470965, -0.54074, 0.336568, -2.08192, -2.1653, -0.130081, 0.471366, -0.540824, 0.33707, -2.08114, -2.17044, -0.128975, -0.00119924, 0.0526694, 0.0130904, 0.0176096, 0.0165223, 0.00181721
0.156469, 1.69493, -1.22428, -1.53735, -0.89959, -1.19152, 1.22848, -1.30255, 0.0278767, 0.00606067, -0.00231453, -0.00644876, 0.000557191, 0.00057033, 0.000811352, -0.0914839, 56.1938, 26.5244, 6.02173, 1.09241, 3.38901, -0.0292249, -5.928e-05, 0.000397451, -0.000517817, -0.00136755, -0.00289189, -0.00283235, 0.0402571, -0.016099, -0.0043413, 0.00138484, 0.0462616, 0.0355159, 0.470963, -0.540687, 0.336581, -2.08189, -2.16528, -0.130085, 0.471382, -0.540809, 0.337071, -2.08111, -2.17047, -0.128963, -0.00122328, 0.0533221, 0.0132441, 0.0161542, 0.0149335, 0.00215378
0.157469, 1.69496, -1.22428, -1.53734, -0.899597, -1.19152, 1.22848, -1.30255, 0.0264444, 0.00460054, -0.00153465, -0.00830793, 0.000415267, 0.000651096, 0.000541096, -0.0557783, 56.3406, 26.5244, 6.02173, 1.09241, 3.38168, -0.0292249, -9.85475e-05, 0.000416276, -0.000509551, -0.00138748, -0.00291731, -0.00285815, 0.0410302, -0.0158747, -0.00514604, 0.00141714, 0.045502, 0.0364044, 0.470962, -0.540634, 0.336594, -2.08185, -2.16527, -0.130089, 0.4714, -0.540793, 0.337069, -2.08107, -2.17051, -0.128966, -0.00124762, 0.0539777, 0.0133983, 0.0159043, 0.0149422, 0.00139809
0.158469, 1.69496, -1.22428, -1.53734, -0.899597, -1.19152, 1.22848, -1.30255, 0.0264444, 0.00460054, -0.00153465, -0.00830793, 0.000415267, 0.000651096, 0.000541096, -0.0557783, 56.3406, 26.5244, 6.02173, 1.09241, 3.38168, -0.0292249, -0.000153958, 0.000415675, -0.000504764, -0.00141025, -0.00294499, -0.00284641, 0.0417056, -0.0158763, -0.00519409, 0.00155479, 0.0459713, 0.0364574, 0.470961, -0.54058, 0.336608, -2.08181, -2.16526, -0.130092, 0.4714, -0.540793, 0.337069, -2.08107, -2.17051, -0.128966, -0.00127226, 0.0546363, 0.013553, 0.0159043, 0.0149422, 0.00139809
0.159469, 1.69502, -1.22427, -1.53734, -0.899611, -1.19152, 1.22848, -1.30255, 0.0249454, 0.00738694, -0.00327163, -0.00662751, 8.41709e-05, 0.000198537, 0.000240694, -0.0161054, 56.3763, 26.6355, 5.95032, 1.086, 3.38168, -0.0292249, -0.000178668, 0.000449887, -0.000500071, -0.00141479, -0.00298371, -0.00290376, 0.0436625, -0.0141882, -0.00394877, 0.000898783, 0.0491862, 0.032862, 0.47096, -0.540525, 0.336621, -2.08177, -2.16525, -0.130096, 0.471434, -0.54076, 0.337073, -2.08099, -2.17058, -0.128942, -0.0012972, 0.0552977, 0.0137082, 0.0143115, 0.0134089, 0.00252731
0.160469, 1.69505, -1.22427, -1.53733, -0.899622, -1.19151, 1.22848, -1.30255, 0.0220349, 0.00812459, 0.000420903, -0.00832513, 0.000752763, 0.00040346, 0.000160545, -0.0161054, 56.416, 26.5244, 5.95032, 1.06769, 3.37436, -0.0292249, -0.000215261, 0.000470885, -0.000498141, -0.00144105, -0.00301277, -0.00293781, 0.0441777, -0.0136813, -0.00232125, 0.00445382, 0.0497677, 0.0336032, 0.470958, -0.54047, 0.336635, -2.08173, -2.16524, -0.1301, 0.471455, -0.54074, 0.337078, -2.08094, -2.17063, -0.128949, -0.00132244, 0.0559621, 0.013864, 0.0138599, 0.0132914, 0.00422325
0.161469, 1.69508, -1.22426, -1.53733, -0.899629, -1.19151, 1.22848, -1.30255, 0.025984, 0.00556933, -0.00138718, -0.00855771, 0.000515703, -0.00392877, -0.000367626, -0.0161054, 56.4517, 26.5958, 5.91064, 1.06769, 3.36062, -0.0164075, -0.000256591, 0.000489348, -0.000492261, -0.00145677, -0.00304686, -0.00296368, 0.0432607, -0.0148582, -0.0051342, -0.00180493, 0.046015, 0.037374, 0.470957, -0.540414, 0.336649, -2.08169, -2.16522, -0.130104, 0.471473, -0.540723, 0.337079, -2.0809, -2.17067, -0.128939, -0.00134799, 0.0566293, 0.0140202, 0.0148715, 0.0153504, 0.00170802
0.162469, 1.69511, -1.22426, -1.53733, -0.899641, -1.19151, 1.22848, -1.30255, 0.0241922, 0.00603305, -8.7585e-05, -0.00974372, 0.000354197, -0.00301146, -7.67915e-06, 0.059273, 56.5231, 26.5601, 5.91064, 1.06769, 3.36062, -0.0228162, -0.000298408, 0.000505393, -0.000488155, -0.00147388, -0.00307899, -0.00298793, 0.0442025, -0.014489, -0.00443911, -5.43125e-05, 0.0475043, 0.0369021, 0.470956, -0.540357, 0.336663, -2.08165, -2.16521, -0.130108, 0.47149, -0.540706, 0.337082, -2.08086, -2.17071, -0.128932, -0.00137384, 0.0572994, 0.0141769, 0.0145376, 0.014968, 0.00241325
0.163469, 1.69513, -1.22426, -1.53733, -0.899649, -1.1915, 1.22848, -1.30255, 0.0246785, 0.00606451, 0.00145356, -0.00658087, 0.000481287, -0.00253921, 0.000232274, 0.059273, 56.5985, 26.6355, 5.87494, 1.06128, 3.36703, -0.0292249, -0.000342529, 0.000521899, -0.000481044, -0.00149156, -0.00310923, -0.00300855, 0.0453105, -0.0144279, -0.00346614, 0.00333984, 0.0477735, 0.0352189, 0.470954, -0.5403, 0.336677, -2.08161, -2.1652, -0.130113, 0.471506, -0.540691, 0.337082, -2.08082, -2.17075, -0.128928, -0.0014, 0.0579723, 0.0143341, 0.0145276, 0.0143943, 0.00335752
0.164469, 1.69516, -1.22425, -1.53733, -0.899659, -1.19151, 1.22848, -1.30256, 0.0273102, 0.00491123, 0.000407746, -0.00818798, -0.000148012, -0.00140484, -0.00252389, 0.0949785, 56.5985, 26.6712, 5.87494, 1.0741, 3.3533, 0.0431018, -0.000386761, 0.000538565, -0.000478363, -0.00151222, -0.00314845, -0.00303909, 0.044927, -0.0162374, -0.00482389, 0.00198692, 0.0484744, 0.0413365, 0.470953, -0.540242, 0.336692, -2.08157, -2.16519, -0.130117, 0.471523, -0.540675, 0.337086, -2.08078, -2.1708, -0.128918, -0.00142646, 0.058648, 0.0144917, 0.0162436, 0.0157358, 0.0021767
0.165469, 1.69519, -1.22424, -1.53732, -0.89967, -1.1915, 1.22848, -1.30255, 0.0286078, 0.00392533, -0.000357943, -0.0053075, 0.000380428, -0.00137332, 0.000284115, 0.0196001, 56.5985, 26.7069, 5.83527, 1.06128, 3.36062, -0.00999879, -0.000426154, 0.000560337, -0.000474885, -0.00153188, -0.0031824, -0.00306698, 0.0460537, -0.0162746, -0.00538606, 0.00282902, 0.0473873, 0.0371715, 0.470951, -0.540183, 0.336706, -2.08153, -2.16517, -0.130121, 0.471544, -0.540654, 0.33709, -2.08074, -2.17084, -0.128913, -0.00145324, 0.0593266, 0.0146499, 0.0162744, 0.0153918, 0.00160032
0.166469, 1.69521, -1.22425, -1.53732, -0.899683, -1.1915, 1.22848, -1.30255, 0.0259778, 0.00199811, 0.000750672, -0.0104246, 0.000256908, -0.000768399, 0.000189424, 0.0949785, 56.781, 26.6712, 5.83527, 1.06128, 3.3533, -0.00999879, -0.0004721, 0.000576532, -0.000465435, -0.00155535, -0.00320478, -0.00309154, 0.0464473, -0.0162714, -0.00669239, 0.0022132, 0.0466554, 0.039726, 0.47095, -0.540124, 0.336721, -2.08148, -2.16516, -0.130125, 0.47156, -0.540638, 0.337088, -2.08069, -2.17087, -0.128923, -0.00148032, 0.0600079, 0.0148084, 0.0162098, 0.0158884, 0.00040603
0.167469, 1.69524, -1.22423, -1.53732, -0.899694, -1.19149, 1.22848, -1.30255, 0.0258781, 0.00446749, -0.00198245, -0.0101752, 0.00469084, -6.28213e-05, 0.000363653, 0.0949785, 56.6739, 26.7823, 5.79956, 1.06769, 3.33865, -0.0164075, -0.000516062, 0.000593429, -0.000465803, -0.0015714, -0.00324945, -0.00311471, 0.0467943, -0.0162648, -0.00615875, 0.00298826, 0.0464713, 0.0394217, 0.470949, -0.540064, 0.336735, -2.08144, -2.16515, -0.130129, 0.471577, -0.540621, 0.337096, -2.08066, -2.17092, -0.128903, -0.00150772, 0.0606919, 0.0149675, 0.0162088, 0.0161474, 0.00103583
0.168469, 1.69527, -1.22424, -1.53731, -0.899706, -1.19149, 1.22848, -1.30256, 0.0247926, 0.00412548, -0.00039974, -0.0108484, 0.0079849, 0.000159569, -0.00121562, 0.134651, 56.781, 26.7466, 5.79956, 1.0741, 3.33133, 0.0229602, -0.000561982, 0.000611434, -0.000459366, -0.00159906, -0.00327754, -0.0031461, 0.0468524, -0.0165022, -0.00586497, 0.00605373, 0.0439531, 0.0424549, 0.470947, -0.540003, 0.33675, -2.0814, -2.16513, -0.130134, 0.471595, -0.540604, 0.337096, -2.08061, -2.17096, -0.128913, -0.00153542, 0.0613787, 0.015127, 0.0164317, 0.0167418, 0.00146695
0.169469, 1.69527, -1.22424, -1.53731, -0.899706, -1.19149, 1.22848, -1.30256, 0.0247926, 0.00412548, -0.00039974, -0.0108484, 0.0079849, 0.000159569, -0.00121562, 0.134651, 56.781, 26.7466, 5.79956, 1.0741, 3.33133, 0.0229602, -0.000624984, 0.000610852, -0.000454075, -0.001625, -0.00330908, -0.00313293, 0.0475595, -0.0165058, -0.00591261, 0.00620239, 0.0444421, 0.0425108, 0.470946, -0.539942, 0.336766, -2.08135, -2.16512, -0.130138, 0.471595, -0.540604, 0.337096, -2.08061, -2.17096, -0.128913, -0.00156344, 0.0620682, 0.0152869, 0.0164317, 0.0167418, 0.00146695
0.170469, 1.69527, -1.22424, -1.53731, -0.899706, -1.19149, 1.22848, -1.30256, 0.0247926, 0.00412548, -0.00039974, -0.0108484, 0.0079849, 0.000159569, -0.00121562, 0.134651, 56.781, 26.7466, 5.79956, 1.0741, 3.33133, 0.0229602, -0.000688692, 0.000610272, -0.000448739, -0.00165123, -0.00334098, -0.00311962, 0.0482692, -0.0165097, -0.00596018, 0.00635206, 0.0449329, 0.042567, 0.470944, -0.53988, 0.336781, -2.08131, -2.16511, -0.130143, 0.471595, -0.540604, 0.337096, -2.08061, -2.17096, -0.128913, -0.00159178, 0.0627604, 0.0154473, 0.0164317, 0.0167418, 0.00146695
0.171469, 1.69527, -1.22424, -1.53731, -0.899706, -1.19149, 1.22848, -1.30256, 0.0247926, 0.00412548, -0.00039974, -0.0108484, 0.0079849, 0.000159569, -0.00121562, 0.134651, 56.781, 26.7466, 5.79956, 1.0741, 3.33133, 0.0229602, -0.000753109, 0.000609695, -0.000443358, -0.00167776, -0.00337324, -0.00310618, 0.0489818, -0.0165137, -0.00600768, 0.00650275, 0.0454252, 0.0426234, 0.470942, -0.539817, 0.336796, -2.08126, -2.16509, -0.130147, 0.471595, -0.540604, 0.337096, -2.08061, -2.17096, -0.128913, -0.00162043, 0.0634553, 0.0156081, 0.0164317, 0.0167418, 0.00146695
0.172469, 1.69536, -1.22422, -1.53729, -0.899768, -1.19147, 1.22848, -1.30256, 0.0237919, 0.00423445, 0.00882609, -0.0142697, 0.00665338, 0.000798255, 0.000876353, 0.325081, 56.9318, 26.8934, 5.6488, 1.0979, 3.30295, -0.00267457, -0.000746165, 0.000683417, -0.000443082, -0.0016904, -0.00341691, -0.0032578, 0.0475047, -0.0182911, -0.00309212, 0.0131765, 0.047101, 0.0466003, 0.470941, -0.539753, 0.336812, -2.08122, -2.16508, -0.130152, 0.471667, -0.54053, 0.337111, -2.08043, -2.17114, -0.128903, -0.00164939, 0.0641529, 0.0157694, 0.0182341, 0.0185185, 0.00468009
0.173469, 1.69539, -1.22422, -1.53728, -0.899788, -1.19147, 1.22848, -1.30256, 0.0203944, 0.00502512, 0.00828305, -0.0131521, 0.0130263, -2.69329e-05, 0.000109519, 0.360787, 57.0032, 26.9687, 5.6131, 1.13544, 3.31759, 0.0101428, -0.000794902, 0.000699981, -0.000436342, -0.00170831, -0.00345174, -0.0032867, 0.0487563, -0.0165975, -0.00260824, 0.016219, 0.0425898, 0.044964, 0.470939, -0.539689, 0.336828, -2.08117, -2.16506, -0.130156, 0.471684, -0.540512, 0.337111, -2.08038, -2.17118, -0.128895, -0.00167868, 0.0648531, 0.015931, 0.0165779, 0.0178378, 0.00517421
0.174469, 1.69541, -1.22421, -1.53727, -0.899808, -1.19146, 1.22848, -1.30256, 0.0178138, 0.00639563, 0.00866236, -0.0123481, 0.0146018, 0.000240886, 7.30143e-05, 0.400459, 57.0389, 27.0084, 5.57739, 1.13544, 3.31027, 0.0101428, -0.000842264, 0.000718487, -0.000431741, -0.00173371, -0.00348468, -0.00331819, 0.0503668, -0.0152437, -0.00144541, 0.0185671, 0.0431186, 0.042498, 0.470937, -0.539624, 0.336844, -2.08113, -2.16505, -0.130161, 0.471702, -0.540493, 0.337115, -2.08033, -2.17123, -0.128898, -0.00170828, 0.065556, 0.0160931, 0.0152996, 0.0167139, 0.00627175
0.175469, 1.69543, -1.22421, -1.53727, -0.899827, -1.19146, 1.22848, -1.30255, 0.0198129, 0.00716139, 0.00899447, -0.014852, 0.0106104, 0.000693806, 4.86773e-05, 0.400459, 57.0786, 27.0441, 5.53772, 1.14734, 3.29562, 0.0101428, -0.000889855, 0.000738446, -0.000426866, -0.0017582, -0.00352105, -0.00334808, 0.0501488, -0.016603, -0.00133923, 0.016112, 0.0481372, 0.0455444, 0.470936, -0.539559, 0.33686, -2.08108, -2.16503, -0.130166, 0.471722, -0.540473, 0.337118, -2.08029, -2.17128, -0.128896, -0.0017382, 0.0662614, 0.0162556, 0.0166237, 0.0176757, 0.00652828
0.176469, 1.69545, -1.22421, -1.53726, -0.899852, -1.19145, 1.22848, -1.30255, 0.0235912, 0.00562878, 0.00930601, -0.0176275, 0.00738299, 0.00018428, 0.00149051, 0.436165, 57.0786, 27.0798, 5.53772, 1.16565, 3.30295, -0.0292249, -0.000938034, 0.000756742, -0.00042169, -0.00178009, -0.00355619, -0.00337925, 0.0490375, -0.018968, -0.00280645, 0.0125582, 0.0498461, 0.049405, 0.470934, -0.539493, 0.336876, -2.08103, -2.16502, -0.13017, 0.47174, -0.540452, 0.337121, -2.08024, -2.17132, -0.128893, -0.00176845, 0.0669695, 0.0164185, 0.0188597, 0.0198091, 0.0053407
0.177469, 1.69548, -1.2242, -1.53725, -0.899875, -1.19145, 1.22848, -1.30255, 0.0272511, 0.00355819, 0.00803759, -0.0196432, 0.00518793, 0.000388879, 0.000518959, 0.436165, 57.1143, 27.0441, 5.53772, 1.17847, 3.29562, -0.0164075, -0.000986017, 0.000775753, -0.000418062, -0.00180307, -0.00359315, -0.00341603, 0.0484608, -0.0210791, -0.00497345, 0.00905756, 0.0505616, 0.0544926, 0.470932, -0.539426, 0.336892, -2.08098, -2.165, -0.130175, 0.471759, -0.540431, 0.337125, -2.08018, -2.17138, -0.12889, -0.00179901, 0.0676801, 0.0165817, 0.0208347, 0.021516, 0.00338674
0.178469, 1.69549, -1.22419, -1.53725, -0.899894, -1.19144, 1.22848, -1.30255, 0.0250054, 0.00673625, 0.00572173, -0.0193979, 0.00401411, 0.000255321, 0.000583332, 0.511544, 57.0786, 27.1909, 5.46234, 1.17847, 3.29562, -0.0228162, -0.00103998, 0.00079006, -0.000413882, -0.00182498, -0.00363383, -0.00343715, 0.0506614, -0.0191524, -0.00383437, 0.0072678, 0.0551894, 0.050483, 0.47093, -0.539358, 0.336909, -2.08094, -2.16499, -0.13018, 0.471773, -0.540416, 0.337129, -2.08014, -2.17142, -0.12888, -0.0018299, 0.0683933, 0.0167454, 0.0190039, 0.0197998, 0.0043875
0.179469, 1.69552, -1.22419, -1.53724, -0.899919, -1.19143, 1.22848, -1.30255, 0.0228691, 0.00660163, 0.00860852, -0.0201422, 0.00709307, 0.0007098, -8.58295e-05, 0.475838, 57.15, 27.1552, 5.42664, 1.19678, 3.28097, -0.00999879, -0.00108752, 0.000811675, -0.000408424, -0.00185134, -0.00366648, -0.00347865, 0.0509677, -0.0190608, -0.00288993, 0.0117317, 0.053075, 0.0521889, 0.470929, -0.53929, 0.336926, -2.08089, -2.16497, -0.130185, 0.471794, -0.540392, 0.337132, -2.08008, -2.17147, -0.128886, -0.00186112, 0.069109, 0.0169095, 0.0189287, 0.0200629, 0.00543623
0.180469, 1.69553, -1.22418, -1.53723, -0.899955, -1.19142, 1.22848, -1.30255, 0.021675, 0.00596109, 0.0089429, -0.0234082, 0.00499024, 0.000979615, 0.00112958, 0.551216, 57.1143, 27.1909, 5.50201, 1.20868, 3.26724, -0.0420422, -0.0011371, 0.00082946, -0.000405932, -0.00187263, -0.00371004, -0.00351237, 0.0517034, -0.019009, -0.00356154, 0.0100154, 0.0550331, 0.0521713, 0.470927, -0.53922, 0.336943, -2.08084, -2.16496, -0.13019, 0.471812, -0.540371, 0.337138, -2.08003, -2.17153, -0.128874, -0.00189266, 0.0698272, 0.0170739, 0.0188474, 0.0201584, 0.00482136
0.181469, 1.69555, -1.22418, -1.53723, -0.899979, -1.19141, 1.22848, -1.30255, 0.0185758, 0.00508716, 0.00595293, -0.0251245, 0.00385359, 0.000922685, 0.000515691, 0.586922, 57.2253, 27.2306, 5.42664, 1.20868, 3.25992, -0.0356336, -0.00119021, 0.000847941, -0.000398065, -0.00190132, -0.00374155, -0.00354161, 0.0542481, -0.0170205, -0.005259, 0.00657565, 0.0558306, 0.0494698, 0.470925, -0.539151, 0.33696, -2.08079, -2.16494, -0.130195, 0.47183, -0.540352, 0.337138, -2.07998, -2.17157, -0.128882, -0.00192452, 0.0705479, 0.0172387, 0.0168591, 0.0185497, 0.00297107
0.182469, 1.69558, -1.22418, -1.53721, -0.900007, -1.19141, 1.22848, -1.30255, 0.0203718, 0.00554699, 0.00779619, -0.0234923, 0.00228596, 0.000613879, 0.000106436, 0.586922, 57.2968, 27.2306, 5.35126, 1.22699, 3.25992, -0.0292249, -0.00123992, 0.000868411, -0.000393216, -0.00192643, -0.00377675, -0.00358075, 0.0545185, -0.0177477, -0.00427746, 0.00788708, 0.0577193, 0.0506387, 0.470923, -0.53908, 0.336977, -2.08074, -2.16492, -0.1302, 0.47185, -0.540328, 0.337142, -2.07992, -2.17163, -0.128883, -0.00195671, 0.0712712, 0.0174039, 0.0176009, 0.0188844, 0.00403699
