alisrour97/Franka_experiments/Real_Robot_scripts/servo-franka/Data3/log_dyn_INIT0_l_ki_8.csv
Time,q1,q2,q3,q4,q5,q6,q7,dq1,dq2,dq3,dq4,dq5,dq6,dq7,t1,t2,t3,t4,t5,t6,t7,ex1,ex2,ex3,ex4,ex5,ex6,ev1,ev2,ev3,ev4,ev5,ev6,xd,yd,zd,uxd,uyd,uzd,x,y,z,ux,uy,uz,vxd,vyd,vzd,vx,vy,vz
1.2207e-06, 1.69135, -1.22717, -1.53872, -0.900237, -1.19197, 1.22823, -1.30269, 0.00460073, -0.00185884, 0.000433547, 0.00300419, 0.0044079, 0.00611957, 0.00118444, -0.809562, 61.5338, 29.4642, 6.95801, 1.89075, 3.33865, -0.101552, 0.000689191, -0.00170194, 0.00133134, 0.00138742, 0.00108266, 0.000141497, -0.00129692, -0.00363706, -0.000227709, 0.00830847, -0.0025819, 0.00244639, 0.471008, -0.543389, 0.335894, -2.08385, -2.16584, -0.129887, 0.469224, -0.54258, 0.334741, -2.08272, -2.16452, -0.129405, -4.82042e-07, 4.44613e-06, 1.21621e-06, 0.00357729, 0.00146865, -0.000131946
0.0132952, 1.69139, -1.22718, -1.53871, -0.900246, -1.19191, 1.22828, -1.3027, 0.00188957, -0.00217384, -0.000242781, -0.00214636, 0.00446293, 0.00241634, -0.0016762, -0.884941, 61.6092, 29.4642, 7.1048, 1.84131, 3.31027, -0.0228162, 0.000714169, -0.00166553, 0.00133019, 0.00132254, 0.00111243, 7.09394e-05, -0.00183783, -0.00248171, -0.00154917, 0.00247502, -0.0043582, 0.00683912, 0.471008, -0.543389, 0.335894, -2.08385, -2.16584, -0.129887, 0.469271, -0.542548, 0.334741, -2.08265, -2.16462, -0.129539, -1.47349e-06, 1.36697e-05, 3.70923e-06, 0.0023554, 0.00216801, -0.00131553
0.0142952, 1.69139, -1.22718, -1.53871, -0.900246, -1.19191, 1.22828, -1.3027, 0.00188957, -0.00217384, -0.000242781, -0.00214636, 0.00446293, 0.00241634, -0.0016762, -0.884941, 61.6092, 29.4642, 7.1048, 1.84131, 3.31027, -0.0228162, 0.000714161, -0.00166553, 0.00133019, 0.00132254, 0.00111243, 7.09402e-05, -0.00182409, -0.0024827, -0.00155062, 0.00247696, -0.00435203, 0.00684026, 0.471008, -0.543389, 0.335894, -2.08385, -2.16584, -0.129887, 0.469271, -0.542548, 0.334741, -2.08265, -2.16462, -0.129539, -2.9032e-06, 2.69793e-05, 7.30333e-06, 0.0023554, 0.00216801, -0.00131553
0.0152952, 1.69139, -1.22718, -1.53871, -0.900246, -1.19191, 1.22828, -1.3027, 0.00188957, -0.00217384, -0.000242781, -0.00214636, 0.00446293, 0.00241634, -0.0016762, -0.884941, 61.6092, 29.4642, 7.1048, 1.84131, 3.31027, -0.0228162, 0.000714141, -0.00166553, 0.00133019, 0.00132254, 0.00111242, 7.09426e-05, -0.00180546, -0.00248405, -0.00155258, 0.0024796, -0.00434365, 0.00684181, 0.471008, -0.543389, 0.335894, -2.08385, -2.16584, -0.129887, 0.469271, -0.542548, 0.334741, -2.08265, -2.16462, -0.129539, -4.83863e-06, 4.50071e-05, 1.21677e-05, 0.0023554, 0.00216801, -0.00131553
0.0162952, 1.69139, -1.22718, -1.53871, -0.900246, -1.19191, 1.22828, -1.3027, 0.00188957, -0.00217384, -0.000242781, -0.00214636, 0.00446293, 0.00241634, -0.0016762, -0.884941, 61.6092, 29.4642, 7.1048, 1.84131, 3.31027, -0.0228162, 0.000714102, -0.00166552, 0.0013302, 0.00132253, 0.00111241, 7.09472e-05, -0.00178138, -0.00248578, -0.0015551, 0.00248302, -0.00433282, 0.00684381, 0.471008, -0.543389, 0.335894, -2.08385, -2.16584, -0.129887, 0.469271, -0.542548, 0.334741, -2.08265, -2.16462, -0.129539, -7.34058e-06, 6.83239e-05, 1.84546e-05, 0.0023554, 0.00216801, -0.00131553
0.0172952, 1.69139, -1.22718, -1.53871, -0.900246, -1.19191, 1.22828, -1.3027, 0.00188957, -0.00217384, -0.000242781, -0.00214636, 0.00446293, 0.00241634, -0.0016762, -0.884941, 61.6092, 29.4642, 7.1048, 1.84131, 3.31027, -0.0228162, 0.000714037, -0.00166552, 0.0013302, 0.00132251, 0.00111238, 7.09548e-05, -0.00175133, -0.00248794, -0.00155825, 0.0024873, -0.00431929, 0.00684632, 0.471008, -0.543389, 0.335894, -2.08385, -2.16584, -0.129887, 0.469271, -0.542548, 0.334741, -2.08265, -2.16462, -0.129539, -1.04607e-05, 9.7416e-05, 2.62933e-05, 0.0023554, 0.00216801, -0.00131553
0.0182952, 1.69139, -1.22718, -1.53871, -0.900246, -1.19191, 1.22828, -1.3027, 0.00188957, -0.00217384, -0.000242781, -0.00214636, 0.00446293, 0.00241634, -0.0016762, -0.884941, 61.6092, 29.4642, 7.1048, 1.84131, 3.31027, -0.0228162, 0.000713941, -0.00166551, 0.00133021, 0.00132248, 0.00111235, 7.09661e-05, -0.00171493, -0.00249056, -0.00156206, 0.00249251, -0.00430289, 0.00684935, 0.471008, -0.543389, 0.335894, -2.08385, -2.16584, -0.129887, 0.469271, -0.542548, 0.334741, -2.08265, -2.16462, -0.129539, -1.42391e-05, 0.000132663, 3.57838e-05, 0.0023554, 0.00216801, -0.00131553
0.0192952, 1.69139, -1.22718, -1.53871, -0.900246, -1.19191, 1.22828, -1.3027, 0.00188957, -0.00217384, -0.000242781, -0.00214636, 0.00446293, 0.00241634, -0.0016762, -0.884941, 61.6092, 29.4642, 7.1048, 1.84131, 3.31027, -0.0228162, 0.000713806, -0.0016655, 0.00133023, 0.00132245, 0.0011123, 7.09819e-05, -0.00167191, -0.00249365, -0.00156656, 0.00249867, -0.00428351, 0.00685293, 0.471008, -0.543389, 0.335894, -2.08385, -2.16584, -0.129887, 0.469271, -0.542548, 0.334741, -2.08265, -2.16462, -0.129539, -1.87016e-05, 0.000174312, 4.69907e-05, 0.0023554, 0.00216801, -0.00131553
0.0202952, 1.69139, -1.22718, -1.53871, -0.900246, -1.19191, 1.22828, -1.3027, 0.00188957, -0.00217384, -0.000242781, -0.00214636, 0.00446293, 0.00241634, -0.0016762, -0.884941, 61.6092, 29.4642, 7.1048, 1.84131, 3.31027, -0.0228162, 0.000713628, -0.00166549, 0.00133025, 0.0013224, 0.00111224, 7.10028e-05, -0.00162218, -0.00249722, -0.00157174, 0.00250581, -0.00426108, 0.00685708, 0.471008, -0.543389, 0.335894, -2.08385, -2.16584, -0.129887, 0.469271, -0.542548, 0.334741, -2.08265, -2.16462, -0.129539, -2.38577e-05, 0.00022246, 5.99368e-05, 0.0023554, 0.00216801, -0.00131553
0.0212952, 1.69139, -1.22718, -1.53871, -0.900246, -1.19191, 1.22828, -1.3027, 0.00188957, -0.00217384, -0.000242781, -0.00214636, 0.00446293, 0.00241634, -0.0016762, -0.884941, 61.6092, 29.4642, 7.1048, 1.84131, 3.31027, -0.0228162, 0.000713399, -0.00166547, 0.00133027, 0.00132234, 0.00111216, 7.10297e-05, -0.00156583, -0.00250126, -0.00157761, 0.00251393, -0.00423564, 0.00686177, 0.471008, -0.543389, 0.335894, -2.08385, -2.16584, -0.129887, 0.469271, -0.542548, 0.334741, -2.08265, -2.16462, -0.129539, -2.96979e-05, 0.000277024, 7.45974e-05, 0.0023554, 0.00216801, -0.00131553
0.0222954, 1.69139, -1.22718, -1.53871, -0.900246, -1.19191, 1.22828, -1.3027, 0.00188957, -0.00217384, -0.000242781, -0.00214636, 0.00446293, 0.00241634, -0.0016762, -0.884941, 61.6092, 29.4642, 7.1048, 1.84131, 3.31027, -0.0228162, 0.000713114, -0.00166545, 0.0013303, 0.00132227, 0.00111206, 7.10631e-05, -0.00150314, -0.00250576, -0.00158413, 0.00252299, -0.00420733, 0.006867, 0.471008, -0.543388, 0.335894, -2.08385, -2.16584, -0.129887, 0.469271, -0.542548, 0.334741, -2.08265, -2.16462, -0.129539, -3.61913e-05, 0.000337726, 9.08941e-05, 0.0023554, 0.00216801, -0.00131553
0.0232954, 1.69139, -1.22718, -1.53871, -0.900246, -1.19191, 1.22828, -1.3027, 0.00188957, -0.00217384, -0.000242781, -0.00214636, 0.00446293, 0.00241634, -0.0016762, -0.884941, 61.6092, 29.4642, 7.1048, 1.84131, 3.31027, -0.0228162, 0.000712765, -0.00166543, 0.00133034, 0.00132218, 0.00111194, 7.11039e-05, -0.00143433, -0.00251068, -0.00159126, 0.00253297, -0.00417623, 0.00687274, 0.471008, -0.543388, 0.335894, -2.08385, -2.16584, -0.129887, 0.469271, -0.542548, 0.334741, -2.08265, -2.16462, -0.129539, -4.33151e-05, 0.00040436, 0.000108769, 0.0023554, 0.00216801, -0.00131553
0.0242954, 1.69139, -1.22718, -1.53871, -0.900246, -1.19191, 1.22828, -1.3027, 0.00188957, -0.00217384, -0.000242781, -0.00214636, 0.00446293, 0.00241634, -0.0016762, -0.884941, 61.6092, 29.4642, 7.1048, 1.84131, 3.31027, -0.0228162, 0.000712348, -0.0016654, 0.00133038, 0.00132207, 0.0011118, 7.11527e-05, -0.00135942, -0.00251604, -0.00159902, 0.00254386, -0.00414234, 0.00687899, 0.471008, -0.543388, 0.335894, -2.08385, -2.16584, -0.129887, 0.469271, -0.542548, 0.334741, -2.08265, -2.16462, -0.129539, -5.10658e-05, 0.000476901, 0.000128212, 0.0023554, 0.00216801, -0.00131553
0.0252954, 1.69139, -1.22718, -1.53871, -0.900246, -1.19191, 1.22828, -1.3027, 0.00188957, -0.00217384, -0.000242781, -0.00214636, 0.00446293, 0.00241634, -0.0016762, -0.884941, 61.6092, 29.4642, 7.1048, 1.84131, 3.31027, -0.0228162, 0.000711856, -0.00166536, 0.00133043, 0.00132194, 0.00111163, 7.12102e-05, -0.00127844, -0.00252183, -0.00160738, 0.00255568, -0.00410568, 0.00688574, 0.471008, -0.543387, 0.335894, -2.08385, -2.16584, -0.129887, 0.469271, -0.542548, 0.334741, -2.08265, -2.16462, -0.129539, -5.94401e-05, 0.000555325, 0.000149214, 0.0023554, 0.00216801, -0.00131553
0.0262954, 1.69144, -1.22718, -1.5387, -0.900252, -1.19183, 1.22828, -1.3027, 0.00534952, -0.000756835, -0.00502965, 0.000540063, 0.00576811, -0.000222807, 0.000269091, -1.11108, 61.6806, 29.3888, 7.1048, 1.74335, 3.30295, -0.0814099, 0.000754124, -0.0016216, 0.00133503, 0.00128774, 0.00117849, -1.75989e-05, -0.00160187, -0.0026652, -0.00252293, -0.0024474, -0.0048478, 0.00412097, 0.471008, -0.543387, 0.335895, -2.08385, -2.16584, -0.129887, 0.469313, -0.542503, 0.334742, -2.08254, -2.16469, -0.129654, -6.84344e-05, 0.000639605, 0.000171766, 0.00244498, 0.00271838, -0.00215114
0.0272954, 1.69145, -1.22719, -1.53871, -0.900259, -1.19183, 1.22828, -1.3027, 0.00396744, -0.000508434, -0.00468701, -0.00142853, 0.00473464, -0.000145533, -0.00222812, -1.11108, 61.6806, 29.4245, 7.18018, 1.73053, 3.30295, -0.0164075, 0.000759068, -0.00161628, 0.00133785, 0.00129152, 0.00118361, -3.49106e-05, -0.00136117, -0.00228944, -0.00245849, -0.00324693, -0.00356724, 0.00679887, 0.471008, -0.543386, 0.335895, -2.08384, -2.16584, -0.129887, 0.469318, -0.542497, 0.33474, -2.08252, -2.16471, -0.129657, -7.80454e-05, 0.000729718, 0.000195859, 0.00207103, 0.00254557, -0.00208945
0.0282954, 1.69145, -1.2272, -1.5387, -0.900257, -1.19183, 1.22828, -1.3027, 0.00118255, -0.0039669, -0.00229998, 0.000791883, 0.00526445, 0.000956393, -0.000298625, -1.0357, 61.5695, 29.238, 7.1048, 1.68201, 3.27456, -0.0484509, 0.000758078, -0.00161466, 0.00134208, 0.0012845, 0.00119485, -3.487e-05, 0.00047149, -0.000982463, -0.00310211, 0.00125916, -0.00729012, 0.00157205, 0.471008, -0.543385, 0.335895, -2.08384, -2.16584, -0.129887, 0.46932, -0.542496, 0.334736, -2.08252, -2.1647, -0.129676, -8.82697e-05, 0.000825639, 0.000221482, 0.000797806, 0.000877828, -0.00294439
0.0292954, 1.69146, -1.2272, -1.53871, -0.900262, -1.19183, 1.22829, -1.3027, 0.00370524, -0.00227198, -0.00497967, -0.00175918, 0.000900812, 0.00172436, 7.21768e-05, -1.15075, 61.1292, 29.0912, 7.06909, 1.63257, 3.24527, -0.0557752, 0.000762653, -0.00160648, 0.00134652, 0.00129388, 0.00119092, -4.53903e-05, 4.14982e-05, -0.00212143, -0.00348742, -0.00389867, -0.00112625, 0.00315206, 0.471008, -0.543384, 0.335895, -2.08384, -2.16584, -0.129887, 0.469327, -0.54249, 0.334732, -2.0825, -2.16471, -0.129663, -9.91039e-05, 0.000927342, 0.000248628, 0.00189518, 0.00150994, -0.0032653
0.0302954, 1.69148, -1.22721, -1.53871, -0.900267, -1.19183, 1.22828, -1.3027, 0.00703189, -0.00547879, -0.00334983, -0.00601517, 0.00265786, 0.0013882, -0.000460514, -1.18645, 60.7245, 28.7937, 6.99371, 1.57123, 3.23886, -0.0420422, 0.000767871, -0.00159909, 0.00135399, 0.00130054, 0.00120175, -6.24231e-05, -0.00300693, -0.00542656, -0.00559835, -0.00473897, -0.00550594, 0.0121347, 0.471007, -0.543383, 0.335895, -2.08384, -2.16584, -0.129887, 0.469334, -0.542482, 0.334726, -2.08248, -2.16472, -0.129668, -0.000110545, 0.0010348, 0.000277287, 0.0049994, 0.00508704, -0.00494751
0.0312954, 1.69148, -1.22721, -1.53872, -0.900269, -1.19183, 1.22828, -1.3027, 0.00688658, -0.000641731, -0.00611255, -0.00434367, 0.00344205, 0.000417789, 0.00869232, -1.11108, 60.2444, 28.6429, 6.84296, 1.52179, 3.25259, -0.0292249, 0.000766313, -0.0015978, 0.00136083, 0.00131476, 0.00120007, -6.02532e-05, -0.00246648, -0.00431734, -0.00359511, -0.0064002, -0.00172224, 0.000231857, 0.471007, -0.543382, 0.335896, -2.08384, -2.16584, -0.129887, 0.469335, -0.542482, 0.334719, -2.08247, -2.16472, -0.129651, -0.000122588, 0.001148, 0.000307449, 0.0039712, 0.00431297, -0.00298976
0.0322954, 1.69149, -1.22722, -1.53873, -0.900274, -1.19183, 1.22828, -1.3027, 0.00804266, -0.000332034, -0.00518658, -0.00427006, 0.00237747, -0.00131446, 0.0046516, -1.07537, 60.0223, 28.4961, 6.73187, 1.5163, 3.29562, 0.0229602, 0.000766633, -0.00159403, 0.00137539, 0.00133478, 0.00121147, -7.21002e-05, -0.00302656, -0.0046786, -0.00329987, -0.00769101, -0.00137575, 0.0054435, 0.471007, -0.543381, 0.335896, -2.08384, -2.16584, -0.129887, 0.469338, -0.542478, 0.334705, -2.08244, -2.16471, -0.129641, -0.000135232, 0.0012669, 0.000339106, 0.00430998, 0.00495415, -0.00259054
0.0332954, 1.6915, -1.22725, -1.53875, -0.900281, -1.19184, 1.22828, -1.3027, 0.00864614, -0.00511018, -0.0102967, -0.00517383, 0.00105366, -0.00114704, 0.00321848, -1.0357, 60.0223, 28.4565, 6.65649, 1.5282, 3.30295, 0.0357776, 0.000766123, -0.00158857, 0.00139935, 0.00135897, 0.00123379, -8.24869e-05, -0.00164277, -0.00429633, -0.00807412, -0.0135319, -0.00448457, 0.00545788, 0.471007, -0.54338, 0.335896, -2.08384, -2.16584, -0.129887, 0.469343, -0.542473, 0.334681, -2.08241, -2.1647, -0.129638, -0.000148472, 0.00139149, 0.000372248, 0.0037921, 0.00443181, -0.00747485
0.0342954, 1.69151, -1.22727, -1.53876, -0.900291, -1.19184, 1.22829, -1.30271, 0.00748679, -0.00958895, -0.0079682, -0.00670287, -0.000721784, 0.000558138, 0.00306446, -0.920646, 59.9509, 28.3097, 6.62079, 1.56482, 3.26724, 0.0229602, 0.000764987, -0.00158365, 0.00141172, 0.00136893, 0.00123654, -9.2571e-05, -0.000981499, -0.00459956, -0.00989388, -0.0117405, -0.00664047, 0.00642275, 0.471007, -0.543379, 0.335897, -2.08384, -2.16584, -0.129888, 0.469347, -0.542471, 0.334669, -2.08239, -2.16471, -0.129631, -0.000162305, 0.00152173, 0.000406866, 0.00403907, 0.00420174, -0.00934886
0.0352954, 1.69152, -1.22728, -1.53878, -0.900292, -1.19185, 1.22829, -1.3027, 0.0121876, -0.0151327, -0.0138428, -0.0050635, -0.0021258, 0.00223736, 0.00454619, -0.884941, 59.9866, 28.3454, 6.47003, 1.60785, 3.21689, -0.0356336, 0.000761884, -0.00157806, 0.00142912, 0.00138738, 0.00124091, -8.96495e-05, -0.000246894, -0.00609585, -0.015121, -0.0164666, -0.0097387, 0.00496135, 0.471007, -0.543377, 0.335897, -2.08384, -2.16584, -0.129888, 0.469352, -0.54247, 0.334652, -2.08238, -2.16469, -0.129615, -0.000176727, 0.00165761, 0.000442951, 0.00535657, 0.00447817, -0.0146333
0.0362954, 1.69153, -1.2273, -1.53878, -0.900306, -1.19186, 1.22829, -1.3027, 0.0147999, -0.0158769, -0.0145626, -0.0115504, -0.00213355, 0.00176306, 0.00328059, -0.658806, 60.0223, 28.2343, 6.5097, 1.62616, 3.20956, -0.0356336, 0.000762124, -0.00157414, 0.00144304, 0.00140178, 0.00125111, -0.00010152, -0.00301333, -0.00881832, -0.0169064, -0.0210412, -0.00994706, 0.0141621, 0.471007, -0.543375, 0.335898, -2.08384, -2.16584, -0.129888, 0.469355, -0.542465, 0.334638, -2.08235, -2.1647, -0.129611, -0.000191736, 0.0017991, 0.000480493, 0.00789713, 0.00773698, -0.0160114
0.0372954, 1.69153, -1.2273, -1.53878, -0.900306, -1.19186, 1.22829, -1.3027, 0.0147999, -0.0158769, -0.0145626, -0.0115504, -0.00213355, 0.00176306, 0.00328059, -0.658806, 60.0223, 28.2343, 6.5097, 1.62616, 3.20956, -0.0356336, 0.000760266, -0.001574, 0.00144324, 0.00140128, 0.00125046, -0.000101304, -0.00286151, -0.00882906, -0.0169217, -0.0210182, -0.00987769, 0.0141748, 0.471006, -0.543374, 0.335898, -2.08384, -2.16584, -0.129888, 0.469355, -0.542465, 0.334638, -2.08235, -2.1647, -0.129611, -0.000207328, 0.00194618, 0.000519485, 0.00789713, 0.00773698, -0.0160114
0.0382954, 1.69156, -1.22732, -1.5388, -0.900314, -1.19186, 1.2283, -1.3027, 0.0219166, -0.0139374, -0.014202, -0.00630603, 0.000141464, -0.00035776, 0.00132786, -0.508049, 60.0223, 28.1986, 6.32324, 1.58954, 3.24527, -0.0292249, 0.000767701, -0.0015572, 0.00146299, 0.00142553, 0.00125978, -0.000126348, -0.00523703, -0.011558, -0.0155042, -0.0199161, -0.0110495, 0.0194773, 0.471006, -0.543372, 0.335899, -2.08384, -2.16584, -0.129888, 0.469371, -0.542452, 0.33462, -2.08231, -2.16471, -0.129596, -0.0002235, 0.00209882, 0.000559916, 0.0105726, 0.0101283, -0.0142848
0.0392954, 1.69158, -1.22733, -1.5388, -0.900318, -1.19187, 1.2283, -1.3027, 0.0196048, -0.0115062, -0.0122596, -0.0065064, -0.00415586, 0.00380226, 7.28086e-06, -0.468376, 60.062, 28.1232, 6.24786, 1.57764, 3.25992, -0.00267457, 0.000774205, -0.00154375, 0.00147157, 0.00143239, 0.00126374, -0.000148365, -0.0034556, -0.0108927, -0.0129458, -0.0161111, -0.0031559, 0.0181552, 0.471006, -0.54337, 0.335899, -2.08384, -2.16584, -0.129888, 0.469383, -0.542442, 0.334613, -2.08228, -2.16473, -0.129595, -0.000240248, 0.00225699, 0.000601779, 0.0100475, 0.00810678, -0.0119732
0.0402954, 1.69159, -1.22732, -1.53881, -0.900325, -1.19187, 1.2283, -1.3027, 0.0125689, -0.00603726, -0.0094871, -0.00761218, -0.0022567, 0.00213695, -0.00134026, -0.206535, 59.9509, 28.1232, 6.20819, 1.55292, 3.28097, 0.0357776, 0.000773973, -0.00153993, 0.0014734, 0.00144357, 0.00125041, -0.000157663, -0.00213039, -0.0075029, -0.00869583, -0.0131961, -0.000308086, 0.0154105, 0.471006, -0.543367, 0.3359, -2.08384, -2.16584, -0.129888, 0.469387, -0.542439, 0.334611, -2.08227, -2.16474, -0.12957, -0.000257569, 0.00242068, 0.000645063, 0.00684552, 0.00616933, -0.00783688
0.0412954, 1.69161, -1.22732, -1.53882, -0.900335, -1.19188, 1.22831, -1.3027, 0.0173529, -0.0029853, -0.0081455, -0.00701042, -0.000652824, 0.00116861, -0.000122151, -0.206535, 59.8755, 28.1589, 6.24786, 1.52179, 3.29562, 0.0165515, 0.000783557, -0.00152421, 0.00147764, 0.00145653, 0.00124143, -0.000187609, -0.00488563, -0.0102486, -0.0066983, -0.0122964, 0.00102971, 0.0195315, 0.471005, -0.543365, 0.3359, -2.08384, -2.16584, -0.129889, 0.469402, -0.542426, 0.334609, -2.08223, -2.16477, -0.12955, -0.00027546, 0.00258986, 0.000689759, 0.00954333, 0.00886345, -0.0054749
0.0422954, 1.69162, -1.22733, -1.53883, -0.900344, -1.19188, 1.22831, -1.3027, 0.0134537, -0.003461, -0.00709752, -0.0117214, -0.00442049, 0.000180146, 0.00094637, 0.0949785, 59.9152, 28.1986, 6.24786, 1.49707, 3.31759, -0.00999879, 0.000783585, -0.0015188, 0.00148601, 0.00147, 0.00123893, -0.0001956, -0.00390206, -0.00871323, -0.00715845, -0.0156388, 0.00346123, 0.0180038, 0.471005, -0.543362, 0.335901, -2.08383, -2.16584, -0.129889, 0.469407, -0.542422, 0.334601, -2.08222, -2.16477, -0.129533, -0.000293917, 0.0027645, 0.00073586, 0.00801008, 0.0080751, -0.00598955
0.0432954, 1.69164, -1.22733, -1.53883, -0.90035, -1.19189, 1.22832, -1.30269, 0.0147285, -0.00438485, -0.00612127, -0.0111354, -0.00754154, 4.38973e-05, 0.00161369, 0.245735, 59.9866, 28.2343, 6.20819, 1.47876, 3.324, -0.0356336, 0.000787422, -0.00150694, 0.00149145, 0.00147649, 0.00123095, -0.000209104, -0.00362119, -0.00912266, -0.0073714, -0.0163267, 0.0050404, 0.0175387, 0.471005, -0.54336, 0.335902, -2.08383, -2.16584, -0.129889, 0.469418, -0.542414, 0.334597, -2.0822, -2.16479, -0.129519, -0.000312938, 0.00294458, 0.000783355, 0.0084023, 0.00802743, -0.00620825
0.0442954, 1.69165, -1.22734, -1.53884, -0.900368, -1.1919, 1.22832, -1.3027, 0.0127051, -0.00499178, -0.00625986, -0.0143891, -0.0105367, -0.0012062, 0.000863445, 0.511544, 60.062, 28.3097, 6.32324, 1.47876, 3.36062, -0.0292249, 0.00079107, -0.00149799, 0.00149921, 0.00149615, 0.00122155, -0.000232247, -0.00294806, -0.00814753, -0.00825019, -0.0201814, 0.00658988, 0.0180971, 0.471005, -0.543357, 0.335903, -2.08383, -2.16584, -0.129889, 0.469426, -0.542406, 0.33459, -2.08217, -2.16481, -0.129491, -0.000332518, 0.00313007, 0.000832236, 0.00740119, 0.00764377, -0.00710219
0.0452954, 1.69167, -1.22734, -1.53885, -0.90038, -1.19191, 1.22833, -1.3027, 0.0177898, -0.00439206, -0.00624831, -0.0123403, -0.00870313, 0.00370032, -0.00133839, 0.6623, 60.0977, 28.3851, 6.39465, 1.49707, 3.36703, 0.0229602, 0.000795407, -0.00148531, 0.00150477, 0.00150842, 0.00120674, -0.000257992, -0.00431226, -0.0116517, -0.00746735, -0.0147886, 0.00817731, 0.0241503, 0.471004, -0.543354, 0.335903, -2.08383, -2.16584, -0.129889, 0.469438, -0.542397, 0.334586, -2.08214, -2.16484, -0.129465, -0.000352655, 0.00332096, 0.000882495, 0.0108602, 0.00920433, -0.00617283
0.0462954, 1.69168, -1.22735, -1.53885, -0.900387, -1.19192, 1.22833, -1.3027, 0.018097, -0.00653345, -0.00523464, -0.0113502, -0.0117223, 0.00653252, -0.00135291, 0.963814, 60.2444, 28.4208, 6.35895, 1.50989, 3.39633, 0.0357776, 0.000793034, -0.00147971, 0.00151279, 0.00151508, 0.00120257, -0.000266681, -0.00306976, -0.0120129, -0.00801653, -0.0125715, 0.00986727, 0.0231331, 0.471004, -0.54335, 0.335904, -2.08383, -2.16584, -0.12989, 0.469443, -0.542395, 0.334578, -2.08213, -2.16485, -0.129454, -0.000373345, 0.00351722, 0.000934121, 0.0112248, 0.00827328, -0.00686721
0.0472954, 1.6917, -1.22736, -1.53885, -0.900389, -1.19193, 1.22834, -1.3027, 0.0158269, -0.0132553, -0.00450038, -0.00667201, -0.0144593, 0.00535923, -0.000891391, 1.07887, 60.3555, 28.4565, 6.28357, 1.53461, 3.38901, 0.0357776, 0.000793504, -0.00146838, 0.00151897, 0.0015177, 0.00119291, -0.000280883, 0.000432144, -0.0094381, -0.0110594, -0.0121761, 0.00440022, 0.0159099, 0.471004, -0.543347, 0.335905, -2.08383, -2.16583, -0.12989, 0.469454, -0.54239, 0.334573, -2.08212, -2.16487, -0.129443, -0.000394586, 0.00371881, 0.000987107, 0.00864744, 0.00538074, -0.0102848
0.0482954, 1.69171, -1.22737, -1.53886, -0.900398, -1.19195, 1.22835, -1.30269, 0.0163817, -0.0128815, -0.00489505, -0.00820621, -0.0109564, 0.00828321, 0.00110907, 1.22962, 60.5023, 28.5319, 6.28357, 1.5401, 3.40365, -0.00999879, 0.000793525, -0.00145835, 0.00152861, 0.00152809, 0.00118528, -0.000291217, -0.000398275, -0.0109597, -0.0109865, -0.00909954, 0.00362657, 0.0167947, 0.471003, -0.543343, 0.335906, -2.08382, -2.16583, -0.12989, 0.469463, -0.542384, 0.334564, -2.0821, -2.16488, -0.129426, -0.000416373, 0.00392573, 0.00104144, 0.0101183, 0.00645853, -0.0100754
0.0492954, 1.69174, -1.22737, -1.53886, -0.900399, -1.19196, 1.22836, -1.30269, 0.0194098, -0.0108091, -0.00596049, -0.00445499, -0.00885142, 0.0052752, 0.000982676, 1.26533, 60.5777, 28.6429, 6.20819, 1.55932, 3.43204, -0.0164075, 0.000795131, -0.00144531, 0.00153719, 0.00154116, 0.00117357, -0.000307697, -0.00111433, -0.0112978, -0.0100717, -0.0101467, 0.00241476, 0.0168007, 0.471003, -0.543339, 0.335907, -2.08382, -2.16583, -0.129891, 0.469475, -0.542377, 0.334556, -2.08208, -2.1649, -0.129401, -0.000438704, 0.00413795, 0.00109712, 0.0104409, 0.0072507, -0.00901553
0.0502954, 1.69176, -1.22738, -1.53887, -0.900401, -1.19198, 1.22837, -1.30269, 0.017986, -0.0100554, -0.00497568, -0.00186012, -0.00720542, 0.00749451, 0.000659568, 1.305, 60.6848, 28.6826, 6.13678, 1.57764, 3.46774, -0.0164075, 0.000796324, -0.00143198, 0.00154414, 0.00154748, 0.00116152, -0.000325266, 0.000141449, -0.0106871, -0.0086726, -0.00503632, 0.00268328, 0.0144765, 0.471002, -0.543335, 0.335908, -2.08382, -2.16583, -0.129891, 0.469488, -0.54237, 0.33455, -2.08207, -2.16492, -0.129384, -0.000461575, 0.00435543, 0.00115413, 0.00990361, 0.0059881, -0.00775349
0.0512954, 1.69178, -1.22738, -1.53888, -0.900398, -1.192, 1.22837, -1.3027, 0.0175116, -0.00788939, -0.00597107, 0.000102733, -0.010183, 0.0085183, -0.00101501, 1.305, 60.7245, 28.7937, 6.0614, 1.58313, 3.52542, 0.0229602, 0.000794897, -0.00142149, 0.0015488, 0.00155922, 0.00114114, -0.00033893, 0.00186379, -0.00963698, -0.00738939, -0.00517911, 0.00776893, 0.0124686, 0.471002, -0.543331, 0.335909, -2.08382, -2.16583, -0.129891, 0.469498, -0.542366, 0.334546, -2.08205, -2.16494, -0.129352, -0.000484983, 0.00457817, 0.00121247, 0.00893935, 0.00427, -0.00666377
0.0522954, 1.6918, -1.22738, -1.53888, -0.900396, -1.19201, 1.22838, -1.3027, 0.0187306, -0.00545291, -0.00578558, 0.000681191, -0.0110891, 0.0090014, -0.00142016, 1.38038, 60.7245, 28.8691, 6.02173, 1.55292, 3.58951, 0.0431018, 0.000792979, -0.00141344, 0.00155184, 0.00156696, 0.00112592, -0.000349194, 0.00169139, -0.0101831, -0.00585725, -0.00469308, 0.0112609, 0.0133327, 0.471001, -0.543326, 0.335911, -2.08382, -2.16583, -0.129892, 0.469505, -0.542362, 0.334544, -2.08204, -2.16496, -0.129329, -0.000508925, 0.00480613, 0.00127212, 0.00950997, 0.00445466, -0.00508098
0.0532954, 1.69183, -1.22739, -1.53889, -0.900397, -1.19204, 1.22839, -1.30269, 0.0249628, -0.00804915, -0.00555871, -0.00071038, -0.0177346, 0.00635117, 0.00125915, 1.38038, 60.907, 28.9405, 6.0614, 1.55292, 3.61148, -0.0164075, 0.000791289, -0.00140053, 0.00156174, 0.00157758, 0.00111047, -0.000356722, -1.27482e-05, -0.0128595, -0.00807881, -0.0117063, 0.0132206, 0.0159762, 0.471001, -0.543321, 0.335912, -2.08381, -2.16583, -0.129892, 0.469517, -0.542357, 0.334535, -2.08204, -2.16497, -0.129303, -0.000533398, 0.00503929, 0.00133308, 0.0120172, 0.00682173, -0.00702982
0.0542954, 1.69185, -1.2274, -1.53889, -0.900394, -1.19206, 1.22839, -1.3027, 0.024207, -0.00723808, -0.00465724, -0.000650953, -0.0177876, 0.00378471, -0.000617218, 1.45576, 60.9824, 28.9802, 6.0614, 1.54651, 3.64718, 0.0229602, 0.000788775, -0.0013916, 0.00156659, 0.00158717, 0.00109506, -0.000369776, 6.59588e-05, -0.0121077, -0.00748329, -0.0129196, 0.0128291, 0.0174766, 0.471, -0.543316, 0.335913, -2.08381, -2.16583, -0.129892, 0.469526, -0.542353, 0.334531, -2.08202, -2.16499, -0.129279, -0.000558399, 0.00527762, 0.00139533, 0.0112657, 0.00685994, -0.0063691
0.0552954, 1.69187, -1.22741, -1.53889, -0.900389, -1.19208, 1.2284, -1.30269, 0.0212001, -0.00834061, -0.00219437, 0.00259735, -0.0186151, 0.00266928, 0.000810281, 1.49146, 61.1292, 28.9405, 6.0614, 1.55932, 3.66092, -0.00999879, 0.000783794, -0.00138204, 0.0015715, 0.00158681, 0.00107823, -0.000372729, 0.00225523, -0.00987006, -0.00677071, -0.0101621, 0.0114377, 0.0111851, 0.471, -0.543311, 0.335915, -2.08381, -2.16583, -0.129893, 0.469535, -0.542352, 0.334526, -2.08203, -2.165, -0.129263, -0.000583923, 0.00552111, 0.00145888, 0.00910949, 0.00474088, -0.00587431
0.0562954, 1.69189, -1.22741, -1.53889, -0.900388, -1.1921, 1.22841, -1.30269, 0.024061, -0.00645679, -0.00323932, 0.00106027, -0.0226424, 0.000676905, 0.00149042, 1.45576, 61.1649, 29.0159, 6.09711, 1.5401, 3.70395, -0.0356336, 0.000784729, -0.00136771, 0.00157548, 0.00159716, 0.00105729, -0.000387747, 0.00141514, -0.0107994, -0.00659808, -0.0156612, 0.0160389, 0.0128121, 0.470999, -0.543305, 0.335916, -2.08381, -2.16583, -0.129893, 0.469548, -0.542344, 0.334524, -2.08201, -2.16502, -0.129232, -0.000609969, 0.00576973, 0.0015237, 0.00998772, 0.00583034, -0.00553666
0.0572954, 1.69191, -1.22742, -1.53889, -0.900382, -1.19213, 1.22841, -1.30269, 0.022575, -0.00694886, -0.00216942, 0.000829793, -0.0261893, -0.000265491, 0.000519486, 1.57081, 61.2759, 29.0159, 6.09711, 1.53461, 3.73324, -0.0228162, 0.000778369, -0.00136107, 0.00158103, 0.00160692, 0.00103945, -0.000391695, 0.00269612, -0.00966105, -0.0065691, -0.0170736, 0.0180139, 0.0118758, 0.470999, -0.5433, 0.335918, -2.0838, -2.16583, -0.129894, 0.469554, -0.542343, 0.334518, -2.08201, -2.16503, -0.129204, -0.000636533, 0.00602345, 0.0015898, 0.00887117, 0.00476841, -0.00560648
0.0582954, 1.69194, -1.22742, -1.5389, -0.900381, -1.19216, 1.22842, -1.30269, 0.0243355, -0.00466698, -0.00238171, -0.000282616, -0.0245959, 0.00440501, 0.000109411, 1.57081, 61.2759, 29.0555, 6.13678, 1.5401, 3.74698, -0.0164075, 0.000775134, -0.00135023, 0.00158326, 0.00161844, 0.00100934, -0.000402657, 0.00185136, -0.0118708, -0.00516743, -0.0130252, 0.0215809, 0.0154107, 0.470998, -0.543294, 0.335919, -2.0838, -2.16582, -0.129894, 0.469565, -0.54234, 0.334517, -2.082, -2.16506, -0.129162, -0.000663611, 0.00628226, 0.00165716, 0.0110714, 0.00573586, -0.00409061
0.0592954, 1.69196, -1.22742, -1.5389, -0.900388, -1.19219, 1.22843, -1.30269, 0.0245783, -0.00490036, -0.00419182, -0.00355293, -0.0229554, 0.00327378, -0.000910069, 1.60651, 61.3513, 29.1666, 6.28357, 1.53461, 3.7543, 0.0101428, 0.000771124, -0.00133979, 0.00158914, 0.0016356, 0.000978891, -0.000414534, 0.001001, -0.0124185, -0.00653767, -0.016393, 0.019983, 0.0192394, 0.470997, -0.543287, 0.335921, -2.0838, -2.16582, -0.129894, 0.469574, -0.542336, 0.334512, -2.082, -2.16508, -0.129114, -0.000691201, 0.00654612, 0.00172578, 0.0115108, 0.00707262, -0.00525953
0.0602954, 1.69198, -1.22742, -1.53891, -0.900382, -1.19222, 1.22843, -1.30269, 0.0264448, -0.00412148, -0.00363393, -0.00148153, -0.0260966, 0.00131637, -0.00131854, 1.57081, 61.387, 29.2023, 6.24786, 1.52179, 3.79001, 0.0293689, 0.000767838, -0.00132883, 0.00159272, 0.00165006, 0.000953349, -0.00042515, 0.00129271, -0.0123946, -0.00589148, -0.0182658, 0.0223334, 0.0189031, 0.470997, -0.543281, 0.335923, -2.0838, -2.16582, -0.129895, 0.469584, -0.542332, 0.334509, -2.08199, -2.1651, -0.129074, -0.0007193, 0.00681502, 0.00179564, 0.0114927, 0.0069531, -0.00459619
0.0612954, 1.69201, -1.22743, -1.5389, -0.900383, -1.19225, 1.22843, -1.30269, 0.0261771, -0.00359739, -0.00159053, -0.00178401, -0.0284408, 0.00507903, 0.000816583, 1.60651, 61.4227, 29.1666, 6.28357, 1.50348, 3.81198, -0.0164075, 0.000765245, -0.00131773, 0.00159519, 0.00166238, 0.000926142, -0.000433493, 0.00198555, -0.0131067, -0.00458394, -0.0143128, 0.0266554, 0.0169808, 0.470996, -0.543274, 0.335924, -2.08379, -2.16582, -0.129895, 0.469595, -0.542327, 0.334508, -2.08198, -2.16512, -0.129034, -0.000747904, 0.00708893, 0.00186675, 0.0122472, 0.00637089, -0.00336306
0.0622954, 1.69203, -1.22743, -1.53891, -0.900378, -1.19228, 1.22844, -1.30269, 0.031132, -0.00324436, -0.00273313, 0.000603076, -0.0301338, 0.00348956, 3.59033e-05, 1.57081, 61.4584, 29.238, 6.20819, 1.48517, 3.82663, -0.00267457, 0.000760779, -0.00130556, 0.00159975, 0.00167389, 0.000898761, -0.000444917, 0.00115449, -0.0146838, -0.00487863, -0.0170422, 0.0277598, 0.0194652, 0.470995, -0.543267, 0.335926, -2.08379, -2.16582, -0.129896, 0.469606, -0.542323, 0.334504, -2.08197, -2.16514, -0.128995, -0.00077701, 0.00736784, 0.00193908, 0.0137529, 0.00758019, -0.00350029
0.0632954, 1.69206, -1.22744, -1.53891, -0.90038, -1.19231, 1.22844, -1.30269, 0.0332843, -0.00569755, -0.00358708, -0.000504088, -0.0325623, 0.00257358, 0.000770027, 1.60651, 61.6092, 29.3134, 6.24786, 1.49707, 3.83304, -0.0228162, 0.00075453, -0.00129547, 0.00160943, 0.00169501, 0.000872812, -0.000452158, 0.000955701, -0.0156112, -0.00699732, -0.0207345, 0.0272089, 0.020671, 0.470994, -0.543259, 0.335928, -2.08379, -2.16582, -0.129897, 0.469615, -0.54232, 0.334495, -2.08197, -2.16515, -0.128946, -0.000806615, 0.0076517, 0.00201263, 0.0145657, 0.00842448, -0.00551591
0.0642954, 1.69208, -1.22744, -1.53891, -0.900378, -1.19235, 1.22844, -1.30269, 0.0320418, -0.00287647, -0.00295972, 0.000608373, -0.0343372, 0.00180787, 3.87124e-05, 1.60651, 61.5695, 29.2023, 6.20819, 1.50989, 3.84036, -0.00999879, 0.000751287, -0.00128408, 0.00160657, 0.0017056, 0.00083486, -0.000466078, 0.00201174, -0.0144062, -0.00499303, -0.0206701, 0.031057, 0.018883, 0.470993, -0.543252, 0.33593, -2.08378, -2.16582, -0.129897, 0.469626, -0.542315, 0.334499, -2.08196, -2.16518, -0.128898, -0.000836715, 0.00794051, 0.00208739, 0.0134424, 0.00731286, -0.0035897
0.0652954, 1.69211, -1.22745, -1.53892, -0.900378, -1.19239, 1.22845, -1.30269, 0.0348787, -0.00452069, -0.0057644, 0.00041789, -0.035048, 0.00252897, -0.00143219, 1.60651, 61.6806, 29.3531, 6.20819, 1.50989, 3.81198, 0.0293689, 0.000743246, -0.00127391, 0.0016164, 0.00172883, 0.000803566, -0.000476996, 0.001951, -0.0156486, -0.00709478, -0.0234454, 0.0307847, 0.0217907, 0.470993, -0.543244, 0.335932, -2.08378, -2.16582, -0.129898, 0.469635, -0.542313, 0.33449, -2.08195, -2.1652, -0.128842, -0.000867309, 0.00823424, 0.00216336, 0.0145744, 0.00804104, -0.00561712
0.0662954, 1.69213, -1.22745, -1.53891, -0.900375, -1.19243, 1.22845, -1.30269, 0.0333192, -0.00478048, -0.0031135, 0.00112304, -0.041139, 0.00243294, -0.00119211, 1.60651, 61.756, 29.3134, 6.17248, 1.53461, 3.79733, 0.0357776, 0.000736842, -0.00126298, 0.00162131, 0.00174404, 0.000772402, -0.000487538, 0.00382964, -0.0144061, -0.0061643, -0.0234405, 0.0353304, 0.0186596, 0.470992, -0.543236, 0.335935, -2.08378, -2.16581, -0.129898, 0.469645, -0.54231, 0.334486, -2.08194, -2.16522, -0.128796, -0.000898392, 0.00853286, 0.00224052, 0.0134033, 0.00629094, -0.0048754
0.0672954, 1.69216, -1.22746, -1.53892, -0.900375, -1.19247, 1.22846, -1.30269, 0.0320345, -0.00578802, -0.00398784, -7.95994e-05, -0.0404955, 0.00204654, -8.26301e-05, 1.60651, 61.8671, 29.3888, 6.20819, 1.5401, 3.79001, 0.0165515, 0.000729955, -0.00125292, 0.00162912, 0.00176802, 0.000741929, -0.000494484, 0.00446495, -0.0138414, -0.0072283, -0.0246447, 0.033879, 0.0171747, 0.470991, -0.543227, 0.335937, -2.08377, -2.16581, -0.129899, 0.469655, -0.542307, 0.334479, -2.08193, -2.16524, -0.12874, -0.000929962, 0.00883635, 0.00231887, 0.012792, 0.00610799, -0.00592929
0.0682954, 1.69218, -1.22746, -1.53892, -0.900375, -1.19251, 1.22846, -1.30269, 0.0231125, -0.00469584, -0.00193505, -4.78737e-05, -0.0400343, 0.00120808, 0.00164036, 1.64619, 61.9028, 29.3531, 6.20819, 1.54651, 3.79733, -0.0292249, 0.00072232, -0.00124337, 0.00163243, 0.00178437, 0.000706456, -0.000497498, 0.00804779, -0.00909241, -0.005487, -0.0218157, 0.0339134, 0.00776338, 0.47099, -0.543218, 0.335939, -2.08377, -2.16581, -0.1299, 0.469663, -0.542305, 0.334477, -2.08194, -2.16525, -0.128686, -0.000962015, 0.00914469, 0.0023984, 0.00820821, 0.00241678, -0.00454337
0.0692954, 1.6922, -1.22747, -1.53892, -0.90038, -1.19255, 1.22846, -1.30269, 0.0193752, -0.00573047, -0.00137381, -0.00271928, -0.0391338, 0.000349095, 0.00133095, 1.72157, 62.0139, 29.3531, 6.32324, 1.5401, 3.81198, -0.0356336, 0.000714925, -0.00123478, 0.0016397, 0.0018085, 0.000676585, -0.000506801, 0.00895092, -0.00767612, -0.00617425, -0.0223715, 0.0319543, 0.0073393, 0.470989, -0.543209, 0.335941, -2.08376, -2.16581, -0.1299, 0.469671, -0.542301, 0.334471, -2.08193, -2.16527, -0.128631, -0.000994548, 0.00945786, 0.0024791, 0.00676867, 0.00188624, -0.0052388
0.0702954, 1.69223, -1.22746, -1.53893, -0.900382, -1.19259, 1.22846, -1.30268, 0.0218322, -0.00205816, -0.00357716, -0.00264515, -0.0434835, 2.61433e-05, 0.000412597, 1.72157, 61.9385, 29.4642, 6.35895, 1.5401, 3.8193, -0.0228162, 0.000708303, -0.00122458, 0.00164124, 0.0018374, 0.00062915, -0.000514402, 0.00915028, -0.00805716, -0.00497565, -0.0265879, 0.0393827, 0.00806412, 0.470988, -0.5432, 0.335944, -2.08376, -2.16581, -0.129901, 0.46968, -0.542298, 0.33447, -2.08192, -2.16529, -0.128552, -0.00102756, 0.00977584, 0.00256097, 0.00716666, 0.00183847, -0.00401593
0.0712954, 1.69226, -1.22746, -1.53893, -0.900382, -1.19264, 1.22846, -1.30269, 0.0208523, 0.000297509, -0.0024319, -0.00176124, -0.0468043, 6.59394e-05, -0.00118299, 1.68189, 61.8671, 29.4642, 6.35895, 1.5401, 3.8193, 0.0165515, 0.000702927, -0.00121257, 0.0016405, 0.00185845, 0.000583564, -0.000530421, 0.0103828, -0.00712583, -0.00303819, -0.0262714, 0.0444426, 0.00734233, 0.470987, -0.54319, 0.335947, -2.08375, -2.1658, -0.129902, 0.469692, -0.542293, 0.334472, -2.08191, -2.16532, -0.128485, -0.00106104, 0.0100986, 0.00264398, 0.00631719, 0.000607993, -0.00218315
0.0722954, 1.69228, -1.22746, -1.53893, -0.90038, -1.19268, 1.22846, -1.30269, 0.0226421, -0.000637492, -0.00341985, 0.00190767, -0.0446035, 8.03425e-05, -0.000313932, 1.68189, 61.9028, 29.5395, 6.35895, 1.5401, 3.8193, 0.00373412, 0.000692995, -0.00120395, 0.00164659, 0.00188529, 0.000545613, -0.00053631, 0.0108728, -0.00742734, -0.00355362, -0.024655, 0.0416725, 0.00533503, 0.470986, -0.54318, 0.335949, -2.08375, -2.1658, -0.129903, 0.469699, -0.542291, 0.334467, -2.08191, -2.16534, -0.128418, -0.001095, 0.0104261, 0.00272814, 0.00658325, 0.000543488, -0.00269318
0.0732954, 1.69231, -1.22745, -1.53893, -0.900377, -1.19273, 1.22846, -1.30269, 0.0249406, 0.00133778, -0.00137839, 0.0015297, -0.0480062, 0.000352116, -0.00139608, 1.64619, 61.8274, 29.4999, 6.35895, 1.55292, 3.81198, 0.0357776, 0.00068391, -0.00119458, 0.00164341, 0.00190562, 0.000491616, -0.000543371, 0.0101737, -0.00881464, -0.00184978, -0.0245304, 0.046695, 0.00885269, 0.470985, -0.543169, 0.335952, -2.08374, -2.1658, -0.129903, 0.469708, -0.54229, 0.334471, -2.08191, -2.16537, -0.128343, -0.00112942, 0.0107583, 0.00281344, 0.00797093, 0.00136037, -0.000858868
0.0742954, 1.69234, -1.22746, -1.53894, -0.900374, -1.19278, 1.22845, -1.30269, 0.0274066, -0.000871727, -0.00270204, 0.00121323, -0.0508804, -1.60578e-05, -0.000930713, 1.57081, 61.9028, 29.5752, 6.35895, 1.57123, 3.8193, 0.0357776, 0.000673921, -0.00118484, 0.0016519, 0.00193811, 0.000453906, -0.000548941, 0.0103448, -0.00970809, -0.00385465, -0.0280059, 0.0470211, 0.00956999, 0.470984, -0.543159, 0.335955, -2.08374, -2.1658, -0.129904, 0.469717, -0.542287, 0.334464, -2.0819, -2.16538, -0.12827, -0.00116431, 0.0110953, 0.00289987, 0.00876196, 0.00187377, -0.00280568
0.0752954, 1.69237, -1.22746, -1.53894, -0.90037, -1.19283, 1.22845, -1.30269, 0.0292046, 0.000253808, -0.00570292, 0.0009539, -0.0478266, 4.64383e-06, 0.000328963, 1.49146, 61.8671, 29.611, 6.35895, 1.57764, 3.8193, 0.0101428, 0.000664258, -0.00117436, 0.00165478, 0.00196737, 0.00040462, -0.000552505, 0.00973704, -0.010597, -0.00441871, -0.0294376, 0.0460925, 0.00990168, 0.470983, -0.543147, 0.335958, -2.08373, -2.1658, -0.129905, 0.469726, -0.542285, 0.334462, -2.0819, -2.1654, -0.128188, -0.00119966, 0.0114369, 0.00298742, 0.00957224, 0.00293874, -0.00320761
0.0762954, 1.6924, -1.22746, -1.53894, -0.900365, -1.19289, 1.22845, -1.30268, 0.0305005, -0.00601792, -0.00406742, 0.00390897, -0.0504587, -0.000494019, 0.00191473, 1.41608, 61.8671, 29.611, 6.35895, 1.58954, 3.83304, -0.0356336, 0.00065448, -0.00116314, 0.00165817, 0.00199575, 0.000356806, -0.000554521, 0.0111127, -0.0107027, -0.00725798, -0.0289297, 0.0415986, 0.00705668, 0.470981, -0.543136, 0.335961, -2.08373, -2.16579, -0.129906, 0.469736, -0.542282, 0.33446, -2.0819, -2.16541, -0.12811, -0.00123547, 0.0117833, 0.00307608, 0.00958847, 0.00236864, -0.00613935
0.0772954, 1.69243, -1.22746, -1.53894, -0.900356, -1.19294, 1.22845, -1.30268, 0.0331376, -0.00536289, -0.0020755, 0.00471451, -0.0568182, -0.000591979, 0.000327054, 1.41608, 61.9028, 29.5752, 6.28357, 1.59595, 3.84036, -0.00999879, 0.000639323, -0.001157, 0.00166037, 0.0020177, 0.000309339, -0.000553633, 0.0113146, -0.0116319, -0.00623448, -0.0301438, 0.0474638, 0.00938947, 0.47098, -0.543124, 0.335964, -2.08372, -2.16579, -0.129907, 0.469742, -0.542285, 0.334458, -2.08191, -2.16543, -0.128038, -0.00127174, 0.0121342, 0.00316585, 0.0105244, 0.00240068, -0.00509847
0.0782954, 1.69246, -1.22746, -1.53894, -0.900353, -1.19301, 1.22846, -1.30269, 0.0336193, -0.00479727, -0.0054919, 0.00247395, -0.0578776, 0.000391716, 0.000218038, 1.34071, 61.9385, 29.611, 6.32324, 1.63257, 3.8193, -0.00999879, 0.000626939, -0.00114484, 0.00166491, 0.0020443, 0.000253658, -0.000563366, 0.0117716, -0.0118761, -0.00739592, -0.0337968, 0.0499893, 0.00996051, 0.470979, -0.543112, 0.335967, -2.08372, -2.16579, -0.129908, 0.469753, -0.542284, 0.334455, -2.08191, -2.16546, -0.127954, -0.00130846, 0.0124898, 0.00325671, 0.010706, 0.00249408, -0.00623284
0.0792954, 1.6925, -1.22746, -1.53895, -0.90035, -1.19307, 1.22845, -1.30269, 0.0348693, -0.00265305, -0.00496159, 0.00100831, -0.0626262, -5.2667e-06, -0.0013127, 1.22962, 61.9028, 29.6506, 6.35895, 1.64447, 3.82663, 0.0293689, 0.000616465, -0.00113297, 0.00166687, 0.00208001, 0.000193985, -0.000573361, 0.0117395, -0.0123769, -0.00628392, -0.0365338, 0.056128, 0.012666, 0.470978, -0.5431, 0.33597, -2.08371, -2.16579, -0.129909, 0.469764, -0.542281, 0.334454, -2.08191, -2.16549, -0.127856, -0.00134563, 0.01285, 0.00334867, 0.011208, 0.00273522, -0.00505314
0.0802954, 1.69253, -1.22745, -1.53895, -0.900345, -1.19313, 1.22845, -1.30269, 0.0363728, -0.000223036, -0.00265893, 0.000817877, -0.0607435, -0.000237228, -0.000163057, 1.22962, 61.8274, 29.611, 6.35895, 1.63898, 3.83304, 0.0101428, 0.000603258, -0.00112274, 0.00166753, 0.00210761, 0.0001337, -0.000574113, 0.0102865, -0.0138188, -0.00419941, -0.0338985, 0.056986, 0.0148919, 0.470976, -0.543087, 0.335973, -2.08371, -2.16578, -0.129909, 0.469773, -0.54228, 0.334455, -2.08192, -2.16551, -0.127765, -0.00138324, 0.0132147, 0.0034417, 0.0126338, 0.00427244, -0.00271985
0.0812954, 1.69256, -1.22746, -1.53896, -0.900332, -1.19319, 1.22845, -1.30268, 0.0349303, -0.00123989, -0.0045805, 0.00564946, -0.0643522, -0.000426687, 0.000637281, 1.18995, 61.8671, 29.722, 6.28357, 1.63898, 3.84036, -0.00999879, 0.000585253, -0.00111526, 0.00167326, 0.00213978, 7.80906e-05, -0.000565022, 0.0139315, -0.011197, -0.0047821, -0.0349245, 0.0586718, 0.00635502, 0.470975, -0.543074, 0.335977, -2.0837, -2.16578, -0.12991, 0.469779, -0.542284, 0.334449, -2.08193, -2.16551, -0.127673, -0.0014213, 0.013584, 0.0035358, 0.0100867, 0.00102576, -0.00368808
0.0822954, 1.6926, -1.22746, -1.53896, -0.900333, -1.19326, 1.22845, -1.30268, 0.0356149, -2.09559e-05, -0.00237551, 0.0015191, -0.0722083, -0.000282409, 0.000662213, 1.07887, 61.8274, 29.6863, 6.39465, 1.64447, 3.84036, -0.0164075, 0.000575392, -0.00110009, 0.0016758, 0.00217464, 1.38196e-05, -0.000578578, 0.013784, -0.0120373, -0.00391192, -0.0384242, 0.0668191, 0.00906286, 0.470973, -0.54306, 0.33598, -2.08369, -2.16578, -0.129911, 0.469793, -0.542279, 0.334448, -2.08192, -2.16555, -0.127572, -0.0014598, 0.0139578, 0.00363097, 0.0109136, 0.00144569, -0.00273627
0.0832954, 1.69264, -1.22746, -1.53896, -0.900324, -1.19332, 1.22846, -1.30268, 0.0353656, -0.00103378, -0.00170147, 0.00211139, -0.0720809, 8.45311e-05, 0.00115355, 1.00349, 61.8671, 29.6863, 6.35895, 1.62067, 3.83304, -0.0356336, 0.000561381, -0.0010876, 0.00167995, 0.00220267, -4.21568e-05, -0.000581269, 0.0144279, -0.0120102, -0.00417506, -0.0371522, 0.0659696, 0.00822475, 0.470972, -0.543046, 0.335984, -2.08369, -2.16578, -0.129913, 0.469805, -0.542278, 0.334445, -2.08193, -2.16557, -0.127485, -0.00149874, 0.0143362, 0.00372719, 0.0108611, 0.00122788, -0.00299917
0.0842954, 1.69267, -1.22746, -1.53897, -0.900316, -1.1934, 1.22845, -1.30268, 0.0366617, -0.00159324, -0.0060068, 0.00477313, -0.0691888, -0.000756296, -0.000451668, 1.00349, 61.9028, 29.7617, 6.35895, 1.64447, 3.85501, -0.00267457, 0.000542969, -0.00108038, 0.00168746, 0.00224746, -0.000102924, -0.000580095, 0.0153241, -0.0115933, -0.00583844, -0.0392167, 0.0628999, 0.00772092, 0.47097, -0.543032, 0.335988, -2.08368, -2.16577, -0.129914, 0.469811, -0.54228, 0.334439, -2.08193, -2.16558, -0.127375, -0.00153811, 0.014719, 0.00382447, 0.0103773, 0.000965124, -0.00467106
0.0852954, 1.6927, -1.22746, -1.53898, -0.900312, -1.19347, 1.22845, -1.30269, 0.0379535, -0.000278575, -0.00749926, 0.00183103, -0.0698971, -0.000503333, -0.00148791, 1.00349, 61.8671, 29.7617, 6.43433, 1.62067, 3.85501, 0.0293689, 0.000528072, -0.00106927, 0.00169013, 0.00228269, -0.000167689, -0.000588061, 0.0146294, -0.0126813, -0.00608309, -0.0420467, 0.0655014, 0.0116646, 0.470969, -0.543017, 0.335992, -2.08367, -2.16577, -0.129915, 0.469821, -0.542279, 0.334437, -2.08193, -2.16561, -0.127272, -0.00157792, 0.0151063, 0.00392278, 0.0113903, 0.00212053, -0.00473942
0.0862954, 1.69274, -1.22746, -1.53898, -0.90031, -1.19354, 1.22845, -1.30269, 0.0392711, -0.00022444, -0.00851658, -0.000233415, -0.0755362, -0.000877442, -0.000991937, 1.00349, 61.8671, 29.7617, 6.5097, 1.60785, 3.86966, 0.0293689, 0.000511921, -0.0010572, 0.0016951, 0.00232255, -0.000238153, -0.000592827, 0.0151189, -0.0130251, -0.00683336, -0.0469938, 0.0704738, 0.0119337, 0.470967, -0.543002, 0.335996, -2.08367, -2.16577, -0.129916, 0.469832, -0.542279, 0.334433, -2.08193, -2.16564, -0.127158, -0.00161815, 0.015498, 0.00402212, 0.0116838, 0.00215881, -0.00546745
0.0872954, 1.69279, -1.22746, -1.53899, -0.900301, -1.19362, 1.22845, -1.30268, 0.0418295, 0.000749351, -0.00714151, 0.00323798, -0.0752587, -0.000584475, 0.000525503, 0.928108, 61.8274, 29.7974, 6.5097, 1.59595, 3.86966, -0.00267457, 0.000497581, -0.00104278, 0.00169863, 0.00236358, -0.000308849, -0.000595899, 0.0150176, -0.014022, -0.00543712, -0.0440004, 0.0712434, 0.0106724, 0.470966, -0.542986, 0.336, -2.08366, -2.16576, -0.129917, 0.469845, -0.542276, 0.334431, -2.08194, -2.16566, -0.127042, -0.00165881, 0.0158942, 0.00412249, 0.0126857, 0.00248075, -0.00400298
0.0882954, 1.69283, -1.22746, -1.53899, -0.900291, -1.1937, 1.22845, -1.30269, 0.0418975, -0.00212067, -0.00834496, 0.00575652, -0.0800722, -0.000626644, 0.00133368, 0.928108, 61.9385, 29.7974, 6.5097, 1.59595, 3.87607, -0.0292249, 0.000477699, -0.00103238, 0.0017064, 0.0024061, -0.000377473, -0.000594174, 0.0176156, -0.0128167, -0.00724249, -0.0463128, 0.072364, 0.00562346, 0.470964, -0.542971, 0.336004, -2.08365, -2.16576, -0.129918, 0.469854, -0.542278, 0.334424, -2.08194, -2.16568, -0.126926, -0.0016999, 0.0162947, 0.00422387, 0.0114685, 0.000545382, -0.0060515
0.0892954, 1.69287, -1.22747, -1.539, -0.900292, -1.19379, 1.22844, -1.30269, 0.0382451, -0.00319335, -0.0101743, 0.00499361, -0.078448, -0.000688757, -9.42243e-05, 0.928108, 62.0139, 29.8371, 6.62079, 1.57764, 3.88339, -0.00267457, 0.000460339, -0.00101992, 0.00171887, 0.00245892, -0.000442835, -0.000601499, 0.0195826, -0.0108353, -0.00847605, -0.0470211, 0.0702048, 0.00383325, 0.470962, -0.542954, 0.336008, -2.08364, -2.16576, -0.129919, 0.469865, -0.542277, 0.334413, -2.08193, -2.1657, -0.126804, -0.0017414, 0.0166996, 0.00432627, 0.0094739, -0.000882593, -0.00741293
0.0902954, 1.69291, -1.22747, -1.53901, -0.90028, -1.19388, 1.22844, -1.30268, 0.0400556, -0.00297637, -0.0105312, 0.00579944, -0.0782898, -0.00127277, 0.000920528, 0.888436, 62.0496, 29.8371, 6.54541, 1.58954, 3.90536, -0.0292249, 0.000439148, -0.00100836, 0.0017263, 0.00250529, -0.000520307, -0.000594564, 0.0194002, -0.0115432, -0.00854585, -0.0475703, 0.0702158, 0.00381321, 0.470961, -0.542938, 0.336012, -2.08364, -2.16575, -0.129921, 0.469875, -0.542279, 0.334406, -2.08195, -2.16572, -0.126674, -0.00178332, 0.0171089, 0.00442966, 0.0101299, -0.000253335, -0.00737169
0.0912954, 1.69295, -1.22748, -1.53902, -0.900282, -1.19397, 1.22844, -1.30268, 0.0406115, -0.00282866, -0.00864538, 0.00397577, -0.0820486, -0.000577091, -0.000369659, 0.888436, 62.0853, 29.8728, 6.69617, 1.58313, 3.89804, -0.00267457, 0.000420333, -0.000994885, 0.00173537, 0.0025568, -0.000600253, -0.000600193, 0.019448, -0.0123244, -0.0080462, -0.047927, 0.0740456, 0.00693123, 0.470959, -0.54292, 0.336017, -2.08363, -2.16575, -0.129922, 0.469887, -0.542279, 0.334399, -2.08195, -2.16575, -0.126538, -0.00182565, 0.0175225, 0.00453405, 0.0108875, 6.81722e-05, -0.00680518
0.0922954, 1.693, -1.22748, -1.53902, -0.900277, -1.19406, 1.22844, -1.30269, 0.0401869, -0.0036559, -0.00459239, 0.00247186, -0.0850706, -0.000384612, -0.00143323, 0.928108, 62.1606, 29.7974, 6.73187, 1.57764, 3.89804, 0.0293689, 0.000401647, -0.0009814, 0.00174262, 0.0026025, -0.00067496, -0.000611378, 0.0194734, -0.0128746, -0.00730022, -0.0462602, 0.0758535, 0.00987953, 0.470957, -0.542903, 0.336021, -2.08362, -2.16575, -0.129923, 0.469899, -0.542278, 0.334393, -2.08194, -2.16578, -0.126414, -0.0018684, 0.0179404, 0.00463942, 0.0114222, 0.000368715, -0.00598401
0.0932954, 1.69304, -1.22748, -1.53903, -0.900273, -1.19415, 1.22844, -1.30269, 0.0427297, -0.00244244, -0.00655938, 0.00214033, -0.0874745, -0.000527589, -0.000480771, 0.85273, 62.1606, 29.7974, 6.73187, 1.57764, 3.90536, 0.0165515, 0.000382838, -0.00096594, 0.00174992, 0.00265305, -0.000758797, -0.000616598, 0.0194357, -0.0137388, -0.00751199, -0.0495919, 0.0794103, 0.0099929, 0.470955, -0.542885, 0.336026, -2.08361, -2.16574, -0.129924, 0.469913, -0.542277, 0.334387, -2.08194, -2.16581, -0.126275, -0.00191155, 0.0183626, 0.00474577, 0.0122331, 0.000896239, -0.00610725
0.0942954, 1.69309, -1.22748, -1.53905, -0.90027, -1.19424, 1.22844, -1.30269, 0.0424819, -0.00246738, -0.00755888, 0.00402868, -0.0888877, -0.00113155, -0.000557873, 0.85273, 62.1964, 29.9085, 6.77154, 1.56482, 3.92642, 0.0229602, 0.000360593, -0.000954973, 0.00176106, 0.00271603, -0.00084171, -0.00061667, 0.0209725, -0.0127625, -0.00769491, -0.0506355, 0.0803476, 0.0072552, 0.470953, -0.542867, 0.336031, -2.0836, -2.16574, -0.129926, 0.469923, -0.542278, 0.334377, -2.08194, -2.16583, -0.126122, -0.00195511, 0.0187891, 0.00485308, 0.0112629, -0.000206101, -0.00638998
0.0952954, 1.69314, -1.22749, -1.53906, -0.900266, -1.19434, 1.22844, -1.30268, 0.0432983, -0.00341107, -0.00956096, 0.00322615, -0.094468, -0.00102559, 0.00132351, 0.813057, 62.2717, 29.9482, 6.77154, 1.54651, 3.93374, -0.0228162, 0.000339599, -0.00094087, 0.00177222, 0.00277209, -0.000921969, -0.000615523, 0.0224358, -0.0124853, -0.00913817, -0.0553953, 0.0844769, 0.00410855, 0.470951, -0.542848, 0.336035, -2.08359, -2.16574, -0.129927, 0.469935, -0.542278, 0.334367, -2.08195, -2.16585, -0.12598, -0.00199908, 0.0192197, 0.00496136, 0.0109422, -0.00100881, -0.00792597
0.0962954, 1.69318, -1.22749, -1.53906, -0.900264, -1.19444, 1.22844, -1.30268, 0.0436964, -0.00925984, -0.00572678, 0.00255604, -0.0985724, -0.000141154, 0.000882337, 0.777352, 62.3074, 29.7617, 6.77154, 1.53461, 3.9191, -0.0228162, 0.00032168, -0.000922565, 0.00177649, 0.00281632, -0.00101143, -0.000628814, 0.0231634, -0.0133697, -0.0112891, -0.0539734, 0.0824878, 0.00614456, 0.470949, -0.542829, 0.33604, -2.08358, -2.16573, -0.129929, 0.469952, -0.542275, 0.334364, -2.08195, -2.16589, -0.125843, -0.00204344, 0.0196547, 0.0050706, 0.0117291, -0.000924339, -0.0100806
0.0972954, 1.69323, -1.22749, -1.53907, -0.900267, -1.19454, 1.22843, -1.30269, 0.0423572, -0.00492399, -0.00452288, 0.000337543, -0.0930877, -0.00559194, -0.00158191, 0.813057, 62.2321, 29.7617, 6.84296, 1.5401, 3.94107, 0.0357776, 0.000301398, -0.000908694, 0.00178156, 0.00287476, -0.00110599, -0.000638774, 0.0212428, -0.0128957, -0.00906758, -0.0555001, 0.0799106, 0.011595, 0.470947, -0.542809, 0.336045, -2.08357, -2.16573, -0.12993, 0.469964, -0.542274, 0.334361, -2.08194, -2.16593, -0.125685, -0.0020882, 0.0200938, 0.00518077, 0.0112227, 0.00104918, -0.00746431
0.0982954, 1.69327, -1.22749, -1.53907, -0.900269, -1.19464, 1.22843, -1.30269, 0.0424108, -0.00366816, -0.00554442, -0.000475026, -0.0979726, -0.00438954, -0.00132588, 0.813057, 62.2321, 29.722, 6.88263, 1.53461, 3.94839, 0.0431018, 0.000279224, -0.000895258, 0.00178923, 0.0029312, -0.00119664, -0.000643459, 0.0226208, -0.0126055, -0.00873595, -0.0578227, 0.0861208, 0.00999413, 0.470945, -0.542789, 0.336051, -2.08357, -2.16572, -0.129932, 0.469976, -0.542274, 0.334354, -2.08195, -2.16596, -0.125532, -0.00213335, 0.0205371, 0.00529189, 0.0109491, 6.91607e-05, -0.00723136
0.0992954, 1.69332, -1.22749, -1.53909, -0.900268, -1.19474, 1.22843, -1.30268, 0.04338, -0.00449781, -0.00909302, 0.00078231, -0.0966851, -0.0032191, -0.000612651, 0.777352, 62.3074, 29.7974, 6.84296, 1.52179, 3.94839, 0.0357776, 0.000254946, -0.000882466, 0.00180241, 0.00299639, -0.00128369, -0.000643723, 0.0237064, -0.0126484, -0.0102937, -0.058847, 0.0851944, 0.00791982, 0.470943, -0.542768, 0.336056, -2.08356, -2.16572, -0.129933, 0.469987, -0.542275, 0.334343, -2.08195, -2.16598, -0.125373, -0.0021789, 0.0209845, 0.00540394, 0.0109288, -0.000313064, -0.00882766
0.100295, 1.69337, -1.22749, -1.5391, -0.900268, -1.19484, 1.22843, -1.30268, 0.0476181, -0.00238016, -0.0130154, 0.00064977, -0.0959408, -0.00182309, 0.00101572, 0.737679, 62.2717, 29.7974, 6.84296, 1.50989, 3.93374, -0.00267457, 0.000232841, -0.000867186, 0.00180891, 0.00305246, -0.00137887, -0.000649101, 0.0228626, -0.0146961, -0.0105962, -0.061168, 0.0880159, 0.00896009, 0.470941, -0.542747, 0.336061, -2.08355, -2.16572, -0.129935, 0.470001, -0.542274, 0.334338, -2.08195, -2.16601, -0.125216, -0.00222483, 0.0214361, 0.00551691, 0.0128866, 0.00110227, -0.00894448
0.101295, 1.6934, -1.22749, -1.53911, -0.900271, -1.19494, 1.22843, -1.30268, 0.0444589, -0.00174941, -0.0128056, -0.000398667, -0.0996236, -0.00165132, 0.00118577, 0.813057, 62.2717, 29.7974, 6.88263, 1.49158, 3.94107, -0.0164075, 0.000204707, -0.000858666, 0.00181722, 0.00310988, -0.00147254, -0.000641336, 0.0250692, -0.0128321, -0.0101499, -0.0624141, 0.0919544, 0.00548481, 0.470939, -0.542726, 0.336067, -2.08354, -2.16571, -0.129936, 0.470008, -0.542279, 0.33433, -2.08196, -2.16603, -0.125059, -0.00227115, 0.0218918, 0.0056308, 0.0110739, -0.000765471, -0.00867676
0.102295, 1.69345, -1.22749, -1.53912, -0.900271, -1.19505, 1.22843, -1.30268, 0.0459266, -0.000360228, -0.0105199, -0.000193648, -0.103767, -0.000953113, 0.00126523, 0.737679, 62.2321, 29.8371, 6.88263, 1.50348, 3.93374, -0.0292249, 0.000180048, -0.00084477, 0.00182335, 0.00316854, -0.00157313, -0.000645161, 0.0252375, -0.0136799, -0.00854637, -0.0616568, 0.0971886, 0.00640005, 0.470936, -0.542704, 0.336072, -2.08353, -2.16571, -0.129938, 0.47002, -0.54228, 0.334326, -2.08197, -2.16606, -0.124893, -0.00231785, 0.0223516, 0.00574559, 0.0119382, -0.000684047, -0.00703075
0.103295, 1.69349, -1.22749, -1.53913, -0.900276, -1.19515, 1.22843, -1.30269, 0.0459382, 0.000503585, -0.00687627, -0.00091022, -0.106694, -0.000999301, -0.000614573, 0.701973, 62.1964, 29.7974, 6.91833, 1.5163, 3.94107, 0.0101428, 0.000155709, -0.000830773, 0.0018303, 0.00322673, -0.00167116, -0.000656538, 0.0252323, -0.0141664, -0.00688769, -0.0600493, 0.10048, 0.00971209, 0.470934, -0.542682, 0.336078, -2.08351, -2.1657, -0.12994, 0.470032, -0.54228, 0.33432, -2.08197, -2.16611, -0.124732, -0.00236493, 0.0228154, 0.00586128, 0.012437, -0.000450738, -0.00529155
0.104295, 1.69354, -1.22749, -1.53913, -0.900282, -1.19525, 1.22843, -1.30269, 0.0466569, -0.000568106, -0.00662372, -0.00232948, -0.107256, -0.000735669, -0.00163042, 0.626595, 62.2321, 29.722, 6.99371, 1.49707, 3.94107, 0.0431018, 0.000133385, -0.000815346, 0.00183793, 0.00328281, -0.00176139, -0.000668498, 0.0251599, -0.0149671, -0.00767787, -0.0606436, 0.100369, 0.0126749, 0.470932, -0.542659, 0.336084, -2.0835, -2.1657, -0.129941, 0.470046, -0.542277, 0.334315, -2.08196, -2.16614, -0.124582, -0.00241239, 0.0232833, 0.00597787, 0.013158, 0.000243436, -0.0059685
0.105295, 1.69358, -1.22748, -1.53914, -0.90028, -1.19536, 1.22842, -1.30269, 0.0464173, 0.00124024, -0.00689147, -0.000687338, -0.104977, -0.000813814, -0.00108695, 0.586922, 62.1606, 29.7974, 6.95801, 1.52179, 3.94839, 0.0431018, 0.000104032, -0.000805599, 0.00184539, 0.00334398, -0.00185996, -0.000661907, 0.0256656, -0.0146603, -0.00651617, -0.0588219, 0.100366, 0.0110976, 0.470929, -0.542636, 0.33609, -2.08349, -2.16569, -0.129943, 0.470054, -0.542281, 0.334309, -2.08197, -2.16616, -0.124415, -0.00246022, 0.0237552, 0.00609534, 0.012864, 2.46624e-05, -0.0047736
0.106295, 1.69362, -1.22748, -1.53915, -0.90028, -1.19546, 1.22842, -1.30268, 0.0426718, 0.00162345, -0.00719009, -0.000435403, -0.102061, -0.00109024, 0.000496073, 0.551216, 62.1249, 29.7617, 6.95801, 1.5163, 3.96213, 0.0101428, 7.58867e-05, -0.000795058, 0.00184912, 0.00339673, -0.00195854, -0.00065648, 0.0273153, -0.0127535, -0.00622921, -0.0571396, 0.0983412, 0.00646135, 0.470927, -0.542612, 0.336096, -2.08348, -2.16569, -0.129945, 0.470063, -0.542284, 0.334306, -2.08199, -2.16619, -0.124258, -0.00250842, 0.0242312, 0.00621369, 0.010981, -0.00125039, -0.0045709
0.107295, 1.69367, -1.22747, -1.53915, -0.900288, -1.19556, 1.22842, -1.30268, 0.0458887, 0.00281659, -0.00767173, -0.00287161, -0.100558, -0.000247511, 0.00131406, 0.400459, 62.0496, 29.722, 7.06909, 1.5282, 3.94839, -0.0164075, 5.51233e-05, -0.00077605, 0.00185323, 0.00345358, -0.00205978, -0.000670706, 0.0254342, -0.015351, -0.00617174, -0.057582, 0.0993097, 0.0112461, 0.470924, -0.542588, 0.336102, -2.08347, -2.16568, -0.129946, 0.47008, -0.542279, 0.334305, -2.08198, -2.16623, -0.124095, -0.00255699, 0.0247111, 0.00633291, 0.0134613, 0.00118445, -0.00418157
0.108295, 1.6937, -1.22747, -1.53916, -0.900282, -1.19566, 1.22842, -1.30268, 0.0427846, 0.00269124, -0.0107922, -0.00013833, -0.099014, 8.42802e-05, 0.0011134, 0.475838, 62.0139, 29.7974, 6.99371, 1.5282, 3.94107, -0.0228162, 2.09081e-05, -0.000770709, 0.00185831, 0.00350265, -0.0021531, -0.000659148, 0.028513, -0.0127197, -0.00681976, -0.0574453, 0.0981881, 0.00505128, 0.470922, -0.542563, 0.336109, -2.08346, -2.16568, -0.129948, 0.470084, -0.542287, 0.334301, -2.08201, -2.16625, -0.123947, -0.00260593, 0.0251949, 0.006453, 0.0108713, -0.00137891, -0.00510056
0.109295, 1.69375, -1.22747, -1.53917, -0.90029, -1.19576, 1.22842, -1.30268, 0.0417563, 0.00177788, -0.00801787, -0.00268105, -0.103027, -0.000231566, 0.000742266, 0.360787, 62.0139, 29.7974, 7.1048, 1.54651, 3.94839, -0.0228162, -3.59069e-06, -0.000754139, 0.00186623, 0.00355943, -0.00224819, -0.000669377, 0.0289878, -0.0127397, -0.00673608, -0.0581852, 0.100667, 0.00668157, 0.470919, -0.542538, 0.336115, -2.08345, -2.16567, -0.12995, 0.470098, -0.542284, 0.334295, -2.082, -2.16629, -0.12379, -0.00265523, 0.0256827, 0.00657393, 0.0108621, -0.00137179, -0.0049718
0.110295, 1.69379, -1.22747, -1.53918, -0.90029, -1.19586, 1.22842, -1.30268, 0.0433193, -0.00412244, -0.00772578, -0.00178014, -0.101024, -0.000166741, 2.01259e-05, 0.285408, 61.9742, 29.8728, 7.1048, 1.55292, 3.94839, -0.00999879, -3.21006e-05, -0.000741501, 0.00187241, 0.00361027, -0.0023403, -0.000671721, 0.0291696, -0.0138444, -0.0100964, -0.0571611, 0.0933776, 0.0091235, 0.470916, -0.542512, 0.336122, -2.08343, -2.16567, -0.129952, 0.470109, -0.542285, 0.33429, -2.08201, -2.16632, -0.123642, -0.00270489, 0.0261745, 0.00669572, 0.0118, -0.000495775, -0.00823004
0.111295, 1.69382, -1.22747, -1.53918, -0.900292, -1.19596, 1.22842, -1.30268, 0.0427366, -0.00327607, -0.00477828, -0.00118135, -0.0997591, 0.000150834, -0.001682, 0.285408, 61.9742, 29.8371, 7.1048, 1.56482, 3.94107, 0.0357776, -6.175e-05, -0.000730775, 0.00187754, 0.00365697, -0.00242962, -0.000677634, 0.0292057, -0.0141217, -0.00845468, -0.053175, 0.093322, 0.0115903, 0.470914, -0.542486, 0.336128, -2.08342, -2.16566, -0.129954, 0.470118, -0.542287, 0.334287, -2.08201, -2.16635, -0.123503, -0.00275491, 0.0266701, 0.00681835, 0.0120879, -0.000277395, -0.00650086
0.112295, 1.69387, -1.22746, -1.53918, -0.900293, -1.19605, 1.22842, -1.30268, 0.0495409, -0.00090945, -0.00260473, -0.000783503, -0.0977865, -0.00461451, -0.00112134, 0.134651, 61.9028, 29.7974, 7.1048, 1.54651, 3.94107, 0.0357776, -8.81196e-05, -0.000715545, 0.00187849, 0.00370204, -0.00252725, -0.00068542, 0.0252523, -0.0175713, -0.00705671, -0.0550566, 0.0920013, 0.0190914, 0.470911, -0.542459, 0.336135, -2.08341, -2.16566, -0.129956, 0.470131, -0.542286, 0.334289, -2.08201, -2.16639, -0.123356, -0.00280528, 0.0271696, 0.00694181, 0.0153917, 0.00405097, -0.00448736
0.113295, 1.6939, -1.22746, -1.53918, -0.900301, -1.19615, 1.22841, -1.30268, 0.0449134, -0.000903178, -0.00292493, -0.00311774, -0.101922, -0.00320263, -0.000747557, 0.0949785, 61.9028, 29.8371, 7.21588, 1.55292, 3.93374, 0.0357776, -0.000116965, -0.000703109, 0.00188526, 0.00375467, -0.00261917, -0.000691529, 0.0281668, -0.015268, -0.00715843, -0.0563216, 0.0964294, 0.0147007, 0.470908, -0.542432, 0.336142, -2.0834, -2.16565, -0.129958, 0.470142, -0.542285, 0.334284, -2.08201, -2.16642, -0.123207, -0.00285601, 0.0276729, 0.00706609, 0.0131415, 0.00159853, -0.00484726
0.114295, 1.69394, -1.22746, -1.53918, -0.900301, -1.19625, 1.22841, -1.30268, 0.0394311, 1.04407e-05, -0.00445663, -0.00207621, -0.0998581, -0.00189072, 0.00143441, -0.0161054, 61.8671, 29.7974, 7.21588, 1.55292, 3.9191, -0.0164075, -0.000146191, -0.000689105, 0.00188816, 0.00379658, -0.00271288, -0.000690574, 0.0313957, -0.0121807, -0.00665759, -0.0540385, 0.0963882, 0.00617708, 0.470905, -0.542404, 0.336149, -2.08338, -2.16565, -0.12996, 0.470154, -0.542286, 0.334283, -2.08203, -2.16645, -0.123068, -0.00290708, 0.0281801, 0.00719119, 0.0101412, -0.00128562, -0.00463651
0.115295, 1.69397, -1.22745, -1.53918, -0.900304, -1.19635, 1.22841, -1.30268, 0.0325574, 0.0016032, -0.00338752, -0.00231045, -0.102401, -0.00124675, 0.00143099, -0.0161054, 61.7917, 29.7974, 7.25555, 1.55292, 3.91269, -0.0292249, -0.000180367, -0.000680957, 0.00188979, 0.00384029, -0.00281175, -0.000684365, 0.0351066, -0.00840323, -0.00499359, -0.0525373, 0.100364, -0.000726377, 0.470902, -0.542376, 0.336156, -2.08337, -2.16564, -0.129962, 0.47016, -0.542291, 0.334283, -2.08205, -2.16648, -0.12292, -0.0029585, 0.0286911, 0.00731711, 0.00651092, -0.00484964, -0.00333055
0.116295, 1.69402, -1.22745, -1.53919, -0.900304, -1.19644, 1.22841, -1.30268, 0.0347993, 0.000943558, -0.0034987, -0.00153901, -0.099636, -0.00594807, -0.00026671, -0.166862, 61.7917, 29.8371, 7.25555, 1.53461, 3.9191, 0.00373412, -0.000210289, -0.000667342, 0.00189603, 0.00388858, -0.00290017, -0.000692916, 0.0339183, -0.00896473, -0.0058882, -0.0553704, 0.095385, 0.00342785, 0.470899, -0.542347, 0.336164, -2.08336, -2.16563, -0.129964, 0.470171, -0.54229, 0.334279, -2.08204, -2.16652, -0.12278, -0.00301027, 0.0292059, 0.00744383, 0.00694478, -0.00300052, -0.00391975
0.117295, 1.69405, -1.22745, -1.53918, -0.900307, -1.19654, 1.22841, -1.30268, 0.0345315, 0.00137032, 0.000124548, -0.00186026, -0.0984633, -0.00448382, 0.00861005, -0.242241, 61.756, 29.722, 7.29126, 1.5401, 3.9191, 0.0165515, -0.000240986, -0.000654047, 0.00189676, 0.00392713, -0.0029963, -0.000700016, 0.0336007, -0.00995173, -0.00429899, -0.0503372, 0.0956338, -0.00326276, 0.470896, -0.542318, 0.336171, -2.08334, -2.16563, -0.129966, 0.470183, -0.54229, 0.334281, -2.08205, -2.16656, -0.122643, -0.00306237, 0.0297245, 0.00757134, 0.00792492, -0.00237296, -0.00220418
0.118295, 1.69409, -1.22745, -1.53918, -0.900311, -1.19664, 1.22841, -1.30268, 0.0341934, 0.00177112, -0.00102067, -0.00216747, -0.101519, -0.00232689, 0.00579984, -0.317619, 61.7163, 29.7617, 7.33093, 1.52179, 3.89071, 0.0357776, -0.000274034, -0.000641945, 0.00190108, 0.00397001, -0.00309154, -0.000704375, 0.0352266, -0.00970827, -0.0043427, -0.0508417, 0.0999538, -0.00204779, 0.470893, -0.542288, 0.336179, -2.08333, -2.16562, -0.129968, 0.470193, -0.542292, 0.334279, -2.08206, -2.16659, -0.122501, -0.00311481, 0.0302468, 0.00769965, 0.00768611, -0.00345876, -0.00236508
0.119295, 1.69413, -1.22743, -1.53918, -0.900315, -1.19674, 1.22841, -1.30268, 0.0377504, 0.00771465, -0.000812211, -0.00545137, -0.0996798, -0.00157161, 0.00586962, -0.392998, 61.5695, 29.7617, 7.36664, 1.52179, 3.88339, -0.00267457, -0.00030578, -0.000629721, 0.00189792, 0.00401724, -0.00320219, -0.000702901, 0.0323237, -0.0127454, -0.00139209, -0.0506336, 0.105402, 0.00491946, 0.47089, -0.542258, 0.336186, -2.08331, -2.16562, -0.129971, 0.470203, -0.542293, 0.334284, -2.08208, -2.16663, -0.122339, -0.00316759, 0.0307728, 0.00782873, 0.0106699, -0.00039753, 0.00103611
0.120295, 1.69416, -1.22743, -1.53918, -0.90031, -1.19684, 1.22841, -1.30268, 0.0333255, 0.00536623, -0.00147551, -0.00213491, -0.098682, -0.000995194, 0.00556797, -0.468376, 61.5695, 29.7974, 7.29126, 1.5282, 3.87607, -0.0356336, -0.000344242, -0.000621511, 0.00190308, 0.00405933, -0.00329502, -0.000690038, 0.0360411, -0.009702, -0.00230787, -0.0480893, 0.102401, -0.00194693, 0.470887, -0.542227, 0.336194, -2.0833, -2.16561, -0.129973, 0.470209, -0.542299, 0.334281, -2.0821, -2.16665, -0.122199, -0.0032207, 0.0313025, 0.00795859, 0.00767747, -0.00352105, -0.000224603
0.121295, 1.6942, -1.22744, -1.53918, -0.900315, -1.19694, 1.22841, -1.30268, 0.0306884, 0.00198159, -0.000222575, -0.00254922, -0.0976334, -0.000318875, 0.00332554, -0.583427, 61.6449, 29.7617, 7.33093, 1.5282, 3.86233, -0.0164075, -0.000377715, -0.000606979, 0.00191088, 0.00410207, -0.00338556, -0.000699023, 0.0375595, -0.00887531, -0.0037576, -0.0458908, 0.0986396, -0.000881125, 0.470884, -0.542196, 0.336202, -2.08328, -2.1656, -0.129975, 0.470222, -0.542299, 0.334275, -2.0821, -2.16668, -0.122063, -0.00327414, 0.031836, 0.00808922, 0.00680013, -0.00429653, -0.00173702
0.122295, 1.69424, -1.22743, -1.53918, -0.900323, -1.19703, 1.22841, -1.30268, 0.0356943, 0.00320981, 0.000724049, -0.00673398, -0.0954191, 0.000206923, 0.00147791, -0.694511, 61.5695, 29.722, 7.40631, 1.49158, 3.84768, 0.0101428, -0.000408387, -0.000590697, 0.00191201, 0.00414131, -0.00348448, -0.000714189, 0.0339478, -0.0131433, -0.00354234, -0.0461147, 0.0990513, 0.0107955, 0.470881, -0.542164, 0.33621, -2.08327, -2.1656, -0.129978, 0.470236, -0.542297, 0.334277, -2.0821, -2.16673, -0.121923, -0.00332791, 0.0323731, 0.00822061, 0.0108871, -5.1764e-05, -0.000961452
0.123295, 1.69427, -1.22744, -1.53917, -0.900318, -1.19713, 1.22841, -1.30269, 0.0372766, 0.00130598, 0.00127623, -0.00309765, -0.0961812, -0.00437264, -5.22592e-05, -0.694511, 61.6092, 29.6863, 7.33093, 1.5163, 3.84036, 0.0431018, -0.000448378, -0.00058203, 0.00191643, 0.00417784, -0.00357709, -0.000709846, 0.0346192, -0.0124615, -0.00448977, -0.0485434, 0.0954766, 0.0107824, 0.470877, -0.542132, 0.336219, -2.08325, -2.16559, -0.12998, 0.470242, -0.542303, 0.334274, -2.08212, -2.16676, -0.12179, -0.00338201, 0.0329138, 0.00835276, 0.0101417, -5.53998e-05, -0.00184902
0.124295, 1.69431, -1.22743, -1.53917, -0.900321, -1.19723, 1.22841, -1.30269, 0.0364918, 0.00270449, 0.00165477, -0.003179, -0.0954751, -0.0025952, 0.000102539, -0.76989, 61.5338, 29.6506, 7.36664, 1.50989, 3.8193, 0.0431018, -0.000483668, -0.000568532, 0.00191744, 0.00421615, -0.00367853, -0.000713388, 0.0353379, -0.012522, -0.00339036, -0.0460233, 0.0974032, 0.0103652, 0.470874, -0.542099, 0.336227, -2.08324, -2.16558, -0.129982, 0.470253, -0.542304, 0.334276, -2.08213, -2.1668, -0.121648, -0.00343642, 0.0334582, 0.00848565, 0.0102136, -0.000387529, -0.000744906
0.125295, 1.69434, -1.22743, -1.53918, -0.900321, -1.19733, 1.22841, -1.30269, 0.0393246, 0.00269116, -0.000590708, -0.00149312, -0.0950484, -0.00180387, 0.000171393, -0.845268, 61.4981, 29.722, 7.33093, 1.50348, 3.81198, 0.0431018, -0.0005221, -0.00055742, 0.00192127, 0.00426125, -0.00377963, -0.000710199, 0.0356078, -0.0135684, -0.00408285, -0.0466269, 0.097799, 0.0107317, 0.47087, -0.542066, 0.336235, -2.08322, -2.16557, -0.129985, 0.470262, -0.542307, 0.334274, -2.08214, -2.16683, -0.121497, -0.00349116, 0.0340062, 0.00861928, 0.0111885, 4.41248e-05, -0.00136949
0.126295, 1.69438, -1.22743, -1.53917, -0.900319, -1.19743, 1.22842, -1.30268, 0.0371674, 0.00183382, 0.00125904, -0.00022415, -0.0948608, -0.00119006, 0.00141224, -0.884941, 61.4981, 29.6506, 7.29126, 1.50348, 3.80466, 0.0101428, -0.000559576, -0.000544714, 0.00192367, 0.00429586, -0.00387439, -0.000707109, 0.0372326, -0.0125866, -0.00363232, -0.0434109, 0.0970719, 0.00726301, 0.470867, -0.542032, 0.336244, -2.0832, -2.16557, -0.129987, 0.470273, -0.542309, 0.334274, -2.08216, -2.16686, -0.121365, -0.00354621, 0.0345577, 0.00875364, 0.0102277, -0.00111796, -0.00101395
0.127295, 1.69441, -1.22743, -1.53917, -0.900319, -1.19752, 1.22841, -1.30268, 0.0384295, 0.00125233, 0.00175419, -0.000267, -0.0895937, -0.000444905, 0.00245751, -0.884941, 61.4981, 29.611, 7.29126, 1.49707, 3.79001, -0.0292249, -0.000598333, -0.000534104, 0.00192674, 0.00433215, -0.00396649, -0.000701545, 0.0362152, -0.0141676, -0.00385629, -0.0400275, 0.0928409, 0.00956309, 0.470863, -0.541997, 0.336253, -2.08319, -2.16556, -0.12999, 0.470281, -0.542312, 0.334274, -2.08218, -2.16688, -0.121233, -0.00360158, 0.0351128, 0.00888872, 0.0117067, 0.000541287, -0.000990405
0.128295, 1.69446, -1.22742, -1.53917, -0.900324, -1.19762, 1.22841, -1.30268, 0.0418952, 0.00262046, 0.000231547, -0.00119419, -0.0905826, -0.000204792, 0.00215653, -0.996025, 61.4227, 29.6506, 7.33093, 1.49158, 3.7836, -0.0420422, -0.000633738, -0.000518506, 0.00193238, 0.00437855, -0.0040635, -0.000708031, 0.0353821, -0.0159952, -0.00392237, -0.0423487, 0.0957138, 0.0130597, 0.47086, -0.541962, 0.336262, -2.08317, -2.16555, -0.129992, 0.470294, -0.54231, 0.334271, -2.08218, -2.16692, -0.121086, -0.00365725, 0.0356715, 0.00902453, 0.013444, 0.0020079, -0.000846496
0.129295, 1.69449, -1.22742, -1.53916, -0.900322, -1.19771, 1.22842, -1.30268, 0.0416634, 0.00259895, 0.0027454, 0.000900977, -0.0913235, 0.000296846, 0.000758208, -0.996025, 61.387, 29.5395, 7.25555, 1.48517, 3.76895, -0.0228162, -0.000670612, -0.000504401, 0.00193012, 0.00440525, -0.00415978, -0.000714015, 0.0363616, -0.0158861, -0.0027416, -0.0389165, 0.0964694, 0.0133989, 0.470856, -0.541926, 0.336271, -2.08315, -2.16554, -0.129995, 0.470306, -0.542311, 0.334276, -2.08219, -2.16696, -0.120962, -0.00371324, 0.0362337, 0.00916105, 0.0133574, 0.00141655, 0.00030596
0.130295, 1.69453, -1.22741, -1.53916, -0.900325, -1.19781, 1.22842, -1.30268, 0.039241, 0.00258041, 0.0018247, -0.000284165, -0.0929037, 0.000387294, -0.00164022, -1.0357, 61.3513, 29.5395, 7.29126, 1.50348, 3.76163, 0.0357776, -0.000706996, -0.000488663, 0.00193351, 0.0044444, -0.00425625, -0.00072839, 0.0381849, -0.0145062, -0.00314781, -0.0404544, 0.098162, 0.0135217, 0.470852, -0.54189, 0.33628, -2.08314, -2.16554, -0.129998, 0.470319, -0.542309, 0.334276, -2.08218, -2.16701, -0.120825, -0.00376953, 0.0367994, 0.00929827, 0.0119737, 0.000188606, -0.000200405
0.131295, 1.69457, -1.22741, -1.53916, -0.900328, -1.1979, 1.22842, -1.30269, 0.035412, 0.0017297, 0.00121229, -0.00332739, -0.0932732, 0.00046806, -0.00158377, -0.996025, 61.3513, 29.5395, 7.29126, 1.50348, 3.7543, 0.0495105, -0.000746112, -0.00047545, 0.00193782, 0.0044796, -0.00434738, -0.000733267, 0.0398598, -0.0129565, -0.00412019, -0.0418966, 0.0981363, 0.0119988, 0.470849, -0.541853, 0.336289, -2.08312, -2.16553, -0.13, 0.47033, -0.54231, 0.334274, -2.08219, -2.16704, -0.120697, -0.00382613, 0.0373685, 0.00943618, 0.0103942, -0.000808971, -0.0012368
0.132295, 1.69461, -1.22741, -1.53915, -0.900326, -1.19798, 1.22842, -1.30268, 0.037502, 0.00292344, 0.00173309, -0.00166934, -0.089381, 0.00158842, 0.000890689, -0.996025, 61.2759, 29.4999, 7.25555, 1.52179, 3.7186, -0.00267457, -0.000784446, -0.000460263, 0.00193809, 0.00450676, -0.00444134, -0.00073204, 0.0391349, -0.0145091, -0.00306526, -0.0379653, 0.0968719, 0.0117169, 0.470845, -0.541816, 0.336299, -2.0831, -2.16552, -0.130003, 0.470342, -0.54231, 0.334277, -2.08221, -2.16708, -0.120574, -0.00388303, 0.0379411, 0.00957479, 0.0119004, 0.000380424, 8.15122e-06
0.133295, 1.69464, -1.22741, -1.53916, -0.900328, -1.19807, 1.22842, -1.30268, 0.0378737, 0.00111904, -0.000610195, -0.00132761, -0.0908879, 0.00102441, 0.000604108, -0.960319, 61.3116, 29.5752, 7.25555, 1.54651, 3.7186, -0.00267457, -0.000825247, -0.000447402, 0.00194614, 0.00454594, -0.00452779, -0.000734226, 0.0405611, -0.0140263, -0.00501985, -0.0411362, 0.0964609, 0.0105262, 0.470841, -0.541778, 0.336308, -2.08308, -2.16551, -0.130006, 0.470353, -0.54231, 0.334272, -2.08221, -2.16711, -0.120446, -0.00394022, 0.0385172, 0.00971408, 0.0113409, -0.000169056, -0.00199053
0.134295, 1.69468, -1.2274, -1.53916, -0.900331, -1.19816, 1.22842, -1.30268, 0.0390619, 0.00334846, -0.000408558, -0.00104612, -0.0880372, 0.00119957, 0.00163118, -0.960319, 61.2006, 29.5752, 7.25555, 1.57764, 3.70395, -0.0356336, -0.000862262, -0.000430862, 0.00194573, 0.00457911, -0.00462598, -0.000739875, 0.0399134, -0.0150152, -0.00369289, -0.0392145, 0.0967309, 0.011483, 0.470837, -0.541739, 0.336318, -2.08306, -2.1655, -0.130009, 0.470366, -0.542308, 0.334276, -2.08222, -2.16715, -0.120313, -0.00399771, 0.0390967, 0.00985405, 0.0122964, 0.000885775, -0.000470493
0.135295, 1.69472, -1.2274, -1.53916, -0.900327, -1.19824, 1.22842, -1.30268, 0.0354664, 0.00307051, -0.00203693, 0.000945045, -0.0851227, 0.00128891, -0.000127449, -0.920646, 61.1649, 29.6506, 7.18018, 1.58954, 3.69021, -0.00267457, -0.000905099, -0.000418805, 0.00195019, 0.00461239, -0.00471468, -0.000740712, 0.0424999, -0.0126538, -0.00400755, -0.0376182, 0.094214, 0.00819666, 0.470833, -0.5417, 0.336328, -2.08305, -2.1655, -0.130011, 0.470376, -0.54231, 0.334274, -2.08222, -2.16718, -0.120189, -0.0040555, 0.0396796, 0.00999469, 0.00996184, -0.00113298, -0.000972135
0.136295, 1.69476, -1.2274, -1.53916, -0.900324, -1.19832, 1.22843, -1.30269, 0.0408137, 0.00121402, 0.000404294, 0.00230268, -0.0842386, 0.0016585, -0.00177604, -0.920646, 61.2006, 29.5752, 7.1048, 1.63257, 3.66824, 0.0431018, -0.000943898, -0.000401395, 0.00195463, 0.00463591, -0.00479547, -0.000754835, 0.0406557, -0.0160197, -0.0043445, -0.0349673, 0.0920109, 0.0154899, 0.470829, -0.541661, 0.336338, -2.08303, -2.16549, -0.130014, 0.47039, -0.542307, 0.334273, -2.08222, -2.16722, -0.120085, -0.00411357, 0.0402659, 0.010136, 0.0131867, 0.00146468, -0.000979876
0.137295, 1.6948, -1.2274, -1.53915, -0.900332, -1.1984, 1.22843, -1.30268, 0.041334, 0.000811026, 0.001104, -0.00340535, -0.0820114, 0.00109474, -0.00141812, -0.920646, 61.2006, 29.5395, 7.18018, 1.63898, 3.66824, 0.0495105, -0.000980279, -0.000383059, 0.0019604, 0.00466717, -0.00487627, -0.000768981, 0.0387304, -0.017903, -0.00524914, -0.0364977, 0.0902931, 0.0217862, 0.470825, -0.54162, 0.336348, -2.08301, -2.16548, -0.130017, 0.470406, -0.542301, 0.334271, -2.08221, -2.16726, -0.119973, -0.00417194, 0.0408555, 0.0102779, 0.014907, 0.00417253, -0.00148943
0.138295, 1.69484, -1.2274, -1.53916, -0.900326, -1.19848, 1.22843, -1.30268, 0.0418179, 0.000541942, -0.00186301, 1.81582e-05, -0.0814006, 0.00177279, -0.000942965, -0.920646, 61.2006, 29.6506, 7.06909, 1.66919, 3.63986, 0.0495105, -0.00102371, -0.00036918, 0.00196549, 0.00469517, -0.0049599, -0.000766964, 0.0407324, -0.0171234, -0.00599508, -0.0365718, 0.0900684, 0.0176295, 0.470821, -0.541579, 0.336358, -2.08299, -2.16547, -0.13002, 0.470417, -0.542301, 0.334269, -2.08222, -2.16729, -0.11986, -0.00423059, 0.0414484, 0.0104206, 0.0141144, 0.00287272, -0.00237231
0.139295, 1.69487, -1.2274, -1.53915, -0.900333, -1.19855, 1.22843, -1.30268, 0.0402758, 0.000362238, -0.000314405, -0.00198368, -0.0801537, 0.00171825, -0.000389448, -0.845268, 61.2006, 29.611, 7.14447, 1.68201, 3.62521, 0.0431018, -0.00106227, -0.000352632, 0.00196935, 0.00471774, -0.0050369, -0.000782949, 0.0408794, -0.0171506, -0.00580027, -0.0352812, 0.0891749, 0.0185212, 0.470816, -0.541538, 0.336369, -2.08297, -2.16546, -0.130023, 0.47043, -0.542297, 0.334269, -2.08221, -2.16733, -0.119761, -0.00428952, 0.0420447, 0.0105638, 0.0140951, 0.00329522, -0.00206132
0.140295, 1.69491, -1.22741, -1.53916, -0.900331, -1.19862, 1.22843, -1.30268, 0.0420622, -0.00411949, -0.000209916, -0.000568843, -0.0798702, 0.00192078, 0.00218315, -0.884941, 61.387, 29.611, 7.1048, 1.71222, 3.60415, -0.0228162, -0.00110429, -0.000334977, 0.00198268, 0.00474506, -0.005104, -0.000785475, 0.0414857, -0.0180452, -0.00832765, -0.0347378, 0.0848171, 0.0167589, 0.470812, -0.541496, 0.336379, -2.08295, -2.16545, -0.130026, 0.470445, -0.542293, 0.33426, -2.08221, -2.16735, -0.119666, -0.00434873, 0.0426443, 0.0107077, 0.0148585, 0.00372432, -0.0045355
0.141295, 1.69495, -1.2274, -1.53916, -0.900334, -1.19869, 1.22843, -1.30268, 0.0414232, -0.000147343, -0.0010682, -0.000510036, -0.079084, 0.00154833, 0.00121911, -0.845268, 61.2759, 29.6506, 7.1048, 1.72504, 3.59683, -0.0164075, -0.00114415, -0.0003184, 0.00198436, 0.00477102, -0.00518778, -0.000793709, 0.0420173, -0.0175085, -0.00633032, -0.0348523, 0.0882834, 0.0168636, 0.470808, -0.541453, 0.33639, -2.08293, -2.16544, -0.130029, 0.470458, -0.542289, 0.334262, -2.08221, -2.16739, -0.119556, -0.00440822, 0.0432472, 0.0108522, 0.0143555, 0.00347186, -0.00248637
0.142295, 1.69499, -1.2274, -1.53916, -0.900329, -1.19876, 1.22844, -1.30267, 0.0346242, -0.000933049, -0.000712309, 0.00216033, -0.0789106, 0.00157216, 0.00105087, -0.845268, 61.3116, 29.6506, 6.99371, 1.74884, 3.58218, -0.0228162, -0.00118792, -0.000303248, 0.00199048, 0.00479215, -0.00526138, -0.000796092, 0.0464249, -0.0132379, -0.00598145, -0.0320717, 0.0871932, 0.00827225, 0.470803, -0.54141, 0.336401, -2.08291, -2.16543, -0.130032, 0.47047, -0.542287, 0.33426, -2.08221, -2.16741, -0.119462, -0.00446799, 0.0438533, 0.0109973, 0.0102022, -0.000502511, -0.00255408
0.143295, 1.69503, -1.2274, -1.53916, -0.900332, -1.19883, 1.22844, -1.30268, 0.0368061, 0.0010487, -0.00214544, 0.00053142, -0.0787793, 0.00155479, -0.0007569, -0.845268, 61.2402, 29.722, 7.02942, 1.77356, 3.56845, 0.0165515, -0.00122946, -0.000285809, 0.00199311, 0.00481646, -0.00534712, -0.000810738, 0.0456814, -0.0145879, -0.00570957, -0.0340877, 0.0896739, 0.0130326, 0.470799, -0.541366, 0.336412, -2.08288, -2.16542, -0.130036, 0.470485, -0.542283, 0.334261, -2.0822, -2.16746, -0.119352, -0.00452802, 0.0444627, 0.0111431, 0.0114737, 0.000854756, -0.00206631
0.144295, 1.69506, -1.22739, -1.53915, -0.900335, -1.1989, 1.22844, -1.30268, 0.0329243, 0.00162738, -0.000595175, 0.000299096, -0.078744, 0.00184887, -0.00243694, -0.76989, 61.2006, 29.6863, 7.02942, 1.79828, 3.54648, 0.0687366, -0.00127345, -0.000271326, 0.00199539, 0.00483361, -0.00542551, -0.000822986, 0.047615, -0.012822, -0.0046672, -0.031796, 0.090468, 0.0118785, 0.470794, -0.541322, 0.336423, -2.08286, -2.16541, -0.130039, 0.470496, -0.542281, 0.334262, -2.0822, -2.1675, -0.119258, -0.00458833, 0.0450753, 0.0112895, 0.00975771, -0.000675007, -0.00113919
0.145295, 1.69509, -1.22739, -1.53916, -0.900335, -1.19896, 1.22845, -1.30269, 0.0323747, 0.00108509, -0.0021601, 0.000993227, -0.0730134, 0.00228265, -0.00114958, -0.76989, 61.2006, 29.7617, 6.99371, 1.80469, 3.5181, 0.0559192, -0.00131793, -0.000255595, 0.00200255, 0.0048564, -0.00549883, -0.000831345, 0.0479854, -0.0128564, -0.00543159, -0.0296241, 0.0857877, 0.0106749, 0.47079, -0.541277, 0.336434, -2.08284, -2.1654, -0.130042, 0.470508, -0.542278, 0.334259, -2.08219, -2.16753, -0.119163, -0.00464891, 0.0456911, 0.0114364, 0.00971689, -0.000304929, -0.00180674
0.146295, 1.69513, -1.22739, -1.53915, -0.900344, -1.19902, 1.22845, -1.30268, 0.0350422, -0.000204503, -0.0005121, -0.00113213, -0.068795, 0.00206348, -2.01596e-05, -0.76989, 61.2402, 29.722, 7.06909, 1.80469, 3.50345, 0.0357776, -0.00135864, -0.000236616, 0.00200917, 0.0048752, -0.00556783, -0.000848564, 0.0457244, -0.0156157, -0.00611488, -0.0278001, 0.0814297, 0.0163233, 0.470785, -0.541231, 0.336446, -2.08282, -2.16539, -0.130045, 0.470524, -0.542271, 0.334257, -2.08218, -2.16757, -0.119077, -0.00470975, 0.04631, 0.011584, 0.0123053, 0.00276574, -0.00206679
0.147295, 1.69516, -1.22739, -1.53916, -0.900342, -1.19908, 1.22845, -1.30268, 0.0361353, -0.000136241, -0.00126946, 0.000985205, -0.0711089, 0.0016463, 0.00168217, -0.734184, 61.2402, 29.7617, 6.99371, 1.823, 3.49612, -0.00999879, -0.00140585, -0.000223932, 0.00201383, 0.00489404, -0.00563985, -0.000845248, 0.0470717, -0.0153242, -0.00618576, -0.0289212, 0.0834086, 0.0127567, 0.47078, -0.541185, 0.336457, -2.0828, -2.16538, -0.130049, 0.470533, -0.54227, 0.334256, -2.08219, -2.16759, -0.118986, -0.00477085, 0.0469322, 0.0117321, 0.0119991, 0.00205729, -0.00219091
0.148295, 1.6952, -1.22739, -1.53915, -0.900347, -1.19914, 1.22845, -1.30268, 0.0361615, 0.000837264, -0.000846339, 0.000639343, -0.0674732, 0.0016057, 0.00135894, -0.809562, 61.2006, 29.7617, 6.99371, 1.823, 3.48239, -0.0164075, -0.00144649, -0.00020432, 0.00201628, 0.00491104, -0.00571392, -0.000859584, 0.0466957, -0.015914, -0.00556778, -0.0268451, 0.0817042, 0.0148631, 0.470776, -0.541138, 0.336469, -2.08277, -2.16537, -0.130052, 0.470549, -0.542262, 0.334259, -2.08218, -2.16763, -0.118897, -0.00483222, 0.0475574, 0.0118809, 0.0125361, 0.00298274, -0.00139257
0.149295, 1.69522, -1.22739, -1.53916, -0.900356, -1.1992, 1.22845, -1.30268, 0.0359972, 0.00183604, -0.00139947, -0.00135011, -0.0610655, 0.00161266, 0.000397437, -0.734184, 61.2759, 29.7974, 7.06909, 1.85321, 3.46774, -0.00267457, -0.0014943, -0.000192589, 0.00202499, 0.00493601, -0.00578145, -0.000865824, 0.0455776, -0.0169125, -0.0054983, -0.0250418, 0.077983, 0.0193215, 0.470771, -0.54109, 0.336481, -2.08275, -2.16536, -0.130056, 0.470558, -0.54226, 0.334254, -2.08217, -2.16766, -0.118805, -0.00489384, 0.0481858, 0.0120302, 0.0134341, 0.00474567, -0.00103194
0.150295, 1.69525, -1.22739, -1.53915, -0.900354, -1.19926, 1.22845, -1.30268, 0.0343699, 0.00231271, -9.7778e-05, 0.00168856, -0.0592161, 0.00161738, -0.00166774, -0.734184, 61.2402, 29.7617, 6.95801, 1.84131, 3.45309, 0.0495105, -0.00154121, -0.000177945, 0.00202624, 0.00494158, -0.0058498, -0.000877079, 0.0471694, -0.0157901, -0.00429957, -0.0211805, 0.0768503, 0.0184033, 0.470766, -0.541042, 0.336493, -2.08273, -2.16535, -0.130059, 0.470569, -0.542257, 0.334257, -2.08217, -2.16769, -0.118734, -0.00495572, 0.0488173, 0.01218, 0.0123528, 0.00357437, 8.63809e-05
0.151295, 1.69528, -1.22739, -1.53915, -0.900362, -1.19931, 1.22846, -1.30268, 0.0328945, -0.000866554, -6.51986e-05, -0.00198851, -0.0580289, 0.00131542, -0.00206121, -0.734184, 61.3513, 29.7617, 6.95801, 1.8349, 3.44668, 0.0751453, -0.00158668, -0.000161621, 0.00203504, 0.00495603, -0.0059091, -0.000893848, 0.0474145, -0.0159671, -0.00666539, -0.0225124, 0.0731696, 0.0210928, 0.470761, -0.540993, 0.336505, -2.0827, -2.16534, -0.130063, 0.470582, -0.542251, 0.334253, -2.08215, -2.16773, -0.118663, -0.00501785, 0.0494519, 0.0123305, 0.0123893, 0.00434094, -0.00214367
0.152295, 1.69531, -1.2274, -1.53915, -0.900372, -1.19936, 1.22846, -1.30268, 0.0317807, -0.00210557, -0.00180671, -0.00550551, -0.0539485, 0.00141933, -0.0001873, -0.734184, 61.4227, 29.8371, 6.99371, 1.85962, 3.43204, 0.0431018, -0.00163364, -0.000145841, 0.00204442, 0.00497449, -0.00597293, -0.000902753, 0.0472051, -0.0163629, -0.00848284, -0.0235048, 0.0693732, 0.0218147, 0.470756, -0.540944, 0.336517, -2.08268, -2.16533, -0.130066, 0.470594, -0.542246, 0.334248, -2.08214, -2.16776, -0.118582, -0.00508023, 0.0500896, 0.0124815, 0.0126478, 0.00548344, -0.00376759
0.153295, 1.69533, -1.22739, -1.53915, -0.900382, -1.19941, 1.22846, -1.30268, 0.0305904, -0.00129678, -0.00120448, -0.00723097, -0.0496179, 0.00175991, 0.000621151, -0.694511, 61.4227, 29.8371, 6.99371, 1.85321, 3.41006, 0.0229602, -0.00168115, -0.000131697, 0.00204988, 0.00498852, -0.00603838, -0.000911382, 0.0468572, -0.0167619, -0.00799368, -0.0210903, 0.0672077, 0.0231223, 0.470751, -0.540894, 0.33653, -2.08266, -2.16532, -0.13007, 0.470604, -0.542241, 0.334248, -2.08213, -2.16779, -0.118505, -0.00514285, 0.0507303, 0.012633, 0.0129892, 0.00640871, -0.00309223
0.154295, 1.69536, -1.22739, -1.53914, -0.900382, -1.19946, 1.22846, -1.30268, 0.027674, 0.00543427, 0.000960244, -0.00500475, -0.047067, 0.00168182, 0.00163483, -0.734184, 61.4227, 29.7617, 6.84296, 1.86603, 3.39633, -0.00999879, -0.00172767, -0.000114789, 0.00205058, 0.00499076, -0.00610341, -0.000922803, 0.0478765, -0.0151983, -0.00286101, -0.0158531, 0.0716768, 0.0190875, 0.470746, -0.540843, 0.336542, -2.08263, -2.16531, -0.130073, 0.470618, -0.542235, 0.334252, -2.08212, -2.16782, -0.118441, -0.00520573, 0.051374, 0.0127851, 0.011591, 0.00518728, 0.00201495
0.155295, 1.69538, -1.22739, -1.53914, -0.900394, -1.19951, 1.22846, -1.30268, 0.0269838, 0.00420121, -0.00112308, -0.00721496, -0.0446813, 0.00166369, 0.000343919, -0.694511, 61.4227, 29.8371, 6.84296, 1.86603, 3.38168, 0.0101428, -0.00177635, -0.000100878, 0.00205645, 0.00500634, -0.00616911, -0.00093377, 0.0482692, -0.0152667, -0.00464538, -0.0174914, 0.0691314, 0.0215156, 0.470741, -0.540792, 0.336555, -2.08261, -2.1653, -0.130077, 0.470628, -0.542231, 0.334251, -2.08211, -2.16785, -0.118362, -0.00526884, 0.0520207, 0.0129378, 0.0115447, 0.00572593, 0.000341345
0.156295, 1.69541, -1.22739, -1.53913, -0.900408, -1.19955, 1.22847, -1.30268, 0.0267341, 0.00462936, 0.00325876, -0.00871654, -0.0428677, 0.00110908, -0.00146613, -0.658806, 61.4981, 29.7974, 6.84296, 1.86603, 3.38168, 0.0559192, -0.00182325, -8.47831e-05, 0.00206205, 0.00501, -0.00622487, -0.000955978, 0.047232, -0.0163691, -0.0031369, -0.0137923, 0.0679671, 0.0271462, 0.470735, -0.54074, 0.336568, -2.08258, -2.16528, -0.130081, 0.47064, -0.542223, 0.33425, -2.08209, -2.1679, -0.118308, -0.0053322, 0.0526704, 0.0130909, 0.0126006, 0.00721177, 0.00211055
0.157295, 1.69543, -1.22739, -1.53913, -0.900425, -1.19959, 1.22847, -1.30268, 0.0256615, 0.00283952, 0.00455775, -0.0106839, -0.0422006, 0.00128189, 5.93591e-06, -0.734184, 61.5338, 29.8371, 6.88263, 1.88434, 3.36703, 0.0293689, -0.0018689, -6.6611e-05, 0.00206838, 0.0050194, -0.00628383, -0.000974312, 0.0475802, -0.0166166, -0.00397949, -0.0129662, 0.0661221, 0.0272776, 0.47073, -0.540687, 0.336581, -2.08255, -2.16527, -0.130085, 0.470654, -0.542214, 0.334249, -2.08207, -2.16793, -0.118243, -0.0053958, 0.0533231, 0.0132446, 0.0127659, 0.00766185, 0.00136913
0.158295, 1.69545, -1.22739, -1.53913, -0.900434, -1.19963, 1.22847, -1.30268, 0.0237473, 0.00149917, 0.00265047, -0.0124749, -0.0412411, 0.000854564, -0.00169146, -0.619133, 61.5695, 29.8728, 6.80725, 1.89075, 3.36703, 0.0751453, -0.00192187, -5.68761e-05, 0.00207319, 0.00502439, -0.00633936, -0.000983895, 0.0488647, -0.0157029, -0.00567562, -0.015091, 0.0643506, 0.0281438, 0.470725, -0.540634, 0.336594, -2.08253, -2.16526, -0.130089, 0.47066, -0.542212, 0.334249, -2.08206, -2.16796, -0.118186, -0.00545963, 0.0539787, 0.0133988, 0.0117733, 0.00727493, -0.000324877
0.159295, 1.69546, -1.22739, -1.53912, -0.90045, -1.19967, 1.22847, -1.30268, 0.0242897, 0.00344112, 0.00210237, -0.0126723, -0.0405787, 0.00162085, 0.000805148, -0.583427, 61.6092, 29.8728, 6.80725, 1.89624, 3.33865, 0.0229602, -0.00197247, -4.37623e-05, 0.00207671, 0.00502697, -0.00639848, -0.000990846, 0.0491202, -0.0161751, -0.00476283, -0.0144508, 0.0665418, 0.0263356, 0.470719, -0.54058, 0.336608, -2.0825, -2.16525, -0.130092, 0.47067, -0.542207, 0.334251, -2.08205, -2.16799, -0.118128, -0.00552369, 0.0546373, 0.0135535, 0.0122239, 0.00755981, 0.000675179
0.160295, 1.69548, -1.22738, -1.53912, -0.900468, -1.19971, 1.22848, -1.30268, 0.0247364, 0.00279558, 0.00279634, -0.0135435, -0.0350743, 0.00108055, 0.00053677, -0.543754, 61.6092, 29.9482, 6.84296, 1.89624, 3.33865, 0.0229602, -0.00202066, -2.83339e-05, 0.0020798, 0.00503028, -0.00645619, -0.00100935, 0.0481129, -0.0173155, -0.00514595, -0.0121465, 0.061511, 0.0300532, 0.470714, -0.540525, 0.336621, -2.08248, -2.16524, -0.130096, 0.470681, -0.542198, 0.334253, -2.08204, -2.16803, -0.118071, -0.00558799, 0.0552987, 0.0137087, 0.0132482, 0.00932255, 0.000573056
0.161295, 1.69549, -1.22737, -1.53911, -0.900477, -1.19974, 1.22848, -1.30268, 0.0223553, 0.00538428, 0.00443781, -0.0138274, -0.0309749, 0.00177152, 0.000832568, -0.543754, 61.6092, 29.9839, 6.73187, 1.89624, 3.31027, 0.0101428, -0.00207331, -1.59638e-05, 0.00207999, 0.00502472, -0.00651447, -0.0010161, 0.0484433, -0.0169134, -0.0029486, -0.00760184, 0.0612545, 0.0298219, 0.470708, -0.54047, 0.336635, -2.08245, -2.16522, -0.1301, 0.47069, -0.542194, 0.334258, -2.08203, -2.16806, -0.118023, -0.00565251, 0.0559631, 0.0138645, 0.0128755, 0.00930397, 0.00285753
0.162295, 1.69551, -1.22737, -1.5391, -0.9005, -1.19977, 1.22848, -1.30268, 0.02047, 0.00550665, 0.00260183, -0.0176962, -0.0294264, 0.00172354, 0.000792407, -0.543754, 61.6806, 30.0236, 6.77154, 1.93378, 3.29562, 0.00373412, -0.00212261, -5.18532e-07, 0.00208539, 0.00502892, -0.00656937, -0.00103646, 0.0488803, -0.0166018, -0.00401557, -0.00991188, 0.0608406, 0.0310854, 0.470702, -0.540414, 0.336649, -2.08242, -2.16521, -0.130104, 0.470701, -0.542186, 0.334258, -2.08201, -2.1681, -0.117969, -0.00571726, 0.0566303, 0.0140207, 0.012476, 0.00969279, 0.00190041
0.163295, 1.69553, -1.22737, -1.5391, -0.900521, -1.1998, 1.22848, -1.30268, 0.0163706, 0.00173436, 0.000492595, -0.0196207, -0.0312336, 0.00192891, -0.000183804, -0.583427, 61.7917, 30.095, 6.77154, 1.93378, 3.27456, 0.0229602, -0.00217218, 1.53836e-05, 0.00209177, 0.00503158, -0.00662008, -0.00105987, 0.0519979, -0.0143074, -0.00705721, -0.0128798, 0.0591911, 0.0282188, 0.470697, -0.540357, 0.336663, -2.08239, -2.1652, -0.130108, 0.470713, -0.542176, 0.334258, -2.08198, -2.16814, -0.117921, -0.00578224, 0.0573004, 0.0141774, 0.0101196, 0.00766264, -0.00136342
0.164295, 1.69553, -1.22737, -1.5391, -0.900521, -1.1998, 1.22848, -1.30268, 0.0163706, 0.00173436, 0.000492595, -0.0196207, -0.0312336, 0.00192891, -0.000183804, -0.583427, 61.7917, 30.095, 6.77154, 1.93378, 3.27456, 0.0229602, -0.00223121, 1.92485e-05, 0.00209661, 0.00501383, -0.00664297, -0.00105336, 0.0526893, -0.0143493, -0.00710418, -0.0127292, 0.0595418, 0.0282767, 0.470691, -0.5403, 0.336677, -2.08237, -2.16519, -0.130113, 0.470713, -0.542176, 0.334258, -2.08198, -2.16814, -0.117921, -0.00584743, 0.0579733, 0.0143346, 0.0101196, 0.00766264, -0.00136342
0.165295, 1.69553, -1.22737, -1.5391, -0.900521, -1.1998, 1.22848, -1.30268, 0.0163706, 0.00173436, 0.000492595, -0.0196207, -0.0312336, 0.00192891, -0.000183804, -0.583427, 61.7917, 30.095, 6.77154, 1.93378, 3.27456, 0.0229602, -0.00229094, 2.31553e-05, 0.00210151, 0.00499585, -0.00666613, -0.00104677, 0.0533835, -0.0143913, -0.00715112, -0.0125775, 0.0598943, 0.0283348, 0.470685, -0.540242, 0.336692, -2.08234, -2.16517, -0.130117, 0.470713, -0.542176, 0.334258, -2.08198, -2.16814, -0.117921, -0.00591285, 0.058649, 0.0144922, 0.0101196, 0.00766264, -0.00136342
0.166295, 1.69556, -1.22735, -1.53907, -0.90059, -1.19987, 1.22849, -1.30268, 0.0111089, 0.00399518, 0.00639232, -0.0253648, -0.0316813, 0.00510716, 9.62458e-05, -0.543754, 62.0139, 30.1703, 6.69617, 1.94568, 3.25259, 0.0495105, -0.00232485, 5.58439e-05, 0.00209664, 0.00501625, -0.00676989, -0.00112176, 0.0536909, -0.0142945, -0.00401744, -0.00641652, 0.0643955, 0.0305934, 0.470679, -0.540183, 0.336706, -2.08231, -2.16516, -0.130121, 0.470741, -0.54215, 0.334271, -2.08192, -2.16826, -0.117805, -0.00597848, 0.0593275, 0.0146504, 0.0100848, 0.00754821, 0.00184173
0.167295, 1.69556, -1.22734, -1.53906, -0.900613, -1.1999, 1.22849, -1.30268, 0.0119214, 0.00769931, 0.00322748, -0.0267602, -0.0291002, 0.00420754, 0.00152223, -0.543754, 61.9742, 30.2457, 6.62079, 1.96399, 3.23886, 0.0101428, -0.00237831, 6.81562e-05, 0.00209427, 0.00501041, -0.00683118, -0.00113604, 0.053321, -0.0146033, -0.00332298, -0.00907574, 0.066248, 0.030522, 0.470673, -0.540124, 0.336721, -2.08228, -2.16515, -0.130125, 0.470749, -0.542144, 0.334279, -2.08191, -2.16829, -0.117755, -0.00604433, 0.0600088, 0.0148089, 0.01034, 0.00850008, 0.00273267
0.168295, 1.69557, -1.22733, -1.53905, -0.900646, -1.19991, 1.22849, -1.30268, 0.00812535, 0.00740267, 0.00574074, -0.0305613, -0.0219734, 0.0032969, 0.00148954, -0.508049, 62.0496, 30.2457, 6.65649, 1.9704, 3.23153, -0.00267457, -0.00242816, 8.27498e-05, 0.00209544, 0.00500178, -0.00687717, -0.00115996, 0.052584, -0.0144473, -0.00307485, -0.00544544, 0.06007, 0.0337907, 0.470667, -0.540064, 0.336735, -2.08225, -2.16513, -0.130129, 0.470759, -0.542132, 0.334284, -2.08188, -2.16834, -0.117725, -0.00611038, 0.0606929, 0.014968, 0.010101, 0.00986704, 0.00325533
0.169295, 1.69557, -1.22733, -1.53905, -0.90067, -1.19993, 1.22849, -1.30268, 0.00524859, 0.0050292, 0.00189238, -0.0265995, -0.0219084, 0.00290592, 0.000518306, -0.468376, 62.0853, 30.3568, 6.54541, 1.99512, 3.21689, 0.0101428, -0.00248383, 9.24801e-05, 0.00209844, 0.00500053, -0.0069247, -0.00117384, 0.0567188, -0.0112931, -0.00521344, -0.00686327, 0.0576159, 0.0267322, 0.470661, -0.540003, 0.33675, -2.08222, -2.16512, -0.130134, 0.470765, -0.542125, 0.334287, -2.08186, -2.16836, -0.117684, -0.00617665, 0.0613797, 0.0151275, 0.00695477, 0.00667431, 0.000753027
0.170295, 1.69557, -1.22731, -1.53905, -0.900706, -1.19995, 1.22849, -1.30268, 0.00230561, 0.00488499, 0.0013829, -0.0294805, -0.0223666, 0.00206137, 0.00767555, -0.392998, 62.0496, 30.5036, 6.54541, 2.03174, 3.21689, 0.0687366, -0.00253741, 0.000104972, 0.00210182, 0.00500316, -0.00697899, -0.00120255, 0.0580061, -0.0100352, -0.00584184, -0.00899824, 0.0580073, 0.0188543, 0.470655, -0.539942, 0.336766, -2.08219, -2.1651, -0.130138, 0.470773, -0.542116, 0.33429, -2.08183, -2.16841, -0.117633, -0.00624313, 0.0620692, 0.0152874, 0.00565534, 0.00613908, 0.000128662
0.171295, 1.69558, -1.22731, -1.53902, -0.900736, -1.19996, 1.2285, -1.30268, 0.00731497, 0.00430463, 0.00726612, -0.0300277, -0.0219271, 0.00173858, 0.00540009, -0.468376, 62.1606, 30.3925, 6.47003, 2.05005, 3.20956, 0.0824695, -0.00258656, 0.000123167, 0.00210357, 0.00498472, -0.00701568, -0.00123785, 0.0550316, -0.0140459, -0.00451966, -0.00485085, 0.0570961, 0.0295919, 0.470649, -0.53988, 0.336781, -2.08216, -2.16509, -0.130143, 0.470787, -0.542101, 0.334295, -2.08179, -2.16846, -0.117625, -0.00630981, 0.0627614, 0.0154478, 0.00953597, 0.00972868, 0.00193357
0.172295, 1.69558, -1.22729, -1.53902, -0.900778, -1.19997, 1.2285, -1.30268, 0.00373286, 0.0102346, 0.0100908, -0.032222, -0.017409, 0.00122885, 0.00592315, -0.392998, 62.0139, 30.4679, 6.47003, 2.08118, 3.20956, 0.0357776, -0.00263801, 0.000136169, 0.00210026, 0.00498216, -0.00707418, -0.00126083, 0.0545903, -0.0133699, -0.00024506, -0.000540628, 0.0593063, 0.0302582, 0.470642, -0.539817, 0.336796, -2.08213, -2.16508, -0.130147, 0.470795, -0.542089, 0.334306, -2.08176, -2.16851, -0.117575, -0.00637669, 0.0634563, 0.0156086, 0.00893742, 0.010168, 0.00640268
0.173295, 1.69558, -1.22729, -1.53901, -0.900816, -1.19998, 1.2285, -1.30268, 0.00211794, 0.00498713, 0.00824957, -0.035126, -0.0180633, 0.00165148, 0.00439408, -0.357292, 62.1249, 30.579, 6.39465, 2.09308, 3.18851, 0.0357776, -0.0026943, 0.000148851, 0.00210828, 0.00497784, -0.0071163, -0.00128426, 0.0562185, -0.0129336, -0.00431003, -0.00351268, 0.0555193, 0.0318054, 0.470636, -0.539753, 0.336812, -2.0821, -2.16506, -0.130152, 0.470803, -0.542079, 0.334304, -2.08173, -2.16854, -0.117544, -0.00644377, 0.0641539, 0.0157699, 0.00834236, 0.00987195, 0.00230807
0.174295, 1.69558, -1.22728, -1.539, -0.900861, -1.19999, 1.2285, -1.30268, -2.83839e-06, 0.00621695, 0.014489, -0.0391904, -0.0145155, 0.00168278, 0.00445017, -0.281914, 62.1606, 30.5036, 6.39465, 2.12421, 3.17386, 0.00373412, -0.00274703, 0.000162711, 0.00210766, 0.00496418, -0.00716335, -0.00131577, 0.0545577, -0.0141739, -0.00188119, 0.00229301, 0.0541065, 0.0374303, 0.470629, -0.539689, 0.336828, -2.08207, -2.16505, -0.130156, 0.470813, -0.542067, 0.334312, -2.0817, -2.16859, -0.11752, -0.00651106, 0.0648541, 0.0159315, 0.0095445, 0.0118862, 0.00508721
0.175295, 1.69558, -1.22727, -1.53899, -0.9009, -1.2, 1.22851, -1.30268, 0.000259438, 0.00659974, 0.0123368, -0.0394692, -0.0113454, 0.00169384, 0.00297992, -0.281914, 62.0853, 30.579, 6.28357, 2.14252, 3.15921, 0.0101428, -0.00280065, 0.000176351, 0.00210525, 0.00495613, -0.00721714, -0.00134207, 0.0548658, -0.0143982, -0.0025217, 0.00190691, 0.0524375, 0.0394885, 0.470623, -0.539624, 0.336844, -2.08204, -2.16503, -0.130161, 0.470822, -0.542054, 0.334321, -2.08167, -2.16864, -0.117481, -0.00657853, 0.0655569, 0.0160936, 0.00968857, 0.0123941, 0.00456005
0.176295, 1.69557, -1.22725, -1.53898, -0.900945, -1.2, 1.22851, -1.30268, -0.00139428, 0.00575395, 0.0107499, -0.0414362, -0.0140965, 0.0060471, 0.000716418, -0.206535, 62.0496, 30.6544, 6.24786, 2.17273, 3.1528, 0.0495105, -0.00285705, 0.000186932, 0.00210612, 0.0049513, -0.00726707, -0.00137102, 0.0571482, -0.0141791, -0.00342453, 0.00243069, 0.0565956, 0.0402571, 0.470616, -0.539559, 0.33686, -2.082, -2.16502, -0.130166, 0.470828, -0.542044, 0.334327, -2.08163, -2.16869, -0.117444, -0.0066462, 0.0662624, 0.0162561, 0.00945111, 0.0109785, 0.0034788
0.177295, 1.69557, -1.22725, -1.53898, -0.900996, -1.20001, 1.22851, -1.30268, -0.000782523, 0.00460921, 0.00658847, -0.043059, -0.0108187, 0.00443617, 0.000143796, -0.206535, 62.1606, 30.7297, 6.20819, 2.18555, 3.1528, 0.0623279, -0.0029084, 0.000205115, 0.0021133, 0.00494677, -0.00730639, -0.00141365, 0.0572832, -0.0142894, -0.00602197, -0.00189014, 0.0527872, 0.0420393, 0.47061, -0.539493, 0.336876, -2.08197, -2.165, -0.13017, 0.470841, -0.542026, 0.334328, -2.08158, -2.16874, -0.117418, -0.00671407, 0.0669704, 0.016419, 0.00940163, 0.0119619, 0.00105125
0.178295, 1.69557, -1.22724, -1.53896, -0.901045, -1.20001, 1.22851, -1.30268, -0.000411434, 0.0050971, 0.00735675, -0.0434741, -0.00904118, 0.00380356, 0.000913617, -0.206535, 62.2321, 30.7654, 6.13678, 2.21576, 3.13815, 0.0431018, -0.00296059, 0.000222083, 0.00211439, 0.00493469, -0.00735114, -0.0014509, 0.0571001, -0.0148426, -0.00564599, -0.000986991, 0.0518806, 0.0430122, 0.470603, -0.539426, 0.336892, -2.08194, -2.16499, -0.130175, 0.470853, -0.54201, 0.334334, -2.08154, -2.1688, -0.117395, -0.00678212, 0.0676811, 0.0165822, 0.00989365, 0.0128184, 0.00159529
0.179295, 1.69556, -1.22723, -1.53895, -0.901096, -1.20001, 1.22851, -1.30268, -0.00288286, 0.00722426, 0.00891093, -0.0437222, -0.00679711, 0.00249212, -0.000498459, -0.0914839, 62.2321, 30.7654, 6.0614, 2.22217, 3.14548, 0.0751453, -0.00301552, 0.000234896, 0.00211567, 0.00492561, -0.00739377, -0.00148835, 0.0577525, -0.0137997, -0.00391434, 0.000878362, 0.051723, 0.0437097, 0.470596, -0.539358, 0.336909, -2.0819, -2.16497, -0.13018, 0.470861, -0.541996, 0.33434, -2.08149, -2.16885, -0.117371, -0.00685036, 0.0683942, 0.0167459, 0.00887244, 0.0125757, 0.00339686
0.180295, 1.69555, -1.22723, -1.53893, -0.901151, -1.20001, 1.22852, -1.30268, -0.00445835, 0.00837748, 0.0130099, -0.0478422, -0.00584615, 0.00264597, 0.000676573, 0.0196001, 62.3828, 30.7654, 6.02173, 2.24689, 3.1235, 0.0495105, -0.00307054, 0.000250194, 0.00212122, 0.0049128, -0.00743016, -0.00152465, 0.0568286, -0.0147136, -0.00230812, 0.00360431, 0.0526021, 0.0469107, 0.470589, -0.53929, 0.336926, -2.08187, -2.16495, -0.130185, 0.470871, -0.54198, 0.334343, -2.08144, -2.1689, -0.117357, -0.00691878, 0.06911, 0.01691, 0.00974362, 0.0139922, 0.0052609
0.181295, 1.69555, -1.22721, -1.53892, -0.901212, -1.20001, 1.22852, -1.30268, -0.00468896, 0.0128336, 0.0120763, -0.0512264, -0.00419685, 0.00240068, 0.00073299, 0.0949785, 62.3828, 30.8051, 5.98602, 2.24689, 3.10977, 0.0431018, -0.00312206, 0.000267904, 0.00212266, 0.00490491, -0.00747601, -0.00157082, 0.0560848, -0.0152753, -0.000544436, 0.00232424, 0.05631, 0.0496675, 0.470582, -0.53922, 0.336943, -2.08184, -2.16494, -0.13019, 0.470883, -0.541961, 0.334349, -2.08139, -2.16896, -0.117329, -0.00698738, 0.0698282, 0.0170744, 0.0102753, 0.0151942, 0.00726352
0.182295, 1.69554, -1.22721, -1.5389, -0.901268, -1.20001, 1.22852, -1.30268, -0.00578235, 0.0145223, 0.0131771, -0.0518067, -0.00322591, 0.00169651, 0.00198016, 0.21003, 62.4542, 30.7654, 5.87494, 2.25238, 3.10977, 0.00373412, -0.0031781, 0.000282661, 0.00212478, 0.00489011, -0.00751779, -0.00160531, 0.0564835, -0.0149761, 0.000705788, 0.00333656, 0.0571777, 0.0487261, 0.470575, -0.539151, 0.33696, -2.0818, -2.16492, -0.130195, 0.470893, -0.541945, 0.334355, -2.08135, -2.16901, -0.117311, -0.00705617, 0.0705489, 0.0172392, 0.00996938, 0.0153149, 0.00860739
0.183295, 1.69553, -1.22719, -1.5389, -0.901332, -1.20001, 1.22852, -1.30268, -0.00559197, 0.0142542, 0.0123721, -0.0548987, -0.00231903, 0.000965685, 0.00110782, 0.285408, 62.4542, 30.9162, 5.87494, 2.25238, 3.11618, 0.0101428, -0.00323146, 0.00029924, 0.00212856, 0.00488995, -0.00756402, -0.00165125, 0.0561622, -0.0156474, -0.000288165, 0.00106745, 0.0565289, 0.0524788, 0.470568, -0.53908, 0.336977, -2.08177, -2.16491, -0.1302, 0.470904, -0.541926, 0.334359, -2.08129, -2.16907, -0.117274, -0.00712513, 0.0712721, 0.0174044, 0.0105223, 0.0165382, 0.00781886
0.184295, 1.69552, -1.22718, -1.53887, -0.901392, -1.20001, 1.22852, -1.30268, -0.00639962, 0.0147145, 0.0136344, -0.0545026, -0.00167234, 0.00120645, -0.000938063, 0.400459, 62.5653, 30.8765, 5.76385, 2.25238, 3.10245, 0.0559192, -0.00328533, 0.000317151, 0.00213063, 0.00487222, -0.0076024, -0.00170421, 0.0569726, -0.0154788, 0.000500403, 0.00319345, 0.0568114, 0.0542556, 0.470561, -0.539009, 0.336994, -2.08173, -2.16489, -0.130205, 0.470917, -0.541907, 0.334366, -2.08122, -2.16914, -0.117266, -0.00719427, 0.0719978, 0.0175699, 0.010344, 0.0163348, 0.008639
0.185295, 1.69551, -1.22717, -1.53886, -0.901457, -1.20001, 1.22852, -1.30268, -0.00777817, 0.0162028, 0.0155889, -0.0583343, -0.00120963, 0.00111609, -0.000373911, 0.551216, 62.4899, 30.9162, 5.68848, 2.25238, 3.09512, 0.0495105, -0.00334091, 0.000331892, 0.00212793, 0.00486079, -0.00765426, -0.00174684, 0.0565459, -0.0159553, 0.0015539, 0.00373917, 0.0584332, 0.0568109, 0.470554, -0.538937, 0.337012, -2.0817, -2.16487, -0.13021, 0.470927, -0.541889, 0.334377, -2.08118, -2.1692, -0.117236, -0.00726359, 0.0727259, 0.0177358, 0.010775, 0.0173404, 0.00989482
