alisrour97/Franka_experiments/Real_Robot_scripts/servo-franka/Data3/log_dyn_INIT0_l_ki_7.csv
Time,q1,q2,q3,q4,q5,q6,q7,dq1,dq2,dq3,dq4,dq5,dq6,dq7,t1,t2,t3,t4,t5,t6,t7,ex1,ex2,ex3,ex4,ex5,ex6,ev1,ev2,ev3,ev4,ev5,ev6,xd,yd,zd,uxd,uyd,uzd,x,y,z,ux,uy,uz,vxd,vyd,vzd,vx,vy,vz
1.46484e-06, 1.69146, -1.22823, -1.53947, -0.900586, -1.192, 1.22772, -1.3027, 0.00172052, -0.00108512, 0.00152055, -0.000609082, 0.00323709, 0.00727582, 7.31147e-05, -1.26183, 64.2593, 31.4002, 7.62848, 1.98871, 4.07016, -0.114369, 0.000630672, -0.00177486, 0.00232061, 0.00277387, 0.00228419, 8.26046e-05, -0.00103625, -0.00308589, 0.000361966, 0.00851412, -0.0001219, 0.00399145, 0.471008, -0.543389, 0.335894, -2.08385, -2.16584, -0.129887, 0.46912, -0.542485, 0.333743, -2.08128, -2.16336, -0.129096, -4.82042e-07, 4.44613e-06, 1.21621e-06, 0.00305743, 0.001098, 0.000426468
0.012115, 1.6915, -1.22823, -1.53946, -0.900583, -1.19197, 1.22781, -1.3027, 0.0116017, 0.00178468, 0.000723026, -0.000482964, 0.00290149, 0.0103582, -0.00177146, -1.30151, 64.184, 31.4002, 7.62848, 1.96399, 4.00516, -0.0557752, 0.000647578, -0.00173132, 0.00230922, 0.0026782, 0.00226438, 2.31269e-05, -0.00508849, -0.00893565, 0.00153024, 0.00909752, 0.00488924, 0.0149311, 0.471008, -0.543389, 0.335894, -2.08385, -2.16584, -0.129887, 0.469172, -0.542465, 0.333766, -2.08129, -2.1635, -0.129208, -1.47349e-06, 1.36697e-05, 3.70923e-06, 0.00879593, 0.00516723, 0.00203517
0.013115, 1.6915, -1.22823, -1.53946, -0.900583, -1.19197, 1.22781, -1.3027, 0.0116017, 0.00178468, 0.000723026, -0.000482964, 0.00290149, 0.0103582, -0.00177146, -1.30151, 64.184, 31.4002, 7.62848, 1.96399, 4.00516, -0.0557752, 0.000647571, -0.00173132, 0.00230922, 0.0026782, 0.00226438, 2.31278e-05, -0.00507474, -0.00893664, 0.00152879, 0.00909946, 0.00489542, 0.0149323, 0.471008, -0.543389, 0.335894, -2.08385, -2.16584, -0.129887, 0.469172, -0.542465, 0.333766, -2.08129, -2.1635, -0.129208, -2.9032e-06, 2.69793e-05, 7.30333e-06, 0.00879593, 0.00516723, 0.00203517
0.014115, 1.6915, -1.22823, -1.53946, -0.900583, -1.19197, 1.22781, -1.3027, 0.0116017, 0.00178468, 0.000723026, -0.000482964, 0.00290149, 0.0103582, -0.00177146, -1.30151, 64.184, 31.4002, 7.62848, 1.96399, 4.00516, -0.0557752, 0.00064755, -0.00173132, 0.00230923, 0.00267819, 0.00226437, 2.31301e-05, -0.00505612, -0.00893799, 0.00152684, 0.0091021, 0.00490379, 0.0149338, 0.471008, -0.543389, 0.335894, -2.08385, -2.16584, -0.129887, 0.469172, -0.542465, 0.333766, -2.08129, -2.1635, -0.129208, -4.83863e-06, 4.50071e-05, 1.21677e-05, 0.00879593, 0.00516723, 0.00203517
0.0151152, 1.6915, -1.22823, -1.53946, -0.900583, -1.19197, 1.22781, -1.3027, 0.0116017, 0.00178468, 0.000723026, -0.000482964, 0.00290149, 0.0103582, -0.00177146, -1.30151, 64.184, 31.4002, 7.62848, 1.96399, 4.00516, -0.0557752, 0.000647511, -0.00173132, 0.00230923, 0.00267818, 0.00226436, 2.31348e-05, -0.00503203, -0.00893972, 0.00152431, 0.00910552, 0.00491463, 0.0149358, 0.471008, -0.543389, 0.335894, -2.08385, -2.16584, -0.129887, 0.469172, -0.542465, 0.333766, -2.08129, -2.1635, -0.129208, -7.34058e-06, 6.83239e-05, 1.84546e-05, 0.00879593, 0.00516723, 0.00203517
0.0161155, 1.6915, -1.22823, -1.53946, -0.900583, -1.19197, 1.22781, -1.3027, 0.0116017, 0.00178468, 0.000723026, -0.000482964, 0.00290149, 0.0103582, -0.00177146, -1.30151, 64.184, 31.4002, 7.62848, 1.96399, 4.00516, -0.0557752, 0.000647446, -0.00173131, 0.00230924, 0.00267816, 0.00226434, 2.31424e-05, -0.00500198, -0.00894188, 0.00152116, 0.0091098, 0.00492816, 0.0149383, 0.471008, -0.543389, 0.335894, -2.08385, -2.16584, -0.129887, 0.469172, -0.542465, 0.333766, -2.08129, -2.1635, -0.129208, -1.04607e-05, 9.7416e-05, 2.62933e-05, 0.00879593, 0.00516723, 0.00203517
0.0171155, 1.6915, -1.22823, -1.53946, -0.900583, -1.19197, 1.22781, -1.3027, 0.0116017, 0.00178468, 0.000723026, -0.000482964, 0.00290149, 0.0103582, -0.00177146, -1.30151, 64.184, 31.4002, 7.62848, 1.96399, 4.00516, -0.0557752, 0.00064735, -0.0017313, 0.00230925, 0.00267814, 0.0022643, 2.31537e-05, -0.00496558, -0.0089445, 0.00151735, 0.009115, 0.00494456, 0.0149413, 0.471008, -0.543389, 0.335894, -2.08385, -2.16584, -0.129887, 0.469172, -0.542465, 0.333766, -2.08129, -2.1635, -0.129208, -1.42391e-05, 0.000132663, 3.57838e-05, 0.00879593, 0.00516723, 0.00203517
0.0181157, 1.6915, -1.22823, -1.53946, -0.900583, -1.19197, 1.22781, -1.3027, 0.0116017, 0.00178468, 0.000723026, -0.000482964, 0.00290149, 0.0103582, -0.00177146, -1.30151, 64.184, 31.4002, 7.62848, 1.96399, 4.00516, -0.0557752, 0.000647216, -0.00173129, 0.00230926, 0.0026781, 0.00226426, 2.31695e-05, -0.00492256, -0.00894759, 0.00151285, 0.00912116, 0.00496395, 0.0149449, 0.471008, -0.543389, 0.335894, -2.08385, -2.16584, -0.129887, 0.469172, -0.542465, 0.333766, -2.08129, -2.1635, -0.129208, -1.87016e-05, 0.000174312, 4.69907e-05, 0.00879593, 0.00516723, 0.00203517
0.019116, 1.6915, -1.22823, -1.53946, -0.900583, -1.19197, 1.22781, -1.3027, 0.0116017, 0.00178468, 0.000723026, -0.000482964, 0.00290149, 0.0103582, -0.00177146, -1.30151, 64.184, 31.4002, 7.62848, 1.96399, 4.00516, -0.0557752, 0.000647037, -0.00173128, 0.00230928, 0.00267806, 0.00226419, 2.31904e-05, -0.00487284, -0.00895116, 0.00150767, 0.0091283, 0.00498638, 0.014949, 0.471008, -0.543389, 0.335894, -2.08385, -2.16584, -0.129887, 0.469172, -0.542465, 0.333766, -2.08129, -2.1635, -0.129208, -2.38577e-05, 0.00022246, 5.99368e-05, 0.00879593, 0.00516723, 0.00203517
0.0201162, 1.6915, -1.22823, -1.53946, -0.900583, -1.19197, 1.22781, -1.3027, 0.0116017, 0.00178468, 0.000723026, -0.000482964, 0.00290149, 0.0103582, -0.00177146, -1.30151, 64.184, 31.4002, 7.62848, 1.96399, 4.00516, -0.0557752, 0.000646808, -0.00173126, 0.0023093, 0.002678, 0.00226411, 2.32173e-05, -0.00481648, -0.0089552, 0.0015018, 0.00913641, 0.00501182, 0.0149537, 0.471008, -0.543389, 0.335894, -2.08385, -2.16584, -0.129887, 0.469172, -0.542465, 0.333766, -2.08129, -2.1635, -0.129208, -2.96979e-05, 0.000277024, 7.45974e-05, 0.00879593, 0.00516723, 0.00203517
0.0211187, 1.6915, -1.22823, -1.53946, -0.900583, -1.19197, 1.22781, -1.3027, 0.0116017, 0.00178468, 0.000723026, -0.000482964, 0.00290149, 0.0103582, -0.00177146, -1.30151, 64.184, 31.4002, 7.62848, 1.96399, 4.00516, -0.0557752, 0.000646523, -0.00173124, 0.00230933, 0.00267792, 0.00226401, 2.32507e-05, -0.0047538, -0.0089597, 0.00149529, 0.00914547, 0.00504014, 0.0149589, 0.471008, -0.543388, 0.335894, -2.08385, -2.16584, -0.129887, 0.469172, -0.542465, 0.333766, -2.08129, -2.1635, -0.129208, -3.61913e-05, 0.000337726, 9.08941e-05, 0.00879593, 0.00516723, 0.00203517
0.0221189, 1.6915, -1.22823, -1.53946, -0.900583, -1.19197, 1.22781, -1.3027, 0.0116017, 0.00178468, 0.000723026, -0.000482964, 0.00290149, 0.0103582, -0.00177146, -1.30151, 64.184, 31.4002, 7.62848, 1.96399, 4.00516, -0.0557752, 0.000646174, -0.00173122, 0.00230937, 0.00267783, 0.00226389, 2.32915e-05, -0.00468498, -0.00896462, 0.00148815, 0.00915544, 0.00507124, 0.0149646, 0.471008, -0.543388, 0.335894, -2.08385, -2.16584, -0.129887, 0.469172, -0.542465, 0.333766, -2.08129, -2.1635, -0.129208, -4.33151e-05, 0.00040436, 0.000108769, 0.00879593, 0.00516723, 0.00203517
0.0231191, 1.6915, -1.22823, -1.53946, -0.900583, -1.19197, 1.22781, -1.3027, 0.0116017, 0.00178468, 0.000723026, -0.000482964, 0.00290149, 0.0103582, -0.00177146, -1.30151, 64.184, 31.4002, 7.62848, 1.96399, 4.00516, -0.0557752, 0.000645757, -0.00173119, 0.00230941, 0.00267772, 0.00226375, 2.33404e-05, -0.00461007, -0.00896998, 0.0014804, 0.00916633, 0.00510514, 0.0149709, 0.471008, -0.543388, 0.335894, -2.08385, -2.16584, -0.129887, 0.469172, -0.542465, 0.333766, -2.08129, -2.1635, -0.129208, -5.10658e-05, 0.000476901, 0.000128212, 0.00879593, 0.00516723, 0.00203517
0.0241191, 1.69155, -1.22823, -1.53944, -0.900577, -1.19192, 1.22791, -1.3027, 0.00375509, 0.000795366, 0.00177172, -0.000514222, 0.00578595, 0.00266677, 0.00142276, -1.26183, 64.184, 31.1741, 7.62848, 1.90265, 3.87607, -0.133595, 0.000670471, -0.00167532, 0.00229287, 0.00255517, 0.00224766, -4.54111e-05, -0.00255483, -0.00370015, 0.00100085, 0.00588025, -0.00231789, 0.00555462, 0.471008, -0.543387, 0.335894, -2.08385, -2.16584, -0.129887, 0.469228, -0.542441, 0.333785, -2.08129, -2.16363, -0.129335, -5.94401e-05, 0.000555325, 0.000149214, 0.00358071, 0.00307487, 0.00142248
0.0251191, 1.69156, -1.22823, -1.53944, -0.900577, -1.19192, 1.22792, -1.3027, 0.00588164, -0.000397783, -0.000582091, -0.000342815, 0.00471344, 0.00591457, -0.000238305, -1.26183, 64.2236, 31.2494, 7.62848, 1.89075, 3.88339, -0.101552, 0.000670345, -0.00167248, 0.00229508, 0.00254874, 0.00225145, -4.83494e-05, -0.00221031, -0.00494132, -0.000348865, 0.00580893, -0.000781784, 0.00770254, 0.471008, -0.543387, 0.335895, -2.08385, -2.16584, -0.129887, 0.469231, -0.54244, 0.333783, -2.08129, -2.16363, -0.129346, -6.84344e-05, 0.000639605, 0.000171766, 0.00477487, 0.00307754, 2.14235e-05
0.0261191, 1.69156, -1.22823, -1.53943, -0.900575, -1.19192, 1.22792, -1.3027, 0.00526582, -0.0043656, 0.000933658, -0.00473948, 0.00552221, 0.00627569, -0.0018543, -1.30151, 63.9658, 30.9162, 7.5531, 1.8349, 3.83304, -0.0557752, 0.000672696, -0.00166754, 0.00229262, 0.00253387, 0.00225373, -5.75065e-05, -0.0032159, -0.00607897, -0.00269618, 0.00551773, -0.00491107, 0.0136407, 0.471008, -0.543386, 0.335895, -2.08384, -2.16584, -0.129887, 0.469236, -0.542437, 0.333786, -2.08129, -2.16365, -0.129366, -7.80454e-05, 0.000729718, 0.000195859, 0.00578076, 0.00456825, -0.0021505
0.0271191, 1.69156, -1.22824, -1.53945, -0.90058, -1.19192, 1.22793, -1.3027, 0.0050985, -0.00724668, -0.00179358, -0.00508225, 0.00198747, -0.00167734, -0.00293163, -1.22613, 63.45, 30.7297, 7.47772, 1.76166, 3.76895, -0.00999879, 0.000669341, -0.00166868, 0.00229972, 0.00254511, 0.00225329, -5.43327e-05, -0.00243928, -0.00378535, -0.00609981, -0.00578853, -0.00857584, 0.0124233, 0.471008, -0.543385, 0.335895, -2.08384, -2.16584, -0.129887, 0.469234, -0.542439, 0.333778, -2.08128, -2.16364, -0.129353, -8.82697e-05, 0.000825639, 0.000221482, 0.00338479, 0.00432751, -0.00553712
0.0281191, 1.69158, -1.22825, -1.53946, -0.900584, -1.19192, 1.22793, -1.3027, 0.0074131, -0.00552086, -0.00606864, -0.00693617, 0.00453826, -0.00295187, -0.00195443, -1.37688, 62.8589, 30.3568, 7.33093, 1.66919, 3.69021, -0.00999879, 0.000673988, -0.00165816, 0.00231102, 0.00255503, 0.00225972, -7.26969e-05, -0.00382287, -0.00477359, -0.0071029, -0.0105299, -0.009017, 0.0141301, 0.471008, -0.543384, 0.335895, -2.08384, -2.16584, -0.129887, 0.469244, -0.542431, 0.333768, -2.08125, -2.16365, -0.12935, -9.91039e-05, 0.000927342, 0.000248628, 0.00427524, 0.00598997, -0.0063155
0.0291191, 1.69159, -1.22826, -1.53947, -0.900588, -1.19192, 1.22793, -1.30269, 0.00833103, -0.0040587, -0.0106916, -0.0083766, 0.00557958, -0.00520199, 0.000392463, -1.37688, 62.2321, 30.0236, 7.18018, 1.59595, 3.63986, -0.0557752, 0.000672819, -0.00165684, 0.00232342, 0.00257764, 0.00226474, -6.65834e-05, -0.00416401, -0.00448135, -0.00833946, -0.0167349, -0.00902007, 0.0120598, 0.471007, -0.543383, 0.335895, -2.08384, -2.16584, -0.129887, 0.469245, -0.542429, 0.333756, -2.08125, -2.16363, -0.129329, -0.000110545, 0.0010348, 0.000277287, 0.00391509, 0.00661259, -0.00744609
0.0301191, 1.69159, -1.22827, -1.5395, -0.900593, -1.19192, 1.22793, -1.3027, 0.00728582, -0.00522914, -0.0127185, -0.00885201, 0.0049571, -0.00408659, -9.62961e-06, -1.30151, 61.6806, 29.7617, 6.99371, 1.55932, 3.63254, -0.0484509, 0.000670653, -0.00165594, 0.00233989, 0.00260501, 0.00227399, -6.95904e-05, -0.00295524, -0.00380701, -0.00967156, -0.0179704, -0.00893308, 0.0106946, 0.471007, -0.543382, 0.335896, -2.08384, -2.16584, -0.129887, 0.469245, -0.542428, 0.333739, -2.08122, -2.16362, -0.129309, -0.000122588, 0.001148, 0.000307449, 0.00322471, 0.00570989, -0.00889856
0.0311191, 1.6916, -1.22828, -1.53952, -0.900604, -1.19192, 1.22793, -1.3027, 0.00684886, -0.00773247, -0.0171939, -0.0118521, 0.00369024, -0.00234062, -6.42279e-06, -1.22613, 61.2759, 29.4999, 6.91833, 1.54651, 3.60415, -0.0484509, 0.000670193, -0.00165234, 0.0023599, 0.00263596, 0.00228444, -7.74834e-05, -0.00193418, -0.00367234, -0.0129826, -0.0225043, -0.00893396, 0.0103678, 0.471007, -0.543381, 0.335896, -2.08384, -2.16584, -0.129887, 0.469248, -0.542424, 0.33372, -2.08119, -2.16361, -0.129286, -0.000135232, 0.0012669, 0.000339106, 0.00299456, 0.00532488, -0.0122907
0.0321191, 1.69161, -1.2283, -1.53955, -0.900612, -1.19193, 1.22793, -1.30269, 0.0026156, -0.0149587, -0.0248115, -0.0123051, 0.00103691, -0.00206096, 0.000741701, -1.11108, 61.0181, 29.2777, 6.77154, 1.58313, 3.60415, -0.0685925, 0.000665524, -0.00165205, 0.00238421, 0.00267268, 0.00229712, -7.06261e-05, 0.00274638, 5.33393e-05, -0.0197589, -0.030298, -0.0133662, 0.00143239, 0.471007, -0.54338, 0.335896, -2.08384, -2.16584, -0.129887, 0.469247, -0.542424, 0.333695, -2.08117, -2.16358, -0.129258, -0.000148472, 0.00139149, 0.000372248, -0.000816805, 0.00171927, -0.0195628
0.0331191, 1.69162, -1.22833, -1.53958, -0.900629, -1.19193, 1.22793, -1.3027, 0.00189424, -0.0171604, -0.0241998, -0.0130519, -0.000749155, -0.00120685, -0.0021843, -0.960319, 60.907, 29.0555, 6.77154, 1.62067, 3.58951, 0.00373412, 0.000663519, -0.00164699, 0.00241319, 0.00270649, 0.00231537, -9.04099e-05, 0.00349917, 0.000179543, -0.0208403, -0.0302553, -0.0136144, 0.00404909, 0.471007, -0.543379, 0.335897, -2.08384, -2.16584, -0.129888, 0.469251, -0.54242, 0.333666, -2.08112, -2.16358, -0.129241, -0.000162305, 0.00152173, 0.000406866, -0.000968802, 0.00126761, -0.020709
0.0341191, 1.69164, -1.22836, -1.53961, -0.90064, -1.19194, 1.22794, -1.3027, 0.0033197, -0.019139, -0.025538, -0.0147606, -0.000537074, -0.000306228, 0.000985205, -0.884941, 60.8356, 28.9048, 6.69617, 1.62067, 3.56845, -0.0621838, 0.000661884, -0.00163995, 0.00244125, 0.00274111, 0.00232926, -9.25104e-05, 0.00301263, -0.00099894, -0.0227247, -0.0317263, -0.0149653, 0.00325961, 0.471007, -0.543377, 0.335897, -2.08384, -2.16584, -0.129888, 0.469257, -0.542415, 0.333639, -2.0811, -2.16356, -0.129217, -0.000176727, 0.00165761, 0.000442951, 0.000108302, 0.0022221, -0.0224936
0.0351191, 1.69165, -1.22837, -1.53963, -0.900646, -1.19194, 1.22794, -1.3027, 0.00654454, -0.020646, -0.0227613, -0.0121081, -0.000589728, 0.0057056, -0.00103862, -0.76989, 60.6491, 28.6072, 6.58508, 1.62616, 3.5181, -0.0164075, 0.000661262, -0.001633, 0.00245728, 0.00276005, 0.00233255, -0.000103054, 0.00271472, -0.0038382, -0.0219177, -0.0234433, -0.0136958, 0.00749991, 0.471007, -0.543375, 0.335898, -2.08384, -2.16584, -0.129888, 0.469263, -0.542411, 0.333623, -2.08107, -2.16356, -0.1292, -0.000191736, 0.0017991, 0.000480493, 0.00294735, 0.00264966, -0.0216986
0.0361191, 1.69166, -1.22838, -1.53967, -0.900651, -1.19195, 1.22795, -1.3027, 0.00797277, -0.0201257, -0.0229455, -0.00608236, -0.000210873, 0.00532245, -0.0014384, -0.619133, 60.5023, 28.5319, 6.43433, 1.62067, 3.48239, 0.00373412, 0.000656895, -0.00162879, 0.00247937, 0.00279, 0.00233748, -0.000104611, 0.00389473, -0.00323664, -0.020967, -0.0210559, -0.014078, 0.00407483, 0.471006, -0.543374, 0.335898, -2.08384, -2.16584, -0.129888, 0.469267, -0.54241, 0.333601, -2.08105, -2.16355, -0.129172, -0.000207328, 0.00194618, 0.000519485, 0.00240749, 0.00146085, -0.0208858
0.0371191, 1.69168, -1.2284, -1.53969, -0.900665, -1.19195, 1.22796, -1.3027, 0.0103473, -0.0200795, -0.0210854, -0.00830235, 0.00143724, 0.00556048, 0.00515211, -0.508049, 60.538, 28.3851, 6.43433, 1.57764, 3.43204, -0.0356336, 0.000659659, -0.00161765, 0.00250269, 0.0028176, 0.00234942, -0.000118731, 0.0016472, -0.00563081, -0.0207075, -0.0198599, -0.0150336, 0.00323047, 0.471006, -0.543372, 0.335899, -2.08384, -2.16584, -0.129888, 0.469277, -0.542401, 0.333578, -2.08101, -2.16355, -0.129155, -0.0002235, 0.00209882, 0.000559916, 0.00471138, 0.00389035, -0.0203125
0.0381191, 1.6917, -1.22841, -1.53972, -0.900676, -1.19195, 1.22796, -1.3027, 0.0103745, -0.0154288, -0.0254509, -0.00987753, 0.00186178, 0.00513982, 0.00405984, -0.317619, 60.3912, 28.3454, 6.43433, 1.55292, 3.39633, -0.0420422, 0.000659156, -0.00161178, 0.00251808, 0.00285041, 0.00234278, -0.000125594, 0.00167667, -0.00512553, -0.0197969, -0.0241834, -0.010463, 0.00370035, 0.471006, -0.54337, 0.335899, -2.08384, -2.16584, -0.129888, 0.469282, -0.542397, 0.333564, -2.08099, -2.16355, -0.129113, -0.000240248, 0.00225699, 0.000601779, 0.00422392, 0.0038586, -0.0193608
0.0391191, 1.69173, -1.22842, -1.53975, -0.900678, -1.19195, 1.22797, -1.30269, 0.01688, -0.0123015, -0.0243928, -0.00823867, 0.00238514, 0.00378063, 0.003506, -0.281914, 60.3912, 28.274, 6.32324, 1.52179, 3.38901, -0.0557752, 0.000663441, -0.00159876, 0.00253324, 0.00287378, 0.00234434, -0.000141736, -0.00131169, -0.00836102, -0.0178354, -0.024147, -0.00837701, 0.00988147, 0.471006, -0.543367, 0.3359, -2.08384, -2.16584, -0.129888, 0.469294, -0.542388, 0.333549, -2.08096, -2.16355, -0.129091, -0.000257569, 0.00242068, 0.000645063, 0.00740186, 0.00680298, -0.0170144
0.0401191, 1.69174, -1.22842, -1.53978, -0.900688, -1.19196, 1.22797, -1.3027, 0.0132026, -0.00804235, -0.0277732, -0.00969005, 0.00293973, 0.00231126, 0.0015721, -0.0161054, 60.3198, 28.3851, 6.32324, 1.48517, 3.39633, -0.0292249, 0.000662194, -0.00159529, 0.0025477, 0.00290989, 0.00233912, -0.000148824, 0.000107514, -0.00575434, -0.0166854, -0.0278513, -0.00500861, 0.00795268, 0.471005, -0.543365, 0.3359, -2.08384, -2.16584, -0.129889, 0.469297, -0.542384, 0.333536, -2.08094, -2.16355, -0.129046, -0.00027546, 0.00258986, 0.000689759, 0.0048729, 0.00528744, -0.0159759
0.0411191, 1.69176, -1.22842, -1.5398, -0.900702, -1.19196, 1.22797, -1.3027, 0.0172809, -0.00816583, -0.0214937, -0.0123592, 0.00354849, 0.000807524, -0.000721134, 0.245735, 60.3912, 28.274, 6.39465, 1.44214, 3.41739, 0.0229602, 0.000667416, -0.00158481, 0.00255797, 0.00293354, 0.00233453, -0.000172741, -0.0038838, -0.00955248, -0.015264, -0.0252682, -0.00633676, 0.0198491, 0.471005, -0.543362, 0.335901, -2.08383, -2.16584, -0.129889, 0.469306, -0.542375, 0.333527, -2.0809, -2.16357, -0.129018, -0.000293917, 0.0027645, 0.00073586, 0.00855626, 0.00933905, -0.0140212
0.0421191, 1.69177, -1.22842, -1.53983, -0.90072, -1.19196, 1.22796, -1.3027, 0.0155361, -0.00889271, -0.0239199, -0.0151084, 0.00236189, -0.00102041, -0.000832788, 0.586922, 60.5023, 28.4565, 6.5097, 1.44214, 3.46042, 0.0357776, 0.000667649, -0.00158054, 0.00257483, 0.00297485, 0.00233144, -0.000183781, -0.00312393, -0.00831602, -0.0170188, -0.0305966, -0.00656656, 0.0191126, 0.471005, -0.54336, 0.335902, -2.08383, -2.16584, -0.129889, 0.46931, -0.542369, 0.333511, -2.08087, -2.16356, -0.12897, -0.000312938, 0.00294458, 0.000783355, 0.00726617, 0.00898851, -0.0157872
0.0431191, 1.69179, -1.22842, -1.53984, -0.900729, -1.19197, 1.22797, -1.3027, 0.0146334, -0.00740147, -0.0201229, -0.0142968, -0.00312706, -0.00146788, 0.000486258, 0.777352, 60.538, 28.4208, 6.5097, 1.44214, 3.48239, 0.0101428, 0.000673689, -0.00156837, 0.00257928, 0.00299292, 0.00231815, -0.000206027, -0.0021776, -0.00758517, -0.0146945, -0.0295438, -0.00105946, 0.0161696, 0.471005, -0.543357, 0.335903, -2.08383, -2.16584, -0.129889, 0.469321, -0.542359, 0.333508, -2.08084, -2.16359, -0.128939, -0.000332518, 0.00313007, 0.000832236, 0.00663443, 0.00785211, -0.0135681
0.0441191, 1.6918, -1.22842, -1.53986, -0.900739, -1.19198, 1.22796, -1.30269, 0.0146351, -0.00717588, -0.0226184, -0.0136624, -0.00739797, -0.00173883, 0.00185124, 1.07887, 60.6134, 28.6072, 6.5097, 1.44855, 3.50345, -0.0292249, 0.000673026, -0.00156407, 0.00258872, 0.00302109, 0.00230871, -0.000206671, -0.000478997, -0.00648339, -0.0154032, -0.0336034, 0.00272799, 0.0116357, 0.471004, -0.543354, 0.335903, -2.08383, -2.16584, -0.129889, 0.469325, -0.542355, 0.333499, -2.08083, -2.16358, -0.128899, -0.000352655, 0.00332096, 0.000882495, 0.00554909, 0.00643009, -0.014448
0.0451191, 1.6918, -1.22842, -1.53986, -0.900739, -1.19198, 1.22796, -1.30269, 0.0146351, -0.00717588, -0.0226184, -0.0136624, -0.00739797, -0.00173883, 0.00185124, 1.07887, 60.6134, 28.6072, 6.5097, 1.44855, 3.50345, -0.0292249, 0.000669596, -0.00156382, 0.00258907, 0.00302017, 0.0023075, -0.000206274, -0.000276472, -0.0064976, -0.0154232, -0.0335719, 0.00282118, 0.0116526, 0.471004, -0.54335, 0.335904, -2.08383, -2.16584, -0.12989, 0.469325, -0.542355, 0.333499, -2.08083, -2.16358, -0.128899, -0.000373345, 0.00351722, 0.000934121, 0.00554909, 0.00643009, -0.014448
0.0461191, 1.6918, -1.22842, -1.53986, -0.900739, -1.19198, 1.22796, -1.30269, 0.0146351, -0.00717588, -0.0226184, -0.0136624, -0.00739797, -0.00173883, 0.00185124, 1.07887, 60.6134, 28.6072, 6.5097, 1.44855, 3.50345, -0.0292249, 0.000665964, -0.00156356, 0.00258944, 0.0030192, 0.00230621, -0.000205853, -6.84409e-05, -0.00651218, -0.0154437, -0.0335394, 0.00291697, 0.0116699, 0.471004, -0.543347, 0.335905, -2.08383, -2.16583, -0.12989, 0.469325, -0.542355, 0.333499, -2.08083, -2.16358, -0.128899, -0.000394586, 0.00371881, 0.000987107, 0.00554909, 0.00643009, -0.014448
0.0471191, 1.69184, -1.22842, -1.5399, -0.900763, -1.192, 1.22796, -1.3027, 0.0100111, -0.000799956, -0.0164295, -0.0106317, -0.00501831, -0.00154416, -0.00112165, 1.75727, 60.8713, 29.0912, 6.39465, 1.50989, 3.53915, 0.0165515, 0.000673004, -0.00154708, 0.00261118, 0.00308632, 0.00228231, -0.000240496, 0.000769752, -0.00453856, -0.00884278, -0.0241165, 0.00670164, 0.0110934, 0.471003, -0.543343, 0.335906, -2.08382, -2.16583, -0.12989, 0.46934, -0.54234, 0.333479, -2.08076, -2.16361, -0.128804, -0.000416373, 0.00392573, 0.00104144, 0.00382454, 0.0047127, -0.00794639
0.0481191, 1.69186, -1.22844, -1.53991, -0.900765, -1.19202, 1.22796, -1.3027, 0.0141145, -0.00630515, -0.016789, -0.00869951, -0.00944697, -0.00210829, -0.00194664, 1.79694, 61.1292, 29.3134, 6.28357, 1.5401, 3.56845, 0.0495105, 0.000673246, -0.00153683, 0.00262619, 0.00310857, 0.00228282, -0.000257688, 0.00114367, -0.00585792, -0.0122241, -0.0271342, 0.00464993, 0.0127452, 0.471003, -0.543339, 0.335907, -2.08382, -2.16583, -0.129891, 0.469349, -0.542333, 0.333465, -2.08073, -2.16362, -0.128782, -0.000438704, 0.00413795, 0.00109712, 0.00501114, 0.00513025, -0.0113273
0.0491191, 1.69188, -1.22844, -1.53992, -0.900767, -1.19203, 1.22796, -1.3027, 0.0127881, -0.00382949, -0.0151985, -0.0113718, -0.0126227, -0.00299456, -6.06783e-05, 1.87232, 61.2759, 29.4642, 6.20819, 1.56482, 3.61148, 0.0165515, 0.000672746, -0.00152989, 0.00263523, 0.00313112, 0.0022762, -0.000263581, 0.00114031, -0.00544161, -0.0106053, -0.0288148, 0.00947549, 0.0115655, 0.471002, -0.543335, 0.335908, -2.08382, -2.16583, -0.129891, 0.469355, -0.542328, 0.333457, -2.08072, -2.16362, -0.128751, -0.000461575, 0.00435543, 0.00115413, 0.00463081, 0.00508487, -0.00965884
0.0501191, 1.69191, -1.22845, -1.53993, -0.900766, -1.19204, 1.22795, -1.3027, 0.0134195, -0.004704, -0.0130903, -0.00933959, -0.0141237, -0.00358657, -2.81697e-05, 1.87232, 61.387, 29.5752, 6.09711, 1.57123, 3.65451, 0.0165515, 0.000674552, -0.00151949, 0.00264366, 0.00315115, 0.00227045, -0.000278405, 0.00157175, -0.00546896, -0.0101971, -0.0273557, 0.0093546, 0.0109239, 0.471002, -0.543331, 0.335909, -2.08382, -2.16583, -0.129891, 0.469365, -0.54232, 0.33345, -2.08069, -2.16363, -0.128725, -0.000484983, 0.00457817, 0.00121247, 0.00466487, 0.00481996, -0.00926517
0.0511191, 1.69193, -1.22846, -1.53994, -0.900763, -1.19206, 1.22795, -1.30269, 0.0128078, -0.00799733, -0.0107597, -0.00570106, -0.0115614, -0.00398212, 0.00168585, 1.90803, 61.6092, 29.6506, 6.02173, 1.60144, 3.69754, -0.0292249, 0.000672254, -0.00151197, 0.0026543, 0.00316498, 0.00227016, -0.00028143, 0.00243146, -0.00501764, -0.010826, -0.0228841, 0.0034036, 0.00747803, 0.471001, -0.543326, 0.335911, -2.08382, -2.16583, -0.129892, 0.469371, -0.542316, 0.33344, -2.08068, -2.16362, -0.12871, -0.000508925, 0.00480613, 0.00127212, 0.00419822, 0.00427755, -0.00994633
0.0521191, 1.69195, -1.22846, -1.53995, -0.900756, -1.19207, 1.22795, -1.30269, 0.0170341, -0.0067503, -0.010809, -0.00305869, -0.0135926, -0.0047551, 0.00160553, 1.87232, 61.6806, 29.7974, 5.95032, 1.61426, 3.7543, -0.0420422, 0.000669355, -0.00150562, 0.00266235, 0.0031881, 0.00225955, -0.000284001, 0.00179563, -0.00641415, -0.0100582, -0.023809, 0.00594582, 0.00871076, 0.471001, -0.543321, 0.335912, -2.08381, -2.16583, -0.129892, 0.469377, -0.542312, 0.333432, -2.08067, -2.16362, -0.128674, -0.000533398, 0.00503929, 0.00133308, 0.00557343, 0.00507741, -0.00907069
0.0531191, 1.69197, -1.22848, -1.53996, -0.900756, -1.19209, 1.22794, -1.30269, 0.0192437, -0.0103436, -0.00995615, 0.00359799, -0.0107041, -0.00476229, 0.00131289, 1.87232, 61.9385, 29.9085, 5.95032, 1.63257, 3.79733, -0.0484509, 0.000664368, -0.00149937, 0.0026773, 0.00320862, 0.00225837, -0.000288775, 0.0026193, -0.00672551, -0.0110851, -0.0191694, -0.000456318, 0.00681895, 0.471, -0.543316, 0.335913, -2.08381, -2.16583, -0.129892, 0.469382, -0.542309, 0.333418, -2.08065, -2.16362, -0.128651, -0.000558399, 0.00527762, 0.00139533, 0.00585174, 0.00467343, -0.0101596
0.0541191, 1.69198, -1.2285, -1.53997, -0.900752, -1.19211, 1.22794, -1.30269, 0.0207947, -0.011951, -0.00944244, 0.00464798, -0.0140395, -0.00371629, 0.00040443, 1.87232, 62.1606, 30.0236, 5.98602, 1.66919, 3.81198, -0.0356336, 0.000659253, -0.00149357, 0.00269063, 0.00322905, 0.00225669, -0.000290843, 0.00330498, -0.00731438, -0.0117169, -0.0192027, 0.00123127, 0.00752192, 0.471, -0.543311, 0.335915, -2.08381, -2.16583, -0.129893, 0.469387, -0.542307, 0.333405, -2.08063, -2.16361, -0.128628, -0.000583923, 0.00552111, 0.00145888, 0.00641601, 0.00436139, -0.0108442
0.0551191, 1.69201, -1.22851, -1.53997, -0.900753, -1.19214, 1.22794, -1.30269, 0.0196396, -0.0130581, -0.00805071, 0.00076094, -0.0112195, -0.00274796, -0.000202183, 1.83265, 62.3828, 30.095, 6.09711, 1.69391, 3.8193, -0.0228162, 0.000658091, -0.00148272, 0.00270177, 0.00324809, 0.00224814, -0.000306099, 0.00227706, -0.00831103, -0.0122916, -0.0175457, -0.00137158, 0.0120462, 0.470999, -0.543305, 0.335916, -2.08381, -2.16583, -0.129893, 0.469397, -0.5423, 0.333395, -2.08061, -2.16363, -0.1286, -0.000609969, 0.00576973, 0.0015237, 0.00732778, 0.00575408, -0.0112173
0.0561191, 1.69202, -1.22851, -1.53997, -0.900747, -1.19216, 1.22793, -1.30269, 0.0159723, -0.00946098, -0.00635914, 0.00385839, -0.0178378, -0.00342505, -0.00206538, 1.90803, 62.4185, 30.1346, 6.09711, 1.70032, 3.86233, 0.0293689, 0.000650697, -0.00148114, 0.00270385, 0.00326436, 0.00222866, -0.000307473, 0.00564118, -0.00494698, -0.00904051, -0.0173495, 0.00692182, 0.0061312, 0.470999, -0.5433, 0.335918, -2.0838, -2.16583, -0.129894, 0.469398, -0.542302, 0.333394, -2.08061, -2.16363, -0.128563, -0.000636533, 0.00602345, 0.0015898, 0.00417925, 0.00204851, -0.0083618
0.0571191, 1.69205, -1.22852, -1.53998, -0.900751, -1.19218, 1.22793, -1.30269, 0.0187964, -0.0114445, -0.00512264, -0.0013798, -0.0176249, -0.00333406, -0.000900564, 1.75727, 62.6407, 30.1703, 6.28357, 1.69391, 3.89071, 0.0165515, 0.000652976, -0.00146719, 0.00271449, 0.00328293, 0.00222299, -0.000329231, 0.00299422, -0.00801123, -0.0106595, -0.0191425, 0.00540996, 0.0130669, 0.470998, -0.543294, 0.335919, -2.0838, -2.16582, -0.129894, 0.469411, -0.542291, 0.333385, -2.08057, -2.16365, -0.128539, -0.000663611, 0.00628226, 0.00165716, 0.00705929, 0.00529515, -0.00957462
0.0581191, 1.69207, -1.22853, -1.53998, -0.900751, -1.19221, 1.22793, -1.30269, 0.0202079, -0.0110185, -0.00604954, -0.00154067, -0.0173258, -0.00435859, -0.000361788, 1.75727, 62.7875, 30.2814, 6.32324, 1.68201, 3.94839, 0.0101428, 0.000649161, -0.00146038, 0.00272358, 0.00330841, 0.00220966, -0.000336271, 0.00257864, -0.00853215, -0.01095, -0.0209222, 0.00532931, 0.0137321, 0.470997, -0.543287, 0.335921, -2.0838, -2.16582, -0.129894, 0.469417, -0.542287, 0.333376, -2.08056, -2.16366, -0.128498, -0.000691201, 0.00654612, 0.00172578, 0.00752657, 0.00603537, -0.00974407
0.0591191, 1.69209, -1.22854, -1.53998, -0.900749, -1.19223, 1.22792, -1.30269, 0.0222168, -0.0067698, -0.00406002, -0.00163191, -0.0218728, -0.00500778, 0.00121779, 1.72157, 62.8986, 30.2814, 6.35895, 1.66919, 4.00516, -0.0292249, 0.000646475, -0.00145209, 0.00272825, 0.0033268, 0.00219286, -0.000341966, 0.00196235, -0.00934221, -0.00794981, -0.0218232, 0.0130419, 0.0135949, 0.470997, -0.543281, 0.335923, -2.0838, -2.16582, -0.129895, 0.469425, -0.542282, 0.333373, -2.08055, -2.16366, -0.128462, -0.0007193, 0.00681502, 0.00179564, 0.00839382, 0.00648397, -0.00664051
0.0601191, 1.69211, -1.22854, -1.53999, -0.900747, -1.19226, 1.22791, -1.30269, 0.0214056, -0.00589671, -0.00449016, -0.000915129, -0.0238279, -0.00493202, 0.00152463, 1.64619, 62.97, 30.3568, 6.35895, 1.62067, 4.04819, -0.0484509, 0.000644552, -0.00144253, 0.0027333, 0.00334753, 0.00217459, -0.000354815, 0.00322089, -0.00844916, -0.00746775, -0.0224583, 0.0156227, 0.0110064, 0.470996, -0.543274, 0.335924, -2.08379, -2.16582, -0.129895, 0.469433, -0.542276, 0.333369, -2.08053, -2.16368, -0.128422, -0.000747904, 0.00708893, 0.00186675, 0.00753573, 0.00540469, -0.00626187
0.0611191, 1.69214, -1.22855, -1.53999, -0.900752, -1.19228, 1.22791, -1.30269, 0.0242145, -0.00660363, -0.00477186, -0.00224371, -0.0220093, -0.00515283, -0.000169856, 1.68189, 63.2278, 30.4322, 6.43433, 1.60144, 4.09854, -0.0164075, 0.000641306, -0.00143451, 0.00274594, 0.00337674, 0.00216586, -0.000369047, 0.00160776, -0.0104674, -0.00836153, -0.0231293, 0.0136748, 0.0171475, 0.470995, -0.543267, 0.335926, -2.08379, -2.16582, -0.129896, 0.46944, -0.54227, 0.333358, -2.0805, -2.16368, -0.128383, -0.00077701, 0.00736784, 0.00193908, 0.00943227, 0.00749635, -0.00688255
0.0621191, 1.69216, -1.22856, -1.53999, -0.900749, -1.19231, 1.2279, -1.30269, 0.023504, -0.00741266, -0.00319263, -0.0067521, -0.0260737, -0.00448627, -0.000621474, 1.72157, 63.3746, 30.4322, 6.39465, 1.60144, 4.12692, -0.00267457, 0.000635217, -0.00142768, 0.00275145, 0.00339543, 0.00214507, -0.000375563, 0.00149939, -0.0110519, -0.00883367, -0.0251107, 0.0169337, 0.0202858, 0.470994, -0.543259, 0.335928, -2.08379, -2.16582, -0.129897, 0.469446, -0.542267, 0.333353, -2.08049, -2.16369, -0.128343, -0.000806615, 0.0076517, 0.00201263, 0.00996541, 0.00798385, -0.00727603
0.0631191, 1.69218, -1.22856, -1.54, -0.900756, -1.19234, 1.2279, -1.3027, 0.0239378, -0.00805787, -0.0038074, -0.00671519, -0.0282452, -0.00380457, -0.00210945, 1.72157, 63.5214, 30.5036, 6.47003, 1.58313, 4.14889, 0.0431018, 0.000633526, -0.00141609, 0.00276064, 0.00342091, 0.00212605, -0.000398651, 0.00230364, -0.0110909, -0.00941737, -0.0261211, 0.0185941, 0.0211856, 0.470993, -0.543252, 0.33593, -2.08378, -2.16582, -0.129897, 0.469457, -0.542259, 0.333345, -2.08046, -2.16372, -0.128298, -0.000836715, 0.00794051, 0.00208739, 0.00998194, 0.00757018, -0.00790367
0.0641191, 1.6922, -1.22858, -1.54001, -0.900756, -1.19237, 1.2279, -1.30269, 0.0233086, -0.0103306, -0.00523593, -0.00397949, -0.0296128, -0.00307885, -0.000897452, 1.75727, 63.7436, 30.6186, 6.43433, 1.55292, 4.16354, 0.0293689, 0.000627151, -0.00140746, 0.00277295, 0.00344548, 0.00211122, -0.000405503, 0.00455112, -0.0099169, -0.0108127, -0.0261217, 0.0177861, 0.0158813, 0.470993, -0.543244, 0.335932, -2.08378, -2.16582, -0.129898, 0.469464, -0.542255, 0.333334, -2.08044, -2.16372, -0.128257, -0.000867309, 0.00823424, 0.00216336, 0.00880882, 0.00581196, -0.00951899
0.0651191, 1.69222, -1.22858, -1.54, -0.900765, -1.1924, 1.22789, -1.30269, 0.0219555, -0.00930692, -0.00349542, -0.00550489, -0.0313764, -0.00228988, 0.00109728, 1.83265, 63.8547, 30.6186, 6.54541, 1.54651, 4.16995, -0.0164075, 0.000624201, -0.00139752, 0.00277832, 0.00346747, 0.00208683, -0.000417229, 0.00498228, -0.00975407, -0.00969404, -0.0251126, 0.0207669, 0.01414, 0.470992, -0.543236, 0.335935, -2.08378, -2.16581, -0.129898, 0.469473, -0.542249, 0.33333, -2.08043, -2.16374, -0.12821, -0.000898392, 0.00853286, 0.00224052, 0.00867094, 0.00550607, -0.0083993
0.0661191, 1.69225, -1.22858, -1.54001, -0.90077, -1.19244, 1.2279, -1.30269, 0.0209012, -0.00774107, -0.00400432, -0.00478802, -0.0327097, -0.00128919, 0.000969005, 1.90803, 63.9261, 30.6901, 6.58508, 1.53461, 4.16354, -0.0228162, 0.000617882, -0.00138773, 0.00278545, 0.003491, 0.00205568, -0.000427318, 0.00630461, -0.00893989, -0.00874169, -0.0246201, 0.0239974, 0.0119064, 0.470991, -0.543227, 0.335937, -2.08377, -2.16581, -0.129899, 0.469482, -0.542245, 0.333324, -2.08041, -2.16376, -0.128154, -0.000929962, 0.00883635, 0.00231887, 0.00790795, 0.00432421, -0.00756135
0.0671191, 1.69227, -1.22859, -1.54002, -0.900774, -1.19247, 1.22789, -1.30269, 0.0212519, -0.00765869, -0.00536351, -0.00416979, -0.0341703, -0.00109679, 0.000883454, 1.9477, 64.0372, 30.8051, 6.62079, 1.53461, 4.16995, -0.0292249, 0.000612548, -0.00137746, 0.0027971, 0.00351978, 0.0020361, -0.000439282, 0.00723375, -0.00864998, -0.00912113, -0.0260232, 0.0255654, 0.0106807, 0.47099, -0.543218, 0.335939, -2.08377, -2.16581, -0.1299, 0.469491, -0.542239, 0.333314, -2.08039, -2.16377, -0.128104, -0.000962015, 0.00914469, 0.0023984, 0.00760587, 0.00376188, -0.00799202
0.0681191, 1.6923, -1.2286, -1.54002, -0.900769, -1.1925, 1.22789, -1.30269, 0.0270309, -0.00595845, -0.00441292, -0.00112354, -0.0352385, -0.000731176, -0.00134374, 2.02308, 64.0768, 30.8408, 6.54541, 1.5401, 4.16995, 0.0229602, 0.000605762, -0.00136795, 0.00280042, 0.00353752, 0.00200642, -0.000452389, 0.00578869, -0.0113178, -0.00766562, -0.0246296, 0.0283195, 0.0160395, 0.470989, -0.543209, 0.335941, -2.08376, -2.16581, -0.1299, 0.4695, -0.542236, 0.333312, -2.08038, -2.16379, -0.128056, -0.000994548, 0.00945786, 0.0024791, 0.0102386, 0.00538679, -0.00633032
0.0691191, 1.69232, -1.2286, -1.54003, -0.900774, -1.19254, 1.22789, -1.30269, 0.0269461, -0.004751, -0.0047067, -0.00259246, -0.0361924, -0.00130124, -0.000895775, 2.02308, 64.1125, 30.9162, 6.62079, 1.54651, 4.19192, 0.0229602, 0.000601327, -0.00135635, 0.00280687, 0.0035662, 0.00197403, -0.00046794, 0.00579656, -0.0113346, -0.00733935, -0.0263541, 0.0303223, 0.0163392, 0.470988, -0.5432, 0.335944, -2.08376, -2.16581, -0.129901, 0.46951, -0.542229, 0.333307, -2.08036, -2.16381, -0.127994, -0.00102756, 0.00977584, 0.00256097, 0.0102344, 0.00564749, -0.00592808
0.0701191, 1.69235, -1.22859, -1.54003, -0.900774, -1.19258, 1.22789, -1.30269, 0.0286995, -0.0013617, -0.00397416, -0.00178845, -0.0366916, -0.000867481, -0.00107186, 2.05878, 64.0372, 30.9519, 6.62079, 1.55292, 4.19192, 0.0357776, 0.000595886, -0.00134576, 0.0028057, 0.00358553, 0.00193309, -0.000480519, 0.00526678, -0.012253, -0.00506185, -0.0251197, 0.0344171, 0.0176909, 0.470987, -0.54319, 0.335947, -2.08375, -2.1658, -0.129902, 0.46952, -0.542225, 0.333309, -2.08035, -2.16384, -0.127933, -0.00106104, 0.0100986, 0.00264398, 0.0111815, 0.0061802, -0.00354174
0.0711191, 1.69238, -1.2286, -1.54004, -0.900772, -1.19261, 1.22789, -1.30269, 0.0280733, -0.0052377, -0.00524875, -0.0012374, -0.0360513, -0.000307045, -0.000239828, 2.05878, 64.2236, 31.063, 6.62079, 1.5282, 4.1846, 0.0229602, 0.000587713, -0.00133428, 0.0028191, 0.00360947, 0.00191392, -0.000489356, 0.00660126, -0.0118215, -0.00766458, -0.0253588, 0.0304829, 0.0154617, 0.470986, -0.54318, 0.335949, -2.08375, -2.1658, -0.129903, 0.46953, -0.54222, 0.333297, -2.08034, -2.16385, -0.127889, -0.001095, 0.0104261, 0.00272814, 0.0106703, 0.00557345, -0.00622177
0.0721191, 1.69241, -1.2286, -1.54005, -0.900766, -1.19264, 1.22789, -1.30269, 0.0261069, -0.00253994, -0.00609826, 0.000904473, -0.0410871, 6.6577e-05, 0.00106084, 1.98341, 64.184, 31.1741, 6.54541, 1.52179, 4.17727, -0.00999879, 0.000582872, -0.00132057, 0.00282122, 0.00362908, 0.00187893, -0.000498636, 0.00941471, -0.00956821, -0.005979, -0.0265154, 0.0374499, 0.00823007, 0.470985, -0.543169, 0.335952, -2.08374, -2.1658, -0.129903, 0.469543, -0.542214, 0.333297, -2.08033, -2.16387, -0.127833, -0.00112942, 0.0107583, 0.00281344, 0.00854705, 0.00277642, -0.004841
0.0731191, 1.69244, -1.2286, -1.54005, -0.900766, -1.19268, 1.22789, -1.30269, 0.0248911, -0.00427386, -0.00406599, 0.00592438, -0.040763, 4.43893e-05, 0.00141932, 2.02308, 64.295, 31.1741, 6.58508, 1.5401, 4.17727, -0.0292249, 0.000574986, -0.0013097, 0.00282742, 0.00365023, 0.00184775, -0.000507603, 0.011464, -0.00821373, -0.00555152, -0.0221204, 0.0350009, 0.00342142, 0.470984, -0.543159, 0.335955, -2.08374, -2.1658, -0.129904, 0.469553, -0.542209, 0.333292, -2.08032, -2.16389, -0.12778, -0.00116431, 0.0110953, 0.00289987, 0.00724821, 0.000968979, -0.00460985
0.0741191, 1.69248, -1.2286, -1.54005, -0.90076, -1.19271, 1.22789, -1.30269, 0.0304229, 0.000418715, -0.00363904, 0.00621669, -0.0397638, 0.000538223, 0.00118358, 1.90803, 64.295, 31.2137, 6.5097, 1.53461, 4.16354, -0.0356336, 0.000570622, -0.00129373, 0.00283019, 0.00366734, 0.00181336, -0.000523685, 0.00877559, -0.0114682, -0.00288282, -0.0211223, 0.0393911, 0.00934198, 0.470983, -0.543147, 0.335958, -2.08373, -2.1658, -0.129905, 0.469568, -0.542201, 0.333291, -2.08031, -2.16391, -0.127729, -0.00119966, 0.0114369, 0.00298742, 0.0104634, 0.00368704, -0.00156807
0.0751191, 1.69251, -1.22861, -1.54005, -0.900753, -1.19275, 1.22789, -1.30269, 0.0266683, -0.00120282, -0.0024263, 0.0062856, -0.039195, 0.000358818, -0.000431638, 1.87232, 64.3704, 31.2137, 6.43433, 1.53461, 4.16354, -0.00267457, 0.000562373, -0.00128115, 0.00283625, 0.0036834, 0.00178556, -0.000534532, 0.0105877, -0.00964614, -0.00324651, -0.019407, 0.0371821, 0.00802369, 0.470981, -0.543136, 0.335961, -2.08373, -2.16579, -0.129906, 0.469579, -0.542197, 0.333286, -2.08029, -2.16393, -0.127685, -0.00123547, 0.0117833, 0.00307608, 0.00865961, 0.00222582, -0.00206497
0.0761191, 1.69254, -1.22861, -1.54006, -0.900746, -1.19279, 1.22789, -1.30269, 0.0269525, -0.00142615, -0.00338097, 0.00623707, -0.0405045, 1.85487e-06, -0.00198317, 1.83265, 64.4061, 31.2891, 6.35895, 1.58313, 4.16995, 0.0431018, 0.000553677, -0.00127013, 0.00284103, 0.00370889, 0.00175034, -0.00054698, 0.0112496, -0.00946359, -0.00380189, -0.0211848, 0.0380994, 0.00903637, 0.47098, -0.543124, 0.335964, -2.08372, -2.16579, -0.129907, 0.469589, -0.542192, 0.333283, -2.08028, -2.16395, -0.127623, -0.00127174, 0.0121342, 0.00316585, 0.00844462, 0.00200144, -0.00262094
0.0771191, 1.69257, -1.22863, -1.54006, -0.900737, -1.19283, 1.22789, -1.30269, 0.0311607, -0.00598946, -0.00308935, 0.0092407, -0.0347238, 0.000781132, -0.000101407, 1.75727, 64.6283, 31.3248, 6.28357, 1.57764, 4.14889, 0.0101428, 0.000544466, -0.0012546, 0.00285346, 0.00372321, 0.00173041, -0.000558765, 0.00993692, -0.0121055, -0.006152, -0.017114, 0.0292317, 0.0108685, 0.470979, -0.543112, 0.335967, -2.08372, -2.16579, -0.129908, 0.469603, -0.542187, 0.333272, -2.08026, -2.16397, -0.127589, -0.00130846, 0.0124898, 0.00325671, 0.0109144, 0.00412311, -0.0047266
0.0781191, 1.69261, -1.22863, -1.54006, -0.900733, -1.19287, 1.2279, -1.30269, 0.0300188, -0.00387431, -0.00205968, 0.0065788, -0.0361715, 0.00133456, 0.000169758, 1.72157, 64.6283, 31.3248, 6.28357, 1.60144, 4.12692, 0.00373412, 0.000536253, -0.00124058, 0.00285594, 0.00373913, 0.00169076, -0.00057231, 0.00995952, -0.0121657, -0.00483767, -0.0172491, 0.033105, 0.0118033, 0.470978, -0.5431, 0.33597, -2.08371, -2.16579, -0.129909, 0.469616, -0.542181, 0.333271, -2.08026, -2.164, -0.127533, -0.00134563, 0.01285, 0.00334867, 0.0109857, 0.00426107, -0.00334229
0.0791191, 1.69264, -1.22863, -1.54006, -0.900725, -1.19291, 1.2279, -1.30268, 0.0331684, -0.0033291, -0.00137321, 0.00553483, -0.0373799, 0.00194087, 0.00133388, 1.64619, 64.664, 31.3248, 6.24786, 1.62616, 4.09854, -0.0292249, 0.000527949, -0.00122449, 0.0028602, 0.00375742, 0.00165007, -0.00057952, 0.00873544, -0.0142763, -0.00456551, -0.0175609, 0.0352664, 0.0146101, 0.470976, -0.543087, 0.335973, -2.08371, -2.16578, -0.129909, 0.469631, -0.542175, 0.333268, -2.08025, -2.16402, -0.127474, -0.00138324, 0.0132147, 0.0034417, 0.013022, 0.00587884, -0.00285426
0.0801191, 1.69268, -1.22864, -1.54006, -0.900714, -1.19296, 1.2279, -1.30268, 0.035705, -0.00475111, -0.000915536, 0.00485322, -0.0386395, 0.00234507, 0.000651895, 1.57081, 64.7751, 31.3248, 6.20819, 1.66369, 4.07016, -0.0228162, 0.000517952, -0.00120915, 0.00286657, 0.00377303, 0.00161542, -0.000590519, 0.00811481, -0.0159149, -0.00546612, -0.0181681, 0.0353722, 0.0182512, 0.470975, -0.543074, 0.335977, -2.0837, -2.16578, -0.12991, 0.469645, -0.54217, 0.333263, -2.08025, -2.16404, -0.127423, -0.0014213, 0.013584, 0.0035358, 0.0145656, 0.00706672, -0.00360263
0.0811191, 1.69272, -1.22865, -1.54007, -0.900712, -1.193, 1.22791, -1.30269, 0.0336248, -0.0057158, -0.00320886, 0.0047507, -0.0381723, 0.00264845, -0.00126082, 1.53114, 64.8862, 31.4359, 6.28357, 1.66919, 4.04086, 0.0229602, 0.000509025, -0.00119239, 0.00287891, 0.00380118, 0.00158197, -0.000611918, 0.00989783, -0.0145181, -0.00675913, -0.0194291, 0.0344489, 0.0173059, 0.470973, -0.54306, 0.33598, -2.08369, -2.16578, -0.129911, 0.46966, -0.542163, 0.333253, -2.08022, -2.16407, -0.127361, -0.0014598, 0.0139578, 0.00363097, 0.0131491, 0.00582235, -0.005019
0.0821191, 1.69276, -1.22866, -1.54007, -0.900701, -1.19304, 1.22791, -1.30269, 0.0368689, -0.00544342, -0.00213928, 0.00750251, -0.0383434, 0.00254553, -0.00107791, 1.41608, 64.9576, 31.4359, 6.24786, 1.6875, 4.0198, 0.0293689, 0.000500054, -0.00117391, 0.00288496, 0.00381776, 0.0015424, -0.000627773, 0.00943861, -0.0158958, -0.00605367, -0.0177722, 0.0347887, 0.0183995, 0.470972, -0.543046, 0.335984, -2.08369, -2.16578, -0.129913, 0.469677, -0.542156, 0.333249, -2.08021, -2.1641, -0.127306, -0.00149874, 0.0143362, 0.00372719, 0.0144952, 0.00660188, -0.00419661
0.0831191, 1.69281, -1.22866, -1.54008, -0.900697, -1.19309, 1.22791, -1.30269, 0.0373638, -0.00360079, -0.0062473, 0.00379069, -0.0382955, 0.00223955, -0.000243885, 1.38038, 64.9576, 31.5113, 6.32324, 1.70032, 4.00516, 0.0165515, 0.000490648, -0.00115687, 0.0028909, 0.00384698, 0.00149269, -0.000644895, 0.00915175, -0.0162181, -0.00702935, -0.023223, 0.0372315, 0.0193467, 0.47097, -0.543032, 0.335988, -2.08368, -2.16577, -0.129914, 0.469693, -0.542149, 0.333244, -2.08019, -2.16413, -0.127226, -0.00153811, 0.014719, 0.00382447, 0.0147321, 0.00743147, -0.00502801
0.0841191, 1.69285, -1.22867, -1.54009, -0.900688, -1.19314, 1.22791, -1.30269, 0.0408883, -0.0067411, -0.00933973, 0.00527281, -0.0428762, 0.00200166, -0.000162589, 1.34071, 65.144, 31.5867, 6.35895, 1.70581, 3.99142, 0.0165515, 0.000479818, -0.00114038, 0.00290303, 0.00387749, 0.00145759, -0.00065917, 0.0102397, -0.0168426, -0.0100078, -0.0283097, 0.038113, 0.0185239, 0.470969, -0.543017, 0.335992, -2.08367, -2.16577, -0.129915, 0.469708, -0.542143, 0.333234, -2.08017, -2.16415, -0.127159, -0.00157792, 0.0151063, 0.00392278, 0.0152471, 0.00722923, -0.00805858
0.0851191, 1.69289, -1.22868, -1.5401, -0.900678, -1.19319, 1.22791, -1.30268, 0.0437482, -0.00614866, -0.0075159, 0.00408974, -0.0466947, 0.00187698, 0.00111231, 1.305, 65.2155, 31.6224, 6.35895, 1.71863, 3.97677, -0.0164075, 0.000468141, -0.00112368, 0.0029124, 0.00390479, 0.00141598, -0.000664866, 0.00933057, -0.0185957, -0.00937367, -0.0294877, 0.0420432, 0.0207309, 0.470967, -0.543002, 0.335996, -2.08367, -2.16577, -0.129916, 0.469723, -0.542137, 0.333227, -2.08017, -2.16417, -0.127088, -0.00161815, 0.015498, 0.00402212, 0.016948, 0.00849269, -0.00724502
0.0861191, 1.69294, -1.22868, -1.54011, -0.900673, -1.19325, 1.22791, -1.30268, 0.0435881, -0.00501525, -0.00618646, 0.00365618, -0.0446752, 0.00125132, 0.000741541, 1.22962, 65.2551, 31.6581, 6.47003, 1.73053, 3.97677, -0.0164075, 0.000459151, -0.00110464, 0.00292093, 0.00393802, 0.00136871, -0.000683088, 0.00883451, -0.0189565, -0.00837863, -0.0279398, 0.0413497, 0.0226496, 0.470966, -0.542986, 0.336, -2.08366, -2.16576, -0.129917, 0.46974, -0.542128, 0.33322, -2.08015, -2.1642, -0.127006, -0.00165881, 0.0158942, 0.00412249, 0.0172859, 0.00924015, -0.00609611
0.0871191, 1.69299, -1.22869, -1.54012, -0.900666, -1.1933, 1.22792, -1.30269, 0.0449558, -0.00760348, -0.00614303, 0.00524625, -0.0471754, 0.000834212, 0.000494361, 1.22962, 65.4376, 31.7335, 6.5097, 1.71863, 3.97677, -0.0164075, 0.000446162, -0.00108683, 0.00293538, 0.00397072, 0.00132817, -0.000699343, 0.0097934, -0.0190932, -0.00980883, -0.0290327, 0.0407126, 0.0221236, 0.470964, -0.542971, 0.336004, -2.08365, -2.16576, -0.129918, 0.469756, -0.542122, 0.333207, -2.08012, -2.16423, -0.126932, -0.0016999, 0.0162947, 0.00422387, 0.0173638, 0.00892011, -0.00756013
0.0881191, 1.69303, -1.22871, -1.54012, -0.900662, -1.19336, 1.22791, -1.30269, 0.0468541, -0.0125224, -0.007334, 0.00475227, -0.0485949, 0.000556141, -0.00136585, 1.18995, 65.6241, 31.7335, 6.62079, 1.70032, 3.97677, 0.0293689, 0.00043554, -0.00106755, 0.0029511, 0.00400758, 0.00129166, -0.000721707, 0.0101751, -0.0199632, -0.0133518, -0.0318476, 0.0372162, 0.0253736, 0.470962, -0.542954, 0.336008, -2.08364, -2.16576, -0.129919, 0.469774, -0.542113, 0.333194, -2.08009, -2.16425, -0.126858, -0.0017414, 0.0166996, 0.00432627, 0.0180765, 0.00952989, -0.0110418
0.0891191, 1.69308, -1.22871, -1.54013, -0.900654, -1.19341, 1.22792, -1.30269, 0.0473371, -0.00860148, -0.00834361, 0.00622076, -0.0547075, 0.000370761, -0.00114792, 1.18995, 65.6241, 31.7335, 6.65649, 1.6875, 3.97677, 0.0357776, 0.000424316, -0.00104796, 0.00295893, 0.00403881, 0.00123968, -0.000741559, 0.0118546, -0.0189645, -0.0112788, -0.0347101, 0.0461946, 0.0217789, 0.470961, -0.542938, 0.336012, -2.08364, -2.16575, -0.129921, 0.469792, -0.542106, 0.333188, -2.08007, -2.16429, -0.126774, -0.00178332, 0.0171089, 0.00442966, 0.0171724, 0.00792088, -0.0091224
0.0901191, 1.69313, -1.22871, -1.54015, -0.900652, -1.19347, 1.22792, -1.30269, 0.0438144, -0.00759465, -0.0117705, 0.0085597, -0.055123, -2.40934e-05, -0.000765282, 1.22962, 65.6955, 31.8445, 6.77154, 1.68201, 3.9841, 0.0357776, 0.000410697, -0.00103136, 0.00297192, 0.00408391, 0.0011879, -0.000752231, 0.0151992, -0.0157546, -0.0114634, -0.0364239, 0.0474529, 0.0141023, 0.470959, -0.54292, 0.336017, -2.08363, -2.16575, -0.129922, 0.469806, -0.542099, 0.333177, -2.08006, -2.16431, -0.126674, -0.00182565, 0.0175225, 0.00453405, 0.0140373, 0.00492974, -0.00962293
0.0911191, 1.69319, -1.22872, -1.54016, -0.900647, -1.19353, 1.22791, -1.30269, 0.0469458, -0.0109757, -0.0116944, 0.0051938, -0.0594785, -0.00028733, 0.00165995, 1.15424, 65.8066, 31.8445, 6.84296, 1.66919, 3.99142, -0.0228162, 0.000400891, -0.00100938, 0.00298543, 0.00412735, 0.00113931, -0.000771181, 0.0143711, -0.0178251, -0.0141145, -0.0409081, 0.0481278, 0.016399, 0.470957, -0.542903, 0.336021, -2.08362, -2.16575, -0.129923, 0.469826, -0.542088, 0.333166, -2.08003, -2.16434, -0.126579, -0.0018684, 0.0179404, 0.00463942, 0.0159366, 0.00665869, -0.0120694
0.0921191, 1.69323, -1.22873, -1.54018, -0.900643, -1.1936, 1.22791, -1.30269, 0.0441783, -0.00768825, -0.0115852, 0.00577908, -0.0632555, -0.000191553, 0.00158135, 1.15424, 65.8066, 31.8445, 6.91833, 1.65729, 3.99142, -0.0356336, 0.00038685, -0.000991644, 0.0029958, 0.00417115, 0.00108062, -0.000784428, 0.0166396, -0.0157248, -0.0119443, -0.0414212, 0.0546072, 0.0119967, 0.470955, -0.542885, 0.336026, -2.08361, -2.16574, -0.129924, 0.469842, -0.542082, 0.333158, -2.08001, -2.16436, -0.126474, -0.00191155, 0.0183626, 0.00474577, 0.0139558, 0.00442096, -0.0101093
0.0931191, 1.69328, -1.22874, -1.5402, -0.900643, -1.19366, 1.22791, -1.30269, 0.042206, -0.012003, -0.0143257, 0.00217313, -0.0662294, -0.000365061, -0.0011159, 1.15424, 65.9534, 31.9556, 7.02942, 1.65729, 3.99783, 0.0229602, 0.000369695, -0.000974607, 0.00301553, 0.00422578, 0.00102585, -0.000799471, 0.0184243, -0.0146796, -0.0158995, -0.0470404, 0.0532985, 0.0137169, 0.470953, -0.542867, 0.336031, -2.0836, -2.16574, -0.129926, 0.469857, -0.542077, 0.33314, -2.07999, -2.16438, -0.126361, -0.00195511, 0.0187891, 0.00485308, 0.0127888, 0.00365246, -0.0141532
0.0941191, 1.69333, -1.22874, -1.54022, -0.900639, -1.19374, 1.22791, -1.30269, 0.0440583, -0.00763932, -0.0145364, 0.00437536, -0.0676936, -0.000243374, -0.000743936, 1.15424, 65.9177, 31.9953, 7.06909, 1.63898, 3.99783, 0.0229602, 0.0003547, -0.000956659, 0.00302528, 0.00427844, 0.000956531, -0.00081135, 0.0186399, -0.0149985, -0.0132281, -0.0465941, 0.0590012, 0.0126078, 0.470951, -0.542848, 0.336035, -2.08359, -2.16574, -0.129927, 0.469873, -0.542071, 0.333132, -2.07998, -2.16441, -0.126235, -0.00199908, 0.0192197, 0.00496136, 0.0131679, 0.00347183, -0.0114505
0.0951191, 1.69338, -1.22874, -1.54023, -0.900638, -1.19381, 1.22791, -1.30269, 0.0455699, -0.00804574, -0.0110773, 0.0050911, -0.0697193, -0.000433517, -0.0014793, 1.15424, 66.0287, 31.8842, 7.14447, 1.63898, 4.00516, 0.0495105, 0.000339046, -0.000937409, 0.00303779, 0.00432212, 0.000894804, -0.000830353, 0.0183287, -0.0160715, -0.0122755, -0.0445242, 0.0601381, 0.0152379, 0.470949, -0.542829, 0.33604, -2.08358, -2.16573, -0.129929, 0.469891, -0.542064, 0.333122, -2.07995, -2.16445, -0.126127, -0.00204344, 0.0196547, 0.0050706, 0.0142185, 0.00411136, -0.0103851
0.0961191, 1.69344, -1.22875, -1.54026, -0.900639, -1.19388, 1.22791, -1.30269, 0.0452437, -0.00562964, -0.0130544, 0.00257218, -0.0701723, -0.00110281, 0.000471861, 1.07887, 66.0287, 31.9556, 7.21588, 1.62067, 4.02713, 0.0101428, 0.000323786, -0.000918053, 0.00305372, 0.00438038, 0.000831627, -0.000842411, 0.0183845, -0.0159136, -0.0119837, -0.0479021, 0.0631493, 0.0140627, 0.470947, -0.542809, 0.336045, -2.08357, -2.16573, -0.12993, 0.469908, -0.542056, 0.333108, -2.07993, -2.16447, -0.126001, -0.0020882, 0.0200938, 0.00518077, 0.0140285, 0.00444406, -0.00999079
0.0971191, 1.69349, -1.22875, -1.54028, -0.900638, -1.19396, 1.22791, -1.30269, 0.0468567, -0.00395245, -0.0159614, 0.00142318, -0.0760468, -0.000735209, 0.00153528, 1.03919, 66.0287, 31.9556, 7.25555, 1.61426, 4.02713, -0.0228162, 0.000304826, -0.000902505, 0.00306672, 0.00443914, 0.000760294, -0.000850859, 0.0194325, -0.0159674, -0.0122762, -0.0534296, 0.070383, 0.0122465, 0.470945, -0.542789, 0.336051, -2.08357, -2.16572, -0.129932, 0.469922, -0.542052, 0.333097, -2.07992, -2.16449, -0.125866, -0.00213335, 0.0205371, 0.00529189, 0.014064, 0.00390024, -0.0103332
0.0981191, 1.69354, -1.22875, -1.5403, -0.900637, -1.19403, 1.2279, -1.30269, 0.0498636, -0.00278448, -0.0181362, 0.0014261, -0.075774, -0.0015413, 0.0005488, 0.928108, 66.0287, 31.9556, 7.25555, 1.60785, 4.05551, -0.00999879, 0.000290036, -0.000882069, 0.00307995, 0.00449847, 0.000691705, -0.000868159, 0.0187626, -0.0171607, -0.012627, -0.0561873, 0.071386, 0.0152624, 0.470943, -0.542768, 0.336056, -2.08356, -2.16572, -0.129933, 0.46994, -0.542043, 0.333087, -2.0799, -2.16452, -0.125734, -0.0021789, 0.0209845, 0.00540394, 0.0151734, 0.00511214, -0.0104999
0.0991191, 1.69359, -1.22875, -1.54033, -0.900637, -1.19411, 1.2279, -1.30269, 0.0504295, -0.00196846, -0.020815, 0.00130872, -0.0752474, -0.0012988, 9.45995e-05, 0.888436, 66.0287, 31.9953, 7.25555, 1.60785, 4.06283, -0.00267457, 0.000269089, -0.000867068, 0.00309309, 0.00456117, 0.00061434, -0.000877684, 0.0193424, -0.0171507, -0.01316, -0.0580619, 0.0723162, 0.0152927, 0.470941, -0.542747, 0.336061, -2.08355, -2.16572, -0.129935, 0.469953, -0.54204, 0.333075, -2.07988, -2.16455, -0.125589, -0.00222483, 0.0214361, 0.00551691, 0.0151189, 0.00507325, -0.0110032
0.100119, 1.69365, -1.22875, -1.54035, -0.900636, -1.19418, 1.2279, -1.30269, 0.0471673, -0.00139641, -0.0216972, 0.00206899, -0.0739324, -0.0021883, -0.00210707, 0.737679, 66.0287, 31.9953, 7.21588, 1.58313, 4.09854, 0.0559192, 0.000252172, -0.000846627, 0.00310745, 0.00462294, 0.000541135, -0.000897698, 0.0212644, -0.0150019, -0.0129754, -0.057989, 0.0714774, 0.0136519, 0.470939, -0.542726, 0.336067, -2.08354, -2.16571, -0.129936, 0.469971, -0.542033, 0.333063, -2.07986, -2.16458, -0.12545, -0.00227115, 0.0218918, 0.0056308, 0.0130021, 0.00351522, -0.0109409
0.101119, 1.6937, -1.22875, -1.54038, -0.900639, -1.19426, 1.2279, -1.30269, 0.0491119, -0.00266445, -0.0215028, 0.00065267, -0.0733336, -0.00173013, -0.00116736, 0.6623, 66.1002, 31.9556, 7.25555, 1.55932, 4.10586, 0.0495105, 0.000232573, -0.000828563, 0.00312612, 0.00468945, 0.000471241, -0.000909932, 0.0204586, -0.0166473, -0.0139502, -0.0581348, 0.0703586, 0.016232, 0.470936, -0.542704, 0.336072, -2.08353, -2.16571, -0.129938, 0.469987, -0.542026, 0.333047, -2.07983, -2.16461, -0.125309, -0.00231785, 0.0223516, 0.00574559, 0.0145343, 0.00498841, -0.0117134
0.102119, 1.69375, -1.22875, -1.5404, -0.900644, -1.19434, 1.2279, -1.30269, 0.0455145, -0.000153174, -0.0238152, -0.00024908, -0.0781731, -0.00220458, -3.22522e-05, 0.6623, 66.0287, 31.8842, 7.29126, 1.54651, 4.13424, 0.0293689, 0.000212797, -0.000812738, 0.00313557, 0.00475179, 0.000388639, -0.00091896, 0.0234243, -0.013778, -0.0133058, -0.062386, 0.0769414, 0.0095996, 0.470934, -0.542682, 0.336078, -2.08351, -2.1657, -0.12994, 0.470001, -0.542021, 0.33304, -2.07982, -2.16463, -0.125158, -0.00236493, 0.0228154, 0.00586128, 0.0117513, 0.00230769, -0.0113358
0.103119, 1.6938, -1.22875, -1.54043, -0.90065, -1.19442, 1.22789, -1.30268, 0.0458239, -0.000972815, -0.0266245, -0.00181602, -0.0769427, -0.00306342, 0.00143656, 0.551216, 66.0645, 31.8445, 7.36664, 1.5282, 4.17727, -0.00999879, 0.000194103, -0.000794952, 0.00315301, 0.00482467, 0.000316647, -0.000930384, 0.0236296, -0.0138316, -0.015131, -0.0657869, 0.0752634, 0.00892838, 0.470932, -0.542659, 0.336084, -2.0835, -2.1657, -0.129941, 0.470016, -0.542014, 0.333025, -2.0798, -2.16465, -0.125007, -0.00241239, 0.0232833, 0.00597787, 0.0116984, 0.00285674, -0.0130552
0.104119, 1.69385, -1.22874, -1.54046, -0.90065, -1.19451, 1.22788, -1.30268, 0.043105, 0.00368654, -0.0281299, -0.00112573, -0.0806309, -0.00312735, 0.00143242, 0.551216, 65.878, 31.9199, 7.36664, 1.52179, 4.20657, -0.0228162, 0.000167876, -0.000784515, 0.00316365, 0.00489716, 0.000226148, -0.00092609, 0.026134, -0.0114088, -0.0127277, -0.0676363, 0.0830828, 0.00363862, 0.470929, -0.542636, 0.33609, -2.08349, -2.16569, -0.129943, 0.470025, -0.542014, 0.333016, -2.0798, -2.16467, -0.124837, -0.00246022, 0.0237552, 0.00609534, 0.00940788, 0.000386606, -0.0108809
0.105119, 1.69391, -1.22873, -1.54049, -0.900653, -1.19459, 1.22788, -1.30269, 0.0450879, 0.00327295, -0.026414, -0.00161479, -0.0801827, -0.00313606, -0.000740471, 0.400459, 65.8423, 31.8842, 7.40631, 1.5401, 4.23495, 0.0229602, 0.000147867, -0.000766616, 0.00317758, 0.00496851, 0.000145844, -0.000947908, 0.0251892, -0.0130205, -0.0125755, -0.0664155, 0.0825297, 0.00922022, 0.470927, -0.542612, 0.336096, -2.08348, -2.16569, -0.129945, 0.47004, -0.542007, 0.333005, -2.07977, -2.1647, -0.12468, -0.00250842, 0.0242312, 0.00621369, 0.0109409, 0.001838, -0.0105146
0.106119, 1.69395, -1.22873, -1.54052, -0.900658, -1.19467, 1.22787, -1.30268, 0.0435011, 0.00300222, -0.0283327, -0.00269918, -0.078699, -0.00341313, 0.00120177, 0.360787, 65.8066, 31.8445, 7.47772, 1.53461, 4.27066, -0.0228162, 0.000124443, -0.000752209, 0.00319201, 0.00503806, 6.64997e-05, -0.000948496, 0.0261678, -0.0121867, -0.0135453, -0.0678398, 0.0813235, 0.00628359, 0.470924, -0.542588, 0.336102, -2.08347, -2.16568, -0.129946, 0.470053, -0.542003, 0.332993, -2.07976, -2.16472, -0.124525, -0.00255699, 0.0247111, 0.00633291, 0.0100595, 0.00146745, -0.0114801
0.107119, 1.69401, -1.22873, -1.54055, -0.900664, -1.19475, 1.22786, -1.30269, 0.0444205, 0.00375349, -0.0277129, -0.00352685, -0.0784408, -0.00359785, -0.00065688, 0.245735, 65.7312, 31.8445, 7.5531, 1.55292, 4.30636, 0.0165515, 0.000102626, -0.000735756, 0.00320582, 0.00511236, -1.70335e-05, -0.000963862, 0.0257427, -0.0130099, -0.0131028, -0.067713, 0.0820713, 0.0101858, 0.470922, -0.542563, 0.336109, -2.08346, -2.16568, -0.129948, 0.470067, -0.541997, 0.332982, -2.07973, -2.16475, -0.124361, -0.00260593, 0.0251949, 0.006453, 0.0108334, 0.00233673, -0.0108823
0.108119, 1.69405, -1.22872, -1.54058, -0.900664, -1.19484, 1.22785, -1.30269, 0.0439371, 0.00416434, -0.0280234, -0.00232436, -0.0734222, -0.00399226, -0.00115, 0.170357, 65.6598, 31.8842, 7.5531, 1.56482, 4.34939, 0.0357776, 7.49241e-05, -0.000725418, 0.00322044, 0.00518783, -9.87601e-05, -0.000963892, 0.0258081, -0.0129331, -0.012856, -0.0652157, 0.0783158, 0.0107097, 0.470919, -0.542538, 0.336115, -2.08345, -2.16567, -0.12995, 0.470075, -0.541997, 0.332969, -2.07972, -2.16476, -0.124196, -0.00265523, 0.0256827, 0.00657393, 0.0107187, 0.0027189, -0.0105258
0.109119, 1.69411, -1.22872, -1.54061, -0.900676, -1.19492, 1.22785, -1.30269, 0.0453145, 0.00276991, -0.0255779, -0.00505589, -0.0782745, -0.00398394, 0.000657489, 0.0196001, 65.6598, 31.8088, 7.70386, 1.57123, 4.3851, -0.00267457, 5.5856e-05, -0.000705206, 0.00323637, 0.00526515, -0.000181169, -0.000981852, 0.025474, -0.0142597, -0.0132975, -0.0668552, 0.0812882, 0.0122774, 0.470916, -0.542512, 0.336122, -2.08343, -2.16567, -0.129952, 0.470092, -0.541987, 0.332956, -2.07969, -2.16479, -0.124031, -0.00270489, 0.0261745, 0.00669572, 0.0119659, 0.00366325, -0.0108285
0.110119, 1.69416, -1.2287, -1.54064, -0.900677, -1.195, 1.22784, -1.30268, 0.0473708, 0.00703878, -0.0264166, -0.00335547, -0.0814527, -0.00346976, 0.00118431, -0.0557783, 65.4376, 31.8445, 7.70386, 1.55292, 4.40707, -0.0228162, 2.98697e-05, -0.000692545, 0.00324516, 0.00533598, -0.000271499, -0.00098201, 0.0260362, -0.0145782, -0.0109498, -0.0676707, 0.0886247, 0.0107854, 0.470914, -0.542486, 0.336128, -2.08342, -2.16566, -0.129954, 0.470103, -0.541984, 0.33295, -2.07969, -2.16481, -0.123863, -0.00275491, 0.0266701, 0.00681835, 0.0123394, 0.00325506, -0.00848536
0.111119, 1.6942, -1.2287, -1.54067, -0.900677, -1.19509, 1.22783, -1.30268, 0.0491745, 0.00468897, -0.0260448, -0.00222564, -0.0802684, -0.00820425, 0.00201024, -0.131157, 65.4376, 31.8445, 7.70386, 1.56482, 4.4501, -0.0557752, 1.78487e-06, -0.000681298, 0.00326058, 0.00541212, -0.000351395, -0.00098255, 0.0254977, -0.0147435, -0.0125921, -0.070756, 0.0831647, 0.0114067, 0.470911, -0.542459, 0.336135, -2.08341, -2.16566, -0.129956, 0.470112, -0.541982, 0.332937, -2.07968, -2.16482, -0.1237, -0.00280528, 0.0271696, 0.00694181, 0.0123751, 0.00454644, -0.00990503
0.112119, 1.69425, -1.22869, -1.54071, -0.900685, -1.19517, 1.22781, -1.30268, 0.0475331, 0.00655699, -0.0267057, -0.00407371, -0.0784836, -0.0111669, -0.000117899, -0.206535, 65.2908, 31.8842, 7.81494, 1.55932, 4.47848, -0.0164075, -2.4035e-05, -0.000668939, 0.0032733, 0.00549258, -0.000438352, -0.00099098, 0.0255005, -0.013775, -0.0121961, -0.0734394, 0.0825007, 0.0138141, 0.470908, -0.542432, 0.336142, -2.0834, -2.16565, -0.129958, 0.470122, -0.541978, 0.332927, -2.07965, -2.16484, -0.123525, -0.00285601, 0.0276729, 0.00706609, 0.0113716, 0.00494645, -0.00936117
0.113119, 1.6943, -1.22869, -1.54073, -0.900687, -1.19525, 1.2278, -1.30269, 0.0470019, 0.00436933, -0.0252571, -0.00270943, -0.0822469, -0.0128981, -0.00201138, -0.317619, 65.2908, 31.8445, 7.81494, 1.56482, 4.49313, 0.0357776, -5.05009e-05, -0.000656307, 0.00328797, 0.00556524, -0.000512803, -0.00100199, 0.0271307, -0.0127617, -0.0129416, -0.0747846, 0.0825696, 0.0135088, 0.470905, -0.542404, 0.336149, -2.08338, -2.16565, -0.12996, 0.470132, -0.541974, 0.332915, -2.07963, -2.16486, -0.123372, -0.00290708, 0.0281801, 0.00719119, 0.0103398, 0.00391793, -0.0101952
0.114119, 1.69435, -1.22868, -1.54075, -0.900701, -1.19533, 1.22778, -1.30268, 0.0466407, 0.00467463, -0.0227284, -0.00532798, -0.0799904, -0.0152932, -0.000628843, -0.43267, 65.2155, 31.7335, 7.9657, 1.55932, 4.53616, 0.0165515, -7.17131e-05, -0.000639577, 0.0032991, 0.00563931, -0.000593892, -0.00101619, 0.025791, -0.013432, -0.0124613, -0.0746585, 0.080158, 0.0160639, 0.470902, -0.542376, 0.336156, -2.08337, -2.16564, -0.129962, 0.470146, -0.541964, 0.332907, -2.0796, -2.16489, -0.123212, -0.0029585, 0.0286911, 0.00731711, 0.0109272, 0.00570519, -0.00940745
0.115119, 1.69439, -1.22868, -1.54079, -0.900706, -1.19541, 1.22777, -1.30269, 0.0484548, 0.00478573, -0.0285056, -0.00438363, -0.0794695, -0.0111716, -0.000893946, -0.508049, 65.144, 31.8088, 8.0014, 1.57123, 4.53616, 0.0293689, -0.00010003, -0.000627654, 0.00331396, 0.00571806, -0.000676166, -0.00102413, 0.0273091, -0.0140644, -0.0140894, -0.0756088, 0.0824943, 0.0147441, 0.470899, -0.542347, 0.336164, -2.08336, -2.16563, -0.129964, 0.470156, -0.541961, 0.332895, -2.07958, -2.16491, -0.123044, -0.00301027, 0.0292059, 0.00744383, 0.0115021, 0.00499869, -0.011144
0.116119, 1.69444, -1.22867, -1.54081, -0.900712, -1.19549, 1.22776, -1.30268, 0.0476965, 0.0057881, -0.0277487, -0.00291973, -0.0786524, -0.0170644, 0.00204889, -0.619133, 65.033, 31.8088, 8.0014, 1.57764, 4.54349, -0.0420422, -0.000127325, -0.000615497, 0.00332543, 0.00579036, -0.000756574, -0.00102035, 0.0275909, -0.0124735, -0.0135434, -0.078686, 0.0799797, 0.010419, 0.470896, -0.542318, 0.336171, -2.08334, -2.16563, -0.129966, 0.470165, -0.541956, 0.332887, -2.07957, -2.16491, -0.122884, -0.00306237, 0.0297245, 0.00757134, 0.00989115, 0.00508974, -0.0104732
0.117119, 1.69448, -1.22866, -1.54083, -0.900721, -1.19557, 1.22774, -1.30268, 0.0446637, 0.00729177, -0.0264394, -0.00454292, -0.0777933, -0.017987, 0.00112857, -0.619133, 64.8862, 31.7731, 8.11249, 1.58954, 4.57187, -0.0356336, -0.000153427, -0.000604504, 0.00333433, 0.00586628, -0.000838468, -0.00103242, 0.0283184, -0.0113008, -0.0123823, -0.0780059, 0.0805372, 0.0106936, 0.470893, -0.542288, 0.336179, -2.08333, -2.16562, -0.129968, 0.470174, -0.54195, 0.332881, -2.07955, -2.16494, -0.122721, -0.00311481, 0.0302468, 0.00769965, 0.00873589, 0.00466676, -0.00927642
0.118119, 1.69453, -1.22865, -1.54086, -0.900724, -1.19565, 1.22772, -1.30268, 0.0487472, 0.00745916, -0.0237792, -0.00219188, -0.0774557, -0.0170386, 0.000515021, -0.76989, 64.7751, 31.8088, 8.07678, 1.60785, 4.55722, -0.0292249, -0.000180529, -0.000590821, 0.00334646, 0.00594153, -0.000918692, -0.00104198, 0.0272048, -0.0137796, -0.0111909, -0.0740952, 0.0809151, 0.0147094, 0.47089, -0.542258, 0.336186, -2.08331, -2.16562, -0.129971, 0.470185, -0.541944, 0.332872, -2.07952, -2.16496, -0.122559, -0.00316759, 0.0307728, 0.00782873, 0.0111621, 0.00621045, -0.00787362
0.119119, 1.69458, -1.22864, -1.54088, -0.900727, -1.19572, 1.2277, -1.30268, 0.0486861, 0.00580764, -0.0225019, -0.00455722, -0.0714291, -0.0205086, -0.00158943, -0.920646, 64.7394, 31.7335, 8.07678, 1.59595, 4.53616, 0.0229602, -0.000204969, -0.000575187, 0.00335691, 0.00600774, -0.0009905, -0.00106029, 0.0254089, -0.0146035, -0.0123841, -0.0743365, 0.0730021, 0.0215232, 0.470887, -0.542227, 0.336194, -2.0833, -2.16561, -0.129973, 0.470198, -0.541935, 0.332865, -2.07949, -2.16499, -0.122417, -0.0032207, 0.0313025, 0.00795859, 0.0118239, 0.00873126, -0.00866786
0.120119, 1.69462, -1.22863, -1.5409, -0.900733, -1.1958, 1.22768, -1.30268, 0.0464112, 0.00823319, -0.0194511, -0.00413061, -0.0729559, -0.0188444, -0.00129698, -0.960319, 64.5529, 31.6977, 8.11249, 1.61426, 4.51419, 0.0293689, -0.000231909, -0.000562814, 0.00336195, 0.00607428, -0.00107496, -0.00106947, 0.0267126, -0.0138973, -0.00959375, -0.0700574, 0.0774505, 0.0195616, 0.470884, -0.542196, 0.336202, -2.08328, -2.1656, -0.129975, 0.470208, -0.541929, 0.332864, -2.07947, -2.16501, -0.122261, -0.00327414, 0.031836, 0.00808922, 0.0112136, 0.00751823, -0.00596398
0.121119, 1.69467, -1.22863, -1.54092, -0.900739, -1.19587, 1.22766, -1.30269, 0.0493853, 0.00372535, -0.0228537, -0.00695248, -0.0696304, -0.0222755, -0.000864654, -1.07537, 64.6283, 31.7731, 8.15216, 1.63898, 4.50046, 0.0293689, -0.000260027, -0.000550126, 0.00338181, 0.00615369, -0.00113634, -0.00108324, 0.0252153, -0.0154526, -0.0143426, -0.0765459, 0.0693868, 0.0241469, 0.470881, -0.542164, 0.33621, -2.08327, -2.1656, -0.129978, 0.470217, -0.541922, 0.332848, -2.07943, -2.16502, -0.122115, -0.00332791, 0.0323731, 0.00822061, 0.0124861, 0.0103306, -0.010336
0.122119, 1.69471, -1.22863, -1.54094, -0.900742, -1.19595, 1.22763, -1.30269, 0.0476736, 0.00331864, -0.0193366, -0.00719469, -0.0716763, -0.0245705, 0.000135641, -1.15075, 64.5926, 31.7335, 8.11249, 1.66919, 4.47848, 0.0101428, -0.000287999, -0.00053848, 0.0033918, 0.00622153, -0.00120583, -0.00109156, 0.025935, -0.0145603, -0.0135204, -0.0761873, 0.0695372, 0.0227196, 0.470877, -0.542132, 0.336219, -2.08325, -2.16559, -0.12998, 0.470226, -0.541915, 0.332841, -2.07941, -2.16504, -0.121972, -0.00338201, 0.0329138, 0.00835276, 0.0115967, 0.00999764, -0.00947736
0.123119, 1.69476, -1.22862, -1.54095, -0.900748, -1.19603, 1.22761, -1.30268, 0.0471295, 0.00221231, -0.0178222, -0.00628258, -0.0729667, -0.0266359, 0.00202321, -1.26183, 64.5926, 31.7335, 8.15216, 1.68201, 4.46383, -0.0420422, -0.000315545, -0.000525104, 0.00340388, 0.00628839, -0.00127339, -0.00110012, 0.0268368, -0.0138514, -0.0137014, -0.0767232, 0.0685581, 0.0198533, 0.470874, -0.542099, 0.336227, -2.08324, -2.16558, -0.129982, 0.470237, -0.541907, 0.332833, -2.07938, -2.16505, -0.121833, -0.00343642, 0.0334582, 0.00848565, 0.01086, 0.00965088, -0.0096424
0.124119, 1.69481, -1.22862, -1.54096, -0.90075, -1.1961, 1.22758, -1.30268, 0.0468538, 0.00240281, -0.0165716, -0.00460696, -0.0733604, -0.03201, 0.00111145, -1.37688, 64.5529, 31.7335, 8.15216, 1.6875, 4.43545, -0.0356336, -0.000343387, -0.000511022, 0.00341439, 0.00635414, -0.00134282, -0.00111366, 0.0272634, -0.0125462, -0.0134098, -0.0795192, 0.0664526, 0.0195217, 0.47087, -0.542066, 0.336235, -2.08322, -2.16557, -0.129985, 0.470248, -0.541898, 0.332826, -2.07935, -2.16507, -0.121694, -0.00349116, 0.0340062, 0.00861928, 0.0095277, 0.00967933, -0.00924799
0.125119, 1.69485, -1.22861, -1.54097, -0.900752, -1.19618, 1.22755, -1.30268, 0.0456466, 0.00327225, -0.0147849, -0.00245722, -0.0744182, -0.0274289, -0.00142917, -1.45226, 64.4815, 31.6977, 8.11249, 1.71222, 4.40707, 0.0229602, -0.00037278, -0.000500377, 0.00341972, 0.00641919, -0.00141848, -0.00112564, 0.0292385, -0.0124487, -0.0115476, -0.0730723, 0.0703737, 0.0195264, 0.470867, -0.542032, 0.336244, -2.0832, -2.16557, -0.129987, 0.470256, -0.541892, 0.332825, -2.07933, -2.1651, -0.121549, -0.00354621, 0.0345577, 0.00875364, 0.00951407, 0.0079899, -0.00758003
0.126119, 1.69489, -1.22861, -1.54098, -0.900753, -1.19626, 1.22753, -1.30269, 0.0417955, 0.00218145, -0.0151713, -0.00187359, -0.0745461, -0.0286301, -0.00119014, -1.52764, 64.4815, 31.7335, 8.11249, 1.71222, 4.3851, 0.0293689, -0.000403189, -0.000488964, 0.00343048, 0.00648457, -0.00148501, -0.00113769, 0.0317779, -0.00991285, -0.0121894, -0.0736197, 0.0689269, 0.01481, 0.470863, -0.541997, 0.336253, -2.08319, -2.16556, -0.12999, 0.470264, -0.541885, 0.332818, -2.0793, -2.16512, -0.121413, -0.00360158, 0.0351128, 0.00888872, 0.00699389, 0.0060334, -0.00839717
0.127119, 1.69493, -1.22861, -1.54098, -0.900754, -1.19633, 1.2275, -1.30268, 0.0451651, 0.00202253, -0.0118233, -0.00142565, -0.0737897, -0.0255665, 0.000393367, -1.60302, 64.5926, 31.6224, 8.11249, 1.70032, 4.37137, -0.00267457, -0.000433108, -0.000477442, 0.00344079, 0.00654374, -0.00154369, -0.00114637, 0.0304735, -0.0129803, -0.010992, -0.0678813, 0.069806, 0.0180745, 0.47086, -0.541962, 0.336262, -2.08317, -2.16555, -0.129992, 0.470273, -0.541878, 0.332812, -2.07927, -2.16513, -0.121291, -0.00365725, 0.0356715, 0.00902453, 0.00999849, 0.00782118, -0.00697006
0.128119, 1.69498, -1.2286, -1.54099, -0.900756, -1.19642, 1.22747, -1.30268, 0.0421874, 0.00421067, -0.00991033, -0.00108287, -0.0746252, -0.0268835, 0.00172031, -1.7141, 64.4815, 31.6581, 8.11249, 1.71222, 4.34207, -0.0420422, -0.000462556, -0.000465195, 0.00344522, 0.00661057, -0.00162304, -0.0011506, 0.0319066, -0.0112342, -0.00897965, -0.0668098, 0.0720555, 0.0141423, 0.470856, -0.541926, 0.336271, -2.08315, -2.16554, -0.129995, 0.470282, -0.54187, 0.332811, -2.07925, -2.16514, -0.12114, -0.00371324, 0.0362337, 0.00916105, 0.00832371, 0.00658636, -0.00501715
0.129119, 1.69502, -1.2286, -1.541, -0.90076, -1.19649, 1.22744, -1.30268, 0.0413144, 0.00300501, -0.0084296, -0.00174926, -0.0739966, -0.0319324, 0.000197435, -1.75378, 64.4815, 31.6977, 8.15216, 1.69391, 4.30636, -0.0164075, -0.00049287, -0.000453777, 0.00345275, 0.00667233, -0.00168968, -0.00116416, 0.0318351, -0.0103575, -0.0096948, -0.0697787, 0.0680615, 0.0163655, 0.470852, -0.54189, 0.33628, -2.08314, -2.16554, -0.129998, 0.470291, -0.541862, 0.332808, -2.07922, -2.16516, -0.121008, -0.00376953, 0.0367994, 0.00929827, 0.00736316, 0.0072973, -0.00554864
0.130119, 1.69506, -1.22859, -1.541, -0.900762, -1.19657, 1.22741, -1.30268, 0.0394812, 0.00519044, -0.00712597, -0.00207589, -0.0735781, -0.0322759, 0.000131623, -1.86486, 64.4815, 31.7335, 8.18787, 1.68201, 4.29263, -0.0164075, -0.000523237, -0.000441724, 0.00346002, 0.00673796, -0.00176024, -0.00117634, 0.0325472, -0.00961434, -0.00797004, -0.0683053, 0.0698981, 0.0156722, 0.470849, -0.541853, 0.336289, -2.08312, -2.16553, -0.13, 0.4703, -0.541853, 0.332805, -2.07919, -2.16518, -0.120868, -0.00382613, 0.0373685, 0.00943618, 0.00665301, 0.00686679, -0.0037966
0.131119, 1.69511, -1.22859, -1.541, -0.900768, -1.19665, 1.22737, -1.30268, 0.0403057, 0.00298961, -0.00525391, -0.00637475, -0.0788699, -0.0308497, -0.00160767, -1.94024, 64.5172, 31.7335, 8.26324, 1.70032, 4.23495, 0.0293689, -0.000553788, -0.000428647, 0.00346641, 0.0067997, -0.00183329, -0.00119672, 0.0325051, -0.0111093, -0.00915605, -0.0701206, 0.0733233, 0.0212154, 0.470845, -0.541816, 0.336299, -2.0831, -2.16552, -0.130003, 0.47031, -0.541845, 0.332803, -2.07916, -2.16522, -0.12073, -0.00388303, 0.0379411, 0.00957479, 0.00804419, 0.00772594, -0.00486863
0.132119, 1.69514, -1.22859, -1.541, -0.90077, -1.19673, 1.22735, -1.30268, 0.0390562, -0.00116719, 0.00319095, -0.00455604, -0.0766517, -0.0271986, 0.000115013, -1.94024, 64.664, 31.6977, 8.26324, 1.6756, 4.2203, -0.00267457, -0.000587392, -0.000417927, 0.00347474, 0.0068552, -0.00189721, -0.00120332, 0.0327616, -0.0125291, -0.0080254, -0.0577055, 0.0687093, 0.0215966, 0.470841, -0.541778, 0.336308, -2.08308, -2.16551, -0.130006, 0.470318, -0.541838, 0.332799, -2.07914, -2.16523, -0.120607, -0.00394022, 0.0385172, 0.00971408, 0.00945561, 0.00793287, -0.00369697
0.133119, 1.69519, -1.22858, -1.541, -0.900776, -1.19681, 1.22731, -1.30268, 0.0464633, 0.00109736, 0.00236386, -0.00503026, -0.076321, -0.0283786, -0.000398042, -2.16637, 64.5926, 31.6977, 8.33862, 1.6756, 4.19925, 0.0101428, -0.000614997, -0.000401396, 0.00347787, 0.00691997, -0.00197697, -0.00122736, 0.0296965, -0.0164568, -0.00758974, -0.0603557, 0.0707543, 0.029549, 0.470837, -0.541739, 0.336318, -2.08306, -2.1655, -0.130009, 0.470331, -0.541826, 0.332801, -2.0791, -2.16527, -0.12046, -0.00399771, 0.0390967, 0.00985405, 0.0132265, 0.0116327, -0.00276997
0.134119, 1.69523, -1.22857, -1.541, -0.900773, -1.19689, 1.22728, -1.30268, 0.042779, 0.00309239, -9.90832e-06, -0.00259773, -0.0807352, -0.0295723, 0.00166742, -2.13067, 64.6283, 31.7731, 8.29895, 1.6756, 4.1846, -0.0420422, -0.000654505, -0.00039703, 0.00348388, 0.00698087, -0.0020478, -0.00121771, 0.0337159, -0.0127165, -0.00686657, -0.0635029, 0.0758914, 0.0191019, 0.470833, -0.5417, 0.336328, -2.08305, -2.1655, -0.130011, 0.470332, -0.541824, 0.332798, -2.07909, -2.16526, -0.120323, -0.0040555, 0.0396796, 0.00999469, 0.00960423, 0.00798238, -0.00242791
0.135119, 1.69527, -1.22858, -1.541, -0.900778, -1.19697, 1.22725, -1.30268, 0.0445663, 0.00215977, 0.0018897, -0.00588865, -0.0781676, -0.0299255, 0.00111161, -2.28143, 64.7751, 31.6977, 8.33862, 1.65088, 4.15622, -0.0420422, -0.000685736, -0.000381317, 0.00349314, 0.00703818, -0.00211309, -0.00123802, 0.0316939, -0.0150656, -0.0073722, -0.0627452, 0.0732115, 0.0261411, 0.470829, -0.541661, 0.336338, -2.08303, -2.16549, -0.130014, 0.470345, -0.541813, 0.332794, -2.07906, -2.16529, -0.120198, -0.00411357, 0.0402659, 0.010136, 0.011801, 0.0107398, -0.00254323
0.136119, 1.69531, -1.22857, -1.541, -0.900779, -1.19705, 1.22721, -1.30268, 0.0428649, 0.00198008, -0.000403638, -0.00428096, -0.0768802, -0.0301395, -0.00166642, -2.3211, 64.7751, 31.7731, 8.33862, 1.63257, 4.12692, 0.0229602, -0.000722239, -0.00037302, 0.00349838, 0.00710107, -0.00218582, -0.00125014, 0.0337505, -0.0134951, -0.00804115, -0.0632087, 0.0721139, 0.0252115, 0.470825, -0.54162, 0.336348, -2.08301, -2.16548, -0.130017, 0.47035, -0.541808, 0.332793, -2.07903, -2.16531, -0.120059, -0.00417194, 0.0408555, 0.0102779, 0.0102236, 0.0093383, -0.00333485
0.137119, 1.69534, -1.22857, -1.541, -0.900781, -1.19713, 1.22718, -1.30268, 0.0386847, 0.0031312, 0.000733778, -0.00312036, -0.0761902, -0.0314507, -0.00087359, -2.3568, 64.8505, 31.7335, 8.33862, 1.62616, 4.12692, 0.0165515, -0.000759587, -0.000364601, 0.00350635, 0.00716017, -0.00225125, -0.00125634, 0.0359484, -0.0109487, -0.00673912, -0.0616097, 0.0720339, 0.0200698, 0.470821, -0.541579, 0.336358, -2.08299, -2.16547, -0.13002, 0.470355, -0.541802, 0.332789, -2.079, -2.16533, -0.119931, -0.00423059, 0.0414484, 0.0104206, 0.00774869, 0.00745581, -0.00217205
0.138119, 1.69539, -1.22856, -1.541, -0.900784, -1.19721, 1.22715, -1.30268, 0.0396141, 0.00265544, 0.00138054, -0.00228004, -0.0757229, -0.0310616, -0.000819752, -2.43218, 64.8505, 31.6977, 8.33862, 1.62067, 4.09122, 0.0229602, -0.000793984, -0.000351466, 0.00351081, 0.00721482, -0.00232359, -0.00127131, 0.0362548, -0.0115677, -0.00673456, -0.060148, 0.0715901, 0.020722, 0.470816, -0.541538, 0.336369, -2.08297, -2.16546, -0.130023, 0.470365, -0.541794, 0.332789, -2.07897, -2.16535, -0.119801, -0.00428952, 0.0420447, 0.0105638, 0.00831911, 0.00777467, -0.00209173
0.139119, 1.69542, -1.22856, -1.541, -0.900787, -1.19729, 1.22712, -1.30267, 0.0355465, 0.00452156, 0.000127246, -0.000741851, -0.0754543, -0.0321649, 0.00209836, -2.43218, 64.8862, 31.7335, 8.29895, 1.61426, 4.09122, -0.0484509, -0.0008328, -0.00034334, 0.00351757, 0.00727502, -0.00239382, -0.00126566, 0.0390572, -0.00855579, -0.00579252, -0.0604283, 0.0728093, 0.0119342, 0.470812, -0.541496, 0.336379, -2.08295, -2.16545, -0.130026, 0.47037, -0.541788, 0.332787, -2.07896, -2.16535, -0.119666, -0.00434873, 0.0426443, 0.0107077, 0.00538734, 0.00533847, -0.00136312
0.140119, 1.69546, -1.22855, -1.541, -0.900799, -1.19736, 1.22708, -1.30267, 0.035722, 0.00359724, 0.000116408, -0.00329821, -0.0744679, -0.0324489, 0.0013989, -2.43218, 64.8862, 31.7335, 8.414, 1.60144, 4.07748, -0.0484509, -0.000867225, -0.000330802, 0.00352497, 0.00733446, -0.00246128, -0.00128599, 0.0387042, -0.0093358, -0.00677474, -0.0614148, 0.0714828, 0.0154386, 0.470808, -0.541453, 0.33639, -2.08293, -2.16544, -0.130029, 0.470379, -0.541778, 0.332785, -2.07892, -2.16538, -0.119537, -0.00440822, 0.0432472, 0.0108522, 0.00605818, 0.00647411, -0.00215795
0.141119, 1.6955, -1.22855, -1.541, -0.900802, -1.19744, 1.22705, -1.30268, 0.0410047, 0.00200009, 0.000101288, -0.00544857, -0.0792875, -0.0324386, -0.0014749, -2.50756, 64.9219, 31.7335, 8.414, 1.60144, 4.06283, 0.0165515, -0.000904495, -0.000318685, 0.00353219, 0.00739342, -0.00253233, -0.00130614, 0.037447, -0.012301, -0.00833485, -0.0655048, 0.0745243, 0.0238747, 0.470803, -0.54141, 0.336401, -2.08291, -2.16543, -0.130032, 0.470388, -0.54177, 0.332782, -2.07889, -2.16541, -0.119405, -0.00446799, 0.0438533, 0.0109973, 0.00885732, 0.00868503, -0.00344872
0.142119, 1.69553, -1.22855, -1.54099, -0.900812, -1.19751, 1.22702, -1.30268, 0.0380893, 0.003994, 0.00313953, -0.0047946, -0.0782683, -0.033153, -0.00122062, -2.43218, 64.9576, 31.7335, 8.44971, 1.60144, 4.06283, 0.0229602, -0.000944695, -0.00030957, 0.00353967, 0.00744574, -0.00260045, -0.00131656, 0.0384719, -0.0110443, -0.00595067, -0.0619289, 0.0752788, 0.0219707, 0.470799, -0.541366, 0.336412, -2.08288, -2.16542, -0.130036, 0.470394, -0.541764, 0.332779, -2.07886, -2.16543, -0.119282, -0.00452802, 0.0444627, 0.0111431, 0.00766665, 0.00786251, -0.00107116
0.143119, 1.69557, -1.22855, -1.54099, -0.900814, -1.19759, 1.22699, -1.30268, 0.0388576, 0.00527964, 0.00319608, -0.00489871, -0.0772526, -0.0339268, 0.000135687, -2.47185, 64.9973, 31.6977, 8.37433, 1.60144, 4.07016, -0.00267457, -0.000983562, -0.000298429, 0.00354702, 0.00749772, -0.00266352, -0.00132139, 0.0383168, -0.0114957, -0.00534292, -0.0620029, 0.0756977, 0.0218506, 0.470794, -0.541322, 0.336423, -2.08286, -2.16541, -0.130039, 0.470401, -0.541756, 0.332777, -2.07884, -2.16544, -0.119165, -0.00458833, 0.0450753, 0.0112895, 0.00807394, 0.00855311, -0.000315225
0.144119, 1.6956, -1.22854, -1.54099, -0.900822, -1.19765, 1.22696, -1.30267, 0.0368032, 0.00758878, 0.00149638, -0.0037181, -0.071904, -0.0340691, 0.00154852, -2.39648, 64.8505, 31.7335, 8.37433, 1.59595, 4.07016, -0.0420422, -0.001025, -0.000291544, 0.00355023, 0.00755089, -0.00273598, -0.00132152, 0.0392791, -0.0103527, -0.00437774, -0.0599175, 0.0738015, 0.0183494, 0.47079, -0.541277, 0.336434, -2.08284, -2.1654, -0.130042, 0.470405, -0.541751, 0.332778, -2.07883, -2.16545, -0.119036, -0.00464891, 0.0456911, 0.0114364, 0.00694204, 0.00802277, 0.000668802
0.145119, 1.69563, -1.22854, -1.54099, -0.900832, -1.19772, 1.22693, -1.30267, 0.0336753, 0.00386526, 0.000220229, -0.00281796, -0.0725202, -0.0388297, 0.00126971, -2.39648, 64.9219, 31.7731, 8.37433, 1.60144, 4.07748, -0.0484509, -0.00106588, -0.000282388, 0.00356246, 0.00760943, -0.00279325, -0.00133108, 0.041814, -0.00733745, -0.00718858, -0.0647384, 0.0684615, 0.0140465, 0.470785, -0.541231, 0.336446, -2.08282, -2.16539, -0.130045, 0.470411, -0.541744, 0.332771, -2.07879, -2.16546, -0.118917, -0.00470975, 0.04631, 0.011584, 0.00385794, 0.00645033, -0.0022624
0.146119, 1.69566, -1.22853, -1.54099, -0.900836, -1.19779, 1.2269, -1.30267, 0.035254, 0.00856184, 0.00118783, -0.00347912, -0.0685656, -0.0344133, 0.000371753, -2.43218, 64.8108, 31.7335, 8.29895, 1.60144, 4.10586, -0.0356336, -0.00110534, -0.000272224, 0.00356439, 0.0076593, -0.00286253, -0.00134337, 0.0405923, -0.0097495, -0.0039246, -0.058231, 0.0724465, 0.0188335, 0.47078, -0.541185, 0.336457, -2.0828, -2.16538, -0.130049, 0.470417, -0.541735, 0.332774, -2.07876, -2.16549, -0.118796, -0.00477085, 0.0469322, 0.0117321, 0.00628186, 0.00787324, 0.00122386
0.147119, 1.69569, -1.22852, -1.541, -0.900848, -1.19785, 1.22687, -1.30268, 0.031963, 0.00706358, -0.000886601, -0.00584712, -0.0704452, -0.0345754, -0.00144759, -2.39648, 64.7751, 31.8088, 8.29895, 1.60785, 4.11319, 0.0101428, -0.0011472, -0.000263662, 0.00357149, 0.00771509, -0.00292942, -0.00135802, 0.0429232, -0.00789198, -0.00575087, -0.0616684, 0.0729674, 0.0179362, 0.470776, -0.541138, 0.336469, -2.08277, -2.16537, -0.130052, 0.470422, -0.541728, 0.332772, -2.07873, -2.16551, -0.118672, -0.00483222, 0.0475574, 0.0118809, 0.00438224, 0.00640386, -0.000737939
0.148119, 1.69573, -1.22852, -1.54099, -0.900865, -1.19792, 1.22684, -1.30268, 0.0319897, 0.00333616, 0.00123573, -0.0085281, -0.0669024, -0.0305068, -0.000490339, -2.47185, 64.8505, 31.7335, 8.33862, 1.61426, 4.12051, -0.00267457, -0.00118516, -0.00024967, 0.00358047, 0.00776434, -0.00298907, -0.00138004, 0.0423864, -0.0101326, -0.00726445, -0.0560845, 0.068791, 0.0217005, 0.470771, -0.54109, 0.336481, -2.08275, -2.16536, -0.130056, 0.470432, -0.541716, 0.332769, -2.07869, -2.16553, -0.118562, -0.00489384, 0.0481858, 0.0120302, 0.00648335, 0.00788916, -0.00206898
0.149119, 1.69575, -1.22851, -1.54099, -0.900876, -1.19798, 1.22681, -1.30267, 0.0283399, 0.0081374, 0.00309284, -0.00546183, -0.0646668, -0.0316031, -5.56256e-05, -2.39648, 64.7394, 31.7731, 8.29895, 1.63257, 4.12692, -0.00999879, -0.00122949, -0.000243677, 0.00358397, 0.00781216, -0.00305525, -0.00138467, 0.0441802, -0.00773423, -0.00330851, -0.0518044, 0.071004, 0.0165583, 0.470766, -0.541042, 0.336493, -2.08273, -2.16535, -0.130059, 0.470435, -0.541711, 0.33277, -2.07867, -2.16555, -0.118446, -0.00495572, 0.0488173, 0.01218, 0.00423659, 0.00603906, 0.00177935
0.150119, 1.69577, -1.22851, -1.54099, -0.90089, -1.19804, 1.22678, -1.30267, 0.026548, 0.00821915, 0.000689654, -0.00643997, -0.063051, -0.0320953, 0.00165834, -2.3568, 64.7751, 31.8445, 8.26324, 1.65088, 4.12051, -0.0557752, -0.00127324, -0.000235803, 0.00359187, 0.00786025, -0.0031141, -0.00139, 0.0454612, -0.00665278, -0.00424188, -0.053622, 0.0700376, 0.013369, 0.470761, -0.540993, 0.336505, -2.0827, -2.16534, -0.130063, 0.470439, -0.541704, 0.332767, -2.07864, -2.16556, -0.118338, -0.00501785, 0.0494519, 0.0123305, 0.00310633, 0.00550932, 0.000840693
0.151119, 1.6958, -1.2285, -1.54099, -0.900909, -1.19809, 1.22675, -1.30267, 0.0261403, 0.00609616, 0.00151864, -0.00889411, -0.061801, -0.0323842, 0.00110556, -2.3568, 64.7751, 31.8088, 8.29895, 1.66919, 4.11319, -0.0557752, -0.00131384, -0.000224578, 0.0035974, 0.00790457, -0.00317418, -0.00140605, 0.0453176, -0.0072839, -0.00558974, -0.05371, 0.0672362, 0.0165814, 0.470756, -0.540944, 0.336517, -2.08268, -2.16533, -0.130066, 0.470446, -0.541693, 0.332768, -2.07861, -2.16558, -0.118233, -0.00508023, 0.0500896, 0.0124815, 0.00361953, 0.00652373, -0.000336982
0.152119, 1.69582, -1.22849, -1.54099, -0.900925, -1.19815, 1.22672, -1.30267, 0.0242782, 0.00712511, -0.000583076, -0.00892248, -0.0617034, -0.0294675, 0.000465771, -2.28143, 64.664, 31.8842, 8.26324, 1.70581, 4.13424, -0.0484509, -0.00135907, -0.000220489, 0.00360038, 0.0079555, -0.00323775, -0.00141533, 0.0474206, -0.00644347, -0.00542528, -0.0524646, 0.070028, 0.0144717, 0.470751, -0.540894, 0.33653, -2.08266, -2.16532, -0.13007, 0.470447, -0.541687, 0.33277, -2.07858, -2.1656, -0.118117, -0.00514285, 0.0507303, 0.012633, 0.00279951, 0.00502866, -0.000326547
0.153119, 1.69584, -1.22848, -1.54099, -0.900944, -1.19819, 1.22669, -1.30267, 0.0244905, 0.00741978, 0.000665106, -0.012955, -0.0604617, -0.0303585, -0.00162227, -2.28143, 64.6997, 31.8445, 8.26324, 1.72504, 4.12692, 0.00373412, -0.00140138, -0.000210545, 0.00360821, 0.00799806, -0.00328871, -0.00143644, 0.0461671, -0.00769198, -0.00550603, -0.0533476, 0.0694772, 0.0213602, 0.470746, -0.540843, 0.336542, -2.08263, -2.16531, -0.130073, 0.470453, -0.541676, 0.332768, -2.07854, -2.16562, -0.118024, -0.00520573, 0.051374, 0.0127851, 0.00393551, 0.00697409, -9.79286e-05
0.154119, 1.69586, -1.22848, -1.541, -0.90096, -1.19824, 1.22665, -1.30267, 0.020633, 0.00683153, -0.00122548, -0.0151965, -0.0507091, -0.0311586, -0.00108151, -2.24175, 64.7751, 31.9199, 8.22754, 1.74884, 4.12051, 0.00373412, -0.00144859, -0.000206959, 0.0036181, 0.00804725, -0.00333549, -0.00144207, 0.0463167, -0.00669528, -0.00675808, -0.051541, 0.0610306, 0.0213967, 0.470741, -0.540792, 0.336555, -2.08261, -2.1653, -0.130077, 0.470453, -0.54167, 0.332763, -2.0785, -2.16562, -0.117926, -0.00526884, 0.0520207, 0.0129378, 0.00283633, 0.00762623, -0.00117502
0.155119, 1.69587, -1.22847, -1.541, -0.900984, -1.19829, 1.22662, -1.30267, 0.0170379, 0.00780573, -0.000746224, -0.0154318, -0.0482568, -0.0323534, 2.49783e-05, -2.16637, 64.664, 31.9199, 8.26324, 1.77997, 4.12692, -0.0164075, -0.00149481, -0.000202951, 0.0036215, 0.00809198, -0.00339403, -0.00144987, 0.0477145, -0.00489647, -0.00601174, -0.0503476, 0.0596075, 0.018025, 0.470735, -0.54074, 0.336568, -2.08258, -2.16528, -0.130081, 0.470453, -0.541662, 0.332766, -2.07847, -2.16563, -0.117822, -0.0053322, 0.0526704, 0.0130909, 0.00105458, 0.00670655, -0.000448923
0.156119, 1.69589, -1.22846, -1.54099, -0.901004, -1.19833, 1.22659, -1.30267, 0.0161813, 0.00790413, 0.000390809, -0.0201609, -0.0449144, -0.0331953, 0.00120345, -2.16637, 64.6997, 31.8842, 8.22754, 1.76807, 4.13424, -0.0484509, -0.00153829, -0.00019486, 0.00362834, 0.00813215, -0.00343791, -0.00146351, 0.0463696, -0.00593025, -0.0062868, -0.050483, 0.0572151, 0.0218573, 0.47073, -0.540687, 0.336581, -2.08255, -2.16527, -0.130085, 0.470457, -0.541651, 0.332765, -2.07844, -2.16565, -0.117738, -0.0053958, 0.0533231, 0.0132446, 0.00196491, 0.00877243, -0.000389625
0.157119, 1.6959, -1.22846, -1.54099, -0.901027, -1.19837, 1.22655, -1.30267, 0.0154368, 0.00412727, -0.000534874, -0.0204317, -0.0445621, -0.0326694, 0.000564939, -2.16637, 64.7751, 31.9199, 8.18787, 1.81018, 4.11319, -0.0420422, -0.00158389, -0.000188626, 0.00363777, 0.00817756, -0.00348183, -0.0014795, 0.0478228, -0.00565627, -0.00883633, -0.0508686, 0.0538228, 0.0218088, 0.470725, -0.540634, 0.336594, -2.08253, -2.16526, -0.130089, 0.470459, -0.541641, 0.332761, -2.07839, -2.16566, -0.117649, -0.00545963, 0.0539787, 0.0133988, 0.00158574, 0.00837774, -0.00297205
0.158119, 1.69591, -1.22845, -1.541, -0.901053, -1.1984, 1.22652, -1.30267, 0.0147168, 0.00321733, -0.00208997, -0.0240684, -0.0424734, -0.0332318, 0.000376626, -2.16637, 64.7751, 31.9953, 8.15216, 1.81018, 4.11319, -0.0420422, -0.00162932, -0.000182966, 0.00364564, 0.00822416, -0.0035268, -0.00149487, 0.0476783, -0.00597687, -0.0104861, -0.0532915, 0.0516737, 0.0244986, 0.470719, -0.54058, 0.336608, -2.0825, -2.16525, -0.130092, 0.47046, -0.54163, 0.33276, -2.07835, -2.16567, -0.117558, -0.00552369, 0.0546373, 0.0135535, 0.00177574, 0.00944823, -0.00443447
0.159119, 1.69592, -1.22844, -1.541, -0.901081, -1.19844, 1.22648, -1.30267, 0.010279, 0.00165903, -0.00137092, -0.0276224, -0.0417856, -0.0334585, -0.00191905, -2.13067, 64.8108, 31.9953, 8.15216, 1.82941, 4.11319, 0.0165515, -0.00167581, -0.000179131, 0.0036524, 0.00827001, -0.00357158, -0.00151623, 0.0491145, -0.00451394, -0.0114742, -0.0535281, 0.0498997, 0.0261886, 0.470714, -0.540525, 0.336621, -2.08248, -2.16524, -0.130096, 0.47046, -0.54162, 0.332759, -2.0783, -2.16569, -0.117468, -0.00558799, 0.0552987, 0.0137087, 0.000265741, 0.0087851, -0.00543502
0.160119, 1.69593, -1.22843, -1.541, -0.901106, -1.19847, 1.22645, -1.30267, 0.00904686, 0.00601871, -0.00266039, -0.0274983, -0.0413101, -0.0370042, -0.000296026, -2.05529, 64.7394, 32.0707, 8.03711, 1.84772, 4.08389, -0.00999879, -0.00172523, -0.000176196, 0.00365819, 0.00830989, -0.00361844, -0.00151958, 0.0497846, -0.0029308, -0.00963716, -0.056741, 0.0524852, 0.0227282, 0.470708, -0.54047, 0.336635, -2.08245, -2.16522, -0.1301, 0.470459, -0.541613, 0.332759, -2.07827, -2.16569, -0.11738, -0.00565251, 0.0559631, 0.0138645, -0.00128761, 0.00843821, -0.00352262
0.161119, 1.69593, -1.22842, -1.54099, -0.901141, -1.1985, 1.22642, -1.30266, 0.00924996, 0.00842761, 2.23731e-06, -0.0281109, -0.040928, -0.0356589, 0.000989444, -2.01562, 64.6997, 31.9953, 8.07678, 1.87244, 4.06283, -0.0420422, -0.0017702, -0.000169652, 0.00366206, 0.00834458, -0.00366294, -0.00153765, 0.049484, -0.00393851, -0.00730448, -0.0530249, 0.0554776, 0.0235912, 0.470702, -0.540414, 0.336649, -2.08242, -2.16521, -0.130104, 0.470461, -0.5416, 0.332762, -2.07822, -2.16571, -0.117303, -0.00571726, 0.0566303, 0.0140207, -0.000270375, 0.00908267, -0.00104885
0.162119, 1.69594, -1.22841, -1.54099, -0.901175, -1.19852, 1.22639, -1.30266, 0.00716638, 0.00444234, 1.09374e-05, -0.0297138, -0.0351962, -0.0341783, 0.000896988, -2.01562, 64.7751, 31.9953, 8.03711, 1.87244, 4.02713, -0.0484509, -0.001815, -0.000161693, 0.00367051, 0.00838193, -0.00369867, -0.00156439, 0.0500108, -0.00416008, -0.00968638, -0.0497013, 0.0479614, 0.0251024, 0.470697, -0.540357, 0.336663, -2.08239, -2.1652, -0.130108, 0.470465, -0.541586, 0.332761, -2.07817, -2.16573, -0.117232, -0.00578224, 0.0573004, 0.0141774, -0.000183189, 0.00961168, -0.00333396
0.163119, 1.69595, -1.2284, -1.541, -0.901208, -1.19855, 1.22635, -1.30266, 0.00678388, 0.00784508, -0.0034193, -0.0310871, -0.0276326, -0.0295849, 0.000123274, -1.94024, 64.8505, 32.1421, 8.0014, 1.90906, 4.01248, -0.0356336, -0.00186645, -0.000159998, 0.00368134, 0.0084278, -0.003739, -0.0015747, 0.0498398, -0.00531769, -0.00872695, -0.0453449, 0.0481019, 0.0275898, 0.470691, -0.5403, 0.336677, -2.08237, -2.16519, -0.130113, 0.470462, -0.541578, 0.332756, -2.07812, -2.16573, -0.117146, -0.00584743, 0.0579733, 0.0143346, 0.000937165, 0.0103529, -0.00223992
0.164119, 1.69594, -1.22839, -1.541, -0.901244, -1.19857, 1.22632, -1.30267, 0.00566434, 0.00911501, -0.00227422, -0.0311557, -0.0258637, -0.0303423, -0.00137588, -1.82915, 64.8505, 32.1421, 7.92602, 1.92737, 3.99783, 0.00373412, -0.00191596, -0.000157145, 0.00368749, 0.00846384, -0.00377856, -0.0015949, 0.0502268, -0.00498555, -0.00764084, -0.0437813, 0.0477819, 0.0292102, 0.470685, -0.540242, 0.336692, -2.08234, -2.16517, -0.130117, 0.47046, -0.541568, 0.332756, -2.07808, -2.16575, -0.117072, -0.00591285, 0.058649, 0.0144922, 0.000594401, 0.0104649, -0.00106149
0.165119, 1.69594, -1.22838, -1.541, -0.901278, -1.1986, 1.22629, -1.30267, 0.00286733, 0.00696541, -0.00151216, -0.0334339, -0.0245597, -0.0310254, -0.00139197, -1.75378, 64.8505, 32.1421, 7.81494, 1.94568, 3.9841, 0.0165515, -0.00196636, -0.000154252, 0.00369311, 0.00849647, -0.00381669, -0.00161166, 0.0512053, -0.00416249, -0.00891275, -0.0437828, 0.0446474, 0.0293633, 0.470679, -0.540183, 0.336706, -2.08231, -2.16516, -0.130121, 0.470459, -0.541558, 0.332757, -2.07803, -2.16576, -0.117004, -0.00597848, 0.0593275, 0.0146504, -0.000304939, 0.0103412, -0.00228776
0.166119, 1.69594, -1.22837, -1.541, -0.901322, -1.19861, 1.22626, -1.30267, 0.00291771, 0.0116361, -0.00193314, -0.0379869, -0.023726, -0.0315648, -0.000215904, -1.63873, 64.8505, 32.1818, 7.81494, 1.9704, 3.96945, -0.00267457, -0.00201471, -0.000150049, 0.00369853, 0.00853366, -0.0038579, -0.00163197, 0.0499659, -0.00507988, -0.00704211, -0.0458362, 0.0491526, 0.0322558, 0.470673, -0.540124, 0.336721, -2.08228, -2.16515, -0.130125, 0.470459, -0.541545, 0.332759, -2.07798, -2.16578, -0.116927, -0.00604433, 0.0600088, 0.0148089, 0.000570205, 0.0119941, -0.000118289
0.167119, 1.69595, -1.22835, -1.541, -0.901365, -1.19863, 1.22623, -1.30267, 0.00360845, 0.0119155, 0.00187398, -0.0395326, -0.022956, -0.0314149, -0.000618654, -1.6784, 64.8505, 32.1818, 7.73956, 1.98871, 3.94107, 0.0101428, -0.00206042, -0.000141282, 0.00370437, 0.00856867, -0.00389798, -0.00166354, 0.0489478, -0.00663413, -0.0058183, -0.0426778, 0.049146, 0.0368287, 0.470667, -0.540064, 0.336735, -2.08225, -2.16513, -0.130129, 0.470463, -0.541529, 0.332761, -2.07792, -2.16581, -0.116855, -0.00611038, 0.0606929, 0.014968, 0.00206517, 0.013558, 0.00135869
0.168119, 1.69593, -1.22835, -1.541, -0.901408, -1.19864, 1.2262, -1.30266, -0.00233261, 0.0104587, 0.00313572, -0.0398919, -0.0170295, -0.0280437, 0.00128299, -1.45226, 64.9219, 32.2532, 7.62848, 1.98871, 3.94107, -0.0356336, -0.00211562, -0.000143293, 0.00371262, 0.00859871, -0.00392785, -0.00166949, 0.0512367, -0.00496227, -0.00572976, -0.0351105, 0.0446104, 0.0320689, 0.470661, -0.540003, 0.33675, -2.08222, -2.16512, -0.130134, 0.470456, -0.541521, 0.332759, -2.07788, -2.16581, -0.116797, -0.00617665, 0.0613797, 0.0151275, 0.000415355, 0.0119029, 0.00129803
0.169119, 1.69593, -1.22833, -1.54099, -0.901451, -1.19865, 1.22617, -1.30266, -0.00206949, 0.0102158, 0.00256358, -0.037174, -0.0133253, -0.0280866, 0.000143247, -1.41259, 64.9576, 32.2532, 7.51739, 2.00702, 3.89804, -0.0164075, -0.00216447, -0.00013668, 0.00371661, 0.00862324, -0.00396464, -0.00169812, 0.0520369, -0.00485797, -0.0057693, -0.0325513, 0.0414692, 0.0321165, 0.470655, -0.539942, 0.336766, -2.08219, -2.1651, -0.130138, 0.470458, -0.541507, 0.332762, -2.07783, -2.16584, -0.11674, -0.00624313, 0.0620692, 0.0152874, 0.000272324, 0.0118048, 0.0012956
0.170119, 1.69592, -1.22832, -1.541, -0.901501, -1.19866, 1.22614, -1.30266, -0.00190468, 0.0111111, -0.00146259, -0.0399365, -0.0140699, -0.0299822, 0.00104493, -1.37688, 64.9576, 32.4039, 7.47772, 1.99512, 3.89804, -0.0420422, -0.00221428, -0.000132626, 0.00372648, 0.00866626, -0.00399854, -0.00172054, 0.0525629, -0.00444716, -0.00726766, -0.0391659, 0.0429225, 0.0316477, 0.470649, -0.53988, 0.336781, -2.08216, -2.16509, -0.130143, 0.470457, -0.541492, 0.33276, -2.07777, -2.16585, -0.116665, -0.00630981, 0.0627614, 0.0154478, -0.000241176, 0.0121939, -9.40801e-05
0.171119, 1.69591, -1.22831, -1.54099, -0.90155, -1.19867, 1.22611, -1.30267, -0.00782324, 0.0079795, 0.00234892, -0.0410123, -0.0116149, -0.0313323, -0.00076144, -1.22613, 65.1083, 32.4039, 7.40631, 2.02533, 3.89804, -0.00267457, -0.00226602, -0.000129366, 0.00373487, 0.00869263, -0.00402456, -0.00174941, 0.0544621, -0.00217162, -0.00776774, -0.0355761, 0.0371215, 0.0313252, 0.470642, -0.539817, 0.336796, -2.08213, -2.16508, -0.130147, 0.470456, -0.541479, 0.332759, -2.07771, -2.16587, -0.116617, -0.00637669, 0.0634563, 0.0156086, -0.0025304, 0.0109979, -0.000654851
0.172119, 1.6959, -1.2283, -1.541, -0.9016, -1.19867, 1.22608, -1.30267, -0.0100784, 0.00552302, -0.000578098, -0.0410124, -0.00858029, -0.0316069, -0.00145706, -1.15075, 65.144, 32.515, 7.29126, 2.02533, 3.88339, 0.0229602, -0.00231749, -0.000124745, 0.0037423, 0.00872378, -0.00405846, -0.00177456, 0.0563904, -0.000768971, -0.0102046, -0.0366748, 0.032527, 0.029519, 0.470636, -0.539753, 0.336812, -2.0821, -2.16506, -0.130152, 0.470456, -0.541465, 0.332759, -2.07765, -2.16589, -0.116555, -0.00644377, 0.0641539, 0.0157699, -0.00401918, 0.0101129, -0.00315885
0.173119, 1.69589, -1.22829, -1.54099, -0.901663, -1.19868, 1.22605, -1.30267, -0.0114965, 0.00899693, 0.000790629, -0.0478826, -0.00702611, -0.0322357, -0.000734016, -0.960319, 65.2155, 32.4793, 7.33093, 2.04364, 3.87607, 0.0165515, -0.00236849, -0.000121521, 0.00374788, 0.00875039, -0.00409107, -0.00180681, 0.054723, -0.00178202, -0.00865923, -0.037875, 0.0352567, 0.0345716, 0.470629, -0.539689, 0.336828, -2.08207, -2.16505, -0.130156, 0.470454, -0.54145, 0.332761, -2.07759, -2.16592, -0.116501, -0.00651106, 0.0648541, 0.0159315, -0.0030773, 0.0122614, -0.00124352
0.174119, 1.69587, -1.22828, -1.54099, -0.901715, -1.19868, 1.22602, -1.30266, -0.0105979, 0.00601263, -5.25245e-05, -0.0515398, -0.00495144, -0.0285555, 0.00120608, -0.845268, 65.4019, 32.515, 7.18018, 2.03815, 3.87607, -0.0292249, -0.00242182, -0.000116881, 0.00375832, 0.00877378, -0.00411449, -0.00182915, 0.0543843, -0.00395749, -0.0109988, -0.0364135, 0.0331972, 0.0371536, 0.470623, -0.539624, 0.336844, -2.08204, -2.16503, -0.130161, 0.470454, -0.541436, 0.332758, -2.07753, -2.16593, -0.116458, -0.00657853, 0.0655569, 0.0160936, -0.00107155, 0.0137527, -0.00340718
0.175119, 1.69586, -1.22826, -1.54099, -0.901783, -1.19868, 1.226, -1.30266, -0.0107734, 0.0114037, 0.00239913, -0.0556034, -0.00477305, -0.0299606, 0.00127877, -0.694511, 65.4019, 32.5547, 7.21588, 2.06836, 3.86966, -0.0420422, -0.00247151, -0.000111211, 0.00376181, 0.00880237, -0.00415466, -0.00186486, 0.0527894, -0.00490025, -0.00768479, -0.036678, 0.038302, 0.0416365, 0.470616, -0.539559, 0.33686, -2.082, -2.16502, -0.130166, 0.470454, -0.541418, 0.332762, -2.07747, -2.16597, -0.116395, -0.0066462, 0.0662624, 0.0162561, -0.000131635, 0.0155571, 0.000245765
0.176119, 1.69584, -1.22824, -1.54098, -0.90184, -1.19868, 1.22597, -1.30266, -0.0108451, 0.0111692, 0.00351369, -0.0542255, -0.00344686, -0.0311119, 0.000377795, -0.543754, 65.4376, 32.6261, 7.06909, 2.06836, 3.86966, -0.0292249, -0.00252486, -0.000108486, 0.00376506, 0.00882579, -0.00418775, -0.00188992, 0.0533647, -0.0047342, -0.00738343, -0.0352856, 0.0365836, 0.0422978, 0.47061, -0.539493, 0.336876, -2.08197, -2.165, -0.13017, 0.470452, -0.541404, 0.332767, -2.07741, -2.16599, -0.116343, -0.00671407, 0.0669704, 0.016419, -0.000333126, 0.0156441, 0.000619707
0.177119, 1.69583, -1.22822, -1.54098, -0.901906, -1.19868, 1.22594, -1.30266, -0.0131087, 0.0165647, 0.00500959, -0.0568347, -0.0031747, -0.0281323, -0.000460214, -0.43267, 65.3662, 32.6658, 7.06909, 2.08667, 3.88339, -0.00999879, -0.00257412, -0.00010251, 0.00376451, 0.00885542, -0.00423291, -0.00192887, 0.0537677, -0.00483106, -0.00371241, -0.0315191, 0.0436371, 0.0439456, 0.470603, -0.539426, 0.336892, -2.08194, -2.16499, -0.130175, 0.470453, -0.541385, 0.332776, -2.07734, -2.16603, -0.116273, -0.00678212, 0.0676811, 0.0165822, -0.000152603, 0.0153911, 0.00433914
0.178119, 1.69581, -1.2282, -1.54098, -0.901978, -1.19867, 1.22591, -1.30266, -0.0188062, 0.0144552, 0.0040198, -0.0584868, -0.00158727, -0.0253726, -0.00152751, -0.281914, 65.5487, 32.6658, 7.06909, 2.06836, 3.88339, 0.0229602, -0.00262451, -9.50795e-05, 0.00377289, 0.00888009, -0.0042602, -0.00197394, 0.0569177, -0.00259909, -0.00504154, -0.0291708, 0.0419817, 0.0410098, 0.470596, -0.539358, 0.336909, -2.0819, -2.16497, -0.13018, 0.470455, -0.541366, 0.332776, -2.07726, -2.16607, -0.116228, -0.00685036, 0.0683942, 0.0167459, -0.00238532, 0.0131096, 0.00276521
0.179119, 1.69579, -1.22819, -1.54097, -0.90204, -1.19867, 1.22589, -1.30266, -0.0177647, 0.0140115, 0.00553393, -0.0593829, -0.000932545, -0.0231468, -0.000306265, -0.0914839, 65.6955, 32.7015, 6.91833, 2.06195, 3.87607, 0.00373412, -0.00268182, -9.41705e-05, 0.00377881, 0.0089011, -0.00429009, -0.00199748, 0.0567497, -0.00418282, -0.00480173, -0.026063, 0.0425065, 0.0426262, 0.470589, -0.53929, 0.336926, -2.08187, -2.16495, -0.130185, 0.470451, -0.541353, 0.332778, -2.07721, -2.16608, -0.116181, -0.00691878, 0.06911, 0.01691, -0.000869006, 0.01402, 0.00314118
0.180119, 1.69577, -1.22816, -1.54097, -0.902113, -1.19867, 1.22586, -1.30266, -0.0180279, 0.0150405, 0.00574648, -0.0661865, -0.00050204, -0.0262143, 0.00149124, 0.0196001, 65.6598, 32.7768, 6.88263, 2.05646, 3.88339, -0.0420422, -0.00273357, -8.81627e-05, 0.00377929, 0.0089296, -0.00433741, -0.00203127, 0.0550457, -0.00509391, -0.00536615, -0.0312692, 0.0426467, 0.0467989, 0.470582, -0.53922, 0.336943, -2.08184, -2.16494, -0.13019, 0.470452, -0.541334, 0.332786, -2.07715, -2.16612, -0.116111, -0.00698738, 0.0698282, 0.0170744, -0.000110242, 0.0165461, 0.00298552
0.181119, 1.69575, -1.22815, -1.54097, -0.902189, -1.19867, 1.22583, -1.30266, -0.0193698, 0.0143549, 0.00588046, -0.0679634, -0.000838349, -0.0283573, 4.47273e-05, 0.170357, 65.8066, 32.8522, 6.84296, 2.06836, 3.88339, -0.0164075, -0.00278835, -8.40832e-05, 0.00378665, 0.0089602, -0.00437376, -0.00207117, 0.0557372, -0.00438448, -0.00613015, -0.0337019, 0.0416631, 0.0484943, 0.470575, -0.539151, 0.33696, -2.0818, -2.16492, -0.130195, 0.470451, -0.541317, 0.332787, -2.07707, -2.16616, -0.116049, -0.00705617, 0.0705489, 0.0172392, -0.000890844, 0.0166741, 0.00230829
0.182119, 1.69573, -1.22813, -1.54096, -0.90226, -1.19867, 1.2258, -1.30266, -0.0194689, 0.0167459, 0.00692963, -0.067482, -0.00108075, -0.0252387, 0.000267177, 0.285408, 65.8423, 32.8879, 6.73187, 2.08118, 3.87607, -0.0228162, -0.00284332, -7.98025e-05, 0.00378845, 0.00898715, -0.00441816, -0.002106, 0.0565949, -0.00495124, -0.00405713, -0.0295679, 0.0460537, 0.0481927, 0.470568, -0.53908, 0.336977, -2.08177, -2.16491, -0.1302, 0.47045, -0.5413, 0.332794, -2.07701, -2.16619, -0.115983, -0.00712513, 0.0712721, 0.0174044, -0.000284903, 0.0162525, 0.00436584
0.183119, 1.6957, -1.22811, -1.54095, -0.902339, -1.19867, 1.22578, -1.30266, -0.0237033, 0.0173835, 0.00937957, -0.0719699, -0.000518493, -0.0279135, -0.0015173, 0.436165, 65.9177, 32.8522, 6.69617, 2.07477, 3.88339, 0.0229602, -0.00289722, -7.43665e-05, 0.00379078, 0.00900764, -0.00445692, -0.0021536, 0.0569351, -0.00361207, -0.00349541, -0.0307422, 0.0453839, 0.0511265, 0.470561, -0.539009, 0.336994, -2.08173, -2.16489, -0.130205, 0.47045, -0.541282, 0.3328, -2.07693, -2.16624, -0.115931, -0.00719427, 0.0719978, 0.0175699, -0.00165774, 0.0164997, 0.00507277
0.184119, 1.69568, -1.22809, -1.54095, -0.902414, -1.19867, 1.22575, -1.30266, -0.0217467, 0.0140141, 0.00677528, -0.0732815, -0.00105034, -0.0290102, -0.00101154, 0.511544, 66.0287, 32.999, 6.58508, 2.09308, 3.86966, 0.0229602, -0.00295399, -6.95767e-05, 0.00379817, 0.00903804, -0.00449542, -0.00219034, 0.0572731, -0.00438379, -0.00682416, -0.0352651, 0.0426698, 0.0524042, 0.470554, -0.538937, 0.337012, -2.0817, -2.16487, -0.13021, 0.470449, -0.541264, 0.332801, -2.07686, -2.16627, -0.115868, -0.00726359, 0.0727259, 0.0177358, -0.00106871, 0.0174447, 0.00187383
