alisrour97/Franka_experiments/Real_Robot_scripts/servo-franka/Data3/log_dyn_INIT0_14.csv
Time,q1,q2,q3,q4,q5,q6,q7,dq1,dq2,dq3,dq4,dq5,dq6,dq7,t1,t2,t3,t4,t5,t6,t7,ex1,ex2,ex3,ex4,ex5,ex6,ev1,ev2,ev3,ev4,ev5,ev6,xd,yd,zd,uxd,uyd,uzd,x,y,z,ux,uy,uz,vxd,vyd,vzd,vx,vy,vz
2.44141e-07, 1.6912, -1.22677, -1.53885, -0.900206, -1.19186, 1.22812, -1.30269, 0.00577569, -0.00181677, -0.0072968, 0.000840048, -0.00298471, 0.00460972, -0.000696567, 0.0196001, 62.7121, 30.6544, 6.54541, 2.01984, 3.51077, -0.0750012, 0.000653406, -0.00183698, 0.00113733, 0.00147497, 0.000824146, 0.00036661, 0.000479356, -0.00230554, -0.00344272, -0.00441342, 0.00351392, 0.00118588, 0.471008, -0.543389, 0.335894, -2.08385, -2.16584, -0.129887, 0.469114, -0.542637, 0.334943, -2.08303, -2.16443, -0.129052, 1.77043e-06, 3.2e-05, 1.02972e-05, 0.00219721, 0.000182968, -0.00353299
0.0131772, 1.6912, -1.22681, -1.5389, -0.900195, -1.19186, 1.22819, -1.30269, -0.00142517, -0.00398504, -0.00254136, -0.00319666, 0.00125486, 0.00606179, -0.000384274, -0.131157, 62.1964, 30.5433, 6.77154, 2.00702, 3.33865, -0.0878186, 0.000628137, -0.00183532, 0.00117055, 0.00145759, 0.000825019, 0.000400579, 0.00103829, -0.000785269, -0.00308753, 0.00200586, -0.00154971, 0.00104892, 0.471008, -0.543389, 0.335894, -2.08385, -2.16584, -0.129887, 0.46911, -0.542664, 0.334891, -2.08308, -2.16438, -0.129065, 1.77746e-06, 6.40623e-05, 1.89552e-05, 0.000711712, -0.000453633, -0.00321454
0.0141772, 1.6912, -1.22681, -1.5389, -0.900195, -1.19186, 1.22819, -1.30269, -0.00142517, -0.00398504, -0.00254136, -0.00319666, 0.00125486, 0.00606179, -0.000384274, -0.131157, 62.1964, 30.5433, 6.77154, 2.00702, 3.33865, -0.0878186, 0.000628129, -0.00183532, 0.00117055, 0.00145759, 0.000825015, 0.00040058, 0.00107455, -0.00078412, -0.00309149, 0.00201049, -0.00152317, 0.00105154, 0.471008, -0.543389, 0.335894, -2.08385, -2.16584, -0.129887, 0.46911, -0.542664, 0.334891, -2.08308, -2.16438, -0.129065, 1.77167e-06, 9.92934e-05, 2.84561e-05, 0.000711712, -0.000453633, -0.00321454
0.0151777, 1.6912, -1.22681, -1.5389, -0.900195, -1.19186, 1.22819, -1.30269, -0.00142517, -0.00398504, -0.00254136, -0.00319666, 0.00125486, 0.00606179, -0.000384274, -0.131157, 62.1964, 30.5433, 6.77154, 2.00702, 3.33865, -0.0878186, 0.000628109, -0.00183532, 0.00117055, 0.00145758, 0.000825005, 0.000400585, 0.00111419, -0.000782877, -0.0030958, 0.00201558, -0.00149416, 0.00105442, 0.471008, -0.543389, 0.335894, -2.08385, -2.16584, -0.129887, 0.46911, -0.542664, 0.334891, -2.08308, -2.16438, -0.129065, 1.75167e-06, 0.000137819, 3.88327e-05, 0.000711712, -0.000453633, -0.00321454
0.0161777, 1.6912, -1.22681, -1.5389, -0.900195, -1.19186, 1.22819, -1.30269, -0.00142517, -0.00398504, -0.00254136, -0.00319666, 0.00125486, 0.00606179, -0.000384274, -0.131157, 62.1964, 30.5433, 6.77154, 2.00702, 3.33865, -0.0878186, 0.00062807, -0.00183532, 0.00117056, 0.00145756, 0.000824986, 0.000400595, 0.00115735, -0.000781537, -0.00310049, 0.00202115, -0.00146259, 0.00105755, 0.471008, -0.543389, 0.335894, -2.08385, -2.16584, -0.129887, 0.46911, -0.542664, 0.334891, -2.08308, -2.16438, -0.129065, 1.716e-06, 0.000179762, 5.01169e-05, 0.000711712, -0.000453633, -0.00321454
0.0171777, 1.6912, -1.22681, -1.5389, -0.900195, -1.19186, 1.22819, -1.30269, -0.00142517, -0.00398504, -0.00254136, -0.00319666, 0.00125486, 0.00606179, -0.000384274, -0.131157, 62.1964, 30.5433, 6.77154, 2.00702, 3.33865, -0.0878186, 0.000628006, -0.00183532, 0.00117056, 0.00145754, 0.000824955, 0.000400611, 0.00120416, -0.000780097, -0.00310556, 0.00202723, -0.00142838, 0.00106094, 0.471008, -0.543389, 0.335894, -2.08385, -2.16584, -0.129887, 0.46911, -0.542664, 0.334891, -2.08308, -2.16438, -0.129065, 1.66317e-06, 0.000225248, 6.23407e-05, 0.000711712, -0.000453633, -0.00321454
0.0181777, 1.6912, -1.22681, -1.5389, -0.900195, -1.19186, 1.22819, -1.30269, -0.00142517, -0.00398504, -0.00254136, -0.00319666, 0.00125486, 0.00606179, -0.000384274, -0.131157, 62.1964, 30.5433, 6.77154, 2.00702, 3.33865, -0.0878186, 0.00062791, -0.00183532, 0.00117057, 0.0014575, 0.000824908, 0.000400635, 0.00125473, -0.000778556, -0.00311102, 0.00203382, -0.00139142, 0.00106462, 0.471008, -0.543389, 0.335894, -2.08385, -2.16584, -0.129887, 0.46911, -0.542664, 0.334891, -2.08308, -2.16438, -0.129065, 1.59159e-06, 0.000274397, 7.55354e-05, 0.000711712, -0.000453633, -0.00321454
0.0191777, 1.6912, -1.22681, -1.5389, -0.900195, -1.19186, 1.22819, -1.30269, -0.00142517, -0.00398504, -0.00254136, -0.00319666, 0.00125486, 0.00606179, -0.000384274, -0.131157, 62.1964, 30.5433, 6.77154, 2.00702, 3.33865, -0.0878186, 0.000627776, -0.00183533, 0.00117059, 0.00145744, 0.000824843, 0.000400668, 0.00130919, -0.00077691, -0.00311688, 0.00204096, -0.00135164, 0.00106857, 0.471008, -0.543389, 0.335894, -2.08385, -2.16584, -0.129887, 0.46911, -0.542664, 0.334891, -2.08308, -2.16438, -0.129065, 1.49965e-06, 0.00032733, 8.9732e-05, 0.000711712, -0.000453633, -0.00321454
0.0201777, 1.6912, -1.22681, -1.5389, -0.900195, -1.19186, 1.22819, -1.30269, -0.00142517, -0.00398504, -0.00254136, -0.00319666, 0.00125486, 0.00606179, -0.000384274, -0.131157, 62.1964, 30.5433, 6.77154, 2.00702, 3.33865, -0.0878186, 0.000627598, -0.00183533, 0.00117061, 0.00145737, 0.000824756, 0.000400711, 0.00136767, -0.000775158, -0.00312317, 0.00204865, -0.00130894, 0.00107283, 0.471008, -0.543389, 0.335894, -2.08385, -2.16584, -0.129887, 0.46911, -0.542664, 0.334891, -2.08308, -2.16438, -0.129065, 1.38564e-06, 0.000384166, 0.000104961, 0.000711712, -0.000453633, -0.00321454
0.0211777, 1.6912, -1.22681, -1.5389, -0.900195, -1.19186, 1.22819, -1.30269, -0.00142517, -0.00398504, -0.00254136, -0.00319666, 0.00125486, 0.00606179, -0.000384274, -0.131157, 62.1964, 30.5433, 6.77154, 2.00702, 3.33865, -0.0878186, 0.00062737, -0.00183534, 0.00117063, 0.00145728, 0.000824645, 0.000400767, 0.00143028, -0.000773297, -0.00312988, 0.00205692, -0.00126324, 0.00107738, 0.471008, -0.543389, 0.335894, -2.08385, -2.16584, -0.129887, 0.46911, -0.542664, 0.334891, -2.08308, -2.16438, -0.129065, 1.24785e-06, 0.00044502, 0.000121252, 0.000711712, -0.000453633, -0.00321454
0.0221777, 1.6912, -1.22681, -1.5389, -0.900195, -1.19186, 1.22819, -1.30269, -0.00142517, -0.00398504, -0.00254136, -0.00319666, 0.00125486, 0.00606179, -0.000384274, -0.131157, 62.1964, 30.5433, 6.77154, 2.00702, 3.33865, -0.0878186, 0.000627086, -0.00183535, 0.00117066, 0.00145717, 0.000824506, 0.000400837, 0.00149715, -0.000771326, -0.00313704, 0.00206579, -0.00121445, 0.00108225, 0.471008, -0.543388, 0.335894, -2.08385, -2.16584, -0.129887, 0.46911, -0.542664, 0.334891, -2.08308, -2.16438, -0.129065, 1.08446e-06, 0.000510009, 0.000138634, 0.000711712, -0.000453633, -0.00321454
0.0231777, 1.69122, -1.22681, -1.53895, -0.900184, -1.19186, 1.22827, -1.30269, 0.00260615, 0.000298673, -0.000185232, 0.00162916, 0.00082676, 0.00528125, 0.000741865, -0.357292, 61.8274, 30.3925, 6.73187, 1.9704, 3.38901, -0.101552, 0.000616129, -0.0018192, 0.00118294, 0.0014282, 0.000792179, 0.000409151, 0.000319758, -0.00210017, 0.000595519, 0.00528097, 0.00262102, 0.000630765, 0.471008, -0.543388, 0.335894, -2.08385, -2.16584, -0.129887, 0.469127, -0.542672, 0.334877, -2.08312, -2.1644, -0.129063, 8.93621e-07, 0.000579243, 0.000157137, 0.00213128, 0.000257821, 0.000632259
0.0241777, 1.69121, -1.22682, -1.53895, -0.900182, -1.19186, 1.22827, -1.30269, 0.000836795, -0.00333547, -0.00118184, 0.00192492, 0.000554298, 0.00481476, -0.00147505, -0.317619, 61.9742, 30.4322, 6.69617, 1.9704, 3.36703, -0.0484509, 0.000611149, -0.00182096, 0.00119033, 0.00142659, 0.000800868, 0.000410687, 0.00182323, -0.000813142, -0.00180708, 0.0040015, -0.000970267, 0.000341822, 0.471008, -0.543388, 0.335894, -2.08384, -2.16584, -0.129887, 0.469125, -0.542676, 0.334869, -2.08312, -2.1644, -0.129074, 6.73433e-07, 0.000652833, 0.000176787, 0.000812729, -0.000835717, -0.00191503
0.0251777, 1.69122, -1.22682, -1.53896, -0.900186, -1.19186, 1.22828, -1.30269, 0.000578398, -0.00556227, -0.00469503, 0.000450765, 0.00152476, 0.00939902, 0.000235131, -0.317619, 61.7163, 30.3211, 6.73187, 1.93927, 3.33865, -0.0814099, 0.000611589, -0.00181802, 0.00119132, 0.00142546, 0.000795815, 0.000410091, 0.00280734, -0.00136461, -0.00415818, 0.00453047, -0.00130871, -0.00165284, 0.471008, -0.543387, 0.335894, -2.08384, -2.16584, -0.129887, 0.469128, -0.542674, 0.334868, -2.08312, -2.1644, -0.12907, 4.21933e-07, 0.000730885, 0.000197611, 0.00131356, -0.00134478, -0.00438508
0.0261787, 1.69122, -1.22682, -1.53897, -0.900196, -1.19186, 1.22829, -1.30269, 0.00216424, -0.00363247, -0.00701375, -0.000625485, -8.24471e-05, 0.00852794, 0.00741981, -0.392998, 61.2759, 30.0593, 6.77154, 1.85321, 3.29562, -0.0228162, 0.000612407, -0.00181357, 0.00119678, 0.00143078, 0.000791133, 0.000399008, 0.00239741, -0.00170865, -0.00416504, 0.000408225, 0.00185866, -0.00801278, 0.471008, -0.543387, 0.335895, -2.08384, -2.16584, -0.129887, 0.469132, -0.542672, 0.334863, -2.0831, -2.16441, -0.12906, 1.37109e-07, 0.000813505, 0.000219637, 0.00164196, -0.00084233, -0.00431658
0.0271787, 1.69123, -1.22682, -1.53898, -0.9002, -1.19186, 1.22829, -1.30269, 0.00238239, 0.0027867, -0.00611082, -0.00200499, -0.000388101, 0.006729, 0.00695224, -0.43267, 60.4666, 29.7974, 6.69617, 1.73694, 3.28097, -0.0557752, 0.000613856, -0.00181092, 0.00119693, 0.0014407, 0.000780901, 0.000400444, 0.00106207, -0.00181598, -0.000444829, -0.000651049, 0.00774927, -0.00589926, 0.471008, -0.543386, 0.335895, -2.08384, -2.16584, -0.129887, 0.469134, -0.54267, 0.334863, -2.08311, -2.16441, -0.129039, -1.83099e-07, 0.000900793, 0.00024289, 0.00183537, -4.95872e-06, -0.000415893
0.0281787, 1.69123, -1.22683, -1.539, -0.900202, -1.19186, 1.22829, -1.30269, 0.00336016, 0.000765386, -0.0110167, 0.000148318, -0.00322305, 0.00889302, 0.00376551, -0.508049, 60.0223, 29.4999, 6.62079, 1.68201, 3.30295, -0.0164075, 0.000609861, -0.00181017, 0.00121345, 0.00146107, 0.000789297, 0.00040213, 0.00335857, -0.00112993, -0.00294444, -0.00366293, 0.00935157, -0.00689969, 0.471008, -0.543385, 0.335895, -2.08384, -2.16584, -0.129887, 0.469135, -0.54267, 0.334846, -2.08309, -2.1644, -0.129025, -5.40806e-07, 0.000992849, 0.000267393, 0.00114173, -0.00182343, -0.0031953
0.0291787, 1.69124, -1.22684, -1.53902, -0.900205, -1.19187, 1.22829, -1.30269, 0.00400984, -0.00152411, -0.0142874, -0.00162088, -0.00206573, 0.00583444, 0.00244328, -0.583427, 59.4708, 29.1666, 6.54541, 1.65729, 3.324, -0.00267457, 0.000607625, -0.00180894, 0.00122803, 0.00148459, 0.000795016, 0.000398677, 0.00299371, -0.00092282, -0.00600708, -0.00975993, 0.00506689, -0.00452512, 0.471008, -0.543384, 0.335895, -2.08384, -2.16584, -0.129887, 0.469135, -0.54267, 0.334831, -2.08307, -2.16439, -0.129005, -9.38169e-07, 0.00108977, 0.000293171, 0.000810895, -0.000903382, -0.00613079
0.0301787, 1.69125, -1.22686, -1.53904, -0.90021, -1.19187, 1.22829, -1.30269, 0.00665041, -0.00852409, -0.0156162, -0.00412972, -0.0013234, 0.00905503, 0.00196002, -0.619133, 59.1415, 28.9048, 6.5097, 1.63898, 3.324, -0.00267457, 0.000602428, -0.00180783, 0.00125043, 0.00151188, 0.000806028, 0.000400769, 0.00230693, -0.00352718, -0.0108055, -0.00994938, -0.000459455, 0.000504998, 0.471008, -0.543383, 0.335895, -2.08384, -2.16584, -0.129887, 0.469136, -0.54267, 0.334809, -2.08305, -2.16437, -0.128985, -1.3774e-06, 0.00119164, 0.000320246, 0.00321368, 0.000721614, -0.0108136
0.0311787, 1.69125, -1.22689, -1.53907, -0.900214, -1.19188, 1.2283, -1.3027, 0.00386346, -0.0131477, -0.0175309, -0.00243507, -0.00246955, 0.0139538, 0.000842982, -0.583427, 58.9194, 28.6826, 6.47003, 1.66919, 3.25992, 0.0165515, 0.000593143, -0.0018093, 0.00127415, 0.00153825, 0.000813939, 0.00040856, 0.00572633, -0.00209498, -0.0134007, -0.00703081, -0.00173608, -0.0038264, 0.471008, -0.543382, 0.335896, -2.08384, -2.16584, -0.129887, 0.469134, -0.542675, 0.334784, -2.08304, -2.16435, -0.128964, -1.86074e-06, 0.00129855, 0.00034864, 0.00181143, -0.00220636, -0.0138353
0.0321787, 1.69125, -1.22689, -1.53907, -0.900214, -1.19188, 1.2283, -1.3027, 0.00386346, -0.0131477, -0.0175309, -0.00243507, -0.00246955, 0.0139538, 0.000842982, -0.583427, 58.9194, 28.6826, 6.47003, 1.66919, 3.25992, 0.0165515, 0.000591962, -0.00180933, 0.00127428, 0.00153778, 0.000813362, 0.000408847, 0.00584158, -0.00209182, -0.0134127, -0.00701498, -0.00165225, -0.00381796, 0.471008, -0.543381, 0.335896, -2.08384, -2.16584, -0.129887, 0.469134, -0.542675, 0.334784, -2.08304, -2.16435, -0.128964, -2.39049e-06, 0.00141058, 0.000378373, 0.00181143, -0.00220636, -0.0138353
0.0331787, 1.69127, -1.22694, -1.53913, -0.900224, -1.1919, 1.22833, -1.3027, 0.0100362, -0.0204854, -0.0178372, -0.00418911, -0.00122217, 0.0157803, 0.000220356, -0.508049, 58.7329, 28.274, 6.47003, 1.65729, 3.10245, 0.00373412, 0.000576848, -0.00180419, 0.00132705, 0.00158223, 0.000833748, 0.00041839, 0.00339948, -0.00649721, -0.0182526, -0.00750396, -0.00862935, 0.00484784, 0.471008, -0.54338, 0.335896, -2.08384, -2.16584, -0.129887, 0.469138, -0.54268, 0.33473, -2.08302, -2.16431, -0.128934, -2.969e-06, 0.00152782, 0.000409465, 0.00594849, 0.00124699, -0.0183369
0.0341787, 1.69128, -1.22697, -1.53915, -0.90022, -1.19191, 1.22835, -1.30269, 0.0129119, -0.025081, -0.0198006, -0.000656504, -0.00101235, 0.0170723, 0.00147239, -0.468376, 58.6972, 28.0875, 6.35895, 1.65729, 3.08047, -0.0292249, 0.000566801, -0.00180294, 0.00134903, 0.00159843, 0.000839054, 0.00043631, 0.00422978, -0.00731568, -0.0212095, -0.00713444, -0.0127412, 0.00256109, 0.471008, -0.543379, 0.335897, -2.08384, -2.16584, -0.129888, 0.469138, -0.542685, 0.334707, -2.08302, -2.16428, -0.12892, -3.59863e-06, 0.00165034, 0.000441934, 0.00668822, 0.00103844, -0.0213778
0.0351787, 1.69129, -1.22699, -1.53917, -0.900223, -1.19192, 1.22836, -1.30269, 0.0142561, -0.0219312, -0.0169497, -0.00343811, 0.000533263, 0.0168288, -0.00016052, -0.392998, 58.6615, 27.8614, 6.32324, 1.62067, 3.0878, 0.00373412, 0.000561492, -0.00179868, 0.00136672, 0.00161155, 0.000841738, 0.00043388, 0.00171932, -0.00926266, -0.0188406, -0.00538369, -0.0107933, 0.00979884, 0.471008, -0.543377, 0.335897, -2.08384, -2.16584, -0.129888, 0.469142, -0.542686, 0.334689, -2.08301, -2.16428, -0.128908, -4.2818e-06, 0.00177822, 0.000475796, 0.00862773, 0.00335978, -0.0186738
0.0361787, 1.6913, -1.22699, -1.53921, -0.90022, -1.19193, 1.22838, -1.30269, 0.0150283, -0.0136438, -0.0240879, -0.00107958, -0.00265194, 0.0212778, -0.00123487, -0.43267, 58.5147, 27.9011, 6.24786, 1.58313, 3.10977, 0.0357776, 0.000556228, -0.00179245, 0.00138085, 0.00162912, 0.000829546, 0.000434243, 0.00401188, -0.00821284, -0.0158415, -0.00753106, 0.00264986, 0.00492984, 0.471008, -0.543375, 0.335898, -2.08384, -2.16584, -0.129888, 0.469148, -0.542687, 0.334674, -2.08301, -2.16427, -0.128876, -5.02096e-06, 0.00191151, 0.000511068, 0.00776876, 0.000725217, -0.0160014
0.0371787, 1.69132, -1.227, -1.53923, -0.90022, -1.19194, 1.2284, -1.30269, 0.0136676, -0.0109384, -0.0224467, -0.000204762, -0.0056336, 0.0212054, 0.00115374, -0.392998, 58.5147, 27.79, 6.20819, 1.55932, 3.09512, -0.0164075, 0.000550801, -0.00178486, 0.00139495, 0.0016369, 0.000818755, 0.000439453, 0.00500429, -0.00714105, -0.0134987, -0.00667707, 0.00763286, 0.000185231, 0.471008, -0.543374, 0.335898, -2.08383, -2.16584, -0.129888, 0.469155, -0.542688, 0.33466, -2.08301, -2.16427, -0.128857, -5.81861e-06, 0.00205028, 0.000547764, 0.00681762, -0.000520191, -0.0137731
0.0381787, 1.69134, -1.22701, -1.53925, -0.90022, -1.19195, 1.22842, -1.30269, 0.0126839, -0.00691092, -0.0247033, -0.000446304, -0.00639067, 0.0308197, -0.000181029, -0.357292, 58.4393, 27.8257, 6.20819, 1.49707, 3.08047, 0.0101428, 0.000547502, -0.0017755, 0.00140434, 0.00164538, 0.000798269, 0.000433432, 0.00675981, -0.00784221, -0.0110878, -0.000252095, 0.0172651, -0.000640089, 0.471008, -0.543372, 0.335899, -2.08383, -2.16584, -0.129888, 0.469165, -0.542688, 0.33465, -2.08301, -2.16429, -0.128827, -6.67726e-06, 0.00219459, 0.000585897, 0.00766683, -0.00245138, -0.011648
0.0391787, 1.69135, -1.22701, -1.53927, -0.900226, -1.19196, 1.22845, -1.30269, 0.014223, -0.00647892, -0.0229404, -0.00485181, -0.0088536, 0.028377, 0.000887524, -0.281914, 58.475, 27.8614, 6.24786, 1.47876, 3.06674, -0.0164075, 0.000544146, -0.00176506, 0.00141273, 0.00164968, 0.000773216, 0.0004304, 0.00475023, -0.00926397, -0.0111312, -0.00425817, 0.018936, 0.00369541, 0.471008, -0.54337, 0.335899, -2.08383, -2.16584, -0.129888, 0.469175, -0.542687, 0.334642, -2.08302, -2.1643, -0.128797, -7.59945e-06, 0.00234449, 0.000625478, 0.00901239, -0.000252696, -0.0113822
0.0401787, 1.69136, -1.227, -1.53929, -0.900232, -1.19198, 1.22848, -1.30269, 0.0153392, -0.00426138, -0.0215002, -0.00545486, -0.00580355, 0.0240265, -0.00084773, -0.0557783, 58.4393, 27.9011, 6.32324, 1.44855, 3.11618, 0.0229602, 0.000540025, -0.00175792, 0.00141518, 0.00165272, 0.000741513, 0.000424031, 0.00267117, -0.00978229, -0.00985819, -0.00561016, 0.0166047, 0.0087468, 0.471008, -0.543367, 0.3359, -2.08383, -2.16584, -0.129888, 0.469182, -0.542688, 0.334639, -2.08302, -2.16432, -0.128763, -8.58778e-06, 0.00250002, 0.000666519, 0.00950066, 0.00178063, -0.00977709
0.0411787, 1.69138, -1.22699, -1.53932, -0.900229, -1.19199, 1.2285, -1.30269, 0.0131587, -0.000283278, -0.0196166, -0.00656365, -0.0037186, 0.0241298, 0.000906896, 0.170357, 58.4393, 28.0478, 6.28357, 1.42383, 3.20956, -0.0164075, 0.000532545, -0.00175377, 0.00141783, 0.00166054, 0.000707493, 0.00043611, 0.00230842, -0.00931591, -0.00690063, -0.00273469, 0.0189419, 0.00735513, 0.471008, -0.543365, 0.3359, -2.08383, -2.16584, -0.129889, 0.469186, -0.542693, 0.334636, -2.08305, -2.16433, -0.128719, -9.64483e-06, 0.00266124, 0.000709027, 0.00912763, 0.00182566, -0.00674387
0.0421787, 1.69139, -1.227, -1.53934, -0.900239, -1.19201, 1.22852, -1.30269, 0.0115309, -0.00238832, -0.023309, -0.00752402, -0.00305288, 0.0188754, -0.00158896, 0.400459, 58.6615, 28.1589, 6.39465, 1.42383, 3.33133, 0.0431018, 0.000528217, -0.00174639, 0.00142976, 0.00167513, 0.000687735, 0.00042435, 0.00320417, -0.00711321, -0.00997219, -0.0105727, 0.014094, 0.00758177, 0.471008, -0.543362, 0.335901, -2.08383, -2.16584, -0.129889, 0.469193, -0.542692, 0.334624, -2.08304, -2.16435, -0.128684, -1.07732e-05, 0.00282817, 0.000753011, 0.00684776, 0.00149096, -0.00980546
0.0431787, 1.6914, -1.227, -1.53935, -0.900247, -1.19202, 1.22855, -1.30269, 0.0128071, -0.0040579, -0.0188634, -0.00976494, -0.00338115, 0.0262384, 0.000406623, 0.6623, 58.7726, 28.2343, 6.43433, 1.44855, 3.41006, 0.00373412, 0.000523533, -0.00173793, 0.0014345, 0.00167396, 0.000659387, 0.000423973, 0.00221517, -0.0104493, -0.00912806, -0.00181858, 0.0164209, 0.010882, 0.471008, -0.54336, 0.335902, -2.08382, -2.16584, -0.129889, 0.469202, -0.542693, 0.334619, -2.08305, -2.16436, -0.128657, -1.19756e-05, 0.00300084, 0.000798475, 0.0101735, 0.0026466, -0.00887355
0.0441787, 1.69141, -1.227, -1.53937, -0.900253, -1.19203, 1.22858, -1.30269, 0.00872157, -0.00110316, -0.0163446, -0.00710327, -0.00278032, 0.0290528, -0.000197735, 0.888436, 58.844, 28.3454, 6.43433, 1.45404, 3.43204, 0.0165515, 0.000517926, -0.00172904, 0.00143771, 0.00166866, 0.000627071, 0.000419433, 0.00437368, -0.00853077, -0.005687, 0.0052832, 0.0198762, 0.00649618, 0.471008, -0.543357, 0.335903, -2.08382, -2.16584, -0.129889, 0.469211, -0.542695, 0.334615, -2.08306, -2.16439, -0.12863, -1.32547e-05, 0.00317929, 0.000845424, 0.00845755, 8.59155e-05, -0.00570603
0.0451787, 1.69142, -1.22699, -1.53939, -0.900259, -1.19205, 1.22861, -1.30269, 0.00877791, 0.00263045, -0.0170641, -0.00852907, -0.00707891, 0.026701, -0.000602116, 1.11457, 58.844, 28.5715, 6.43433, 1.47327, 3.43936, 0.0293689, 0.000512347, -0.00172, 0.00144008, 0.00166683, 0.000589803, 0.000415497, 0.00451968, -0.00776695, -0.00417471, 0.000259283, 0.0262627, 0.00636607, 0.471008, -0.543354, 0.335903, -2.08382, -2.16584, -0.129889, 0.46922, -0.542696, 0.334613, -2.08308, -2.16441, -0.128595, -1.46131e-05, 0.00336352, 0.000893861, 0.00775318, -0.000138016, -0.00416398
0.0461787, 1.69143, -1.227, -1.5394, -0.90026, -1.19206, 1.22865, -1.30269, 0.011123, 0.00106771, -0.0187626, -0.00370037, -0.0098382, 0.0294306, 0.000788703, 1.38038, 59.0305, 28.7183, 6.32324, 1.47876, 3.45309, -0.00267457, 0.000504929, -0.00171024, 0.00144819, 0.00165489, 0.000569311, 0.00041757, 0.00643637, -0.00791707, -0.00492866, 0.00168798, 0.0282195, 0.00136648, 0.471008, -0.54335, 0.335904, -2.08382, -2.16584, -0.12989, 0.46923, -0.542699, 0.334604, -2.08309, -2.16443, -0.128588, -1.60536e-05, 0.00355356, 0.000943786, 0.007943, -0.00171797, -0.00516056
0.0471787, 1.69145, -1.22701, -1.53941, -0.900254, -1.19207, 1.22868, -1.30269, 0.0164744, -0.000715562, -0.0168032, 0.00143519, -0.00847964, 0.0261861, -0.000183785, 1.49146, 59.2487, 28.8691, 6.13678, 1.50989, 3.48239, 0.0165515, 0.000499248, -0.00169744, 0.00145561, 0.00163938, 0.000551055, 0.000411143, 0.00493836, -0.00970543, -0.00515531, 0.00270368, 0.0234615, 0.00457105, 0.471008, -0.543347, 0.335905, -2.08381, -2.16583, -0.12989, 0.469242, -0.542699, 0.334597, -2.0831, -2.16445, -0.128587, -1.75788e-05, 0.0037494, 0.000995199, 0.00966575, 6.48358e-05, -0.00515437
0.0481787, 1.69148, -1.22702, -1.53943, -0.90025, -1.19208, 1.22872, -1.30269, 0.0179327, -0.00410299, -0.0192809, 0.000696907, -0.00734803, 0.0226854, 0.000354062, 1.57081, 59.4351, 29.0555, 5.98602, 1.5401, 3.53274, 0.00373412, 0.000494609, -0.00168228, 0.00146523, 0.00163042, 0.000529163, 0.000404846, 0.0045243, -0.00979502, -0.00853115, -0.0028082, 0.0178484, 0.0053829, 0.471008, -0.543343, 0.335906, -2.08381, -2.16583, -0.12989, 0.469257, -0.542698, 0.334587, -2.08311, -2.16447, -0.128576, -1.91915e-05, 0.00395105, 0.0010481, 0.00961687, 0.00119863, -0.00837329
0.0491787, 1.6915, -1.22703, -1.53944, -0.900249, -1.19209, 1.22875, -1.3027, 0.0189251, -0.00343505, -0.0193205, -0.000910048, -0.00533066, 0.0239664, -0.00145798, 1.64619, 59.6176, 29.1666, 5.87494, 1.5401, 3.61148, 0.0495105, 0.000492433, -0.00166738, 0.00147227, 0.00161847, 0.000512986, 0.000387702, 0.00350001, -0.0111483, -0.00833769, -0.00162016, 0.0178221, 0.0102421, 0.471008, -0.543339, 0.335907, -2.08381, -2.16583, -0.129891, 0.469272, -0.542694, 0.33458, -2.0831, -2.1645, -0.128575, -2.08943e-05, 0.0041585, 0.00110247, 0.0109371, 0.00244292, -0.00800972
0.0501787, 1.69152, -1.22703, -1.53945, -0.900235, -1.1921, 1.22878, -1.30269, 0.0209728, -0.00422319, -0.0162638, 0.00482359, -0.00503064, 0.0260759, 0.000487126, 1.79694, 59.7287, 29.2777, 5.6131, 1.57123, 3.66092, 0.0101428, 0.000483783, -0.00165606, 0.00147604, 0.00159724, 0.000489013, 0.000395071, 0.00410895, -0.0119847, -0.00686602, 0.00539759, 0.0173611, 0.00690102, 0.471008, -0.543335, 0.335908, -2.08381, -2.16583, -0.129891, 0.469283, -0.542698, 0.334576, -2.08313, -2.16451, -0.128574, -2.269e-05, 0.00437173, 0.00115833, 0.0118455, 0.00186269, -0.00662047
0.0511787, 1.69154, -1.22705, -1.53946, -0.900231, -1.1921, 1.22882, -1.30269, 0.0202378, -0.00918383, -0.0140297, 0.00445798, -0.00403755, 0.033841, 8.81793e-05, 1.90803, 60.0223, 29.3888, 5.53772, 1.58313, 3.67557, 0.0165515, 0.000479286, -0.00163929, 0.00148825, 0.00157885, 0.000478665, 0.000386163, 0.00516515, -0.0136647, -0.00834276, 0.0141206, 0.0154741, 0.00840939, 0.471008, -0.543331, 0.335909, -2.0838, -2.16583, -0.129891, 0.4693, -0.542695, 0.334564, -2.08313, -2.16454, -0.128585, -2.45814e-05, 0.00459073, 0.00121564, 0.0135058, 0.0013351, -0.00823594
0.0521787, 1.69157, -1.22706, -1.53947, -0.900227, -1.19211, 1.22886, -1.30269, 0.0213291, -0.0092748, -0.0106299, 0.00341647, -0.00842213, 0.0349941, -0.00139869, 1.9477, 60.173, 29.4245, 5.50201, 1.61426, 3.68289, 0.0559192, 0.000477487, -0.00162017, 0.00149395, 0.0015561, 0.000459247, 0.00036664, 0.0048916, -0.0148221, -0.00731463, 0.0154134, 0.0196156, 0.0120732, 0.471008, -0.543326, 0.335911, -2.0838, -2.16583, -0.129892, 0.469319, -0.542691, 0.334559, -2.08313, -2.16458, -0.128593, -2.6571e-05, 0.00481547, 0.00127442, 0.0146871, 0.00171903, -0.00715445
0.0531787, 1.69159, -1.22707, -1.53949, -0.900224, -1.19212, 1.2289, -1.30268, 0.0183482, -0.00840818, -0.0109442, 0.00457639, -0.0113493, 0.035407, 0.00174675, 2.13416, 60.2802, 29.5752, 5.53772, 1.63898, 3.69754, -0.0164075, 0.00046957, -0.00160722, 0.00150147, 0.00154056, 0.000433867, 0.000371536, 0.00740173, -0.0125592, -0.00658629, 0.0152541, 0.0230816, 0.00384101, 0.471008, -0.543321, 0.335912, -2.0838, -2.16583, -0.129892, 0.469332, -0.542692, 0.334551, -2.08315, -2.16459, -0.128584, -2.86617e-05, 0.00504591, 0.00133464, 0.0125412, -0.000733314, -0.00669649
0.0541787, 1.69161, -1.22708, -1.53949, -0.900223, -1.19214, 1.22894, -1.30269, 0.0189386, -0.00975664, -0.00837975, 0.0021887, -0.0141942, 0.0307754, -0.000530588, 2.20954, 60.4666, 29.611, 5.57739, 1.68201, 3.7186, 0.0293689, 0.000464966, -0.00158938, 0.00151027, 0.00152181, 0.000411723, 0.000353129, 0.00634756, -0.0127267, -0.00726208, 0.0108419, 0.0220112, 0.00911566, 0.471008, -0.543316, 0.335913, -2.08379, -2.16583, -0.129892, 0.469349, -0.54269, 0.334542, -2.08315, -2.16463, -0.128585, -3.0856e-05, 0.00528201, 0.00139628, 0.0126441, 0.000654428, -0.00714358
0.0551787, 1.69163, -1.22709, -1.5395, -0.90022, -1.19215, 1.22898, -1.30268, 0.0186053, -0.008945, -0.0067008, 0.000673264, -0.0148728, 0.031839, 0.00110459, 2.32459, 60.5777, 29.6506, 5.6131, 1.6875, 3.74057, -0.00999879, 0.000458991, -0.00157497, 0.00151516, 0.00150004, 0.00038934, 0.000349344, 0.00611382, -0.0132719, -0.00631426, 0.0123539, 0.0240958, 0.00906323, 0.471008, -0.543311, 0.335915, -2.08379, -2.16583, -0.129893, 0.469364, -0.542689, 0.334537, -2.08317, -2.16465, -0.128587, -3.31567e-05, 0.00552372, 0.00145934, 0.0132122, 0.00100333, -0.00612482
0.0561787, 1.69165, -1.2271, -1.53951, -0.900219, -1.19217, 1.22901, -1.30269, 0.0193052, -0.00835058, -0.00460691, 0.00307693, -0.0161384, 0.0311361, -0.000958843, 2.39997, 60.6848, 29.6506, 5.6488, 1.71222, 3.80466, 0.0357776, 0.000453846, -0.00155917, 0.00152008, 0.00148446, 0.000360592, 0.000333083, 0.00645565, -0.0132093, -0.00501255, 0.014105, 0.0252357, 0.0103054, 0.471008, -0.543305, 0.335916, -2.08378, -2.16583, -0.129893, 0.469379, -0.542687, 0.334533, -2.08317, -2.16469, -0.128577, -3.55665e-05, 0.00577098, 0.0015238, 0.0132065, 0.000710194, -0.00482625
0.0571787, 1.69168, -1.22711, -1.53952, -0.900218, -1.19218, 1.22905, -1.30268, 0.0187744, -0.00900472, -0.00484649, 0.00236457, -0.014582, 0.0325921, 0.00153105, 2.51106, 60.8356, 29.722, 5.6488, 1.66919, 3.83304, -0.0228162, 0.000447597, -0.00154424, 0.00152862, 0.00146842, 0.000340642, 0.000330275, 0.00669439, -0.013476, -0.00545122, 0.0156138, 0.02428, 0.00835239, 0.471008, -0.5433, 0.335918, -2.08378, -2.16583, -0.129894, 0.469394, -0.542686, 0.334524, -2.08318, -2.16471, -0.128575, -3.8088e-05, 0.00602372, 0.00158964, 0.013463, 0.000805747, -0.00523872
0.0581787, 1.6917, -1.22711, -1.53952, -0.900215, -1.19219, 1.22909, -1.30269, 0.0200199, -0.00760698, -0.000711123, 0.00181134, -0.0221, 0.0343615, -0.00189532, 2.55073, 60.907, 29.611, 5.6488, 1.62067, 3.82663, 0.0559192, 0.000444426, -0.00152406, 0.00152894, 0.00143805, 0.000308253, 0.000304145, 0.0069227, -0.014473, -0.00317626, 0.016964, 0.0327135, 0.0129628, 0.471008, -0.543294, 0.335919, -2.08378, -2.16583, -0.129894, 0.469414, -0.542682, 0.334525, -2.08318, -2.16477, -0.128579, -4.07237e-05, 0.00628188, 0.00165682, 0.0145465, 0.00052912, -0.00299078
0.0591799, 1.69172, -1.22713, -1.53953, -0.900217, -1.19221, 1.22913, -1.30269, 0.0231227, -0.0110535, -0.00535653, 0.000455762, -0.0196185, 0.0312475, 0.000669313, 2.62611, 61.1649, 29.6863, 5.68848, 1.58313, 3.81198, 0.00373412, 0.000435852, -0.00150816, 0.00154213, 0.00142429, 0.000285756, 0.000300332, 0.00588804, -0.0154644, -0.00750064, 0.00997792, 0.026419, 0.0133269, 0.471008, -0.543287, 0.335921, -2.08377, -2.16582, -0.129894, 0.46943, -0.542681, 0.334511, -2.08319, -2.16479, -0.128573, -4.34763e-05, 0.00654537, 0.00172534, 0.0153405, 0.00252048, -0.00706155
0.0601799, 1.69175, -1.22714, -1.53953, -0.900217, -1.19224, 1.22917, -1.30269, 0.0271849, -0.00992999, -0.00303503, 0.000436008, -0.0226214, 0.0334417, 0.000208909, 2.62611, 61.2759, 29.6506, 5.68848, 1.55932, 3.81198, 0.0101428, 0.00043065, -0.00148963, 0.00154595, 0.00140517, 0.000250421, 0.000284599, 0.00458837, -0.0181946, -0.00606842, 0.0120104, 0.0312591, 0.0179294, 0.471008, -0.543281, 0.335923, -2.08377, -2.16582, -0.129895, 0.469449, -0.542679, 0.334508, -2.0832, -2.16483, -0.12856, -4.63483e-05, 0.0068141, 0.00179515, 0.0180695, 0.0039636, -0.0054582
0.0611799, 1.69177, -1.22716, -1.53953, -0.900214, -1.19226, 1.22921, -1.30269, 0.0250975, -0.012624, -0.00362898, 0.00131782, -0.0205204, 0.0342601, -0.00057276, 2.70148, 61.5338, 29.5752, 5.6488, 1.53461, 3.8193, 0.0293689, 0.000421719, -0.00147437, 0.00155482, 0.0013836, 0.00022776, 0.000273832, 0.00610385, -0.0171506, -0.00758604, 0.0137417, 0.0273584, 0.0163649, 0.471008, -0.543274, 0.335924, -2.08376, -2.16582, -0.129895, 0.469464, -0.542679, 0.334499, -2.0832, -2.16486, -0.128563, -4.93422e-05, 0.00708797, 0.00186624, 0.0170233, 0.00293233, -0.00708947
0.0621799, 1.69179, -1.22717, -1.53955, -0.900214, -1.19229, 1.22925, -1.30269, 0.0255013, -0.0126638, -0.00721136, 0.000952887, -0.0201048, 0.0399935, -0.000144448, 2.70148, 61.7163, 29.7617, 5.6488, 1.5401, 3.82663, 0.0229602, 0.000411467, -0.00145824, 0.00156749, 0.00137662, 0.000194215, 0.000267296, 0.00736608, -0.0179177, -0.0084771, 0.0155896, 0.0302981, 0.0150959, 0.471007, -0.543267, 0.335926, -2.08376, -2.16582, -0.129896, 0.46948, -0.542679, 0.334486, -2.08321, -2.16489, -0.128538, -5.24605e-05, 0.00736687, 0.00193857, 0.0177992, 0.0021338, -0.00811616
0.0631799, 1.69181, -1.22719, -1.53955, -0.900211, -1.19231, 1.22929, -1.30269, 0.020013, -0.0127884, -0.00420232, 0.00152623, -0.0204196, 0.0397945, -9.62736e-05, 2.81654, 61.9028, 29.722, 5.6131, 1.56482, 3.8193, 0.0229602, 0.000400076, -0.00144521, 0.00157494, 0.00135724, 0.000164862, 0.000262973, 0.00969195, -0.0151643, -0.00716067, 0.0190597, 0.0301292, 0.0104929, 0.471007, -0.543259, 0.335928, -2.08375, -2.16582, -0.129897, 0.469493, -0.542681, 0.334479, -2.08323, -2.16492, -0.12853, -5.57056e-05, 0.00765073, 0.00201212, 0.015177, -0.000193864, -0.00702084
0.0641799, 1.69184, -1.2272, -1.53955, -0.900216, -1.19234, 1.22933, -1.30268, 0.0226506, -0.0111122, -0.00786471, -0.000703931, -0.0193926, 0.0351637, 0.000885272, 2.77686, 62.0139, 29.7974, 5.68848, 1.55932, 3.80466, -0.00267457, 0.000394678, -0.00142454, 0.00158234, 0.00134317, 0.000127367, 0.000246858, 0.00807444, -0.0157291, -0.00835841, 0.0110281, 0.0293952, 0.0126429, 0.471007, -0.543252, 0.33593, -2.08374, -2.16582, -0.129897, 0.469513, -0.542677, 0.334472, -2.08323, -2.16496, -0.12851, -5.90798e-05, 0.00793954, 0.00208689, 0.0156364, 0.00189942, -0.00789472
0.0651799, 1.69186, -1.22721, -1.53956, -0.900216, -1.19236, 1.22937, -1.30269, 0.024891, -0.0108329, -0.00744276, -0.000437923, -0.0234395, 0.0366832, -0.00134258, 2.85224, 62.1606, 29.8728, 5.68848, 1.56482, 3.7836, 0.0495105, 0.000383586, -0.00140982, 0.00158982, 0.00132671, 9.20222e-05, 0.000235009, 0.00830488, -0.0168122, -0.00802135, 0.0106795, 0.0339747, 0.015719, 0.471007, -0.543244, 0.335932, -2.08374, -2.16582, -0.129898, 0.469528, -0.542678, 0.334465, -2.08324, -2.165, -0.128494, -6.25855e-05, 0.00823327, 0.00216285, 0.016735, 0.00195817, -0.00755449
0.0661799, 1.69188, -1.22721, -1.53957, -0.900214, -1.19239, 1.22941, -1.30269, 0.0234296, -0.00805051, -0.00612434, 0.000659594, -0.0262153, 0.0422926, 0.000563016, 2.92762, 62.1964, 29.9085, 5.6488, 1.56482, 3.76163, 0.0101428, 0.000371427, -0.00139703, 0.00158999, 0.0013068, 4.50689e-05, 0.000237758, 0.0101837, -0.0166364, -0.00522632, 0.0164424, 0.0417914, 0.0110912, 0.471007, -0.543236, 0.335935, -2.08373, -2.16581, -0.129898, 0.469541, -0.542681, 0.334464, -2.08327, -2.16503, -0.128469, -6.6225e-05, 0.00853189, 0.00224002, 0.0167241, -3.55828e-05, -0.00500398
0.0671799, 1.6919, -1.22721, -1.53958, -0.900214, -1.19241, 1.22945, -1.30269, 0.0202649, -0.00796046, -0.00609159, 0.000457371, -0.023955, 0.0360812, 0.000375352, 2.96729, 62.3074, 29.9839, 5.6488, 1.56482, 3.76895, 0.0101428, 0.00035945, -0.00138312, 0.0015963, 0.00129233, 5.91118e-06, 0.000233402, 0.0107317, -0.0140216, -0.00559875, 0.0125773, 0.0370996, 0.0091233, 0.471007, -0.543227, 0.335937, -2.08373, -2.16581, -0.129899, 0.469555, -0.542683, 0.334458, -2.08329, -2.16506, -0.128447, -7.00005e-05, 0.00883538, 0.00231837, 0.014115, -0.000322674, -0.0052996
0.0681799, 1.69192, -1.22721, -1.53959, -0.900214, -1.19243, 1.22949, -1.30269, 0.0219757, -0.004468, -0.00930147, 0.000318146, -0.0262146, 0.0354188, -0.000970462, 2.96729, 62.2717, 30.0593, 5.6488, 1.55292, 3.79733, 0.0431018, 0.00035035, -0.00136831, 0.00159889, 0.00127974, -3.48255e-05, 0.000221742, 0.0109652, -0.0140017, -0.00488234, 0.00815159, 0.0426033, 0.009944, 0.471007, -0.543218, 0.335939, -2.08372, -2.16581, -0.1299, 0.46957, -0.542682, 0.334456, -2.0833, -2.1651, -0.128421, -7.39143e-05, 0.00914373, 0.0023979, 0.0141255, -0.000355955, -0.00454843
0.0691799, 1.69194, -1.22721, -1.5396, -0.900219, -1.19245, 1.22953, -1.30268, 0.0198576, -0.00204784, -0.0106192, -0.00154122, -0.0231598, 0.0353034, 0.00155708, 2.96729, 62.2321, 30.095, 5.72418, 1.5282, 3.8193, -0.0164075, 0.000342657, -0.00135149, 0.00160013, 0.00126455, -7.95259e-05, 0.000214955, 0.011106, -0.013269, -0.00411537, 0.00802201, 0.0428703, 0.00732276, 0.471007, -0.543209, 0.335941, -2.08371, -2.16581, -0.1299, 0.469587, -0.54268, 0.334456, -2.08332, -2.16513, -0.128394, -7.79688e-05, 0.0094569, 0.0024786, 0.0134225, -0.000329865, -0.00371026
0.0701799, 1.69197, -1.22721, -1.53961, -0.900214, -1.19248, 1.22957, -1.30269, 0.022275, -0.00229113, -0.0116449, -0.000184817, -0.0210757, 0.0364699, -0.00140335, 2.92762, 62.2717, 30.1346, 5.68848, 1.50989, 3.8193, 0.0495105, 0.000331438, -0.00133657, 0.00160198, 0.00124572, -0.000121577, 0.000202716, 0.0107064, -0.0145881, -0.00449041, 0.00940933, 0.041754, 0.011716, 0.471007, -0.5432, 0.335944, -2.08371, -2.16581, -0.129901, 0.469602, -0.54268, 0.334454, -2.08333, -2.16518, -0.128374, -8.21662e-05, 0.00977487, 0.00256046, 0.0147078, 0.000494456, -0.00397659
0.0711799, 1.69199, -1.22721, -1.53962, -0.900211, -1.1925, 1.22961, -1.30268, 0.0230746, 0.000237397, -0.0133878, 0.00081039, -0.0195464, 0.0371526, 0.000997215, 2.92762, 62.1964, 30.206, 5.6488, 1.49158, 3.81198, -0.00267457, 0.000318274, -0.00132295, 0.00160127, 0.00122926, -0.000175302, 0.00020756, 0.0108715, -0.0147523, -0.0034982, 0.00980429, 0.0436496, 0.00888774, 0.471007, -0.54319, 0.335947, -2.0837, -2.16581, -0.129902, 0.469616, -0.542683, 0.334455, -2.08336, -2.16521, -0.128338, -8.65087e-05, 0.0100976, 0.00264348, 0.0149093, 0.000508194, -0.00294457
0.0721799, 1.69201, -1.2272, -1.53964, -0.900208, -1.19252, 1.22965, -1.30269, 0.0233804, 0.00275791, -0.0146429, 0.000544447, -0.0239198, 0.0372513, -0.000759342, 2.92762, 62.0853, 30.2814, 5.6488, 1.50348, 3.8193, 0.0357776, 0.000305205, -0.00131072, 0.0016001, 0.00121623, -0.000227819, 0.000206027, 0.0118933, -0.0142354, -0.00253742, 0.00684474, 0.0501476, 0.00909601, 0.471007, -0.54318, 0.335949, -2.08369, -2.1658, -0.129903, 0.469629, -0.542686, 0.334456, -2.08339, -2.16524, -0.1283, -9.09987e-05, 0.0104251, 0.00272764, 0.0144599, -0.000342056, -0.00205489
0.0731799, 1.69203, -1.2272, -1.53965, -0.900208, -1.19255, 1.22969, -1.30268, 0.0237361, 0.000911475, -0.0115438, 0.000366104, -0.0266822, 0.038189, 0.00166391, 2.92762, 62.1249, 30.3211, 5.6488, 1.50348, 3.81198, -0.0228162, 0.000291589, -0.00129774, 0.00160325, 0.0012017, -0.000272547, 0.000211179, 0.0121961, -0.0149087, -0.00251674, 0.00884188, 0.0511068, 0.00780721, 0.471007, -0.543169, 0.335952, -2.08368, -2.1658, -0.129903, 0.469642, -0.542688, 0.334453, -2.08341, -2.16526, -0.128271, -9.56382e-05, 0.0107574, 0.00281294, 0.0151393, -0.000284328, -0.00201666
0.0741799, 1.69205, -1.22721, -1.53966, -0.900203, -1.19257, 1.22973, -1.30268, 0.025857, -0.00189734, -0.00917152, 0.00108164, -0.0290416, 0.0331484, -0.000586145, 2.85224, 62.2321, 30.3568, 5.6131, 1.5163, 3.8193, 0.0229602, 0.000278884, -0.00128202, 0.00161209, 0.00118971, -0.000306958, 0.000200911, 0.0115246, -0.0152139, -0.00381387, 0.00526518, 0.0478445, 0.0119521, 0.471007, -0.543159, 0.335955, -2.08368, -2.1658, -0.129904, 0.469658, -0.542688, 0.334445, -2.08342, -2.1653, -0.128252, -0.00010043, 0.0110943, 0.00289937, 0.0153683, 0.000927914, -0.00311608
0.0751799, 1.69208, -1.22721, -1.53968, -0.900194, -1.1926, 1.22976, -1.30268, 0.0252848, -0.00678512, -0.0105966, 0.00595597, -0.0311218, 0.0297789, 0.00130466, 2.73719, 62.1964, 30.3925, 5.53772, 1.53461, 3.8193, -0.0228162, 0.000265313, -0.00126782, 0.00161457, 0.00118081, -0.000356085, 0.000204951, 0.0143926, -0.0127838, -0.00681372, 0.0021698, 0.042917, 0.00396128, 0.471006, -0.543147, 0.335958, -2.08367, -2.1658, -0.129905, 0.469672, -0.542689, 0.334443, -2.08345, -2.16532, -0.128212, -0.000105375, 0.011436, 0.00298692, 0.0129306, -0.00119918, -0.00636272
0.0761799, 1.69211, -1.22721, -1.53969, -0.900186, -1.19262, 1.2298, -1.30268, 0.0274063, -0.00765115, -0.0108416, 0.00939653, -0.0290314, 0.0325616, 0.000395055, 2.62611, 62.3074, 30.3925, 5.46234, 1.57123, 3.79733, -0.00999879, 0.000252508, -0.00124993, 0.00162195, 0.00116609, -0.000395599, 0.000193757, 0.0148347, -0.0139164, -0.00683332, 0.00663612, 0.0417552, 0.00457771, 0.471006, -0.543136, 0.335961, -2.08366, -2.1658, -0.129906, 0.46969, -0.542688, 0.334436, -2.08345, -2.16536, -0.12819, -0.000110477, 0.0117823, 0.00307558, 0.0140718, -0.00123977, -0.00639645
0.0771799, 1.69214, -1.22722, -1.5397, -0.900186, -1.19265, 1.22984, -1.30268, 0.0281036, -0.00633295, -0.0110116, 0.00499999, -0.03088, 0.0349443, -0.000245256, 2.55073, 62.3431, 30.3925, 5.53772, 1.58954, 3.76895, 0.00373412, 0.000239875, -0.0012323, 0.00162825, 0.00115446, -0.000442191, 0.000184976, 0.0141056, -0.0154575, -0.00659049, 0.00566939, 0.0464351, 0.00906386, 0.471006, -0.543124, 0.335964, -2.08365, -2.16579, -0.129907, 0.469708, -0.542687, 0.33443, -2.08347, -2.1654, -0.128158, -0.000115737, 0.0121332, 0.00316535, 0.0155883, -0.000143231, -0.00600039
0.0781799, 1.69217, -1.22722, -1.53973, -0.900177, -1.19268, 1.22988, -1.30268, 0.0288425, -0.00628293, -0.013915, 0.00547072, -0.0279495, 0.0373143, 0.000582482, 2.47535, 62.4185, 30.5036, 5.46234, 1.60785, 3.73324, -0.0164075, 0.000223977, -0.0012172, 0.00163797, 0.00114716, -0.000482602, 0.000187915, 0.0145482, -0.0160115, -0.0073911, 0.00672736, 0.0456903, 0.00816615, 0.471006, -0.543112, 0.335967, -2.08364, -2.16579, -0.129908, 0.469723, -0.542689, 0.334421, -2.08348, -2.16542, -0.128126, -0.000121158, 0.0124888, 0.00325621, 0.016123, -7.8377e-05, -0.00678569
0.0791799, 1.6922, -1.22722, -1.53974, -0.900166, -1.1927, 1.22992, -1.30268, 0.0315386, -0.00441191, -0.0131663, 0.00907908, -0.0298788, 0.0370723, -0.00106974, 2.43568, 62.4185, 30.5036, 5.38696, 1.62067, 3.73324, 0.0229602, 0.000209322, -0.0012017, 0.00163978, 0.00113374, -0.000532756, 0.000182221, 0.0148159, -0.0165485, -0.00572194, 0.00778396, 0.0490007, 0.00903135, 0.471006, -0.5431, 0.33597, -2.08363, -2.16579, -0.129909, 0.469739, -0.54269, 0.33442, -2.0835, -2.16545, -0.128091, -0.000126741, 0.012849, 0.00334816, 0.0167238, -0.000217499, -0.0051036
0.0801799, 1.69224, -1.22723, -1.53975, -0.900163, -1.19273, 1.22995, -1.30268, 0.0344282, -0.0057072, -0.0128547, 0.0056175, -0.0262277, 0.0322085, 0.00145698, 2.3603, 62.5296, 30.5036, 5.42664, 1.61426, 3.74057, -0.0356336, 0.000197904, -0.00118293, 0.00164902, 0.00112749, -0.000570347, 0.000176823, 0.0117071, -0.0185372, -0.00746934, 0.00339172, 0.0429533, 0.0138088, 0.471006, -0.543087, 0.335973, -2.08362, -2.16579, -0.129909, 0.469758, -0.542686, 0.334412, -2.08351, -2.16548, -0.128061, -0.00013249, 0.0132137, 0.00344119, 0.0185294, 0.0035671, -0.00631333
0.0811799, 1.69227, -1.22724, -1.53977, -0.900156, -1.19275, 1.22999, -1.30268, 0.0335555, -0.00560084, -0.0126874, 0.00753516, -0.0277875, 0.0331978, 0.000496601, 2.28492, 62.601, 30.5036, 5.42664, 1.60144, 3.74698, -0.0228162, 0.000185733, -0.00116195, 0.0016584, 0.00111877, -0.000612946, 0.000163582, 0.0134095, -0.0176454, -0.00698325, 0.00478661, 0.0448937, 0.0118159, 0.471006, -0.543074, 0.335977, -2.08361, -2.16578, -0.12991, 0.469779, -0.542682, 0.334403, -2.08351, -2.16552, -0.12803, -0.000138406, 0.013583, 0.0035353, 0.0177115, 0.00214445, -0.00597692
0.0821799, 1.69231, -1.22724, -1.53978, -0.900145, -1.19278, 1.23003, -1.30268, 0.0360252, -0.00475611, -0.013994, 0.00996546, -0.0246514, 0.0330829, -0.000414918, 2.20954, 62.6407, 30.4322, 5.38696, 1.58954, 3.7836, -0.00267457, 0.00017472, -0.00114167, 0.00166365, 0.00110931, -0.000655169, 0.000149684, 0.0129769, -0.0185686, -0.0067892, 0.00590938, 0.043334, 0.0134717, 0.471006, -0.54306, 0.33598, -2.0836, -2.16578, -0.129911, 0.469799, -0.542678, 0.334399, -2.08351, -2.16556, -0.128, -0.00014449, 0.0139569, 0.00363046, 0.0186189, 0.00295345, -0.00565105
0.0831799, 1.69235, -1.22724, -1.53982, -0.900141, -1.1928, 1.23006, -1.30268, 0.0350471, -0.00407661, -0.0212844, 0.0090314, -0.0225655, 0.0343675, -0.000276612, 2.24921, 62.6764, 30.6186, 5.46234, 1.58313, 3.79001, -0.00267457, 0.000158411, -0.00112557, 0.00167658, 0.00111595, -0.000700958, 0.000147024, 0.0146971, -0.0173941, -0.00897685, 0.00145066, 0.0437436, 0.0103987, 0.471006, -0.543046, 0.335984, -2.08359, -2.16578, -0.129913, 0.469815, -0.542678, 0.334387, -2.08352, -2.16558, -0.127948, -0.000150747, 0.0143352, 0.00372669, 0.017422, 0.0019227, -0.00794678
0.0841799, 1.69239, -1.22725, -1.53984, -0.90014, -1.19283, 1.23009, -1.30268, 0.0394047, -0.00444117, -0.0219282, 0.00414848, -0.0257361, 0.0348881, -0.000896485, 2.20954, 62.7478, 30.6186, 5.57739, 1.58954, 3.79733, 0.0165515, 0.000147759, -0.00110425, 0.0016885, 0.00111983, -0.000741891, 0.00012808, 0.0125539, -0.0205556, -0.0103175, -0.0030974, 0.0471183, 0.0182682, 0.471005, -0.543032, 0.335988, -2.08358, -2.16578, -0.129914, 0.469836, -0.542671, 0.334377, -2.08351, -2.16562, -0.127905, -0.000157176, 0.014718, 0.00382396, 0.0204476, 0.00475771, -0.00893614
0.0851799, 1.69243, -1.22726, -1.53986, -0.90013, -1.19286, 1.23013, -1.30268, 0.0379699, -0.00476376, -0.0215255, 0.00430778, -0.0272182, 0.03558, 0.00133512, 2.24921, 62.8232, 30.579, 5.53772, 1.57123, 3.80466, -0.0356336, 0.000133614, -0.00108506, 0.00169761, 0.00111157, -0.000781271, 0.000125692, 0.0139477, -0.0197449, -0.0102422, -0.0024976, 0.0485557, 0.0142165, 0.471005, -0.543017, 0.335992, -2.08357, -2.16577, -0.129915, 0.469855, -0.542668, 0.334369, -2.08352, -2.16565, -0.127876, -0.000163782, 0.0151053, 0.00392227, 0.019684, 0.00372432, -0.00895565
0.0861799, 1.69247, -1.22725, -1.53988, -0.900126, -1.19288, 1.23016, -1.30268, 0.0378296, -0.00237043, -0.0232355, 0.000733975, -0.0294879, 0.0306216, -0.0010427, 2.24921, 62.7875, 30.6186, 5.6488, 1.58313, 3.82663, 0.0165515, 0.000122792, -0.00106326, 0.0017049, 0.00111576, -0.000833199, 0.000104133, 0.0134158, -0.0189505, -0.0104026, -0.0107678, 0.0510529, 0.0179928, 0.471005, -0.543002, 0.335996, -2.08356, -2.16577, -0.129916, 0.469877, -0.542662, 0.334363, -2.08351, -2.1657, -0.127822, -0.000170564, 0.0154971, 0.00402162, 0.0188589, 0.00463346, -0.00890822
0.0871799, 1.69251, -1.22726, -1.53991, -0.900119, -1.19291, 1.23019, -1.30267, 0.0356239, -0.00243786, -0.0251934, 0.00427298, -0.0267192, 0.0274574, 0.00123765, 2.20954, 62.8232, 30.6901, 5.6488, 1.58954, 3.84036, -0.0356336, 0.00010866, -0.00104294, 0.00171735, 0.00112514, -0.000881023, 0.000103873, 0.0153897, -0.0163044, -0.0108446, -0.0118556, 0.0471981, 0.0104499, 0.471005, -0.542986, 0.336, -2.08355, -2.16577, -0.129917, 0.469897, -0.542657, 0.334352, -2.08352, -2.16572, -0.127764, -0.000177527, 0.0158932, 0.00412199, 0.016264, 0.00304066, -0.00947106
0.0881799, 1.69255, -1.22727, -1.53993, -0.900112, -1.19294, 1.23022, -1.30268, 0.0372959, -0.00591089, -0.0240904, 0.00246623, -0.0240634, 0.0246431, -0.000870322, 2.28492, 63.0057, 30.6544, 5.68848, 1.58313, 3.86966, 0.0101428, 9.38413e-05, -0.00102469, 0.00173347, 0.00113064, -0.000912186, 8.69541e-05, 0.0137995, -0.0176818, -0.0131208, -0.0134423, 0.0406001, 0.0173001, 0.471005, -0.542971, 0.336004, -2.08354, -2.16576, -0.129918, 0.469915, -0.542653, 0.334338, -2.0835, -2.16575, -0.127729, -0.000184671, 0.0162937, 0.00422337, 0.0174928, 0.00541862, -0.011412
0.0891799, 1.6926, -1.22727, -1.53996, -0.90011, -1.19297, 1.23025, -1.30268, 0.041277, -0.00709884, -0.0251289, 0.00121813, -0.0272326, 0.0277366, 0.000640488, 2.24921, 63.0057, 30.6901, 5.72418, 1.59595, 3.87607, -0.0228162, 8.19519e-05, -0.00100259, 0.00174672, 0.00114519, -0.000959459, 7.38587e-05, 0.0133514, -0.0202362, -0.014336, -0.014378, 0.0441419, 0.0193133, 0.471005, -0.542954, 0.336008, -2.08353, -2.16576, -0.129919, 0.469937, -0.542645, 0.334326, -2.08349, -2.16578, -0.127668, -0.000192, 0.0166987, 0.00432576, 0.0199763, 0.00655822, -0.0125174
0.0901799, 1.69265, -1.22728, -1.54, -0.900109, -1.193, 1.23028, -1.30268, 0.0441461, -0.00593215, -0.0267307, -0.000644255, -0.0296571, 0.0254354, -0.00103107, 2.20954, 63.0453, 30.7654, 5.79956, 1.61426, 3.88339, 0.0165515, 7.0391e-05, -0.000978981, 0.0017641, 0.00116917, -0.00100727, 5.41833e-05, 0.0124074, -0.0212582, -0.0148679, -0.0200694, 0.0468089, 0.0238815, 0.471004, -0.542938, 0.336012, -2.08351, -2.16576, -0.129921, 0.46996, -0.542636, 0.334311, -2.08347, -2.16582, -0.127596, -0.000199514, 0.0171079, 0.00442916, 0.0209363, 0.00802355, -0.0128237
0.0911799, 1.69269, -1.22728, -1.54003, -0.900107, -1.19303, 1.2303, -1.30268, 0.0437963, -0.00499366, -0.0252193, -0.00103455, -0.0315314, 0.0222714, 0.000533323, 2.28492, 63.0811, 30.7297, 5.83527, 1.63257, 3.92642, -0.0164075, 5.69673e-05, -0.000960013, 0.00177863, 0.0011886, -0.00104962, 4.20882e-05, 0.0125104, -0.0206023, -0.014132, -0.0223506, 0.0479448, 0.0224283, 0.471004, -0.54292, 0.336017, -2.0835, -2.16575, -0.129922, 0.469979, -0.542629, 0.334298, -2.08346, -2.16584, -0.127534, -0.000207216, 0.0175215, 0.00453354, 0.0203039, 0.00819537, -0.011989
0.0921799, 1.69274, -1.22727, -1.54007, -0.900101, -1.19306, 1.23032, -1.30267, 0.0454053, -0.00171863, -0.0307701, 0.000318148, -0.0321575, 0.016911, 0.000830267, 2.28492, 63.0057, 30.8408, 5.79956, 1.63257, 3.92642, -0.0292249, 4.28192e-05, -0.000940077, 0.00179157, 0.00121568, -0.0011046, 3.63205e-05, 0.0130404, -0.0191068, -0.0145806, -0.0314141, 0.049674, 0.0196312, 0.471004, -0.542903, 0.336021, -2.08349, -2.16575, -0.129923, 0.469998, -0.542623, 0.334287, -2.08345, -2.16586, -0.12745, -0.000215108, 0.0179394, 0.00463891, 0.0188051, 0.00809808, -0.0123639
0.0931799, 1.6928, -1.22727, -1.54011, -0.900096, -1.19309, 1.23034, -1.30268, 0.04736, -0.000425103, -0.0290325, 0.000341571, -0.0326307, 0.0171646, -0.00137927, 2.24921, 62.97, 30.8408, 5.79956, 1.63257, 3.94107, 0.0229602, 3.154e-05, -0.000918711, 0.00180556, 0.00124572, -0.00115178, 1.21629e-05, 0.0122482, -0.0204682, -0.0133202, -0.0300048, 0.0517302, 0.0244378, 0.471004, -0.542885, 0.336026, -2.08348, -2.16575, -0.129924, 0.470019, -0.542613, 0.334276, -2.08342, -2.1659, -0.127373, -0.000223192, 0.0183616, 0.00474526, 0.0201739, 0.00916415, -0.0109314
0.0941799, 1.69285, -1.22727, -1.54015, -0.900102, -1.19312, 1.23036, -1.30267, 0.0479456, -0.00120455, -0.0317971, -0.00227364, -0.0292464, 0.0176912, 0.000775908, 2.24921, 63.0057, 30.8765, 5.91064, 1.63257, 3.94107, -0.0228162, 2.04005e-05, -0.000896389, 0.00182581, 0.00128351, -0.00119647, -1.69793e-06, 0.0116827, -0.0213785, -0.0151474, -0.0317099, 0.0491831, 0.0250017, 0.471003, -0.542867, 0.336031, -2.08346, -2.16574, -0.129926, 0.470041, -0.542602, 0.334258, -2.0834, -2.16592, -0.127288, -0.00023147, 0.0187881, 0.00485258, 0.0209881, 0.0104683, -0.0125682
0.0951799, 1.6929, -1.22728, -1.54019, -0.900097, -1.19315, 1.23037, -1.30268, 0.0517357, -0.00263071, -0.0363546, -0.000607713, -0.030938, 0.0181169, -0.000466072, 2.24921, 63.0811, 30.8765, 5.87494, 1.64447, 3.94107, 0.00373412, 6.56079e-06, -0.000875686, 0.00184604, 0.00131803, -0.00123708, -1.77887e-05, 0.0123959, -0.0222363, -0.0175718, -0.035957, 0.0499474, 0.0258342, 0.471003, -0.542848, 0.336035, -2.08345, -2.16574, -0.129927, 0.470061, -0.542593, 0.33424, -2.08337, -2.16595, -0.127212, -0.000239944, 0.0192188, 0.00496086, 0.0217736, 0.0106041, -0.0149907
0.0961799, 1.69295, -1.22727, -1.54023, -0.900098, -1.19318, 1.23039, -1.30268, 0.0514201, 0.00163153, -0.0349877, -0.00118574, -0.0279003, 0.0191522, -7.33556e-05, 2.24921, 62.9343, 30.8051, 5.91064, 1.65729, 3.92642, -0.00267457, -4.93623e-06, -0.000854802, 0.00185617, 0.00134909, -0.0012941, -3.50657e-05, 0.0116324, -0.022877, -0.0145942, -0.032234, 0.0524874, 0.0272652, 0.471003, -0.542829, 0.33604, -2.08343, -2.16574, -0.129929, 0.470082, -0.542582, 0.334233, -2.08335, -2.16598, -0.127123, -0.000248615, 0.0196537, 0.00507009, 0.0224856, 0.0113603, -0.0118425
0.0971799, 1.69301, -1.22727, -1.54028, -0.900101, -1.19321, 1.2304, -1.30267, 0.052848, 0.00105144, -0.0405684, -0.00167755, -0.0301555, 0.0143596, 0.000222364, 2.17384, 62.9343, 30.8765, 5.95032, 1.6756, 3.92642, -0.00999879, -1.75915e-05, -0.000833589, 0.00187769, 0.0013993, -0.00134272, -5.2252e-05, 0.012467, -0.0216766, -0.0175176, -0.0427572, 0.0521654, 0.0254187, 0.471003, -0.542809, 0.336045, -2.08342, -2.16573, -0.12993, 0.470103, -0.542571, 0.334214, -2.08332, -2.16601, -0.127021, -0.000257487, 0.0200928, 0.00518027, 0.0212015, 0.0113773, -0.0147124
0.0981799, 1.69306, -1.22726, -1.54032, -0.900101, -1.19324, 1.23041, -1.30268, 0.0510751, 0.00150899, -0.0452419, -0.00108764, -0.026468, 0.015839, -0.000360384, 2.20954, 62.8986, 30.8408, 5.95032, 1.66919, 3.9191, 0.00373412, -3.23892e-05, -0.000815947, 0.00189412, 0.00144037, -0.00139118, -6.58553e-05, 0.0142395, -0.0203965, -0.0186413, -0.0431698, 0.0508574, 0.022748, 0.471002, -0.542789, 0.336051, -2.08341, -2.16573, -0.129932, 0.47012, -0.542562, 0.3342, -2.08329, -2.16603, -0.126929, -0.000266561, 0.0205361, 0.00529139, 0.0199366, 0.0101917, -0.0159478
0.0991799, 1.69312, -1.22726, -1.54037, -0.900108, -1.19327, 1.23042, -1.30267, 0.0568165, 0.000985601, -0.0448812, -0.00330051, -0.0329467, 0.0123633, 0.000980447, 2.09846, 62.8986, 30.7654, 6.0614, 1.6756, 3.90536, -0.0292249, -4.06262e-05, -0.000790448, 0.00191503, 0.00149194, -0.00143888, -9.21129e-05, 0.0123837, -0.0228137, -0.019775, -0.0507962, 0.054605, 0.0270687, 0.471002, -0.542768, 0.336056, -2.08339, -2.16572, -0.129933, 0.470145, -0.542546, 0.334183, -2.08324, -2.16606, -0.126828, -0.000275838, 0.0209836, 0.00540343, 0.0222334, 0.0127457, -0.0167402
0.10018, 1.69317, -1.22725, -1.54042, -0.900106, -1.19331, 1.23043, -1.30268, 0.0567816, 0.00500347, -0.0482837, -0.00125503, -0.0336261, 0.00948492, -0.00151651, 2.02308, 62.7121, 30.8408, 6.02173, 1.6875, 3.89804, 0.0293689, -5.60312e-05, -0.000771671, 0.00193013, 0.00154592, -0.00150343, -0.000109046, 0.0136371, -0.0210538, -0.0186243, -0.0551948, 0.0581175, 0.0258388, 0.471002, -0.542747, 0.336061, -2.08338, -2.16572, -0.129935, 0.470163, -0.542537, 0.33417, -2.08322, -2.16609, -0.126705, -0.000285321, 0.0214351, 0.00551641, 0.020553, 0.0117105, -0.0156329
0.10118, 1.69323, -1.22725, -1.54046, -0.900112, -1.19334, 1.23044, -1.30268, 0.0589924, 0.00415939, -0.0453147, -0.00351499, -0.0292278, 0.00759443, 0.00115913, 1.98341, 62.6764, 30.6901, 6.13678, 1.68201, 3.88339, -0.0292249, -6.72748e-05, -0.0007494, 0.00194704, 0.00158985, -0.0015531, -0.000130104, 0.0108443, -0.0234812, -0.0187085, -0.0535945, 0.0531446, 0.0302682, 0.471002, -0.542726, 0.336067, -2.08336, -2.16572, -0.129936, 0.470185, -0.542523, 0.334157, -2.08318, -2.16612, -0.12661, -0.000295012, 0.0218908, 0.00563029, 0.0228641, 0.0150364, -0.0152418
0.10218, 1.69329, -1.22724, -1.54051, -0.900105, -1.19338, 1.23044, -1.30268, 0.0590709, 0.00359954, -0.0459999, -0.000570365, -0.0299873, 0.00588068, -0.00163474, 1.87232, 62.6407, 30.6544, 6.0614, 1.66919, 3.87607, 0.0357776, -8.32546e-05, -0.000730657, 0.00196573, 0.00163968, -0.00160298, -0.000146211, 0.0123228, -0.0223511, -0.0190662, -0.0546195, 0.0524905, 0.0300221, 0.471001, -0.542704, 0.336072, -2.08334, -2.16571, -0.129938, 0.470203, -0.542513, 0.334141, -2.08315, -2.16614, -0.126508, -0.000304912, 0.0223506, 0.00574509, 0.0217655, 0.0140456, -0.015676
0.10318, 1.69329, -1.22724, -1.54051, -0.900105, -1.19338, 1.23044, -1.30268, 0.0590709, 0.00359954, -0.0459999, -0.000570365, -0.0299873, 0.00588068, -0.00163474, 1.87232, 62.6407, 30.6544, 6.0614, 1.66919, 3.87607, 0.0357776, -0.000106242, -0.000731079, 0.00196795, 0.00163032, -0.00161433, -0.000141007, 0.0127994, -0.0223457, -0.0191081, -0.0545374, 0.0528287, 0.0300577, 0.471001, -0.542682, 0.336078, -2.08333, -2.16571, -0.12994, 0.470203, -0.542513, 0.334141, -2.08315, -2.16614, -0.126508, -0.000315023, 0.0228145, 0.00586078, 0.0217655, 0.0140456, -0.015676
0.10418, 1.69329, -1.22724, -1.54051, -0.900105, -1.19338, 1.23044, -1.30268, 0.0590709, 0.00359954, -0.0459999, -0.000570365, -0.0299873, 0.00588068, -0.00163474, 1.87232, 62.6407, 30.6544, 6.0614, 1.66919, 3.87607, 0.0357776, -0.000129707, -0.000731507, 0.00197021, 0.00162077, -0.00162592, -0.000135701, 0.0132802, -0.0223405, -0.0191503, -0.0544543, 0.0531698, 0.0300937, 0.471001, -0.542659, 0.336084, -2.08331, -2.1657, -0.129941, 0.470203, -0.542513, 0.334141, -2.08315, -2.16614, -0.126508, -0.000325348, 0.0232823, 0.00597737, 0.0217655, 0.0140456, -0.015676
0.10518, 1.69329, -1.22724, -1.54051, -0.900105, -1.19338, 1.23044, -1.30268, 0.0590709, 0.00359954, -0.0459999, -0.000570365, -0.0299873, 0.00588068, -0.00163474, 1.87232, 62.6407, 30.6544, 6.0614, 1.66919, 3.87607, 0.0357776, -0.000153652, -0.00073194, 0.00197252, 0.00161102, -0.00163774, -0.000130292, 0.013765, -0.0223353, -0.0191927, -0.0543702, 0.0535136, 0.0301299, 0.471, -0.542636, 0.33609, -2.08329, -2.1657, -0.129943, 0.470203, -0.542513, 0.334141, -2.08315, -2.16614, -0.126508, -0.000335889, 0.0237543, 0.00609484, 0.0217655, 0.0140456, -0.015676
0.10618, 1.6935, -1.22722, -1.54069, -0.90012, -1.19352, 1.23046, -1.30268, 0.0599964, 0.00383303, -0.0411, -0.00187233, -0.0331329, 0.00265802, 0.000164365, 1.45576, 62.3828, 30.5036, 6.32324, 1.64447, 3.8193, 0.0101428, -0.00014291, -0.000651836, 0.00203783, 0.00185065, -0.00182111, -0.000213858, 0.0126981, -0.0230526, -0.0178695, -0.0549988, 0.0549124, 0.0317205, 0.471, -0.542612, 0.336096, -2.08328, -2.16569, -0.129945, 0.47028, -0.542465, 0.334082, -2.08301, -2.16624, -0.126066, -0.000346646, 0.0242302, 0.00621319, 0.0224809, 0.0154006, -0.0141073
0.10718, 1.69356, -1.22722, -1.54073, -0.90012, -1.19356, 1.23047, -1.30268, 0.057484, 0.00666267, -0.0388817, -0.00109095, -0.0293756, 0.00298676, 0.000109576, 1.305, 62.3431, 30.4322, 6.32324, 1.63898, 3.79001, 0.0101428, -0.000158926, -0.000630338, 0.00205607, 0.00189888, -0.0018761, -0.000232198, 0.0131025, -0.0222854, -0.0151928, -0.0499352, 0.0548741, 0.0309143, 0.471, -0.542588, 0.336102, -2.08326, -2.16569, -0.129946, 0.470301, -0.542453, 0.334067, -2.08297, -2.16626, -0.12596, -0.000357622, 0.0247101, 0.00633241, 0.0218157, 0.0150371, -0.0113852
0.10818, 1.69361, -1.22721, -1.54078, -0.900131, -1.1936, 1.23047, -1.30267, 0.0555832, 0.00554058, -0.0430311, -0.00404302, -0.0307518, 0.00286832, 0.00129375, 1.26533, 62.3074, 30.4679, 6.47003, 1.63898, 3.76895, -0.0228162, -0.000177337, -0.00061217, 0.00207627, 0.0019567, -0.00193666, -0.00024462, 0.014798, -0.0209835, -0.0176856, -0.0554205, 0.0556525, 0.0280458, 0.470999, -0.542563, 0.336109, -2.08324, -2.16568, -0.129948, 0.470319, -0.542443, 0.33405, -2.08294, -2.16628, -0.125838, -0.000368819, 0.025194, 0.00645249, 0.0204742, 0.0141786, -0.0139509
0.10918, 1.69367, -1.22721, -1.54082, -0.900131, -1.19364, 1.23047, -1.30268, 0.0540318, 0.00565464, -0.0400529, -0.00353491, -0.0315573, 0.00171389, -0.00130764, 1.11457, 62.2321, 30.3925, 6.5097, 1.61426, 3.77627, 0.0357776, -0.000193368, -0.000592964, 0.0020925, 0.00201022, -0.00199149, -0.000268956, 0.0155477, -0.0202154, -0.0165539, -0.0536166, 0.0559219, 0.0298658, 0.470999, -0.542538, 0.336115, -2.08322, -2.16568, -0.12995, 0.470337, -0.54243, 0.334037, -2.0829, -2.16632, -0.125727, -0.000380238, 0.0256818, 0.00657343, 0.0197638, 0.0137205, -0.0128062
0.11018, 1.69372, -1.2272, -1.54086, -0.900136, -1.19369, 1.23047, -1.30267, 0.0542248, 0.00475324, -0.0379396, -0.00405349, -0.0366059, 0.00146857, 0.00129838, 1.03919, 62.1964, 30.3211, 6.58508, 1.61426, 3.76895, -0.0228162, -0.000211204, -0.00057445, 0.00211011, 0.00206228, -0.00204716, -0.000276602, 0.0164303, -0.0202102, -0.0164787, -0.0545917, 0.0593164, 0.0272905, 0.470999, -0.542512, 0.336122, -2.0832, -2.16567, -0.129952, 0.470356, -0.542418, 0.334023, -2.08287, -2.16633, -0.125616, -0.000391882, 0.0261735, 0.00669522, 0.0197813, 0.0133295, -0.0127478
0.11118, 1.69377, -1.2272, -1.54089, -0.90014, -1.19373, 1.23048, -1.30267, 0.0503083, 0.00411524, -0.0373489, -0.00348779, -0.0367781, 0.00183388, 0.000628229, 1.00349, 62.1606, 30.2814, 6.62079, 1.60785, 3.74698, -0.0164075, -0.000232084, -0.000557709, 0.00212643, 0.00210974, -0.00210708, -0.000291794, 0.0188577, -0.0180444, -0.0163698, -0.0529272, 0.0591536, 0.0238749, 0.470998, -0.542486, 0.336128, -2.08318, -2.16567, -0.129954, 0.470372, -0.54241, 0.33401, -2.08284, -2.16636, -0.125506, -0.000403753, 0.0266691, 0.00681784, 0.0176976, 0.0113233, -0.0128298
0.11218, 1.69383, -1.2272, -1.54093, -0.900146, -1.19377, 1.23048, -1.30268, 0.0524042, 0.00282689, -0.0328515, -0.00405111, -0.0360325, 0.00125336, -0.00178523, 0.888436, 62.1606, 30.206, 6.69617, 1.57764, 3.74698, 0.0431018, -0.000248551, -0.000535634, 0.00214208, 0.00215403, -0.00216512, -0.000319678, 0.017246, -0.020136, -0.015818, -0.0497622, 0.0571534, 0.0313216, 0.470998, -0.542459, 0.336135, -2.08317, -2.16566, -0.129956, 0.470394, -0.542396, 0.333998, -2.0828, -2.1664, -0.125403, -0.000415851, 0.0271686, 0.0069413, 0.0197365, 0.0134152, -0.0119748
0.11318, 1.69388, -1.22719, -1.54096, -0.900152, -1.19381, 1.23048, -1.30267, 0.0508484, 0.00371038, -0.0344908, -0.00443599, -0.039566, 0.00109601, 0.00125125, 0.777352, 62.0853, 30.206, 6.77154, 1.56482, 3.74057, -0.0228162, -0.000267913, -0.000517431, 0.00215656, 0.00220387, -0.00222802, -0.00033121, 0.0192823, -0.0186116, -0.0159051, -0.0527477, 0.0613168, 0.0251432, 0.470997, -0.542432, 0.336142, -2.08315, -2.16566, -0.129958, 0.470412, -0.542385, 0.333987, -2.08277, -2.16642, -0.125287, -0.000428179, 0.027672, 0.00706559, 0.0182717, 0.0118595, -0.0122075
0.11418, 1.69392, -1.22718, -1.541, -0.900157, -1.19386, 1.23048, -1.30268, 0.0479604, 0.00640395, -0.0323211, -0.00460677, -0.0395443, 0.000239358, -0.00109861, 0.737679, 62.0496, 30.206, 6.84296, 1.57123, 3.7543, 0.0293689, -0.000289402, -0.000502457, 0.00216913, 0.00225034, -0.00228949, -0.00034689, 0.0202389, -0.0172039, -0.0135415, -0.0508974, 0.0637073, 0.0258279, 0.470997, -0.542404, 0.336149, -2.08313, -2.16565, -0.12996, 0.470426, -0.542376, 0.333978, -2.08274, -2.16645, -0.125177, -0.000440739, 0.0281791, 0.00719069, 0.0169739, 0.0109999, -0.00985516
0.11518, 1.69397, -1.22717, -1.54103, -0.900165, -1.1939, 1.23048, -1.30267, 0.0474535, 0.00781813, -0.0305614, -0.00574669, -0.0422455, 0.000172554, 0.000963014, 0.626595, 62.0496, 30.206, 6.95801, 1.56482, 3.7543, -0.0164075, -0.000307731, -0.00048267, 0.00218262, 0.00229702, -0.0023518, -0.000366143, 0.0206786, -0.0171376, -0.0122656, -0.0509174, 0.0676402, 0.0242219, 0.470997, -0.542376, 0.336156, -2.08311, -2.16564, -0.129962, 0.470446, -0.542363, 0.333968, -2.08271, -2.16648, -0.125066, -0.000453532, 0.0286901, 0.0073166, 0.0169574, 0.0108775, -0.00853635
0.11618, 1.69402, -1.22717, -1.54105, -0.90017, -1.19395, 1.23048, -1.30268, 0.0463807, 0.00802591, -0.0261915, -0.00548976, -0.0404188, 0.000124773, -0.00156204, 0.551216, 62.0853, 30.206, 7.02942, 1.56482, 3.7543, 0.0431018, -0.000329619, -0.000466772, 0.00219419, 0.00233418, -0.00240973, -0.000385173, 0.0204632, -0.0174384, -0.0105522, -0.0458874, 0.0663538, 0.0282056, 0.470996, -0.542347, 0.336164, -2.08308, -2.16564, -0.129964, 0.470462, -0.542353, 0.33396, -2.08268, -2.16651, -0.12497, -0.00046656, 0.0292049, 0.00744332, 0.0172995, 0.011353, -0.00669407
0.11718, 1.69407, -1.22715, -1.54107, -0.900175, -1.19399, 1.23048, -1.30267, 0.0489449, 0.00857884, -0.023808, -0.00541422, -0.0390502, -0.00045205, 0.000416703, 0.325081, 61.9742, 30.2457, 7.1048, 1.54651, 3.76895, 0.00373412, -0.000346423, -0.000445787, 0.00220013, 0.00237574, -0.00248043, -0.000407294, 0.0189971, -0.0193145, -0.00960312, -0.0438793, 0.0657956, 0.030322, 0.470996, -0.542318, 0.336171, -2.08306, -2.16563, -0.129966, 0.470482, -0.542339, 0.333959, -2.08265, -2.16655, -0.124857, -0.000479825, 0.0297235, 0.00757084, 0.0191418, 0.01325, -0.0054589
0.11818, 1.69411, -1.22715, -1.54109, -0.90018, -1.19404, 1.23048, -1.30268, 0.046301, 0.00825528, -0.019231, -0.00536607, -0.0420416, -2.46225e-05, -0.000908992, 0.285408, 62.0139, 30.1703, 7.18018, 1.5401, 3.76163, 0.0357776, -0.000368574, -0.000429508, 0.00220862, 0.0024045, -0.0025387, -0.000428276, 0.0204361, -0.0183718, -0.00803033, -0.0403967, 0.0681255, 0.030242, 0.470995, -0.542288, 0.336179, -2.08304, -2.16563, -0.129968, 0.470499, -0.542329, 0.333954, -2.08262, -2.16659, -0.12477, -0.000493328, 0.0302458, 0.00769914, 0.0182962, 0.0120704, -0.00397355
0.11918, 1.69416, -1.22715, -1.54111, -0.900175, -1.19408, 1.23048, -1.30268, 0.0438675, 0.00571565, -0.0178423, -0.00180916, -0.04125, -0.000283575, -0.000368636, 0.134651, 62.1606, 30.1703, 7.1048, 1.54651, 3.76895, 0.0293689, -0.000391583, -0.000412494, 0.00222077, 0.00243636, -0.0025891, -0.000438257, 0.0228794, -0.0165415, -0.00847646, -0.0370923, 0.0647244, 0.0252006, 0.470995, -0.542258, 0.336186, -2.08302, -2.16562, -0.129971, 0.470516, -0.542319, 0.333945, -2.08259, -2.16661, -0.124687, -0.000507072, 0.0307718, 0.00782823, 0.0165261, 0.0101783, -0.0046101
0.12018, 1.6942, -1.22714, -1.54113, -0.90018, -1.19413, 1.23048, -1.30267, 0.0401195, 0.00451663, -0.0183688, -0.00296561, -0.0409435, -0.000185969, 0.000466319, 0.059273, 62.1606, 30.2457, 7.18018, 1.55932, 3.76895, 0.0101428, -0.000417253, -0.000398302, 0.00222901, 0.00246897, -0.0026553, -0.000446097, 0.0249189, -0.0146741, -0.00936777, -0.0372957, 0.0637298, 0.0215904, 0.470994, -0.542227, 0.336194, -2.083, -2.16561, -0.129973, 0.47053, -0.542311, 0.333941, -2.08258, -2.16664, -0.124586, -0.000521058, 0.0313016, 0.00795809, 0.0146881, 0.00875575, -0.00562141
0.12118, 1.69424, -1.22714, -1.54115, -0.900186, -1.19417, 1.23048, -1.30267, 0.0424492, 0.00405131, -0.0162835, -0.00373751, -0.043451, 0.000149599, -0.000163838, -0.0914839, 62.2717, 30.3568, 7.25555, 1.55292, 3.76163, 0.0229602, -0.000441296, -0.000381388, 0.00224095, 0.0025004, -0.00271182, -0.00046367, 0.0243403, -0.0163053, -0.00914693, -0.0370127, 0.0658784, 0.025413, 0.470994, -0.542196, 0.336202, -2.08297, -2.16561, -0.129975, 0.470547, -0.542301, 0.333933, -2.08255, -2.16667, -0.124498, -0.000535288, 0.031835, 0.00808872, 0.0162902, 0.00989381, -0.00523304
0.12218, 1.69428, -1.22713, -1.54115, -0.900188, -1.19422, 1.23048, -1.30267, 0.0408551, 0.00815078, -0.0142691, -0.00332479, -0.0427963, 0.000372733, 0.000602851, -0.242241, 62.1964, 30.3211, 7.29126, 1.57123, 3.7543, 0.00373412, -0.000465412, -0.000365429, 0.00224173, 0.00252189, -0.00278292, -0.000479545, 0.024812, -0.0157103, -0.00590538, -0.0338554, 0.069707, 0.0238611, 0.470993, -0.542164, 0.33621, -2.08295, -2.1656, -0.129978, 0.470563, -0.542292, 0.333936, -2.08253, -2.16672, -0.124406, -0.000549763, 0.0323721, 0.00822011, 0.0158172, 0.00944029, -0.00195707
0.12318, 1.69433, -1.22713, -1.54116, -0.900188, -1.19426, 1.23048, -1.30268, 0.0405263, 0.00441538, -0.0145808, -0.00221495, -0.0403322, -2.14792e-05, -0.00129352, -0.43267, 62.2717, 30.3568, 7.29126, 1.56482, 3.76163, 0.0495105, -0.000489328, -0.000347687, 0.00224998, 0.00254487, -0.00283827, -0.000503062, 0.0257292, -0.0154925, -0.00812365, -0.0329659, 0.0640748, 0.025243, 0.470993, -0.542132, 0.336219, -2.08293, -2.16559, -0.12998, 0.470581, -0.542282, 0.333932, -2.0825, -2.16676, -0.12433, -0.000564485, 0.0329128, 0.00835225, 0.0155368, 0.00940975, -0.0041519
0.12418, 1.69433, -1.22713, -1.54116, -0.900188, -1.19426, 1.23048, -1.30268, 0.0405263, 0.00441538, -0.0145808, -0.00221495, -0.0403322, -2.14792e-05, -0.00129352, -0.43267, 62.2717, 30.3568, 7.29126, 1.56482, 3.76163, 0.0495105, -0.000523175, -0.000348199, 0.00225311, 0.00253105, -0.00285504, -0.000495562, 0.026288, -0.0154889, -0.00816954, -0.032863, 0.0644684, 0.025285, 0.470992, -0.542099, 0.336227, -2.0829, -2.16559, -0.129982, 0.470581, -0.542282, 0.333932, -2.0825, -2.16676, -0.12433, -0.000579456, 0.0334572, 0.00848514, 0.0155368, 0.00940975, -0.0041519
0.12518, 1.69433, -1.22713, -1.54116, -0.900188, -1.19426, 1.23048, -1.30268, 0.0405263, 0.00441538, -0.0145808, -0.00221495, -0.0403322, -2.14792e-05, -0.00129352, -0.43267, 62.2717, 30.3568, 7.29126, 1.56482, 3.76163, 0.0495105, -0.000557581, -0.000348715, 0.0022563, 0.002517, -0.00287208, -0.000487948, 0.0268506, -0.0154855, -0.00821555, -0.0327591, 0.0648644, 0.0253273, 0.470991, -0.542066, 0.336235, -2.08288, -2.16558, -0.129985, 0.470581, -0.542282, 0.333932, -2.0825, -2.16676, -0.12433, -0.000594677, 0.0340052, 0.00861877, 0.0155368, 0.00940975, -0.0041519
0.12618, 1.69445, -1.22712, -1.54118, -0.900191, -1.1944, 1.23048, -1.30268, 0.0420589, -0.000634054, -0.0112819, -0.00118038, -0.04266, -0.000336444, -0.00112172, -0.845268, 62.4185, 30.4322, 7.33093, 1.58313, 3.76895, 0.0431018, -0.000569679, -0.000301156, 0.00227105, 0.00260376, -0.00300989, -0.000539713, 0.0272543, -0.0164661, -0.0100256, -0.0313003, 0.0617308, 0.0267067, 0.470991, -0.542032, 0.336244, -2.08286, -2.16557, -0.129987, 0.470627, -0.542255, 0.333922, -2.08245, -2.16685, -0.124101, -0.000610151, 0.0345567, 0.00875313, 0.0164488, 0.0098834, -0.00589823
0.12718, 1.69448, -1.22712, -1.54119, -0.900196, -1.19445, 1.23048, -1.30267, 0.0419639, 0.000648164, -0.00915527, -0.00254966, -0.0418491, 0.00031865, 0.000710252, -0.920646, 62.3828, 30.4679, 7.40631, 1.59595, 3.7543, 0.00373412, -0.000597115, -0.000285657, 0.00227461, 0.00262117, -0.00307563, -0.000550554, 0.0268029, -0.0172785, -0.00869266, -0.0289079, 0.063047, 0.0272919, 0.47099, -0.541997, 0.336253, -2.08283, -2.16557, -0.12999, 0.470643, -0.542247, 0.333923, -2.08244, -2.16688, -0.124019, -0.000625878, 0.0351119, 0.00888822, 0.0172771, 0.010712, -0.00440233
0.12818, 1.69453, -1.22711, -1.54119, -0.900196, -1.19449, 1.23048, -1.30268, 0.0445485, 0.0045839, -0.00753781, -0.00763798, -0.0443869, 0.000721368, -0.00169664, -1.11108, 62.3431, 30.5036, 7.36664, 1.60144, 3.74057, 0.0623279, -0.000622199, -0.000266411, 0.00227627, 0.00263452, -0.00314082, -0.000576581, 0.0245523, -0.0198628, -0.00665773, -0.0306945, 0.0700672, 0.0366089, 0.47099, -0.541962, 0.336262, -2.0828, -2.16556, -0.129992, 0.470662, -0.542235, 0.333925, -2.08241, -2.16694, -0.123943, -0.00064186, 0.0356705, 0.00902402, 0.0198355, 0.013285, -0.00198647
0.12918, 1.69457, -1.2271, -1.54119, -0.900194, -1.19454, 1.23049, -1.30267, 0.0455203, 0.00427762, -0.00547452, -0.0048287, -0.0471255, 0.000752411, 0.00178503, -1.26183, 62.3074, 30.5036, 7.33093, 1.62616, 3.73324, -0.0164075, -0.000648222, -0.0002475, 0.00227789, 0.00264596, -0.00320507, -0.000586618, 0.0256738, -0.0198452, -0.00580796, -0.0288658, 0.0720843, 0.0317523, 0.470989, -0.541926, 0.336271, -2.08278, -2.16555, -0.129995, 0.470681, -0.542224, 0.333928, -2.0824, -2.16697, -0.123869, -0.000658099, 0.0362327, 0.00916054, 0.0198735, 0.0126083, -0.00118603
0.13018, 1.69461, -1.2271, -1.54119, -0.900197, -1.19459, 1.23049, -1.30268, 0.0415509, 0.0031416, -0.00398666, -0.0044833, -0.0445307, 0.00104432, -0.00125138, -1.33721, 62.3074, 30.5036, 7.36664, 1.62067, 3.7186, 0.0495105, -0.000675994, -0.000229868, 0.00228285, 0.00265807, -0.00326476, -0.000612312, 0.0274357, -0.0181674, -0.00571461, -0.0253188, 0.0691192, 0.0322115, 0.470988, -0.54189, 0.33628, -2.08275, -2.16554, -0.129998, 0.470699, -0.542214, 0.333928, -2.08237, -2.16702, -0.123801, -0.000674597, 0.0367984, 0.00929776, 0.0182485, 0.0113514, -0.00118065
0.13118, 1.69465, -1.2271, -1.5412, -0.900199, -1.19463, 1.23049, -1.30267, 0.0375825, 0.00607765, -0.00467375, -0.0042386, -0.0429072, 0.00069634, 0.000149088, -1.37688, 62.2717, 30.579, 7.40631, 1.64447, 3.7186, 0.0229602, -0.000705845, -0.000214857, 0.00228633, 0.00267565, -0.00333092, -0.000622632, 0.0293684, -0.0158273, -0.00406456, -0.0243725, 0.0708516, 0.026877, 0.470988, -0.541853, 0.336289, -2.08273, -2.16554, -0.13, 0.470714, -0.542205, 0.333928, -2.08236, -2.16706, -0.123718, -0.000691354, 0.0373675, 0.00943568, 0.0160253, 0.00966121, 0.000355993
0.13218, 1.69469, -1.22709, -1.5412, -0.900205, -1.19468, 1.23049, -1.30267, 0.0369716, 0.00774691, -0.00590384, -0.00473746, -0.0460837, 0.00619889, 0.00057411, -1.37688, 62.2717, 30.6901, 7.47772, 1.63898, 3.69754, 0.0101428, -0.000736224, -0.00019924, 0.00229279, 0.0026925, -0.00339223, -0.000635804, 0.0313785, -0.015996, -0.00311483, -0.0220291, 0.0783584, 0.0246602, 0.470987, -0.541816, 0.336299, -2.0827, -2.16553, -0.130003, 0.47073, -0.542196, 0.333926, -2.08234, -2.16709, -0.123641, -0.000708374, 0.0379402, 0.00957429, 0.0162843, 0.0081101, 0.00111274
0.13318, 1.69473, -1.22709, -1.54119, -0.900202, -1.19472, 1.23049, -1.30267, 0.041666, 0.00407361, -0.000644386, -0.00250405, -0.0433572, 0.00508809, -0.000329337, -1.45226, 62.3431, 30.5433, 7.44202, 1.64447, 3.68289, 0.0293689, -0.000762618, -0.000177642, 0.0022955, 0.00269251, -0.00344732, -0.000662397, 0.029135, -0.0192275, -0.00349799, -0.0169946, 0.0719365, 0.0317884, 0.470986, -0.541778, 0.336308, -2.08267, -2.16552, -0.130006, 0.470752, -0.542183, 0.333928, -2.08231, -2.16714, -0.123591, -0.000725657, 0.0385162, 0.00971358, 0.0193994, 0.011094, 0.0011236
0.13418, 1.69478, -1.2271, -1.5412, -0.900202, -1.19477, 1.23049, -1.30267, 0.0415436, 0.00138708, -0.00313467, -0.000969873, -0.0417411, 0.00397305, 0.000729878, -1.48797, 62.4185, 30.6544, 7.40631, 1.66369, 3.67557, 0.00373412, -0.00079477, -0.00016132, 0.00230511, 0.00270988, -0.0035042, -0.0006759, 0.0305757, -0.0184011, -0.00588667, -0.0187585, 0.0678316, 0.0287007, 0.470985, -0.541739, 0.336318, -2.08264, -2.16551, -0.130009, 0.470768, -0.542174, 0.333923, -2.08229, -2.16717, -0.123518, -0.000743204, 0.0390957, 0.00985355, 0.0185207, 0.0105872, -0.00129494
0.13518, 1.69482, -1.22709, -1.5412, -0.900205, -1.19481, 1.23049, -1.30268, 0.0411442, 0.00208587, -0.00133453, -0.000748374, -0.0449039, 0.00315226, -0.00144619, -1.52764, 62.3828, 30.6186, 7.40631, 1.65088, 3.66824, 0.0559192, -0.000821775, -0.000140245, 0.00230718, 0.00271937, -0.00356865, -0.000707568, 0.0315165, -0.0179241, -0.00490172, -0.0190311, 0.0709814, 0.0301277, 0.470985, -0.5417, 0.336328, -2.08262, -2.1655, -0.130011, 0.470789, -0.54216, 0.333926, -2.08225, -2.16723, -0.123448, -0.000761018, 0.0396786, 0.00999418, 0.0180969, 0.0100697, -0.000314885
0.13618, 1.69487, -1.22709, -1.5412, -0.900205, -1.19485, 1.23049, -1.30267, 0.04391, 0.000799813, -0.00178488, -0.00057526, -0.042159, 0.00332688, 0.00120601, -1.56335, 62.4185, 30.6544, 7.40631, 1.65088, 3.63986, -0.00267457, -0.00085047, -0.000119436, 0.0023144, 0.00273138, -0.00362524, -0.000721262, 0.0306271, -0.0197195, -0.00597446, -0.0183301, 0.0680661, 0.0308242, 0.470984, -0.541661, 0.336338, -2.08259, -2.1655, -0.130014, 0.47081, -0.542147, 0.333924, -2.08223, -2.16727, -0.123382, -0.000779099, 0.0402649, 0.0101355, 0.0198003, 0.0117746, -0.00115001
0.13718, 1.69491, -1.22709, -1.54119, -0.900206, -1.1949, 1.2305, -1.30268, 0.0444558, 0.000716546, 0.000528336, -0.000440765, -0.0422857, 0.00312848, -0.00136613, -1.52764, 62.4185, 30.579, 7.40631, 1.68201, 3.6188, 0.0559192, -0.000882199, -0.000100113, 0.00231762, 0.00273524, -0.00369051, -0.000745667, 0.0305579, -0.0203529, -0.00527878, -0.0164534, 0.0682629, 0.0349324, 0.470983, -0.54162, 0.336348, -2.08256, -2.16549, -0.130017, 0.47083, -0.542137, 0.333925, -2.08221, -2.16732, -0.123317, -0.00079745, 0.0408545, 0.0102774, 0.0204378, 0.0123515, -0.000330863
0.13818, 1.69496, -1.2271, -1.54119, -0.900208, -1.19494, 1.2305, -1.30267, 0.0428344, -0.00198326, 0.000318487, -0.000336787, -0.0452624, 0.00245492, 0.00102202, -1.52764, 62.5296, 30.579, 7.40631, 1.66919, 3.61148, 0.00373412, -0.000911654, -7.83381e-05, 0.00232793, 0.00274557, -0.00374097, -0.00076774, 0.0327355, -0.0189728, -0.00694491, -0.0184175, 0.068065, 0.0298541, 0.470982, -0.541579, 0.336358, -2.08253, -2.16548, -0.13002, 0.470851, -0.542122, 0.33392, -2.08218, -2.16736, -0.123259, -0.000816072, 0.0414475, 0.01042, 0.0190583, 0.0109963, -0.00213151
0.13918, 1.695, -1.22709, -1.5412, -0.900206, -1.19499, 1.2305, -1.30268, 0.043437, 0.000544195, -0.000740997, 0.000671288, -0.0469333, 0.00225265, -0.00101407, -1.48797, 62.4542, 30.6186, 7.36664, 1.66919, 3.59683, 0.0495105, -0.00094339, -5.85499e-05, 0.00233139, 0.00275652, -0.00380811, -0.000792039, 0.0336712, -0.0186253, -0.00578693, -0.0195799, 0.0722812, 0.0305337, 0.470982, -0.541538, 0.336369, -2.0825, -2.16547, -0.130023, 0.470871, -0.542111, 0.333921, -2.08215, -2.16741, -0.123185, -0.000834967, 0.0420438, 0.0105633, 0.018769, 0.0104758, -0.000981393
0.14018, 1.69506, -1.22709, -1.5412, -0.900206, -1.19503, 1.2305, -1.30267, 0.0428989, -0.000395076, -0.00218341, -0.00294906, -0.049242, 0.00182815, 0.000544656, -1.52764, 62.4899, 30.6901, 7.36664, 1.66919, 3.58951, 0.0165515, -0.000971974, -3.39518e-05, 0.00234168, 0.00276842, -0.003861, -0.000814036, 0.034253, -0.0185552, -0.0074085, -0.0238758, 0.0738578, 0.0302161, 0.470981, -0.541496, 0.336379, -2.08247, -2.16546, -0.130026, 0.470896, -0.542094, 0.333917, -2.08212, -2.16745, -0.123123, -0.000854135, 0.0426434, 0.0107072, 0.0186413, 0.0107497, -0.00252809
0.14118, 1.6951, -1.22709, -1.5412, -0.900211, -1.19507, 1.2305, -1.30268, 0.0428777, -0.000205375, -0.000634622, -0.00319322, -0.0407631, 0.00153138, -0.000857599, -1.45226, 62.4899, 30.6544, 7.40631, 1.65729, 3.58218, 0.0495105, -0.00100185, -1.20687e-05, 0.00234734, 0.00277726, -0.00392018, -0.000846722, 0.032757, -0.0197651, -0.00686392, -0.0188129, 0.0672975, 0.0354249, 0.47098, -0.541453, 0.33639, -2.08244, -2.16545, -0.130029, 0.470917, -0.542079, 0.333916, -2.08208, -2.1675, -0.12306, -0.000873578, 0.0432462, 0.0108517, 0.0197962, 0.0127955, -0.00165067
0.14218, 1.69516, -1.2271, -1.5412, -0.900212, -1.19511, 1.2305, -1.30268, 0.0464293, -0.00102143, -0.000433756, -0.00235318, -0.0397673, 0.00183182, -0.000809092, -1.48797, 62.5296, 30.6544, 7.40631, 1.65088, 3.56112, 0.0559192, -0.00102956, 1.48057e-05, 0.00235562, 0.00278473, -0.00397503, -0.000881028, 0.0319148, -0.0217856, -0.00736601, -0.0180108, 0.0662804, 0.0386395, 0.470979, -0.54141, 0.336401, -2.08241, -2.16544, -0.130032, 0.470944, -0.542061, 0.333914, -2.08203, -2.16756, -0.123003, -0.000893298, 0.0438524, 0.0109968, 0.0217454, 0.0143951, -0.00193308
0.14318, 1.6952, -1.2271, -1.5412, -0.900214, -1.19515, 1.2305, -1.30267, 0.0460078, -0.00324678, -0.00113239, -0.000809037, -0.0352294, 0.000701935, 0.00139339, -1.30151, 62.6407, 30.6901, 7.36664, 1.66919, 3.57577, 0.00373412, -0.00106467, 3.27384e-05, 0.00236681, 0.00279492, -0.00402405, -0.000890625, 0.0325252, -0.0214242, -0.00883738, -0.0167605, 0.0601237, 0.0359329, 0.470978, -0.541366, 0.336412, -2.08237, -2.16543, -0.130036, 0.470962, -0.542049, 0.333908, -2.08201, -2.16759, -0.122946, -0.000913297, 0.0444617, 0.0111426, 0.0213323, 0.0146155, -0.00332515
0.144181, 1.69525, -1.2271, -1.5412, -0.900215, -1.19519, 1.2305, -1.30268, 0.0441591, -0.000376809, -0.00168895, -0.000665563, -0.0311414, 0.000756665, -0.00147857, -1.30151, 62.5653, 30.7297, 7.36664, 1.68201, 3.56845, 0.0687366, -0.00109564, 5.57151e-05, 0.00237121, 0.00280391, -0.00408713, -0.000923132, 0.0330611, -0.0206724, -0.00727478, -0.0145803, 0.0600586, 0.0379428, 0.470977, -0.541322, 0.336423, -2.08234, -2.16542, -0.130039, 0.470985, -0.542034, 0.333909, -2.08197, -2.16764, -0.122878, -0.000933575, 0.0450743, 0.0112889, 0.0206385, 0.0144263, -0.0016977
0.145181, 1.6953, -1.2271, -1.5412, -0.90021, -1.19523, 1.2305, -1.30268, 0.0482186, -0.000232851, 0.000632765, 0.00122488, -0.0325772, 0.00106006, 0.00118442, -1.26183, 62.5653, 30.6544, 7.29126, 1.6756, 3.5538, 0.0101428, -0.00112789, 7.83836e-05, 0.00237504, 0.00279983, -0.00414001, -0.000943829, 0.032263, -0.0228273, -0.00633887, -0.0125406, 0.0617864, 0.0383137, 0.470976, -0.541277, 0.336434, -2.08231, -2.16541, -0.130042, 0.471007, -0.542019, 0.333911, -2.08195, -2.16769, -0.122835, -0.000954135, 0.0456901, 0.0114359, 0.0227759, 0.0157749, -0.000569812
0.146181, 1.69535, -1.22711, -1.5412, -0.900218, -1.19526, 1.2305, -1.30268, 0.0484111, -0.00273992, 0.000418466, -0.00357779, -0.0327053, -9.7285e-05, -0.000668447, -1.22613, 62.6764, 30.6544, 7.33093, 1.66919, 3.57577, 0.0495105, -0.00115749, 0.000103788, 0.00238886, 0.00281021, -0.00418185, -0.000984326, 0.0315718, -0.0237884, -0.00871925, -0.0161954, 0.0597051, 0.0445115, 0.470975, -0.541231, 0.336446, -2.08228, -2.1654, -0.130045, 0.471032, -0.541999, 0.333903, -2.08189, -2.16774, -0.122788, -0.000974976, 0.0463091, 0.0115835, 0.0236018, 0.0174855, -0.00269505
0.147181, 1.6954, -1.2271, -1.5412, -0.900218, -1.19529, 1.23051, -1.30268, 0.0474336, 0.000782164, 0.000276444, -0.00531025, -0.0326921, 0.000213769, -0.000445631, -1.15075, 62.5653, 30.6544, 7.29126, 1.65729, 3.56845, 0.0495105, -0.00118933, 0.000127697, 0.00239118, 0.00280959, -0.0042428, -0.001009, 0.0318579, -0.0235941, -0.00690673, -0.0162829, 0.0639329, 0.0447592, 0.470974, -0.541185, 0.336457, -2.08224, -2.16539, -0.130049, 0.471056, -0.541983, 0.333907, -2.08186, -2.16779, -0.122733, -0.000996102, 0.0469312, 0.0117316, 0.0234643, 0.0175369, -0.000797389
0.148181, 1.69545, -1.2271, -1.5412, -0.900219, -1.19532, 1.2305, -1.30267, 0.0505894, -0.000306032, 0.000182396, -0.0066311, -0.0349868, -0.000123236, 0.000923616, -1.11108, 62.601, 30.6544, 7.25555, 1.68201, 3.57577, 0.0165515, -0.00122077, 0.00015189, 0.00239882, 0.00281613, -0.00429367, -0.00103437, 0.0312425, -0.0253419, -0.00800639, -0.0188015, 0.0652388, 0.0469211, 0.470973, -0.541138, 0.336469, -2.08221, -2.16538, -0.130052, 0.47108, -0.541965, 0.333905, -2.08182, -2.16783, -0.12268, -0.00101751, 0.0475565, 0.0118804, 0.0251254, 0.0190133, -0.00169336
0.149181, 1.69549, -1.2271, -1.54119, -0.90022, -1.19535, 1.23051, -1.30268, 0.0480284, -0.000198214, 0.000955391, -0.00418337, -0.0349338, 0.000735784, -0.000604959, -0.996025, 62.601, 30.6186, 7.21588, 1.6875, 3.5538, 0.0495105, -0.00125575, 0.000174119, 0.00240377, 0.00281049, -0.00434685, -0.00106557, 0.0336603, -0.0236566, -0.00716496, -0.0156639, 0.0658272, 0.0442139, 0.470972, -0.54109, 0.336481, -2.08218, -2.16537, -0.130056, 0.471103, -0.54195, 0.333906, -2.08179, -2.16789, -0.122639, -0.00103921, 0.0481849, 0.0120297, 0.0235395, 0.0170553, -0.00104038
0.150181, 1.69554, -1.2271, -1.5412, -0.900223, -1.19538, 1.2305, -1.30268, 0.044967, -0.00105581, -0.00103458, -0.0033069, -0.0306498, -4.89081e-05, 0.00105476, -0.960319, 62.6407, 30.6901, 7.21588, 1.68201, 3.56845, 0.0101428, -0.00128773, 0.000197698, 0.00241275, 0.00281692, -0.00439175, -0.00109294, 0.0354979, -0.0217461, -0.00821186, -0.015148, 0.0614841, 0.0393004, 0.470971, -0.541042, 0.336493, -2.08214, -2.16536, -0.130059, 0.471126, -0.541931, 0.333903, -2.08174, -2.16793, -0.122593, -0.0010612, 0.0488164, 0.0121795, 0.0216376, 0.0159567, -0.00215335
0.151181, 1.69559, -1.22711, -1.5412, -0.900224, -1.19541, 1.2305, -1.30268, 0.0456732, -0.00153582, -0.00161854, -0.00175788, -0.0274382, 0.00024099, -0.000754892, -0.920646, 62.6764, 30.7297, 7.18018, 1.6875, 3.56112, 0.0495105, -0.00132299, 0.000220616, 0.0024235, 0.00282133, -0.00443804, -0.00112062, 0.0358546, -0.0221162, -0.00854882, -0.0132032, 0.0588937, 0.0413007, 0.47097, -0.540993, 0.336505, -2.08211, -2.16535, -0.130063, 0.471149, -0.541914, 0.333899, -2.0817, -2.16798, -0.122548, -0.00108347, 0.049451, 0.01233, 0.0219854, 0.0163074, -0.00240409
0.152181, 1.69564, -1.2271, -1.54121, -0.900224, -1.19544, 1.2305, -1.30267, 0.0464422, -0.00102143, -0.00191485, 0.000299948, -0.025626, 0.000433674, 0.00119216, -0.884941, 62.6764, 30.7654, 7.1048, 1.70581, 3.5538, 0.00373412, -0.00135869, 0.000242039, 0.00243071, 0.00282521, -0.00448774, -0.0011423, 0.036451, -0.0222652, -0.00813796, -0.0114151, 0.0583389, 0.0388127, 0.470969, -0.540944, 0.336517, -2.08207, -2.16534, -0.130066, 0.47117, -0.541898, 0.333898, -2.08166, -2.16801, -0.122499, -0.00110604, 0.0500886, 0.012481, 0.0221487, 0.0162996, -0.00194671
0.153181, 1.69568, -1.2271, -1.5412, -0.900228, -1.19546, 1.2305, -1.30268, 0.0468438, -0.000679117, -0.000441797, -0.00333689, -0.0283424, 0.000561693, -0.000900648, -0.845268, 62.6764, 30.7297, 7.1048, 1.70032, 3.54648, 0.0495105, -0.00139329, 0.000265716, 0.00243701, 0.00281584, -0.00453162, -0.00117868, 0.0360599, -0.0232738, -0.0079768, -0.0129078, 0.0616599, 0.0443327, 0.470968, -0.540894, 0.33653, -2.08203, -2.16533, -0.13007, 0.471193, -0.54188, 0.333898, -2.08162, -2.16807, -0.122472, -0.0011289, 0.0507293, 0.0126325, 0.0231251, 0.017344, -0.00160754
0.154181, 1.69572, -1.22711, -1.5412, -0.900239, -1.19548, 1.2305, -1.30268, 0.0475042, -0.00128658, -0.000294869, -0.00526347, -0.0261579, 0.000104177, 0.00109499, -0.809562, 62.7121, 30.7297, 7.21588, 1.71863, 3.5538, 0.00373412, -0.00142754, 0.000289186, 0.00244726, 0.00282241, -0.00457848, -0.00120773, 0.0353997, -0.0242731, -0.00867676, -0.0130914, 0.0596817, 0.0455368, 0.470967, -0.540843, 0.336542, -2.082, -2.16532, -0.130073, 0.471216, -0.54186, 0.333894, -2.08157, -2.16811, -0.122424, -0.00115205, 0.051373, 0.0127846, 0.02405, 0.0187902, -0.00207556
0.155181, 1.69577, -1.22711, -1.5412, -0.90024, -1.19551, 1.2305, -1.30267, 0.0453597, -0.000856689, -0.00103205, -0.00647844, -0.024248, 7.01877e-05, 0.000492634, -0.809562, 62.7121, 30.7654, 7.18018, 1.71863, 3.5538, 0.0101428, -0.00146573, 0.000310838, 0.00245491, 0.00281771, -0.00462502, -0.00122938, 0.0363886, -0.0234125, -0.00879385, -0.0129532, 0.0590746, 0.0454114, 0.470966, -0.540792, 0.336555, -2.08196, -2.16531, -0.130077, 0.471238, -0.541844, 0.333893, -2.08154, -2.16816, -0.122388, -0.0011755, 0.0520197, 0.0129373, 0.0231988, 0.0184439, -0.00216789
0.156181, 1.69581, -1.2271, -1.54121, -0.90024, -1.19552, 1.2305, -1.30268, 0.0434585, 0.000264867, -0.00161624, -0.00742223, -0.0232603, -0.000223923, -0.001367, -0.809562, 62.6764, 30.8051, 7.14447, 1.73053, 3.56112, 0.0559192, -0.00150441, 0.000331091, 0.00246091, 0.00281495, -0.00467273, -0.00125572, 0.0374114, -0.0224908, -0.00844653, -0.0131874, 0.0597584, 0.0462977, 0.470965, -0.54074, 0.336568, -2.08192, -2.1653, -0.130081, 0.471258, -0.541829, 0.333893, -2.0815, -2.1682, -0.122349, -0.00119924, 0.0526694, 0.0130904, 0.0223048, 0.0179925, -0.00180466
0.157181, 1.69585, -1.22711, -1.54121, -0.900246, -1.19554, 1.2305, -1.30268, 0.042159, -0.000658059, -0.00191286, -0.00563454, -0.0219192, -0.000148868, 0.000784089, -0.809562, 62.7121, 30.8408, 7.14447, 1.73694, 3.56112, 0.0101428, -0.00154273, 0.000352968, 0.00247113, 0.00281156, -0.0047135, -0.00128117, 0.0390809, -0.0214933, -0.0088198, -0.0116489, 0.0580665, 0.0416712, 0.470963, -0.540687, 0.336581, -2.08189, -2.16528, -0.130085, 0.47128, -0.541811, 0.333889, -2.08145, -2.16824, -0.122318, -0.00122328, 0.0533221, 0.0132441, 0.0213315, 0.0170145, -0.0022512
0.158181, 1.69589, -1.22711, -1.5412, -0.900257, -1.19556, 1.2305, -1.30268, 0.0433952, -0.00043827, 0.000487893, -0.00594158, -0.0255544, 0.000172333, -0.00141005, -0.76989, 62.7121, 30.7654, 7.21588, 1.73053, 3.5538, 0.0623279, -0.00157929, 0.000374343, 0.00247651, 0.00280379, -0.00475533, -0.00131663, 0.0393415, -0.0223256, -0.00796423, -0.0111452, 0.0617976, 0.0453421, 0.470962, -0.540634, 0.336594, -2.08185, -2.16527, -0.130089, 0.471301, -0.541792, 0.333891, -2.0814, -2.16829, -0.122292, -0.00124762, 0.0539777, 0.0133983, 0.0221799, 0.0173155, -0.00132062
0.159181, 1.69592, -1.22711, -1.5412, -0.900268, -1.19557, 1.2305, -1.30268, 0.0411752, -0.000291853, -0.000602838, -0.00611038, -0.0184624, -0.000156146, -0.000465318, -0.734184, 62.7121, 30.8051, 7.29126, 1.71222, 3.56112, 0.0495105, -0.0016184, 0.000393561, 0.00248543, 0.00280009, -0.00479279, -0.00134188, 0.0397308, -0.021661, -0.00825595, -0.00867324, 0.0564518, 0.0442438, 0.470961, -0.54058, 0.336608, -2.08181, -2.16526, -0.130092, 0.47132, -0.541775, 0.333889, -2.08136, -2.16833, -0.122265, -0.00127226, 0.0546363, 0.013553, 0.021495, 0.0176082, -0.00149562
0.160181, 1.69596, -1.22712, -1.5412, -0.900274, -1.19558, 1.2305, -1.30267, 0.0405235, -0.003628, -0.000401952, -0.0069587, -0.0138865, -0.00037519, 0.000910491, -0.734184, 62.8589, 30.8051, 7.25555, 1.71222, 3.56845, 0.0165515, -0.00165932, 0.000413557, 0.00249824, 0.00279015, -0.00482007, -0.00136427, 0.0397906, -0.0220578, -0.0103053, -0.00700926, 0.0497815, 0.0447067, 0.47096, -0.540525, 0.336621, -2.08177, -2.16525, -0.130096, 0.47134, -0.541757, 0.333882, -2.08132, -2.16836, -0.122255, -0.0012972, 0.0552977, 0.0137082, 0.0217922, 0.0185462, -0.0033867
0.161181, 1.69599, -1.22712, -1.54121, -0.900286, -1.19559, 1.2305, -1.30267, 0.037827, -0.0033465, -0.00110323, -0.00938745, -0.010204, -0.000249995, -0.000105083, -0.76989, 62.8986, 30.8408, 7.29126, 1.70581, 3.56845, 0.0357776, -0.00170038, 0.000432732, 0.0025082, 0.00278529, -0.00485757, -0.00139277, 0.0403552, -0.021397, -0.0106253, -0.00637641, 0.0477482, 0.0461265, 0.470958, -0.54047, 0.336635, -2.08173, -2.16524, -0.1301, 0.471359, -0.54174, 0.333879, -2.08127, -2.1684, -0.122229, -0.00132244, 0.0559621, 0.013864, 0.0211157, 0.0186762, -0.0036163
0.162181, 1.69602, -1.22712, -1.5412, -0.900295, -1.19559, 1.2305, -1.30267, 0.0346292, -0.00223086, 9.96966e-05, -0.0104097, -0.00748694, -0.000437833, 0.000642022, -0.76989, 62.8986, 30.8051, 7.29126, 1.70032, 3.57577, 0.0165515, -0.00174117, 0.000451903, 0.00251425, 0.0027708, -0.00489293, -0.00141788, 0.0412458, -0.0202957, -0.00958418, -0.00397731, 0.0469205, 0.0446318, 0.470957, -0.540414, 0.336649, -2.08169, -2.16522, -0.130104, 0.471378, -0.541723, 0.33388, -2.08123, -2.16844, -0.122216, -0.00134799, 0.0566293, 0.0140202, 0.020062, 0.0182574, -0.002539
0.163181, 1.69606, -1.22712, -1.5412, -0.90031, -1.1956, 1.2305, -1.30268, 0.0332273, -0.00148714, -0.000768779, -0.0121321, -0.00609791, -2.05473e-05, -0.00174212, -0.809562, 62.8986, 30.8408, 7.33093, 1.71222, 3.56845, 0.0751453, -0.00178261, 0.000471853, 0.00252263, 0.00276251, -0.00493302, -0.00145356, 0.041925, -0.0199613, -0.00963285, -0.00412924, 0.0473657, 0.0472266, 0.470956, -0.540357, 0.336663, -2.08165, -2.16521, -0.130108, 0.471397, -0.541705, 0.333879, -2.08117, -2.1685, -0.122192, -0.00137384, 0.0572994, 0.0141769, 0.0197252, 0.0182516, -0.00252794
0.164181, 1.69608, -1.22711, -1.5412, -0.900327, -1.1956, 1.2305, -1.30267, 0.0300796, -0.000991348, 0.00032268, -0.0132162, -0.0032083, 0.000257624, 0.0017208, -0.76989, 62.8986, 30.8051, 7.36664, 1.6756, 3.56112, -0.00267457, -0.00182556, 0.000488313, 0.00252856, 0.00274533, -0.00496601, -0.00147436, 0.0428766, -0.0189991, -0.00896645, -0.00142425, 0.0460309, 0.0431379, 0.470954, -0.5403, 0.336677, -2.08161, -2.1652, -0.130113, 0.471414, -0.541688, 0.33388, -2.08114, -2.16853, -0.122184, -0.0014, 0.0579723, 0.0143341, 0.0187979, 0.0178423, -0.00183359
0.165181, 1.69611, -1.22711, -1.5412, -0.90034, -1.1956, 1.2305, -1.30268, 0.0298841, 0.00246649, -0.000620112, -0.0132282, -0.00251338, 0.000171791, -0.0012603, -0.809562, 62.8986, 30.8408, 7.36664, 1.6756, 3.56112, 0.0623279, -0.00186922, 0.000506031, 0.00253728, 0.00273386, -0.00499947, -0.00150819, 0.0433769, -0.0187256, -0.00731285, -0.00154155, 0.0493969, 0.0457017, 0.470953, -0.540242, 0.336692, -2.08157, -2.16519, -0.130117, 0.471431, -0.541671, 0.333878, -2.08108, -2.16858, -0.122171, -0.00142646, 0.058648, 0.0144917, 0.0185787, 0.0177565, -0.000115145
0.166181, 1.69613, -1.22711, -1.5412, -0.900361, -1.1956, 1.2305, -1.30267, 0.0307744, 0.000234547, 0.000421799, -0.014975, -0.00195648, 0.000385826, 0.00132994, -0.76989, 62.97, 30.8051, 7.44202, 1.6756, 3.5538, 0.00373412, -0.00191286, 0.000522809, 0.00254723, 0.0027224, -0.0050284, -0.00152753, 0.0430615, -0.019944, -0.00857827, -0.00119317, 0.0474219, 0.046304, 0.470951, -0.540183, 0.336706, -2.08153, -2.16517, -0.130121, 0.471448, -0.541653, 0.333875, -2.08104, -2.16861, -0.122161, -0.00145324, 0.0593266, 0.0146499, 0.01971, 0.0189948, -0.00119655
0.167181, 1.69615, -1.22711, -1.5412, -0.900376, -1.1956, 1.2305, -1.30268, 0.0272138, -0.000483362, -0.000554027, -0.0137178, -0.00127763, 0.000257241, -0.000300168, -0.809562, 63.0057, 30.8408, 7.40631, 1.66919, 3.5538, 0.0357776, -0.00195871, 0.000539573, 0.00255542, 0.00270643, -0.00506196, -0.00155447, 0.0458435, -0.017564, -0.00904228, -0.000618149, 0.046407, 0.0431422, 0.47095, -0.540124, 0.336721, -2.08148, -2.16516, -0.130125, 0.471464, -0.541637, 0.333874, -2.08099, -2.16865, -0.122151, -0.00148032, 0.0600079, 0.0148084, 0.0173905, 0.0169038, -0.00185944
0.168181, 1.69617, -1.22712, -1.5412, -0.900397, -1.1956, 1.2305, -1.30267, 0.0287684, -0.00277408, 0.000465861, -0.0180185, -0.00100975, 0.000442779, 0.000274606, -0.76989, 63.1168, 30.8051, 7.44202, 1.66919, 3.54648, 0.0229602, -0.00200447, 0.000555289, 0.00256631, 0.00269163, -0.0050869, -0.00158005, 0.0445439, -0.0196847, -0.0107435, -0.00177032, 0.0448447, 0.048548, 0.470949, -0.540064, 0.336735, -2.08144, -2.16515, -0.130129, 0.47148, -0.54162, 0.33387, -2.08095, -2.16868, -0.12215, -0.00150772, 0.0606919, 0.0149675, 0.0193698, 0.0192247, -0.00324411
0.169181, 1.69619, -1.22711, -1.54119, -0.900418, -1.1956, 1.2305, -1.30268, 0.0279442, -6.89864e-05, 0.00123859, -0.0202967, -0.000350857, 0.000295199, -0.000562915, -0.76989, 63.0453, 30.7654, 7.44202, 1.65729, 3.54648, 0.0431018, -0.00204922, 0.000571634, 0.00256902, 0.00267357, -0.00512593, -0.00161054, 0.0443757, -0.019866, -0.0092138, -0.00149112, 0.0475345, 0.0511596, 0.470947, -0.540003, 0.33675, -2.0814, -2.16513, -0.130134, 0.471496, -0.541602, 0.333875, -2.0809, -2.16873, -0.122138, -0.00153542, 0.0613787, 0.015127, 0.0195748, 0.019848, -0.00155575
0.170181, 1.6962, -1.22711, -1.54119, -0.900435, -1.19559, 1.2305, -1.30267, 0.0214433, -0.000798736, 0.000825723, -0.0169884, 0.000355389, 0.000468076, 0.000608068, -0.658806, 63.0811, 30.7654, 7.36664, 1.63898, 3.53915, 0.0165515, -0.00210129, 0.000581853, 0.00257524, 0.00265484, -0.00516034, -0.0016216, 0.0489948, -0.0155388, -0.00901686, 0.00128759, 0.0463291, 0.0407778, 0.470946, -0.539942, 0.336766, -2.08135, -2.16512, -0.130138, 0.471506, -0.54159, 0.333875, -2.08087, -2.16875, -0.122129, -0.00156344, 0.0620682, 0.0152869, 0.0154016, 0.0157677, -0.00179215
0.171181, 1.69623, -1.2271, -1.54119, -0.900464, -1.19559, 1.2305, -1.30267, 0.0251324, 0.00195377, -0.000377541, -0.0204992, 0.0010858, 0.000820685, 0.000642737, -0.76989, 63.1168, 30.8051, 7.40631, 1.61426, 3.52542, 0.0101428, -0.00214512, 0.000601473, 0.00258298, 0.00264157, -0.00519729, -0.00165737, 0.0469011, -0.018276, -0.00852588, -0.000966823, 0.0496462, 0.0471295, 0.470944, -0.53988, 0.336781, -2.08131, -2.16511, -0.130143, 0.471526, -0.54157, 0.333876, -2.08082, -2.1688, -0.122115, -0.00159178, 0.0627604, 0.0154473, 0.0180491, 0.0185653, -0.000906453
0.172181, 1.69625, -1.22709, -1.54119, -0.90049, -1.19559, 1.2305, -1.30268, 0.0259216, 0.004219, -0.00108691, -0.0248943, 0.000911231, 0.000547129, -0.00150429, -0.809562, 63.0057, 30.8408, 7.36664, 1.60785, 3.52542, 0.0623279, -0.0021917, 0.000616336, 0.00258519, 0.00263048, -0.00524155, -0.00169049, 0.0458972, -0.0194647, -0.00817057, -0.00377281, 0.0528601, 0.0535164, 0.470942, -0.539817, 0.336796, -2.08126, -2.16509, -0.130147, 0.47154, -0.541552, 0.333881, -2.08076, -2.16885, -0.12209, -0.00162043, 0.0634553, 0.0156081, 0.0191846, 0.0202464, -0.00027663
0.173181, 1.69625, -1.22708, -1.54118, -0.900515, -1.19559, 1.2305, -1.30267, 0.0210291, 0.0051726, 0.00328984, -0.0239012, 0.000807352, 0.000364757, 0.000692562, -0.734184, 63.0453, 30.8051, 7.29126, 1.60144, 3.52542, 0.0165515, -0.00224341, 0.000628016, 0.00258846, 0.00260743, -0.00528136, -0.00170635, 0.0480829, -0.0172125, -0.00572602, 0.00131438, 0.0537643, 0.0477219, 0.470941, -0.539753, 0.336812, -2.08122, -2.16508, -0.130152, 0.471552, -0.541538, 0.333885, -2.08073, -2.16889, -0.122082, -0.00164939, 0.0641529, 0.0157694, 0.0170787, 0.0183127, 0.0020234
0.174181, 1.69627, -1.22709, -1.54118, -0.900541, -1.19558, 1.2305, -1.30268, 0.0149127, 0.00442371, 0.00338618, -0.0232853, 0.000950924, 0.000514442, -0.000758995, -0.694511, 63.1564, 30.7654, 7.21588, 1.58954, 3.5181, 0.0495105, -0.00229424, 0.000641348, 0.00259645, 0.00258967, -0.00531368, -0.00173512, 0.0517464, -0.0137249, -0.005757, 0.0029159, 0.0532083, 0.0427588, 0.470939, -0.539689, 0.336828, -2.08117, -2.16506, -0.130156, 0.471565, -0.541522, 0.333884, -2.08068, -2.16893, -0.122076, -0.00167868, 0.0648531, 0.015931, 0.0136997, 0.0152565, 0.00168702
0.175181, 1.69628, -1.22707, -1.54117, -0.900577, -1.19558, 1.2305, -1.30268, 0.0145222, 0.00831597, 0.00245615, -0.0275474, -6.53096e-05, 0.000885498, -0.000505997, -0.694511, 63.0811, 30.7654, 7.18018, 1.60785, 3.50345, 0.0495105, -0.00234267, 0.000656776, 0.00259567, 0.00257071, -0.00536724, -0.00176654, 0.0514412, -0.0141772, -0.00438345, 0.000481363, 0.059024, 0.045048, 0.470937, -0.539624, 0.336844, -2.08113, -2.16505, -0.130161, 0.471581, -0.541505, 0.333893, -2.08064, -2.16899, -0.122051, -0.00170828, 0.065556, 0.0160931, 0.0141629, 0.0160664, 0.00323653
0.176181, 1.69629, -1.22706, -1.54117, -0.900611, -1.19558, 1.2305, -1.30267, 0.0141331, 0.00938464, 0.00307026, -0.0303904, 0.000178001, 0.00109896, 0.00112073, -0.694511, 63.0811, 30.8408, 7.14447, 1.60144, 3.48971, 0.0101428, -0.00239452, 0.000669662, 0.00259953, 0.00255776, -0.00541606, -0.0017874, 0.0512374, -0.0147518, -0.00394251, 0.000279257, 0.0606924, 0.0459386, 0.470936, -0.539559, 0.33686, -2.08108, -2.16503, -0.130166, 0.471594, -0.541489, 0.333896, -2.0806, -2.16903, -0.122023, -0.0017382, 0.0662614, 0.0162556, 0.0147165, 0.0169291, 0.00384607
0.177181, 1.6963, -1.22705, -1.54117, -0.900647, -1.19558, 1.2305, -1.30268, 0.00981935, 0.00756258, 0.00484844, -0.0325292, 0.00345027, 0.00100391, -0.000710908, -0.658806, 63.1921, 30.8765, 7.1048, 1.62616, 3.48239, 0.0495105, -0.00244683, 0.000682598, 0.00260588, 0.00254208, -0.00545785, -0.00181982, 0.052392, -0.0135128, -0.0045153, 0.00291602, 0.0565745, 0.0474221, 0.470934, -0.539493, 0.336876, -2.08103, -2.16502, -0.13017, 0.471607, -0.541473, 0.333898, -2.08055, -2.16908, -0.122006, -0.00176845, 0.0669695, 0.0164185, 0.01347, 0.0165356, 0.00329915
0.178181, 1.6963, -1.22704, -1.54115, -0.900683, -1.19558, 1.2305, -1.30267, 0.00958725, 0.0122906, 0.0086213, -0.0324096, 0.00332437, 0.000398006, 0.000984123, -0.619133, 63.1921, 30.8051, 6.99371, 1.60785, 3.48971, 0.0101428, -0.0024974, 0.000695325, 0.00260542, 0.00252199, -0.00550296, -0.0018453, 0.0519841, -0.0138103, -0.000469637, 0.0062911, 0.0613246, 0.0471253, 0.470932, -0.539426, 0.336892, -2.08098, -2.165, -0.130175, 0.471619, -0.541455, 0.333906, -2.08051, -2.16912, -0.12199, -0.00179901, 0.0676801, 0.0165817, 0.0138753, 0.0170315, 0.00750833
0.179181, 1.69631, -1.22702, -1.54115, -0.900724, -1.19557, 1.2305, -1.30268, 0.0065033, 0.0132589, 0.00790957, -0.03967, 0.00669432, 0.00107914, -0.00151406, -0.583427, 63.1564, 30.8765, 6.91833, 1.62067, 3.46774, 0.0687366, -0.0025483, 0.0007091, 0.00260354, 0.00250497, -0.00555952, -0.00188336, 0.0513929, -0.0140649, -0.00099394, 0.00509088, 0.060948, 0.0537603, 0.47093, -0.539358, 0.336909, -2.08094, -2.16499, -0.13018, 0.471633, -0.541437, 0.333916, -2.08046, -2.16919, -0.121961, -0.0018299, 0.0683933, 0.0167454, 0.0140578, 0.0184211, 0.00723723
0.180181, 1.69631, -1.22702, -1.54114, -0.900766, -1.19557, 1.2305, -1.30267, 0.00726837, 0.00791817, 0.0100552, -0.0425676, 0.00484517, 0.00044816, 0.00116077, -0.543754, 63.3746, 30.8408, 6.84296, 1.62616, 3.47507, 0.0101428, -0.00260125, 0.000722734, 0.0026117, 0.00248658, -0.00559551, -0.00191003, 0.0512821, -0.0153007, -0.0039218, 0.00377114, 0.0574808, 0.0549511, 0.470929, -0.53929, 0.336926, -2.08089, -2.16497, -0.130185, 0.471647, -0.541419, 0.333916, -2.08041, -2.16923, -0.121953, -0.00186112, 0.069109, 0.0169095, 0.0151463, 0.0197553, 0.00448745
0.181181, 1.69631, -1.227, -1.54113, -0.900813, -1.19557, 1.2305, -1.30268, 0.00620909, 0.0152738, 0.00988784, -0.0487596, 0.00343206, 0.000570041, -0.00139629, -0.43267, 63.2635, 30.8765, 6.80725, 1.63257, 3.46774, 0.0687366, -0.00265456, 0.00073256, 0.00260678, 0.0024735, -0.00565894, -0.00194517, 0.0502822, -0.0157875, -0.00049668, 0.00108488, 0.0670531, 0.0612455, 0.470927, -0.53922, 0.336943, -2.08084, -2.16496, -0.13019, 0.471657, -0.541403, 0.333929, -2.08036, -2.16929, -0.121912, -0.00189266, 0.0698272, 0.0170739, 0.0156947, 0.0209474, 0.00817227
0.182181, 1.69632, -1.22698, -1.54113, -0.900855, -1.19557, 1.2305, -1.30267, 0.00499972, 0.0130509, 0.00396144, -0.0429329, 0.00217671, 0.000651295, 0.00100192, -0.43267, 63.3389, 31.0273, 6.62079, 1.64447, 3.46042, 0.0165515, -0.00270793, 0.000747796, 0.00261113, 0.00246163, -0.00571211, -0.00197176, 0.0549981, -0.0126879, -0.00306308, -0.00168385, 0.0662603, 0.0493832, 0.470925, -0.539151, 0.33696, -2.08079, -2.16494, -0.130195, 0.471672, -0.541384, 0.333933, -2.08032, -2.16934, -0.121879, -0.00192452, 0.0705479, 0.0172387, 0.0126434, 0.0172846, 0.00515805
0.183181, 1.69633, -1.22697, -1.54111, -0.900909, -1.19557, 1.2305, -1.30267, 0.00221516, 0.0136462, 0.00728444, -0.0424978, 0.00552091, 0.000705464, 0.000430586, -0.357292, 63.45, 30.9876, 6.58508, 1.65729, 3.45309, 0.0229602, -0.00275935, 0.000763407, 0.00261282, 0.00244304, -0.0057644, -0.00201406, 0.0556993, -0.0119944, -0.00137525, 0.00366867, 0.0642975, 0.0495831, 0.470923, -0.53908, 0.336977, -2.08074, -2.16492, -0.1302, 0.471687, -0.541363, 0.333939, -2.08026, -2.1694, -0.121856, -0.00195671, 0.0712712, 0.0174039, 0.0120091, 0.017024, 0.0068985
0.184181, 1.69632, -1.22695, -1.5411, -0.900961, -1.19557, 1.2305, -1.30267, -0.000730552, 0.0150741, 0.00878688, -0.0440526, 0.0039867, 0.000707669, -0.000187661, -0.242241, 63.5214, 30.9876, 6.5097, 1.66369, 3.44668, 0.0357776, -0.0028135, 0.000774458, 0.00261079, 0.0024252, -0.00581951, -0.00204919, 0.0571476, -0.0107612, -0.000109099, 0.00427153, 0.0674317, 0.0488925, 0.470921, -0.539009, 0.336994, -2.08069, -2.16491, -0.130205, 0.471698, -0.541345, 0.33395, -2.08021, -2.16946, -0.121829, -0.00198923, 0.0719968, 0.0175694, 0.0108471, 0.0160715, 0.0081226
0.185181, 1.69633, -1.22693, -1.54109, -0.901018, -1.19557, 1.2305, -1.30267, 0.00126946, 0.0178509, 0.00810279, -0.0457906, 0.00306538, 0.00023442, -0.000125107, -0.166862, 63.5214, 31.063, 6.43433, 1.66369, 3.45309, 0.0357776, -0.00286533, 0.000789723, 0.00260785, 0.00240977, -0.00588336, -0.00209046, 0.0564993, -0.0119118, 0.000845727, 0.00210064, 0.0714976, 0.0516913, 0.470919, -0.538937, 0.337012, -2.08064, -2.16489, -0.13021, 0.471713, -0.541324, 0.333962, -2.08016, -2.16953, -0.121791, -0.00202208, 0.072725, 0.0177353, 0.0119766, 0.0173394, 0.00929396
0.186181, 1.69632, -1.22691, -1.54108, -0.901073, -1.19557, 1.2305, -1.30267, 0.00194735, 0.0230118, 0.00759162, -0.0468716, 0.00167111, 0.000936174, -8.34047e-05, -0.0557783, 63.5214, 31.1384, 6.35895, 1.68201, 3.43204, 0.0357776, -0.00291957, 0.000802316, 0.00260421, 0.00239538, -0.00594823, -0.00212693, 0.0565903, -0.0123224, 0.00353021, 0.00160537, 0.078795, 0.0525117, 0.470917, -0.538864, 0.33703, -2.08058, -2.16487, -0.130215, 0.471726, -0.541305, 0.333974, -2.08011, -2.1696, -0.12175, -0.00205526, 0.0734555, 0.0179016, 0.0124597, 0.017579, 0.0120799
