alisrour97/Franka_experiments/Real_Robot_scripts/servo-franka/Data3/log_dyn_INIT0_l_ki_0.csv
Time,q1,q2,q3,q4,q5,q6,q7,dq1,dq2,dq3,dq4,dq5,dq6,dq7,t1,t2,t3,t4,t5,t6,t7,ex1,ex2,ex3,ex4,ex5,ex6,ev1,ev2,ev3,ev4,ev5,ev6,xd,yd,zd,uxd,uyd,uzd,x,y,z,ux,uy,uz,vxd,vyd,vzd,vx,vy,vz
4.88281e-07, 1.69112, -1.22603, -1.53775, -0.900114, -1.19156, 1.22847, -1.30271, -0.000402442, 0.0019567, -0.00791103, 7.59097e-05, 0.00229533, -0.000248004, 0.000521526, -0.0914839, 58.6258, 27.1195, 6.73187, 1.27643, 3.1235, -0.0814099, 0.000915581, -0.00162069, 0.000262479, -5.42549e-05, 0.000238269, -0.000123657, 0.00118799, 0.00145395, -0.0016476, -0.00579867, 0.000440238, -0.00405939, 0.471008, -0.543389, 0.335894, -2.08385, -2.16584, -0.129887, 0.469344, -0.542516, 0.335826, -2.08365, -2.16584, -0.130202, -4.82042e-07, 4.44613e-06, 1.21621e-06, -0.00146955, -0.000974267, -0.00176622
0.0121335, 1.69112, -1.22602, -1.53777, -0.900094, -1.19156, 1.22847, -1.30272, 0.000508372, 0.00188539, -0.0029946, 0.0014593, -0.00115941, -0.0001467, 9.11926e-05, -0.0557783, 58.5861, 27.2306, 6.62079, 1.32587, 3.13083, -0.0621838, 0.00090497, -0.00163049, 0.000262958, -4.21167e-05, 0.000229602, -9.5735e-05, 0.000880004, 0.00075717, 0.000205906, -0.00251093, 0.00284135, -0.00272946, 0.471008, -0.543389, 0.335894, -2.08385, -2.16584, -0.129887, 0.469338, -0.542522, 0.335824, -2.08366, -2.16583, -0.130175, -1.47349e-06, 1.36697e-05, 3.70923e-06, -0.000718768, -0.00091777, 9.3269e-05
0.0131335, 1.69112, -1.22602, -1.53777, -0.900094, -1.19156, 1.22847, -1.30272, 0.000508372, 0.00188539, -0.0029946, 0.0014593, -0.00115941, -0.0001467, 9.11926e-05, -0.0557783, 58.5861, 27.2306, 6.62079, 1.32587, 3.13083, -0.0621838, 0.000904963, -0.00163049, 0.000262959, -4.21186e-05, 0.000229599, -9.57341e-05, 0.000893753, 0.000756178, 0.000204457, -0.00250898, 0.00284753, -0.00272831, 0.471008, -0.543389, 0.335894, -2.08385, -2.16584, -0.129887, 0.469338, -0.542522, 0.335824, -2.08366, -2.16583, -0.130175, -2.9032e-06, 2.69793e-05, 7.30333e-06, -0.000718768, -0.00091777, 9.3269e-05
0.0141335, 1.69112, -1.22602, -1.53777, -0.900094, -1.19156, 1.22847, -1.30272, 0.000508372, 0.00188539, -0.0029946, 0.0014593, -0.00115941, -0.0001467, 9.11926e-05, -0.0557783, 58.5861, 27.2306, 6.62079, 1.32587, 3.13083, -0.0621838, 0.000904943, -0.00163049, 0.000262961, -4.21238e-05, 0.000229592, -9.57317e-05, 0.000912375, 0.000754836, 0.000202499, -0.00250634, 0.0028559, -0.00272676, 0.471008, -0.543389, 0.335894, -2.08385, -2.16584, -0.129887, 0.469338, -0.542522, 0.335824, -2.08366, -2.16583, -0.130175, -4.83863e-06, 4.50071e-05, 1.21677e-05, -0.000718768, -0.00091777, 9.3269e-05
0.0151335, 1.69112, -1.22602, -1.53777, -0.900094, -1.19156, 1.22847, -1.30272, 0.000508372, 0.00188539, -0.0029946, 0.0014593, -0.00115941, -0.0001467, 9.11926e-05, -0.0557783, 58.5861, 27.2306, 6.62079, 1.32587, 3.13083, -0.0621838, 0.000904903, -0.00163049, 0.000262965, -4.21341e-05, 0.000229578, -9.57271e-05, 0.000936459, 0.000753102, 0.00019997, -0.00250292, 0.00286673, -0.00272475, 0.471008, -0.543389, 0.335894, -2.08385, -2.16584, -0.129887, 0.469338, -0.542522, 0.335824, -2.08366, -2.16583, -0.130175, -7.34058e-06, 6.83239e-05, 1.84546e-05, -0.000718768, -0.00091777, 9.3269e-05
0.0161335, 1.69112, -1.22602, -1.53777, -0.900094, -1.19156, 1.22847, -1.30272, 0.000508372, 0.00188539, -0.0029946, 0.0014593, -0.00115941, -0.0001467, 9.11926e-05, -0.0557783, 58.5861, 27.2306, 6.62079, 1.32587, 3.13083, -0.0621838, 0.000904839, -0.00163048, 0.000262972, -4.21509e-05, 0.000229556, -9.57195e-05, 0.000966508, 0.00075094, 0.00019682, -0.00249864, 0.00288025, -0.00272224, 0.471008, -0.543389, 0.335894, -2.08385, -2.16584, -0.129887, 0.469338, -0.542522, 0.335824, -2.08366, -2.16583, -0.130175, -1.04607e-05, 9.7416e-05, 2.62933e-05, -0.000718768, -0.00091777, 9.3269e-05
0.0171335, 1.69112, -1.22602, -1.53777, -0.900094, -1.19156, 1.22847, -1.30272, 0.000508372, 0.00188539, -0.0029946, 0.0014593, -0.00115941, -0.0001467, 9.11926e-05, -0.0557783, 58.5861, 27.2306, 6.62079, 1.32587, 3.13083, -0.0621838, 0.000904742, -0.00163048, 0.000262982, -4.21761e-05, 0.000229523, -9.57082e-05, 0.00100291, 0.000748322, 0.00019301, -0.00249344, 0.00289665, -0.0027192, 0.471008, -0.543389, 0.335894, -2.08385, -2.16584, -0.129887, 0.469338, -0.542522, 0.335824, -2.08366, -2.16583, -0.130175, -1.42391e-05, 0.000132663, 3.57838e-05, -0.000718768, -0.00091777, 9.3269e-05
0.0181335, 1.69112, -1.22602, -1.53777, -0.900094, -1.19156, 1.22847, -1.30272, 0.000508372, 0.00188539, -0.0029946, 0.0014593, -0.00115941, -0.0001467, 9.11926e-05, -0.0557783, 58.5861, 27.2306, 6.62079, 1.32587, 3.13083, -0.0621838, 0.000904608, -0.00163047, 0.000262997, -4.22111e-05, 0.000229476, -9.56925e-05, 0.00104593, 0.000745232, 0.000188516, -0.00248728, 0.00291604, -0.0027156, 0.471008, -0.543389, 0.335894, -2.08385, -2.16584, -0.129887, 0.469338, -0.542522, 0.335824, -2.08366, -2.16583, -0.130175, -1.87016e-05, 0.000174312, 4.69907e-05, -0.000718768, -0.00091777, 9.3269e-05
0.0191335, 1.69112, -1.22602, -1.53777, -0.900094, -1.19156, 1.22847, -1.30272, 0.000508372, 0.00188539, -0.0029946, 0.0014593, -0.00115941, -0.0001467, 9.11926e-05, -0.0557783, 58.5861, 27.2306, 6.62079, 1.32587, 3.13083, -0.0621838, 0.00090443, -0.00163046, 0.000263016, -4.22578e-05, 0.000229414, -9.56716e-05, 0.00109566, 0.000741662, 0.00018333, -0.00248013, 0.00293846, -0.00271145, 0.471008, -0.543389, 0.335894, -2.08385, -2.16584, -0.129887, 0.469338, -0.542522, 0.335824, -2.08366, -2.16583, -0.130175, -2.38577e-05, 0.00022246, 5.99368e-05, -0.000718768, -0.00091777, 9.3269e-05
0.0201335, 1.69112, -1.22602, -1.53777, -0.900094, -1.19156, 1.22847, -1.30272, 0.000508372, 0.00188539, -0.0029946, 0.0014593, -0.00115941, -0.0001467, 9.11926e-05, -0.0557783, 58.5861, 27.2306, 6.62079, 1.32587, 3.13083, -0.0621838, 0.000904201, -0.00163044, 0.00026304, -4.23177e-05, 0.000229335, -9.56448e-05, 0.00115201, 0.00073762, 0.000177463, -0.00247201, 0.00296389, -0.00270674, 0.471008, -0.543389, 0.335894, -2.08385, -2.16584, -0.129887, 0.469338, -0.542522, 0.335824, -2.08366, -2.16583, -0.130175, -2.96979e-05, 0.000277024, 7.45974e-05, -0.000718768, -0.00091777, 9.3269e-05
0.0211335, 1.69112, -1.22602, -1.53777, -0.900094, -1.19156, 1.22847, -1.30272, 0.000508372, 0.00188539, -0.0029946, 0.0014593, -0.00115941, -0.0001467, 9.11926e-05, -0.0557783, 58.5861, 27.2306, 6.62079, 1.32587, 3.13083, -0.0621838, 0.000903916, -0.00163042, 0.00026307, -4.23924e-05, 0.000229235, -9.56114e-05, 0.0012147, 0.000733127, 0.000170948, -0.00246295, 0.0029922, -0.0027015, 0.471008, -0.543388, 0.335894, -2.08385, -2.16584, -0.129887, 0.469338, -0.542522, 0.335824, -2.08366, -2.16583, -0.130175, -3.61913e-05, 0.000337726, 9.08941e-05, -0.000718768, -0.00091777, 9.3269e-05
0.0221335, 1.69111, -1.22603, -1.53778, -0.900071, -1.19158, 1.22847, -1.30271, 6.34051e-05, -0.00165178, -0.00184069, 0.000907112, -0.00183974, -0.000248315, 0.000552103, 0.0196001, 58.6972, 27.3417, 6.5097, 1.41742, 3.13083, -0.0814099, 0.000886601, -0.00164438, 0.000267338, -4.0028e-05, 0.000226957, -5.41338e-05, 0.00153736, 0.000682903, -0.00156546, -0.00233697, -3.35026e-05, -0.00272395, 0.471008, -0.543388, 0.335894, -2.08385, -2.16584, -0.129887, 0.469324, -0.542539, 0.335817, -2.0837, -2.16578, -0.130166, -4.33151e-05, 0.00040436, 0.000108769, -0.000726873, -0.000900368, -0.00165502
0.0231335, 1.6911, -1.22602, -1.53778, -0.900073, -1.19158, 1.22847, -1.30271, -0.000878778, -0.000262407, -0.00125485, -0.000184242, -0.000784464, 0.000105716, 0.00111417, 0.059273, 58.6615, 27.3417, 6.54541, 1.40552, 3.1235, -0.101552, 0.00088508, -0.00164597, 0.0002673, -3.99161e-05, 0.000226527, -4.94628e-05, 0.00128073, 0.000701136, -0.00062044, -0.00127255, 0.000725756, -0.00264274, 0.471008, -0.543388, 0.335894, -2.08385, -2.16584, -0.129887, 0.469323, -0.54254, 0.335817, -2.08371, -2.16578, -0.130165, -5.10658e-05, 0.000476901, 0.000128212, -0.000727898, -0.000720673, -0.000662062
0.0241335, 1.6911, -1.22602, -1.53778, -0.900069, -1.19158, 1.22847, -1.30271, -0.00141584, -0.00542045, -0.00458984, 0.00167509, -0.000962872, 0.000341738, -0.000477831, 0.0949785, 58.475, 27.2306, 6.47003, 1.41742, 3.11618, -0.0685925, 0.00088153, -0.00164845, 0.000266526, -4.14145e-05, 0.000223053, -4.306e-05, 0.00339671, 0.00188095, -0.00453247, -0.00351291, -0.00407925, -0.00477839, 0.471008, -0.543387, 0.335894, -2.08385, -2.16584, -0.129887, 0.46932, -0.542543, 0.335818, -2.08371, -2.16577, -0.130163, -5.94401e-05, 0.000555325, 0.000149214, -0.00198012, -0.00217735, -0.00479673
0.0251335, 1.69111, -1.22603, -1.53779, -0.900077, -1.19158, 1.22847, -1.30271, -0.00149706, -0.0040009, -0.00675861, 0.00021471, 0.000274298, -0.000585981, -0.000555846, -0.0161054, 58.1815, 27.2306, 6.5097, 1.3927, 3.13815, -0.0621838, 0.000883118, -0.00164604, 0.000273759, -2.45288e-05, 0.000224319, -4.91783e-05, 0.00306226, 0.00203109, -0.00475713, -0.00619012, -0.00383142, -0.00414926, 0.471008, -0.543387, 0.335895, -2.08385, -2.16584, -0.129887, 0.469322, -0.54254, 0.335811, -2.0837, -2.16577, -0.130146, -6.84344e-05, 0.000639605, 0.000171766, -0.00215912, -0.00173445, -0.00493959
0.0261335, 1.6911, -1.22604, -1.53779, -0.900072, -1.19158, 1.22847, -1.30271, -0.00209328, -0.00341653, -0.00483513, 0.000527382, 0.000624189, -0.00144182, -0.000607872, 0.0196001, 58.0347, 27.0798, 6.35895, 1.3808, 3.16653, -0.0557752, 0.000877028, -0.00164963, 0.000281602, -2.17478e-05, 0.000234024, -3.63382e-05, 0.00289794, 0.00221873, -0.00374205, -0.0047864, -0.00408598, -0.00391777, 0.471008, -0.543386, 0.335895, -2.08384, -2.16584, -0.129887, 0.469319, -0.542544, 0.335803, -2.0837, -2.16575, -0.130152, -7.80454e-05, 0.000729718, 0.000195859, -0.00232536, -0.00164604, -0.00388202
0.0271335, 1.69111, -1.22605, -1.53781, -0.900076, -1.19159, 1.22847, -1.30271, 0.00100792, -0.00311613, -0.00491965, -0.00299437, 0.000179153, -0.00204628, 6.95077e-05, -0.0914839, 57.8879, 27.1195, 6.35895, 1.38721, 3.19583, -0.0685925, 0.000876643, -0.00164683, 0.000290143, -6.36793e-06, 0.000233236, -3.72528e-05, 0.000590349, -0.000133878, -0.00431085, -0.00771108, -0.00326761, 0.00136201, 0.471008, -0.543385, 0.335895, -2.08384, -2.16584, -0.129887, 0.469321, -0.542542, 0.335794, -2.0837, -2.16575, -0.130134, -8.82697e-05, 0.000825639, 0.000221482, -8.90643e-05, 0.000911817, -0.00413081
0.0281335, 1.6911, -1.22606, -1.53781, -0.90008, -1.1916, 1.22847, -1.30271, -0.00207277, -0.00317119, -0.00385593, -0.00566506, -0.000321085, -0.00268662, -0.000699618, 0.0196001, 57.8879, 27.1195, 6.35895, 1.39911, 3.23153, -0.0484509, 0.000868886, -0.00165291, 0.000298852, 1.18453e-06, 0.000239083, -2.7775e-05, 0.00108708, 0.000976142, -0.00424131, -0.00835233, -0.00310835, 0.0017808, 0.471008, -0.543384, 0.335895, -2.08384, -2.16584, -0.129887, 0.469315, -0.542548, 0.335785, -2.0837, -2.16573, -0.13013, -9.91039e-05, 0.000927342, 0.000248628, -0.00118821, 0.000467015, -0.00407864
0.0291335, 1.6911, -1.22606, -1.53781, -0.900082, -1.19161, 1.22847, -1.30271, -0.00241956, -0.00469769, -0.00207472, -0.00668267, -0.00272306, -0.00257098, -0.000195124, 0.059273, 57.9633, 27.0798, 6.32324, 1.46686, 3.25259, -0.0557752, 0.000865509, -0.0016532, 0.00030207, 3.64701e-06, 0.000234404, -2.54717e-05, 0.00131175, 0.000844337, -0.00462989, -0.00835472, -0.00259079, 0.00191207, 0.471007, -0.543383, 0.335895, -2.08384, -2.16584, -0.129887, 0.469315, -0.54255, 0.335781, -2.0837, -2.16573, -0.130123, -0.000110545, 0.0010348, 0.000277287, -0.00107401, 0.000417882, -0.00447251
0.0301335, 1.6911, -1.22607, -1.53781, -0.900092, -1.19162, 1.22849, -1.30271, -0.00169531, -0.0062527, -0.00430569, -0.00776681, -0.00854855, -0.000120289, 0.000344651, 0.059273, 58.0704, 27.1909, 6.43433, 1.52179, 3.20956, -0.0685925, 0.000862295, -0.00165046, 0.000307909, 7.3025e-06, 0.000223567, -2.65542e-05, 0.00280639, 0.000759031, -0.00631905, -0.0116285, 0.00215523, 4.31279e-05, 0.471007, -0.543382, 0.335896, -2.08384, -2.16584, -0.129887, 0.469317, -0.542551, 0.335775, -2.0837, -2.16573, -0.130108, -0.000122588, 0.001148, 0.000307449, -0.00100839, -0.000681002, -0.00634481
0.0311335, 1.6911, -1.22607, -1.53781, -0.900095, -1.19163, 1.22849, -1.30271, 0.00350065, -0.00555792, -0.00404155, -0.00571281, -0.0114768, -8.01934e-05, -7.5793e-06, 0.134651, 58.11, 27.2306, 6.43433, 1.5401, 3.20956, -0.0621838, 0.000858035, -0.00165289, 0.000307949, 8.26262e-06, 0.000216314, -2.22312e-05, 0.00169417, -0.00141744, -0.00581527, -0.0124805, 0.0052795, 0.00287115, 0.471007, -0.543381, 0.335896, -2.08384, -2.16584, -0.129887, 0.469315, -0.542554, 0.335775, -2.08371, -2.16573, -0.130099, -0.000135232, 0.0012669, 0.000339106, 0.00113104, 0.000547416, -0.00570867
0.0321335, 1.69109, -1.22608, -1.53781, -0.900098, -1.19163, 1.22849, -1.30271, 0.00106223, -0.00748503, -0.00287667, -0.00504496, -0.0139257, -5.34629e-05, 0.000232315, 0.21003, 58.2568, 27.2306, 6.47003, 1.56482, 3.20956, -0.0685925, 0.000854395, -0.00165317, 0.000313225, 7.48601e-06, 0.000219531, -2.04793e-05, 0.00353122, 0.000122031, -0.00632324, -0.0120243, 0.0052289, -0.000577354, 0.471007, -0.54338, 0.335896, -2.08384, -2.16584, -0.129887, 0.469314, -0.542556, 0.335769, -2.08371, -2.16573, -0.130103, -0.000148472, 0.00139149, 0.000372248, -0.000372337, -0.00112639, -0.00641583
0.0331335, 1.69109, -1.22608, -1.53782, -0.900103, -1.19164, 1.2285, -1.30271, 0.000241717, -0.00432156, -0.00381774, -0.00676503, -0.0106624, -0.00135807, -0.000591102, 0.245735, 58.2172, 27.306, 6.47003, 1.57764, 3.24527, -0.0484509, 0.000851865, -0.00165266, 0.000314167, 1.23617e-05, 0.000208739, -1.94179e-05, 0.0026336, 0.000282408, -0.00512356, -0.0128686, 0.0053125, 0.00153958, 0.471007, -0.543379, 0.335897, -2.08384, -2.16584, -0.129888, 0.469315, -0.542557, 0.335768, -2.08371, -2.16573, -0.130087, -0.000162305, 0.00152173, 0.000406866, -0.000535131, -0.000301191, -0.00505247
0.0341335, 1.6911, -1.22608, -1.53782, -0.9001, -1.19165, 1.2285, -1.30271, 0.00220097, -0.00140527, -0.00348292, -0.00415888, -0.00731142, -0.00249908, 0.000114563, 0.170357, 58.1458, 27.3417, 6.43433, 1.56482, 3.2883, -0.0621838, 0.000850976, -0.00164989, 0.000314222, 1.7376e-05, 0.000199214, -2.10558e-05, 0.00154779, -0.000419232, -0.00314892, -0.0108078, 0.00478275, 0.00173484, 0.471007, -0.543377, 0.335897, -2.08384, -2.16584, -0.129888, 0.469317, -0.542556, 0.335769, -2.08371, -2.16574, -0.130072, -0.000176727, 0.00165761, 0.000442951, 0.000183635, 0.00063141, -0.00291922
0.0351335, 1.6911, -1.22608, -1.53782, -0.9001, -1.19165, 1.2285, -1.30271, 0.00220097, -0.00140527, -0.00348292, -0.00415888, -0.00731142, -0.00249908, 0.000114563, 0.170357, 58.1458, 27.3417, 6.43433, 1.56482, 3.2883, -0.0621838, 0.000849265, -0.00164977, 0.000314399, 1.69215e-05, 0.000198613, -2.08569e-05, 0.00169384, -0.000429566, -0.00316367, -0.0107857, 0.00484942, 0.00174709, 0.471007, -0.543375, 0.335898, -2.08384, -2.16584, -0.129888, 0.469317, -0.542556, 0.335769, -2.08371, -2.16574, -0.130072, -0.000191736, 0.0017991, 0.000480493, 0.000183635, 0.00063141, -0.00291922
0.0361335, 1.6911, -1.22607, -1.53782, -0.900099, -1.19166, 1.22851, -1.30271, 0.00325833, 0.00121024, -0.00140945, -0.00271404, -0.00276039, -0.00288524, -0.000615943, 0.245735, 58.0704, 27.306, 6.32324, 1.5282, 3.34598, -0.0420422, 0.000845924, -0.00164737, 0.000307776, 1.15721e-05, 0.000171497, -1.83138e-05, 0.000182986, -0.00146943, -0.000797257, -0.00642547, 0.00337907, 0.0047506, 0.471006, -0.543374, 0.335898, -2.08384, -2.16584, -0.129888, 0.46932, -0.542559, 0.335775, -2.08373, -2.16575, -0.13005, -0.000207328, 0.00194618, 0.000519485, 0.00123797, 0.00194836, -0.000340426
0.0371335, 1.69111, -1.22607, -1.53782, -0.9001, -1.19168, 1.22851, -1.3027, 0.00387431, -0.00103853, -0.00181811, -0.00128239, -0.00280442, -0.00165223, -0.000173268, 0.325081, 58.1458, 27.3417, 6.28357, 1.54651, 3.33865, -0.0484509, 0.000840936, -0.00164698, 0.000311363, 1.78134e-05, 0.000160899, -1.39826e-05, 0.000927486, -0.00169594, -0.00200353, -0.00530859, 0.00177519, 0.00350386, 0.471006, -0.543372, 0.335899, -2.08384, -2.16584, -0.129888, 0.46932, -0.542561, 0.335771, -2.08374, -2.16575, -0.130032, -0.0002235, 0.00209882, 0.000559916, 0.00143109, 0.00156094, -0.00161347
0.0381335, 1.69111, -1.22607, -1.53782, -0.900102, -1.19168, 1.22852, -1.3027, 0.000534372, -0.00075395, -0.00300776, 0.000607518, -0.00600683, -0.00164402, -0.00011551, 0.436165, 58.1458, 27.417, 6.20819, 1.5282, 3.3533, -0.0484509, 0.000838003, -0.00164489, 0.000312549, 2.06253e-05, 0.000149482, -1.45118e-05, 0.00398929, 0.00116188, -0.0018361, -0.00636674, 0.00456915, -0.00314465, 0.471006, -0.54337, 0.335899, -2.08384, -2.16584, -0.129888, 0.469322, -0.542562, 0.33577, -2.08374, -2.16576, -0.130018, -0.000240248, 0.00225699, 0.000601779, -0.00132426, -0.00144629, -0.00179536
0.0391335, 1.69111, -1.22607, -1.53782, -0.900107, -1.1917, 1.22853, -1.3027, 0.00124916, -0.000548829, -0.000266268, 0.000179419, -0.00925137, 0.00386669, 0.000431621, 0.551216, 58.1458, 27.3417, 6.20819, 1.5282, 3.34598, -0.0621838, 0.000835649, -0.00164117, 0.000310523, 1.50329e-05, 0.000133013, -1.40569e-05, 0.00433895, -0.000466857, -0.000372581, -0.000964345, 0.0101153, -0.00236938, 0.471006, -0.543367, 0.3359, -2.08384, -2.16584, -0.129888, 0.469326, -0.542562, 0.335772, -2.08375, -2.16577, -0.130007, -0.000257569, 0.00242068, 0.000645063, 0.000350389, -0.00178644, -0.000410316
0.0401335, 1.69111, -1.22607, -1.53782, -0.90011, -1.19171, 1.22853, -1.3027, -0.00119202, -0.000400533, -0.00103098, 0.000785635, -0.0116609, 0.00164631, 0.000287748, 0.6623, 58.1458, 27.3774, 6.17248, 1.5282, 3.38168, -0.0621838, 0.000830765, -0.00164051, 0.000312387, 2.18401e-05, 0.000117355, -1.07018e-05, 0.00616812, 0.00184034, -0.000556918, -0.00397851, 0.0111402, -0.00633117, 0.471005, -0.543365, 0.3359, -2.08384, -2.16584, -0.129889, 0.469326, -0.542564, 0.33577, -2.08376, -2.16577, -0.129984, -0.00027546, 0.00258986, 0.000689759, -0.00191297, -0.0034891, -0.000761999
0.0411335, 1.69112, -1.22608, -1.53783, -0.900111, -1.19173, 1.22854, -1.3027, 0.00417352, -0.00289146, -0.00162903, -0.000105436, -0.00900249, 0.00526839, -0.000316794, 0.737679, 58.2568, 27.417, 6.0614, 1.53461, 3.40365, -0.0484509, 0.000826722, -0.00163618, 0.000319604, 2.73714e-05, 0.000110028, -1.40297e-05, 0.00391429, -0.00228375, -0.00233667, -0.00155053, 0.0086342, 0.00101365, 0.471005, -0.543362, 0.335901, -2.08383, -2.16584, -0.129889, 0.46933, -0.542564, 0.335763, -2.08376, -2.16577, -0.129971, -0.000293917, 0.0027645, 0.00073586, 0.00204249, -0.00064672, -0.00224776
0.0421335, 1.69113, -1.22609, -1.53783, -0.900112, -1.19174, 1.22855, -1.3027, 0.00327411, -0.00361757, -0.00276672, 0.00133938, -0.00786402, 0.00828937, -0.000685913, 0.888436, 58.3282, 27.4885, 5.98602, 1.56482, 3.41739, -0.0356336, 0.000821417, -0.00163455, 0.00032516, 3.57129e-05, 9.97586e-05, -1.37928e-05, 0.00532282, -0.00196347, -0.00267132, 0.00140669, 0.00847692, -0.000907424, 0.471005, -0.54336, 0.335902, -2.08383, -2.16584, -0.129889, 0.469331, -0.542565, 0.335757, -2.08376, -2.16578, -0.129951, -0.000312938, 0.00294458, 0.000783355, 0.00174189, -0.00181878, -0.00273967
0.0431335, 1.69113, -1.22609, -1.53783, -0.900121, -1.19176, 1.22856, -1.3027, 0.00575781, -0.00159111, -0.00185218, -0.00247911, -0.0053594, 0.0110161, -0.000931993, 1.03919, 58.2925, 27.4885, 5.98602, 1.55292, 3.41739, -0.0228162, 0.00081831, -0.00163029, 0.000324511, 3.63399e-05, 7.73342e-05, -2.03318e-05, 0.00268425, -0.00512799, -0.00159678, 0.0037384, 0.0102337, 0.00639475, 0.471005, -0.543357, 0.335903, -2.08383, -2.16584, -0.129889, 0.469335, -0.542566, 0.335758, -2.08376, -2.16579, -0.129929, -0.000332518, 0.00313007, 0.000832236, 0.00482718, 0.000935681, -0.00131563
0.0441335, 1.69114, -1.22609, -1.53783, -0.90012, -1.19178, 1.22857, -1.3027, 0.00655242, -0.00190692, -0.000405343, -0.00268378, -0.00558478, 0.0133202, -0.00014661, 1.11457, 58.3282, 27.4528, 5.87494, 1.59595, 3.41006, -0.0356336, 0.000815444, -0.00162314, 0.000325051, 3.46603e-05, 5.68701e-05, -2.44949e-05, 0.00248063, -0.00628921, -0.00115604, 0.00668434, 0.0112824, 0.00721644, 0.471004, -0.543354, 0.335903, -2.08383, -2.16584, -0.129889, 0.469342, -0.542565, 0.335758, -2.08376, -2.16581, -0.129911, -0.000352655, 0.00332096, 0.000882495, 0.00597539, 0.00130727, -0.000833576
0.0451335, 1.69116, -1.22609, -1.53784, -0.900121, -1.1918, 1.22858, -1.3027, 0.00997906, -0.00304274, -0.00380104, 0.000201621, -0.014393, 0.0102746, -0.000572458, 1.18995, 58.4036, 27.6035, 5.76385, 1.62067, 3.40365, -0.0228162, 0.000810293, -0.00161743, 0.00033218, 4.63832e-05, 3.77573e-05, -2.74991e-05, 0.00425935, -0.00545671, -0.00309532, -0.00225589, 0.0160179, 0.00394668, 0.471004, -0.54335, 0.335904, -2.08383, -2.16584, -0.12989, 0.469348, -0.542565, 0.335751, -2.08376, -2.16582, -0.129879, -0.000373345, 0.00351722, 0.000934121, 0.00511687, 1.19645e-05, -0.00294782
0.0461335, 1.69117, -1.2261, -1.53784, -0.900129, -1.19182, 1.22859, -1.3027, 0.00837646, -0.00286988, -0.00420771, -0.000321323, -0.0208256, 0.0116329, -0.000856356, 1.305, 58.4393, 27.6749, 5.76385, 1.63898, 3.42471, -0.00999879, 0.000807467, -0.00160985, 0.000336564, 5.74439e-05, 1.28052e-05, -3.72766e-05, 0.00650657, -0.00413837, -0.00302712, -0.00438044, 0.0222485, 0.0007664, 0.471004, -0.543347, 0.335905, -2.08383, -2.16583, -0.12989, 0.469355, -0.542564, 0.335747, -2.08376, -2.16584, -0.129842, -0.000394586, 0.00371881, 0.000987107, 0.00386182, -0.0020694, -0.00313656
0.0471335, 1.69119, -1.22609, -1.53784, -0.900122, -1.19184, 1.2286, -1.3027, 0.0106208, -0.00108266, -0.00280757, 0.000608764, -0.0212677, 0.0126713, 0.000378532, 1.41608, 58.4036, 27.6749, 5.57739, 1.66919, 3.44668, -0.0356336, 0.000803346, -0.0016025, 0.000334447, 5.66952e-05, -1.58125e-05, -3.64862e-05, 0.00573329, -0.0055584, -0.00139998, -0.00218381, 0.024899, 0.00144672, 0.471003, -0.543343, 0.335906, -2.08382, -2.16583, -0.12989, 0.469362, -0.542564, 0.335749, -2.08377, -2.16585, -0.129814, -0.000416373, 0.00392573, 0.00104144, 0.00528932, -0.00129144, -0.00139834
0.0481335, 1.69119, -1.22609, -1.53785, -0.900126, -1.19187, 1.22861, -1.3027, 0.00883195, -0.000725241, -0.00280156, 0.000811101, -0.0209164, 0.00778877, -0.000968349, 1.68189, 58.4036, 27.7146, 5.53772, 1.68201, 3.49612, -0.00267457, 0.000797366, -0.00159993, 0.000336219, 6.72724e-05, -4.03892e-05, -3.99251e-05, 0.00619363, -0.00366606, -0.00151674, -0.00582054, 0.0225818, 0.000983246, 0.471003, -0.543339, 0.335907, -2.08382, -2.16583, -0.129891, 0.469364, -0.542566, 0.335747, -2.08377, -2.16587, -0.129778, -0.000438704, 0.00413795, 0.00109712, 0.00338934, -0.00159313, -0.00147237
0.0491335, 1.69121, -1.22609, -1.53786, -0.900132, -1.1919, 1.22862, -1.3027, 0.0111996, -0.000486095, -0.00446754, 0.000148663, -0.0254864, 0.00498665, -0.000136939, 1.79694, 58.4036, 27.8257, 5.53772, 1.69391, 3.52542, -0.0164075, 0.00079499, -0.00159033, 0.000341217, 8.5253e-05, -7.16093e-05, -4.85846e-05, 0.00610776, -0.0038341, -0.002452, -0.012468, 0.0255172, 0.000748866, 0.471002, -0.543335, 0.335908, -2.08382, -2.16583, -0.129891, 0.469373, -0.542563, 0.335743, -2.08377, -2.16589, -0.129728, -0.000461575, 0.00435543, 0.00115413, 0.00349745, -0.00114002, -0.00233061
0.0501335, 1.69122, -1.22609, -1.53786, -0.900131, -1.19193, 1.22863, -1.3027, 0.012512, -0.000326015, -0.00297938, -0.001557, -0.0291835, 0.00815926, -0.000837278, 2.05878, 58.4036, 27.8257, 5.46234, 1.71863, 3.53915, 0.00373412, 0.000787063, -0.00158596, 0.000341205, 8.91919e-05, -0.000104874, -4.85549e-05, 0.00598565, -0.00538988, -0.00187896, -0.0110972, 0.0304729, 0.00373109, 0.471002, -0.543331, 0.335909, -2.08382, -2.16583, -0.129891, 0.469377, -0.542566, 0.335743, -2.08378, -2.1659, -0.12969, -0.000484983, 0.00457817, 0.00121247, 0.00504414, -0.000821276, -0.00173441
0.0511335, 1.69124, -1.2261, -1.53786, -0.900137, -1.19196, 1.22864, -1.30271, 0.015319, -0.00188924, -0.00375027, -0.00151898, -0.0311196, 0.0109993, -0.00127026, 2.24921, 58.475, 27.9011, 5.46234, 1.71863, 3.53915, 0.0229602, 0.000782334, -0.00157645, 0.000347029, 0.000100929, -0.00013602, -5.90398e-05, 0.00597359, -0.00716707, -0.00298543, -0.0107141, 0.0321451, 0.00592949, 0.471001, -0.543326, 0.335911, -2.08382, -2.16583, -0.129892, 0.469386, -0.542565, 0.335737, -2.08378, -2.16593, -0.129647, -0.000508925, 0.00480613, 0.00127212, 0.0067547, -0.000338355, -0.00281903
0.0521335, 1.69125, -1.2261, -1.53787, -0.900136, -1.192, 1.22865, -1.30271, 0.0143988, -0.00126059, -0.00417119, -0.000538171, -0.0335325, 0.012658, 0.00430826, 2.43568, 58.475, 27.9725, 5.42664, 1.74335, 3.5538, 0.0101428, 0.000773746, -0.00157182, 0.000349159, 0.000115786, -0.000174991, -5.50139e-05, 0.0075915, -0.00639472, -0.00245813, -0.0100637, 0.0355924, -0.00241834, 0.471001, -0.543321, 0.335912, -2.08381, -2.16583, -0.129892, 0.469391, -0.542568, 0.335735, -2.08379, -2.16594, -0.129591, -0.000533398, 0.00503929, 0.00133308, 0.00603578, -0.00181522, -0.00246526
0.0531335, 1.69128, -1.22611, -1.53787, -0.900134, -1.19203, 1.22866, -1.30271, 0.0155239, -0.00343967, -0.00194601, -0.00200808, -0.0336976, 0.00881596, 0.00278749, 2.55073, 58.5861, 27.9368, 5.35126, 1.72504, 3.57577, 0.0229602, 0.000770476, -0.00155971, 0.000354127, 0.000122985, -0.000201495, -6.72895e-05, 0.00627824, -0.00708074, -0.00357334, -0.0125501, 0.0317903, 0.00257469, 0.471, -0.543316, 0.335913, -2.08381, -2.16583, -0.129892, 0.469402, -0.542565, 0.33573, -2.08379, -2.16596, -0.129558, -0.000558399, 0.00527762, 0.00139533, 0.00660867, -8.06288e-05, -0.00332105
0.0541335, 1.6913, -1.22611, -1.53787, -0.900137, -1.19207, 1.22868, -1.3027, 0.0153868, -0.00322175, -0.00129766, -0.00263868, -0.029926, 0.0108576, 0.00238821, 2.70148, 58.6258, 27.9368, 5.38696, 1.72504, 3.58951, 0.0165515, 0.000765002, -0.00154998, 0.000356969, 0.000134949, -0.000240716, -7.11707e-05, 0.00571314, -0.00807025, -0.00314034, -0.00867178, 0.0300551, 0.00498615, 0.471, -0.543311, 0.335915, -2.08381, -2.16583, -0.129893, 0.469412, -0.542564, 0.335728, -2.08379, -2.16598, -0.129506, -0.000583923, 0.00552111, 0.00145888, 0.0075668, 0.00069459, -0.00277209
0.0551335, 1.69132, -1.22612, -1.53786, -0.900133, -1.19211, 1.22869, -1.3027, 0.0142359, -0.00465395, 0.000897884, -0.000437247, -0.0313786, 0.0116493, 0.00326959, 2.89191, 58.7329, 27.8614, 5.31555, 1.71222, 3.62521, -0.0228162, 0.00075781, -0.00154107, 0.000358896, 0.000140115, -0.000276064, -6.95772e-05, 0.00718174, -0.00734345, -0.00279148, -0.00559285, 0.029958, 0.00165829, 0.470999, -0.543305, 0.335916, -2.08381, -2.16583, -0.129893, 0.46942, -0.542565, 0.335726, -2.08381, -2.166, -0.129464, -0.000609969, 0.00576973, 0.0015237, 0.00688001, -0.000590066, -0.00256886
0.0561345, 1.69134, -1.22611, -1.53787, -0.900138, -1.19216, 1.2287, -1.3027, 0.0185009, -0.000597328, -0.000329613, -0.00222335, -0.0375569, 0.00840345, 0.00136093, 3.003, 58.6258, 27.9011, 5.38696, 1.70581, 3.63986, 0.00373412, 0.000753141, -0.00153023, 0.000358589, 0.000156766, -0.000326691, -8.15965e-05, 0.0057754, -0.00857501, -0.00162731, -0.0134957, 0.0379409, 0.00662929, 0.470999, -0.5433, 0.335918, -2.0838, -2.16583, -0.129894, 0.46943, -0.542563, 0.335727, -2.08381, -2.16603, -0.129396, -0.000636533, 0.00602345, 0.0015898, 0.00807517, 0.000923231, -0.00117211
0.0571345, 1.69136, -1.22611, -1.53787, -0.900131, -1.1922, 1.22871, -1.3027, 0.0174461, -0.0012337, -0.00281834, -7.86453e-06, -0.0423073, 0.0103987, 0.00153932, 3.15376, 58.6615, 28.0121, 5.31555, 1.70581, 3.66092, -0.00999879, 0.000743345, -0.00152262, 0.000361982, 0.000172398, -0.000369858, -8.0345e-05, 0.00889432, -0.0069112, -0.00236992, -0.0149417, 0.0422413, 0.000713072, 0.470998, -0.543294, 0.335919, -2.0838, -2.16582, -0.129894, 0.469438, -0.542566, 0.335723, -2.08382, -2.16605, -0.129335, -0.000663611, 0.00628226, 0.00165716, 0.00647116, -0.00185081, -0.002272
0.0581345, 1.69139, -1.22612, -1.53787, -0.900125, -1.19226, 1.22873, -1.3027, 0.0215673, -0.00342112, -0.000115755, 0.00161095, -0.0465998, 0.00849564, 0.00159349, 3.22913, 58.7726, 27.9368, 5.24017, 1.72504, 3.64718, -0.0228162, 0.000733625, -0.00151205, 0.000364937, 0.000181348, -0.000417734, -7.869e-05, 0.00811279, -0.00856379, -0.00288123, -0.016239, 0.0425702, 0.0032338, 0.470997, -0.543287, 0.335921, -2.0838, -2.16582, -0.129894, 0.469448, -0.542569, 0.33572, -2.08384, -2.16607, -0.129277, -0.000691201, 0.00654612, 0.00172578, 0.0080476, -0.000669025, -0.00263682
0.0591345, 1.69141, -1.22612, -1.53787, -0.900125, -1.19231, 1.22874, -1.3027, 0.0196676, -0.00311611, -7.72473e-05, 0.00329393, -0.0437303, 0.00618342, 0.0013691, 3.37989, 58.8083, 27.9368, 5.27588, 1.70581, 3.65451, -0.0292249, 0.000724141, -0.00150312, 0.000368384, 0.000195595, -0.000464649, -8.30694e-05, 0.00888707, -0.00704257, -0.00258491, -0.0157126, 0.0393023, 0.00110838, 0.470997, -0.543281, 0.335923, -2.0838, -2.16582, -0.129895, 0.469456, -0.542571, 0.335717, -2.08385, -2.16609, -0.129215, -0.0007193, 0.00681502, 0.00179564, 0.00653865, -0.00127238, -0.00234871
0.0601355, 1.69144, -1.22613, -1.53788, -0.900111, -1.19236, 1.22875, -1.3027, 0.024006, -0.00291273, -0.00181479, 0.00673872, -0.0488776, 0.00447811, -1.85469e-05, 3.41956, 58.844, 28.0121, 5.08942, 1.75525, 3.66092, -0.00267457, 0.000711802, -0.00149502, 0.000371571, 0.000214709, -0.00051689, -7.71885e-05, 0.00944854, -0.00752626, -0.0030083, -0.0200824, 0.0429483, 0.00122197, 0.470996, -0.543274, 0.335924, -2.08379, -2.16582, -0.129895, 0.469464, -0.542575, 0.335713, -2.08387, -2.16611, -0.12914, -0.000747904, 0.00708893, 0.00186675, 0.00699789, -0.00146777, -0.00279745
0.0611355, 1.69147, -1.22613, -1.53788, -0.900108, -1.19242, 1.22877, -1.3027, 0.0271324, -0.00286992, -0.00120991, 0.00462829, -0.0515706, 0.00393893, 0.000772668, 3.45527, 58.8837, 28.0121, 5.08942, 1.77997, 3.64718, -0.0228162, 0.000702392, -0.00148215, 0.000375781, 0.00023015, -0.000572065, -8.28001e-05, 0.00806862, -0.00947551, -0.00330002, -0.0227128, 0.0453057, 0.00477703, 0.470995, -0.543267, 0.335926, -2.08379, -2.16582, -0.129896, 0.469476, -0.542576, 0.335709, -2.08388, -2.16614, -0.129068, -0.00077701, 0.00736784, 0.00193908, 0.00885562, 0.000298144, -0.00285779
0.0621355, 1.69149, -1.22614, -1.53789, -0.900108, -1.19248, 1.22879, -1.3027, 0.0285624, -0.00274856, -0.00669557, 0.00318738, -0.0530558, 0.00791495, 0.00101912, 3.53065, 58.9194, 28.1232, 5.08942, 1.79187, 3.63986, -0.0356336, 0.000690485, -0.00147228, 0.000381407, 0.000254486, -0.000631057, -8.22853e-05, 0.00913779, -0.0102142, -0.00512602, -0.0255914, 0.0492713, 0.00409011, 0.470994, -0.543259, 0.335928, -2.08379, -2.16582, -0.129897, 0.469485, -0.542579, 0.335703, -2.0839, -2.16616, -0.128982, -0.000806615, 0.0076517, 0.00201263, 0.00953602, -0.000162112, -0.00477556
0.0631355, 1.69149, -1.22614, -1.53789, -0.900108, -1.19248, 1.22879, -1.3027, 0.0285624, -0.00274856, -0.00669557, 0.00318738, -0.0530558, 0.00791495, 0.00101912, 3.53065, 58.9194, 28.1232, 5.08942, 1.79187, 3.63986, -0.0356336, 0.000682591, -0.00147172, 0.000382193, 0.00025233, -0.000633893, -8.13794e-05, 0.00943561, -0.0102347, -0.00515424, -0.0255424, 0.0494102, 0.00411514, 0.470993, -0.543252, 0.33593, -2.08378, -2.16582, -0.129897, 0.469485, -0.542579, 0.335703, -2.0839, -2.16616, -0.128982, -0.000836715, 0.00794051, 0.00208739, 0.00953602, -0.000162112, -0.00477556
0.0641355, 1.69149, -1.22614, -1.53789, -0.900108, -1.19248, 1.22879, -1.3027, 0.0285624, -0.00274856, -0.00669557, 0.00318738, -0.0530558, 0.00791495, 0.00101912, 3.53065, 58.9194, 28.1232, 5.08942, 1.79187, 3.63986, -0.0356336, 0.000674399, -0.00147115, 0.000383006, 0.000250089, -0.000636838, -8.04399e-05, 0.0097385, -0.0102555, -0.00518287, -0.0254924, 0.0495516, 0.00414061, 0.470993, -0.543244, 0.335932, -2.08378, -2.16582, -0.129898, 0.469485, -0.542579, 0.335703, -2.0839, -2.16616, -0.128982, -0.000867309, 0.00823424, 0.00216336, 0.00953602, -0.000162112, -0.00477556
0.0651355, 1.69149, -1.22614, -1.53789, -0.900108, -1.19248, 1.22879, -1.3027, 0.0285624, -0.00274856, -0.00669557, 0.00318738, -0.0530558, 0.00791495, 0.00101912, 3.53065, 58.9194, 28.1232, 5.08942, 1.79187, 3.63986, -0.0356336, 0.000665904, -0.00147055, 0.000383849, 0.000247764, -0.000639894, -7.94661e-05, 0.0100464, -0.0102767, -0.00521191, -0.0254414, 0.0496955, 0.00416651, 0.470992, -0.543236, 0.335935, -2.08378, -2.16581, -0.129898, 0.469485, -0.542579, 0.335703, -2.0839, -2.16616, -0.128982, -0.000898392, 0.00853286, 0.00224052, 0.00953602, -0.000162112, -0.00477556
0.0661355, 1.6916, -1.22613, -1.53789, -0.900086, -1.19275, 1.22885, -1.3027, 0.0256308, 0.00107589, -0.006481, 0.00669638, -0.061053, 0.011661, 0.000118355, 3.72108, 58.8083, 28.0121, 4.97833, 1.76166, 3.67557, -0.0292249, 0.000638274, -0.00143526, 0.000379844, 0.000322142, -0.000895564, -6.95623e-05, 0.0142648, -0.00762229, -0.0019435, -0.0232255, 0.0616445, -0.00351386, 0.470991, -0.543227, 0.335937, -2.08377, -2.16581, -0.129899, 0.469521, -0.542597, 0.335704, -2.08399, -2.16626, -0.12864, -0.000929962, 0.00883635, 0.00231887, 0.00712253, -0.00463495, -0.00204481
0.0671355, 1.69162, -1.22613, -1.53789, -0.900074, -1.19282, 1.22886, -1.3027, 0.0281841, 0.000717243, -0.00394084, 0.0107007, -0.0650267, 0.00855257, -0.000151506, 3.75678, 58.8083, 27.9725, 4.86725, 1.76807, 3.68289, -0.0228162, 0.000621906, -0.00142781, 0.000379091, 0.000337022, -0.000962583, -6.10618e-05, 0.0146039, -0.00761871, -0.00113436, -0.0240254, 0.0627132, -0.00430614, 0.47099, -0.543218, 0.335939, -2.08377, -2.16581, -0.1299, 0.469528, -0.542604, 0.335704, -2.08402, -2.16629, -0.128555, -0.000962015, 0.00914469, 0.0023984, 0.00712828, -0.00478614, -0.00121893
0.0681355, 1.69165, -1.22613, -1.53789, -0.900071, -1.19289, 1.22888, -1.3027, 0.0318515, -0.00256649, -0.00220316, 0.00775945, -0.0665887, 0.0155933, 0.000141567, 3.72108, 58.8083, 27.9368, 4.86725, 1.74335, 3.69021, -0.0292249, 0.000607386, -0.00141782, 0.000379581, 0.000355462, -0.00103332, -5.85856e-05, 0.0134167, -0.011833, -0.00245699, -0.0192983, 0.0646126, 0.00199871, 0.470989, -0.543209, 0.335941, -2.08376, -2.16581, -0.1299, 0.469538, -0.542609, 0.335704, -2.08405, -2.16631, -0.128463, -0.000994548, 0.00945786, 0.0024791, 0.0112143, -0.00292469, -0.00238713
0.0691355, 1.69168, -1.22613, -1.53789, -0.900068, -1.19296, 1.2289, -1.3027, 0.0334324, -0.00196472, -0.00261235, 0.00564219, -0.0684796, 0.0114961, 0.000335646, 3.72108, 58.8083, 27.9725, 4.86725, 1.73053, 3.69754, -0.0356336, 0.000591037, -0.0014086, 0.000381921, 0.000379326, -0.0011075, -5.32169e-05, 0.0123906, -0.0121706, -0.00301527, -0.025242, 0.0651507, 0.00440418, 0.470988, -0.5432, 0.335944, -2.08376, -2.16581, -0.129901, 0.469546, -0.542615, 0.335701, -2.08408, -2.16634, -0.128362, -0.00102756, 0.00977584, 0.00256097, 0.0114616, -0.00149396, -0.00270748
0.0701355, 1.6917, -1.22613, -1.5379, -0.900065, -1.19305, 1.22892, -1.3027, 0.0306097, -0.00150011, -0.00607132, 0.00411338, -0.0712114, 0.0133936, 0.000226696, 3.75678, 58.8083, 28.0121, 4.86725, 1.75525, 3.69754, -0.0356336, 0.000570951, -0.00140221, 0.000384124, 0.000405662, -0.00118883, -4.20521e-05, 0.014938, -0.0103746, -0.00389382, -0.0280827, 0.0692197, 0.000506196, 0.470987, -0.54319, 0.335947, -2.08375, -2.1658, -0.129902, 0.469552, -0.542624, 0.335698, -2.08411, -2.16636, -0.12825, -0.00106104, 0.0100986, 0.00264398, 0.00969375, -0.00362425, -0.00383333
0.0711355, 1.69173, -1.22613, -1.5379, -0.900056, -1.19313, 1.22894, -1.3027, 0.0288345, -0.00114279, -0.00272196, 0.00707989, -0.0768536, 0.0145008, 0.000390688, 3.6457, 58.8083, 27.9368, 4.82758, 1.75525, 3.70395, -0.0420422, 0.000554441, -0.00139098, 0.000384486, 0.00042376, -0.0012659, -3.8074e-05, 0.0174432, -0.00888761, -0.00192261, -0.0250471, 0.0743704, -0.00426465, 0.470986, -0.54318, 0.335949, -2.08375, -2.1658, -0.129903, 0.469563, -0.54263, 0.335698, -2.08414, -2.16639, -0.128152, -0.001095, 0.0104261, 0.00272814, 0.00833568, -0.00613426, -0.00214696
0.0721355, 1.69176, -1.22613, -1.5379, -0.900055, -1.19321, 1.22895, -1.3027, 0.031882, 0.000894333, -0.00543596, 0.004252, -0.0767897, 0.0205693, 0.000262108, 3.60603, 58.7329, 27.9368, 4.86725, 1.76166, 3.69754, -0.0420422, 0.000537575, -0.00138081, 0.000382739, 0.000446005, -0.00135217, -3.51366e-05, 0.0165831, -0.0118566, -0.00173669, -0.0237007, 0.0800291, 6.35291e-05, 0.470985, -0.543169, 0.335952, -2.08374, -2.1658, -0.129903, 0.469573, -0.542636, 0.335699, -2.08417, -2.16643, -0.12804, -0.00112942, 0.0107583, 0.00281344, 0.0112424, -0.00485999, -0.00183425
0.0731355, 1.69178, -1.22613, -1.5379, -0.90005, -1.19329, 1.22897, -1.3027, 0.0300828, 0.000515941, -0.00414458, 0.00317974, -0.0813983, 0.0201236, -0.00077346, 3.60603, 58.7329, 27.9368, 4.86725, 1.77356, 3.69754, -0.0164075, 0.000516402, -0.00137455, 0.000382393, 0.000467859, -0.00143567, -2.57561e-05, 0.018044, -0.0107437, -0.00162331, -0.0253084, 0.0833263, -0.000626023, 0.470984, -0.543159, 0.335955, -2.08374, -2.1658, -0.129904, 0.469579, -0.542646, 0.335699, -2.08421, -2.16645, -0.127931, -0.00116431, 0.0110953, 0.00289987, 0.0101524, -0.00602823, -0.00182921
0.0741355, 1.69181, -1.22613, -1.53791, -0.900049, -1.19337, 1.229, -1.3027, 0.0283109, 0.00028375, -0.00398872, 0.00061539, -0.0792522, 0.0195216, -0.0012607, 3.49494, 58.7329, 27.9725, 4.94263, 1.75525, 3.70395, 0.00373412, 0.000498359, -0.00136309, 0.000385873, 0.000493577, -0.00151803, -2.57754e-05, 0.0179246, -0.0105098, -0.00205135, -0.0255987, 0.0813692, 0.0011864, 0.470983, -0.543147, 0.335958, -2.08373, -2.1658, -0.129905, 0.469589, -0.542652, 0.335695, -2.08423, -2.16649, -0.12782, -0.00119966, 0.0114369, 0.00298742, 0.00986375, -0.00551234, -0.00213881
0.0751355, 1.69184, -1.22613, -1.53791, -0.90004, -1.19346, 1.22901, -1.30269, 0.0282002, 0.000979226, -0.00445451, 0.00153238, -0.0834639, 0.0237642, 0.000618293, 3.45527, 58.6972, 27.9011, 4.90295, 1.76166, 3.71127, -0.0356336, 0.000477793, -0.00135544, 0.000383897, 0.0005146, -0.00160307, -7.79405e-06, 0.0199076, -0.0104743, -0.00133088, -0.0237044, 0.0877251, -0.00321844, 0.470981, -0.543136, 0.335961, -2.08373, -2.16579, -0.129906, 0.469597, -0.542661, 0.335697, -2.08428, -2.16651, -0.127709, -0.00123547, 0.0117833, 0.00307608, 0.00988952, -0.00723609, -0.00164574
0.0761355, 1.69187, -1.22613, -1.53791, -0.900041, -1.19355, 1.22903, -1.3027, 0.0280443, 0.000618949, -0.00734679, -0.00143129, -0.085846, 0.0220011, -0.000807986, 3.41956, 58.6972, 27.9368, 5.01404, 1.75525, 3.72592, -0.00267457, 0.000456359, -0.00134814, 0.000387208, 0.00054898, -0.00169204, -5.30338e-06, 0.0203848, -0.00998176, -0.00315615, -0.0302264, 0.0890616, -0.0015036, 0.47098, -0.543124, 0.335964, -2.08372, -2.16579, -0.129907, 0.469603, -0.542669, 0.335693, -2.0843, -2.16654, -0.127581, -0.00127174, 0.0121342, 0.00316585, 0.00931237, -0.00709521, -0.00341759
0.0771355, 1.69189, -1.22612, -1.53791, -0.900041, -1.19365, 1.22905, -1.3027, 0.0279796, 0.00205767, -0.00786098, -0.000435517, -0.0875898, 0.0208163, -0.0014877, 3.37989, 58.6258, 27.9011, 5.12909, 1.74335, 3.74057, 0.0229602, 0.000435966, -0.00133948, 0.000385573, 0.000578121, -0.00178745, -2.48291e-06, 0.0212672, -0.00921821, -0.00248679, -0.0318501, 0.0914548, -0.00258533, 0.470979, -0.543112, 0.335967, -2.08372, -2.16579, -0.129908, 0.469612, -0.542677, 0.335694, -2.08433, -2.16658, -0.127453, -0.00130846, 0.0124898, 0.00325671, 0.0085689, -0.0077451, -0.0027799
0.0781355, 1.69192, -1.22612, -1.53791, -0.900036, -1.19374, 1.22906, -1.3027, 0.0258042, 0.00228075, -0.00596909, 0.00242183, -0.0886359, 0.0202711, -0.00146623, 3.30451, 58.5861, 27.9011, 5.16479, 1.72504, 3.74698, 0.0357776, 0.000413365, -0.00133139, 0.000384771, 0.000606424, -0.00188365, 9.37842e-06, 0.0231864, -0.00749455, -0.00125366, -0.0293794, 0.0919989, -0.00666927, 0.470978, -0.5431, 0.33597, -2.08371, -2.16579, -0.129909, 0.469619, -0.542687, 0.335695, -2.08437, -2.16661, -0.127323, -0.00134563, 0.01285, 0.00334867, 0.00692361, -0.00954003, -0.00171646
0.0791355, 1.69196, -1.22612, -1.53792, -0.90003, -1.19384, 1.22908, -1.3027, 0.0290254, 0.00150621, -0.00536093, 0.00451452, -0.0892272, 0.0192166, 0.000209531, 3.15376, 58.5861, 27.9368, 5.2005, 1.70032, 3.76895, 0.00373412, 0.000391307, -0.00132114, 0.00038731, 0.000641848, -0.00197988, 1.88672e-05, 0.0227059, -0.00872143, -0.00149745, -0.0295392, 0.0912433, -0.00685596, 0.470976, -0.543087, 0.335973, -2.08371, -2.16578, -0.129909, 0.469629, -0.542695, 0.335692, -2.08441, -2.16663, -0.127186, -0.00138324, 0.0132147, 0.0034417, 0.0080853, -0.00861308, -0.00182672
0.0801355, 1.69199, -1.22612, -1.53792, -0.900028, -1.19394, 1.2291, -1.3027, 0.0293852, 0.00182864, -0.00314848, 0.00190602, -0.0945175, 0.0189513, 0.000885838, 3.07838, 58.5504, 27.9011, 5.27588, 1.6756, 3.77627, -0.0164075, 0.000369108, -0.00131229, 0.000387273, 0.000676388, -0.00207913, 2.77719e-05, 0.0226804, -0.00927107, -0.000957631, -0.0314965, 0.0960459, -0.0055754, 0.470975, -0.543074, 0.335977, -2.0837, -2.16578, -0.12991, 0.469637, -0.542703, 0.335691, -2.08444, -2.16666, -0.127047, -0.0014213, 0.013584, 0.0035358, 0.00861481, -0.00827925, -0.00121239
0.0811355, 1.69202, -1.22612, -1.53792, -0.900026, -1.19405, 1.22911, -1.3027, 0.0286121, 0.00204628, -0.00653199, 0.000837346, -0.0940039, 0.0190184, -0.000630021, 3.04267, 58.5147, 27.9368, 5.31555, 1.66369, 3.77627, 0.0165515, 0.000343878, -0.00130504, 0.000389238, 0.000711667, -0.00217949, 3.90479e-05, 0.0236817, -0.00857382, -0.00216322, -0.0344603, 0.0963497, -0.00531117, 0.470973, -0.54306, 0.33598, -2.08369, -2.16578, -0.129911, 0.469644, -0.542714, 0.335689, -2.08448, -2.16669, -0.126906, -0.0014598, 0.0139578, 0.00363097, 0.0078722, -0.00873668, -0.00244221
0.0821355, 1.69205, -1.22613, -1.53792, -0.900026, -1.19416, 1.22913, -1.3027, 0.0268998, -0.00207552, -0.00309611, -0.000741192, -0.0982489, 0.018087, -0.000182562, 2.92762, 58.6615, 27.8614, 5.38696, 1.64447, 3.80466, 0.0101428, 0.00032193, -0.00129261, 0.000396466, 0.000747256, -0.00226962, 4.19527e-05, 0.0247831, -0.00802274, -0.00360907, -0.035002, 0.0953098, -0.00573206, 0.470972, -0.543046, 0.335984, -2.08369, -2.16578, -0.129913, 0.469655, -0.54272, 0.335682, -2.0845, -2.16672, -0.126776, -0.00149874, 0.0143362, 0.00372719, 0.00727, -0.00924546, -0.00392819
0.0831355, 1.69208, -1.22612, -1.53792, -0.900022, -1.19426, 1.22915, -1.3027, 0.0267395, -0.000552982, -0.000772151, -0.00114389, -0.0972619, 0.0139705, -0.000358997, 2.89191, 58.6258, 27.79, 5.42664, 1.63898, 3.79733, 0.0165515, 0.000295924, -0.0012845, 0.000395078, 0.000777484, -0.00237687, 5.33774e-05, 0.0238768, -0.00778831, -0.00233447, -0.0360558, 0.0940504, -0.00391046, 0.47097, -0.543032, 0.335988, -2.08368, -2.16577, -0.129914, 0.469663, -0.542731, 0.335682, -2.08455, -2.16676, -0.126634, -0.00153811, 0.014719, 0.00382447, 0.00701022, -0.00817383, -0.00242468
0.0841355, 1.69212, -1.22612, -1.53792, -0.900018, -1.19438, 1.22917, -1.3027, 0.0285745, 0.00139119, -0.00163387, -0.000553897, -0.101424, 0.0102732, -0.000476638, 2.77686, 58.5504, 27.8257, 5.42664, 1.63898, 3.80466, 0.0229602, 0.000270308, -0.00127611, 0.00039452, 0.000818695, -0.0024887, 6.13365e-05, 0.0240696, -0.0073813, -0.0018688, -0.0417277, 0.0978185, -0.00431115, 0.470969, -0.543017, 0.335992, -2.08367, -2.16577, -0.129915, 0.46967, -0.542742, 0.335683, -2.08459, -2.16679, -0.126475, -0.00157792, 0.0151063, 0.00392278, 0.00658772, -0.00806524, -0.00188437
0.0851355, 1.69215, -1.22612, -1.53792, -0.900017, -1.19449, 1.22918, -1.3027, 0.0312448, 0.00176014, -0.00213738, -0.00104796, -0.0995514, 0.0120839, -0.00031772, 2.73719, 58.5147, 27.8614, 5.46234, 1.63257, 3.81198, 0.0229602, 0.000244945, -0.00126827, 0.000396116, 0.000864627, -0.00259651, 7.02288e-05, 0.0230274, -0.00946478, -0.00191467, -0.0402636, 0.0979001, -0.000983651, 0.470967, -0.543002, 0.335996, -2.08367, -2.16577, -0.129916, 0.469678, -0.542751, 0.335681, -2.08462, -2.16683, -0.126315, -0.00161815, 0.015498, 0.00402212, 0.00858933, -0.00655215, -0.00173158
0.0861355, 1.69218, -1.22612, -1.53792, -0.900014, -1.19461, 1.22919, -1.3027, 0.0302059, -0.000498919, -0.000749388, -0.00058125, -0.1033, 0.0101814, 0.00100892, 2.70148, 58.5861, 27.8257, 5.46234, 1.64447, 3.7836, -0.00999879, 0.000218115, -0.00125841, 0.000400805, 0.000902007, -0.00269922, 8.24818e-05, 0.024505, -0.00831969, -0.00283029, -0.0421803, 0.0978119, -0.00426132, 0.470966, -0.542986, 0.336, -2.08366, -2.16576, -0.129917, 0.469687, -0.542761, 0.335676, -2.08466, -2.16685, -0.126169, -0.00165881, 0.0158942, 0.00412249, 0.00742483, -0.00752058, -0.00273039
0.0871355, 1.69222, -1.22612, -1.53792, -0.900008, -1.19472, 1.22921, -1.3027, 0.0319946, 0.00133639, -0.000619357, 0.000535761, -0.109119, 0.0121534, -7.33503e-05, 2.55073, 58.5147, 27.8257, 5.42664, 1.62616, 3.79001, 0.0101428, 0.000194111, -0.00124672, 0.000400664, 0.000943277, -0.00280944, 8.94353e-05, 0.0256083, -0.00879648, -0.00150143, -0.0425777, 0.105526, -0.00427303, 0.470964, -0.542971, 0.336004, -2.08365, -2.16576, -0.129918, 0.469697, -0.542768, 0.335676, -2.08469, -2.16689, -0.126011, -0.0016999, 0.0162947, 0.00422387, 0.00794757, -0.00839429, -0.00150288
0.0881355, 1.69225, -1.22611, -1.53792, -0.900012, -1.19484, 1.22922, -1.3027, 0.0350502, -0.00356061, 0.00033249, -0.00134003, -0.111281, 0.00910632, 0.000425834, 2.58643, 58.4393, 27.79, 5.50201, 1.65088, 3.79001, -0.00267457, 0.000167967, -0.00123875, 0.000399809, 0.000990017, -0.0029264, 9.63533e-05, 0.0244907, -0.010415, -0.00476445, -0.0470942, 0.101311, -0.000260163, 0.470962, -0.542954, 0.336008, -2.08364, -2.16576, -0.129919, 0.469705, -0.542778, 0.335677, -2.08473, -2.16693, -0.125841, -0.0017414, 0.0166996, 0.00432627, 0.0093643, -0.00631698, -0.0044979
0.0891355, 1.69229, -1.22612, -1.53792, -0.900001, -1.19496, 1.22923, -1.3027, 0.0372599, -0.00372757, 0.000154293, 0.00268265, -0.111649, 0.0119928, 0.00102989, 2.51106, 58.475, 27.79, 5.35126, 1.65088, 3.77627, -0.0228162, 0.000139468, -0.00122929, 0.000402527, 0.00103348, -0.00303655, 0.000111145, 0.0255483, -0.0112421, -0.00426452, -0.0432792, 0.102799, -0.00236984, 0.470961, -0.542938, 0.336012, -2.08364, -2.16575, -0.129921, 0.469713, -0.542788, 0.335674, -2.08477, -2.16695, -0.125681, -0.00178332, 0.0171089, 0.00442966, 0.0102044, -0.0069948, -0.0040904
0.0901355, 1.69234, -1.22611, -1.53792, -0.900004, -1.19508, 1.22924, -1.30269, 0.0387563, -0.000368353, -0.000782882, 6.2336e-05, -0.116842, 0.00843973, 0.00092396, 2.43568, 58.3679, 27.8257, 5.42664, 1.65088, 3.79001, -0.0292249, 0.000117636, -0.00121448, 0.000402396, 0.00108471, -0.00315674, 0.000111945, 0.0250666, -0.0112363, -0.00340781, -0.0507143, 0.109187, -0.000711134, 0.470959, -0.54292, 0.336017, -2.08363, -2.16575, -0.129922, 0.469727, -0.542792, 0.335674, -2.08479, -2.167, -0.125503, -0.00182565, 0.0175225, 0.00453405, 0.0101701, -0.00623785, -0.0030653
0.0911355, 1.69238, -1.22611, -1.53792, -0.900001, -1.1952, 1.22925, -1.30269, 0.0389288, -0.000537288, 0.000275402, 0.000997435, -0.120549, 0.00607008, 0.000853339, 2.39997, 58.3679, 27.79, 5.38696, 1.65088, 3.79733, -0.0356336, 9.20388e-05, -0.00120261, 0.00040471, 0.00113129, -0.00326763, 0.000115119, 0.0259804, -0.0104908, -0.00325248, -0.0530902, 0.110944, -0.00198743, 0.470957, -0.542903, 0.336021, -2.08362, -2.16575, -0.129923, 0.469738, -0.542799, 0.335672, -2.08482, -2.16703, -0.12534, -0.0018684, 0.0179404, 0.00463942, 0.00942122, -0.00677641, -0.00292619
0.0921355, 1.69242, -1.2261, -1.53793, -0.900008, -1.19533, 1.22926, -1.30269, 0.0423201, 0.00118626, -0.00151525, -0.00107739, -0.118615, 0.00951439, 0.000806257, 2.3603, 58.2925, 27.8614, 5.46234, 1.64447, 3.79001, -0.0420422, 6.88649e-05, -0.00118835, 0.000407624, 0.00118839, -0.00338768, 0.000115202, 0.0244767, -0.01339, -0.00307266, -0.0520402, 0.113398, 0.00302724, 0.470955, -0.542885, 0.336026, -2.08361, -2.16574, -0.129924, 0.469751, -0.542803, 0.33567, -2.08484, -2.16708, -0.125156, -0.00191155, 0.0183626, 0.00474577, 0.0122261, -0.00477864, -0.00249662
0.0931355, 1.69246, -1.22611, -1.53793, -0.900001, -1.19545, 1.22927, -1.30269, 0.0399374, -0.000208473, -0.000196267, 0.00106065, -0.122065, 0.0111302, 0.000774867, 2.39997, 58.3282, 27.8257, 5.38696, 1.65088, 3.81198, -0.0484509, 4.07483e-05, -0.00117947, 0.00041071, 0.00123696, -0.00349419, 0.000126466, 0.0273163, -0.0117678, -0.0028935, -0.0497424, 0.115495, -0.00162474, 0.470953, -0.542867, 0.336031, -2.0836, -2.16574, -0.129926, 0.469759, -0.542811, 0.335667, -2.08488, -2.1671, -0.124994, -0.00195511, 0.0187891, 0.00485308, 0.0106707, -0.00724939, -0.00260476
0.0941355, 1.6925, -1.2261, -1.53793, -0.900001, -1.19557, 1.22928, -1.30269, 0.0392071, 0.00140838, -0.000146832, 0.000718852, -0.119798, 0.0089564, 0.000787849, 2.39997, 58.2568, 27.8257, 5.38696, 1.65729, 3.79733, -0.0557752, 1.50907e-05, -0.00116688, 0.000410738, 0.00128472, -0.00361166, 0.000129954, 0.0271441, -0.0113008, -0.00216319, -0.0503627, 0.114394, -0.00127116, 0.470951, -0.542848, 0.336035, -2.08359, -2.16574, -0.129927, 0.46977, -0.542817, 0.335668, -2.08491, -2.16714, -0.124823, -0.00199908, 0.0192197, 0.00496136, 0.0101807, -0.00678036, -0.00173475
0.0951355, 1.69254, -1.2261, -1.53793, -0.900003, -1.19569, 1.22928, -1.30269, 0.0419218, 0.00177464, -0.000945096, -0.000439971, -0.118392, 0.00671623, 1.66083e-05, 2.39997, 58.2172, 27.8614, 5.42664, 1.66369, 3.79733, -0.0420422, -1.12314e-05, -0.00115581, 0.000413671, 0.00133936, -0.00372523, 0.000131301, 0.0256626, -0.0127157, -0.00276867, -0.0532051, 0.112955, 0.00331183, 0.470949, -0.542829, 0.33604, -2.08358, -2.16573, -0.129929, 0.46978, -0.542823, 0.335665, -2.08493, -2.16718, -0.124649, -0.00204344, 0.0196547, 0.0050706, 0.0114744, -0.00473151, -0.00203622
0.0961355, 1.69258, -1.2261, -1.53793, -0.900003, -1.19581, 1.22928, -1.3027, 0.0440376, 0.00111387, 0.00103138, -0.000286703, -0.116938, 0.00449393, -0.000701003, 2.39997, 58.2172, 27.79, 5.42664, 1.66369, 3.81198, -0.0228162, -3.63033e-05, -0.00114445, 0.000415312, 0.00139265, -0.00383423, 0.000126828, 0.0243523, -0.0140161, -0.00278066, -0.0529543, 0.110147, 0.00746684, 0.470947, -0.542809, 0.336045, -2.08357, -2.16573, -0.12993, 0.46979, -0.542828, 0.335664, -2.08494, -2.16722, -0.124481, -0.0020882, 0.0200938, 0.00518077, 0.012681, -0.0029436, -0.00177388
0.0971355, 1.69263, -1.22609, -1.53793, -0.9, -1.19592, 1.22928, -1.30269, 0.0482155, 0.00319631, -0.000154376, 0.000741842, -0.120805, 0.00395772, 0.000244743, 2.28492, 58.11, 27.8257, 5.38696, 1.66369, 3.79733, -0.0420422, -5.73034e-05, -0.00112741, 0.000416083, 0.00144459, -0.00394342, 0.000123689, 0.0240154, -0.0153816, -0.00213407, -0.0561449, 0.115462, 0.00788026, 0.470945, -0.542789, 0.336051, -2.08357, -2.16572, -0.129932, 0.469806, -0.542827, 0.335665, -2.08496, -2.16726, -0.124314, -0.00213335, 0.0205371, 0.00529189, 0.014011, -0.00221122, -0.00101358
0.0981355, 1.69268, -1.2261, -1.53793, -0.899998, -1.19604, 1.22929, -1.30269, 0.0492848, -0.00134174, -0.000107976, 0.00360635, -0.119546, 0.00373279, -7.41962e-05, 2.24921, 58.2568, 27.8257, 5.38696, 1.6756, 3.77627, -0.0356336, -8.22708e-05, -0.00111106, 0.00042667, 0.00149643, -0.00403972, 0.000119062, 0.0249995, -0.0155633, -0.00450334, -0.0548156, 0.109797, 0.00731201, 0.470943, -0.542768, 0.336056, -2.08356, -2.16572, -0.129933, 0.469821, -0.542829, 0.335656, -2.08496, -2.1673, -0.124161, -0.0021789, 0.0209845, 0.00540394, 0.0140963, -0.00236256, -0.00339964
0.0991355, 1.69272, -1.2261, -1.53793, -0.9, -1.19616, 1.22929, -1.30269, 0.0465633, -0.000923697, 0.00168746, 0.00173801, -0.122099, 0.00326688, -0.00076154, 2.3603, 58.2568, 27.7503, 5.42664, 1.66919, 3.76163, -0.0164075, -0.000110323, -0.00110112, 0.000430123, 0.00154498, -0.00414396, 0.000119913, 0.0261625, -0.0144198, -0.00381263, -0.0551834, 0.112265, 0.00698423, 0.470941, -0.542747, 0.336061, -2.08355, -2.16572, -0.129935, 0.469829, -0.542835, 0.335653, -2.08498, -2.16733, -0.124002, -0.00222483, 0.0214361, 0.00551691, 0.0129751, -0.00321238, -0.00275108
0.100135, 1.69277, -1.22609, -1.53793, -0.9, -1.19628, 1.22929, -1.30269, 0.0468983, 0.00279597, 0.000194108, 0.00135502, -0.119839, 0.00289732, -3.29751e-05, 2.24921, 58.11, 27.79, 5.42664, 1.66919, 3.74698, -0.0292249, -0.000132677, -0.00108423, 0.000428822, 0.00160194, -0.00426417, 0.000114313, 0.0258403, -0.0145812, -0.00229663, -0.0555848, 0.114308, 0.00693337, 0.470939, -0.542726, 0.336067, -2.08354, -2.16571, -0.129936, 0.469845, -0.542835, 0.335656, -2.085, -2.16738, -0.123819, -0.00227115, 0.0218918, 0.0056308, 0.0131335, -0.00266552, -0.00109543
0.101135, 1.69282, -1.22609, -1.53793, -0.9, -1.19639, 1.22929, -1.30269, 0.0485874, 0.00101234, -0.000707946, 0.00339462, -0.12203, 0.00206419, 0.00514786, 2.20954, 58.1458, 27.8257, 5.46234, 1.64447, 3.74698, -0.0420422, -0.000157685, -0.0010702, 0.000435736, 0.00166241, -0.00436642, 0.000111722, 0.0268725, -0.0145792, -0.00357994, -0.0574576, 0.114079, 0.000536825, 0.470936, -0.542704, 0.336072, -2.08353, -2.16571, -0.129938, 0.469857, -0.542836, 0.33565, -2.085, -2.16742, -0.12365, -0.00231785, 0.0223516, 0.00574559, 0.0130751, -0.00302687, -0.00240843
0.102135, 1.69287, -1.2261, -1.53793, -0.899992, -1.19651, 1.22929, -1.30269, 0.0475128, -0.00100787, 0.00128967, 0.00755724, -0.118967, 0.00147561, 0.00358581, 2.13416, 58.2172, 27.7503, 5.38696, 1.62067, 3.74698, -0.0356336, -0.000183359, -0.00105473, 0.000440349, 0.00171085, -0.00446603, 0.000108031, 0.0281695, -0.0137012, -0.00352026, -0.0527407, 0.10896, -0.000548032, 0.470934, -0.542682, 0.336078, -2.08351, -2.1657, -0.12994, 0.469871, -0.542838, 0.335647, -2.08501, -2.16745, -0.123497, -0.00236493, 0.0228154, 0.00586128, 0.0122, -0.00388855, -0.00240914
0.103135, 1.69291, -1.2261, -1.53793, -0.899999, -1.19663, 1.22929, -1.30269, 0.0448579, -0.000681152, -0.000904656, 0.0028914, -0.121906, 0.00183825, 0.00220927, 2.13416, 58.2172, 27.8257, 5.50201, 1.60785, 3.72592, -0.0228162, -0.000209831, -0.00104029, 0.000448637, 0.00177253, -0.00457307, 0.000101059, 0.0294934, -0.0126307, -0.00461415, -0.0573989, 0.112585, 0.000290783, 0.470932, -0.542659, 0.336084, -2.0835, -2.1657, -0.129941, 0.469884, -0.542839, 0.33564, -2.08502, -2.16749, -0.123323, -0.00241239, 0.0232833, 0.00597787, 0.0110912, -0.00460271, -0.00354631
0.104135, 1.69296, -1.2261, -1.53793, -0.899999, -1.19675, 1.22929, -1.30269, 0.0446124, -0.000461032, 0.000231214, 0.00233597, -0.11926, 0.00128146, 0.00240501, 2.05878, 58.2172, 27.79, 5.50201, 1.59595, 3.72592, -0.0420422, -0.000236718, -0.00102554, 0.00045151, 0.00182879, -0.00468694, 9.96319e-05, 0.0290839, -0.0130413, -0.00423643, -0.055769, 0.110565, 0.00180654, 0.470929, -0.542636, 0.33609, -2.08349, -2.16569, -0.129943, 0.469897, -0.542842, 0.335639, -2.08503, -2.16753, -0.123147, -0.00246022, 0.0237552, 0.00609534, 0.0114524, -0.00376778, -0.00300501
0.105135, 1.693, -1.2261, -1.53793, -0.900007, -1.19687, 1.22929, -1.30269, 0.0433523, 0.000522666, -0.000681751, -0.00157008, -0.120905, 0.00062501, 0.00129368, 2.02308, 58.1815, 27.8257, 5.6488, 1.57123, 3.73324, -0.0292249, -0.000263135, -0.00101061, 0.000456043, 0.00188782, -0.00480007, 9.4401e-05, 0.0293299, -0.0127569, -0.00454986, -0.0593844, 0.113177, 0.00412703, 0.470927, -0.542612, 0.336096, -2.08348, -2.16569, -0.129945, 0.46991, -0.542843, 0.335636, -2.08504, -2.16757, -0.122968, -0.00250842, 0.0242312, 0.00621369, 0.0111176, -0.0034979, -0.00322609
0.106135, 1.69305, -1.2261, -1.53793, -0.900006, -1.197, 1.22929, -1.30269, 0.0394162, -0.000490672, 0.00130823, -0.000817011, -0.118703, 0.000719419, 0.000748894, 1.98341, 58.2172, 27.7503, 5.6488, 1.55932, 3.72592, -0.0228162, -0.000290858, -0.000995994, 0.000460191, 0.00194117, -0.00490771, 9.07049e-05, 0.0310516, -0.0110448, -0.00416215, -0.0555677, 0.11033, 0.00187726, 0.470924, -0.542588, 0.336102, -2.08347, -2.16568, -0.129946, 0.469923, -0.542845, 0.335633, -2.08505, -2.16761, -0.122802, -0.00255699, 0.0247111, 0.00633291, 0.00943508, -0.00484756, -0.00294017
0.107135, 1.6931, -1.22609, -1.53793, -0.900011, -1.19711, 1.22929, -1.30269, 0.0423413, 0.0013404, -5.62457e-05, -0.00213563, -0.11688, 0.00104576, 0.00106683, 1.83265, 58.1458, 27.79, 5.72418, 1.54651, 3.71127, -0.0356336, -0.000316158, -0.000978529, 0.000463703, 0.00200095, -0.00502297, 8.23611e-05, 0.0296415, -0.0130068, -0.00391715, -0.0564479, 0.111366, 0.00556886, 0.470922, -0.542563, 0.336109, -2.08346, -2.16568, -0.129948, 0.469939, -0.542844, 0.335631, -2.08506, -2.16766, -0.122621, -0.00260593, 0.0251949, 0.006453, 0.011304, -0.0029288, -0.00241881
0.108135, 1.69315, -1.2261, -1.53792, -0.900012, -1.19723, 1.22929, -1.30269, 0.0446352, 0.000891405, 0.00265348, -0.00222256, -0.115888, 0.000443609, 0.000543496, 1.79694, 58.1458, 27.6749, 5.76385, 1.5401, 3.7186, -0.0292249, -0.00034371, -0.000963177, 0.000466878, 0.00205042, -0.00512895, 7.5238e-05, 0.0283168, -0.0148334, -0.00344836, -0.0544715, 0.109955, 0.0101148, 0.470919, -0.542538, 0.336115, -2.08345, -2.16567, -0.12995, 0.469952, -0.542844, 0.33563, -2.08507, -2.1677, -0.122461, -0.00265523, 0.0256827, 0.00657393, 0.0130485, -0.00113049, -0.00168482
0.109135, 1.6932, -1.2261, -1.53792, -0.900011, -1.19735, 1.2293, -1.30269, 0.0460082, -0.000242592, 5.53236e-06, -0.0013848, -0.118824, 0.00136018, -0.000568786, 1.64619, 58.1815, 27.7503, 5.76385, 1.50989, 3.69021, -0.00267457, -0.00037181, -0.000945461, 0.000473339, 0.00210649, -0.00523919, 6.56389e-05, 0.0297969, -0.0148423, -0.00496383, -0.05717, 0.112073, 0.00966056, 0.470916, -0.542512, 0.336122, -2.08343, -2.16567, -0.129952, 0.469968, -0.542845, 0.335625, -2.08507, -2.16775, -0.12229, -0.00270489, 0.0261745, 0.00669572, 0.0130057, -0.00186565, -0.00329019
0.110135, 1.69324, -1.2261, -1.53792, -0.900021, -1.19748, 1.22929, -1.30269, 0.0435391, 0.000672256, 0.000838746, -0.00344897, -0.122134, 0.000916747, -0.000814739, 1.64619, 58.1458, 27.7146, 5.87494, 1.50348, 3.69021, 0.0101428, -0.000401625, -0.000933121, 0.000477708, 0.00216676, -0.00535163, 5.94595e-05, 0.0311405, -0.0136276, -0.0043603, -0.0587873, 0.11578, 0.00859029, 0.470914, -0.542486, 0.336128, -2.08342, -2.16566, -0.129954, 0.469979, -0.542847, 0.335623, -2.08508, -2.16779, -0.122112, -0.00275491, 0.0266701, 0.00681835, 0.0118128, -0.00283923, -0.00274415
0.111135, 1.69329, -1.22609, -1.53792, -0.900025, -1.1976, 1.22929, -1.30269, 0.0421228, 0.00128246, 0.00148706, -0.00400804, -0.124859, 0.000347367, 0.000232204, 1.49146, 58.11, 27.6749, 5.95032, 1.50989, 3.69754, -0.00999879, -0.000429391, -0.00091556, 0.000480864, 0.00222101, -0.00546606, 5.19575e-05, 0.0324051, -0.0126831, -0.00386043, -0.0598734, 0.118556, 0.00606106, 0.470911, -0.542459, 0.336135, -2.08341, -2.16566, -0.129956, 0.469994, -0.542846, 0.335621, -2.08509, -2.16784, -0.121938, -0.00280528, 0.0271696, 0.00694181, 0.0108826, -0.00370386, -0.00229556
0.112135, 1.69333, -1.2261, -1.53792, -0.900026, -1.19772, 1.22929, -1.30269, 0.0431627, 1.9064e-05, 0.000991286, -0.00263114, -0.121464, 0.000508448, -0.000569149, 1.38038, 58.1458, 27.6749, 5.95032, 1.49707, 3.69021, 0.0101428, -0.000460885, -0.000902138, 0.000487522, 0.00227743, -0.00557197, 4.76172e-05, 0.0324373, -0.0133405, -0.00467329, -0.0581021, 0.11479, 0.00765056, 0.470908, -0.542432, 0.336142, -2.0834, -2.16565, -0.129958, 0.470006, -0.542849, 0.335617, -2.08509, -2.16787, -0.12177, -0.00285601, 0.0276729, 0.00706609, 0.01146, -0.00307972, -0.00299926
0.113135, 1.69338, -1.2261, -1.53793, -0.900027, -1.19783, 1.22929, -1.30269, 0.04149, 1.21889e-05, -0.00203047, -0.00255865, -0.123962, 0.000885702, -0.000837626, 1.22962, 58.1458, 27.79, 5.98602, 1.49158, 3.67557, 0.0229602, -0.000491483, -0.000886039, 0.000495567, 0.00233777, -0.00568036, 4.16108e-05, 0.0348883, -0.0116759, -0.00565164, -0.0611876, 0.117413, 0.00396175, 0.470905, -0.542404, 0.336149, -2.08338, -2.16565, -0.12996, 0.47002, -0.542849, 0.33561, -2.0851, -2.16791, -0.121596, -0.00290708, 0.0281801, 0.00719119, 0.00979886, -0.00490935, -0.00417127
0.114135, 1.69342, -1.22609, -1.53792, -0.900023, -1.19795, 1.22929, -1.30269, 0.0377019, 0.000842954, 0.000409542, 8.04668e-05, -0.121151, 0.000864886, 0.00067468, 1.18995, 58.11, 27.7146, 5.91064, 1.48517, 3.66824, -0.00999879, -0.000526173, -0.00087507, 0.000496236, 0.00238331, -0.00579128, 4.99155e-05, 0.0367334, -0.00971893, -0.00377972, -0.0557555, 0.115669, -0.00146467, 0.470902, -0.542376, 0.336156, -2.08337, -2.16564, -0.129962, 0.470029, -0.542855, 0.335611, -2.08513, -2.16794, -0.121434, -0.0029585, 0.0286911, 0.00731711, 0.00792742, -0.00658877, -0.00242511
0.115135, 1.69347, -1.22609, -1.53791, -0.900035, -1.19807, 1.2293, -1.30269, 0.0358452, 0.0014897, 0.00287145, -0.00345558, -0.124672, 3.64197e-05, 0.00117116, 1.11457, 58.0704, 27.6035, 6.0614, 1.50348, 3.68289, -0.0292249, -0.000554772, -0.000858159, 0.000496833, 0.00243317, -0.00590668, 3.90931e-05, 0.0370759, -0.00937596, -0.00302766, -0.0571853, 0.119147, -0.000667486, 0.470899, -0.542347, 0.336164, -2.08336, -2.16563, -0.129964, 0.470044, -0.542854, 0.335613, -2.08513, -2.16799, -0.121265, -0.00301027, 0.0292059, 0.00744383, 0.00757287, -0.00654206, -0.00159918
0.116135, 1.69351, -1.22609, -1.53792, -0.900037, -1.19818, 1.2293, -1.30269, 0.0344726, 6.48914e-05, 0.000243833, -0.003126, -0.116417, 0.000839855, -0.0001956, 1.03919, 58.11, 27.6749, 6.09711, 1.48517, 3.66092, -0.00267457, -0.000587246, -0.000844001, 0.000505055, 0.0024865, -0.00600567, 3.58264e-05, 0.0374505, -0.00920714, -0.00465962, -0.0546015, 0.111722, 0.000636148, 0.470896, -0.542318, 0.336171, -2.08334, -2.16563, -0.129966, 0.470056, -0.542855, 0.335607, -2.08514, -2.16803, -0.121107, -0.00306237, 0.0297245, 0.00757134, 0.00730624, -0.00614831, -0.00313662
0.117135, 1.69355, -1.22609, -1.53792, -0.900039, -1.19829, 1.22929, -1.30269, 0.0343107, 0.000971116, -0.000765486, -0.0020743, -0.116173, 0.000289965, -0.000837248, 0.928108, 58.0704, 27.7146, 6.09711, 1.50348, 3.66824, 0.0165515, -0.000620276, -0.000831003, 0.000509529, 0.00253917, -0.00611017, 2.95572e-05, 0.0383904, -0.00864834, -0.00441905, -0.0551444, 0.112383, -0.000180229, 0.470893, -0.542288, 0.336179, -2.08333, -2.16562, -0.129968, 0.470067, -0.542856, 0.335604, -2.08514, -2.16807, -0.120946, -0.00311481, 0.0302468, 0.00769965, 0.00673827, -0.00661372, -0.00290053
0.118135, 1.6936, -1.22609, -1.53791, -0.900045, -1.19839, 1.2293, -1.30269, 0.0371969, 0.000647287, 0.0012529, -0.00313883, -0.111021, 0.000702933, -0.000554244, 0.813057, 58.0704, 27.6392, 6.17248, 1.50989, 3.65451, 0.0165515, -0.000649178, -0.000812801, 0.000513367, 0.00258222, -0.00620894, 1.80781e-05, 0.0359655, -0.0115592, -0.00420762, -0.0514855, 0.108364, 0.00606808, 0.47089, -0.542258, 0.336186, -2.08331, -2.16562, -0.129971, 0.470083, -0.542853, 0.335603, -2.08514, -2.16811, -0.120801, -0.00316759, 0.0307728, 0.00782873, 0.00951337, -0.00360676, -0.00227443
0.119135, 1.69364, -1.22608, -1.53792, -0.900046, -1.19849, 1.2293, -1.30269, 0.0383883, 0.00210187, -0.00269122, -0.0020871, -0.111292, 0.000740638, 0.000345522, 0.737679, 57.999, 27.79, 6.17248, 1.50348, 3.64718, -0.00267457, -0.000682893, -0.00079914, 0.000518345, 0.00263286, -0.00631059, 1.63826e-05, 0.037034, -0.0112841, -0.00470224, -0.0544783, 0.110527, 0.00345997, 0.470887, -0.542227, 0.336194, -2.0833, -2.16561, -0.129973, 0.470095, -0.542854, 0.335601, -2.08515, -2.16814, -0.120644, -0.0032207, 0.0313025, 0.00795859, 0.00920584, -0.00406659, -0.00279136
0.120135, 1.69369, -1.22608, -1.53791, -0.900048, -1.19859, 1.2293, -1.30269, 0.0370512, 0.00223639, 0.00256754, -0.00222252, -0.107533, 0.00103685, -4.80527e-06, 0.626595, 57.9633, 27.6035, 6.20819, 1.5163, 3.63254, 0.00373412, -0.000711663, -0.000779773, 0.000518135, 0.00266753, -0.00641071, -4.7472e-07, 0.0363134, -0.0119991, -0.00273192, -0.04761, 0.107621, 0.00643293, 0.470884, -0.542196, 0.336202, -2.08328, -2.1656, -0.129975, 0.470112, -0.542851, 0.335604, -2.08515, -2.1682, -0.120508, -0.00327414, 0.031836, 0.00808922, 0.00991251, -0.00309643, -0.000625504
0.121135, 1.69369, -1.22608, -1.53791, -0.900048, -1.19859, 1.2293, -1.30269, 0.0370512, 0.00223639, 0.00256754, -0.00222252, -0.107533, 0.00103685, -4.80527e-06, 0.626595, 57.9633, 27.6035, 6.20819, 1.5163, 3.63254, 0.00373412, -0.00074447, -0.000777563, 0.000521087, 0.00265805, -0.00642303, 3.21525e-06, 0.0368661, -0.0120346, -0.00277622, -0.0475023, 0.107891, 0.00647882, 0.470881, -0.542164, 0.33621, -2.08327, -2.1656, -0.129978, 0.470112, -0.542851, 0.335604, -2.08515, -2.1682, -0.120508, -0.00332791, 0.0323731, 0.00822061, 0.00991251, -0.00309643, -0.000625504
0.122135, 1.69373, -1.22608, -1.53791, -0.900048, -1.19869, 1.2293, -1.30269, 0.0433886, 0.00149088, 0.000876466, -0.00147861, -0.109353, 0.000149122, -0.000238908, 0.475838, 57.9633, 27.6392, 6.20819, 1.5282, 3.64718, 0.0101428, -0.000775643, -0.000759428, 0.00052695, 0.00270397, -0.00651736, -8.80323e-06, 0.0355172, -0.014811, -0.0041622, -0.051166, 0.108721, 0.0109571, 0.470877, -0.542132, 0.336219, -2.08325, -2.16559, -0.12998, 0.470127, -0.542847, 0.335601, -2.08515, -2.16824, -0.120364, -0.00338201, 0.0329138, 0.00835276, 0.0125323, -0.000895848, -0.00173697
0.123135, 1.69382, -1.22608, -1.53791, -0.900054, -1.19888, 1.2293, -1.30269, 0.0419243, 0.000353217, 0.000142061, -0.00127258, -0.0971093, 0.000937039, -0.000262663, 0.360787, 57.9633, 27.6749, 6.24786, 1.5282, 3.6188, 0.0101428, -0.000807744, -0.000729005, 0.000535288, 0.00279505, -0.0066875, -2.72553e-05, 0.0347086, -0.0153938, -0.00497637, -0.045092, 0.098207, 0.013178, 0.470874, -0.542099, 0.336227, -2.08324, -2.16558, -0.129982, 0.470155, -0.542844, 0.335595, -2.08515, -2.16831, -0.120095, -0.00343642, 0.0334582, 0.00848565, 0.0130013, 0.0005966, -0.0023004
0.124135, 1.69386, -1.22608, -1.53792, -0.900059, -1.19897, 1.2293, -1.30269, 0.0454075, 0.000235456, -0.000833315, -0.00484653, -0.0979125, -0.00406656, -0.00041177, 0.285408, 57.9633, 27.7146, 6.28357, 1.57123, 3.6188, 0.0165515, -0.000839518, -0.000711672, 0.000542553, 0.00284382, -0.00677914, -3.92599e-05, 0.0325201, -0.0170103, -0.00655198, -0.0527855, 0.0970505, 0.019194, 0.47087, -0.542066, 0.336235, -2.08322, -2.16557, -0.129985, 0.47017, -0.54284, 0.335591, -2.08514, -2.16835, -0.119951, -0.00349116, 0.0340062, 0.00861928, 0.0144249, 0.00361494, -0.00343155
0.125135, 1.69391, -1.22608, -1.53792, -0.900062, -1.19907, 1.2293, -1.30269, 0.0438583, -0.000678264, -0.00139076, -0.00442176, -0.0922715, -0.00283059, -3.66307e-05, 0.245735, 57.999, 27.7503, 6.32324, 1.57764, 3.61148, 0.0101428, -0.000874107, -0.000695219, 0.000550324, 0.00288414, -0.00686819, -4.68261e-05, 0.0331167, -0.0168622, -0.00708977, -0.0491018, 0.0923595, 0.0186098, 0.470867, -0.542032, 0.336244, -2.0832, -2.16557, -0.129987, 0.470184, -0.542838, 0.335586, -2.08514, -2.16839, -0.119819, -0.00354621, 0.0345577, 0.00875364, 0.0142238, 0.00365471, -0.00391712
0.126135, 1.69395, -1.22608, -1.53793, -0.900062, -1.19915, 1.2293, -1.30269, 0.0426664, -0.000452188, -0.00352563, -0.00221685, -0.0926192, -0.00163764, 0.000959316, 0.21003, 57.999, 27.8614, 6.28357, 1.57764, 3.59683, -0.0164075, -0.000908312, -0.000677955, 0.000558237, 0.00292465, -0.00695407, -5.53039e-05, 0.035487, -0.0155355, -0.00728126, -0.0487319, 0.0936476, 0.0134121, 0.470863, -0.541997, 0.336253, -2.08319, -2.16556, -0.12999, 0.470199, -0.542835, 0.335581, -2.08514, -2.16842, -0.119691, -0.00360158, 0.0351128, 0.00888872, 0.0129215, 0.00184528, -0.00430031
0.127135, 1.69399, -1.22608, -1.53792, -0.900063, -1.19924, 1.2293, -1.30269, 0.040341, -0.000301468, 0.00108325, -0.00162568, -0.0891691, -0.00104033, -0.000580864, 0.245735, 57.999, 27.7146, 6.28357, 1.60785, 3.58951, 0.0165515, -0.000942085, -0.000661245, 0.000558495, 0.00295184, -0.00704405, -7.06801e-05, 0.0356733, -0.0154398, -0.00535417, -0.0418172, 0.0911159, 0.0155491, 0.47086, -0.541962, 0.336262, -2.08317, -2.16555, -0.129992, 0.470213, -0.542833, 0.335584, -2.08514, -2.16847, -0.119573, -0.00365725, 0.0356715, 0.00902453, 0.0128474, 0.00191873, -0.00228856
0.128135, 1.69404, -1.22608, -1.53792, -0.900068, -1.19933, 1.2293, -1.30269, 0.0444974, -0.000200986, -0.000113052, -0.00212264, -0.0858823, -0.00085843, -0.000149663, 0.170357, 57.999, 27.7503, 6.32324, 1.61426, 3.58951, 0.0101428, -0.000973812, -0.000641028, 0.000565797, 0.00299156, -0.00712971, -8.78982e-05, 0.0338639, -0.018113, -0.00603976, -0.0419182, 0.0891568, 0.0202349, 0.470856, -0.541926, 0.336271, -2.08315, -2.16554, -0.129995, 0.47023, -0.542827, 0.33558, -2.08512, -2.16852, -0.119447, -0.00371324, 0.0362337, 0.00916105, 0.0153712, 0.00448319, -0.00262935
0.129135, 1.69408, -1.22609, -1.53792, -0.900066, -1.19941, 1.2293, -1.30269, 0.0447288, -0.00180443, -0.00100339, -0.000570197, -0.0885217, -0.000424677, -0.000811687, 0.21003, 58.0704, 27.79, 6.28357, 1.62616, 3.58218, 0.0293689, -0.0010097, -0.000624044, 0.000574857, 0.00302563, -0.00720665, -9.86513e-05, 0.0357086, -0.0175876, -0.00709678, -0.0428693, 0.0901504, 0.018534, 0.470852, -0.54189, 0.33628, -2.08314, -2.16554, -0.129998, 0.470244, -0.542824, 0.335574, -2.08512, -2.16855, -0.119334, -0.00376953, 0.0367994, 0.00929827, 0.0148178, 0.00336977, -0.0038077
0.130135, 1.69413, -1.22608, -1.53792, -0.900066, -1.19949, 1.2293, -1.30269, 0.0446171, 0.000467478, -0.00150414, -0.000442475, -0.0859135, -0.000375861, 0.00115442, 0.134651, 57.999, 27.8257, 6.28357, 1.65088, 3.58218, -0.0164075, -0.00104265, -0.000605703, 0.000578763, 0.00306343, -0.00729186, -0.000106932, 0.0357576, -0.0177063, -0.00595737, -0.0416536, 0.0906121, 0.0169853, 0.470849, -0.541853, 0.336289, -2.08312, -2.16553, -0.13, 0.47026, -0.542818, 0.335574, -2.08511, -2.16858, -0.119209, -0.00382613, 0.0373685, 0.00943618, 0.0149232, 0.00371973, -0.00255675
0.131135, 1.69417, -1.22608, -1.53792, -0.900069, -1.19956, 1.2293, -1.30269, 0.0425823, 0.000311649, 0.0021652, -0.000341741, -0.0832029, 0.000188494, -0.000688355, 0.134651, 57.999, 27.8257, 6.28357, 1.65088, 3.56845, 0.0229602, -0.00107521, -0.000584686, 0.000584422, 0.00309127, -0.00737034, -0.000129249, 0.0360517, -0.0176353, -0.00462914, -0.036234, 0.0884873, 0.0194507, 0.470845, -0.541816, 0.336299, -2.0831, -2.16552, -0.130003, 0.470278, -0.542811, 0.335572, -2.0851, -2.16863, -0.119104, -0.00388303, 0.0379411, 0.00957479, 0.0148546, 0.00379415, -0.0011511
0.132135, 1.69422, -1.22608, -1.53792, -0.900074, -1.19964, 1.22931, -1.30269, 0.0411794, -0.000627454, 0.00170746, -0.00119092, -0.076266, 0.000344762, -0.000696192, 0.134651, 58.0347, 27.8257, 6.32324, 1.64447, 3.56112, 0.0293689, -0.00110813, -0.000564493, 0.000590091, 0.00312071, -0.00744872, -0.000148825, 0.0358443, -0.017822, -0.00543056, -0.0334223, 0.0823007, 0.0209917, 0.470841, -0.541778, 0.336308, -2.08308, -2.16551, -0.130006, 0.470295, -0.542804, 0.33557, -2.08508, -2.16868, -0.118996, -0.00394022, 0.0385172, 0.00971408, 0.0149472, 0.00470675, -0.00177716
0.133135, 1.69426, -1.22609, -1.53792, -0.900073, -1.19971, 1.2293, -1.30269, 0.0443785, -0.00125352, 0.00133631, -0.000820244, -0.0761842, 0.00073325, 0.000248001, 0.0949785, 58.0704, 27.8257, 6.32324, 1.65088, 3.54648, 0.0101428, -0.00114148, -0.000543326, 0.000596782, 0.00315248, -0.00752589, -0.000164213, 0.035288, -0.0195996, -0.00605849, -0.0336102, 0.0821938, 0.0227954, 0.470837, -0.541739, 0.336318, -2.08306, -2.1655, -0.130009, 0.470314, -0.542796, 0.335567, -2.08507, -2.16872, -0.118887, -0.00399771, 0.0390967, 0.00985405, 0.016622, 0.00600585, -0.00222554
0.134135, 1.6943, -1.22609, -1.53792, -0.900069, -1.19979, 1.22931, -1.30269, 0.0408716, -0.000835683, 0.00103937, 0.00119668, -0.0722496, 0.000459489, 0.000911359, 0.170357, 58.0704, 27.8257, 6.24786, 1.6756, 3.54648, -0.00999879, -0.00117963, -0.000526756, 0.000601376, 0.00317687, -0.00760328, -0.000169496, 0.0372596, -0.0175497, -0.00552942, -0.0306311, 0.0792733, 0.0181178, 0.470833, -0.5417, 0.336328, -2.08305, -2.1655, -0.130011, 0.470327, -0.542793, 0.335566, -2.08507, -2.16875, -0.118785, -0.0040555, 0.0396796, 0.00999469, 0.0146073, 0.00447672, -0.00180782
0.135135, 1.69435, -1.22609, -1.53792, -0.90007, -1.19986, 1.22931, -1.30269, 0.0426862, -0.00232036, -0.000958952, 0.000782994, -0.0724078, 0.000792944, 0.000336334, 0.059273, 58.1458, 27.9011, 6.24786, 1.66369, 3.53274, -0.00267457, -0.00121465, -0.000504981, 0.000611373, 0.00320763, -0.00767653, -0.000184929, 0.0375569, -0.0184187, -0.00727848, -0.0326406, 0.0786165, 0.019918, 0.470829, -0.541661, 0.336338, -2.08303, -2.16549, -0.130014, 0.470346, -0.542786, 0.33556, -2.08506, -2.16879, -0.118681, -0.00411357, 0.0402659, 0.010136, 0.0153638, 0.00507585, -0.00346706
0.136135, 1.69439, -1.22609, -1.53792, -0.900075, -1.19993, 1.22931, -1.30268, 0.0403164, -0.00154691, -0.000555771, -0.000324318, -0.0682285, 0.000512123, 0.000495512, 0.0949785, 58.1458, 27.9011, 6.28357, 1.65729, 3.53274, -0.00999879, -0.00125004, -0.000485792, 0.000617376, 0.00323505, -0.00775058, -0.000200208, 0.0378745, -0.0178502, -0.00678647, -0.0305607, 0.0761229, 0.0200173, 0.470825, -0.54162, 0.336348, -2.08301, -2.16548, -0.130017, 0.470362, -0.542779, 0.335558, -2.08504, -2.16883, -0.11858, -0.00417194, 0.0408555, 0.0102779, 0.0147671, 0.00525287, -0.00287222
0.137135, 1.69444, -1.22609, -1.53792, -0.900068, -1.2, 1.22931, -1.30268, 0.0419943, -0.000196054, -0.000307866, 0.0015387, -0.0663015, 0.00087157, 0.00104244, -0.0161054, 58.11, 27.9011, 6.20819, 1.68201, 3.5181, -0.0292249, -0.00128541, -0.000464646, 0.000621187, 0.00326083, -0.00782728, -0.000212926, 0.0377644, -0.0187147, -0.00575151, -0.0282657, 0.0762404, 0.0202859, 0.470821, -0.541579, 0.336358, -2.08299, -2.16547, -0.13002, 0.47038, -0.542771, 0.335559, -2.08504, -2.16887, -0.118477, -0.00423059, 0.0414484, 0.0104206, 0.0156059, 0.00583042, -0.0017179
0.138135, 1.69449, -1.22609, -1.53792, -0.900076, -1.20006, 1.22931, -1.30269, 0.0399031, -0.000130703, -0.000158258, -0.0016717, -0.0680548, 0.000571762, 0.000694969, 0.0196001, 58.11, 27.9011, 6.32324, 1.66919, 3.5181, -0.0292249, -0.00132009, -0.000443539, 0.000627795, 0.00328541, -0.00789806, -0.000237826, 0.0386345, -0.0180712, -0.00606251, -0.0302781, 0.0781137, 0.0209136, 0.470816, -0.541538, 0.336369, -2.08297, -2.16546, -0.130023, 0.470398, -0.542762, 0.335557, -2.08501, -2.16891, -0.118384, -0.00428952, 0.0420447, 0.0105638, 0.0149242, 0.00558972, -0.00199844
0.139135, 1.69453, -1.22609, -1.53792, -0.900075, -1.20013, 1.22931, -1.30269, 0.0432876, -0.00259279, -0.000905484, -0.000191125, -0.0653725, 0.000645478, -0.000248755, -0.0161054, 58.2172, 27.9368, 6.28357, 1.6756, 3.51077, -0.00999879, -0.00135814, -0.000424716, 0.000637748, 0.00331241, -0.00796204, -0.000251859, 0.0380518, -0.019908, -0.00779416, -0.0295239, 0.0738299, 0.0245437, 0.470812, -0.541496, 0.336379, -2.08295, -2.16545, -0.130026, 0.470413, -0.542756, 0.335551, -2.085, -2.16895, -0.118293, -0.00434873, 0.0426443, 0.0107077, 0.016615, 0.00710829, -0.00353048
0.140135, 1.69457, -1.2261, -1.53792, -0.900078, -1.20019, 1.22931, -1.30268, 0.0456965, -0.00265655, -0.00141244, -0.00105895, -0.0633242, 0.000967631, 0.000308888, -0.0557783, 58.2568, 27.9725, 6.32324, 1.68201, 3.49612, -0.0228162, -0.00139377, -0.000403029, 0.000645524, 0.0033355, -0.00802806, -0.000270881, 0.0370821, -0.0216953, -0.0082796, -0.0293865, 0.0727479, 0.0276249, 0.470808, -0.541453, 0.33639, -2.08293, -2.16544, -0.130029, 0.470432, -0.542746, 0.335548, -2.08498, -2.16899, -0.118206, -0.00440822, 0.0432472, 0.0108522, 0.0182879, 0.00881745, -0.00376967
0.141135, 1.69462, -1.22609, -1.53792, -0.900079, -1.20025, 1.22931, -1.30268, 0.048422, 0.000827425, -8.65897e-05, -0.000708598, -0.0658774, 0.000878529, 0.000680649, -0.131157, 58.1458, 27.9368, 6.32324, 1.66919, 3.48971, -0.0356336, -0.00142794, -0.00038004, 0.000645852, 0.00335353, -0.00810368, -0.000291878, 0.0364825, -0.0230508, -0.0059037, -0.0293059, 0.0785476, 0.0294009, 0.470803, -0.54141, 0.336401, -2.08291, -2.16543, -0.130032, 0.470451, -0.542735, 0.335552, -2.08496, -2.16903, -0.118114, -0.00446799, 0.0438533, 0.0109973, 0.0196475, 0.0097043, -0.00122777
0.142135, 1.69466, -1.22609, -1.53792, -0.900081, -1.2003, 1.22931, -1.30268, 0.0463824, -0.00111882, -4.28599e-05, -0.000474374, -0.0633986, 0.00139655, -2.09481e-05, -0.166862, 58.2172, 27.9368, 6.32324, 1.66369, 3.46774, -0.0228162, -0.00146489, -0.000358259, 0.000654017, 0.00336948, -0.00816362, -0.00031437, 0.0378248, -0.0223101, -0.00689895, -0.0272846, 0.0750557, 0.0288268, 0.470799, -0.541366, 0.336412, -2.08288, -2.16542, -0.130036, 0.47047, -0.542726, 0.335548, -2.08494, -2.16908, -0.118041, -0.00452802, 0.0444627, 0.0111431, 0.0188595, 0.00911235, -0.00225214
0.143135, 1.6947, -1.2261, -1.53792, -0.900087, -1.20036, 1.22931, -1.30268, 0.0408711, -0.00250912, -0.00178066, -0.00198817, -0.0615831, 0.00092883, -1.39625e-05, -0.166862, 58.2925, 28.0121, 6.39465, 1.66369, 3.46774, -0.0228162, -0.00150448, -0.000339335, 0.000665371, 0.00339537, -0.0082245, -0.000331352, 0.0405456, -0.0194333, -0.00834107, -0.0282349, 0.0723418, 0.0245564, 0.470794, -0.541322, 0.336423, -2.08286, -2.16541, -0.130039, 0.470485, -0.542718, 0.335542, -2.08492, -2.16911, -0.117956, -0.00458833, 0.0450753, 0.0112895, 0.0159712, 0.00714404, -0.00386659
0.144136, 1.69475, -1.2261, -1.53792, -0.900087, -1.20041, 1.22931, -1.30268, 0.0434556, -0.00250796, -0.000250725, -0.000491337, -0.0605268, 0.00166873, -9.3061e-06, -0.317619, 58.3282, 27.9725, 6.35895, 1.66919, 3.43936, -0.0228162, -0.0015399, -0.000313764, 0.000671929, 0.00340928, -0.00828757, -0.000357648, 0.0400195, -0.0211117, -0.00771168, -0.0253139, 0.0720065, 0.0269358, 0.47079, -0.541277, 0.336434, -2.08284, -2.1654, -0.130042, 0.470507, -0.542706, 0.33554, -2.08489, -2.16916, -0.117882, -0.00464891, 0.0456911, 0.0114364, 0.017591, 0.00825143, -0.00306864
0.145137, 1.69479, -1.2261, -1.53792, -0.900089, -1.20046, 1.22932, -1.30268, 0.0415807, -0.0026, 0.00196896, -0.000328391, -0.058543, 0.00138251, -0.00048092, -0.317619, 58.3679, 28.0121, 6.35895, 1.64447, 3.43204, -0.00999879, -0.00157949, -0.000294048, 0.000680046, 0.00342601, -0.00834608, -0.000377143, 0.0406609, -0.0206249, -0.00693479, -0.0222125, 0.0702428, 0.0271942, 0.470785, -0.541231, 0.336446, -2.08282, -2.16539, -0.130045, 0.470523, -0.542697, 0.335537, -2.08487, -2.1692, -0.117809, -0.00470975, 0.04631, 0.011584, 0.0170957, 0.00809747, -0.00224014
0.146137, 1.69483, -1.22611, -1.53792, -0.900095, -1.20051, 1.22932, -1.30269, 0.0421515, -0.00256855, -0.000191075, -0.00105477, -0.058222, 0.00173455, -0.00130396, -0.392998, 58.4036, 28.0875, 6.39465, 1.64447, 3.41006, 0.0165515, -0.00161788, -0.000271838, 0.000689125, 0.00344423, -0.00840584, -0.000402951, 0.0412515, -0.0208682, -0.00782654, -0.0239442, 0.0707326, 0.0283456, 0.47078, -0.541185, 0.336457, -2.0828, -2.16538, -0.130049, 0.470542, -0.542686, 0.335533, -2.08484, -2.16924, -0.117735, -0.00477085, 0.0469322, 0.0117321, 0.0172661, 0.00828497, -0.00307303
0.147137, 1.69487, -1.22611, -1.53791, -0.900093, -1.20056, 1.22932, -1.30269, 0.042479, -0.00254758, 0.0018305, 0.000966787, -0.0574713, 0.00115567, 0.000588759, -0.468376, 58.4393, 28.0121, 6.32324, 1.63257, 3.41006, -0.0228162, -0.00165627, -0.000250013, 0.000692344, 0.00344986, -0.00846322, -0.000423286, 0.0417146, -0.0209723, -0.00693585, -0.0212778, 0.0698704, 0.0262744, 0.470776, -0.541138, 0.336469, -2.08277, -2.16537, -0.130052, 0.47056, -0.542676, 0.335535, -2.08482, -2.16928, -0.117676, -0.00483222, 0.0475574, 0.0118809, 0.0173582, 0.00832002, -0.00212143
0.148137, 1.6949, -1.2261, -1.53791, -0.900106, -1.20061, 1.22932, -1.30268, 0.0409918, -2.79531e-05, 0.0037141, -0.00507958, -0.0576557, 0.00127855, 0.000155148, -0.468376, 58.3679, 28.0478, 6.43433, 1.64447, 3.39633, -0.0164075, -0.00169428, -0.000228921, 0.000696368, 0.00346597, -0.00852865, -0.000447475, 0.0406446, -0.021818, -0.00557982, -0.0218866, 0.0732932, 0.0313844, 0.470771, -0.54109, 0.336481, -2.08275, -2.16536, -0.130056, 0.470578, -0.542664, 0.335536, -2.0848, -2.16933, -0.117597, -0.00489384, 0.0481858, 0.0120302, 0.0181525, 0.00983005, -0.000493411
0.149137, 1.69494, -1.2261, -1.53791, -0.90011, -1.20065, 1.22932, -1.30268, 0.0407462, -0.000853853, 0.00192278, -0.00364709, -0.053116, 0.00166578, 0.000815509, -0.508049, 58.4036, 28.0875, 6.43433, 1.65729, 3.37436, -0.0356336, -0.00173434, -0.00020624, 0.000702543, 0.00347478, -0.00858893, -0.000467224, 0.0414214, -0.0216816, -0.00650983, -0.0202261, 0.0692493, 0.0299628, 0.470766, -0.541042, 0.336493, -2.08273, -2.16535, -0.130059, 0.470597, -0.542654, 0.335535, -2.08478, -2.16937, -0.117532, -0.00495572, 0.0488173, 0.01218, 0.0179483, 0.0098335, -0.00137981
0.150137, 1.69498, -1.22611, -1.53791, -0.900116, -1.20069, 1.22933, -1.30268, 0.0406598, -0.00223967, 0.00156291, -0.00262692, -0.0486783, 0.00138149, -0.000405763, -0.543754, 58.475, 28.0875, 6.43433, 1.63898, 3.36703, -0.00999879, -0.00177286, -0.000182613, 0.000711565, 0.00348415, -0.00863801, -0.000496974, 0.0417138, -0.0218544, -0.00738818, -0.0182187, 0.0643452, 0.0316009, 0.470761, -0.540993, 0.336505, -2.0827, -2.16534, -0.130063, 0.470616, -0.542641, 0.335531, -2.08475, -2.16941, -0.117478, -0.00501785, 0.0494519, 0.0123305, 0.018037, 0.010323, -0.00214856
0.151137, 1.69502, -1.2261, -1.53791, -0.900127, -1.20073, 1.22933, -1.30268, 0.0375149, -0.000657896, -0.000417707, -0.00589488, -0.0466374, 0.0014294, -3.31492e-05, -0.583427, 58.4393, 28.1589, 6.47003, 1.65729, 3.3533, -0.0164075, -0.0018114, -0.000160826, 0.000717856, 0.00349844, -0.0086928, -0.000523356, 0.042663, -0.0207223, -0.00748995, -0.0197522, 0.0649296, 0.0307464, 0.470756, -0.540944, 0.336517, -2.08268, -2.16533, -0.130066, 0.470634, -0.542627, 0.335531, -2.08471, -2.16946, -0.117413, -0.00508023, 0.0500896, 0.0124815, 0.0168745, 0.00999317, -0.00221246
0.152137, 1.69506, -1.22611, -1.5379, -0.900136, -1.20076, 1.22932, -1.30268, 0.0382378, -0.00480029, 0.000714839, -0.00523141, -0.0443383, 0.000952768, -0.000259458, -0.619133, 58.6258, 28.1232, 6.5097, 1.65729, 3.3533, -0.00999879, -0.00184854, -0.000135498, 0.000729079, 0.00350416, -0.00873119, -0.000558481, 0.0428512, -0.0214672, -0.0095685, -0.0181219, 0.0589028, 0.0325524, 0.470751, -0.540894, 0.33653, -2.08266, -2.16532, -0.13007, 0.470655, -0.542611, 0.335526, -2.08467, -2.1695, -0.117375, -0.00514285, 0.0507303, 0.012633, 0.017486, 0.0108012, -0.00416642
0.153137, 1.6951, -1.22611, -1.53789, -0.900145, -1.20079, 1.22933, -1.30269, 0.0364495, -0.00320019, 0.00143035, -0.00698249, -0.0426499, 0.00172012, -0.00139368, -0.694511, 58.6258, 28.0875, 6.5097, 1.65729, 3.324, 0.0229602, -0.00188633, -0.000110879, 0.000732764, 0.0035023, -0.00878006, -0.000594173, 0.0432314, -0.0213227, -0.00850397, -0.0163261, 0.0598775, 0.0343917, 0.470746, -0.540843, 0.336542, -2.08263, -2.16531, -0.130073, 0.470676, -0.542596, 0.335528, -2.08463, -2.16956, -0.117335, -0.00520573, 0.051374, 0.0127851, 0.0173318, 0.0108993, -0.00301943
0.154137, 1.69513, -1.22611, -1.5379, -0.900154, -1.20082, 1.22933, -1.30269, 0.0342512, -0.00213346, 0.00324713, -0.00420495, -0.0363307, 0.00114666, -0.00140383, -0.734184, 58.6258, 28.1232, 6.47003, 1.65088, 3.324, 0.0357776, -0.00192638, -8.9029e-05, 0.000740182, 0.0035081, -0.0088234, -0.000622701, 0.0439053, -0.0204123, -0.00684381, -0.01042, 0.0553668, 0.0328172, 0.470741, -0.540792, 0.336555, -2.08261, -2.1653, -0.130077, 0.470694, -0.542582, 0.335526, -2.0846, -2.1696, -0.117291, -0.00526884, 0.0520207, 0.0129378, 0.0164451, 0.0105866, -0.00130616
0.155137, 1.69517, -1.2261, -1.53789, -0.900169, -1.20085, 1.22933, -1.30269, 0.0355517, 0.000340929, 0.00482502, -0.00720032, -0.0372439, 0.000764368, -0.000461172, -0.76989, 58.5504, 28.1589, 6.5097, 1.66369, 3.324, 0.0229602, -0.00196333, -6.42509e-05, 0.000742616, 0.00351377, -0.00887778, -0.000656918, 0.0426806, -0.0219122, -0.0053912, -0.0110466, 0.0589408, 0.0362396, 0.470735, -0.54074, 0.336568, -2.08258, -2.16528, -0.130081, 0.470714, -0.542565, 0.33553, -2.08456, -2.16965, -0.117237, -0.0053322, 0.0526704, 0.0130909, 0.0178893, 0.0122825, 0.000424919
0.156137, 1.69519, -1.22611, -1.53789, -0.900184, -1.20087, 1.22933, -1.30269, 0.0308544, -0.00320639, 0.00512604, -0.0092777, -0.032595, 0.000746885, -0.000782166, -0.694511, 58.6972, 28.2343, 6.54541, 1.66369, 3.31759, 0.0357776, -0.00200792, -4.63167e-05, 0.000755531, 0.00351755, -0.00890968, -0.000678589, 0.0441803, -0.0204205, -0.00747097, -0.00907215, 0.051943, 0.0355706, 0.47073, -0.540687, 0.336581, -2.08255, -2.16527, -0.130085, 0.470728, -0.542554, 0.335523, -2.08453, -2.16968, -0.117206, -0.0053958, 0.0533231, 0.0132446, 0.0163132, 0.0117159, -0.00166406
0.157137, 1.69522, -1.22611, -1.53788, -0.900197, -1.20089, 1.22933, -1.30269, 0.0303659, -0.000467156, 0.00405983, -0.00995613, -0.0288876, 0.000497884, -0.00103007, -0.734184, 58.6258, 28.2343, 6.54541, 1.65729, 3.31759, 0.0495105, -0.00204641, -2.30381e-05, 0.000756107, 0.00351283, -0.0089558, -0.000715802, 0.0440707, -0.0204722, -0.00638027, -0.00836709, 0.0519665, 0.0366656, 0.470725, -0.540634, 0.336594, -2.08253, -2.16526, -0.130089, 0.470747, -0.542537, 0.335529, -2.08449, -2.16974, -0.117172, -0.00545963, 0.0539787, 0.0133988, 0.0163374, 0.0123133, -0.000418773
0.158137, 1.69526, -1.22611, -1.53788, -0.900209, -1.20091, 1.22933, -1.30269, 0.0306573, -0.00281709, 0.00459938, -0.00977215, -0.022349, 9.45343e-05, -0.000449354, -0.809562, 58.7329, 28.3097, 6.5097, 1.6756, 3.324, 0.0431018, -0.00208762, 4.41467e-07, 0.000765153, 0.00351014, -0.00899084, -0.000747879, 0.0434477, -0.0214356, -0.00765981, -0.00522206, 0.044367, 0.0387645, 0.470719, -0.54058, 0.336608, -2.0825, -2.16525, -0.130092, 0.470766, -0.542522, 0.335526, -2.08444, -2.16978, -0.117147, -0.00552369, 0.0546373, 0.0135535, 0.0171659, 0.0138253, -0.00146091
0.159137, 1.69528, -1.22611, -1.53787, -0.90023, -1.20092, 1.22933, -1.30269, 0.0240521, -0.00187806, 0.0068403, -0.0153234, -0.0213908, 0.00030036, -2.83022e-05, -0.734184, 58.7329, 28.3097, 6.58508, 1.6756, 3.31759, 0.0357776, -0.00212807, 2.16718e-05, 0.00077059, 0.0035047, -0.00902488, -0.000779224, 0.0446949, -0.0195342, -0.00676485, -0.00402702, 0.0451061, 0.0381185, 0.470714, -0.540525, 0.336621, -2.08248, -2.16524, -0.130096, 0.470783, -0.542505, 0.335527, -2.08441, -2.16982, -0.117126, -0.00558799, 0.0552987, 0.0137087, 0.0152808, 0.0130389, -0.000559545
0.160137, 1.6953, -1.22611, -1.53786, -0.900245, -1.20094, 1.22933, -1.30269, 0.0242733, -0.00218006, 0.00762847, -0.0167626, -0.0169232, -3.71357e-05, 0.00045585, -0.734184, 58.7726, 28.3454, 6.54541, 1.70032, 3.324, 0.0229602, -0.0021702, 4.22824e-05, 0.000774685, 0.00349759, -0.00906039, -0.000810965, 0.0437969, -0.0206064, -0.00696155, -0.00214673, 0.0414094, 0.0410525, 0.470708, -0.54047, 0.336635, -2.08245, -2.16522, -0.1301, 0.4708, -0.54249, 0.33553, -2.08437, -2.16987, -0.117105, -0.00565251, 0.0559631, 0.0138645, 0.0162476, 0.014665, -0.000492065
0.161137, 1.69533, -1.22612, -1.53786, -0.900264, -1.20094, 1.22933, -1.30269, 0.0252496, -0.00405183, 0.00543016, -0.0188811, -0.0132707, 0.000755124, 0.000541259, -0.76989, 58.8837, 28.4961, 6.54541, 1.71863, 3.30295, 0.0165515, -0.00221262, 6.521e-05, 0.000787163, 0.00349635, -0.00908727, -0.00084539, 0.0434165, -0.0218748, -0.00917083, -0.00284919, 0.0376616, 0.0440598, 0.470702, -0.540414, 0.336649, -2.08242, -2.16521, -0.130104, 0.470818, -0.542473, 0.335524, -2.08432, -2.16991, -0.117087, -0.00571726, 0.0566303, 0.0140207, 0.0173541, 0.0161031, -0.00249797
0.162137, 1.69535, -1.22612, -1.53784, -0.900278, -1.20095, 1.22933, -1.30269, 0.0250341, -0.00270122, 0.00859078, -0.0164202, -0.00959255, -0.000276487, -0.000622505, -0.76989, 58.8837, 28.4565, 6.5097, 1.71222, 3.324, 0.0431018, -0.00225365, 8.68846e-05, 0.000788624, 0.00348032, -0.00911631, -0.000883203, 0.0433052, -0.0219984, -0.00705235, 0.00218396, 0.0353878, 0.0456276, 0.470697, -0.540357, 0.336663, -2.08239, -2.1652, -0.130108, 0.470835, -0.542456, 0.335529, -2.08427, -2.16996, -0.117083, -0.00578224, 0.0573004, 0.0141774, 0.017487, 0.0165603, -0.000237586
0.163137, 1.69537, -1.22612, -1.53783, -0.900296, -1.20095, 1.22933, -1.30269, 0.0210631, -0.00347125, 0.00889048, -0.0145987, -0.00689476, 0.000324295, -0.000415003, -0.734184, 58.9551, 28.4961, 6.47003, 1.70581, 3.31027, 0.0431018, -0.00229834, 0.000106353, 0.000795241, 0.00346645, -0.00914059, -0.000913467, 0.0458426, -0.0198838, -0.00693734, 0.00576928, 0.032742, 0.0410258, 0.470691, -0.5403, 0.336677, -2.08237, -2.16519, -0.130113, 0.47085, -0.542441, 0.335529, -2.08423, -2.17, -0.117081, -0.00584743, 0.0579733, 0.0143346, 0.015406, 0.0146238, -0.00029949
0.164137, 1.69539, -1.22611, -1.53782, -0.900317, -1.20095, 1.22933, -1.30269, 0.0260854, -0.00231417, 0.00930251, -0.0164986, -0.0058614, 0.000487459, -0.000276669, -0.76989, 58.9551, 28.5319, 6.43433, 1.72504, 3.30295, 0.0431018, -0.00234017, 0.000128914, 0.000799008, 0.00345391, -0.00917151, -0.000951125, 0.0433524, -0.023366, -0.0066742, 0.00534246, 0.0337914, 0.0480949, 0.470685, -0.540242, 0.336692, -2.08234, -2.16517, -0.130117, 0.470869, -0.542422, 0.335533, -2.08419, -2.17005, -0.117072, -0.00591285, 0.058649, 0.0144922, 0.0187381, 0.0178613, 0.000398106
0.165137, 1.69542, -1.22611, -1.53782, -0.900345, -1.20095, 1.22933, -1.30269, 0.0234963, 0.000773837, 0.00936218, -0.0165342, -0.00432221, 0.000324968, 8.68215e-05, -0.809562, 58.9908, 28.5715, 6.47003, 1.72504, 3.30295, 0.0357776, -0.00238072, 0.000152681, 0.000804545, 0.0034453, -0.00920076, -0.000993181, 0.044561, -0.0220583, -0.00476797, 0.00676447, 0.0357956, 0.0457474, 0.470679, -0.540183, 0.336706, -2.08231, -2.16516, -0.130121, 0.470888, -0.542402, 0.335535, -2.08413, -2.1701, -0.11706, -0.00597848, 0.0593275, 0.0146504, 0.017481, 0.0169977, 0.00228819
0.166137, 1.69543, -1.22611, -1.53781, -0.900375, -1.20095, 1.22933, -1.30269, 0.0205671, 0.00205755, 0.00556781, -0.0197501, 0.00555536, 0.00048791, 0.000769958, -0.809562, 59.0662, 28.6429, 6.5097, 1.74335, 3.29562, 0.0165515, -0.00242377, 0.000174519, 0.000812902, 0.00343649, -0.0092254, -0.00103146, 0.0443422, -0.0216261, -0.00569867, 0.00736022, 0.0298651, 0.0465219, 0.470673, -0.540124, 0.336721, -2.08228, -2.16515, -0.130125, 0.470905, -0.542383, 0.335534, -2.08408, -2.17014, -0.117053, -0.00604433, 0.0600088, 0.0148089, 0.0169412, 0.0180219, 0.00157423
0.167137, 1.69545, -1.22611, -1.5378, -0.900396, -1.20095, 1.22933, -1.30269, 0.0216265, 0.000986995, 0.00353144, -0.0191244, 0.0040524, -0.000217264, -0.000198772, -0.809562, 59.1019, 28.6826, 6.43433, 1.74884, 3.31027, 0.0357776, -0.00247019, 0.000193019, 0.000817004, 0.00342069, -0.00925078, -0.00106499, 0.0455117, -0.0214866, -0.00712427, 0.00445906, 0.0301517, 0.0465862, 0.470667, -0.540064, 0.336735, -2.08225, -2.16513, -0.130129, 0.470919, -0.542367, 0.335536, -2.08404, -2.17019, -0.117053, -0.00611038, 0.0606929, 0.014968, 0.0167252, 0.0177676, 0.000145851
0.168137, 1.69546, -1.22611, -1.53778, -0.900419, -1.20095, 1.22933, -1.30269, 0.0201735, 0.00221517, 0.00927847, -0.0213437, 0.00379398, -0.000144844, 0.000342203, -0.845268, 59.1772, 28.6826, 6.32324, 1.73053, 3.31027, 0.0229602, -0.00251578, 0.00021352, 0.000821198, 0.00340182, -0.00927488, -0.00109899, 0.0449446, -0.02218, -0.00463974, 0.0088683, 0.0317575, 0.0492565, 0.470661, -0.540003, 0.33675, -2.08222, -2.16512, -0.130134, 0.470934, -0.54235, 0.335539, -2.08399, -2.17023, -0.117057, -0.00617665, 0.0613797, 0.0151275, 0.0174234, 0.0186578, 0.0028238
0.169137, 1.69548, -1.22611, -1.53777, -0.900458, -1.20095, 1.22933, -1.30268, 0.021221, 0.00357815, 0.0142757, -0.0282818, 0.00304343, 0.000445971, 0.00117757, -0.845268, 59.2487, 28.6429, 6.43433, 1.72504, 3.29562, -0.00267457, -0.00255777, 0.000237153, 0.000825292, 0.00338569, -0.00930368, -0.00114508, 0.0421625, -0.025238, -0.0030799, 0.0102472, 0.0347226, 0.0577146, 0.470655, -0.539942, 0.336766, -2.08219, -2.1651, -0.130138, 0.470953, -0.542328, 0.335543, -2.08394, -2.17029, -0.117055, -0.00624313, 0.0620692, 0.0152874, 0.0203685, 0.0219785, 0.00486251
0.170137, 1.69549, -1.22611, -1.53775, -0.900486, -1.20094, 1.22933, -1.30268, 0.0176116, 0.00357424, 0.016063, -0.028785, 0.00317747, 0.00056858, 0.00129367, -0.920646, 59.3597, 28.6826, 6.35895, 1.70032, 3.2883, -0.0164075, -0.00260152, 0.000260924, 0.000831651, 0.00336796, -0.00932494, -0.00118761, 0.0439432, -0.0237184, -0.00236524, 0.0124481, 0.0348427, 0.0554359, 0.470649, -0.53988, 0.336781, -2.08216, -2.16509, -0.130143, 0.470972, -0.542307, 0.335544, -2.08388, -2.17034, -0.117062, -0.00630981, 0.0627614, 0.0154478, 0.0188753, 0.0207398, 0.0054954
0.171137, 1.6955, -1.22611, -1.53774, -0.900521, -1.20094, 1.22933, -1.30269, 0.0166493, 0.00220305, 0.012734, -0.0336181, 0.00161489, 0.000379053, 0.000116464, -0.809562, 59.3994, 28.7937, 6.32324, 1.71863, 3.2883, 0.00373412, -0.00265141, 0.000277245, 0.000836194, 0.0033566, -0.00935708, -0.00122236, 0.0447698, -0.0235335, -0.00502808, 0.00654053, 0.0356592, 0.0578662, 0.470642, -0.539817, 0.336796, -2.08213, -2.16508, -0.130147, 0.470984, -0.542293, 0.335547, -2.08384, -2.17038, -0.117051, -0.00637669, 0.0634563, 0.0156086, 0.0185547, 0.021025, 0.00290232
0.172137, 1.69552, -1.22612, -1.53773, -0.900553, -1.20094, 1.22933, -1.30268, 0.0151741, 0.00091282, 0.0162598, -0.0331011, 0.00188582, 0.000761328, 0.000586269, -0.920646, 59.5819, 28.7937, 6.24786, 1.70032, 3.27456, -0.00999879, -0.00269568, 0.0003027, 0.000844653, 0.00333843, -0.00937747, -0.00126935, 0.0456675, -0.0233753, -0.00440458, 0.0106032, 0.0343796, 0.0573534, 0.470636, -0.539753, 0.336812, -2.0821, -2.16506, -0.130152, 0.471004, -0.54227, 0.335547, -2.08378, -2.17044, -0.11706, -0.00644377, 0.0641539, 0.0157699, 0.0183854, 0.0207337, 0.00354185
0.173137, 1.69551, -1.22611, -1.53771, -0.900596, -1.20094, 1.22933, -1.30268, 0.0107939, 0.00541648, 0.0180089, -0.0353541, 0.00135551, 0.000507551, 0.000119579, -0.76989, 59.5462, 28.8294, 6.28357, 1.70032, 3.27456, -0.00267457, -0.00274582, 0.000318055, 0.000845413, 0.0033218, -0.0094125, -0.00130627, 0.0469494, -0.0215802, -0.00128345, 0.0118144, 0.0394904, 0.0560984, 0.470629, -0.539689, 0.336828, -2.08207, -2.16505, -0.130156, 0.471015, -0.542255, 0.335553, -2.08373, -2.17049, -0.117051, -0.00651106, 0.0648541, 0.0159315, 0.0166882, 0.0196101, 0.00663816
0.174137, 1.69552, -1.22611, -1.53769, -0.900641, -1.20094, 1.22933, -1.30268, 0.00828437, 0.00588161, 0.0189916, -0.0360776, 6.18645e-05, 0.000101008, 0.000350986, -0.76989, 59.6176, 28.8691, 6.28357, 1.72504, 3.28097, -0.00999879, -0.00279075, 0.000340724, 0.0008492, 0.00330798, -0.00944398, -0.00135589, 0.0485374, -0.0203198, -0.000709203, 0.0119625, 0.041104, 0.0541082, 0.470623, -0.539624, 0.336844, -2.08204, -2.16503, -0.130161, 0.471032, -0.542233, 0.335557, -2.08367, -2.17055, -0.117044, -0.00657853, 0.0655569, 0.0160936, 0.0154411, 0.0186045, 0.007156
0.175137, 1.69552, -1.22611, -1.53769, -0.900641, -1.20094, 1.22933, -1.30268, 0.00828437, 0.00588161, 0.0189916, -0.0360776, 6.18645e-05, 0.000101008, 0.000350986, -0.76989, 59.6176, 28.8691, 6.28357, 1.72504, 3.28097, -0.00999879, -0.00285824, 0.000345071, 0.000854577, 0.00328745, -0.0094704, -0.00134848, 0.0492618, -0.0203628, -0.000755783, 0.0121251, 0.0414758, 0.0541696, 0.470616, -0.539559, 0.33686, -2.082, -2.16502, -0.130166, 0.471032, -0.542233, 0.335557, -2.08367, -2.17055, -0.117044, -0.0066462, 0.0662624, 0.0162561, 0.0154411, 0.0186045, 0.007156
0.176137, 1.69552, -1.22611, -1.53769, -0.900641, -1.20094, 1.22933, -1.30268, 0.00828437, 0.00588161, 0.0189916, -0.0360776, 6.18645e-05, 0.000101008, 0.000350986, -0.76989, 59.6176, 28.8691, 6.28357, 1.72504, 3.28097, -0.00999879, -0.00292645, 0.000349461, 0.000859997, 0.00326667, -0.00949713, -0.00134101, 0.0499888, -0.0204059, -0.000802289, 0.0122888, 0.0418492, 0.0542312, 0.47061, -0.539493, 0.336876, -2.08197, -2.165, -0.13017, 0.471032, -0.542233, 0.335557, -2.08367, -2.17055, -0.117044, -0.00671407, 0.0669704, 0.016419, 0.0154411, 0.0186045, 0.007156
0.177137, 1.69554, -1.2261, -1.53763, -0.900775, -1.20094, 1.22933, -1.30268, 0.00662075, -0.00146773, 0.0214274, -0.0472354, -0.00081011, 0.000888941, 0.000141672, -0.694511, 59.8755, 28.9802, 6.09711, 1.76166, 3.24527, -0.00999879, -0.00293645, 0.000401973, 0.000861494, 0.00325412, -0.0095316, -0.00149025, 0.0485987, -0.0226221, -0.00569821, 0.00920843, 0.0368165, 0.0636611, 0.470603, -0.539426, 0.336892, -2.08194, -2.16499, -0.130175, 0.471078, -0.542173, 0.335569, -2.08351, -2.17072, -0.117044, -0.00678212, 0.0676811, 0.0165822, 0.0173534, 0.0215404, 0.00263319
0.178137, 1.69554, -1.22611, -1.53761, -0.900831, -1.20094, 1.22933, -1.30268, 0.00511115, -0.000171284, 0.0208285, -0.0483172, -0.000279389, 0.000592627, 0.000331807, -0.694511, 59.9866, 29.0555, 6.09711, 1.75525, 3.24527, -0.0164075, -0.00298472, 0.000423352, 0.000868972, 0.00324353, -0.00956118, -0.00154429, 0.0495469, -0.0219352, -0.00529064, 0.008668, 0.0379942, 0.0628539, 0.470596, -0.539358, 0.336909, -2.0819, -2.16497, -0.13018, 0.471094, -0.542151, 0.33557, -2.08344, -2.17078, -0.117036, -0.00685036, 0.0683942, 0.0167459, 0.0166489, 0.0212265, 0.00307027
0.179137, 1.69554, -1.2261, -1.53759, -0.900885, -1.20094, 1.22933, -1.30268, 0.00216718, 0.00357373, 0.0206756, -0.0513873, -0.000406124, 0.000903711, -0.000287422, -0.619133, 59.9866, 29.1269, 6.0614, 1.76166, 3.23153, -0.00267457, -0.00303471, 0.00044296, 0.000871399, 0.00322528, -0.00959536, -0.00159227, 0.0504111, -0.0209583, -0.00342883, 0.00822712, 0.0425559, 0.0631296, 0.470589, -0.53929, 0.336926, -2.08187, -2.16495, -0.130185, 0.471109, -0.542131, 0.335576, -2.08338, -2.17084, -0.117031, -0.00691878, 0.06911, 0.01691, 0.0157059, 0.0207598, 0.00496548
0.180137, 1.69553, -1.2261, -1.53756, -0.900942, -1.20093, 1.22933, -1.30268, 0.00183703, 0.00303894, 0.0243826, -0.0535709, -2.02698e-05, 9.38478e-05, -0.000191614, -0.619133, 59.9866, 29.1666, 6.02173, 1.75525, 3.24527, -0.00267457, -0.00308383, 0.000463487, 0.000874621, 0.00321003, -0.00962824, -0.0016439, 0.0497628, -0.0218589, -0.00283602, 0.0100855, 0.0416332, 0.0665956, 0.470582, -0.53922, 0.336943, -2.08184, -2.16494, -0.13019, 0.471124, -0.542109, 0.335581, -2.08331, -2.17091, -0.117025, -0.00698738, 0.0698282, 0.0170744, 0.0165356, 0.0220637, 0.00578675
0.181137, 1.69553, -1.2261, -1.53753, -0.901007, -1.20093, 1.22933, -1.30268, 0.000683648, 0.00075506, 0.0257259, -0.0604392, -0.000478391, 6.25652e-05, -0.00083982, -0.583427, 60.062, 29.1269, 6.0614, 1.76807, 3.24527, 0.0165515, -0.00313017, 0.000487025, 0.000878223, 0.00318919, -0.00965622, -0.00170868, 0.0490044, -0.023012, -0.00464295, 0.00791771, 0.040604, 0.0727213, 0.470575, -0.539151, 0.33696, -2.0818, -2.16492, -0.130195, 0.471142, -0.542083, 0.335587, -2.08324, -2.17098, -0.117032, -0.00705617, 0.0705489, 0.0172392, 0.0175235, 0.0238624, 0.00424888
0.182137, 1.69553, -1.2261, -1.53751, -0.901068, -1.20093, 1.22933, -1.30269, 0.0006764, -0.00172583, 0.0229947, -0.06015, -0.000514997, 0.000279069, -0.00154322, -0.583427, 60.173, 29.238, 6.02173, 1.77356, 3.23886, 0.0431018, -0.00318116, 0.000508341, 0.000886318, 0.00317431, -0.00968399, -0.00176605, 0.0506747, -0.0225891, -0.00705482, 0.00578818, 0.0388074, 0.0719563, 0.470568, -0.53908, 0.336977, -2.08177, -2.16491, -0.1302, 0.471158, -0.542061, 0.335587, -2.08316, -2.17105, -0.117031, -0.00712513, 0.0712721, 0.0174044, 0.0170025, 0.0232953, 0.00178264
0.183137, 1.69552, -1.22609, -1.53748, -0.901131, -1.20092, 1.22933, -1.30268, -0.00207485, 5.44088e-05, 0.0299611, -0.0592923, 0.000103013, -0.00379754, -4.54718e-05, -0.468376, 60.1334, 29.238, 5.95032, 1.76166, 3.21689, 0.0165515, -0.00323243, 0.000526782, 0.000885426, 0.00315003, -0.00971775, -0.00181612, 0.050727, -0.0214059, -0.00368599, 0.00978092, 0.0378228, 0.0705415, 0.470561, -0.539009, 0.336994, -2.08173, -2.16489, -0.130205, 0.471171, -0.542039, 0.335597, -2.08311, -2.17112, -0.117034, -0.00719427, 0.0719978, 0.0175699, 0.0158801, 0.0233967, 0.00530059
