alisrour97/Franka_experiments/Real_Robot_scripts/servo-franka/Data3/log_dyn_INIT0_l_ki_11.csv
Time,q1,q2,q3,q4,q5,q6,q7,dq1,dq2,dq3,dq4,dq5,dq6,dq7,t1,t2,t3,t4,t5,t6,t7,ex1,ex2,ex3,ex4,ex5,ex6,ev1,ev2,ev3,ev4,ev5,ev6,xd,yd,zd,uxd,uyd,uzd,x,y,z,ux,uy,uz,vxd,vyd,vzd,vx,vy,vz
1.46484e-06, 1.69142, -1.22739, -1.54021, -0.900588, -1.19203, 1.22798, -1.30265, 0.0151383, 0.00130982, 0.00656112, -0.00371438, 0.000976857, -0.000116936, -0.00300924, -0.996025, 63.3746, 32.7015, 7.92602, 2.38788, 3.99783, -0.140919, 0.000507199, -0.00189851, 0.00206261, 0.00313025, 0.00125259, 0.000548565, -0.00950358, -0.0105476, 0.00177233, 0.00207809, 0.000826571, 0.0246658, 0.471008, -0.543389, 0.335894, -2.08385, -2.16584, -0.129887, 0.469015, -0.542654, 0.333992, -2.08213, -2.16333, -0.127632, -4.82042e-07, 4.44613e-06, 1.21621e-06, 0.0102577, 0.00954542, 0.00290834
0.0121077, 1.69146, -1.22738, -1.54018, -0.900601, -1.19202, 1.22798, -1.30265, 0.00980417, 0.00168943, 0.00224768, -0.00539625, 3.20606e-05, 0.000319049, -0.00249472, -1.15075, 63.2278, 32.6261, 7.92602, 2.38147, 3.9841, -0.114369, 0.000536026, -0.00186879, 0.00204853, 0.00311254, 0.00124383, 0.000478236, -0.00653312, -0.00713483, 0.000550481, -0.00169032, 0.00245378, 0.01796, 0.471008, -0.543389, 0.335894, -2.08385, -2.16584, -0.129887, 0.469049, -0.542621, 0.334011, -2.08206, -2.16343, -0.127646, -1.47349e-06, 1.36697e-05, 3.70923e-06, 0.00691041, 0.00667056, 0.00134619
0.0131077, 1.69146, -1.22738, -1.54018, -0.900601, -1.19202, 1.22798, -1.30265, 0.00980417, 0.00168943, 0.00224768, -0.00539625, 3.20606e-05, 0.000319049, -0.00249472, -1.15075, 63.2278, 32.6261, 7.92602, 2.38147, 3.9841, -0.114369, 0.000536019, -0.00186879, 0.00204854, 0.00311254, 0.00124383, 0.000478237, -0.00651937, -0.00713582, 0.000549032, -0.00168838, 0.00245996, 0.0179612, 0.471008, -0.543389, 0.335894, -2.08385, -2.16584, -0.129887, 0.469049, -0.542621, 0.334011, -2.08206, -2.16343, -0.127646, -2.9032e-06, 2.69793e-05, 7.30333e-06, 0.00691041, 0.00667056, 0.00134619
0.0141077, 1.69146, -1.22738, -1.54018, -0.900601, -1.19202, 1.22798, -1.30265, 0.00980417, 0.00168943, 0.00224768, -0.00539625, 3.20606e-05, 0.000319049, -0.00249472, -1.15075, 63.2278, 32.6261, 7.92602, 2.38147, 3.9841, -0.114369, 0.000535999, -0.00186879, 0.00204854, 0.00311254, 0.00124382, 0.00047824, -0.00650075, -0.00713716, 0.000547074, -0.00168574, 0.00246833, 0.0179627, 0.471008, -0.543389, 0.335894, -2.08385, -2.16584, -0.129887, 0.469049, -0.542621, 0.334011, -2.08206, -2.16343, -0.127646, -4.83863e-06, 4.50071e-05, 1.21677e-05, 0.00691041, 0.00667056, 0.00134619
0.0151077, 1.69146, -1.22738, -1.54018, -0.900601, -1.19202, 1.22798, -1.30265, 0.00980417, 0.00168943, 0.00224768, -0.00539625, 3.20606e-05, 0.000319049, -0.00249472, -1.15075, 63.2278, 32.6261, 7.92602, 2.38147, 3.9841, -0.114369, 0.000535959, -0.00186878, 0.00204854, 0.00311253, 0.00124381, 0.000478244, -0.00647667, -0.00713889, 0.000544545, -0.00168232, 0.00247916, 0.0179647, 0.471008, -0.543389, 0.335894, -2.08385, -2.16584, -0.129887, 0.469049, -0.542621, 0.334011, -2.08206, -2.16343, -0.127646, -7.34058e-06, 6.83239e-05, 1.84546e-05, 0.00691041, 0.00667056, 0.00134619
0.0161077, 1.69146, -1.22738, -1.54018, -0.900601, -1.19202, 1.22798, -1.30265, 0.00980417, 0.00168943, 0.00224768, -0.00539625, 3.20606e-05, 0.000319049, -0.00249472, -1.15075, 63.2278, 32.6261, 7.92602, 2.38147, 3.9841, -0.114369, 0.000535895, -0.00186878, 0.00204855, 0.00311251, 0.00124378, 0.000478252, -0.00644662, -0.00714106, 0.000541395, -0.00167803, 0.00249269, 0.0179672, 0.471008, -0.543389, 0.335894, -2.08385, -2.16584, -0.129887, 0.469049, -0.542621, 0.334011, -2.08206, -2.16343, -0.127646, -1.04607e-05, 9.7416e-05, 2.62933e-05, 0.00691041, 0.00667056, 0.00134619
0.0171082, 1.69146, -1.22738, -1.54018, -0.900601, -1.19202, 1.22798, -1.30265, 0.00980417, 0.00168943, 0.00224768, -0.00539625, 3.20606e-05, 0.000319049, -0.00249472, -1.15075, 63.2278, 32.6261, 7.92602, 2.38147, 3.9841, -0.114369, 0.000535798, -0.00186877, 0.00204856, 0.00311249, 0.00124375, 0.000478263, -0.00641022, -0.00714367, 0.000537586, -0.00167283, 0.00250909, 0.0179702, 0.471008, -0.543389, 0.335894, -2.08385, -2.16584, -0.129887, 0.469049, -0.542621, 0.334011, -2.08206, -2.16343, -0.127646, -1.42391e-05, 0.000132663, 3.57838e-05, 0.00691041, 0.00667056, 0.00134619
0.0181082, 1.69146, -1.22738, -1.54018, -0.900601, -1.19202, 1.22798, -1.30265, 0.00980417, 0.00168943, 0.00224768, -0.00539625, 3.20606e-05, 0.000319049, -0.00249472, -1.15075, 63.2278, 32.6261, 7.92602, 2.38147, 3.9841, -0.114369, 0.000535664, -0.00186876, 0.00204857, 0.00311245, 0.0012437, 0.000478279, -0.0063672, -0.00714676, 0.000533091, -0.00166666, 0.00252848, 0.0179738, 0.471008, -0.543389, 0.335894, -2.08385, -2.16584, -0.129887, 0.469049, -0.542621, 0.334011, -2.08206, -2.16343, -0.127646, -1.87016e-05, 0.000174312, 4.69907e-05, 0.00691041, 0.00667056, 0.00134619
0.0191084, 1.69146, -1.22738, -1.54018, -0.900601, -1.19202, 1.22798, -1.30265, 0.00980417, 0.00168943, 0.00224768, -0.00539625, 3.20606e-05, 0.000319049, -0.00249472, -1.15075, 63.2278, 32.6261, 7.92602, 2.38147, 3.9841, -0.114369, 0.000535485, -0.00186875, 0.00204859, 0.0031124, 0.00124364, 0.0004783, -0.00631747, -0.00715033, 0.000527905, -0.00165951, 0.00255091, 0.0179779, 0.471008, -0.543389, 0.335894, -2.08385, -2.16584, -0.129887, 0.469049, -0.542621, 0.334011, -2.08206, -2.16343, -0.127646, -2.38577e-05, 0.00022246, 5.99368e-05, 0.00691041, 0.00667056, 0.00134619
0.0201086, 1.69146, -1.22738, -1.54018, -0.900601, -1.19202, 1.22798, -1.30265, 0.00980417, 0.00168943, 0.00224768, -0.00539625, 3.20606e-05, 0.000319049, -0.00249472, -1.15075, 63.2278, 32.6261, 7.92602, 2.38147, 3.9841, -0.114369, 0.000535256, -0.00186873, 0.00204862, 0.00311234, 0.00124356, 0.000478327, -0.00626112, -0.00715438, 0.000522038, -0.00165139, 0.00257635, 0.0179826, 0.471008, -0.543389, 0.335894, -2.08385, -2.16584, -0.129887, 0.469049, -0.542621, 0.334011, -2.08206, -2.16343, -0.127646, -2.96979e-05, 0.000277024, 7.45974e-05, 0.00691041, 0.00667056, 0.00134619
0.0211089, 1.69146, -1.22738, -1.54018, -0.900601, -1.19202, 1.22798, -1.30265, 0.00980417, 0.00168943, 0.00224768, -0.00539625, 3.20606e-05, 0.000319049, -0.00249472, -1.15075, 63.2278, 32.6261, 7.92602, 2.38147, 3.9841, -0.114369, 0.000534971, -0.00186871, 0.00204865, 0.00311227, 0.00124346, 0.00047836, -0.00619843, -0.00715887, 0.000515523, -0.00164233, 0.00260467, 0.0179878, 0.471008, -0.543388, 0.335894, -2.08385, -2.16584, -0.129887, 0.469049, -0.542621, 0.334011, -2.08206, -2.16343, -0.127646, -3.61913e-05, 0.000337726, 9.08941e-05, 0.00691041, 0.00667056, 0.00134619
0.0221094, 1.69146, -1.22738, -1.54018, -0.900601, -1.19202, 1.22798, -1.30265, 0.00980417, 0.00168943, 0.00224768, -0.00539625, 3.20606e-05, 0.000319049, -0.00249472, -1.15075, 63.2278, 32.6261, 7.92602, 2.38147, 3.9841, -0.114369, 0.000534623, -0.00186869, 0.00204868, 0.00311218, 0.00124334, 0.000478401, -0.00612962, -0.0071638, 0.000508387, -0.00163234, 0.00263577, 0.0179935, 0.471008, -0.543388, 0.335894, -2.08385, -2.16584, -0.129887, 0.469049, -0.542621, 0.334011, -2.08206, -2.16343, -0.127646, -4.33151e-05, 0.00040436, 0.000108769, 0.00691041, 0.00667056, 0.00134619
0.0231096, 1.69146, -1.22738, -1.54018, -0.900601, -1.19202, 1.22798, -1.30265, 0.00980417, 0.00168943, 0.00224768, -0.00539625, 3.20606e-05, 0.000319049, -0.00249472, -1.15075, 63.2278, 32.6261, 7.92602, 2.38147, 3.9841, -0.114369, 0.000534206, -0.00186866, 0.00204873, 0.00311207, 0.0012432, 0.00047845, -0.00605471, -0.00716916, 0.000500633, -0.00162144, 0.00266966, 0.0179997, 0.471008, -0.543388, 0.335894, -2.08385, -2.16584, -0.129887, 0.469049, -0.542621, 0.334011, -2.08206, -2.16343, -0.127646, -5.10658e-05, 0.000476901, 0.000128212, 0.00691041, 0.00667056, 0.00134619
0.0241096, 1.69146, -1.22738, -1.54018, -0.900601, -1.19202, 1.22798, -1.30265, 0.00980417, 0.00168943, 0.00224768, -0.00539625, 3.20606e-05, 0.000319049, -0.00249472, -1.15075, 63.2278, 32.6261, 7.92602, 2.38147, 3.9841, -0.114369, 0.000533714, -0.00186862, 0.00204878, 0.00311194, 0.00124303, 0.000478508, -0.00597373, -0.00717494, 0.000492268, -0.00160962, 0.00270633, 0.0180064, 0.471008, -0.543387, 0.335894, -2.08385, -2.16584, -0.129887, 0.469049, -0.542621, 0.334011, -2.08206, -2.16343, -0.127646, -5.94401e-05, 0.000555325, 0.000149214, 0.00691041, 0.00667056, 0.00134619
0.0251096, 1.69146, -1.22738, -1.54018, -0.900601, -1.19202, 1.22798, -1.30265, 0.00980417, 0.00168943, 0.00224768, -0.00539625, 3.20606e-05, 0.000319049, -0.00249472, -1.15075, 63.2278, 32.6261, 7.92602, 2.38147, 3.9841, -0.114369, 0.000533141, -0.00186858, 0.00204884, 0.00311179, 0.00124283, 0.000478575, -0.0058867, -0.00718116, 0.000483296, -0.00159687, 0.00274576, 0.0180137, 0.471008, -0.543387, 0.335895, -2.08385, -2.16584, -0.129887, 0.469049, -0.542621, 0.334011, -2.08206, -2.16343, -0.127646, -6.84344e-05, 0.000639605, 0.000171766, 0.00691041, 0.00667056, 0.00134619
0.0261096, 1.69151, -1.22739, -1.54014, -0.90061, -1.19201, 1.22798, -1.30265, 0.00612827, -0.00145413, 0.00152778, -0.000992688, 0.0027052, 0.000516878, -0.000286515, -1.18645, 63.4103, 32.5547, 7.9657, 2.29541, 3.96945, -0.153737, 0.000570689, -0.00182471, 0.00204631, 0.00308154, 0.00126726, 0.000392544, -0.00292306, -0.00440935, -0.000806373, 0.00160683, -0.00288624, 0.00893597, 0.471008, -0.543386, 0.335895, -2.08384, -2.16584, -0.129887, 0.469091, -0.542582, 0.334018, -2.08198, -2.16352, -0.127713, -7.80454e-05, 0.000729718, 0.000195859, 0.00419198, 0.00391996, -0.000279593
0.0271096, 1.69151, -1.22739, -1.54014, -0.90061, -1.19201, 1.22798, -1.30265, 0.00612827, -0.00145413, 0.00152778, -0.000992688, 0.0027052, 0.000516878, -0.000286515, -1.18645, 63.4103, 32.5547, 7.9657, 2.29541, 3.96945, -0.153737, 0.000569936, -0.00182466, 0.00204639, 0.00308134, 0.001267, 0.000392632, -0.00282402, -0.00441641, -0.000816541, 0.00162142, -0.0028413, 0.0089442, 0.471008, -0.543385, 0.335895, -2.08384, -2.16584, -0.129887, 0.469091, -0.542582, 0.334018, -2.08198, -2.16352, -0.127713, -8.82697e-05, 0.000825639, 0.000221482, 0.00419198, 0.00391996, -0.000279593
0.0281099, 1.69151, -1.22739, -1.54014, -0.90061, -1.19201, 1.22798, -1.30265, 0.00612827, -0.00145413, 0.00152778, -0.000992688, 0.0027052, 0.000516878, -0.000286515, -1.18645, 63.4103, 32.5547, 7.9657, 2.29541, 3.96945, -0.153737, 0.000569084, -0.0018246, 0.00204648, 0.00308111, 0.0012667, 0.000392732, -0.00271901, -0.00442388, -0.000827301, 0.00163695, -0.00279361, 0.00895293, 0.471008, -0.543384, 0.335895, -2.08384, -2.16584, -0.129887, 0.469091, -0.542582, 0.334018, -2.08198, -2.16352, -0.127713, -9.91039e-05, 0.000927342, 0.000248628, 0.00419198, 0.00391996, -0.000279593
0.0291099, 1.69153, -1.22739, -1.54014, -0.900618, -1.19201, 1.22799, -1.30265, 0.00631967, -0.00702752, -0.00310365, -0.00600856, 0.0057318, -0.000405302, -0.000929068, -1.11108, 62.601, 31.9556, 7.81494, 2.15442, 3.85501, -0.120778, 0.000575082, -0.00181572, 0.00204705, 0.00308241, 0.00126127, 0.000375361, -0.00339233, -0.00511283, -0.00654211, -0.00466623, -0.0104912, 0.013074, 0.471007, -0.543383, 0.335895, -2.08384, -2.16584, -0.129887, 0.4691, -0.542575, 0.334018, -2.08196, -2.16354, -0.127708, -0.000110545, 0.0010348, 0.000277287, 0.00463822, 0.00559994, -0.00581014
0.0301101, 1.69154, -1.22739, -1.54017, -0.900627, -1.19201, 1.22798, -1.30265, 0.00838638, -0.00414427, -0.0122481, -0.00847002, 0.00327945, 0.000932849, -0.00133152, -1.26183, 61.8274, 31.6581, 7.70386, 2.04364, 3.81198, -0.101552, 0.000579524, -0.00180877, 0.0020589, 0.00311721, 0.00125734, 0.000365035, -0.00266631, -0.00513146, -0.00843535, -0.0138747, -0.00402749, 0.012408, 0.471007, -0.543382, 0.335896, -2.08384, -2.16584, -0.129887, 0.469106, -0.542567, 0.334007, -2.08193, -2.16354, -0.127667, -0.000122588, 0.001148, 0.000307449, 0.00460241, 0.00528856, -0.00776265
0.0311101, 1.69156, -1.2274, -1.54019, -0.900634, -1.19201, 1.22797, -1.30265, 0.00925022, -0.00574206, -0.0188543, -0.00455832, 0.00104307, 0.00165134, -0.00234579, -1.26183, 61.1649, 31.2137, 7.47772, 1.93927, 3.77627, -0.0621838, 0.000580204, -0.00180658, 0.00207597, 0.0031519, 0.00126864, 0.000356971, 0.0002722, -0.00349364, -0.0111676, -0.0184586, -0.00326667, 0.00696463, 0.471007, -0.543381, 0.335896, -2.08384, -2.16584, -0.129887, 0.469107, -0.542563, 0.333991, -2.0819, -2.16352, -0.127641, -0.000135232, 0.0012669, 0.000339106, 0.0029605, 0.00286, -0.0108356
0.0321101, 1.69157, -1.22741, -1.54022, -0.900643, -1.19201, 1.22797, -1.30265, 0.00913414, -0.00340117, -0.0251682, -0.00522796, -0.00193831, 0.00247485, -0.00207252, -1.22613, 60.4666, 30.8051, 7.25555, 1.86603, 3.73324, -0.0484509, 0.000578177, -0.00180539, 0.00209445, 0.00318991, 0.00127265, 0.000358121, 0.0020232, -0.00224423, -0.0120583, -0.0247383, 0.00243462, 0.00309508, 0.471007, -0.54338, 0.335896, -2.08384, -2.16584, -0.129887, 0.469108, -0.542561, 0.333972, -2.08188, -2.16351, -0.127603, -0.000148472, 0.00139149, 0.000372248, 0.00172992, 0.00134193, -0.0119161
0.0331101, 1.69158, -1.22743, -1.54026, -0.900663, -1.19201, 1.22797, -1.30264, 0.00987583, -0.0109533, -0.0282392, -0.00533232, -0.000816196, 0.00280753, 0.00034762, -1.22613, 60.0223, 30.3211, 7.14447, 1.82941, 3.69754, -0.0951428, 0.00058009, -0.00179789, 0.00212503, 0.00323711, 0.00129031, 0.000348385, 0.00295261, -0.00247364, -0.0176221, -0.0273896, -0.00554874, 0.00055057, 0.471007, -0.543379, 0.335897, -2.08384, -2.16584, -0.129888, 0.469114, -0.542552, 0.333943, -2.08183, -2.16349, -0.127569, -0.000162305, 0.00152173, 0.000406866, 0.00177758, 0.00142039, -0.0175264
0.0341101, 1.69159, -1.22745, -1.54031, -0.900683, -1.19203, 1.22797, -1.30264, 0.00879965, -0.0143148, -0.035475, -0.0115838, -0.00232335, 0.000399915, -3.95413e-05, -1.15075, 59.6176, 30.0236, 7.02942, 1.85962, 3.60415, -0.0878186, 0.000574371, -0.00179631, 0.00215803, 0.00329633, 0.00129313, 0.000346837, 0.00358092, -0.00144517, -0.0231978, -0.0395747, -0.00781536, 0.00143889, 0.471007, -0.543377, 0.335897, -2.08384, -2.16584, -0.129888, 0.469114, -0.542551, 0.333909, -2.0818, -2.16347, -0.127507, -0.000176727, 0.00165761, 0.000442951, 0.000557202, 0.00175214, -0.0230625
0.0351101, 1.6916, -1.22749, -1.54035, -0.900699, -1.19203, 1.22798, -1.30264, 0.00940991, -0.0186652, -0.0339022, -0.0113831, -0.00160327, -0.0022862, -0.000975812, -0.996025, 59.4351, 29.5752, 6.84296, 1.84772, 3.53274, -0.0621838, 0.000568471, -0.00179365, 0.00219324, 0.00334068, 0.00131254, 0.00034207, 0.00317109, -0.00169786, -0.0254499, -0.0405397, -0.0141024, 0.00389405, 0.471007, -0.543375, 0.335898, -2.08384, -2.16584, -0.129888, 0.469116, -0.54255, 0.333874, -2.08176, -2.16344, -0.127478, -0.000191736, 0.0017991, 0.000480493, 0.000698586, 0.00265522, -0.0251926
0.0361101, 1.69161, -1.22751, -1.5404, -0.900719, -1.19204, 1.22798, -1.30264, 0.0111869, -0.020552, -0.0386367, -0.0162178, -0.00552951, -0.000421153, 0.00057015, -0.884941, 59.213, 29.238, 6.73187, 1.82941, 3.48239, -0.0951428, 0.000563315, -0.0017914, 0.0022289, 0.00340042, 0.00132245, 0.000342709, 0.00323103, -0.00287966, -0.0288541, -0.0475993, -0.0109899, 0.00479488, 0.471006, -0.543374, 0.335898, -2.08384, -2.16584, -0.129888, 0.469117, -0.542548, 0.333839, -2.08172, -2.16341, -0.127422, -0.000207328, 0.00194618, 0.000519485, 0.00174251, 0.00331546, -0.0285599
0.0371101, 1.69163, -1.22753, -1.54044, -0.900735, -1.19205, 1.22799, -1.30264, 0.0125078, -0.0215136, -0.0390746, -0.0148929, -0.00802368, 0.00101271, 0.00207551, -0.76989, 58.9908, 28.9048, 6.54541, 1.79828, 3.43204, -0.140919, 0.000559769, -0.00178532, 0.00225899, 0.00344992, 0.00132394, 0.000341812, 0.00401805, -0.00325698, -0.0293504, -0.0475326, -0.00916579, 0.00242178, 0.471006, -0.543372, 0.335899, -2.08384, -2.16584, -0.129888, 0.469122, -0.542544, 0.333809, -2.08169, -2.16339, -0.127369, -0.0002235, 0.00209882, 0.000559916, 0.00211338, 0.00278298, -0.0291431
0.0381101, 1.69165, -1.22755, -1.54049, -0.900753, -1.19206, 1.22799, -1.30264, 0.0135221, -0.0175757, -0.0407383, -0.0139963, -0.00513821, 0.000789054, -0.000820379, -0.658806, 58.844, 28.6429, 6.35895, 1.76807, 3.41739, -0.0814099, 0.000555813, -0.00178063, 0.0022903, 0.00350362, 0.00132737, 0.000330292, 0.00338071, -0.00355599, -0.0275918, -0.0472128, -0.00758566, 0.00563886, 0.471006, -0.54337, 0.335899, -2.08384, -2.16584, -0.129888, 0.469125, -0.542541, 0.333778, -2.08165, -2.16338, -0.127314, -0.000240248, 0.00225699, 0.000601779, 0.00243594, 0.00331193, -0.0272749
0.0391101, 1.69167, -1.22756, -1.54055, -0.900778, -1.19207, 1.228, -1.30264, 0.0154101, -0.0135024, -0.0482724, -0.0169714, -0.00785125, 0.00568144, -0.00176763, -0.583427, 58.6615, 28.5319, 6.32324, 1.74335, 3.39633, -0.0484509, 0.000554613, -0.00177348, 0.00231838, 0.00356579, 0.00131567, 0.000318873, 0.00406224, -0.00447496, -0.027972, -0.0521538, 0.00199409, 0.00646312, 0.471006, -0.543367, 0.3359, -2.08384, -2.16584, -0.129888, 0.469131, -0.542536, 0.33375, -2.08161, -2.16338, -0.127234, -0.000257569, 0.00242068, 0.000645063, 0.00334703, 0.00289893, -0.0277405
0.0401101, 1.69168, -1.22758, -1.5406, -0.900801, -1.19208, 1.22801, -1.30264, 0.012997, -0.0171963, -0.0491194, -0.0187972, -0.00955179, 0.00553164, 4.22813e-05, -0.357292, 58.7726, 28.3454, 6.28357, 1.70581, 3.3533, -0.0814099, 0.0005491, -0.00176872, 0.00235196, 0.00362217, 0.00131454, 0.000318189, 0.00560617, -0.00323728, -0.0305998, -0.0545926, -0.000147671, 0.00297998, 0.471005, -0.543365, 0.3359, -2.08384, -2.16584, -0.129889, 0.469134, -0.542533, 0.333717, -2.08157, -2.16336, -0.127171, -0.00027546, 0.00258986, 0.000689759, 0.00205337, 0.00189775, -0.0304928
0.0411101, 1.6917, -1.22757, -1.54065, -0.900828, -1.19209, 1.22802, -1.30264, 0.0162654, -0.0101198, -0.049986, -0.0218614, -0.0060866, 0.0105879, 0.00547115, -0.206535, 58.6258, 28.3097, 6.32324, 1.66919, 3.29562, -0.101552, 0.000549948, -0.00175982, 0.00237073, 0.00367854, 0.00128694, 0.000306961, 0.00279007, -0.00680173, -0.0269248, -0.0506897, 0.00708429, 0.00408524, 0.471005, -0.543362, 0.335901, -2.08383, -2.16584, -0.129889, 0.469142, -0.542527, 0.333699, -2.08155, -2.16336, -0.127082, -0.000293917, 0.0027645, 0.00073586, 0.00562672, 0.00443272, -0.0264883
0.0421101, 1.6917, -1.22757, -1.54065, -0.900828, -1.19209, 1.22802, -1.30264, 0.0162654, -0.0101198, -0.049986, -0.0218614, -0.0060866, 0.0105879, 0.00547115, -0.206535, 58.6258, 28.3097, 6.32324, 1.66919, 3.29562, -0.101552, 0.000547093, -0.00175961, 0.00237102, 0.00367777, 0.00128593, 0.000307293, 0.00297594, -0.00681481, -0.0269432, -0.050661, 0.0071696, 0.00410069, 0.471005, -0.54336, 0.335902, -2.08383, -2.16584, -0.129889, 0.469142, -0.542527, 0.333699, -2.08155, -2.16336, -0.127082, -0.000312938, 0.00294458, 0.000783355, 0.00562672, 0.00443272, -0.0264883
0.0431101, 1.69173, -1.22756, -1.54076, -0.900888, -1.19212, 1.22804, -1.30264, 0.0160948, -0.0020201, -0.052272, -0.0234626, -0.0111588, 0.00685528, 0.00158457, 0.285408, 58.6615, 28.3454, 6.47003, 1.63257, 3.23886, -0.0484509, 0.000545171, -0.00174814, 0.00241127, 0.00379664, 0.00122658, 0.000286616, 0.00310459, -0.00528202, -0.023552, -0.0582914, 0.0179092, 0.00628781, 0.471005, -0.543357, 0.335903, -2.08383, -2.16584, -0.129889, 0.469152, -0.542519, 0.333659, -2.08149, -2.16337, -0.126892, -0.000332518, 0.00313007, 0.000832236, 0.00420335, 0.00390653, -0.0230646
0.0441101, 1.69173, -1.22756, -1.54076, -0.900888, -1.19212, 1.22804, -1.30264, 0.0160948, -0.0020201, -0.052272, -0.0234626, -0.0111588, 0.00685528, 0.00158457, 0.285408, 58.6615, 28.3454, 6.47003, 1.63257, 3.23886, -0.0484509, 0.000541938, -0.00174791, 0.0024116, 0.00379577, 0.00122544, 0.000286992, 0.00330159, -0.00529585, -0.0235715, -0.0582608, 0.0179998, 0.00630418, 0.471004, -0.543354, 0.335903, -2.08383, -2.16584, -0.129889, 0.469152, -0.542519, 0.333659, -2.08149, -2.16337, -0.126892, -0.000352655, 0.00332096, 0.000882495, 0.00420335, 0.00390653, -0.0230646
0.0451101, 1.69173, -1.22756, -1.54076, -0.900888, -1.19212, 1.22804, -1.30264, 0.0160948, -0.0020201, -0.052272, -0.0234626, -0.0111588, 0.00685528, 0.00158457, 0.285408, 58.6615, 28.3454, 6.47003, 1.63257, 3.23886, -0.0484509, 0.000538508, -0.00174766, 0.00241195, 0.00379485, 0.00122423, 0.00028739, 0.00350412, -0.00531006, -0.0235915, -0.0582292, 0.018093, 0.00632101, 0.471004, -0.54335, 0.335904, -2.08383, -2.16584, -0.12989, 0.469152, -0.542519, 0.333659, -2.08149, -2.16337, -0.126892, -0.000373345, 0.00351722, 0.000934121, 0.00420335, 0.00390653, -0.0230646
0.0461101, 1.69173, -1.22756, -1.54076, -0.900888, -1.19212, 1.22804, -1.30264, 0.0160948, -0.0020201, -0.052272, -0.0234626, -0.0111588, 0.00685528, 0.00158457, 0.285408, 58.6615, 28.3454, 6.47003, 1.63257, 3.23886, -0.0484509, 0.000534876, -0.0017474, 0.00241232, 0.00379387, 0.00122294, 0.000287812, 0.00371216, -0.00532465, -0.0236121, -0.0581967, 0.0181887, 0.0063383, 0.471004, -0.543347, 0.335905, -2.08383, -2.16583, -0.12989, 0.469152, -0.542519, 0.333659, -2.08149, -2.16337, -0.126892, -0.000394586, 0.00371881, 0.000987107, 0.00420335, 0.00390653, -0.0230646
0.0471101, 1.69177, -1.22752, -1.54096, -0.90101, -1.19219, 1.22806, -1.30263, 0.0129574, 0.00314331, -0.0476358, -0.0298781, -0.0145909, 0.0105347, 0.0025952, 1.41608, 58.844, 28.9048, 6.80725, 1.71863, 3.42471, -0.0621838, 0.000531439, -0.00173774, 0.00247738, 0.00404324, 0.00109096, 0.000268028, 0.00303563, -0.00601976, -0.0193616, -0.0546378, 0.0282224, 0.00885368, 0.471003, -0.543343, 0.335906, -2.08382, -2.16583, -0.12989, 0.469159, -0.542508, 0.333595, -2.0814, -2.16337, -0.126485, -0.000416373, 0.00392573, 0.00104144, 0.00500504, 0.00415553, -0.0187292
0.0481101, 1.69178, -1.22751, -1.541, -0.901036, -1.19221, 1.22807, -1.30263, 0.00990317, 0.00556481, -0.0497929, -0.0251575, -0.0164841, 0.00685256, 0.00291105, 1.60651, 58.9908, 29.1269, 6.80725, 1.74335, 3.46042, -0.0878186, 0.00052632, -0.00173558, 0.00249468, 0.00410039, 0.00106144, 0.000267464, 0.00622416, -0.00195512, -0.018228, -0.05765, 0.0300969, -0.000310526, 0.471003, -0.543339, 0.335907, -2.08382, -2.16583, -0.129891, 0.46916, -0.542506, 0.333578, -2.08138, -2.16337, -0.126392, -0.000438704, 0.00413795, 0.00109712, 0.00107826, 0.000879142, -0.0179266
0.0491101, 1.69179, -1.22751, -1.54105, -0.901059, -1.19223, 1.22807, -1.30263, 0.00836768, 0.0064188, -0.0512523, -0.0240905, -0.018053, 0.00434721, 0.00116487, 1.75727, 59.1772, 29.3531, 6.77154, 1.77356, 3.48971, -0.0621838, 0.000519131, -0.00173386, 0.00251401, 0.00415595, 0.00103369, 0.000263986, 0.00771994, 3.88483e-05, -0.018254, -0.0609805, 0.0310454, -0.00223903, 0.471002, -0.543335, 0.335908, -2.08382, -2.16583, -0.129891, 0.469161, -0.542506, 0.333559, -2.08136, -2.16336, -0.126303, -0.000461575, 0.00435543, 0.00115413, -0.000883469, -0.000457612, -0.0180673
0.0501101, 1.69181, -1.22751, -1.54109, -0.901082, -1.19226, 1.22808, -1.30263, 0.0137193, 0.00119189, -0.0520247, -0.0193276, -0.0201743, 0.00222365, 0.000398158, 1.75727, 59.3597, 29.5752, 6.69617, 1.8349, 3.52542, -0.0484509, 0.000514208, -0.00172848, 0.00253361, 0.00421416, 0.00100277, 0.000259282, 0.00783201, -0.00124592, -0.0214249, -0.063461, 0.0264391, -0.00131955, 0.471002, -0.543331, 0.335909, -2.08382, -2.16583, -0.129891, 0.469166, -0.542504, 0.33354, -2.08134, -2.16336, -0.126208, -0.000484983, 0.00457817, 0.00121247, 0.000265705, 0.000195207, -0.0211961
0.0511101, 1.69181, -1.22751, -1.54113, -0.901092, -1.19228, 1.22808, -1.30263, 0.00840176, 0.00454337, -0.0466717, -0.0156471, -0.0201658, 0.00440919, 0.00063436, 1.87232, 59.5065, 29.6863, 6.47003, 1.85321, 3.58951, -0.0557752, 0.000502343, -0.00173285, 0.00254727, 0.00426219, 0.000975616, 0.000274218, 0.0103205, 0.00125372, -0.0165986, -0.0539817, 0.0301269, -0.00749434, 0.471001, -0.543326, 0.335911, -2.08382, -2.16583, -0.129892, 0.469161, -0.542509, 0.333526, -2.08134, -2.16334, -0.126126, -0.000508925, 0.00480613, 0.00127212, -0.00199137, -0.00287876, -0.0166817
0.0521101, 1.69183, -1.22751, -1.54118, -0.901103, -1.19231, 1.22807, -1.30262, 0.011995, 0.00161978, -0.0455787, -0.014228, -0.0199877, 0.00106027, 0.00195421, 1.79694, 59.6176, 29.9085, 6.28357, 1.86603, 3.66092, -0.0951428, 0.000494224, -0.00173166, 0.00256443, 0.00432263, 0.00094487, 0.000283374, 0.00904768, -0.000114104, -0.0182354, -0.0559458, 0.0254493, -0.00584899, 0.471001, -0.543321, 0.335912, -2.08381, -2.16583, -0.129892, 0.469161, -0.542509, 0.333509, -2.08133, -2.16333, -0.126027, -0.000533398, 0.00503929, 0.00133308, -0.000754444, -0.00108105, -0.0180808
0.0531101, 1.69184, -1.22751, -1.54121, -0.901118, -1.19234, 1.22808, -1.30262, 0.0111192, -0.00406028, -0.0422542, -0.0149885, -0.0255292, -0.000855139, 0.00084911, 1.72157, 59.8755, 30.0236, 6.17248, 1.90265, 3.7186, -0.0814099, 0.000485595, -0.00172967, 0.002583, 0.00437506, 0.00091829, 0.000286457, 0.0101905, 0.000476025, -0.0206433, -0.0579471, 0.0233192, -0.00506476, 0.471, -0.543316, 0.335913, -2.08381, -2.16583, -0.129892, 0.469162, -0.54251, 0.33349, -2.08132, -2.16332, -0.125942, -0.000558399, 0.00527762, 0.00139533, -0.00141492, -0.00162442, -0.0205557
0.0541101, 1.69186, -1.22752, -1.54125, -0.901131, -1.19237, 1.22807, -1.30262, 0.0101955, -0.00358584, -0.0443629, -0.0133338, -0.0296798, -0.00146184, -0.00108815, 1.64619, 60.2087, 30.206, 6.09711, 1.93927, 3.7543, -0.0356336, 0.000474133, -0.00172955, 0.00260688, 0.00443647, 0.000894344, 0.000288768, 0.0124944, 0.00230703, -0.0209083, -0.0612415, 0.0269671, -0.00787617, 0.471, -0.543311, 0.335915, -2.08381, -2.16583, -0.129893, 0.469161, -0.542512, 0.333466, -2.0813, -2.1633, -0.12585, -0.000583923, 0.00552111, 0.00145888, -0.00319629, -0.00368949, -0.0210563
0.0551101, 1.69187, -1.22752, -1.54129, -0.90115, -1.19241, 1.22808, -1.30262, 0.00848961, -0.000925602, -0.0434537, -0.0147001, -0.0368516, -0.00173661, 0.000288809, 1.60651, 60.3198, 30.2814, 6.13678, 1.95758, 3.7836, -0.0621838, 0.000464221, -0.00173015, 0.00261959, 0.00449014, 0.000854284, 0.000295776, 0.0140578, 0.00368764, -0.0191689, -0.0641469, 0.0354848, -0.011729, 0.470999, -0.543305, 0.335916, -2.08381, -2.16583, -0.129893, 0.46916, -0.542515, 0.333454, -2.0813, -2.1633, -0.12575, -0.000609969, 0.00576973, 0.0015237, -0.00448244, -0.00530848, -0.019475
0.0561101, 1.69188, -1.22752, -1.54133, -0.901163, -1.19245, 1.22808, -1.30261, 0.0111189, -0.00508763, -0.0414629, -0.0153568, -0.0376657, -0.00169538, 0.00262321, 1.53114, 60.6848, 30.4322, 6.17248, 1.9823, 3.80466, -0.127186, 0.000451876, -0.00172907, 0.00264146, 0.0045482, 0.000823375, 0.000312653, 0.0130959, 0.00170566, -0.0211597, -0.0637785, 0.0321677, -0.0101027, 0.470999, -0.5433, 0.335918, -2.0838, -2.16583, -0.129894, 0.46916, -0.542518, 0.333432, -2.0813, -2.16327, -0.125653, -0.000636533, 0.00602345, 0.0015898, -0.00263593, -0.00371752, -0.0212851
0.0571101, 1.69189, -1.22752, -1.54136, -0.901172, -1.19249, 1.22808, -1.30261, 0.0112709, -0.00124612, -0.0410999, -0.0116636, -0.0434394, 0.00320404, 7.07665e-05, 1.53114, 60.907, 30.5036, 6.17248, 2.01984, 3.8193, -0.0814099, 0.000436463, -0.00173188, 0.00265462, 0.00460209, 0.000776291, 0.000323587, 0.0156114, 0.0021834, -0.0178637, -0.0597955, 0.0429289, -0.0124354, 0.470998, -0.543294, 0.335919, -2.0838, -2.16582, -0.129894, 0.469157, -0.542525, 0.333418, -2.0813, -2.16327, -0.125545, -0.000663611, 0.00628226, 0.00165716, -0.00293112, -0.00646902, -0.0183393
0.0581101, 1.69191, -1.22752, -1.54141, -0.901188, -1.19254, 1.22808, -1.30261, 0.0100589, -0.00323888, -0.0417327, -0.0123716, -0.0465687, 0.00106986, 0.00438153, 1.45576, 61.2006, 30.7297, 6.32324, 2.02533, 3.86233, -0.0750012, 0.000423394, -0.0017329, 0.00267482, 0.00467251, 0.000734673, 0.000334631, 0.0169249, 0.00350743, -0.0195035, -0.063934, 0.0426521, -0.0186109, 0.470997, -0.543287, 0.335921, -2.0838, -2.16582, -0.129894, 0.469155, -0.542528, 0.333398, -2.08129, -2.16325, -0.125424, -0.000691201, 0.00654612, 0.00172578, -0.00429331, -0.00730357, -0.0200539
0.0591101, 1.69192, -1.22752, -1.54144, -0.9012, -1.19259, 1.22808, -1.30261, 0.0121061, -0.00152389, -0.038448, -0.0116482, -0.0542709, -0.000993432, 0.0037854, 1.38038, 61.4981, 30.8051, 6.43433, 2.04364, 3.9191, -0.0878186, 0.000411496, -0.00173182, 0.0026904, 0.00473168, 0.000691411, 0.000342481, 0.0169759, 0.00319665, -0.0175409, -0.0662289, 0.0495726, -0.0176307, 0.470997, -0.543281, 0.335923, -2.0838, -2.16582, -0.129895, 0.469155, -0.542531, 0.333382, -2.08129, -2.16324, -0.125314, -0.0007193, 0.00681502, 0.00179564, -0.00393833, -0.00737439, -0.0180634
0.0601101, 1.69194, -1.22752, -1.54147, -0.901211, -1.19263, 1.22808, -1.3026, 0.0128681, 0.00249822, -0.0352469, -0.0109654, -0.0531858, -0.00145062, 0.00379919, 1.34071, 61.6806, 30.8408, 6.54541, 2.00702, 3.94839, -0.114369, 0.000399392, -0.00173085, 0.00270043, 0.00478427, 0.000640259, 0.000355467, 0.0158219, 0.00236924, -0.014054, -0.0627309, 0.0523572, -0.0156433, 0.470996, -0.543274, 0.335924, -2.08379, -2.16582, -0.129895, 0.469155, -0.542535, 0.333372, -2.0813, -2.16323, -0.125203, -0.000747904, 0.00708893, 0.00186675, -0.00305591, -0.00646422, -0.0143951
0.0611101, 1.69195, -1.22752, -1.5415, -0.901228, -1.19268, 1.22807, -1.30261, 0.0125058, 0.000414641, -0.0307748, -0.0121231, -0.0522355, -0.00233822, 7.3218e-05, 1.34071, 61.9385, 30.9162, 6.73187, 1.95758, 3.99142, -0.0420422, 0.000387067, -0.00173057, 0.00271582, 0.00484791, 0.000593254, 0.00035015, 0.0149105, 0.00152114, -0.0139399, -0.0597688, 0.0489907, -0.00872873, 0.470995, -0.543267, 0.335926, -2.08379, -2.16582, -0.129896, 0.469155, -0.542537, 0.333357, -2.08128, -2.16324, -0.125086, -0.00077701, 0.00736784, 0.00193908, -0.00226651, -0.00526837, -0.0140942
0.0621101, 1.69197, -1.22751, -1.54153, -0.901236, -1.19274, 1.22807, -1.30261, 0.0131803, 0.00191339, -0.0336198, -0.0110189, -0.0520166, 0.00250125, 0.00119655, 1.305, 62.1964, 30.9876, 6.84296, 1.92096, 4.01248, -0.0685925, 0.000373635, -0.0017298, 0.00272822, 0.00490632, 0.000541712, 0.000363704, 0.0161443, 0.000988499, -0.0135544, -0.0573546, 0.0529476, -0.0114472, 0.470994, -0.543259, 0.335928, -2.08379, -2.16582, -0.129897, 0.469155, -0.542541, 0.333345, -2.08129, -2.16323, -0.124968, -0.000806615, 0.0076517, 0.00201263, -0.00170612, -0.00624004, -0.0138477
0.0631101, 1.69199, -1.22751, -1.54156, -0.90124, -1.19279, 1.22807, -1.3026, 0.0168419, 0.00404357, -0.034086, -0.0085277, -0.0519111, 0.00113094, 0.00190433, 1.26533, 62.4185, 30.9876, 6.88263, 1.88434, 4.04086, -0.0951428, 0.000360348, -0.00172754, 0.00273708, 0.00495571, 0.000488255, 0.000375489, 0.0152916, -0.000170449, -0.0124599, -0.0580613, 0.054381, -0.0109279, 0.470993, -0.543252, 0.33593, -2.08378, -2.16582, -0.129897, 0.469156, -0.542545, 0.333336, -2.0813, -2.16323, -0.124859, -0.000836715, 0.00794051, 0.00208739, -0.000569742, -0.00523043, -0.0125948
0.0641101, 1.69201, -1.22751, -1.5416, -0.901252, -1.19285, 1.22807, -1.3026, 0.0208922, 0.00458722, -0.0357433, -0.00847391, -0.0520205, 0.000597382, 0.00136203, 1.305, 62.6764, 31.1741, 6.99371, 1.84772, 4.05551, -0.0951428, 0.000343963, -0.00172868, 0.00275218, 0.00502217, 0.000431727, 0.000391066, 0.0140733, -0.00203756, -0.013007, -0.0605328, 0.0551239, -0.00725199, 0.470993, -0.543244, 0.335932, -2.08378, -2.16582, -0.129898, 0.469154, -0.542551, 0.33332, -2.0813, -2.16322, -0.124727, -0.000867309, 0.00823424, 0.00216336, 0.001201, -0.00357326, -0.0129262
0.0651101, 1.69203, -1.22752, -1.54163, -0.901259, -1.1929, 1.22807, -1.3026, 0.0236063, 0.000785716, -0.0352461, -0.00755525, -0.0532171, -0.000126082, -0.000989319, 1.22962, 63.1168, 31.2891, 7.06909, 1.84131, 4.07748, -0.0420422, 0.000330396, -0.00172401, 0.00277312, 0.00508447, 0.000389691, 0.000389539, 0.0138597, -0.0032652, -0.0151704, -0.0615374, 0.0520759, -0.00308461, 0.470992, -0.543236, 0.335935, -2.08378, -2.16581, -0.129898, 0.469158, -0.542553, 0.3333, -2.08128, -2.16322, -0.124616, -0.000898392, 0.00853286, 0.00224052, 0.00231012, -0.00268036, -0.0149892
0.0661101, 1.69206, -1.22751, -1.54167, -0.901266, -1.19296, 1.22807, -1.3026, 0.0206622, -0.00195246, -0.0362933, -0.00597911, -0.0532677, -0.000646849, 0.000613171, 1.22962, 63.3032, 31.4716, 7.1048, 1.81659, 4.09854, -0.0750012, 0.000315693, -0.00172198, 0.00278729, 0.00515091, 0.000331817, 0.000402096, 0.0163736, -0.00104546, -0.0168498, -0.0619008, 0.0491182, -0.0094135, 0.470991, -0.543227, 0.335937, -2.08377, -2.16581, -0.129899, 0.469159, -0.542557, 0.333286, -2.08129, -2.16321, -0.124483, -0.000929962, 0.00883635, 0.00231887, 9.08801e-05, -0.00469091, -0.0168925
0.0671101, 1.69207, -1.22752, -1.54169, -0.901274, -1.19303, 1.22807, -1.3026, 0.0170916, -0.00457277, -0.0326628, -0.00499438, -0.0584015, -0.000539675, 0.00119378, 1.41608, 63.6325, 31.4716, 7.14447, 1.80469, 4.10586, -0.0951428, 0.000296752, -0.00172316, 0.00280432, 0.00520797, 0.000282567, 0.000417339, 0.0190833, 0.00102442, -0.0167955, -0.0601692, 0.0504834, -0.0142706, 0.47099, -0.543218, 0.335939, -2.08377, -2.16581, -0.1299, 0.469157, -0.542564, 0.333268, -2.0813, -2.1632, -0.124369, -0.000962015, 0.00914469, 0.0023984, -0.0019095, -0.00715067, -0.0171176
0.0681101, 1.6921, -1.22752, -1.54173, -0.901286, -1.19309, 1.22807, -1.3026, 0.0216781, -0.00433497, -0.0338381, -0.00828307, -0.0571562, -0.000237665, 0.000553842, 1.45576, 63.7436, 31.6224, 7.21588, 1.78638, 4.10586, -0.0878186, 0.000283815, -0.00171786, 0.00281782, 0.00527461, 0.000219381, 0.000421559, 0.0164032, -0.00228684, -0.0177745, -0.0625538, 0.0505119, -0.00634751, 0.470989, -0.543209, 0.335941, -2.08376, -2.16581, -0.1299, 0.469161, -0.542565, 0.333255, -2.08129, -2.1632, -0.124231, -0.000994548, 0.00945786, 0.0024791, 0.00123365, -0.00390527, -0.0176874
0.0691101, 1.69212, -1.22752, -1.54176, -0.901294, -1.19315, 1.22806, -1.3026, 0.019222, -0.00394983, -0.0317337, -0.00901501, -0.0563083, -0.000609389, -0.00106689, 1.60651, 63.9658, 31.6581, 7.21588, 1.76166, 4.12051, -0.0484509, 0.000266284, -0.00171707, 0.00283375, 0.00533454, 0.000166563, 0.00042794, 0.0169244, -0.00148739, -0.0168375, -0.0605195, 0.0500152, -0.00519569, 0.470988, -0.5432, 0.335944, -2.08376, -2.16581, -0.129901, 0.469161, -0.542571, 0.333239, -2.08129, -2.1632, -0.124112, -0.00102756, 0.00977584, 0.00256097, 0.000454697, -0.00427873, -0.0167372
0.0701101, 1.69214, -1.22751, -1.5418, -0.9013, -1.19321, 1.22806, -1.3026, 0.0207427, 0.00142177, -0.0330271, -0.0048398, -0.0559311, -0.00111746, 5.11823e-05, 1.75727, 63.9658, 31.8088, 7.14447, 1.74884, 4.14157, -0.0685925, 0.000248159, -0.00171702, 0.00284594, 0.00540355, 9.90456e-05, 0.000444269, 0.0174635, -0.00105546, -0.0137106, -0.0596608, 0.0547378, -0.00904337, 0.470987, -0.54319, 0.335947, -2.08375, -2.1658, -0.129902, 0.46916, -0.542577, 0.333227, -2.0813, -2.16319, -0.123966, -0.00106104, 0.0100986, 0.00264398, 0.00012215, -0.0049873, -0.0136374
0.0711101, 1.69217, -1.22751, -1.54183, -0.901311, -1.19327, 1.22806, -1.30259, 0.0238305, 0.00111772, -0.0353897, -0.00668913, -0.059681, -0.00201588, 0.000758542, 1.83265, 64.0015, 31.8842, 7.14447, 1.71222, 4.17727, -0.0878186, 0.000234788, -0.0017123, 0.00285947, 0.00547008, 3.99785e-05, 0.00044825, 0.0170505, -0.0022222, -0.015252, -0.0655801, 0.0576397, -0.00743583, 0.470986, -0.54318, 0.335949, -2.08375, -2.1658, -0.129903, 0.469164, -0.542578, 0.333214, -2.08129, -2.16319, -0.123833, -0.001095, 0.0104261, 0.00272814, 0.0011829, -0.0039669, -0.0150464
0.0721101, 1.6922, -1.2275, -1.54187, -0.901317, -1.19334, 1.22805, -1.30259, 0.0246776, 0.00233418, -0.0317287, -0.0063552, -0.0586538, -0.00239035, 0.000514952, 1.83265, 63.9658, 31.9953, 7.06909, 1.70032, 4.20657, -0.0878186, 0.000222821, -0.00170504, 0.00286978, 0.00553795, -2.79541e-05, 0.000451446, 0.0160003, -0.00332018, -0.0133015, -0.0620362, 0.0577505, -0.00454151, 0.470985, -0.543169, 0.335952, -2.08374, -2.1658, -0.129903, 0.46917, -0.542577, 0.333204, -2.08129, -2.1632, -0.123689, -0.00112942, 0.0107583, 0.00281344, 0.00227796, -0.00285324, -0.0129052
0.0731101, 1.69223, -1.22749, -1.5419, -0.901317, -1.1934, 1.22806, -1.3026, 0.0254761, 0.00527208, -0.0302669, -0.00449594, -0.0582683, -0.00047952, -0.00158254, 1.9477, 63.9658, 32.031, 6.91833, 1.70032, 4.17727, -0.0356336, 0.000203841, -0.00170258, 0.00287988, 0.00559171, -9.25603e-05, 0.000459891, 0.016091, -0.00397706, -0.0107043, -0.0578512, 0.0612366, -0.00247897, 0.470984, -0.543159, 0.335955, -2.08374, -2.1658, -0.129904, 0.469172, -0.542584, 0.333194, -2.0813, -2.1632, -0.123564, -0.00116431, 0.0110953, 0.00289987, 0.00299624, -0.00297886, -0.0102883
0.0741101, 1.69226, -1.22749, -1.54193, -0.901322, -1.19346, 1.22805, -1.30259, 0.0240389, 0.00336607, -0.0285059, -0.0051727, -0.0629273, -0.000569213, 0.000882963, 2.02308, 64.0015, 32.031, 6.84296, 1.70581, 4.1846, -0.0878186, 0.000189672, -0.00169662, 0.00289127, 0.00565493, -0.000155294, 0.000468451, 0.0176037, -0.00315018, -0.0112553, -0.0587568, 0.0631842, -0.00641158, 0.470983, -0.543147, 0.335958, -2.08373, -2.1658, -0.129905, 0.469177, -0.542584, 0.333183, -2.0813, -2.1632, -0.12343, -0.00119966, 0.0114369, 0.00298742, 0.00216925, -0.00407945, -0.0109549
0.0751101, 1.6923, -1.22748, -1.54196, -0.901319, -1.19353, 1.22806, -1.30259, 0.0289473, 0.00359419, -0.0321005, -0.000848447, -0.0659826, -0.000363174, 0.00110117, 1.98341, 63.9658, 32.1064, 6.69617, 1.70581, 4.1846, -0.101552, 0.000175282, -0.00168695, 0.002902, 0.00571515, -0.000224889, 0.000472601, 0.0184162, -0.00401595, -0.0120614, -0.0617715, 0.0662064, -0.00829147, 0.470981, -0.543136, 0.335961, -2.08373, -2.16579, -0.129906, 0.469185, -0.542585, 0.333173, -2.0813, -2.16321, -0.123293, -0.00123547, 0.0117833, 0.00307608, 0.002998, -0.00437563, -0.0118146
0.0761101, 1.69233, -1.22748, -1.542, -0.90132, -1.1936, 1.22806, -1.30259, 0.0315214, 0.0032321, -0.0307689, 0.00140758, -0.0691262, 0.000312644, -8.94012e-06, 2.09846, 64.0768, 32.1421, 6.58508, 1.72504, 4.16995, -0.0814099, 0.000156154, -0.00168233, 0.00291519, 0.00577618, -0.000292388, 0.000483513, 0.0187535, -0.00499372, -0.0115944, -0.0607796, 0.0687292, -0.00698544, 0.47098, -0.543124, 0.335964, -2.08372, -2.16579, -0.129907, 0.469189, -0.54259, 0.33316, -2.08131, -2.16321, -0.123157, -0.00127174, 0.0121342, 0.00316585, 0.00396718, -0.00438943, -0.0113456
0.0771101, 1.69237, -1.22747, -1.54202, -0.901325, -1.19367, 1.22806, -1.30259, 0.0344688, 0.0048888, -0.0242421, -0.00269855, -0.0665727, 0.000454958, -0.00122447, 2.05878, 64.1125, 32.0707, 6.58508, 1.74335, 4.16354, -0.0484509, 0.000145333, -0.00166845, 0.00292495, 0.00583567, -0.000365053, 0.000471142, 0.0145941, -0.00902923, -0.0090572, -0.0559601, 0.0685631, 0.00472317, 0.470979, -0.543112, 0.335967, -2.08372, -2.16579, -0.129908, 0.469202, -0.542587, 0.333152, -2.0813, -2.16324, -0.12302, -0.00130846, 0.0124898, 0.00325671, 0.00790366, -0.00015312, -0.00822555
0.0781101, 1.69241, -1.22747, -1.54206, -0.901319, -1.19374, 1.22806, -1.30258, 0.0387376, 0.00132063, -0.0302012, 0.000276523, -0.0701501, 0.00112398, 0.00138938, 2.05878, 64.2236, 32.1818, 6.47003, 1.77997, 4.14157, -0.10796, 0.000124055, -0.00166236, 0.00294225, 0.00590417, -0.000435253, 0.000491518, 0.0162992, -0.00951266, -0.0130468, -0.0617419, 0.068724, -0.000233374, 0.470978, -0.5431, 0.33597, -2.08371, -2.16579, -0.129909, 0.469206, -0.542592, 0.333134, -2.08131, -2.16323, -0.122872, -0.00134563, 0.01285, 0.00334867, 0.00826596, -0.000841908, -0.0123525
0.0791101, 1.69245, -1.22748, -1.54209, -0.901309, -1.19382, 1.22807, -1.30258, 0.0406199, -0.00205834, -0.0291283, 0.00315625, -0.0721196, 0.00180564, 0.00116485, 2.09846, 64.3704, 32.0707, 6.32324, 1.79828, 4.11319, -0.114369, 0.000103738, -0.00165423, 0.00295395, 0.00595405, -0.000504202, 0.000502448, 0.0172436, -0.0101062, -0.0143234, -0.0602725, 0.0672318, -0.000712142, 0.470976, -0.543087, 0.335973, -2.08371, -2.16578, -0.129909, 0.469213, -0.542597, 0.333123, -2.08133, -2.16324, -0.122746, -0.00138324, 0.0132147, 0.0034417, 0.00880865, -0.00118844, -0.0136847
0.0801101, 1.6925, -1.22747, -1.54213, -0.901307, -1.19389, 1.22807, -1.30259, 0.0453443, -0.000165826, -0.0308094, 0.00810876, -0.0780355, 0.00307259, -0.00166391, 1.98341, 64.3347, 32.1818, 6.32324, 1.81659, 4.06283, -0.0484509, 8.93011e-05, -0.00163927, 0.00296704, 0.00602078, -0.000584575, 0.000495106, 0.0184718, -0.0109115, -0.0132823, -0.0615517, 0.0746022, -0.000341104, 0.470975, -0.543074, 0.335977, -2.0837, -2.16578, -0.12991, 0.469227, -0.542596, 0.333111, -2.08132, -2.16326, -0.122593, -0.0014213, 0.013584, 0.0035358, 0.00965647, -0.00215889, -0.0127777
0.0811101, 1.69255, -1.22747, -1.54216, -0.901297, -1.19397, 1.22808, -1.30258, 0.0483422, -0.0015026, -0.0314768, 0.00981104, -0.0781581, 0.00418753, 0.0043511, 1.90803, 64.4061, 32.1421, 6.28357, 1.84131, 4.00516, -0.0685925, 7.05154e-05, -0.00162638, 0.00298125, 0.00607529, -0.000657455, 0.000505995, 0.0184334, -0.0123361, -0.0141612, -0.0609227, 0.0741213, -0.00518558, 0.470973, -0.54306, 0.33598, -2.08369, -2.16578, -0.129911, 0.469239, -0.542598, 0.333097, -2.08133, -2.16327, -0.122458, -0.0014598, 0.0139578, 0.00363097, 0.0110075, -0.00155331, -0.0135876
0.0821101, 1.6926, -1.22747, -1.5422, -0.901285, -1.19404, 1.22809, -1.30257, 0.0481163, -0.00120218, -0.0315999, 0.00877336, -0.0778379, 0.00411629, 0.00498948, 1.79694, 64.5529, 32.2175, 6.20819, 1.85962, 3.96945, -0.114369, 5.04689e-05, -0.00161334, 0.00300021, 0.00613845, -0.000728536, 0.000518746, 0.0185424, -0.0124624, -0.0142003, -0.0613052, 0.0744042, -0.00506188, 0.470972, -0.543046, 0.335984, -2.08369, -2.16578, -0.129913, 0.46925, -0.5426, 0.333078, -2.08134, -2.16327, -0.122316, -0.00149874, 0.0143362, 0.00372719, 0.0110971, -0.00127124, -0.0135509
0.0831101, 1.69265, -1.22747, -1.54224, -0.901279, -1.19412, 1.2281, -1.30257, 0.0452079, 0.000442396, -0.0328747, 0.00844342, -0.0777357, 0.00406825, 0.00290924, 1.79694, 64.5172, 32.2175, 6.24786, 1.87793, 3.93374, -0.0951428, 3.06519e-05, -0.00160143, 0.00301243, 0.00619979, -0.00081254, 0.000522139, 0.0202171, -0.0106771, -0.0136148, -0.0619108, 0.0761332, -0.00614137, 0.47097, -0.543032, 0.335988, -2.08368, -2.16577, -0.129914, 0.469261, -0.542603, 0.333066, -2.08135, -2.16328, -0.122163, -0.00153811, 0.014719, 0.00382447, 0.00935587, -0.0027049, -0.0130818
0.0841101, 1.6927, -1.22747, -1.54227, -0.901267, -1.19421, 1.22811, -1.30258, 0.0470741, -0.000233815, -0.0339235, 0.00708523, -0.0816801, 0.00325593, 0.000431412, 1.75727, 64.5529, 32.2175, 6.20819, 1.87793, 3.9191, -0.0484509, 8.75431e-06, -0.00158818, 0.00302724, 0.00625654, -0.000894239, 0.000524638, 0.0203614, -0.0112862, -0.014772, -0.0662917, 0.0787236, -0.00240343, 0.470969, -0.543017, 0.335992, -2.08367, -2.16577, -0.129915, 0.469273, -0.542607, 0.333052, -2.08136, -2.1633, -0.122019, -0.00157792, 0.0151063, 0.00392278, 0.00988762, -0.00225681, -0.014167
0.0851101, 1.69275, -1.22747, -1.54231, -0.901261, -1.19429, 1.22813, -1.30257, 0.0504006, 7.39777e-05, -0.0340206, 0.00419166, -0.0855823, 0.00217154, 0.00167425, 1.75727, 64.5529, 32.1818, 6.24786, 1.90265, 3.9191, -0.0814099, -1.21029e-05, -0.0015739, 0.0030414, 0.00631522, -0.000979835, 0.000535035, 0.0190816, -0.0131634, -0.0153281, -0.0709247, 0.0822606, 0.000851741, 0.470967, -0.543002, 0.335996, -2.08367, -2.16577, -0.129916, 0.469286, -0.54261, 0.333038, -2.08137, -2.16332, -0.121867, -0.00161815, 0.015498, 0.00402212, 0.0116562, -0.000438895, -0.0144749
0.0861101, 1.6928, -1.22747, -1.54235, -0.901251, -1.19438, 1.22814, -1.30257, 0.0511568, 0.000221709, -0.0334138, 0.00625705, -0.09204, 0.00195701, 0.00124062, 1.72157, 64.5529, 32.2532, 6.24786, 1.90906, 3.90536, -0.0814099, -3.44102e-05, -0.00155963, 0.00305814, 0.00637921, -0.00106609, 0.000541963, 0.0208814, -0.0124921, -0.014825, -0.0726383, 0.0875979, -0.00160712, 0.470966, -0.542986, 0.336, -2.08366, -2.16576, -0.129917, 0.469299, -0.542613, 0.333022, -2.08138, -2.16333, -0.121709, -0.00165881, 0.0158942, 0.00412249, 0.0110277, -0.00192444, -0.0141372
0.0871101, 1.69285, -1.22748, -1.54239, -0.901244, -1.19447, 1.22816, -1.30257, 0.0528813, -0.00232136, -0.0342419, 0.0038228, -0.0932301, 0.00599662, 0.00020834, 1.75727, 64.664, 32.2532, 6.28357, 1.92737, 3.90536, -0.0621838, -5.84739e-05, -0.00154552, 0.00307744, 0.00644092, -0.00115034, 0.000549754, 0.0208698, -0.0145355, -0.0167258, -0.0719694, 0.0885584, 0.0025634, 0.470964, -0.542971, 0.336004, -2.08365, -2.16576, -0.129918, 0.469311, -0.542617, 0.333003, -2.08139, -2.16334, -0.121556, -0.0016999, 0.0162947, 0.00422387, 0.0129581, -0.00113571, -0.0159728
0.0881101, 1.6929, -1.22748, -1.54243, -0.90124, -1.19456, 1.22818, -1.30257, 0.0529097, -0.00228582, -0.0374643, 0.00115028, -0.094289, 0.0101582, 0.000446256, 1.72157, 64.6997, 32.3682, 6.35895, 1.95209, 3.87607, -0.0685925, -8.18568e-05, -0.00152934, 0.00309703, 0.00650709, -0.00124143, 0.000554793, 0.0217907, -0.0152462, -0.0178907, -0.0728573, 0.0921664, 0.00284054, 0.470962, -0.542954, 0.336008, -2.08364, -2.16576, -0.129919, 0.469326, -0.542621, 0.332983, -2.0814, -2.16336, -0.121391, -0.0017414, 0.0166996, 0.00432627, 0.0136171, -0.00143114, -0.0171854
0.0891101, 1.69296, -1.22749, -1.54247, -0.901233, -1.19466, 1.22819, -1.30256, 0.0521055, -0.00321439, -0.0371814, 0.00341055, -0.100017, 0.0121567, 0.00157071, 1.72157, 64.7751, 32.3682, 6.39465, 1.9823, 3.87607, -0.101552, -0.000107504, -0.00151507, 0.00311601, 0.00656987, -0.00133139, 0.000569457, 0.0246069, -0.0141066, -0.0178347, -0.0723443, 0.0968924, -0.00277033, 0.470961, -0.542938, 0.336012, -2.08364, -2.16575, -0.129921, 0.469338, -0.542626, 0.332965, -2.08142, -2.16337, -0.12123, -0.00178332, 0.0171089, 0.00442966, 0.0125399, -0.00385724, -0.0174299
0.0901101, 1.69301, -1.22749, -1.54251, -0.901234, -1.19475, 1.22821, -1.30256, 0.0534864, -0.00385162, -0.038858, -0.00078037, -0.0993211, 0.0128573, 0.00108652, 1.64619, 64.8505, 32.4396, 6.54541, 2.00702, 3.89804, -0.101552, -0.00013, -0.00149604, 0.00313855, 0.0066432, -0.00142644, 0.000567909, 0.0235199, -0.015765, -0.019434, -0.0750554, 0.0967606, 0.00223058, 0.470959, -0.54292, 0.336017, -2.08363, -2.16575, -0.129922, 0.469356, -0.542626, 0.332943, -2.08142, -2.16339, -0.121053, -0.00182565, 0.0175225, 0.00453405, 0.0140568, -0.00205592, -0.0187862
0.0911101, 1.69306, -1.2275, -1.54255, -0.901232, -1.19486, 1.22824, -1.30256, 0.0515196, -0.00336205, -0.038277, 0.00118625, -0.0981637, 0.0142323, 0.000245252, 1.68189, 64.8862, 32.4396, 6.62079, 2.01343, 3.89804, -0.0878186, -0.000158347, -0.00148213, 0.00315656, 0.00670844, -0.00153009, 0.000575926, 0.0251535, -0.0147281, -0.0184793, -0.0714555, 0.0969123, 0.000105627, 0.470957, -0.542903, 0.336021, -2.08362, -2.16575, -0.129923, 0.469368, -0.542634, 0.332925, -2.08144, -2.16341, -0.120877, -0.0018684, 0.0179404, 0.00463942, 0.0130716, -0.00344017, -0.0179607
0.0921101, 1.69312, -1.22751, -1.54261, -0.901226, -1.19496, 1.22825, -1.30257, 0.0527143, -0.00647958, -0.0443741, -0.00044706, -0.0973402, 0.0194027, -0.00174713, 1.60651, 65.0687, 32.5904, 6.69617, 2.02533, 3.9191, -0.0356336, -0.000187774, -0.00146791, 0.00318428, 0.0067893, -0.00162391, 0.000581231, 0.0265038, -0.0158059, -0.0223481, -0.0730593, 0.0964735, 0.0021743, 0.470955, -0.542885, 0.336026, -2.08361, -2.16574, -0.129924, 0.46938, -0.54264, 0.332897, -2.08144, -2.16342, -0.120693, -0.00191155, 0.0183626, 0.00474577, 0.0140128, -0.00371045, -0.0219171
0.0931101, 1.69318, -1.22751, -1.54266, -0.901223, -1.19506, 1.22828, -1.30256, 0.0537072, -0.00346149, -0.0498483, 0.00156956, -0.101023, 0.0190315, 0.00105591, 1.53114, 65.033, 32.6658, 6.77154, 2.03174, 3.92642, -0.0951428, -0.000215461, -0.00145068, 0.00320414, 0.00686385, -0.00173536, 0.000597361, 0.0286483, -0.0144322, -0.0223438, -0.0787411, 0.102754, -0.00529159, 0.470953, -0.542867, 0.336031, -2.0836, -2.16574, -0.129926, 0.469396, -0.542645, 0.332877, -2.08147, -2.16344, -0.120497, -0.00195511, 0.0187891, 0.00485308, 0.0126743, -0.00545785, -0.0220974
0.0941101, 1.69323, -1.22751, -1.5427, -0.901227, -1.19517, 1.2283, -1.30255, 0.0563846, -0.00405364, -0.0468866, 0.00125693, -0.10342, 0.0193046, 0.00542079, 1.49146, 65.1083, 32.5547, 6.91833, 2.01984, 3.9191, -0.0951428, -0.000243277, -0.001433, 0.00322517, 0.00693466, -0.00184451, 0.000603542, 0.0277516, -0.0163501, -0.0218377, -0.0775543, 0.104423, -0.00606085, 0.470951, -0.542848, 0.336035, -2.08359, -2.16574, -0.129927, 0.469412, -0.54265, 0.332857, -2.08148, -2.16346, -0.120308, -0.00199908, 0.0192197, 0.00496136, 0.0145319, -0.00414104, -0.0214084
0.0951101, 1.69329, -1.22751, -1.54276, -0.901223, -1.19528, 1.22833, -1.30255, 0.0562358, -0.00268948, -0.0493835, 0.000590449, -0.105648, 0.023002, 0.00326925, 1.41608, 65.1083, 32.6261, 6.95801, 2.01343, 3.94107, -0.0750012, -0.000274034, -0.00141712, 0.0032471, 0.00701459, -0.00195938, 0.000613477, 0.0292855, -0.0164035, -0.0217145, -0.0776571, 0.109866, -0.00538844, 0.470949, -0.542829, 0.33604, -2.08358, -2.16573, -0.129929, 0.469426, -0.542657, 0.332835, -2.0815, -2.16348, -0.120104, -0.00204344, 0.0196547, 0.0050706, 0.0146001, -0.00523694, -0.0214177
0.0961101, 1.69335, -1.22752, -1.54281, -0.901227, -1.19539, 1.22835, -1.30255, 0.0571483, -0.00345372, -0.0536172, 0.000647063, -0.111949, 0.0217568, 0.00149719, 1.305, 65.1797, 32.6658, 7.1048, 2.00702, 3.94839, -0.0484509, -0.000303907, -0.00140027, 0.0032731, 0.00709886, -0.00206958, 0.000619433, 0.0314168, -0.0152553, -0.0238383, -0.0854729, 0.114172, -0.00683996, 0.470947, -0.542809, 0.336045, -2.08357, -2.16573, -0.12993, 0.469441, -0.542662, 0.332809, -2.08151, -2.1635, -0.1199, -0.0020882, 0.0200938, 0.00518077, 0.0134079, -0.00662136, -0.0237013
0.0971101, 1.69341, -1.22752, -1.54287, -0.901225, -1.1955, 1.22838, -1.30255, 0.0584101, -0.00145998, -0.0525097, 0.000150871, -0.11206, 0.0252651, 0.0024446, 1.15424, 65.144, 32.6658, 7.14447, 2.00061, 3.96213, -0.0814099, -0.000335057, -0.00138392, 0.00329465, 0.00718046, -0.00218805, 0.000633955, 0.0311375, -0.0168954, -0.0221388, -0.0816789, 0.118229, -0.00559952, 0.470945, -0.542789, 0.336051, -2.08357, -2.16572, -0.129932, 0.469455, -0.542669, 0.332787, -2.08153, -2.16352, -0.119689, -0.00213335, 0.0205371, 0.00529189, 0.0150523, -0.0060968, -0.0219187
0.0981101, 1.69347, -1.22752, -1.54293, -0.901229, -1.19562, 1.22841, -1.30254, 0.0570061, -0.00180308, -0.0541804, 0.00111429, -0.111774, 0.0276768, 0.00230769, 1.07887, 65.1797, 32.6261, 7.25555, 1.98871, 3.9841, -0.0951428, -0.000368175, -0.00136867, 0.00331869, 0.00726604, -0.00230925, 0.000648745, 0.0330794, -0.0161064, -0.0225495, -0.0801796, 0.11905, -0.00833939, 0.470943, -0.542768, 0.336056, -2.08356, -2.16572, -0.129933, 0.469469, -0.542676, 0.332763, -2.08155, -2.16353, -0.119471, -0.0021789, 0.0209845, 0.00540394, 0.0142734, -0.00753519, -0.0224904
0.0991101, 1.69352, -1.22752, -1.54299, -0.901231, -1.19573, 1.22843, -1.30255, 0.0575941, -0.00203317, -0.0563468, -0.000395605, -0.112066, 0.0302559, -0.00125066, 0.963814, 65.2155, 32.6261, 7.33093, 1.9823, 3.9841, -0.0164075, -0.000401955, -0.00135288, 0.00334393, 0.00734964, -0.00242731, 0.0006551, 0.0336327, -0.0168625, -0.0235038, -0.0807121, 0.120847, -0.00395545, 0.470941, -0.542747, 0.336061, -2.08355, -2.16572, -0.129935, 0.469483, -0.542684, 0.332738, -2.08157, -2.16355, -0.11926, -0.00222483, 0.0214361, 0.00551691, 0.0149676, -0.00745146, -0.0234289
0.10011, 1.69358, -1.22753, -1.54305, -0.901238, -1.19585, 1.22846, -1.30254, 0.0577834, -0.00311562, -0.0587379, -0.00239361, -0.111986, 0.0271861, 0.00514895, 0.85273, 65.2908, 32.6658, 7.44202, 1.97681, 3.99142, -0.0484509, -0.00043738, -0.00133804, 0.00337353, 0.00744309, -0.00254675, 0.000671671, 0.0336873, -0.0164848, -0.0255779, -0.0864062, 0.118777, -0.00947624, 0.470939, -0.542726, 0.336067, -2.08354, -2.16571, -0.129936, 0.469495, -0.542692, 0.332708, -2.08159, -2.16356, -0.119035, -0.00227115, 0.0218918, 0.0056308, 0.0144707, -0.00674506, -0.0253603
0.10111, 1.69364, -1.22753, -1.54311, -0.901242, -1.19596, 1.22849, -1.30254, 0.0588302, -0.00290999, -0.0554365, -0.00207953, -0.111535, 0.0338817, 0.00562512, 0.701973, 65.3265, 32.6261, 7.47772, 1.95209, 4.01248, -0.0951428, -0.000469638, -0.00131914, 0.0033989, 0.00752648, -0.00266632, 0.000681907, 0.033689, -0.0188953, -0.0237553, -0.0773914, 0.121955, -0.00739654, 0.470936, -0.542704, 0.336072, -2.08353, -2.16571, -0.129938, 0.469512, -0.542698, 0.332683, -2.0816, -2.16358, -0.118822, -0.00231785, 0.0223516, 0.00574559, 0.0168975, -0.00646876, -0.0235197
0.10211, 1.69369, -1.22753, -1.54317, -0.901246, -1.19608, 1.22852, -1.30254, 0.0546269, -0.00110305, -0.0534166, -0.00205079, -0.116458, 0.028899, 0.00311411, 0.626595, 65.2908, 32.5904, 7.51739, 1.94568, 4.04819, -0.0685925, -0.000505673, -0.00130549, 0.00342113, 0.00761315, -0.00279271, 0.000696041, 0.0359104, -0.0154178, -0.0222139, -0.0813416, 0.125277, -0.00973851, 0.470934, -0.542682, 0.336078, -2.08351, -2.1657, -0.12994, 0.469524, -0.542707, 0.332661, -2.08162, -2.1636, -0.118598, -0.00236493, 0.0228154, 0.00586128, 0.0135129, -0.00857793, -0.0221222
0.10311, 1.69375, -1.22752, -1.54323, -0.901248, -1.1962, 1.22854, -1.30254, 0.0534046, 0.00102917, -0.056637, -0.00200473, -0.115236, 0.0304941, 0.000641178, 0.475838, 65.2155, 32.6261, 7.5531, 1.93927, 4.07016, -0.0228162, -0.000541044, -0.00129015, 0.00344235, 0.00770359, -0.00292552, 0.000701065, 0.0373447, -0.0145716, -0.0219256, -0.0817219, 0.127581, -0.0096422, 0.470932, -0.542659, 0.336084, -2.0835, -2.1657, -0.129941, 0.469538, -0.542715, 0.33264, -2.08164, -2.16363, -0.118364, -0.00241239, 0.0232833, 0.00597787, 0.0126822, -0.00960477, -0.0219187
0.10411, 1.6938, -1.22752, -1.5433, -0.901256, -1.19632, 1.22857, -1.30254, 0.0537824, -0.00107615, -0.0609091, -0.00378668, -0.114023, 0.0258911, 0.00208091, 0.400459, 65.2908, 32.7372, 7.66418, 1.91546, 4.12051, -0.0621838, -0.000580254, -0.001279, 0.00347311, 0.00780293, -0.00304428, 0.000721672, 0.0374987, -0.0137823, -0.0253824, -0.0898836, 0.122907, -0.0107136, 0.470929, -0.542636, 0.33609, -2.08349, -2.16569, -0.129943, 0.469547, -0.542725, 0.332609, -2.08166, -2.16363, -0.118133, -0.00246022, 0.0237552, 0.00609534, 0.0117259, -0.00878402, -0.0252147
0.10511, 1.69386, -1.22752, -1.54335, -0.901261, -1.19644, 1.22859, -1.30254, 0.0568139, 0.00104653, -0.0584212, -0.00334128, -0.112528, 0.0228101, 0.00129646, 0.21003, 65.2155, 32.6261, 7.70386, 1.87793, 4.16354, -0.0557752, -0.000613187, -0.00126162, 0.00349275, 0.00789223, -0.00317522, 0.000728633, 0.0354446, -0.0154233, -0.0236566, -0.0896669, 0.122415, -0.0056423, 0.470927, -0.542612, 0.336096, -2.08348, -2.16569, -0.129945, 0.469562, -0.54273, 0.33259, -2.08167, -2.16366, -0.117903, -0.00250842, 0.0242312, 0.00621369, 0.0133055, -0.00647871, -0.0231232
0.10611, 1.69391, -1.22752, -1.54342, -0.901267, -1.19657, 1.22861, -1.30254, 0.054399, -0.000229786, -0.0601581, -0.00390736, -0.117548, 0.0207918, -9.12691e-06, 0.21003, 65.2551, 32.6658, 7.77924, 1.88434, 4.19925, -0.0292249, -0.000656655, -0.00125466, 0.00352038, 0.00799156, -0.00330132, 0.000751495, 0.0381056, -0.0130031, -0.0251781, -0.0951908, 0.124581, -0.00866125, 0.470924, -0.542588, 0.336102, -2.08347, -2.16568, -0.129946, 0.469567, -0.542744, 0.332562, -2.0817, -2.16366, -0.117664, -0.00255699, 0.0247111, 0.00633291, 0.01088, -0.00849006, -0.024847
0.10711, 1.69397, -1.22751, -1.54348, -0.901272, -1.19669, 1.22863, -1.30254, 0.0564175, 0.00161046, -0.0568243, -0.00337758, -0.115754, 0.0138168, 0.000313707, 0.059273, 65.1797, 32.6261, 7.81494, 1.85962, 4.25601, -0.0356336, -0.000693693, -0.001241, 0.0035428, 0.00809034, -0.00343397, 0.000764676, 0.0359213, -0.0135316, -0.0235933, -0.0973032, 0.121548, -0.00527502, 0.470922, -0.542563, 0.336109, -2.08346, -2.16568, -0.129948, 0.469578, -0.542752, 0.33254, -2.08171, -2.16368, -0.117421, -0.00260593, 0.0251949, 0.006453, 0.0113381, -0.00607233, -0.0228389
0.10811, 1.69402, -1.22752, -1.54354, -0.901283, -1.19682, 1.22864, -1.30253, 0.0569577, 0.000238728, -0.0583282, -0.00573128, -0.124116, 0.0144408, 0.00172902, -0.0557783, 65.2155, 32.6261, 7.9657, 1.84772, 4.28531, -0.0750012, -0.000732631, -0.0012287, 0.003569, 0.00819407, -0.00356607, 0.000781238, 0.0376444, -0.0133209, -0.0252584, -0.103184, 0.127926, -0.00751967, 0.470919, -0.542538, 0.336115, -2.08345, -2.16567, -0.12995, 0.469588, -0.542761, 0.332515, -2.08173, -2.16369, -0.117172, -0.00265523, 0.0256827, 0.00657393, 0.0110794, -0.00703699, -0.024624
0.10911, 1.69408, -1.22751, -1.5436, -0.901294, -1.19695, 1.22866, -1.30253, 0.057938, -0.000768637, -0.0613735, -0.00638414, -0.125463, 0.0139077, 0.000724333, -0.206535, 65.2551, 32.7015, 8.07678, 1.823, 4.33566, -0.0621838, -0.000770691, -0.00121626, 0.00359711, 0.00830713, -0.00369569, 0.000790891, 0.0384588, -0.0132752, -0.0271514, -0.107388, 0.128302, -0.00681472, 0.470916, -0.542512, 0.336122, -2.08343, -2.16567, -0.129952, 0.469599, -0.542768, 0.332487, -2.08173, -2.16371, -0.116916, -0.00270489, 0.0261745, 0.00669572, 0.0109444, -0.00705876, -0.026497
0.11011, 1.69413, -1.22752, -1.54366, -0.901297, -1.19709, 1.22867, -1.30253, 0.0545398, -0.00134747, -0.060654, -0.00506492, -0.126999, 0.0139395, 0.000517665, -0.317619, 65.2908, 32.6658, 8.11249, 1.81659, 4.37778, -0.0621838, -0.000811157, -0.00120545, 0.00362225, 0.00841086, -0.00382442, 0.000810234, 0.0410795, -0.0110767, -0.0269061, -0.106248, 0.128976, -0.0112255, 0.470914, -0.542486, 0.336128, -2.08342, -2.16566, -0.129954, 0.469607, -0.542777, 0.332462, -2.08175, -2.16371, -0.116671, -0.00275491, 0.0266701, 0.00681835, 0.00880153, -0.00927798, -0.0264734
0.11111, 1.69418, -1.22751, -1.54372, -0.901305, -1.19722, 1.22867, -1.30254, 0.0513526, 0.00400459, -0.0595471, -0.00512006, -0.127922, 0.00948821, -0.00183286, -0.392998, 65.2155, 32.7372, 8.18787, 1.81018, 4.4144, -0.00267457, -0.000852381, -0.00119785, 0.00364399, 0.00852264, -0.00396143, 0.000824226, 0.0419893, -0.00851135, -0.0236234, -0.108556, 0.13293, -0.0118349, 0.470911, -0.542459, 0.336135, -2.08341, -2.16566, -0.129956, 0.469613, -0.542788, 0.332441, -2.08176, -2.16373, -0.116408, -0.00280528, 0.0271696, 0.00694181, 0.00634104, -0.0102879, -0.0231728
0.11211, 1.69424, -1.2275, -1.54377, -0.901315, -1.19735, 1.22868, -1.30253, 0.0548202, 0.00609568, -0.0562077, -0.00599699, -0.128752, 0.00643799, 0.00100171, -0.583427, 65.2155, 32.7015, 8.29895, 1.80469, 4.44278, -0.0621838, -0.000888259, -0.00118362, 0.00366725, 0.00863486, -0.00409518, 0.000835779, 0.0396672, -0.0105898, -0.0218165, -0.109327, 0.134433, -0.0091617, 0.470908, -0.542432, 0.336142, -2.0834, -2.16565, -0.129958, 0.469624, -0.542792, 0.332419, -2.08177, -2.16374, -0.116149, -0.00285601, 0.0276729, 0.00706609, 0.00834841, -0.00768538, -0.0209668
0.11311, 1.6943, -1.2275, -1.54382, -0.901324, -1.19749, 1.22868, -1.30253, 0.0546221, 0.00673283, -0.0515532, -0.0057501, -0.134196, 0.00411359, 0.000445116, -0.658806, 65.2551, 32.7015, 8.37433, 1.79828, 4.47116, -0.0557752, -0.000927953, -0.00117474, 0.00369065, 0.00874773, -0.00422417, 0.000848665, 0.0401592, -0.0102333, -0.0199799, -0.109501, 0.138308, -0.00857527, 0.470905, -0.542404, 0.336149, -2.08338, -2.16565, -0.12996, 0.469631, -0.542799, 0.332397, -2.08178, -2.16375, -0.115894, -0.00290708, 0.0281801, 0.00719119, 0.00802569, -0.00796147, -0.0190945
0.11411, 1.69436, -1.2275, -1.54388, -0.901332, -1.19763, 1.22868, -1.30253, 0.0540656, 0.00425974, -0.0548442, -0.00558829, -0.133381, 0.00366823, -0.00115031, -0.845268, 65.2908, 32.8522, 8.44971, 1.79187, 4.46383, -0.0164075, -0.000968486, -0.00116415, 0.0037163, 0.00886854, -0.004361, 0.000857708, 0.0416852, -0.00938639, -0.0226244, -0.112339, 0.135395, -0.0088774, 0.470902, -0.542376, 0.336156, -2.08337, -2.16564, -0.129962, 0.469639, -0.542807, 0.332372, -2.08178, -2.16376, -0.115623, -0.0029585, 0.0286911, 0.00731711, 0.00708691, -0.00858339, -0.0217918
0.11511, 1.6944, -1.22749, -1.54393, -0.901343, -1.19776, 1.22868, -1.30253, 0.0532858, 0.0064477, -0.0516955, -0.0054825, -0.13371, 0.00371631, -0.000758624, -0.884941, 65.2908, 32.7768, 8.52509, 1.80469, 4.44278, -0.0164075, -0.00100826, -0.00115603, 0.00373184, 0.00897247, -0.00449813, 0.000870206, 0.041806, -0.00945166, -0.020199, -0.109228, 0.137891, -0.00873347, 0.470899, -0.542347, 0.336164, -2.08336, -2.16563, -0.129964, 0.469645, -0.542814, 0.332357, -2.08179, -2.16378, -0.115369, -0.00301027, 0.0292059, 0.00744383, 0.00719288, -0.00855901, -0.0192916
0.11611, 1.69446, -1.22748, -1.54398, -0.901352, -1.1979, 1.22867, -1.30253, 0.0550341, 0.01048, -0.0548197, -0.00852897, -0.133542, 0.00284573, 0.00119586, -1.0357, 65.3265, 32.9236, 8.60046, 1.823, 4.44278, -0.0621838, -0.00104802, -0.00114625, 0.00375321, 0.00909372, -0.0046375, 0.000887309, 0.0408154, -0.0103761, -0.0195571, -0.113888, 0.142147, -0.00777636, 0.470896, -0.542318, 0.336171, -2.08334, -2.16563, -0.129966, 0.469653, -0.542821, 0.332337, -2.0818, -2.16379, -0.115094, -0.00306237, 0.0297245, 0.00757134, 0.00805177, -0.00712328, -0.0184048
0.11711, 1.69452, -1.22747, -1.54402, -0.901365, -1.19804, 1.22866, -1.30253, 0.0550459, 0.00770575, -0.0475784, -0.0107705, -0.137252, -0.0027894, -0.000656179, -1.11108, 65.4733, 32.8126, 8.67188, 1.82941, 4.4501, -0.0228162, -0.00108499, -0.0011352, 0.00377289, 0.00920217, -0.00476379, 0.000886236, 0.0395821, -0.0108046, -0.019466, -0.115371, 0.13962, -0.00163108, 0.470893, -0.542288, 0.336179, -2.08333, -2.16562, -0.129968, 0.469661, -0.542824, 0.332319, -2.08179, -2.16381, -0.114848, -0.00311481, 0.0302468, 0.00769965, 0.00838633, -0.00537964, -0.0180081
0.11811, 1.69457, -1.22746, -1.54407, -0.901372, -1.19817, 1.22866, -1.30254, 0.0573119, 0.00824613, -0.0475849, -0.0108199, -0.140857, -0.00750556, -0.00141732, -1.15075, 65.513, 32.9236, 8.67188, 1.84131, 4.47116, 0.00373412, -0.00112637, -0.00112791, 0.00379188, 0.00931806, -0.00489842, 0.000898395, 0.0392778, -0.0108385, -0.0197153, -0.121368, 0.141133, 0.000221813, 0.47089, -0.542258, 0.336186, -2.08331, -2.16562, -0.129971, 0.469666, -0.542831, 0.332302, -2.0818, -2.16383, -0.114584, -0.00316759, 0.0307728, 0.00782873, 0.00834736, -0.00451301, -0.0180794
0.11911, 1.69463, -1.22746, -1.54411, -0.901381, -1.19831, 1.22865, -1.30253, 0.0555332, 0.00706043, -0.0426091, -0.0118647, -0.13463, -0.00634557, 0.000278437, -1.30151, 65.6241, 32.9633, 8.71155, 1.86603, 4.49313, -0.0292249, -0.00116257, -0.00111429, 0.0038097, 0.00942618, -0.00502902, 0.000903245, 0.0382659, -0.0119311, -0.0186579, -0.113315, 0.135402, 0.00221849, 0.470887, -0.542227, 0.336194, -2.0833, -2.16561, -0.129973, 0.469677, -0.542833, 0.332286, -2.0818, -2.16385, -0.114334, -0.0032207, 0.0313025, 0.00795859, 0.00938752, -0.00310225, -0.0167819
0.12011, 1.69468, -1.22745, -1.54415, -0.901394, -1.19844, 1.22864, -1.30253, 0.0542929, 0.00943975, -0.0411034, -0.0157561, -0.129996, -0.00513506, 0.00140829, -1.33721, 65.7312, 32.9633, 8.74725, 1.89075, 4.50686, -0.0621838, -0.00119982, -0.00110219, 0.00382545, 0.00952929, -0.00516023, 0.000908428, 0.0368893, -0.0131083, -0.0171447, -0.110117, 0.135048, 0.00553782, 0.470884, -0.542196, 0.336202, -2.08328, -2.1656, -0.129975, 0.469687, -0.542835, 0.332272, -2.0818, -2.16387, -0.114088, -0.00327414, 0.031836, 0.00808922, 0.0105155, -0.00139476, -0.0149793
0.12111, 1.69474, -1.22744, -1.54418, -0.901407, -1.19857, 1.22863, -1.30254, 0.0542792, 0.00882877, -0.0408795, -0.0188463, -0.135191, -0.00426295, -0.00150108, -1.41259, 65.8066, 32.999, 8.78693, 1.90265, 4.52151, 0.00373412, -0.00123576, -0.00108908, 0.00383884, 0.00963544, -0.00529586, 0.000900302, 0.0376609, -0.0134509, -0.0178079, -0.112986, 0.13965, 0.00958455, 0.470881, -0.542164, 0.33621, -2.08327, -2.1656, -0.129978, 0.469697, -0.542836, 0.332261, -2.08179, -2.16391, -0.113836, -0.00332791, 0.0323731, 0.00822061, 0.0108073, -0.0015025, -0.0156337
0.12211, 1.69479, -1.22743, -1.54423, -0.901421, -1.19871, 1.22863, -1.30254, 0.0505664, 0.0107185, -0.0413065, -0.0186764, -0.135356, -0.00306474, -0.00123698, -1.45226, 65.9177, 33.1855, 8.85834, 1.95209, 4.52151, 0.0101428, -0.00127683, -0.00107922, 0.00385775, 0.00974821, -0.00543189, 0.000906777, 0.0399886, -0.0114547, -0.0165594, -0.111467, 0.142423, 0.00525629, 0.470877, -0.542132, 0.336219, -2.08325, -2.16559, -0.12998, 0.469705, -0.542841, 0.332244, -2.08179, -2.16392, -0.113575, -0.00338201, 0.0329138, 0.00835276, 0.00888862, -0.00353398, -0.014571
0.12311, 1.69485, -1.22742, -1.54426, -0.901428, -1.19884, 1.22862, -1.30253, 0.0535864, 0.0122008, -0.0367736, -0.0152132, -0.134174, -0.00166771, 0.00110895, -1.60302, 66.0287, 33.1855, 8.78693, 1.95209, 4.50686, -0.0420422, -0.00131386, -0.00106352, 0.00387118, 0.00984133, -0.00556261, 0.000911158, 0.0390642, -0.0135839, -0.0136807, -0.104306, 0.143421, 0.00544102, 0.470874, -0.542099, 0.336227, -2.08324, -2.16558, -0.129982, 0.469718, -0.542842, 0.332233, -2.08179, -2.16395, -0.113341, -0.00343642, 0.0334582, 0.00848565, 0.0110324, -0.00243364, -0.0115174
0.12411, 1.69489, -1.2274, -1.5443, -0.901444, -1.19897, 1.22861, -1.30253, 0.0521027, 0.0143765, -0.0381999, -0.0161355, -0.139278, -0.00647109, 0.000977282, -1.60302, 66.1002, 33.2609, 8.85834, 1.98871, 4.52151, -0.0484509, -0.00135482, -0.0010554, 0.00388275, 0.00994567, -0.00570097, 0.000918785, 0.0406221, -0.011241, -0.0133966, -0.112006, 0.147802, 0.0025087, 0.47087, -0.542066, 0.336235, -2.08322, -2.16557, -0.129985, 0.469723, -0.542847, 0.332223, -2.0818, -2.16397, -0.113087, -0.00349116, 0.0340062, 0.00861928, 0.00870414, -0.00356345, -0.011275
0.12511, 1.69495, -1.22739, -1.54434, -0.901451, -1.1991, 1.2286, -1.30254, 0.0498503, 0.0158736, -0.0380513, -0.0133897, -0.137845, -0.00950153, -0.00104344, -1.6784, 66.1755, 33.4076, 8.78693, 2.00702, 4.52151, -0.00267457, -0.0013955, -0.00104456, 0.00389572, 0.0100495, -0.00583682, 0.000920561, 0.0422368, -0.0090035, -0.0122641, -0.111957, 0.146562, 0.000443127, 0.470867, -0.542032, 0.336244, -2.0832, -2.16557, -0.129987, 0.469732, -0.542851, 0.332212, -2.0818, -2.164, -0.112836, -0.00354621, 0.0345577, 0.00875364, 0.00651382, -0.00487242, -0.0102063
0.12611, 1.695, -1.22737, -1.54436, -0.901463, -1.19924, 1.2286, -1.30254, 0.052045, 0.0148176, -0.0374616, -0.0140127, -0.142197, -0.00681867, -0.000932634, -1.78948, 66.2112, 33.4076, 8.82263, 2.04364, 4.51419, 0.00373412, -0.00143352, -0.00102955, 0.00390335, 0.0101456, -0.00598399, 0.000916883, 0.0427623, -0.0105375, -0.0126766, -0.111735, 0.150789, 0.00196356, 0.470863, -0.541997, 0.336253, -2.08319, -2.16556, -0.12999, 0.469744, -0.542852, 0.332207, -2.0818, -2.16404, -0.112584, -0.00360158, 0.0351128, 0.00888872, 0.0079942, -0.00470894, -0.0106077
0.12711, 1.69506, -1.22736, -1.5444, -0.901468, -1.19938, 1.22859, -1.30253, 0.0525832, 0.0143046, -0.036683, -0.00785384, -0.135546, -0.00954441, 0.0044371, -1.86486, 66.358, 33.5187, 8.71155, 2.06836, 4.50686, -0.00999879, -0.00147718, -0.00101927, 0.00391776, 0.010245, -0.00611743, 0.000931341, 0.0432087, -0.00989827, -0.0121632, -0.107406, 0.143218, -0.00564427, 0.47086, -0.541962, 0.336262, -2.08317, -2.16555, -0.129992, 0.469752, -0.542857, 0.332195, -2.08181, -2.16406, -0.112339, -0.00365725, 0.0356715, 0.00902453, 0.00733496, -0.00469624, -0.0100157
0.12811, 1.69511, -1.22735, -1.54443, -0.901481, -1.19952, 1.22859, -1.30253, 0.0540562, 0.0166543, -0.0343833, -0.0109425, -0.136098, -0.0108165, 0.00404951, -1.97991, 66.3937, 33.5584, 8.78693, 2.11139, 4.47848, -0.0292249, -0.00151712, -0.00100474, 0.00392981, 0.0103451, -0.00625917, 0.000929499, 0.0415002, -0.011523, -0.0106232, -0.108114, 0.145843, -0.00018939, 0.470856, -0.541926, 0.336271, -2.08315, -2.16554, -0.129995, 0.469764, -0.542858, 0.332185, -2.08181, -2.16409, -0.112087, -0.00371324, 0.0362337, 0.00916105, 0.00889655, -0.00261817, -0.00814285
0.12911, 1.69516, -1.22733, -1.54446, -0.901492, -1.19965, 1.22857, -1.30253, 0.0525766, 0.0199897, -0.0366886, -0.0112968, -0.134786, -0.0084856, 0.00322155, -1.97991, 66.358, 33.6338, 8.78693, 2.12421, 4.48581, -0.0356336, -0.00156086, -0.000996793, 0.00393622, 0.0104426, -0.00640399, 0.000938414, 0.0427891, -0.0109123, -0.00928215, -0.107026, 0.14966, -0.00119598, 0.470852, -0.54189, 0.33628, -2.08314, -2.16554, -0.129998, 0.469769, -0.542864, 0.332181, -2.08183, -2.16412, -0.111834, -0.00376953, 0.0367994, 0.00929827, 0.00832568, -0.00355681, -0.0068644
0.13011, 1.69521, -1.22732, -1.54449, -0.901508, -1.19979, 1.22857, -1.30254, 0.053895, 0.01837, -0.0328807, -0.0101243, -0.139298, -0.00535843, 0.00114039, -2.091, 66.358, 33.7449, 8.85834, 2.14252, 4.45743, -0.00267457, -0.00160127, -0.000982239, 0.0039472, 0.0105418, -0.00654655, 0.000931645, 0.0437094, -0.0122022, -0.0085552, -0.102743, 0.153273, 0.00158091, 0.470849, -0.541853, 0.336289, -2.08312, -2.16553, -0.13, 0.469781, -0.542865, 0.332173, -2.08182, -2.16416, -0.111583, -0.00382613, 0.0373685, 0.00943618, 0.00961689, -0.00395499, -0.00619221
0.13111, 1.69526, -1.2273, -1.54451, -0.90152, -1.19993, 1.22856, -1.30253, 0.0494708, 0.017064, -0.0303339, -0.0114887, -0.142246, -0.00437403, 0.00166629, -2.091, 66.358, 33.7449, 8.89801, 2.15442, 4.46383, -0.0228162, -0.00164655, -0.000973801, 0.00395484, 0.0106386, -0.00669223, 0.000941576, 0.0461352, -0.0103864, -0.00832978, -0.100985, 0.154971, -0.00179853, 0.470845, -0.541816, 0.336299, -2.0831, -2.16552, -0.130003, 0.469787, -0.54287, 0.332167, -2.08184, -2.16418, -0.11133, -0.00388303, 0.0379411, 0.00957479, 0.00784203, -0.00588626, -0.00615422
0.13211, 1.69531, -1.22729, -1.54454, -0.901524, -1.20007, 1.22855, -1.30253, 0.049717, 0.0164976, -0.0294682, -0.00984283, -0.1397, -0.00736435, 0.00218033, -2.24175, 66.4691, 33.7806, 8.82263, 2.16083, 4.44278, -0.0484509, -0.00169295, -0.000963322, 0.00396731, 0.0107368, -0.00683169, 0.000953385, 0.0461642, -0.0100968, -0.0084463, -0.100823, 0.150947, -0.00220774, 0.470841, -0.541778, 0.336308, -2.08308, -2.16551, -0.130006, 0.469795, -0.542876, 0.332157, -2.08185, -2.1642, -0.111081, -0.00394022, 0.0385172, 0.00971408, 0.00749245, -0.00533246, -0.00612641
0.13311, 1.69536, -1.22727, -1.54456, -0.901539, -1.20021, 1.22854, -1.30254, 0.0514948, 0.0184145, -0.0303208, -0.00917334, -0.142829, -0.00457629, 0.000119421, -2.3568, 66.358, 33.7449, 8.89801, 2.17273, 4.4144, -0.00999879, -0.00173547, -0.000950739, 0.00396922, 0.0108284, -0.00698717, 0.000948848, 0.0470773, -0.0109556, -0.00740643, -0.100268, 0.157153, -0.00040847, 0.470837, -0.541739, 0.336318, -2.08306, -2.1655, -0.130009, 0.469805, -0.542878, 0.332158, -2.08186, -2.16425, -0.110825, -0.00399771, 0.0390967, 0.00985405, 0.00836355, -0.00577931, -0.00512907
0.13411, 1.69541, -1.22726, -1.54459, -0.901556, -1.20036, 1.22853, -1.30254, 0.0515588, 0.0168189, -0.0289444, -0.0116279, -0.139629, -0.00223293, -0.000124136, -2.39648, 66.358, 33.7449, 8.97339, 2.17273, 4.37778, -0.00267457, -0.00178279, -0.000942011, 0.00398047, 0.0109282, -0.00713145, 0.000954417, 0.0463917, -0.0126434, -0.00805225, -0.09672, 0.154526, 0.00387238, 0.470833, -0.5417, 0.336328, -2.08305, -2.1655, -0.130011, 0.469811, -0.542884, 0.332149, -2.08186, -2.16428, -0.11057, -0.0040555, 0.0396796, 0.00999469, 0.00994318, -0.00435008, -0.00557167
0.13511, 1.69545, -1.22725, -1.54461, -0.901561, -1.2005, 1.22852, -1.30253, 0.0517539, 0.0188139, -0.0246744, -0.00982844, -0.141483, -0.00474727, 0.00142594, -2.43218, 66.358, 33.7449, 8.89801, 2.16724, 4.32834, -0.0420422, -0.00183289, -0.000934305, 0.00398866, 0.0110193, -0.007276, 0.000972627, 0.0464741, -0.0124436, -0.00538074, -0.0948977, 0.15667, 0.00235027, 0.470829, -0.541661, 0.336338, -2.08303, -2.16549, -0.130014, 0.469816, -0.542892, 0.332143, -2.08189, -2.1643, -0.110324, -0.00411357, 0.0402659, 0.010136, 0.00978645, -0.00426588, -0.00280033
0.13611, 1.6955, -1.22724, -1.54464, -0.901581, -1.20065, 1.22851, -1.30253, 0.0538509, 0.0146475, -0.023789, -0.00996175, -0.143409, -0.00722535, 0.00173459, -2.54723, 66.4691, 33.7052, 9.00909, 2.16083, 4.29263, -0.0621838, -0.00187936, -0.000922371, 0.00400427, 0.0111198, -0.00741428, 0.000973972, 0.0464336, -0.0132503, -0.00790385, -0.097786, 0.153213, 0.00414152, 0.470825, -0.54162, 0.336348, -2.08301, -2.16548, -0.130017, 0.469825, -0.542895, 0.33213, -2.08189, -2.16433, -0.110075, -0.00417194, 0.0408555, 0.0102779, 0.01044, -0.00321284, -0.00516869
0.13711, 1.69555, -1.22723, -1.54466, -0.901592, -1.20079, 1.22851, -1.30254, 0.0542662, 0.0169702, -0.0232596, -0.010485, -0.144945, -0.00359148, -0.00101917, -2.62261, 66.358, 33.6695, 9.00909, 2.15442, 4.23495, -0.00267457, -0.00192922, -0.000912731, 0.00400873, 0.0112086, -0.00757035, 0.000976702, 0.0470595, -0.0141856, -0.00616254, -0.0948642, 0.158903, 0.00752295, 0.470821, -0.541579, 0.336358, -2.08299, -2.16547, -0.13002, 0.469832, -0.542902, 0.332128, -2.0819, -2.16437, -0.109821, -0.00423059, 0.0414484, 0.0104206, 0.0114017, -0.003468, -0.00343397
0.13811, 1.69559, -1.22721, -1.54468, -0.901604, -1.20094, 1.2285, -1.30254, 0.0474853, 0.0143204, -0.0221075, -0.0108032, -0.145871, -0.00617332, -0.000386815, -2.65832, 66.2866, 33.5941, 9.00909, 2.13611, 4.19192, -0.00999879, -0.00198, -0.000905157, 0.0040149, 0.0112978, -0.00771827, 0.000987919, 0.0505113, -0.0101624, -0.00726678, -0.0957453, 0.155765, 0.000808613, 0.470816, -0.541538, 0.336369, -2.08297, -2.16546, -0.130023, 0.469836, -0.542909, 0.332124, -2.08192, -2.1644, -0.109574, -0.00428952, 0.0420447, 0.0105638, 0.00740861, -0.00627381, -0.00479672
0.13911, 1.69563, -1.2272, -1.5447, -0.901619, -1.20108, 1.22849, -1.30253, 0.0502128, 0.0135689, -0.0261607, -0.0121035, -0.146971, -0.00369625, 0.002403, -2.77337, 66.2866, 33.5941, 9.04877, 2.13611, 4.15622, -0.0814099, -0.0020313, -0.000896557, 0.00402733, 0.011396, -0.00786271, 0.00100373, 0.0509186, -0.0116444, -0.00928712, -0.0986031, 0.157954, -0.000369934, 0.470812, -0.541496, 0.336379, -2.08295, -2.16545, -0.130026, 0.469842, -0.542915, 0.332114, -2.08194, -2.16441, -0.10932, -0.00434873, 0.0426443, 0.0107077, 0.00877014, -0.00570252, -0.00675737
0.14011, 1.69568, -1.2272, -1.54471, -0.901629, -1.20123, 1.22848, -1.30253, 0.0532754, 0.0083789, -0.0234993, -0.0143525, -0.1477, -0.00675157, 0.000664583, -2.92413, 66.358, 33.483, 9.00909, 2.12421, 4.12692, -0.0557752, -0.00208246, -0.000884875, 0.00404001, 0.0114828, -0.00800189, 0.00100552, 0.0492645, -0.0138316, -0.0121879, -0.101122, 0.15231, 0.00754671, 0.470808, -0.541453, 0.33639, -2.08293, -2.16544, -0.130029, 0.469851, -0.542921, 0.332104, -2.08194, -2.16445, -0.109085, -0.00440822, 0.0432472, 0.0108522, 0.0107291, -0.0029278, -0.00928689
0.14111, 1.69573, -1.2272, -1.54473, -0.901642, -1.20138, 1.22848, -1.30254, 0.0536047, 0.00717369, -0.0202444, -0.0149022, -0.147806, -0.00861345, -0.00151462, -2.9995, 66.3223, 33.4473, 9.04877, 2.10498, 4.08389, -0.00267457, -0.00213649, -0.000876033, 0.00405118, 0.0115736, -0.00814992, 0.00100955, 0.0488403, -0.0144273, -0.012046, -0.100227, 0.150425, 0.0121204, 0.470803, -0.54141, 0.336401, -2.08291, -2.16543, -0.130032, 0.469857, -0.542929, 0.332095, -2.08195, -2.16448, -0.108837, -0.00446799, 0.0438533, 0.0109973, 0.0112542, -0.00189992, -0.00895476
0.14211, 1.69576, -1.22719, -1.54474, -0.901661, -1.20154, 1.22847, -1.30253, 0.0498382, 0.00534686, -0.0166713, -0.015937, -0.144056, -0.00576616, -0.000494361, -3.03521, 66.3223, 33.3719, 9.12018, 2.1178, 4.05551, -0.0164075, -0.00219104, -0.000867902, 0.00406238, 0.0116634, -0.00829796, 0.00101866, 0.0498113, -0.0142001, -0.0116136, -0.092817, 0.14698, 0.0113547, 0.470799, -0.541366, 0.336412, -2.08288, -2.16542, -0.130036, 0.469862, -0.542937, 0.332086, -2.08197, -2.16451, -0.10859, -0.00452802, 0.0444627, 0.0111431, 0.0110181, -0.00232476, -0.00852753
0.14311, 1.69581, -1.2272, -1.54476, -0.90167, -1.2017, 1.22847, -1.30253, 0.0531231, 0.00315266, -0.0172781, -0.0162632, -0.146531, -0.00387048, 0.00232035, -3.18597, 66.358, 33.2966, 9.04877, 2.13611, 4.03445, -0.0878186, -0.00224788, -0.000858168, 0.00407535, 0.0117499, -0.0084454, 0.00103831, 0.0498994, -0.0161585, -0.0132094, -0.0935464, 0.148288, 0.0110714, 0.470794, -0.541322, 0.336423, -2.08286, -2.16541, -0.130039, 0.469869, -0.542946, 0.332075, -2.08199, -2.16453, -0.108345, -0.00458833, 0.0450753, 0.0112895, 0.0128582, -0.00147116, -0.0100315
0.14411, 1.69585, -1.22719, -1.54477, -0.901685, -1.20185, 1.22846, -1.30253, 0.045704, 0.00408968, -0.0157598, -0.0153795, -0.14686, -0.00182868, -0.000382076, -3.18597, 66.2866, 33.2609, 9.04877, 2.1178, 3.99783, -0.0356336, -0.00230683, -0.000852516, 0.0040856, 0.0118354, -0.00859531, 0.00105069, 0.0539639, -0.0124263, -0.011469, -0.0888432, 0.150357, 0.00632923, 0.47079, -0.541277, 0.336434, -2.08284, -2.1654, -0.130042, 0.469871, -0.542957, 0.332067, -2.08202, -2.16456, -0.1081, -0.00464891, 0.0456911, 0.0114364, 0.0092806, -0.00529011, -0.00868685
0.14511, 1.69585, -1.22719, -1.54477, -0.901685, -1.20185, 1.22846, -1.30253, 0.045704, 0.00408968, -0.0157598, -0.0153795, -0.14686, -0.00182868, -0.000382076, -3.18597, 66.2866, 33.2609, 9.04877, 2.1178, 3.99783, -0.0356336, -0.00235395, -0.000849362, 0.00408962, 0.0118214, -0.00861328, 0.00105601, 0.0546004, -0.012466, -0.0115156, -0.0887107, 0.150675, 0.00637985, 0.470785, -0.541231, 0.336446, -2.08282, -2.16539, -0.130045, 0.469871, -0.542957, 0.332067, -2.08202, -2.16456, -0.1081, -0.00470975, 0.04631, 0.011584, 0.0092806, -0.00529011, -0.00868685
0.14611, 1.69585, -1.22719, -1.54477, -0.901685, -1.20185, 1.22846, -1.30253, 0.045704, 0.00408968, -0.0157598, -0.0153795, -0.14686, -0.00182868, -0.000382076, -3.18597, 66.2866, 33.2609, 9.04877, 2.1178, 3.99783, -0.0356336, -0.00240171, -0.000846167, 0.00409369, 0.0118073, -0.0086315, 0.0010614, 0.0552401, -0.0125058, -0.0115622, -0.0885771, 0.150994, 0.00643073, 0.47078, -0.541185, 0.336457, -2.0828, -2.16538, -0.130049, 0.469871, -0.542957, 0.332067, -2.08202, -2.16456, -0.1081, -0.00477085, 0.0469322, 0.0117321, 0.0092806, -0.00529011, -0.00868685
0.14711, 1.69595, -1.22718, -1.54481, -0.90174, -1.20232, 1.22845, -1.30252, 0.0368315, 0.00272544, -0.0128739, -0.0190433, -0.153771, -0.00431756, 0.0019369, -3.22564, 66.1755, 33.2212, 9.08447, 2.1178, 3.93374, -0.0951428, -0.00248397, -0.000831464, 0.00411716, 0.01209, -0.00904872, 0.00109327, 0.0593746, -0.0076852, -0.0116161, -0.0917611, 0.154235, -0.00229198, 0.470776, -0.541138, 0.336469, -2.08277, -2.16537, -0.130052, 0.469883, -0.542987, 0.332042, -2.08209, -2.16464, -0.107364, -0.00483222, 0.0475574, 0.0118809, 0.00455192, -0.00893611, -0.00908953
0.14811, 1.69599, -1.22717, -1.54481, -0.901764, -1.20247, 1.22845, -1.30252, 0.0378156, 0.00535109, -0.0112277, -0.0183048, -0.153108, -0.00291735, 0.000309124, -3.26134, 66.0287, 33.1498, 9.12018, 2.1178, 3.9191, -0.0685925, -0.00254001, -0.000821657, 0.00412203, 0.0121656, -0.00920167, 0.00109285, 0.0592303, -0.00869155, -0.00935681, -0.0882285, 0.157178, 0.000666192, 0.470771, -0.54109, 0.336481, -2.08275, -2.16536, -0.130056, 0.46989, -0.542993, 0.33204, -2.0821, -2.16469, -0.107128, -0.00489384, 0.0481858, 0.0120302, 0.00557336, -0.00847289, -0.00671927
0.14911, 1.69602, -1.22717, -1.54482, -0.901783, -1.20262, 1.22845, -1.30253, 0.0355065, 0.00540597, -0.00944423, -0.0167635, -0.152255, -0.00265231, -0.00101372, -3.30102, 65.9534, 33.1855, 9.12018, 2.11139, 3.92642, -0.0356336, -0.00259984, -0.00081309, 0.00413154, 0.0122433, -0.00935151, 0.00109814, 0.0608434, -0.00755304, -0.0083791, -0.0848207, 0.156646, -0.000455245, 0.470766, -0.541042, 0.336493, -2.08273, -2.16535, -0.130059, 0.469895, -0.543002, 0.332033, -2.08212, -2.16472, -0.106893, -0.00495572, 0.0488173, 0.01218, 0.00446868, -0.00963156, -0.00582211
0.15011, 1.69606, -1.22717, -1.54483, -0.901804, -1.20277, 1.22845, -1.30253, 0.0314077, 0.00282526, -0.00713905, -0.0211302, -0.152139, -0.00236657, 0.000308209, -3.3764, 65.9891, 33.1855, 9.08447, 2.1178, 3.93374, -0.0621838, -0.00265993, -0.000804368, 0.00414452, 0.0123242, -0.00949542, 0.00110777, 0.0617892, -0.00679181, -0.00949936, -0.0840157, 0.154547, -0.000740264, 0.470761, -0.540993, 0.336505, -2.0827, -2.16534, -0.130063, 0.469901, -0.54301, 0.332023, -2.08213, -2.16475, -0.10666, -0.00501785, 0.0494519, 0.0123305, 0.00363926, -0.0097882, -0.00690312
0.15111, 1.69608, -1.22715, -1.54483, -0.90183, -1.20292, 1.22845, -1.30252, 0.0278264, 0.00703, -0.00539154, -0.0198073, -0.152116, -0.00182304, -3.1379e-05, -3.30102, 65.7709, 33.1855, 9.12018, 2.12421, 3.93374, -0.0557752, -0.00272317, -0.000800828, 0.00414418, 0.0123945, -0.00966013, 0.00112515, 0.0637264, -0.00486293, -0.0060224, -0.0803211, 0.158949, -0.00430067, 0.470756, -0.540944, 0.336517, -2.08268, -2.16533, -0.130066, 0.469902, -0.543023, 0.332025, -2.08217, -2.16479, -0.106416, -0.00508023, 0.0500896, 0.0124815, 0.00184859, -0.0116803, -0.00356378
0.15211, 1.6961, -1.22715, -1.54484, -0.901854, -1.20307, 1.22845, -1.30252, 0.0282657, 0.00471845, -0.00807043, -0.021097, -0.152095, -0.00221316, 0.00167488, -3.22564, 65.7709, 33.2212, 9.12018, 2.14252, 3.95572, -0.101552, -0.00278828, -0.00079749, 0.00415459, 0.0124711, -0.00980713, 0.00114617, 0.0645352, -0.00493317, -0.00860891, -0.0837211, 0.157091, -0.00561029, 0.470751, -0.540894, 0.33653, -2.08266, -2.16532, -0.13007, 0.469902, -0.543036, 0.332017, -2.0822, -2.16481, -0.106184, -0.00514285, 0.0507303, 0.012633, 0.00179008, -0.0114342, -0.00609555
0.15311, 1.69613, -1.22715, -1.54484, -0.901882, -1.20322, 1.22845, -1.30252, 0.0275359, 0.00808949, -0.0069278, -0.0220679, -0.156644, -0.00212206, 0.00013353, -3.22564, 65.6955, 33.2609, 9.12018, 2.17273, 3.96945, -0.0750012, -0.00285019, -0.000790912, 0.00416069, 0.0125456, -0.00996005, 0.00114774, 0.0655935, -0.0044273, -0.0063318, -0.0846647, 0.164536, -0.00493415, 0.470746, -0.540843, 0.336542, -2.08263, -2.16531, -0.130073, 0.469905, -0.543045, 0.332014, -2.08222, -2.16485, -0.105949, -0.00520573, 0.051374, 0.0127851, 0.00134429, -0.0122082, -0.0038464
0.15411, 1.69616, -1.22714, -1.54485, -0.901913, -1.20336, 1.22845, -1.30252, 0.0277917, 0.0153164, -0.0076816, -0.0269326, -0.155138, -0.00151821, -0.000622843, -3.26134, 65.5487, 33.3719, 9.15985, 2.17914, 3.96945, -0.0557752, -0.00291076, -0.00078251, 0.00416881, 0.0126228, -0.0101103, 0.00115412, 0.0639595, -0.00571317, -0.00301972, -0.085652, 0.171623, 0.000367456, 0.470741, -0.540792, 0.336555, -2.08261, -2.1653, -0.130077, 0.46991, -0.543051, 0.332009, -2.08223, -2.16489, -0.105714, -0.00526884, 0.0520207, 0.0129378, 0.00262893, -0.010408, -0.000209737
0.15511, 1.69618, -1.22714, -1.54485, -0.901941, -1.20351, 1.22844, -1.30252, 0.0293808, 0.0101038, -0.0037063, -0.0286176, -0.149888, -0.00108976, -0.000686335, -3.22564, 65.5844, 33.2966, 9.12018, 2.19745, 3.96945, -0.0484509, -0.00297492, -0.000777361, 0.00417696, 0.0126909, -0.0102531, 0.00116307, 0.0620816, -0.00850059, -0.00503559, -0.0807038, 0.162623, 0.00730577, 0.470735, -0.54074, 0.336568, -2.08258, -2.16528, -0.130081, 0.469912, -0.543061, 0.332004, -2.08225, -2.16492, -0.105497, -0.0053322, 0.0526704, 0.0130909, 0.00520748, -0.00747692, -0.00184079
0.15611, 1.6962, -1.22714, -1.54485, -0.901972, -1.20366, 1.22844, -1.30251, 0.0282826, 0.00728197, -0.00449545, -0.027761, -0.150832, -0.00132726, 0.00127189, -3.22564, 65.5844, 33.3719, 9.12018, 2.21576, 3.9841, -0.0951428, -0.00303991, -0.000772802, 0.00418634, 0.0127659, -0.0103996, 0.00117744, 0.0640809, -0.00749434, -0.0068599, -0.0815575, 0.16076, 0.00293887, 0.47073, -0.540687, 0.336581, -2.08255, -2.16527, -0.130085, 0.469913, -0.543071, 0.331997, -2.08228, -2.16495, -0.105267, -0.0053958, 0.0533231, 0.0132446, 0.00414384, -0.00855631, -0.00377084
0.15711, 1.69622, -1.22713, -1.54485, -0.902001, -1.2038, 1.22843, -1.30251, 0.0283173, 0.00786267, -0.00495622, -0.0286688, -0.149714, -0.00143713, -0.000135325, -3.26134, 65.4733, 33.4473, 9.04877, 2.19745, 3.99783, -0.0685925, -0.00310349, -0.000766989, 0.00419192, 0.0128401, -0.0105497, 0.00118453, 0.0642806, -0.00777125, -0.00686287, -0.081775, 0.160814, 0.00536632, 0.470725, -0.540634, 0.336594, -2.08253, -2.16526, -0.130089, 0.469915, -0.543079, 0.331995, -2.08229, -2.16498, -0.105036, -0.00545963, 0.0539787, 0.0133988, 0.00436385, -0.00808547, -0.00366077
0.15811, 1.69624, -1.22713, -1.54485, -0.902041, -1.20395, 1.22843, -1.30251, 0.0235189, 0.00378571, -0.00168791, -0.0319471, -0.150293, -0.00180463, -0.000564867, -3.22564, 65.5487, 33.3719, 9.08447, 2.20386, 4.0198, -0.0557752, -0.00316816, -0.000761288, 0.00420294, 0.0129136, -0.0106927, 0.00118614, 0.0658917, -0.00637631, -0.00839293, -0.0805301, 0.157289, 0.00544879, 0.470719, -0.54058, 0.336608, -2.0825, -2.16525, -0.130092, 0.469918, -0.543087, 0.331987, -2.0823, -2.16502, -0.104813, -0.00552369, 0.0546373, 0.0135535, 0.0029084, -0.00883725, -0.00522669
0.15911, 1.69626, -1.22713, -1.54485, -0.902073, -1.20411, 1.22843, -1.30251, 0.023059, 0.00191897, -0.00123553, -0.0347945, -0.155472, -0.00149892, 0.00456522, -3.18597, 65.5844, 33.3719, 9.00909, 2.21576, 4.02713, -0.0621838, -0.00323624, -0.000756897, 0.00421184, 0.0129854, -0.0108433, 0.00119974, 0.0670675, -0.00638383, -0.00970458, -0.0835284, 0.16042, 0.000955882, 0.470714, -0.540525, 0.336621, -2.08248, -2.16524, -0.130096, 0.469919, -0.543098, 0.331981, -2.08233, -2.16505, -0.104583, -0.00558799, 0.0552987, 0.0137087, 0.00284567, -0.00913236, -0.00655188
0.16011, 1.69628, -1.22712, -1.54484, -0.902116, -1.20426, 1.22843, -1.3025, 0.0197372, 0.00461508, -7.11622e-05, -0.0397638, -0.153552, -0.00688326, 0.00465626, -3.15026, 65.5844, 33.3362, 9.04877, 2.20935, 4.05551, -0.0951428, -0.003302, -0.000751346, 0.004219, 0.013063, -0.0110006, 0.00120634, 0.0663284, -0.00505571, -0.00873678, -0.0877416, 0.159458, 0.0030834, 0.470708, -0.54047, 0.336635, -2.08245, -2.16522, -0.1301, 0.469921, -0.543106, 0.331977, -2.08235, -2.16509, -0.10434, -0.00565251, 0.0559631, 0.0138645, 0.00146416, -0.00794293, -0.00528562
0.16111, 1.69629, -1.22713, -1.54485, -0.902154, -1.20442, 1.22842, -1.3025, 0.0202283, 0.00170665, -0.000944678, -0.0374532, -0.153835, -0.00554639, 0.00265224, -3.11059, 65.6598, 33.3719, 8.97339, 2.23407, 4.07016, -0.0750012, -0.00337285, -0.000750471, 0.00423162, 0.0131479, -0.0111504, 0.00121673, 0.0681245, -0.00496836, -0.0103881, -0.0865733, 0.157664, 0.00316841, 0.470702, -0.540414, 0.336649, -2.08242, -2.16521, -0.130104, 0.469918, -0.543118, 0.331967, -2.08236, -2.16512, -0.104097, -0.00571726, 0.0566303, 0.0140207, 0.00131599, -0.00879566, -0.00703925
0.16211, 1.6963, -1.22712, -1.54484, -0.902198, -1.20458, 1.22841, -1.3025, 0.0159187, 0.00226786, 0.00108694, -0.0405473, -0.154157, -0.00346632, 0.00151398, -2.9995, 65.6241, 33.2966, 8.97339, 2.2652, 4.05551, -0.0621838, -0.00344104, -0.000746686, 0.00423686, 0.0132222, -0.01131, 0.00122267, 0.0696158, -0.00398022, -0.00940493, -0.0837427, 0.159844, 0.00368314, 0.470697, -0.540357, 0.336663, -2.08239, -2.1652, -0.130108, 0.469918, -0.543128, 0.331965, -2.08238, -2.16516, -0.103856, -0.00578224, 0.0573004, 0.0141774, 0.000354568, -0.00979038, -0.0061161
0.16311, 1.69632, -1.22711, -1.54484, -0.902245, -1.20473, 1.22841, -1.3025, 0.0176896, 0.00649151, -0.0010735, -0.0390627, -0.157596, -0.00281559, 0.00141208, -2.95983, 65.5487, 33.3719, 8.93372, 2.25879, 4.06283, -0.0685925, -0.00351108, -0.000745033, 0.00424404, 0.0133085, -0.0114735, 0.00123581, 0.0707671, -0.00395337, -0.00753058, -0.085703, 0.167626, 0.00201089, 0.470691, -0.5403, 0.336677, -2.08237, -2.16519, -0.130113, 0.469916, -0.543138, 0.331961, -2.0824, -2.16519, -0.103597, -0.00584743, 0.0579733, 0.0143346, 0.00037375, -0.0105451, -0.00428936
0.16411, 1.69632, -1.2271, -1.54484, -0.902295, -1.20489, 1.22841, -1.30249, 0.0100382, 0.00474314, -0.00074183, -0.0412027, -0.15625, -0.00604517, 0.00276086, -2.80907, 65.5487, 33.3719, 8.89801, 2.27161, 4.04086, -0.114369, -0.00358297, -0.000743878, 0.00425345, 0.0133891, -0.0116321, 0.00125304, 0.0737204, 0.000175331, -0.00866678, -0.0874353, 0.16343, -0.00434224, 0.470685, -0.540242, 0.336692, -2.08234, -2.16517, -0.130117, 0.469914, -0.543149, 0.331955, -2.08243, -2.16522, -0.103349, -0.00591285, 0.058649, 0.0144922, -0.00375019, -0.0127786, -0.00558895
0.16511, 1.69634, -1.2271, -1.54484, -0.902345, -1.20504, 1.2284, -1.30249, 0.00802081, 0.00263848, -0.000514176, -0.0427883, -0.153453, -0.004562, 0.000950272, -2.80907, 65.5844, 33.3719, 8.85834, 2.24048, 4.04086, -0.0878186, -0.00365023, -0.0007379, 0.00426227, 0.0134687, -0.0117867, 0.0012486, 0.0745919, 0.000243776, -0.0098667, -0.0851278, 0.16017, -0.00197529, 0.470679, -0.540183, 0.336706, -2.08231, -2.16516, -0.130121, 0.469916, -0.543155, 0.33195, -2.08243, -2.16526, -0.103109, -0.00597848, 0.0593275, 0.0146504, -0.003897, -0.0127766, -0.00675129
0.16611, 1.69635, -1.22709, -1.54483, -0.902404, -1.20519, 1.22839, -1.30249, 0.0110439, 0.00199269, 0.00140574, -0.044788, -0.152417, -0.00801349, -0.0004835, -2.7337, 65.5844, 33.2966, 8.85834, 2.22858, 4.03445, -0.0557752, -0.00371797, -0.000733806, 0.00426975, 0.0135502, -0.0119435, 0.00124435, 0.0724563, -0.00178195, -0.0103543, -0.0872646, 0.157487, 0.0055011, 0.470673, -0.540124, 0.336721, -2.08228, -2.16515, -0.130125, 0.469916, -0.543162, 0.331947, -2.08243, -2.16531, -0.102864, -0.00604433, 0.0600088, 0.0148089, -0.00203476, -0.00982726, -0.00680448
0.16711, 1.69635, -1.22708, -1.54483, -0.902459, -1.20534, 1.22839, -1.30248, 0.00990864, 0.00779754, 0.000926119, -0.0478204, -0.152149, -0.0101729, 0.0048003, -2.65832, 65.5844, 33.2966, 8.78693, 2.23407, 4.0198, -0.0685925, -0.00378953, -0.000732818, 0.00427679, 0.0136332, -0.0121039, 0.001254, 0.0720541, -0.0013052, -0.00768961, -0.0899869, 0.162638, 0.00150871, 0.470667, -0.540064, 0.336735, -2.08225, -2.16513, -0.130129, 0.469913, -0.543171, 0.331943, -2.08245, -2.16535, -0.102612, -0.00611038, 0.0606929, 0.014968, -0.00249226, -0.00917886, -0.00393888
0.16811, 1.69635, -1.22707, -1.54483, -0.902515, -1.20549, 1.22838, -1.30247, 0.00429573, 0.00752473, -0.0011541, -0.0523698, -0.14649, -0.0125032, 0.00555519, -2.50756, 65.513, 33.3719, 8.67188, 2.21576, 4.0198, -0.120778, -0.00386302, -0.000734674, 0.00428368, 0.0137206, -0.0122653, 0.00127225, 0.0730071, 0.000945512, -0.00918819, -0.0923622, 0.157271, 0.000132361, 0.470661, -0.540003, 0.33675, -2.08222, -2.16512, -0.130134, 0.469907, -0.543182, 0.33194, -2.08247, -2.16537, -0.102354, -0.00617665, 0.0613797, 0.0151275, -0.00482724, -0.00929302, -0.00533972
0.16911, 1.69636, -1.22707, -1.54483, -0.902587, -1.20564, 1.22837, -1.30247, 0.0011777, 0.0042818, 0.000987627, -0.05624, -0.142257, -0.0138513, 0.0023247, -2.39648, 65.6955, 33.2966, 8.71155, 2.19745, 4.01248, -0.0750012, -0.00393026, -0.000729509, 0.00429725, 0.0138031, -0.0124085, 0.00126135, 0.0728336, 0.00111658, -0.010899, -0.0911871, 0.150333, 0.00623304, 0.470655, -0.539942, 0.336766, -2.08219, -2.1651, -0.130138, 0.469908, -0.543184, 0.331931, -2.08246, -2.16542, -0.102123, -0.00624313, 0.0620692, 0.0152874, -0.00513418, -0.0081733, -0.00683792
0.17011, 1.69636, -1.22706, -1.54482, -0.902653, -1.20578, 1.22836, -1.30247, 0.00176525, 0.00746037, 0.00148898, -0.0594949, -0.144287, -0.00989822, 0.00131258, -2.28143, 65.6598, 33.2609, 8.63617, 2.20386, 3.99783, -0.0621838, -0.00399826, -0.000726794, 0.00430148, 0.0138847, -0.0125651, 0.00125797, 0.0727323, -0.000513904, -0.00902181, -0.0894356, 0.157764, 0.0102542, 0.470649, -0.53988, 0.336781, -2.08216, -2.16509, -0.130143, 0.469907, -0.543188, 0.331931, -2.08246, -2.16546, -0.101878, -0.00630981, 0.0627614, 0.0154478, -0.00350617, -0.00760433, -0.00486102
0.17111, 1.69636, -1.22705, -1.54483, -0.902725, -1.20592, 1.22835, -1.30246, -0.000752309, 0.00403236, -0.00244451, -0.0651278, -0.145463, -0.00750372, 0.00054455, -2.16637, 65.7312, 33.4076, 8.56079, 2.20935, 3.99783, -0.0484509, -0.00407036, -0.000727175, 0.00431495, 0.0139785, -0.0127148, 0.00126202, 0.0745161, -7.07401e-05, -0.0129138, -0.0937632, 0.157534, 0.0113721, 0.470642, -0.539817, 0.336796, -2.08213, -2.16508, -0.130147, 0.469902, -0.543195, 0.331922, -2.08246, -2.16549, -0.101627, -0.00637669, 0.0634563, 0.0156086, -0.00409581, -0.00808363, -0.00880954
0.17211, 1.69635, -1.22704, -1.54482, -0.902804, -1.20606, 1.22833, -1.30245, -0.000408198, 0.007115, -0.0016323, -0.0672896, -0.142494, -0.0103837, 0.00270067, -2.01562, 65.6955, 33.4076, 8.52509, 2.22217, 3.99783, -0.10796, -0.00413892, -0.000725831, 0.00432141, 0.0140675, -0.0128712, 0.00126328, 0.0731022, -0.000684099, -0.0114313, -0.094791, 0.157283, 0.0127802, 0.470636, -0.539753, 0.336812, -2.0821, -2.16506, -0.130152, 0.4699, -0.543198, 0.33192, -2.08246, -2.16553, -0.101374, -0.00644377, 0.0641539, 0.0157699, -0.00354604, -0.00619468, -0.00698434
0.17311, 1.69635, -1.22704, -1.54482, -0.902804, -1.20606, 1.22833, -1.30245, -0.000408198, 0.007115, -0.0016323, -0.0672896, -0.142494, -0.0103837, 0.00270067, -2.01562, 65.6955, 33.4076, 8.52509, 2.22217, 3.99783, -0.10796, -0.00420505, -0.000721509, 0.00432669, 0.0140474, -0.0128969, 0.00127071, 0.0738214, -0.000726982, -0.0114777, -0.0946296, 0.157651, 0.0128363, 0.470629, -0.539689, 0.336828, -2.08207, -2.16505, -0.130156, 0.4699, -0.543198, 0.33192, -2.08246, -2.16553, -0.101374, -0.00651106, 0.0648541, 0.0159315, -0.00354604, -0.00619468, -0.00698434
0.17411, 1.69635, -1.22704, -1.54482, -0.902804, -1.20606, 1.22833, -1.30245, -0.000408198, 0.007115, -0.0016323, -0.0672896, -0.142494, -0.0103837, 0.00270067, -2.01562, 65.6955, 33.4076, 8.52509, 2.22217, 3.99783, -0.10796, -0.0042719, -0.000717144, 0.004332, 0.0140271, -0.012923, 0.00127821, 0.0745432, -0.000769953, -0.0115241, -0.0944673, 0.15802, 0.0128926, 0.470623, -0.539624, 0.336844, -2.08204, -2.16503, -0.130161, 0.4699, -0.543198, 0.33192, -2.08246, -2.16553, -0.101374, -0.00657853, 0.0655569, 0.0160936, -0.00354604, -0.00619468, -0.00698434
0.17511, 1.69633, -1.22699, -1.54481, -0.903048, -1.20648, 1.2283, -1.30243, -0.00545049, 0.0158744, 7.02085e-05, -0.0764636, -0.139104, -0.00599981, 0.00966592, -1.56335, 65.6955, 33.3719, 8.22754, 2.23407, 3.92642, -0.0420422, -0.00434833, -0.000723022, 0.00433547, 0.0143205, -0.0133427, 0.00124689, 0.073412, -0.00136397, -0.00643441, -0.0901492, 0.167091, 0.0108075, 0.470616, -0.539559, 0.33686, -2.082, -2.16502, -0.130166, 0.46989, -0.543207, 0.331921, -2.08245, -2.16567, -0.10063, -0.0066462, 0.0662624, 0.0162561, -0.00287129, -0.00513813, -0.0016408
0.17611, 1.69631, -1.22698, -1.5448, -0.903133, -1.20662, 1.22829, -1.30241, -0.00672315, 0.0178202, 0.00321519, -0.0795175, -0.137546, -0.00362187, 0.00935747, -1.41259, 65.8423, 33.3719, 8.07678, 2.24048, 3.89804, -0.0951428, -0.00442204, -0.000723252, 0.00434452, 0.0144029, -0.0134958, 0.00125252, 0.0729026, -0.00251493, -0.00437908, -0.0855074, 0.169325, 0.0145857, 0.47061, -0.539493, 0.336876, -2.08197, -2.165, -0.13017, 0.469885, -0.543212, 0.331917, -2.08246, -2.1657, -0.100387, -0.00671407, 0.0669704, 0.016419, -0.00173111, -0.00419839, 0.000592933
0.17711, 1.6963, -1.22696, -1.54479, -0.903225, -1.20675, 1.22828, -1.3024, -0.0059176, 0.0150315, 0.00240694, -0.0829234, -0.136571, -0.00680078, 0.010892, -1.33721, 65.9177, 33.3719, 7.9657, 2.25238, 3.87607, -0.0750012, -0.00449141, -0.000720207, 0.00435141, 0.014488, -0.0136513, 0.00123915, 0.0721746, -0.00320559, -0.00714949, -0.0903116, 0.164959, 0.0168708, 0.470603, -0.539426, 0.336892, -2.08194, -2.16499, -0.130175, 0.469884, -0.543212, 0.331915, -2.08244, -2.16575, -0.100142, -0.00678212, 0.0676811, 0.0165822, -0.00123886, -0.00230949, -0.00188804
0.17811, 1.69629, -1.22694, -1.54479, -0.903321, -1.20689, 1.22827, -1.30239, -0.0102812, 0.0138101, 0.000967017, -0.0894054, -0.135035, -0.0042526, 0.0124922, -1.18645, 65.9534, 33.4076, 7.89032, 2.25879, 3.84768, -0.0685925, -0.00456251, -0.000719335, 0.00435355, 0.014571, -0.0138166, 0.00123351, 0.0733011, -0.00265487, -0.00888036, -0.0909651, 0.164648, 0.0165841, 0.470596, -0.539358, 0.336909, -2.0819, -2.16497, -0.13018, 0.46988, -0.543214, 0.331919, -2.08244, -2.16581, -0.0998871, -0.00685036, 0.0683942, 0.0167459, -0.00188072, -0.00246148, -0.00359435
0.17911, 1.69626, -1.22692, -1.54478, -0.90342, -1.20702, 1.22826, -1.30238, -0.0144271, 0.0174375, -0.000970353, -0.0900266, -0.140118, -0.00286997, 0.0131112, -0.996025, 66.0645, 33.483, 7.77924, 2.28992, 3.83304, -0.0420422, -0.00463665, -0.000721771, 0.00436139, 0.0146599, -0.0139725, 0.0012275, 0.0769102, 0.000225172, -0.00718915, -0.0929907, 0.173531, 0.00977289, 0.470589, -0.53929, 0.336926, -2.08187, -2.16495, -0.130185, 0.469873, -0.543218, 0.331916, -2.08243, -2.16585, -0.0996357, -0.00691878, 0.06911, 0.01691, -0.00463126, -0.00568981, -0.00223864
0.18011, 1.69624, -1.22689, -1.54478, -0.903519, -1.20716, 1.22825, -1.30236, -0.0164923, 0.0214079, 0.000733737, -0.0939145, -0.133918, -0.00650166, 0.0165936, -0.845268, 65.9891, 33.5584, 7.66418, 2.30823, 3.8193, -0.0951428, -0.00470908, -0.000722744, 0.00435955, 0.0147463, -0.014147, 0.00123038, 0.075092, 0.000210757, -0.00506371, -0.0927463, 0.17117, 0.0104575, 0.470582, -0.53922, 0.336943, -2.08184, -2.16494, -0.13019, 0.469868, -0.54322, 0.331923, -2.08244, -2.16589, -0.0993675, -0.00698738, 0.0698282, 0.0170744, -0.00467137, -0.00350643, 0.00030645
0.18111, 1.69622, -1.22687, -1.54477, -0.903617, -1.2073, 1.22824, -1.30235, -0.0212498, 0.024397, 0.00387348, -0.0950389, -0.139309, -0.00855842, 0.0162783, -0.694511, 66.0287, 33.5584, 7.47772, 2.34485, 3.79001, -0.0750012, -0.00478464, -0.000725241, 0.00435949, 0.0148302, -0.0143189, 0.00122978, 0.0775352, 0.00307012, -0.00229497, -0.0936583, 0.177655, 0.00671704, 0.470575, -0.539151, 0.33696, -2.0818, -2.16492, -0.130195, 0.469861, -0.543225, 0.331929, -2.08245, -2.16594, -0.099105, -0.00705617, 0.0705489, 0.0172392, -0.00740322, -0.00574601, 0.00290863
0.18211, 1.6962, -1.22685, -1.54476, -0.903728, -1.20744, 1.22824, -1.30234, -0.0207949, 0.0244943, 0.00447701, -0.0994772, -0.13861, -0.00611505, 0.0159564, -0.583427, 66.1755, 33.6338, 7.44202, 2.38147, 3.77627, -0.0557752, -0.00485906, -0.000725448, 0.00436698, 0.0149194, -0.0144832, 0.00122056, 0.0767423, 0.00114288, -0.00250161, -0.092653, 0.179154, 0.0119812, 0.470568, -0.53908, 0.336977, -2.08177, -2.16491, -0.1302, 0.469856, -0.543227, 0.331927, -2.08244, -2.16599, -0.0988453, -0.00712513, 0.0712721, 0.0174044, -0.00558352, -0.00412755, 0.00293166
0.18311, 1.69616, -1.22682, -1.54474, -0.903835, -1.20757, 1.22823, -1.30233, -0.0262234, 0.0232872, 0.00855809, -0.104165, -0.136956, -0.00317155, 0.0122628, -0.357292, 66.2469, 33.5584, 7.33093, 2.39429, 3.73324, -0.0621838, -0.00493571, -0.000728105, 0.00436327, 0.0149846, -0.0146526, 0.00121939, 0.0777483, 0.00162041, -0.00193879, -0.0870975, 0.178363, 0.0170381, 0.470561, -0.539009, 0.336994, -2.08173, -2.16489, -0.130205, 0.469849, -0.543232, 0.331936, -2.08245, -2.16605, -0.098606, -0.00719427, 0.0719978, 0.0175699, -0.00607157, -0.00450173, 0.00350773
0.18411, 1.69614, -1.22678, -1.54474, -0.903951, -1.2077, 1.22823, -1.30231, -0.027725, 0.0258629, 0.00689724, -0.109134, -0.137172, -0.00130835, 0.0151375, -0.242241, 66.1755, 33.6695, 7.29126, 2.44281, 3.69754, -0.0951428, -0.00500909, -0.000728259, 0.00435894, 0.0150709, -0.0148383, 0.00121379, 0.0780359, 0.00133485, -0.00149809, -0.0887193, 0.182943, 0.0161844, 0.470554, -0.538937, 0.337012, -2.0817, -2.16487, -0.13021, 0.469845, -0.543233, 0.331946, -2.08246, -2.16611, -0.0983275, -0.00726359, 0.0727259, 0.0177358, -0.00582828, -0.00411376, 0.00405232
0.18511, 1.6961, -1.22677, -1.54473, -0.90406, -1.20784, 1.22823, -1.3023, -0.0306264, 0.0238435, 0.00771544, -0.108241, -0.136035, -0.000717007, 0.0149759, -0.0557783, 66.3937, 33.7052, 7.18018, 2.45563, 3.68289, -0.0685925, -0.00508948, -0.00073278, 0.00436398, 0.0151491, -0.0150009, 0.00120923, 0.0801908, 0.00270044, -0.00211893, -0.0861047, 0.180439, 0.0135783, 0.470547, -0.538864, 0.33703, -2.08166, -2.16485, -0.130215, 0.469835, -0.543238, 0.331946, -2.08246, -2.16616, -0.0980814, -0.00733307, 0.0734565, 0.0179021, -0.00720629, -0.00546978, 0.00330812
