alisrour97/Franka_experiments/Real_Robot_scripts/servo-franka/Data3/log_dyn_INIT0_l_ki_12.csv
Time,q1,q2,q3,q4,q5,q6,q7,dq1,dq2,dq3,dq4,dq5,dq6,dq7,t1,t2,t3,t4,t5,t6,t7,ex1,ex2,ex3,ex4,ex5,ex6,ev1,ev2,ev3,ev4,ev5,ev6,xd,yd,zd,uxd,uyd,uzd,x,y,z,ux,uy,uz,vxd,vyd,vzd,vx,vy,vz
9.76563e-07, 1.69154, -1.22332, -1.53719, -0.899644, -1.19154, 1.22903, -1.30303, 0.00160099, 0.00156733, 0.00148573, 0.000600085, 0.000386243, -0.000678933, 0.00238211, -0.694511, 53.1747, 25.4056, 5.79956, 1.49707, 2.32059, 0.252758, 0.00128455, -0.00133951, -0.00161477, -0.00141431, -0.0026499, -0.000672592, -0.001139, -0.000915323, 0.00138447, 0.00106096, 0.000808107, -0.000504804, 0.471008, -0.543389, 0.335894, -2.08385, -2.16584, -0.129887, 0.469685, -0.542422, 0.33773, -2.08526, -2.1686, -0.128822, -4.82042e-07, 4.44613e-06, 1.21621e-06, 0.000922906, 0.000953258, 0.00151746
0.0121448, 1.69151, -1.22333, -1.53718, -0.899651, -1.19153, 1.22902, -1.30303, -0.00305571, -0.00345499, -3.57526e-05, -0.00560543, 0.000866575, 0.00029121, 0.000712143, -0.960319, 53.1747, 25.4056, 5.87494, 1.46045, 2.32059, 0.239025, 0.00127711, -0.001352, -0.00161104, -0.00142366, -0.00262541, -0.000652954, -8.77326e-05, 0.000252678, -0.00263614, -0.00186175, -0.00359563, 0.00150526, 0.471008, -0.543389, 0.335894, -2.08385, -2.16584, -0.129887, 0.46967, -0.542432, 0.337724, -2.08527, -2.16857, -0.12887, -1.47349e-06, 1.36697e-05, 3.70923e-06, -0.000352116, 0.00049569, -0.00257805
0.013145, 1.69151, -1.22333, -1.53718, -0.899651, -1.19153, 1.22902, -1.30303, -0.00305571, -0.00345499, -3.57526e-05, -0.00560543, 0.000866575, 0.00029121, 0.000712143, -0.960319, 53.1747, 25.4056, 5.87494, 1.46045, 2.32059, 0.239025, 0.0012771, -0.001352, -0.00161104, -0.00142366, -0.00262542, -0.000652953, -7.39839e-05, 0.000251687, -0.00263759, -0.00185981, -0.00358945, 0.00150641, 0.471008, -0.543389, 0.335894, -2.08385, -2.16584, -0.129887, 0.46967, -0.542432, 0.337724, -2.08527, -2.16857, -0.12887, -2.9032e-06, 2.69793e-05, 7.30333e-06, -0.000352116, 0.00049569, -0.00257805
0.014145, 1.69151, -1.22333, -1.53718, -0.899651, -1.19153, 1.22902, -1.30303, -0.00305571, -0.00345499, -3.57526e-05, -0.00560543, 0.000866575, 0.00029121, 0.000712143, -0.960319, 53.1747, 25.4056, 5.87494, 1.46045, 2.32059, 0.239025, 0.00127708, -0.001352, -0.00161104, -0.00142367, -0.00262542, -0.000652951, -5.53621e-05, 0.000250345, -0.00263954, -0.00185717, -0.00358108, 0.00150797, 0.471008, -0.543389, 0.335894, -2.08385, -2.16584, -0.129887, 0.46967, -0.542432, 0.337724, -2.08527, -2.16857, -0.12887, -4.83863e-06, 4.50071e-05, 1.21677e-05, -0.000352116, 0.00049569, -0.00257805
0.015145, 1.69151, -1.22333, -1.53718, -0.899651, -1.19153, 1.22902, -1.30303, -0.00305571, -0.00345499, -3.57526e-05, -0.00560543, 0.000866575, 0.00029121, 0.000712143, -0.960319, 53.1747, 25.4056, 5.87494, 1.46045, 2.32059, 0.239025, 0.00127704, -0.00135199, -0.00161104, -0.00142368, -0.00262544, -0.000652946, -3.12778e-05, 0.00024861, -0.00264207, -0.00185375, -0.00357025, 0.00150998, 0.471008, -0.543389, 0.335894, -2.08385, -2.16584, -0.129887, 0.46967, -0.542432, 0.337724, -2.08527, -2.16857, -0.12887, -7.34058e-06, 6.83239e-05, 1.84546e-05, -0.000352116, 0.00049569, -0.00257805
0.016145, 1.69151, -1.22333, -1.53718, -0.899651, -1.19153, 1.22902, -1.30303, -0.00305571, -0.00345499, -3.57526e-05, -0.00560543, 0.000866575, 0.00029121, 0.000712143, -0.960319, 53.1747, 25.4056, 5.87494, 1.46045, 2.32059, 0.239025, 0.00127698, -0.00135199, -0.00161103, -0.00142369, -0.00262546, -0.000652938, -1.22877e-06, 0.000246448, -0.00264522, -0.00184947, -0.00355672, 0.00151249, 0.471008, -0.543389, 0.335894, -2.08385, -2.16584, -0.129887, 0.46967, -0.542432, 0.337724, -2.08527, -2.16857, -0.12887, -1.04607e-05, 9.7416e-05, 2.62933e-05, -0.000352116, 0.00049569, -0.00257805
0.0171453, 1.69151, -1.22333, -1.53718, -0.899651, -1.19153, 1.22902, -1.30303, -0.00305571, -0.00345499, -3.57526e-05, -0.00560543, 0.000866575, 0.00029121, 0.000712143, -0.960319, 53.1747, 25.4056, 5.87494, 1.46045, 2.32059, 0.239025, 0.00127688, -0.00135198, -0.00161102, -0.00142372, -0.00262549, -0.000652927, 3.5176e-05, 0.00024383, -0.00264903, -0.00184427, -0.00354033, 0.00151554, 0.471008, -0.543389, 0.335894, -2.08385, -2.16584, -0.129887, 0.46967, -0.542432, 0.337724, -2.08527, -2.16857, -0.12887, -1.42391e-05, 0.000132663, 3.57838e-05, -0.000352116, 0.00049569, -0.00257805
0.0181455, 1.69151, -1.22333, -1.53718, -0.899651, -1.19153, 1.22902, -1.30303, -0.00305571, -0.00345499, -3.57526e-05, -0.00560543, 0.000866575, 0.00029121, 0.000712143, -0.960319, 53.1747, 25.4056, 5.87494, 1.46045, 2.32059, 0.239025, 0.00127675, -0.00135197, -0.001611, -0.00142375, -0.00262554, -0.000652911, 7.81928e-05, 0.00024074, -0.00265353, -0.00183811, -0.00352094, 0.00151914, 0.471008, -0.543389, 0.335894, -2.08385, -2.16584, -0.129887, 0.46967, -0.542432, 0.337724, -2.08527, -2.16857, -0.12887, -1.87016e-05, 0.000174312, 4.69907e-05, -0.000352116, 0.00049569, -0.00257805
0.0191458, 1.69151, -1.22333, -1.53718, -0.899651, -1.19153, 1.22902, -1.30303, -0.00305571, -0.00345499, -3.57526e-05, -0.00560543, 0.000866575, 0.00029121, 0.000712143, -0.960319, 53.1747, 25.4056, 5.87494, 1.46045, 2.32059, 0.239025, 0.00127657, -0.00135196, -0.00161099, -0.0014238, -0.0026256, -0.00065289, 0.000127919, 0.00023717, -0.00265871, -0.00183096, -0.00349852, 0.0015233, 0.471008, -0.543389, 0.335894, -2.08385, -2.16584, -0.129887, 0.46967, -0.542432, 0.337724, -2.08527, -2.16857, -0.12887, -2.38577e-05, 0.00022246, 5.99368e-05, -0.000352116, 0.00049569, -0.00257805
0.020146, 1.69151, -1.22333, -1.53718, -0.899651, -1.19153, 1.22902, -1.30303, -0.00305571, -0.00345499, -3.57526e-05, -0.00560543, 0.000866575, 0.00029121, 0.000712143, -0.960319, 53.1747, 25.4056, 5.87494, 1.46045, 2.32059, 0.239025, 0.00127634, -0.00135194, -0.00161096, -0.00142386, -0.00262568, -0.000652864, 0.000184272, 0.000233127, -0.00266458, -0.00182284, -0.00347309, 0.00152801, 0.471008, -0.543389, 0.335894, -2.08385, -2.16584, -0.129887, 0.46967, -0.542432, 0.337724, -2.08527, -2.16857, -0.12887, -2.96979e-05, 0.000277024, 7.45974e-05, -0.000352116, 0.00049569, -0.00257805
0.021146, 1.69151, -1.22333, -1.53718, -0.899651, -1.19153, 1.22902, -1.30303, -0.00305571, -0.00345499, -3.57526e-05, -0.00560543, 0.000866575, 0.00029121, 0.000712143, -0.960319, 53.1747, 25.4056, 5.87494, 1.46045, 2.32059, 0.239025, 0.00127605, -0.00135192, -0.00161093, -0.00142393, -0.00262578, -0.00065283, 0.000246961, 0.000228634, -0.00267109, -0.00181378, -0.00344478, 0.00153326, 0.471008, -0.543388, 0.335894, -2.08385, -2.16584, -0.129887, 0.46967, -0.542432, 0.337724, -2.08527, -2.16857, -0.12887, -3.61913e-05, 0.000337726, 9.08941e-05, -0.000352116, 0.00049569, -0.00257805
0.022146, 1.69151, -1.22333, -1.53718, -0.899651, -1.19153, 1.22902, -1.30303, -0.00305571, -0.00345499, -3.57526e-05, -0.00560543, 0.000866575, 0.00029121, 0.000712143, -0.960319, 53.1747, 25.4056, 5.87494, 1.46045, 2.32059, 0.239025, 0.00127571, -0.0013519, -0.00161089, -0.00142403, -0.0026259, -0.000652789, 0.000315773, 0.000223707, -0.00267823, -0.00180381, -0.00341368, 0.00153902, 0.471008, -0.543388, 0.335894, -2.08385, -2.16584, -0.129887, 0.46967, -0.542432, 0.337724, -2.08527, -2.16857, -0.12887, -4.33151e-05, 0.00040436, 0.000108769, -0.000352116, 0.00049569, -0.00257805
0.023146, 1.6915, -1.22335, -1.53717, -0.899674, -1.19152, 1.22902, -1.30302, 0.000384935, -0.00306563, 0.000968896, -0.000949495, 0.000722062, -1.9209e-05, 0.00146942, -0.960319, 53.3215, 25.2945, 5.98602, 1.3689, 2.32791, 0.219799, 0.00128141, -0.00134789, -0.00160017, -0.00142489, -0.00259801, -0.000669505, -1.0312e-05, -0.000767099, -0.00166163, 0.000471706, -0.00340182, 0.000544141, 0.471008, -0.543388, 0.335894, -2.08385, -2.16584, -0.129887, 0.469674, -0.542424, 0.337714, -2.08524, -2.16857, -0.128901, -5.10658e-05, 0.000476901, 0.000128212, 0.000654695, 0.000774216, -0.00153404
0.024146, 1.6915, -1.22335, -1.53718, -0.899674, -1.19152, 1.22902, -1.30303, 0.000314711, -0.000309926, -0.000189287, -0.00289685, 0.000955783, 0.00025846, -0.000240756, -0.960319, 53.2462, 25.3303, 5.95032, 1.35608, 2.32059, 0.252758, 0.00128086, -0.00134712, -0.00160232, -0.00142779, -0.00260431, -0.000675746, -0.000517272, -0.00099233, -0.000706321, -0.00086918, -0.000427702, 0.0033684, 0.471008, -0.543387, 0.335894, -2.08385, -2.16584, -0.129887, 0.469674, -0.542424, 0.337716, -2.08524, -2.16858, -0.128898, -5.94401e-05, 0.000555325, 0.000149214, 0.000887617, 0.0012153, -0.000497848
0.025146, 1.6915, -1.22335, -1.53718, -0.899678, -1.19152, 1.22902, -1.30303, 0.00108859, 0.000606543, -0.00634479, -0.00303328, 0.000874315, 0.00835701, -0.00110969, -0.996025, 53.2104, 25.3303, 5.98602, 1.34967, 2.34988, 0.278392, 0.00128173, -0.00134583, -0.00159881, -0.00142068, -0.00260167, -0.000683309, 0.00124209, -0.00183885, -0.0017007, 0.000659475, 0.00503003, 0.00212006, 0.471008, -0.543387, 0.335895, -2.08385, -2.16584, -0.129887, 0.469676, -0.542422, 0.337713, -2.08522, -2.16859, -0.128894, -6.84344e-05, 0.000639605, 0.000171766, 0.00175107, -0.000249634, -0.00175572
0.026146, 1.6915, -1.22335, -1.53717, -0.899677, -1.19151, 1.22902, -1.30302, 0.00309489, -0.000447399, -0.0013144, -0.00138709, -0.00713353, 0.0034277, 0.00312595, -0.960319, 53.2462, 25.1835, 5.95032, 1.32587, 2.42862, 0.174022, 0.00128221, -0.00134514, -0.00159791, -0.00142432, -0.0025945, -0.000677952, 0.00105411, -0.00170151, -0.000856821, -0.00255123, 0.00772552, -0.00181696, 0.471008, -0.543386, 0.335895, -2.08384, -2.16584, -0.129887, 0.469676, -0.542421, 0.337712, -2.08523, -2.16858, -0.128905, -7.80454e-05, 0.000729718, 0.000195859, 0.00162803, -0.000109451, -0.00086505
0.027146, 1.6915, -1.22335, -1.53718, -0.899678, -1.19152, 1.22903, -1.30302, 0.00142406, 0.00332419, 0.00236011, -0.00107481, -0.00523495, 0.0054573, 0.00330481, -0.920646, 53.3572, 25.2945, 5.95032, 1.31946, 2.48538, 0.141063, 0.00127856, -0.00134483, -0.00159471, -0.00142381, -0.00259984, -0.000674878, 0.000687453, -0.00186104, 0.0029584, 0.00403977, 0.0106635, -0.00155956, 0.471008, -0.543385, 0.335895, -2.08384, -2.16584, -0.129887, 0.469676, -0.542423, 0.337709, -2.08523, -2.16858, -0.128898, -8.82697e-05, 0.000825639, 0.000221482, 0.00190174, -0.000232256, 0.00297991
0.028146, 1.6915, -1.22335, -1.53718, -0.899678, -1.19152, 1.22903, -1.30302, 0.00142406, 0.00332419, 0.00236011, -0.00107481, -0.00523495, 0.0054573, 0.00330481, -0.920646, 53.3572, 25.2945, 5.95032, 1.31946, 2.48538, 0.141063, 0.00127771, -0.00134476, -0.00159462, -0.00142403, -0.00260014, -0.000674778, 0.000792458, -0.00186852, 0.00294764, 0.00405528, 0.0107112, -0.00155076, 0.471008, -0.543384, 0.335895, -2.08384, -2.16584, -0.129887, 0.469676, -0.542423, 0.337709, -2.08523, -2.16858, -0.128898, -9.91039e-05, 0.000927342, 0.000248628, 0.00190174, -0.000232256, 0.00297991
0.029146, 1.6915, -1.22335, -1.53717, -0.899684, -1.19152, 1.22904, -1.30304, -0.00199895, 0.00447489, 0.00433581, -0.0020292, -0.00391316, 0.00904145, 0.000655151, -0.76989, 53.8373, 25.4056, 6.02173, 1.33777, 2.58609, 0.180431, 0.0012782, -0.00134049, -0.00159896, -0.00144248, -0.00260733, -0.000695763, 0.00172626, -0.00129858, 0.00467571, 0.00969143, 0.0124563, -5.58699e-05, 0.471007, -0.543383, 0.335895, -2.08384, -2.16584, -0.129887, 0.469681, -0.542423, 0.337713, -2.08522, -2.16861, -0.128914, -0.000110545, 0.0010348, 0.000277287, 0.00141686, -0.00133598, 0.00458715
0.030146, 1.6915, -1.22336, -1.53717, -0.899681, -1.19151, 1.22906, -1.30304, -0.000817506, 0.00499647, 0.00313092, -0.000580898, -0.00267374, 0.0112862, 0.00213225, -0.658806, 54.2062, 25.5564, 5.98602, 1.33136, 2.60074, 0.134655, 0.00127425, -0.00133874, -0.00159987, -0.00145931, -0.00261199, -0.00068925, 0.0019366, -0.00197506, 0.00488093, 0.0117386, 0.0131085, -0.00179466, 0.471007, -0.543382, 0.335896, -2.08384, -2.16584, -0.129887, 0.469683, -0.542425, 0.337714, -2.08524, -2.16861, -0.128927, -0.000122588, 0.001148, 0.000307449, 0.00209536, -0.00143436, 0.00476693
0.031146, 1.6915, -1.22335, -1.53717, -0.899689, -1.19151, 1.22908, -1.30304, -0.00289557, 0.00217564, 0.00112501, -0.00303321, -0.00156842, 0.0134571, -0.00422672, -0.543754, 54.4641, 25.6278, 6.09711, 1.31946, 2.60074, 0.160289, 0.00127475, -0.00133354, -0.00160635, -0.00147825, -0.00262755, -0.000703722, 0.00295605, -0.00158745, 0.00246231, 0.0113142, 0.0108118, 0.00411897, 0.471007, -0.543381, 0.335896, -2.08384, -2.16584, -0.129887, 0.469688, -0.542425, 0.33772, -2.08524, -2.16864, -0.128934, -0.000135232, 0.0012669, 0.000339106, 0.00164476, -0.00196548, 0.00226384
0.032146, 1.6915, -1.22334, -1.53716, -0.899687, -1.19151, 1.2291, -1.30305, -0.00167486, 0.00189636, 0.00173571, -0.00205776, -0.00165648, 0.0147377, -0.00395534, -0.543754, 54.6466, 25.7389, 6.09711, 1.33136, 2.60715, 0.180431, 0.00127524, -0.00132606, -0.00161688, -0.00150135, -0.00265193, -0.000712869, 0.00288075, -0.0023996, 0.00268678, 0.0131934, 0.0112077, 0.00448192, 0.471007, -0.54338, 0.335896, -2.08384, -2.16584, -0.129887, 0.469696, -0.542424, 0.337731, -2.08526, -2.16868, -0.128936, -0.000148472, 0.00139149, 0.000372248, 0.00244802, -0.00176788, 0.00250585
0.033146, 1.69151, -1.22332, -1.53716, -0.89968, -1.19152, 1.22912, -1.30304, -0.00268817, 0.00781298, 0.00218133, 0.0011999, -0.000791055, 0.0142913, -0.00170984, -0.468376, 54.8291, 25.8539, 5.98602, 1.31946, 2.65018, 0.147472, 0.00127274, -0.00132223, -0.00162732, -0.00152261, -0.00267512, -0.000707291, 0.00354562, -0.00109825, 0.00677057, 0.0158212, 0.0158879, -0.0011946, 0.471007, -0.543379, 0.335897, -2.08384, -2.16584, -0.129888, 0.4697, -0.542427, 0.337741, -2.08528, -2.16869, -0.128936, -0.000162305, 0.00152173, 0.000406866, 0.00130572, -0.00297583, 0.00650891
0.034146, 1.69151, -1.22331, -1.53716, -0.899687, -1.19152, 1.22914, -1.30304, -0.00341162, 0.00762753, 0.00274746, -0.00181855, -0.000182217, 0.0137713, -0.000885414, -0.392998, 54.9402, 25.965, 6.09711, 1.30755, 2.70053, 0.134655, 0.00127222, -0.00131729, -0.00163738, -0.00154007, -0.00270208, -0.00071075, 0.00283777, -0.00145294, 0.0064194, 0.0148256, 0.0152189, 0.000398888, 0.471007, -0.543377, 0.335897, -2.08384, -2.16584, -0.129888, 0.469705, -0.542427, 0.337751, -2.0853, -2.16872, -0.128928, -0.000176727, 0.00165761, 0.000442951, 0.00160754, -0.00207258, 0.00629742
0.035146, 1.69151, -1.2233, -1.53716, -0.899683, -1.19151, 1.22917, -1.30305, 0.0023986, 0.00688517, 5.4025e-05, 0.000535843, 0.000518856, 0.0186147, -0.00292559, -0.317619, 55.1981, 26.0761, 6.02173, 1.28833, 2.73623, 0.193248, 0.00127061, -0.00130962, -0.00164425, -0.00156925, -0.00271861, -0.0007208, 0.0020996, -0.00470212, 0.00546558, 0.0171958, 0.0165059, 0.00508259, 0.471007, -0.543375, 0.335898, -2.08384, -2.16584, -0.129888, 0.469713, -0.542428, 0.337758, -2.08532, -2.16875, -0.128945, -0.000191736, 0.0017991, 0.000480493, 0.00477669, -0.000922595, 0.00540978
0.036146, 1.69151, -1.22328, -1.53716, -0.899681, -1.19151, 1.2292, -1.30304, 0.00266307, 0.0126692, -0.00111159, 0.00118118, 0.000495547, 0.0213424, 0.000604484, -0.206535, 55.1981, 26.1515, 5.98602, 1.28284, 2.79391, 0.120922, 0.00126871, -0.0013033, -0.00165994, -0.0016003, -0.00275347, -0.000713868, 0.00229531, -0.00490269, 0.0087493, 0.0193129, 0.0237299, 0.000597849, 0.471006, -0.543374, 0.335898, -2.08384, -2.16584, -0.129888, 0.469719, -0.54243, 0.337773, -2.08536, -2.16877, -0.128943, -0.000207328, 0.00194618, 0.000519485, 0.00508695, -0.00146597, 0.00865478
0.037146, 1.69151, -1.22327, -1.53716, -0.899681, -1.19151, 1.22922, -1.30304, -0.00104041, 0.0100297, -0.000436747, 0.000778999, 0.00029001, 0.0236185, 0.000310076, -0.0557783, 55.3448, 26.2983, 5.98602, 1.28284, 2.85159, 0.120922, 0.00126325, -0.00129965, -0.00166577, -0.00162115, -0.00277753, -0.000713318, 0.00437078, -0.00348561, 0.00776471, 0.0219673, 0.0223494, -0.00209798, 0.471006, -0.543372, 0.335899, -2.08384, -2.16584, -0.129888, 0.469723, -0.542434, 0.337779, -2.08538, -2.16879, -0.128942, -0.0002235, 0.00209882, 0.000559916, 0.00369421, -0.00326873, 0.00744358
0.038146, 1.69151, -1.22327, -1.53716, -0.899681, -1.19151, 1.22922, -1.30304, -0.00104041, 0.0100297, -0.000436747, 0.000778999, 0.00029001, 0.0236185, 0.000310076, -0.0557783, 55.3448, 26.2983, 5.98602, 1.28284, 2.85159, 0.120922, 0.00126109, -0.00129949, -0.00166555, -0.00162172, -0.00277829, -0.000713066, 0.00453403, -0.00349712, 0.00774833, 0.0219922, 0.0224241, -0.00208425, 0.471006, -0.54337, 0.335899, -2.08384, -2.16584, -0.129888, 0.469723, -0.542434, 0.337779, -2.08538, -2.16879, -0.128942, -0.000240248, 0.00225699, 0.000601779, 0.00369421, -0.00326873, 0.00744358
0.039146, 1.69151, -1.22327, -1.53716, -0.899681, -1.19151, 1.22922, -1.30304, -0.00104041, 0.0100297, -0.000436747, 0.000778999, 0.00029001, 0.0236185, 0.000310076, -0.0557783, 55.3448, 26.2983, 5.98602, 1.28284, 2.85159, 0.120922, 0.00125876, -0.00129933, -0.00166531, -0.00162234, -0.00277911, -0.000712796, 0.00470296, -0.00350902, 0.00773142, 0.0220181, 0.0225015, -0.00207003, 0.471006, -0.543367, 0.3359, -2.08384, -2.16584, -0.129888, 0.469723, -0.542434, 0.337779, -2.08538, -2.16879, -0.128942, -0.000257569, 0.00242068, 0.000645063, 0.00369421, -0.00326873, 0.00744358
0.040146, 1.69151, -1.22327, -1.53716, -0.899681, -1.19151, 1.22922, -1.30304, -0.00104041, 0.0100297, -0.000436747, 0.000778999, 0.00029001, 0.0236185, 0.000310076, -0.0557783, 55.3448, 26.2983, 5.98602, 1.28284, 2.85159, 0.120922, 0.00125627, -0.00129915, -0.00166505, -0.00162301, -0.00278, -0.000712506, 0.00487754, -0.00352131, 0.00771397, 0.0220449, 0.0225815, -0.00205534, 0.471005, -0.543365, 0.3359, -2.08384, -2.16584, -0.129889, 0.469723, -0.542434, 0.337779, -2.08538, -2.16879, -0.128942, -0.00027546, 0.00258986, 0.000689759, 0.00369421, -0.00326873, 0.00744358
0.041146, 1.69151, -1.22327, -1.53716, -0.899681, -1.19151, 1.22922, -1.30304, -0.00104041, 0.0100297, -0.000436747, 0.000778999, 0.00029001, 0.0236185, 0.000310076, -0.0557783, 55.3448, 26.2983, 5.98602, 1.28284, 2.85159, 0.120922, 0.00125359, -0.00129896, -0.00166478, -0.00162372, -0.00278094, -0.000712196, 0.00505776, -0.00353398, 0.00769601, 0.0220726, 0.0226641, -0.00204017, 0.471005, -0.543362, 0.335901, -2.08383, -2.16584, -0.129889, 0.469723, -0.542434, 0.337779, -2.08538, -2.16879, -0.128942, -0.000293917, 0.0027645, 0.00073586, 0.00369421, -0.00326873, 0.00744358
0.042146, 1.69154, -1.22322, -1.53718, -0.899687, -1.19151, 1.22943, -1.30305, 0.00259134, 0.010314, -0.00517264, 0.00155189, -3.09983e-06, 0.0394109, -0.000334243, 0.586922, 55.3845, 26.449, 5.95032, 1.27643, 3.05942, 0.141063, 0.00124149, -0.00125097, -0.00170331, -0.00178716, -0.0029374, -0.000742159, 0.00651864, -0.00742939, 0.00748407, 0.0313877, 0.0314278, -0.000843995, 0.471005, -0.54336, 0.335902, -2.08383, -2.16584, -0.129889, 0.469773, -0.542447, 0.337814, -2.08551, -2.16898, -0.128968, -0.000312938, 0.00294458, 0.000783355, 0.00761016, -0.00433889, 0.00693765
0.043146, 1.69155, -1.22322, -1.53718, -0.89968, -1.19151, 1.22948, -1.30305, 0.00402647, 0.0086506, -0.0044352, 0.00279632, -0.000246608, 0.0478408, 0.00169341, 0.6623, 55.3448, 26.4847, 5.87494, 1.28284, 3.08047, 0.0888782, 0.00123472, -0.00123783, -0.00170917, -0.00183072, -0.00297124, -0.000741208, 0.00737046, -0.00964242, 0.00759582, 0.0395128, 0.0341092, -0.0022173, 0.471005, -0.543357, 0.335903, -2.08383, -2.16584, -0.129889, 0.469786, -0.542451, 0.337819, -2.08555, -2.16901, -0.128982, -0.000332518, 0.00313007, 0.000832236, 0.00983526, -0.004921, 0.00689796
0.044146, 1.69155, -1.22321, -1.53719, -0.899677, -1.19151, 1.22954, -1.30306, 0.00409732, 0.00640199, -0.00307047, 0.00362633, -0.00108532, 0.0547109, -0.00526478, 0.777352, 55.3448, 26.4847, 5.79956, 1.30755, 3.0878, 0.134655, 0.00122811, -0.00122493, -0.00171425, -0.00187567, -0.00300142, -0.000753515, 0.00859271, -0.0109517, 0.00746214, 0.0465039, 0.0358906, 0.00452165, 0.471004, -0.543354, 0.335903, -2.08383, -2.16584, -0.129889, 0.469799, -0.542455, 0.337824, -2.08558, -2.16906, -0.129003, -0.000352655, 0.00332096, 0.000882495, 0.0111616, -0.00586261, 0.00658704
0.045146, 1.69156, -1.22322, -1.53719, -0.899667, -1.19152, 1.2296, -1.30306, 0.007287, 0.00381616, -0.00213223, 0.00594318, -0.00184656, 0.0593002, -0.00414701, 0.888436, 55.3845, 26.4847, 5.6488, 1.33777, 3.10977, 0.141063, 0.00121758, -0.00121217, -0.00171879, -0.0019288, -0.00303457, -0.000752243, 0.00874534, -0.0132018, 0.0068198, 0.0513907, 0.0361277, 0.00478887, 0.471004, -0.54335, 0.335904, -2.08383, -2.16584, -0.12989, 0.469812, -0.542462, 0.337827, -2.08562, -2.16909, -0.129029, -0.000373345, 0.00351722, 0.000934121, 0.0133704, -0.0056261, 0.00591287
0.046146, 1.69158, -1.22322, -1.53719, -0.899665, -1.19152, 1.22966, -1.30306, 0.0113561, 0.00206603, -0.00465964, 0.00396149, -0.00191224, 0.0575192, -0.000894377, 0.928108, 55.4202, 26.4847, 5.6488, 1.35608, 3.14548, 0.0824695, 0.00121258, -0.00119461, -0.00172304, -0.0019779, -0.00306725, -0.000759413, 0.00708509, -0.0151983, 0.00422873, 0.0459267, 0.0341056, 0.00609148, 0.471004, -0.543347, 0.335905, -2.08383, -2.16583, -0.12989, 0.469829, -0.542464, 0.337831, -2.08566, -2.16914, -0.129051, -0.000394586, 0.00371881, 0.000987107, 0.0151901, -0.00330491, 0.00360486
0.047146, 1.69158, -1.22322, -1.5372, -0.899654, -1.19153, 1.22972, -1.30307, 0.00641726, -2.52231e-05, -0.00518214, 0.00607419, -0.00263344, 0.0564973, -0.00129585, 1.03919, 55.4916, 26.5601, 5.50201, 1.3927, 3.17386, 0.0952869, 0.00119921, -0.00118431, -0.00172397, -0.00202566, -0.00309693, -0.000756253, 0.010469, -0.0116489, 0.00326063, 0.0458719, 0.0319107, -0.000675683, 0.471003, -0.543343, 0.335906, -2.08382, -2.16583, -0.12989, 0.46984, -0.542473, 0.33783, -2.0857, -2.16917, -0.129074, -0.000416373, 0.00392573, 0.00104144, 0.0117096, -0.00643495, 0.00228502
0.048146, 1.69159, -1.22321, -1.5372, -0.899652, -1.19153, 1.22978, -1.30307, 0.00443389, 0.00528819, -0.00368911, 0.0040491, -0.00246941, 0.056265, -0.001982, 1.07887, 55.2734, 26.5601, 5.50201, 1.41192, 3.18118, 0.120922, 0.00119402, -0.00116635, -0.00173658, -0.00208159, -0.00314578, -0.000769133, 0.0100834, -0.0111442, 0.00668894, 0.0468643, 0.037081, 0.000530146, 0.471003, -0.543339, 0.335907, -2.08382, -2.16583, -0.129891, 0.469858, -0.542475, 0.337842, -2.08574, -2.16923, -0.129088, -0.000438704, 0.00413795, 0.00109712, 0.0112932, -0.00639041, 0.00580092
0.049146, 1.69161, -1.2232, -1.5372, -0.899646, -1.19153, 1.22985, -1.30308, 0.00517096, 0.00627458, -0.00592955, 0.00446237, -0.00522759, 0.0517656, -0.00195646, 1.15424, 55.1624, 26.5601, 5.42664, 1.38721, 3.18118, 0.134655, 0.00118765, -0.00114755, -0.00174344, -0.00213894, -0.00318325, -0.000781749, 0.0105555, -0.00993761, 0.00607357, 0.039914, 0.0383311, -0.00113759, 0.471002, -0.543335, 0.335908, -2.08382, -2.16583, -0.129891, 0.469877, -0.542478, 0.337849, -2.08577, -2.16929, -0.129115, -0.000461575, 0.00435543, 0.00115413, 0.01006, -0.00659361, 0.00521338
0.050146, 1.69162, -1.22321, -1.5372, -0.899638, -1.19153, 1.22992, -1.30307, 0.00700303, 0.00253282, -0.00493765, 0.00473795, -0.00386065, 0.0539261, 0.00080487, 1.305, 55.2377, 26.449, 5.35126, 1.38721, 3.15921, 0.0751453, 0.00117746, -0.00113084, -0.00174682, -0.002204, -0.00321239, -0.000782183, 0.0101615, -0.0117105, 0.00434022, 0.0428744, 0.0346197, -0.00130975, 0.471002, -0.543331, 0.335909, -2.08382, -2.16583, -0.129891, 0.469893, -0.542483, 0.337851, -2.08582, -2.16933, -0.129158, -0.000484983, 0.00457817, 0.00121247, 0.0117305, -0.00564256, 0.00356784
0.051146, 1.69163, -1.22321, -1.5372, -0.899637, -1.19152, 1.22999, -1.30308, 0.0133838, 0.0017733, -0.00515106, 0.00315848, -0.0026181, 0.0556174, -0.00492302, 1.38038, 55.2377, 26.3736, 5.35126, 1.3808, 3.13083, 0.0952869, 0.00117116, -0.00111003, -0.00175021, -0.0022639, -0.00324616, -0.000801646, 0.00713968, -0.0160849, 0.00338942, 0.0429682, 0.0341343, 0.0124504, 0.471001, -0.543326, 0.335911, -2.08382, -2.16583, -0.129892, 0.469914, -0.542485, 0.337854, -2.08585, -2.16939, -0.129193, -0.000508925, 0.00480613, 0.00127212, 0.0159329, -0.00210599, 0.00302578
0.052146, 1.69164, -1.22321, -1.53719, -0.899634, -1.19153, 1.23005, -1.30309, 0.0153861, 0.003009, -0.00279494, 0.00294076, -0.00195667, 0.0603669, -0.00518031, 1.57081, 55.1624, 26.1872, 5.31555, 1.3808, 3.13083, 0.134655, 0.00116272, -0.00109323, -0.00175992, -0.00232659, -0.00328791, -0.000813574, 0.00617282, -0.0186057, 0.00521233, 0.0491913, 0.0372082, 0.0162397, 0.471001, -0.543321, 0.335912, -2.08381, -2.16583, -0.129892, 0.469931, -0.542489, 0.337863, -2.08589, -2.16945, -0.129222, -0.000533398, 0.00503929, 0.00133308, 0.0184573, -0.00109578, 0.00496075
0.053146, 1.69166, -1.2232, -1.5372, -0.899626, -1.19153, 1.23013, -1.30309, 0.0128375, 0.000784189, -0.00346308, 0.00465168, -0.00054737, 0.0647479, -0.00702079, 1.68189, 55.087, 26.2229, 5.2005, 1.35608, 3.10977, 0.0952869, 0.00115344, -0.00107377, -0.00176443, -0.00238513, -0.00332769, -0.000817252, 0.00858983, -0.017693, 0.00440824, 0.0541304, 0.0359393, 0.0142784, 0.471, -0.543316, 0.335913, -2.08381, -2.16583, -0.129892, 0.46995, -0.542493, 0.337867, -2.08593, -2.1695, -0.129247, -0.000558399, 0.00527762, 0.00139533, 0.0175781, -0.00315715, 0.00388135
0.054146, 1.69167, -1.2232, -1.53721, -0.899624, -1.19153, 1.2302, -1.30309, 0.0132258, 0.000305821, -0.00332834, 0.00393627, -0.000246393, 0.067481, -0.00433607, 1.83265, 55.087, 26.1118, 5.16479, 1.34967, 3.09512, 0.0687366, 0.00114515, -0.00105239, -0.0017687, -0.00244927, -0.00336663, -0.00082574, 0.00869774, -0.0186535, 0.00427416, 0.0563682, 0.0367457, 0.0128007, 0.471, -0.543311, 0.335915, -2.08381, -2.16583, -0.129893, 0.469972, -0.542496, 0.337871, -2.08598, -2.16955, -0.12928, -0.000583923, 0.00552111, 0.00145888, 0.0185109, -0.00296023, 0.00376675
0.055146, 1.69169, -1.22321, -1.53721, -0.899618, -1.19152, 1.23028, -1.3031, 0.019064, 4.11512e-05, -0.00663517, 0.00438737, 0.000187418, 0.0694127, -0.00581129, 1.87232, 55.087, 26.0007, 5.08942, 1.33777, 3.09512, 0.134655, 0.00113866, -0.001028, -0.00177232, -0.00251458, -0.00340314, -0.000851048, 0.00732492, -0.0216729, 0.00284955, 0.0546962, 0.0375464, 0.0182255, 0.470999, -0.543305, 0.335916, -2.08381, -2.16583, -0.129893, 0.469996, -0.542496, 0.337874, -2.086, -2.16963, -0.129319, -0.000609969, 0.00576973, 0.0015237, 0.0213998, -0.00101344, 0.00254689
0.056146, 1.6917, -1.22319, -1.53721, -0.899616, -1.19153, 1.23035, -1.30309, 0.0167508, 0.00417428, -0.00462865, 0.0037601, 5.80987e-05, 0.0706993, -0.00202953, 2.05878, 54.9045, 25.965, 5.05371, 1.33777, 3.09512, 0.0751453, 0.00112965, -0.00100789, -0.00178337, -0.00257678, -0.0034582, -0.000855989, 0.00776508, -0.0210294, 0.0061114, 0.0579556, 0.0423808, 0.0135897, 0.470999, -0.5433, 0.335918, -2.0838, -2.16583, -0.129894, 0.470016, -0.5425, 0.337884, -2.08605, -2.16968, -0.129333, -0.000636533, 0.00602345, 0.0015898, 0.0208642, -0.00172273, 0.00578483
0.057146, 1.69173, -1.22319, -1.53722, -0.89961, -1.19152, 1.23043, -1.3031, 0.0207558, 0.00445456, -0.0082922, 0.00426994, 0.000666766, 0.072902, -0.00138519, 2.13416, 54.8291, 25.8896, 4.97833, 1.31946, 3.06674, 0.0687366, 0.00112346, -0.000981802, -0.00178782, -0.00264382, -0.00349785, -0.000875859, 0.00725016, -0.0230046, 0.00500836, 0.0566497, 0.0436823, 0.0149122, 0.470998, -0.543294, 0.335919, -2.0838, -2.16582, -0.129894, 0.470042, -0.5425, 0.337889, -2.08609, -2.16975, -0.129369, -0.000663611, 0.00628226, 0.00165716, 0.0227515, -0.000704922, 0.00478335
0.058146, 1.69175, -1.22319, -1.53723, -0.899605, -1.19152, 1.23052, -1.30311, 0.0197513, 0.00540671, -0.00579393, 0.00460985, 0.00016955, 0.0784364, -0.00210896, 2.24921, 54.722, 25.8539, 4.90295, 1.32587, 3.05209, 0.0952869, 0.00111506, -0.000957619, -0.00179492, -0.00270961, -0.00354708, -0.000894683, 0.00812469, -0.0237588, 0.00702012, 0.0638494, 0.0476807, 0.0153983, 0.470997, -0.543287, 0.335921, -2.0838, -2.16582, -0.129894, 0.470066, -0.542502, 0.337895, -2.08612, -2.16983, -0.129395, -0.000691201, 0.00654612, 0.00172578, 0.023581, -0.00158326, 0.00667986
0.059146, 1.69177, -1.22319, -1.53724, -0.899598, -1.19153, 1.2306, -1.30311, 0.0182928, 0.00355298, -0.00999615, 0.00390843, 8.48325e-05, 0.0779146, -0.00250702, 2.39997, 54.722, 25.8143, 4.86725, 1.32587, 3.03744, 0.120922, 0.00110308, -0.000935244, -0.00179674, -0.0027741, -0.00359058, -0.00090832, 0.00986574, -0.0223093, 0.00435022, 0.0594658, 0.0460674, 0.0129668, 0.470997, -0.543281, 0.335923, -2.0838, -2.16582, -0.129895, 0.470088, -0.542507, 0.337896, -2.08616, -2.16989, -0.129424, -0.0007193, 0.00681502, 0.00179564, 0.0220712, -0.00268144, 0.0038868
0.060146, 1.69179, -1.22319, -1.53724, -0.899594, -1.19153, 1.23068, -1.30311, 0.0197962, 0.00409328, -0.00919166, 0.00353363, -0.000846215, 0.0774168, 0.000385084, 2.43568, 54.6466, 25.7389, 4.82758, 1.34967, 3.03012, 0.0623279, 0.00109755, -0.000906144, -0.0018032, -0.00283929, -0.00364185, -0.000926451, 0.00927904, -0.0231911, 0.00475125, 0.0589901, 0.0472722, 0.0119789, 0.470996, -0.543274, 0.335924, -2.08379, -2.16582, -0.129895, 0.470117, -0.542505, 0.337903, -2.0862, -2.16996, -0.129447, -0.000747904, 0.00708893, 0.00186675, 0.0229168, -0.00185395, 0.0044183
0.061146, 1.69182, -1.22319, -1.53725, -0.899584, -1.19153, 1.23077, -1.30312, 0.0220891, 0.00353511, -0.00958992, 0.0049542, -0.00554197, 0.0779829, -0.0050207, 2.55073, 54.6109, 25.7032, 4.71649, 1.3689, 2.99441, 0.0751453, 0.00108467, -0.000881146, -0.00180764, -0.00291335, -0.00369227, -0.000941641, 0.0100935, -0.0236949, 0.00438585, 0.0572642, 0.0509505, 0.0166736, 0.470995, -0.543267, 0.335926, -2.08379, -2.16582, -0.129896, 0.470142, -0.54251, 0.337906, -2.08625, -2.17003, -0.12948, -0.00077701, 0.00736784, 0.00193908, 0.0234068, -0.00230222, 0.00398812
0.062146, 1.69183, -1.22318, -1.53726, -0.899581, -1.19154, 1.23086, -1.30313, 0.0220065, 0.00576869, -0.0106727, 0.00330279, -0.00450151, 0.081497, -0.00600826, 2.73719, 54.4641, 25.7032, 4.71649, 1.3808, 3.00174, 0.134655, 0.00107234, -0.000857774, -0.00181539, -0.00297923, -0.00375342, -0.000960716, 0.0101003, -0.0245661, 0.00537291, 0.0593149, 0.0544123, 0.0188447, 0.470994, -0.543259, 0.335928, -2.08379, -2.16582, -0.129897, 0.470165, -0.542515, 0.337913, -2.08629, -2.17011, -0.129494, -0.000806615, 0.0076517, 0.00201263, 0.0242832, -0.00214132, 0.00500891
0.063146, 1.69186, -1.22318, -1.53728, -0.89957, -1.19154, 1.23095, -1.30313, 0.0227506, 0.00215907, -0.0112635, 0.0039651, -0.00351291, 0.0849345, -0.00701466, 2.77686, 54.5355, 25.7032, 4.64111, 1.38721, 2.99441, 0.0824695, 0.00106133, -0.00082947, -0.00181362, -0.00304628, -0.00379483, -0.00097211, 0.0108981, -0.0255575, 0.00337596, 0.0621957, 0.0518479, 0.02014, 0.470993, -0.543252, 0.33593, -2.08378, -2.16582, -0.129897, 0.470193, -0.542517, 0.337911, -2.08633, -2.17017, -0.129528, -0.000836715, 0.00794051, 0.00208739, 0.0251996, -0.00229207, 0.00295802
0.064146, 1.69189, -1.22318, -1.53729, -0.899564, -1.19154, 1.23104, -1.30314, 0.02117, 0.00402561, -0.0117643, 0.00575637, -0.00254784, 0.0921271, -0.0102199, 2.89191, 54.4244, 25.7032, 4.64111, 1.38721, 2.98709, 0.0888782, 0.00104904, -0.000802922, -0.00181957, -0.00311522, -0.00385524, -0.000989743, 0.012912, -0.0255908, 0.00524015, 0.0697547, 0.0564515, 0.0203031, 0.470993, -0.543244, 0.335932, -2.08378, -2.16582, -0.129898, 0.470219, -0.542521, 0.337916, -2.08638, -2.17025, -0.129546, -0.000867309, 0.00823424, 0.00216336, 0.0253417, -0.0042722, 0.00456096
0.065146, 1.69191, -1.22317, -1.5373, -0.899553, -1.19155, 1.23114, -1.30316, 0.0199728, 0.00610825, -0.0126011, 0.00895248, -0.00161563, 0.0928626, -0.00914041, 3.003, 54.2776, 25.5921, 4.56573, 1.3808, 2.98068, 0.128246, 0.00103687, -0.000776477, -0.00183042, -0.00319194, -0.00391729, -0.00101089, 0.0145642, -0.0242793, 0.00671346, 0.0720301, 0.0580108, 0.0151492, 0.470992, -0.543236, 0.335935, -2.08378, -2.16581, -0.129898, 0.470245, -0.542526, 0.337926, -2.08642, -2.17033, -0.129571, -0.000898392, 0.00853286, 0.00224052, 0.0241132, -0.00588513, 0.00587586
0.066146, 1.69194, -1.22316, -1.53731, -0.899546, -1.19155, 1.23123, -1.30316, 0.0208719, 0.00573573, -0.011956, 0.00642057, -0.000955551, 0.0924738, -0.011689, 3.04267, 54.2062, 25.5564, 4.56573, 1.37439, 2.98709, 0.134655, 0.00102489, -0.00074721, -0.00183456, -0.00326428, -0.0039755, -0.00103031, 0.013455, -0.0254942, 0.00625992, 0.0712347, 0.0572619, 0.0213669, 0.470991, -0.543227, 0.335937, -2.08377, -2.16581, -0.129899, 0.470274, -0.542528, 0.33793, -2.08647, -2.17041, -0.129595, -0.000929962, 0.00883635, 0.00231887, 0.0252389, -0.00436704, 0.00564182
0.067146, 1.69196, -1.22316, -1.53733, -0.899538, -1.19156, 1.23133, -1.30317, 0.0247258, 0.00641712, -0.013691, 0.0085739, -0.00119862, 0.0969989, -0.0120168, 3.07838, 54.0952, 25.481, 4.53003, 1.38721, 2.98068, 0.0952869, 0.00101107, -0.000719308, -0.00184176, -0.00333641, -0.00404239, -0.00104261, 0.0135107, -0.027679, 0.0065171, 0.0740837, 0.0605622, 0.0227215, 0.47099, -0.543218, 0.335939, -2.08377, -2.16581, -0.1299, 0.470302, -0.542533, 0.337936, -2.08652, -2.17049, -0.129609, -0.000962015, 0.00914469, 0.0023984, 0.0274, -0.00406379, 0.00590063
0.068146, 1.692, -1.22315, -1.53734, -0.899531, -1.19157, 1.23143, -1.30318, 0.0280995, 0.00687267, -0.011983, 0.00856924, -0.00106768, 0.0971164, -0.0146528, 3.07838, 53.9841, 25.4056, 4.56573, 1.3927, 2.95871, 0.120922, 0.00100016, -0.000686899, -0.00184947, -0.00341315, -0.00411004, -0.0010712, 0.0119134, -0.0299216, 0.00719337, 0.0753063, 0.0611074, 0.0295839, 0.470989, -0.543209, 0.335941, -2.08376, -2.16581, -0.1299, 0.470334, -0.542535, 0.337944, -2.08656, -2.17059, -0.129629, -0.000994548, 0.00945786, 0.0024791, 0.0295745, -0.00218608, 0.00682927
0.069146, 1.69202, -1.22313, -1.53735, -0.899522, -1.19157, 1.23154, -1.30319, 0.0266535, 0.00977579, -0.0118029, 0.0126627, -0.00123537, 0.0971034, -0.0161261, 3.11805, 53.7619, 25.3699, 4.56573, 1.40552, 2.93765, 0.134655, 0.000984521, -0.000658997, -0.00186141, -0.00349276, -0.00418763, -0.00108728, 0.0138094, -0.0281734, 0.00958033, 0.0778399, 0.0638781, 0.0260627, 0.470988, -0.5432, 0.335944, -2.08376, -2.16581, -0.129901, 0.470362, -0.542541, 0.337955, -2.08662, -2.17068, -0.129641, -0.00102756, 0.00977584, 0.00256097, 0.0279497, -0.00417896, 0.00902632
0.070146, 1.69205, -1.22313, -1.53737, -0.899513, -1.19158, 1.23165, -1.30319, 0.0243273, 0.00818546, -0.0138199, 0.0126026, -0.000622865, 0.101797, -0.0100931, 3.07838, 53.6905, 25.2945, 4.56573, 1.39911, 2.91568, 0.0824695, 0.000970058, -0.000627091, -0.00186699, -0.00357172, -0.00425639, -0.00109901, 0.0161009, -0.0275056, 0.00843504, 0.0807066, 0.0643294, 0.0170765, 0.470987, -0.54319, 0.335947, -2.08375, -2.1658, -0.129902, 0.470393, -0.542545, 0.33796, -2.08669, -2.17076, -0.129661, -0.00106104, 0.0100986, 0.00264398, 0.02729, -0.00596937, 0.0076427
0.071146, 1.69208, -1.22312, -1.53739, -0.899501, -1.19159, 1.23176, -1.3032, 0.0253943, 0.00721858, -0.0161277, 0.0134956, -0.00518406, 0.105053, -0.0130248, 3.04267, 53.6151, 25.2588, 4.53003, 1.41192, 2.90103, 0.101696, 0.000952602, -0.000596983, -0.00187219, -0.00365173, -0.00432688, -0.00111481, 0.0180461, -0.0276222, 0.00738079, 0.0796295, 0.0689807, 0.0176885, 0.470986, -0.54318, 0.335949, -2.08375, -2.1658, -0.129903, 0.470423, -0.542552, 0.337964, -2.08674, -2.17084, -0.129681, -0.001095, 0.0104261, 0.00272814, 0.0274039, -0.00739513, 0.00638018
0.072146, 1.69212, -1.22312, -1.5374, -0.899489, -1.1916, 1.23187, -1.30322, 0.0312442, 0.0065744, -0.0127645, 0.0131986, -0.00812494, 0.111274, -0.015472, 2.92762, 53.5397, 25.1438, 4.53003, 1.41192, 2.8873, 0.128246, 0.000939527, -0.000561456, -0.00188088, -0.00373754, -0.00440075, -0.0011458, 0.016279, -0.0323999, 0.00837086, 0.0855671, 0.0739609, 0.0268581, 0.470985, -0.543169, 0.335952, -2.08374, -2.1658, -0.129903, 0.470458, -0.542554, 0.337972, -2.08679, -2.17095, -0.129705, -0.00112942, 0.0107583, 0.00281344, 0.0321137, -0.00527519, 0.00757308
0.073146, 1.69215, -1.22311, -1.53743, -0.899477, -1.19161, 1.23198, -1.30322, 0.0303228, 0.00688767, -0.0140829, 0.0129906, -0.0105604, 0.112451, -0.0153104, 2.89191, 53.4326, 25.1835, 4.53003, 1.41742, 2.86532, 0.101696, 0.000918694, -0.000532021, -0.00188448, -0.00381535, -0.00447756, -0.0011537, 0.0178235, -0.0316566, 0.00818355, 0.0844309, 0.0770924, 0.0245455, 0.470984, -0.543159, 0.335955, -2.08374, -2.1658, -0.129904, 0.470488, -0.542564, 0.337974, -2.08686, -2.17103, -0.129715, -0.00116431, 0.0110953, 0.00289987, 0.031385, -0.00646453, 0.00725701
0.074146, 1.69218, -1.2231, -1.53744, -0.899466, -1.19162, 1.2321, -1.30323, 0.0336803, 0.00811757, -0.0121895, 0.0119789, -0.012725, 0.117294, -0.0157328, 2.81654, 53.2819, 25.1081, 4.56573, 1.43024, 2.85892, 0.0888782, 0.000902897, -0.0004965, -0.00189321, -0.00390133, -0.00456049, -0.00117481, 0.0167921, -0.0347403, 0.00966169, 0.0884532, 0.0827116, 0.0293766, 0.470983, -0.543147, 0.335958, -2.08373, -2.1658, -0.129905, 0.470523, -0.542568, 0.337982, -2.08692, -2.17113, -0.129729, -0.00119966, 0.0114369, 0.00298742, 0.0344459, -0.00520598, 0.00887097
0.075146, 1.69221, -1.2231, -1.53746, -0.899452, -1.19163, 1.23222, -1.30325, 0.0352463, 0.00448318, -0.0121024, 0.0121955, -0.00991713, 0.121369, -0.0140327, 2.77686, 53.3215, 24.9573, 4.56573, 1.44214, 2.84427, 0.147472, 0.000881748, -0.000463397, -0.00189649, -0.00399103, -0.00463631, -0.00119584, 0.0167163, -0.036736, 0.00783789, 0.0930033, 0.0789904, 0.0301098, 0.470981, -0.543136, 0.335961, -2.08373, -2.16579, -0.129906, 0.470556, -0.542577, 0.337984, -2.08698, -2.17123, -0.129755, -0.00123547, 0.0117833, 0.00307608, 0.0363346, -0.00442221, 0.00711013
0.076146, 1.69224, -1.22309, -1.53748, -0.899436, -1.19165, 1.23234, -1.30325, 0.0323742, 0.00642207, -0.0168524, 0.0154627, -0.0123224, 0.124347, -0.00821549, 2.77686, 53.1747, 24.997, 4.56573, 1.46045, 2.83694, 0.0888782, 0.000858221, -0.000432656, -0.0019037, -0.00407483, -0.00472716, -0.00119641, 0.0209174, -0.0338225, 0.00813783, 0.092555, 0.0844724, 0.0155091, 0.47098, -0.543124, 0.335964, -2.08372, -2.16579, -0.129907, 0.470586, -0.542588, 0.33799, -2.08706, -2.17131, -0.129757, -0.00127174, 0.0121342, 0.00316585, 0.0335499, -0.00838406, 0.00693146
0.077146, 1.69228, -1.22309, -1.5375, -0.899423, -1.19167, 1.23247, -1.30326, 0.0321945, 0.00687955, -0.0150169, 0.0129722, -0.0134005, 0.125449, -0.00601252, 2.70148, 53.0637, 24.9573, 4.64111, 1.46045, 2.85159, 0.0824695, 0.000838153, -0.000397417, -0.00191119, -0.00416475, -0.00481471, -0.00121277, 0.0205204, -0.0346962, 0.00878739, 0.0935626, 0.0866161, 0.0158608, 0.470979, -0.543112, 0.335967, -2.08372, -2.16579, -0.129908, 0.470621, -0.542595, 0.337996, -2.08713, -2.17141, -0.129771, -0.00130846, 0.0124898, 0.00325671, 0.034395, -0.00770087, 0.00769875
0.078146, 1.69231, -1.22308, -1.53753, -0.899417, -1.19168, 1.2326, -1.30328, 0.0341329, 0.00634938, -0.0178073, 0.00636245, -0.0149489, 0.126327, -0.0118023, 2.66181, 52.9883, 24.9573, 4.79187, 1.47876, 2.86532, 0.147472, 0.000818452, -0.000360731, -0.00191461, -0.00424741, -0.00490313, -0.00124433, 0.0190992, -0.0367951, 0.00650885, 0.0877282, 0.0887903, 0.0275306, 0.470978, -0.5431, 0.33597, -2.08371, -2.16579, -0.129909, 0.470657, -0.542601, 0.337999, -2.08718, -2.17152, -0.129777, -0.00134563, 0.01285, 0.00334867, 0.0363208, -0.00550067, 0.00569796
0.079146, 1.69235, -1.22307, -1.53755, -0.899398, -1.1917, 1.23273, -1.30328, 0.0366215, 0.0059032, -0.0180667, 0.0123559, -0.0158259, 0.1272, -0.0112267, 2.58643, 52.9169, 24.8859, 4.75616, 1.49158, 2.87265, 0.0888782, 0.000794979, -0.000323991, -0.00192178, -0.00434531, -0.00499596, -0.0012518, 0.0205064, -0.0368981, 0.00690863, 0.0903546, 0.0892395, 0.0237944, 0.470976, -0.543087, 0.335973, -2.08371, -2.16578, -0.129909, 0.470694, -0.542611, 0.338004, -2.08727, -2.17162, -0.129793, -0.00138324, 0.0132147, 0.0034417, 0.0364509, -0.00658239, 0.00596385
0.080146, 1.69238, -1.22307, -1.53757, -0.899385, -1.19172, 1.23287, -1.3033, 0.0357616, 0.0065338, -0.0192017, 0.0118007, -0.0155866, 0.132698, -0.00968884, 2.62611, 52.8058, 24.8462, 4.79187, 1.47876, 2.87997, 0.120922, 0.000767835, -0.000290442, -0.00192987, -0.00444423, -0.00509594, -0.0012631, 0.0218016, -0.0373848, 0.00730472, 0.0942424, 0.0926675, 0.0214596, 0.470975, -0.543074, 0.335977, -2.0837, -2.16578, -0.12991, 0.470727, -0.542625, 0.33801, -2.08735, -2.17172, -0.129804, -0.0014213, 0.013584, 0.0035358, 0.0369596, -0.0075328, 0.00623296
0.081146, 1.69242, -1.22305, -1.5376, -0.899372, -1.19174, 1.23301, -1.30331, 0.0360953, 0.00871747, -0.0208761, 0.0136444, -0.0155019, 0.133306, -0.012384, 2.62611, 52.6193, 24.8462, 4.86725, 1.46686, 2.86532, 0.134655, 0.000742637, -0.000255229, -0.00193872, -0.00453719, -0.00519945, -0.0012786, 0.0227687, -0.0369716, 0.00825729, 0.0944173, 0.0952247, 0.022098, 0.470973, -0.54306, 0.33598, -2.08369, -2.16578, -0.129911, 0.470762, -0.542636, 0.338018, -2.08743, -2.17183, -0.129804, -0.0014598, 0.0139578, 0.00363097, 0.0365776, -0.00827728, 0.00713073
0.082146, 1.69245, -1.22305, -1.53762, -0.899355, -1.19176, 1.23315, -1.30332, 0.0382414, 0.00748201, -0.0213413, 0.0168653, -0.0197513, 0.137057, -0.0122651, 2.55073, 52.5479, 24.8105, 4.86725, 1.45404, 2.87997, 0.0952869, 0.00071695, -0.000217234, -0.00194623, -0.00463747, -0.00530111, -0.00129094, 0.0246046, -0.0376282, 0.00800982, 0.0964625, 0.0993277, 0.0196966, 0.470972, -0.543046, 0.335984, -2.08369, -2.16578, -0.129913, 0.4708, -0.542647, 0.338024, -2.08752, -2.17194, -0.129815, -0.00149874, 0.0143362, 0.00372719, 0.0372513, -0.00964633, 0.00667733
0.083146, 1.69249, -1.22304, -1.53764, -0.899339, -1.19178, 1.2333, -1.30334, 0.0356862, 0.00582317, -0.0176832, 0.0190087, -0.0227575, 0.140221, -0.0092724, 2.51106, 52.5122, 24.7352, 4.86725, 1.43573, 2.8873, 0.0952869, 0.000690859, -0.000178919, -0.00195256, -0.00474042, -0.00539917, -0.00130912, 0.0270876, -0.0366506, 0.00902049, 0.102358, 0.101387, 0.0131292, 0.47097, -0.543032, 0.335988, -2.08368, -2.16577, -0.129914, 0.470838, -0.542658, 0.338028, -2.0876, -2.17205, -0.129833, -0.00153811, 0.014719, 0.00382447, 0.036361, -0.0119104, 0.00741613
0.084146, 1.69253, -1.22303, -1.53766, -0.899326, -1.19181, 1.23344, -1.30335, 0.0334715, 0.00740855, -0.0174076, 0.0166519, -0.0212128, 0.137991, -0.00554531, 2.47535, 52.3615, 24.6241, 4.90295, 1.43024, 2.8873, 0.0559192, 0.000665017, -0.000140303, -0.00196554, -0.00484822, -0.00551032, -0.00132387, 0.027022, -0.0357467, 0.00960561, 0.100809, 0.100903, 0.0099392, 0.470969, -0.543017, 0.335992, -2.08367, -2.16577, -0.129915, 0.470876, -0.542669, 0.33804, -2.08769, -2.17217, -0.129842, -0.00157792, 0.0151063, 0.00392278, 0.0354375, -0.0115855, 0.0081294
0.085146, 1.69256, -1.22302, -1.53769, -0.899317, -1.19183, 1.23358, -1.30336, 0.0353487, 0.010511, -0.0196821, 0.0131674, -0.0204931, 0.140819, -0.0107112, 2.43568, 52.2543, 24.6241, 5.01404, 1.43573, 2.87265, 0.101696, 0.000638821, -0.000102334, -0.00197037, -0.00493781, -0.00561634, -0.00134637, 0.0258775, -0.0377485, 0.0102558, 0.0999852, 0.105513, 0.0191511, 0.470967, -0.543002, 0.335996, -2.08367, -2.16577, -0.129916, 0.470914, -0.542679, 0.338043, -2.08776, -2.17228, -0.129838, -0.00161815, 0.015498, 0.00402212, 0.0373791, -0.010082, 0.00898769
0.086146, 1.6926, -1.22301, -1.53771, -0.899299, -1.19186, 1.23373, -1.30338, 0.0364808, 0.0116245, -0.0213696, 0.0142047, -0.0239182, 0.138808, -0.00728281, 2.39997, 52.0679, 24.6241, 4.97833, 1.43024, 2.87265, 0.0824695, 0.000609561, -6.57684e-05, -0.00198204, -0.0050376, -0.00573248, -0.00135804, 0.0268032, -0.0371097, 0.0101871, 0.0956637, 0.108675, 0.0139982, 0.470966, -0.542986, 0.336, -2.08366, -2.16576, -0.129917, 0.47095, -0.542693, 0.338053, -2.08785, -2.17239, -0.129833, -0.00165881, 0.0158942, 0.00412249, 0.0367312, -0.0106152, 0.00889546
0.087146, 1.69265, -1.223, -1.53773, -0.899289, -1.19189, 1.23388, -1.30339, 0.0401864, 0.00961175, -0.0184222, 0.00819774, -0.022456, 0.141407, -0.0149539, 2.24921, 51.9965, 24.5884, 5.08942, 1.43573, 2.87997, 0.0952869, 0.000585698, -2.1582e-05, -0.0019885, -0.00513615, -0.00584224, -0.00138907, 0.0233341, -0.0417539, 0.00921258, 0.0976377, 0.107399, 0.032571, 0.470964, -0.542971, 0.336004, -2.08365, -2.16576, -0.129918, 0.470994, -0.5427, 0.338059, -2.08792, -2.17252, -0.129835, -0.0016999, 0.0162947, 0.00422387, 0.0411689, -0.00644946, 0.00843272
0.088146, 1.69268, -1.223, -1.53775, -0.899264, -1.19192, 1.23402, -1.30341, 0.0401379, 0.00747957, -0.0185431, 0.0152867, -0.0251066, 0.143356, -0.016129, 2.32459, 51.9568, 24.513, 4.97833, 1.42383, 2.8873, 0.101696, 0.000551275, 1.13486e-05, -0.00199762, -0.00524195, -0.00594998, -0.00139308, 0.0268366, -0.0402413, 0.0090549, 0.101264, 0.10801, 0.026626, 0.470962, -0.542954, 0.336008, -2.08364, -2.16576, -0.129919, 0.471026, -0.542717, 0.338066, -2.08802, -2.17263, -0.129845, -0.0017414, 0.0166996, 0.00432627, 0.0397365, -0.00953981, 0.00788071
0.089146, 1.69272, -1.22299, -1.53777, -0.899248, -1.19195, 1.23417, -1.30342, 0.0381699, 0.00676461, -0.0196239, 0.0146481, -0.0272786, 0.145466, -0.0160228, 2.24921, 51.8854, 24.4733, 4.97833, 1.41742, 2.87997, 0.0824695, 0.000522174, 5.03391e-05, -0.00200534, -0.00534364, -0.00605872, -0.00141162, 0.028888, -0.0392716, 0.0084238, 0.101153, 0.110396, 0.0239445, 0.470961, -0.542938, 0.336012, -2.08364, -2.16575, -0.129921, 0.471065, -0.542729, 0.338072, -2.0881, -2.17274, -0.129851, -0.00178332, 0.0171089, 0.00442966, 0.0387768, -0.0110981, 0.00707122
0.090146, 1.69276, -1.22299, -1.53779, -0.89924, -1.19198, 1.23431, -1.30344, 0.0404506, 0.00718904, -0.0163597, 0.0114923, -0.0289111, 0.146478, -0.0171189, 2.13416, 51.7743, 24.4019, 5.08942, 1.41192, 2.86532, 0.0888782, 0.000497729, 9.36809e-05, -0.00201296, -0.00543806, -0.00617145, -0.00143974, 0.0270575, -0.0418515, 0.00932699, 0.102383, 0.112982, 0.0311215, 0.470959, -0.54292, 0.336017, -2.08363, -2.16575, -0.129922, 0.471107, -0.542735, 0.338079, -2.08817, -2.17287, -0.129845, -0.00182565, 0.0175225, 0.00453405, 0.0412783, -0.00891081, 0.00827338
0.091146, 1.6928, -1.22298, -1.53782, -0.899221, -1.19202, 1.23445, -1.30345, 0.0401034, 0.00990964, -0.0197322, 0.0128201, -0.0305277, 0.143834, -0.0140319, 2.09846, 51.6989, 24.4376, 5.05371, 1.41742, 2.83694, 0.120922, 0.000466286, 0.000131455, -0.00201933, -0.00553399, -0.00628288, -0.00145607, 0.0285248, -0.0400818, 0.00966474, 0.0973837, 0.116009, 0.0243657, 0.470957, -0.542903, 0.336021, -2.08362, -2.16575, -0.129923, 0.471145, -0.542748, 0.338084, -2.08826, -2.17299, -0.129842, -0.0018684, 0.0179404, 0.00463942, 0.039533, -0.0100659, 0.00853743
0.092146, 1.69284, -1.22297, -1.53783, -0.8992, -1.19205, 1.23459, -1.30347, 0.0400796, 0.00859676, -0.0196526, 0.0146861, -0.0312537, 0.144937, -0.0139134, 2.05878, 51.6275, 24.3622, 4.97833, 1.41192, 2.83694, 0.0888782, 0.000436289, 0.000169984, -0.00202874, -0.00563652, -0.00639067, -0.00147176, 0.0298915, -0.0398362, 0.00924965, 0.0989336, 0.115884, 0.0224511, 0.470955, -0.542885, 0.336026, -2.08361, -2.16574, -0.129924, 0.471183, -0.54276, 0.338092, -2.08834, -2.1731, -0.129849, -0.00191155, 0.0183626, 0.00474577, 0.0392785, -0.0109389, 0.0080286
0.093146, 1.69289, -1.22297, -1.53785, -0.899184, -1.19208, 1.23473, -1.30348, 0.0376805, 0.00597109, -0.0164646, 0.0163528, -0.0319076, 0.146828, -0.0143061, 1.98341, 51.6275, 24.2908, 5.01404, 1.40552, 2.82229, 0.0687366, 0.000407569, 0.000210368, -0.00203465, -0.00573114, -0.0064984, -0.00149232, 0.0318041, -0.0390226, 0.00933342, 0.104074, 0.114531, 0.020417, 0.470953, -0.542867, 0.336031, -2.0836, -2.16574, -0.129926, 0.471222, -0.542769, 0.338097, -2.08842, -2.17321, -0.129849, -0.00195511, 0.0187891, 0.00485308, 0.0384941, -0.0124468, 0.00794564
0.094146, 1.69293, -1.22297, -1.53787, -0.89916, -1.19212, 1.23487, -1.3035, 0.0381739, 0.00508869, -0.0179522, 0.0170481, -0.0327917, 0.143427, -0.0169392, 1.9477, 51.5878, 24.2512, 4.94263, 1.41192, 2.81589, 0.108104, 0.000375721, 0.000248734, -0.00204232, -0.00583063, -0.00660685, -0.00151096, 0.0324546, -0.038208, 0.00801954, 0.0996581, 0.112969, 0.0219705, 0.470951, -0.542848, 0.336035, -2.08359, -2.16574, -0.129927, 0.47126, -0.542781, 0.338103, -2.0885, -2.17333, -0.129852, -0.00199908, 0.0192197, 0.00496136, 0.0376123, -0.012489, 0.00667976
0.095146, 1.69297, -1.22297, -1.53788, -0.899138, -1.19216, 1.235, -1.30351, 0.0393826, 0.0025994, -0.0182105, 0.0207072, -0.0377094, 0.135304, -0.0148839, 1.87232, 51.6275, 24.1758, 4.86725, 1.41742, 2.82962, 0.0431018, 0.000344528, 0.000287744, -0.00204676, -0.00592632, -0.00670909, -0.00152118, 0.0338806, -0.0360612, 0.00615217, 0.0915166, 0.110448, 0.0162105, 0.470949, -0.542829, 0.33604, -2.08358, -2.16573, -0.129929, 0.471298, -0.542792, 0.338106, -2.08858, -2.17343, -0.129857, -0.00204344, 0.0196547, 0.0050706, 0.0354074, -0.0132621, 0.00478811
0.096146, 1.69302, -1.22297, -1.5379, -0.899125, -1.19219, 1.23514, -1.30352, 0.0400888, 0.00359739, -0.0202952, 0.0166213, -0.0370886, 0.134602, -0.0161162, 1.79694, 51.5521, 24.1758, 4.94263, 1.42383, 2.82229, 0.0431018, 0.0003168, 0.000329624, -0.00205352, -0.00601784, -0.0068193, -0.00155054, 0.0329464, -0.0369609, 0.00529126, 0.0874839, 0.111317, 0.0209513, 0.470947, -0.542809, 0.336045, -2.08357, -2.16573, -0.12993, 0.47134, -0.542799, 0.338112, -2.08864, -2.17356, -0.129852, -0.0020882, 0.0200938, 0.00518077, 0.0361966, -0.0117309, 0.00416574
0.097146, 1.69306, -1.22297, -1.53792, -0.899103, -1.19223, 1.23527, -1.30354, 0.0409634, 0.00247417, -0.0225912, 0.0196768, -0.0369749, 0.138782, -0.0141251, 1.72157, 51.5521, 24.2154, 4.90295, 1.44214, 2.80856, 0.0952869, 0.000283661, 0.000368175, -0.00205773, -0.00611037, -0.00692698, -0.00156912, 0.034921, -0.0371904, 0.00453814, 0.0904782, 0.112303, 0.0161507, 0.470945, -0.542789, 0.336051, -2.08357, -2.16572, -0.129932, 0.471377, -0.542811, 0.338115, -2.08872, -2.17367, -0.129849, -0.00213335, 0.0205371, 0.00529189, 0.0364241, -0.0131114, 0.00321894
0.098146, 1.69311, -1.22296, -1.53793, -0.899084, -1.19227, 1.23541, -1.30355, 0.0439587, 0.0025416, -0.0184192, 0.0210059, -0.0353132, 0.137742, -0.00951957, 1.68189, 51.5164, 24.1401, 4.90295, 1.41742, 2.78659, 0.0687366, 0.000254268, 0.000409946, -0.00206716, -0.00621175, -0.00703617, -0.00158907, 0.0331186, -0.0393303, 0.00595507, 0.0942774, 0.110391, 0.0159463, 0.470943, -0.542768, 0.336056, -2.08356, -2.16572, -0.129933, 0.471418, -0.542819, 0.338124, -2.0888, -2.17379, -0.129854, -0.0021789, 0.0209845, 0.00540394, 0.0385026, -0.0110151, 0.00494487
0.099146, 1.69316, -1.22296, -1.53795, -0.899065, -1.19231, 1.23553, -1.30357, 0.0445887, 0.0017371, -0.0199059, 0.0188241, -0.0356627, 0.136143, -0.0059403, 1.57081, 51.5164, 24.2512, 4.90295, 1.43024, 2.79391, 0.0357776, 0.000223666, 0.000449944, -0.00206932, -0.00629235, -0.00714142, -0.00160916, 0.0329469, -0.0396268, 0.00443606, 0.0903226, 0.109602, 0.0141235, 0.470941, -0.542747, 0.336061, -2.08355, -2.16572, -0.129935, 0.471457, -0.542827, 0.338126, -2.08887, -2.1739, -0.12984, -0.00222483, 0.0214361, 0.00551691, 0.0386917, -0.0101476, 0.0035752
0.100146, 1.6932, -1.22296, -1.53796, -0.899049, -1.19235, 1.23567, -1.30359, 0.0415624, 0.00295333, -0.0170621, 0.0185405, -0.0358334, 0.134303, -0.00579187, 1.60651, 51.441, 24.2154, 4.97833, 1.44214, 2.80856, 0.0687366, 0.00019161, 0.000488047, -0.00207857, -0.00638446, -0.00725523, -0.00163327, 0.033806, -0.0381423, 0.00607914, 0.0916435, 0.110023, 0.0125717, 0.470939, -0.542726, 0.336067, -2.08354, -2.16571, -0.129936, 0.471495, -0.542837, 0.338134, -2.08894, -2.17402, -0.129831, -0.00227115, 0.0218918, 0.0056308, 0.0372533, -0.010854, 0.00522239
0.101146, 1.69325, -1.22296, -1.53797, -0.899027, -1.19239, 1.23579, -1.3036, 0.0451739, 0.00106489, -0.0136431, 0.0202601, -0.0399669, 0.128756, -0.00988365, 1.53114, 51.4807, 24.2512, 4.97833, 1.44855, 2.81589, 0.0888782, 0.000159587, 0.000528098, -0.00208124, -0.00646963, -0.00735936, -0.00165281, 0.0328883, -0.0389722, 0.00569838, 0.088067, 0.108749, 0.0190593, 0.470936, -0.542704, 0.336072, -2.08353, -2.16571, -0.129938, 0.471534, -0.542846, 0.338136, -2.089, -2.17413, -0.129824, -0.00231785, 0.0223516, 0.00574559, 0.0379888, -0.00939547, 0.0050782
0.102146, 1.6933, -1.22296, -1.53799, -0.899007, -1.19244, 1.23592, -1.30361, 0.0471868, 0.000727939, -0.0133557, 0.0205947, -0.038889, 0.124946, -0.0108069, 1.49146, 51.4807, 24.2512, 5.01404, 1.46045, 2.80856, 0.0559192, 0.000127955, 0.000569442, -0.00208639, -0.00655869, -0.00746886, -0.00166773, 0.0319307, -0.0395413, 0.00516191, 0.0854197, 0.105886, 0.0222219, 0.470934, -0.542682, 0.336078, -2.08351, -2.1657, -0.12994, 0.471574, -0.542854, 0.338141, -2.08908, -2.17423, -0.129815, -0.00236493, 0.0228154, 0.00586128, 0.0384563, -0.00788013, 0.00479528
0.103146, 1.69335, -1.22295, -1.538, -0.89899, -1.19248, 1.23605, -1.30362, 0.0485135, 0.00226204, -0.0109034, 0.0201399, -0.0415359, 0.130021, -0.00937527, 1.45576, 51.4053, 24.2908, 5.08942, 1.44855, 2.82229, 0.0888782, 9.85078e-05, 0.000610818, -0.00209479, -0.00664342, -0.00758157, -0.00169604, 0.0320646, -0.0414483, 0.00722152, 0.0905475, 0.112233, 0.022832, 0.470932, -0.542659, 0.336084, -2.0835, -2.1657, -0.129941, 0.471614, -0.542859, 0.338149, -2.08914, -2.17436, -0.129799, -0.00241239, 0.0232833, 0.00597787, 0.0403931, -0.00778359, 0.0068663
0.104146, 1.6934, -1.22296, -1.53801, -0.898968, -1.19252, 1.23617, -1.30364, 0.0514447, 0.00209267, -0.0111268, 0.0256073, -0.044487, 0.126843, -0.0111088, 1.34071, 51.5164, 24.2908, 5.05371, 1.46045, 2.80124, 0.0751453, 6.72383e-05, 0.000654144, -0.00209797, -0.00673374, -0.00768525, -0.00171973, 0.0331858, -0.0409519, 0.00733214, 0.0884386, 0.112779, 0.0216292, 0.470929, -0.542636, 0.33609, -2.08349, -2.16569, -0.129943, 0.471656, -0.542866, 0.338152, -2.08921, -2.17447, -0.129798, -0.00246022, 0.0237552, 0.00609534, 0.0398938, -0.00845574, 0.00693317
0.105146, 1.69345, -1.22295, -1.53802, -0.898954, -1.19257, 1.2363, -1.30365, 0.0467659, 0.00250234, -0.0122947, 0.0229212, -0.0463533, 0.122608, -0.0126758, 1.38038, 51.4807, 24.3265, 5.16479, 1.46686, 2.81589, 0.0687366, 3.43991e-05, 0.000692574, -0.00210336, -0.00681484, -0.00779566, -0.00173771, 0.0350997, -0.0377646, 0.00661286, 0.0824205, 0.113048, 0.0197782, 0.470927, -0.542612, 0.336096, -2.08348, -2.16569, -0.129945, 0.471694, -0.542874, 0.338157, -2.08928, -2.17458, -0.12978, -0.00250842, 0.0242312, 0.00621369, 0.0367051, -0.00988896, 0.00613986
0.106146, 1.6935, -1.22296, -1.53804, -0.898932, -1.19261, 1.23642, -1.30365, 0.0491475, 0.000201802, -0.0148526, 0.0236815, -0.0435724, 0.12527, -0.0132134, 1.305, 51.5521, 24.4376, 5.16479, 1.47327, 2.80856, 0.0431018, 1.34466e-06, 0.00073369, -0.00210396, -0.0068959, -0.00789737, -0.001753, 0.0352424, -0.0393558, 0.00453201, 0.08369, 0.110205, 0.0217845, 0.470924, -0.542588, 0.336102, -2.08347, -2.16568, -0.129946, 0.471733, -0.542881, 0.338158, -2.08935, -2.17468, -0.12977, -0.00255699, 0.0247111, 0.00633291, 0.0381753, -0.00916359, 0.00413346
0.107146, 1.69355, -1.22296, -1.53805, -0.898917, -1.19266, 1.23654, -1.30367, 0.0501902, -0.000547676, -0.0139462, 0.0225302, -0.0461505, 0.122145, -0.0164861, 1.26533, 51.5878, 24.4376, 5.24017, 1.49158, 2.81589, 0.0888782, -2.91847e-05, 0.00077707, -0.00210858, -0.00697839, -0.00800774, -0.00178704, 0.0350003, -0.0395447, 0.00387826, 0.0798767, 0.110345, 0.0267282, 0.470922, -0.542563, 0.336109, -2.08346, -2.16568, -0.129948, 0.471775, -0.542885, 0.338163, -2.0894, -2.1748, -0.129755, -0.00260593, 0.0251949, 0.006453, 0.0382827, -0.00833198, 0.00363935
0.108146, 1.6936, -1.22296, -1.53806, -0.898894, -1.19271, 1.23666, -1.30368, 0.0486778, 0.00115811, -0.0142643, 0.0212127, -0.0428817, 0.120576, -0.0170315, 1.305, 51.6632, 24.4733, 5.2005, 1.48517, 2.79391, 0.0952869, -6.47909e-05, 0.00081535, -0.00211201, -0.0070612, -0.00811305, -0.00180232, 0.0348743, -0.0390175, 0.00448174, 0.0795973, 0.108928, 0.0278908, 0.470919, -0.542538, 0.336115, -2.08345, -2.16567, -0.12995, 0.471812, -0.542894, 0.338166, -2.08947, -2.17491, -0.129743, -0.00265523, 0.0256827, 0.00657393, 0.0377244, -0.00783428, 0.00439115
0.109146, 1.69367, -1.22296, -1.53807, -0.898873, -1.19275, 1.23678, -1.30369, 0.050189, 0.00195767, -0.0145815, 0.0199382, -0.0406961, 0.119366, -0.0107672, 1.11457, 51.6275, 24.513, 5.16479, 1.48517, 2.77286, 0.0431018, -9.13345e-05, 0.000863935, -0.00211748, -0.00714065, -0.00822218, -0.00182959, 0.0337546, -0.0401393, 0.00443101, 0.0786412, 0.107728, 0.0248472, 0.470916, -0.542512, 0.336122, -2.08343, -2.16567, -0.129952, 0.471859, -0.542893, 0.338172, -2.08953, -2.17502, -0.129725, -0.00270489, 0.0261745, 0.00669572, 0.0387532, -0.00618323, 0.00460227
0.110146, 1.69372, -1.22296, -1.53808, -0.898857, -1.1928, 1.2369, -1.3037, 0.0479743, 0.000732675, -0.00979727, 0.0163638, -0.043159, 0.118613, -0.0145467, 1.18995, 51.6632, 24.4733, 5.24017, 1.47876, 2.74356, 0.0888782, -0.000125325, 0.000903558, -0.00212185, -0.00722439, -0.00832696, -0.00185487, 0.03371, -0.0401769, 0.00491908, 0.0796368, 0.10834, 0.0311154, 0.470914, -0.542486, 0.336128, -2.08342, -2.16566, -0.129954, 0.471898, -0.5429, 0.338177, -2.08958, -2.17514, -0.129717, -0.00275491, 0.0266701, 0.00681835, 0.038757, -0.00571709, 0.00521198
0.111146, 1.69377, -1.22297, -1.53809, -0.898839, -1.19284, 1.23701, -1.30371, 0.0490863, -0.00358336, -0.010444, 0.0155363, -0.0452442, 0.117648, -0.0140694, 1.15424, 51.8457, 24.4733, 5.24017, 1.47876, 2.72983, 0.0495105, -0.000157583, 0.000945421, -0.00211883, -0.00729862, -0.00841852, -0.00187587, 0.0343507, -0.0405768, 0.00185022, 0.0764348, 0.105664, 0.0315653, 0.470911, -0.542459, 0.336135, -2.08341, -2.16566, -0.129956, 0.471938, -0.542903, 0.338174, -2.08964, -2.17523, -0.12971, -0.00280528, 0.0271696, 0.00694181, 0.0390174, -0.00536009, 0.00219291
0.112146, 1.69382, -1.22297, -1.5381, -0.89882, -1.1929, 1.23712, -1.30372, 0.0532636, -0.00140587, -0.0117815, 0.0149247, -0.0430985, 0.116669, -0.0150612, 1.11457, 51.81, 24.513, 5.24017, 1.49158, 2.7225, 0.0431018, -0.000191148, 0.000986103, -0.00212497, -0.00737191, -0.00853356, -0.00189564, 0.0323618, -0.0428815, 0.00221976, 0.0747706, 0.106099, 0.0373103, 0.470908, -0.542432, 0.336142, -2.0834, -2.16565, -0.129958, 0.471977, -0.542908, 0.338181, -2.0897, -2.17534, -0.129679, -0.00285601, 0.0276729, 0.00706609, 0.0412106, -0.00285549, 0.00292076
0.113146, 1.69388, -1.22297, -1.5381, -0.898806, -1.19295, 1.23723, -1.30373, 0.0501035, -0.00258962, -0.00780269, 0.0135433, -0.0454366, 0.115807, -0.0128251, 1.07887, 51.8854, 24.4733, 5.27588, 1.49707, 2.71518, 0.0824695, -0.000221965, 0.00103031, -0.00212605, -0.00744815, -0.00863416, -0.00192751, 0.0335327, -0.0417492, 0.00279293, 0.0762421, 0.106421, 0.0343623, 0.470905, -0.542404, 0.336149, -2.08338, -2.16565, -0.12996, 0.47202, -0.542909, 0.338183, -2.08975, -2.17546, -0.129667, -0.00290708, 0.0281801, 0.00719119, 0.0400916, -0.00363889, 0.00346337
0.114146, 1.69393, -1.22298, -1.53812, -0.898784, -1.193, 1.23734, -1.30373, 0.0507775, -0.00424173, -0.0108794, 0.0151185, -0.0505603, 0.115361, -0.0092735, 1.03919, 51.9965, 24.5487, 5.2005, 1.47876, 2.70785, 0.0751453, -0.000257209, 0.00106932, -0.00212444, -0.00751374, -0.00873205, -0.00194411, 0.0360017, -0.040643, 0.000838144, 0.0714004, 0.109091, 0.0269882, 0.470902, -0.542376, 0.336156, -2.08337, -2.16564, -0.129962, 0.472057, -0.542914, 0.338181, -2.0898, -2.17555, -0.129644, -0.0029585, 0.0286911, 0.00731711, 0.038953, -0.00530885, 0.00130804
0.115146, 1.69398, -1.22299, -1.53812, -0.898768, -1.19305, 1.23745, -1.30374, 0.0513933, -0.00619913, -0.00625405, 0.0145039, -0.0555286, 0.11039, -0.00991332, 1.11457, 52.1432, 24.4733, 5.2005, 1.49158, 2.6932, 0.0293689, -0.000293031, 0.00110799, -0.00212475, -0.00758781, -0.0088303, -0.00195998, 0.0357597, -0.0405425, 0.000723401, 0.0683573, 0.108772, 0.0294151, 0.470899, -0.542347, 0.336164, -2.08336, -2.16563, -0.129964, 0.472094, -0.542919, 0.338182, -2.08986, -2.17564, -0.12963, -0.00301027, 0.0292059, 0.00744383, 0.038788, -0.00454134, 0.00136146
0.116146, 1.69404, -1.22299, -1.53813, -0.89875, -1.1931, 1.23755, -1.30375, 0.0528817, -0.0049212, -0.00650589, 0.0140043, -0.0540522, 0.107817, -0.00901649, 1.03919, 52.179, 24.5487, 5.2005, 1.47876, 2.65018, 0.0687366, -0.000325207, 0.00115136, -0.00212553, -0.00765598, -0.00893233, -0.00198869, 0.0348474, -0.041154, 0.000962507, 0.0663423, 0.107918, 0.0308258, 0.470896, -0.542318, 0.336171, -2.08334, -2.16563, -0.129966, 0.472135, -0.54292, 0.338184, -2.0899, -2.17575, -0.129608, -0.00306237, 0.0297245, 0.00757134, 0.0393228, -0.00313379, 0.00184766
0.117146, 1.6941, -1.223, -1.53814, -0.898731, -1.19315, 1.23766, -1.30376, 0.0490467, -0.00500896, -0.00569524, 0.0145395, -0.0537736, 0.105628, -0.0116008, 1.03919, 52.2543, 24.5884, 5.16479, 1.48517, 2.62179, 0.0751453, -0.000361586, 0.0011908, -0.00212364, -0.00772133, -0.00903157, -0.00200537, 0.0368116, -0.0386906, 0.00123795, 0.0661974, 0.10659, 0.029683, 0.470893, -0.542288, 0.336179, -2.08333, -2.16562, -0.129968, 0.472173, -0.542924, 0.338183, -2.08996, -2.17585, -0.129583, -0.00311481, 0.0302468, 0.00769965, 0.0368907, -0.0046939, 0.00201651
0.118146, 1.69414, -1.22301, -1.53815, -0.898717, -1.19321, 1.23776, -1.30376, 0.0452857, -0.00758189, -0.0041193, 0.013094, -0.057443, 0.108237, -0.00695927, 1.07887, 52.4368, 24.5884, 5.2005, 1.48517, 2.59341, 0.0293689, -0.000398939, 0.00123017, -0.00212142, -0.00779126, -0.00913096, -0.00202136, 0.0395154, -0.0373246, 0.000477687, 0.067924, 0.108489, 0.0222224, 0.47089, -0.542258, 0.336186, -2.08331, -2.16562, -0.129971, 0.47221, -0.542929, 0.338182, -2.09001, -2.17594, -0.129564, -0.00316759, 0.0307728, 0.00782873, 0.0355431, -0.00677552, 0.001015
0.119146, 1.6942, -1.22301, -1.53816, -0.898698, -1.19326, 1.23787, -1.30377, 0.0482328, -0.00587008, -0.00382327, 0.0137642, -0.059949, 0.110801, -0.0120911, 1.00349, 52.4725, 24.6241, 5.16479, 1.47327, 2.55038, 0.0888782, -0.000433075, 0.00127271, -0.00212198, -0.0078579, -0.0092334, -0.00205423, 0.0394711, -0.03907, 0.0017205, 0.0693439, 0.113806, 0.029024, 0.470887, -0.542227, 0.336194, -2.0833, -2.16561, -0.129973, 0.472251, -0.54293, 0.338183, -2.09005, -2.17605, -0.12954, -0.0032207, 0.0313025, 0.00795859, 0.037277, -0.00632186, 0.00232492
0.120146, 1.69426, -1.22302, -1.53816, -0.898688, -1.19331, 1.23797, -1.30378, 0.0513628, -0.00649705, -0.00273023, 0.0116631, -0.057867, 0.107479, -0.00844981, 0.888436, 52.5836, 24.6241, 5.24017, 1.47327, 2.51468, 0.0751453, -0.000465291, 0.0013174, -0.00212188, -0.00792511, -0.00933518, -0.00208401, 0.03707, -0.0411666, 0.000934692, 0.0669846, 0.110272, 0.0315882, 0.470884, -0.542196, 0.336202, -2.08328, -2.1656, -0.129975, 0.472294, -0.542929, 0.338185, -2.09009, -2.17616, -0.129516, -0.00327414, 0.031836, 0.00808922, 0.0392027, -0.00321044, 0.00198874
0.121146, 1.69431, -1.22303, -1.53816, -0.898666, -1.19337, 1.23807, -1.30378, 0.0530195, -0.00691872, -0.00429644, 0.0137819, -0.0604214, 0.108483, -0.00484842, 0.928108, 52.6947, 24.5884, 5.16479, 1.46686, 2.50003, 0.0357776, -0.000506678, 0.00135195, -0.00212184, -0.00799436, -0.00943205, -0.00208832, 0.0384914, -0.0412864, 0.00039145, 0.0661424, 0.112669, 0.0262283, 0.470881, -0.542164, 0.33621, -2.08327, -2.1656, -0.129978, 0.472326, -0.542936, 0.338185, -2.09016, -2.17624, -0.129498, -0.00332791, 0.0323731, 0.00822061, 0.0392998, -0.00398742, 0.00135805
0.122146, 1.69437, -1.22304, -1.53817, -0.898656, -1.19342, 1.23817, -1.30379, 0.0578545, -0.00887305, -0.00582941, 0.0147047, -0.0577273, 0.105287, -0.00349988, 0.813057, 52.8772, 24.6995, 5.24017, 1.45404, 2.48538, 0.0293689, -0.000541278, 0.00139561, -0.00211517, -0.00805409, -0.00952561, -0.00211863, 0.0368113, -0.0433187, -0.00176409, 0.0629376, 0.107351, 0.0290813, 0.470877, -0.542132, 0.336219, -2.08325, -2.16559, -0.12998, 0.472368, -0.542935, 0.33818, -2.09019, -2.17634, -0.129474, -0.00338201, 0.0329138, 0.00835276, 0.0411366, -0.00137162, -0.000439302
0.123146, 1.69441, -1.22304, -1.53818, -0.898642, -1.19348, 1.23827, -1.3038, 0.0532996, -0.0050739, -0.00416126, 0.013468, -0.0560204, 0.102299, -0.00515338, 0.777352, 52.8415, 24.6995, 5.27588, 1.44855, 2.48538, 0.0952869, -0.000580037, 0.00143318, -0.00212019, -0.00811846, -0.00963916, -0.00214315, 0.0376661, -0.0409425, 0.000818769, 0.0631205, 0.108412, 0.0286818, 0.470874, -0.542099, 0.336227, -2.08324, -2.16558, -0.129982, 0.472403, -0.54294, 0.338186, -2.09024, -2.17645, -0.129436, -0.00343642, 0.0334582, 0.00848565, 0.038834, -0.00216715, 0.00218224
0.124146, 1.69447, -1.22305, -1.53818, -0.898628, -1.19354, 1.23837, -1.3038, 0.0499232, -0.00681159, -0.00298042, 0.0133168, -0.0593776, 0.100066, -0.0032449, 0.737679, 52.9883, 24.6995, 5.27588, 1.44855, 2.48538, 0.0824695, -0.000618949, 0.00147116, -0.00211704, -0.00817963, -0.00973429, -0.00216086, 0.0400473, -0.038571, 0.000131798, 0.0610597, 0.108442, 0.0230945, 0.47087, -0.542066, 0.336235, -2.08322, -2.16557, -0.129985, 0.472439, -0.542943, 0.338184, -2.09029, -2.17654, -0.129411, -0.00349116, 0.0340062, 0.00861928, 0.0364714, -0.003961, 0.00133828
0.125146, 1.69452, -1.22306, -1.53819, -0.898622, -1.1936, 1.23846, -1.3038, 0.0522198, -0.00630079, -0.00474008, 0.00972418, -0.0575628, 0.0980715, -0.000918237, 0.626595, 53.0637, 24.8105, 5.42664, 1.44855, 2.50003, 0.0431018, -0.000656247, 0.00151144, -0.00211563, -0.00823317, -0.00984293, -0.00218047, 0.0382717, -0.0402272, -0.00104262, 0.0567505, 0.107231, 0.0259866, 0.470867, -0.542032, 0.336244, -2.0832, -2.16557, -0.129987, 0.472477, -0.542944, 0.338185, -2.09034, -2.17664, -0.129365, -0.00354621, 0.0345577, 0.00875364, 0.0379639, -0.0014069, 0.000538172
0.126146, 1.69452, -1.22306, -1.53819, -0.898622, -1.1936, 1.23846, -1.3038, 0.0522198, -0.00630079, -0.00474008, 0.00972418, -0.0575628, 0.0980715, -0.000918237, 0.626595, 53.0637, 24.8105, 5.42664, 1.44855, 2.50003, 0.0431018, -0.000691828, 0.0015138, -0.00211248, -0.00824349, -0.00985639, -0.00217653, 0.0388429, -0.0402636, -0.00108732, 0.056863, 0.107511, 0.0260361, 0.470863, -0.541997, 0.336253, -2.08319, -2.16556, -0.12999, 0.472477, -0.542944, 0.338185, -2.09034, -2.17664, -0.129365, -0.00360158, 0.0351128, 0.00888872, 0.0379639, -0.0014069, 0.000538172
0.127146, 1.69461, -1.22307, -1.5382, -0.898594, -1.19372, 1.23865, -1.30381, 0.0496339, -0.00567348, -0.00766907, 0.0103735, -0.058142, 0.0965078, 0.000360199, 0.511544, 53.2104, 24.8859, 5.46234, 1.44214, 2.4927, 0.0293689, -0.000739477, 0.00158405, -0.00211681, -0.00835478, -0.0100545, -0.0022082, 0.0412712, -0.0378278, -0.00171036, 0.0535477, 0.108192, 0.0200842, 0.47086, -0.541962, 0.336262, -2.08317, -2.16555, -0.129992, 0.472546, -0.542954, 0.338188, -2.09045, -2.17682, -0.129293, -0.00365725, 0.0356715, 0.00902453, 0.0355401, -0.00324902, -0.000245921
0.128146, 1.69466, -1.22307, -1.5382, -0.898586, -1.19378, 1.23875, -1.30382, 0.0471089, -0.00461606, -0.00626711, 0.00710443, -0.0562794, 0.100128, -0.00455971, 0.475838, 53.2462, 24.9216, 5.50201, 1.43573, 2.50003, 0.0293689, -0.000783724, 0.00161792, -0.0021182, -0.00841307, -0.0101668, -0.00221986, 0.041607, -0.0382754, -0.000631424, 0.0577995, 0.10993, 0.0267149, 0.470856, -0.541926, 0.336271, -2.08315, -2.16554, -0.129995, 0.472577, -0.54296, 0.338191, -2.09051, -2.17691, -0.129248, -0.00371324, 0.0362337, 0.00916105, 0.0359828, -0.00316616, 0.000888951
0.129146, 1.69471, -1.22308, -1.53821, -0.898581, -1.19384, 1.23884, -1.30383, 0.0471143, -0.00567472, -0.00525267, 0.00609084, -0.0552265, 0.0979688, -0.0101212, 0.360787, 53.3572, 24.9573, 5.6131, 1.43573, 2.52109, 0.0824695, -0.000823718, 0.00165598, -0.00211551, -0.00846475, -0.0102709, -0.00224559, 0.0413414, -0.0384655, -0.0012771, 0.0568176, 0.107271, 0.0340716, 0.470852, -0.54189, 0.33628, -2.08314, -2.16554, -0.129998, 0.472613, -0.542962, 0.33819, -2.09054, -2.17701, -0.129204, -0.00376953, 0.0367994, 0.00929827, 0.0360833, -0.00223043, 0.000423272
0.130146, 1.69475, -1.22309, -1.53821, -0.898571, -1.19391, 1.23894, -1.30382, 0.0492557, -0.00721598, -0.00460934, 0.00806502, -0.0584269, 0.0970085, -0.00602222, 0.285408, 53.504, 24.997, 5.6131, 1.43024, 2.52841, 0.0431018, -0.000868751, 0.00169159, -0.00211303, -0.00852625, -0.0103744, -0.00225392, 0.0421057, -0.0388689, -0.00191987, 0.0556763, 0.108001, 0.029681, 0.470849, -0.541853, 0.336289, -2.08312, -2.16553, -0.13, 0.472646, -0.542968, 0.338188, -2.0906, -2.17709, -0.129171, -0.00382613, 0.0373685, 0.00943618, 0.0364336, -0.00229948, -0.000205792
0.131146, 1.6948, -1.22309, -1.53822, -0.898568, -1.19397, 1.23904, -1.30383, 0.0485961, -0.00481003, -0.005806, 0.00764587, -0.061275, 0.0970968, -0.00456443, 0.170357, 53.504, 25.1081, 5.68848, 1.43573, 2.50735, 0.0431018, -0.000912262, 0.00172904, -0.00211251, -0.0085797, -0.0104917, -0.00226936, 0.0434511, -0.038072, -0.000983294, 0.0536128, 0.113163, 0.0264454, 0.470845, -0.541816, 0.336299, -2.0831, -2.16552, -0.130003, 0.472682, -0.542972, 0.338189, -2.09066, -2.17719, -0.129116, -0.00388303, 0.0379411, 0.00957479, 0.0356635, -0.00323206, 0.000671256
0.132146, 1.69484, -1.2231, -1.53822, -0.898567, -1.19403, 1.23913, -1.30383, 0.046193, -0.00496946, -0.00397166, 0.00742908, -0.0630375, 0.0999851, -0.00440461, 0.134651, 53.5794, 25.1081, 5.76385, 1.43024, 2.53573, 0.0687366, -0.000956824, 0.00176152, -0.00211087, -0.00862955, -0.0105959, -0.00228371, 0.0453263, -0.0374609, -0.000108317, 0.0572736, 0.116001, 0.0244631, 0.470841, -0.541778, 0.336308, -2.08308, -2.16551, -0.130006, 0.472712, -0.542976, 0.338189, -2.0907, -2.17727, -0.129069, -0.00394022, 0.0385172, 0.00971408, 0.0350955, -0.00466709, 0.00139989
0.133146, 1.69488, -1.2231, -1.53822, -0.898565, -1.1941, 1.23922, -1.30383, 0.0463342, -0.00498306, -0.00272351, 0.00425893, -0.0645205, 0.0941442, -0.00300821, 0.0196001, 53.6508, 25.1081, 5.83527, 1.43573, 2.52841, 0.0623279, -0.00100014, 0.00179837, -0.00211187, -0.00868718, -0.0107077, -0.0022995, 0.0443429, -0.0372782, -0.000696877, 0.0512018, 0.114791, 0.0261352, 0.470837, -0.541739, 0.336318, -2.08306, -2.1655, -0.130009, 0.472746, -0.542979, 0.338192, -2.09076, -2.17737, -0.129024, -0.00399771, 0.0390967, 0.00985405, 0.0347989, -0.00303312, 0.0011165
0.134146, 1.69493, -1.2231, -1.53822, -0.898561, -1.19416, 1.23931, -1.30382, 0.0513262, -0.00508501, -0.00588442, 0.00668966, -0.0695178, 0.0881887, -0.00054192, -0.166862, 53.7262, 25.1438, 5.83527, 1.42383, 2.56412, 0.0165515, -0.00104191, 0.00183685, -0.00211063, -0.00873713, -0.0108158, -0.00231378, 0.0444847, -0.0373766, -0.00238092, 0.041462, 0.116271, 0.0233429, 0.470833, -0.5417, 0.336328, -2.08305, -2.1655, -0.130011, 0.472782, -0.542979, 0.338193, -2.0908, -2.17745, -0.128974, -0.0040555, 0.0396796, 0.00999469, 0.034783, -0.0023256, -0.000431734
0.135146, 1.69497, -1.2231, -1.53823, -0.898555, -1.19423, 1.2394, -1.30383, 0.0481174, -0.00338981, -0.00692153, 0.00526896, -0.0655108, 0.0942969, -0.00321395, -0.206535, 53.7262, 25.2588, 5.83527, 1.43573, 2.57876, 0.0888782, -0.00109125, 0.0018682, -0.00211156, -0.00878944, -0.0109317, -0.00232539, 0.0459845, -0.0372815, -0.00127308, 0.0477937, 0.118112, 0.0249717, 0.470829, -0.541661, 0.336338, -2.08303, -2.16549, -0.130014, 0.472811, -0.542987, 0.338195, -2.09086, -2.17754, -0.128919, -0.00411357, 0.0402659, 0.010136, 0.0347245, -0.00339455, 0.000571421
0.136146, 1.69501, -1.22311, -1.53823, -0.898556, -1.19429, 1.23949, -1.30383, 0.0435363, -0.00309494, -0.00484485, 0.00319151, -0.0657259, 0.0938392, -0.00176443, -0.281914, 53.7619, 25.2588, 5.87494, 1.41742, 2.59341, 0.0751453, -0.00113815, 0.00190084, -0.0021116, -0.00883803, -0.0110445, -0.00233516, 0.0475471, -0.0354637, -0.000495074, 0.0489752, 0.118564, 0.0217944, 0.470825, -0.54162, 0.336348, -2.08301, -2.16548, -0.130017, 0.472841, -0.542992, 0.338197, -2.09091, -2.17763, -0.128862, -0.00417194, 0.0408555, 0.0102779, 0.0329355, -0.0045421, 0.00129246
0.137146, 1.69501, -1.22311, -1.53823, -0.898556, -1.19429, 1.23949, -1.30383, 0.0435363, -0.00309494, -0.00484485, 0.00319151, -0.0657259, 0.0938392, -0.00176443, -0.281914, 53.7619, 25.2588, 5.87494, 1.41742, 2.59341, 0.0751453, -0.00118021, 0.00190361, -0.00210796, -0.00885036, -0.0110606, -0.00233054, 0.0481569, -0.035502, -0.00054086, 0.049099, 0.118867, 0.0218472, 0.470821, -0.541579, 0.336358, -2.08299, -2.16547, -0.13002, 0.472841, -0.542992, 0.338197, -2.09091, -2.17763, -0.128862, -0.00423059, 0.0414484, 0.0104206, 0.0329355, -0.0045421, 0.00129246
0.138146, 1.69509, -1.22312, -1.53824, -0.898558, -1.19442, 1.23967, -1.30383, 0.0403561, -0.00514932, -0.00354273, 0.000640306, -0.0634819, 0.0899322, -0.000380237, -0.543754, 53.9484, 25.2945, 5.91064, 1.41192, 2.57876, 0.0431018, -0.00123146, 0.0019711, -0.00210582, -0.00894036, -0.0112586, -0.00236189, 0.0485089, -0.0341346, -0.00187682, 0.0471187, 0.11339, 0.0210071, 0.470816, -0.541538, 0.336369, -2.08297, -2.16546, -0.130023, 0.472906, -0.542998, 0.338195, -2.09101, -2.1778, -0.128767, -0.00428952, 0.0420447, 0.0105638, 0.0314748, -0.00414274, 0.000102541
0.139146, 1.69512, -1.22312, -1.53824, -0.898557, -1.19449, 1.23976, -1.30383, 0.0389851, -0.00426804, -0.00505752, 0.00151812, -0.0653321, 0.0956905, -0.00200394, -0.543754, 53.9841, 25.4056, 5.87494, 1.42383, 2.56412, 0.0888782, -0.00128387, 0.00199964, -0.0021052, -0.00898982, -0.0113708, -0.00236917, 0.0511897, -0.0337657, -0.00121768, 0.0507527, 0.118941, 0.0192304, 0.470812, -0.541496, 0.336379, -2.08295, -2.16545, -0.130026, 0.472933, -0.543006, 0.338196, -2.09107, -2.17788, -0.128712, -0.00434873, 0.0426443, 0.0107077, 0.0311679, -0.00630607, 0.000489324
0.140146, 1.69516, -1.22313, -1.53825, -0.898565, -1.19455, 1.23984, -1.30383, 0.0417702, -0.00544377, -0.00427983, -0.00682652, -0.0661366, 0.0959652, -0.000156522, -0.694511, 54.0952, 25.4413, 5.95032, 1.42383, 2.55038, 0.0559192, -0.00132833, 0.00203647, -0.00210188, -0.00903495, -0.0114772, -0.00238846, 0.0482131, -0.0373632, -0.00297172, 0.0469641, 0.119594, 0.0276325, 0.470808, -0.541453, 0.33639, -2.08293, -2.16544, -0.130029, 0.472966, -0.543006, 0.338195, -2.0911, -2.17797, -0.128659, -0.00440822, 0.0432472, 0.0108522, 0.03453, -0.00234506, -0.000745311
0.141146, 1.6952, -1.22313, -1.53825, -0.898568, -1.19461, 1.23992, -1.30382, 0.0419191, -0.00270112, -0.00290792, -0.00492928, -0.0623686, 0.0912623, 0.0010854, -0.76989, 54.0555, 25.4413, 5.95032, 1.42383, 2.53573, 0.0229602, -0.001377, 0.00206804, -0.00210434, -0.00908525, -0.0115894, -0.00239689, 0.0475449, -0.0368146, -0.0010867, 0.047081, 0.116962, 0.0267921, 0.470803, -0.54141, 0.336401, -2.08291, -2.16543, -0.130032, 0.472995, -0.54301, 0.3382, -2.09116, -2.17805, -0.128605, -0.00446799, 0.0438533, 0.0109973, 0.0339676, -0.00139305, 0.00138065
0.142146, 1.69524, -1.22313, -1.53825, -0.898574, -1.19467, 1.24, -1.30383, 0.0420316, -0.00180072, -0.00290765, -0.0044051, -0.0638662, 0.0867799, -0.00197838, -0.845268, 54.0555, 25.481, 5.98602, 1.41742, 2.55038, 0.0952869, -0.00142453, 0.00210035, -0.00210386, -0.00913031, -0.0116954, -0.00242058, 0.0480223, -0.0357978, -0.000938194, 0.0429096, 0.117156, 0.0290473, 0.470799, -0.541366, 0.336412, -2.08288, -2.16542, -0.130036, 0.473025, -0.543011, 0.338202, -2.09119, -2.17814, -0.128553, -0.00452802, 0.0444627, 0.0111431, 0.0329149, -0.00131944, 0.00162849
0.143146, 1.69527, -1.22313, -1.53825, -0.89858, -1.19473, 1.24009, -1.30383, 0.0380985, -0.00379892, -0.00280442, -0.00398473, -0.0609834, 0.0840521, 0.000596453, -0.884941, 54.1666, 25.5167, 6.02173, 1.42383, 2.55038, 0.0431018, -0.00147649, 0.00213005, -0.00209863, -0.00917364, -0.0117977, -0.00242437, 0.049859, -0.0334155, -0.00210646, 0.0427383, 0.111608, 0.0233002, 0.470794, -0.541322, 0.336423, -2.08286, -2.16541, -0.130039, 0.473052, -0.543016, 0.338199, -2.09124, -2.17821, -0.128501, -0.00458833, 0.0450753, 0.0112895, 0.0304988, -0.00243701, 0.000406784
0.144146, 1.69531, -1.22313, -1.53825, -0.898588, -1.19479, 1.24016, -1.30383, 0.0369131, -0.00169738, -0.00189269, -0.00774602, -0.0624191, 0.0816645, 0.000384578, -0.996025, 54.1309, 25.5167, 6.09711, 1.40552, 2.55771, 0.0431018, -0.00152263, 0.0021627, -0.00209955, -0.00921547, -0.011903, -0.00244422, 0.0495391, -0.0331589, -0.00126939, 0.0395006, 0.114242, 0.0256248, 0.47079, -0.541277, 0.336434, -2.08284, -2.1654, -0.130042, 0.473082, -0.543015, 0.338203, -2.09127, -2.1783, -0.128445, -0.00464891, 0.0456911, 0.0114364, 0.0302014, -0.00164501, 0.00143666
0.145146, 1.69534, -1.22314, -1.53825, -0.898594, -1.19484, 1.24024, -1.30383, 0.0383697, -0.00456525, -0.000443883, -0.00647561, -0.0599493, 0.0801037, -0.000940203, -1.07537, 54.2776, 25.481, 6.13678, 1.41192, 2.55771, 0.0751453, -0.00157182, 0.00219613, -0.0020948, -0.00926384, -0.0119995, -0.00246602, 0.0492275, -0.0340318, -0.00253387, 0.0408258, 0.10874, 0.0288817, 0.470785, -0.541231, 0.336446, -2.08282, -2.16539, -0.130045, 0.473112, -0.543016, 0.338201, -2.0913, -2.17839, -0.128407, -0.00470975, 0.04631, 0.011584, 0.0309548, -0.000486454, 0.000356313
0.146146, 1.69538, -1.22314, -1.53826, -0.898602, -1.1949, 1.24031, -1.30383, 0.0391004, -0.00220827, -0.00290736, -0.00543998, -0.0617571, 0.078558, -0.000396788, -1.15075, 54.2419, 25.5921, 6.17248, 1.40552, 2.56412, 0.0687366, -0.00162106, 0.00222593, -0.00209371, -0.0092989, -0.0121038, -0.00247989, 0.050334, -0.0332897, -0.00209593, 0.0372067, 0.112226, 0.026398, 0.47078, -0.541185, 0.336457, -2.0828, -2.16538, -0.130049, 0.473139, -0.543017, 0.338203, -2.09134, -2.17846, -0.128344, -0.00477085, 0.0469322, 0.0117321, 0.0302086, -0.00105453, 0.000785637
0.147146, 1.69541, -1.22314, -1.53826, -0.898606, -1.19496, 1.24038, -1.30382, 0.0368467, 0.00487374, -0.00815923, -0.00384241, -0.063913, 0.0730928, 0.00118803, -1.22613, 54.2419, 25.5921, 6.17248, 1.41192, 2.56412, 0.0293689, -0.00166978, 0.00225592, -0.00209265, -0.00933576, -0.0122012, -0.00249097, 0.0527368, -0.0294149, 1.7931e-05, 0.0287053, 0.11883, 0.0179048, 0.470776, -0.541138, 0.336469, -2.08277, -2.16537, -0.130052, 0.473166, -0.543017, 0.338205, -2.09137, -2.17854, -0.128291, -0.00483222, 0.0475574, 0.0118809, 0.026442, -0.00328758, 0.00276413
0.148146, 1.69545, -1.22315, -1.53826, -0.898617, -1.19501, 1.24044, -1.30382, 0.0354013, 0.000344321, -0.00512918, -0.00771839, -0.0609249, 0.0695775, 0.000787887, -1.30151, 54.3887, 25.5564, 6.24786, 1.41192, 2.55038, 0.0293689, -0.00171757, 0.00228846, -0.00208679, -0.00937692, -0.0122887, -0.00251426, 0.0517259, -0.0298252, -0.00241166, 0.0278207, 0.110535, 0.0228256, 0.470771, -0.54109, 0.336481, -2.08275, -2.16536, -0.130056, 0.473195, -0.543014, 0.338202, -2.09139, -2.17862, -0.128254, -0.00489384, 0.0481858, 0.0120302, 0.0266645, -0.00126802, 0.00065856
0.149146, 1.69548, -1.22315, -1.53827, -0.89862, -1.19506, 1.24051, -1.30383, 0.0384613, -0.000209047, -0.00808202, -0.00772368, -0.0582791, 0.0628361, -0.00191925, -1.30151, 54.4244, 25.7389, 6.20819, 1.40552, 2.51468, 0.0952869, -0.00177142, 0.00231403, -0.0020806, -0.00940761, -0.0123793, -0.00252788, 0.0504643, -0.0301489, -0.00461179, 0.0202214, 0.105101, 0.0280698, 0.470766, -0.541042, 0.336493, -2.08273, -2.16535, -0.130059, 0.473217, -0.543017, 0.338199, -2.09142, -2.17868, -0.1282, -0.00495572, 0.0488173, 0.01218, 0.0267997, 0.000963195, -0.00117807
0.150146, 1.69552, -1.22316, -1.53826, -0.898631, -1.19511, 1.24057, -1.30382, 0.0374332, -0.00160513, -0.00308482, -0.00662977, -0.0567053, 0.0616973, 0.00115958, -1.41259, 54.4998, 25.6278, 6.24786, 1.40552, 2.50003, 0.0293689, -0.00181619, 0.00234784, -0.00207807, -0.00944786, -0.0124643, -0.00254988, 0.0505554, -0.0302354, -0.00360375, 0.0250485, 0.101704, 0.0260071, 0.470761, -0.540993, 0.336505, -2.0827, -2.16534, -0.130063, 0.473248, -0.543011, 0.338201, -2.09143, -2.17876, -0.128165, -0.00501785, 0.0494519, 0.0123305, 0.0268645, 0.00135583, -5.07071e-05
0.151146, 1.69555, -1.22316, -1.53826, -0.898638, -1.19515, 1.24063, -1.30383, 0.0356407, -0.00251743, -0.00320601, -0.00483431, -0.0555519, 0.0605536, -0.00119537, -1.48797, 54.5712, 25.6675, 6.24786, 1.41192, 2.4927, 0.0824695, -0.00186509, 0.00237751, -0.00207451, -0.00948342, -0.0125491, -0.00257512, 0.0523167, -0.0287823, -0.00398805, 0.0256515, 0.0994329, 0.0254089, 0.470756, -0.540944, 0.336517, -2.08268, -2.16533, -0.130066, 0.473274, -0.543008, 0.338201, -2.09145, -2.17884, -0.128124, -0.00508023, 0.0500896, 0.0124815, 0.0254004, 0.000254884, -0.000510744
0.152146, 1.69559, -1.22316, -1.53827, -0.898652, -1.1952, 1.24068, -1.30383, 0.0342915, -0.00243898, -0.00397386, -0.00436895, -0.0551121, 0.05944, -0.00174766, -1.56335, 54.6109, 25.7389, 6.28357, 1.42383, 2.48538, 0.108104, -0.00191066, 0.00240915, -0.00206758, -0.00950664, -0.0126297, -0.00260211, 0.0536694, -0.0276711, -0.00422493, 0.0247836, 0.0989116, 0.0240532, 0.470751, -0.540894, 0.33653, -2.08266, -2.16532, -0.13007, 0.473302, -0.543, 0.338198, -2.09145, -2.17891, -0.128075, -0.00514285, 0.0507303, 0.012633, 0.0242682, -0.000448408, -0.000771479
0.153146, 1.69562, -1.22316, -1.53826, -0.898659, -1.19523, 1.24073, -1.30383, 0.0338429, -0.00150049, -0.00193858, -0.00547852, -0.0490704, 0.0548657, 0.00100405, -1.52764, 54.6109, 25.7032, 6.24786, 1.39911, 2.46432, 0.0495105, -0.00196057, 0.002436, -0.00206658, -0.0095468, -0.0127081, -0.00261508, 0.0520122, -0.0278927, -0.0035524, 0.0251834, 0.0928877, 0.0248397, 0.470746, -0.540843, 0.336542, -2.08263, -2.16531, -0.130073, 0.473325, -0.542998, 0.338201, -2.09147, -2.17897, -0.128045, -0.00520573, 0.051374, 0.0127851, 0.0243919, 0.00173659, 0.000295092
0.154146, 1.69565, -1.22316, -1.53826, -0.898671, -1.19527, 1.24078, -1.30383, 0.0313783, -0.000906207, -0.00138581, -0.0040912, -0.0463322, 0.0511836, 0.000905992, -1.52764, 54.6109, 25.7032, 6.24786, 1.42383, 2.44235, 0.0431018, -0.00200797, 0.00246463, -0.00206409, -0.0095785, -0.0127856, -0.00263918, 0.0530975, -0.025959, -0.0030651, 0.0249611, 0.0895269, 0.0224975, 0.470741, -0.540792, 0.336555, -2.08261, -2.1653, -0.130077, 0.47335, -0.542991, 0.338203, -2.09148, -2.17904, -0.128007, -0.00526884, 0.0520207, 0.0129378, 0.0224549, 0.00115716, 0.000817487
0.155146, 1.69568, -1.22317, -1.53826, -0.898689, -1.1953, 1.24083, -1.30383, 0.0354094, -0.00396722, -0.000158723, -0.00790967, -0.0428395, 0.0477226, -0.00109198, -1.63873, 54.7577, 25.6675, 6.32324, 1.41192, 2.44235, 0.0888782, -0.00205179, 0.00249701, -0.00205442, -0.00960574, -0.0128471, -0.00268001, 0.0498162, -0.0291576, -0.00555096, 0.0221087, 0.0825897, 0.0336607, 0.470735, -0.54074, 0.336568, -2.08258, -2.16528, -0.130081, 0.473379, -0.54298, 0.338199, -2.09145, -2.17912, -0.127983, -0.0053322, 0.0526704, 0.0130909, 0.0253761, 0.00556345, -0.00107109
0.156146, 1.69571, -1.22317, -1.53826, -0.898701, -1.19534, 1.24087, -1.30383, 0.0324796, -0.00175665, -0.000993583, -0.00882908, -0.041473, 0.0457469, -0.00120312, -1.63873, 54.722, 25.7032, 6.32324, 1.43024, 2.42862, 0.101696, -0.00210018, 0.00252519, -0.00205163, -0.00963624, -0.0129232, -0.00270513, 0.0510085, -0.0273653, -0.00474587, 0.0206346, 0.083092, 0.0317595, 0.47073, -0.540687, 0.336581, -2.08255, -2.16527, -0.130085, 0.473403, -0.542973, 0.338201, -2.09146, -2.17919, -0.127946, -0.0053958, 0.0533231, 0.0132446, 0.0235954, 0.00484097, -0.000254983
0.157146, 1.69575, -1.22317, -1.53826, -0.898711, -1.19537, 1.24092, -1.30383, 0.0344914, -0.00196661, -0.00153702, -0.00787204, -0.0405137, 0.048518, 0.00136775, -1.6784, 54.7577, 25.7389, 6.24786, 1.45404, 2.41397, 0.0431018, -0.00214927, 0.00255276, -0.00204564, -0.00966317, -0.0129911, -0.00272127, 0.0512956, -0.028843, -0.00483052, 0.0233108, 0.083801, 0.0304674, 0.470725, -0.540634, 0.336594, -2.08253, -2.16526, -0.130089, 0.473427, -0.542966, 0.338199, -2.09146, -2.17924, -0.127913, -0.00545963, 0.0539787, 0.0133988, 0.0250147, 0.0052879, -0.000276342
0.158146, 1.69577, -1.22317, -1.53826, -0.898727, -1.19539, 1.24096, -1.30383, 0.0308964, -0.00211651, -0.00105424, -0.00991813, -0.0382917, 0.0465945, -0.00102118, -1.63873, 54.7934, 25.7389, 6.28357, 1.43573, 2.39291, 0.0952869, -0.00219659, 0.00258082, -0.00203968, -0.00969294, -0.0130524, -0.00275534, 0.0522461, -0.0273111, -0.00506827, 0.0227839, 0.0812775, 0.03212, 0.470719, -0.54058, 0.336608, -2.0825, -2.16525, -0.130092, 0.473451, -0.542957, 0.338198, -2.09145, -2.17932, -0.127891, -0.00552369, 0.0546373, 0.0135535, 0.0234464, 0.00498224, -0.000459065
0.159146, 1.6958, -1.22317, -1.53825, -0.898744, -1.19541, 1.241, -1.30383, 0.0302519, 0.000281763, 0.00187346, -0.012878, -0.0334308, 0.0449577, -0.00139304, -1.6784, 54.722, 25.6278, 6.24786, 1.44855, 2.37094, 0.114513, -0.00223985, 0.00261112, -0.00204231, -0.0097288, -0.0131203, -0.00279325, 0.0503454, -0.0283699, -0.00319999, 0.0252322, 0.0792451, 0.0374852, 0.470714, -0.540525, 0.336621, -2.08248, -2.16524, -0.130096, 0.473477, -0.542944, 0.338207, -2.09143, -2.1794, -0.12787, -0.00558799, 0.0552987, 0.0137087, 0.0244403, 0.00727458, 0.00180336
0.160146, 1.69583, -1.22317, -1.53826, -0.898769, -1.19543, 1.24103, -1.30383, 0.0247325, -0.00146584, 0.0016678, -0.0145804, -0.0295395, 0.0439551, 0.00052924, -1.63873, 54.7934, 25.7389, 6.32324, 1.45404, 2.34256, 0.0751453, -0.00228737, 0.00263794, -0.00203376, -0.00974715, -0.0131809, -0.0028194, 0.0523331, -0.0259447, -0.00439162, 0.0260247, 0.0741659, 0.0328701, 0.470708, -0.54047, 0.336635, -2.08245, -2.16522, -0.1301, 0.4735, -0.542933, 0.338204, -2.09142, -2.17945, -0.127835, -0.00565251, 0.0559631, 0.0138645, 0.0219816, 0.00606185, 0.000545458
0.161146, 1.69587, -1.22317, -1.53826, -0.898782, -1.19545, 1.24107, -1.30382, 0.0243279, -0.00179988, -0.000411016, -0.0144229, -0.0263833, 0.0380481, 0.00181079, -1.75378, 54.8291, 25.8143, 6.20819, 1.45404, 2.32791, 0.0357776, -0.00233215, 0.00266936, -0.00202694, -0.00977326, -0.0132355, -0.00284677, 0.0524871, -0.0246446, -0.00587251, 0.0208046, 0.0687826, 0.0311447, 0.470702, -0.540414, 0.336649, -2.08242, -2.16521, -0.130104, 0.473527, -0.542919, 0.338203, -2.09141, -2.17951, -0.127816, -0.00571726, 0.0566303, 0.0140207, 0.0205693, 0.00675339, -0.000745678
0.162146, 1.69589, -1.22317, -1.53826, -0.898799, -1.19546, 1.2411, -1.30383, 0.020138, -0.00211852, 0.00166949, -0.0156497, -0.0202287, 0.0388699, -0.000996927, -1.7141, 54.8688, 25.7389, 6.13678, 1.46686, 2.29953, 0.0952869, -0.0023802, 0.00269478, -0.00202504, -0.00980789, -0.0132892, -0.00288416, 0.0531428, -0.0238183, -0.00525182, 0.0263554, 0.0640334, 0.0339881, 0.470697, -0.540357, 0.336663, -2.08239, -2.1652, -0.130108, 0.473549, -0.542909, 0.338207, -2.09138, -2.17958, -0.127808, -0.00578224, 0.0573004, 0.0141774, 0.019726, 0.00664635, -5.47222e-05
0.163146, 1.69592, -1.22316, -1.53826, -0.898823, -1.19548, 1.24114, -1.30383, 0.0181544, 0.0017577, 0.00440126, -0.0181624, -0.0157878, 0.0441792, 0.000318671, -1.7141, 54.8688, 25.7389, 6.13678, 1.48517, 2.27023, 0.0687366, -0.00242534, 0.00272451, -0.00202095, -0.00983596, -0.0133464, -0.00291681, 0.0526777, -0.0251804, -0.0018146, 0.0350289, 0.0671906, 0.0357218, 0.470691, -0.5403, 0.336677, -2.08237, -2.16519, -0.130113, 0.473574, -0.542894, 0.338209, -2.09137, -2.17965, -0.127788, -0.00584743, 0.0579733, 0.0143346, 0.0211318, 0.00730229, 0.00352466
0.164146, 1.69594, -1.22316, -1.53826, -0.898848, -1.19548, 1.24117, -1.30383, 0.0190672, 0.000605466, 0.000607073, -0.0232535, -0.0121839, 0.0383418, 0.00116184, -1.6784, 54.9045, 25.8539, 6.13678, 1.49707, 2.24917, 0.0431018, -0.00247238, 0.00275065, -0.00201365, -0.00985524, -0.0133967, -0.00294995, 0.0510466, -0.0255795, -0.00518914, 0.0258237, 0.0612653, 0.0396758, 0.470685, -0.540242, 0.336692, -2.08234, -2.16517, -0.130117, 0.473596, -0.54288, 0.338207, -2.09134, -2.17971, -0.127766, -0.00591285, 0.058649, 0.0144922, 0.0212813, 0.0101283, 0.000592083
0.165146, 1.69596, -1.22315, -1.53826, -0.898868, -1.19549, 1.2412, -1.30382, 0.0196523, 0.00144052, 0.00160585, -0.0243159, -0.00951069, 0.0337775, 6.24531e-05, -1.63873, 54.8688, 25.8143, 6.02173, 1.50989, 2.23453, 0.0623279, -0.00251947, 0.00277791, -0.00201371, -0.00989176, -0.0134504, -0.00298347, 0.0498731, -0.025816, -0.00499008, 0.0236006, 0.0580424, 0.0436832, 0.470679, -0.540183, 0.336706, -2.08231, -2.16516, -0.130121, 0.473619, -0.542867, 0.338214, -2.09132, -2.17977, -0.12776, -0.00597848, 0.0593275, 0.0146504, 0.0214171, 0.0119446, 0.00112136
0.166146, 1.69599, -1.22316, -1.53826, -0.898899, -1.1955, 1.24123, -1.30383, 0.0211695, -0.00399251, 0.000347386, -0.0258164, -0.00702551, 0.0317655, -0.00141645, -1.63873, 55.087, 25.8539, 6.0614, 1.50989, 2.18417, 0.101696, -0.00256533, 0.00280692, -0.00200141, -0.00991415, -0.0134883, -0.00302963, 0.0495482, -0.0268431, -0.00916435, 0.0206465, 0.0502119, 0.0483226, 0.470673, -0.540124, 0.336721, -2.08228, -2.16515, -0.130125, 0.473643, -0.54285, 0.338208, -2.09127, -2.17984, -0.127756, -0.00604433, 0.0600088, 0.0148089, 0.0222104, 0.0136372, -0.00282353
0.167146, 1.69601, -1.22315, -1.53826, -0.898922, -1.19549, 1.24126, -1.30382, 0.021169, 0.00229265, -0.000449999, -0.0240109, -0.00519747, 0.0290081, 0.00122582, -1.60302, 55.0156, 25.8896, 5.98602, 1.50989, 2.16311, 0.0431018, -0.00261286, 0.00283253, -0.00200116, -0.00994458, -0.0135399, -0.00305643, 0.0496928, -0.0259227, -0.00579128, 0.0199693, 0.0538555, 0.0442898, 0.470667, -0.540064, 0.336735, -2.08225, -2.16513, -0.130129, 0.473664, -0.542836, 0.338214, -2.09126, -2.1799, -0.127744, -0.00611038, 0.0606929, 0.014968, 0.0213557, 0.0136177, 0.000669727
0.168146, 1.69603, -1.22315, -1.53825, -0.898953, -1.1955, 1.24129, -1.30383, 0.0191324, 0.00173063, 0.00556551, -0.0276064, -0.00452849, 0.0319262, 0.000579842, -1.60302, 55.1624, 25.7786, 5.98602, 1.5282, 2.13473, 0.0495105, -0.00265833, 0.00286173, -0.00199477, -0.00997814, -0.0135782, -0.00310524, 0.0491873, -0.0272976, -0.00416523, 0.026787, 0.0543877, 0.0492584, 0.470661, -0.540003, 0.33675, -2.08222, -2.16512, -0.130134, 0.473689, -0.542818, 0.338215, -2.09121, -2.17997, -0.127752, -0.00617665, 0.0613797, 0.0151275, 0.0227049, 0.0146087, 0.00246919
0.169146, 1.69604, -1.22314, -1.53825, -0.898987, -1.1955, 1.24131, -1.30383, 0.0188619, 0.0016896, 0.00322419, -0.031185, -0.003308, 0.0294669, -0.00154623, -1.52764, 55.1624, 25.8143, 6.02173, 1.5282, 2.10544, 0.101696, -0.00270632, 0.00288675, -0.00199262, -0.0100059, -0.013628, -0.00314729, 0.0489532, -0.0272729, -0.00578238, 0.021653, 0.0529597, 0.0535911, 0.470655, -0.539942, 0.336766, -2.08219, -2.1651, -0.130138, 0.473709, -0.542802, 0.338219, -2.09118, -2.18004, -0.127742, -0.00624313, 0.0620692, 0.0152874, 0.0225453, 0.0157798, 0.00106845
0.170146, 1.69606, -1.22314, -1.53825, -0.899016, -1.19549, 1.24134, -1.30383, 0.0165931, 0.00462671, 0.000648024, -0.0312533, -0.00218473, 0.0259805, -4.7482e-05, -1.48797, 55.1624, 25.8896, 5.95032, 1.52179, 2.12008, 0.0751453, -0.00275622, 0.00290956, -0.00198837, -0.01003, -0.0136708, -0.00317692, 0.0503343, -0.0250409, -0.00522174, 0.0176177, 0.0537205, 0.049059, 0.470649, -0.53988, 0.336781, -2.08216, -2.16509, -0.130143, 0.473728, -0.542788, 0.338222, -2.09115, -2.18009, -0.127733, -0.00630981, 0.0627614, 0.0154478, 0.0203205, 0.0149299, 0.00163383
0.171146, 1.69607, -1.22313, -1.53824, -0.899053, -1.19549, 1.24136, -1.30382, 0.0149769, 0.00505256, 0.0023916, -0.0330601, -0.00185641, 0.0240945, 0.000917776, -1.45226, 55.2377, 25.8143, 5.95032, 1.5282, 2.12008, 0.0495105, -0.00280238, 0.0029372, -0.00198527, -0.0100606, -0.013714, -0.00322033, 0.0505629, -0.0245712, -0.00473902, 0.0172448, 0.0532939, 0.0490753, 0.470642, -0.539817, 0.336796, -2.08213, -2.16508, -0.130147, 0.473751, -0.542769, 0.338226, -2.09111, -2.18016, -0.127732, -0.00637669, 0.0634563, 0.0156086, 0.019811, 0.0153053, 0.00224828
0.172146, 1.69608, -1.22313, -1.53823, -0.899088, -1.19549, 1.24138, -1.30383, 0.0136893, 0.00554867, 0.00174167, -0.0334338, -0.000918722, 0.0270634, -0.000608857, -1.41259, 55.3091, 25.8143, 5.91064, 1.5163, 2.12741, 0.0824695, -0.00285241, 0.00296091, -0.00198185, -0.0100869, -0.013759, -0.00326185, 0.0519506, -0.0244973, -0.0044387, 0.0199008, 0.0549022, 0.0497224, 0.470636, -0.539753, 0.336812, -2.0821, -2.16506, -0.130152, 0.47377, -0.542754, 0.338229, -2.09108, -2.18022, -0.127724, -0.00644377, 0.0641539, 0.0157699, 0.0197316, 0.0145841, 0.00248925
0.173146, 1.69609, -1.22312, -1.53823, -0.899133, -1.19549, 1.24141, -1.30383, 0.0126777, 0.00504553, 0.00348798, -0.0387156, -0.000907375, 0.0249469, -0.00183006, -1.37688, 55.4202, 25.8539, 5.95032, 1.52179, 2.12741, 0.120922, -0.00290119, 0.00298555, -0.00197525, -0.0101045, -0.0138041, -0.00331379, 0.0510073, -0.0250892, -0.00504386, 0.0173533, 0.054022, 0.0554773, 0.470629, -0.539689, 0.336828, -2.08207, -2.16505, -0.130156, 0.473789, -0.542736, 0.33823, -2.09102, -2.1803, -0.127708, -0.00651106, 0.0648541, 0.0159315, 0.020199, 0.0163345, 0.00218104
0.174146, 1.69611, -1.22311, -1.53822, -0.899172, -1.19549, 1.24143, -1.30383, 0.0130142, 0.00253993, 0.00267019, -0.03966, -0.000470049, 0.0286682, -0.000507966, -1.37688, 55.4916, 25.8539, 5.87494, 1.5163, 2.11276, 0.101696, -0.00295087, 0.00301127, -0.00197272, -0.0101321, -0.0138526, -0.00335543, 0.0520103, -0.0261649, -0.00666903, 0.0195345, 0.0535134, 0.0551781, 0.470623, -0.539624, 0.336844, -2.08204, -2.16503, -0.130161, 0.47381, -0.542718, 0.338235, -2.09099, -2.18036, -0.127699, -0.00657853, 0.0655569, 0.0160936, 0.0211815, 0.016345, 0.000546354
0.175146, 1.69611, -1.2231, -1.53822, -0.899219, -1.19549, 1.24145, -1.30383, 0.0102663, 0.00543031, 0.00448628, -0.039333, 0.00348095, 0.0263038, -0.000101287, -1.26183, 55.4916, 25.8896, 5.87494, 1.5282, 2.10544, 0.0952869, -0.00300262, 0.00303295, -0.00197381, -0.0101589, -0.0139081, -0.00339144, 0.0523684, -0.0248647, -0.0043976, 0.0218854, 0.0521253, 0.0539637, 0.470616, -0.539559, 0.33686, -2.082, -2.16502, -0.130166, 0.473827, -0.542703, 0.338243, -2.09096, -2.18043, -0.127681, -0.0066462, 0.0662624, 0.0162561, 0.0199133, 0.0162909, 0.00293372
0.176146, 1.69612, -1.2231, -1.53821, -0.899263, -1.19549, 1.24147, -1.30383, 0.00894721, 0.00703487, 0.0034584, -0.0412141, 0.00263927, 0.0290625, -0.00101696, -1.30151, 55.6424, 25.8896, 5.83527, 1.5282, 2.10544, 0.120922, -0.00305234, 0.00305873, -0.00196843, -0.0101835, -0.0139505, -0.00344049, 0.053632, -0.0247873, -0.00380484, 0.022594, 0.0563518, 0.0545063, 0.47061, -0.539493, 0.336876, -2.08197, -2.165, -0.13017, 0.473848, -0.542684, 0.338245, -2.09091, -2.1805, -0.127675, -0.00671407, 0.0669704, 0.016419, 0.0198361, 0.0156571, 0.00348429
0.177146, 1.69612, -1.22308, -1.5382, -0.899313, -1.19549, 1.2415, -1.30382, 0.00908971, 0.00983679, 0.00499902, -0.0428136, 0.00199849, 0.0266561, 0.0012548, -1.26183, 55.6027, 25.9253, 5.79956, 1.5282, 2.09903, 0.0687366, -0.00310341, 0.00308113, -0.00197071, -0.0102059, -0.014009, -0.00347768, 0.0530971, -0.0249747, -0.00210511, 0.0211928, 0.0588768, 0.0543227, 0.470603, -0.539426, 0.336892, -2.08194, -2.16499, -0.130175, 0.473866, -0.542667, 0.338255, -2.09088, -2.18057, -0.127649, -0.00678212, 0.0676811, 0.0165822, 0.0199996, 0.0166399, 0.00540152
0.178146, 1.69613, -1.22306, -1.5382, -0.899359, -1.19549, 1.24152, -1.30382, 0.0052218, 0.0117421, 0.00525777, -0.0430945, 0.00151156, 0.025444, 0.00107389, -1.18645, 55.567, 26.0007, 5.72418, 1.5282, 2.07705, 0.0623279, -0.00315771, 0.0031014, -0.00197374, -0.0102313, -0.0140688, -0.00351406, 0.0552069, -0.0226416, -0.000880438, 0.0209123, 0.0608588, 0.0509247, 0.470596, -0.539358, 0.336909, -2.0819, -2.16497, -0.13018, 0.473881, -0.542652, 0.338265, -2.09085, -2.18063, -0.127625, -0.00685036, 0.0683942, 0.0167459, 0.0177237, 0.0149841, 0.00651439
0.179146, 1.69613, -1.22305, -1.53819, -0.899415, -1.19548, 1.24154, -1.30383, 0.00417512, 0.0116797, 0.00546146, -0.0460877, 0.000463962, 0.0290095, -3.00561e-05, -1.18645, 55.7138, 26.0761, 5.76385, 1.54651, 2.06241, 0.0824695, -0.00320996, 0.00312473, -0.00196916, -0.0102513, -0.0141179, -0.00356385, 0.0560517, -0.0233383, -0.000929435, 0.0225953, 0.0640149, 0.0534474, 0.470589, -0.53929, 0.336926, -2.08187, -2.16495, -0.130185, 0.4739, -0.542634, 0.338268, -2.0908, -2.18071, -0.127608, -0.00691878, 0.06911, 0.01691, 0.0183801, 0.0149031, 0.00647385
0.180146, 1.69612, -1.22304, -1.53818, -0.899471, -1.19548, 1.24156, -1.30383, 0.00154061, 0.0135682, 0.00579765, -0.0504212, 0.00108829, 0.0273788, -0.000969474, -1.11108, 55.7892, 26.1515, 5.76385, 1.5282, 2.03403, 0.108104, -0.00326544, 0.00314532, -0.00196888, -0.0102784, -0.0141736, -0.00360821, 0.0561266, -0.022671, -0.000363251, 0.0204263, 0.0652393, 0.0559837, 0.470582, -0.53922, 0.336943, -2.08184, -2.16494, -0.13019, 0.473915, -0.542619, 0.338276, -2.09076, -2.18078, -0.127591, -0.00698738, 0.0698282, 0.0170744, 0.0176693, 0.0154321, 0.00720429
0.181146, 1.69612, -1.22303, -1.53816, -0.899526, -1.19548, 1.24158, -1.30383, 0.000582186, 0.0142877, 0.00960523, -0.052481, 0.000563785, 0.0247849, 0.00030312, -1.07537, 55.9003, 26.0761, 5.72418, 1.53461, 2.04135, 0.0824695, -0.00331904, 0.00316677, -0.00197147, -0.0103121, -0.0142235, -0.00365145, 0.0556415, -0.022758, 0.000891666, 0.0206647, 0.0653687, 0.0572672, 0.470575, -0.539151, 0.33696, -2.0818, -2.16492, -0.130195, 0.473932, -0.542601, 0.338286, -2.09072, -2.18085, -0.127588, -0.00705617, 0.0705489, 0.0172392, 0.0177172, 0.0164406, 0.00867917
0.182146, 1.69611, -1.22301, -1.53815, -0.89958, -1.19548, 1.2416, -1.30382, -0.000247149, 0.015801, 0.0117706, -0.0526357, 0.000432567, 0.0187745, 0.000948065, -1.0357, 55.9717, 26.1515, 5.6131, 1.53461, 2.03403, 0.0623279, -0.00337564, 0.003186, -0.00197441, -0.0103401, -0.0142811, -0.00368931, 0.0555113, -0.0216091, 0.00197928, 0.0176257, 0.064238, 0.0569559, 0.470568, -0.53908, 0.336977, -2.08177, -2.16491, -0.1302, 0.473946, -0.542586, 0.338296, -2.09069, -2.18092, -0.127569, -0.00712513, 0.0712721, 0.0174044, 0.0165372, 0.0170759, 0.00997234
0.183146, 1.69611, -1.22299, -1.53814, -0.899643, -1.19548, 1.24162, -1.30383, -0.00300548, 0.017811, 0.0158213, -0.0555544, -0.000347258, 0.022669, -0.0015381, -1.0357, 56.0074, 26.2626, 5.6131, 1.55292, 2.056, 0.120922, -0.00343041, 0.00320641, -0.00197583, -0.0103584, -0.0143416, -0.00374277, 0.0561164, -0.0220496, 0.00464891, 0.0235475, 0.0691005, 0.0610108, 0.470561, -0.539009, 0.336994, -2.08173, -2.16489, -0.130205, 0.473961, -0.542568, 0.338306, -2.09064, -2.181, -0.127539, -0.00719427, 0.0719978, 0.0175699, 0.0170304, 0.0168079, 0.0126623
0.184146, 1.6961, -1.22298, -1.53813, -0.899709, -1.19548, 1.24164, -1.30383, -0.00614936, 0.0175891, 0.0128115, -0.0616114, 3.77533e-05, 0.0167792, -0.0010254, -0.996025, 56.1185, 26.3736, 5.6488, 1.54651, 2.06241, 0.120922, -0.003486, 0.00322654, -0.00197509, -0.01038, -0.0143951, -0.00379392, 0.0564438, -0.0201369, 0.00217909, 0.0137288, 0.0666787, 0.061432, 0.470554, -0.538937, 0.337012, -2.0817, -2.16487, -0.13021, 0.473976, -0.54255, 0.338313, -2.09059, -2.18108, -0.127519, -0.00726359, 0.0727259, 0.0177358, 0.0149707, 0.0175179, 0.0103967
0.185146, 1.69609, -1.22296, -1.53811, -0.899778, -1.19548, 1.24165, -1.30382, -0.00526316, 0.0217844, 0.0133495, -0.0606381, -0.000866434, 0.0162222, 0.0017239, -0.960319, 56.0471, 26.3736, 5.72418, 1.57123, 2.0917, 0.0559192, -0.00353899, 0.00324828, -0.00198219, -0.0104013, -0.0144633, -0.00383797, 0.0566783, -0.0202691, 0.00483481, 0.0141718, 0.0716035, 0.0586719, 0.470547, -0.538864, 0.33703, -2.08166, -2.16485, -0.130215, 0.473993, -0.54253, 0.338329, -2.09055, -2.18116, -0.127484, -0.00733307, 0.0734565, 0.0179021, 0.0151418, 0.0176097, 0.0131414
0.186146, 1.69609, -1.22295, -1.53809, -0.899839, -1.19548, 1.24167, -1.30383, -0.00291984, 0.0162539, 0.0149671, -0.062382, -0.000559679, 0.0172377, 0.000437189, -0.996025, 56.1938, 26.449, 5.6488, 1.57123, 2.08438, 0.0751453, -0.00359723, 0.00326809, -0.00198057, -0.0104258, -0.0145142, -0.0038846, 0.0561069, -0.0226276, 0.00182767, 0.0151259, 0.0668384, 0.0648231, 0.470539, -0.538791, 0.337048, -2.08163, -2.16484, -0.13022, 0.474008, -0.542513, 0.338335, -2.09051, -2.18123, -0.127469, -0.00740272, 0.0741894, 0.0180686, 0.0172943, 0.0194733, 0.010353
