alisrour97/Franka_experiments/Real_Robot_scripts/servo-franka/Data3/log_dyn_INIT0_l_ki_9.csv
Time,q1,q2,q3,q4,q5,q6,q7,dq1,dq2,dq3,dq4,dq5,dq6,dq7,t1,t2,t3,t4,t5,t6,t7,ex1,ex2,ex3,ex4,ex5,ex6,ev1,ev2,ev3,ev4,ev5,ev6,xd,yd,zd,uxd,uyd,uzd,x,y,z,ux,uy,uz,vxd,vyd,vzd,vx,vy,vz
2.44141e-07, 1.69137, -1.22732, -1.54001, -0.900499, -1.19195, 1.22808, -1.30263, -0.000630057, 0.00105694, 0.00344875, -0.00152975, 0.00125179, -6.48013e-05, 0.000471602, -0.845268, 63.0811, 32.2175, 7.70386, 2.28992, 3.80466, -0.193104, 0.000512811, -0.0018822, 0.00192394, 0.00277477, 0.00120799, 0.000574014, -0.00123937, -0.000707253, 0.00165801, 0.00300205, -0.000109863, 0.0023044, 0.471008, -0.543389, 0.335894, -2.08385, -2.16584, -0.129887, 0.469031, -0.542674, 0.334134, -2.08239, -2.16345, -0.127962, -4.82042e-07, 4.44613e-06, 1.21621e-06, 0.000721389, 0.00100173, 0.0018094
0.0120623, 1.6914, -1.2273, -1.53998, -0.900511, -1.19195, 1.22808, -1.30263, 0.00127998, 0.00227063, 0.00704696, -0.00298238, 0.000449327, -0.000450051, -0.00190149, -0.960319, 62.9343, 32.0707, 7.73956, 2.2652, 3.81198, -0.147328, 0.000539424, -0.00185651, 0.00190439, 0.00275173, 0.0011941, 0.000516207, -0.00325063, -0.00255619, 0.0033098, 0.00455516, 0.00152244, 0.00927574, 0.471008, -0.543389, 0.335894, -2.08385, -2.16584, -0.129887, 0.469066, -0.54264, 0.334153, -2.08232, -2.16355, -0.127992, -1.47349e-06, 1.36697e-05, 3.70923e-06, 0.00255466, 0.00281795, 0.00369935
0.0130623, 1.6914, -1.2273, -1.53998, -0.900511, -1.19195, 1.22808, -1.30263, 0.00127998, 0.00227063, 0.00704696, -0.00298238, 0.000449327, -0.000450051, -0.00190149, -0.960319, 62.9343, 32.0707, 7.73956, 2.2652, 3.81198, -0.147328, 0.000539416, -0.00185651, 0.00190439, 0.00275173, 0.0011941, 0.000516207, -0.00323688, -0.00255718, 0.00330836, 0.0045571, 0.00152861, 0.00927688, 0.471008, -0.543389, 0.335894, -2.08385, -2.16584, -0.129887, 0.469066, -0.54264, 0.334153, -2.08232, -2.16355, -0.127992, -2.9032e-06, 2.69793e-05, 7.30333e-06, 0.00255466, 0.00281795, 0.00369935
0.0140623, 1.6914, -1.2273, -1.53998, -0.900511, -1.19195, 1.22808, -1.30263, 0.00127998, 0.00227063, 0.00704696, -0.00298238, 0.000449327, -0.000450051, -0.00190149, -0.960319, 62.9343, 32.0707, 7.73956, 2.2652, 3.81198, -0.147328, 0.000539396, -0.00185651, 0.00190439, 0.00275173, 0.00119409, 0.00051621, -0.00321826, -0.00255853, 0.0033064, 0.00455974, 0.00153699, 0.00927842, 0.471008, -0.543389, 0.335894, -2.08385, -2.16584, -0.129887, 0.469066, -0.54264, 0.334153, -2.08232, -2.16355, -0.127992, -4.83863e-06, 4.50071e-05, 1.21677e-05, 0.00255466, 0.00281795, 0.00369935
0.0150623, 1.6914, -1.2273, -1.53998, -0.900511, -1.19195, 1.22808, -1.30263, 0.00127998, 0.00227063, 0.00704696, -0.00298238, 0.000449327, -0.000450051, -0.00190149, -0.960319, 62.9343, 32.0707, 7.73956, 2.2652, 3.81198, -0.147328, 0.000539357, -0.00185651, 0.0019044, 0.00275172, 0.00119408, 0.000516214, -0.00319418, -0.00256026, 0.00330387, 0.00456317, 0.00154782, 0.00928042, 0.471008, -0.543389, 0.335894, -2.08385, -2.16584, -0.129887, 0.469066, -0.54264, 0.334153, -2.08232, -2.16355, -0.127992, -7.34058e-06, 6.83239e-05, 1.84546e-05, 0.00255466, 0.00281795, 0.00369935
0.016063, 1.6914, -1.2273, -1.53998, -0.900511, -1.19195, 1.22808, -1.30263, 0.00127998, 0.00227063, 0.00704696, -0.00298238, 0.000449327, -0.000450051, -0.00190149, -0.960319, 62.9343, 32.0707, 7.73956, 2.2652, 3.81198, -0.147328, 0.000539292, -0.0018565, 0.0019044, 0.0027517, 0.00119405, 0.000516222, -0.00316413, -0.00256242, 0.00330072, 0.00456745, 0.00156135, 0.00928292, 0.471008, -0.543389, 0.335894, -2.08385, -2.16584, -0.129887, 0.469066, -0.54264, 0.334153, -2.08232, -2.16355, -0.127992, -1.04607e-05, 9.7416e-05, 2.62933e-05, 0.00255466, 0.00281795, 0.00369935
0.017063, 1.6914, -1.2273, -1.53998, -0.900511, -1.19195, 1.22808, -1.30263, 0.00127998, 0.00227063, 0.00704696, -0.00298238, 0.000449327, -0.000450051, -0.00190149, -0.960319, 62.9343, 32.0707, 7.73956, 2.2652, 3.81198, -0.147328, 0.000539196, -0.00185649, 0.00190441, 0.00275168, 0.00119402, 0.000516233, -0.00312772, -0.00256504, 0.00329691, 0.00457266, 0.00157775, 0.00928594, 0.471008, -0.543389, 0.335894, -2.08385, -2.16584, -0.129887, 0.469066, -0.54264, 0.334153, -2.08232, -2.16355, -0.127992, -1.42391e-05, 0.000132663, 3.57838e-05, 0.00255466, 0.00281795, 0.00369935
0.018063, 1.6914, -1.2273, -1.53998, -0.900511, -1.19195, 1.22808, -1.30263, 0.00127998, 0.00227063, 0.00704696, -0.00298238, 0.000449327, -0.000450051, -0.00190149, -0.960319, 62.9343, 32.0707, 7.73956, 2.2652, 3.81198, -0.147328, 0.000539061, -0.00185648, 0.00190443, 0.00275164, 0.00119397, 0.000516249, -0.00308471, -0.00256813, 0.00329241, 0.00457882, 0.00159714, 0.00928951, 0.471008, -0.543389, 0.335894, -2.08385, -2.16584, -0.129887, 0.469066, -0.54264, 0.334153, -2.08232, -2.16355, -0.127992, -1.87016e-05, 0.000174312, 4.69907e-05, 0.00255466, 0.00281795, 0.00369935
0.0190632, 1.6914, -1.2273, -1.53998, -0.900511, -1.19195, 1.22808, -1.30263, 0.00127998, 0.00227063, 0.00704696, -0.00298238, 0.000449327, -0.000450051, -0.00190149, -0.960319, 62.9343, 32.0707, 7.73956, 2.2652, 3.81198, -0.147328, 0.000538883, -0.00185647, 0.00190445, 0.00275159, 0.00119391, 0.00051627, -0.00303498, -0.0025717, 0.00328723, 0.00458597, 0.00161957, 0.00929363, 0.471008, -0.543389, 0.335894, -2.08385, -2.16584, -0.129887, 0.469066, -0.54264, 0.334153, -2.08232, -2.16355, -0.127992, -2.38577e-05, 0.00022246, 5.99368e-05, 0.00255466, 0.00281795, 0.00369935
0.0200632, 1.6914, -1.2273, -1.53998, -0.900511, -1.19195, 1.22808, -1.30263, 0.00127998, 0.00227063, 0.00704696, -0.00298238, 0.000449327, -0.000450051, -0.00190149, -0.960319, 62.9343, 32.0707, 7.73956, 2.2652, 3.81198, -0.147328, 0.000538654, -0.00185646, 0.00190447, 0.00275153, 0.00119383, 0.000516297, -0.00297863, -0.00257574, 0.00328136, 0.00459409, 0.001645, 0.00929831, 0.471008, -0.543389, 0.335894, -2.08385, -2.16584, -0.129887, 0.469066, -0.54264, 0.334153, -2.08232, -2.16355, -0.127992, -2.96979e-05, 0.000277024, 7.45974e-05, 0.00255466, 0.00281795, 0.00369935
0.0210632, 1.6914, -1.2273, -1.53998, -0.900511, -1.19195, 1.22808, -1.30263, 0.00127998, 0.00227063, 0.00704696, -0.00298238, 0.000449327, -0.000450051, -0.00190149, -0.960319, 62.9343, 32.0707, 7.73956, 2.2652, 3.81198, -0.147328, 0.000538368, -0.00185643, 0.0019045, 0.00275146, 0.00119373, 0.000516331, -0.00291594, -0.00258023, 0.00327485, 0.00460316, 0.00167332, 0.00930352, 0.471008, -0.543388, 0.335894, -2.08385, -2.16584, -0.129887, 0.469066, -0.54264, 0.334153, -2.08232, -2.16355, -0.127992, -3.61913e-05, 0.000337726, 9.08941e-05, 0.00255466, 0.00281795, 0.00369935
0.0220632, 1.69144, -1.22729, -1.53994, -0.900508, -1.19195, 1.22809, -1.30263, 0.000246078, 0.000413154, 0.00244789, 0.00101001, 0.00028534, -6.20774e-05, -0.000520757, -1.0357, 62.7875, 32.1064, 7.66418, 2.25238, 3.80466, -0.160145, 0.000561248, -0.00183145, 0.00188595, 0.00272218, 0.00118324, 0.000465447, -2.50002e-06, -0.000388123, 0.00118875, 0.00275576, 9.70371e-05, 0.00117967, 0.471008, -0.543388, 0.335894, -2.08385, -2.16584, -0.129887, 0.469091, -0.542619, 0.334174, -2.08229, -2.16362, -0.128019, -4.33151e-05, 0.00040436, 0.000108769, 0.000387127, 0.000239738, 0.00127126
0.0230632, 1.69144, -1.22729, -1.53994, -0.900508, -1.19195, 1.22808, -1.30262, 0.000191281, 0.00027488, 0.000922628, 0.00150329, 0.000190226, -0.000312652, 0.00158544, -1.0357, 62.7875, 32.1421, 7.62848, 2.25238, 3.81198, -0.21233, 0.000563292, -0.00182945, 0.00188684, 0.00272679, 0.00118493, 0.000465851, 0.00056562, 7.06726e-05, 0.000608531, 0.00140127, 3.3571e-06, -0.00216938, 0.471008, -0.543388, 0.335894, -2.08385, -2.16584, -0.129887, 0.469093, -0.542616, 0.334174, -2.08228, -2.16362, -0.128015, -5.10658e-05, 0.000476901, 0.000128212, -7.94569e-05, -0.000178054, 0.000643439
0.0240632, 1.69145, -1.22729, -1.53994, -0.900513, -1.19195, 1.22808, -1.30262, 0.000147943, -0.00310919, -0.00136936, 0.000998243, -0.0079145, 0.000605367, 0.000582119, -1.0357, 62.5296, 31.9556, 7.62848, 2.21576, 3.79001, -0.199513, 0.000566275, -0.00182568, 0.00188671, 0.00272713, 0.00118324, 0.000458537, 0.00300854, 0.0010654, -0.00218739, -0.00408607, 0.00394902, -0.00451182, 0.471008, -0.543387, 0.335894, -2.08385, -2.16584, -0.129887, 0.469096, -0.542612, 0.334174, -2.08228, -2.16363, -0.128014, -5.94401e-05, 0.000555325, 0.000149214, -0.00109485, -0.00212172, -0.00244548
0.0250632, 1.69145, -1.22728, -1.53995, -0.900513, -1.19194, 1.22808, -1.30263, 0.000113945, -0.00571014, -0.00517561, 0.000156579, -0.00748873, 0.00223463, 0.00594386, -1.0357, 61.9742, 31.5867, 7.51739, 2.12421, 3.74057, -0.101552, 0.000566741, -0.00182409, 0.00188687, 0.00272945, 0.00118042, 0.000450202, 0.00398106, 0.00116918, -0.00504639, -0.00640197, 0.00217881, -0.0108031, 0.471008, -0.543387, 0.335895, -2.08385, -2.16584, -0.129887, 0.469098, -0.542611, 0.334174, -2.08227, -2.16364, -0.12801, -6.84344e-05, 0.000639605, 0.000171766, -0.00127591, -0.00256175, -0.00539377
0.0260632, 1.69146, -1.22728, -1.53996, -0.900523, -1.19194, 1.22808, -1.30263, 0.00786212, -0.00102382, -0.011779, -0.0014759, -0.0060496, 0.00308345, 0.0037445, -1.07537, 61.2402, 31.2137, 7.44202, 2.00061, 3.69754, -0.0750012, 0.000570618, -0.00181913, 0.00189214, 0.00275043, 0.00117334, 0.000441388, 0.00089019, -0.00261665, -0.00520415, -0.0123431, 0.00693984, -0.00229974, 0.471008, -0.543386, 0.335895, -2.08384, -2.16584, -0.129887, 0.469102, -0.542606, 0.33417, -2.08225, -2.16364, -0.12798, -7.80454e-05, 0.000729718, 0.000195859, 0.00237921, 0.000758943, -0.00515984
0.0270632, 1.69148, -1.22728, -1.53999, -0.900528, -1.19194, 1.22808, -1.30262, 0.0110748, -0.000124307, -0.0172023, -0.00326929, -0.00153378, 0.00259817, 0.00330764, -1.15075, 60.5777, 30.8408, 7.25555, 1.90265, 3.68289, -0.0814099, 0.000571943, -0.00181522, 0.00190443, 0.0027807, 0.00117272, 0.000438279, -0.00086905, -0.00427283, -0.00706924, -0.0166644, 0.00454868, 0.00177229, 0.471008, -0.543385, 0.335895, -2.08384, -2.16584, -0.129887, 0.469106, -0.542602, 0.334158, -2.08223, -2.16364, -0.127946, -8.82697e-05, 0.000825639, 0.000221482, 0.00389279, 0.00294647, -0.00675274
0.0280632, 1.69148, -1.22729, -1.54002, -0.900531, -1.19195, 1.22808, -1.30262, 0.00979872, 0.000628757, -0.0187604, -0.00406893, -0.0033825, 0.00227465, 0.00409362, -1.07537, 60.0223, 30.3568, 7.02942, 1.81659, 3.66824, -0.120778, 0.000567575, -0.00181733, 0.00192008, 0.0028091, 0.0011802, 0.000452561, 0.000150643, -0.00318637, -0.0072619, -0.0192728, 0.0068318, -0.000946994, 0.471008, -0.543384, 0.335895, -2.08384, -2.16584, -0.129887, 0.469103, -0.542603, 0.334142, -2.08223, -2.1636, -0.127921, -9.91039e-05, 0.000927342, 0.000248628, 0.00282641, 0.00202671, -0.00704134
0.0290632, 1.6915, -1.22731, -1.54005, -0.900547, -1.19195, 1.22808, -1.30262, 0.00912748, -0.00416734, -0.0246123, -0.00838812, -0.00216276, 0.0017877, 0.00088179, -1.15075, 59.693, 30.0593, 6.95801, 1.78638, 3.66092, -0.0621838, 0.000568252, -0.00181043, 0.00195093, 0.00285969, 0.00119303, 0.000435291, 0.000651198, -0.00288257, -0.0127725, -0.0265751, 0.00159133, 0.00307517, 0.471007, -0.543383, 0.335895, -2.08384, -2.16584, -0.129887, 0.469109, -0.542596, 0.334112, -2.08218, -2.1636, -0.12788, -0.000110545, 0.0010348, 0.000277287, 0.00233053, 0.00247575, -0.0125225
0.0300632, 1.69151, -1.22732, -1.5401, -0.900561, -1.19197, 1.22808, -1.30262, 0.00751608, -0.00581103, -0.0323031, -0.0105644, -0.00380559, 0.00302285, 0.0020507, -1.0357, 59.2883, 29.7617, 6.84296, 1.82941, 3.61148, -0.0951428, 0.000560141, -0.00181186, 0.00197587, 0.0029106, 0.00118387, 0.000447106, 0.00304359, -0.0011845, -0.0165858, -0.0338957, 0.00259878, -0.0019878, 0.471007, -0.543382, 0.335896, -2.08384, -2.16584, -0.129887, 0.469106, -0.542599, 0.334086, -2.08217, -2.16357, -0.127813, -0.000122588, 0.001148, 0.000307449, 0.000570499, 0.000744572, -0.0165778
0.0310632, 1.69152, -1.22735, -1.54014, -0.900576, -1.19198, 1.22809, -1.30262, 0.00923768, -0.0098243, -0.033699, -0.0100782, -0.00620128, 0.00493136, 0.00154874, -0.884941, 59.1415, 29.4245, 6.77154, 1.78638, 3.53274, -0.0951428, 0.000554387, -0.0018093, 0.00200745, 0.00295363, 0.00119458, 0.000443706, 0.00388411, -0.00195535, -0.0193072, -0.0349285, 0.0016635, -0.00159831, 0.471007, -0.543381, 0.335896, -2.08384, -2.16584, -0.129887, 0.469108, -0.542599, 0.334054, -2.08213, -2.16355, -0.127776, -0.000135232, 0.0012669, 0.000339106, 0.00125952, 0.000484106, -0.019387
0.0320632, 1.69152, -1.22737, -1.54019, -0.900595, -1.19199, 1.2281, -1.30261, 0.0107997, -0.0139479, -0.0368505, -0.00954365, -0.00986336, 0.0054238, 0.00310147, -0.734184, 59.0662, 29.1666, 6.69617, 1.79187, 3.47507, -0.147328, 0.00054609, -0.00180803, 0.0020413, 0.00300593, 0.00119609, 0.000454478, 0.00529349, -0.00191616, -0.0228249, -0.0392789, 0.00106492, -0.0047286, 0.471007, -0.54338, 0.335896, -2.08384, -2.16584, -0.129887, 0.469108, -0.542601, 0.33402, -2.08211, -2.16352, -0.127719, -0.000148472, 0.00139149, 0.000372248, 0.00113055, -0.000242862, -0.0230448
0.0330632, 1.69153, -1.22739, -1.54023, -0.90061, -1.19201, 1.22811, -1.30261, 0.0119571, -0.0140096, -0.0380741, -0.0114323, -0.0118373, 0.0148637, 0.0021698, -0.583427, 58.8837, 28.8691, 6.58508, 1.77997, 3.42471, -0.147328, 0.000539994, -0.00180571, 0.00206588, 0.00305112, 0.00118741, 0.000456759, 0.00598854, -0.00428673, -0.0228073, -0.0341273, 0.0076298, -0.00223395, 0.471007, -0.543379, 0.335897, -2.08384, -2.16584, -0.129888, 0.46911, -0.542601, 0.333995, -2.0821, -2.1635, -0.12766, -0.000162305, 0.00152173, 0.000406866, 0.00350971, -0.000704506, -0.0231722
0.0340632, 1.69155, -1.2274, -1.54028, -0.900624, -1.19202, 1.22812, -1.30262, 0.0146778, -0.0131099, -0.0400632, -0.0127269, -0.0132627, 0.0167642, 0.000302443, -0.508049, 58.8083, 28.6072, 6.47003, 1.76807, 3.38901, -0.114369, 0.000536364, -0.00179989, 0.00209131, 0.00310163, 0.00117587, 0.00044945, 0.0053468, -0.00593118, -0.0231551, -0.035821, 0.0110222, 0.00201612, 0.471007, -0.543377, 0.335897, -2.08384, -2.16584, -0.129888, 0.469115, -0.542599, 0.33397, -2.08207, -2.1635, -0.127593, -0.000176727, 0.00165761, 0.000442951, 0.0051021, 0.000185745, -0.0234295
0.0350632, 1.69157, -1.2274, -1.54033, -0.900639, -1.19204, 1.22813, -1.30262, 0.0157506, -0.00827212, -0.0417559, -0.0138933, -0.0134056, 0.0142947, -0.00167369, -0.392998, 58.6972, 28.4961, 6.35895, 1.73053, 3.33133, -0.0621838, 0.000531396, -0.00179665, 0.00211412, 0.00315804, 0.00115624, 0.000448333, 0.00434204, -0.00594836, -0.0213616, -0.0398074, 0.0150461, 0.00513241, 0.471007, -0.543375, 0.335898, -2.08384, -2.16584, -0.129888, 0.469117, -0.542599, 0.333947, -2.08205, -2.16349, -0.127511, -0.000191736, 0.0017991, 0.000480493, 0.00513305, 0.00104383, -0.0214656
0.0360632, 1.69159, -1.22741, -1.54038, -0.900656, -1.19205, 1.22814, -1.30261, 0.0194342, -0.00711272, -0.0433207, -0.0123799, -0.013596, 0.0121315, 0.000860081, -0.242241, 58.6972, 28.4208, 6.28357, 1.69391, 3.28097, -0.114369, 0.000528129, -0.00179098, 0.00213906, 0.00321346, 0.00114113, 0.000451268, 0.00333701, -0.00697249, -0.0214228, -0.0428802, 0.015447, 0.00408547, 0.471006, -0.543374, 0.335898, -2.08384, -2.16584, -0.129888, 0.469122, -0.542596, 0.333922, -2.08203, -2.16347, -0.127434, -0.000207328, 0.00194618, 0.000519485, 0.00610211, 0.00223446, -0.0213619
0.0370632, 1.69161, -1.2274, -1.54043, -0.900674, -1.19206, 1.22815, -1.30261, 0.0179121, -0.00594029, -0.0435841, -0.0153433, -0.0137958, 0.0110138, 0.000605708, -0.0557783, 58.6972, 28.3097, 6.24786, 1.65729, 3.21689, -0.114369, 0.000524764, -0.0017859, 0.00215717, 0.00326212, 0.00111575, 0.00044833, 0.00315968, -0.00649508, -0.0212723, -0.045224, 0.0165244, 0.00523001, 0.471006, -0.543372, 0.335899, -2.08384, -2.16584, -0.129888, 0.469126, -0.542595, 0.333904, -2.08201, -2.16347, -0.127355, -0.0002235, 0.00209882, 0.000559916, 0.00560823, 0.00251947, -0.021131
0.0380632, 1.69163, -1.2274, -1.54049, -0.900699, -1.19208, 1.22816, -1.30261, 0.017543, -0.00402384, -0.0439184, -0.0169472, -0.0148462, 0.00880813, -0.00028403, 0.0949785, 58.6615, 28.3454, 6.32324, 1.64447, 3.18851, -0.0951428, 0.000525019, -0.00177703, 0.00217545, 0.0033211, 0.0010815, 0.000437276, 0.00288002, -0.00604041, -0.020677, -0.0484415, 0.0184261, 0.00662522, 0.471006, -0.54337, 0.335899, -2.08384, -2.16584, -0.129888, 0.469134, -0.542589, 0.333886, -2.08198, -2.16348, -0.127256, -0.000240248, 0.00225699, 0.000601779, 0.00514888, 0.00284351, -0.0204441
0.0390632, 1.69164, -1.22739, -1.54054, -0.90072, -1.1921, 1.22816, -1.30261, 0.0153872, -0.000319227, -0.0469386, -0.016831, -0.015343, 0.00486047, -0.00162923, 0.475838, 58.6615, 28.3851, 6.35895, 1.62616, 3.22421, -0.0557752, 0.000519286, -0.0017785, 0.00219122, 0.00338262, 0.00105013, 0.000441446, 0.00400945, -0.00343648, -0.0198024, -0.0540167, 0.020762, 0.00406474, 0.471006, -0.543367, 0.3359, -2.08384, -2.16584, -0.129888, 0.469132, -0.54259, 0.33387, -2.08197, -2.16347, -0.127156, -0.000257569, 0.00242068, 0.000645063, 0.00260294, 0.00165106, -0.0196341
0.0400632, 1.69165, -1.22737, -1.54059, -0.900745, -1.19211, 1.22816, -1.30261, 0.0170452, 0.00447842, -0.0449811, -0.0207426, -0.0154916, 0.0013711, 0.000114274, 0.737679, 58.5861, 28.3851, 6.43433, 1.60144, 3.28097, -0.0878186, 0.00051929, -0.00177389, 0.00220384, 0.00344305, 0.00101406, 0.000434736, 0.00110068, -0.00485438, -0.0172422, -0.0570961, 0.0242878, 0.00819728, 0.471005, -0.543365, 0.3359, -2.08384, -2.16584, -0.129889, 0.469136, -0.542586, 0.333858, -2.08195, -2.16347, -0.127053, -0.00027546, 0.00258986, 0.000689759, 0.00398952, 0.00435582, -0.0166527
0.0410632, 1.69166, -1.22736, -1.54063, -0.900764, -1.19213, 1.22816, -1.30261, 0.0139455, 0.00611312, -0.0440496, -0.018532, -0.0113932, -0.0013186, -0.00015095, 1.03919, 58.5861, 28.4208, 6.43433, 1.58954, 3.34598, -0.0814099, 0.000515091, -0.00177282, 0.0022179, 0.00349951, 0.000982875, 0.000433706, 0.00187471, -0.00273842, -0.0157344, -0.0550109, 0.0209601, 0.00526812, 0.471005, -0.543362, 0.335901, -2.08383, -2.16584, -0.129889, 0.469136, -0.542585, 0.333844, -2.08193, -2.16347, -0.126959, -0.000293917, 0.0027645, 0.00073586, 0.00193994, 0.00344767, -0.0151741
0.0420632, 1.69167, -1.22734, -1.54068, -0.900783, -1.19215, 1.22817, -1.3026, 0.010994, 0.00836247, -0.0459796, -0.0201429, -0.019272, 0.00204007, 0.000653022, 1.38038, 58.5504, 28.5715, 6.43433, 1.62067, 3.39633, -0.101552, 0.000507445, -0.00177556, 0.0022292, 0.00355749, 0.000942598, 0.000447545, 0.00499383, -0.000799315, -0.0148888, -0.0575403, 0.0315733, -0.000627378, 0.471005, -0.54336, 0.335902, -2.08383, -2.16584, -0.129889, 0.469133, -0.542588, 0.333833, -2.08193, -2.16345, -0.126853, -0.000312938, 0.00294458, 0.000783355, 0.000126372, 0.000338976, -0.0147173
0.0430632, 1.69168, -1.22734, -1.54073, -0.900807, -1.19217, 1.22817, -1.30261, 0.00705359, 0.00569299, -0.0503181, -0.0190465, -0.0238906, 0.00466524, -0.00152559, 1.64619, 58.6972, 28.7183, 6.47003, 1.62067, 3.44668, -0.0484509, 0.000502375, -0.00177423, 0.00224761, 0.00361741, 0.00091422, 0.000441594, 0.00959721, 0.00240241, -0.017424, -0.0602632, 0.0341374, -0.00686118, 0.471005, -0.543357, 0.335903, -2.08383, -2.16584, -0.129889, 0.469134, -0.542587, 0.333815, -2.08191, -2.16345, -0.126759, -0.000332518, 0.00313007, 0.000832236, -0.00301773, -0.00376089, -0.0177897
0.0440632, 1.6917, -1.22733, -1.54078, -0.900824, -1.19219, 1.22818, -1.30261, 0.00688107, 0.00358611, -0.0509815, -0.0195513, -0.0232761, 0.00760002, -0.00148746, 1.79694, 58.7329, 28.9048, 6.43433, 1.63898, 3.47507, -0.0356336, 0.000498367, -0.00177, 0.00225974, 0.00367354, 0.000871799, 0.000438677, 0.0102398, 0.00184637, -0.0187213, -0.0583649, 0.0331584, -0.00668256, 0.471004, -0.543354, 0.335903, -2.08383, -2.16584, -0.129889, 0.469137, -0.542586, 0.333803, -2.0819, -2.16346, -0.126654, -0.000352655, 0.00332096, 0.000882495, -0.00250641, -0.00398195, -0.019137
0.0450632, 1.69171, -1.22732, -1.54082, -0.900836, -1.19222, 1.22818, -1.30261, 0.00903686, 0.00484697, -0.0463871, -0.0190331, -0.0232477, 0.00525181, -0.00146312, 1.98341, 58.9194, 29.0159, 6.35895, 1.66919, 3.49612, -0.0228162, 0.000491, -0.00176942, 0.00227268, 0.00372068, 0.00084051, 0.000442336, 0.00831673, 0.000376058, -0.0166179, -0.0563272, 0.0330515, -0.00282045, 0.471004, -0.54335, 0.335904, -2.08383, -2.16584, -0.12989, 0.469137, -0.542588, 0.33379, -2.08189, -2.16345, -0.12657, -0.000373345, 0.00351722, 0.000934121, -0.00105153, -0.00215074, -0.0167543
0.0460632, 1.69173, -1.22731, -1.54086, -0.900847, -1.19224, 1.22819, -1.3026, 0.010594, 0.00690475, -0.0446526, -0.0118221, -0.028767, 0.00730615, 0.00194314, 2.02308, 59.0662, 29.2023, 6.24786, 1.72504, 3.53915, -0.101552, 0.00048608, -0.00176522, 0.00228537, 0.00377309, 0.000803661, 0.000451207, 0.0107259, 0.00107292, -0.0137124, -0.0522085, 0.0400544, -0.0120335, 0.471004, -0.543347, 0.335905, -2.08383, -2.16583, -0.12989, 0.469141, -0.542587, 0.333777, -2.08189, -2.16344, -0.126474, -0.000394586, 0.00371881, 0.000987107, -0.00157768, -0.00480327, -0.0141852
0.0470632, 1.69175, -1.22731, -1.5409, -0.900854, -1.19227, 1.22819, -1.3026, 0.0150261, 0.00594009, -0.0439635, -0.0127979, -0.0261272, 0.00420947, 0.00449579, 2.05878, 59.324, 29.4245, 6.13678, 1.72504, 3.58218, -0.0621838, 0.000478078, -0.00176382, 0.00229913, 0.00382106, 0.000772636, 0.000456782, 0.00778509, -0.00151523, -0.0146952, -0.0542684, 0.0356853, -0.00810713, 0.471003, -0.543343, 0.335906, -2.08382, -2.16583, -0.12989, 0.469141, -0.542589, 0.333763, -2.08188, -2.16343, -0.126389, -0.000416373, 0.00392573, 0.00104144, 0.000844675, -0.00143591, -0.0147229
0.0480632, 1.69176, -1.2273, -1.54094, -0.900857, -1.19229, 1.22819, -1.3026, 0.0178894, 0.00557166, -0.0408957, -0.0104372, -0.0254788, 0.00527539, 0.00287799, 2.09846, 59.5819, 29.5395, 6.02173, 1.76166, 3.66092, -0.0484509, 0.000469738, -0.00176284, 0.00231137, 0.00386577, 0.000742851, 0.000463733, 0.00681273, -0.0034276, -0.0135749, -0.0496765, 0.0351025, -0.00401045, 0.471003, -0.543339, 0.335907, -2.08382, -2.16583, -0.129891, 0.469142, -0.542592, 0.333751, -2.08188, -2.16343, -0.126309, -0.000438704, 0.00413795, 0.00109712, 0.00273791, -0.000357929, -0.0134678
0.0490632, 1.69178, -1.22729, -1.54098, -0.90086, -1.19232, 1.22819, -1.30261, 0.0205885, 0.00904261, -0.0420104, -0.00573748, -0.0285645, 0.00202439, 0.00149864, 2.13416, 59.693, 29.7974, 5.91064, 1.76807, 3.72592, -0.0292249, 0.000459666, -0.00176423, 0.00232002, 0.00391463, 0.00070258, 0.00047566, 0.00741336, -0.00270588, -0.0117223, -0.0527734, 0.0393325, -0.00569809, 0.471002, -0.543335, 0.335908, -2.08382, -2.16583, -0.129891, 0.46914, -0.542596, 0.333742, -2.08189, -2.16342, -0.126213, -0.000461575, 0.00435543, 0.00115413, 0.00208262, -0.00104809, -0.0116529
0.0500632, 1.69179, -1.2273, -1.54101, -0.900868, -1.19235, 1.2282, -1.3026, 0.0202009, 0.00273298, -0.0433156, -0.00578636, -0.0273116, 0.00407134, 0.00243884, 2.09846, 60.173, 29.9482, 5.95032, 1.80469, 3.79733, -0.0621838, 0.000451821, -0.00176103, 0.00233919, 0.00396024, 0.000683371, 0.000480739, 0.00862473, -0.00291363, -0.0157229, -0.0520077, 0.0332172, -0.0070446, 0.471002, -0.543331, 0.335909, -2.08382, -2.16583, -0.129891, 0.469142, -0.542596, 0.333723, -2.08187, -2.1634, -0.126143, -0.000484983, 0.00457817, 0.00121247, 0.00216553, -0.0013969, -0.0157392
0.0510632, 1.69181, -1.22728, -1.54105, -0.90087, -1.19237, 1.2282, -1.3026, 0.0188249, 0.00816973, -0.0410937, -0.00463259, -0.0257552, 0.00617228, 0.00324824, 2.09846, 60.2444, 30.095, 5.95032, 1.823, 3.85501, -0.101552, 0.000442252, -0.00176258, 0.00234222, 0.00400413, 0.000637015, 0.000497699, 0.00875561, -0.00275556, -0.011347, -0.0462574, 0.0382218, -0.00871722, 0.471001, -0.543326, 0.335911, -2.08382, -2.16583, -0.129892, 0.469141, -0.542601, 0.33372, -2.08189, -2.16339, -0.126046, -0.000508925, 0.00480613, 0.00127212, 0.00214642, -0.0019782, -0.0113742
0.0520632, 1.69183, -1.22729, -1.54108, -0.900868, -1.19241, 1.22819, -1.3026, 0.0195785, 0.00799703, -0.0364291, -0.00274163, -0.0297746, 0.00281059, 0.000830647, 2.02308, 60.6134, 30.2457, 5.91064, 1.85962, 3.9191, -0.0621838, 0.000430641, -0.00176266, 0.00235739, 0.00405233, 0.000607888, 0.000505692, 0.00871388, -0.00253259, -0.00988662, -0.0461673, 0.039347, -0.00628925, 0.471001, -0.543321, 0.335912, -2.08381, -2.16583, -0.129892, 0.46914, -0.542605, 0.333704, -2.08189, -2.16338, -0.125962, -0.000533398, 0.00503929, 0.00133308, 0.0019505, -0.00193777, -0.00985808
0.0530632, 1.69184, -1.22728, -1.54111, -0.900877, -1.19245, 1.2282, -1.3026, 0.0189169, 0.0106603, -0.0344674, -0.0035295, -0.0321775, 0.00159065, 0.000408816, 1.98341, 60.8713, 30.3211, 6.09711, 1.87793, 3.94839, -0.0557752, 0.000422562, -0.00176017, 0.00236716, 0.00409644, 0.000569234, 0.000510611, 0.00871258, -0.0021587, -0.00782984, -0.04664, 0.0434002, -0.00572144, 0.471, -0.543316, 0.335913, -2.08381, -2.16583, -0.129892, 0.469142, -0.542607, 0.333695, -2.08188, -2.16338, -0.125874, -0.000558399, 0.00527762, 0.00139533, 0.00162632, -0.00203005, -0.00775346
0.0540632, 1.69185, -1.22727, -1.54115, -0.900882, -1.19248, 1.2282, -1.3026, 0.0140765, 0.0146079, -0.0364248, -0.00594845, -0.0332661, 0.0003395, -0.000166774, 1.98341, 61.0538, 30.5433, 6.24786, 1.87793, 3.9841, -0.0420422, 0.000408551, -0.0017639, 0.00237743, 0.00414946, 0.000523966, 0.000527577, 0.0105194, 0.000770306, -0.0064173, -0.0499706, 0.0479018, -0.00916785, 0.471, -0.543311, 0.335915, -2.08381, -2.16583, -0.129893, 0.469138, -0.542614, 0.333684, -2.0819, -2.16337, -0.125768, -0.000583923, 0.00552111, 0.00145888, -0.00120879, -0.00390756, -0.0064873
0.0550632, 1.69186, -1.22727, -1.54118, -0.900885, -1.19252, 1.2282, -1.30259, 0.0095552, 0.012627, -0.0335178, -0.0057806, -0.0337792, -0.000373707, 0.00714407, 2.02308, 61.3116, 30.579, 6.32324, 1.86603, 4.01248, -0.10796, 0.000395373, -0.00176685, 0.00238762, 0.00419332, 0.000488268, 0.000549297, 0.0124392, 0.00296567, -0.00637616, -0.0476314, 0.0457832, -0.0198036, 0.470999, -0.543305, 0.335916, -2.08381, -2.16583, -0.129893, 0.469134, -0.54262, 0.333673, -2.08191, -2.16335, -0.125682, -0.000609969, 0.00576973, 0.0015237, -0.00335722, -0.00565045, -0.00661369
0.0560632, 1.69188, -1.22727, -1.5412, -0.90089, -1.19255, 1.22819, -1.30259, 0.0126401, 0.0128603, -0.0315596, -0.00649098, -0.0341982, -0.000453332, 0.00374046, 1.9477, 61.4981, 30.6186, 6.43433, 1.85321, 4.02713, -0.0685925, 0.000386661, -0.0017643, 0.00239671, 0.00423744, 0.000449644, 0.000551811, 0.0107674, 0.000777861, -0.0058376, -0.0469374, 0.0464697, -0.0119129, 0.470999, -0.5433, 0.335918, -2.0838, -2.16583, -0.129894, 0.469136, -0.542621, 0.333664, -2.08191, -2.16335, -0.125594, -0.000636533, 0.00602345, 0.0015898, -0.00123915, -0.00373962, -0.00582229
0.0570632, 1.6919, -1.22726, -1.54124, -0.900892, -1.19259, 1.22819, -1.3026, 0.0135672, 0.0128989, -0.0359194, -0.00298012, -0.0344125, -0.000557092, 0.00159979, 1.90803, 61.6806, 30.7654, 6.5097, 1.8349, 4.04086, -0.0356336, 0.00037465, -0.00176457, 0.00240648, 0.00428919, 0.000404865, 0.000557696, 0.0125982, 0.00183835, -0.00695336, -0.0493682, 0.0467586, -0.0140777, 0.470998, -0.543294, 0.335919, -2.0838, -2.16582, -0.129894, 0.469135, -0.542625, 0.333654, -2.08191, -2.16335, -0.125491, -0.000663611, 0.00628226, 0.00165716, -0.00230018, -0.00515982, -0.00710888
0.0580632, 1.69191, -1.22725, -1.54127, -0.900896, -1.19263, 1.22819, -1.3026, 0.0151389, 0.0096003, -0.0351049, -0.00258216, -0.0336645, -0.00099488, 0.00131167, 1.83265, 61.8671, 30.8765, 6.54541, 1.79187, 4.06283, -0.0356336, 0.000363574, -0.00176423, 0.0024178, 0.00433847, 0.000367966, 0.000568921, 0.012235, 0.000819227, -0.00869451, -0.0489755, 0.0427335, -0.0118582, 0.470997, -0.543287, 0.335921, -2.0838, -2.16582, -0.129894, 0.469135, -0.542628, 0.333643, -2.08191, -2.16333, -0.125398, -0.000691201, 0.00654612, 0.00172578, -0.00138585, -0.00422766, -0.00873389
0.0590632, 1.69193, -1.22725, -1.5413, -0.900906, -1.19267, 1.22819, -1.30259, 0.013636, 0.0023483, -0.0337216, -0.0104, -0.0333468, -0.00130041, 0.00275372, 1.87232, 62.1249, 30.9519, 6.65649, 1.74884, 4.08389, -0.0814099, 0.000351658, -0.00176416, 0.00243262, 0.00439154, 0.000331807, 0.000581365, 0.0111544, -0.000455218, -0.0135283, -0.0519288, 0.0357708, -0.00700299, 0.470997, -0.543281, 0.335923, -2.0838, -2.16582, -0.129895, 0.469134, -0.542631, 0.333628, -2.08191, -2.16332, -0.125302, -0.0007193, 0.00681502, 0.00179564, -0.000354443, -0.00209561, -0.0133078
0.0600632, 1.69194, -1.22725, -1.54133, -0.900907, -1.19271, 1.22818, -1.30259, 0.0136386, 0.00369565, -0.0311672, -0.00732014, -0.0387414, -0.00235358, 0.00173635, 1.87232, 62.2321, 30.9519, 6.65649, 1.73053, 4.12692, -0.0750012, 0.000338986, -0.0017664, 0.00244009, 0.00444045, 0.000290431, 0.000593491, 0.0126502, 0.000584168, -0.0115185, -0.0515013, 0.0407101, -0.00925711, 0.470996, -0.543274, 0.335924, -2.08379, -2.16582, -0.129895, 0.469131, -0.542636, 0.333621, -2.08191, -2.16331, -0.125205, -0.000747904, 0.00708893, 0.00186675, -0.00129499, -0.00365026, -0.0114529
0.0610632, 1.69197, -1.22725, -1.54136, -0.900912, -1.19275, 1.22818, -1.30259, 0.016214, 0.00252674, -0.0343544, -0.0060982, -0.0386703, -0.00176003, 0.000548909, 1.75727, 62.4185, 31.0273, 6.69617, 1.73053, 4.13424, -0.0557752, 0.000328853, -0.00176184, 0.00245542, 0.00449747, 0.000249539, 0.00059393, 0.0129763, -0.000181232, -0.0132748, -0.0536094, 0.0400962, -0.0080577, 0.470995, -0.543267, 0.335926, -2.08379, -2.16582, -0.129896, 0.469135, -0.542636, 0.333606, -2.0819, -2.16331, -0.125101, -0.00077701, 0.00736784, 0.00193908, -0.000611495, -0.00339159, -0.0131886
0.0620632, 1.69198, -1.22724, -1.5414, -0.900918, -1.1928, 1.22818, -1.3026, 0.0179216, 0.0013004, -0.0342632, -0.00511825, -0.0388388, -0.00243557, -0.00053984, 1.79694, 62.4899, 31.1384, 6.73187, 1.73694, 4.16995, -0.0292249, 0.000314002, -0.00176293, 0.00246875, 0.00455379, 0.000204372, 0.000603916, 0.01286, -0.000835922, -0.0140025, -0.0540496, 0.0387777, -0.00610522, 0.470994, -0.543259, 0.335928, -2.08379, -2.16582, -0.129897, 0.469133, -0.542642, 0.333593, -2.0819, -2.1633, -0.124992, -0.000806615, 0.0076517, 0.00201263, -1.77302e-05, -0.00285398, -0.0138353
0.0630632, 1.69201, -1.22726, -1.54143, -0.900918, -1.19284, 1.22817, -1.30259, 0.0204588, -0.00102247, -0.0323624, -0.00274012, -0.0382002, -0.00157855, -6.43614e-05, 1.79694, 62.7478, 31.1741, 6.69617, 1.73053, 4.16995, -0.0356336, 0.000300248, -0.0017601, 0.00249058, 0.00460762, 0.000178022, 0.000612104, 0.0125204, -0.00235671, -0.0144501, -0.0507556, 0.0362591, -0.00495857, 0.470993, -0.543252, 0.33593, -2.08378, -2.16582, -0.129897, 0.469135, -0.542644, 0.333571, -2.08189, -2.16329, -0.124906, -0.000836715, 0.00794051, 0.00208739, 0.00144265, -0.0020987, -0.0141957
0.0640632, 1.69202, -1.22726, -1.54148, -0.900925, -1.19289, 1.22817, -1.30258, 0.0178959, -0.000621268, -0.0368157, -0.00681433, -0.0427213, -0.00183229, 0.00267949, 1.83265, 62.7875, 31.3248, 6.77154, 1.72504, 4.19192, -0.10796, 0.000284037, -0.00176167, 0.00250861, 0.00467401, 0.000134171, 0.000637659, 0.0145097, -0.000495325, -0.0162715, -0.0584305, 0.0409441, -0.0102987, 0.470993, -0.543244, 0.335932, -2.08378, -2.16582, -0.129898, 0.469132, -0.542649, 0.333553, -2.0819, -2.16326, -0.124786, -0.000867309, 0.00823424, 0.00216336, -0.00044161, -0.00356458, -0.0161709
0.0650632, 1.69205, -1.22725, -1.54151, -0.900932, -1.19294, 1.22817, -1.30258, 0.0176382, 0.00209036, -0.0379956, -0.0065636, -0.0457893, -0.000924858, 0.00158169, 1.79694, 62.7121, 31.4002, 6.84296, 1.71222, 4.1846, -0.101552, 0.000271452, -0.00175806, 0.00252125, 0.00473401, 8.00976e-05, 0.000643272, 0.0157011, 0.000122029, -0.0149943, -0.059664, 0.0467968, -0.0112924, 0.470992, -0.543236, 0.335935, -2.08378, -2.16581, -0.129898, 0.469135, -0.542651, 0.33354, -2.0819, -2.16326, -0.124664, -0.000898392, 0.00853286, 0.00224052, -0.00100049, -0.00466406, -0.0149989
0.0660632, 1.69207, -1.22725, -1.54155, -0.900933, -1.19298, 1.22817, -1.30258, 0.0183916, 0.00194955, -0.0374343, -0.00786, -0.0438262, -0.000597519, 0.000570375, 1.87232, 62.7121, 31.4002, 6.84296, 1.71222, 4.1846, -0.0878186, 0.000256189, -0.0017566, 0.00253524, 0.00478655, 3.62425e-05, 0.000653195, 0.0148376, -0.000994027, -0.0150992, -0.0586661, 0.045456, -0.00744641, 0.470991, -0.543227, 0.335937, -2.08377, -2.16581, -0.129899, 0.469136, -0.542656, 0.333526, -2.0819, -2.16325, -0.124561, -0.000929962, 0.00883635, 0.00231887, 4.78379e-05, -0.00344616, -0.0149239
0.0670632, 1.69209, -1.22725, -1.54159, -0.900935, -1.19303, 1.22817, -1.30259, 0.0185151, 0.00088146, -0.0355685, -0.0057055, -0.0412539, -0.000112789, -0.00153412, 1.98341, 62.7478, 31.4716, 6.84296, 1.68201, 4.17727, -0.0356336, 0.000237932, -0.00175739, 0.00255486, 0.00484485, -2.36733e-06, 0.000663254, 0.0149921, -0.00133249, -0.0147608, -0.0544473, 0.0423657, -0.00530125, 0.47099, -0.543218, 0.335939, -2.08377, -2.16581, -0.1299, 0.469134, -0.542662, 0.333506, -2.08189, -2.16323, -0.124457, -0.000962015, 0.00914469, 0.0023984, 0.000371546, -0.00332851, -0.0145445
0.0680632, 1.69212, -1.22726, -1.54163, -0.900938, -1.19307, 1.22817, -1.30258, 0.0211532, -2.76447e-05, -0.0350855, -0.00725842, -0.0452845, -0.000335743, 0.000211759, 1.98341, 62.7875, 31.4359, 6.84296, 1.68201, 4.1846, -0.0685925, 0.000224659, -0.00175221, 0.00257227, 0.00490215, -4.44525e-05, 0.000674098, 0.0144424, -0.00278763, -0.0155257, -0.0572659, 0.044999, -0.0041508, 0.470989, -0.543209, 0.335941, -2.08376, -2.16581, -0.1299, 0.469138, -0.542663, 0.333489, -2.08189, -2.16322, -0.124351, -0.000994548, 0.00945786, 0.0024791, 0.00174493, -0.00229533, -0.0151776
0.0690632, 1.69215, -1.22726, -1.54167, -0.900939, -1.19312, 1.22817, -1.30258, 0.0262959, -0.00238233, -0.0395948, -0.00535959, -0.0482584, -0.000487058, 0.00137223, 1.98341, 62.8986, 31.4716, 6.84296, 1.68201, 4.19192, -0.101552, 0.000210533, -0.00174683, 0.00259366, 0.00496419, -8.21727e-05, 0.000684341, 0.0147799, -0.00415215, -0.0185543, -0.0627657, 0.0454676, -0.00498268, 0.470988, -0.5432, 0.335944, -2.08376, -2.16581, -0.129901, 0.469142, -0.542664, 0.333468, -2.08188, -2.16321, -0.124243, -0.00102756, 0.00977584, 0.00256097, 0.00297722, -0.00178822, -0.0181799
0.0700632, 1.69217, -1.22725, -1.54171, -0.900937, -1.19316, 1.22817, -1.30258, 0.0257569, 0.00118615, -0.0420781, -0.00229311, -0.0447584, 0.000495126, 0.0013973, 2.02308, 62.7875, 31.4716, 6.77154, 1.65729, 4.16995, -0.114369, 0.000194718, -0.00174376, 0.00260505, 0.00501797, -0.000134851, 0.000697975, 0.0158551, -0.003258, -0.0168267, -0.0605549, 0.0466753, -0.00829072, 0.470987, -0.54319, 0.335947, -2.08375, -2.1658, -0.129902, 0.469144, -0.542668, 0.333457, -2.08189, -2.1632, -0.12413, -0.00106104, 0.0100986, 0.00264398, 0.00215164, -0.0028295, -0.016531
0.0710632, 1.69221, -1.22725, -1.54175, -0.900938, -1.19321, 1.22818, -1.30258, 0.0309049, 0.00185072, -0.0408055, -0.00576123, -0.0473054, 6.33377e-05, -0.00150405, 1.98341, 62.7478, 31.4716, 6.80725, 1.64447, 4.17727, -0.0484509, 0.000183432, -0.00173386, 0.00262165, 0.00507876, -0.000184762, 0.000692793, 0.0130132, -0.00679017, -0.0168053, -0.0633366, 0.0497513, 0.00250736, 0.470986, -0.54318, 0.335949, -2.08375, -2.1658, -0.129903, 0.469153, -0.542666, 0.333441, -2.08188, -2.16321, -0.124013, -0.001095, 0.0104261, 0.00272814, 0.00554434, 0.000444984, -0.0160911
0.0720632, 1.69224, -1.22725, -1.5418, -0.900929, -1.19326, 1.22818, -1.30258, 0.0292371, 0.000404745, -0.0422096, -0.000792689, -0.045585, 0.000554243, -1.49861e-05, 2.02308, 62.7875, 31.4359, 6.65649, 1.65729, 4.16354, -0.0750012, 0.000165762, -0.00172997, 0.00263962, 0.00513694, -0.000228962, 0.000710432, 0.0157051, -0.00482977, -0.0173617, -0.0607808, 0.0469159, -0.00502091, 0.470985, -0.543169, 0.335952, -2.08374, -2.1658, -0.129903, 0.469156, -0.54267, 0.333423, -2.08188, -2.16319, -0.123903, -0.00112942, 0.0107583, 0.00281344, 0.00362821, -0.00187474, -0.0169141
0.0730632, 1.69228, -1.22726, -1.54184, -0.900927, -1.19331, 1.22818, -1.30258, 0.0299575, 0.00182051, -0.0442159, -0.00088722, -0.0440503, 0.00145711, 0.000468003, 1.98341, 62.8589, 31.4359, 6.65649, 1.66919, 4.13424, -0.0878186, 0.000151336, -0.00172109, 0.00266097, 0.00519919, -0.000273574, 0.000715073, 0.0157806, -0.0052354, -0.017244, -0.0610131, 0.0478439, -0.00515827, 0.470984, -0.543159, 0.335955, -2.08374, -2.1658, -0.129904, 0.469163, -0.54267, 0.333403, -2.08187, -2.16318, -0.123789, -0.00116431, 0.0110953, 0.00289987, 0.00400534, -0.00161372, -0.0167355
0.0740632, 1.69232, -1.22727, -1.54189, -0.900919, -1.19335, 1.22818, -1.30257, 0.0318006, -0.0019021, -0.0466436, 0.00257312, -0.0425301, 0.00229574, 0.00106044, 2.02308, 63.0057, 31.4716, 6.5097, 1.66919, 4.09854, -0.10796, 0.00013258, -0.00171543, 0.00268512, 0.00525703, -0.0003094, 0.000733036, 0.016977, -0.00548282, -0.0198668, -0.0605957, 0.0433916, -0.00751455, 0.470983, -0.543147, 0.335958, -2.08373, -2.1658, -0.129905, 0.469167, -0.542673, 0.333379, -2.08187, -2.16316, -0.123688, -0.00119966, 0.0114369, 0.00298742, 0.004165, -0.00203906, -0.019431
0.0750632, 1.69236, -1.22727, -1.54193, -0.900914, -1.1934, 1.22819, -1.30257, 0.0340526, -0.00279288, -0.0475415, 0.00244163, -0.0412213, 0.00390551, -0.000986615, 2.02308, 63.0811, 31.4716, 6.47003, 1.66919, 4.03445, -0.0621838, 0.000118086, -0.00170311, 0.0027059, 0.00531069, -0.000355785, 0.000729581, 0.0164734, -0.00709886, -0.0207378, -0.0597984, 0.042537, -0.00307199, 0.470981, -0.543136, 0.335961, -2.08373, -2.16579, -0.129906, 0.469178, -0.542673, 0.333359, -2.08186, -2.16317, -0.123582, -0.00123547, 0.0117833, 0.00307608, 0.00569357, -0.000995218, -0.020173
0.0760632, 1.6924, -1.22728, -1.54197, -0.900906, -1.19345, 1.2282, -1.30257, 0.0377015, -0.00251832, -0.0449857, 0.00407486, -0.0464588, 0.00501225, -0.000419003, 1.9477, 63.1168, 31.4716, 6.35895, 1.70581, 3.96945, -0.0685925, 0.000103866, -0.0016889, 0.00272391, 0.00536221, -0.000409259, 0.000730476, 0.0162942, -0.0088668, -0.019568, -0.0587461, 0.0476379, -0.00195895, 0.47098, -0.543124, 0.335964, -2.08372, -2.16579, -0.129907, 0.469191, -0.542671, 0.333341, -2.08185, -2.16318, -0.123472, -0.00127174, 0.0121342, 0.00316585, 0.0074588, -0.00057502, -0.0189539
0.0770632, 1.69245, -1.22728, -1.54202, -0.900899, -1.1935, 1.22821, -1.30257, 0.039387, -0.00247278, -0.0461578, 0.00759039, -0.0448337, 0.00652969, -4.09396e-05, 1.90803, 63.1564, 31.4716, 6.28357, 1.72504, 3.88339, -0.0750012, 9.0449e-05, -0.00167379, 0.00274362, 0.00541552, -0.000458704, 0.000729038, 0.0170301, -0.00930533, -0.0194566, -0.0562197, 0.0471057, -0.00373871, 0.470979, -0.543112, 0.335967, -2.08372, -2.16579, -0.129908, 0.469205, -0.542669, 0.333322, -2.08184, -2.16318, -0.123364, -0.00130846, 0.0124898, 0.00325671, 0.00789036, -0.000945014, -0.0188806
0.0780632, 1.6925, -1.22729, -1.54207, -0.900891, -1.19355, 1.22823, -1.30257, 0.0390459, -0.00581683, -0.0449216, 0.00607901, -0.0483191, 0.00672732, 0.00119419, 1.9477, 63.3389, 31.5113, 6.24786, 1.74335, 3.8193, -0.10796, 7.24526e-05, -0.0016618, 0.0027697, 0.00547321, -0.000502581, 0.000737118, 0.0178678, -0.00939821, -0.021191, -0.0574741, 0.0469501, -0.00445603, 0.470978, -0.5431, 0.33597, -2.08371, -2.16579, -0.129909, 0.469215, -0.54267, 0.333297, -2.08184, -2.16317, -0.123255, -0.00134563, 0.01285, 0.00334867, 0.00791312, -0.00114075, -0.0206343
0.0790632, 1.69255, -1.22729, -1.54212, -0.900884, -1.1936, 1.22824, -1.30257, 0.0442113, -0.00380245, -0.0469763, 0.00511835, -0.0512772, 0.0106108, -0.000898713, 1.90803, 63.3389, 31.547, 6.20819, 1.76807, 3.7836, -0.0621838, 5.73249e-05, -0.00164683, 0.00278923, 0.00553293, -0.000562161, 0.000734689, 0.0168961, -0.0125135, -0.0208321, -0.0582955, 0.0538643, 0.00160304, 0.470976, -0.543087, 0.335973, -2.08371, -2.16578, -0.129909, 0.469228, -0.542668, 0.333278, -2.08183, -2.16318, -0.12313, -0.00138324, 0.0132147, 0.0034417, 0.0109649, 0.000255687, -0.0201301
0.0800632, 1.69259, -1.2273, -1.54216, -0.900873, -1.19366, 1.22825, -1.30257, 0.0451172, -0.00507684, -0.0436246, 0.00919172, -0.0525948, 0.013513, -0.000123987, 1.98341, 63.45, 31.5113, 6.09711, 1.77356, 3.74698, -0.0750012, 3.74741e-05, -0.00163601, 0.00280935, 0.00558381, -0.000614775, 0.000745846, 0.0180655, -0.0131393, -0.0196549, -0.0517036, 0.0547554, -0.000609398, 0.470975, -0.543074, 0.335977, -2.0837, -2.16578, -0.12991, 0.469238, -0.542671, 0.333258, -2.08183, -2.16318, -0.12302, -0.0014213, 0.013584, 0.0035358, 0.0116362, -0.000685022, -0.0190743
0.0810632, 1.69265, -1.22731, -1.54221, -0.900871, -1.19372, 1.22826, -1.30257, 0.050184, -0.00594058, -0.0469997, 0.00870167, -0.0543886, 0.00915678, -0.000794407, 1.87232, 63.5611, 31.5867, 6.13678, 1.80469, 3.76163, -0.0557752, 2.40384e-05, -0.0016167, 0.00283586, 0.0056511, -0.00066965, 0.000734888, 0.0167393, -0.0145334, -0.022104, -0.0603007, 0.0538229, 0.00331739, 0.470973, -0.54306, 0.33598, -2.08369, -2.16578, -0.129911, 0.469255, -0.542666, 0.333233, -2.08181, -2.16319, -0.122892, -0.0014598, 0.0139578, 0.00363097, 0.0128539, 0.00143254, -0.0212336
0.0820632, 1.6927, -1.22731, -1.54226, -0.900859, -1.19377, 1.22827, -1.30256, 0.0459687, -0.005599, -0.0461955, 0.0111747, -0.054873, 0.0114331, 0.00140342, 1.9477, 63.6325, 31.6581, 6.0614, 1.81018, 3.76163, -0.10796, 3.85267e-06, -0.00160428, 0.00285664, 0.00570798, -0.000729385, 0.000748569, 0.0198664, -0.012141, -0.0208871, -0.055919, 0.0554752, -0.00495146, 0.470972, -0.543046, 0.335984, -2.08369, -2.16578, -0.129913, 0.469266, -0.542668, 0.333212, -2.08182, -2.16319, -0.122768, -0.00149874, 0.0143362, 0.00372719, 0.0105815, -0.00156146, -0.0203493
0.0830632, 1.69275, -1.22732, -1.54231, -0.900855, -1.19383, 1.22829, -1.30257, 0.039886, -0.00547203, -0.0506602, 0.00725838, -0.0558625, 0.0127823, -0.000996981, 2.02308, 63.7079, 31.6977, 6.09711, 1.82941, 3.76895, -0.0557752, -1.41947e-05, -0.00158941, 0.00287979, 0.00576797, -0.00078762, 0.000742403, 0.0230523, -0.00896823, -0.0225341, -0.0599499, 0.0576916, -0.00756678, 0.47097, -0.543032, 0.335988, -2.08368, -2.16577, -0.129914, 0.469279, -0.542667, 0.33319, -2.0818, -2.1632, -0.122644, -0.00153811, 0.014719, 0.00382447, 0.00742784, -0.00419993, -0.0222775
0.0840632, 1.6928, -1.22732, -1.54237, -0.900847, -1.19389, 1.22831, -1.30257, 0.0449436, -0.00622858, -0.0505455, 0.00926507, -0.0575684, 0.0141863, -0.000664516, 1.98341, 63.819, 31.8445, 6.0614, 1.87244, 3.76895, -0.0557752, -3.2433e-05, -0.00157143, 0.0029038, 0.0058289, -0.000851191, 0.000741695, 0.0223305, -0.0114839, -0.0228358, -0.0592487, 0.0592114, -0.00512297, 0.470969, -0.543017, 0.335992, -2.08367, -2.16577, -0.129915, 0.469296, -0.542666, 0.333167, -2.08179, -2.16321, -0.122514, -0.00157792, 0.0151063, 0.00392278, 0.00986367, -0.00295043, -0.0224411
0.0850632, 1.69285, -1.22733, -1.54241, -0.900846, -1.19396, 1.22833, -1.30257, 0.0456761, -0.00757263, -0.0508326, 0.00735124, -0.057429, 0.0152534, -0.000951533, 2.05878, 63.9658, 31.8842, 6.17248, 1.88434, 3.76895, -0.0420422, -5.18076e-05, -0.00155369, 0.00292899, 0.00588718, -0.00091619, 0.000737152, 0.0221089, -0.012533, -0.0239753, -0.0595724, 0.0586899, -0.00246146, 0.470967, -0.543002, 0.335996, -2.08367, -2.16577, -0.129916, 0.469311, -0.542665, 0.333142, -2.08178, -2.16323, -0.122385, -0.00161815, 0.015498, 0.00402212, 0.0108218, -0.00212121, -0.0234643
0.0860632, 1.69291, -1.22734, -1.54246, -0.900844, -1.19403, 1.22835, -1.30257, 0.0486212, -0.00670879, -0.047114, 0.00386611, -0.0625368, 0.0168958, -0.000396919, 2.05878, 64.0372, 31.8842, 6.24786, 1.90265, 3.74698, -0.0484509, -7.03552e-05, -0.00153338, 0.00295047, 0.00594162, -0.000990525, 0.000732255, 0.0205045, -0.0153596, -0.0226794, -0.0592356, 0.0649076, 0.0030505, 0.470966, -0.542986, 0.336, -2.08366, -2.16576, -0.129917, 0.46933, -0.542664, 0.333122, -2.08178, -2.16325, -0.122251, -0.00165881, 0.0158942, 0.00412249, 0.0135935, -0.000224818, -0.0219208
0.0870632, 1.69296, -1.22734, -1.54251, -0.900835, -1.19409, 1.22838, -1.30257, 0.0469547, -0.00622821, -0.0492563, 0.00623064, -0.0663531, 0.016709, 0.00119351, 2.05878, 64.1125, 31.9556, 6.24786, 1.92096, 3.76163, -0.0878186, -9.27015e-05, -0.00151642, 0.00297233, 0.00599433, -0.00106183, 0.000740455, 0.0234936, -0.0130705, -0.0227856, -0.0615536, 0.0685059, -0.00453038, 0.470964, -0.542971, 0.336004, -2.08365, -2.16576, -0.129918, 0.469345, -0.542666, 0.3331, -2.08179, -2.16326, -0.12212, -0.0016999, 0.0162947, 0.00422387, 0.0113695, -0.0028524, -0.0223195
0.0880632, 1.69301, -1.22735, -1.54257, -0.900831, -1.19416, 1.22841, -1.30257, 0.0489253, -0.00758015, -0.0541345, 0.0102033, -0.0734224, 0.0215349, -0.000391079, 2.05878, 64.2593, 32.031, 6.28357, 1.93378, 3.76895, -0.0557752, -0.000116481, -0.00149798, 0.00299874, 0.00605058, -0.00113557, 0.000739306, 0.0272532, -0.0125636, -0.0244663, -0.0633807, 0.0755776, -0.00910449, 0.470962, -0.542954, 0.336008, -2.08364, -2.16576, -0.129919, 0.469362, -0.542669, 0.333074, -2.08179, -2.16328, -0.121985, -0.0017414, 0.0166996, 0.00432627, 0.0108954, -0.00592057, -0.0244456
0.0890632, 1.69307, -1.22736, -1.54262, -0.900827, -1.19423, 1.22844, -1.30257, 0.0471156, -0.00848286, -0.0546851, 0.00915561, -0.0690315, 0.0202101, -0.000769313, 2.05878, 64.4061, 32.1064, 6.35895, 1.93378, 3.7836, -0.0420422, -0.000140093, -0.00147985, 0.00302683, 0.00611134, -0.00120629, 0.000742815, 0.0273583, -0.0119798, -0.0253978, -0.063187, 0.0706952, -0.00833967, 0.470961, -0.542938, 0.336012, -2.08364, -2.16575, -0.129921, 0.469378, -0.54267, 0.333047, -2.08179, -2.16329, -0.121846, -0.00178332, 0.0171089, 0.00442966, 0.0102403, -0.00549527, -0.0252608
0.0900632, 1.69313, -1.22737, -1.54268, -0.900825, -1.19431, 1.22847, -1.30257, 0.0464959, -0.00825051, -0.056343, 0.00536324, -0.0702981, 0.0237765, -0.000750209, 2.02308, 64.5172, 32.1064, 6.43433, 1.92737, 3.80466, -0.0356336, -0.000161828, -0.00145814, 0.00305154, 0.00617001, -0.00128741, 0.000735541, 0.0278796, -0.0127183, -0.026068, -0.0637348, 0.0743533, -0.00682384, 0.470959, -0.54292, 0.336017, -2.08363, -2.16575, -0.129922, 0.469398, -0.54267, 0.333023, -2.08178, -2.16331, -0.121701, -0.00182565, 0.0175225, 0.00453405, 0.0109298, -0.00546255, -0.0259217
0.0910632, 1.69319, -1.22737, -1.54273, -0.900822, -1.19438, 1.2285, -1.30257, 0.0505824, -0.00633317, -0.0553684, 0.0057398, -0.0663392, 0.0210118, 0.000957941, 1.9477, 64.5529, 32.1421, 6.5097, 1.91546, 3.84768, -0.0750012, -0.00018441, -0.00143781, 0.00307379, 0.00623003, -0.00137261, 0.000737742, 0.0251555, -0.0150335, -0.0250378, -0.0636513, 0.0719068, -0.00304266, 0.470957, -0.542903, 0.336021, -2.08362, -2.16575, -0.129923, 0.469416, -0.54267, 0.333001, -2.08179, -2.16333, -0.121549, -0.0018684, 0.0179404, 0.00463942, 0.013139, -0.00241899, -0.0244462
0.0920632, 1.69324, -1.22738, -1.54279, -0.90082, -1.19446, 1.22853, -1.30257, 0.0526142, -0.00765399, -0.0564702, 0.00290196, -0.0735349, 0.0233149, -7.34357e-05, 1.90803, 64.6997, 32.2532, 6.58508, 1.92096, 3.90536, -0.0557752, -0.000210704, -0.00141942, 0.00310278, 0.00629847, -0.00145537, 0.000739151, 0.0258611, -0.016274, -0.0265361, -0.0676606, 0.0782242, -0.00037365, 0.470955, -0.542885, 0.336026, -2.08361, -2.16574, -0.129924, 0.469433, -0.542673, 0.332972, -2.08179, -2.16335, -0.121391, -0.00191155, 0.0183626, 0.00474577, 0.0143056, -0.00241149, -0.0259666
0.0930632, 1.6933, -1.22739, -1.54285, -0.900821, -1.19454, 1.22856, -1.30257, 0.0522561, -0.00686456, -0.0535398, -3.48148e-05, -0.0776382, 0.0256258, -0.000557573, 1.79694, 64.7751, 32.2175, 6.69617, 1.89624, 3.94839, -0.0420422, -0.000232409, -0.00139673, 0.00312641, 0.00635906, -0.00154118, 0.000733461, 0.0259579, -0.0172242, -0.0252566, -0.0661903, 0.0837827, 0.00240004, 0.470953, -0.542867, 0.336031, -2.0836, -2.16574, -0.129926, 0.469453, -0.542671, 0.33295, -2.08178, -2.16338, -0.121239, -0.00195511, 0.0187891, 0.00485308, 0.0152607, -0.00223854, -0.0246399
0.0940632, 1.69336, -1.22739, -1.5429, -0.900825, -1.19462, 1.22859, -1.30257, 0.0544365, -0.0063386, -0.052606, 4.54161e-05, -0.0770116, 0.0318417, -0.00108378, 1.72157, 64.8505, 32.2175, 6.84296, 1.89075, 3.99783, -0.0228162, -0.000257731, -0.00137613, 0.00315079, 0.00641914, -0.00163205, 0.000730051, 0.0257359, -0.0198256, -0.0242168, -0.0598525, 0.0870891, 0.00571278, 0.470951, -0.542848, 0.336035, -2.08359, -2.16574, -0.129927, 0.469472, -0.542673, 0.332926, -2.08178, -2.1634, -0.121082, -0.00199908, 0.0192197, 0.00496136, 0.0178444, -0.00164205, -0.0235495
0.0950632, 1.69341, -1.2274, -1.54296, -0.900824, -1.19469, 1.22862, -1.30256, 0.0557994, -0.00673063, -0.0526158, -0.0011266, -0.0758469, 0.0333538, 0.000972904, 1.64619, 64.9576, 32.2532, 6.91833, 1.86603, 4.00516, -0.0685925, -0.000284447, -0.00135619, 0.00317625, 0.00647837, -0.00171883, 0.000736951, 0.0251955, -0.021295, -0.0245928, -0.05872, 0.0868665, 0.0064673, 0.470949, -0.542829, 0.33604, -2.08358, -2.16573, -0.129929, 0.46949, -0.542675, 0.332901, -2.0818, -2.16342, -0.120929, -0.00204344, 0.0196547, 0.0050706, 0.0192344, -0.000555148, -0.0237723
0.0960632, 1.69346, -1.2274, -1.54302, -0.900824, -1.19478, 1.22866, -1.30256, 0.0527264, -0.00624976, -0.0562792, -0.00122432, -0.0803022, 0.0332382, 0.000885966, 1.60651, 65.033, 32.3285, 6.95801, 1.85962, 4.04086, -0.0750012, -0.000314919, -0.00133993, 0.00320067, 0.00654476, -0.00181677, 0.000746111, 0.0285695, -0.0184384, -0.0254995, -0.0635467, 0.0913071, 0.000396228, 0.470947, -0.542809, 0.336045, -2.08357, -2.16573, -0.12993, 0.469504, -0.542681, 0.332877, -2.08181, -2.16344, -0.120756, -0.0020882, 0.0200938, 0.00518077, 0.0164246, -0.00342399, -0.0249955
0.0970632, 1.69352, -1.2274, -1.54308, -0.900826, -1.19486, 1.22869, -1.30256, 0.0522586, -0.0050013, -0.0563925, -0.00214557, -0.0779638, 0.0384664, -0.00012143, 1.49146, 65.0687, 32.4039, 7.02942, 1.82941, 4.06283, -0.0557752, -0.000341193, -0.00131831, 0.00322492, 0.00660778, -0.00191209, 0.000742055, 0.028949, -0.0195906, -0.0244935, -0.0581869, 0.0935131, 0.00250566, 0.470945, -0.542789, 0.336051, -2.08357, -2.16572, -0.129932, 0.469524, -0.542683, 0.332853, -2.08181, -2.16347, -0.120592, -0.00213335, 0.0205371, 0.00529189, 0.0175802, -0.00346282, -0.0239852
0.0980632, 1.69358, -1.2274, -1.54313, -0.900828, -1.19494, 1.22873, -1.30257, 0.0499509, -0.00509712, -0.0576498, -0.00210259, -0.0767467, 0.0375402, -0.00153901, 1.45576, 65.144, 32.4039, 7.06909, 1.81659, 4.09122, -0.0164075, -0.000369748, -0.00129912, 0.0032465, 0.00666704, -0.00201071, 0.000739698, 0.0303797, -0.0180614, -0.0249864, -0.0590719, 0.0921841, 0.00145379, 0.470943, -0.542768, 0.336056, -2.08356, -2.16572, -0.129933, 0.469541, -0.542686, 0.332832, -2.08182, -2.1635, -0.120428, -0.0021789, 0.0209845, 0.00540394, 0.0160407, -0.00441427, -0.0245361
0.0990632, 1.69363, -1.22741, -1.54318, -0.900836, -1.19503, 1.22876, -1.30256, 0.0517425, -0.00506828, -0.0555644, -0.00380833, -0.0804812, 0.0362878, 0.000432055, 1.41608, 65.2155, 32.4039, 7.18018, 1.81018, 4.13424, -0.0557752, -0.000396697, -0.00127887, 0.00326905, 0.00672558, -0.00210476, 0.000740158, 0.029715, -0.0191971, -0.0247064, -0.0610689, 0.0949616, 0.00254462, 0.470941, -0.542747, 0.336061, -2.08355, -2.16572, -0.129935, 0.469559, -0.542687, 0.332811, -2.08183, -2.16352, -0.120269, -0.00222483, 0.0214361, 0.00551691, 0.0171152, -0.00330274, -0.0240782
0.100063, 1.69368, -1.2274, -1.54323, -0.900833, -1.19511, 1.22879, -1.30256, 0.0505127, -0.00430669, -0.0571467, -0.00155978, -0.0831611, 0.0310143, 0.00123747, 1.34071, 65.2551, 32.4039, 7.14447, 1.78638, 4.16995, -0.0814099, -0.000426387, -0.00126088, 0.00328759, 0.00678343, -0.00220539, 0.000747813, 0.0316368, -0.0164714, -0.0249323, -0.0668732, 0.0954093, -0.00308145, 0.470939, -0.542726, 0.336067, -2.08354, -2.16571, -0.129936, 0.469575, -0.542692, 0.332793, -2.08184, -2.16354, -0.120104, -0.00227115, 0.0218918, 0.0056308, 0.0144073, -0.00482092, -0.0244038
0.101063, 1.69374, -1.22741, -1.54329, -0.900843, -1.19519, 1.22883, -1.30256, 0.0538423, -0.00304504, -0.0577985, -0.00353039, -0.0808048, 0.0318881, 0.000824984, 1.22962, 65.4019, 32.515, 7.25555, 1.77356, 4.19925, -0.0814099, -0.000453736, -0.00123921, 0.00331432, 0.00685093, -0.00230034, 0.000742097, 0.0296901, -0.0190975, -0.0248354, -0.0668377, 0.0957242, 0.00284005, 0.470936, -0.542704, 0.336072, -2.08353, -2.16571, -0.129938, 0.469595, -0.542692, 0.332767, -2.08184, -2.16357, -0.119935, -0.00231785, 0.0223516, 0.00574559, 0.016917, -0.00234632, -0.0239706
0.102063, 1.69379, -1.22741, -1.54335, -0.900844, -1.19527, 1.22886, -1.30257, 0.0485534, -0.000319517, -0.0563726, -0.00227265, -0.0801017, 0.0278573, -0.00185751, 1.15424, 65.4733, 32.5547, 7.25555, 1.78638, 4.22763, -0.0164075, -0.000482787, -0.00122003, 0.00333413, 0.00690815, -0.00239693, 0.000735825, 0.0317822, -0.0154236, -0.022662, -0.0670324, 0.0957132, 9.47586e-05, 0.470934, -0.542682, 0.336078, -2.08351, -2.1657, -0.12994, 0.469612, -0.542694, 0.332748, -2.08184, -2.16361, -0.119776, -0.00236493, 0.0228154, 0.00586128, 0.0133545, -0.00443323, -0.0219231
0.103063, 1.69384, -1.2274, -1.54339, -0.900854, -1.19535, 1.22889, -1.30257, 0.0457048, 0.00647829, -0.0552987, -0.00405285, -0.0783202, 0.0295166, -0.00100098, 1.03919, 65.4733, 32.5904, 7.36664, 1.76807, 4.25601, -0.0228162, -0.000507676, -0.00119788, 0.00335134, 0.00696656, -0.00249746, 0.000726652, 0.0319693, -0.0148265, -0.0182746, -0.0635486, 0.102072, -0.000996786, 0.470932, -0.542659, 0.336084, -2.0835, -2.1657, -0.129941, 0.469632, -0.542692, 0.332732, -2.08184, -2.16365, -0.119612, -0.00241239, 0.0232833, 0.00597787, 0.0128767, -0.00485072, -0.0174858
0.104063, 1.69389, -1.2274, -1.54344, -0.900855, -1.19543, 1.22892, -1.30256, 0.0475809, 0.00658855, -0.0524815, -0.00265637, -0.0770334, 0.0307003, 0.000282117, 1.03919, 65.5487, 32.6658, 7.36664, 1.74884, 4.28531, -0.0484509, -0.000541882, -0.00118517, 0.00337068, 0.00702543, -0.00259325, 0.000740631, 0.0313076, -0.0164603, -0.0170544, -0.0589795, 0.101714, 0.00017591, 0.470929, -0.542636, 0.33609, -2.08349, -2.16569, -0.129943, 0.469643, -0.542699, 0.332714, -2.08186, -2.16366, -0.11945, -0.00246022, 0.0237552, 0.00609534, 0.0144811, -0.00384639, -0.0161106
0.105063, 1.69394, -1.2274, -1.54349, -0.900856, -1.19551, 1.22894, -1.30256, 0.0526931, 0.00670566, -0.0523817, -0.00266479, -0.0770985, 0.0316301, 0.000459346, 0.888436, 65.6241, 32.7015, 7.40631, 1.75525, 4.31369, -0.0557752, -0.000568793, -0.0011641, 0.00338927, 0.00708368, -0.00268674, 0.000736636, 0.0296017, -0.0195419, -0.0171786, -0.0588021, 0.102753, 0.00512618, 0.470927, -0.542612, 0.336096, -2.08348, -2.16569, -0.129945, 0.469661, -0.542698, 0.332697, -2.08186, -2.16369, -0.119293, -0.00250842, 0.0242312, 0.00621369, 0.0174448, -0.00154058, -0.0159434
0.106063, 1.694, -1.22739, -1.54354, -0.900862, -1.19559, 1.22897, -1.30256, 0.0585193, 0.00374875, -0.052542, -0.00342135, -0.0770805, 0.0283747, 0.00125567, 0.777352, 65.6955, 32.7372, 7.47772, 1.76807, 4.32101, -0.0814099, -0.000596638, -0.00114334, 0.00340776, 0.00714118, -0.00278388, 0.000733219, 0.0272476, -0.0224425, -0.0197113, -0.0631774, 0.0987028, 0.0107732, 0.470924, -0.542588, 0.336102, -2.08347, -2.16568, -0.129946, 0.46968, -0.542698, 0.33268, -2.08187, -2.16372, -0.119133, -0.00255699, 0.0247111, 0.00633291, 0.0201166, 0.00177318, -0.0180473
0.107063, 1.69405, -1.22739, -1.54358, -0.900866, -1.19567, 1.229, -1.30256, 0.0564355, 0.000612271, -0.0526303, -0.00402493, -0.076242, 0.0212139, -0.000383592, 0.6623, 65.8066, 32.7768, 7.5531, 1.75525, 4.32834, -0.0484509, -0.000624439, -0.00112305, 0.00342649, 0.00719689, -0.00287412, 0.000723786, 0.02789, -0.0202617, -0.0222273, -0.0692288, 0.0915755, 0.01121, 0.470922, -0.542563, 0.336109, -2.08346, -2.16568, -0.129948, 0.469698, -0.542697, 0.332662, -2.08186, -2.16375, -0.118982, -0.00260593, 0.0251949, 0.006453, 0.0178211, 0.00192163, -0.0204455
0.108063, 1.6941, -1.22739, -1.54363, -0.900873, -1.19574, 1.22902, -1.30257, 0.0537722, -0.000728586, -0.0503063, -0.00443212, -0.0722227, 0.0203559, -0.00144252, 0.586922, 65.878, 32.8522, 7.62848, 1.77997, 4.34207, -0.0164075, -0.000651668, -0.00110431, 0.00344399, 0.00725634, -0.0029633, 0.000713671, 0.02821, -0.0196234, -0.0222316, -0.0658723, 0.0865556, 0.0125196, 0.470919, -0.542538, 0.336115, -2.08345, -2.16567, -0.12995, 0.469714, -0.542695, 0.332647, -2.08185, -2.16379, -0.118829, -0.00265523, 0.0256827, 0.00657393, 0.0171456, 0.0020683, -0.0203596
0.109063, 1.69415, -1.22738, -1.54367, -0.900873, -1.19581, 1.22904, -1.30257, 0.0518779, 0.00527785, -0.0485852, -0.00294394, -0.0683203, 0.0198005, -0.000249605, 0.511544, 65.9177, 32.9236, 7.62848, 1.77997, 4.34939, -0.0356336, -0.000681503, -0.00108745, 0.00345728, 0.00730799, -0.00305615, 0.000716009, 0.0282556, -0.0187964, -0.0178721, -0.0614175, 0.089011, 0.0101949, 0.470916, -0.542512, 0.336122, -2.08343, -2.16567, -0.129952, 0.469729, -0.542696, 0.332635, -2.08186, -2.16381, -0.118679, -0.00270489, 0.0261745, 0.00669572, 0.01643, 0.00180906, -0.0159158
0.110063, 1.6942, -1.22738, -1.54371, -0.900886, -1.19589, 1.22906, -1.30256, 0.0530783, 0.000909361, -0.0463846, -0.005481, -0.0707833, 0.0199252, 0.002275, 0.325081, 66.0645, 32.9633, 7.77924, 1.79828, 4.34207, -0.101552, -0.000705435, -0.00106362, 0.00347581, 0.00736655, -0.00314504, 0.000705088, 0.0279259, -0.0202848, -0.0201103, -0.0621907, 0.0871184, 0.0114524, 0.470914, -0.542486, 0.336128, -2.08342, -2.16566, -0.129954, 0.46975, -0.54269, 0.332619, -2.08185, -2.16385, -0.118527, -0.00275491, 0.0266701, 0.00681835, 0.0177732, 0.00303684, -0.0179973
0.111063, 1.69425, -1.22737, -1.54376, -0.900889, -1.19596, 1.22908, -1.30256, 0.0520146, 0.00524912, -0.0447744, -0.00448314, -0.0673381, 0.0201747, 0.000533325, 0.21003, 66.0287, 32.999, 7.81494, 1.80469, 4.32834, -0.0750012, -0.000733395, -0.00104546, 0.00348654, 0.00742071, -0.00324127, 0.000700387, 0.0278162, -0.0201404, -0.0168135, -0.057852, 0.0887579, 0.0131438, 0.470911, -0.542459, 0.336135, -2.08341, -2.16566, -0.129956, 0.469766, -0.542688, 0.33261, -2.08186, -2.16388, -0.118372, -0.00280528, 0.0271696, 0.00694181, 0.0176945, 0.00313044, -0.0145977
0.112063, 1.6943, -1.22737, -1.5438, -0.900895, -1.19603, 1.22909, -1.30256, 0.0521954, 0.00218028, -0.0422349, -0.00474744, -0.0696898, 0.0153988, -0.00157723, 0.059273, 66.2469, 33.1101, 7.89032, 1.81659, 4.32101, -0.0228162, -0.000762493, -0.00102659, 0.00350811, 0.00748402, -0.00332371, 0.000688953, 0.0278994, -0.0197001, -0.0182223, -0.061196, 0.085377, 0.0161947, 0.470908, -0.542432, 0.336142, -2.0834, -2.16565, -0.129958, 0.469783, -0.542686, 0.332591, -2.08184, -2.16391, -0.118221, -0.00285601, 0.0276729, 0.00706609, 0.0171557, 0.00375121, -0.0158643
0.113063, 1.69435, -1.22736, -1.54384, -0.900902, -1.1961, 1.22911, -1.30257, 0.049537, 0.00450149, -0.0406911, -0.00492478, -0.0720183, 0.0120667, -0.00128885, 0.0196001, 66.2866, 33.1101, 7.9657, 1.84131, 4.30636, -0.0164075, -0.000791417, -0.00101036, 0.00352081, 0.00753924, -0.00341223, 0.000679643, 0.0291286, -0.0176402, -0.0165212, -0.0631969, 0.0880315, 0.0133879, 0.470905, -0.542404, 0.336149, -2.08338, -2.16565, -0.12996, 0.469796, -0.542684, 0.332581, -2.08183, -2.16394, -0.118073, -0.00290708, 0.0281801, 0.00719119, 0.0151533, 0.00269823, -0.0141887
0.114063, 1.6944, -1.22735, -1.54388, -0.90091, -1.19618, 1.22912, -1.30256, 0.0477585, 0.00700883, -0.0403672, -0.00495107, -0.0729494, 0.0141425, 0.00154827, -0.166862, 66.2866, 33.1498, 8.03711, 1.84772, 4.29263, -0.0814099, -0.00081764, -0.000990408, 0.00353248, 0.0075997, -0.00350742, 0.00067383, 0.0305375, -0.0169698, -0.0146988, -0.0609561, 0.0925103, 0.00866296, 0.470902, -0.542376, 0.336156, -2.08337, -2.16564, -0.129962, 0.469814, -0.542679, 0.332572, -2.08183, -2.16397, -0.117912, -0.0029585, 0.0286911, 0.00731711, 0.0145491, 0.00151001, -0.0124626
0.115063, 1.69445, -1.22734, -1.54391, -0.900919, -1.19625, 1.22913, -1.30256, 0.0482224, 0.0118122, -0.0364533, -0.00817378, -0.0741798, 0.0110658, 0.00126954, -0.281914, 66.2866, 33.1498, 8.11249, 1.86603, 4.27798, -0.0878186, -0.0008441, -0.000969692, 0.003544, 0.00765364, -0.00359948, 0.000660679, 0.0285712, -0.0178897, -0.0112676, -0.0618564, 0.0970798, 0.013626, 0.470899, -0.542347, 0.336164, -2.08336, -2.16563, -0.129964, 0.469832, -0.542674, 0.332563, -2.08182, -2.16401, -0.117763, -0.00301027, 0.0292059, 0.00744383, 0.0154705, 0.00347457, -0.00867057
0.116063, 1.69451, -1.22733, -1.54395, -0.900927, -1.19633, 1.22914, -1.30257, 0.0493341, 0.0136377, -0.0373147, -0.0105601, -0.0751938, 0.0126057, -0.0017985, -0.43267, 66.358, 33.1855, 8.18787, 1.89075, 4.28531, -0.0164075, -0.000869931, -0.000949018, 0.00355726, 0.00771769, -0.00369118, 0.0006407, 0.0282745, -0.0190622, -0.0107945, -0.0627871, 0.101045, 0.0191453, 0.470896, -0.542318, 0.336171, -2.08334, -2.16563, -0.129966, 0.46985, -0.542667, 0.332552, -2.0818, -2.16405, -0.117603, -0.00306237, 0.0297245, 0.00757134, 0.0165958, 0.00426147, -0.00806588
0.117063, 1.69456, -1.22732, -1.54398, -0.900926, -1.1964, 1.22915, -1.30256, 0.048366, 0.00967763, -0.0340241, -0.00665575, -0.0757216, 0.0110033, -0.00096164, -0.508049, 66.3937, 33.1855, 8.15216, 1.90906, 4.24228, -0.0228162, -0.00090196, -0.000932289, 0.00356741, 0.00776595, -0.00378282, 0.000640548, 0.0300179, -0.0179861, -0.0115473, -0.0597816, 0.0964216, 0.0154574, 0.470893, -0.542288, 0.336179, -2.08333, -2.16562, -0.129968, 0.469865, -0.542667, 0.332545, -2.0818, -2.16408, -0.117459, -0.00311481, 0.0302468, 0.00769965, 0.0155039, 0.00313497, -0.00891991
0.118063, 1.69461, -1.22732, -1.54401, -0.900931, -1.19647, 1.22916, -1.30256, 0.052816, 0.00716279, -0.0325079, -0.00561055, -0.0752797, 0.00836111, 0.000816969, -0.658806, 66.5445, 33.2212, 8.18787, 1.90265, 4.23495, -0.0621838, -0.000928911, -0.000910984, 0.00358357, 0.00782319, -0.00386275, 0.000626703, 0.028446, -0.0201656, -0.0128539, -0.0608407, 0.0924847, 0.0181214, 0.47089, -0.542258, 0.336186, -2.08331, -2.16562, -0.129971, 0.469883, -0.54266, 0.332531, -2.08178, -2.16411, -0.117318, -0.00316759, 0.0307728, 0.00782873, 0.0175237, 0.00550417, -0.00990303
0.119063, 1.69466, -1.22731, -1.54405, -0.900939, -1.19655, 1.22917, -1.30256, 0.0526212, 0.00898207, -0.0331398, -0.00575723, -0.0753647, 0.0118295, 0.00125672, -0.809562, 66.5445, 33.3362, 8.26324, 1.90906, 4.20657, -0.0814099, -0.000958279, -0.000891877, 0.00359804, 0.00788956, -0.00395679, 0.000620541, 0.0293742, -0.0206053, -0.0117557, -0.0581906, 0.0964022, 0.0173074, 0.470887, -0.542227, 0.336194, -2.0833, -2.16561, -0.129973, 0.4699, -0.542655, 0.33252, -2.08177, -2.16414, -0.117152, -0.0032207, 0.0313025, 0.00795859, 0.017983, 0.00496652, -0.00884719
0.120063, 1.69471, -1.2273, -1.54408, -0.900945, -1.19663, 1.22918, -1.30256, 0.0552609, 0.00938923, -0.0315765, -0.00486359, -0.0764755, 0.0100535, -0.00109496, -0.920646, 66.5802, 33.3719, 8.29895, 1.93927, 4.16995, -0.0292249, -0.000989014, -0.000873499, 0.00360864, 0.00794575, -0.00405229, 0.000606505, 0.0286868, -0.0217424, -0.0111721, -0.0587246, 0.0970133, 0.0218944, 0.470884, -0.542196, 0.336202, -2.08328, -2.1656, -0.129975, 0.469915, -0.542651, 0.332512, -2.08176, -2.16418, -0.116996, -0.00327414, 0.031836, 0.00808922, 0.0190618, 0.00613549, -0.00806854
0.121063, 1.69476, -1.22729, -1.54411, -0.900948, -1.19671, 1.22919, -1.30256, 0.0572073, 0.0104907, -0.0287309, -0.00338506, -0.0760858, 0.0133151, -0.000255259, -1.0357, 66.5802, 33.3362, 8.29895, 1.93927, 4.13424, -0.0420422, -0.00101903, -0.00085366, 0.00361695, 0.00799704, -0.00414841, 0.000597124, 0.0283792, -0.0236695, -0.00917279, -0.0526084, 0.0994329, 0.0232109, 0.470881, -0.542164, 0.33621, -2.08327, -2.1656, -0.129978, 0.469933, -0.542647, 0.332507, -2.08176, -2.16422, -0.116845, -0.00332791, 0.0323731, 0.00822061, 0.0209944, 0.00674713, -0.00597447
0.122063, 1.69482, -1.22728, -1.54414, -0.900954, -1.1968, 1.22919, -1.30256, 0.0584645, 0.00964956, -0.031601, -0.00329172, -0.0765131, 0.0150309, -0.000882249, -1.26183, 66.6516, 33.3719, 8.33862, 1.95758, 4.12051, -0.0228162, -0.00104859, -0.000831618, 0.00363127, 0.00806051, -0.00424418, 0.000579931, 0.0293417, -0.0241609, -0.010628, -0.0539381, 0.100293, 0.0235516, 0.470877, -0.542132, 0.336219, -2.08325, -2.16559, -0.12998, 0.469952, -0.542641, 0.332495, -2.08174, -2.16426, -0.116682, -0.00338201, 0.0329138, 0.00835276, 0.0214125, 0.00658281, -0.00744446
0.123063, 1.69487, -1.22726, -1.54417, -0.900954, -1.19688, 1.2292, -1.30256, 0.0549205, 0.0100052, -0.0330318, -0.00134671, -0.081467, 0.0115978, 0.00181933, -1.33721, 66.5445, 33.3719, 8.29895, 1.9704, 4.10586, -0.0878186, -0.00108185, -0.000815851, 0.0036366, 0.00811832, -0.00434805, 0.00058402, 0.0329422, -0.020324, -0.010797, -0.058863, 0.103105, 0.0133379, 0.470874, -0.542099, 0.336227, -2.08324, -2.16558, -0.129982, 0.469965, -0.542639, 0.332493, -2.08175, -2.16428, -0.116515, -0.00343642, 0.0334582, 0.00848565, 0.0176492, 0.00344161, -0.00792264
0.124063, 1.69493, -1.22725, -1.5442, -0.900963, -1.19696, 1.2292, -1.30256, 0.0541945, 0.0115635, -0.0319444, -0.00272123, -0.08437, 0.0098303, 0.000975529, -1.48797, 66.5048, 33.4076, 8.37433, 1.9704, 4.07016, -0.0814099, -0.00111161, -0.00079343, 0.00364808, 0.00818041, -0.00444941, 0.00056674, 0.0334414, -0.0197729, -0.00983915, -0.0610893, 0.106464, 0.0142329, 0.47087, -0.542066, 0.336235, -2.08322, -2.16557, -0.129985, 0.469985, -0.542632, 0.332485, -2.08174, -2.16433, -0.116347, -0.00349116, 0.0340062, 0.00861928, 0.017097, 0.0033266, -0.00690475
0.125063, 1.69498, -1.22725, -1.54423, -0.900969, -1.19705, 1.22921, -1.30256, 0.0487416, 0.0108276, -0.0279091, -0.00278731, -0.0824912, 0.0074068, 0.000412994, -1.56335, 66.5445, 33.4473, 8.414, 1.9823, 4.06283, -0.0750012, -0.00114545, -0.000776107, 0.00366117, 0.00824485, -0.00454543, 0.000558019, 0.035017, -0.0172622, -0.00882487, -0.057934, 0.102822, 0.0120816, 0.470867, -0.542032, 0.336244, -2.0832, -2.16557, -0.129987, 0.469999, -0.542629, 0.332475, -2.08173, -2.16436, -0.116182, -0.00354621, 0.0345577, 0.00875364, 0.0146281, 0.00206325, -0.00593833
0.126063, 1.69504, -1.22724, -1.54426, -0.90098, -1.19714, 1.22921, -1.30256, 0.0464643, 0.00813143, -0.0269143, -0.00449052, -0.0853804, 0.00591689, -0.00165745, -1.7141, 66.5445, 33.4473, 8.52509, 1.9823, 4.04819, -0.0228162, -0.00117431, -0.00075237, 0.00367196, 0.00830598, -0.00464602, 0.000530857, 0.0365541, -0.0160275, -0.0103467, -0.0602822, 0.102049, 0.0130115, 0.470863, -0.541997, 0.336253, -2.08319, -2.16556, -0.12999, 0.47002, -0.54262, 0.332467, -2.0817, -2.16441, -0.116017, -0.00360158, 0.0351128, 0.00888872, 0.0133393, 0.00128547, -0.00750809
0.127063, 1.69509, -1.22723, -1.54428, -0.90098, -1.19723, 1.22922, -1.30256, 0.0498641, 0.010904, -0.0245142, -0.00519668, -0.0873739, 0.00454324, 0.00130253, -1.78948, 66.4691, 33.3719, 8.48541, 1.97681, 4.04086, -0.0878186, -0.00120869, -0.000733352, 0.00367915, 0.00835935, -0.00474897, 0.000530034, 0.0349038, -0.0180301, -0.00830143, -0.0607928, 0.106086, 0.0144983, 0.47086, -0.541962, 0.336262, -2.08317, -2.16555, -0.129992, 0.470036, -0.542617, 0.332463, -2.0817, -2.16444, -0.115856, -0.00365725, 0.0356715, 0.00902453, 0.015299, 0.00324008, -0.00515767
0.128063, 1.69515, -1.22721, -1.54431, -0.900983, -1.19732, 1.22922, -1.30255, 0.0454858, 0.00979909, -0.027837, -0.00290708, -0.0935135, 0.00378298, 0.00113962, -1.86486, 66.3937, 33.3719, 8.44971, 1.9704, 4.02713, -0.0951428, -0.00124351, -0.00071449, 0.00368737, 0.00842281, -0.00485806, 0.000522856, 0.0400369, -0.0136956, -0.00967192, -0.0654394, 0.109802, 0.00476423, 0.470856, -0.541926, 0.336271, -2.08315, -2.16554, -0.129995, 0.470052, -0.542614, 0.332458, -2.0817, -2.16448, -0.115679, -0.00371324, 0.0362337, 0.00916105, 0.0110485, -0.00123123, -0.00704207
0.129063, 1.6952, -1.2272, -1.54434, -0.900992, -1.19742, 1.22922, -1.30256, 0.0457026, 0.0111145, -0.0304222, -0.00390968, -0.0937489, 0.00324867, 0.000251121, -1.94024, 66.358, 33.3719, 8.52509, 1.97681, 4.01248, -0.0814099, -0.00127849, -0.000695337, 0.00369901, 0.00849164, -0.00496586, 0.000510087, 0.0406332, -0.0134689, -0.0100499, -0.0685513, 0.111594, 0.00544628, 0.470852, -0.54189, 0.33628, -2.08314, -2.16554, -0.129998, 0.470069, -0.542609, 0.33245, -2.08169, -2.16452, -0.115497, -0.00376953, 0.0367994, 0.00929827, 0.0107735, -0.00120483, -0.00736466
0.130063, 1.69525, -1.2272, -1.54436, -0.901006, -1.19751, 1.22922, -1.30256, 0.0451826, 0.011997, -0.0275261, -0.00619641, -0.093368, 0.00308378, -0.00176537, -1.97991, 66.3223, 33.2966, 8.67188, 1.95758, 3.99142, -0.0292249, -0.0013121, -0.000675151, 0.00370879, 0.00855413, -0.00507148, 0.000490908, 0.0399945, -0.0142369, -0.00885673, -0.0667928, 0.112352, 0.0104973, 0.470849, -0.541853, 0.336289, -2.08312, -2.16553, -0.13, 0.470086, -0.542603, 0.332444, -2.08167, -2.16457, -0.115325, -0.00382613, 0.0373685, 0.00943618, 0.0115045, -0.000157562, -0.00597337
0.131063, 1.69531, -1.22718, -1.54438, -0.901009, -1.19761, 1.22923, -1.30256, 0.0498616, 0.0113728, -0.0293963, -0.00651979, -0.0932077, 0.0024307, 0.000755869, -2.091, 66.2112, 33.2609, 8.63617, 1.94568, 3.9841, -0.0814099, -0.00134816, -0.000655817, 0.00371638, 0.00861691, -0.00518244, 0.000485256, 0.0387551, -0.0165488, -0.0102768, -0.0697177, 0.111896, 0.0120969, 0.470845, -0.541816, 0.336299, -2.0831, -2.16552, -0.130003, 0.470102, -0.542599, 0.332439, -2.08167, -2.16461, -0.115146, -0.00388303, 0.0379411, 0.00957479, 0.01366, 0.00195333, -0.00711514
0.132063, 1.69536, -1.22717, -1.5444, -0.901017, -1.19771, 1.22923, -1.30255, 0.050065, 0.00992733, -0.0297432, -0.00552856, -0.0932285, 0.00251196, 0.000741272, -2.20605, 66.1359, 33.1855, 8.67188, 1.93927, 3.96213, -0.0878186, -0.00138343, -0.000634765, 0.00372497, 0.00868094, -0.00529522, 0.000474051, 0.0397691, -0.0164563, -0.0111588, -0.0695243, 0.110754, 0.0113512, 0.470841, -0.541778, 0.336308, -2.08308, -2.16551, -0.130006, 0.47012, -0.542594, 0.332434, -2.08166, -2.16465, -0.114965, -0.00394022, 0.0385172, 0.00971408, 0.0135147, 0.00166131, -0.00800246
0.133063, 1.69542, -1.22717, -1.54443, -0.901026, -1.19781, 1.22923, -1.30255, 0.0536615, 0.00755607, -0.0279321, -0.00487384, -0.0944862, 0.0025128, -0.000217896, -2.3211, 66.2469, 33.1498, 8.71155, 1.96399, 3.94107, -0.0685925, -0.00142012, -0.000611888, 0.00374148, 0.00874517, -0.00539781, 0.000456501, 0.0390504, -0.0185905, -0.0120551, -0.0688495, 0.109669, 0.0158395, 0.470837, -0.541739, 0.336318, -2.08306, -2.1655, -0.130009, 0.47014, -0.542588, 0.332421, -2.08164, -2.16469, -0.114794, -0.00399771, 0.0390967, 0.00985405, 0.01553, 0.0031769, -0.0087015
0.134063, 1.69547, -1.22716, -1.54445, -0.901035, -1.1979, 1.22924, -1.30255, 0.0517459, 0.00905686, -0.0264539, -0.00427953, -0.0941383, 0.00226143, -0.00136597, -2.39648, 66.1002, 33.1101, 8.74725, 1.95758, 3.92642, -0.0356336, -0.00145733, -0.000591881, 0.0037495, 0.00880851, -0.005512, 0.000443953, 0.0401357, -0.0176498, -0.0105297, -0.0667841, 0.110833, 0.0154149, 0.470833, -0.5417, 0.336328, -2.08305, -2.1655, -0.130011, 0.470157, -0.542584, 0.332417, -2.08164, -2.16474, -0.114613, -0.0040555, 0.0396796, 0.00999469, 0.0146275, 0.00241444, -0.00719591
0.135063, 1.69553, -1.22716, -1.54447, -0.901041, -1.198, 1.22924, -1.30256, 0.0529396, 0.00951951, -0.0255816, -0.00533833, -0.0942227, 0.00181166, -0.000673286, -2.43218, 66.1002, 33.0744, 8.71155, 1.95758, 3.9191, -0.0420422, -0.00149626, -0.000572696, 0.00376094, 0.00886958, -0.00561636, 0.000432285, 0.0396393, -0.0186488, -0.010242, -0.066966, 0.111522, 0.0172569, 0.470829, -0.541661, 0.336338, -2.08303, -2.16549, -0.130014, 0.470173, -0.54258, 0.332409, -2.08162, -2.16478, -0.114443, -0.00411357, 0.0402659, 0.010136, 0.0155599, 0.00348777, -0.0067246
0.136063, 1.69558, -1.22716, -1.54449, -0.90105, -1.1981, 1.22924, -1.30255, 0.0504319, 0.00926712, -0.0238197, -0.00703754, -0.0940861, 0.00146971, 0.00124656, -2.47185, 66.1359, 32.999, 8.71155, 1.95758, 3.91269, -0.0878186, -0.00153532, -0.000552232, 0.00377505, 0.00893228, -0.00571968, 0.000422778, 0.0404503, -0.0179299, -0.00994711, -0.0659667, 0.111247, 0.015294, 0.470825, -0.54162, 0.336348, -2.08301, -2.16548, -0.130017, 0.47019, -0.542575, 0.332398, -2.08161, -2.16481, -0.114273, -0.00417194, 0.0408555, 0.0102779, 0.0148235, 0.00320199, -0.00639666
0.137063, 1.69563, -1.22715, -1.54451, -0.901064, -1.19821, 1.22924, -1.30255, 0.0516504, 0.00687977, -0.0235642, -0.0060663, -0.0947623, 0.00181205, 0.000356325, -2.50756, 66.1359, 32.9633, 8.74725, 1.9823, 3.89071, -0.0750012, -0.00157426, -0.00053111, 0.00378855, 0.00899832, -0.00582943, 0.000408086, 0.0411424, -0.0185112, -0.0112045, -0.0655691, 0.109837, 0.0165382, 0.470821, -0.541579, 0.336358, -2.08299, -2.16547, -0.13002, 0.470208, -0.54257, 0.332389, -2.0816, -2.16486, -0.114093, -0.00423059, 0.0414484, 0.0104206, 0.0153242, 0.00333043, -0.00762197
0.138063, 1.69569, -1.22715, -1.54452, -0.901072, -1.19831, 1.22924, -1.30254, 0.0540338, 0.00678322, -0.0201736, -0.00361353, -0.0950998, 0.00176439, 0.00023755, -2.58294, 66.0645, 32.9236, 8.71155, 1.99512, 3.87607, -0.0750012, -0.00161285, -0.000509822, 0.00379652, 0.00905512, -0.00593941, 0.000397216, 0.0407863, -0.0198992, -0.00989376, -0.0618823, 0.109948, 0.0184252, 0.470816, -0.541538, 0.336369, -2.08297, -2.16546, -0.130023, 0.470226, -0.542564, 0.332384, -2.08159, -2.1649, -0.113922, -0.00428952, 0.0420447, 0.0105638, 0.0166867, 0.00413322, -0.0061725
0.139063, 1.69573, -1.22715, -1.54455, -0.901082, -1.1984, 1.22924, -1.30255, 0.0534315, 0.00575207, -0.0202845, -0.00898228, -0.099296, 0.00196653, -0.000824978, -2.54723, 66.0287, 32.999, 8.71155, 1.98871, 3.85501, -0.0484509, -0.00165702, -0.000493675, 0.00381136, 0.00911753, -0.00604103, 0.000390088, 0.0410492, -0.0203613, -0.0112765, -0.0661665, 0.113223, 0.0222252, 0.470812, -0.541496, 0.336379, -2.08295, -2.16545, -0.130026, 0.470239, -0.542563, 0.332373, -2.08158, -2.16493, -0.113754, -0.00434873, 0.0426443, 0.0107077, 0.0170477, 0.00470658, -0.00744978
0.140063, 1.69578, -1.22714, -1.54456, -0.901089, -1.1985, 1.22924, -1.30254, 0.0502899, 0.00505876, -0.0165196, -0.00891828, -0.0985303, 0.00131879, 0.00117934, -2.54723, 65.9891, 32.9236, 8.67188, 2.00061, 3.85501, -0.0951428, -0.00169863, -0.000474924, 0.00382038, 0.00916859, -0.00614305, 0.000384194, 0.0421453, -0.0192736, -0.0102828, -0.06249, 0.11154, 0.0191833, 0.470808, -0.541453, 0.33639, -2.08293, -2.16544, -0.130029, 0.470254, -0.542559, 0.332368, -2.08158, -2.16496, -0.113597, -0.00440822, 0.0432472, 0.0108522, 0.0159779, 0.00402935, -0.00646269
0.141063, 1.69583, -1.22714, -1.54457, -0.901103, -1.1986, 1.22925, -1.30254, 0.0519931, 0.00359453, -0.0180464, -0.0107971, -0.0987533, 0.00142756, 0.00078623, -2.58294, 65.9891, 32.8879, 8.71155, 2.03174, 3.84036, -0.0951428, -0.00173939, -0.000453005, 0.00383296, 0.00922353, -0.00624773, 0.000366085, 0.041963, -0.0204374, -0.0120715, -0.0649813, 0.110956, 0.0221845, 0.470803, -0.54141, 0.336401, -2.08291, -2.16543, -0.130032, 0.470273, -0.542553, 0.332359, -2.08157, -2.16501, -0.113435, -0.00446799, 0.0438533, 0.0109973, 0.0170082, 0.00514049, -0.00809175
0.142063, 1.69588, -1.22714, -1.54458, -0.901114, -1.1987, 1.22925, -1.30254, 0.0465921, 0.00339808, -0.0160374, -0.0111481, -0.0970155, 0.000956084, -0.00120518, -2.62261, 65.9534, 32.8522, 8.71155, 2.02533, 3.84036, -0.0484509, -0.00178166, -0.000433341, 0.00384303, 0.00927692, -0.00635203, 0.000350342, 0.0440937, -0.0179946, -0.0113308, -0.0620551, 0.109115, 0.0207433, 0.470799, -0.541366, 0.336412, -2.08288, -2.16542, -0.130036, 0.470289, -0.542548, 0.332353, -2.08155, -2.16506, -0.113275, -0.00452802, 0.0444627, 0.0111431, 0.0146124, 0.00343183, -0.00747298
0.143063, 1.69593, -1.22713, -1.54459, -0.901131, -1.19879, 1.22925, -1.30254, 0.0424347, 0.00415351, -0.0122167, -0.0132718, -0.0959679, 0.000911938, -0.00104081, -2.65832, 65.878, 32.8522, 8.78693, 2.01343, 3.83304, -0.0420422, -0.00182141, -0.000411941, 0.00385033, 0.00932939, -0.00645971, 0.000329857, 0.0448644, -0.0169516, -0.00966442, -0.0584299, 0.10909, 0.0205479, 0.470794, -0.541322, 0.336423, -2.08286, -2.16541, -0.130039, 0.470307, -0.542541, 0.33235, -2.08154, -2.16511, -0.113113, -0.00458833, 0.0450753, 0.0112895, 0.0135994, 0.00298329, -0.00577059
0.144063, 1.69597, -1.22713, -1.5446, -0.901143, -1.1989, 1.22925, -1.30254, 0.0419086, 0.00453311, -0.0101236, -0.0128941, -0.0972987, 0.000610419, 0.00052683, -2.65832, 65.8066, 32.8879, 8.78693, 2.06195, 3.83304, -0.0750012, -0.0018654, -0.000393736, 0.00385746, 0.00938162, -0.00656975, 0.000321367, 0.0456038, -0.0167725, -0.00868817, -0.0570449, 0.110547, 0.0187311, 0.47079, -0.541277, 0.336434, -2.08284, -2.1654, -0.130042, 0.470322, -0.542538, 0.332347, -2.08153, -2.16515, -0.112948, -0.00464891, 0.0456911, 0.0114364, 0.0134225, 0.00271127, -0.00477061
0.145063, 1.69601, -1.22712, -1.54461, -0.901156, -1.19899, 1.22925, -1.30253, 0.0409592, 0.00392754, -0.00844213, -0.0127331, -0.0961968, 0.000137525, 0.000588579, -2.62261, 65.7709, 32.9236, 8.78693, 2.05646, 3.84036, -0.0814099, -0.00191164, -0.000378021, 0.00386735, 0.00943388, -0.00667158, 0.000316784, 0.0461482, -0.0165915, -0.0084669, -0.055167, 0.108968, 0.0188252, 0.470785, -0.541231, 0.336446, -2.08282, -2.16539, -0.130045, 0.470334, -0.542535, 0.332341, -2.08153, -2.16518, -0.11279, -0.00470975, 0.04631, 0.011584, 0.0132087, 0.00275153, -0.00448499
0.146063, 1.69606, -1.22712, -1.54462, -0.901174, -1.19909, 1.22925, -1.30253, 0.0438082, 0.00443428, -0.0062715, -0.0134204, -0.0959174, -0.0001782, 0.00475593, -2.7337, 65.6955, 32.9236, 8.82263, 2.06195, 3.84768, -0.0750012, -0.00195278, -0.000355801, 0.00387561, 0.00948825, -0.00678038, 0.000298108, 0.0447292, -0.0187347, -0.00772089, -0.0539747, 0.109447, 0.0192457, 0.47078, -0.541185, 0.336457, -2.0828, -2.16538, -0.130049, 0.470353, -0.542527, 0.332337, -2.08151, -2.16523, -0.112625, -0.00477085, 0.0469322, 0.0117321, 0.0152643, 0.00474777, -0.00344581
0.147063, 1.6961, -1.22712, -1.54462, -0.901187, -1.19919, 1.22925, -1.30253, 0.0395076, 0.00123247, -0.00466356, -0.0153878, -0.0958007, 0.000153505, 0.00162125, -2.7337, 65.7709, 32.9236, 8.78693, 2.07477, 3.84036, -0.0228162, -0.00200141, -0.000340298, 0.00388666, 0.009535, -0.00687956, 0.000285464, 0.0466737, -0.0172194, -0.00910489, -0.0526518, 0.10655, 0.0207919, 0.470776, -0.541138, 0.336469, -2.08277, -2.16537, -0.130052, 0.470365, -0.542526, 0.33233, -2.0815, -2.16527, -0.112477, -0.00483222, 0.0475574, 0.0118809, 0.0137089, 0.00360575, -0.00492135
0.148063, 1.69614, -1.22711, -1.54462, -0.9012, -1.19929, 1.22925, -1.30253, 0.038998, 0.00344974, -0.00263574, -0.0115328, -0.0963437, 0.000103116, 0.00306381, -2.69799, 65.6598, 32.8879, 8.78693, 2.09949, 3.84036, -0.0685925, -0.00204964, -0.000325552, 0.00388975, 0.00957856, -0.00699054, 0.000283099, 0.0481626, -0.0163638, -0.00656315, -0.0489321, 0.109022, 0.0162592, 0.470771, -0.54109, 0.336481, -2.08275, -2.16536, -0.130056, 0.470376, -0.542525, 0.332331, -2.08151, -2.16531, -0.11232, -0.00489384, 0.0481858, 0.0120302, 0.01294, 0.0023362, -0.00246982
0.149063, 1.69618, -1.22711, -1.54463, -0.901216, -1.19939, 1.22925, -1.30253, 0.0379031, 0.00315727, -0.00379183, -0.0117463, -0.10037, 6.93277e-05, 0.00249556, -2.77337, 65.6241, 32.9633, 8.78693, 2.09949, 3.84036, -0.0750012, -0.00209644, -0.000307596, 0.00389664, 0.00962679, -0.00709896, 0.000270403, 0.0502967, -0.0151771, -0.00715297, -0.0516654, 0.1124, 0.0140991, 0.470766, -0.541042, 0.336493, -2.08273, -2.16535, -0.130059, 0.470391, -0.542521, 0.332328, -2.0815, -2.16536, -0.112161, -0.00495572, 0.0488173, 0.01218, 0.0117482, 0.000903878, -0.00319996
0.150063, 1.69621, -1.22711, -1.54462, -0.901228, -1.19949, 1.22925, -1.30253, 0.0343444, 0.0012863, -0.00180345, -0.0132687, -0.0993285, 0.000317924, 0.00182546, -2.7337, 65.6598, 32.9236, 8.71155, 2.1178, 3.83304, -0.0750012, -0.00214861, -0.000294318, 0.00390344, 0.00966869, -0.00720521, 0.000269564, 0.0516586, -0.0141118, -0.00760461, -0.0494265, 0.110007, 0.0139835, 0.470761, -0.540993, 0.336505, -2.0827, -2.16534, -0.130063, 0.470401, -0.542522, 0.332325, -2.08151, -2.16539, -0.112011, -0.00501785, 0.0494519, 0.0123305, 0.0106547, 0.000220492, -0.00367636
0.151063, 1.69624, -1.22711, -1.54463, -0.90125, -1.19958, 1.22925, -1.30253, 0.0336311, 0.00170525, -0.002283, -0.0149637, -0.0980002, 0.000212278, -0.000594494, -2.77337, 65.6241, 32.9633, 8.78693, 2.1178, 3.83304, -0.0228162, -0.00219708, -0.000278321, 0.00391148, 0.00971546, -0.0073088, 0.00025096, 0.0519163, -0.0141675, -0.00778334, -0.0498432, 0.109757, 0.0174405, 0.470756, -0.540944, 0.336517, -2.08268, -2.16533, -0.130066, 0.470413, -0.542518, 0.332321, -2.08149, -2.16544, -0.111859, -0.00508023, 0.0500896, 0.0124815, 0.0106507, 0.000634144, -0.00374495
0.152063, 1.69627, -1.2271, -1.54463, -0.901266, -1.19968, 1.22925, -1.30253, 0.0356051, 0.00207423, -0.00247173, -0.0133985, -0.0976192, -0.00040077, 0.000915358, -2.77337, 65.5844, 32.999, 8.74725, 2.13611, 3.84768, -0.0557752, -0.00224973, -0.00026634, 0.00391459, 0.00975808, -0.00741989, 0.000250875, 0.0520268, -0.0148568, -0.00761646, -0.0497434, 0.109795, 0.0165856, 0.470751, -0.540894, 0.33653, -2.08266, -2.16532, -0.13007, 0.470422, -0.542519, 0.332322, -2.0815, -2.16548, -0.111703, -0.00514285, 0.0507303, 0.012633, 0.0112868, 0.00116884, -0.00346835
0.153063, 1.69631, -1.22709, -1.54462, -0.90129, -1.19978, 1.22925, -1.30252, 0.0343309, 0.00138985, 2.95313e-05, -0.0181305, -0.0968912, 4.2722e-06, 0.00470179, -2.80907, 65.5844, 32.9236, 8.82263, 2.13611, 3.84036, -0.0356336, -0.00229787, -0.000248598, 0.00392005, 0.009799, -0.00752647, 0.000233561, 0.0512923, -0.0158534, -0.00774311, -0.0488073, 0.109274, 0.0172003, 0.470746, -0.540843, 0.336542, -2.08263, -2.16531, -0.130073, 0.470436, -0.542514, 0.332321, -2.08149, -2.16553, -0.111555, -0.00520573, 0.051374, 0.0127851, 0.0121881, 0.00259876, -0.00335854
0.154063, 1.69634, -1.22709, -1.54462, -0.901311, -1.19988, 1.22925, -1.30252, 0.0368167, 0.00566134, -4.4726e-05, -0.0158028, -0.0955108, 2.98671e-06, 0.00551593, -2.84875, 65.513, 32.9236, 8.78693, 2.1178, 3.84036, -0.0878186, -0.00234933, -0.00023424, 0.0039232, 0.00984053, -0.00763776, 0.000229956, 0.0508874, -0.0168337, -0.00510471, -0.0469854, 0.112626, 0.0171816, 0.470741, -0.540792, 0.336555, -2.08261, -2.1653, -0.130077, 0.470446, -0.542513, 0.332322, -2.0815, -2.16557, -0.1114, -0.00526884, 0.0520207, 0.0129378, 0.0131869, 0.00327751, -0.000569402
0.155063, 1.69637, -1.22708, -1.54462, -0.901333, -1.19997, 1.22925, -1.30252, 0.0349787, 0.00403311, -0.00100615, -0.018052, -0.0993612, 0.000510721, 0.00231833, -2.88445, 65.513, 32.9633, 8.78693, 2.10498, 3.82663, -0.0420422, -0.00240157, -0.000219295, 0.00392969, 0.00988453, -0.00774623, 0.000213869, 0.0528719, -0.0158637, -0.00661182, -0.0499666, 0.114935, 0.0188881, 0.470735, -0.54074, 0.336568, -2.08258, -2.16528, -0.130081, 0.470458, -0.54251, 0.33232, -2.08149, -2.16562, -0.111247, -0.0053322, 0.0526704, 0.0130909, 0.0121708, 0.00216212, -0.00218548
0.156063, 1.6964, -1.22708, -1.54462, -0.90136, -1.20007, 1.22925, -1.30252, 0.0311988, 0.0028829, 0.00105624, -0.0197175, -0.097937, -0.000439335, 0.00623359, -2.95983, 65.513, 32.8879, 8.78693, 2.09949, 3.84768, -0.0356336, -0.00245261, -0.000203776, 0.00393519, 0.00992824, -0.00785406, 0.000200227, 0.0540266, -0.0145298, -0.00672646, -0.0484739, 0.112386, 0.014235, 0.47073, -0.540687, 0.336581, -2.08255, -2.16527, -0.130085, 0.470469, -0.542507, 0.332319, -2.08148, -2.16566, -0.111094, -0.0053958, 0.0533231, 0.0132446, 0.0108126, 0.00163807, -0.00228551
0.157063, 1.69642, -1.22706, -1.54461, -0.901386, -1.20017, 1.22925, -1.30252, 0.0294486, 0.004666, 0.00244022, -0.018725, -0.0966833, -0.000292831, 0.00449705, -2.92413, 65.4019, 32.8126, 8.82263, 2.08667, 3.84768, -0.0292249, -0.00250519, -0.000190849, 0.00393384, 0.00996289, -0.00796706, 0.000188751, 0.055086, -0.0137494, -0.00499056, -0.0455175, 0.113297, 0.0144665, 0.470725, -0.540634, 0.336594, -2.08253, -2.16526, -0.130089, 0.470479, -0.542505, 0.332325, -2.08148, -2.16571, -0.110946, -0.00545963, 0.0539787, 0.0133988, 0.0100719, 0.000947302, -0.00056032
0.158063, 1.69644, -1.22706, -1.54461, -0.901416, -1.20026, 1.22925, -1.30252, 0.0279122, 0.00238467, -0.000156803, -0.0242334, -0.0910479, -0.000466444, 0.00414412, -2.88445, 65.4376, 32.8879, 8.85834, 2.07477, 3.85501, -0.0484509, -0.00256175, -0.000181249, 0.00394327, 0.0100141, -0.00807085, 0.000184804, 0.0544341, -0.0143401, -0.00801664, -0.047746, 0.10726, 0.0188688, 0.470719, -0.54058, 0.336608, -2.0825, -2.16525, -0.130092, 0.470485, -0.542505, 0.33232, -2.08147, -2.16575, -0.110788, -0.00552369, 0.0546373, 0.0135535, 0.0104626, 0.00274307, -0.00331079
0.159063, 1.69647, -1.22705, -1.54461, -0.901448, -1.20035, 1.22925, -1.30251, 0.0286986, 0.00496476, 0.00164342, -0.024332, -0.092327, -0.00484082, 0.0040716, -2.92413, 65.4376, 32.8126, 8.85834, 2.08118, 3.84768, -0.0750012, -0.0026136, -0.00016568, 0.00394664, 0.0100544, -0.00818078, 0.000169064, 0.053921, -0.0141706, -0.00633722, -0.0503547, 0.10898, 0.0202102, 0.470714, -0.540525, 0.336621, -2.08248, -2.16524, -0.130096, 0.470496, -0.5425, 0.332322, -2.08146, -2.1658, -0.110637, -0.00558799, 0.0552987, 0.0137087, 0.0102728, 0.00364414, -0.00141355
0.160063, 1.69649, -1.22704, -1.5446, -0.901483, -1.20045, 1.22924, -1.30251, 0.0247335, 0.00847787, 0.00507862, -0.0274403, -0.0922154, -0.00335602, 0.00197519, -2.92413, 65.3662, 32.7768, 8.85834, 2.06836, 3.84036, -0.0484509, -0.00266632, -0.000152068, 0.00394727, 0.0100973, -0.00829561, 0.000152533, 0.0545355, -0.0135136, -0.00319458, -0.0464175, 0.113362, 0.0227804, 0.470708, -0.54047, 0.336635, -2.08245, -2.16522, -0.1301, 0.470506, -0.542496, 0.332326, -2.08146, -2.16585, -0.110479, -0.00565251, 0.0559631, 0.0138645, 0.0096907, 0.00318819, 0.00176755
0.161063, 1.69651, -1.22702, -1.54461, -0.901515, -1.20054, 1.22924, -1.30251, 0.0219853, 0.0070953, 0.00585583, -0.0266532, -0.0883903, -0.00280867, 0.00149989, -2.92413, 65.3265, 32.8126, 8.85834, 2.07477, 3.84768, -0.0484509, -0.00272431, -0.000142506, 0.00395089, 0.0101451, -0.00841164, 0.00014656, 0.0559422, -0.0125326, -0.00348795, -0.042665, 0.109245, 0.0215849, 0.470702, -0.540414, 0.336649, -2.08242, -2.16521, -0.130104, 0.470512, -0.542496, 0.332327, -2.08145, -2.16589, -0.110313, -0.00571726, 0.0566303, 0.0140207, 0.00868637, 0.00247219, 0.00144316
0.162063, 1.69652, -1.22701, -1.5446, -0.901552, -1.20063, 1.22924, -1.30252, 0.018156, 0.00723934, 0.00694757, -0.0284806, -0.0890208, -0.00209749, 0.000187815, -2.84875, 65.3662, 32.7015, 8.82263, 2.05005, 3.84768, -0.0228162, -0.00277962, -0.00013037, 0.00395128, 0.0101793, -0.00852173, 0.000128715, 0.0577497, -0.0110849, -0.00305229, -0.0415041, 0.110553, 0.0210855, 0.470697, -0.540357, 0.336663, -2.08239, -2.1652, -0.130108, 0.47052, -0.542493, 0.332332, -2.08145, -2.16595, -0.110169, -0.00578224, 0.0573004, 0.0141774, 0.00725715, 0.00123109, 0.00179071
0.163063, 1.69654, -1.227, -1.5446, -0.90159, -1.20072, 1.22924, -1.30251, 0.020601, 0.00864019, 0.00320239, -0.029954, -0.0951007, -0.00129584, 0.00290697, -2.84875, 65.3662, 32.7768, 8.78693, 2.05005, 3.84036, -0.0951428, -0.00283677, -0.000118015, 0.00395484, 0.0102207, -0.00863638, 0.000123557, 0.0588546, -0.0115978, -0.00384071, -0.0476882, 0.118168, 0.0182863, 0.470691, -0.5403, 0.336677, -2.08237, -2.16519, -0.130113, 0.470529, -0.542491, 0.332333, -2.08145, -2.16599, -0.110012, -0.00584743, 0.0579733, 0.0143346, 0.00771511, 0.000957303, 0.000979385
0.164063, 1.69655, -1.22698, -1.54459, -0.901631, -1.2008, 1.22924, -1.30251, 0.0181987, 0.0113819, 0.00331339, -0.0319451, -0.094172, -0.000990476, 0.00103188, -2.80907, 65.2908, 32.7372, 8.78693, 2.02533, 3.84036, -0.0685925, -0.0028917, -0.000106296, 0.00395333, 0.0102585, -0.00874942, 0.000106318, 0.0595978, -0.010866, -0.00235722, -0.0470809, 0.120715, 0.0198909, 0.470685, -0.540242, 0.336692, -2.08234, -2.16517, -0.130117, 0.470537, -0.542487, 0.33234, -2.08144, -2.16604, -0.109861, -0.00591285, 0.058649, 0.0144922, 0.00700093, 0.000639497, 0.00250645
0.165063, 1.69657, -1.22697, -1.54459, -0.901669, -1.20089, 1.22924, -1.30251, 0.0129469, 0.0105907, 0.00323197, -0.0316121, -0.0892488, -0.000483989, 0.000271135, -2.77337, 65.3265, 32.7015, 8.71155, 2.01984, 3.83304, -0.0557752, -0.00295058, -9.65587e-05, 0.00395411, 0.0102955, -0.00886149, 9.49194e-05, 0.0618981, -0.0085339, -0.00254327, -0.0433862, 0.116276, 0.0168483, 0.470679, -0.540183, 0.336706, -2.08231, -2.16516, -0.130121, 0.470542, -0.542486, 0.332344, -2.08144, -2.16609, -0.109712, -0.00597848, 0.0593275, 0.0146504, 0.00468267, -0.00101974, 0.00219186
0.166063, 1.69658, -1.22695, -1.54458, -0.901713, -1.20097, 1.22924, -1.30251, 0.0123051, 0.0142181, 0.00313074, -0.0355124, -0.0850326, 0.000114763, -0.00147121, -2.7337, 65.3265, 32.6658, 8.67188, 2.00702, 3.8193, -0.00999879, -0.00300732, -8.50119e-05, 0.00395401, 0.0103289, -0.00897045, 7.26275e-05, 0.0606398, -0.00958628, -0.000956988, -0.0422738, 0.117402, 0.0227079, 0.470673, -0.540124, 0.336721, -2.08228, -2.16515, -0.130125, 0.47055, -0.542482, 0.332349, -2.08142, -2.16615, -0.10957, -0.00604433, 0.0600088, 0.0148089, 0.00568157, 0.000701418, 0.00407903
0.167063, 1.69658, -1.22693, -1.54458, -0.901762, -1.20105, 1.22924, -1.3025, 0.0119164, 0.0176991, 0.00135759, -0.0362586, -0.0839206, 0.000294373, 0.000984558, -2.69799, 65.2908, 32.7015, 8.67188, 2.03815, 3.81198, -0.0621838, -0.00306461, -7.5164e-05, 0.003952, 0.0103719, -0.00908978, 6.44366e-05, 0.0611397, -0.00935505, 0.000353663, -0.0429712, 0.120587, 0.0200209, 0.470667, -0.540064, 0.336735, -2.08225, -2.16513, -0.130129, 0.470556, -0.542479, 0.332357, -2.08142, -2.16619, -0.109407, -0.00611038, 0.0606929, 0.014968, 0.00545163, 0.000679441, 0.00545927
0.168063, 1.69659, -1.22691, -1.54458, -0.901813, -1.20113, 1.22924, -1.3025, 0.0115566, 0.0185143, 0.00479403, -0.0389857, -0.0814625, -0.00422007, 0.00139289, -2.65832, 65.3265, 32.6658, 8.63617, 2.03174, 3.80466, -0.0814099, -0.00312202, -6.5103e-05, 0.00395172, 0.0104129, -0.00920211, 4.87563e-05, 0.0594515, -0.00984844, 0.00123887, -0.0437461, 0.117514, 0.024118, 0.470661, -0.540003, 0.33675, -2.08222, -2.16512, -0.130134, 0.470562, -0.542474, 0.332363, -2.08141, -2.16624, -0.109253, -0.00617665, 0.0613797, 0.0151275, 0.00585041, 0.00291594, 0.00673987
0.169063, 1.69659, -1.22689, -1.54457, -0.901866, -1.20121, 1.22924, -1.3025, 0.0087106, 0.022162, 0.00526657, -0.0411532, -0.0757699, -0.00245082, 0.00118428, -2.50756, 65.3662, 32.5904, 8.60046, 2.04364, 3.7836, -0.0878186, -0.0031815, -5.59321e-05, 0.00394873, 0.0104403, -0.00931466, 3.19279e-05, 0.059402, -0.00976014, 0.00349527, -0.0392635, 0.117769, 0.0255206, 0.470655, -0.539942, 0.336766, -2.08219, -2.1651, -0.130138, 0.470567, -0.542471, 0.332371, -2.0814, -2.1663, -0.109115, -0.00624313, 0.0620692, 0.0152874, 0.00577823, 0.0033008, 0.00913615
0.170063, 1.69659, -1.22686, -1.54457, -0.901922, -1.20129, 1.22924, -1.3025, 0.00520027, 0.0206839, 0.00345106, -0.045796, -0.076392, -0.00194688, -0.00160423, -2.43218, 65.3265, 32.7372, 8.56079, 2.06836, 3.7836, -0.0228162, -0.00324326, -4.9556e-05, 0.00394773, 0.010487, -0.00943708, 1.56398e-05, 0.0609907, -0.00859542, 0.00151943, -0.042347, 0.117811, 0.0279303, 0.470649, -0.53988, 0.336781, -2.08216, -2.16509, -0.130143, 0.470569, -0.54247, 0.332378, -2.08139, -2.16636, -0.108945, -0.00630981, 0.0627614, 0.0154478, 0.00453267, 0.00268363, 0.00713188
0.171063, 1.6966, -1.22684, -1.54457, -0.901985, -1.20136, 1.22924, -1.3025, 0.00433417, 0.0199321, 0.00673619, -0.0502709, -0.0723627, -0.0012614, 0.00453056, -2.43218, 65.4019, 32.7015, 8.56079, 2.09308, 3.77627, -0.0484509, -0.0032978, -3.4959e-05, 0.0039471, 0.0105219, -0.00954765, -9.80235e-06, 0.0594208, -0.0103296, 0.00165647, -0.0388618, 0.114641, 0.0278553, 0.470642, -0.539817, 0.336796, -2.08213, -2.16508, -0.130147, 0.470579, -0.542461, 0.332385, -2.08137, -2.16642, -0.108801, -0.00637669, 0.0634563, 0.0156086, 0.00614638, 0.00497898, 0.0076181
0.172063, 1.69659, -1.22682, -1.54456, -0.902043, -1.20143, 1.22924, -1.30249, 0.00177671, 0.0254584, 0.00635492, -0.0526958, -0.0735274, -0.000745731, 0.0046355, -2.3568, 65.3662, 32.7768, 8.52509, 2.10498, 3.76895, -0.0814099, -0.00335735, -2.76557e-05, 0.00394357, 0.0105589, -0.00965933, -2.34074e-05, 0.0604062, -0.0092714, 0.00457911, -0.0393966, 0.121871, 0.0267122, 0.470636, -0.539753, 0.336812, -2.0821, -2.16506, -0.130152, 0.470583, -0.542456, 0.332394, -2.08136, -2.16647, -0.108653, -0.00644377, 0.0641539, 0.0157699, 0.00516739, 0.00420653, 0.0105414
0.173063, 1.69659, -1.22679, -1.54456, -0.902105, -1.2015, 1.22924, -1.30249, -0.00101891, 0.0253214, 0.00809141, -0.0534937, -0.0705009, -0.000357934, 0.00314879, -2.24175, 65.3662, 32.7768, 8.44971, 2.14252, 3.76163, -0.0750012, -0.00341776, -2.02394e-05, 0.00393804, 0.010594, -0.00977755, -4.0098e-05, 0.0612232, -0.00864701, 0.00512586, -0.0359427, 0.11966, 0.0280373, 0.470629, -0.539689, 0.336828, -2.08207, -2.16505, -0.130156, 0.470586, -0.542452, 0.332405, -2.08135, -2.16652, -0.1085, -0.00651106, 0.0648541, 0.0159315, 0.0045269, 0.00398982, 0.0111325
0.174063, 1.69659, -1.22676, -1.54456, -0.902164, -1.20156, 1.22924, -1.30248, -0.00031337, 0.0236891, 0.00839581, -0.0556319, -0.0670836, 0.000204877, 0.00279578, -2.24175, 65.4376, 32.8126, 8.29895, 2.14801, 3.74698, -0.0878186, -0.00347637, -9.18545e-06, 0.00393552, 0.0106256, -0.0098857, -6.20065e-05, 0.0604671, -0.0101356, 0.00392663, -0.0346993, 0.116073, 0.0323438, 0.470623, -0.539624, 0.336844, -2.08204, -2.16503, -0.130161, 0.470593, -0.542445, 0.332414, -2.08134, -2.16658, -0.108362, -0.00657853, 0.0655569, 0.0160936, 0.00587449, 0.00568721, 0.010181
0.175063, 1.69658, -1.22673, -1.54456, -0.902236, -1.20162, 1.22924, -1.30249, -0.00939149, 0.0250855, 0.00384176, -0.0602628, -0.0649906, 0.000842202, 0.000334829, -2.13067, 65.4019, 32.9236, 8.26324, 2.16724, 3.72592, -0.0420422, -0.0035369, -1.57728e-06, 0.00393119, 0.0106626, -0.0100035, -8.72422e-05, 0.0643311, -0.00563257, 0.00297778, -0.0376971, 0.116801, 0.028445, 0.470616, -0.539559, 0.33686, -2.082, -2.16502, -0.130166, 0.470596, -0.542439, 0.332425, -2.08132, -2.16664, -0.108209, -0.0066462, 0.0662624, 0.0162561, 0.00141452, 0.00253969, 0.00894013
0.176063, 1.69657, -1.2267, -1.54455, -0.902307, -1.20168, 1.22925, -1.30248, -0.0111797, 0.0283021, 0.00319343, -0.062628, -0.0595317, 0.000777028, -0.000364059, -2.091, 65.4019, 32.9236, 8.18787, 2.20935, 3.7186, -0.0228162, -0.00359541, 8.28482e-06, 0.00392502, 0.0106927, -0.0101168, -0.000114115, 0.0639016, -0.00562678, 0.00433973, -0.0361904, 0.11605, 0.03094, 0.47061, -0.539493, 0.336876, -2.08197, -2.165, -0.13017, 0.470601, -0.542431, 0.332438, -2.0813, -2.16671, -0.108068, -0.00671407, 0.0669704, 0.016419, 0.00137665, 0.00346004, 0.0105131
0.177063, 1.69656, -1.22666, -1.54455, -0.902378, -1.20174, 1.22924, -1.30248, -0.0132611, 0.0274791, 0.00260315, -0.064504, -0.0590048, 0.00101877, 0.00476496, -2.01562, 65.4019, 32.9236, 8.11249, 2.22217, 3.70395, -0.0292249, -0.00365429, 1.72609e-05, 0.00391967, 0.0107242, -0.0102256, -0.000137492, 0.0651217, -0.0049341, 0.00346666, -0.0367034, 0.115451, 0.0253709, 0.470603, -0.539426, 0.336892, -2.08194, -2.16499, -0.130175, 0.470606, -0.542423, 0.33245, -2.08128, -2.16677, -0.10793, -0.00678212, 0.0676811, 0.0165822, 0.00062885, 0.00307364, 0.0096431
0.178063, 1.69655, -1.22663, -1.54455, -0.902449, -1.20179, 1.22924, -1.30247, -0.0121605, 0.0269505, 0.00255908, -0.0679604, -0.0544733, 0.000885205, 0.0100069, -1.90453, 65.4019, 33.0387, 8.0014, 2.25238, 3.69754, -0.0750012, -0.00371581, 2.42816e-05, 0.00391521, 0.0107588, -0.0103363, -0.000151518, 0.0634878, -0.00685349, 0.00252449, -0.0364078, 0.111895, 0.0258031, 0.470596, -0.539358, 0.336909, -2.0819, -2.16497, -0.13018, 0.470608, -0.542416, 0.332461, -2.08127, -2.16682, -0.107786, -0.00685036, 0.0683942, 0.0167459, 0.00238361, 0.00562584, 0.00907096
0.179063, 1.69654, -1.22659, -1.54455, -0.902525, -1.20185, 1.22924, -1.30247, -0.0113392, 0.030583, 0.00140084, -0.0712321, -0.0519648, 0.00110917, 0.0118561, -1.78948, 65.3662, 33.0744, 7.92602, 2.30182, 3.68289, -0.0685925, -0.00377647, 3.24818e-05, 0.0039084, 0.010789, -0.01045, -0.000179398, 0.0623182, -0.00813699, 0.00372049, -0.0372377, 0.114351, 0.0278886, 0.470589, -0.53929, 0.336926, -2.08187, -2.16495, -0.130185, 0.470612, -0.542408, 0.332474, -2.08125, -2.16688, -0.107645, -0.00691878, 0.06911, 0.01691, 0.00359984, 0.00736365, 0.010557
0.180063, 1.69653, -1.22656, -1.54455, -0.902601, -1.2019, 1.22925, -1.30247, -0.0105637, 0.0332065, 0.00363817, -0.0693036, -0.0492029, 0.00126436, 0.0071502, -1.6784, 65.3265, 33.1101, 7.77924, 2.33295, 3.66824, -0.0228162, -0.00383613, 4.2094e-05, 0.00390136, 0.010818, -0.0105615, -0.000212347, 0.0620384, -0.00887362, 0.00624343, -0.0326953, 0.11484, 0.0336564, 0.470582, -0.53922, 0.336943, -2.08184, -2.16494, -0.13019, 0.470617, -0.542398, 0.332489, -2.08122, -2.16695, -0.107508, -0.00698738, 0.0698282, 0.0170744, 0.00435163, 0.00799669, 0.0132308
0.181063, 1.69651, -1.22653, -1.54454, -0.902687, -1.20194, 1.22925, -1.30246, -0.0142437, 0.0355945, 0.00205738, -0.0726635, -0.0473361, 0.000829684, 0.00547295, -1.52764, 65.4019, 33.1498, 7.70386, 2.36957, 3.66824, -0.0228162, -0.0038966, 5.05201e-05, 0.00390063, 0.0108495, -0.0106605, -0.000242653, 0.0631134, -0.007405, 0.00672644, -0.0342518, 0.116113, 0.0345083, 0.470575, -0.539151, 0.33696, -2.0818, -2.16492, -0.130195, 0.470621, -0.542388, 0.332497, -2.08119, -2.16701, -0.107381, -0.00705617, 0.0705489, 0.0172392, 0.00287373, 0.00752049, 0.0137478
0.182063, 1.6965, -1.2265, -1.54454, -0.902772, -1.20198, 1.22925, -1.30246, -0.0109329, 0.037018, 0.000956342, -0.0752549, -0.0459223, 0.000814475, 0.00539895, -1.48797, 65.3662, 33.1855, 7.62848, 2.40619, 3.66092, -0.0557752, -0.0039536, 6.36129e-05, 0.00389642, 0.0108806, -0.0107665, -0.000276496, 0.0614308, -0.00981772, 0.00658586, -0.0360054, 0.117171, 0.0400926, 0.470568, -0.53908, 0.336977, -2.08177, -2.16491, -0.1302, 0.470629, -0.542373, 0.332508, -2.08115, -2.16708, -0.107247, -0.00712513, 0.0712721, 0.0174044, 0.00514865, 0.0100267, 0.0139606
0.183063, 1.69647, -1.22646, -1.54454, -0.902853, -1.20202, 1.22925, -1.30245, -0.0129601, 0.0358477, 0.000117321, -0.0782917, -0.040143, 0.00131544, 0.00470859, -1.26183, 65.2908, 33.2212, 7.47772, 2.44281, 3.63986, -0.0750012, -0.00401828, 6.8186e-05, 0.00388953, 0.0109049, -0.0108724, -0.000291653, 0.0613695, -0.0100153, 0.00525863, -0.0346875, 0.112141, 0.0430552, 0.470561, -0.539009, 0.336994, -2.08173, -2.16489, -0.130205, 0.470629, -0.542367, 0.332522, -2.08114, -2.16713, -0.107119, -0.00719427, 0.0719978, 0.0175699, 0.00522543, 0.0110278, 0.0128174
0.184063, 1.69645, -1.22643, -1.54453, -0.902944, -1.20206, 1.22925, -1.30244, -0.0159348, 0.0353909, 0.00198488, -0.0858501, -0.0349688, 0.00114265, 0.0019789, -1.11108, 65.3265, 33.1498, 7.40631, 2.45563, 3.63254, -0.0356336, -0.00407781, 7.81116e-05, 0.00388649, 0.0109281, -0.0109674, -0.000331909, 0.0598107, -0.0109668, 0.00466617, -0.0338081, 0.108165, 0.0521584, 0.470554, -0.538937, 0.337012, -2.0817, -2.16487, -0.13021, 0.470634, -0.542353, 0.332533, -2.0811, -2.1672, -0.107006, -0.00726359, 0.0727259, 0.0177358, 0.00602819, 0.0134264, 0.0126112
0.185063, 1.69643, -1.22639, -1.54454, -0.903032, -1.20209, 1.22925, -1.30244, -0.0171651, 0.0354481, 0.00203906, -0.0864539, -0.0365957, 0.000486317, 0.000830621, -0.996025, 65.2155, 33.2609, 7.25555, 2.48584, 3.63986, -0.0164075, -0.00414177, 8.36001e-05, 0.00388227, 0.0109634, -0.0110739, -0.000358711, 0.0611664, -0.0101588, 0.00460034, -0.0350149, 0.109622, 0.0521562, 0.470547, -0.538864, 0.33703, -2.08166, -2.16485, -0.130215, 0.470634, -0.542344, 0.332545, -2.08107, -2.16726, -0.106867, -0.00733307, 0.0734565, 0.0179021, 0.00519892, 0.0127959, 0.012523
