alisrour97/Franka_experiments/Real_Robot_scripts/servo-franka/Data3/log_dyn_INIT0_l_ki_14.csv
Time,q1,q2,q3,q4,q5,q6,q7,dq1,dq2,dq3,dq4,dq5,dq6,dq7,t1,t2,t3,t4,t5,t6,t7,ex1,ex2,ex3,ex4,ex5,ex6,ev1,ev2,ev3,ev4,ev5,ev6,xd,yd,zd,uxd,uyd,uzd,x,y,z,ux,uy,uz,vxd,vyd,vzd,vx,vy,vz
7.32422e-07, 1.69141, -1.22546, -1.53783, -0.900071, -1.19204, 1.22855, -1.3027, -0.00635796, -0.0053343, -0.00218811, 0.00303183, 0.000711361, -0.00128559, -0.00099105, 0.360787, 57.9633, 27.9011, 6.28357, 2.34485, 3.04477, -0.114369, 0.000964902, -0.00153389, -3.98357e-05, 0.000156379, -0.000771815, -0.000144294, 0.00441726, 0.00468633, -0.00326523, -0.000714572, -0.0068491, -0.00866289, 0.471008, -0.543389, 0.335894, -2.08385, -2.16584, -0.129887, 0.469455, -0.542495, 0.336137, -2.084, -2.16641, -0.128949, -4.82042e-07, 4.44613e-06, 1.21621e-06, -0.00464067, -0.00404558, -0.00376728
0.0119836, 1.69136, -1.22546, -1.53791, -0.900003, -1.19204, 1.22855, -1.30269, -0.00681994, -0.00189929, -0.00649806, 0.00158533, 0.00105712, 0.000167413, 0.00111224, 0.059273, 57.999, 27.9011, 6.32324, 2.31372, 3.03744, -0.127186, 0.000905545, -0.00159059, -2.09128e-05, 0.000181963, -0.000762119, 7.65205e-06, 0.00485673, 0.00513681, -0.00282595, -0.00338621, -0.00259492, -0.0119755, 0.471008, -0.543389, 0.335894, -2.08385, -2.16584, -0.129887, 0.469388, -0.542564, 0.336103, -2.08416, -2.16619, -0.128911, -1.47349e-06, 1.36697e-05, 3.70923e-06, -0.00505999, -0.00455625, -0.00338566
0.0129836, 1.69136, -1.22546, -1.53791, -0.900003, -1.19204, 1.22855, -1.30269, -0.00681994, -0.00189929, -0.00649806, 0.00158533, 0.00105712, 0.000167413, 0.00111224, 0.059273, 57.999, 27.9011, 6.32324, 2.31372, 3.03744, -0.127186, 0.000905537, -0.00159059, -2.0912e-05, 0.000181961, -0.000762121, 7.65293e-06, 0.00487048, 0.00513582, -0.0028274, -0.00338427, -0.00258875, -0.0119744, 0.471008, -0.543389, 0.335894, -2.08385, -2.16584, -0.129887, 0.469388, -0.542564, 0.336103, -2.08416, -2.16619, -0.128911, -2.9032e-06, 2.69793e-05, 7.30333e-06, -0.00505999, -0.00455625, -0.00338566
0.0139836, 1.69136, -1.22546, -1.53791, -0.900003, -1.19204, 1.22855, -1.30269, -0.00681994, -0.00189929, -0.00649806, 0.00158533, 0.00105712, 0.000167413, 0.00111224, 0.059273, 57.999, 27.9011, 6.32324, 2.31372, 3.03744, -0.127186, 0.000905517, -0.00159059, -2.09099e-05, 0.000181956, -0.000762128, 7.65531e-06, 0.0048891, 0.00513447, -0.00282936, -0.00338163, -0.00258038, -0.0119728, 0.471008, -0.543389, 0.335894, -2.08385, -2.16584, -0.129887, 0.469388, -0.542564, 0.336103, -2.08416, -2.16619, -0.128911, -4.83863e-06, 4.50071e-05, 1.21677e-05, -0.00505999, -0.00455625, -0.00338566
0.0149836, 1.69136, -1.22546, -1.53791, -0.900003, -1.19204, 1.22855, -1.30269, -0.00681994, -0.00189929, -0.00649806, 0.00158533, 0.00105712, 0.000167413, 0.00111224, 0.059273, 57.999, 27.9011, 6.32324, 2.31372, 3.03744, -0.127186, 0.000905478, -0.00159058, -2.09057e-05, 0.000181946, -0.000762142, 7.65992e-06, 0.00491319, 0.00513274, -0.00283189, -0.00337821, -0.00256954, -0.0119708, 0.471008, -0.543389, 0.335894, -2.08385, -2.16584, -0.129887, 0.469388, -0.542564, 0.336103, -2.08416, -2.16619, -0.128911, -7.34058e-06, 6.83239e-05, 1.84546e-05, -0.00505999, -0.00455625, -0.00338566
0.0159836, 1.69136, -1.22546, -1.53791, -0.900003, -1.19204, 1.22855, -1.30269, -0.00681994, -0.00189929, -0.00649806, 0.00158533, 0.00105712, 0.000167413, 0.00111224, 0.059273, 57.999, 27.9011, 6.32324, 2.31372, 3.03744, -0.127186, 0.000905413, -0.00159058, -2.08988e-05, 0.000181929, -0.000762164, 7.66753e-06, 0.00494324, 0.00513058, -0.00283504, -0.00337392, -0.00255602, -0.0119683, 0.471008, -0.543389, 0.335894, -2.08385, -2.16584, -0.129887, 0.469388, -0.542564, 0.336103, -2.08416, -2.16619, -0.128911, -1.04607e-05, 9.7416e-05, 2.62933e-05, -0.00505999, -0.00455625, -0.00338566
0.0169836, 1.69136, -1.22546, -1.53791, -0.900003, -1.19204, 1.22855, -1.30269, -0.00681994, -0.00189929, -0.00649806, 0.00158533, 0.00105712, 0.000167413, 0.00111224, 0.059273, 57.999, 27.9011, 6.32324, 2.31372, 3.03744, -0.127186, 0.000905317, -0.00159057, -2.08886e-05, 0.000181904, -0.000762198, 7.67884e-06, 0.00497964, 0.00512796, -0.00283885, -0.00336872, -0.00253962, -0.0119653, 0.471008, -0.543389, 0.335894, -2.08385, -2.16584, -0.129887, 0.469388, -0.542564, 0.336103, -2.08416, -2.16619, -0.128911, -1.42391e-05, 0.000132663, 3.57838e-05, -0.00505999, -0.00455625, -0.00338566
0.0179836, 1.69136, -1.22546, -1.53791, -0.900003, -1.19204, 1.22855, -1.30269, -0.00681994, -0.00189929, -0.00649806, 0.00158533, 0.00105712, 0.000167413, 0.00111224, 0.059273, 57.999, 27.9011, 6.32324, 2.31372, 3.03744, -0.127186, 0.000905182, -0.00159056, -2.08744e-05, 0.000181869, -0.000762244, 7.69461e-06, 0.00502266, 0.00512487, -0.00284334, -0.00336255, -0.00252023, -0.0119617, 0.471008, -0.543389, 0.335894, -2.08385, -2.16584, -0.129887, 0.469388, -0.542564, 0.336103, -2.08416, -2.16619, -0.128911, -1.87016e-05, 0.000174312, 4.69907e-05, -0.00505999, -0.00455625, -0.00338566
0.0189836, 1.69136, -1.22546, -1.53791, -0.900003, -1.19204, 1.22855, -1.30269, -0.00681994, -0.00189929, -0.00649806, 0.00158533, 0.00105712, 0.000167413, 0.00111224, 0.059273, 57.999, 27.9011, 6.32324, 2.31372, 3.03744, -0.127186, 0.000905004, -0.00159055, -2.08556e-05, 0.000181822, -0.000762306, 7.71555e-06, 0.00507238, 0.0051213, -0.00284853, -0.00335541, -0.00249781, -0.0119575, 0.471008, -0.543389, 0.335894, -2.08385, -2.16584, -0.129887, 0.469388, -0.542564, 0.336103, -2.08416, -2.16619, -0.128911, -2.38577e-05, 0.00022246, 5.99368e-05, -0.00505999, -0.00455625, -0.00338566
0.0199836, 1.69136, -1.22546, -1.53791, -0.900003, -1.19204, 1.22855, -1.30269, -0.00681994, -0.00189929, -0.00649806, 0.00158533, 0.00105712, 0.000167413, 0.00111224, 0.059273, 57.999, 27.9011, 6.32324, 2.31372, 3.03744, -0.127186, 0.000904775, -0.00159053, -2.08314e-05, 0.000181762, -0.000762386, 7.74239e-06, 0.00512874, 0.00511726, -0.0028544, -0.00334728, -0.00247238, -0.0119528, 0.471008, -0.543389, 0.335894, -2.08385, -2.16584, -0.129887, 0.469388, -0.542564, 0.336103, -2.08416, -2.16619, -0.128911, -2.96979e-05, 0.000277024, 7.45974e-05, -0.00505999, -0.00455625, -0.00338566
0.0209836, 1.69131, -1.22545, -1.53796, -0.89994, -1.19204, 1.22855, -1.3027, -0.00327564, 0.00121702, -0.00399143, 0.00474264, 0.000462437, 0.000575706, -0.00131826, -0.357292, 57.7768, 27.7146, 6.35895, 2.31372, 3.00174, -0.0685925, 0.000856662, -0.0016379, -2.33362e-05, 0.000181186, -0.000773617, 0.000127398, 0.00389327, 0.00343863, 0.000145144, 0.000142689, 0.00101693, -0.00782622, 0.471008, -0.543388, 0.335894, -2.08385, -2.16584, -0.129887, 0.469342, -0.542613, 0.336099, -2.08429, -2.16607, -0.128888, -3.61913e-05, 0.000337726, 9.08941e-05, -0.00332593, -0.00366887, -0.000266389
0.0219836, 1.69131, -1.22546, -1.53797, -0.899936, -1.19204, 1.22855, -1.30269, -0.00184181, -0.00106574, -0.00583257, 0.00364167, 0.000511748, 0.000383197, 0.00105393, -0.392998, 57.8522, 27.8257, 6.35895, 2.30823, 3.00174, -0.120778, 0.000849166, -0.00164423, -1.50192e-05, 0.000190437, -0.000766187, 0.000148518, 0.00357119, 0.00269483, -0.00210018, -0.00253574, -0.00110262, -0.00864409, 0.471008, -0.543388, 0.335894, -2.08385, -2.16584, -0.129887, 0.469336, -0.542619, 0.33609, -2.0843, -2.16604, -0.128883, -4.33151e-05, 0.00040436, 0.000108769, -0.00268278, -0.00290824, -0.00243803
0.0229836, 1.6913, -1.22545, -1.53797, -0.899932, -1.19204, 1.22855, -1.30269, -0.00569013, -0.00500405, -0.00877115, 0.00362293, -0.00277138, -1.62574e-05, -0.000518094, -0.357292, 57.63, 27.7503, 6.32324, 2.2652, 3.00906, -0.0878186, 0.000843844, -0.00165021, -1.72639e-05, 0.00019103, -0.000771062, 0.000157666, 0.00694575, 0.0057323, -0.00529634, -0.0067109, -0.0024274, -0.0132989, 0.471008, -0.543388, 0.335894, -2.08385, -2.16584, -0.129887, 0.46933, -0.542625, 0.336092, -2.08431, -2.16603, -0.128876, -5.10658e-05, 0.000476901, 0.000128212, -0.00571878, -0.00579951, -0.00600674
0.0239836, 1.69129, -1.22545, -1.53798, -0.899934, -1.19204, 1.22855, -1.3027, -0.00527033, -0.00664063, -0.0103129, 0.00268524, 0.00138843, -0.000553714, -0.00180347, -0.317619, 57.3364, 27.6392, 6.32324, 2.16724, 3.02371, -0.0484509, 0.000838849, -0.00165563, -1.35593e-05, 0.000201169, -0.000771523, 0.00016659, 0.00616087, 0.0051523, -0.00701241, -0.00722393, -0.00749845, -0.0100896, 0.471008, -0.543387, 0.335894, -2.08385, -2.16584, -0.129887, 0.469325, -0.542629, 0.336088, -2.08432, -2.16602, -0.128864, -5.94401e-05, 0.000555325, 0.000149214, -0.00523791, -0.00465836, -0.00757589
0.0249836, 1.69129, -1.22545, -1.53799, -0.899929, -1.19205, 1.22855, -1.30269, -0.0029972, -0.00122507, -0.00984943, -0.00166705, -0.00589971, -0.00196309, -0.00120232, -0.357292, 57.0032, 27.4528, 6.20819, 2.08667, 3.06674, -0.0484509, 0.000834636, -0.00165753, -1.32055e-05, 0.000205718, -0.000780296, 0.00017624, 0.0046315, 0.00399385, -0.00452432, -0.0133981, 0.00362899, -0.00694873, 0.471008, -0.543387, 0.335895, -2.08385, -2.16584, -0.129887, 0.469323, -0.542632, 0.336087, -2.08433, -2.16601, -0.128849, -6.84344e-05, 0.000639605, 0.000171766, -0.00405484, -0.00339979, -0.0048941
0.0259836, 1.6913, -1.22545, -1.538, -0.899929, -1.19206, 1.22855, -1.30269, -0.00147166, 0.00305551, -0.00947861, -0.000653544, -0.00677713, 0.00179066, -0.00053028, -0.392998, 56.781, 27.3774, 6.17248, 2.00702, 3.10977, -0.0557752, 0.000830025, -0.00165955, -6.75607e-06, 0.000222288, -0.000787226, 0.000187935, 0.00442607, 0.00278278, -0.00149801, -0.00960376, 0.0104443, -0.00718257, 0.471008, -0.543386, 0.335895, -2.08384, -2.16584, -0.129887, 0.469321, -0.542635, 0.33608, -2.08434, -2.166, -0.128822, -7.80454e-05, 0.000729718, 0.000195859, -0.00275305, -0.00352313, -0.00188636
0.0269836, 1.6913, -1.22547, -1.53801, -0.89993, -1.19208, 1.22855, -1.30269, 0.00417071, 0.000115474, -0.00819889, 0.000116474, -0.00891408, 0.00518655, -0.00109951, -0.357292, 56.8207, 27.2663, 6.13678, 1.9704, 3.13815, -0.0356336, 0.000822771, -0.00166234, 3.38903e-06, 0.000236407, -0.000790623, 0.000196112, 0.00303818, -0.000876866, -0.00267161, -0.00726687, 0.0110094, -0.00175504, 0.471008, -0.543385, 0.335895, -2.08384, -2.16584, -0.129887, 0.469318, -0.54264, 0.336069, -2.08434, -2.16598, -0.128802, -8.82697e-05, 0.000825639, 0.000221482, 0.000799662, -0.00172668, -0.00291446
0.0279836, 1.69129, -1.22547, -1.53802, -0.899936, -1.1921, 1.22856, -1.30269, 0.00286199, -0.00150337, -0.00587578, -0.000969854, -0.0156692, 0.00335878, -0.000970367, -0.206535, 56.8564, 27.2306, 6.17248, 1.94568, 3.15921, -0.0292249, 0.000812021, -0.00167029, 8.88796e-06, 0.000254329, -0.000808616, 0.000212916, 0.00421892, 0.000264982, -0.00305109, -0.0104054, 0.0139768, -0.0033377, 0.471008, -0.543384, 0.335895, -2.08384, -2.16584, -0.129887, 0.46931, -0.54265, 0.336063, -2.08436, -2.16597, -0.128763, -9.91039e-05, 0.000927342, 0.000248628, -0.000323024, -0.00277895, -0.00341086
0.0289836, 1.69129, -1.22548, -1.53803, -0.899931, -1.19213, 1.22857, -1.30269, 0.00243836, -0.00415956, -0.00802269, 0.000957454, -0.0219236, 0.00434361, 0.000811149, -0.206535, 56.9675, 27.2306, 6.09711, 1.95209, 3.11618, -0.0685925, 0.000803508, -0.00167105, 1.41879e-05, 0.000263764, -0.00082885, 0.000229099, 0.00713033, 0.0017791, -0.00500499, -0.0135604, 0.0169452, -0.0103014, 0.471007, -0.543383, 0.335895, -2.08384, -2.16584, -0.129887, 0.469309, -0.542656, 0.336056, -2.08438, -2.16596, -0.12873, -0.000110545, 0.0010348, 0.000277287, -0.00181305, -0.00530694, -0.00571775
0.0299836, 1.69129, -1.22548, -1.53802, -0.899932, -1.19215, 1.22857, -1.30269, 0.00244129, -0.00265232, -0.00688888, 0.000518892, -0.0262452, 0.00875566, -0.000679938, -0.0914839, 57.0786, 27.1195, 6.09711, 1.95209, 3.09512, -0.0356336, 0.000795234, -0.00167376, 1.50654e-05, 0.000269424, -0.000852183, 0.000236321, 0.00804989, 0.00117941, -0.00340173, -0.010815, 0.024186, -0.00934251, 0.471007, -0.543382, 0.335896, -2.08384, -2.16584, -0.129887, 0.469307, -0.542664, 0.336055, -2.08439, -2.16596, -0.128699, -0.000122588, 0.001148, 0.000307449, -0.00113542, -0.00632381, -0.00426528
0.0309836, 1.69129, -1.22548, -1.53803, -0.899935, -1.19218, 1.22858, -1.30269, 0.00275447, -0.00349148, -0.00641582, -0.00067165, -0.0279976, 0.00732961, -0.000215934, 0.0196001, 57.15, 27.1552, 6.13678, 1.92096, 3.07315, -0.0420422, 0.000786341, -0.00167697, 1.80052e-05, 0.000283107, -0.000878527, 0.00024896, 0.00786062, 0.0010888, -0.00404615, -0.0131237, 0.024219, -0.00879102, 0.471007, -0.543381, 0.335896, -2.08384, -2.16584, -0.129887, 0.469304, -0.542671, 0.336051, -2.08441, -2.16596, -0.128656, -0.000135232, 0.0012669, 0.000339106, -0.00108761, -0.00591515, -0.00484329
0.0319836, 1.69129, -1.22548, -1.53804, -0.899935, -1.19222, 1.22858, -1.30269, 0.00159036, -0.00236727, -0.00585344, -0.000514935, -0.0254759, 0.00870664, 0.00131411, 0.059273, 57.15, 27.1909, 6.13678, 1.90906, 3.10977, -0.0814099, 0.000778367, -0.0016788, 1.99385e-05, 0.000299639, -0.000908872, 0.000263606, 0.00797207, 0.00115369, -0.00299582, -0.00989244, 0.0239292, -0.0104984, 0.471007, -0.54338, 0.335896, -2.08384, -2.16584, -0.129887, 0.469302, -0.542677, 0.336048, -2.08443, -2.16595, -0.128606, -0.000148472, 0.00139149, 0.000372248, -0.00112375, -0.00606491, -0.00378838
0.0329836, 1.6913, -1.22549, -1.53803, -0.899937, -1.19225, 1.22859, -1.30269, 0.00774904, -0.00337114, -0.00362283, -0.000393667, -0.0320631, 0.0039303, 0.000401352, 0.059273, 57.2253, 27.1552, 6.13678, 1.87244, 3.18118, -0.0685925, 0.000776511, -0.00167462, 2.26903e-05, 0.000311997, -0.0009294, 0.000258033, 0.00584594, -0.00107949, -0.0035347, -0.0161214, 0.0260529, -0.00471986, 0.471007, -0.543379, 0.335897, -2.08384, -2.16584, -0.129888, 0.469306, -0.542677, 0.336045, -2.08443, -2.16597, -0.128572, -0.000162305, 0.00152173, 0.000406866, 0.000997226, -0.00366137, -0.00402318
0.0339836, 1.6913, -1.22548, -1.53803, -0.899935, -1.19228, 1.22859, -1.30269, 0.00652386, 0.000328744, -0.00366726, 0.000627793, -0.032351, 0.00187582, -0.00020715, 0.170357, 57.1143, 27.1909, 6.09711, 1.8349, 3.21689, -0.0557752, 0.000766931, -0.00167853, 1.82604e-05, 0.000323716, -0.000969793, 0.000271814, 0.00633245, 0.000309676, -0.00136622, -0.0170752, 0.0288986, -0.00638716, 0.471007, -0.543377, 0.335897, -2.08384, -2.16584, -0.129888, 0.469302, -0.542686, 0.336049, -2.08446, -2.16597, -0.128517, -0.000176727, 0.00165761, 0.000442951, -0.000308889, -0.00439639, -0.00187954
0.0349836, 1.6913, -1.22548, -1.53803, -0.899937, -1.19233, 1.2286, -1.30269, 0.0055923, 0.00103767, -0.00275745, -0.00278904, -0.0328229, 0.0053078, -0.00183352, 0.285408, 57.0786, 27.1909, 6.09711, 1.80469, 3.24527, -0.00999879, 0.00075905, -0.00167935, 1.60894e-05, 0.000336684, -0.00101054, 0.000277978, 0.0060725, -0.000662974, -0.000765093, -0.0149183, 0.0319694, -0.00240898, 0.471007, -0.543375, 0.335898, -2.08384, -2.16584, -0.129888, 0.469302, -0.542692, 0.33605, -2.08448, -2.16598, -0.12846, -0.000191736, 0.0017991, 0.000480493, 0.000659901, -0.004051, -0.0012374
0.0359836, 1.69131, -1.22548, -1.53803, -0.899938, -1.19237, 1.2286, -1.30268, 0.00606993, -0.00191922, -0.00207276, -0.00214555, -0.0377089, 0.00238829, 0.000710432, 0.360787, 57.1896, 27.1909, 6.09711, 1.76807, 3.29562, -0.0621838, 0.000753124, -0.00167803, 1.97905e-05, 0.000355584, -0.00103894, 0.000288281, 0.00700544, 0.000112407, -0.00246542, -0.0191225, 0.0315632, -0.00629136, 0.471006, -0.543374, 0.335898, -2.08384, -2.16584, -0.129888, 0.469303, -0.542696, 0.336046, -2.08449, -2.16598, -0.12841, -0.000207328, 0.00194618, 0.000519485, -0.000158092, -0.00459496, -0.00299879
0.0369836, 1.69132, -1.22548, -1.53803, -0.89994, -1.19241, 1.22861, -1.30268, 0.00538299, 0.000474359, -0.000722467, -0.00164501, -0.0410963, 0.00239951, 0.00071098, 0.475838, 57.1143, 27.1552, 6.09711, 1.72504, 3.2883, -0.0685925, 0.000746047, -0.00167706, 1.52525e-05, 0.00036544, -0.00108467, 0.000295148, 0.00777789, 0.0007845, -0.000489265, -0.0189423, 0.0366471, -0.00792356, 0.471006, -0.543372, 0.335899, -2.08384, -2.16584, -0.129888, 0.469304, -0.542701, 0.33605, -2.08452, -2.16599, -0.128352, -0.0002235, 0.00209882, 0.000559916, -0.000746526, -0.00553658, -0.00110669
0.0379836, 1.69132, -1.22549, -1.53803, -0.899941, -1.19245, 1.22862, -1.30269, 0.00875756, -0.00312449, -0.00144875, -0.00364906, -0.0397551, 0.00173044, -0.00145879, 0.701973, 57.261, 27.1909, 6.0614, 1.70032, 3.29562, -0.0164075, 0.000733413, -0.00167981, 2.16143e-05, 0.000381766, -0.00111642, 0.000307292, 0.00600892, -0.0015353, -0.00339124, -0.0212854, 0.0320326, -0.000490291, 0.471006, -0.54337, 0.335899, -2.08384, -2.16584, -0.129888, 0.469301, -0.542711, 0.336042, -2.08454, -2.16599, -0.1283, -0.000240248, 0.00225699, 0.000601779, 0.00138551, -0.00309042, -0.00372567
0.0389836, 1.69132, -1.22548, -1.53803, -0.899951, -1.1925, 1.22863, -1.30268, 0.0100703, 0.000510176, -0.00106474, -0.00767299, -0.0443185, 0.00532909, 0.000722892, 0.85273, 57.15, 27.1909, 6.13678, 1.70581, 3.31759, -0.0621838, 0.000726035, -0.00167853, 1.76271e-05, 0.000403269, -0.00117563, 0.000314041, 0.00525333, -0.00332875, -0.00144685, -0.0217344, 0.0416183, 0.000752012, 0.471006, -0.543367, 0.3359, -2.08384, -2.16584, -0.129888, 0.469303, -0.542717, 0.336046, -2.08456, -2.16601, -0.128216, -0.000257569, 0.00242068, 0.000645063, 0.0032025, -0.00240671, -0.00169924
0.0399836, 1.69134, -1.22548, -1.53803, -0.899947, -1.19255, 1.22864, -1.30268, 0.00895818, -0.000591869, -0.00171203, -0.00213835, -0.0516987, 0.00832114, 0.000956646, 0.963814, 57.1896, 27.2306, 5.98602, 1.6875, 3.33133, -0.0750012, 0.000716208, -0.00167648, 2.00013e-05, 0.000419341, -0.00121804, 0.000327302, 0.00957337, -0.0011016, -0.00124772, -0.0203969, 0.0476438, -0.00817613, 0.471005, -0.543365, 0.3359, -2.08384, -2.16584, -0.129889, 0.469305, -0.542723, 0.336042, -2.08459, -2.16601, -0.128154, -0.00027546, 0.00258986, 0.000689759, 0.001122, -0.00662419, -0.00206128
0.0409836, 1.69134, -1.22549, -1.53803, -0.899955, -1.19261, 1.22865, -1.30268, 0.00432879, -0.00290321, 0.00140146, -0.00267291, -0.0534133, 0.0111046, -0.000582939, 1.22962, 57.2968, 27.1195, 6.02173, 1.69391, 3.33133, -0.0420422, 0.000704883, -0.001677, 2.07912e-05, 0.00042924, -0.0012634, 0.000332027, 0.0118501, 0.000459292, -0.00110406, -0.0157595, 0.0479096, -0.00975823, 0.471005, -0.543362, 0.335901, -2.08383, -2.16584, -0.129889, 0.469304, -0.542732, 0.33604, -2.08461, -2.16603, -0.128097, -0.000293917, 0.0027645, 0.00073586, -0.000368725, -0.00878321, -0.00217965
0.0419836, 1.69135, -1.22548, -1.53803, -0.899954, -1.19266, 1.22866, -1.30268, 0.00567718, -0.000267267, -0.00170588, 0.000507422, -0.0499256, 0.0131305, -0.00133806, 1.305, 57.2253, 27.2306, 5.91064, 1.70032, 3.33133, -0.0164075, 0.000696888, -0.00167236, 2.07426e-05, 0.000450554, -0.0013177, 0.000334362, 0.0122967, 0.000231012, -0.000127087, -0.0135375, 0.0487293, -0.0108095, 0.471005, -0.54336, 0.335902, -2.08383, -2.16584, -0.129889, 0.469309, -0.542737, 0.33604, -2.08463, -2.16605, -0.128018, -0.000312938, 0.00294458, 0.000783355, -0.000108514, -0.00918509, -0.00124368
0.0429836, 1.69137, -1.22548, -1.53803, -0.899953, -1.19271, 1.22867, -1.30268, 0.00778334, 0.00158339, -0.000240528, -0.000405606, -0.0516981, 0.0148769, 0.0012781, 1.45576, 57.15, 27.1909, 5.79956, 1.70032, 3.324, -0.0750012, 0.000687802, -0.00166899, 1.57154e-05, 0.000461473, -0.00137583, 0.000347866, 0.0113328, -0.00151212, 0.00137744, -0.012138, 0.0530271, -0.0104507, 0.471005, -0.543357, 0.335903, -2.08383, -2.16584, -0.129889, 0.469313, -0.542743, 0.336044, -2.08467, -2.16606, -0.127946, -0.000332518, 0.00313007, 0.000832236, 0.00163265, -0.00820826, 0.000387855
0.0439836, 1.69139, -1.22548, -1.53803, -0.899953, -1.19277, 1.22869, -1.30268, 0.0121901, -0.000708902, -0.00111184, -0.00119003, -0.0539476, 0.0153436, 0.00108942, 1.49146, 57.2253, 27.2306, 5.68848, 1.73053, 3.33865, -0.0814099, 0.000680869, -0.00166076, 1.93854e-05, 0.000482531, -0.00142765, 0.000346919, 0.010235, -0.00389509, -0.000595457, -0.0147556, 0.0531664, -0.00634006, 0.471004, -0.543354, 0.335903, -2.08383, -2.16584, -0.129889, 0.469321, -0.542746, 0.33604, -2.08468, -2.16608, -0.12787, -0.000352655, 0.00332096, 0.000882495, 0.00388191, -0.00653236, -0.00141142
0.0449836, 1.6914, -1.22548, -1.53803, -0.899953, -1.19283, 1.2287, -1.30268, 0.0107344, -0.00130876, -0.000758834, 0.000387994, -0.058935, 0.0156812, -0.00144386, 1.72157, 57.261, 27.2306, 5.6131, 1.73053, 3.3533, -0.0228162, 0.000668691, -0.00165946, 2.02105e-05, 0.000498183, -0.00147965, 0.000350928, 0.0125569, -0.00231214, -0.000514783, -0.0155213, 0.056706, -0.00810069, 0.471004, -0.54335, 0.335904, -2.08383, -2.16584, -0.12989, 0.469322, -0.542755, 0.336038, -2.0847, -2.1661, -0.1278, -0.000373345, 0.00351722, 0.000934121, 0.00236626, -0.00870555, -0.00159281
0.0459836, 1.69142, -1.22549, -1.53803, -0.899946, -1.19289, 1.22871, -1.30267, 0.0133276, -0.00263645, -0.000519093, 0.000172002, -0.0588133, 0.0152345, 0.000970209, 1.79694, 57.3364, 27.2306, 5.46234, 1.74335, 3.38901, -0.0750012, 0.000658161, -0.00165293, 2.45754e-05, 0.000516822, -0.00153134, 0.00036587, 0.0115556, -0.00382879, -0.0014353, -0.0162223, 0.0552419, -0.00756708, 0.471004, -0.543347, 0.335905, -2.08383, -2.16583, -0.12989, 0.469328, -0.542761, 0.336033, -2.08473, -2.16611, -0.127725, -0.000394586, 0.00371881, 0.000987107, 0.00379068, -0.00731172, -0.00233909
0.0469836, 1.69143, -1.22549, -1.53803, -0.899947, -1.19296, 1.22872, -1.30267, 0.0134262, -0.00175816, -0.000355964, 0.000357846, -0.0581012, 0.0149772, 0.000884165, 1.9477, 57.3364, 27.2306, 5.42664, 1.74335, 3.42471, -0.0814099, 0.000647744, -0.00164862, 2.47421e-05, 0.000537599, -0.00159128, 0.000372896, 0.0114948, -0.00390347, -0.000884127, -0.0157909, 0.0554817, -0.00722578, 0.471003, -0.543343, 0.335906, -2.08382, -2.16583, -0.12989, 0.469333, -0.542767, 0.336032, -2.08476, -2.16612, -0.127641, -0.000416373, 0.00392573, 0.00104144, 0.0038612, -0.00712654, -0.00173335
0.0479836, 1.69145, -1.22549, -1.53803, -0.89995, -1.19302, 1.22874, -1.30267, 0.0141947, -0.00200772, -0.00107995, -0.000205466, -0.0622857, 0.0160018, -0.000359992, 2.20954, 57.3721, 27.2663, 5.42664, 1.73694, 3.43204, -0.0557752, 0.000635025, -0.00164524, 2.70032e-05, 0.000556089, -0.00165047, 0.000378337, 0.0123149, -0.00406916, -0.00133473, -0.0178556, 0.0593873, -0.00645774, 0.471003, -0.543339, 0.335907, -2.08382, -2.16583, -0.129891, 0.469336, -0.542775, 0.336029, -2.08478, -2.16614, -0.12756, -0.000438704, 0.00413795, 0.00109712, 0.00401741, -0.00764781, -0.00225491
0.0489836, 1.69147, -1.22549, -1.53803, -0.899944, -1.19309, 1.22876, -1.30268, 0.0192921, -0.000503563, 0.000109678, 0.00129324, -0.0602804, 0.0167169, -0.00098598, 2.28492, 57.3364, 27.2306, 5.35126, 1.72504, 3.43936, -0.0356336, 0.000626444, -0.00163486, 2.48165e-05, 0.000571528, -0.00171898, 0.000376965, 0.0100062, -0.0071494, -4.88398e-05, -0.0151731, 0.0596476, -0.000870084, 0.471002, -0.543335, 0.335908, -2.08382, -2.16583, -0.129891, 0.469346, -0.54278, 0.33603, -2.0848, -2.16618, -0.127474, -0.000461575, 0.00435543, 0.00115413, 0.00703467, -0.00522294, -0.000662708
0.0499836, 1.69149, -1.22549, -1.53803, -0.899944, -1.19315, 1.22878, -1.30267, 0.0186039, -0.00200637, 0.000996961, -0.000222826, -0.0634545, 0.0170703, 0.00127546, 2.55073, 57.4078, 27.1909, 5.38696, 1.70581, 3.44668, -0.0878186, 0.000613412, -0.0016304, 2.53693e-05, 0.000585583, -0.00178055, 0.000393698, 0.0107152, -0.00700848, -0.000780553, -0.0162694, 0.061087, -0.00307492, 0.471002, -0.543331, 0.335909, -2.08382, -2.16583, -0.129891, 0.469351, -0.542788, 0.336029, -2.08484, -2.16619, -0.127395, -0.000484983, 0.00457817, 0.00121247, 0.00686946, -0.0055933, -0.00143271
0.0509836, 1.69151, -1.22549, -1.53804, -0.899948, -1.19322, 1.2288, -1.30267, 0.0168136, -0.000502528, -0.00110173, -0.0012639, -0.0707226, 0.0175082, 0.000375589, 2.73719, 57.3721, 27.2663, 5.42664, 1.69391, 3.44668, -0.0750012, 0.000601954, -0.0016229, 2.7112e-05, 0.00061136, -0.00185347, 0.000396324, 0.0132145, -0.00511766, -0.000671183, -0.0211637, 0.0690361, -0.00648586, 0.471001, -0.543326, 0.335911, -2.08382, -2.16583, -0.129892, 0.469358, -0.542794, 0.336026, -2.08487, -2.16622, -0.127292, -0.000508925, 0.00480613, 0.00127212, 0.00505047, -0.00792689, -0.00159601
0.0519836, 1.69153, -1.2255, -1.53804, -0.899944, -1.19329, 1.22882, -1.30267, 0.0179434, -0.00117036, -0.000736837, -5.50711e-05, -0.0715065, 0.0179056, -0.00168239, 2.81654, 57.4078, 27.2663, 5.38696, 1.68201, 3.44668, -0.0228162, 0.000590691, -0.00161305, 2.80771e-05, 0.000624308, -0.00191938, 0.000393465, 0.0134953, -0.00555898, -0.000812823, -0.0204826, 0.0692245, -0.00442382, 0.471001, -0.543321, 0.335912, -2.08381, -2.16583, -0.129892, 0.469368, -0.5428, 0.336025, -2.08489, -2.16625, -0.127211, -0.000533398, 0.00503929, 0.00133308, 0.00547168, -0.00793116, -0.00173185
0.0529836, 1.69156, -1.2255, -1.53804, -0.899938, -1.19336, 1.22884, -1.30267, 0.0200615, -0.00254357, -0.00142101, 0.00152835, -0.0717606, 0.0210094, 0.00104855, 2.96729, 57.4832, 27.306, 5.31555, 1.65729, 3.49612, -0.0814099, 0.000576641, -0.001607, 3.15103e-05, 0.000642596, -0.00198092, 0.000409076, 0.0139164, -0.00685461, -0.00150291, -0.0181475, 0.0696843, -0.00681412, 0.471, -0.543316, 0.335913, -2.08381, -2.16583, -0.129892, 0.469374, -0.542808, 0.33602, -2.08493, -2.16626, -0.127127, -0.000558399, 0.00527762, 0.00139533, 0.00673078, -0.00794921, -0.00245544
0.0539836, 1.69158, -1.2255, -1.53804, -0.899933, -1.19343, 1.22886, -1.30267, 0.019504, 6.74515e-05, -2.06398e-05, 0.00270311, -0.0722178, 0.0198413, -0.000759031, 3.07838, 57.4078, 27.2663, 5.24017, 1.63898, 3.5181, -0.0420422, 0.000565322, -0.00159792, 2.65884e-05, 0.000653209, -0.00205567, 0.000408541, 0.0141907, -0.00623004, 0.000593718, -0.0172492, 0.0719872, -0.00608993, 0.471, -0.543311, 0.335915, -2.08381, -2.16583, -0.129893, 0.469383, -0.542814, 0.336024, -2.08496, -2.1663, -0.12704, -0.000583923, 0.00552111, 0.00145888, 0.00616703, -0.0083249, -0.000345441
0.0549836, 1.69161, -1.2255, -1.53803, -0.89993, -1.19351, 1.22888, -1.30267, 0.0225687, -0.000883105, 0.000820467, 0.00267082, -0.0722735, 0.0236611, -0.00169282, 3.15376, 57.4475, 27.2306, 5.2005, 1.61426, 3.53915, -0.00999879, 0.000553343, -0.00158671, 2.67095e-05, 0.000666113, -0.00212936, 0.000405911, 0.0133999, -0.00883293, 0.000480447, -0.0137462, 0.0731365, -0.00167118, 0.470999, -0.543305, 0.335916, -2.08381, -2.16583, -0.129893, 0.469394, -0.54282, 0.336024, -2.08498, -2.16634, -0.126952, -0.000609969, 0.00576973, 0.0015237, 0.00870815, -0.00717158, -0.000348226
0.0559836, 1.69163, -1.2255, -1.53804, -0.899925, -1.19358, 1.2289, -1.30267, 0.0241429, -0.00225921, -0.000288984, 0.00257131, -0.0721787, 0.0219565, -0.00112854, 3.26881, 57.5189, 27.2663, 5.16479, 1.58313, 3.56112, -0.00999879, 0.000537703, -0.00157966, 2.96057e-05, 0.000682887, -0.00219846, 0.000418334, 0.0130996, -0.00928602, -0.000992059, -0.0165146, 0.0710958, -0.00104955, 0.470999, -0.5433, 0.335918, -2.0838, -2.16583, -0.129894, 0.469401, -0.542829, 0.33602, -2.08502, -2.16636, -0.126862, -0.000636533, 0.00602345, 0.0015898, 0.00907017, -0.00637612, -0.00170319
0.0569836, 1.69165, -1.2255, -1.53804, -0.899917, -1.19366, 1.22893, -1.30267, 0.0233556, -0.00150617, -0.00112123, 0.00427932, -0.0722959, 0.0221728, 0.00189249, 3.34419, 57.5189, 27.306, 5.05371, 1.56482, 3.53915, -0.0814099, 0.000520425, -0.00157154, 2.86114e-05, 0.000693573, -0.00227958, 0.000436188, 0.0143692, -0.0083469, -0.000571198, -0.016065, 0.072054, -0.00677189, 0.470998, -0.543294, 0.335919, -2.0838, -2.16582, -0.129894, 0.469409, -0.54284, 0.336019, -2.08507, -2.16638, -0.126767, -0.000663611, 0.00628226, 0.00165716, 0.0081658, -0.00747393, -0.00138907
0.0579836, 1.69168, -1.2255, -1.53804, -0.899914, -1.19373, 1.22896, -1.30267, 0.0196457, -0.000168919, -0.000747907, 0.0037559, -0.0730499, 0.0258733, -0.000671117, 3.41956, 57.4832, 27.306, 5.01404, 1.55932, 3.54648, -0.0292249, 0.000505412, -0.00156219, 2.74526e-05, 0.000706024, -0.00235944, 0.000438896, 0.0164614, -0.00703341, 0.000771119, -0.0123967, 0.0758695, -0.00748195, 0.470997, -0.543287, 0.335921, -2.0838, -2.16582, -0.129894, 0.469418, -0.542848, 0.336019, -2.0851, -2.16641, -0.126672, -0.000691201, 0.00654612, 0.00172578, 0.00694974, -0.00953593, -0.000280234
0.0589836, 1.6917, -1.2255, -1.53803, -0.899917, -1.19382, 1.22899, -1.30267, 0.023726, -0.000112629, 0.00126432, 0.000721941, -0.074313, 0.0250773, -0.000447411, 3.45527, 57.4832, 27.2306, 5.08942, 1.57123, 3.52542, -0.0292249, 0.000492274, -0.00154921, 2.5724e-05, 0.000717678, -0.00244663, 0.000437707, 0.0137697, -0.0100868, 0.000786582, -0.0139359, 0.0769584, -0.000452206, 0.470997, -0.543281, 0.335923, -2.0838, -2.16582, -0.129895, 0.469431, -0.542854, 0.33602, -2.08514, -2.16646, -0.126571, -0.0007193, 0.00681502, 0.00179564, 0.00987539, -0.0064871, 0.000130602
0.0599836, 1.69173, -1.22552, -1.53803, -0.899911, -1.19391, 1.22903, -1.30266, 0.0258664, -0.00434399, 0.000842644, 0.00534221, -0.0751215, 0.0284736, 0.000922429, 3.53065, 57.6657, 27.2306, 5.01404, 1.58313, 3.5181, -0.0621838, 0.000472078, -0.00154045, 3.15639e-05, 0.00072955, -0.0025235, 0.000453371, 0.015475, -0.0108073, -0.00104629, -0.0101694, 0.074902, -0.00412164, 0.470996, -0.543274, 0.335924, -2.08379, -2.16582, -0.129895, 0.469439, -0.542866, 0.336013, -2.08519, -2.16648, -0.126479, -0.000747904, 0.00708893, 0.00186675, 0.0105611, -0.00758507, -0.00189463
0.0609836, 1.69175, -1.22551, -1.53804, -0.899908, -1.19399, 1.22906, -1.30266, 0.0252215, -0.00206079, -0.000273631, 0.00381024, -0.0799766, 0.0307157, 0.000614953, 3.57032, 57.63, 27.2663, 5.01404, 1.58313, 3.5181, -0.0621838, 0.000455701, -0.00152972, 2.85359e-05, 0.000742154, -0.00261563, 0.000459759, 0.0168031, -0.010433, -0.000104173, -0.0118467, 0.0825852, -0.00528645, 0.470995, -0.543267, 0.335926, -2.08379, -2.16582, -0.129896, 0.46945, -0.542875, 0.336015, -2.08523, -2.16652, -0.126371, -0.00077701, 0.00736784, 0.00193908, 0.0102398, -0.00877767, -0.00108698
0.0619836, 1.69177, -1.22552, -1.53803, -0.899903, -1.19407, 1.22909, -1.30267, 0.023766, -0.00137386, 0.00158068, 0.00356195, -0.0837853, 0.0285172, -0.00128545, 3.6457, 57.63, 27.1909, 4.97833, 1.58954, 3.49612, -0.0164075, 0.000436011, -0.00152054, 2.67218e-05, 0.000745289, -0.00270257, 0.000465402, 0.0177411, -0.00917389, 0.000780886, -0.0136994, 0.0852945, -0.00497998, 0.470994, -0.543259, 0.335928, -2.08379, -2.16582, -0.129897, 0.469459, -0.542887, 0.336015, -2.08527, -2.16656, -0.12628, -0.000806615, 0.0076517, 0.00201263, 0.00901822, -0.00960754, -0.000247193
0.0629836, 1.6918, -1.22552, -1.53803, -0.8999, -1.19416, 1.22913, -1.30267, 0.0253659, -0.00175113, 0.00105369, 0.00251456, -0.0854318, 0.0306277, 0.000329826, 3.60603, 57.6657, 27.1909, 4.97833, 1.57123, 3.49612, -0.0484509, 0.00041875, -0.00150766, 2.62299e-05, 0.000754899, -0.00279387, 0.00047339, 0.0177085, -0.0104417, 0.000303468, -0.013815, 0.0876277, -0.00486653, 0.470993, -0.543252, 0.33593, -2.08378, -2.16582, -0.129897, 0.469472, -0.542896, 0.336015, -2.08532, -2.1666, -0.126176, -0.000836715, 0.00794051, 0.00208739, 0.0102359, -0.00916113, -0.000677094
0.0639836, 1.69183, -1.22551, -1.53803, -0.899897, -1.19425, 1.22916, -1.30266, 0.0264492, 0.00050301, -0.000225634, 0.000946104, -0.0878665, 0.0312272, 0.000728511, 3.57032, 57.5943, 27.2306, 5.01404, 1.57123, 3.52542, -0.0621838, 0.000401506, -0.00149646, 2.44465e-05, 0.000771219, -0.00288774, 0.000480951, 0.0176607, -0.0109911, 0.000927836, -0.0162164, 0.092562, -0.00426499, 0.470993, -0.543244, 0.335932, -2.08378, -2.16582, -0.129898, 0.469483, -0.542905, 0.336016, -2.08537, -2.16663, -0.126062, -0.000867309, 0.00823424, 0.00216336, 0.0107749, -0.00889383, 6.15847e-06
0.0649836, 1.69186, -1.2255, -1.53803, -0.899893, -1.19434, 1.2292, -1.30267, 0.0259153, 0.00376901, 0.00161276, 0.00154466, -0.0891286, 0.0328451, -0.000972388, 3.57032, 57.4475, 27.1552, 4.97833, 1.55932, 3.52542, -0.0228162, 0.000383358, -0.00148527, 1.3881e-05, 0.000775601, -0.00299608, 0.000484352, 0.018105, -0.0109962, 0.00372626, -0.0130996, 0.0976053, -0.00318189, 0.470992, -0.543236, 0.335935, -2.08378, -2.16581, -0.129898, 0.469494, -0.542916, 0.336025, -2.08542, -2.16669, -0.125948, -0.000898392, 0.00853286, 0.00224052, 0.0108659, -0.0094645, 0.00277731
0.0659836, 1.69188, -1.2255, -1.53804, -0.89989, -1.19443, 1.22924, -1.30267, 0.0267459, 0.00888564, -0.00152332, 0.00108881, -0.0849752, 0.0335471, -0.000885618, 3.53065, 57.4475, 27.2663, 4.97833, 1.53461, 3.53915, -0.0164075, 0.00036303, -0.00147352, 1.47704e-05, 0.000790012, -0.00309335, 0.0004926, 0.0173301, -0.011538, 0.00554701, -0.0131585, 0.100066, -0.00222466, 0.470991, -0.543227, 0.335937, -2.08377, -2.16581, -0.129899, 0.469506, -0.542927, 0.336023, -2.08547, -2.16673, -0.125833, -0.000929962, 0.00883635, 0.00231887, 0.0114136, -0.00865417, 0.00475737
0.0669836, 1.69191, -1.22549, -1.53803, -0.899894, -1.19452, 1.22928, -1.30266, 0.0303636, 0.00998132, -0.000180363, -0.000993091, -0.0828653, 0.0299213, 0.00086765, 3.49494, 57.2968, 27.2306, 5.05371, 1.5401, 3.53915, -0.0557752, 0.000346025, -0.00146025, 6.90892e-06, 0.000799112, -0.00320307, 0.000498291, 0.0142449, -0.013848, 0.00583843, -0.0155467, 0.0979948, 0.00277572, 0.47099, -0.543218, 0.335939, -2.08377, -2.16581, -0.1299, 0.469519, -0.542935, 0.33603, -2.08552, -2.16678, -0.125711, -0.000962015, 0.00914469, 0.0023984, 0.0135887, -0.00525032, 0.00553386
0.0679836, 1.69194, -1.22549, -1.53803, -0.899882, -1.19461, 1.22932, -1.30267, 0.0339644, 0.00705252, 0.000807754, 0.0019696, -0.0863224, 0.0319404, -0.000404911, 3.41956, 57.2968, 27.1909, 4.94263, 1.55292, 3.53915, -0.0292249, 0.000323619, -0.00144804, 4.96342e-06, 0.000801702, -0.00330067, 0.000508048, 0.014813, -0.0154357, 0.00484112, -0.0138762, 0.0988423, 0.00441182, 0.470989, -0.543209, 0.335941, -2.08376, -2.16581, -0.1299, 0.469531, -0.542948, 0.336031, -2.08557, -2.16682, -0.125609, -0.000994548, 0.00945786, 0.0024791, 0.0151261, -0.00527949, 0.00449359
0.0689836, 1.69197, -1.22549, -1.53803, -0.899883, -1.19471, 1.22936, -1.30267, 0.0300859, 0.00500041, -0.000389535, -0.000332464, -0.0892316, 0.0336568, -0.000982017, 3.34419, 57.2968, 27.2306, 5.01404, 1.57764, 3.53274, -0.00999879, 0.000304972, -0.00143335, 3.7363e-06, 0.000814171, -0.00340355, 0.000510853, 0.0173799, -0.0136089, 0.00322089, -0.0153991, 0.100348, 0.00169326, 0.470988, -0.5432, 0.335944, -2.08376, -2.16581, -0.129901, 0.469545, -0.542957, 0.336031, -2.08562, -2.16687, -0.125491, -0.00102756, 0.00977584, 0.00256097, 0.013302, -0.00732087, 0.00263213
0.0699836, 1.692, -1.22549, -1.53803, -0.89988, -1.1948, 1.22941, -1.30266, 0.0293998, 0.00439287, -0.000259703, -0.000202964, -0.0865453, 0.0361289, 0.00104074, 3.30451, 57.261, 27.2306, 5.01404, 1.60144, 3.49612, -0.0557752, 0.000282329, -0.00141941, 6.70167e-07, 0.000816012, -0.00351227, 0.000525408, 0.017811, -0.0140065, 0.00315121, -0.0117087, 0.0988826, -0.000110711, 0.470987, -0.54319, 0.335947, -2.08375, -2.1658, -0.129902, 0.469559, -0.542969, 0.336033, -2.08568, -2.16691, -0.125378, -0.00106104, 0.0100986, 0.00264398, 0.0136784, -0.00739666, 0.00256731
0.0709836, 1.69203, -1.22548, -1.53803, -0.899877, -1.1949, 1.22946, -1.30267, 0.0327289, 0.00569508, 0.000754875, 0.00304916, -0.089099, 0.0416004, -0.00100159, 3.22913, 57.15, 27.1909, 5.01404, 1.62067, 3.48239, -0.00999879, 0.000262304, -0.00140306, -7.19103e-06, 0.000818313, -0.00362991, 0.000524583, 0.0183702, -0.0160385, 0.0050079, -0.0060573, 0.104885, 0.00202192, 0.470986, -0.54318, 0.335949, -2.08375, -2.1658, -0.129903, 0.469576, -0.542979, 0.336039, -2.08574, -2.16698, -0.125257, -0.001095, 0.0104261, 0.00272814, 0.0157611, -0.00782389, 0.00433651
0.0719836, 1.69207, -1.22549, -1.53803, -0.899871, -1.195, 1.22951, -1.30267, 0.0329654, 0.00215951, -0.000424778, 0.0031427, -0.0911938, 0.0409065, -0.00141371, 3.11805, 57.2253, 27.2306, 4.97833, 1.64447, 3.47507, 0.0101428, 0.000239804, -0.00138681, -6.22281e-06, 0.000823153, -0.00373414, 0.000528426, 0.0195606, -0.015668, 0.00242339, -0.00889727, 0.102973, 0.00141113, 0.470985, -0.543169, 0.335952, -2.08374, -2.1658, -0.129903, 0.469591, -0.54299, 0.336037, -2.08579, -2.16703, -0.125146, -0.00112942, 0.0107583, 0.00281344, 0.0153058, -0.00828403, 0.00169606
0.0729836, 1.6921, -1.22548, -1.53803, -0.89987, -1.1951, 1.22956, -1.30267, 0.0346292, 0.00329743, 0.000644829, 0.00146595, -0.0921589, 0.0397964, -0.000467758, 3.07838, 57.15, 27.1909, 5.01404, 1.65729, 3.48239, -0.00267457, 0.000218228, -0.0013706, -1.04922e-05, 0.000824769, -0.00384675, 0.000533498, 0.0184149, -0.0168572, 0.00302402, -0.0102677, 0.104643, 0.00377839, 0.470984, -0.543159, 0.335955, -2.08374, -2.1658, -0.129904, 0.469607, -0.543001, 0.33604, -2.08584, -2.16708, -0.12503, -0.00116431, 0.0110953, 0.00289987, 0.0164393, -0.00685977, 0.00251743
0.0739836, 1.69213, -1.22548, -1.53803, -0.89987, -1.1952, 1.22961, -1.30267, 0.0374625, 0.00393961, 0.000429882, 0.000203806, -0.0940664, 0.0453444, 0.000671506, 2.96729, 57.0786, 27.1909, 5.05371, 1.69391, 3.44668, -0.0292249, 0.000197613, -0.00135128, -1.54071e-05, 0.000827236, -0.00396688, 0.000532928, 0.0180701, -0.0195053, 0.00346251, -0.00743616, 0.109971, 0.00583343, 0.470983, -0.543147, 0.335958, -2.08373, -2.1658, -0.129905, 0.469626, -0.54301, 0.336044, -2.0859, -2.16715, -0.124906, -0.00119966, 0.0114369, 0.00298742, 0.0190522, -0.00613681, 0.00301141
0.0749836, 1.69217, -1.22548, -1.53804, -0.899867, -1.1953, 1.22966, -1.30267, 0.0338563, 0.00267958, -0.00147665, 0.00256714, -0.0983698, 0.0477273, -0.000535674, 2.96729, 57.0786, 27.2663, 5.08942, 1.69391, 3.45309, -0.00267457, 0.000172954, -0.00133527, -1.64476e-05, 0.000833315, -0.00408296, 0.000540186, 0.0223452, -0.0166141, 0.00274857, -0.00740691, 0.113393, -0.000887121, 0.470981, -0.543136, 0.335961, -2.08373, -2.16579, -0.129906, 0.469642, -0.543023, 0.336044, -2.08596, -2.1672, -0.124782, -0.00123547, 0.0117833, 0.00307608, 0.0162561, -0.0100194, 0.00181842
0.0759836, 1.6922, -1.22548, -1.53803, -0.899863, -1.1954, 1.22972, -1.30267, 0.0360638, -0.000289162, 0.0007788, 0.0020609, -0.0975114, 0.0508483, -0.000831834, 2.89191, 57.0389, 27.1909, 5.08942, 1.70032, 3.42471, 0.0101428, 0.00015217, -0.0013141, -2.13482e-05, 0.000826077, -0.00419744, 0.000537679, 0.0215421, -0.0191103, 0.00185968, -0.00308686, 0.111413, 0.00349852, 0.47098, -0.543124, 0.335964, -2.08372, -2.16579, -0.129907, 0.469663, -0.543031, 0.336048, -2.08601, -2.16727, -0.124675, -0.00127174, 0.0121342, 0.00316585, 0.018652, -0.00863645, 0.00107966
0.0769836, 1.69224, -1.22548, -1.53803, -0.89986, -1.1955, 1.22978, -1.30266, 0.0317098, -0.00134451, 0.00135442, 0.00387349, -0.0966395, 0.0469834, 0.00161558, 2.81654, 57.0786, 27.1552, 5.12909, 1.70032, 3.43936, -0.0484509, 0.000130808, -0.00129277, -2.14957e-05, 0.000826375, -0.00430814, 0.000542258, 0.023786, -0.0157964, 0.00155097, -0.00402705, 0.107579, -0.00422164, 0.470979, -0.543112, 0.335967, -2.08372, -2.16579, -0.129908, 0.469684, -0.543039, 0.336047, -2.08607, -2.16732, -0.124562, -0.00130846, 0.0124898, 0.00325671, 0.0153748, -0.0105842, 0.000617161
0.0779836, 1.69228, -1.22547, -1.53803, -0.899854, -1.1956, 1.22983, -1.30266, 0.0346433, 0.000699114, 6.77249e-05, 0.00397071, -0.105971, 0.0496657, -0.000109739, 2.73719, 57.0032, 27.1909, 5.08942, 1.71222, 3.43204, -0.0164075, 0.000108306, -0.00127105, -2.67465e-05, 0.000825211, -0.00443322, 0.000539841, 0.0250793, -0.0166228, 0.00237067, -0.007333, 0.118928, -0.00342324, 0.470978, -0.5431, 0.33597, -2.08371, -2.16579, -0.129909, 0.469705, -0.543049, 0.336052, -2.08612, -2.1674, -0.124438, -0.00134563, 0.01285, 0.00334867, 0.0162389, -0.0115932, 0.00129252
0.0789836, 1.69232, -1.22548, -1.53803, -0.899858, -1.1957, 1.22989, -1.30267, 0.0368517, 0.00117546, 0.000880367, 0.000393959, -0.102542, 0.0513932, -0.0010565, 2.66181, 56.9675, 27.1552, 5.2005, 1.70032, 3.43204, 0.0101428, 8.86312e-05, -0.00124812, -2.76959e-05, 0.000826777, -0.00454665, 0.000528195, 0.0226984, -0.0195267, 0.0024436, -0.00545334, 0.117959, 0.00440881, 0.470976, -0.543087, 0.335973, -2.08371, -2.16578, -0.129909, 0.469727, -0.543055, 0.336052, -2.08616, -2.16747, -0.124323, -0.00138324, 0.0132147, 0.0034417, 0.0190189, -0.00877021, 0.00173942
0.0799836, 1.69237, -1.22547, -1.53803, -0.899853, -1.19581, 1.22994, -1.30266, 0.0343212, 0.0024525, 0.000586911, 0.000521596, -0.100789, 0.0528883, 0.000279008, 2.62611, 56.8921, 27.1552, 5.2005, 1.71222, 3.42471, -0.0164075, 6.55571e-05, -0.00122667, -3.16978e-05, 0.000826023, -0.00466845, 0.000531777, 0.0239872, -0.0184991, 0.00334043, -0.00296672, 0.118648, 0.000926365, 0.470975, -0.543074, 0.335977, -2.0837, -2.16578, -0.12991, 0.469749, -0.543064, 0.336055, -2.08622, -2.16753, -0.124201, -0.0014213, 0.013584, 0.0035358, 0.0180332, -0.00985341, 0.00254975
0.0809836, 1.6924, -1.22547, -1.53803, -0.899854, -1.19591, 1.23, -1.30266, 0.035732, 0.00156421, 0.000391273, -0.00122129, -0.0999052, 0.0537559, 0.0013728, 2.58643, 56.8921, 27.1552, 5.27588, 1.73053, 3.42471, -0.0484509, 4.40059e-05, -0.00120384, -3.34716e-05, 0.000824173, -0.00478422, 0.000529509, 0.0232684, -0.0199485, 0.00247625, -0.00301644, 0.117863, 0.00301074, 0.470973, -0.54306, 0.33598, -2.08369, -2.16578, -0.129911, 0.469771, -0.543071, 0.336057, -2.08627, -2.1676, -0.124086, -0.0014598, 0.0139578, 0.00363097, 0.0193853, -0.00857742, 0.00185929
0.0819836, 1.69245, -1.22547, -1.53804, -0.89985, -1.19601, 1.23006, -1.30267, 0.0353785, 0.00098972, -0.00371881, -0.000668531, -0.0983323, 0.0590832, -0.0014923, 2.47535, 56.8921, 27.1909, 5.27588, 1.73053, 3.41739, 0.0165515, 2.24559e-05, -0.00117859, -3.37703e-05, 0.000826651, -0.00490371, 0.000516302, 0.0251316, -0.0200923, 0.00121492, -0.000918265, 0.119033, 0.00365734, 0.470972, -0.543046, 0.335984, -2.08369, -2.16578, -0.129913, 0.469795, -0.543077, 0.336057, -2.08631, -2.16768, -0.123964, -0.00149874, 0.0143362, 0.00372719, 0.019511, -0.00983824, 0.000416131
0.0829836, 1.6925, -1.22548, -1.53803, -0.899848, -1.19611, 1.23012, -1.30266, 0.0364288, -0.00114324, -0.00190603, -0.00126446, -0.101653, 0.0588854, 0.000700556, 2.43568, 56.9675, 27.1552, 5.31555, 1.71863, 3.40365, -0.0292249, -6.08461e-07, -0.00115493, -3.3002e-05, 0.000827812, -0.00501963, 0.000516627, 0.0253435, -0.02079, 0.000417874, -0.0015956, 0.119687, 0.00285851, 0.47097, -0.543032, 0.335988, -2.08368, -2.16577, -0.129914, 0.469818, -0.543085, 0.336055, -2.08637, -2.16774, -0.123846, -0.00153811, 0.014719, 0.00382447, 0.0201471, -0.00951318, -0.000327813
0.0839836, 1.69253, -1.22547, -1.53803, -0.899846, -1.19622, 1.23018, -1.30266, 0.0363186, 0.000971215, -0.00146721, -0.00159626, -0.109468, 0.0587486, 0.000941755, 2.43568, 56.8921, 27.1552, 5.35126, 1.71863, 3.38901, -0.0420422, -2.68594e-05, -0.00113281, -3.72722e-05, 0.0008237, -0.00515093, 0.000518952, 0.02693, -0.0199625, 0.00174066, -0.00485534, 0.128317, 0.000394416, 0.470969, -0.543017, 0.335992, -2.08367, -2.16577, -0.129915, 0.46984, -0.543096, 0.336058, -2.08643, -2.16781, -0.123718, -0.00157792, 0.0151063, 0.00392278, 0.0193857, -0.0109297, 0.00085498
0.0849836, 1.69258, -1.22548, -1.53803, -0.899843, -1.19634, 1.23025, -1.30267, 0.0381627, 0.00062508, -0.00029032, -0.00100272, -0.11073, 0.0590359, -0.00130494, 2.3603, 56.8921, 27.1195, 5.35126, 1.72504, 3.36703, 0.0101428, -5.02055e-05, -0.00110555, -4.00186e-05, 0.000818119, -0.00527975, 0.000506004, 0.0267553, -0.0210165, 0.00193308, -0.00412453, 0.129267, 0.0041325, 0.470967, -0.543002, 0.335996, -2.08367, -2.16577, -0.129916, 0.469866, -0.543103, 0.336061, -2.08648, -2.16789, -0.123596, -0.00161815, 0.015498, 0.00402212, 0.0203988, -0.0103519, 0.00113936
0.0859836, 1.69263, -1.22548, -1.53803, -0.899845, -1.19645, 1.23031, -1.30266, 0.0394873, -0.00136332, -0.000304093, -0.00238563, -0.109918, 0.0586806, -0.000123977, 2.28492, 56.9675, 27.1195, 5.42664, 1.6875, 3.3533, -0.00999879, -7.52114e-05, -0.00108045, -3.60844e-05, 0.000823581, -0.00540175, 0.000502061, 0.0261587, -0.0221588, 0.000431348, -0.00501426, 0.126807, 0.00581265, 0.470966, -0.542986, 0.336, -2.08366, -2.16576, -0.129917, 0.469891, -0.54311, 0.336056, -2.08653, -2.16796, -0.123468, -0.00165881, 0.0158942, 0.00412249, 0.0214233, -0.00908855, -0.000185191
0.0869836, 1.69267, -1.22547, -1.53803, -0.899841, -1.19657, 1.23037, -1.30266, 0.0393943, -0.000663266, 0.000642381, -0.000627833, -0.111895, 0.0585262, 0.00110414, 2.24921, 56.8207, 27.0798, 5.38696, 1.71222, 3.33865, -0.0420422, -0.000101078, -0.00105623, -4.46899e-05, 0.00082191, -0.00554623, 0.000504493, 0.0272427, -0.0216436, 0.00138287, -0.00425281, 0.129025, 0.00277356, 0.470964, -0.542971, 0.336004, -2.08365, -2.16576, -0.129918, 0.469914, -0.54312, 0.336064, -2.0866, -2.16804, -0.123324, -0.0016999, 0.0162947, 0.00422387, 0.020941, -0.00992577, 0.000702661
0.0879836, 1.69273, -1.22548, -1.53803, -0.899849, -1.19669, 1.23043, -1.30267, 0.0445701, -0.00238668, 0.000366071, -0.00391911, -0.116197, 0.0529962, -0.000450699, 2.13416, 56.8921, 27.0798, 5.53772, 1.70032, 3.34598, -0.00999879, -0.000123265, -0.00102562, -4.18606e-05, 0.000829766, -0.00567991, 0.000481063, 0.0248823, -0.0238037, -0.000975773, -0.0137236, 0.128767, 0.0108102, 0.470962, -0.542954, 0.336008, -2.08364, -2.16576, -0.129919, 0.469944, -0.543124, 0.336061, -2.08663, -2.16813, -0.123183, -0.0017414, 0.0166996, 0.00432627, 0.0228869, -0.00673867, -0.00122276
0.0889836, 1.69277, -1.22548, -1.53803, -0.899844, -1.19681, 1.23049, -1.30267, 0.0463511, -0.000126239, 0.00103263, -0.00175808, -0.120188, 0.0589971, -0.00128381, 2.09846, 56.8207, 27.0441, 5.50201, 1.70032, 3.33133, 0.0165515, -0.000150622, -0.00100114, -4.65967e-05, 0.000829586, -0.00581889, 0.00047953, 0.0262074, -0.0250722, 0.00129811, -0.00876159, 0.137279, 0.0105109, 0.470961, -0.542938, 0.336012, -2.08364, -2.16575, -0.129921, 0.469968, -0.543134, 0.336065, -2.08669, -2.16821, -0.123043, -0.00178332, 0.0171089, 0.00442966, 0.0242417, -0.00793576, 0.000881359
0.0899836, 1.69282, -1.22548, -1.53803, -0.899846, -1.19693, 1.23056, -1.30266, 0.0438498, -0.00107354, -0.0011098, 0.000253506, -0.122454, 0.0586335, 0.00107691, 2.09846, 56.8564, 27.1195, 5.57739, 1.68201, 3.324, -0.0356336, -0.000180573, -0.000977207, -4.4432e-05, 0.000838221, -0.00595843, 0.000485926, 0.0292884, -0.0225643, 0.000330285, -0.0106646, 0.138105, 0.00219028, 0.470959, -0.54292, 0.336017, -2.08363, -2.16575, -0.129922, 0.469991, -0.543146, 0.336062, -2.08676, -2.16828, -0.122892, -0.00182565, 0.0175225, 0.00453405, 0.0217699, -0.0105173, -0.00037298
0.0909836, 1.69287, -1.22548, -1.53803, -0.899847, -1.19706, 1.23062, -1.30266, 0.0474109, 3.89957e-06, 0.00099714, -0.000390759, -0.124946, 0.0581132, 0.000480579, 1.98341, 56.8207, 27.0441, 5.6131, 1.68201, 3.324, -0.0292249, -0.000205096, -0.000947168, -4.65207e-05, 0.000844402, -0.00610329, 0.000473319, 0.0278389, -0.0247133, 0.00135645, -0.0111085, 0.141199, 0.00706844, 0.470957, -0.542903, 0.336021, -2.08362, -2.16575, -0.129923, 0.47002, -0.543151, 0.336064, -2.08681, -2.16836, -0.122741, -0.0018684, 0.0179404, 0.00463942, 0.0238588, -0.00873848, 0.000905492
0.0919836, 1.69292, -1.22548, -1.53803, -0.899844, -1.19719, 1.23069, -1.30267, 0.0483912, -8.41179e-05, 0.0014803, 0.000781303, -0.12279, 0.0631934, -0.00137504, 1.9477, 56.8207, 27.0084, 5.57739, 1.70032, 3.30295, 0.0165515, -0.000234463, -0.000920021, -4.76064e-05, 0.000844608, -0.00624686, 0.000465196, 0.0281906, -0.0262897, 0.00199936, -0.00479198, 0.141961, 0.00987956, 0.470955, -0.542885, 0.336026, -2.08361, -2.16574, -0.129924, 0.470046, -0.543161, 0.336064, -2.08686, -2.16845, -0.122597, -0.00191155, 0.0183626, 0.00474577, 0.0254259, -0.00869785, 0.00154398
0.0929836, 1.69297, -1.22548, -1.53804, -0.899847, -1.19732, 1.23076, -1.30266, 0.044638, 0.00164212, -0.000698323, -0.000159406, -0.129771, 0.0666243, 0.000541372, 1.98341, 56.7453, 27.0798, 5.6131, 1.70581, 3.2883, -0.0228162, -0.000266107, -0.000896722, -4.97076e-05, 0.000856419, -0.0064005, 0.00047152, 0.0320439, -0.0238483, 0.00259037, -0.00660196, 0.151424, 0.00172341, 0.470953, -0.542867, 0.336031, -2.0836, -2.16574, -0.129926, 0.470069, -0.543174, 0.336065, -2.08693, -2.16852, -0.122428, -0.00195511, 0.0187891, 0.00485308, 0.0231037, -0.0122664, 0.00170966
0.0939836, 1.69303, -1.22548, -1.53803, -0.899845, -1.19746, 1.23083, -1.30266, 0.0499869, 0.00188119, 0.00119382, 9.93673e-06, -0.130831, 0.0643723, 0.000598274, 1.79694, 56.7096, 27.0084, 5.6131, 1.71863, 3.27456, -0.0292249, -0.00029258, -0.000863373, -5.31721e-05, 0.000857653, -0.00655699, 0.000459671, 0.0297155, -0.0266426, 0.00291059, -0.00802319, 0.151656, 0.00738992, 0.470951, -0.542848, 0.336035, -2.08359, -2.16574, -0.129927, 0.470101, -0.54318, 0.336069, -2.08699, -2.16862, -0.12227, -0.00199908, 0.0192197, 0.00496136, 0.0257786, -0.00947185, 0.00241101
0.0949836, 1.69308, -1.22548, -1.53803, -0.899841, -1.1976, 1.2309, -1.30266, 0.0503699, 0.00121754, 0.000787579, 0.000928998, -0.131668, 0.0634439, 0.000636208, 1.75727, 56.7096, 27.0084, 5.57739, 1.73053, 3.24527, -0.0356336, -0.000324885, -0.000835782, -5.49498e-05, 0.000861896, -0.00671422, 0.000459717, 0.0304813, -0.0263588, 0.00236847, -0.00916738, 0.151396, 0.00650566, 0.470949, -0.542829, 0.33604, -2.08358, -2.16573, -0.129929, 0.470128, -0.543192, 0.336069, -2.08706, -2.1687, -0.122107, -0.00204344, 0.0196547, 0.0050706, 0.0254586, -0.00972086, 0.00187419
0.0959836, 1.69314, -1.22549, -1.53802, -0.899844, -1.19774, 1.23097, -1.30267, 0.0532411, -5.09624e-05, 0.00228207, -0.000150519, -0.132741, 0.0663419, -0.00198336, 1.72157, 56.7453, 26.933, 5.6131, 1.75525, 3.24527, 0.0293689, -0.000355935, -0.000806884, -5.38421e-05, 0.000870152, -0.00686804, 0.000445699, 0.0296561, -0.0289399, 0.00207353, -0.00681706, 0.15275, 0.0133437, 0.470947, -0.542809, 0.336045, -2.08357, -2.16573, -0.12993, 0.470156, -0.543202, 0.336068, -2.08711, -2.1688, -0.121944, -0.0020882, 0.0200938, 0.00518077, 0.0279515, -0.00831571, 0.00174286
0.0969836, 1.69319, -1.22549, -1.53803, -0.899855, -1.19788, 1.23103, -1.30266, 0.0531897, -0.000889771, 0.00068149, -0.00129758, -0.136799, 0.0689256, 0.00061054, 1.68189, 56.781, 26.9687, 5.79956, 1.74335, 3.23153, -0.0228162, -0.000385371, -0.000776584, -4.98607e-05, 0.000886757, -0.00702224, 0.000439429, 0.0312777, -0.0289488, 0.00105692, -0.00836755, 0.156948, 0.00965114, 0.470945, -0.542789, 0.336051, -2.08357, -2.16572, -0.129932, 0.470185, -0.543209, 0.336063, -2.08716, -2.16888, -0.121771, -0.00213335, 0.0205371, 0.00529189, 0.0279364, -0.00931616, 0.000597504
0.0979836, 1.69325, -1.22549, -1.53803, -0.899846, -1.19803, 1.2311, -1.30266, 0.0572318, 0.00106182, 0.000450825, 0.00202979, -0.140817, 0.0657796, 0.000407027, 1.60651, 56.7096, 26.9687, 5.68848, 1.76166, 3.23153, -0.0228162, -0.000420436, -0.000749311, -5.36911e-05, 0.000893289, -0.00718937, 0.000443177, 0.0312559, -0.0294001, 0.00206541, -0.0119563, 0.160697, 0.00947995, 0.470943, -0.542768, 0.336056, -2.08356, -2.16572, -0.129933, 0.470212, -0.543222, 0.336066, -2.08724, -2.16896, -0.121595, -0.0021789, 0.0209845, 0.00540394, 0.0283775, -0.00898394, 0.00169464
0.0989836, 1.6933, -1.22549, -1.53803, -0.899848, -1.19817, 1.23117, -1.30266, 0.0578411, 0.00153152, 0.00113314, 0.000740264, -0.143232, 0.063636, 3.39924e-05, 1.49146, 56.6739, 26.933, 5.72418, 1.76166, 3.22421, -0.0164075, -0.000450395, -0.000717352, -5.50699e-05, 0.00090248, -0.00735123, 0.000431509, 0.0311333, -0.0295107, 0.00215153, -0.0149169, 0.162399, 0.0111372, 0.470941, -0.542747, 0.336061, -2.08355, -2.16572, -0.129935, 0.470243, -0.54323, 0.336067, -2.0873, -2.16906, -0.121423, -0.00222483, 0.0214361, 0.00551691, 0.0284408, -0.00841999, 0.00190792
0.0999836, 1.69336, -1.22549, -1.53803, -0.899851, -1.19832, 1.23124, -1.30267, 0.0520206, -0.00149332, -8.17599e-05, -0.000267792, -0.141169, 0.0654772, -0.000723324, 1.49146, 56.781, 26.9687, 5.76385, 1.77997, 3.24527, 0.00373412, -0.000485023, -0.000690105, -5.22745e-05, 0.000913378, -0.00750582, 0.000426616, 0.0342159, -0.0269096, 0.000233003, -0.0131826, 0.158826, 0.00724504, 0.470939, -0.542726, 0.336067, -2.08354, -2.16571, -0.129936, 0.470269, -0.543241, 0.336064, -2.08735, -2.16914, -0.121256, -0.00227115, 0.0218918, 0.0056308, 0.0258377, -0.0108182, -0.000273275
0.100984, 1.69342, -1.22549, -1.53803, -0.899854, -1.19846, 1.23131, -1.30266, 0.0584465, 0.000668378, -5.59839e-05, 0.00148502, -0.143755, 0.0634347, 0.00121321, 1.305, 56.7096, 26.9687, 5.83527, 1.78638, 3.23886, -0.0420422, -0.000514824, -0.000655424, -5.32125e-05, 0.000924743, -0.00767357, 0.00041779, 0.032436, -0.029459, 0.00120686, -0.0159964, 0.16236, 0.00927216, 0.470936, -0.542704, 0.336072, -2.08353, -2.16571, -0.129938, 0.470302, -0.543247, 0.336065, -2.08741, -2.16924, -0.121075, -0.00231785, 0.0223516, 0.00574559, 0.0283087, -0.00864675, 0.00100206
0.101984, 1.69347, -1.2255, -1.53803, -0.899849, -1.19861, 1.23139, -1.30267, 0.0543573, -0.00364273, -0.00096645, 0.00218642, -0.146634, 0.0663395, -0.000886618, 1.22962, 56.7453, 27.0084, 5.79956, 1.81659, 3.23886, 0.00373412, -0.000553344, -0.000627991, -5.24551e-05, 0.000930719, -0.00783802, 0.000417018, 0.0364113, -0.0271624, -0.00111328, -0.0149387, 0.161967, 0.0054566, 0.470934, -0.542682, 0.336078, -2.08351, -2.1657, -0.12994, 0.470329, -0.543262, 0.336063, -2.08748, -2.16933, -0.120903, -0.00236493, 0.0228154, 0.00586128, 0.0260262, -0.0118437, -0.00172193
0.102984, 1.69353, -1.22549, -1.53803, -0.899853, -1.19875, 1.23146, -1.30267, 0.0569384, -0.00103239, 0.000282889, -3.47312e-05, -0.146929, 0.068431, -0.00154051, 1.18995, 56.6739, 26.9687, 5.87494, 1.79828, 3.24527, 0.0293689, -0.000587335, -0.000598239, -5.58313e-05, 0.000936408, -0.00800574, 0.000407534, 0.0348473, -0.0296648, 0.000571994, -0.0132898, 0.166274, 0.0111186, 0.470932, -0.542659, 0.336084, -2.0835, -2.1657, -0.129941, 0.470357, -0.543272, 0.336066, -2.08754, -2.16943, -0.120729, -0.00241239, 0.0232833, 0.00597787, 0.0284832, -0.00998877, 0.000225446
0.103984, 1.69358, -1.22549, -1.53804, -0.899855, -1.19891, 1.23154, -1.30266, 0.0576079, 0.00170443, -0.00157527, -0.000655202, -0.148495, 0.0703704, 0.00114313, 1.07887, 56.5628, 27.0441, 5.91064, 1.81018, 3.23886, -0.0292249, -0.000624063, -0.000568681, -5.95091e-05, 0.000948096, -0.00818665, 0.000412418, 0.0354848, -0.0300145, 0.00154391, -0.0140109, 0.171683, 0.00823703, 0.470929, -0.542636, 0.33609, -2.08349, -2.16569, -0.129943, 0.470386, -0.543284, 0.336069, -2.08762, -2.16951, -0.120533, -0.00246022, 0.0237552, 0.00609534, 0.0288428, -0.0102816, 0.00119233
0.104984, 1.69364, -1.22549, -1.53803, -0.899856, -1.19906, 1.23161, -1.30266, 0.0559228, 0.000146751, 0.000712591, -0.00121244, -0.154238, 0.0719748, 0.000524727, 1.03919, 56.5985, 26.9687, 5.95032, 1.823, 3.23153, -0.0228162, -0.000661428, -0.000538096, -5.95387e-05, 0.000950676, -0.00835417, 0.000407933, 0.0375299, -0.0293033, 0.00156515, -0.0133305, 0.175718, 0.00694104, 0.470927, -0.542612, 0.336096, -2.08348, -2.16569, -0.129945, 0.470415, -0.543296, 0.336068, -2.08769, -2.16961, -0.120362, -0.00250842, 0.0242312, 0.00621369, 0.0281585, -0.0118569, 0.00103473
0.105984, 1.69369, -1.22549, -1.53803, -0.899857, -1.19922, 1.23169, -1.30267, 0.0542077, -0.0030341, 0.00047471, -0.00152923, -0.153376, 0.0777793, -0.000633526, 1.03919, 56.5985, 26.9687, 5.98602, 1.82941, 3.22421, 0.00373412, -0.000703281, -0.000512711, -6.05038e-05, 0.000962224, -0.00853159, 0.000410685, 0.0394746, -0.0296195, 0.000132733, -0.00816163, 0.174948, 0.00698959, 0.470924, -0.542588, 0.336102, -2.08347, -2.16568, -0.129946, 0.47044, -0.543312, 0.336068, -2.08777, -2.16969, -0.12017, -0.00255699, 0.0247111, 0.00633291, 0.0284435, -0.0130627, -0.000572898
0.106984, 1.69375, -1.2255, -1.53804, -0.89986, -1.19937, 1.23176, -1.30266, 0.0542212, -0.00412413, -0.000611809, -0.00269701, -0.152782, 0.072024, 8.62757e-05, 0.85273, 56.6739, 27.0084, 6.0614, 1.82941, 3.23153, -0.00999879, -0.000740298, -0.000479967, -5.58567e-05, 0.000976132, -0.00869995, 0.000404639, 0.0392367, -0.028766, -0.00160401, -0.0143819, 0.170952, 0.00703557, 0.470922, -0.542563, 0.336109, -2.08346, -2.16568, -0.129948, 0.470471, -0.543322, 0.336063, -2.08783, -2.16979, -0.119986, -0.00260593, 0.0251949, 0.006453, 0.0274706, -0.012111, -0.0021053
0.107984, 1.69381, -1.22549, -1.53804, -0.89986, -1.19953, 1.23183, -1.30266, 0.0530868, 0.000523442, -0.00124329, -0.00256894, -0.152052, 0.0677068, 0.00148167, 0.701973, 56.5231, 27.0441, 6.09711, 1.823, 3.24527, -0.0484509, -0.000778109, -0.000451023, -6.03899e-05, 0.000992188, -0.00888125, 0.000407625, 0.0393749, -0.0272299, 0.0005672, -0.0176084, 0.173091, 0.00430051, 0.470919, -0.542538, 0.336115, -2.08345, -2.16567, -0.12995, 0.470499, -0.543334, 0.336067, -2.0879, -2.16987, -0.119785, -0.00265523, 0.0256827, 0.00657393, 0.0259711, -0.0121573, 0.000183997
0.108984, 1.69386, -1.2255, -1.53804, -0.899859, -1.19969, 1.2319, -1.30267, 0.052886, -0.00076927, 6.21137e-06, -0.00166442, -0.151348, 0.0685872, -0.00141972, 0.626595, 56.5628, 27.0084, 6.09711, 1.81018, 3.27456, 0.0165515, -0.00082056, -0.000425757, -6.0397e-05, 0.00100519, -0.00905314, 0.000405539, 0.0400509, -0.0274318, 0.000424969, -0.0149866, 0.171739, 0.00712313, 0.470916, -0.542512, 0.336122, -2.08343, -2.16567, -0.129952, 0.470523, -0.543349, 0.336067, -2.08797, -2.16996, -0.119598, -0.00270489, 0.0261745, 0.00669572, 0.0261423, -0.0123026, 5.34957e-05
0.109984, 1.69392, -1.2255, -1.53804, -0.899864, -1.19985, 1.23197, -1.30266, 0.0542022, -0.000655506, 4.02999e-06, -0.00367191, -0.155743, 0.0655333, 0.00122366, 0.511544, 56.5628, 27.0084, 6.20819, 1.79828, 3.28097, -0.0420422, -0.000860858, -0.000396186, -6.0954e-05, 0.00101884, -0.00923378, 0.000409186, 0.0399208, -0.0276003, -0.000155408, -0.0207067, 0.174418, 0.00611, 0.470914, -0.542486, 0.336128, -2.08342, -2.16566, -0.129954, 0.470551, -0.543361, 0.336067, -2.08805, -2.17005, -0.1194, -0.00275491, 0.0266701, 0.00681835, 0.0262349, -0.0115818, -0.000382392
0.110984, 1.69397, -1.22549, -1.53803, -0.899863, -1.20002, 1.23205, -1.30266, 0.054492, 0.00205446, 0.000930623, 0.000727315, -0.154245, 0.0686315, 0.000815774, 0.436165, 56.4517, 26.9687, 6.20819, 1.79187, 3.26724, -0.0420422, -0.000905227, -0.000370555, -6.70456e-05, 0.00102758, -0.0094232, 0.000416435, 0.0411785, -0.0276586, 0.00260023, -0.0141365, 0.177229, 0.0039086, 0.470911, -0.542459, 0.336135, -2.08341, -2.16566, -0.129956, 0.470576, -0.543378, 0.336072, -2.08813, -2.17014, -0.119199, -0.00280528, 0.0271696, 0.00694181, 0.0263881, -0.0127465, 0.00226386
0.111984, 1.69403, -1.2255, -1.53804, -0.899869, -1.20018, 1.23212, -1.30267, 0.0572285, -0.00130906, -0.000307667, -0.0019237, -0.158739, 0.0704157, -0.00162629, 0.245735, 56.5628, 27.0084, 6.32324, 1.79828, 3.25992, 0.0165515, -0.000947019, -0.000339695, -6.18151e-05, 0.00105085, -0.00960373, 0.000406354, 0.0413442, -0.0294908, -0.00020044, -0.0176191, 0.179105, 0.00940961, 0.470908, -0.542432, 0.336142, -2.0834, -2.16565, -0.129958, 0.470605, -0.54339, 0.336066, -2.08819, -2.17024, -0.118993, -0.00285601, 0.0276729, 0.00706609, 0.0280714, -0.0118992, -0.000459201
0.112984, 1.69407, -1.2255, -1.53804, -0.899866, -1.20035, 1.23219, -1.30266, 0.0552367, -4.87297e-06, -0.000205158, -0.00107045, -0.155839, 0.0711894, 0.000848587, 0.21003, 56.5231, 27.0084, 6.32324, 1.76807, 3.27456, -0.0356336, -0.000995005, -0.000318603, -6.46639e-05, 0.00106471, -0.00978442, 0.000429659, 0.0423632, -0.0286768, 0.000854286, -0.0145745, 0.178524, 0.00527014, 0.470905, -0.542404, 0.336149, -2.08338, -2.16565, -0.12996, 0.470625, -0.54341, 0.336068, -2.08829, -2.1703, -0.118793, -0.00290708, 0.0281801, 0.00719119, 0.0272824, -0.012594, 0.000572842
0.113984, 1.69413, -1.2255, -1.53804, -0.899868, -1.20052, 1.23226, -1.30266, 0.0570714, -4.83868e-05, -0.000136807, 0.000942903, -0.15868, 0.0726162, 0.00104044, 0.059273, 56.5231, 27.0084, 6.39465, 1.74884, 3.26724, -0.0484509, -0.00104045, -0.000291561, -6.543e-05, 0.00108279, -0.00997302, 0.000436452, 0.0433665, -0.0292446, 0.00113174, -0.0138159, 0.181648, 0.00427187, 0.470902, -0.542376, 0.336156, -2.08337, -2.16564, -0.129962, 0.470651, -0.543425, 0.336068, -2.08837, -2.17039, -0.118582, -0.0029585, 0.0286911, 0.00731711, 0.0278442, -0.0130926, 0.000798679
0.114984, 1.69419, -1.2255, -1.53803, -0.899867, -1.20068, 1.23233, -1.30266, 0.0592597, -0.000994131, 0.00167201, 0.00101186, -0.155981, 0.0735761, -0.000730525, -0.131157, 56.5628, 26.933, 6.39465, 1.72504, 3.25992, -0.00999879, -0.00108402, -0.000261811, -6.60235e-05, 0.00109332, -0.0101529, 0.000429112, 0.0422176, -0.0313097, 0.00115147, -0.0104214, 0.17917, 0.00998785, 0.470899, -0.542347, 0.336164, -2.08336, -2.16563, -0.129964, 0.470679, -0.543438, 0.336068, -2.08843, -2.17049, -0.11839, -0.00301027, 0.0292059, 0.00744383, 0.0298146, -0.0113617, 0.00106011
0.115984, 1.69423, -1.22549, -1.53803, -0.899875, -1.20085, 1.2324, -1.30266, 0.0561702, 0.00107509, 0.000279434, -0.00172925, -0.158388, 0.0743314, -0.00170772, -0.131157, 56.4874, 26.9687, 6.5097, 1.70032, 3.25259, 0.0229602, -0.0011321, -0.000240262, -7.04811e-05, 0.00111122, -0.0103429, 0.000437474, 0.0439576, -0.0298085, 0.00169679, -0.0126491, 0.184085, 0.00886892, 0.470896, -0.542318, 0.336171, -2.08334, -2.16563, -0.129966, 0.4707, -0.543457, 0.336072, -2.08851, -2.17057, -0.118178, -0.00306237, 0.0297245, 0.00757134, 0.0283456, -0.0127064, 0.00150026
0.116984, 1.69429, -1.2255, -1.53804, -0.899872, -1.20101, 1.23247, -1.30266, 0.0595638, -0.00106555, 0.000186274, -0.00093725, -0.155989, 0.0688688, 0.00103166, -0.357292, 56.5628, 26.9687, 6.5097, 1.6756, 3.27456, -0.0356336, -0.00117745, -0.000212775, -6.65719e-05, 0.00113057, -0.0105142, 0.000447577, 0.0424031, -0.030868, -0.000195095, -0.0165578, 0.177592, 0.00961321, 0.470893, -0.542288, 0.336179, -2.08333, -2.16562, -0.129968, 0.470726, -0.54347, 0.336068, -2.08859, -2.17065, -0.117983, -0.00311481, 0.0302468, 0.00769965, 0.0292267, -0.0103139, -3.04892e-05
0.117984, 1.69434, -1.2255, -1.53803, -0.899882, -1.20118, 1.23254, -1.30266, 0.0588943, 0.00020337, 0.000124172, -0.0030616, -0.163815, 0.0701642, 0.000213055, -0.468376, 56.5231, 26.9687, 6.62079, 1.65729, 3.27456, -0.0228162, -0.00122284, -0.000185394, -6.83188e-05, 0.00114891, -0.010703, 0.000445858, 0.0441827, -0.0303261, 0.0003672, -0.0198081, 0.186357, 0.00903066, 0.47089, -0.542258, 0.336186, -2.08331, -2.16562, -0.129971, 0.470751, -0.543484, 0.336069, -2.08866, -2.17074, -0.117773, -0.00316759, 0.0307728, 0.00782873, 0.0287171, -0.0116534, 0.00039258
0.118984, 1.69439, -1.2255, -1.53804, -0.89988, -1.20135, 1.23261, -1.30266, 0.0613895, 0.000960087, 8.27728e-05, -0.00108459, -0.164559, 0.071528, -0.000841308, -0.583427, 56.4874, 26.9687, 6.58508, 1.63257, 3.27456, 0.00373412, -0.0012727, -0.000160524, -7.05191e-05, 0.00116441, -0.0108927, 0.000453374, 0.0444246, -0.031465, 0.00102717, -0.0182745, 0.188568, 0.0105984, 0.470887, -0.542227, 0.336194, -2.0833, -2.16561, -0.129973, 0.470775, -0.543501, 0.336071, -2.08874, -2.17083, -0.117564, -0.0032207, 0.0313025, 0.00795859, 0.0298343, -0.0114173, 0.00110095
0.119984, 1.69444, -1.22551, -1.53803, -0.89989, -1.20152, 1.23268, -1.30266, 0.0573773, -0.00280165, 0.00181841, -0.00406578, -0.170994, 0.0681284, 0.00089719, -0.694511, 56.6342, 26.8934, 6.73187, 1.63257, 3.26724, -0.0356336, -0.00132022, -0.000133027, -6.64165e-05, 0.00118221, -0.0110721, 0.00045617, 0.0467933, -0.0289441, -0.00110184, -0.0237028, 0.188717, 0.00630008, 0.470884, -0.542196, 0.336202, -2.08328, -2.1656, -0.129975, 0.470801, -0.543515, 0.336066, -2.08881, -2.17091, -0.117364, -0.00327414, 0.031836, 0.00808922, 0.0272708, -0.012997, -0.0011632
0.120984, 1.69449, -1.2255, -1.53803, -0.899885, -1.20169, 1.23275, -1.30266, 0.057234, -0.000203356, 0.000284251, -0.000879074, -0.175665, 0.0712119, 0.000598127, -0.809562, 56.5628, 26.933, 6.65649, 1.63257, 3.23153, -0.0356336, -0.00137444, -0.000111091, -7.04869e-05, 0.00119878, -0.0112701, 0.000474512, 0.0496661, -0.0279036, 0.00058522, -0.0226759, 0.196749, 0.00139619, 0.470881, -0.542164, 0.33621, -2.08327, -2.1656, -0.129978, 0.470822, -0.543537, 0.336069, -2.08891, -2.17099, -0.117144, -0.00332791, 0.0323731, 0.00822061, 0.0263425, -0.0155987, 0.000217592
0.121984, 1.69454, -1.22551, -1.53804, -0.89989, -1.20187, 1.23282, -1.30266, 0.0534062, -0.00181053, -0.000645721, -0.00229813, -0.174853, 0.0681307, -0.000821952, -0.884941, 56.6342, 26.9687, 6.73187, 1.63898, 3.20956, -0.00267457, -0.00142814, -8.80519e-05, -6.62725e-05, 0.00122522, -0.01146, 0.000482486, 0.0513738, -0.0255013, -0.000998339, -0.0259162, 0.193305, 0.000177383, 0.470877, -0.542132, 0.336219, -2.08325, -2.16559, -0.12998, 0.470843, -0.543556, 0.336064, -2.08898, -2.17107, -0.116923, -0.00338201, 0.0329138, 0.00835276, 0.023893, -0.0165977, -0.00140728
0.122984, 1.69459, -1.2255, -1.53803, -0.899898, -1.20205, 1.23289, -1.30266, 0.0546097, -0.000375188, -0.000430483, -0.00325695, -0.179244, 0.0667938, 0.000198017, -0.996025, 56.5985, 26.9687, 6.80725, 1.66369, 3.16653, -0.0228162, -0.00147872, -6.21237e-05, -6.83884e-05, 0.00124306, -0.0116552, 0.000489372, 0.0516589, -0.0257025, -0.00041758, -0.0293147, 0.198065, -0.000149581, 0.470874, -0.542099, 0.336227, -2.08324, -2.16558, -0.129982, 0.470867, -0.543572, 0.336066, -2.08906, -2.17116, -0.116706, -0.00343642, 0.0334582, 0.00848565, 0.0240711, -0.0164159, -0.000752391
0.123984, 1.69464, -1.2255, -1.53804, -0.899901, -1.20221, 1.23296, -1.30265, 0.0563579, -0.000252667, -0.000286991, -0.00297774, -0.17605, 0.0650021, 0.00108145, -1.15075, 56.5985, 26.9687, 6.84296, 1.65088, 3.13815, -0.0484509, -0.00152784, -3.57243e-05, -6.74831e-05, 0.00126651, -0.0118391, 0.000498541, 0.0506661, -0.026715, -0.000552749, -0.0292564, 0.194983, 0.00163009, 0.47087, -0.542066, 0.336235, -2.08322, -2.16557, -0.129985, 0.470892, -0.543586, 0.336065, -2.08914, -2.17124, -0.116494, -0.00349116, 0.0340062, 0.00861928, 0.0249871, -0.0148252, -0.000629423
0.124984, 1.69469, -1.2255, -1.53804, -0.899901, -1.20238, 1.23302, -1.30266, 0.0541794, -0.000170351, -0.00111935, -0.00196358, -0.174738, 0.0623257, -0.00121182, -1.15075, 56.5985, 27.0084, 6.84296, 1.65729, 3.14548, 0.00373412, -0.00158372, -1.61898e-05, -6.6948e-05, 0.00128875, -0.0120242, 0.000508007, 0.0521333, -0.0248094, -0.00082166, -0.030786, 0.192844, 0.000962543, 0.470867, -0.542032, 0.336244, -2.0832, -2.16557, -0.129987, 0.47091, -0.543606, 0.336064, -2.08921, -2.17132, -0.116283, -0.00354621, 0.0345577, 0.00875364, 0.023072, -0.0157585, -0.000931816
0.125984, 1.69475, -1.22551, -1.53804, -0.899906, -1.20255, 1.23308, -1.30265, 0.0557007, -0.00187824, -0.000746233, -0.00617276, -0.167994, 0.0657236, 0.0011249, -1.41259, 56.6739, 27.0084, 6.91833, 1.63898, 3.13815, -0.0484509, -0.00162897, 1.62558e-05, -6.46821e-05, 0.00131028, -0.0122045, 0.000507301, 0.0498774, -0.0281279, -0.00211347, -0.026594, 0.18798, 0.00635939, 0.470863, -0.541997, 0.336253, -2.08319, -2.16556, -0.12999, 0.47094, -0.543614, 0.336062, -2.08928, -2.17141, -0.116078, -0.00360158, 0.0351128, 0.00888872, 0.0262028, -0.0126403, -0.00182305
0.126984, 1.6948, -1.2255, -1.53803, -0.899909, -1.20272, 1.23314, -1.30265, 0.053836, 0.000510009, 0.00126575, -0.00529078, -0.164071, 0.0633865, 0.000749935, -1.45226, 56.5985, 26.933, 6.95801, 1.64447, 3.13815, -0.0484509, -0.001683, 3.69492e-05, -6.80428e-05, 0.00133238, -0.0123936, 0.00052006, 0.0498749, -0.0272432, -2.85549e-05, -0.0240178, 0.185999, 0.00638741, 0.47086, -0.541962, 0.336262, -2.08317, -2.16555, -0.129992, 0.47096, -0.543632, 0.336066, -2.08936, -2.17148, -0.115862, -0.00365725, 0.0356715, 0.00902453, 0.0253397, -0.0124372, 0.000397687
0.127984, 1.69485, -1.2255, -1.53803, -0.899912, -1.20288, 1.23321, -1.30266, 0.0508712, 0.00117442, 8.61346e-06, -0.00454809, -0.160674, 0.062248, -0.0021449, -1.52764, 56.5628, 26.9687, 6.99371, 1.63898, 3.1235, 0.0229602, -0.00173619, 6.04148e-05, -6.87794e-05, 0.00135287, -0.0125779, 0.000520786, 0.0514017, -0.0253878, 2.97377e-05, -0.0235755, 0.183524, 0.00627288, 0.470856, -0.541926, 0.336271, -2.08315, -2.16554, -0.129995, 0.470981, -0.543648, 0.336066, -2.08943, -2.17157, -0.115654, -0.00371324, 0.0362337, 0.00916105, 0.0234879, -0.0134673, 0.000409638
0.128984, 1.6949, -1.22551, -1.53803, -0.899914, -1.20305, 1.23327, -1.30265, 0.0535404, -0.00265133, 0.00812744, -0.00317132, -0.157868, 0.0612845, 0.00121492, -1.6784, 56.7096, 26.8934, 6.99371, 1.63257, 3.10977, -0.0484509, -0.00178619, 8.85749e-05, -6.47483e-05, 0.00136852, -0.0127466, 0.000526838, 0.0492162, -0.0282564, 0.000563069, -0.0159318, 0.17664, 0.0092748, 0.470852, -0.54189, 0.33628, -2.08314, -2.16554, -0.129998, 0.471007, -0.54366, 0.336063, -2.08949, -2.17165, -0.115467, -0.00376953, 0.0367994, 0.00929827, 0.0262377, -0.0107083, 0.00132526
0.129984, 1.69495, -1.22551, -1.53803, -0.899922, -1.2032, 1.23332, -1.30265, 0.0520529, -0.000932788, 0.00418492, -0.00481712, -0.156384, 0.0557309, 0.00108122, -1.6784, 56.6739, 26.9687, 7.1048, 1.63898, 3.09512, -0.0557752, -0.00183931, 0.000109889, -6.32108e-05, 0.00139603, -0.012923, 0.000534667, 0.0497676, -0.0262542, -0.00050551, -0.0238029, 0.175048, 0.00798976, 0.470849, -0.541853, 0.336289, -2.08312, -2.16553, -0.13, 0.471027, -0.543674, 0.336062, -2.08956, -2.17172, -0.115258, -0.00382613, 0.0373685, 0.00943618, 0.0241624, -0.0106005, 0.000382426
0.130984, 1.695, -1.22551, -1.53803, -0.899915, -1.20336, 1.23338, -1.30266, 0.0546961, 0.00653423, 0.00402257, -0.00386175, -0.159343, 0.0568407, -0.00219531, -1.82915, 56.6342, 26.933, 6.99371, 1.62616, 3.06674, 0.0229602, -0.0018924, 0.000134286, -6.53034e-05, 0.00141366, -0.0131001, 0.000534855, 0.049476, -0.0272666, 0.00390143, -0.023549, 0.185761, 0.0119017, 0.470845, -0.541816, 0.336299, -2.0831, -2.16552, -0.130003, 0.471049, -0.543688, 0.336064, -2.08962, -2.1718, -0.115061, -0.00388303, 0.0379411, 0.00957479, 0.0252675, -0.0103789, 0.00488558
0.131984, 1.69505, -1.22551, -1.53803, -0.899922, -1.20352, 1.23344, -1.30266, 0.0531265, 0.00394691, 0.00214455, -0.0046607, -0.161276, 0.0529594, -0.000751465, -1.82915, 56.6739, 26.9687, 7.06909, 1.60144, 3.03744, 0.00373412, -0.00194632, 0.000156275, -6.11558e-05, 0.00143781, -0.013268, 0.000542748, 0.051153, -0.0253917, 0.00130348, -0.0296967, 0.183297, 0.00814882, 0.470841, -0.541778, 0.336308, -2.08308, -2.16551, -0.130006, 0.471069, -0.543702, 0.336061, -2.08968, -2.17187, -0.114865, -0.00394022, 0.0385172, 0.00971408, 0.0233032, -0.0111338, 0.00225487
0.132984, 1.6951, -1.22551, -1.53803, -0.899923, -1.20367, 1.23349, -1.30265, 0.0553845, 0.00218514, 0.00165324, -0.00334935, -0.158992, 0.0547506, 0.00194043, -1.97991, 56.7096, 26.9687, 7.06909, 1.60144, 3.00906, -0.0621838, -0.00199767, 0.000183044, -6.05696e-05, 0.00145753, -0.0134411, 0.000553611, 0.0511349, -0.0269364, 0.000266784, -0.027235, 0.180842, 0.00716598, 0.470837, -0.541739, 0.336318, -2.08306, -2.1655, -0.130009, 0.471094, -0.543713, 0.336061, -2.08975, -2.17194, -0.114668, -0.00399771, 0.0390967, 0.00985405, 0.02475, -0.0103124, 0.00132584
0.133984, 1.69515, -1.22551, -1.53803, -0.899929, -1.20383, 1.23354, -1.30265, 0.051224, 0.00258379, 0.00126981, -0.0041778, -0.155846, 0.0550389, -0.00114779, -2.01562, 56.6739, 26.9687, 7.14447, 1.57764, 3.00906, 0.00373412, -0.00205018, 0.000205451, -5.91303e-05, 0.00148841, -0.0136124, 0.000550492, 0.0527892, -0.0251543, 0.000448686, -0.0254859, 0.179069, 0.00778738, 0.470833, -0.5417, 0.336328, -2.08305, -2.1655, -0.130011, 0.471114, -0.543725, 0.33606, -2.0898, -2.17202, -0.114463, -0.0040555, 0.0396796, 0.00999469, 0.0229787, -0.0114637, 0.0014417
0.134984, 1.6952, -1.22551, -1.53803, -0.899928, -1.20399, 1.23359, -1.30265, 0.052417, 0.00110617, 0.000972283, -0.00199343, -0.154193, 0.0555168, -0.00123991, -2.091, 56.7096, 26.9687, 7.1048, 1.56482, 3.00174, 0.0165515, -0.00210564, 0.000227377, -5.60528e-05, 0.00151667, -0.0137823, 0.000557537, 0.0534336, -0.0256211, -0.000290365, -0.0237137, 0.176641, 0.00763831, 0.470829, -0.541661, 0.336338, -2.08303, -2.16549, -0.130014, 0.471134, -0.543738, 0.336058, -2.08986, -2.17209, -0.11426, -0.00411357, 0.0402659, 0.010136, 0.0233832, -0.0113798, 0.000737524
0.135984, 1.69525, -1.22551, -1.53803, -0.899929, -1.20416, 1.23363, -1.30265, 0.053072, 0.000901591, 0.000742494, -0.00235916, -0.153827, 0.0507868, 0.00134353, -2.16637, 56.7096, 26.9687, 7.14447, 1.57123, 3.00906, -0.0420422, -0.00216152, 0.00024884, -5.41997e-05, 0.00154775, -0.013957, 0.000572192, 0.0531463, -0.0252502, -0.00104024, -0.0279941, 0.174173, 0.00606674, 0.470825, -0.54162, 0.336348, -2.08301, -2.16548, -0.130017, 0.471153, -0.543752, 0.336057, -2.08993, -2.17215, -0.114049, -0.00417194, 0.0408555, 0.0102779, 0.0229167, -0.0104057, 0.00019413
0.136984, 1.6953, -1.22551, -1.53803, -0.899936, -1.20432, 1.23368, -1.30265, 0.0464477, 0.000724169, 0.00446121, -0.00248463, -0.157893, 0.0478035, -0.000562373, -2.20605, 56.7096, 26.933, 7.18018, 1.57764, 3.00174, -0.00267457, -0.00221695, 0.000269536, -5.30305e-05, 0.00158221, -0.0141326, 0.000573241, 0.0564047, -0.0212456, 0.000209485, -0.0281857, 0.175711, 0.00199357, 0.470821, -0.541579, 0.336358, -2.08299, -2.16547, -0.13002, 0.471171, -0.543765, 0.336057, -2.08998, -2.17223, -0.113835, -0.00423059, 0.0414484, 0.0104206, 0.0190218, -0.013387, 0.00118416
0.137984, 1.69534, -1.22551, -1.53803, -0.899932, -1.20448, 1.23372, -1.30265, 0.0397355, -0.000260107, 0.00151897, 4.9339e-05, -0.161235, 0.0454087, 0.00037107, -2.16637, 56.7453, 27.0084, 7.1048, 1.58313, 2.99441, -0.0228162, -0.0022795, 0.000284065, -4.81745e-05, 0.0016159, -0.0142989, 0.000597881, 0.061884, -0.0156243, -0.000948958, -0.0321554, 0.176356, -0.0102553, 0.470816, -0.541538, 0.336369, -2.08297, -2.16546, -0.130023, 0.471184, -0.543784, 0.336052, -2.09006, -2.17227, -0.113629, -0.00428952, 0.0420447, 0.0105638, 0.0135037, -0.0182517, -0.000499492
0.138984, 1.6954, -1.22552, -1.53803, -0.899937, -1.20465, 1.23376, -1.30264, 0.0433738, -0.00186739, 0.000408483, -0.000938237, -0.158368, 0.0444493, 0.000959457, -2.3568, 56.8207, 27.0441, 7.14447, 1.57764, 2.96603, -0.0420422, -0.00233189, 0.000311353, -4.13976e-05, 0.00165467, -0.0144682, 0.000598481, 0.060306, -0.0179147, -0.00275382, -0.0336385, 0.172519, -0.005873, 0.470812, -0.541496, 0.336379, -2.08295, -2.16545, -0.130026, 0.471208, -0.543791, 0.336047, -2.0901, -2.17234, -0.113416, -0.00434873, 0.0426443, 0.0107077, 0.0156092, -0.0157207, -0.0019629
0.139984, 1.69544, -1.22551, -1.53803, -0.89994, -1.20481, 1.2338, -1.30265, 0.0439425, -0.000264973, 0.00128083, -0.00149304, -0.161382, 0.042696, -0.000818424, -2.3211, 56.781, 27.0084, 7.18018, 1.57764, 2.96603, -0.00267457, -0.00239022, 0.0003287, -4.28215e-05, 0.0016873, -0.014642, 0.000606431, 0.0605855, -0.0178622, -0.00179399, -0.0358827, 0.17604, -0.00362024, 0.470808, -0.541453, 0.33639, -2.08293, -2.16544, -0.130029, 0.471224, -0.543806, 0.336049, -2.09016, -2.17241, -0.113205, -0.00440822, 0.0432472, 0.0108522, 0.0155427, -0.0155439, -0.000913927
0.140984, 1.69549, -1.22552, -1.53803, -0.899943, -1.20497, 1.23384, -1.30265, 0.042196, -0.00190093, 0.000983853, -0.00101961, -0.163401, 0.0425092, -3.69899e-05, -2.3211, 56.8564, 27.0084, 7.18018, 1.57123, 2.93765, -0.0164075, -0.00244967, 0.000348239, -3.77615e-05, 0.00172131, -0.0148091, 0.000614814, 0.0627256, -0.0165292, -0.002757, -0.0367631, 0.176211, -0.00727105, 0.470803, -0.54141, 0.336401, -2.08291, -2.16543, -0.130032, 0.471241, -0.54382, 0.336045, -2.09022, -2.17247, -0.112999, -0.00446799, 0.0438533, 0.0109973, 0.0141936, -0.016956, -0.00201366
0.141984, 1.69554, -1.22552, -1.53803, -0.899946, -1.20512, 1.23388, -1.30264, 0.0417025, -0.00300131, 0.000753377, -0.00153314, -0.158868, 0.0416916, 0.000687417, -2.3568, 56.9318, 27.0084, 7.21588, 1.53461, 2.923, -0.0356336, -0.00250604, 0.000369892, -3.23844e-05, 0.00175562, -0.0149688, 0.000622157, 0.0625918, -0.0167483, -0.00366083, -0.035693, 0.171354, -0.00655905, 0.470799, -0.541366, 0.336412, -2.08288, -2.16542, -0.130036, 0.47126, -0.54383, 0.336041, -2.09026, -2.17253, -0.112801, -0.00452802, 0.0444627, 0.0111431, 0.0143146, -0.0160655, -0.00274738
0.142984, 1.69558, -1.22552, -1.53803, -0.899951, -1.20528, 1.23392, -1.30265, 0.042677, -0.000215727, 0.000575358, -0.00196376, -0.156871, 0.0365898, -0.000491158, -2.3211, 56.8564, 27.0084, 7.25555, 1.5282, 2.90103, -0.00999879, -0.00256566, 0.000386474, -3.27719e-05, 0.00178967, -0.0151384, 0.000631092, 0.0615079, -0.0166417, -0.00269316, -0.0393316, 0.170365, -0.00348942, 0.470794, -0.541322, 0.336423, -2.08286, -2.16541, -0.130039, 0.471274, -0.543843, 0.336043, -2.09032, -2.1726, -0.112592, -0.00458833, 0.0450753, 0.0112895, 0.0141445, -0.0145366, -0.00147459
0.143984, 1.69563, -1.22552, -1.53802, -0.899951, -1.20544, 1.23395, -1.30265, 0.0453738, -0.000962603, 0.00452816, 0.000443837, -0.155306, 0.0371786, -0.00107342, -2.3568, 56.8921, 26.9687, 7.18018, 1.52179, 2.8873, 0.0101428, -0.00262544, 0.000405241, -2.96314e-05, 0.00182239, -0.0153008, 0.000638607, 0.0606477, -0.0186502, -0.00153871, -0.0338283, 0.168545, 0.000123919, 0.47079, -0.541277, 0.336434, -2.08284, -2.1654, -0.130042, 0.47129, -0.543856, 0.336041, -2.09037, -2.17266, -0.112393, -0.00464891, 0.0456911, 0.0114364, 0.0161015, -0.0131672, -0.000116656
0.144984, 1.69567, -1.22553, -1.53801, -0.899957, -1.20559, 1.23398, -1.30264, 0.043309, -0.00406308, 0.00592183, -0.000546999, -0.149572, 0.031916, 0.000742446, -2.3568, 57.0389, 26.8577, 7.21588, 1.5163, 2.90103, -0.0292249, -0.00268376, 0.00042444, -2.33354e-05, 0.00185208, -0.0154495, 0.000645985, 0.0602411, -0.0177384, -0.00343406, -0.0347944, 0.158401, -0.000210991, 0.470785, -0.541231, 0.336446, -2.08282, -2.16539, -0.130045, 0.471306, -0.543866, 0.336037, -2.09042, -2.17271, -0.112211, -0.00470975, 0.04631, 0.011584, 0.015046, -0.0118908, -0.0017502
0.145984, 1.69572, -1.22553, -1.53802, -0.899961, -1.20573, 1.23401, -1.30265, 0.0425208, -0.00186426, 0.0024131, -0.00353589, -0.150584, 0.033594, -0.00167517, -2.39648, 57.0032, 26.933, 7.21588, 1.53461, 2.89462, 0.0293689, -0.00274347, 0.000441015, -1.93124e-05, 0.00189463, -0.0156079, 0.000649181, 0.0612389, -0.0175432, -0.00363756, -0.0378571, 0.163057, 0.00207123, 0.47078, -0.541185, 0.336457, -2.0828, -2.16538, -0.130049, 0.47132, -0.543878, 0.336035, -2.09046, -2.17277, -0.112005, -0.00477085, 0.0469322, 0.0117321, 0.0148186, -0.0122299, -0.00195397
0.146984, 1.69576, -1.22553, -1.53801, -0.899964, -1.20588, 1.23405, -1.30265, 0.0403616, -0.00207113, 0.00270809, -0.00179015, -0.150637, 0.0353522, 7.00115e-05, -2.3568, 57.0389, 26.8934, 7.18018, 1.5401, 2.87265, -0.00267457, -0.0028036, 0.00045905, -1.72377e-05, 0.00191964, -0.0157609, 0.000659766, 0.0635102, -0.0163469, -0.00318365, -0.0348188, 0.163843, -0.00314489, 0.470776, -0.541138, 0.336469, -2.08277, -2.16537, -0.130052, 0.471336, -0.543889, 0.336034, -2.09051, -2.17283, -0.111824, -0.00483222, 0.0475574, 0.0118809, 0.0136612, -0.0139658, -0.00167614
0.147984, 1.69581, -1.22553, -1.53802, -0.899967, -1.20602, 1.23407, -1.30264, 0.0407055, -0.00230357, -0.000757361, -0.000559293, -0.150341, 0.0313406, 0.0017421, -2.39648, 57.0786, 27.0084, 7.14447, 1.55292, 2.86532, -0.0484509, -0.00286306, 0.000477484, -9.0561e-06, 0.00196215, -0.0159094, 0.000670861, 0.0646441, -0.0149972, -0.00479439, -0.0405442, 0.161848, -0.0070771, 0.470771, -0.54109, 0.336481, -2.08275, -2.16536, -0.130056, 0.471351, -0.543898, 0.336028, -2.09055, -2.17287, -0.111628, -0.00489384, 0.0481858, 0.0120302, 0.0122335, -0.0142627, -0.00325391
0.148984, 1.69584, -1.22554, -1.53801, -0.899978, -1.20616, 1.2341, -1.30265, 0.0385685, -0.00236703, 0.00051949, -0.00135889, -0.145751, 0.0285176, -0.00195818, -2.3568, 57.1143, 26.9687, 7.18018, 1.55292, 2.85159, 0.0357776, -0.00292262, 0.000495412, -4.06743e-06, 0.00199649, -0.0160597, 0.00066727, 0.0645485, -0.0142425, -0.00468766, -0.0396988, 0.156864, -0.00261223, 0.470766, -0.541042, 0.336493, -2.08273, -2.16535, -0.130059, 0.471366, -0.543907, 0.336025, -2.09058, -2.17294, -0.11144, -0.00495572, 0.0488173, 0.01218, 0.0114185, -0.013584, -0.00296191
0.149984, 1.69589, -1.22553, -1.53801, -0.899985, -1.2063, 1.23413, -1.30265, 0.0409697, 0.000188141, 0.00267108, -0.00411857, -0.146277, 0.0269096, -0.00106809, -2.3568, 57.0389, 27.0084, 7.18018, 1.53461, 2.82962, 0.0293689, -0.00298104, 0.000513922, -4.04822e-06, 0.00202739, -0.0162133, 0.000671267, 0.0625527, -0.0162338, -0.00311192, -0.0407308, 0.159557, 0.00213957, 0.470761, -0.540993, 0.336505, -2.0827, -2.16534, -0.130063, 0.471382, -0.543915, 0.336028, -2.09062, -2.173, -0.111252, -0.00501785, 0.0494519, 0.0123305, 0.0133315, -0.0111408, -0.00100698
0.150984, 1.69593, -1.22554, -1.53801, -0.899991, -1.20645, 1.23416, -1.30265, 0.0394191, -0.00247083, 0.00126475, -0.00444349, -0.147815, 0.0300532, 0.000474733, -2.3211, 57.15, 27.0441, 7.1048, 1.5401, 2.81589, -0.00267457, -0.003044, 0.000529592, 2.94647e-06, 0.00206352, -0.0163593, 0.000680641, 0.0649796, -0.0156796, -0.00489777, -0.0399452, 0.160135, -0.00170103, 0.470756, -0.540944, 0.336517, -2.08268, -2.16533, -0.130066, 0.471394, -0.543926, 0.336023, -2.09066, -2.17304, -0.111066, -0.00508023, 0.0500896, 0.0124815, 0.0127375, -0.0126447, -0.00298236
0.151984, 1.69597, -1.22553, -1.53801, -0.900001, -1.20659, 1.23418, -1.30264, 0.0422665, 0.000952878, 0.00108261, -0.00662763, -0.148721, 0.0331782, 0.00129983, -2.3211, 57.0389, 27.0441, 7.1048, 1.54651, 2.77926, -0.0292249, -0.00310388, 0.000548015, 1.54428e-06, 0.00209765, -0.0165218, 0.000684762, 0.0639281, -0.018189, -0.00315341, -0.0388037, 0.166473, 0.00183404, 0.470751, -0.540894, 0.33653, -2.08266, -2.16532, -0.13007, 0.47141, -0.543935, 0.336027, -2.09071, -2.17311, -0.110866, -0.00514285, 0.0507303, 0.012633, 0.0152075, -0.011132, -0.00102331
0.152984, 1.696, -1.22553, -1.538, -0.90001, -1.20673, 1.23421, -1.30265, 0.0447816, 0.000636486, 0.00173654, -0.00747408, -0.144145, 0.0249185, -0.00130358, -2.24175, 57.0389, 27.0084, 7.06909, 1.53461, 2.77286, 0.0293689, -0.003166, 0.000563031, 3.70962e-06, 0.00213222, -0.016671, 0.00068355, 0.0613569, -0.0189616, -0.00415542, -0.0439558, 0.158761, 0.00950216, 0.470746, -0.540843, 0.336542, -2.08263, -2.16531, -0.130073, 0.471422, -0.543944, 0.336027, -2.09074, -2.17317, -0.110679, -0.00520573, 0.051374, 0.0127851, 0.015787, -0.00776285, -0.00148425
0.153984, 1.69604, -1.22553, -1.538, -0.900017, -1.20687, 1.23423, -1.30264, 0.0400303, -0.000502771, 0.00282394, -0.0039772, -0.142084, 0.0241566, 0.00106372, -2.24175, 57.0786, 27.0798, 6.99371, 1.55292, 2.75088, -0.0228162, -0.00322919, 0.000579456, 8.43967e-06, 0.00216736, -0.0168196, 0.000698767, 0.0645723, -0.0158466, -0.00382515, -0.0402947, 0.155354, 0.00064447, 0.470741, -0.540792, 0.336555, -2.08261, -2.1653, -0.130077, 0.471435, -0.543954, 0.336025, -2.09079, -2.17321, -0.110491, -0.00526884, 0.0520207, 0.0129378, 0.0127412, -0.0104694, -0.00141322
0.154984, 1.69608, -1.22553, -1.53799, -0.900028, -1.20701, 1.23425, -1.30264, 0.040689, -0.000334486, 0.00437308, -0.00866852, -0.140669, 0.0222183, 0.00118387, -2.16637, 57.0786, 27.1195, 6.95801, 1.58954, 2.76553, -0.0356336, -0.00329355, 0.000592364, 1.22427e-05, 0.00220634, -0.0169664, 0.000706746, 0.0627344, -0.0173907, -0.00408381, -0.042099, 0.154085, 0.0065423, 0.470735, -0.54074, 0.336568, -2.08258, -2.16528, -0.130081, 0.471445, -0.543964, 0.336023, -2.09082, -2.17326, -0.110301, -0.0053322, 0.0526704, 0.0130909, 0.0141444, -0.00790127, -0.00127751
0.155984, 1.69611, -1.22553, -1.53799, -0.900043, -1.20715, 1.23427, -1.30265, 0.0383605, -0.00105769, 0.00485112, -0.0106722, -0.13922, 0.0207612, -0.00138089, -2.091, 57.1143, 27.1909, 6.99371, 1.60785, 2.77926, 0.0229602, -0.00335756, 0.000606752, 1.70358e-05, 0.00224566, -0.0171146, 0.000707317, 0.0633813, -0.0165682, -0.00467405, -0.0428052, 0.151868, 0.00933486, 0.47073, -0.540687, 0.336581, -2.08255, -2.16527, -0.130085, 0.471456, -0.543973, 0.336021, -2.09085, -2.17331, -0.11011, -0.0053958, 0.0533231, 0.0132446, 0.0132612, -0.00782924, -0.00178376
0.156984, 1.69614, -1.22553, -1.53798, -0.900055, -1.20729, 1.23429, -1.30264, 0.033617, -0.000704735, 0.00613044, -0.0104127, -0.138177, 0.0202607, 0.000537466, -2.01562, 57.1143, 27.2306, 6.95801, 1.63257, 2.77926, -0.0164075, -0.00342201, 0.000621031, 1.99797e-05, 0.00228065, -0.0172618, 0.000717865, 0.0656862, -0.0141266, -0.00381737, -0.040613, 0.151199, 0.00350178, 0.470725, -0.540634, 0.336594, -2.08253, -2.16526, -0.130089, 0.471467, -0.543983, 0.336021, -2.09089, -2.17336, -0.109923, -0.00545963, 0.0539787, 0.0133988, 0.0108739, -0.00968196, -0.00107011
0.157984, 1.69618, -1.22553, -1.53797, -0.900066, -1.20743, 1.23431, -1.30264, 0.0341378, 0.000204425, 0.00801331, -0.012514, -0.132812, 0.0157018, 0.000358311, -1.97991, 57.2253, 27.2306, 6.88263, 1.65729, 2.76553, -0.0164075, -0.00348723, 0.000635554, 2.67278e-05, 0.00231429, -0.0173987, 0.000722902, 0.0634957, -0.0150202, -0.00340385, -0.0412659, 0.14587, 0.0087276, 0.470719, -0.54058, 0.336608, -2.0825, -2.16525, -0.130092, 0.471478, -0.543991, 0.336017, -2.09092, -2.17341, -0.10975, -0.00552369, 0.0546373, 0.0135535, 0.0116389, -0.00688787, -0.00019405
0.158984, 1.69621, -1.22553, -1.53797, -0.900074, -1.20756, 1.23433, -1.30264, 0.03271, 0.00217244, 0.00755493, -0.0101348, -0.133168, 0.0120037, -0.000507111, -1.86486, 57.15, 27.306, 6.77154, 1.6756, 2.75821, 0.00373412, -0.00355479, 0.000646797, 2.7146e-05, 0.0023466, -0.0175459, 0.000733043, 0.065114, -0.0128873, -0.00237016, -0.043402, 0.146405, 0.00574335, 0.470714, -0.540525, 0.336621, -2.08248, -2.16524, -0.130096, 0.471487, -0.544003, 0.336019, -2.09097, -2.17345, -0.109567, -0.00558799, 0.0552987, 0.0137087, 0.00954138, -0.00807177, 0.000793069
0.159984, 1.69625, -1.22553, -1.53796, -0.900094, -1.20769, 1.23435, -1.30264, 0.0352686, -0.000110253, 0.0104647, -0.0142426, -0.132834, 0.00949342, -0.000100715, -1.90453, 57.2253, 27.3774, 6.77154, 1.68201, 2.74356, -0.00267457, -0.00361469, 0.000667342, 3.41575e-05, 0.00238658, -0.0176862, 0.000723287, 0.0627241, -0.0154292, -0.00366322, -0.045224, 0.143224, 0.0130495, 0.470708, -0.54047, 0.336635, -2.08245, -2.16522, -0.1301, 0.471503, -0.544005, 0.336016, -2.09098, -2.17351, -0.109384, -0.00565251, 0.0559631, 0.0138645, 0.0118816, -0.00474249, -3.4421e-05
0.160984, 1.69627, -1.22552, -1.53795, -0.900108, -1.20782, 1.23436, -1.30264, 0.033276, 0.00184325, 0.0112121, -0.0131821, -0.132971, 0.0160822, 0.000916201, -1.78948, 57.15, 27.3774, 6.73187, 1.69391, 2.75088, -0.0292249, -0.00367973, 0.000680479, 3.19504e-05, 0.00241544, -0.0178323, 0.000730101, 0.0649698, -0.015396, -0.00144614, -0.0377791, 0.148681, 0.00951453, 0.470702, -0.540414, 0.336649, -2.08242, -2.16521, -0.130104, 0.471513, -0.544013, 0.336021, -2.09102, -2.17357, -0.109207, -0.00571726, 0.0566303, 0.0140207, 0.011947, -0.00663651, 0.00195883
0.161984, 1.6963, -1.22552, -1.53794, -0.900121, -1.20795, 1.23438, -1.30265, 0.0320371, 0.00134397, 0.0101245, -0.00981495, -0.133012, 0.0168436, -0.00155934, -1.6784, 57.15, 27.4528, 6.58508, 1.70032, 2.75088, 0.0293689, -0.00374755, 0.000691627, 3.42303e-05, 0.00244484, -0.0179686, 0.000731621, 0.0675711, -0.013934, -0.00156785, -0.0362396, 0.148669, 0.00734955, 0.470697, -0.540357, 0.336663, -2.08239, -2.1652, -0.130108, 0.471521, -0.544022, 0.336022, -2.09104, -2.17362, -0.109039, -0.00578224, 0.0573004, 0.0141774, 0.0105116, -0.00857528, 0.00163219
0.162984, 1.69633, -1.22553, -1.53793, -0.900144, -1.20807, 1.23439, -1.30264, 0.0326429, -0.000780901, 0.0101005, -0.0149333, -0.128866, 0.0164807, 0.000147236, -1.63873, 57.2253, 27.4885, 6.62079, 1.72504, 2.77286, -0.00267457, -0.00380918, 0.000708061, 4.05059e-05, 0.00248328, -0.0180977, 0.000726532, 0.0658265, -0.0159087, -0.00366412, -0.0371563, 0.143816, 0.0122036, 0.470691, -0.5403, 0.336677, -2.08237, -2.16519, -0.130113, 0.471534, -0.544024, 0.33602, -2.09106, -2.17367, -0.108869, -0.00584743, 0.0579733, 0.0143346, 0.0122782, -0.00577317, -7.02072e-05
0.163984, 1.69636, -1.22552, -1.53792, -0.900162, -1.20819, 1.2344, -1.30264, 0.0294448, 0.000379382, 0.0118654, -0.0128408, -0.125213, 0.0168633, 0.00131886, -1.56335, 57.1896, 27.4528, 6.54541, 1.73694, 2.77926, -0.0356336, -0.00387207, 0.00072319, 3.90801e-05, 0.00250794, -0.0182315, 0.000725507, 0.0674017, -0.0144497, -0.00191904, -0.031857, 0.142104, 0.00812671, 0.470685, -0.540242, 0.336692, -2.08234, -2.16517, -0.130117, 0.471545, -0.544028, 0.336025, -2.09108, -2.17372, -0.10871, -0.00591285, 0.058649, 0.0144922, 0.0108775, -0.00698271, 0.0016073
0.164984, 1.69638, -1.22553, -1.53791, -0.900183, -1.20831, 1.23441, -1.30265, 0.0292958, -0.00220416, 0.0134822, -0.012233, -0.123093, 0.0124321, -0.00176562, -1.45226, 57.2968, 27.5281, 6.5097, 1.76807, 2.78659, 0.0357776, -0.00393906, 0.000734807, 4.70851e-05, 0.00253996, -0.0183506, 0.000718264, 0.0673824, -0.0140323, -0.00322978, -0.0330971, 0.13578, 0.0120747, 0.470679, -0.540183, 0.336706, -2.08231, -2.16516, -0.130121, 0.471553, -0.544033, 0.336021, -2.09109, -2.17377, -0.108558, -0.00597848, 0.0593275, 0.0146504, 0.0103461, -0.00609871, 0.000485618
0.165984, 1.6964, -1.22552, -1.5379, -0.900199, -1.20842, 1.23442, -1.30264, 0.0278518, -0.00143301, 0.0140799, -0.0131036, -0.119937, 0.00911271, -0.00070236, -1.41259, 57.2968, 27.6392, 6.39465, 1.76807, 2.79391, 0.0229602, -0.00400538, 0.00074528, 5.03194e-05, 0.00257023, -0.0184699, 0.000722172, 0.0673031, -0.0132974, -0.00296023, -0.0339517, 0.132667, 0.0116981, 0.470673, -0.540124, 0.336721, -2.08228, -2.16515, -0.130125, 0.47156, -0.544039, 0.336021, -2.09111, -2.17381, -0.108407, -0.00604433, 0.0600088, 0.0148089, 0.00955377, -0.00541092, 0.000943705
0.166984, 1.69642, -1.22553, -1.53788, -0.90023, -1.20853, 1.23443, -1.30264, 0.0218278, -0.000364732, 0.017224, -0.0174466, -0.114577, 0.00716833, 0.000752463, -1.30151, 57.4078, 27.6392, 6.43433, 1.79828, 2.78659, -0.00999879, -0.00406985, 0.000759049, 5.64766e-05, 0.00259922, -0.0185887, 0.000716646, 0.0673816, -0.0117108, -0.00173988, -0.0312778, 0.128721, 0.0114037, 0.470667, -0.540064, 0.336735, -2.08225, -2.16513, -0.130129, 0.47157, -0.544041, 0.336019, -2.09112, -2.17386, -0.108258, -0.00611038, 0.0606929, 0.014968, 0.00795172, -0.00505897, 0.00234263
0.167984, 1.69645, -1.22553, -1.53787, -0.90026, -1.20864, 1.23443, -1.30264, 0.0229341, 0.000876033, 0.0145704, -0.0204131, -0.115954, 0.0056666, 0.00168844, -1.30151, 57.3721, 27.7146, 6.47003, 1.84772, 2.77926, -0.0420422, -0.00413393, 0.000772824, 5.92918e-05, 0.00263404, -0.0187174, 0.000710818, 0.0672678, -0.0121252, -0.00258639, -0.0368235, 0.131196, 0.0124671, 0.470661, -0.540003, 0.33675, -2.08222, -2.16512, -0.130134, 0.47158, -0.544042, 0.336021, -2.09113, -2.17391, -0.108093, -0.00617665, 0.0613797, 0.0151275, 0.00826414, -0.00411088, 0.00166956
0.168984, 1.69647, -1.22553, -1.53785, -0.900284, -1.20875, 1.23444, -1.30265, 0.0197766, -3.82178e-05, 0.0144129, -0.023065, -0.115955, 0.00447742, -0.00151923, -1.26183, 57.4078, 27.7146, 6.39465, 1.87244, 2.77286, 0.0293689, -0.00419905, 0.000785502, 6.17752e-05, 0.00265689, -0.0188313, 0.00069662, 0.0685965, -0.010761, -0.00353249, -0.0387231, 0.130209, 0.0148722, 0.470655, -0.539942, 0.336766, -2.08219, -2.1651, -0.130138, 0.471588, -0.544044, 0.336023, -2.09113, -2.17396, -0.107958, -0.00624313, 0.0620692, 0.0152874, 0.0068484, -0.00464208, 0.000728114
0.169984, 1.69648, -1.22553, -1.53785, -0.900314, -1.20885, 1.23444, -1.30264, 0.0175465, 0.00330347, 0.0137993, -0.0229505, -0.115091, 0.00360296, 0.00139468, -1.22613, 57.4078, 27.8614, 6.35895, 1.87793, 2.76553, -0.0356336, -0.00426581, 0.000796287, 6.76649e-05, 0.0026889, -0.0189457, 0.000698692, 0.0698802, -0.0092892, -0.00176677, -0.0387532, 0.132723, 0.00963403, 0.470649, -0.53988, 0.336781, -2.08216, -2.16509, -0.130143, 0.471595, -0.544047, 0.336021, -2.09114, -2.174, -0.10781, -0.00630981, 0.0627614, 0.0154478, 0.00542423, -0.00555154, 0.00247451
0.170984, 1.69649, -1.22553, -1.53782, -0.900346, -1.20896, 1.23445, -1.30263, 0.0156679, 0.000822974, 0.017821, -0.0260875, -0.110732, 0.00347584, 0.00116714, -1.18645, 57.4832, 27.8257, 6.32324, 1.90265, 2.74356, -0.0420422, -0.00433097, 0.000808679, 6.85397e-05, 0.00270975, -0.0190613, 0.000691358, 0.069023, -0.0102053, -0.0022191, -0.034564, 0.126932, 0.0142293, 0.470642, -0.539817, 0.336796, -2.08213, -2.16508, -0.130147, 0.471604, -0.544047, 0.336025, -2.09115, -2.17405, -0.107674, -0.00637669, 0.0634563, 0.0156086, 0.0062248, -0.00390189, 0.00229259
0.171984, 1.69651, -1.22552, -1.5378, -0.900381, -1.20905, 1.23445, -1.30264, 0.0143125, 0.00317933, 0.0167422, -0.0292281, -0.106595, 0.00747682, -0.00115468, -1.15075, 57.5189, 27.8257, 6.32324, 1.90265, 2.73623, 0.0101428, -0.00439489, 0.000820748, 6.99832e-05, 0.00273117, -0.019169, 0.00067278, 0.0690018, -0.0111584, -0.00127446, -0.0310375, 0.128547, 0.0188837, 0.470636, -0.539753, 0.336812, -2.0821, -2.16506, -0.130152, 0.471612, -0.544046, 0.336029, -2.09114, -2.17411, -0.107547, -0.00644377, 0.0641539, 0.0157699, 0.00714434, -0.00329014, 0.00335803
0.172984, 1.69652, -1.22553, -1.53778, -0.900413, -1.20915, 1.23445, -1.30264, 0.0141435, 0.0048278, 0.0182213, -0.0296543, -0.103193, 0.0049794, 0.000213555, -1.15075, 57.5546, 27.8614, 6.24786, 1.90265, 2.75088, -0.0164075, -0.00446091, 0.00083175, 7.37566e-05, 0.00275769, -0.019276, 0.000665798, 0.0682715, -0.011358, -0.000109593, -0.0301828, 0.126466, 0.0195624, 0.470629, -0.539689, 0.336828, -2.08207, -2.16505, -0.130156, 0.471618, -0.544046, 0.33603, -2.09114, -2.17415, -0.107414, -0.00651106, 0.0648541, 0.0159315, 0.00729372, -0.00204128, 0.0047758
0.173984, 1.69652, -1.22553, -1.53775, -0.900447, -1.20924, 1.23445, -1.30263, 0.00900352, 0.00123588, 0.0232238, -0.0324667, -0.100717, 0.00345138, 0.000379729, -1.07537, 57.6657, 27.8614, 6.13678, 1.89624, 2.75821, -0.0228162, -0.00452896, 0.000839851, 7.61297e-05, 0.00277472, -0.0193763, 0.000658698, 0.0691036, -0.0100901, -0.000772467, -0.0266838, 0.120223, 0.0201029, 0.470623, -0.539624, 0.336844, -2.08204, -2.16503, -0.130161, 0.471622, -0.544048, 0.336033, -2.09114, -2.1742, -0.107298, -0.00657853, 0.0655569, 0.0160936, 0.00596587, -0.00210897, 0.0041907
0.174984, 1.69653, -1.22552, -1.53773, -0.900497, -1.20934, 1.23445, -1.30263, 0.010071, 0.00212099, 0.0228128, -0.0367969, -0.0993375, 0.003417, -0.000730192, -1.07537, 57.63, 27.9011, 6.24786, 1.90265, 2.73623, 0.00373412, -0.0045917, 0.000853309, 7.62619e-05, 0.00279847, -0.0194894, 0.000636013, 0.0677915, -0.0117717, -0.00110388, -0.0283857, 0.12079, 0.0263774, 0.470616, -0.539559, 0.33686, -2.082, -2.16502, -0.130166, 0.471632, -0.544044, 0.336038, -2.09113, -2.17426, -0.107164, -0.0066462, 0.0662624, 0.0162561, 0.00751819, 1.32298e-05, 0.00417712
0.175984, 1.69653, -1.22553, -1.53771, -0.90053, -1.20942, 1.23445, -1.30264, 0.00875718, 0.00228441, 0.0249759, -0.0327322, -0.0931322, 0.00301334, -0.000961512, -0.996025, 57.7411, 27.9725, 6.0614, 1.89624, 2.7225, 0.0165515, -0.00466071, 0.000861105, 7.9479e-05, 0.00281434, -0.0195837, 0.000625309, 0.0685722, -0.0111609, 0.000283184, -0.0216828, 0.11547, 0.0248867, 0.47061, -0.539493, 0.336876, -2.08197, -2.165, -0.13017, 0.471635, -0.544045, 0.33604, -2.09113, -2.1743, -0.107056, -0.00671407, 0.0669704, 0.016419, 0.00692069, -0.000289653, 0.00560396
0.176984, 1.69654, -1.22553, -1.53768, -0.900577, -1.2095, 1.23445, -1.30263, 0.00599979, 0.000372503, 0.0213029, -0.0375433, -0.0895077, 0.0016703, 0.00105441, -0.960319, 57.8125, 28.0121, 6.0614, 1.91546, 2.73623, -0.0292249, -0.00472379, 0.000874133, 8.15331e-05, 0.00283146, -0.0196805, 0.000605111, 0.0692046, -0.0102907, -0.00284378, -0.0262196, 0.110911, 0.0239193, 0.470603, -0.539426, 0.336892, -2.08194, -2.16499, -0.130175, 0.471644, -0.544039, 0.336044, -2.09111, -2.17436, -0.106945, -0.00678212, 0.0676811, 0.0165822, 0.00589016, 0.000246961, 0.00260646
0.177984, 1.69654, -1.22553, -1.53765, -0.900629, -1.20959, 1.23444, -1.30264, 0.00687013, 0.00514194, 0.0236313, -0.0448334, -0.0817448, 0.000698525, -0.000992479, -0.920646, 57.8879, 28.0875, 6.09711, 1.93378, 2.75088, 0.0165515, -0.00478791, 0.000886246, 8.44932e-05, 0.00285208, -0.019779, 0.000575123, 0.0648015, -0.0134855, -0.000423644, -0.0243957, 0.109727, 0.0368816, 0.470596, -0.539358, 0.336909, -2.0819, -2.16497, -0.13018, 0.471651, -0.544034, 0.336047, -2.09109, -2.17442, -0.10683, -0.00685036, 0.0683942, 0.0167459, 0.00894394, 0.005063, 0.00574745
0.178984, 1.69653, -1.22553, -1.53762, -0.90068, -1.20967, 1.23445, -1.30264, 0.00596956, 0.00467222, 0.0258768, -0.0485614, -0.0804734, 0.00134122, -0.00113637, -0.809562, 57.999, 28.1589, 6.0614, 1.94568, 2.72983, 0.0293689, -0.00485653, 0.00089573, 8.64965e-05, 0.00286002, -0.0198755, 0.000559307, 0.064221, -0.0145283, -0.000368535, -0.0227638, 0.109077, 0.0409759, 0.470589, -0.53929, 0.336926, -2.08187, -2.16495, -0.130185, 0.471656, -0.544032, 0.336051, -2.09108, -2.17447, -0.106729, -0.00691878, 0.06911, 0.01691, 0.00989839, 0.00638687, 0.00602225
0.179984, 1.69653, -1.22552, -1.53759, -0.90073, -1.20975, 1.23445, -1.30263, 0.00392732, 0.00481342, 0.0264269, -0.0466229, -0.0751431, 0.000457254, 0.00141256, -0.76989, 57.9633, 28.274, 5.95032, 1.96399, 2.74356, -0.0292249, -0.00492248, 0.000906204, 8.31818e-05, 0.0028726, -0.0199797, 0.000545761, 0.0651699, -0.0135175, 0.000139771, -0.0191592, 0.104508, 0.0367917, 0.470582, -0.53922, 0.336943, -2.08184, -2.16494, -0.13019, 0.471662, -0.544028, 0.33606, -2.09108, -2.17453, -0.106615, -0.00698738, 0.0698282, 0.0170744, 0.0088741, 0.00604798, 0.0065692
0.180984, 1.69653, -1.22553, -1.53755, -0.900794, -1.20982, 1.23445, -1.30263, 0.00243973, 0.00286257, 0.0266137, -0.0549497, -0.0762822, 0.000629903, 0.000466988, -0.734184, 58.1458, 28.274, 5.98602, 1.99512, 2.73623, -0.0164075, -0.00498356, 0.000922134, 8.90449e-05, 0.00288405, -0.0200626, 0.000504845, 0.0644958, -0.0145762, -0.00204486, -0.0230644, 0.104678, 0.0433915, 0.470575, -0.539151, 0.33696, -2.0818, -2.16492, -0.130195, 0.471673, -0.544017, 0.336061, -2.09104, -2.1746, -0.106528, -0.00705617, 0.0705489, 0.0172392, 0.00975685, 0.00781821, 0.00464796
0.181984, 1.69652, -1.22553, -1.53752, -0.900849, -1.20989, 1.23445, -1.30264, -0.00572397, 0.00323895, 0.0261854, -0.0567343, -0.0719518, 0.000697644, -0.0013841, -0.658806, 58.2568, 28.4208, 5.83527, 2.01343, 2.72983, 0.0293689, -0.00505024, 0.000933571, 9.36323e-05, 0.00289364, -0.0201473, 0.000474047, 0.0675522, -0.0108451, -0.00184528, -0.0208223, 0.101842, 0.0400337, 0.470568, -0.53908, 0.336977, -2.08177, -2.16491, -0.1302, 0.47168, -0.544011, 0.336063, -2.09101, -2.17466, -0.106439, -0.00712513, 0.0712721, 0.0174044, 0.00608031, 0.00533923, 0.0046455
0.182984, 1.69652, -1.22553, -1.53749, -0.900913, -1.20997, 1.23445, -1.30263, -0.00571646, 0.00521266, 0.0277719, -0.0599419, -0.0735119, 0.00103789, 0.00101005, -0.583427, 58.2925, 28.4961, 5.76385, 2.03815, 2.71518, -0.0228162, -0.00511417, 0.000947017, 9.09151e-05, 0.00289903, -0.0202452, 0.000445871, 0.0671613, -0.0117449, -0.000570417, -0.0209892, 0.105838, 0.0407221, 0.470561, -0.539009, 0.336994, -2.08173, -2.16489, -0.130205, 0.471689, -0.544003, 0.336072, -2.09099, -2.17472, -0.106341, -0.00719427, 0.0719978, 0.0175699, 0.00694376, 0.0062903, 0.00610041
0.183984, 1.6965, -1.22552, -1.53745, -0.900985, -1.21003, 1.23445, -1.30263, -0.00836839, 0.00664912, 0.0322594, -0.0668522, -0.0696622, 0.000714626, 0.000910725, -0.392998, 58.3282, 28.5715, 5.76385, 2.05005, 2.71518, -0.0292249, -0.00517989, 0.000956891, 9.02676e-05, 0.00290376, -0.0203344, 0.000413526, 0.0651662, -0.0129916, 0.000957388, -0.0180954, 0.104587, 0.0477151, 0.470554, -0.538937, 0.337012, -2.0817, -2.16487, -0.13021, 0.471694, -0.543995, 0.33608, -2.09096, -2.17479, -0.106254, -0.00726359, 0.0727259, 0.0177358, 0.00810495, 0.00880213, 0.00804619
