alisrour97/Franka_experiments/Real_Robot_scripts/servo-franka/Data3/log_dyn_INIT0_l_ki_2.csv
Time,q1,q2,q3,q4,q5,q6,q7,dq1,dq2,dq3,dq4,dq5,dq6,dq7,t1,t2,t3,t4,t5,t6,t7,ex1,ex2,ex3,ex4,ex5,ex6,ev1,ev2,ev3,ev4,ev5,ev6,xd,yd,zd,uxd,uyd,uzd,x,y,z,ux,uy,uz,vxd,vyd,vzd,vx,vy,vz
1.2207e-06, 1.69163, -1.22584, -1.53775, -0.900145, -1.19173, 1.22831, -1.30297, -0.00546284, -0.002667, -0.00118526, 0.000116274, -0.000698839, 0.000804721, 0.00107553, -1.18645, 58.475, 27.6392, 6.69617, 1.6875, 3.38168, 0.167614, 0.001151, -0.00137974, 0.00020283, 0.000247024, -2.06611e-05, -0.000853239, 0.00318863, 0.00318019, -0.00161144, 2.0429e-05, -0.00178391, -0.0073302, 0.471008, -0.543389, 0.335894, -2.08385, -2.16584, -0.129887, 0.469585, -0.542275, 0.33592, -2.08283, -2.16668, -0.129684, -4.82042e-07, 4.44613e-06, 1.21621e-06, -0.00312072, -0.00302555, -0.00198899
0.0123521, 1.69161, -1.22588, -1.53779, -0.900142, -1.19174, 1.22832, -1.30298, -0.00525628, -0.00356229, -0.00645919, 0.000226327, 7.80596e-05, 0.00259382, -0.00117575, -1.15075, 58.6972, 27.7503, 6.73187, 1.70032, 3.3533, 0.206066, 0.00112775, -0.00139863, 0.000233842, 0.000273165, 7.13152e-06, -0.000812445, 0.00435586, 0.00358317, -0.00384629, -0.00272436, -0.00208718, -0.00723468, 0.471008, -0.543389, 0.335894, -2.08385, -2.16584, -0.129887, 0.469562, -0.542297, 0.33588, -2.08285, -2.1666, -0.129673, -1.47349e-06, 1.36697e-05, 3.70923e-06, -0.0035631, -0.00384117, -0.00436224
0.0133552, 1.69161, -1.22588, -1.53779, -0.900142, -1.19174, 1.22832, -1.30298, -0.00525628, -0.00356229, -0.00645919, 0.000226327, 7.80596e-05, 0.00259382, -0.00117575, -1.15075, 58.6972, 27.7503, 6.73187, 1.70032, 3.3533, 0.206066, 0.00112774, -0.00139863, 0.000233843, 0.000273163, 7.12894e-06, -0.000812444, 0.00436961, 0.00358218, -0.00384774, -0.00272242, -0.002081, -0.00723354, 0.471008, -0.543389, 0.335894, -2.08385, -2.16584, -0.129887, 0.469562, -0.542297, 0.33588, -2.08285, -2.1666, -0.129673, -2.9032e-06, 2.69793e-05, 7.30333e-06, -0.0035631, -0.00384117, -0.00436224
0.0143552, 1.69161, -1.22588, -1.53779, -0.900142, -1.19174, 1.22832, -1.30298, -0.00525628, -0.00356229, -0.00645919, 0.000226327, 7.80596e-05, 0.00259382, -0.00117575, -1.15075, 58.6972, 27.7503, 6.73187, 1.70032, 3.3533, 0.206066, 0.00112772, -0.00139863, 0.000233845, 0.000273158, 7.12195e-06, -0.000812442, 0.00438823, 0.00358084, -0.00384969, -0.00271978, -0.00207263, -0.00723198, 0.471008, -0.543389, 0.335894, -2.08385, -2.16584, -0.129887, 0.469562, -0.542297, 0.33588, -2.08285, -2.1666, -0.129673, -4.83863e-06, 4.50071e-05, 1.21677e-05, -0.0035631, -0.00384117, -0.00436224
0.0153555, 1.69161, -1.22588, -1.53779, -0.900142, -1.19174, 1.22832, -1.30298, -0.00525628, -0.00356229, -0.00645919, 0.000226327, 7.80596e-05, 0.00259382, -0.00117575, -1.15075, 58.6972, 27.7503, 6.73187, 1.70032, 3.3533, 0.206066, 0.00112768, -0.00139863, 0.000233849, 0.000273148, 7.10835e-06, -0.000812437, 0.00441231, 0.00357911, -0.00385222, -0.00271636, -0.00206179, -0.00722998, 0.471008, -0.543389, 0.335894, -2.08385, -2.16584, -0.129887, 0.469562, -0.542297, 0.33588, -2.08285, -2.1666, -0.129673, -7.34058e-06, 6.83239e-05, 1.84546e-05, -0.0035631, -0.00384117, -0.00436224
0.0163557, 1.69161, -1.22588, -1.53779, -0.900142, -1.19174, 1.22832, -1.30298, -0.00525628, -0.00356229, -0.00645919, 0.000226327, 7.80596e-05, 0.00259382, -0.00117575, -1.15075, 58.6972, 27.7503, 6.73187, 1.70032, 3.3533, 0.206066, 0.00112762, -0.00139862, 0.000233856, 0.000273131, 7.08593e-06, -0.000812429, 0.00444236, 0.00357694, -0.00385537, -0.00271209, -0.00204827, -0.00722747, 0.471008, -0.543389, 0.335894, -2.08385, -2.16584, -0.129887, 0.469562, -0.542297, 0.33588, -2.08285, -2.1666, -0.129673, -1.04607e-05, 9.7416e-05, 2.62933e-05, -0.0035631, -0.00384117, -0.00436224
0.017356, 1.69161, -1.22588, -1.53779, -0.900142, -1.19174, 1.22832, -1.30298, -0.00525628, -0.00356229, -0.00645919, 0.000226327, 7.80596e-05, 0.00259382, -0.00117575, -1.15075, 58.6972, 27.7503, 6.73187, 1.70032, 3.3533, 0.206066, 0.00112752, -0.00139862, 0.000233866, 0.000273106, 7.05252e-06, -0.000812418, 0.00447877, 0.00357433, -0.00385918, -0.00270689, -0.00203187, -0.00722443, 0.471008, -0.543389, 0.335894, -2.08385, -2.16584, -0.129887, 0.469562, -0.542297, 0.33588, -2.08285, -2.1666, -0.129673, -1.42391e-05, 0.000132663, 3.57838e-05, -0.0035631, -0.00384117, -0.00436224
0.018356, 1.69161, -1.22588, -1.53779, -0.900142, -1.19174, 1.22832, -1.30298, -0.00525628, -0.00356229, -0.00645919, 0.000226327, 7.80596e-05, 0.00259382, -0.00117575, -1.15075, 58.6972, 27.7503, 6.73187, 1.70032, 3.3533, 0.206066, 0.00112739, -0.00139861, 0.00023388, 0.000273071, 7.00591e-06, -0.000812402, 0.00452178, 0.00357124, -0.00386368, -0.00270073, -0.00201248, -0.00722084, 0.471008, -0.543389, 0.335894, -2.08385, -2.16584, -0.129887, 0.469562, -0.542297, 0.33588, -2.08285, -2.1666, -0.129673, -1.87016e-05, 0.000174312, 4.69907e-05, -0.0035631, -0.00384117, -0.00436224
0.019356, 1.69161, -1.22588, -1.53779, -0.900142, -1.19174, 1.22832, -1.30298, -0.00525628, -0.00356229, -0.00645919, 0.000226327, 7.80596e-05, 0.00259382, -0.00117575, -1.15075, 58.6972, 27.7503, 6.73187, 1.70032, 3.3533, 0.206066, 0.00112721, -0.0013986, 0.000233899, 0.000273024, 6.94393e-06, -0.000812381, 0.00457151, 0.00356767, -0.00386886, -0.0026936, -0.00199005, -0.00721669, 0.471008, -0.543389, 0.335894, -2.08385, -2.16584, -0.129887, 0.469562, -0.542297, 0.33588, -2.08285, -2.1666, -0.129673, -2.38577e-05, 0.00022246, 5.99368e-05, -0.0035631, -0.00384117, -0.00436224
0.020356, 1.69161, -1.22588, -1.53779, -0.900142, -1.19174, 1.22832, -1.30298, -0.00525628, -0.00356229, -0.00645919, 0.000226327, 7.80596e-05, 0.00259382, -0.00117575, -1.15075, 58.6972, 27.7503, 6.73187, 1.70032, 3.3533, 0.206066, 0.00112698, -0.00139858, 0.000233923, 0.000272964, 6.86439e-06, -0.000812355, 0.00462786, 0.00356362, -0.00387473, -0.00268549, -0.00196462, -0.00721198, 0.471008, -0.543389, 0.335894, -2.08385, -2.16584, -0.129887, 0.469562, -0.542297, 0.33588, -2.08285, -2.1666, -0.129673, -2.96979e-05, 0.000277024, 7.45974e-05, -0.0035631, -0.00384117, -0.00436224
0.021356, 1.69161, -1.22588, -1.53779, -0.900142, -1.19174, 1.22832, -1.30298, -0.00525628, -0.00356229, -0.00645919, 0.000226327, 7.80596e-05, 0.00259382, -0.00117575, -1.15075, 58.6972, 27.7503, 6.73187, 1.70032, 3.3533, 0.206066, 0.00112669, -0.00139856, 0.000233953, 0.00027289, 6.76512e-06, -0.000812321, 0.00469055, 0.00355913, -0.00388124, -0.00267644, -0.0019363, -0.00720675, 0.471008, -0.543388, 0.335894, -2.08385, -2.16584, -0.129887, 0.469562, -0.542297, 0.33588, -2.08285, -2.1666, -0.129673, -3.61913e-05, 0.000337726, 9.08941e-05, -0.0035631, -0.00384117, -0.00436224
0.022356, 1.6916, -1.22591, -1.53785, -0.900137, -1.19174, 1.22833, -1.30297, -0.00139305, -0.00322419, -0.00704969, 0.0027855, -0.000231303, 0.000388148, 0.000200362, -1.11108, 59.1019, 27.9368, 6.65649, 1.73053, 3.31027, 0.18684, 0.00110461, -0.0014111, 0.000275206, 0.000324984, 2.68269e-05, -0.000769649, 0.00372492, 0.00250726, -0.00394176, -0.00459758, -0.00247599, -0.00739613, 0.471008, -0.543388, 0.335894, -2.08385, -2.16584, -0.129887, 0.469549, -0.542313, 0.335836, -2.08285, -2.16652, -0.129631, -4.33151e-05, 0.00040436, 0.000108769, -0.00255643, -0.00276889, -0.00428596
0.023356, 1.6916, -1.22592, -1.53786, -0.90014, -1.19174, 1.22833, -1.30297, -0.000949712, -0.00391224, -0.0082937, 0.000928984, 4.93882e-05, 0.000539137, 0.000845656, -1.11108, 59.1772, 27.9368, 6.69617, 1.72504, 3.30295, 0.167614, 0.00110287, -0.0014113, 0.000282734, 0.000333411, 3.28815e-05, -0.000766726, 0.00333727, 0.00198565, -0.00506222, -0.00642143, -0.00302564, -0.00646582, 0.471008, -0.543388, 0.335894, -2.08385, -2.16584, -0.129887, 0.469549, -0.542313, 0.335829, -2.08285, -2.16651, -0.129628, -5.10658e-05, 0.000476901, 0.000128212, -0.00209755, -0.00211984, -0.00532844
0.024356, 1.69161, -1.22593, -1.53787, -0.900142, -1.19174, 1.22833, -1.30297, -0.000648899, -0.00951324, -0.0128987, 0.000619323, 0.000270389, 0.000366253, 0.000835041, -1.11108, 59.0662, 27.8257, 6.69617, 1.71863, 3.30295, 0.160289, 0.00109999, -0.00141262, 0.000289906, 0.000344737, 3.53163e-05, -0.000762366, 0.00462377, 0.00245576, -0.0100653, -0.011141, -0.00850304, -0.00792685, 0.471008, -0.543387, 0.335894, -2.08385, -2.16584, -0.129887, 0.469547, -0.542314, 0.335821, -2.08285, -2.1665, -0.129617, -5.94401e-05, 0.000555325, 0.000149214, -0.00271002, -0.00256067, -0.0104331
0.025356, 1.69161, -1.22592, -1.53788, -0.900142, -1.19174, 1.22833, -1.30297, 0.00264884, -0.0022333, -0.0125022, 0.00217612, -0.00200742, 0.000791824, 0.00174349, -1.11108, 58.5861, 27.6749, 6.62079, 1.65088, 3.2883, 0.128246, 0.00109924, -0.00141226, 0.000289728, 0.00035379, 2.55716e-05, -0.000759799, 0.00342791, 0.0011886, -0.0055804, -0.0106387, 0.000802822, -0.00763476, 0.471008, -0.543387, 0.335895, -2.08385, -2.16584, -0.129887, 0.469548, -0.542315, 0.335822, -2.08285, -2.1665, -0.129597, -6.84344e-05, 0.000639605, 0.000171766, -0.00133436, -0.00193426, -0.00583463
0.026356, 1.69161, -1.22593, -1.53791, -0.900145, -1.19175, 1.22833, -1.30297, 0.00446617, -0.00761092, -0.018308, 9.36312e-05, -0.0046922, 0.000260456, 0.00167096, -1.07537, 58.4036, 27.6392, 6.54541, 1.60144, 3.29562, 0.114513, 0.00109303, -0.00141513, 0.000308167, 0.00037824, 3.81649e-05, -0.000754426, 0.00429416, 0.00101932, -0.0112367, -0.0191315, -0.00196504, -0.0075416, 0.471008, -0.543386, 0.335895, -2.08384, -2.16584, -0.129887, 0.469544, -0.542317, 0.335803, -2.08283, -2.16648, -0.129582, -7.80454e-05, 0.000729718, 0.000195859, -0.00134811, -0.00182181, -0.0115353
0.027356, 1.69162, -1.22594, -1.53793, -0.900151, -1.19175, 1.22832, -1.30298, 0.00565443, -0.00599962, -0.0184417, 0.000637609, -0.00782885, 0.00366849, 0.000876612, -1.0357, 58.11, 27.5638, 6.5097, 1.58313, 3.33133, 0.120922, 0.00109079, -0.00141586, 0.000319354, 0.00040659, 3.61314e-05, -0.000755072, 0.00487664, 0.000249584, -0.0100357, -0.017524, 0.00393535, -0.00718659, 0.471008, -0.543385, 0.335895, -2.08384, -2.16584, -0.129887, 0.469543, -0.542317, 0.335792, -2.08282, -2.16647, -0.129549, -8.82697e-05, 0.000825639, 0.000221482, -0.000525418, -0.00245429, -0.0104374
0.028356, 1.69162, -1.22595, -1.53794, -0.900153, -1.19176, 1.22833, -1.30298, 0.00755129, -0.00452478, -0.017785, 0.00199329, -0.00592602, 0.00312029, 0.000821768, -1.0357, 57.9236, 27.4528, 6.43433, 1.57764, 3.324, 0.114513, 0.00108828, -0.00141321, 0.000330041, 0.00042357, 3.30303e-05, -0.000758069, 0.00383016, -0.000721416, -0.00890793, -0.0160517, 0.00351935, -0.00550687, 0.471008, -0.543384, 0.335895, -2.08384, -2.16584, -0.129887, 0.469545, -0.542317, 0.335781, -2.08281, -2.16647, -0.129527, -9.91039e-05, 0.000927342, 0.000248628, 0.000436784, -0.00145333, -0.00916344
0.029356, 1.69162, -1.22597, -1.53796, -0.900155, -1.19178, 1.22833, -1.30298, 0.00222783, -0.00633698, -0.0209463, -0.000222133, -0.00598969, 0.00184018, 3.92202e-05, -0.884941, 57.999, 27.4885, 6.35895, 1.61426, 3.33865, 0.128246, 0.00107844, -0.00141846, 0.000348712, 0.000450474, 3.89903e-05, -0.000746455, 0.00635919, 0.00252566, -0.0112435, -0.0203192, 0.00142073, -0.00954507, 0.471007, -0.543383, 0.335895, -2.08384, -2.16584, -0.129887, 0.46954, -0.542323, 0.335761, -2.0828, -2.16644, -0.129502, -0.000110545, 0.0010348, 0.000277287, -0.00281142, -0.00361597, -0.0117356
0.030356, 1.69162, -1.22598, -1.53797, -0.900159, -1.19179, 1.22834, -1.30298, 0.00238348, -0.0110381, -0.0174316, -0.000521785, -0.0101343, 0.00382727, 0.000534773, -0.76989, 58.11, 27.417, 6.35895, 1.63898, 3.27456, 0.114513, 0.00107154, -0.0014178, 0.000361695, 0.000460211, 3.61257e-05, -0.000740871, 0.00705919, 0.00176352, -0.012644, -0.0179911, 0.000970755, -0.0092299, 0.471007, -0.543382, 0.335896, -2.08384, -2.16584, -0.129887, 0.46954, -0.542327, 0.335748, -2.0828, -2.16643, -0.129488, -0.000122588, 0.001148, 0.000307449, -0.00208783, -0.00394709, -0.01322
0.031356, 1.69163, -1.22599, -1.53799, -0.900162, -1.19181, 1.22835, -1.30298, 0.0029624, -0.00932378, -0.0173797, 0.000207088, -0.0134664, 0.0082177, -0.00015211, -0.658806, 58.1458, 27.4528, 6.32324, 1.66919, 3.25259, 0.128246, 0.00106573, -0.00141783, 0.000370718, 0.000477066, 2.48314e-05, -0.000736784, 0.00808327, 0.00118662, -0.011175, -0.0152638, 0.00758393, -0.00972137, 0.471007, -0.543381, 0.335896, -2.08384, -2.16584, -0.129887, 0.46954, -0.54233, 0.335738, -2.08281, -2.16643, -0.129458, -0.000135232, 0.0012669, 0.000339106, -0.00143468, -0.0050417, -0.0119141
0.032356, 1.69164, -1.22601, -1.538, -0.900171, -1.19182, 1.22835, -1.30299, 0.00411922, -0.0139306, -0.0171336, -0.00174258, -0.0158392, 0.0065049, -0.00105084, -0.583427, 58.4393, 27.4885, 6.39465, 1.70032, 3.23886, 0.153881, 0.00106109, -0.00141476, 0.000390077, 0.000499763, 2.72636e-05, -0.000741888, 0.00779775, 0.000547221, -0.0142874, -0.0191139, 0.00433901, -0.00655993, 0.471007, -0.54338, 0.335896, -2.08384, -2.16584, -0.129887, 0.469542, -0.54233, 0.335718, -2.08279, -2.16642, -0.129436, -0.000148472, 0.00139149, 0.000372248, -0.00093191, -0.00413002, -0.0149291
0.033356, 1.69164, -1.22601, -1.53801, -0.900172, -1.19184, 1.22836, -1.30298, 0.00498515, -0.0107578, -0.0160699, -0.000484156, -0.0161918, 0.00942009, 0.000520142, -0.508049, 58.475, 27.4885, 6.35895, 1.69391, 3.23886, 0.120922, 0.00105706, -0.00141219, 0.000394792, 0.000509604, 1.13336e-05, -0.000736552, 0.0077704, -0.00028999, -0.0116759, -0.0150664, 0.00913927, -0.00802675, 0.471007, -0.543379, 0.335897, -2.08384, -2.16584, -0.129888, 0.469545, -0.542332, 0.335713, -2.08279, -2.16642, -0.129408, -0.000162305, 0.00152173, 0.000406866, -1.63251e-05, -0.00434047, -0.0123369
0.034356, 1.69165, -1.22601, -1.53802, -0.90017, -1.19185, 1.22837, -1.30298, 0.0087767, -0.00764854, -0.0143898, 0.00132223, -0.0156874, 0.0109446, 0.00058412, -0.43267, 58.475, 27.4528, 6.28357, 1.66369, 3.25992, 0.114513, 0.00105485, -0.0014085, 0.000395828, 0.000515172, -4.85445e-06, -0.000736047, 0.0061753, -0.00259753, -0.00908411, -0.0114874, 0.0124901, -0.0049916, 0.471007, -0.543377, 0.335897, -2.08384, -2.16584, -0.129888, 0.469548, -0.542332, 0.335712, -2.0828, -2.16643, -0.129386, -0.000176727, 0.00165761, 0.000442951, 0.00231034, -0.00293437, -0.00956359
0.035356, 1.69166, -1.22601, -1.53803, -0.900176, -1.19187, 1.22837, -1.30299, 0.00973508, -0.00638454, -0.0164898, -0.000135215, -0.0166887, 0.00766256, -0.00106865, -0.281914, 58.5147, 27.5638, 6.32324, 1.66919, 3.27456, 0.153881, 0.00105055, -0.0014073, 0.000403756, 0.000533192, -1.76102e-05, -0.000742325, 0.00563806, -0.00236563, -0.00964251, -0.017357, 0.0133056, -0.00247446, 0.471007, -0.543375, 0.335898, -2.08384, -2.16584, -0.129888, 0.469549, -0.542334, 0.335704, -2.08279, -2.16643, -0.129353, -0.000191736, 0.0017991, 0.000480493, 0.00202435, -0.00218603, -0.00998706
0.036356, 1.69167, -1.22602, -1.53804, -0.900177, -1.19188, 1.22838, -1.30299, 0.0101503, -0.00795815, -0.0139653, 0.000771366, -0.0162981, 0.00917559, -0.000712432, -0.242241, 58.6615, 27.6392, 6.28357, 1.64447, 3.31027, 0.153881, 0.0010488, -0.00140121, 0.000412774, 0.000548528, -2.76696e-05, -0.000748261, 0.00557736, -0.00319968, -0.00944966, -0.0133946, 0.0120057, -0.00182606, 0.471006, -0.543374, 0.335898, -2.08384, -2.16584, -0.129888, 0.469555, -0.542332, 0.335695, -2.08278, -2.16644, -0.129327, -0.000207328, 0.00194618, 0.000519485, 0.00284652, -0.00197458, -0.00977336
0.037356, 1.69168, -1.22601, -1.53804, -0.900177, -1.1919, 1.22838, -1.30299, 0.0100921, -0.00290807, -0.0102168, -0.00181708, -0.0204989, 0.0109469, 0.000474481, -0.0557783, 58.5504, 27.6392, 6.24786, 1.60785, 3.33133, 0.128246, 0.00104707, -0.00139834, 0.000409489, 0.000555896, -5.18594e-05, -0.000750004, 0.00474797, -0.00417408, -0.00537166, -0.0113137, 0.02141, -0.000484363, 0.471006, -0.543372, 0.335899, -2.08384, -2.16584, -0.129888, 0.469557, -0.542332, 0.335699, -2.08278, -2.16645, -0.129295, -0.0002235, 0.00209882, 0.000559916, 0.00392104, -0.00159097, -0.00560686
0.038356, 1.69169, -1.22602, -1.53805, -0.900186, -1.19192, 1.22838, -1.303, 0.00783533, -0.00292475, -0.00925445, -0.00327176, -0.024737, 0.00728268, -0.0052915, 0.0949785, 58.5861, 27.7146, 6.32324, 1.59595, 3.36062, 0.153881, 0.0010447, -0.00139411, 0.000415323, 0.000573919, -7.18565e-05, -0.000762198, 0.00574133, -0.00226658, -0.00546125, -0.01595, 0.0231225, 0.00338153, 0.471006, -0.54337, 0.335899, -2.08384, -2.16584, -0.129888, 0.469561, -0.542331, 0.335693, -2.08277, -2.16647, -0.129256, -0.000240248, 0.00225699, 0.000601779, 0.00203155, -0.00247771, -0.00575015
0.039356, 1.6917, -1.22602, -1.53806, -0.900192, -1.19194, 1.22839, -1.303, 0.0107549, -0.00299097, -0.00844286, -0.00323924, -0.0184608, 0.00884241, -0.00391587, 0.325081, 58.6258, 27.79, 6.35895, 1.58954, 3.40365, 0.153881, 0.00104219, -0.00139013, 0.000419794, 0.000590302, -9.17997e-05, -0.000767279, 0.00337972, -0.00504406, -0.00524193, -0.0113789, 0.0188, 0.00737301, 0.471006, -0.543367, 0.3359, -2.08384, -2.16584, -0.129888, 0.469565, -0.542331, 0.335689, -2.08277, -2.16648, -0.129218, -0.000257569, 0.00242068, 0.000645063, 0.00471158, 9.7325e-05, -0.00520749
0.040356, 1.6917, -1.22602, -1.53807, -0.900189, -1.19196, 1.22839, -1.303, 0.0123859, -0.00374925, -0.00860952, -0.000563393, -0.0183459, 0.0055725, -0.00290173, 0.586922, 58.6972, 27.9011, 6.28357, 1.57764, 3.43936, 0.153881, 0.00103425, -0.00139094, 0.000426016, 0.000605293, -0.000107853, -0.000762562, 0.0033674, -0.00477295, -0.00576558, -0.0133296, 0.0162388, 0.00561348, 0.471005, -0.543365, 0.3359, -2.08384, -2.16584, -0.129889, 0.469564, -0.542335, 0.335682, -2.08277, -2.16648, -0.129185, -0.00027546, 0.00258986, 0.000689759, 0.00440359, 0.000348175, -0.00566979
0.041356, 1.69172, -1.22604, -1.53807, -0.900198, -1.19199, 1.2284, -1.30301, 0.0112382, -0.00692482, -0.00509853, -0.00142897, -0.0143148, 0.00314256, -0.00744132, 0.813057, 58.8837, 27.8614, 6.32324, 1.58954, 3.47507, 0.167614, 0.00103243, -0.00138441, 0.000433908, 0.000618382, -0.000122013, -0.000775036, 0.00231968, -0.00501859, -0.00667674, -0.010966, 0.0084687, 0.0128915, 0.471005, -0.543362, 0.335901, -2.08383, -2.16584, -0.129889, 0.46957, -0.542333, 0.335675, -2.08276, -2.16649, -0.129157, -0.000293917, 0.0027645, 0.00073586, 0.00456009, 0.00170747, -0.00636818
0.042356, 1.69173, -1.22604, -1.53807, -0.900198, -1.19202, 1.2284, -1.30301, 0.0116709, -0.00549948, -0.00537741, -0.00246391, -0.0152746, 0.00160637, -0.0052517, 1.00349, 58.9194, 27.9368, 6.24786, 1.58313, 3.50345, 0.160289, 0.0010273, -0.00138153, 0.000439136, 0.000635046, -0.000142905, -0.000776892, 0.00195946, -0.00504136, -0.00625858, -0.0134041, 0.0101235, 0.011569, 0.471005, -0.54336, 0.335902, -2.08383, -2.16584, -0.129889, 0.469573, -0.542334, 0.335669, -2.08275, -2.1665, -0.129118, -0.000312938, 0.00294458, 0.000783355, 0.00456602, 0.00217975, -0.00585257
0.043356, 1.69174, -1.22604, -1.53808, -0.900197, -1.19205, 1.2284, -1.30301, 0.0108696, -0.00537255, -0.00550954, 0.000620299, -0.0224529, 0.00122152, -0.00321063, 1.22962, 58.9908, 28.0121, 6.13678, 1.62616, 3.51077, 0.141063, 0.00102121, -0.0013784, 0.000443886, 0.000648738, -0.00016549, -0.000776996, 0.00481802, -0.00301334, -0.00581266, -0.0155654, 0.0157391, 0.00357935, 0.471005, -0.543357, 0.335903, -2.08383, -2.16584, -0.129889, 0.469575, -0.542337, 0.335664, -2.08276, -2.16651, -0.12908, -0.000332518, 0.00313007, 0.000832236, 0.00263935, -0.000608429, -0.00574592
0.044356, 1.69176, -1.22605, -1.53808, -0.900198, -1.19208, 1.22841, -1.30302, 0.0147461, -0.006207, -0.00462927, 0.00192511, -0.0217453, 0.00113075, -0.00293131, 1.26533, 59.1019, 28.0478, 6.0614, 1.63257, 3.51077, 0.153881, 0.00102011, -0.00136733, 0.000450996, 0.000663802, -0.00018947, -0.000794633, 0.00342613, -0.00514285, -0.00604119, -0.0145648, 0.0143205, 0.00667864, 0.471004, -0.543354, 0.335903, -2.08383, -2.16584, -0.129889, 0.469586, -0.542333, 0.335658, -2.08274, -2.16653, -0.129041, -0.000352655, 0.00332096, 0.000882495, 0.00468795, 0.0010789, -0.00576948
0.045356, 1.69178, -1.22607, -1.53809, -0.900196, -1.19211, 1.22842, -1.30302, 0.0136551, -0.00851982, -0.0057754, 0.00369311, -0.0259737, 0.0012624, -0.00195398, 1.45576, 59.2883, 28.1589, 5.95032, 1.63898, 3.50345, 0.147472, 0.00101305, -0.00136267, 0.000461985, 0.000681057, -0.000206458, -0.000794294, 0.00594684, -0.00353938, -0.00751054, -0.0165722, 0.0155225, 0.00116415, 0.471004, -0.54335, 0.335904, -2.08383, -2.16584, -0.12989, 0.46959, -0.542335, 0.335646, -2.08274, -2.16653, -0.129005, -0.000373345, 0.00351722, 0.000934121, 0.00310295, -0.0010528, -0.00751163
0.046356, 1.69179, -1.22607, -1.53809, -0.900193, -1.19214, 1.22842, -1.30302, 0.0149176, -0.00569498, -0.00391834, 0.00408375, -0.0288818, 0.00463704, -2.2442e-05, 1.57081, 59.2883, 28.1589, 5.87494, 1.63898, 3.53274, 0.108104, 0.00100902, -0.00135598, 0.000462499, 0.000693612, -0.000239447, -0.000796495, 0.005981, -0.00474013, -0.00492926, -0.0131122, 0.022368, 2.47851e-05, 0.471004, -0.543347, 0.335905, -2.08383, -2.16583, -0.12989, 0.469597, -0.542335, 0.335646, -2.08275, -2.16655, -0.128958, -0.000394586, 0.00371881, 0.000987107, 0.00437532, -0.00123312, -0.00495133
0.047356, 1.69181, -1.22608, -1.53809, -0.900186, -1.19218, 1.22843, -1.30302, 0.0179355, -0.00724165, -0.0035913, 0.00614281, -0.0268324, 0.00337936, -0.000894333, 1.72157, 59.4351, 28.1986, 5.72418, 1.65088, 3.53915, 0.128246, 0.00100006, -0.00135259, 0.000469965, 0.000708389, -0.000262349, -0.000793677, 0.00500663, -0.00607405, -0.0057265, -0.0125492, 0.0185145, 0.00296466, 0.471003, -0.543343, 0.335906, -2.08382, -2.16583, -0.12989, 0.4696, -0.542339, 0.335638, -2.08275, -2.16655, -0.128919, -0.000416373, 0.00392573, 0.00104144, 0.0056221, 0.000113035, -0.0055732
0.048356, 1.69183, -1.22608, -1.5381, -0.900179, -1.19222, 1.22843, -1.30302, 0.014857, -0.00567148, -0.00419573, 0.00577881, -0.0305799, 0.00156186, -0.000424995, 1.83265, 59.4708, 28.274, 5.6488, 1.66919, 3.56845, 0.120922, 0.000994177, -0.00134723, 0.000473967, 0.000727812, -0.000292023, -0.000795177, 0.007015, -0.00355503, -0.00508766, -0.015933, 0.0223278, -0.00178388, 0.471003, -0.543339, 0.335907, -2.08382, -2.16583, -0.129891, 0.469605, -0.54234, 0.335634, -2.08275, -2.16656, -0.128867, -0.000438704, 0.00413795, 0.00109712, 0.00317888, -0.00185888, -0.00512252
0.049356, 1.69185, -1.22608, -1.5381, -0.900172, -1.19225, 1.22844, -1.30303, 0.0133418, -0.00555059, -0.00282587, 0.00546326, -0.0328168, 0.00106549, -0.000866986, 1.90803, 59.5462, 28.274, 5.57739, 1.68201, 3.57577, 0.134655, 0.000988583, -0.00133935, 0.000476245, 0.000736569, -0.000323, -0.00079975, 0.00791304, -0.00268732, -0.00456012, -0.0160785, 0.0240314, -0.00263596, 0.471002, -0.543335, 0.335908, -2.08382, -2.16583, -0.129891, 0.469612, -0.54234, 0.335632, -2.08276, -2.16658, -0.128827, -0.000461575, 0.00435543, 0.00115413, 0.00234058, -0.00264466, -0.00465785
0.050356, 1.69187, -1.22609, -1.5381, -0.900164, -1.1923, 1.22844, -1.30303, 0.013447, -0.00537561, -0.00190546, 0.0045254, -0.0341344, 0.00512773, -0.000125638, 2.05878, 59.6176, 28.274, 5.53772, 1.6875, 3.58951, 0.120922, 0.000979642, -0.00133452, 0.000479329, 0.000748833, -0.000357398, -0.000796938, 0.00829252, -0.00372525, -0.00393175, -0.012768, 0.0274263, -0.00243373, 0.471002, -0.543331, 0.335909, -2.08382, -2.16583, -0.129891, 0.469617, -0.542344, 0.335628, -2.08277, -2.16659, -0.128779, -0.000484983, 0.00457817, 0.00121247, 0.00339003, -0.00285081, -0.00406925
0.051356, 1.69189, -1.22609, -1.5381, -0.900157, -1.19234, 1.22845, -1.30303, 0.0143807, -0.00358732, -0.00128646, 0.00381856, -0.0397195, 0.00397674, 0.000586114, 2.17384, 59.6176, 28.274, 5.50201, 1.6875, 3.58951, 0.101696, 0.000971042, -0.00132882, 0.000479226, 0.000760812, -0.000401158, -0.000792412, 0.00859052, -0.0036603, -0.00293241, -0.0161226, 0.0333725, -0.00319245, 0.471001, -0.543326, 0.335911, -2.08382, -2.16583, -0.129892, 0.469622, -0.542348, 0.335628, -2.08279, -2.16661, -0.128721, -0.000508925, 0.00480613, 0.00127212, 0.00334797, -0.00307353, -0.00306715
0.052356, 1.69191, -1.22609, -1.5381, -0.900154, -1.19239, 1.22847, -1.30303, 0.0169077, -0.00155902, -0.00170497, 0.00168529, -0.0397651, 0.00822421, 0.00134243, 2.20954, 59.5819, 28.3097, 5.53772, 1.70581, 3.57577, 0.0751453, 0.00096592, -0.00131854, 0.00047915, 0.000775948, -0.000449245, -0.000798206, 0.00742079, -0.00623236, -0.00196855, -0.014016, 0.037935, 0.000183246, 0.471001, -0.543321, 0.335912, -2.08381, -2.16583, -0.129892, 0.469632, -0.542348, 0.335629, -2.0828, -2.16663, -0.128656, -0.000533398, 0.00503929, 0.00133308, 0.0058852, -0.00172869, -0.00195045
0.053356, 1.69193, -1.22609, -1.5381, -0.900151, -1.19243, 1.22847, -1.30303, 0.0159187, -0.00104136, -0.000310518, 0.000176613, -0.0424041, 0.0102242, -0.000112129, 2.3603, 59.5819, 28.274, 5.57739, 1.66369, 3.59683, 0.101696, 0.000958501, -0.0013122, 0.000478639, 0.000788273, -0.000491722, -0.000802539, 0.00804898, -0.0063362, -0.00117464, -0.0127693, 0.0417269, 0.00178035, 0.471, -0.543316, 0.335913, -2.08381, -2.16583, -0.129892, 0.469638, -0.54235, 0.335629, -2.0828, -2.16666, -0.1286, -0.000558399, 0.00527762, 0.00139533, 0.00601505, -0.00222849, -0.00120493
0.054356, 1.69195, -1.22609, -1.5381, -0.900141, -1.19248, 1.22848, -1.30303, 0.0189484, -0.00153097, -0.000213827, 0.00186681, -0.0463744, 0.0116305, 0.000619519, 2.3603, 59.6176, 28.274, 5.50201, 1.66369, 3.6188, 0.0824695, 0.000950389, -0.0013053, 0.000481015, 0.000807329, -0.000532978, -0.000801911, 0.00841381, -0.00751211, -0.00125256, -0.0129771, 0.0452399, 0.00130637, 0.471, -0.543311, 0.335915, -2.08381, -2.16583, -0.129893, 0.469645, -0.542352, 0.335627, -2.08281, -2.16667, -0.128538, -0.000583923, 0.00552111, 0.00145888, 0.00717415, -0.00228505, -0.00131044
0.055356, 1.69197, -1.22609, -1.5381, -0.900138, -1.19253, 1.22849, -1.30303, 0.0212995, -0.000186562, -0.000147663, 0.00123391, -0.0483565, 0.00833246, -0.00440336, 2.47535, 59.5819, 28.274, 5.50201, 1.63898, 3.63254, 0.0888782, 0.000940983, -0.00129903, 0.000479989, 0.000822794, -0.000585236, -0.000801334, 0.00734618, -0.00815055, -0.000965094, -0.0172217, 0.0468122, 0.00856847, 0.470999, -0.543305, 0.335916, -2.08381, -2.16583, -0.129893, 0.469651, -0.542356, 0.335627, -2.08283, -2.16669, -0.128468, -0.000609969, 0.00576973, 0.0015237, 0.00775792, -0.00100055, -0.000815319
0.056356, 1.69199, -1.22609, -1.53811, -0.900132, -1.19258, 1.22849, -1.30304, 0.0179701, -0.000125225, -0.00177271, 0.00174265, -0.0546492, 0.0102444, -0.00281743, 2.55073, 59.5819, 28.3454, 5.46234, 1.62616, 3.65451, 0.0751453, 0.000930018, -0.00129442, 0.000481897, 0.000841682, -0.000631475, -0.000797055, 0.0110152, -0.00554291, -0.00111425, -0.0191048, 0.053053, 0.000378742, 0.470999, -0.5433, 0.335918, -2.0838, -2.16583, -0.129894, 0.469655, -0.54236, 0.335625, -2.08285, -2.16671, -0.1284, -0.000636533, 0.00602345, 0.0015898, 0.00525293, -0.00445269, -0.00138741
0.057356, 1.69201, -1.22609, -1.53811, -0.900129, -1.19263, 1.2285, -1.30304, 0.0193557, -8.41211e-05, -0.000349465, 0.000227771, -0.0545324, 0.00759457, -0.00244242, 2.58643, 59.5819, 28.3097, 5.50201, 1.60785, 3.66092, 0.0824695, 0.00092189, -0.00128577, 0.000482884, 0.000857061, -0.000679908, -0.000801715, 0.00961807, -0.00645439, -0.00112688, -0.0209971, 0.0518965, 0.00344303, 0.470998, -0.543294, 0.335919, -2.0838, -2.16582, -0.129894, 0.469663, -0.542362, 0.335624, -2.08286, -2.16673, -0.128335, -0.000663611, 0.00628226, 0.00165716, 0.00608573, -0.00277537, -0.00114318
0.058356, 1.69204, -1.2261, -1.5381, -0.900125, -1.19269, 1.22851, -1.30304, 0.0242937, -0.00265501, 0.00152811, 0.00107538, -0.0598272, 0.0104139, -0.00110194, 2.58643, 59.693, 28.2343, 5.46234, 1.59595, 3.66092, 0.0623279, 0.000913839, -0.00127554, 0.000485277, 0.000870378, -0.000725955, -0.000807494, 0.00914151, -0.00935042, -0.00189031, -0.0199021, 0.055147, 0.00543464, 0.470997, -0.543287, 0.335921, -2.0838, -2.16582, -0.129894, 0.469673, -0.542363, 0.335622, -2.08286, -2.16676, -0.128274, -0.000691201, 0.00654612, 0.00172578, 0.00890581, -0.00180497, -0.00184178
0.059356, 1.69206, -1.22609, -1.5381, -0.900112, -1.19275, 1.22852, -1.30304, 0.0247115, -0.000935151, 8.90995e-05, 0.00331201, -0.0597961, 0.00788965, -0.000899365, 2.58643, 59.6573, 28.274, 5.35126, 1.61426, 3.66092, 0.0623279, 0.000900484, -0.00127018, 0.00048503, 0.000887749, -0.000782391, -0.000798713, 0.00976452, -0.00836205, -0.00134976, -0.0221515, 0.0556251, 0.00299652, 0.470997, -0.543281, 0.335923, -2.0838, -2.16582, -0.129895, 0.469678, -0.542369, 0.335622, -2.08289, -2.16677, -0.128197, -0.0007193, 0.00681502, 0.00179564, 0.00793243, -0.00227478, -0.00130511
0.060356, 1.69208, -1.22609, -1.53811, -0.900108, -1.19281, 1.22853, -1.30305, 0.0240935, -0.000623703, -0.000777031, 0.00220549, -0.0636005, 0.00620742, -0.00119785, 2.62611, 59.6573, 28.3097, 5.35126, 1.60785, 3.65451, 0.0751453, 0.000889765, -0.00126373, 0.000485722, 0.000909778, -0.000836938, -0.000801091, 0.0107226, -0.00738825, -0.00176788, -0.0264999, 0.0584858, 0.00197797, 0.470996, -0.543274, 0.335924, -2.08379, -2.16582, -0.129895, 0.469684, -0.542372, 0.335621, -2.0829, -2.1668, -0.128118, -0.000747904, 0.00708893, 0.00186675, 0.00695045, -0.00292222, -0.00176627
0.061356, 1.69211, -1.2261, -1.5381, -0.900107, -1.19286, 1.22854, -1.30305, 0.0238171, -0.00125122, 0.00124431, 0.000633215, -0.0670876, 0.00416237, -0.000416511, 2.66181, 59.693, 28.2343, 5.38696, 1.62067, 3.66824, 0.0623279, 0.000878943, -0.00125593, 0.000487781, 0.000926714, -0.000889149, -0.000801553, 0.0107827, -0.00720418, -0.00182903, -0.0288429, 0.0598393, 0.0021377, 0.470995, -0.543267, 0.335926, -2.08379, -2.16582, -0.129896, 0.469692, -0.542375, 0.335619, -2.08291, -2.16682, -0.128047, -0.00077701, 0.00736784, 0.00193908, 0.00673745, -0.00270075, -0.00175814
0.062356, 1.69213, -1.22609, -1.53811, -0.900102, -1.19293, 1.22855, -1.30305, 0.0233679, 9.18891e-07, -0.000934382, 0.00443266, -0.0644923, 0.00317445, -0.00521402, 2.70148, 59.6573, 28.3097, 5.35126, 1.62067, 3.66824, 0.0687366, 0.000865269, -0.00125036, 0.00048894, 0.000949739, -0.000949214, -0.000798393, 0.0121204, -0.00582973, -0.00142954, -0.0283709, 0.0583998, 0.00299002, 0.470994, -0.543259, 0.335928, -2.08379, -2.16582, -0.129897, 0.469697, -0.542381, 0.335618, -2.08293, -2.16684, -0.127961, -0.000806615, 0.0076517, 0.00201263, 0.00539747, -0.00385518, -0.00145636
0.063356, 1.69215, -1.22609, -1.53811, -0.900097, -1.19299, 1.22856, -1.30305, 0.0279922, 4.99098e-07, -0.000623433, 0.00238355, -0.06259, 0.00268722, -0.00465991, 2.66181, 59.6573, 28.3097, 5.38696, 1.62067, 3.66092, 0.0888782, 0.000853373, -0.00124178, 0.000489628, 0.000970433, -0.00101074, -0.000800249, 0.00926369, -0.00908123, -0.0019184, -0.0292763, 0.0570426, 0.0096089, 0.470993, -0.543252, 0.33593, -2.08378, -2.16582, -0.129897, 0.469705, -0.542385, 0.335617, -2.08295, -2.16687, -0.127876, -0.000836715, 0.00794051, 0.00208739, 0.00849481, -0.000537802, -0.00151895
0.064356, 1.69218, -1.22609, -1.5381, -0.900082, -1.19305, 1.22857, -1.30306, 0.0272709, 0.00176349, 0.00134723, 0.0075346, -0.0655318, 0.00694871, -0.00438448, 2.66181, 59.5819, 28.2343, 5.27588, 1.60785, 3.65451, 0.114513, 0.000840173, -0.00123477, 0.000483882, 0.000979867, -0.0010737, -0.00079603, 0.0118611, -0.00831028, 0.000916015, -0.0224611, 0.0628529, 0.00407074, 0.470993, -0.543244, 0.335932, -2.08378, -2.16582, -0.129898, 0.469712, -0.54239, 0.335622, -2.08297, -2.16689, -0.127802, -0.000867309, 0.00823424, 0.00216336, 0.00788961, -0.00327628, 0.000975727
0.065356, 1.6922, -1.22609, -1.53811, -0.900083, -1.19312, 1.22858, -1.30305, 0.0235554, 0.00201081, -0.00214677, 0.00595203, -0.0675367, 0.00519229, -0.000761815, 2.66181, 59.5462, 28.2343, 5.38696, 1.60144, 3.65451, 0.0495105, 0.000828242, -0.00122691, 0.000484569, 0.00100541, -0.00113823, -0.000792203, 0.0142697, -0.00543535, -0.000382489, -0.0280782, 0.0642716, -0.00416861, 0.470992, -0.543236, 0.335935, -2.08378, -2.16581, -0.129898, 0.469719, -0.542394, 0.335622, -2.08299, -2.16691, -0.127709, -0.000898392, 0.00853286, 0.00224052, 0.00502657, -0.00527323, -0.000516522
0.066356, 1.69223, -1.22608, -1.53811, -0.900078, -1.19318, 1.22859, -1.30306, 0.0247484, 0.00226851, -0.00261314, 0.00672814, -0.0696235, 0.00337276, -0.00597985, 2.62611, 59.5065, 28.274, 5.42664, 1.60144, 3.66824, 0.0623279, 0.000814907, -0.00121934, 0.000485694, 0.00103323, -0.00120349, -0.000793762, 0.0145794, -0.00529823, -0.000539237, -0.0307834, 0.0654801, 0.000644429, 0.470991, -0.543227, 0.335937, -2.08377, -2.16581, -0.129899, 0.469726, -0.542398, 0.33562, -2.08301, -2.16694, -0.127612, -0.000929962, 0.00883635, 0.00231887, 0.00486347, -0.00525691, -0.000636943
0.067356, 1.69225, -1.22608, -1.53811, -0.900073, -1.19325, 1.22859, -1.30306, 0.0240689, 0.00151231, -0.000169305, 0.00751782, -0.0655843, 0.00124098, -0.00527215, 2.66181, 59.5065, 28.1986, 5.46234, 1.57764, 3.70395, 0.0824695, 0.000801206, -0.00121356, 0.000484984, 0.00105299, -0.00126221, -0.00079334, 0.0139745, -0.00527015, -0.000189851, -0.0281479, 0.0602651, 0.00114367, 0.47099, -0.543218, 0.335939, -2.08377, -2.16581, -0.1299, 0.469732, -0.542402, 0.335621, -2.08302, -2.16696, -0.127531, -0.000962015, 0.00914469, 0.0023984, 0.00479438, -0.0044063, -0.000117719
0.068356, 1.69228, -1.22607, -1.53811, -0.900064, -1.19331, 1.2286, -1.30307, 0.0228715, 0.00444185, -0.000255709, 0.00891302, -0.0630651, 0.00588359, -0.00955437, 2.58643, 59.3597, 28.1986, 5.46234, 1.56482, 3.70395, 0.114513, 0.000788999, -0.00120425, 0.000480229, 0.00107431, -0.00133465, -0.000794934, 0.0149659, -0.00537369, 0.00213525, -0.0218697, 0.0634116, 0.00380441, 0.470989, -0.543209, 0.335941, -2.08376, -2.16581, -0.1299, 0.469741, -0.542406, 0.335626, -2.08304, -2.167, -0.127435, -0.000994548, 0.00945786, 0.0024791, 0.00498479, -0.00542569, 0.00210169
0.069356, 1.6923, -1.22607, -1.53811, -0.900053, -1.19338, 1.22861, -1.30307, 0.0235724, 0.00379643, -0.000277602, 0.0098694, -0.0653022, 0.00341613, -0.00609435, 2.58643, 59.324, 28.1986, 5.46234, 1.5401, 3.73324, 0.0888782, 0.000772203, -0.00119974, 0.000479065, 0.00109623, -0.00139883, -0.000784127, 0.0155182, -0.00488019, 0.00159831, -0.0247251, 0.0634747, -0.00052463, 0.470988, -0.5432, 0.335944, -2.08376, -2.16581, -0.129901, 0.469745, -0.542413, 0.335627, -2.08307, -2.16701, -0.127345, -0.00102756, 0.00977584, 0.00256097, 0.00445928, -0.00559045, 0.00158246
0.070356, 1.69233, -1.22607, -1.53811, -0.900048, -1.19345, 1.22862, -1.30307, 0.0264364, 0.00336616, 0.000662605, 0.00654206, -0.0681637, 0.00750327, -0.00504327, 2.47535, 59.2883, 28.1589, 5.50201, 1.53461, 3.73324, 0.101696, 0.000759748, -0.00118898, 0.000479735, 0.00111848, -0.00146342, -0.000791496, 0.0144272, -0.00785164, 0.0013968, -0.0236851, 0.0678888, 0.00369749, 0.470987, -0.54319, 0.335947, -2.08375, -2.1658, -0.129902, 0.469755, -0.542415, 0.335627, -2.08308, -2.16705, -0.127257, -0.00106104, 0.0100986, 0.00264398, 0.0073471, -0.00403797, 0.00154613
0.071356, 1.69237, -1.22607, -1.53811, -0.900036, -1.19352, 1.22862, -1.30308, 0.032646, 0.00317211, 0.00205191, 0.00502923, -0.0692866, 0.00494717, -0.00397877, 2.32459, 59.2487, 28.0875, 5.50201, 1.52179, 3.7543, 0.108104, 0.00074879, -0.00117741, 0.000476718, 0.00114045, -0.00152991, -0.000799286, 0.0112423, -0.0113494, 0.000983177, -0.0268507, 0.0677449, 0.0104106, 0.470986, -0.54318, 0.335949, -2.08375, -2.1658, -0.129903, 0.469766, -0.542415, 0.33563, -2.08309, -2.16708, -0.127166, -0.001095, 0.0104261, 0.00272814, 0.0106775, -0.000359311, 0.00161075
0.072356, 1.6924, -1.22606, -1.53811, -0.900029, -1.1936, 1.22863, -1.30308, 0.0311637, 0.000633337, 0.00132275, 0.00625022, -0.0709091, 0.00853506, -0.00269959, 2.28492, 59.1772, 28.0875, 5.53772, 1.5163, 3.7543, 0.101696, 0.000733245, -0.00116871, 0.000475653, 0.00116704, -0.00160484, -0.000795845, 0.0136923, -0.0106607, -0.000233435, -0.0244684, 0.0683748, 0.00578163, 0.470985, -0.543169, 0.335952, -2.08374, -2.1658, -0.129903, 0.469774, -0.54242, 0.335631, -2.08311, -2.16711, -0.127061, -0.00112942, 0.0107583, 0.00281344, 0.00999894, -0.00228652, 0.000135056
0.073356, 1.69243, -1.22606, -1.53811, -0.900016, -1.19367, 1.22864, -1.30308, 0.0302029, 0.000159566, 0.00177595, 0.00882247, -0.0721658, 0.0064889, -0.00177569, 2.24921, 59.1772, 28.0478, 5.50201, 1.5163, 3.7543, 0.0952869, 0.000715448, -0.00116201, 0.000476089, 0.00119272, -0.00167423, -0.000789706, 0.0152158, -0.00914322, -0.000154153, -0.0250442, 0.067798, 0.00148927, 0.470984, -0.543159, 0.335955, -2.08374, -2.1658, -0.129904, 0.46978, -0.542427, 0.335631, -2.08314, -2.16713, -0.126963, -0.00116431, 0.0110953, 0.00289987, 0.00850592, -0.003528, 0.000108917
0.074356, 1.69246, -1.22607, -1.53811, -0.900009, -1.19375, 1.22865, -1.30309, 0.0313698, -0.00268907, -0.00292873, 0.00894415, -0.0728546, 0.00989888, -0.000869064, 2.13416, 59.2883, 28.0875, 5.53772, 1.50989, 3.74698, 0.0824695, 0.000699075, -0.00115068, 0.000485218, 0.00122642, -0.0017386, -0.000791552, 0.0168273, -0.00956626, -0.00327056, -0.0268141, 0.0677083, -0.000780645, 0.470983, -0.543147, 0.335958, -2.08373, -2.1658, -0.129905, 0.469791, -0.54243, 0.335622, -2.08314, -2.16715, -0.126861, -0.00119966, 0.0114369, 0.00298742, 0.00883803, -0.00427991, -0.00314379
0.075356, 1.6925, -1.22607, -1.53811, -0.9, -1.19383, 1.22865, -1.30309, 0.0362293, 0.000657995, -0.000471586, 0.00678648, -0.0785701, 0.00767785, -0.000699369, 1.98341, 59.1772, 28.0121, 5.53772, 1.52179, 3.74057, 0.0824695, 0.000686184, -0.00113744, 0.000482025, 0.00125296, -0.00181863, -0.000799448, 0.014455, -0.0121198, -0.001213, -0.0306887, 0.0749754, 0.00497039, 0.470981, -0.543136, 0.335961, -2.08373, -2.16579, -0.129906, 0.469803, -0.542431, 0.335626, -2.08316, -2.16719, -0.126752, -0.00123547, 0.0117833, 0.00307608, 0.011342, -0.0018039, -0.000732298
0.076356, 1.69253, -1.22607, -1.5381, -0.899988, -1.19391, 1.22866, -1.30309, 0.0319616, -0.00105458, -0.0018866, 0.00825386, -0.0828304, 0.00656329, 0.000427103, 2.02308, 59.1019, 27.9368, 5.53772, 1.5163, 3.7186, 0.0559192, 0.000666093, -0.00113192, 0.000479948, 0.00127632, -0.00189464, -0.000789492, 0.0183336, -0.0085216, -0.00241968, -0.0336016, 0.0762099, -0.00370478, 0.47098, -0.543124, 0.335964, -2.08372, -2.16579, -0.129907, 0.469808, -0.542439, 0.335627, -2.08319, -2.16721, -0.126649, -0.00127174, 0.0121342, 0.00316585, 0.00780734, -0.00524348, -0.00232777
0.077356, 1.69256, -1.22607, -1.53811, -0.899975, -1.194, 1.22867, -1.3031, 0.0316071, -0.000213081, -0.00344009, 0.00706044, -0.0813935, 0.00430619, -0.00528813, 1.9477, 59.0662, 28.0121, 5.50201, 1.5282, 3.73324, 0.0751453, 0.000647228, -0.00112285, 0.000482478, 0.00131028, -0.00197233, -0.000788663, 0.0182285, -0.00807452, -0.00285377, -0.0366356, 0.0751212, 0.00245369, 0.470979, -0.543112, 0.335967, -2.08372, -2.16579, -0.129908, 0.469817, -0.542445, 0.335625, -2.08321, -2.16724, -0.126533, -0.00130846, 0.0124898, 0.00325671, 0.00730468, -0.00473556, -0.00263581
0.078356, 1.6926, -1.22607, -1.53811, -0.899971, -1.19409, 1.22868, -1.3031, 0.031469, 0.00136225, -0.00167972, 0.00582596, -0.0848222, 0.00830946, -0.00302605, 1.87232, 58.9908, 27.9725, 5.6131, 1.52179, 3.72592, 0.0495105, 0.000632718, -0.00110951, 0.000483006, 0.00134483, -0.00205537, -0.000794943, 0.0188722, -0.00892563, -0.0011466, -0.0335777, 0.0816471, 0.000840688, 0.470978, -0.5431, 0.33597, -2.08371, -2.16579, -0.129909, 0.469829, -0.542446, 0.335625, -2.08322, -2.16728, -0.126412, -0.00134563, 0.01285, 0.00334867, 0.00820233, -0.00523889, -0.000983974
0.079356, 1.69264, -1.22607, -1.5381, -0.899955, -1.19418, 1.22868, -1.3031, 0.0326175, -0.00244777, -0.00273336, 0.00947634, -0.0870195, 0.00542696, -0.00184629, 1.87232, 58.9908, 27.9011, 5.53772, 1.5163, 3.74698, 0.0357776, 0.000612275, -0.00110217, 0.000485081, 0.00137314, -0.00212653, -0.000785118, 0.0205375, -0.00788908, -0.00359819, -0.0367237, 0.0781849, -0.0035482, 0.470976, -0.543087, 0.335973, -2.08371, -2.16578, -0.129909, 0.469836, -0.542453, 0.335623, -2.08324, -2.1673, -0.126308, -0.00138324, 0.0132147, 0.0034417, 0.00710041, -0.00618296, -0.00353909
0.080356, 1.69268, -1.22606, -1.53811, -0.899945, -1.19426, 1.22868, -1.3031, 0.0323479, 0.0013927, -0.0030883, 0.0134652, -0.0840976, 0.00411838, -0.00588155, 1.79694, 58.844, 27.9368, 5.53772, 1.50989, 3.74698, 0.0293689, 0.000595741, -0.0010901, 0.000484686, 0.00141195, -0.00221394, -0.000786867, 0.0212148, -0.0068294, -0.0010494, -0.0344893, 0.0788102, -0.00250089, 0.470975, -0.543074, 0.335977, -2.0837, -2.16578, -0.12991, 0.469847, -0.542455, 0.335624, -2.08326, -2.16733, -0.126178, -0.0014213, 0.013584, 0.0035358, 0.00612054, -0.00691825, -0.00100161
0.081356, 1.69271, -1.22606, -1.5381, -0.899936, -1.19435, 1.22869, -1.30311, 0.0332777, -0.000689326, -0.000618754, 0.0123284, -0.0860701, 0.00257836, -0.00425978, 1.79694, 58.7726, 27.8614, 5.57739, 1.49707, 3.76163, 0.0229602, 0.000578905, -0.0010787, 0.000483872, 0.00144425, -0.00229539, -0.000790507, 0.0207631, -0.00759911, -0.00177238, -0.0353746, 0.0777427, -0.00161567, 0.470973, -0.54306, 0.33598, -2.08369, -2.16578, -0.129911, 0.469858, -0.542458, 0.335625, -2.08327, -2.16736, -0.126061, -0.0014598, 0.0139578, 0.00363097, 0.00680843, -0.00595551, -0.00157354
0.082356, 1.69276, -1.22606, -1.53811, -0.899929, -1.19445, 1.22869, -1.30311, 0.0351501, -1.01144e-05, -0.00241809, 0.0107836, -0.0885322, 0.00654732, -0.0035093, 1.75727, 58.7329, 27.9368, 5.6488, 1.50348, 3.76895, 0.0293689, 0.000560646, -0.00106793, 0.000487249, 0.00149119, -0.00238131, -0.00079047, 0.0210722, -0.00914185, -0.0020062, -0.0355388, 0.0828974, -0.000829144, 0.470972, -0.543046, 0.335984, -2.08369, -2.16578, -0.129913, 0.469868, -0.542461, 0.335622, -2.08329, -2.16739, -0.125922, -0.00149874, 0.0143362, 0.00372719, 0.00831286, -0.00578313, -0.00180296
0.083356, 1.6928, -1.22606, -1.5381, -0.899919, -1.19454, 1.22869, -1.30312, 0.0364904, 0.000469538, -3.05788e-05, 0.0073436, -0.0850395, 0.00470624, -0.00340958, 1.72157, 58.6972, 27.8614, 5.68848, 1.50348, 3.77627, 0.0495105, 0.000544451, -0.0010549, 0.000488455, 0.00152943, -0.00246222, -0.000799024, 0.0184247, -0.011156, -0.00162444, -0.035154, 0.0799834, 0.00574793, 0.47097, -0.543032, 0.335988, -2.08368, -2.16577, -0.129914, 0.46988, -0.542462, 0.335622, -2.08329, -2.16743, -0.1258, -0.00153811, 0.014719, 0.00382447, 0.0102041, -0.00276284, -0.00097853
0.084356, 1.69284, -1.22606, -1.53811, -0.899904, -1.19463, 1.22869, -1.30312, 0.0390296, 4.38219e-05, -0.00108473, 0.00980736, -0.0879019, 0.00359696, -0.00769335, 1.75727, 58.6972, 27.9011, 5.6488, 1.49158, 3.77627, 0.0623279, 0.000522594, -0.00104576, 0.000492439, 0.00156607, -0.00254032, -0.000792575, 0.0191371, -0.0113541, -0.00217028, -0.0375637, 0.0814705, 0.00895484, 0.470969, -0.543017, 0.335992, -2.08367, -2.16577, -0.129915, 0.469888, -0.542468, 0.335618, -2.08331, -2.16745, -0.12568, -0.00157792, 0.0151063, 0.00392278, 0.0103679, -0.00298663, -0.00153597
0.085356, 1.69288, -1.22606, -1.53811, -0.899906, -1.19473, 1.22869, -1.30312, 0.0394384, 0.00149775, 0.000937848, 0.00623403, -0.0902623, 0.00274258, -0.00522835, 1.72157, 58.6258, 27.8257, 5.83527, 1.50989, 3.77627, 0.0495105, 0.000508834, -0.00102967, 0.000494253, 0.00161086, -0.00262893, -0.000804303, 0.0181177, -0.0123162, -0.00122423, -0.0391962, 0.0848233, 0.0102093, 0.470967, -0.543002, 0.335996, -2.08367, -2.16577, -0.129916, 0.469903, -0.542466, 0.335618, -2.08331, -2.16749, -0.125543, -0.00161815, 0.015498, 0.00402212, 0.0112863, -0.0016948, -0.000373388
0.086356, 1.69293, -1.22607, -1.53811, -0.899889, -1.19483, 1.22869, -1.30312, 0.0439149, 0.000847072, -0.00121469, 0.00674674, -0.0915271, 0.00235811, -0.00340756, 1.64619, 58.6258, 27.9011, 5.76385, 1.50989, 3.76895, 0.0357776, 0.000487383, -0.00101799, 0.000499773, 0.00165592, -0.00271319, -0.000796445, 0.0174089, -0.0141614, -0.00260158, -0.0424257, 0.0854513, 0.0109472, 0.470966, -0.542986, 0.336, -2.08366, -2.16576, -0.129917, 0.469913, -0.54247, 0.335613, -2.08333, -2.16751, -0.125408, -0.00165881, 0.0158942, 0.00412249, 0.0130132, -0.000311066, -0.00157885
0.087356, 1.69297, -1.22607, -1.53811, -0.899879, -1.19492, 1.22869, -1.30312, 0.0446017, 0.000451145, 6.07199e-05, 0.00838695, -0.0921429, 0.00203718, -0.00235732, 1.68189, 58.6258, 27.8614, 5.76385, 1.50348, 3.76163, 0.0293689, 0.000467171, -0.00100722, 0.000503966, 0.00169943, -0.00279387, -0.000793408, 0.0178625, -0.0143112, -0.00225422, -0.0411598, 0.0853933, 0.00958636, 0.470964, -0.542971, 0.336004, -2.08365, -2.16576, -0.129918, 0.469923, -0.542473, 0.335609, -2.08335, -2.16753, -0.125279, -0.0016999, 0.0162947, 0.00422387, 0.0131505, -0.000405602, -0.00120964
0.088356, 1.69302, -1.22607, -1.53812, -0.899871, -1.19502, 1.22869, -1.30312, 0.0476098, -0.000619632, -0.00176589, 0.00554032, -0.0924967, 0.00123223, -0.00232239, 1.60651, 58.6615, 27.9368, 5.79956, 1.50348, 3.76895, 0.0431018, 0.000449302, -0.00099134, 0.000512461, 0.00174825, -0.00287515, -0.000800642, 0.0165673, -0.0161743, -0.00418957, -0.0454493, 0.0848848, 0.0140719, 0.470962, -0.542954, 0.336008, -2.08364, -2.16576, -0.129919, 0.469938, -0.542472, 0.335602, -2.08335, -2.16757, -0.125144, -0.0017414, 0.0166996, 0.00432627, 0.0148533, 0.00165254, -0.00287351
0.089356, 1.69307, -1.22607, -1.53811, -0.899869, -1.19512, 1.22869, -1.30312, 0.0488516, -0.000205037, -0.00257735, 0.00168326, -0.0977767, 0.000930521, -0.00122131, 1.57081, 58.5147, 27.8614, 5.91064, 1.52179, 3.76895, 0.0293689, 0.000434146, -0.000975691, 0.00051001, 0.00179575, -0.00297341, -0.000809246, 0.0164366, -0.0169618, -0.00489098, -0.0507845, 0.0901122, 0.0154409, 0.470961, -0.542938, 0.336012, -2.08364, -2.16575, -0.129921, 0.469952, -0.54247, 0.335606, -2.08336, -2.16761, -0.124994, -0.00178332, 0.0171089, 0.00442966, 0.0155678, 0.00233127, -0.00346637
0.090356, 1.69311, -1.22606, -1.53812, -0.899857, -1.19522, 1.22869, -1.30312, 0.0490144, 0.00131516, -0.00693337, 0.0055066, -0.0970933, 0.000702123, -0.00118781, 1.57081, 58.4393, 27.9368, 5.87494, 1.52179, 3.76895, 0.0357776, 0.000412216, -0.000964664, 0.00051364, 0.00184479, -0.00306256, -0.000808128, 0.0185282, -0.0154689, -0.0050745, -0.0524781, 0.0911086, 0.0103637, 0.470959, -0.54292, 0.336017, -2.08363, -2.16575, -0.129922, 0.469962, -0.542474, 0.335603, -2.08337, -2.16764, -0.12485, -0.00182565, 0.0175225, 0.00453405, 0.0141027, 0.000647173, -0.00382318
0.091356, 1.69316, -1.22606, -1.53812, -0.89985, -1.19531, 1.22869, -1.30312, 0.0500436, 0.00147845, -0.00333678, 0.0034257, -0.0960817, 0.000529414, -0.00140269, 1.53114, 58.4036, 27.8614, 5.91064, 1.5163, 3.76895, 0.0495105, 0.000396507, -0.000946826, 0.000514931, 0.00188313, -0.0031474, -0.000819321, 0.0168998, -0.0172517, -0.00409978, -0.0500638, 0.0905468, 0.0155175, 0.470957, -0.542903, 0.336021, -2.08362, -2.16575, -0.129923, 0.469979, -0.542471, 0.335603, -2.08337, -2.16768, -0.124724, -0.0018684, 0.0179404, 0.00463942, 0.0158175, 0.00259559, -0.00255651
0.092356, 1.6932, -1.22606, -1.53812, -0.899843, -1.19541, 1.22869, -1.30312, 0.0458679, 0.000810473, -0.00351087, 0.00179817, -0.0973843, -0.000143593, -0.00223247, 1.57081, 58.4036, 27.9011, 5.95032, 1.53461, 3.7836, 0.0824695, 0.000373703, -0.00093504, 0.000519969, 0.00193113, -0.00323794, -0.000820219, 0.0189959, -0.0150138, -0.00465351, -0.0515139, 0.0908508, 0.0131757, 0.470955, -0.542885, 0.336026, -2.08361, -2.16574, -0.129924, 0.469989, -0.542474, 0.335599, -2.08338, -2.16771, -0.12458, -0.00191155, 0.0183626, 0.00474577, 0.0135943, 0.000942194, -0.00325506
0.093356, 1.69325, -1.22607, -1.53812, -0.899842, -1.19551, 1.22869, -1.30312, 0.0468478, 0.000408947, -0.00168131, 0.00204509, -0.096487, -6.12295e-05, -0.000799811, 1.57081, 58.4036, 27.8614, 6.0614, 1.53461, 3.7836, 0.0623279, 0.000355988, -0.000917525, 0.000525296, 0.00197831, -0.00332644, -0.000832346, 0.0185598, -0.0159827, -0.0042892, -0.0494074, 0.0898591, 0.0137188, 0.470953, -0.542867, 0.336031, -2.0836, -2.16574, -0.129926, 0.470005, -0.542472, 0.335595, -2.08338, -2.16775, -0.12444, -0.00195511, 0.0187891, 0.00485308, 0.014516, 0.00178289, -0.00274978
0.094356, 1.6933, -1.22606, -1.53812, -0.899834, -1.19561, 1.22869, -1.30312, 0.0494497, 0.00100932, -0.00537657, 0.00414941, -0.10068, 0.000256322, -0.00105104, 1.49146, 58.3679, 27.9011, 6.09711, 1.5282, 3.77627, 0.0751453, 0.000338065, -0.000900607, 0.000529276, 0.00202729, -0.00341455, -0.000843374, 0.0200465, -0.0159276, -0.00509507, -0.0535821, 0.0943982, 0.011542, 0.470951, -0.542848, 0.336035, -2.08359, -2.16574, -0.129927, 0.47002, -0.542469, 0.335593, -2.08338, -2.16779, -0.124299, -0.00199908, 0.0192197, 0.00496136, 0.014441, 0.000867924, -0.00366678
0.095356, 1.69335, -1.22606, -1.53813, -0.899824, -1.19571, 1.22869, -1.30313, 0.0513773, 0.000598988, -0.00715284, 0.0042421, -0.100011, -8.09802e-05, -0.00147901, 1.41608, 58.3679, 27.9011, 6.0614, 1.55292, 3.7836, 0.0952869, 0.000317783, -0.000885033, 0.000533515, 0.00207454, -0.0035027, -0.000850431, 0.0199065, -0.0167269, -0.00612113, -0.0553213, 0.0936595, 0.0132079, 0.470949, -0.542829, 0.33604, -2.08358, -2.16573, -0.129929, 0.470035, -0.542469, 0.33559, -2.08338, -2.16782, -0.124159, -0.00204344, 0.0196547, 0.0050706, 0.0151527, 0.00163204, -0.00457334
0.096356, 1.69339, -1.22606, -1.53813, -0.899821, -1.1958, 1.22869, -1.30313, 0.0467449, 0.00210714, -0.00441237, 0.00465214, -0.102327, -0.000276791, -0.000772897, 1.45576, 58.2925, 27.8614, 6.13678, 1.5401, 3.79001, 0.0888782, 0.000296098, -0.000872938, 0.000534051, 0.0021179, -0.00359325, -0.000852033, 0.0222625, -0.0142242, -0.00401504, -0.0530513, 0.0968207, 0.00811668, 0.470947, -0.542809, 0.336045, -2.08357, -2.16573, -0.12993, 0.470045, -0.54247, 0.335591, -2.0834, -2.16786, -0.124021, -0.0020882, 0.0200938, 0.00518077, 0.0127693, -0.00068178, -0.00267422
0.097356, 1.69345, -1.22606, -1.53812, -0.899816, -1.1959, 1.22868, -1.30313, 0.0506324, 0.000527978, -0.000771991, 0.00288545, -0.100644, 6.37471e-05, -0.000533452, 1.34071, 58.3282, 27.7503, 6.17248, 1.55292, 3.7836, 0.0888782, 0.000279537, -0.000853504, 0.000538044, 0.00215993, -0.00367511, -0.000867811, 0.0195594, -0.0177509, -0.00411405, -0.0502702, 0.0942996, 0.0156446, 0.470945, -0.542789, 0.336051, -2.08357, -2.16572, -0.129932, 0.470063, -0.542465, 0.335589, -2.08339, -2.1679, -0.123894, -0.00213335, 0.0205371, 0.00529189, 0.0161459, 0.00259001, -0.00234782
0.098356, 1.6935, -1.22606, -1.53813, -0.89981, -1.196, 1.22868, -1.30313, 0.0496968, 0.00291927, -0.00176433, 0.00562617, -0.0941994, -0.00995435, -0.000606634, 1.22962, 58.2172, 27.79, 6.17248, 1.55292, 3.79733, 0.0952869, 0.000260248, -0.000836483, 0.000540038, 0.00220958, -0.00376886, -0.000877143, 0.0189134, -0.0153167, -0.00355547, -0.0551133, 0.0864631, 0.0140509, 0.470943, -0.542768, 0.336056, -2.08356, -2.16572, -0.129933, 0.470079, -0.542462, 0.335588, -2.08339, -2.16794, -0.123747, -0.0021789, 0.0209845, 0.00540394, 0.0136664, 0.00348942, -0.00151032
0.099356, 1.69354, -1.22606, -1.53813, -0.899803, -1.19609, 1.22868, -1.30313, 0.0502483, 0.0019228, -0.00141746, 0.00353373, -0.0986008, -0.0071502, 6.00647e-05, 1.18995, 58.2172, 27.79, 6.20819, 1.54651, 3.79001, 0.0824695, 0.000237173, -0.000822031, 0.000544019, 0.00225359, -0.0038584, -0.000882521, 0.0196969, -0.0162221, -0.00412449, -0.0554921, 0.0908703, 0.0145145, 0.470941, -0.542747, 0.336061, -2.08355, -2.16572, -0.129935, 0.470092, -0.542463, 0.335586, -2.0834, -2.16797, -0.123609, -0.00222483, 0.0214361, 0.00551691, 0.0145321, 0.00329246, -0.00210865
0.100356, 1.69359, -1.22606, -1.53812, -0.899794, -1.1962, 1.22868, -1.30313, 0.0476531, 0.000336309, 0.000637335, 0.00674329, -0.103006, -0.00535572, 0.000540997, 1.15424, 58.2568, 27.7146, 6.17248, 1.54651, 3.79001, 0.0687366, 0.000212365, -0.000808947, 0.000546102, 0.00228998, -0.00394573, -0.000882699, 0.0230517, -0.0143026, -0.00362422, -0.0523087, 0.0935108, 0.00823992, 0.470939, -0.542726, 0.336067, -2.08354, -2.16571, -0.129936, 0.470103, -0.542465, 0.335585, -2.08341, -2.168, -0.123482, -0.00227115, 0.0218918, 0.0056308, 0.0127072, 0.000280582, -0.00196435
0.101356, 1.69364, -1.22605, -1.53812, -0.899792, -1.19629, 1.22868, -1.30313, 0.0475148, 0.00364473, 0.000289193, 0.0065091, -0.10446, -0.00377481, -0.000153716, 1.03919, 58.11, 27.7146, 6.24786, 1.52179, 3.7836, 0.0824695, 0.000192491, -0.000790635, 0.000543924, 0.00233117, -0.00404765, -0.000896472, 0.0237259, -0.0143131, -0.00172459, -0.0516344, 0.0990478, 0.00833003, 0.470936, -0.542704, 0.336072, -2.08353, -2.16571, -0.129938, 0.47012, -0.542463, 0.335589, -2.08342, -2.16806, -0.123336, -0.00231785, 0.0223516, 0.00574559, 0.012764, -0.000217516, -7.92984e-05
0.102356, 1.69368, -1.22605, -1.53812, -0.899788, -1.19639, 1.22868, -1.30313, 0.0463708, 0.00334798, -0.00306452, 0.00734021, -0.102412, -0.00308517, 0.000401833, 0.963814, 58.0704, 27.7146, 6.28357, 1.50989, 3.79001, 0.0687366, 0.000169226, -0.000776655, 0.000547057, 0.00237818, -0.00413747, -0.000899802, 0.0253519, -0.0132898, -0.0028905, -0.0523785, 0.097758, 0.00503985, 0.470934, -0.542682, 0.336078, -2.08351, -2.1657, -0.12994, 0.470132, -0.542462, 0.335588, -2.08342, -2.16809, -0.123194, -0.00236493, 0.0228154, 0.00586128, 0.0117109, -0.00122099, -0.00133683
0.103356, 1.69373, -1.22606, -1.53812, -0.89978, -1.19649, 1.22868, -1.30313, 0.046521, -0.00037387, -0.0023823, 0.00652712, -0.105432, -0.00206787, 0.000976728, 0.85273, 58.1815, 27.7146, 6.24786, 1.5163, 3.7836, 0.0495105, 0.000142359, -0.00076258, 0.00055516, 0.00242377, -0.00422394, -0.000898255, 0.0264408, -0.013622, -0.00490435, -0.052934, 0.0972956, 0.00475113, 0.470932, -0.542659, 0.336084, -2.0835, -2.1657, -0.129941, 0.470145, -0.542464, 0.335581, -2.08344, -2.16811, -0.123057, -0.00241239, 0.0232833, 0.00597787, 0.0119612, -0.0015038, -0.00338833
0.104356, 1.69377, -1.22604, -1.53812, -0.899781, -1.19659, 1.22868, -1.30313, 0.046395, 0.00317888, -0.00267789, 0.00235178, -0.107026, -0.00102238, 0.000886083, 0.737679, 58.0347, 27.7503, 6.35895, 1.50348, 3.76895, 0.0431018, 0.000119917, -0.000746212, 0.000554703, 0.0024715, -0.00432741, -0.000906932, 0.0258918, -0.014412, -0.00343624, -0.054589, 0.103284, 0.00767493, 0.470929, -0.542636, 0.33609, -2.08349, -2.16569, -0.129943, 0.47016, -0.542462, 0.335584, -2.08344, -2.16816, -0.122902, -0.00246022, 0.0237552, 0.00609534, 0.0127361, -0.000683742, -0.00176021
0.105356, 1.69382, -1.22605, -1.53812, -0.899772, -1.1967, 1.22868, -1.30314, 0.0509051, 0.00211509, -0.000212872, 0.0051651, -0.107707, -0.000821343, -0.00134388, 0.551216, 58.0347, 27.6749, 6.35895, 1.47876, 3.76895, 0.0952869, 9.50365e-05, -0.000729584, 0.000557745, 0.00251235, -0.00442026, -0.000921966, 0.0249522, -0.0167587, -0.00305847, -0.0519336, 0.102845, 0.0129108, 0.470927, -0.542612, 0.336096, -2.08348, -2.16569, -0.129945, 0.470174, -0.542462, 0.335582, -2.08344, -2.16821, -0.122766, -0.00250842, 0.0242312, 0.00621369, 0.0150115, 0.000757899, -0.00119427
0.106356, 1.69387, -1.22605, -1.53812, -0.899768, -1.1968, 1.22869, -1.30313, 0.0503623, 0.00140694, -0.00121307, 0.00630938, -0.105051, -0.00424694, -0.000151299, 0.400459, 58.0347, 27.7146, 6.39465, 1.48517, 3.74057, 0.0751453, 6.72898e-05, -0.000715003, 0.000561577, 0.0025594, -0.00452126, -0.000922315, 0.0254217, -0.0157396, -0.00398536, -0.0538863, 0.0984581, 0.0106362, 0.470924, -0.542588, 0.336102, -2.08347, -2.16568, -0.129946, 0.470187, -0.542464, 0.33558, -2.08346, -2.16824, -0.122613, -0.00255699, 0.0247111, 0.00633291, 0.0139283, 0.00087558, -0.00203265
0.107356, 1.69391, -1.22603, -1.53811, -0.899769, -1.19691, 1.22869, -1.30313, 0.0484562, 0.00436929, 0.00168239, 0.00533708, -0.107095, -0.00329705, 0.000372827, 0.325081, 57.8879, 27.6035, 6.5097, 1.47876, 3.74057, 0.0623279, 4.12084e-05, -0.000702023, 0.000556933, 0.00259982, -0.00462831, -0.000925925, 0.0260956, -0.0153191, -0.00120577, -0.0512961, 0.103634, 0.00977327, 0.470922, -0.542563, 0.336109, -2.08346, -2.16568, -0.129948, 0.470199, -0.542465, 0.335587, -2.08347, -2.16828, -0.122461, -0.00260593, 0.0251949, 0.006453, 0.0135846, 0.000248356, 0.000739529
0.108356, 1.69395, -1.22603, -1.53811, -0.899767, -1.19702, 1.22869, -1.30313, 0.0477349, 0.00374632, 0.0019691, 0.00351327, -0.108551, -0.00200481, 0.00095986, 0.21003, 57.8522, 27.5638, 6.54541, 1.46045, 3.72592, 0.0431018, 1.29476e-05, -0.000688014, 0.000559802, 0.0026438, -0.00472764, -0.00092693, 0.0267992, -0.0154897, -0.00160936, -0.0513066, 0.105213, 0.00977676, 0.470919, -0.542538, 0.336115, -2.08345, -2.16567, -0.12995, 0.470211, -0.542467, 0.335585, -2.08349, -2.16832, -0.122314, -0.00265523, 0.0256827, 0.00657393, 0.0137164, 0.000110991, 0.000347031
0.109356, 1.69399, -1.22603, -1.53811, -0.899767, -1.19712, 1.22869, -1.30313, 0.0432341, 0.00249623, 0.00125234, 0.00117177, -0.109611, -0.000784728, -0.000547464, 0.134651, 57.8522, 27.5638, 6.62079, 1.45404, 3.70395, 0.0751453, -1.74482e-05, -0.000677012, 0.000563222, 0.00269163, -0.00482655, -0.000929246, 0.0292173, -0.0135225, -0.00261595, -0.0517974, 0.1058, 0.00825871, 0.470916, -0.542512, 0.336122, -2.08343, -2.16567, -0.129952, 0.47022, -0.54247, 0.335583, -2.0835, -2.16835, -0.122162, -0.00270489, 0.0261745, 0.00669572, 0.0117522, -0.00170981, -0.000841773
0.110356, 1.69403, -1.22603, -1.53811, -0.899763, -1.19722, 1.22869, -1.30314, 0.0449256, 0.00259119, -0.000138414, 0.00431442, -0.105032, -0.000482283, 0.00010931, -0.0161054, 57.8125, 27.6035, 6.62079, 1.43024, 3.69754, 0.0623279, -4.62842e-05, -0.000663078, 0.000566461, 0.00273931, -0.00492545, -0.000932824, 0.0293121, -0.0141267, -0.00272522, -0.0492819, 0.102405, 0.00742968, 0.470914, -0.542486, 0.336128, -2.08342, -2.16566, -0.129954, 0.470233, -0.542471, 0.335582, -2.08351, -2.16839, -0.122011, -0.00275491, 0.0266701, 0.00681835, 0.0123051, -0.00126598, -0.000860515
0.111356, 1.69408, -1.22603, -1.53811, -0.899759, -1.19733, 1.22869, -1.30313, 0.0438448, 0.00172672, 0.000801777, 0.00346713, -0.106683, -0.000706249, 0.000784626, -0.206535, 57.8125, 27.5638, 6.62079, 1.41742, 3.70395, 0.0431018, -7.3913e-05, -0.000646734, 0.000569919, 0.00278557, -0.00502432, -0.000935352, 0.0302453, -0.0136977, -0.00301916, -0.0496286, 0.103019, 0.00638405, 0.470911, -0.542459, 0.336135, -2.08341, -2.16566, -0.129956, 0.470247, -0.542471, 0.335581, -2.08352, -2.16842, -0.121862, -0.00280528, 0.0271696, 0.00694181, 0.011849, -0.00165984, -0.00115979
0.112356, 1.69412, -1.22602, -1.53811, -0.899762, -1.19744, 1.22869, -1.30313, 0.0401093, 0.00282103, 0.000509042, 0.000991319, -0.108541, 0.000198535, 0.000794108, -0.281914, 57.7411, 27.5638, 6.69617, 1.39911, 3.68289, 0.0357776, -0.000104733, -0.000634387, 0.000569474, 0.00283012, -0.00513258, -0.000938154, 0.0321089, -0.0120745, -0.00258274, -0.0503679, 0.106456, 0.00411488, 0.470908, -0.542432, 0.336142, -2.0834, -2.16565, -0.129958, 0.470258, -0.542474, 0.335583, -2.08353, -2.16847, -0.121705, -0.00285601, 0.0276729, 0.00706609, 0.01026, -0.00313004, -0.000845581
0.113356, 1.69416, -1.22602, -1.53811, -0.899766, -1.19755, 1.22869, -1.30314, 0.0374875, 0.00364351, 0.00115547, -0.000770006, -0.110438, 0.000591997, -0.000454121, -0.357292, 57.6657, 27.5281, 6.77154, 1.41192, 3.66824, 0.0623279, -0.000135669, -0.000621874, 0.000569689, 0.00287539, -0.00524013, -0.000944588, 0.0334776, -0.0109888, -0.00197879, -0.0506053, 0.109311, 0.00401917, 0.470905, -0.542404, 0.336149, -2.08338, -2.16565, -0.12996, 0.470268, -0.542476, 0.335585, -2.08354, -2.16851, -0.121548, -0.00290708, 0.0281801, 0.00719119, 0.00919576, -0.00411157, -0.000304508
0.114356, 1.6942, -1.22601, -1.5381, -0.899765, -1.19766, 1.22869, -1.30314, 0.0364481, 0.00409913, 0.00168401, -0.000264073, -0.106012, 0.00084112, 0.000409193, -0.468376, 57.5943, 27.4885, 6.77154, 1.3927, 3.65451, 0.0431018, -0.000167307, -0.000608953, 0.000569956, 0.00291833, -0.00534568, -0.000943948, 0.0336112, -0.0109549, -0.00142349, -0.0473244, 0.106408, 0.00345995, 0.470902, -0.542376, 0.336156, -2.08337, -2.16564, -0.129962, 0.470279, -0.542478, 0.335586, -2.08356, -2.16855, -0.121395, -0.0029585, 0.0286911, 0.00731711, 0.00913561, -0.00381944, 0.000349487
0.115356, 1.69424, -1.22601, -1.53809, -0.899765, -1.19776, 1.22869, -1.30314, 0.0359395, 0.00273252, 0.0045456, 1.08996e-05, -0.107564, 0.00132792, 3.53337e-05, -0.583427, 57.5943, 27.3417, 6.77154, 1.3808, 3.63254, 0.0495105, -0.000197502, -0.00059324, 0.000571512, 0.00295581, -0.00544509, -0.000951658, 0.034339, -0.0110852, -0.0011462, -0.0449236, 0.106588, 0.00401368, 0.470899, -0.542347, 0.336164, -2.08336, -2.16563, -0.129964, 0.470293, -0.542479, 0.335587, -2.08357, -2.16859, -0.121256, -0.00301027, 0.0292059, 0.00744383, 0.00925026, -0.00406039, 0.000632334
0.116356, 1.69427, -1.226, -1.5381, -0.899768, -1.19787, 1.2287, -1.30314, 0.0333741, 0.00441996, 0.000423881, -0.00068774, -0.105602, 0.00135894, -0.000688598, -0.619133, 57.4832, 27.4528, 6.80725, 1.39911, 3.6188, 0.0687366, -0.00023269, -0.000583674, 0.000573823, 0.00300597, -0.00555241, -0.000949018, 0.0361206, -0.0093077, -0.00161353, -0.0472814, 0.107191, 0.00150891, 0.470896, -0.542318, 0.336171, -2.08334, -2.16563, -0.129966, 0.470301, -0.542483, 0.335586, -2.08359, -2.16862, -0.121093, -0.00306237, 0.0297245, 0.00757134, 0.00746991, -0.00530132, 7.48222e-05
0.117356, 1.69432, -1.22601, -1.5381, -0.899772, -1.19797, 1.2287, -1.30314, 0.0343534, 0.00127607, 0.000276542, -0.00118855, -0.10287, 0.001151, 0.00076158, -0.76989, 57.5546, 27.4528, 6.84296, 1.39911, 3.61148, 0.0357776, -0.00026318, -0.000566856, 0.000582162, 0.00305409, -0.00564676, -0.000955475, 0.0358417, -0.0103053, -0.00369998, -0.0468654, 0.102071, 0.00241425, 0.470893, -0.542288, 0.336179, -2.08333, -2.16562, -0.129968, 0.470315, -0.542482, 0.33558, -2.08359, -2.16866, -0.120946, -0.00311481, 0.0302468, 0.00769965, 0.00832787, -0.00414063, -0.00184438
0.118356, 1.69435, -1.22601, -1.5381, -0.89977, -1.19807, 1.2287, -1.30314, 0.0326027, 0.00168583, 0.00101505, 0.000121718, -0.101562, 0.00183273, -0.000238308, -0.809562, 57.5189, 27.417, 6.80725, 1.41742, 3.58218, 0.0559192, -0.000298753, -0.0005555, 0.000582997, 0.00309081, -0.00574844, -0.000955128, 0.0371681, -0.00945945, -0.00290718, -0.0439905, 0.101786, 0.00136937, 0.47089, -0.542258, 0.336186, -2.08331, -2.16562, -0.129971, 0.470325, -0.542486, 0.335581, -2.08361, -2.1687, -0.120805, -0.00316759, 0.0307728, 0.00782873, 0.00750685, -0.0050809, -0.00111368
0.119356, 1.6944, -1.22601, -1.53809, -0.899773, -1.19818, 1.2287, -1.30314, 0.0391454, 0.00112381, 0.000673296, -0.00609795, -0.100206, 0.00171569, -0.000396264, -0.920646, 57.5189, 27.417, 6.80725, 1.43573, 3.56845, 0.0623279, -0.000331426, -0.000540359, 0.000587854, 0.00313516, -0.00584708, -0.000961751, 0.0328034, -0.0146386, -0.00461973, -0.0476452, 0.101117, 0.0137857, 0.470887, -0.542227, 0.336194, -2.0833, -2.16561, -0.129973, 0.470338, -0.542486, 0.335579, -2.08361, -2.16873, -0.120658, -0.0032207, 0.0313025, 0.00795859, 0.0124072, 0.000234799, -0.0021536
0.120356, 1.69443, -1.22601, -1.53809, -0.899781, -1.19827, 1.2287, -1.30314, 0.0395579, 0.000749154, 0.00220955, -0.00713924, -0.0986121, 0.00113273, -0.0014849, -0.960319, 57.5189, 27.3417, 6.91833, 1.43024, 3.56845, 0.0952869, -0.0003634, -0.000526238, 0.000593746, 0.00317616, -0.00593558, -0.0009746, 0.032199, -0.0154881, -0.00455873, -0.0465482, 0.0994243, 0.0175166, 0.470884, -0.542196, 0.336202, -2.08328, -2.1656, -0.129975, 0.47035, -0.542485, 0.335575, -2.08361, -2.16878, -0.120527, -0.00327414, 0.031836, 0.00808922, 0.0131827, 0.00139054, -0.00189505
0.121356, 1.69447, -1.226, -1.5381, -0.899776, -1.19837, 1.2287, -1.30314, 0.0394562, 0.00393307, -0.00112733, -0.00335287, -0.0986552, 0.00156066, 0.000942826, -0.996025, 57.3721, 27.4528, 6.84296, 1.46045, 3.54648, 0.0431018, -0.000401614, -0.00051729, 0.000592793, 0.00321637, -0.00604016, -0.000959716, 0.0343645, -0.0140482, -0.00333988, -0.0469167, 0.102995, 0.0100426, 0.470881, -0.542164, 0.33621, -2.08327, -2.1656, -0.129978, 0.470357, -0.542491, 0.335578, -2.08364, -2.1688, -0.120377, -0.00332791, 0.0323731, 0.00822061, 0.0118131, -0.000457163, -0.000853978
0.122356, 1.69451, -1.226, -1.5381, -0.899779, -1.19846, 1.22871, -1.30314, 0.0396136, 0.0017868, -0.000752991, -0.00343073, -0.093786, 0.00154284, -0.00130424, -1.0357, 57.4078, 27.4528, 6.88263, 1.47876, 3.53274, 0.0952869, -0.00043629, -0.000502432, 0.000597483, 0.00325449, -0.00613579, -0.000970631, 0.033988, -0.0148397, -0.00454107, -0.0444812, 0.0971165, 0.0144139, 0.470877, -0.542132, 0.336219, -2.08325, -2.16559, -0.12998, 0.470369, -0.542491, 0.335576, -2.08364, -2.16884, -0.120241, -0.00338201, 0.0329138, 0.00835276, 0.0124923, 0.000673337, -0.00187388
0.123356, 1.69455, -1.226, -1.53809, -0.899776, -1.19856, 1.22871, -1.30314, 0.0382784, -0.000572064, 0.00126017, -0.00155973, -0.0894715, 0.00102389, -0.00134422, -1.15075, 57.4832, 27.3774, 6.84296, 1.48517, 3.53274, 0.108104, -0.0004697, -0.000486423, 0.000603167, 0.00329219, -0.00622267, -0.000979396, 0.0345931, -0.0144957, -0.00498294, -0.0401654, 0.0909067, 0.0139981, 0.470874, -0.542099, 0.336227, -2.08324, -2.16558, -0.129982, 0.470383, -0.54249, 0.335573, -2.08364, -2.16888, -0.120114, -0.00343642, 0.0334582, 0.00848565, 0.0120999, 0.000674651, -0.00226153
0.124356, 1.69459, -1.22599, -1.5381, -0.899782, -1.19865, 1.2287, -1.30314, 0.0387509, 0.00221706, -0.000923933, -0.00295351, -0.0918249, 0.000441735, -0.00018408, -1.18645, 57.3721, 27.4528, 6.91833, 1.50989, 3.53915, 0.0888782, -0.000502745, -0.000471423, 0.000605013, 0.00334035, -0.00632538, -0.000984862, 0.0351289, -0.0143022, -0.00442204, -0.0440512, 0.0958917, 0.0126801, 0.47087, -0.542066, 0.336235, -2.08322, -2.16557, -0.129985, 0.470396, -0.542488, 0.335574, -2.08364, -2.16892, -0.119959, -0.00349116, 0.0340062, 0.00861928, 0.0118917, 0.000599368, -0.00165221
0.125356, 1.69463, -1.22599, -1.53809, -0.899782, -1.19874, 1.2287, -1.30314, 0.0372201, 0.00147803, -0.00061656, -0.00208184, -0.0931813, 0.000291864, 0.000860619, -1.15075, 57.3721, 27.4528, 6.91833, 1.5282, 3.53915, 0.0623279, -0.000537659, -0.000457015, 0.000610067, 0.003375, -0.00640971, -0.000987623, 0.0368948, -0.0131723, -0.00460077, -0.0438421, 0.0963269, 0.00911221, 0.470867, -0.542032, 0.336244, -2.0832, -2.16557, -0.129987, 0.470408, -0.542487, 0.335572, -2.08365, -2.16895, -0.119838, -0.00354621, 0.0345577, 0.00875364, 0.0107651, -0.000610935, -0.00193539
0.126356, 1.69468, -1.22599, -1.53809, -0.899781, -1.19883, 1.22871, -1.30314, 0.0428869, 0.00182056, -0.000411494, -0.000637303, -0.0895921, 0.000701233, 0.000336382, -1.26183, 57.3364, 27.4528, 6.88263, 1.54651, 3.52542, 0.0687366, -0.000569672, -0.000437868, 0.000613933, 0.00341045, -0.00649935, -0.00100126, 0.0346286, -0.0165741, -0.00443916, -0.0416757, 0.0942491, 0.0153132, 0.470863, -0.541997, 0.336253, -2.08319, -2.16556, -0.12999, 0.470424, -0.542483, 0.335571, -2.08365, -2.16899, -0.119711, -0.00360158, 0.0351128, 0.00888872, 0.0140317, 0.00229645, -0.00139224
0.127356, 1.69472, -1.22599, -1.53809, -0.899782, -1.19892, 1.2287, -1.30314, 0.0412974, 0.00214172, 0.000560548, -0.000488339, -0.0872055, 0.000194744, -0.000759092, -1.26183, 57.2968, 27.417, 6.88263, 1.58313, 3.53274, 0.0952869, -0.000606024, -0.000423817, 0.000616688, 0.00344769, -0.00659287, -0.00100888, 0.0351958, -0.0160263, -0.00389376, -0.0397025, 0.0925168, 0.0160142, 0.47086, -0.541962, 0.336262, -2.08317, -2.16555, -0.129992, 0.470436, -0.542482, 0.335571, -2.08365, -2.16903, -0.119578, -0.00365725, 0.0356715, 0.00902453, 0.0134694, 0.00218864, -0.000790192
0.128356, 1.69475, -1.22598, -1.53809, -0.899785, -1.19901, 1.2287, -1.30314, 0.0393224, 0.00142781, -0.000461775, -0.00120838, -0.0849822, 0.000128722, -0.000743423, -1.22613, 57.2968, 27.4528, 6.91833, 1.60785, 3.53274, 0.101696, -0.000643181, -0.000409994, 0.000621812, 0.0034879, -0.00668426, -0.00101401, 0.0362736, -0.0151877, -0.00472381, -0.0396044, 0.0903071, 0.0149959, 0.470856, -0.541926, 0.336271, -2.08315, -2.16554, -0.129995, 0.470447, -0.542482, 0.335569, -2.08365, -2.16906, -0.119444, -0.00371324, 0.0362337, 0.00916105, 0.0125843, 0.0017808, -0.00161611
0.129356, 1.69479, -1.22598, -1.5381, -0.899785, -1.1991, 1.2287, -1.30314, 0.0356502, 0.00178709, -0.00207128, -6.07066e-06, -0.0876425, -0.000152375, -2.08993e-05, -1.22613, 57.261, 27.5281, 6.88263, 1.62067, 3.53915, 0.0888782, -0.000680401, -0.000395432, 0.000627146, 0.00352908, -0.00677502, -0.00101994, 0.0396448, -0.0122549, -0.00478463, -0.0412128, 0.0928753, 0.00796812, 0.470852, -0.54189, 0.33628, -2.08314, -2.16554, -0.129998, 0.470459, -0.542481, 0.335567, -2.08365, -2.1691, -0.11931, -0.00376953, 0.0367994, 0.00929827, 0.00971803, -0.00109237, -0.00197514
0.130356, 1.69483, -1.22598, -1.5381, -0.89978, -1.19919, 1.2287, -1.30314, 0.0351803, 0.000356169, -0.00221621, 0.00173241, -0.0859167, 0.000135152, -0.000488652, -1.18645, 57.2968, 27.5638, 6.80725, 1.65088, 3.53274, 0.101696, -0.000721342, -0.000383399, 0.000633807, 0.00356341, -0.00685928, -0.00101693, 0.0408091, -0.0118873, -0.00543401, -0.0393988, 0.0903044, 0.00703504, 0.470849, -0.541853, 0.336289, -2.08312, -2.16553, -0.13, 0.470468, -0.542483, 0.335563, -2.08366, -2.16912, -0.119188, -0.00382613, 0.0373685, 0.00943618, 0.00931246, -0.00158712, -0.00264918
0.131356, 1.69487, -1.22599, -1.53809, -0.899788, -1.19928, 1.22871, -1.30315, 0.0367687, -0.000690576, 0.00326933, -0.000628377, -0.0887925, 0.000360902, -8.84102e-05, -1.22613, 57.3364, 27.4885, 6.88263, 1.6756, 3.52542, 0.0952869, -0.000754431, -0.000363082, 0.000639328, 0.00359642, -0.00694527, -0.00103814, 0.0395386, -0.0140459, -0.00454064, -0.0370653, 0.0919247, 0.0120067, 0.470845, -0.541816, 0.336299, -2.0831, -2.16552, -0.130003, 0.470486, -0.542477, 0.335561, -2.08365, -2.16917, -0.119069, -0.00388303, 0.0379411, 0.00957479, 0.0113984, 0.000190756, -0.00149726
0.132356, 1.69491, -1.22599, -1.5381, -0.899788, -1.19936, 1.22871, -1.30315, 0.0360496, 0.00185746, 0.000664873, 0.00049404, -0.0857706, 0.000240251, 0.000178418, -1.18645, 57.3721, 27.5638, 6.84296, 1.6875, 3.52542, 0.0888782, -0.000794603, -0.000349431, 0.000646493, 0.00363556, -0.00703283, -0.00104059, 0.0404732, -0.0132419, -0.00382829, -0.0370631, 0.0922695, 0.00981107, 0.470841, -0.541778, 0.336308, -2.08308, -2.16551, -0.130006, 0.470497, -0.542477, 0.335557, -2.08365, -2.1692, -0.11894, -0.00394022, 0.0385172, 0.00971408, 0.010598, -0.00029866, -0.000776419
0.133356, 1.69496, -1.22599, -1.5381, -0.899786, -1.19945, 1.22871, -1.30315, 0.0366842, 0.00150106, 0.00146489, 0.00115328, -0.0877733, 0.000431172, -0.000355773, -1.18645, 57.3721, 27.5281, 6.80725, 1.6875, 3.5181, 0.101696, -0.000831435, -0.000331353, 0.000651719, 0.00366548, -0.00711597, -0.00105303, 0.041265, -0.0134453, -0.00372135, -0.0368223, 0.093853, 0.0101625, 0.470837, -0.541739, 0.336318, -2.08306, -2.1655, -0.130009, 0.470512, -0.542473, 0.335555, -2.08365, -2.16924, -0.118826, -0.00399771, 0.0390967, 0.00985405, 0.0107761, -0.000508696, -0.000661207
0.134356, 1.695, -1.22599, -1.5381, -0.899792, -1.19953, 1.22871, -1.30314, 0.037047, -0.000565463, -0.000646833, -0.00100286, -0.0854398, 0.000287251, 0.000746162, -1.18645, 57.4475, 27.6035, 6.88263, 1.70032, 3.5181, 0.0751453, -0.000870348, -0.000315087, 0.000663232, 0.00370625, -0.00719599, -0.00105984, 0.0412251, -0.0140724, -0.00606319, -0.0388367, 0.090459, 0.0111686, 0.470833, -0.5417, 0.336328, -2.08305, -2.1655, -0.130011, 0.470525, -0.54247, 0.335547, -2.08364, -2.16927, -0.118704, -0.0040555, 0.0396796, 0.00999469, 0.0112576, 0.000501484, -0.00284643
0.135356, 1.69504, -1.226, -1.5381, -0.899786, -1.19961, 1.22871, -1.30314, 0.033116, -0.00189961, 0.000601659, 0.00192353, -0.0828446, -7.99149e-05, 0.000972159, -1.15075, 57.5189, 27.5638, 6.77154, 1.69391, 3.52542, 0.0623279, -0.000911389, -0.000300701, 0.00066878, 0.00373363, -0.00727499, -0.00106126, 0.0437592, -0.0117187, -0.00587599, -0.0348642, 0.0866468, 0.0060383, 0.470829, -0.541661, 0.336338, -2.08303, -2.16549, -0.130014, 0.470537, -0.542469, 0.335545, -2.08364, -2.1693, -0.118596, -0.00411357, 0.0402659, 0.010136, 0.00894681, -0.00153923, -0.00284398
0.136356, 1.69507, -1.22601, -1.5381, -0.89979, -1.19969, 1.22871, -1.30314, 0.0376217, -0.00375401, -0.000448269, -0.000392847, -0.0862461, 0.000489147, 0.000885464, -1.15075, 57.63, 27.6035, 6.84296, 1.70581, 3.51077, 0.0559192, -0.00095192, -0.000284056, 0.000680368, 0.00376762, -0.0073519, -0.00106996, 0.0428023, -0.0143751, -0.00788575, -0.0386852, 0.0885963, 0.0110497, 0.470825, -0.54162, 0.336348, -2.08301, -2.16548, -0.130017, 0.47055, -0.542467, 0.335536, -2.08364, -2.16933, -0.118484, -0.00417194, 0.0408555, 0.0102779, 0.0114335, 0.000415248, -0.00461925
0.137356, 1.69512, -1.226, -1.5381, -0.899787, -1.19977, 1.22871, -1.30315, 0.0362804, -0.000656301, -0.0019103, 0.00140496, -0.0833206, 0.00086855, -0.000867753, -1.22613, 57.5546, 27.6749, 6.77154, 1.70581, 3.49612, 0.0952869, -0.000991035, -0.000265888, 0.000683142, 0.00380035, -0.00744392, -0.00108268, 0.0440108, -0.0133431, -0.00627593, -0.0368343, 0.0896633, 0.0101755, 0.470821, -0.541579, 0.336358, -2.08299, -2.16547, -0.13002, 0.470566, -0.542463, 0.335537, -2.08363, -2.16937, -0.118359, -0.00423059, 0.0414484, 0.0104206, 0.0104466, -0.000475755, -0.00304487
0.138356, 1.69515, -1.226, -1.5381, -0.899792, -1.19986, 1.22871, -1.30314, 0.0315458, -0.000375181, -0.000394076, 9.87436e-05, -0.0862284, 0.000578971, 0.00111692, -1.15075, 57.5546, 27.6392, 6.80725, 1.70581, 3.49612, 0.0495105, -0.00103327, -0.00025195, 0.000687907, 0.00383228, -0.00753148, -0.00108369, 0.046546, -0.0108985, -0.0055697, -0.0368475, 0.0923574, 0.00445309, 0.470816, -0.541538, 0.336369, -2.08297, -2.16546, -0.130023, 0.470577, -0.542462, 0.335536, -2.08364, -2.1694, -0.118237, -0.00428952, 0.0420447, 0.0105638, 0.00806343, -0.00259156, -0.00252556
0.139356, 1.69519, -1.22601, -1.5381, -0.899793, -1.19994, 1.22871, -1.30314, 0.0334354, -0.00280181, -0.00106476, 6.38186e-05, -0.0842245, 0.000385934, 0.000981972, -1.15075, 57.6657, 27.6749, 6.80725, 1.72504, 3.49612, 0.0431018, -0.00107651, -0.00023665, 0.000699012, 0.0038665, -0.0076087, -0.0010887, 0.0462661, -0.0121225, -0.00740571, -0.0370568, 0.0886194, 0.00693394, 0.470812, -0.541496, 0.336379, -2.08295, -2.16545, -0.130026, 0.470589, -0.54246, 0.335528, -2.08363, -2.16943, -0.118125, -0.00434873, 0.0426443, 0.0107077, 0.00914934, -0.00138113, -0.00418911
0.140356, 1.69523, -1.22601, -1.53811, -0.899795, -1.20002, 1.22871, -1.30314, 0.0344534, -0.0018328, -0.00244819, 4.10378e-05, -0.0809795, 0.00103715, -0.000532147, -1.15075, 57.6657, 27.7503, 6.80725, 1.70032, 3.47507, 0.0751453, -0.00111896, -0.000220539, 0.00070589, 0.00389751, -0.00769225, -0.00109976, 0.0460471, -0.0129611, -0.0073751, -0.0361528, 0.0876812, 0.00993517, 0.470808, -0.541453, 0.33639, -2.08293, -2.16544, -0.130029, 0.470602, -0.542458, 0.335525, -2.08363, -2.16947, -0.11801, -0.00440822, 0.0432472, 0.0108522, 0.0099207, -0.000531883, -0.00400682
0.141356, 1.69527, -1.22601, -1.53811, -0.899798, -1.2001, 1.22871, -1.30314, 0.0350497, -0.0029588, -0.00161346, 2.62276e-05, -0.0795063, 0.000691405, 0.000357312, -1.15075, 57.7411, 27.7503, 6.80725, 1.69391, 3.47507, 0.0559192, -0.00116167, -0.000204265, 0.000713643, 0.00392867, -0.00777354, -0.00110649, 0.0460061, -0.0136082, -0.00785498, -0.0350994, 0.0854603, 0.0106142, 0.470803, -0.54141, 0.336401, -2.08291, -2.16543, -0.130032, 0.470615, -0.542455, 0.335521, -2.08362, -2.1695, -0.117896, -0.00446799, 0.0438533, 0.0109973, 0.0104881, 0.000215945, -0.00434983
0.142356, 1.6953, -1.22601, -1.5381, -0.899807, -1.20018, 1.22871, -1.30314, 0.0329933, -0.00362324, -0.00106165, -0.0017466, -0.0834066, 0.00127472, 0.000984193, -1.0357, 57.8125, 27.7503, 6.88263, 1.6875, 3.45309, 0.0357776, -0.00120744, -0.000192311, 0.000722556, 0.0039604, -0.00785129, -0.00110859, 0.047803, -0.0126678, -0.00817385, -0.03637, 0.0886559, 0.00853233, 0.470799, -0.541366, 0.336412, -2.08288, -2.16542, -0.130036, 0.470624, -0.542454, 0.335516, -2.08362, -2.16952, -0.117786, -0.00452802, 0.0444627, 0.0111431, 0.00954194, -0.000937551, -0.00477124
0.143356, 1.69533, -1.22603, -1.53811, -0.899809, -1.20025, 1.22871, -1.30315, 0.0344504, -0.00676239, -0.00162529, -0.000237017, -0.081415, 0.00108716, -0.00178528, -1.0357, 57.999, 27.79, 6.84296, 1.6875, 3.44668, 0.101696, -0.00125361, -0.000176802, 0.00073608, 0.00398848, -0.00792203, -0.00112219, 0.0482354, -0.0133358, -0.0101551, -0.0357592, 0.0840617, 0.0119296, 0.470794, -0.541322, 0.336423, -2.08286, -2.16541, -0.130039, 0.470636, -0.542453, 0.335506, -2.08361, -2.16956, -0.117687, -0.00458833, 0.0450753, 0.0112895, 0.0100916, -0.000417382, -0.00666984
0.144356, 1.69537, -1.22603, -1.53811, -0.899813, -1.20033, 1.22872, -1.30314, 0.0384489, -0.00449716, -0.00274609, -0.00253977, -0.0800482, 0.00153856, 3.05181e-05, -1.0357, 57.999, 27.8614, 6.80725, 1.68201, 3.42471, 0.0687366, -0.00129915, -0.000161512, 0.000742695, 0.00401635, -0.00800555, -0.00112471, 0.0461999, -0.0161321, -0.00975603, -0.0370735, 0.0861567, 0.016014, 0.47079, -0.541277, 0.336434, -2.08284, -2.1654, -0.130042, 0.470648, -0.542451, 0.335503, -2.08361, -2.16958, -0.117575, -0.00464891, 0.0456911, 0.0114364, 0.0127651, 0.00226163, -0.00589822
0.145356, 1.6954, -1.22603, -1.5381, -0.899821, -1.2004, 1.22872, -1.30314, 0.0335055, -0.003825, 0.00301109, -0.00597854, -0.0786879, 0.00129697, 0.000495063, -0.960319, 58.0347, 27.79, 6.84296, 1.6756, 3.41739, 0.0559192, -0.00134286, -0.000145348, 0.000748742, 0.00403936, -0.00808276, -0.00113586, 0.046456, -0.0152758, -0.00761001, -0.0322923, 0.0856818, 0.0169332, 0.470785, -0.541231, 0.336446, -2.08282, -2.16539, -0.130045, 0.470661, -0.542447, 0.335501, -2.08361, -2.16962, -0.117476, -0.00470975, 0.04631, 0.011584, 0.0119373, 0.00226088, -0.00364659
0.146356, 1.69544, -1.22603, -1.5381, -0.89983, -1.20047, 1.22872, -1.30315, 0.0355871, -0.0011465, 0.00227561, -0.00760892, -0.0730027, 0.00113591, -0.000653302, -0.996025, 58.11, 27.79, 6.84296, 1.66919, 3.41006, 0.0824695, -0.00138695, -0.000128569, 0.000756544, 0.00406511, -0.00815884, -0.0011518, 0.044441, -0.0172797, -0.00670021, -0.031161, 0.0841952, 0.0231226, 0.47078, -0.541185, 0.336457, -2.0828, -2.16538, -0.130049, 0.470674, -0.542442, 0.335498, -2.08359, -2.16966, -0.117375, -0.00477085, 0.0469322, 0.0117321, 0.0138385, 0.00481428, -0.00234842
0.147356, 1.69546, -1.22603, -1.5381, -0.899837, -1.20054, 1.22872, -1.30315, 0.0303909, -0.00133149, -0.000880219, -0.00880094, -0.0682976, 0.00126589, -0.00162233, -0.884941, 58.1458, 27.9011, 6.84296, 1.65088, 3.39633, 0.114513, -0.00143776, -0.000118778, 0.00076541, 0.0040934, -0.00823549, -0.001154, 0.046802, -0.0146726, -0.00785854, -0.0312826, 0.0806888, 0.0201285, 0.470776, -0.541138, 0.336469, -2.08277, -2.16537, -0.130052, 0.470681, -0.542443, 0.335492, -2.08359, -2.16969, -0.117269, -0.00483222, 0.0475574, 0.0118809, 0.0112159, 0.00318114, -0.00363258
0.148356, 1.6955, -1.22604, -1.5381, -0.899838, -1.20061, 1.22872, -1.30315, 0.0342603, -0.00152184, -0.00127116, -0.00710602, -0.0703477, 0.00138646, -0.000844194, -0.960319, 58.1815, 27.9368, 6.73187, 1.65088, 3.38168, 0.108104, -0.00148376, -0.000101716, 0.00077251, 0.00411517, -0.00831044, -0.00116272, 0.0467459, -0.016231, -0.0081096, -0.0321348, 0.0825636, 0.0208696, 0.470771, -0.54109, 0.336481, -2.08275, -2.16536, -0.130056, 0.470694, -0.542439, 0.33549, -2.08358, -2.16972, -0.117173, -0.00489384, 0.0481858, 0.0120302, 0.0126994, 0.00396847, -0.00377137
0.149356, 1.69553, -1.22604, -1.5381, -0.89985, -1.20068, 1.22872, -1.30315, 0.0319571, -0.00262702, -0.000734284, -0.00646466, -0.0663448, 0.000924304, -0.000562796, -0.960319, 58.2568, 27.9368, 6.77154, 1.63257, 3.38168, 0.108104, -0.00152716, -8.38612e-05, 0.000779856, 0.00413572, -0.00837956, -0.00118094, 0.0477632, -0.0153157, -0.00845516, -0.0295106, 0.0781117, 0.0194251, 0.470766, -0.541042, 0.336493, -2.08273, -2.16535, -0.130059, 0.470708, -0.542432, 0.335487, -2.08357, -2.16976, -0.117086, -0.00495572, 0.0488173, 0.01218, 0.0117474, 0.00361194, -0.00409435
0.150356, 1.69556, -1.22604, -1.5381, -0.899862, -1.20074, 1.22872, -1.30315, 0.0261183, -0.000710237, -0.00123987, -0.00808471, -0.064306, 0.000887468, 9.95205e-05, -0.920646, 58.2172, 27.9725, 6.77154, 1.63898, 3.37436, 0.0952869, -0.00157511, -7.03536e-05, 0.000785116, 0.0041611, -0.00845964, -0.00118794, 0.050049, -0.0125404, -0.00747414, -0.0286091, 0.078652, 0.0148732, 0.470761, -0.540993, 0.336505, -2.0827, -2.16534, -0.130063, 0.470719, -0.542429, 0.335486, -2.08356, -2.16979, -0.11698, -0.00501785, 0.0494519, 0.0123305, 0.00903224, 0.00172416, -0.0032479
0.151356, 1.69558, -1.22604, -1.5381, -0.899864, -1.2008, 1.22873, -1.30314, 0.0233221, -0.00298713, -0.00169095, -0.00652329, -0.0628167, 0.0016428, 0.00128705, -0.809562, 58.3282, 28.0121, 6.65649, 1.65088, 3.34598, 0.0623279, -0.00162897, -6.08138e-05, 0.000793653, 0.00417658, -0.00852679, -0.001181, 0.0525066, -0.0109314, -0.00859284, -0.0265447, 0.0756653, 0.00994177, 0.470756, -0.540944, 0.336517, -2.08268, -2.16533, -0.130066, 0.470725, -0.542431, 0.335481, -2.08357, -2.1698, -0.116898, -0.00508023, 0.0500896, 0.0124815, 0.00741033, 4.31192e-05, -0.00453662
0.152356, 1.6956, -1.22605, -1.5381, -0.899881, -1.20086, 1.22873, -1.30314, 0.0209418, -0.00369105, -0.00107957, -0.00924347, -0.0618215, 0.00136647, 0.00133275, -0.809562, 58.4036, 28.0121, 6.69617, 1.65729, 3.33865, 0.0495105, -0.00167457, -4.41019e-05, 0.000803132, 0.00419629, -0.00859068, -0.00120109, 0.0531325, -0.0104271, -0.00911461, -0.0266314, 0.0744738, 0.0106232, 0.470751, -0.540894, 0.33653, -2.08266, -2.16532, -0.13007, 0.470738, -0.542424, 0.335477, -2.08355, -2.16984, -0.116817, -0.00514285, 0.0507303, 0.012633, 0.00684752, 0.000126404, -0.00498355
0.153356, 1.69562, -1.22604, -1.5381, -0.899896, -1.20092, 1.22873, -1.30314, 0.0211525, -0.00157777, -0.000120624, -0.0109771, -0.0606061, 0.00145351, 0.000651142, -0.76989, 58.3679, 28.1232, 6.73187, 1.65729, 3.324, 0.0559192, -0.00172433, -3.20307e-05, 0.000808552, 0.00421811, -0.00866535, -0.00120795, 0.0525524, -0.0112562, -0.00782366, -0.0256815, 0.0760595, 0.0139133, 0.470746, -0.540843, 0.336542, -2.08263, -2.16531, -0.130073, 0.470746, -0.542421, 0.335476, -2.08354, -2.16987, -0.116721, -0.00520573, 0.051374, 0.0127851, 0.0076394, 0.00117753, -0.0034931
0.154356, 1.69565, -1.22604, -1.53809, -0.899909, -1.20097, 1.22873, -1.30314, 0.0209974, -0.00185129, 0.00337041, -0.0136869, -0.0602647, 0.000969008, 0.000908813, -0.845268, 58.4036, 28.1232, 6.69617, 1.66919, 3.324, 0.0431018, -0.0017713, -1.54626e-05, 0.000815728, 0.00423501, -0.00873125, -0.00122207, 0.0516621, -0.0123848, -0.00720781, -0.0240249, 0.0756144, 0.0177223, 0.470741, -0.540792, 0.336555, -2.08261, -2.1653, -0.130077, 0.470759, -0.542414, 0.335474, -2.08353, -2.16991, -0.116641, -0.00526884, 0.0520207, 0.0129378, 0.0086942, 0.00265473, -0.00262944
0.155356, 1.69568, -1.22605, -1.5381, -0.89992, -1.20103, 1.22873, -1.30314, 0.0221135, -0.00287779, 0.00329632, -0.0157689, -0.0601857, 0.00115463, 0.000368516, -0.845268, 58.475, 28.2343, 6.65649, 1.69391, 3.31027, 0.0495105, -0.0018225, -2.1038e-06, 0.000825847, 0.0042551, -0.00879537, -0.00123058, 0.0513331, -0.0135672, -0.00821574, -0.0249925, 0.0751872, 0.0212578, 0.470735, -0.54074, 0.336568, -2.08258, -2.16528, -0.130081, 0.470768, -0.542411, 0.335468, -2.08351, -2.16993, -0.116558, -0.0053322, 0.0526704, 0.0130909, 0.00976274, 0.00383456, -0.00345767
0.156356, 1.69569, -1.22605, -1.53809, -0.899937, -1.20108, 1.22873, -1.30314, 0.0210243, -0.00449686, 0.00503748, -0.0181869, -0.0554911, 0.000769754, -0.000466399, -0.76989, 58.5861, 28.274, 6.65649, 1.71863, 3.31027, 0.0687366, -0.00187519, 8.13008e-06, 0.000834587, 0.00426922, -0.00885518, -0.00124038, 0.0505939, -0.014332, -0.00892172, -0.0225997, 0.0699434, 0.0256322, 0.47073, -0.540687, 0.336581, -2.08255, -2.16527, -0.130085, 0.470775, -0.542408, 0.335464, -2.0835, -2.16996, -0.116487, -0.0053958, 0.0533231, 0.0132446, 0.0104104, 0.00535833, -0.00391032
0.157356, 1.69571, -1.22604, -1.53809, -0.899958, -1.20112, 1.22873, -1.30314, 0.0183773, -0.00214759, 0.0040888, -0.0209276, -0.0512863, 0.0010557, 0.00090977, -0.734184, 58.5504, 28.274, 6.69617, 1.73053, 3.29562, 0.0357776, -0.00192327, 2.28294e-05, 0.000837909, 0.00428123, -0.00892298, -0.00125441, 0.0508041, -0.0138163, -0.00814362, -0.0217672, 0.0695492, 0.0250114, 0.470725, -0.540634, 0.336594, -2.08253, -2.16526, -0.130089, 0.470786, -0.542401, 0.335466, -2.08349, -2.17, -0.11641, -0.00545963, 0.0539787, 0.0133988, 0.00986789, 0.00566506, -0.00300612
0.158356, 1.69573, -1.22604, -1.53809, -0.899967, -1.20117, 1.22873, -1.30314, 0.0212294, -0.00142041, 0.0047576, -0.0152629, -0.0532271, 0.0014837, -0.000851549, -0.76989, 58.5504, 28.3454, 6.54541, 1.74884, 3.27456, 0.0751453, -0.00197672, 3.42203e-05, 0.000841436, 0.00428772, -0.00898747, -0.00126378, 0.0521086, -0.0141542, -0.00685016, -0.0192649, 0.0719465, 0.0243375, 0.470719, -0.54058, 0.336608, -2.0825, -2.16525, -0.130092, 0.470793, -0.542399, 0.335467, -2.08348, -2.17003, -0.116342, -0.00552369, 0.0546373, 0.0135535, 0.0102363, 0.00484998, -0.00179005
0.159356, 1.69574, -1.22604, -1.53808, -0.899983, -1.20121, 1.22874, -1.30315, 0.0213695, -0.00177366, 0.00384549, -0.016207, -0.0549366, 0.00153167, -0.0017884, -0.734184, 58.5861, 28.3454, 6.47003, 1.77356, 3.25992, 0.108104, -0.00202857, 4.67802e-05, 0.0008461, 0.00429322, -0.00904734, -0.00127928, 0.053014, -0.0141486, -0.00755687, -0.0211698, 0.0735136, 0.025293, 0.470714, -0.540525, 0.336621, -2.08248, -2.16524, -0.130096, 0.470802, -0.542394, 0.335468, -2.08347, -2.17007, -0.116281, -0.00558799, 0.0552987, 0.0137087, 0.010173, 0.00472753, -0.00247516
0.160356, 1.69576, -1.22604, -1.53808, -0.900007, -1.20125, 1.22874, -1.30315, 0.018406, -0.00210409, 0.000470523, -0.0195186, -0.046969, 0.00102111, -0.000242832, -0.694511, 58.6258, 28.4565, 6.5097, 1.80469, 3.25992, 0.0824695, -0.00208048, 5.8387e-05, 0.000854161, 0.004307, -0.00910463, -0.00129071, 0.0531413, -0.0134841, -0.00935518, -0.0218571, 0.0671811, 0.0248425, 0.470708, -0.54047, 0.336635, -2.08245, -2.16522, -0.1301, 0.47081, -0.542388, 0.335465, -2.08345, -2.17009, -0.116212, -0.00565251, 0.0559631, 0.0138645, 0.00938303, 0.00551794, -0.00409548
0.161356, 1.69577, -1.22604, -1.53806, -0.900026, -1.20129, 1.22874, -1.30314, 0.0202519, -0.00390361, 0.00539939, -0.0192359, -0.0448382, 0.000952007, 0.000821456, -0.694511, 58.7329, 28.3851, 6.43433, 1.81659, 3.25259, 0.0559192, -0.00212944, 7.41992e-05, 0.000857681, 0.00430265, -0.0091555, -0.0013094, 0.0518017, -0.0156249, -0.00878948, -0.0167613, 0.0636661, 0.0285224, 0.470702, -0.540414, 0.336649, -2.08242, -2.16521, -0.130104, 0.470821, -0.542379, 0.335467, -2.08343, -2.17013, -0.116172, -0.00571726, 0.0566303, 0.0140207, 0.0114289, 0.00750887, -0.00323898
0.162356, 1.69578, -1.22604, -1.53807, -0.900049, -1.20132, 1.22874, -1.30315, 0.0184548, -0.00436206, -0.000224833, -0.0200044, -0.0447001, 0.000905939, -0.000435707, -0.694511, 58.8083, 28.5715, 6.39465, 1.85962, 3.24527, 0.0824695, -0.00218308, 8.59752e-05, 0.000867464, 0.00431777, -0.00921106, -0.00132478, 0.0542499, -0.0138578, -0.0111088, -0.0216457, 0.0638055, 0.0260971, 0.470697, -0.540357, 0.336663, -2.08239, -2.1652, -0.130108, 0.470829, -0.542374, 0.335463, -2.08341, -2.17016, -0.116104, -0.00578224, 0.0573004, 0.0141774, 0.00960177, 0.00604942, -0.00570137
0.163356, 1.6958, -1.22604, -1.53806, -0.900076, -1.20135, 1.22874, -1.30315, 0.0203521, -0.00466859, 0.00025306, -0.023915, -0.0427252, 0.000603959, -0.00100255, -0.694511, 58.8837, 28.5715, 6.35895, 1.85962, 3.24527, 0.101696, -0.00223158, 0.000101917, 0.000872222, 0.00431872, -0.00926118, -0.00135266, 0.052445, -0.0160962, -0.01184, -0.022587, 0.0624716, 0.03292, 0.470691, -0.5403, 0.336677, -2.08237, -2.16519, -0.130113, 0.470841, -0.542363, 0.335464, -2.08337, -2.17021, -0.116059, -0.00584743, 0.0579733, 0.0143346, 0.0116798, 0.00871039, -0.00605464
0.164356, 1.69581, -1.22603, -1.53805, -0.900105, -1.20138, 1.22874, -1.30315, 0.0176399, -0.00311038, 0.00196471, -0.0275372, -0.0428675, 0.000639998, -0.000193648, -0.658806, 58.8837, 28.6429, 6.35895, 1.90265, 3.23886, 0.0888782, -0.00228322, 0.000114373, 0.000874611, 0.00432403, -0.00932077, -0.0013703, 0.0527982, -0.0156893, -0.0107189, -0.0221322, 0.0646417, 0.0334054, 0.470685, -0.540242, 0.336692, -2.08234, -2.16517, -0.130117, 0.470849, -0.542355, 0.335467, -2.08335, -2.17024, -0.115999, -0.00591285, 0.058649, 0.0144922, 0.0112624, 0.00884743, -0.00483426
0.165356, 1.69581, -1.22603, -1.53805, -0.900126, -1.20141, 1.22874, -1.30315, 0.0156899, -0.00069428, 0.00226559, -0.0245682, -0.0370666, 0.00124047, -0.000603816, -0.619133, 58.9551, 28.754, 6.24786, 1.91546, 3.21689, 0.101696, -0.00233814, 0.000125183, 0.000879425, 0.00432328, -0.00937032, -0.00138381, 0.0538619, -0.0147425, -0.00868305, -0.0165949, 0.0625885, 0.0313918, 0.470679, -0.540183, 0.336706, -2.08231, -2.16516, -0.130121, 0.470856, -0.542349, 0.335468, -2.08334, -2.17027, -0.115955, -0.00597848, 0.0593275, 0.0146504, 0.0103653, 0.00812168, -0.0028048
0.166356, 1.69582, -1.22602, -1.53804, -0.900157, -1.20143, 1.22874, -1.30315, 0.0132873, 0.00337405, 0.00422636, -0.0282271, -0.037778, 1.31763e-05, -0.000165185, -0.543754, 59.0662, 28.7937, 6.24786, 1.93378, 3.23886, 0.0952869, -0.00239056, 0.000136807, 0.000883642, 0.00432575, -0.00941968, -0.00140363, 0.0537618, -0.0142188, -0.00612761, -0.0171316, 0.0671006, 0.0324571, 0.470673, -0.540124, 0.336721, -2.08228, -2.16515, -0.130125, 0.470863, -0.542341, 0.33547, -2.08331, -2.17031, -0.115909, -0.00604433, 0.0600088, 0.0148089, 0.00986775, 0.00848417, -9.30677e-05
0.167356, 1.69582, -1.22602, -1.53803, -0.900186, -1.20145, 1.22874, -1.30314, 0.00937209, 0.00184363, 0.00486468, -0.0258475, -0.0332834, 0.000822586, 0.00111058, -0.508049, 59.2487, 28.8691, 6.17248, 1.94568, 3.21689, 0.0623279, -0.00244368, 0.000150414, 0.000891177, 0.00432372, -0.00946229, -0.00142126, 0.0561189, -0.0123259, -0.00625244, -0.0120354, 0.062264, 0.0271366, 0.470667, -0.540064, 0.336735, -2.08225, -2.16513, -0.130129, 0.470872, -0.542331, 0.335469, -2.08328, -2.17034, -0.115874, -0.00611038, 0.0606929, 0.014968, 0.00799198, 0.00678318, -0.000368818
0.168356, 1.69583, -1.22601, -1.53802, -0.90022, -1.20147, 1.22874, -1.30314, 0.0104291, 0.00412427, 0.00812978, -0.0291679, -0.0301201, 0.000819658, 0.000977745, -0.508049, 59.2883, 28.8294, 6.17248, 1.96399, 3.20956, 0.0559192, -0.00249302, 0.000165826, 0.000890213, 0.00431566, -0.0095135, -0.00145035, 0.0538416, -0.0145903, -0.00432623, -0.0090888, 0.0624241, 0.033863, 0.470661, -0.540003, 0.33675, -2.08222, -2.16512, -0.130134, 0.470883, -0.542319, 0.335476, -2.08325, -2.17039, -0.115838, -0.00617665, 0.0613797, 0.0151275, 0.0101766, 0.0095131, 0.0019767
0.169356, 1.69583, -1.22601, -1.53803, -0.900253, -1.20148, 1.22874, -1.30314, 0.00528445, 0.00332599, 0.00719036, -0.0306894, -0.0228987, 0.000546439, 0.000414471, -0.392998, 59.4351, 29.0555, 6.13678, 1.97681, 3.20956, 0.0623279, -0.00255062, 0.000174466, 0.0009003, 0.00432396, -0.00955706, -0.00146466, 0.055204, -0.0126982, -0.00515462, -0.00665013, 0.0559669, 0.0327268, 0.470655, -0.539942, 0.336766, -2.08219, -2.1651, -0.130138, 0.470888, -0.542312, 0.335472, -2.08323, -2.17041, -0.115791, -0.00624313, 0.0620692, 0.0152874, 0.00823919, 0.00890851, 0.00116288
0.170356, 1.69584, -1.226, -1.53802, -0.900287, -1.2015, 1.22874, -1.30315, 0.00745816, 0.00529609, 0.00428559, -0.031703, -0.01838, 0.00063556, 0.000513673, -0.392998, 59.4708, 29.1269, 6.09711, 2.01343, 3.20224, 0.0559192, -0.0026019, 0.000189636, 0.000899997, 0.00432085, -0.00961266, -0.001495, 0.0541797, -0.0141642, -0.00532615, -0.00749907, 0.0549911, 0.03581, 0.470649, -0.53988, 0.336781, -2.08216, -2.16509, -0.130143, 0.470898, -0.5423, 0.335479, -2.08319, -2.17046, -0.115745, -0.00630981, 0.0627614, 0.0154478, 0.00959342, 0.0106997, 0.00126712
0.171356, 1.69584, -1.22599, -1.53801, -0.900322, -1.20151, 1.22874, -1.30314, 0.00812691, 0.0074631, 0.00280088, -0.0317021, -0.0133344, 0.000661066, 0.000817167, -0.357292, 59.6176, 29.1666, 6.02173, 2.00702, 3.19583, 0.0431018, -0.00265459, 0.00020338, 0.000903931, 0.00431306, -0.00965234, -0.00151824, 0.0537018, -0.014852, -0.00466685, -0.00618898, 0.053513, 0.037166, 0.470642, -0.539817, 0.336796, -2.08213, -2.16508, -0.130147, 0.470908, -0.542288, 0.335482, -2.08316, -2.1705, -0.115721, -0.00637669, 0.0634563, 0.0156086, 0.0102209, 0.0117929, 0.00213058
0.172356, 1.69583, -1.22598, -1.538, -0.900358, -1.20152, 1.22875, -1.30314, 0.00454681, 0.01147, -7.7323e-05, -0.0317786, -0.0105566, 0.00044071, 0.00152812, -0.281914, 59.6573, 29.2777, 5.95032, 2.02533, 3.19583, 0.0165515, -0.00271085, 0.000213796, 0.00090566, 0.00430577, -0.00969971, -0.00153447, 0.0556342, -0.0125939, -0.003219, -0.00659436, 0.0555657, 0.032518, 0.470636, -0.539753, 0.336812, -2.0821, -2.16506, -0.130152, 0.470914, -0.54228, 0.335487, -2.08314, -2.17053, -0.115687, -0.00644377, 0.0641539, 0.0157699, 0.0080227, 0.0102652, 0.00348719
0.173356, 1.69583, -1.22598, -1.53799, -0.900399, -1.20153, 1.22874, -1.30314, 0.00193706, 0.00970743, 0.00360184, -0.0336942, -0.00845749, 0.000293807, -0.000439314, -0.206535, 59.7644, 29.2777, 5.95032, 2.04364, 3.19583, 0.0559192, -0.00276522, 0.000225155, 0.000907585, 0.00429953, -0.0097435, -0.00156529, 0.0559159, -0.0124892, -0.00314876, -0.00303836, 0.0522269, 0.0361483, 0.470629, -0.539689, 0.336828, -2.08207, -2.16505, -0.130156, 0.47092, -0.542268, 0.335492, -2.0831, -2.17057, -0.115657, -0.00651106, 0.0648541, 0.0159315, 0.00786383, 0.0106726, 0.00367569
0.174356, 1.69583, -1.22597, -1.53799, -0.900445, -1.20153, 1.22874, -1.30315, 0.000865166, 0.00826132, 0.000434162, -0.0412968, -0.00643189, 0.000738406, -0.00127622, -0.166862, 59.8755, 29.3888, 5.95032, 2.05005, 3.18118, 0.0824695, -0.00281862, 0.00023871, 0.000912695, 0.00429639, -0.00978455, -0.00159932, 0.0553079, -0.013412, -0.00612833, -0.00788345, 0.0505855, 0.0418447, 0.470623, -0.539624, 0.336844, -2.08204, -2.16503, -0.130161, 0.470929, -0.542255, 0.335494, -2.08306, -2.17062, -0.115628, -0.00657853, 0.0655569, 0.0160936, 0.00858514, 0.012477, 0.000961224
0.175356, 1.69582, -1.22596, -1.53797, -0.900492, -1.20153, 1.22874, -1.30315, -0.0008101, 0.00815758, 0.0039485, -0.0436689, -0.00494244, -0.000287623, -0.00132553, -0.0914839, 59.9509, 29.3888, 5.95032, 2.05646, 3.20224, 0.0952869, -0.00287231, 0.000251494, 0.000914633, 0.00428536, -0.00982433, -0.00163278, 0.054949, -0.0136438, -0.00532856, -0.00572232, 0.0490557, 0.0445589, 0.470616, -0.539559, 0.33686, -2.082, -2.16502, -0.130166, 0.470937, -0.542241, 0.335499, -2.08302, -2.17067, -0.115608, -0.0066462, 0.0662624, 0.0162561, 0.00876604, 0.0134226, 0.00196051
0.176356, 1.69582, -1.22596, -1.53797, -0.900539, -1.20153, 1.22874, -1.30314, -0.00341334, 0.00648421, 0.00382871, -0.0445645, -0.00360783, 4.56103e-05, 0.000337016, -0.0914839, 60.0977, 29.4999, 5.91064, 2.05646, 3.19583, 0.0623279, -0.00292484, 0.0002669, 0.00092322, 0.00428202, -0.00985475, -0.00166547, 0.056525, -0.0126478, -0.00636289, -0.00491962, 0.0468407, 0.041597, 0.47061, -0.539493, 0.336876, -2.08197, -2.165, -0.13017, 0.470947, -0.542225, 0.335498, -2.08297, -2.17071, -0.115589, -0.00671407, 0.0669704, 0.016419, 0.00772207, 0.0126951, 0.000884789
0.177356, 1.69581, -1.22595, -1.53796, -0.900588, -1.20153, 1.22874, -1.30314, -0.00409005, 0.0108769, 0.00550874, -0.0452601, -0.00308068, 0.000572942, 0.000462036, -0.0161054, 60.1334, 29.5395, 5.87494, 2.06836, 3.18118, 0.0559192, -0.00297954, 0.000279878, 0.000924523, 0.00427051, -0.00989614, -0.00169734, 0.0565262, -0.0128346, -0.00324559, -0.00242865, 0.0513507, 0.0423698, 0.470603, -0.539426, 0.336892, -2.08194, -2.16499, -0.130175, 0.470956, -0.542211, 0.335504, -2.08293, -2.17075, -0.115568, -0.00678212, 0.0676811, 0.0165822, 0.00795722, 0.0129284, 0.00411753
0.178356, 1.69581, -1.22594, -1.53794, -0.900635, -1.20153, 1.22874, -1.30315, -0.00276515, 0.00688912, 0.00763714, -0.0472709, -0.00270449, 0.000110694, -0.000912679, -0.0161054, 60.2087, 29.5395, 5.76385, 2.08118, 3.18851, 0.0888782, -0.00303233, 0.000295611, 0.000925311, 0.00425819, -0.00993676, -0.00173902, 0.0558876, -0.0144769, -0.00527789, -0.00213094, 0.0473044, 0.048101, 0.470596, -0.539358, 0.336909, -2.0819, -2.16497, -0.13018, 0.470966, -0.542195, 0.335511, -2.08288, -2.17081, -0.115549, -0.00685036, 0.0683942, 0.0167459, 0.00943034, 0.0146564, 0.00232203
0.179356, 1.6958, -1.22593, -1.53794, -0.900694, -1.20153, 1.22874, -1.30315, -0.00447072, 0.00620314, 0.00568391, -0.0523834, -0.00169762, -0.000197472, -0.00179525, 0.0949785, 60.3198, 29.6863, 5.79956, 2.07477, 3.19583, 0.120922, -0.00308872, 0.00030774, 0.000935278, 0.00426019, -0.00997168, -0.00177787, 0.0561101, -0.0144334, -0.00706637, -0.00569717, 0.0465617, 0.0512556, 0.470589, -0.53929, 0.336926, -2.08187, -2.16495, -0.130185, 0.470973, -0.54218, 0.335509, -2.08282, -2.17085, -0.115521, -0.00691878, 0.06911, 0.01691, 0.0092599, 0.0154294, 0.000685282
0.180356, 1.69578, -1.22593, -1.53791, -0.900743, -1.20153, 1.22874, -1.30315, -0.00652858, 0.00574257, 0.0125319, -0.0547476, -0.000993383, -0.000131648, -1.00369e-05, 0.245735, 60.4309, 29.611, 5.6488, 2.06836, 3.19583, 0.0888782, -0.00314618, 0.00031948, 0.000936219, 0.00423889, -0.0100061, -0.00180991, 0.055541, -0.0151527, -0.00517832, 1.17252e-05, 0.0456398, 0.0530982, 0.470582, -0.53922, 0.336943, -2.08184, -2.16494, -0.13019, 0.47098, -0.542167, 0.335515, -2.08278, -2.1709, -0.115518, -0.00698738, 0.0698282, 0.0170744, 0.0099599, 0.0164462, 0.00277839
0.181356, 1.69578, -1.22592, -1.5379, -0.900803, -1.20152, 1.22874, -1.30315, -0.00529663, 0.00720127, 0.0109428, -0.0564026, -0.000499141, 0.00045477, -0.00024405, 0.285408, 60.4666, 29.6863, 5.6131, 2.06195, 3.18118, 0.0952869, -0.00319905, 0.000336644, 0.00093983, 0.00423041, -0.0100465, -0.00185687, 0.0553963, -0.0161134, -0.00517196, -0.00131798, 0.0476572, 0.0554398, 0.470575, -0.539151, 0.33696, -2.0818, -2.16492, -0.130195, 0.470992, -0.542148, 0.33552, -2.08272, -2.17096, -0.115496, -0.00705617, 0.0705489, 0.0172392, 0.0108457, 0.0173493, 0.00294022
0.182356, 1.69577, -1.22592, -1.53789, -0.900866, -1.20152, 1.22874, -1.30315, -0.00530649, 0.00875716, 0.00985489, -0.0575916, -0.000625803, -0.000239355, -0.000400059, 0.360787, 60.6134, 29.7617, 5.57739, 2.06836, 3.19583, 0.101696, -0.00325399, 0.000352685, 0.000950419, 0.00422671, -0.0100769, -0.00190003, 0.0558222, -0.0160547, -0.00491227, -0.00319134, 0.0495325, 0.056091, 0.470568, -0.53908, 0.336977, -2.08177, -2.16491, -0.1302, 0.471003, -0.542129, 0.335517, -2.08266, -2.17101, -0.115479, -0.00712513, 0.0712721, 0.0174044, 0.0107435, 0.0176099, 0.00329489
0.183356, 1.69576, -1.2259, -1.53788, -0.900927, -1.20153, 1.22874, -1.30315, -0.00531002, 0.0119239, 0.0131073, -0.05659, -0.000933682, 0.000111697, 0.000445371, 0.436165, 60.538, 29.7974, 5.46234, 2.08118, 3.18851, 0.0824695, -0.00330982, 0.000367218, 0.000949132, 0.00421725, -0.0101279, -0.00193773, 0.0559768, -0.0164121, -0.00177487, 0.000737915, 0.0531944, 0.0558185, 0.470561, -0.539009, 0.336994, -2.08173, -2.16489, -0.130205, 0.471012, -0.542112, 0.335527, -2.08261, -2.17107, -0.115447, -0.00719427, 0.0719978, 0.0175699, 0.0111547, 0.0177104, 0.00652001
0.184356, 1.69575, -1.2259, -1.53786, -0.900994, -1.20153, 1.22874, -1.30315, -0.00937887, 0.00957375, 0.014526, -0.0617442, -0.000653777, 7.44649e-05, -0.0102543, 0.551216, 60.6491, 29.8728, 5.46234, 2.08118, 3.18851, 0.114513, -0.00336719, 0.000381416, 0.00095753, 0.00421267, -0.0101642, -0.00198442, 0.0568773, -0.0156435, -0.00320568, 0.00017204, 0.0512153, 0.0678996, 0.470554, -0.538937, 0.337012, -2.0817, -2.16487, -0.13021, 0.471021, -0.542095, 0.335526, -2.08255, -2.17112, -0.115425, -0.00726359, 0.0727259, 0.0177358, 0.0102971, 0.0177409, 0.00515436
