alisrour97/Franka_experiments/Real_Robot_scripts/servo-franka/Data3/log_dyn_INIT0_l_ki_10.csv
Time,q1,q2,q3,q4,q5,q6,q7,dq1,dq2,dq3,dq4,dq5,dq6,dq7,t1,t2,t3,t4,t5,t6,t7,ex1,ex2,ex3,ex4,ex5,ex6,ev1,ev2,ev3,ev4,ev5,ev6,xd,yd,zd,uxd,uyd,uzd,x,y,z,ux,uy,uz,vxd,vyd,vzd,vx,vy,vz
2.44141e-07, 1.69134, -1.22783, -1.54021, -0.900538, -1.19185, 1.22831, -1.3027, 0.00223404, 0.00130267, 0.00472771, 0.00617178, 0.000864701, 0.00134804, 0.00166237, -0.694511, 64.1483, 32.4793, 7.66418, 2.11139, 3.3533, -0.0557752, 0.00041868, -0.00186622, 0.00227729, 0.00275946, 0.00168011, 0.000552504, -0.000289995, -0.00103244, 0.00329811, 0.00840064, 0.000490957, -0.0023223, 0.471008, -0.543389, 0.335894, -2.08385, -2.16584, -0.129887, 0.469046, -0.542701, 0.33376, -2.0821, -2.16322, -0.12845, -4.82042e-07, 4.44613e-06, 1.21621e-06, 0.00113931, -0.000174658, 0.00327175
0.0120498, 1.69136, -1.2278, -1.54015, -0.900504, -1.19184, 1.22831, -1.3027, 0.0055862, 0.0038718, 0.00490365, 0.00300211, 0.00104918, 0.000386526, -0.00082131, -0.809562, 63.9261, 32.2928, 7.5531, 2.06836, 3.33133, -0.0356336, 0.000434219, -0.00184865, 0.00223588, 0.00268603, 0.00165782, 0.000530876, -0.00312044, -0.00345125, 0.00416883, 0.00599398, 0.00279433, 0.00634568, 0.471008, -0.543389, 0.335894, -2.08385, -2.16584, -0.129887, 0.469066, -0.542692, 0.333809, -2.08213, -2.1633, -0.128533, -1.47349e-06, 1.36697e-05, 3.70923e-06, 0.00348422, 0.00259382, 0.0045004
0.0130498, 1.69136, -1.2278, -1.54015, -0.900504, -1.19184, 1.22831, -1.3027, 0.0055862, 0.0038718, 0.00490365, 0.00300211, 0.00104918, 0.000386526, -0.00082131, -0.809562, 63.9261, 32.2928, 7.5531, 2.06836, 3.33133, -0.0356336, 0.000434211, -0.00184865, 0.00223588, 0.00268603, 0.00165782, 0.000530877, -0.00310669, -0.00345224, 0.00416738, 0.00599592, 0.00280051, 0.00634683, 0.471008, -0.543389, 0.335894, -2.08385, -2.16584, -0.129887, 0.469066, -0.542692, 0.333809, -2.08213, -2.1633, -0.128533, -2.9032e-06, 2.69793e-05, 7.30333e-06, 0.00348422, 0.00259382, 0.0045004
0.0140498, 1.69136, -1.2278, -1.54015, -0.900504, -1.19184, 1.22831, -1.3027, 0.0055862, 0.0038718, 0.00490365, 0.00300211, 0.00104918, 0.000386526, -0.00082131, -0.809562, 63.9261, 32.2928, 7.5531, 2.06836, 3.33133, -0.0356336, 0.000434191, -0.00184865, 0.00223589, 0.00268602, 0.00165781, 0.000530879, -0.00308807, -0.00345358, 0.00416543, 0.00599856, 0.00280888, 0.00634837, 0.471008, -0.543389, 0.335894, -2.08385, -2.16584, -0.129887, 0.469066, -0.542692, 0.333809, -2.08213, -2.1633, -0.128533, -4.83863e-06, 4.50071e-05, 1.21677e-05, 0.00348422, 0.00259382, 0.0045004
0.0150498, 1.69136, -1.2278, -1.54015, -0.900504, -1.19184, 1.22831, -1.3027, 0.0055862, 0.0038718, 0.00490365, 0.00300211, 0.00104918, 0.000386526, -0.00082131, -0.809562, 63.9261, 32.2928, 7.5531, 2.06836, 3.33133, -0.0356336, 0.000434152, -0.00184865, 0.00223589, 0.00268601, 0.0016578, 0.000530884, -0.00306398, -0.00345532, 0.0041629, 0.00600198, 0.00281971, 0.00635037, 0.471008, -0.543389, 0.335894, -2.08385, -2.16584, -0.129887, 0.469066, -0.542692, 0.333809, -2.08213, -2.1633, -0.128533, -7.34058e-06, 6.83239e-05, 1.84546e-05, 0.00348422, 0.00259382, 0.0045004
0.0160498, 1.69136, -1.2278, -1.54015, -0.900504, -1.19184, 1.22831, -1.3027, 0.0055862, 0.0038718, 0.00490365, 0.00300211, 0.00104918, 0.000386526, -0.00082131, -0.809562, 63.9261, 32.2928, 7.5531, 2.06836, 3.33133, -0.0356336, 0.000434087, -0.00184864, 0.0022359, 0.002686, 0.00165778, 0.000530891, -0.00303393, -0.00345748, 0.00415975, 0.00600627, 0.00283324, 0.00635286, 0.471008, -0.543389, 0.335894, -2.08385, -2.16584, -0.129887, 0.469066, -0.542692, 0.333809, -2.08213, -2.1633, -0.128533, -1.04607e-05, 9.7416e-05, 2.62933e-05, 0.00348422, 0.00259382, 0.0045004
0.0170498, 1.69136, -1.2278, -1.54015, -0.900504, -1.19184, 1.22831, -1.3027, 0.0055862, 0.0038718, 0.00490365, 0.00300211, 0.00104918, 0.000386526, -0.00082131, -0.809562, 63.9261, 32.2928, 7.5531, 2.06836, 3.33133, -0.0356336, 0.000433991, -0.00184863, 0.00223591, 0.00268597, 0.00165774, 0.000530903, -0.00299753, -0.0034601, 0.00415594, 0.00601147, 0.00284964, 0.00635589, 0.471008, -0.543389, 0.335894, -2.08385, -2.16584, -0.129887, 0.469066, -0.542692, 0.333809, -2.08213, -2.1633, -0.128533, -1.42391e-05, 0.000132663, 3.57838e-05, 0.00348422, 0.00259382, 0.0045004
0.0180498, 1.69136, -1.2278, -1.54015, -0.900504, -1.19184, 1.22831, -1.3027, 0.0055862, 0.0038718, 0.00490365, 0.00300211, 0.00104918, 0.000386526, -0.00082131, -0.809562, 63.9261, 32.2928, 7.5531, 2.06836, 3.33133, -0.0356336, 0.000433856, -0.00184862, 0.00223592, 0.00268593, 0.0016577, 0.000530919, -0.00295451, -0.00346319, 0.00415144, 0.00601764, 0.00286903, 0.00635946, 0.471008, -0.543389, 0.335894, -2.08385, -2.16584, -0.129887, 0.469066, -0.542692, 0.333809, -2.08213, -2.1633, -0.128533, -1.87016e-05, 0.000174312, 4.69907e-05, 0.00348422, 0.00259382, 0.0045004
0.0190498, 1.69136, -1.2278, -1.54015, -0.900504, -1.19184, 1.22831, -1.3027, 0.0055862, 0.0038718, 0.00490365, 0.00300211, 0.00104918, 0.000386526, -0.00082131, -0.809562, 63.9261, 32.2928, 7.5531, 2.06836, 3.33133, -0.0356336, 0.000433678, -0.00184861, 0.00223594, 0.00268589, 0.00165764, 0.00053094, -0.00290479, -0.00346676, 0.00414626, 0.00602479, 0.00289146, 0.00636359, 0.471008, -0.543389, 0.335894, -2.08385, -2.16584, -0.129887, 0.469066, -0.542692, 0.333809, -2.08213, -2.1633, -0.128533, -2.38577e-05, 0.00022246, 5.99368e-05, 0.00348422, 0.00259382, 0.0045004
0.0200498, 1.69136, -1.22777, -1.54008, -0.900507, -1.19183, 1.22832, -1.3027, -0.00094955, 0.00362416, 0.00656927, -0.000706795, 0.000700658, -0.000424798, -0.00255819, -0.734184, 63.6325, 32.1818, 7.59277, 2.05005, 3.33865, -0.00999879, 0.000452466, -0.00183374, 0.00219512, 0.00261548, 0.0016373, 0.000484353, -0.00138722, -0.00074145, 0.00434382, 0.00585972, 0.0025614, 0.00558955, 0.471008, -0.543389, 0.335894, -2.08385, -2.16584, -0.129887, 0.469081, -0.542679, 0.333852, -2.08213, -2.16339, -0.128595, -2.96979e-05, 0.000277024, 7.45974e-05, 0.000817986, 0.00100829, 0.00455674
0.0210498, 1.69137, -1.22778, -1.54007, -0.900501, -1.19183, 1.22832, -1.3027, 0.000226689, 0.000773825, 0.0069532, 0.00130625, 0.000907864, -0.000283205, 0.000464681, -0.76989, 63.7079, 32.2175, 7.51739, 2.03815, 3.33865, -0.0685925, 0.000454437, -0.00183136, 0.00219622, 0.00261018, 0.00164823, 0.000486909, -0.00108976, -0.00112509, 0.0030286, 0.00695669, -0.000508652, 0.00227732, 0.471008, -0.543388, 0.335894, -2.08385, -2.16584, -0.129887, 0.469083, -0.542677, 0.333851, -2.08213, -2.16338, -0.128612, -3.61913e-05, 0.000337726, 9.08941e-05, 0.0011578, 0.000993454, 0.00321664
0.0220498, 1.69137, -1.22777, -1.54006, -0.900503, -1.19183, 1.22832, -1.30269, -0.000665713, -0.00195964, 0.00400457, -0.00446281, 0.00152073, 0.000353726, 0.00102186, -0.734184, 63.4103, 31.9953, 7.47772, 2.01343, 3.324, -0.0878186, 0.000455814, -0.00182962, 0.00219034, 0.00259819, 0.00164342, 0.000484812, -0.00152349, -0.00163098, -0.00032811, 0.00239696, -0.00272379, 0.00473382, 0.471008, -0.543388, 0.335894, -2.08385, -2.16584, -0.129887, 0.469085, -0.542676, 0.333857, -2.08214, -2.16339, -0.128621, -4.33151e-05, 0.00040436, 0.000108769, 0.00151924, 0.00202563, -2.79228e-05
0.0230498, 1.69138, -1.22777, -1.54006, -0.900502, -1.19182, 1.22832, -1.3027, 0.00545243, -0.000979398, 0.00195778, -0.00319454, 0.000224563, 0.000235814, -0.000505552, -0.845268, 62.8232, 31.6224, 7.33093, 1.90906, 3.324, -0.0557752, 0.000462631, -0.00182262, 0.00218762, 0.00259876, 0.00164225, 0.000470769, -0.00320921, -0.00423977, -0.000642041, -0.000357453, -0.000498195, 0.00976128, 0.471008, -0.543388, 0.335894, -2.08385, -2.16584, -0.129887, 0.469092, -0.542669, 0.333861, -2.08212, -2.16341, -0.12862, -5.10658e-05, 0.000476901, 0.000128212, 0.00404531, 0.00391741, -0.000135457
0.0240498, 1.69138, -1.22775, -1.54008, -0.900508, -1.19182, 1.22832, -1.3027, 0.00709317, 0.00196308, -0.00259527, -0.00318552, -0.00199502, 0.000394565, -0.00349052, -0.845268, 61.9742, 31.2137, 7.21588, 1.82941, 3.31759, 0.0293689, 0.000464382, -0.00182154, 0.0021848, 0.0026112, 0.00162713, 0.000462694, -0.00272643, -0.00408621, -0.000607516, -0.00522733, 0.00470642, 0.0113786, 0.471008, -0.543387, 0.335894, -2.08385, -2.16584, -0.129887, 0.469093, -0.542667, 0.333864, -2.08212, -2.16342, -0.128592, -5.94401e-05, 0.000555325, 0.000149214, 0.00390207, 0.00350762, -0.000150661
0.0250498, 1.69139, -1.22776, -1.54009, -0.900516, -1.19182, 1.22832, -1.3027, 0.00613432, 0.00284901, -0.00644409, -0.00343839, 0.000733393, -0.000788119, -0.00232701, -0.884941, 61.2759, 30.8051, 7.1048, 1.75525, 3.34598, 0.0293689, 0.00046564, -0.00181772, 0.00219426, 0.00262909, 0.00162762, 0.000457807, -0.00223539, -0.0030062, -0.00154875, -0.00823318, 0.00304978, 0.00854208, 0.471008, -0.543387, 0.335895, -2.08385, -2.16584, -0.129887, 0.469097, -0.542664, 0.333855, -2.0821, -2.16342, -0.128573, -6.84344e-05, 0.000639605, 0.000171766, 0.00279805, 0.00320782, -0.00110117
0.0260498, 1.6914, -1.22777, -1.54011, -0.900524, -1.19182, 1.22832, -1.30269, 0.00825172, -0.00597084, -0.00443714, -0.00353946, -0.00244672, -0.000796682, -9.32792e-05, -0.920646, 60.6848, 30.3211, 6.99371, 1.69391, 3.3533, -0.00999879, 0.000466147, -0.00181463, 0.00220945, 0.00265332, 0.00163674, 0.000456367, -0.0020783, -0.00437665, -0.00615488, -0.00907165, -0.00314587, 0.00856064, 0.471008, -0.543386, 0.335895, -2.08384, -2.16584, -0.129887, 0.469099, -0.54266, 0.33384, -2.08208, -2.1634, -0.128556, -7.80454e-05, 0.000729718, 0.000195859, 0.00399647, 0.00390788, -0.00569095
0.0270498, 1.69141, -1.22779, -1.54014, -0.900532, -1.19183, 1.22832, -1.30269, 0.00601715, -0.0108123, -0.0134608, -0.00379269, -0.00128771, 0.00028268, -0.000333454, -0.920646, 60.2802, 29.9839, 6.88263, 1.66369, 3.33133, -0.00267457, 0.000462451, -0.00181232, 0.00223258, 0.00268279, 0.00164798, 0.000455308, 0.00114534, -0.002008, -0.012033, -0.0156451, -0.00780794, 0.00296288, 0.471008, -0.543385, 0.335895, -2.08384, -2.16584, -0.129887, 0.469101, -0.542659, 0.333817, -2.08206, -2.16339, -0.128535, -8.82697e-05, 0.000825639, 0.000221482, 0.00152374, 0.00162915, -0.0118984
0.0280498, 1.69142, -1.22781, -1.54017, -0.900539, -1.19183, 1.22834, -1.3027, 0.00672621, -0.0169213, -0.0160521, -0.00620092, -0.00232176, 0.004427, -0.00164646, -0.884941, 59.9866, 29.611, 6.73187, 1.6875, 3.21689, 0.0357776, 0.000456807, -0.00180706, 0.00225819, 0.00270513, 0.00165496, 0.000450372, 0.0019651, -0.00324503, -0.0165618, -0.0165403, -0.010553, 0.00561536, 0.471008, -0.543384, 0.335895, -2.08384, -2.16584, -0.129887, 0.469105, -0.54266, 0.333791, -2.08204, -2.16338, -0.128518, -9.91039e-05, 0.000927342, 0.000248628, 0.00261416, 0.00166923, -0.0165077
0.0290498, 1.69142, -1.22783, -1.54021, -0.900551, -1.19184, 1.22836, -1.3027, 0.00454778, -0.017703, -0.021563, -0.00450862, -0.00198408, 0.00691862, -0.000622919, -0.734184, 59.693, 29.2777, 6.69617, 1.6875, 3.10977, 0.0229602, 0.00044815, -0.0018059, 0.00228095, 0.00272866, 0.00165299, 0.000454418, 0.0049543, -0.00118751, -0.0184199, -0.0179424, -0.010185, -0.00155347, 0.471007, -0.543383, 0.335895, -2.08384, -2.16584, -0.129887, 0.469106, -0.542664, 0.333767, -2.08203, -2.16337, -0.128489, -0.000110545, 0.0010348, 0.000277287, 0.000587668, -0.00097252, -0.0187157
0.0300498, 1.69143, -1.22786, -1.54024, -0.900562, -1.19185, 1.22838, -1.3027, 0.00646758, -0.0224825, -0.0278601, -0.00923044, -0.0060311, 0.00674864, 0.000805423, -0.583427, 59.5819, 29.0159, 6.65649, 1.6756, 3.05209, -0.00999879, 0.00043954, -0.00180474, 0.00231002, 0.0027574, 0.00166409, 0.000462323, 0.00535403, -0.00181292, -0.0242448, -0.0284099, -0.0107853, -0.00123307, 0.471007, -0.543382, 0.335896, -2.08384, -2.16584, -0.129887, 0.469106, -0.542667, 0.333737, -2.08202, -2.16334, -0.128468, -0.000122588, 0.001148, 0.000307449, 0.00100425, -0.000331803, -0.024518
0.0310498, 1.69144, -1.22787, -1.54028, -0.900567, -1.19185, 1.22839, -1.30269, 0.00756626, -0.0214963, -0.0283238, -0.00994968, -0.00375243, 0.0109034, 0.000774308, -0.543754, 59.4351, 28.7183, 6.5097, 1.65088, 3.00906, -0.0164075, 0.000434204, -0.00180005, 0.00233288, 0.00278269, 0.00166723, 0.000466867, 0.00476216, -0.00351606, -0.0236374, -0.024555, -0.00943055, 0.0010437, 0.471007, -0.543381, 0.335896, -2.08384, -2.16584, -0.129887, 0.46911, -0.542667, 0.333714, -2.08201, -2.16332, -0.128443, -0.000135232, 0.0012669, 0.000339106, 0.00269331, 0.000347609, -0.023846
0.0320498, 1.69145, -1.22789, -1.54031, -0.900575, -1.19186, 1.22841, -1.30269, 0.0105393, -0.0195018, -0.0311539, -0.0122179, -0.00230887, 0.0129019, 0.000753564, -0.468376, 59.2487, 28.5319, 6.43433, 1.63257, 2.99441, -0.0228162, 0.000429637, -0.00179455, 0.00235312, 0.00280821, 0.00166268, 0.000467788, 0.00322318, -0.00569201, -0.0237792, -0.0259756, -0.00710543, 0.00508171, 0.471007, -0.54338, 0.335896, -2.08384, -2.16584, -0.129887, 0.469115, -0.542667, 0.333694, -2.08199, -2.16331, -0.12841, -0.000148472, 0.00139149, 0.000372248, 0.00479304, 0.00210238, -0.0237796
0.0330498, 1.69147, -1.2279, -1.54035, -0.900578, -1.19186, 1.22842, -1.3027, 0.0119542, -0.0174545, -0.0329891, -0.00616658, -0.00030961, 0.013953, 0.00305714, -0.357292, 59.1772, 28.3454, 6.28357, 1.58954, 2.99441, 0.0357776, 0.000423501, -0.00178965, 0.00237339, 0.00282929, 0.00166098, 0.000467848, 0.00442859, -0.00520143, -0.0223837, -0.0228917, -0.00648096, -0.00136446, 0.471007, -0.543379, 0.335897, -2.08384, -2.16584, -0.129888, 0.469119, -0.542668, 0.333673, -2.08198, -2.16331, -0.128385, -0.000162305, 0.00152173, 0.000406866, 0.00438274, 0.00080775, -0.0225394
0.0340498, 1.69148, -1.22789, -1.54038, -0.900586, -1.19186, 1.22844, -1.3027, 0.0130149, -0.0119771, -0.032245, -0.0104686, 0.0013516, 0.0150177, 0.00216057, -0.242241, 58.9551, 28.1986, 6.24786, 1.5401, 2.99441, 0.0431018, 0.000420969, -0.00178377, 0.00238262, 0.0028474, 0.00164238, 0.000466083, 0.00194041, -0.0071813, -0.0194756, -0.0222706, -0.00143583, 0.0051692, 0.471007, -0.543377, 0.335897, -2.08384, -2.16584, -0.129888, 0.469124, -0.542668, 0.333664, -2.08198, -2.16331, -0.128346, -0.000176727, 0.00165761, 0.000442951, 0.00636163, 0.00303345, -0.0193052
0.0350498, 1.69149, -1.2279, -1.54043, -0.900596, -1.19186, 1.22847, -1.30269, 0.0140566, -0.0109314, -0.0348153, -0.00835236, 0.00249343, 0.0168298, 0.00295639, -0.131157, 58.9908, 28.1986, 6.24786, 1.49158, 2.96603, 0.0101428, 0.000418424, -0.00177408, 0.00240024, 0.00286968, 0.00162919, 0.0004609, 0.00265105, -0.00729096, -0.0193905, -0.0214594, -0.000350002, 0.00268763, 0.471007, -0.543375, 0.335898, -2.08384, -2.16584, -0.129888, 0.469133, -0.542666, 0.333646, -2.08197, -2.16332, -0.128309, -0.000191736, 0.0017991, 0.000480493, 0.00648461, 0.00246477, -0.0192972
0.0360498, 1.69151, -1.22789, -1.54046, -0.900608, -1.19186, 1.22849, -1.30269, 0.0130191, -0.00887124, -0.0321229, -0.0065982, 0.00310239, 0.0171217, 0.00341311, 0.059273, 58.9908, 28.1589, 6.24786, 1.44855, 2.96603, -0.0228162, 0.000416821, -0.00176603, 0.00241072, 0.00288507, 0.00161194, 0.000457153, 0.00294261, -0.00688846, -0.0169169, -0.0173771, 0.00106004, 0.00114304, 0.471006, -0.543374, 0.335898, -2.08384, -2.16584, -0.129888, 0.469141, -0.542663, 0.333636, -2.08197, -2.16332, -0.128275, -0.000207328, 0.00194618, 0.000519485, 0.00616675, 0.00192681, -0.0168489
0.0370498, 1.69152, -1.22788, -1.54049, -0.900621, -1.19186, 1.22852, -1.3027, 0.0105046, -0.00626665, -0.0309586, -0.00896662, 0.00263124, 0.0163418, 0.000508735, 0.325081, 58.9551, 28.1589, 6.28357, 1.43024, 2.99441, 0.0293689, 0.00041417, -0.00175955, 0.00241636, 0.00289895, 0.00158446, 0.000447094, 0.00304146, -0.00597972, -0.0152541, -0.0177452, 0.00377385, 0.00400605, 0.471006, -0.543372, 0.335899, -2.08384, -2.16584, -0.129888, 0.469147, -0.542663, 0.33363, -2.08196, -2.16335, -0.128233, -0.0002235, 0.00209882, 0.000559916, 0.00530657, 0.00168875, -0.0151545
0.0380498, 1.69153, -1.22788, -1.54053, -0.900638, -1.19186, 1.22854, -1.30269, 0.00828078, -0.00365506, -0.0332753, -0.0125381, 0.00258329, 0.0142451, 0.000463739, 0.626595, 59.0305, 28.3097, 6.39465, 1.40552, 3.06674, 0.0293689, 0.000410897, -0.00175237, 0.00242938, 0.00291943, 0.00156379, 0.000444661, 0.00316135, -0.00469412, -0.0151196, -0.022722, 0.00584073, 0.00381828, 0.471006, -0.54337, 0.335899, -2.08384, -2.16584, -0.129888, 0.469153, -0.542662, 0.333617, -2.08196, -2.16335, -0.128189, -0.000240248, 0.00225699, 0.000601779, 0.00401502, 0.00165529, -0.0149597
0.0390498, 1.69154, -1.22787, -1.54056, -0.900655, -1.19186, 1.22857, -1.30269, 0.00985147, 0.000331643, -0.0330499, -0.0140404, 0.00142004, 0.0219156, 0.000639955, 0.928108, 59.0305, 28.3851, 6.47003, 1.41192, 3.1528, 0.0229602, 0.00040932, -0.00174352, 0.00243605, 0.00293258, 0.00153516, 0.000437524, 0.00280018, -0.0071636, -0.0123356, -0.0170006, 0.0148031, 0.00616838, 0.471006, -0.543367, 0.3359, -2.08384, -2.16584, -0.129888, 0.469162, -0.54266, 0.33361, -2.08196, -2.16337, -0.128147, -0.000257569, 0.00242068, 0.000645063, 0.00655157, 0.00184807, -0.0121859
0.0400498, 1.69154, -1.22786, -1.54059, -0.900671, -1.19186, 1.2286, -1.30269, 0.011327, 0.00569359, -0.0310519, -0.0143712, 0.000898098, 0.0292053, 0.00171742, 1.22962, 59.0662, 28.5319, 6.5097, 1.41192, 3.20224, -0.00999879, 0.00040634, -0.00173469, 0.00244129, 0.00293777, 0.00150549, 0.00043149, 0.00217166, -0.00960987, -0.00798103, -0.00907436, 0.0242071, 0.00753887, 0.471005, -0.543365, 0.3359, -2.08384, -2.16584, -0.129889, 0.46917, -0.542659, 0.333605, -2.08196, -2.16339, -0.128112, -0.00027546, 0.00258986, 0.000689759, 0.00911152, 0.00206755, -0.00781756
0.0410498, 1.69155, -1.22786, -1.54062, -0.900686, -1.19187, 1.22864, -1.30269, 0.00902029, 0.00476134, -0.0295651, -0.0144469, -0.000556693, 0.0304798, -0.000260559, 1.53114, 59.1772, 28.6826, 6.54541, 1.44214, 3.23886, 0.0293689, 0.000400677, -0.00172597, 0.00244874, 0.00294188, 0.00147262, 0.000425262, 0.00355167, -0.00869374, -0.00779748, -0.00706967, 0.0250179, 0.00756815, 0.471005, -0.543362, 0.335901, -2.08383, -2.16584, -0.129889, 0.469179, -0.54266, 0.333597, -2.08197, -2.16341, -0.128075, -0.000293917, 0.0027645, 0.00073586, 0.00823408, 0.000814076, -0.00777679
0.0420498, 1.69156, -1.22784, -1.54065, -0.900693, -1.19187, 1.22868, -1.3027, 0.00709375, 0.0093698, -0.0299866, -0.0120023, -0.00131399, 0.0359014, -0.000880272, 1.72157, 59.213, 28.9048, 6.47003, 1.46686, 3.28097, 0.0495105, 0.000395762, -0.00171653, 0.00245093, 0.00293946, 0.00143706, 0.000421566, 0.00569178, -0.00782987, -0.00434289, -0.0012032, 0.0327507, 0.00362019, 0.471005, -0.54336, 0.335902, -2.08383, -2.16584, -0.129889, 0.469188, -0.542662, 0.333595, -2.08198, -2.16344, -0.128042, -0.000312938, 0.00294458, 0.000783355, 0.00755355, -0.00168572, -0.00462429
0.0430498, 1.69157, -1.22784, -1.54068, -0.900703, -1.19187, 1.22872, -1.3027, 0.00686845, 0.0112399, -0.03099, -0.0112734, -0.00201547, 0.035982, -0.000319925, 1.98341, 59.4351, 29.1666, 6.43433, 1.49707, 3.30295, 0.0431018, 0.000387521, -0.00170776, 0.00245982, 0.00293391, 0.00140924, 0.000422354, 0.00638117, -0.00727864, -0.00349857, -0.00177055, 0.0353115, 0.00146437, 0.471005, -0.543357, 0.335903, -2.08383, -2.16584, -0.129889, 0.469196, -0.542665, 0.333585, -2.082, -2.16345, -0.12802, -0.000332518, 0.00313007, 0.000832236, 0.00703859, -0.00233332, -0.00383211
0.0440498, 1.69159, -1.22784, -1.54071, -0.900711, -1.19188, 1.22876, -1.30269, 0.0101949, 0.00791858, -0.0265586, -0.00893636, -0.00342744, 0.0384866, 0.00201294, 2.09846, 59.6176, 29.3531, 6.32324, 1.55292, 3.37436, -0.0164075, 0.000382575, -0.00169481, 0.00246343, 0.00292597, 0.00137179, 0.000422447, 0.00572374, -0.00978009, -0.00352984, 0.0039661, 0.0341096, 0.0021079, 0.471004, -0.543354, 0.335903, -2.08383, -2.16584, -0.129889, 0.469209, -0.542666, 0.333581, -2.08202, -2.16348, -0.127991, -0.000352655, 0.00332096, 0.000882495, 0.00949204, -0.00138622, -0.00378609
0.0450498, 1.6916, -1.22784, -1.54074, -0.900711, -1.19188, 1.22881, -1.30269, 0.0084056, 0.00288143, -0.0288764, -0.00969194, -0.0027373, 0.0400674, 0.00159595, 2.24921, 59.9152, 29.6506, 6.17248, 1.56482, 3.46774, -0.0228162, 0.000373003, -0.00168543, 0.00247309, 0.00291286, 0.00135111, 0.000426341, 0.00747406, -0.00900657, -0.00720479, 0.00316511, 0.0295585, 0.00064826, 0.471004, -0.54335, 0.335904, -2.08383, -2.16584, -0.12989, 0.469218, -0.54267, 0.333571, -2.08204, -2.16349, -0.127984, -0.000373345, 0.00351722, 0.000934121, 0.00862872, -0.0023839, -0.00761155
0.0460498, 1.69161, -1.22785, -1.54076, -0.900708, -1.19188, 1.22885, -1.30269, 0.00796722, -0.00201239, -0.0268343, -0.0065033, -0.00274904, 0.0454261, -0.00136497, 2.3603, 60.2802, 29.7974, 5.98602, 1.58954, 3.57577, 0.0431018, 0.000363414, -0.00167484, 0.00248084, 0.00289337, 0.00132926, 0.000421135, 0.00941398, -0.00949233, -0.00844288, 0.0108103, 0.0270139, 0.00147216, 0.471004, -0.543347, 0.335905, -2.08383, -2.16583, -0.12989, 0.469228, -0.542675, 0.333562, -2.08206, -2.16351, -0.127985, -0.000394586, 0.00371881, 0.000987107, 0.00911728, -0.00388699, -0.00909683
0.0470498, 1.69163, -1.22785, -1.54078, -0.90071, -1.19189, 1.2289, -1.30269, 0.0109109, -0.000726786, -0.0264047, -0.00591125, -0.00251735, 0.046615, -0.000900626, 2.32459, 60.5777, 29.9839, 5.87494, 1.60785, 3.63986, 0.0431018, 0.000358559, -0.00165732, 0.00248742, 0.00287568, 0.00129785, 0.00041109, 0.00836566, -0.0113235, -0.00752472, 0.0122906, 0.0288064, 0.00367441, 0.471003, -0.543343, 0.335906, -2.08382, -2.16583, -0.12989, 0.469245, -0.542674, 0.333556, -2.08207, -2.16355, -0.127974, -0.000416373, 0.00392573, 0.00104144, 0.01092, -0.00271152, -0.0080284
0.0480498, 1.69164, -1.22786, -1.5408, -0.900708, -1.19189, 1.22896, -1.30269, 0.0163701, -0.00353944, -0.0222037, -0.00560548, -0.00303944, 0.0519658, 0.00110202, 2.39997, 60.907, 30.1346, 5.76385, 1.64447, 3.71127, -0.00267457, 0.000347929, -0.00164536, 0.00249302, 0.00284993, 0.00126845, 0.000418456, 0.00630183, -0.0160481, -0.00748666, 0.0194634, 0.0290581, 0.00871123, 0.471003, -0.543339, 0.335907, -2.08382, -2.16583, -0.129891, 0.469257, -0.542679, 0.333549, -2.0821, -2.16357, -0.127972, -0.000438704, 0.00413795, 0.00109712, 0.0155437, -0.000274347, -0.00775725
0.0490498, 1.69165, -1.22786, -1.54082, -0.900712, -1.1919, 1.22901, -1.30268, 0.017177, -0.00468901, -0.022065, -0.00569992, -0.00250466, 0.0517251, 0.00172329, 2.47535, 61.2006, 30.2814, 5.79956, 1.65729, 3.76895, -0.0292249, 0.000339057, -0.00163137, 0.00250021, 0.0028232, 0.00124175, 0.000420508, 0.00608674, -0.016599, -0.0082116, 0.0193933, 0.0274845, 0.00925549, 0.471002, -0.543335, 0.335908, -2.08382, -2.16583, -0.129891, 0.469271, -0.542682, 0.333541, -2.08213, -2.16359, -0.127975, -0.000461575, 0.00435543, 0.00115413, 0.0160372, 0.000289646, -0.0083993
0.0500498, 1.69167, -1.22787, -1.54084, -0.90071, -1.1919, 1.22907, -1.30269, 0.0179658, -0.00472915, -0.0250909, -0.00381052, -0.0032662, 0.0564759, 0.000678086, 2.55073, 61.4584, 30.4322, 5.76385, 1.70032, 3.8193, -0.0164075, 0.000327822, -0.00161829, 0.00250474, 0.00279558, 0.00120642, 0.000418654, 0.00780484, -0.0168856, -0.00869436, 0.0213289, 0.0305804, 0.007738, 0.471002, -0.543331, 0.335909, -2.08382, -2.16583, -0.129891, 0.469283, -0.542688, 0.333536, -2.08216, -2.16362, -0.12797, -0.000484983, 0.00457817, 0.00121247, 0.0163439, -0.00109773, -0.00909299
0.0510498, 1.69168, -1.22787, -1.54086, -0.900716, -1.19191, 1.22912, -1.30269, 0.0179266, -0.0047774, -0.0243523, -0.00484512, -0.00285769, 0.0549582, -5.36095e-05, 2.51106, 61.7163, 30.579, 5.83527, 1.71863, 3.87607, -0.00267457, 0.000321186, -0.00160018, 0.00251248, 0.00277379, 0.00117374, 0.000409087, 0.007362, -0.0170103, -0.00875793, 0.0203951, 0.029595, 0.00984972, 0.471001, -0.543326, 0.335911, -2.08382, -2.16583, -0.129892, 0.469301, -0.542688, 0.333528, -2.08218, -2.16366, -0.127962, -0.000508925, 0.00480613, 0.00127212, 0.0164264, -0.000417658, -0.00903117
0.0520498, 1.6917, -1.22787, -1.54088, -0.900714, -1.19192, 1.22918, -1.30269, 0.0190589, -0.00414544, -0.0254396, -0.00463386, -0.00350036, 0.058025, -0.00122031, 2.55073, 61.9385, 30.6544, 5.87494, 1.76166, 3.94839, 0.0293689, 0.000309218, -0.00158795, 0.00251771, 0.0027468, 0.00114072, 0.000408523, 0.00777623, -0.0179006, -0.00855751, 0.0218255, 0.0324658, 0.0112223, 0.471001, -0.543321, 0.335912, -2.08381, -2.16583, -0.129892, 0.469313, -0.542693, 0.333522, -2.08221, -2.16369, -0.127959, -0.000533398, 0.00503929, 0.00133308, 0.0173131, -0.000587831, -0.00886348
0.0530498, 1.69171, -1.22788, -1.5409, -0.900721, -1.19193, 1.22923, -1.30268, 0.014532, -0.00364572, -0.0232565, -0.00687973, -0.00739409, 0.0558253, 0.0011209, 2.55073, 62.1606, 30.7297, 6.02173, 1.76807, 4.01248, -0.0228162, 0.00030108, -0.00157146, 0.00252476, 0.00272323, 0.00110771, 0.000405638, 0.00940605, -0.0154139, -0.00777894, 0.0197262, 0.0350926, 0.00614096, 0.471, -0.543316, 0.335913, -2.08381, -2.16583, -0.129892, 0.469329, -0.542695, 0.333514, -2.08223, -2.16372, -0.127953, -0.000558399, 0.00527762, 0.00139533, 0.0148911, -0.00218009, -0.00821049
0.0540498, 1.69173, -1.22788, -1.54092, -0.90072, -1.19193, 1.22929, -1.30268, 0.0182861, 8.18214e-05, -0.0211508, -0.00578212, -0.00485737, 0.0602729, 0.000511158, 2.51106, 62.2321, 30.9162, 6.0614, 1.75525, 4.04086, -0.0164075, 0.00029302, -0.00155448, 0.00252782, 0.0027003, 0.00106748, 0.00039964, 0.00749366, -0.0186984, -0.00452175, 0.0269057, 0.0389315, 0.0113078, 0.471, -0.543311, 0.335915, -2.08381, -2.16583, -0.129893, 0.469345, -0.542696, 0.333511, -2.08225, -2.16375, -0.127938, -0.000583923, 0.00552111, 0.00145888, 0.018195, -0.000415619, -0.00473295
0.0550498, 1.69174, -1.22788, -1.54093, -0.900727, -1.19194, 1.22935, -1.30269, 0.0142209, -0.00144703, -0.0164714, -0.00665391, -0.00745246, 0.0583144, -0.000641636, 2.62611, 62.3431, 30.8408, 6.17248, 1.73053, 4.08389, 0.0101428, 0.000283704, -0.0015401, 0.00252914, 0.00266706, 0.00103165, 0.000390449, 0.00877495, -0.0168334, -0.00386319, 0.028219, 0.0383276, 0.0106444, 0.470999, -0.543305, 0.335916, -2.08381, -2.16583, -0.129893, 0.46936, -0.542699, 0.333509, -2.08228, -2.1638, -0.12794, -0.000609969, 0.00576973, 0.0015237, 0.016376, -0.0016096, -0.00416055
0.0560498, 1.69176, -1.22788, -1.54095, -0.900727, -1.19195, 1.2294, -1.30269, 0.0132391, -0.00216097, -0.015137, -0.00458647, -0.00468161, 0.0576239, -0.00137649, 2.66181, 62.5653, 30.8408, 6.17248, 1.70581, 4.09854, 0.0357776, 0.000273568, -0.00152446, 0.00253475, 0.00263832, 0.00100016, 0.000382887, 0.00925444, -0.0162737, -0.00355593, 0.0311955, 0.0348295, 0.0102005, 0.470999, -0.5433, 0.335918, -2.0838, -2.16583, -0.129894, 0.469375, -0.542702, 0.333503, -2.0823, -2.16383, -0.127941, -0.000636533, 0.00602345, 0.0015898, 0.0158187, -0.00189943, -0.00384865
0.0570498, 1.69178, -1.22789, -1.54097, -0.900729, -1.19195, 1.22945, -1.30268, 0.0149546, -0.0039925, -0.0176973, -0.00400577, -0.00773272, 0.0516456, 0.000778287, 2.58643, 62.7121, 30.9876, 6.20819, 1.6875, 4.13424, -0.00999879, 0.000265624, -0.00150654, 0.00254317, 0.00262036, 0.00096795, 0.000378943, 0.00961455, -0.0152672, -0.00609795, 0.0222356, 0.0328434, 0.00703918, 0.470998, -0.543294, 0.335919, -2.0838, -2.16582, -0.129894, 0.469392, -0.542701, 0.333495, -2.08232, -2.16386, -0.127929, -0.000663611, 0.00628226, 0.00165716, 0.0147075, -0.00164595, -0.00631692
0.0580498, 1.6918, -1.22789, -1.54099, -0.900731, -1.19196, 1.22951, -1.30268, 0.0133449, -0.00226476, -0.015872, -0.00275519, -0.00973315, 0.0473858, 0.000247986, 2.62611, 62.8589, 30.9876, 6.20819, 1.66369, 4.16354, -0.00267457, 0.000256712, -0.00148958, 0.00254877, 0.0025942, 0.000935513, 0.000370147, 0.0103843, -0.01339, -0.00457434, 0.020231, 0.033946, 0.00508576, 0.470997, -0.543287, 0.335921, -2.0838, -2.16582, -0.129894, 0.469408, -0.542702, 0.333489, -2.08234, -2.1639, -0.127927, -0.000691201, 0.00654612, 0.00172578, 0.0128877, -0.00245339, -0.00480679
0.0590498, 1.69181, -1.2279, -1.54102, -0.900732, -1.19196, 1.22956, -1.30269, 0.0145391, -0.00678184, -0.0205791, -0.00818182, -0.0109674, 0.0497063, -0.000546457, 2.70148, 63.1168, 31.1027, 6.20819, 1.63257, 4.16995, 0.0165515, 0.00024325, -0.00147685, 0.00256355, 0.0025786, 0.000914901, 0.000368637, 0.0104044, -0.0148248, -0.00954025, 0.0144592, 0.0325425, 0.00924732, 0.470997, -0.543281, 0.335923, -2.0838, -2.16582, -0.129895, 0.46942, -0.542706, 0.333474, -2.08235, -2.16391, -0.127924, -0.0007193, 0.00681502, 0.00179564, 0.0141138, -0.00138102, -0.00968678
0.0600498, 1.69184, -1.22791, -1.54104, -0.900734, -1.19198, 1.22961, -1.30269, 0.0200283, -0.00738481, -0.0248017, -0.00602563, -0.0141683, 0.0527548, -0.0008388, 2.58643, 63.2635, 31.1384, 6.20819, 1.66369, 4.14157, 0.0293689, 0.000235053, -0.00145725, 0.00257296, 0.00256193, 0.000880315, 0.000355499, 0.0107734, -0.016905, -0.0111416, 0.0120881, 0.0364641, 0.0100118, 0.470996, -0.543274, 0.335924, -2.08379, -2.16582, -0.129895, 0.469439, -0.542705, 0.333464, -2.08236, -2.16395, -0.127909, -0.000747904, 0.00708893, 0.00186675, 0.0161181, -0.00113967, -0.011317
0.0610498, 1.69185, -1.22791, -1.54107, -0.900738, -1.19199, 1.22966, -1.30268, 0.0184515, -0.00625887, -0.0239005, -0.00537343, -0.0147639, 0.0496612, 0.00137375, 2.70148, 63.3389, 31.2494, 6.24786, 1.64447, 4.12692, -0.0228162, 0.000222254, -0.0014444, 0.0025833, 0.0025497, 0.000848286, 0.000360776, 0.011458, -0.0153999, -0.010284, 0.0106058, 0.0365166, 0.00590966, 0.470995, -0.543267, 0.335926, -2.08379, -2.16582, -0.129896, 0.469451, -0.542709, 0.333454, -2.08238, -2.16397, -0.12789, -0.00077701, 0.00736784, 0.00193908, 0.0146413, -0.00173025, -0.0104588
0.0620498, 1.69187, -1.22792, -1.54109, -0.900738, -1.19199, 1.22971, -1.30268, 0.0171439, -0.00728558, -0.0195946, -0.00390352, -0.011392, 0.0521048, 0.000915956, 2.70148, 63.4857, 31.2137, 6.24786, 1.65088, 4.09854, -0.0228162, 0.000213951, -0.0014247, 0.00259366, 0.00252833, 0.000822261, 0.000348653, 0.011555, -0.0159655, -0.0089014, 0.0189315, 0.0336291, 0.00702698, 0.470994, -0.543259, 0.335928, -2.08379, -2.16582, -0.129897, 0.46947, -0.542707, 0.333443, -2.08239, -2.164, -0.127889, -0.000806615, 0.0076517, 0.00201263, 0.0152299, -0.00173184, -0.00905218
0.0630498, 1.69189, -1.22792, -1.54112, -0.900735, -1.192, 1.22976, -1.30268, 0.0205175, -0.00378132, -0.0226979, -0.00191526, -0.0128385, 0.0542503, -0.000135254, 2.77686, 63.45, 31.2891, 6.20819, 1.63898, 4.07016, -0.00267457, 0.000201278, -0.00141167, 0.00259903, 0.00251319, 0.000785071, 0.0003509, 0.0117738, -0.0170532, -0.00768336, 0.01817, 0.039641, 0.00765659, 0.470993, -0.543252, 0.33593, -2.08378, -2.16582, -0.129897, 0.469483, -0.542711, 0.333438, -2.08242, -2.16403, -0.127869, -0.000836715, 0.00794051, 0.00208739, 0.0163379, -0.00180196, -0.00784153
0.0640498, 1.69192, -1.22792, -1.54114, -0.900736, -1.19201, 1.2298, -1.30268, 0.0230098, 0.0018754, -0.0269975, -0.00238555, -0.0143618, 0.0552201, -0.00151425, 2.73719, 63.4103, 31.3248, 6.24786, 1.63898, 4.05551, 0.0357776, 0.000193596, -0.00139308, 0.00260532, 0.00250384, 0.000746667, 0.00033699, 0.0116005, -0.0177211, -0.00602295, 0.0144565, 0.0475421, 0.00925761, 0.470993, -0.543244, 0.335932, -2.08378, -2.16582, -0.129898, 0.4695, -0.542709, 0.333432, -2.08243, -2.16406, -0.127842, -0.000867309, 0.00823424, 0.00216336, 0.0170282, -0.00156538, -0.00611936
0.0650498, 1.69194, -1.22792, -1.54117, -0.900735, -1.19201, 1.22985, -1.30268, 0.0225376, -0.000103693, -0.0254755, -0.00172589, -0.00942096, 0.0514574, 0.000923331, 2.77686, 63.4857, 31.2891, 6.24786, 1.60144, 4.03445, -0.0164075, 0.000185046, -0.00137642, 0.00261338, 0.00248887, 0.000721794, 0.000334036, 0.0108113, -0.0175026, -0.00688858, 0.0150926, 0.0396372, 0.00821583, 0.470992, -0.543236, 0.335935, -2.08378, -2.16581, -0.129898, 0.469516, -0.542707, 0.333424, -2.08244, -2.16409, -0.127835, -0.000898392, 0.00853286, 0.00224052, 0.0167194, -0.00036331, -0.0067679
0.0660498, 1.69197, -1.22791, -1.5412, -0.900738, -1.19202, 1.22989, -1.30268, 0.0264281, 0.00200107, -0.0267859, 0.00420881, -0.00700472, 0.0534105, 0.000615593, 2.77686, 63.4103, 31.3605, 6.28357, 1.59595, 4.01248, -0.0164075, 0.000176236, -0.00135923, 0.00261925, 0.00248254, 0.000681101, 0.000325406, 0.0109599, -0.0187429, -0.00535388, 0.0192121, 0.0405636, 0.00733138, 0.470991, -0.543227, 0.335937, -2.08377, -2.16581, -0.129899, 0.469532, -0.542705, 0.333419, -2.08245, -2.16412, -0.127802, -0.000929962, 0.00883635, 0.00231887, 0.0179872, -0.000391926, -0.00523471
0.0670498, 1.69199, -1.22793, -1.54122, -0.900735, -1.19202, 1.22994, -1.30268, 0.0243539, -0.00196221, -0.0252134, 0.00408955, -0.00421257, 0.0507209, -9.8201e-05, 2.85224, 63.5611, 31.3248, 6.24786, 1.56482, 3.97677, -0.00267457, 0.000163163, -0.00134412, 0.00263175, 0.00246682, 0.000658221, 0.000320982, 0.0113717, -0.0177988, -0.00729891, 0.0195383, 0.032988, 0.00788734, 0.47099, -0.543218, 0.335939, -2.08377, -2.16581, -0.1299, 0.469547, -0.542707, 0.333406, -2.08246, -2.16414, -0.127797, -0.000962015, 0.00914469, 0.0023984, 0.0169568, -0.000229294, -0.00711126
0.0680498, 1.69202, -1.22792, -1.54125, -0.900738, -1.19203, 1.22998, -1.30268, 0.028667, -0.000207459, -0.0285624, 0.00222749, -0.00795248, 0.0482703, -0.000540163, 2.81654, 63.5214, 31.3605, 6.28357, 1.55932, 3.94839, 0.0101428, 0.0001572, -0.00132351, 0.00263936, 0.00245881, 0.00062569, 0.000303336, 0.0102437, -0.0191629, -0.00818533, 0.0113825, 0.0372527, 0.011359, 0.470989, -0.543209, 0.335941, -2.08376, -2.16581, -0.1299, 0.469566, -0.542702, 0.3334, -2.08246, -2.16418, -0.127776, -0.000994548, 0.00945786, 0.0024791, 0.0182141, 0.00138989, -0.00777192
0.0690498, 1.69204, -1.22792, -1.54129, -0.90073, -1.19203, 1.23002, -1.30269, 0.0246877, 0.00399562, -0.0293905, 0.00433571, -0.0110104, 0.0458637, -0.0015808, 2.81654, 63.4857, 31.4359, 6.17248, 1.56482, 3.93374, 0.0431018, 0.000144025, -0.00130969, 0.00264693, 0.00245567, 0.000588505, 0.0003015, 0.0131009, -0.015474, -0.00574515, 0.00916919, 0.0426567, 0.00515815, 0.470988, -0.5432, 0.335944, -2.08376, -2.16581, -0.129901, 0.469579, -0.542704, 0.333392, -2.08247, -2.1642, -0.127742, -0.00102756, 0.00977584, 0.00256097, 0.0146874, -0.00163954, -0.00561296
0.0700498, 1.69207, -1.22793, -1.54131, -0.900725, -1.19204, 1.23007, -1.30267, 0.0241192, -0.00124392, -0.0311091, 0.00391488, -0.00880271, 0.0490977, 0.00162491, 2.85224, 63.6682, 31.4359, 6.13678, 1.57764, 3.91269, -0.0292249, 0.000133856, -0.0012903, 0.00266047, 0.00244343, 0.000567479, 0.000302662, 0.0143044, -0.0159024, -0.00921226, 0.0110097, 0.0375175, 0.00179644, 0.470987, -0.54319, 0.335947, -2.08375, -2.1658, -0.129902, 0.469597, -0.542701, 0.333379, -2.08249, -2.16422, -0.127735, -0.00106104, 0.0100986, 0.00264398, 0.0149995, -0.00195345, -0.0091533
0.0710498, 1.69211, -1.22792, -1.54135, -0.900716, -1.19205, 1.23011, -1.30268, 0.0293599, 0.00111207, -0.0334291, 0.00544307, -0.00772826, 0.0510794, 0.00132064, 2.77686, 63.5968, 31.4716, 6.02173, 1.60785, 3.90536, -0.0356336, 0.000124214, -0.00127055, 0.00266643, 0.00243567, 0.000527753, 0.00029367, 0.0130248, -0.0185562, -0.00857114, 0.0113696, 0.0403076, 0.00516669, 0.470986, -0.54318, 0.335949, -2.08375, -2.1658, -0.129903, 0.469616, -0.542699, 0.333374, -2.0825, -2.16425, -0.127705, -0.001095, 0.0104261, 0.00272814, 0.0175933, -0.000352668, -0.00831759
0.0720498, 1.69215, -1.22793, -1.54137, -0.900709, -1.19205, 1.23016, -1.30268, 0.0322569, -0.000725865, -0.0292903, 0.00540557, -0.00706411, 0.0533066, -0.00105234, 2.73719, 63.6682, 31.4002, 5.95032, 1.64447, 3.87607, 0.0165515, 0.000114867, -0.00124825, 0.00267643, 0.00242208, 0.000496425, 0.000274633, 0.0114794, -0.0214616, -0.00817835, 0.0166708, 0.0390181, 0.0127068, 0.470985, -0.543169, 0.335952, -2.08374, -2.1658, -0.129903, 0.469637, -0.542695, 0.333365, -2.0825, -2.16429, -0.127691, -0.00112942, 0.0107583, 0.00281344, 0.0204194, 0.00156371, -0.0076923
0.0730498, 1.69218, -1.22793, -1.54141, -0.900698, -1.19206, 1.2302, -1.30268, 0.0335464, -0.00209476, -0.0300126, 0.00637479, -0.00560083, 0.0508826, -0.000701557, 2.73719, 63.7436, 31.4716, 5.83527, 1.65729, 3.83304, 0.0165515, 0.000102595, -0.00122813, 0.00268894, 0.00240964, 0.0004691, 0.000268688, 0.0112764, -0.0216103, -0.00941673, 0.0148181, 0.035425, 0.0129751, 0.470984, -0.543159, 0.335955, -2.08374, -2.1658, -0.129904, 0.469656, -0.542694, 0.333353, -2.08251, -2.16431, -0.127679, -0.00116431, 0.0110953, 0.00289987, 0.020481, 0.002298, -0.00880172
0.0740498, 1.69221, -1.22794, -1.54144, -0.900688, -1.19207, 1.23025, -1.30268, 0.0367085, -0.00388067, -0.0287235, 0.00913941, -0.00540275, 0.0524557, 0.00146508, 2.77686, 63.8547, 31.4716, 5.76385, 1.69391, 3.8193, -0.0356336, 8.99473e-05, -0.00120844, 0.00270218, 0.00239974, 0.000442006, 0.000268228, 0.0110664, -0.0233622, -0.00968608, 0.018135, 0.0342091, 0.0122581, 0.470983, -0.543147, 0.335958, -2.08373, -2.1658, -0.129905, 0.469675, -0.542692, 0.33334, -2.08252, -2.16433, -0.127663, -0.00119966, 0.0114369, 0.00298742, 0.022178, 0.00296025, -0.00900052
0.0750498, 1.69226, -1.22794, -1.54147, -0.900679, -1.19207, 1.2303, -1.30268, 0.0386304, -0.00333661, -0.0276775, 0.0104039, -0.00922065, 0.0552537, 0.000976723, 2.70148, 63.8904, 31.4716, 5.72418, 1.71222, 3.76895, -0.0356336, 8.08186e-05, -0.00118391, 0.00271146, 0.00238711, 0.000406089, 0.000254008, 0.0117231, -0.02444, -0.00870733, 0.02011, 0.0393165, 0.0127901, 0.470981, -0.543136, 0.335961, -2.08373, -2.16579, -0.129906, 0.469698, -0.542687, 0.333332, -2.08252, -2.16437, -0.127643, -0.00123547, 0.0117833, 0.00307608, 0.0232774, 0.00255174, -0.00808007
0.0760498, 1.6923, -1.22794, -1.5415, -0.90067, -1.19208, 1.23035, -1.30268, 0.0393004, -0.00392335, -0.030873, 0.0113666, -0.0121032, 0.0555021, -0.00175635, 2.66181, 63.9658, 31.5113, 5.68848, 1.73053, 3.76163, 0.0293689, 7.07433e-05, -0.00115876, 0.00272421, 0.0023762, 0.000373039, 0.000235819, 0.0133873, -0.0237913, -0.0100977, 0.0165526, 0.0415321, 0.0128898, 0.47098, -0.543124, 0.335964, -2.08372, -2.16579, -0.129907, 0.469722, -0.542682, 0.33332, -2.08252, -2.16441, -0.127624, -0.00127174, 0.0121342, 0.00316585, 0.0226025, 0.00144747, -0.00960214
0.0770498, 1.69234, -1.22795, -1.54155, -0.900662, -1.19209, 1.2304, -1.30268, 0.038957, -0.00423779, -0.0328728, 0.0112848, -0.00980283, 0.0510689, 1.58982e-05, 2.66181, 64.0372, 31.6581, 5.68848, 1.75525, 3.7543, -0.00267457, 5.73764e-05, -0.00113642, 0.00273988, 0.00237463, 0.000336775, 0.000229519, 0.0134094, -0.0227407, -0.011407, 0.012074, 0.0374436, 0.0106918, 0.470979, -0.543112, 0.335967, -2.08372, -2.16579, -0.129908, 0.469743, -0.54268, 0.333305, -2.08253, -2.16444, -0.127591, -0.00130846, 0.0124898, 0.00325671, 0.02147, 0.00193987, -0.0107759
0.0780498, 1.69239, -1.22795, -1.54158, -0.900647, -1.1921, 1.23045, -1.30267, 0.0425061, -0.00455227, -0.0323472, 0.0131847, -0.0119927, 0.0522492, 0.000993944, 2.62611, 64.1125, 31.6224, 5.6131, 1.76166, 3.7543, -0.0292249, 4.63808e-05, -0.00110922, 0.00275027, 0.00235472, 0.00030025, 0.000221035, 0.013243, -0.0244015, -0.0112578, 0.012926, 0.0396009, 0.0111162, 0.470978, -0.5431, 0.33597, -2.08371, -2.16579, -0.129909, 0.469769, -0.542676, 0.333295, -2.08254, -2.16447, -0.127578, -0.00134563, 0.01285, 0.00334867, 0.0230908, 0.00250946, -0.0105611
0.0790498, 1.69243, -1.22796, -1.54161, -0.900643, -1.19211, 1.2305, -1.30267, 0.0402909, -0.00384294, -0.0352423, 0.0133481, -0.00951753, 0.0526385, 0.000425271, 2.66181, 64.1483, 31.6977, 5.72418, 1.77997, 3.76895, -0.0228162, 3.58878e-05, -0.00108429, 0.00276364, 0.00235013, 0.000263739, 0.000205314, 0.0147379, -0.0229718, -0.0117283, 0.0124333, 0.0387548, 0.00880807, 0.470976, -0.543087, 0.335973, -2.08371, -2.16578, -0.129909, 0.469792, -0.54267, 0.333283, -2.08254, -2.16451, -0.127548, -0.00138324, 0.0132147, 0.0034417, 0.0216618, 0.00141248, -0.0111218
0.0800498, 1.69247, -1.22796, -1.54165, -0.900631, -1.19212, 1.23055, -1.30268, 0.0436691, -0.00254162, -0.0371756, 0.0139798, -0.0120994, 0.0476257, -0.00215789, 2.62611, 64.1483, 31.7731, 5.68848, 1.79187, 3.80466, 0.0431018, 2.4286e-05, -0.00105904, 0.00277544, 0.00234502, 0.000224087, 0.000189877, 0.0140744, -0.023178, -0.0122113, 0.00513269, 0.0400449, 0.0123932, 0.470975, -0.543074, 0.335977, -2.0837, -2.16578, -0.12991, 0.469816, -0.542666, 0.333272, -2.08254, -2.16455, -0.127516, -0.0014213, 0.013584, 0.0035358, 0.0217885, 0.00251972, -0.0114078
0.0810498, 1.69251, -1.22796, -1.54169, -0.900619, -1.19213, 1.2306, -1.30268, 0.0433288, -0.00251437, -0.0395455, 0.00959535, -0.0136449, 0.0539153, 1.94685e-05, 2.70148, 64.184, 31.8842, 5.72418, 1.79187, 3.82663, 0.00373412, 7.89497e-06, -0.00103731, 0.00278918, 0.00233728, 0.000184586, 0.000188416, 0.014759, -0.0245485, -0.013112, 0.00584692, 0.0451557, 0.0121054, 0.470973, -0.54306, 0.33598, -2.08369, -2.16578, -0.129911, 0.469836, -0.542665, 0.333259, -2.08256, -2.16457, -0.127486, -0.0014598, 0.0139578, 0.00363097, 0.0231106, 0.00241271, -0.01235
0.0820498, 1.69256, -1.22797, -1.54173, -0.900611, -1.19214, 1.23065, -1.30267, 0.0461754, -0.00519128, -0.0383809, 0.00860499, -0.011291, 0.0528634, 0.000758965, 2.66181, 64.3347, 31.8842, 5.79956, 1.823, 3.87607, -0.0164075, -3.58253e-06, -0.00101003, 0.0028064, 0.0023326, 0.000152318, 0.000172512, 0.0130195, -0.02672, -0.0146892, 0.0059787, 0.0403241, 0.0164697, 0.470972, -0.543046, 0.335984, -2.08369, -2.16578, -0.129913, 0.469862, -0.542659, 0.333243, -2.08256, -2.1646, -0.127461, -0.00149874, 0.0143362, 0.00372719, 0.025121, 0.00484041, -0.0136066
0.0830498, 1.69261, -1.22797, -1.54178, -0.900599, -1.19215, 1.2307, -1.30267, 0.0449079, -0.00345227, -0.0404836, 0.0117058, -0.00898661, 0.0528744, 0.000743336, 2.62611, 64.3347, 31.9953, 5.83527, 1.84131, 3.90536, -0.0228162, -1.98124e-05, -0.000985998, 0.00282144, 0.00233395, 0.000104956, 0.000167603, 0.0147185, -0.0252008, -0.0139479, 0.00710814, 0.0401945, 0.0122775, 0.47097, -0.543032, 0.335988, -2.08368, -2.16577, -0.129914, 0.469884, -0.542657, 0.333229, -2.08257, -2.16463, -0.127413, -0.00153811, 0.014719, 0.00382447, 0.0236519, 0.00336968, -0.0129956
0.0840498, 1.69265, -1.22798, -1.54182, -0.900593, -1.19217, 1.23076, -1.30268, 0.0413537, -0.00572875, -0.0423003, 0.0125158, -0.00817061, 0.0538082, -0.00218321, 2.70148, 64.4815, 31.9953, 5.95032, 1.88434, 3.91269, 0.0495105, -3.6836e-05, -0.000961401, 0.00283941, 0.00232861, 6.32011e-05, 0.000149832, 0.0174616, -0.0230341, -0.015585, 0.00752515, 0.0378451, 0.0104622, 0.470969, -0.543017, 0.335992, -2.08367, -2.16577, -0.129915, 0.469907, -0.542655, 0.333211, -2.08257, -2.16467, -0.12738, -0.00157792, 0.0151063, 0.00392278, 0.0214871, 0.0012125, -0.0148745
0.0850498, 1.6927, -1.22798, -1.54187, -0.900593, -1.19219, 1.23081, -1.30268, 0.0455479, -0.00464956, -0.0451173, 0.00537101, -0.00703934, 0.0538613, 0.000477308, 2.62611, 64.5172, 32.1818, 6.13678, 1.91546, 3.93374, -0.00267457, -4.85616e-05, -0.000932218, 0.00285974, 0.00234152, 1.73609e-05, 0.000135633, 0.0141452, -0.026628, -0.0171977, 0.00175547, 0.0391425, 0.0172423, 0.470967, -0.543002, 0.335996, -2.08367, -2.16577, -0.129916, 0.469934, -0.542647, 0.333192, -2.08256, -2.16471, -0.127322, -0.00161815, 0.015498, 0.00402212, 0.024859, 0.00527399, -0.0159612
0.0860498, 1.69275, -1.228, -1.54192, -0.900575, -1.19221, 1.23086, -1.30267, 0.044405, -0.008293, -0.0431224, 0.00871581, -0.010614, 0.0537719, 0.000589473, 2.58643, 64.7394, 32.2175, 6.09711, 1.93927, 3.96213, -0.00999879, -6.71616e-05, -0.000907548, 0.00288133, 0.00234318, -1.85177e-05, 0.000132034, 0.0166749, -0.025267, -0.0181501, 0.00328414, 0.0381431, 0.012944, 0.470966, -0.542986, 0.336, -2.08366, -2.16576, -0.129917, 0.469957, -0.542646, 0.333172, -2.08257, -2.16473, -0.127285, -0.00165881, 0.0158942, 0.00412249, 0.023515, 0.00326393, -0.0171533
0.0870498, 1.6928, -1.228, -1.54198, -0.90057, -1.19223, 1.23091, -1.30268, 0.0402307, -0.00552595, -0.0481123, 0.00735907, -0.0130964, 0.0540599, -0.00130244, 2.55073, 64.7394, 32.3682, 6.20819, 1.95758, 3.97677, 0.0357776, -8.58375e-05, -0.000883991, 0.00290117, 0.0023598, -7.25642e-05, 0.000121408, 0.019842, -0.022094, -0.0182715, -0.00167602, 0.0435854, 0.00866897, 0.470964, -0.542971, 0.336004, -2.08365, -2.16576, -0.129918, 0.469979, -0.542644, 0.333152, -2.08257, -2.16476, -0.127214, -0.0016999, 0.0162947, 0.00422387, 0.020414, 0.000426814, -0.0175679
0.0880498, 1.69285, -1.22801, -1.54202, -0.900564, -1.19225, 1.23096, -1.30268, 0.0439904, -0.0071156, -0.05047, 0.0073079, -0.0143032, 0.053773, -0.00113956, 2.47535, 64.8862, 32.3285, 6.28357, 1.95758, 4.00516, 0.0431018, -0.000100022, -0.000855573, 0.00292212, 0.00236691, -0.000112518, 0.000103485, 0.0194183, -0.0236654, -0.0203099, -0.00521917, 0.0433271, 0.0107966, 0.470962, -0.542954, 0.336008, -2.08364, -2.16576, -0.129919, 0.470006, -0.542638, 0.333133, -2.08256, -2.1648, -0.127169, -0.0017414, 0.0166996, 0.00432627, 0.0218528, 0.00162861, -0.0194601
0.0890498, 1.6929, -1.22802, -1.54208, -0.900558, -1.19227, 1.23101, -1.30268, 0.0462372, -0.00734066, -0.0559798, 0.00641251, -0.0157545, 0.0536718, -0.000488439, 2.43568, 64.9973, 32.4396, 6.39465, 1.9704, 4.03445, 0.0357776, -0.00012005, -0.000832937, 0.00294754, 0.00238884, -0.000156093, 9.96128e-05, 0.0200178, -0.0239999, -0.0226852, -0.0115215, 0.0449555, 0.0100635, 0.470961, -0.542938, 0.336012, -2.08364, -2.16575, -0.129921, 0.470026, -0.542636, 0.333108, -2.08256, -2.16481, -0.127102, -0.00178332, 0.0171089, 0.00442966, 0.0220803, 0.00182594, -0.0218056
0.0900498, 1.69295, -1.22802, -1.54214, -0.90055, -1.1923, 1.23105, -1.30267, 0.047719, -0.00572785, -0.054637, 0.00983283, -0.0207873, 0.0534929, 0.00160715, 2.39997, 65.033, 32.4793, 6.47003, 1.96399, 4.06283, -0.0164075, -0.000139935, -0.00081048, 0.00296787, 0.0024112, -0.000209693, 0.00010495, 0.021349, -0.0237051, -0.0209127, -0.0112429, 0.0504756, 0.00541568, 0.470959, -0.54292, 0.336017, -2.08363, -2.16575, -0.129922, 0.470047, -0.542634, 0.333089, -2.08257, -2.16483, -0.127023, -0.00182565, 0.0175225, 0.00453405, 0.0218553, 0.000640427, -0.0201491
0.0910498, 1.69301, -1.22802, -1.54219, -0.900544, -1.19232, 1.2311, -1.30268, 0.0506548, -0.00558094, -0.0554434, 0.0101058, -0.0241297, 0.0490938, 0.000325451, 2.28492, 65.1083, 32.4396, 6.5097, 1.93927, 4.08389, 0.00373412, -0.000155995, -0.000782798, 0.00299085, 0.00243026, -0.000255068, 8.58228e-05, 0.0209121, -0.0239925, -0.0216507, -0.0175669, 0.0515156, 0.00789288, 0.470957, -0.542903, 0.336021, -2.08362, -2.16575, -0.129923, 0.470072, -0.542628, 0.333067, -2.08255, -2.16486, -0.126959, -0.0018684, 0.0179404, 0.00463942, 0.0220571, 0.00161536, -0.0207135
0.0920498, 1.69306, -1.22803, -1.54226, -0.900545, -1.19235, 1.23114, -1.30268, 0.0507719, -0.00622564, -0.0603574, 0.00683648, -0.0277756, 0.0461256, -0.00219053, 2.24921, 65.2155, 32.5904, 6.69617, 1.94568, 4.09122, 0.0687366, -0.000177583, -0.000761092, 0.00302029, 0.00246827, -0.000304757, 7.26632e-05, 0.0218175, -0.023003, -0.0245311, -0.0276916, 0.053208, 0.00986891, 0.470955, -0.542885, 0.336026, -2.08361, -2.16574, -0.129924, 0.470092, -0.542626, 0.333039, -2.08254, -2.16489, -0.12687, -0.00191155, 0.0183626, 0.00474577, 0.0209536, 0.00154723, -0.0235623
0.0930498, 1.69311, -1.22803, -1.54232, -0.900538, -1.19238, 1.23118, -1.30268, 0.0520147, -0.00507796, -0.0597655, 0.00799339, -0.030236, 0.048445, 0.000947144, 2.17384, 65.2551, 32.5547, 6.73187, 1.94568, 4.10586, 0.00373412, -0.000198213, -0.000737891, 0.00304207, 0.00249571, -0.000360176, 7.44003e-05, 0.0225458, -0.0237024, -0.0233839, -0.0257715, 0.0576351, 0.00643279, 0.470953, -0.542867, 0.336031, -2.0836, -2.16574, -0.129926, 0.470113, -0.542624, 0.333018, -2.08254, -2.1649, -0.126784, -0.00195511, 0.0187891, 0.00485308, 0.0216762, 0.00110687, -0.0224567
0.0940498, 1.69317, -1.22803, -1.54238, -0.900533, -1.19241, 1.23122, -1.30268, 0.0566322, -0.00338495, -0.0600683, 0.0118314, -0.031943, 0.0508848, 0.000631429, 2.05878, 65.2551, 32.5547, 6.77154, 1.93927, 4.09854, 0.00373412, -0.000217223, -0.000712799, 0.00306441, 0.00253271, -0.000421582, 6.54049e-05, 0.0225734, -0.0256359, -0.0220269, -0.023383, 0.0619823, 0.00724441, 0.470951, -0.542848, 0.336035, -2.08359, -2.16574, -0.129927, 0.470136, -0.542619, 0.332997, -2.08254, -2.16493, -0.126683, -0.00199908, 0.0192197, 0.00496136, 0.0236133, 0.00138074, -0.0210717
0.0950498, 1.69322, -1.22803, -1.54244, -0.900536, -1.19244, 1.23127, -1.30268, 0.0574763, -0.00225636, -0.0613355, 0.00584364, -0.0333301, 0.0525995, -0.000528483, 1.9477, 65.2551, 32.5904, 6.91833, 1.93927, 4.09122, 0.0293689, -0.000234893, -0.000685925, 0.00308768, 0.00257024, -0.000484263, 4.69432e-05, 0.021478, -0.0273877, -0.0225793, -0.0264414, 0.065929, 0.0134381, 0.470949, -0.542829, 0.33604, -2.08358, -2.16573, -0.129929, 0.470161, -0.542613, 0.332976, -2.08252, -2.16496, -0.126581, -0.00204344, 0.0196547, 0.0050706, 0.0252591, 0.00305425, -0.0213909
0.0960498, 1.69327, -1.22803, -1.54251, -0.90053, -1.19247, 1.2313, -1.30268, 0.05423, -0.000576015, -0.0609804, 0.00798025, -0.0338587, 0.0488627, -0.000860948, 1.98341, 65.2155, 32.5904, 6.91833, 1.92096, 4.09122, 0.0431018, -0.000260981, -0.000669957, 0.00310893, 0.00260748, -0.000543631, 5.20122e-05, 0.0234947, -0.024407, -0.0213603, -0.0278823, 0.066101, 0.00869555, 0.470947, -0.542809, 0.336045, -2.08357, -2.16573, -0.12993, 0.470175, -0.542615, 0.332955, -2.08253, -2.16497, -0.126481, -0.0020882, 0.0200938, 0.00518077, 0.0223539, 0.00119261, -0.0203005
0.0970498, 1.69333, -1.22804, -1.54257, -0.900533, -1.19251, 1.23134, -1.30267, 0.0547276, -0.00391033, -0.061266, 0.00375693, -0.0344161, 0.0465944, 0.00139272, 1.79694, 65.3662, 32.5904, 7.02942, 1.90906, 4.07748, -0.00999879, -0.000279043, -0.000641897, 0.00313878, 0.00265196, -0.000597815, 3.99428e-05, 0.0227165, -0.0251895, -0.0242765, -0.0326427, 0.0627349, 0.0104141, 0.470945, -0.542789, 0.336051, -2.08357, -2.16572, -0.129932, 0.4702, -0.542607, 0.332928, -2.08251, -2.165, -0.126379, -0.00213335, 0.0205371, 0.00529189, 0.0229565, 0.00288596, -0.0229719
0.0980498, 1.69338, -1.22802, -1.54264, -0.900537, -1.19254, 1.23138, -1.30268, 0.0539473, 0.000919702, -0.0603332, 0.0015178, -0.0346993, 0.0393855, -5.48622e-05, 1.75727, 65.2155, 32.5547, 7.1048, 1.89075, 4.08389, 0.0165515, -0.000298885, -0.000619108, 0.00315691, 0.00269681, -0.0006707, 2.76054e-05, 0.0215238, -0.0240071, -0.0220442, -0.0386688, 0.0645414, 0.0133532, 0.470943, -0.542768, 0.336056, -2.08356, -2.16572, -0.129933, 0.470221, -0.542602, 0.332911, -2.0825, -2.16503, -0.126258, -0.0021789, 0.0209845, 0.00540394, 0.0217682, 0.00411862, -0.0204348
0.0990498, 1.69343, -1.22803, -1.54271, -0.900532, -1.19258, 1.23141, -1.30268, 0.0521518, 0.00199565, -0.0631846, 0.0024294, -0.035642, 0.0391683, -0.000273934, 1.64619, 65.2908, 32.515, 7.06909, 1.89075, 4.07748, 0.0229602, -0.000323403, -0.000598869, 0.0031842, 0.00274679, -0.00072893, 2.60322e-05, 0.0237155, -0.0221548, -0.0222574, -0.0409032, 0.0665598, 0.00934191, 0.470941, -0.542747, 0.336061, -2.08355, -2.16572, -0.129935, 0.470239, -0.5426, 0.332885, -2.08249, -2.16504, -0.126146, -0.00222483, 0.0214361, 0.00551691, 0.019943, 0.0023637, -0.0208171
0.10005, 1.69348, -1.22802, -1.54278, -0.900536, -1.19262, 1.23145, -1.30268, 0.0526724, 0.00242786, -0.0636599, 0.00122111, -0.0403989, 0.0388056, -0.000419981, 1.57081, 65.2551, 32.5547, 7.1048, 1.87793, 4.07748, 0.0293689, -0.000347161, -0.000579359, 0.00320813, 0.00280239, -0.000797926, 2.21229e-05, 0.0245565, -0.0220522, -0.022436, -0.0443813, 0.0710921, 0.0092886, 0.470939, -0.542726, 0.336067, -2.08354, -2.16571, -0.129936, 0.470256, -0.542598, 0.332863, -2.08248, -2.16506, -0.126016, -0.00227115, 0.0218918, 0.0056308, 0.0198178, 0.00201281, -0.0210075
0.10105, 1.69354, -1.22801, -1.54286, -0.900536, -1.19266, 1.23148, -1.30268, 0.0537976, 0.00274324, -0.0656263, 0.00114163, -0.0396302, 0.0390356, -0.000279988, 1.49146, 65.2155, 32.515, 7.1048, 1.87244, 4.06283, 0.0293689, -0.000370826, -0.000558671, 0.00323077, 0.00285838, -0.000870706, 1.8458e-05, 0.0247573, -0.0225056, -0.0230372, -0.0456396, 0.0712943, 0.00967895, 0.470936, -0.542704, 0.336072, -2.08353, -2.16571, -0.129938, 0.470274, -0.542595, 0.332842, -2.08248, -2.16508, -0.125882, -0.00231785, 0.0223516, 0.00574559, 0.0202092, 0.00238592, -0.0215316
0.10205, 1.69359, -1.22801, -1.54293, -0.900536, -1.19269, 1.23151, -1.30267, 0.0551378, -0.00155016, -0.0677472, 0.00100675, -0.038277, 0.0391375, 0.000762777, 1.38038, 65.3662, 32.515, 7.1048, 1.84772, 4.04819, 0.00373412, -0.000395628, -0.00053787, 0.00326108, 0.00291371, -0.000926646, 2.01996e-05, 0.0251794, -0.0231904, -0.0264371, -0.0473241, 0.0663882, 0.00963331, 0.470934, -0.542682, 0.336078, -2.08351, -2.1657, -0.12994, 0.470293, -0.542591, 0.332813, -2.08247, -2.16508, -0.125765, -0.00236493, 0.0228154, 0.00586128, 0.0207376, 0.00298562, -0.0248596
0.10305, 1.69364, -1.228, -1.543, -0.900544, -1.19273, 1.23154, -1.30268, 0.0525357, 5.19952e-06, -0.0677908, -0.00722386, -0.038826, 0.0390324, -0.000440918, 1.41608, 65.3265, 32.4396, 7.18018, 1.86603, 4.04086, 0.0293689, -0.000421646, -0.000521132, 0.00328215, 0.0029707, -0.00100135, 1.4203e-05, 0.0243359, -0.0234803, -0.0265974, -0.0509865, 0.0691899, 0.0152922, 0.470932, -0.542659, 0.336084, -2.0835, -2.1657, -0.129941, 0.470307, -0.54259, 0.332794, -2.08246, -2.1651, -0.125629, -0.00241239, 0.0232833, 0.00597787, 0.0209435, 0.00432312, -0.0247792
0.10405, 1.6937, -1.22799, -1.54307, -0.900547, -1.19277, 1.23157, -1.30268, 0.0559844, 0.0053405, -0.0710751, -0.00603927, -0.0426499, 0.0349441, -0.000293945, 1.22962, 65.3662, 32.4039, 7.21588, 1.84772, 4.01248, 0.0293689, -0.000443534, -0.000497834, 0.00330571, 0.00302987, -0.00107242, 2.98517e-06, 0.0241613, -0.0233236, -0.0250333, -0.0586205, 0.0760841, 0.014608, 0.470929, -0.542636, 0.33609, -2.08349, -2.16569, -0.129943, 0.470328, -0.542584, 0.332772, -2.08244, -2.16513, -0.125494, -0.00246022, 0.0237552, 0.00609534, 0.0207895, 0.00472024, -0.0230858
0.10505, 1.69375, -1.22799, -1.54315, -0.90055, -1.19281, 1.2316, -1.30267, 0.0568157, 0.00246729, -0.0710167, -0.00524532, -0.0413404, 0.0359838, 0.00149946, 1.11457, 65.4376, 32.4793, 7.25555, 1.84131, 3.99783, -0.0164075, -0.000468803, -0.000477189, 0.00333291, 0.00309225, -0.00114004, 3.17969e-06, 0.0246194, -0.0240436, -0.0265865, -0.056959, 0.0728615, 0.0135022, 0.470927, -0.542612, 0.336096, -2.08348, -2.16569, -0.129945, 0.470346, -0.54258, 0.332747, -2.08243, -2.16514, -0.125358, -0.00250842, 0.0242312, 0.00621369, 0.0214203, 0.00501324, -0.0245945
0.10605, 1.6938, -1.22797, -1.54321, -0.900553, -1.19285, 1.23162, -1.30267, 0.0553135, 0.00291313, -0.0634888, -0.00766463, -0.0449288, 0.0363691, 0.000999638, 1.07887, 65.4019, 32.4039, 7.29126, 1.8349, 3.99783, -0.0164075, -0.000493441, -0.000459135, 0.00334657, 0.00314294, -0.00121991, 2.77427e-06, 0.0242047, -0.024766, -0.0239187, -0.0524928, 0.0763415, 0.0170974, 0.470924, -0.542588, 0.336102, -2.08347, -2.16568, -0.129946, 0.470362, -0.542577, 0.332735, -2.08243, -2.16516, -0.125223, -0.00255699, 0.0247111, 0.00633291, 0.0221751, 0.00552114, -0.0217989
0.10705, 1.69385, -1.22796, -1.54327, -0.900561, -1.1929, 1.23165, -1.30267, 0.0521614, 0.0037619, -0.0636137, -0.00822428, -0.0435456, 0.032187, 0.000429067, 1.00349, 65.4733, 32.4039, 7.40631, 1.84131, 3.99142, -0.00999879, -0.000519427, -0.000440894, 0.0033688, 0.00320315, -0.00129297, -1.99192e-06, 0.0251778, -0.0225057, -0.0237823, -0.0552019, 0.0741836, 0.0154689, 0.470922, -0.542563, 0.336109, -2.08346, -2.16568, -0.129948, 0.470378, -0.542574, 0.332715, -2.08242, -2.16518, -0.125084, -0.00260593, 0.0251949, 0.006453, 0.0199085, 0.00493095, -0.0216272
0.10805, 1.6939, -1.22794, -1.54335, -0.900566, -1.19294, 1.23167, -1.30268, 0.0507412, 0.0100789, -0.0656684, -0.00747074, -0.0427989, 0.0296686, -0.001918, 0.888436, 65.4376, 32.515, 7.47772, 1.85962, 3.96945, 0.0495105, -0.000545562, -0.000422611, 0.00338546, 0.00326232, -0.00137669, -1.10752e-05, 0.0259703, -0.0207161, -0.0208724, -0.0576275, 0.0788882, 0.014938, 0.470919, -0.542538, 0.336115, -2.08345, -2.16567, -0.12995, 0.470393, -0.542571, 0.3327, -2.08241, -2.16521, -0.124936, -0.00265523, 0.0256827, 0.00657393, 0.018206, 0.00411459, -0.0187024
0.10905, 1.69395, -1.22793, -1.54341, -0.900573, -1.19298, 1.2317, -1.30267, 0.0518591, 0.00828386, -0.0657565, -0.00698182, -0.0457202, 0.0268266, 0.000654111, 0.813057, 65.5487, 32.5547, 7.5531, 1.84772, 3.96945, -0.00267457, -0.00057072, -0.000403402, 0.00340451, 0.00331902, -0.00145109, -1.26609e-05, 0.0265914, -0.0204335, -0.0222386, -0.0615318, 0.0783443, 0.0121053, 0.470916, -0.542512, 0.336122, -2.08343, -2.16567, -0.129952, 0.47041, -0.542567, 0.332684, -2.0824, -2.16522, -0.1248, -0.00270489, 0.0261745, 0.00669572, 0.0178466, 0.00419262, -0.020018
0.11005, 1.694, -1.22791, -1.54347, -0.900579, -1.19302, 1.23172, -1.30267, 0.0521612, 0.0110346, -0.0640217, -0.00659635, -0.043834, 0.0244241, 0.000707342, 0.626595, 65.6241, 32.515, 7.62848, 1.84772, 3.97677, -0.00999879, -0.000594051, -0.000382484, 0.00342172, 0.00337649, -0.00152671, -2.64427e-05, 0.0258432, -0.0205797, -0.0202187, -0.0607526, 0.0784628, 0.0134602, 0.470914, -0.542486, 0.336128, -2.08342, -2.16566, -0.129954, 0.470429, -0.54256, 0.332669, -2.08238, -2.16525, -0.124663, -0.00275491, 0.0266701, 0.00681835, 0.0179891, 0.00512157, -0.0177894
0.11105, 1.69404, -1.2279, -1.54353, -0.90059, -1.19307, 1.23174, -1.30268, 0.0486691, 0.0156221, -0.0582902, -0.00805797, -0.0420536, 0.0185579, -0.000274424, 0.586922, 65.7312, 32.5547, 7.77924, 1.84131, 3.96945, 0.0101428, -0.000621106, -0.000365314, 0.00343652, 0.00343208, -0.00161038, -3.52957e-05, 0.0248977, -0.0190391, -0.0160622, -0.0596673, 0.0785551, 0.0155645, 0.470911, -0.542459, 0.336135, -2.08341, -2.16566, -0.129956, 0.470443, -0.542557, 0.332657, -2.08238, -2.16528, -0.12452, -0.00280528, 0.0271696, 0.00694181, 0.0165173, 0.00585041, -0.0133685
0.11205, 1.69409, -1.22788, -1.54359, -0.900595, -1.19311, 1.23177, -1.30268, 0.0477968, 0.0149026, -0.0601376, -0.00630764, -0.0413917, 0.0188504, -0.00187837, 0.475838, 65.878, 32.5904, 7.81494, 1.85321, 3.96213, 0.0559192, -0.000647365, -0.000345542, 0.00344964, 0.00348109, -0.00169333, -4.50151e-05, 0.0266747, -0.0180049, -0.0168656, -0.0597181, 0.0776383, 0.0141659, 0.470908, -0.542432, 0.336142, -2.0834, -2.16565, -0.129958, 0.470461, -0.542553, 0.332646, -2.08237, -2.16532, -0.124384, -0.00285601, 0.0276729, 0.00706609, 0.0154682, 0.00468131, -0.0142828
0.11305, 1.69414, -1.22786, -1.54364, -0.900595, -1.19316, 1.23179, -1.30267, 0.0473514, 0.0153858, -0.0582346, -0.00428043, -0.0408184, 0.0187924, 0.000680533, 0.360787, 65.9891, 32.6261, 7.81494, 1.86603, 3.96213, 0.00373412, -0.000676095, -0.000328838, 0.00346086, 0.00353263, -0.00177942, -3.91688e-05, 0.0274369, -0.0177187, -0.0156462, -0.0566602, 0.0775703, 0.0105299, 0.470905, -0.542404, 0.336149, -2.08338, -2.16565, -0.12996, 0.470475, -0.542551, 0.332637, -2.08238, -2.16533, -0.124241, -0.00290708, 0.0281801, 0.00719119, 0.0152029, 0.00423647, -0.013064
0.11405, 1.69419, -1.22783, -1.5437, -0.900598, -1.1932, 1.23181, -1.30267, 0.0478729, 0.0165597, -0.0582939, -0.00374533, -0.0445708, 0.0140598, 0.000962315, 0.21003, 66.0645, 32.7372, 7.85065, 1.85962, 3.96213, -0.00999879, -0.000702975, -0.000310564, 0.00347145, 0.00358496, -0.0018647, -4.25584e-05, 0.0280448, -0.0166039, -0.0153813, -0.0621968, 0.0797128, 0.00903705, 0.470902, -0.542376, 0.336156, -2.08337, -2.16564, -0.129962, 0.470491, -0.542547, 0.332629, -2.08238, -2.16536, -0.124099, -0.0029585, 0.0286911, 0.00731711, 0.0140695, 0.004061, -0.0127376
0.11505, 1.69423, -1.22782, -1.54375, -0.900606, -1.19325, 1.23183, -1.30267, 0.0478668, 0.0182355, -0.0528074, -0.0043025, -0.0475089, 0.0208043, -0.000816519, 0.0949785, 66.2469, 32.7372, 7.92602, 1.85962, 3.94107, 0.0293689, -0.000729761, -0.000290829, 0.00348114, 0.00362469, -0.0019469, -5.69626e-05, 0.028396, -0.0186073, -0.0119773, -0.0529207, 0.0870683, 0.0129823, 0.470899, -0.542347, 0.336164, -2.08336, -2.16563, -0.129964, 0.470508, -0.542543, 0.332622, -2.08237, -2.1654, -0.123975, -0.00301027, 0.0292059, 0.00744383, 0.016155, 0.00378645, -0.00936591
0.11605, 1.69423, -1.22782, -1.54375, -0.900606, -1.19325, 1.23183, -1.30267, 0.0478668, 0.0182355, -0.0528074, -0.0043025, -0.0475089, 0.0208043, -0.000816519, 0.0949785, 66.2469, 32.7372, 7.92602, 1.85962, 3.94107, 0.0293689, -0.000759896, -0.000288768, 0.00348386, 0.00361602, -0.00195816, -5.35818e-05, 0.0289299, -0.0186419, -0.0120208, -0.0528183, 0.0873282, 0.0130267, 0.470896, -0.542318, 0.336171, -2.08334, -2.16563, -0.129966, 0.470508, -0.542543, 0.332622, -2.08237, -2.1654, -0.123975, -0.00306237, 0.0297245, 0.00757134, 0.016155, 0.00378645, -0.00936591
0.11705, 1.69433, -1.22778, -1.54385, -0.900612, -1.19334, 1.23187, -1.30268, 0.0446643, 0.0159102, -0.0521914, -0.00651923, -0.0475643, 0.0161709, -0.000622862, -0.206535, 66.6516, 32.9633, 8.0014, 1.88434, 3.91269, 0.0431018, -0.000791003, -0.000257147, 0.00350523, 0.00372403, -0.00211784, -6.21879e-05, 0.0298502, -0.0166688, -0.0137582, -0.0569791, 0.0830793, 0.0119755, 0.470893, -0.542288, 0.336179, -2.08333, -2.16562, -0.129968, 0.470537, -0.542539, 0.332603, -2.08237, -2.16545, -0.123696, -0.00311481, 0.0302468, 0.00769965, 0.0141017, 0.00358753, -0.0110367
0.11805, 1.69437, -1.22774, -1.5439, -0.900612, -1.19339, 1.2319, -1.30267, 0.0427068, 0.0218124, -0.0488694, -0.00378781, -0.0454299, 0.0170604, 0.000330744, -0.357292, 66.5445, 32.999, 7.9657, 1.89624, 3.90536, 0.0229602, -0.00082055, -0.000240366, 0.00350068, 0.00376066, -0.00222581, -6.09682e-05, 0.0305067, -0.0158818, -0.00858546, -0.0500906, 0.0874012, 0.00893146, 0.47089, -0.542258, 0.336186, -2.08331, -2.16562, -0.129971, 0.470552, -0.542538, 0.33261, -2.08239, -2.16549, -0.123548, -0.00316759, 0.0307728, 0.00782873, 0.0134749, 0.00263513, -0.00587894
0.11905, 1.69441, -1.22772, -1.54395, -0.900617, -1.19345, 1.23192, -1.30268, 0.0431357, 0.0211123, -0.0461672, -0.00440331, -0.049155, 0.0172393, -0.000762848, -0.468376, 66.7627, 33.1498, 8.03711, 1.92096, 3.91269, 0.0495105, -0.000855079, -0.000225871, 0.00351319, 0.00381044, -0.00231506, -6.18149e-05, 0.0309356, -0.0164004, -0.00817249, -0.0496181, 0.090002, 0.0111109, 0.470887, -0.542227, 0.336194, -2.0833, -2.16561, -0.129973, 0.470564, -0.542539, 0.332599, -2.0824, -2.16552, -0.123405, -0.0032207, 0.0313025, 0.00795859, 0.0139702, 0.00269935, -0.00542434
0.12005, 1.69445, -1.22768, -1.544, -0.900623, -1.1935, 1.23194, -1.30267, 0.0441838, 0.0246247, -0.0483317, -0.00485453, -0.0467222, 0.0231048, 0.000474779, -0.619133, 66.6913, 33.2212, 8.11249, 1.93378, 3.89071, 0.0229602, -0.000886043, -0.000209249, 0.00351179, 0.00385295, -0.0024244, -6.14307e-05, 0.0311378, -0.0180243, -0.00651977, -0.0452417, 0.0948947, 0.0110631, 0.470884, -0.542196, 0.336202, -2.08328, -2.1656, -0.129975, 0.470579, -0.542537, 0.332603, -2.08241, -2.16555, -0.123249, -0.00327414, 0.031836, 0.00808922, 0.015606, 0.002845, -0.00374334
0.12105, 1.6945, -1.22767, -1.54404, -0.900623, -1.19356, 1.23197, -1.30267, 0.0422842, 0.0249197, -0.0451747, -0.00335316, -0.053181, 0.0222939, 0.00177458, -0.76989, 66.8381, 33.2212, 8.11249, 1.92096, 3.88339, -0.0164075, -0.000919492, -0.000192197, 0.00351732, 0.00388767, -0.0025165, -5.83237e-05, 0.0334907, -0.0163382, -0.00502453, -0.0450509, 0.0999638, 0.00598653, 0.470881, -0.542164, 0.33621, -2.08327, -2.1656, -0.129978, 0.470593, -0.542537, 0.3326, -2.08243, -2.16558, -0.123119, -0.00332791, 0.0323731, 0.00822061, 0.0140074, 0.000759584, -0.00245104
0.12205, 1.69454, -1.22763, -1.54409, -0.900623, -1.19361, 1.23199, -1.30267, 0.0406323, 0.0273834, -0.0483513, -0.00232305, -0.0546643, 0.0216054, 0.00118305, -0.920646, 66.7627, 33.3362, 8.11249, 1.93927, 3.87607, -0.0164075, -0.000952647, -0.000174792, 0.00351767, 0.00392989, -0.00262587, -5.82395e-05, 0.0357446, -0.0143142, -0.00456769, -0.0480523, 0.103639, 0.00202808, 0.470877, -0.542132, 0.336219, -2.08325, -2.16559, -0.12998, 0.470609, -0.542537, 0.332602, -2.08245, -2.16562, -0.122964, -0.00338201, 0.0329138, 0.00835276, 0.0120295, -0.00107819, -0.0021576
0.12305, 1.69459, -1.2276, -1.54413, -0.900626, -1.19367, 1.23201, -1.30267, 0.0427641, 0.0261611, -0.05006, -0.00254242, -0.055379, 0.0255629, -0.000432, -1.07537, 66.8024, 33.4076, 8.15216, 1.94568, 3.87607, 0.0165515, -0.000985996, -0.000157155, 0.00352196, 0.00397505, -0.00272892, -6.47366e-05, 0.0363119, -0.015958, -0.00573105, -0.0468679, 0.10544, 0.00496465, 0.470874, -0.542099, 0.336227, -2.08324, -2.16558, -0.129982, 0.470624, -0.542535, 0.332601, -2.08246, -2.16566, -0.122812, -0.00343642, 0.0334582, 0.00848565, 0.0135947, -0.000846448, -0.00331233
0.12405, 1.69463, -1.22759, -1.54417, -0.900626, -1.19373, 1.23203, -1.30268, 0.0399237, 0.0243891, -0.0454885, -0.00174423, -0.05593, 0.0196263, -0.00198342, -1.18645, 66.8738, 33.3719, 8.15216, 1.95209, 3.86233, 0.0623279, -0.00102158, -0.000140554, 0.00352667, 0.00401209, -0.00282654, -7.02041e-05, 0.0370807, -0.0139165, -0.00545552, -0.0475096, 0.101004, 0.00509203, 0.47087, -0.542066, 0.336235, -2.08322, -2.16557, -0.129985, 0.470638, -0.542535, 0.332599, -2.08246, -2.1657, -0.122675, -0.00349116, 0.0340062, 0.00861928, 0.0115388, -0.00118364, -0.00296472
0.12505, 1.69467, -1.22756, -1.54421, -0.900631, -1.1938, 1.23206, -1.30267, 0.0372665, 0.024081, -0.0474254, -0.00296302, -0.0596505, 0.0198842, 0.00108522, -1.26183, 66.9095, 33.4076, 8.22754, 1.92096, 3.84768, -0.00267457, -0.00105898, -0.000124253, 0.00353207, 0.00405143, -0.00293123, -6.22221e-05, 0.0396641, -0.0120228, -0.00636918, -0.0507883, 0.104311, -0.0016382, 0.470867, -0.542032, 0.336244, -2.0832, -2.16557, -0.129987, 0.470652, -0.542537, 0.332596, -2.08249, -2.16573, -0.122527, -0.00354621, 0.0345577, 0.00875364, 0.00965198, -0.00311888, -0.00407755
0.12605, 1.69472, -1.22753, -1.54425, -0.900633, -1.19387, 1.23208, -1.30267, 0.0370267, 0.0270666, -0.048395, -0.00200306, -0.0600362, 0.0200679, 0.000723478, -1.41259, 66.8024, 33.4473, 8.22754, 1.95209, 3.83304, -0.00267457, -0.00109478, -0.000106176, 0.00353266, 0.00409609, -0.00304856, -6.35856e-05, 0.0406485, -0.0114736, -0.00483234, -0.0507908, 0.10795, -0.00295526, 0.470863, -0.541997, 0.336253, -2.08319, -2.16556, -0.12999, 0.470668, -0.542537, 0.332598, -2.08251, -2.16577, -0.122361, -0.00360158, 0.0351128, 0.00888872, 0.00913973, -0.00379511, -0.00256226
0.12705, 1.69476, -1.22752, -1.5443, -0.900634, -1.19393, 1.23211, -1.30267, 0.0381645, 0.0229988, -0.0496227, -0.00135617, -0.0629857, 0.0249756, -0.000229758, -1.48797, 66.9492, 33.483, 8.22754, 1.93927, 3.8193, 0.0165515, -0.00113567, -8.98094e-05, 0.00354449, 0.00413746, -0.00314654, -6.14549e-05, 0.042634, -0.0124268, -0.00724239, -0.0490784, 0.109093, -0.00287054, 0.47086, -0.541962, 0.336262, -2.08317, -2.16555, -0.129992, 0.470681, -0.542539, 0.332588, -2.08252, -2.1658, -0.122218, -0.00365725, 0.0356715, 0.00902453, 0.0100193, -0.00478484, -0.00514493
0.12805, 1.69482, -1.22749, -1.54434, -0.900636, -1.194, 1.23214, -1.30268, 0.0447899, 0.0272824, -0.046538, -0.00408891, -0.0661416, 0.023795, -0.00137388, -1.6784, 66.8024, 33.483, 8.22754, 1.93927, 3.80466, 0.0495105, -0.00117006, -6.821e-05, 0.00354321, 0.0041762, -0.00326567, -7.21737e-05, 0.0389133, -0.0166899, -0.00450218, -0.0507054, 0.115893, 0.00760994, 0.470856, -0.541926, 0.336271, -2.08315, -2.16554, -0.129995, 0.470701, -0.542537, 0.332592, -2.08253, -2.16586, -0.122058, -0.00371324, 0.0362337, 0.00916105, 0.0141875, -0.000797386, -0.00185427
0.12905, 1.69486, -1.22747, -1.54437, -0.900637, -1.19407, 1.23216, -1.30267, 0.0429555, 0.0234064, -0.0447201, -0.00618348, -0.0683508, 0.0228689, 0.00176285, -1.7141, 66.8024, 33.3719, 8.22754, 1.93378, 3.79001, -0.0228162, -0.00121025, -5.11261e-05, 0.00354839, 0.0042116, -0.00337155, -6.27493e-05, 0.0400099, -0.0161398, -0.00645972, -0.0518689, 0.11368, 0.00476147, 0.470852, -0.54189, 0.33628, -2.08314, -2.16554, -0.129998, 0.470715, -0.542539, 0.332589, -2.08256, -2.16589, -0.121913, -0.00376953, 0.0367994, 0.00929827, 0.0135497, -0.0010342, -0.00380449
0.13005, 1.6949, -1.22745, -1.54441, -0.90064, -1.19414, 1.23219, -1.30267, 0.0457946, 0.0247217, -0.0413021, -0.00459431, -0.0697019, 0.0269459, 0.00117523, -1.78948, 66.7627, 33.2966, 8.22754, 1.92096, 3.77627, -0.0228162, -0.00124986, -3.27952e-05, 0.00355412, 0.00424768, -0.00347719, -6.43614e-05, 0.0396589, -0.0185943, -0.00408635, -0.0454149, 0.118136, 0.00798786, 0.470849, -0.541853, 0.336289, -2.08312, -2.16553, -0.13, 0.470731, -0.542539, 0.332586, -2.08257, -2.16593, -0.121769, -0.00382613, 0.0373685, 0.00943618, 0.0160185, -0.000383881, -0.00134431
0.13105, 1.69495, -1.22743, -1.54446, -0.900642, -1.19421, 1.23222, -1.30268, 0.0450717, 0.0218478, -0.0454477, -0.00341687, -0.0758791, 0.0256974, -0.00189528, -1.86486, 66.6159, 33.3719, 8.22754, 1.92096, 3.7543, 0.0495105, -0.00129257, -1.47953e-05, 0.00356058, 0.0042901, -0.00359545, -6.87482e-05, 0.0431428, -0.0163537, -0.00718838, -0.0524681, 0.120165, 0.00538321, 0.470845, -0.541816, 0.336299, -2.0831, -2.16552, -0.130003, 0.470746, -0.542542, 0.332582, -2.08259, -2.16597, -0.121605, -0.00388303, 0.0379411, 0.00957479, 0.0137358, -0.00286308, -0.00474345
0.13205, 1.69499, -1.22742, -1.54449, -0.900643, -1.19428, 1.23225, -1.30267, 0.042475, 0.0134165, -0.0405744, -0.00254341, -0.0758927, 0.0243336, -0.000754892, -1.86486, 66.727, 33.2609, 8.22754, 1.92096, 3.74057, 0.0357776, -0.00133478, 5.37817e-06, 0.00357208, 0.00432045, -0.0036933, -6.94663e-05, 0.0447754, -0.0155074, -0.0103335, -0.0491877, 0.110918, 0.00345891, 0.470841, -0.541778, 0.336308, -2.08308, -2.16551, -0.130006, 0.470764, -0.542543, 0.332573, -2.0826, -2.16601, -0.121475, -0.00394022, 0.0385172, 0.00971408, 0.0127771, -0.00344723, -0.0079387
0.13305, 1.69504, -1.2274, -1.54452, -0.900643, -1.19435, 1.23228, -1.30267, 0.0450965, 0.0165256, -0.0405136, -0.000131488, -0.0702234, 0.0284917, 0.00142952, -1.90453, 66.5802, 33.1498, 8.15216, 1.89624, 3.7186, -0.0164075, -0.00137714, 2.48635e-05, 0.00357566, 0.0043494, -0.00380568, -6.35264e-05, 0.0439292, -0.0178324, -0.00796646, -0.0417431, 0.111599, 0.00365964, 0.470837, -0.541739, 0.336318, -2.08306, -2.1655, -0.130009, 0.47078, -0.542545, 0.332572, -2.08263, -2.16605, -0.121331, -0.00399771, 0.0390967, 0.00985405, 0.0150978, -0.00230204, -0.00540175
0.13405, 1.69509, -1.22739, -1.54456, -0.900654, -1.19443, 1.23232, -1.30267, 0.0471744, 0.0129228, -0.0390584, -0.00592287, -0.0715898, 0.0317938, 0.000953013, -1.94024, 66.5445, 33.1101, 8.26324, 1.89624, 3.69021, -0.0164075, -0.00141717, 4.90618e-05, 0.0035874, 0.00438499, -0.00391284, -7.54399e-05, 0.0425251, -0.0211045, -0.0102487, -0.0414891, 0.111525, 0.0116429, 0.470833, -0.5417, 0.336328, -2.08305, -2.1655, -0.130011, 0.470802, -0.542543, 0.332564, -2.08264, -2.1661, -0.121187, -0.0040555, 0.0396796, 0.00999469, 0.0181738, 0.000154604, -0.00739651
0.13505, 1.69514, -1.22738, -1.54459, -0.900657, -1.1945, 1.23235, -1.30267, 0.0494651, 0.0111813, -0.0373366, -0.00664937, -0.0728154, 0.0341202, -0.000585361, -2.01562, 66.4691, 33.0387, 8.22754, 1.90265, 3.66092, 0.0165515, -0.00145706, 7.44981e-05, 0.00359696, 0.00441836, -0.00402085, -8.65978e-05, 0.0421772, -0.0232166, -0.0107266, -0.0392564, 0.112267, 0.0165947, 0.470829, -0.541661, 0.336338, -2.08303, -2.16549, -0.130014, 0.470824, -0.54254, 0.332557, -2.08265, -2.16615, -0.121044, -0.00411357, 0.0402659, 0.010136, 0.020195, 0.00124552, -0.00773834
0.13605, 1.69519, -1.22738, -1.54463, -0.900664, -1.19457, 1.23238, -1.30267, 0.041167, 0.0120696, -0.035793, -0.00892905, -0.0679531, 0.0300233, -0.000390241, -1.94024, 66.4334, 32.9633, 8.26324, 1.87793, 3.66092, 0.0165515, -0.00150177, 9.46117e-05, 0.00361004, 0.0044508, -0.00412098, -8.89757e-05, 0.0440095, -0.0191613, -0.00994688, -0.0388023, 0.107258, 0.0125785, 0.470825, -0.54162, 0.336348, -2.08301, -2.16548, -0.130017, 0.470841, -0.542541, 0.332547, -2.08266, -2.16619, -0.12091, -0.00417194, 0.0408555, 0.0102779, 0.0161812, -0.000260639, -0.00698889
0.13705, 1.69524, -1.22737, -1.54466, -0.900667, -1.19464, 1.23242, -1.30267, 0.0441824, 0.00876282, -0.0389075, -0.00578313, -0.0695868, 0.0320233, 0.000214557, -1.97991, 66.4334, 32.9236, 8.22754, 1.86603, 3.65451, 0.00373412, -0.00154526, 0.0001184, 0.00362474, 0.00448278, -0.00421975, -9.77422e-05, 0.0456971, -0.0198788, -0.0125828, -0.0396819, 0.106641, 0.0102853, 0.470821, -0.541579, 0.336358, -2.08299, -2.16547, -0.13002, 0.470862, -0.54254, 0.332535, -2.08266, -2.16623, -0.120778, -0.00423059, 0.0414484, 0.0104206, 0.0168032, -0.000896153, -0.00973468
0.13805, 1.69528, -1.22736, -1.5447, -0.90067, -1.19471, 1.23246, -1.30267, 0.041492, 0.0107409, -0.0372507, -0.00653227, -0.0662803, 0.0291554, 0.000651664, -1.94024, 66.2469, 32.8522, 8.18787, 1.85962, 3.63986, -0.00999879, -0.00159024, 0.000140504, 0.00363066, 0.00450504, -0.00433145, -9.79081e-05, 0.0458048, -0.0186798, -0.0110933, -0.0388252, 0.104653, 0.0097445, 0.470816, -0.541538, 0.336369, -2.08297, -2.16546, -0.130023, 0.470881, -0.542541, 0.332532, -2.08269, -2.16628, -0.120643, -0.00428952, 0.0420447, 0.0105638, 0.0156053, -0.000685393, -0.00810179
0.13905, 1.69533, -1.22735, -1.54473, -0.900676, -1.19479, 1.2325, -1.30267, 0.0427048, 0.00923405, -0.0408566, -0.0080767, -0.0685594, 0.0316827, -0.00248168, -1.90453, 66.1755, 32.8522, 8.18787, 1.85962, 3.62521, 0.0687366, -0.00163644, 0.000163863, 0.00364369, 0.00453402, -0.00443889, -0.000111665, 0.0470268, -0.0193365, -0.0133579, -0.0417725, 0.106986, 0.0130389, 0.470812, -0.541496, 0.336379, -2.08295, -2.16545, -0.130026, 0.470901, -0.542541, 0.332522, -2.08269, -2.16633, -0.120506, -0.00434873, 0.0426443, 0.0107077, 0.0161628, -0.00091449, -0.0104054
0.14005, 1.69537, -1.22735, -1.54476, -0.900677, -1.19486, 1.23254, -1.30268, 0.0438835, 0.00905674, -0.0381813, -0.00435354, -0.0651481, 0.0382559, -0.00165445, -1.86486, 66.0645, 32.7768, 8.11249, 1.84772, 3.61148, 0.0687366, -0.00168358, 0.000186102, 0.00365284, 0.00454958, -0.00454058, -0.000117818, 0.0476915, -0.0212738, -0.0115287, -0.0304308, 0.107117, 0.0126034, 0.470808, -0.541453, 0.33639, -2.08293, -2.16544, -0.130029, 0.47092, -0.542543, 0.332515, -2.08271, -2.16638, -0.12039, -0.00440822, 0.0432472, 0.0108522, 0.0181291, -0.00117021, -0.00861896
0.14105, 1.69542, -1.22735, -1.54479, -0.900689, -1.19493, 1.23258, -1.30267, 0.0406605, 0.00459408, -0.0374164, -0.00760117, -0.0685412, 0.0386144, 0.00154189, -1.78948, 66.1359, 32.7372, 8.15216, 1.86603, 3.59683, -0.00267457, -0.00172979, 0.000210741, 0.00366879, 0.00457231, -0.00463822, -0.000119175, 0.0497467, -0.0201303, -0.0141817, -0.0323224, 0.106073, 0.00845996, 0.470803, -0.54141, 0.336401, -2.08291, -2.16543, -0.130032, 0.470941, -0.542542, 0.332502, -2.08272, -2.16642, -0.120269, -0.00446799, 0.0438533, 0.0109973, 0.0169039, -0.00222919, -0.0113795
0.14205, 1.69547, -1.22735, -1.54481, -0.9007, -1.195, 1.23262, -1.30267, 0.0432037, 0.00490317, -0.033531, -0.00968502, -0.0698369, 0.0388919, 0.000790566, -1.78948, 66.0645, 32.7015, 8.18787, 1.85321, 3.58218, 0.00373412, -0.00177261, 0.000238544, 0.00367872, 0.00459095, -0.0047426, -0.000137251, 0.0480661, -0.0226528, -0.0130699, -0.030505, 0.107895, 0.0150347, 0.470799, -0.541366, 0.336412, -2.08288, -2.16542, -0.130036, 0.470966, -0.542537, 0.332496, -2.08273, -2.16648, -0.120147, -0.00452802, 0.0444627, 0.0111431, 0.0193434, -2.83789e-05, -0.00995248
0.14305, 1.6955, -1.22734, -1.54484, -0.9007, -1.19507, 1.23266, -1.30267, 0.0411207, 0.00599475, -0.0309291, -0.0077302, -0.0708845, 0.0381558, -0.00140574, -1.63873, 65.9534, 32.6658, 8.07678, 1.84131, 3.58951, 0.0559192, -0.00182453, 0.000256982, 0.00368646, 0.00459915, -0.00484146, -0.000138831, 0.0496908, -0.021277, -0.0112289, -0.027888, 0.10938, 0.0143933, 0.470794, -0.541322, 0.336423, -2.08286, -2.16541, -0.130039, 0.470981, -0.542542, 0.332491, -2.08275, -2.16653, -0.120041, -0.00458833, 0.0450753, 0.0112895, 0.0180352, -0.00136045, -0.00820081
0.14405, 1.69555, -1.22734, -1.54486, -0.900711, -1.19514, 1.2327, -1.30267, 0.0454753, 0.0023289, -0.0305184, -0.00682387, -0.0726298, 0.037799, -0.000191172, -1.7141, 66.0287, 32.7015, 8.11249, 1.85962, 3.59683, 0.0357776, -0.00186924, 0.000286193, 0.00370192, 0.00461759, -0.0049393, -0.0001557, 0.0492148, -0.0234366, -0.0134212, -0.0290726, 0.107346, 0.0164325, 0.47079, -0.541277, 0.336434, -2.08284, -2.1654, -0.130042, 0.471007, -0.542537, 0.332479, -2.08275, -2.16658, -0.119926, -0.00464891, 0.0456911, 0.0114364, 0.0200337, 0.000153877, -0.0102114
0.14505, 1.69559, -1.22733, -1.54488, -0.900723, -1.1952, 1.23274, -1.30267, 0.0418573, -0.001143, -0.029326, -0.00828984, -0.0734348, 0.0380959, 0.000821988, -1.63873, 65.878, 32.7015, 8.11249, 1.87244, 3.58951, 0.0101428, -0.00191581, 0.000310327, 0.00370662, 0.0046275, -0.00504638, -0.000168269, 0.0512891, -0.0220126, -0.0150775, -0.0284491, 0.104943, 0.013563, 0.470785, -0.541231, 0.336446, -2.08282, -2.16539, -0.130045, 0.471028, -0.542536, 0.332478, -2.08276, -2.16664, -0.119811, -0.00470975, 0.04631, 0.011584, 0.0185645, -0.00107666, -0.0119801
0.14605, 1.69563, -1.22734, -1.5449, -0.900733, -1.19527, 1.23278, -1.30267, 0.0402787, -0.00299593, -0.0282451, -0.00936762, -0.0692227, 0.0370603, 0.000547992, -1.60302, 65.9534, 32.7015, 8.11249, 1.87244, 3.61148, 0.0101428, -0.00196504, 0.000334515, 0.00372021, 0.0046338, -0.00513588, -0.000177391, 0.0513159, -0.0219177, -0.0159975, -0.0267367, 0.0994163, 0.0152255, 0.47078, -0.541185, 0.336457, -2.0828, -2.16538, -0.130049, 0.471048, -0.542535, 0.332467, -2.08277, -2.16669, -0.119718, -0.00477085, 0.0469322, 0.0117321, 0.0183758, -0.000341967, -0.0127427
0.14705, 1.69566, -1.22734, -1.54492, -0.900745, -1.19533, 1.23283, -1.30267, 0.0407807, -0.0023503, -0.0274357, -0.0102882, -0.0619223, 0.0419741, -0.00180481, -1.52764, 65.9534, 32.7015, 8.11249, 1.89075, 3.60415, 0.0687366, -0.00201501, 0.000357541, 0.00372851, 0.00463488, -0.00523236, -0.000193212, 0.050296, -0.0242998, -0.0151121, -0.0186847, 0.0968548, 0.0217465, 0.470776, -0.541138, 0.336469, -2.08277, -2.16537, -0.130052, 0.471068, -0.542535, 0.332462, -2.08278, -2.16675, -0.119624, -0.00483222, 0.0475574, 0.0118809, 0.0206892, 0.00125192, -0.0116351
0.14805, 1.6957, -1.22734, -1.54493, -0.900757, -1.19539, 1.23287, -1.30267, 0.0404164, -0.000996413, -0.0206038, -0.0108925, -0.061238, 0.0454576, 0.000492214, -1.52764, 65.9177, 32.7015, 8.11249, 1.90906, 3.61148, 0.0229602, -0.00206172, 0.000384087, 0.00373704, 0.00463412, -0.0053234, -0.000205929, 0.0495971, -0.0261769, -0.0117031, -0.00932766, 0.0992758, 0.0231626, 0.470771, -0.54109, 0.336481, -2.08275, -2.16536, -0.130056, 0.471091, -0.542531, 0.332458, -2.08279, -2.16681, -0.119537, -0.00489384, 0.0481858, 0.0120302, 0.0226025, 0.00212074, -0.00807009
0.14905, 1.69574, -1.22732, -1.54495, -0.900772, -1.19544, 1.23291, -1.30267, 0.0407406, 0.00257083, -0.0194444, -0.0112658, -0.0641758, 0.0434698, 0.00104022, -1.56335, 65.7709, 32.7372, 8.11249, 1.89624, 3.61148, 0.00373412, -0.00210689, 0.0004115, 0.00373926, 0.00463141, -0.00542448, -0.000224565, 0.0497928, -0.0259286, -0.00947473, -0.0111835, 0.10455, 0.022826, 0.470766, -0.541042, 0.336493, -2.08273, -2.16535, -0.130059, 0.471115, -0.542526, 0.33246, -2.0828, -2.16688, -0.119443, -0.00495572, 0.0488173, 0.01218, 0.0223818, 0.00220444, -0.00574438
0.15005, 1.69577, -1.22732, -1.54496, -0.900786, -1.19549, 1.23295, -1.30267, 0.0329278, 0.00249298, -0.016289, -0.0115074, -0.0577447, 0.0421429, 0.000218762, -1.52764, 65.7312, 32.8126, 8.11249, 1.90265, 3.61148, 0.0165515, -0.00215626, 0.00043434, 0.00374616, 0.00462809, -0.00551227, -0.000239392, 0.0517912, -0.0226816, -0.00819671, -0.00536673, 0.0984149, 0.0198376, 0.470761, -0.540993, 0.336505, -2.0827, -2.16534, -0.130063, 0.471134, -0.542524, 0.332457, -2.08281, -2.16693, -0.119362, -0.00501785, 0.0494519, 0.0123305, 0.019196, 0.000535042, -0.00454549
0.15105, 1.69581, -1.22732, -1.54497, -0.900801, -1.19555, 1.23299, -1.30268, 0.0326094, -0.000212951, -0.0152056, -0.0148834, -0.0578601, 0.040764, -0.00154958, -1.60302, 65.8066, 32.8126, 8.11249, 1.91546, 3.6188, 0.0623279, -0.00220243, 0.000461659, 0.00375486, 0.00462571, -0.00559679, -0.000270671, 0.051489, -0.0232739, -0.0100323, -0.00732106, 0.095662, 0.0248386, 0.470756, -0.540944, 0.336517, -2.08268, -2.16533, -0.130066, 0.471158, -0.542517, 0.332452, -2.0828, -2.167, -0.119286, -0.00508023, 0.0500896, 0.0124815, 0.0196468, 0.00178015, -0.00617901
0.15205, 1.69583, -1.22732, -1.54497, -0.900827, -1.1956, 1.23303, -1.30267, 0.0297634, -0.00106096, -0.0104455, -0.0170115, -0.0535516, 0.0353117, 0.000899727, -1.56335, 65.8423, 32.7768, 8.22754, 1.93927, 3.6188, 0.0101428, -0.00225071, 0.000485875, 0.00376142, 0.00461839, -0.00568435, -0.000288343, 0.0504496, -0.0225405, -0.00952723, -0.00638506, 0.0886897, 0.0252057, 0.470751, -0.540894, 0.33653, -2.08266, -2.16532, -0.13007, 0.471178, -0.542513, 0.33245, -2.0828, -2.16706, -0.119211, -0.00514285, 0.0507303, 0.012633, 0.018833, 0.00333887, -0.00534528
0.15305, 1.69586, -1.22731, -1.54498, -0.900841, -1.19564, 1.23307, -1.30267, 0.0255188, -0.000770135, -0.00865654, -0.0147703, -0.0490355, 0.0404583, 0.0001251, -1.56335, 65.8423, 32.8126, 8.18787, 1.92737, 3.62521, 0.0229602, -0.00229947, 0.000509587, 0.00376426, 0.00460423, -0.00576757, -0.000304501, 0.0529058, -0.0214634, -0.00778525, 0.00363401, 0.0876977, 0.0222451, 0.470746, -0.540843, 0.336542, -2.08263, -2.16531, -0.130073, 0.471199, -0.542509, 0.332451, -2.08281, -2.16712, -0.119147, -0.00520573, 0.051374, 0.0127851, 0.0178472, 0.00124439, -0.0038251
0.15405, 1.69589, -1.22732, -1.54498, -0.900861, -1.19569, 1.23311, -1.30267, 0.0277913, -0.000102352, -0.00734232, -0.0172377, -0.0472696, 0.0391587, -0.000153959, -1.52764, 65.9534, 32.8522, 8.18787, 1.95758, 3.63986, 0.0293689, -0.00235132, 0.00053048, 0.00377167, 0.00459601, -0.00584856, -0.000319756, 0.0510035, -0.0235129, -0.00755644, 0.00316066, 0.0868016, 0.0281857, 0.470741, -0.540792, 0.336555, -2.08261, -2.1653, -0.130077, 0.471216, -0.542506, 0.332448, -2.08282, -2.16718, -0.119079, -0.00526884, 0.0520207, 0.0129378, 0.0197709, 0.00381859, -0.00321404
0.15505, 1.69591, -1.22731, -1.54499, -0.90089, -1.19574, 1.23315, -1.30267, 0.027901, -0.000684074, -0.00797578, -0.0178136, -0.0452217, 0.0396215, -0.00132334, -1.56335, 65.9891, 32.9633, 8.26324, 1.9704, 3.6188, 0.0623279, -0.00239751, 0.000557653, 0.00377792, 0.00458737, -0.005932, -0.000353202, 0.051279, -0.0239574, -0.00821933, 0.00376241, 0.0851991, 0.0304139, 0.470735, -0.54074, 0.336568, -2.08258, -2.16528, -0.130081, 0.471239, -0.542498, 0.332447, -2.0828, -2.16725, -0.119011, -0.0053322, 0.0526704, 0.0130909, 0.020137, 0.0043179, -0.00377344
0.15605, 1.69594, -1.22732, -1.54498, -0.900913, -1.19577, 1.23318, -1.30267, 0.0250144, -0.00372519, -0.00475101, -0.0186901, -0.0380441, 0.0390974, 0.00105055, -1.60302, 66.1359, 32.9236, 8.22754, 1.95758, 3.6188, 0.0101428, -0.00244446, 0.000582398, 0.00378434, 0.00457082, -0.00599832, -0.00037505, 0.0511082, -0.0239154, -0.0089458, 0.00938483, 0.0761252, 0.0299931, 0.47073, -0.540687, 0.336581, -2.08255, -2.16527, -0.130085, 0.47126, -0.542489, 0.332445, -2.0828, -2.16731, -0.118968, -0.0053958, 0.0533231, 0.0132446, 0.0199986, 0.00525058, -0.00431036
0.15705, 1.69596, -1.22732, -1.54498, -0.90094, -1.19581, 1.23322, -1.30267, 0.025007, -0.00106182, -0.00436674, -0.0202547, -0.0382912, 0.0389528, 0.00022565, -1.60302, 66.2112, 32.9633, 8.22754, 1.9704, 3.61148, 0.0229602, -0.00249447, 0.000605263, 0.00379053, 0.00455842, -0.00607488, -0.000400072, 0.051026, -0.024267, -0.00751769, 0.00911678, 0.0793545, 0.03229, 0.470725, -0.540634, 0.336594, -2.08253, -2.16526, -0.130089, 0.471279, -0.542483, 0.332444, -2.08279, -2.16737, -0.118911, -0.00545963, 0.0539787, 0.0133988, 0.0203358, 0.00578113, -0.00274572
0.15805, 1.69598, -1.22731, -1.54498, -0.900971, -1.19584, 1.23325, -1.30267, 0.02276, -0.00119542, -0.00135145, -0.0214231, -0.0326723, 0.0389732, 0.000387792, -1.63873, 66.2469, 32.8879, 8.22754, 1.95209, 3.60415, 0.0165515, -0.00254003, 0.000630231, 0.00379329, 0.00454003, -0.00614367, -0.000432147, 0.0506282, -0.0244829, -0.00662887, 0.0143159, 0.0747835, 0.0342971, 0.470719, -0.54058, 0.336608, -2.0825, -2.16525, -0.130092, 0.4713, -0.542473, 0.332447, -2.08277, -2.16744, -0.118869, -0.00552369, 0.0546373, 0.0135535, 0.020506, 0.00670407, -0.00165947
0.15905, 1.69599, -1.22731, -1.54498, -0.901005, -1.19587, 1.23328, -1.30268, 0.0161265, 0.00163661, -0.00365208, -0.0231529, -0.0334429, 0.0391992, -0.00143689, -1.60302, 66.2866, 32.999, 8.26324, 1.93927, 3.58951, 0.0623279, -0.00259054, 0.000650981, 0.00379896, 0.00453056, -0.00621776, -0.000464577, 0.0541432, -0.0206809, -0.00569038, 0.0127267, 0.0787697, 0.0297333, 0.470714, -0.540525, 0.336621, -2.08248, -2.16524, -0.130096, 0.471317, -0.542466, 0.332446, -2.08276, -2.16751, -0.118811, -0.00558799, 0.0552987, 0.0137087, 0.0168064, 0.00359384, -0.00101103
0.16005, 1.696, -1.2273, -1.54498, -0.901043, -1.1959, 1.23332, -1.30267, 0.0185076, 0.00304631, -0.000785967, -0.0266376, -0.0345497, 0.0395287, 2.54156e-05, -1.60302, 66.358, 32.9236, 8.26324, 1.93927, 3.56845, 0.0357776, -0.0026376, 0.000674707, 0.00380222, 0.00451389, -0.00628813, -0.000493556, 0.0522514, -0.0232566, -0.00447631, 0.0132687, 0.0817766, 0.034717, 0.470708, -0.54047, 0.336635, -2.08245, -2.16522, -0.1301, 0.471336, -0.542456, 0.332448, -2.08274, -2.16757, -0.118765, -0.00565251, 0.0559631, 0.0138645, 0.019291, 0.00604438, 0.000557789
0.16105, 1.69602, -1.2273, -1.54497, -0.901088, -1.19593, 1.23335, -1.30267, 0.0169809, -0.000798013, 0.00198861, -0.0311379, -0.0310071, 0.0398759, 0.00120374, -1.60302, 66.5048, 32.8126, 8.33862, 1.94568, 3.54648, 0.00373412, -0.00268272, 0.000701305, 0.00380788, 0.0044936, -0.0063525, -0.000532134, 0.0513902, -0.0244727, -0.00633429, 0.0155699, 0.0757062, 0.0386144, 0.470702, -0.540414, 0.336649, -2.08242, -2.16521, -0.130104, 0.471358, -0.542442, 0.332449, -2.08272, -2.16764, -0.118731, -0.00571726, 0.0566303, 0.0140207, 0.020341, 0.00790052, -0.00102474
0.16205, 1.69603, -1.22729, -1.54497, -0.901122, -1.19596, 1.23338, -1.30267, 0.0118065, 0.00252004, -0.000501896, -0.0299311, -0.0321074, 0.0349573, -0.000384302, -1.56335, 66.3937, 32.8879, 8.22754, 1.93378, 3.53274, 0.0357776, -0.00273361, 0.000718808, 0.00380773, 0.00448678, -0.00642757, -0.00055726, 0.0546649, -0.0198115, -0.00529276, 0.0104012, 0.0777218, 0.0324509, 0.470697, -0.540357, 0.336663, -2.08239, -2.1652, -0.130108, 0.471372, -0.542435, 0.332454, -2.08271, -2.1677, -0.118669, -0.00578224, 0.0573004, 0.0141774, 0.0157779, 0.00498453, -0.000209032
0.16305, 1.69604, -1.22728, -1.54497, -0.901168, -1.19598, 1.23341, -1.30267, 0.00985945, 0.00164064, -0.000382897, -0.0360202, -0.03332, 0.0364197, -0.00171426, -1.60302, 66.5445, 32.8879, 8.26324, 1.93378, 3.51077, 0.0751453, -0.00277911, 0.000744206, 0.00381389, 0.00447339, -0.0064895, -0.000603659, 0.0548612, -0.020289, -0.00643747, 0.00869884, 0.0793567, 0.0369352, 0.470691, -0.5403, 0.336677, -2.08237, -2.16519, -0.130113, 0.471393, -0.542421, 0.332454, -2.08267, -2.16778, -0.118629, -0.00584743, 0.0579733, 0.0143346, 0.0161544, 0.00566144, -0.00122897
0.16405, 1.69605, -1.22727, -1.54497, -0.901222, -1.19599, 1.23343, -1.30267, 0.0105425, 0.00783709, 0.00284315, -0.0445586, -0.0294802, 0.0325893, 0.0010273, -1.60302, 66.5445, 32.8879, 8.33862, 1.92737, 3.48971, 0.0165515, -0.00282343, 0.000768122, 0.00381534, 0.0044616, -0.00655695, -0.00064488, 0.0503063, -0.0228091, -0.00326911, 0.00653438, 0.0813727, 0.0450905, 0.470685, -0.540242, 0.336692, -2.08234, -2.16517, -0.130117, 0.471412, -0.542405, 0.33246, -2.08264, -2.16785, -0.118583, -0.00591285, 0.058649, 0.0144922, 0.0185591, 0.0104466, 0.00268923
0.16505, 1.69605, -1.22726, -1.54497, -0.901264, -1.19601, 1.23346, -1.30267, 0.00927547, 0.0124775, 0.00212949, -0.0433018, -0.0274114, 0.0347752, 0.000210146, -1.52764, 66.5445, 32.8879, 8.22754, 1.93927, 3.46042, 0.0293689, -0.00287457, 0.00078601, 0.00381586, 0.00444381, -0.0066213, -0.00067239, 0.0514754, -0.0222802, -0.000401127, 0.0101164, 0.0856278, 0.0438724, 0.470679, -0.540183, 0.336706, -2.08231, -2.16516, -0.130121, 0.471426, -0.542396, 0.332465, -2.08262, -2.16791, -0.118544, -0.00597848, 0.0593275, 0.0146504, 0.018114, 0.00950483, 0.00551061
0.16605, 1.69605, -1.22724, -1.54496, -0.901317, -1.19602, 1.23349, -1.30267, 0.00532861, 0.0134798, 0.00243041, -0.0473553, -0.0205462, 0.0311957, -9.72613e-05, -1.45226, 66.5048, 32.8522, 8.18787, 1.93927, 3.44668, 0.0357776, -0.00292116, 0.000806909, 0.00381297, 0.0044251, -0.0066879, -0.000712575, 0.0508436, -0.0211626, -0.00043845, 0.00938791, 0.0797686, 0.0462754, 0.470673, -0.540124, 0.336721, -2.08228, -2.16515, -0.130125, 0.471443, -0.542382, 0.332474, -2.08259, -2.16799, -0.118506, -0.00604433, 0.0600088, 0.0148089, 0.0169082, 0.0107696, 0.00576429
0.16705, 1.69605, -1.22723, -1.54496, -0.90137, -1.19602, 1.23351, -1.30267, 0.0015423, 0.0139053, 0.000916713, -0.0463688, -0.0160795, 0.0289906, -0.00128554, -1.33721, 66.6159, 32.8879, 8.11249, 1.95758, 3.41739, 0.0687366, -0.0029714, 0.000826082, 0.00381796, 0.00441016, -0.00674475, -0.000752183, 0.0526914, -0.0186804, -0.000633266, 0.00945859, 0.0756822, 0.0436536, 0.470667, -0.540064, 0.336735, -2.08225, -2.16513, -0.130129, 0.471457, -0.54237, 0.332476, -2.08256, -2.16805, -0.118473, -0.00611038, 0.0606929, 0.014968, 0.014423, 0.0095577, 0.00551738
0.16805, 1.69605, -1.22722, -1.54495, -0.901427, -1.19603, 1.23354, -1.30267, 0.00280618, 0.0120701, 0.00378463, -0.0517675, -0.0115568, 0.0272925, 0.00131311, -1.26183, 66.6913, 32.8879, 8.03711, 1.94568, 3.38901, 0.0101428, -0.00301754, 0.000848142, 0.00381948, 0.00439358, -0.00680158, -0.000790758, 0.0497275, -0.0213776, -0.00173059, 0.00985179, 0.0699751, 0.0499956, 0.470661, -0.540003, 0.33675, -2.08222, -2.16512, -0.130134, 0.471475, -0.542354, 0.332481, -2.08253, -2.16812, -0.118442, -0.00617665, 0.0613797, 0.0151275, 0.0169028, 0.0134524, 0.00497207
0.16905, 1.69605, -1.2272, -1.54495, -0.901483, -1.19603, 1.23356, -1.30267, 0.00597906, 0.0166436, 0.00285337, -0.0522199, -0.0091038, 0.0259882, -0.000345297, -1.26183, 66.6516, 32.8879, 7.92602, 1.95758, 3.36062, 0.0431018, -0.00306384, 0.000870602, 0.0038161, 0.00437455, -0.00686762, -0.000838768, 0.0480349, -0.0230873, 0.000237028, 0.00889209, 0.0724351, 0.0555126, 0.470655, -0.539942, 0.336766, -2.08219, -2.1651, -0.130138, 0.471493, -0.542337, 0.332492, -2.08249, -2.1682, -0.118405, -0.00624313, 0.0620692, 0.0152874, 0.018556, 0.0155784, 0.00728458
0.17005, 1.69605, -1.22718, -1.54494, -0.901546, -1.19603, 1.23359, -1.30267, 0.00215373, 0.0163575, 0.00214996, -0.0544253, -0.00658459, 0.0250451, -0.000942275, -1.15075, 66.7627, 32.8879, 7.89032, 1.95209, 3.33133, 0.0623279, -0.00311171, 0.000891915, 0.0038189, 0.0043552, -0.00692185, -0.000887188, 0.049372, -0.0214653, -0.000422972, 0.00829999, 0.0700842, 0.0548232, 0.470649, -0.53988, 0.336781, -2.08216, -2.16509, -0.130143, 0.47151, -0.542321, 0.332496, -2.08245, -2.16828, -0.118381, -0.00630981, 0.0627614, 0.0154478, 0.0168935, 0.0149866, 0.00663296
0.17105, 1.69604, -1.22716, -1.54494, -0.901604, -1.19603, 1.23362, -1.30268, 0.000247185, 0.0178213, 0.000783876, -0.0566184, -0.00560703, 0.0237432, -0.00137417, -1.07537, 66.8024, 32.9236, 7.73956, 1.9704, 3.31759, 0.0824695, -0.0031624, 0.000910136, 0.00381629, 0.00433625, -0.00698641, -0.000927619, 0.0501043, -0.0205281, -0.000415057, 0.0059643, 0.0706738, 0.0549893, 0.470642, -0.539817, 0.336796, -2.08213, -2.16508, -0.130147, 0.471523, -0.542308, 0.332505, -2.08242, -2.16835, -0.118346, -0.00637669, 0.0634563, 0.0156086, 0.0159177, 0.014919, 0.00671446
0.17205, 1.69603, -1.22714, -1.54494, -0.901674, -1.19603, 1.23364, -1.30267, -0.00842895, 0.0199902, -0.00110131, -0.0577881, -0.00390501, 0.0271975, 0.00200001, -0.960319, 66.8024, 32.999, 7.70386, 1.96399, 3.31027, 0.00373412, -0.00320998, 0.000930245, 0.00381417, 0.00431997, -0.00704899, -0.000969793, 0.0545522, -0.016412, 0.000744054, 0.00924276, 0.0734535, 0.0437625, 0.470636, -0.539753, 0.336812, -2.0821, -2.16506, -0.130152, 0.471539, -0.542291, 0.332515, -2.08238, -2.16842, -0.118309, -0.00644377, 0.0641539, 0.0157699, 0.0119441, 0.0108762, 0.00744992
0.17305, 1.69603, -1.22712, -1.54493, -0.901739, -1.19603, 1.23367, -1.30267, -0.00675189, 0.0205738, -0.000629706, -0.0601528, -0.00358477, 0.0207787, -0.000599439, -0.920646, 66.8381, 32.999, 7.59277, 1.9823, 3.29562, 0.0559192, -0.00325945, 0.000950114, 0.00380995, 0.00430147, -0.00711732, -0.00101799, 0.0529404, -0.0168549, 0.000220596, 0.0030481, 0.0711875, 0.0504455, 0.470629, -0.539689, 0.336828, -2.08207, -2.16505, -0.130156, 0.471554, -0.542275, 0.332526, -2.08234, -2.16851, -0.11827, -0.00651106, 0.0648541, 0.0159315, 0.0122418, 0.0132673, 0.00733179
0.17405, 1.69602, -1.22709, -1.54493, -0.901804, -1.19603, 1.23369, -1.30267, -0.0054899, 0.0205586, 0.00190853, -0.0609478, -0.00217648, 0.0253896, 0.000346359, -0.884941, 66.7627, 33.0387, 7.44202, 1.9704, 3.28097, 0.0357776, -0.00330741, 0.000971121, 0.00380154, 0.00427907, -0.00718813, -0.00106218, 0.0525291, -0.0192378, 0.00128649, 0.00952563, 0.0726056, 0.0532051, 0.470623, -0.539624, 0.336844, -2.08204, -2.16503, -0.130161, 0.47157, -0.542258, 0.332542, -2.08231, -2.16859, -0.118232, -0.00657853, 0.0655569, 0.0160936, 0.0145791, 0.0143098, 0.00853448
0.17505, 1.696, -1.22707, -1.54492, -0.901879, -1.19603, 1.23372, -1.30268, -0.0105305, 0.0183282, 0.00474041, -0.0633092, -0.00185893, 0.0290947, -0.00149842, -0.734184, 66.9095, 33.0387, 7.36664, 1.97681, 3.25992, 0.0824695, -0.00335881, 0.000989508, 0.00380076, 0.00425922, -0.00724991, -0.0011142, 0.0547319, -0.0182385, 0.00118755, 0.0149875, 0.0721653, 0.053725, 0.470616, -0.539559, 0.33686, -2.082, -2.16502, -0.130166, 0.471584, -0.542242, 0.332551, -2.08227, -2.16867, -0.118201, -0.0066462, 0.0662624, 0.0162561, 0.0135898, 0.0128155, 0.00828358
0.17605, 1.69599, -1.22704, -1.54491, -0.901954, -1.19603, 1.23375, -1.30267, -0.010067, 0.0193786, 0.0069555, -0.0660058, -0.00180803, 0.0278061, 0.00144246, -0.619133, 66.9492, 33.0387, 7.33093, 1.98871, 3.22421, 0.0165515, -0.0034097, 0.00100908, 0.00379509, 0.00423755, -0.00732211, -0.00115531, 0.0537444, -0.0192861, 0.0020258, 0.0147456, 0.0730092, 0.0547191, 0.47061, -0.539493, 0.336876, -2.08197, -2.165, -0.13017, 0.471599, -0.542226, 0.332564, -2.08224, -2.16875, -0.118161, -0.00671407, 0.0669704, 0.016419, 0.0145641, 0.0144118, 0.00939415
0.17705, 1.69598, -1.22701, -1.5449, -0.902028, -1.19603, 1.23377, -1.30267, -0.0108649, 0.0249238, 0.00679354, -0.0670922, -0.00130131, 0.0255799, 0.000961638, -0.583427, 66.9095, 33.1101, 7.25555, 1.98871, 3.21689, 0.0165515, -0.00346004, 0.00102868, 0.00378681, 0.00422148, -0.00740029, -0.00120347, 0.0536928, -0.0186398, 0.0048807, 0.0131531, 0.0774667, 0.0553948, 0.470603, -0.539426, 0.336892, -2.08194, -2.16499, -0.130175, 0.471614, -0.542209, 0.33258, -2.0822, -2.16883, -0.118109, -0.00678212, 0.0676811, 0.0165822, 0.0139557, 0.0147033, 0.0124021
0.17805, 1.69596, -1.22698, -1.5449, -0.90211, -1.19603, 1.2338, -1.30267, -0.0124946, 0.0250222, 0.00750817, -0.0727784, -0.0020924, 0.0253107, -0.00081697, -0.508049, 66.9095, 33.1498, 7.25555, 2.01984, 3.17386, 0.0559192, -0.00351173, 0.0010495, 0.0037805, 0.00420209, -0.00748154, -0.00125932, 0.0534293, -0.0190232, 0.00440781, 0.0108986, 0.0788351, 0.060688, 0.470596, -0.539358, 0.336909, -2.0819, -2.16497, -0.13018, 0.47163, -0.542193, 0.332594, -2.08216, -2.16893, -0.118059, -0.00685036, 0.0683942, 0.0167459, 0.0142436, 0.0157663, 0.0121264
0.17905, 1.69595, -1.22695, -1.54489, -0.90219, -1.19603, 1.23383, -1.30267, -0.0106865, 0.0265601, 0.00499855, -0.0751772, -0.00256788, 0.0239866, -0.000782006, -0.43267, 66.9849, 33.1855, 7.18018, 2.05005, 3.15921, 0.0623279, -0.00356469, 0.00106881, 0.0037763, 0.00418587, -0.00755668, -0.00130931, 0.0529828, -0.0198442, 0.00382823, 0.00621466, 0.0809121, 0.063207, 0.470589, -0.53929, 0.336926, -2.08187, -2.16495, -0.130185, 0.471644, -0.542176, 0.332606, -2.08212, -2.16902, -0.118011, -0.00691878, 0.06911, 0.01691, 0.0149577, 0.0170472, 0.0117608
0.18005, 1.69594, -1.22692, -1.54488, -0.902263, -1.19603, 1.23386, -1.30267, -0.0115493, 0.0231748, 0.00697216, -0.0749678, -0.00243057, 0.0281968, 0.0016488, -0.392998, 66.9849, 33.1855, 7.02942, 2.06836, 3.13083, 0.00373412, -0.00361817, 0.00109032, 0.00376774, 0.00415595, -0.00763501, -0.00135148, 0.0544745, -0.0205572, 0.00293048, 0.0117795, 0.0797141, 0.0608802, 0.470582, -0.53922, 0.336943, -2.08184, -2.16494, -0.13019, 0.471661, -0.54216, 0.332622, -2.0821, -2.1691, -0.117974, -0.00698738, 0.0698282, 0.0170744, 0.0156219, 0.0164627, 0.0107809
0.18105, 1.69592, -1.22689, -1.54487, -0.902344, -1.19604, 1.23389, -1.30267, -0.0139248, 0.0268646, 0.00670556, -0.0748119, -0.00212546, 0.0303075, -0.000358861, -0.281914, 66.9849, 33.2609, 6.99371, 2.08118, 3.13083, 0.0431018, -0.00367397, 0.00110701, 0.00376073, 0.00413973, -0.00771592, -0.00140093, 0.0561874, -0.0195374, 0.00529538, 0.0144382, 0.0844839, 0.0603752, 0.470575, -0.539151, 0.33696, -2.0818, -2.16492, -0.130195, 0.471673, -0.542146, 0.332636, -2.08206, -2.16919, -0.11792, -0.00705617, 0.0705489, 0.0172392, 0.0146855, 0.0150831, 0.0130415
0.18205, 1.6959, -1.22686, -1.54486, -0.902424, -1.19603, 1.23392, -1.30267, -0.0140748, 0.0264735, 0.00834419, -0.0767553, -0.00211791, 0.0275183, -0.00142604, -0.242241, 66.9849, 33.2609, 6.91833, 2.09949, 3.1235, 0.0751453, -0.0037286, 0.00112642, 0.00375314, 0.00411593, -0.0077933, -0.00145414, 0.0558211, -0.019717, 0.00508633, 0.0126819, 0.0831428, 0.0638438, 0.470568, -0.53908, 0.336977, -2.08177, -2.16491, -0.1302, 0.471688, -0.542129, 0.332652, -2.08203, -2.16929, -0.117878, -0.00712513, 0.0712721, 0.0174044, 0.0147754, 0.0162083, 0.0130501
0.18305, 1.69589, -1.22684, -1.54485, -0.902509, -1.19604, 1.23395, -1.30267, -0.0122835, 0.0284923, 0.00957849, -0.0790965, -0.00142902, 0.0301806, 0.000744731, -0.281914, 67.0206, 33.2609, 6.88263, 2.09949, 3.11618, 0.0293689, -0.00378123, 0.00114948, 0.00374856, 0.00409679, -0.00787119, -0.00150703, 0.05476, -0.0220337, 0.00647346, 0.0153654, 0.0864684, 0.0663477, 0.470561, -0.539009, 0.336994, -2.08173, -2.16489, -0.130205, 0.471705, -0.54211, 0.332665, -2.08198, -2.16938, -0.117831, -0.00719427, 0.0719978, 0.0175699, 0.0170338, 0.0178621, 0.0146767
0.18405, 1.69587, -1.22682, -1.54485, -0.90259, -1.19604, 1.23398, -1.30267, -0.00995926, 0.0251618, 0.00645439, -0.0790341, -0.00208446, 0.0325319, 0.00144592, -0.242241, 67.1317, 33.2966, 6.77154, 2.1297, 3.10245, 0.00373412, -0.00383844, 0.00116946, 0.00374723, 0.00407608, -0.00794299, -0.00155388, 0.0558252, -0.0232311, 0.00345156, 0.0139297, 0.085517, 0.0663139, 0.470554, -0.538937, 0.337012, -2.0817, -2.16487, -0.13021, 0.47172, -0.542093, 0.332674, -2.08195, -2.16946, -0.117791, -0.00726359, 0.0727259, 0.0177358, 0.018086, 0.0180592, 0.0116527
0.18505, 1.69585, -1.22678, -1.54484, -0.902682, -1.19604, 1.23401, -1.30267, -0.0160883, 0.0303523, 0.00498088, -0.0847282, -0.00231478, 0.0293365, 0.00324973, -0.131157, 67.0602, 33.2966, 6.77154, 2.15442, 3.09512, 0.0687366, -0.00389491, 0.00118812, 0.00374002, 0.00405696, -0.00802662, -0.00161384, 0.0571536, -0.0201345, 0.00518136, 0.00861997, 0.0900666, 0.0626096, 0.470547, -0.538864, 0.33703, -2.08166, -2.16485, -0.130215, 0.471734, -0.542077, 0.332689, -2.0819, -2.16956, -0.117739, -0.00733307, 0.0734565, 0.0179021, 0.0150376, 0.0170811, 0.0134131
