alisrour97/Franka_experiments/Real_Robot_scripts/servo-franka/Data3/log_dyn_INIT0_5.csv
Time,q1,q2,q3,q4,q5,q6,q7,dq1,dq2,dq3,dq4,dq5,dq6,dq7,t1,t2,t3,t4,t5,t6,t7,ex1,ex2,ex3,ex4,ex5,ex6,ev1,ev2,ev3,ev4,ev5,ev6,xd,yd,zd,uxd,uyd,uzd,x,y,z,ux,uy,uz,vxd,vyd,vzd,vx,vy,vz
4.88281e-07, 1.69113, -1.22817, -1.53984, -0.900331, -1.19254, 1.22776, -1.30261, -0.00512319, -0.000196044, -0.00275034, 0.00481987, 0.000821608, -0.00471265, 0.000269669, 0.6623, 64.1483, 32.8879, 7.25555, 3.21094, 4.39242, -0.133595, 0.000228686, -0.00213681, 0.00235864, 0.00314178, 0.00177105, 0.00107181, 0.00366723, 0.00520749, -0.000570067, -0.00304516, -0.00358162, -0.0105896, 0.471008, -0.543389, 0.335894, -2.08385, -2.16584, -0.129887, 0.468789, -0.542881, 0.333666, -2.08239, -2.1625, -0.128083, 1.77043e-06, 3.2e-05, 1.02972e-05, -0.00508845, -0.00371371, -0.000964823
0.0121265, 1.69109, -1.22816, -1.53986, -0.900322, -1.19254, 1.22772, -1.30262, -0.00806722, 0.00159412, -0.0035357, -0.00611087, -0.000178119, -0.0057164, 0.0012556, 0.511544, 64.1125, 32.7768, 7.25555, 3.20453, 4.39242, -0.199513, 0.000208314, -0.00217154, 0.00235778, 0.00317511, 0.00177631, 0.00112408, 0.00185519, 0.00488731, -0.00124661, -0.00964845, -0.000537903, -0.00565318, 0.471008, -0.543389, 0.335894, -2.08385, -2.16584, -0.129887, 0.468747, -0.54291, 0.333663, -2.08244, -2.16241, -0.128051, 1.77746e-06, 6.40623e-05, 1.89552e-05, -0.00485789, -0.00177551, -0.00135263
0.0131265, 1.69109, -1.22816, -1.53986, -0.900322, -1.19254, 1.22772, -1.30262, -0.00806722, 0.00159412, -0.0035357, -0.00611087, -0.000178119, -0.0057164, 0.0012556, 0.511544, 64.1125, 32.7768, 7.25555, 3.20453, 4.39242, -0.199513, 0.000208307, -0.00217154, 0.00235778, 0.00317511, 0.00177631, 0.00112408, 0.00189145, 0.00488846, -0.00125057, -0.00964382, -0.000511362, -0.00565058, 0.471008, -0.543389, 0.335894, -2.08385, -2.16584, -0.129887, 0.468747, -0.54291, 0.333663, -2.08244, -2.16241, -0.128051, 1.77167e-06, 9.92934e-05, 2.84561e-05, -0.00485789, -0.00177551, -0.00135263
0.0141265, 1.69109, -1.22816, -1.53986, -0.900322, -1.19254, 1.22772, -1.30262, -0.00806722, 0.00159412, -0.0035357, -0.00611087, -0.000178119, -0.0057164, 0.0012556, 0.511544, 64.1125, 32.7768, 7.25555, 3.20453, 4.39242, -0.199513, 0.000208287, -0.00217154, 0.00235778, 0.0031751, 0.0017763, 0.00112409, 0.00193109, 0.00488971, -0.00125488, -0.00963871, -0.000482354, -0.00564773, 0.471008, -0.543389, 0.335894, -2.08385, -2.16584, -0.129887, 0.468747, -0.54291, 0.333663, -2.08244, -2.16241, -0.128051, 1.75167e-06, 0.000137819, 3.88327e-05, -0.00485789, -0.00177551, -0.00135263
0.0151265, 1.69109, -1.22816, -1.53986, -0.900322, -1.19254, 1.22772, -1.30262, -0.00806722, 0.00159412, -0.0035357, -0.00611087, -0.000178119, -0.0057164, 0.0012556, 0.511544, 64.1125, 32.7768, 7.25555, 3.20453, 4.39242, -0.199513, 0.000208247, -0.00217154, 0.00235779, 0.00317508, 0.00177628, 0.0011241, 0.00197425, 0.00489105, -0.00125957, -0.00963313, -0.000450788, -0.00564463, 0.471008, -0.543389, 0.335894, -2.08385, -2.16584, -0.129887, 0.468747, -0.54291, 0.333663, -2.08244, -2.16241, -0.128051, 1.716e-06, 0.000179762, 5.01169e-05, -0.00485789, -0.00177551, -0.00135263
0.0161265, 1.69109, -1.22816, -1.53986, -0.900322, -1.19254, 1.22772, -1.30262, -0.00806722, 0.00159412, -0.0035357, -0.00611087, -0.000178119, -0.0057164, 0.0012556, 0.511544, 64.1125, 32.7768, 7.25555, 3.20453, 4.39242, -0.199513, 0.000208183, -0.00217154, 0.00235779, 0.00317506, 0.00177625, 0.00112411, 0.00202106, 0.00489249, -0.00126463, -0.00962705, -0.000416572, -0.00564126, 0.471008, -0.543389, 0.335894, -2.08385, -2.16584, -0.129887, 0.468747, -0.54291, 0.333663, -2.08244, -2.16241, -0.128051, 1.66317e-06, 0.000225248, 6.23407e-05, -0.00485789, -0.00177551, -0.00135263
0.0171265, 1.69109, -1.22816, -1.53986, -0.900322, -1.19254, 1.22772, -1.30262, -0.00806722, 0.00159412, -0.0035357, -0.00611087, -0.000178119, -0.0057164, 0.0012556, 0.511544, 64.1125, 32.7768, 7.25555, 3.20453, 4.39242, -0.199513, 0.000208087, -0.00217155, 0.0023578, 0.00317502, 0.0017762, 0.00112414, 0.00207163, 0.00489403, -0.0012701, -0.00962044, -0.000379617, -0.00563761, 0.471008, -0.543389, 0.335894, -2.08385, -2.16584, -0.129887, 0.468747, -0.54291, 0.333663, -2.08244, -2.16241, -0.128051, 1.59159e-06, 0.000274397, 7.55354e-05, -0.00485789, -0.00177551, -0.00135263
0.0181265, 1.69109, -1.22816, -1.53986, -0.900322, -1.19254, 1.22772, -1.30262, -0.00806722, 0.00159412, -0.0035357, -0.00611087, -0.000178119, -0.0057164, 0.0012556, 0.511544, 64.1125, 32.7768, 7.25555, 3.20453, 4.39242, -0.199513, 0.000207953, -0.00217155, 0.00235782, 0.00317497, 0.00177614, 0.00112417, 0.00212609, 0.00489567, -0.00127596, -0.00961329, -0.000339833, -0.00563369, 0.471008, -0.543389, 0.335894, -2.08385, -2.16584, -0.129887, 0.468747, -0.54291, 0.333663, -2.08244, -2.16241, -0.128051, 1.49965e-06, 0.00032733, 8.9732e-05, -0.00485789, -0.00177551, -0.00135263
0.0191265, 1.69109, -1.22816, -1.53986, -0.900322, -1.19254, 1.22772, -1.30262, -0.00806722, 0.00159412, -0.0035357, -0.00611087, -0.000178119, -0.0057164, 0.0012556, 0.511544, 64.1125, 32.7768, 7.25555, 3.20453, 4.39242, -0.199513, 0.000207775, -0.00217156, 0.00235784, 0.00317489, 0.00177605, 0.00112421, 0.00218457, 0.00489743, -0.00128225, -0.00960558, -0.000297134, -0.00562947, 0.471008, -0.543389, 0.335894, -2.08385, -2.16584, -0.129887, 0.468747, -0.54291, 0.333663, -2.08244, -2.16241, -0.128051, 1.38564e-06, 0.000384166, 0.000104961, -0.00485789, -0.00177551, -0.00135263
0.0201265, 1.69105, -1.22817, -1.53988, -0.900336, -1.19254, 1.22772, -1.30263, -0.00624366, -0.00154704, -0.00192702, -0.00392008, 0.000174229, -0.000205969, -0.00128553, 0.285408, 64.2593, 32.8126, 7.36664, 3.16791, 4.3851, -0.140919, 0.000189345, -0.00219474, 0.00236978, 0.00319148, 0.00178743, 0.00115416, 0.00255196, 0.00297597, -0.00187633, -0.00274236, -0.00118335, -0.00225155, 0.471008, -0.543389, 0.335894, -2.08385, -2.16584, -0.129887, 0.468724, -0.542927, 0.33365, -2.08245, -2.16236, -0.128041, 1.24785e-06, 0.00044502, 0.000121252, -0.00294736, -0.00190731, -0.00203786
0.0211265, 1.69105, -1.22817, -1.53989, -0.900337, -1.19253, 1.22772, -1.30262, -0.00387556, -0.000183491, -0.00235249, -0.0029211, 0.000590891, 8.50332e-05, 9.24144e-05, 0.245735, 64.2236, 32.8522, 7.36664, 3.15509, 4.37778, -0.166554, 0.000188549, -0.00219562, 0.00237102, 0.00319318, 0.00178929, 0.00115865, 0.00177438, 0.00187104, -0.00119376, -0.00244093, 4.43114e-05, -0.00225242, 0.471008, -0.543388, 0.335894, -2.08385, -2.16584, -0.129887, 0.468723, -0.542927, 0.333648, -2.08246, -2.16236, -0.12804, 1.08446e-06, 0.000510009, 0.000138634, -0.00184719, -0.00113453, -0.00125911
0.0221265, 1.69104, -1.22817, -1.53989, -0.900341, -1.19254, 1.22773, -1.30263, -0.00399259, -0.00654689, -0.00673743, -0.00533745, -0.00716967, 0.00185105, -0.000650467, 0.285408, 63.9658, 32.6658, 7.36664, 3.10657, 4.32834, -0.147328, 0.000185515, -0.00219769, 0.00237512, 0.00319852, 0.00178855, 0.00116, 0.00440223, 0.00261169, -0.00666983, -0.0100116, 0.00147263, -0.00408825, 0.471008, -0.543388, 0.335894, -2.08385, -2.16584, -0.129887, 0.468721, -0.542929, 0.333644, -2.08246, -2.16236, -0.128033, 8.93621e-07, 0.000579243, 0.000157137, -0.00269077, -0.00284704, -0.00703332
0.0231265, 1.69104, -1.22818, -1.53991, -0.900346, -1.19254, 1.22773, -1.30262, -0.00209435, -0.0116716, -0.0110625, -0.00852852, -0.00732886, 0.00520771, -0.000433645, 0.245735, 63.5611, 32.3682, 7.29126, 2.89783, 4.2203, -0.147328, 0.000181921, -0.00219894, 0.00238936, 0.00321487, 0.00179998, 0.00116652, 0.00444606, 0.000910927, -0.0114718, -0.0131814, -0.00116893, -0.00166597, 0.471008, -0.543388, 0.335894, -2.08384, -2.16584, -0.129887, 0.468719, -0.54293, 0.333629, -2.08245, -2.16234, -0.128026, 6.73433e-07, 0.000652833, 0.000176787, -0.00116419, -0.00200805, -0.0118133
0.0241265, 1.69105, -1.22819, -1.53993, -0.900352, -1.19254, 1.22772, -1.30262, 9.65251e-05, -0.0058, -0.0149773, -0.00702788, -0.0130256, 0.0030906, -0.000797723, 0.170357, 62.8589, 31.9556, 7.18018, 2.70099, 4.10586, -0.133595, 0.000177242, -0.00220234, 0.00240294, 0.00324818, 0.00179776, 0.0011768, 0.00517143, 0.00184619, -0.00950972, -0.0202298, 0.00854553, -0.00434593, 0.471008, -0.543387, 0.335894, -2.08384, -2.16584, -0.129887, 0.468716, -0.542932, 0.333616, -2.08244, -2.16231, -0.127986, 4.21933e-07, 0.000730885, 0.000197611, -0.00200174, -0.00298636, -0.00993947
0.0251265, 1.69105, -1.2282, -1.53997, -0.900355, -1.19256, 1.22772, -1.30262, 0.00162473, -0.00540293, -0.0181346, -0.00434032, -0.0139058, 4.03323e-05, -0.00148125, 0.0949785, 62.2717, 31.4002, 6.99371, 2.53528, 4.0198, -0.10796, 0.00016964, -0.00220773, 0.00242411, 0.00329171, 0.00180337, 0.00119158, 0.00584866, 0.00281386, -0.0103788, -0.0249694, 0.00822934, -0.00632025, 0.471008, -0.543387, 0.335895, -2.08384, -2.16584, -0.129887, 0.46871, -0.542936, 0.333594, -2.08243, -2.16228, -0.127942, 1.37109e-07, 0.000813505, 0.000219637, -0.0029756, -0.00347813, -0.0108516
0.0261265, 1.69105, -1.22821, -1.54002, -0.900365, -1.19258, 1.22771, -1.30262, 0.00176622, -0.00527683, -0.0288763, -0.00756335, -0.0113593, -0.00254101, -0.000512783, 0.059273, 61.6806, 31.0273, 6.88263, 2.39978, 3.94107, -0.120778, 0.000158067, -0.00221761, 0.00245063, 0.00336194, 0.00179556, 0.00121581, 0.00636284, 0.00410303, -0.0148012, -0.0369498, 0.0060348, -0.00863225, 0.471008, -0.543386, 0.335895, -2.08384, -2.16584, -0.129887, 0.468699, -0.542943, 0.333566, -2.08242, -2.16223, -0.127854, -1.83099e-07, 0.000900793, 0.00024289, -0.00440467, -0.00327052, -0.015236
0.0271265, 1.69107, -1.22824, -1.54008, -0.900376, -1.19261, 1.2277, -1.30262, 0.00635309, -0.0125068, -0.0351459, -0.00759729, -0.0156066, -0.00449315, -0.00129129, -0.166862, 61.387, 30.579, 6.80725, 2.30182, 3.86233, -0.0951428, 0.000149748, -0.00221991, 0.0024903, 0.00344475, 0.00179915, 0.00122282, 0.00702169, 0.00333847, -0.0216984, -0.0474336, 0.00196261, -0.00758469, 0.471008, -0.543385, 0.335895, -2.08384, -2.16584, -0.129887, 0.468696, -0.542945, 0.333526, -2.08238, -2.16219, -0.127765, -5.40806e-07, 0.000992849, 0.000267393, -0.00386688, -0.00273602, -0.0221472
0.0281265, 1.69107, -1.22826, -1.54014, -0.900384, -1.19264, 1.22769, -1.30262, 0.00649256, -0.0134274, -0.0422904, -0.00893255, -0.0256856, 0.000422432, 0.000563293, -0.131157, 61.0538, 30.095, 6.65649, 2.2652, 3.74057, -0.133595, 0.000131731, -0.00223294, 0.00252403, 0.00352741, 0.00178563, 0.00125608, 0.010737, 0.00444968, -0.0245457, -0.0548339, 0.0123873, -0.0149109, 0.471008, -0.543384, 0.335895, -2.08384, -2.16584, -0.129887, 0.468682, -0.542957, 0.333491, -2.08238, -2.16213, -0.127656, -9.38169e-07, 0.00108977, 0.000293171, -0.00494699, -0.00591423, -0.0254761
0.0291265, 1.69107, -1.22827, -1.5402, -0.900398, -1.19268, 1.22768, -1.30262, 0.00276578, -0.011928, -0.0471299, -0.00879298, -0.0276156, -0.000700566, -0.00155725, -0.0557783, 60.7602, 29.5752, 6.58508, 2.21576, 3.6188, -0.0814099, 0.000113589, -0.00224521, 0.00255648, 0.00360994, 0.00176323, 0.0012792, 0.0136631, 0.00788333, -0.0252732, -0.0601538, 0.0151572, -0.019582, 0.471008, -0.543383, 0.335895, -2.08384, -2.16584, -0.129887, 0.468669, -0.54297, 0.333456, -2.08237, -2.16208, -0.12754, -1.3774e-06, 0.00119164, 0.000320246, -0.00829828, -0.00872956, -0.026518
0.0301265, 1.69109, -1.22829, -1.54027, -0.900412, -1.19272, 1.22768, -1.30262, 0.00375758, -0.0139434, -0.0548228, -0.0093619, -0.033949, 0.00307304, -0.000529541, -0.131157, 60.6134, 29.238, 6.54541, 2.17273, 3.49612, -0.0951428, 9.65973e-05, -0.00225323, 0.00259714, 0.00370451, 0.001743, 0.00130569, 0.0165927, 0.00855216, -0.0289974, -0.067138, 0.0208607, -0.0248978, 0.471008, -0.543382, 0.335896, -2.08384, -2.16584, -0.129887, 0.468661, -0.54298, 0.333414, -2.08236, -2.16203, -0.127412, -1.86074e-06, 0.00129855, 0.00034864, -0.00899642, -0.010969, -0.0306015
0.0311265, 1.69109, -1.22829, -1.54034, -0.900423, -1.19277, 1.22768, -1.30262, 0.000854675, -0.00856253, -0.0601265, -0.015203, -0.0335499, 0.00421208, -0.000353028, -0.0557783, 60.3198, 28.8691, 6.47003, 2.1178, 3.41739, -0.0951428, 7.69435e-05, -0.00226549, 0.0026261, 0.00379399, 0.00170223, 0.00134374, 0.0169036, 0.00966347, -0.0282833, -0.0724559, 0.0273003, -0.0253315, 0.471008, -0.543381, 0.335896, -2.08384, -2.16584, -0.129887, 0.468648, -0.542994, 0.333383, -2.08237, -2.16198, -0.127268, -2.39049e-06, 0.00141058, 0.000378373, -0.0100699, -0.0113193, -0.0298814
0.0321265, 1.6911, -1.2283, -1.54042, -0.900439, -1.19282, 1.22768, -1.30262, 0.00065443, -0.00782276, -0.0633305, -0.01726, -0.0376103, 0.00410847, 0.000476725, -0.0557783, 60.173, 28.6072, 6.43433, 2.06195, 3.36703, -0.114369, 6.03428e-05, -0.00227336, 0.00266126, 0.0038901, 0.00166775, 0.00137222, 0.0178908, 0.0103792, -0.0292789, -0.0781106, 0.0317793, -0.0274573, 0.471008, -0.54338, 0.335896, -2.08384, -2.16584, -0.129887, 0.468639, -0.543004, 0.333346, -2.08237, -2.16193, -0.127124, -2.969e-06, 0.00152782, 0.000409465, -0.0107859, -0.0120526, -0.0309651
0.0331265, 1.69112, -1.22831, -1.5405, -0.900448, -1.19286, 1.22768, -1.30262, 0.0102345, -0.00692465, -0.0679887, -0.0170555, -0.0402152, 0.00231557, -0.000902886, -0.0914839, 60.0223, 28.4565, 6.32324, 1.98871, 3.36703, -0.0814099, 4.31311e-05, -0.00228161, 0.00269361, 0.00399048, 0.00162524, 0.00139876, 0.0150412, 0.00651408, -0.0310446, -0.0862621, 0.0345985, -0.0199141, 0.471008, -0.543379, 0.335897, -2.08384, -2.16584, -0.129888, 0.468631, -0.543015, 0.333312, -2.08236, -2.16189, -0.126967, -3.59863e-06, 0.00165034, 0.000441934, -0.00709213, -0.0086869, -0.0323503
0.0341265, 1.69114, -1.2283, -1.54057, -0.900464, -1.19291, 1.22769, -1.30261, 0.0138718, -0.00132897, -0.0694959, -0.0164335, -0.0424167, 0.0108353, -0.000364565, -0.0914839, 59.8041, 28.2343, 6.32324, 1.92096, 3.36062, -0.0878186, 3.0263e-05, -0.0022851, 0.00271478, 0.00407809, 0.00156348, 0.00142184, 0.0148639, 0.00367219, -0.0276643, -0.0809906, 0.0464517, -0.0189599, 0.471008, -0.543377, 0.335897, -2.08384, -2.16584, -0.129888, 0.468627, -0.543023, 0.33329, -2.08237, -2.16186, -0.126805, -4.2818e-06, 0.00177822, 0.000475796, -0.00413892, -0.00878808, -0.0290368
0.0351265, 1.69115, -1.22828, -1.54065, -0.90048, -1.19297, 1.22769, -1.30261, 0.0108196, 0.0011852, -0.0714225, -0.0157482, -0.0439872, 0.0123302, 0.000740301, 0.0196001, 59.6573, 28.1986, 6.32324, 1.85321, 3.36703, -0.114369, 1.08968e-05, -0.00229561, 0.00273854, 0.00417914, 0.0014945, 0.00145965, 0.0171902, 0.00583497, -0.0264958, -0.0810796, 0.051051, -0.0251641, 0.471008, -0.543375, 0.335898, -2.08384, -2.16584, -0.129888, 0.468616, -0.543037, 0.333264, -2.08239, -2.16182, -0.126619, -5.02096e-06, 0.00191151, 0.000511068, -0.00617428, -0.0112197, -0.0281436
0.0361265, 1.69116, -1.22827, -1.54072, -0.900498, -1.19302, 1.2277, -1.30261, 0.0158673, 0.003868, -0.0730649, -0.0151847, -0.0454361, 0.0098072, 0.000968252, 0.0949785, 59.6176, 28.1986, 6.32324, 1.79187, 3.34598, -0.127186, -5.9218e-06, -0.00230088, 0.00276373, 0.00427327, 0.00142746, 0.00148618, 0.0153779, 0.00409705, -0.0259202, -0.0856589, 0.0539862, -0.0222151, 0.471008, -0.543374, 0.335898, -2.08383, -2.16584, -0.129888, 0.468611, -0.543048, 0.333237, -2.0824, -2.1618, -0.126444, -5.81861e-06, 0.00205028, 0.000547764, -0.00448345, -0.00930925, -0.0273096
0.0371265, 1.69117, -1.22826, -1.5408, -0.90052, -1.19308, 1.2277, -1.30261, 0.0130164, 0.00688777, -0.0710882, -0.0162866, -0.0508641, 0.00660101, 0.00088286, 0.325081, 59.5462, 28.1986, 6.39465, 1.72504, 3.36062, -0.133595, -2.1365e-05, -0.00230864, 0.00278383, 0.004367, 0.00135984, 0.00151106, 0.0165131, 0.0063622, -0.0237388, -0.0890521, 0.0598377, -0.0248913, 0.471008, -0.543372, 0.335899, -2.08383, -2.16584, -0.129888, 0.468603, -0.543059, 0.333216, -2.08241, -2.16177, -0.12627, -6.67726e-06, 0.00219459, 0.000585897, -0.00662719, -0.010714, -0.0252255
0.0381265, 1.69118, -1.22824, -1.54087, -0.900548, -1.19314, 1.22771, -1.30261, 0.0127632, 0.0123107, -0.0711183, -0.0210078, -0.0520661, 0.0035323, 0.000351215, 0.626595, 59.4708, 28.274, 6.5097, 1.71222, 3.39633, -0.127186, -3.81383e-05, -0.00231793, 0.00280413, 0.00446828, 0.00128303, 0.00153836, 0.0148027, 0.00625656, -0.0214834, -0.0940297, 0.0652219, -0.0209847, 0.471008, -0.54337, 0.335899, -2.08383, -2.16584, -0.129888, 0.468593, -0.54307, 0.333194, -2.08242, -2.16175, -0.126077, -7.59945e-06, 0.00234449, 0.000625478, -0.00650236, -0.00921838, -0.0226965
0.0391265, 1.69118, -1.22822, -1.54094, -0.900575, -1.1932, 1.22771, -1.30261, 0.00490971, 0.0112253, -0.0694961, -0.0235942, -0.0592843, 5.05478e-05, -0.000715293, 1.00349, 59.3597, 28.4208, 6.58508, 1.73694, 3.46774, -0.101552, -5.68499e-05, -0.00233063, 0.00281955, 0.0045685, 0.00119898, 0.00156699, 0.0185058, 0.0112412, -0.021808, -0.0990744, 0.0683075, -0.0270071, 0.471008, -0.543367, 0.3359, -2.08383, -2.16584, -0.129888, 0.468581, -0.543085, 0.333177, -2.08244, -2.16172, -0.125878, -8.58778e-06, 0.00250002, 0.000666519, -0.0113609, -0.0128726, -0.0234006
0.0401265, 1.69119, -1.2282, -1.54101, -0.900609, -1.19327, 1.22771, -1.30261, 0.00229221, 0.0109465, -0.0687734, -0.0262416, -0.0648923, 0.00256015, -0.00193492, 1.38038, 59.3597, 28.6072, 6.69617, 1.77356, 3.53274, -0.0621838, -7.3876e-05, -0.00234161, 0.00283856, 0.00467268, 0.00111866, 0.00158937, 0.020295, 0.012167, -0.0217402, -0.0997258, 0.0740811, -0.0275588, 0.471008, -0.543365, 0.3359, -2.08383, -2.16584, -0.129889, 0.46857, -0.543097, 0.333157, -2.08245, -2.1617, -0.125679, -9.64483e-06, 0.00266124, 0.000709027, -0.0122201, -0.0145261, -0.0235409
0.0411265, 1.69119, -1.22819, -1.54107, -0.900637, -1.19334, 1.22771, -1.30261, 0.00281738, 0.0114065, -0.0666021, -0.0255426, -0.0644544, 0.000457144, 0.00277089, 1.68189, 59.4708, 28.8691, 6.69617, 1.81659, 3.58218, -0.0420422, -9.12061e-05, -0.00235144, 0.00286021, 0.0047726, 0.00104737, 0.00161225, 0.0196424, 0.0119942, -0.0208295, -0.0991388, 0.0730918, -0.0311646, 0.471008, -0.543362, 0.335901, -2.08383, -2.16584, -0.129889, 0.46856, -0.543108, 0.333134, -2.08245, -2.16168, -0.125494, -1.07732e-05, 0.00282817, 0.000753011, -0.0120391, -0.0138479, -0.0225016
0.0421265, 1.6912, -1.22818, -1.54113, -0.90066, -1.19341, 1.22771, -1.30261, 0.00486942, 0.0113532, -0.0645139, -0.0256886, -0.0694093, -0.000615499, 0.00224783, 1.90803, 59.6176, 29.1269, 6.58508, 1.88434, 3.6188, -0.0420422, -0.000107278, -0.00235888, 0.00287928, 0.00487095, 0.00097113, 0.00163096, 0.0193076, 0.0112007, -0.0203562, -0.100923, 0.0766393, -0.0291253, 0.471008, -0.54336, 0.335902, -2.08382, -2.16584, -0.129889, 0.468552, -0.543119, 0.333113, -2.08246, -2.16167, -0.125306, -1.19756e-05, 0.00300084, 0.000798475, -0.0112427, -0.0133852, -0.0219608
0.0431265, 1.69121, -1.22817, -1.54118, -0.900684, -1.19348, 1.22771, -1.30261, 0.00524113, 0.0115367, -0.0619091, -0.0261391, -0.067565, -0.000591903, 0.00203634, 2.17384, 59.7644, 29.3531, 6.47003, 1.92737, 3.63254, -0.0484509, -0.000123533, -0.00236628, 0.00289304, 0.0049567, 0.000891096, 0.00165504, 0.018274, 0.0102267, -0.0194225, -0.0979925, 0.0753408, -0.0262731, 0.471008, -0.543357, 0.335903, -2.08382, -2.16584, -0.129889, 0.468545, -0.54313, 0.333098, -2.08248, -2.16165, -0.125128, -1.32547e-05, 0.00317929, 0.000845424, -0.0102745, -0.0122902, -0.0208608
0.0441265, 1.69123, -1.22816, -1.54123, -0.900702, -1.19356, 1.22771, -1.3026, 0.00604806, 0.00938446, -0.0617375, -0.0249334, -0.0728117, -0.00147174, 0.00331221, 2.28492, 60.0223, 29.6506, 6.28357, 2.02533, 3.66824, -0.0951428, -0.000138819, -0.00237101, 0.00291016, 0.00505175, 0.000810015, 0.00167962, 0.0195727, 0.0107339, -0.0205933, -0.10076, 0.0771104, -0.0294214, 0.471008, -0.543354, 0.335903, -2.08382, -2.16584, -0.129889, 0.46854, -0.54314, 0.33308, -2.08249, -2.16163, -0.124938, -1.46131e-05, 0.00336352, 0.000893861, -0.0107783, -0.0132285, -0.0221547
0.0451265, 1.69124, -1.22816, -1.54128, -0.900723, -1.19364, 1.22771, -1.3026, 0.00659551, 0.00547521, -0.0540269, -0.0234065, -0.0791651, -0.00188226, 0.00332656, 2.51106, 60.3912, 29.9085, 6.0614, 2.06836, 3.69754, -0.120778, -0.000158329, -0.00237956, 0.00292843, 0.00513896, 0.000733317, 0.00170743, 0.0199543, 0.0101296, -0.0200276, -0.0969958, 0.0777489, -0.0285581, 0.471008, -0.54335, 0.335904, -2.08382, -2.16584, -0.12989, 0.468531, -0.543153, 0.33306, -2.08251, -2.16161, -0.124761, -1.60536e-05, 0.00355356, 0.000943786, -0.0101422, -0.0134776, -0.0216237
0.0461265, 1.69126, -1.22816, -1.54132, -0.900746, -1.19373, 1.22771, -1.30261, 0.0116419, 0.00305387, -0.0482886, -0.0211647, -0.0849525, -0.00271056, -0.000571672, 2.55073, 60.7602, 30.1703, 5.91064, 2.13611, 3.74057, -0.0420422, -0.000171731, -0.00238048, 0.0029457, 0.0052276, 0.000652048, 0.00170859, 0.0186759, 0.00754686, -0.0194598, -0.0952884, 0.0794059, -0.0207545, 0.471008, -0.543347, 0.335905, -2.08381, -2.16583, -0.12989, 0.46853, -0.54316, 0.333042, -2.0825, -2.16162, -0.124581, -1.75788e-05, 0.0037494, 0.000995199, -0.00758949, -0.0120013, -0.0208911
0.0471265, 1.69127, -1.22815, -1.54136, -0.900763, -1.19383, 1.2277, -1.3026, 0.0131867, 0.000803115, -0.0461874, -0.0177183, -0.0939778, -0.00407715, 0.00191799, 2.66181, 61.1649, 30.3925, 5.68848, 2.20935, 3.80466, -0.101552, -0.000189983, -0.00238571, 0.00296141, 0.00531773, 0.000563564, 0.00173597, 0.0206341, 0.00831209, -0.0197744, -0.0976109, 0.0836534, -0.0266831, 0.471008, -0.543343, 0.335906, -2.08381, -2.16583, -0.12989, 0.468525, -0.543172, 0.333024, -2.08253, -2.16161, -0.124389, -1.91915e-05, 0.00395105, 0.0010481, -0.00829668, -0.0137157, -0.0214297
0.0481265, 1.69129, -1.22815, -1.54139, -0.900782, -1.19393, 1.2277, -1.3026, 0.0113338, 0.00316943, -0.0416668, -0.0170288, -0.0960139, -0.00450545, 0.00525876, 2.77686, 61.5338, 30.6186, 5.53772, 2.2771, 3.85501, -0.0814099, -0.000208506, -0.00239215, 0.0029747, 0.00540585, 0.000472578, 0.00175746, 0.0210746, 0.00906222, -0.0166432, -0.0941325, 0.0872206, -0.0309968, 0.471008, -0.543339, 0.335907, -2.08381, -2.16583, -0.129891, 0.468519, -0.543185, 0.33301, -2.08255, -2.1616, -0.124197, -2.08943e-05, 0.0041585, 0.00110247, -0.00891872, -0.0144558, -0.0183293
0.0491265, 1.6913, -1.22815, -1.54142, -0.900809, -1.19403, 1.2277, -1.3026, 0.00975255, 0.00202388, -0.0383592, -0.0231844, -0.101558, -0.00399658, 0.00323513, 2.89191, 61.9028, 30.8408, 5.53772, 2.32654, 3.88339, -0.0621838, -0.000226478, -0.00239695, 0.00299076, 0.00549472, 0.000381772, 0.00177209, 0.0207411, 0.00850699, -0.0168884, -0.0961195, 0.0912991, -0.0253639, 0.471008, -0.543335, 0.335908, -2.08381, -2.16583, -0.129891, 0.468514, -0.543196, 0.332992, -2.08256, -2.1616, -0.124005, -2.269e-05, 0.00437173, 0.00115833, -0.00838679, -0.0138529, -0.0184806
0.0501265, 1.6913, -1.22815, -1.54145, -0.900833, -1.19414, 1.2277, -1.3026, 0.0100474, 0.00207535, -0.0365851, -0.0242828, -0.105612, -0.0037058, 0.00370849, 3.07838, 62.2321, 31.1027, 5.53772, 2.38147, 3.91269, -0.0951428, -0.000250391, -0.00240822, 0.00300484, 0.00558711, 0.000282158, 0.00180515, 0.0209698, 0.00819323, -0.0163893, -0.0967339, 0.0949727, -0.0250682, 0.471008, -0.543331, 0.335909, -2.0838, -2.16583, -0.129891, 0.468503, -0.543214, 0.332976, -2.08259, -2.16159, -0.123799, -2.45814e-05, 0.00459073, 0.00121564, -0.00804914, -0.0139236, -0.0179754
0.0511265, 1.69132, -1.22814, -1.54149, -0.900854, -1.19426, 1.22769, -1.3026, 0.0147449, 0.000479762, -0.0375312, -0.0217451, -0.108941, 0.000272391, 0.00197461, 3.07838, 62.4899, 31.3248, 5.53772, 2.43732, 3.96945, -0.0750012, -0.000268271, -0.00241216, 0.00301632, 0.00568502, 0.000174109, 0.00182009, 0.0212883, 0.00591444, -0.0172286, -0.0952821, 0.0982397, -0.0224294, 0.471008, -0.543326, 0.335911, -2.0838, -2.16583, -0.129892, 0.468499, -0.543225, 0.332963, -2.08261, -2.1616, -0.12358, -2.6571e-05, 0.00481547, 0.00127442, -0.00579422, -0.0137908, -0.0188636
0.0521301, 1.69134, -1.22813, -1.5415, -0.900884, -1.19439, 1.22769, -1.3026, 0.0131177, 0.00237275, -0.031588, -0.0272427, -0.114208, -0.0018003, 0.00150261, 3.15376, 62.7478, 31.4002, 5.72418, 2.44281, 4.03445, -0.0750012, -0.00028575, -0.00241737, 0.00302453, 0.00577943, 6.16791e-05, 0.00183308, 0.0200365, 0.00556033, -0.0148847, -0.0964975, 0.10363, -0.0176761, 0.471008, -0.543321, 0.335912, -2.0838, -2.16583, -0.129892, 0.468495, -0.543237, 0.332954, -2.08262, -2.16161, -0.12336, -2.86617e-05, 0.00504591, 0.00133464, -0.00540277, -0.0126708, -0.0163053
0.0531301, 1.69135, -1.22813, -1.54153, -0.900904, -1.19452, 1.22768, -1.3026, 0.0156731, 0.00283684, -0.0301197, -0.024295, -0.118974, -0.0024747, -0.000791389, 3.19343, 63.0453, 31.5867, 5.76385, 2.46112, 4.07748, -0.0228162, -0.000309959, -0.00242467, 0.00303712, 0.00587669, -5.54419e-05, 0.00185723, 0.0205446, 0.00519964, -0.0138921, -0.096943, 0.107567, -0.0163186, 0.471008, -0.543316, 0.335913, -2.08379, -2.16583, -0.129892, 0.468488, -0.543254, 0.332939, -2.08265, -2.16161, -0.123132, -3.0856e-05, 0.00528201, 0.00139628, -0.00499072, -0.0130743, -0.0153534
0.0541301, 1.69136, -1.22813, -1.54155, -0.900931, -1.19465, 1.22768, -1.3026, 0.0127698, 0.00162178, -0.0261681, -0.0286725, -0.120805, -0.00351272, 0.000526582, 3.30451, 63.4103, 31.6581, 5.95032, 2.43091, 4.13424, -0.0484509, -0.00033433, -0.00243398, 0.00305373, 0.00597221, -0.000158572, 0.00188175, 0.0203299, 0.00553249, -0.0137723, -0.0969295, 0.10756, -0.0153393, 0.471008, -0.543311, 0.335915, -2.08379, -2.16583, -0.129893, 0.468479, -0.54327, 0.332921, -2.08268, -2.1616, -0.122919, -3.31567e-05, 0.00552372, 0.00145934, -0.00532879, -0.0126527, -0.0151286
0.0551301, 1.69137, -1.22813, -1.54158, -0.900949, -1.19478, 1.22767, -1.30261, 0.0122229, 0.00415073, -0.0236965, -0.0280888, -0.126004, -0.0042985, -0.000519827, 3.34419, 63.6325, 31.7335, 5.98602, 2.38147, 4.19192, -0.0228162, -0.000358213, -0.0024419, 0.00306353, 0.00606699, -0.000275442, 0.00190445, 0.0211993, 0.00631457, -0.0113851, -0.0972594, 0.113904, -0.0159271, 0.471008, -0.543305, 0.335916, -2.08378, -2.16583, -0.129893, 0.468471, -0.543287, 0.332909, -2.08271, -2.16161, -0.122694, -3.55665e-05, 0.00577098, 0.0015238, -0.00599492, -0.0136632, -0.0128184
0.0561301, 1.69139, -1.22812, -1.5416, -0.90097, -1.19492, 1.22766, -1.30261, 0.0158134, 0.00528506, -0.0258323, -0.0224312, -0.134899, -0.00537586, -0.000287636, 3.34419, 63.7436, 31.8445, 6.0614, 2.34485, 4.26333, -0.0228162, -0.000381773, -0.00245048, 0.00307306, 0.00617303, -0.000399893, 0.00192984, 0.0235281, 0.00717037, -0.0109848, -0.10195, 0.12174, -0.021572, 0.471008, -0.5433, 0.335918, -2.08378, -2.16583, -0.129894, 0.468463, -0.543304, 0.332898, -2.08274, -2.16161, -0.122448, -3.8088e-05, 0.00602372, 0.00158964, -0.00675436, -0.0158062, -0.0126932
0.0571301, 1.69141, -1.22813, -1.54162, -0.900993, -1.19507, 1.22765, -1.3026, 0.0192035, 0.00314076, -0.0237225, -0.0253475, -0.142104, -0.00561914, 0.000564506, 3.30451, 63.9658, 31.9199, 6.17248, 2.30182, 4.32101, -0.0420422, -0.000405873, -0.00245662, 0.00308732, 0.0062796, -0.000523461, 0.00195385, 0.022588, 0.00506606, -0.0121181, -0.10572, 0.125816, -0.0178511, 0.471008, -0.543294, 0.335919, -2.08378, -2.16583, -0.129894, 0.468457, -0.543319, 0.332882, -2.08276, -2.16161, -0.122203, -4.07237e-05, 0.00628188, 0.00165682, -0.00472998, -0.0143593, -0.0136626
0.0581301, 1.69143, -1.22813, -1.54164, -0.901012, -1.19523, 1.22764, -1.30261, 0.021685, 0.00160461, -0.0220963, -0.0193542, -0.147894, -0.00577267, -0.000539958, 3.26881, 64.184, 31.9953, 6.20819, 2.27161, 4.37778, -0.0164075, -0.000431375, -0.00246346, 0.00310177, 0.00638612, -0.00064646, 0.00197621, 0.0244674, 0.00538416, -0.011774, -0.104759, 0.128602, -0.0206485, 0.471008, -0.543287, 0.335921, -2.08377, -2.16582, -0.129894, 0.468451, -0.543336, 0.332866, -2.08279, -2.16161, -0.121958, -4.34763e-05, 0.00654537, 0.00172534, -0.00497074, -0.0160172, -0.0135365
0.0591301, 1.69145, -1.22814, -1.54166, -0.901028, -1.19538, 1.22764, -1.3026, 0.0227335, -0.00101659, -0.0198977, -0.0203516, -0.148129, -0.0048767, 0.000851678, 3.26881, 64.3347, 32.031, 6.20819, 2.24689, 4.40707, -0.0484509, -0.000458733, -0.00247051, 0.00311505, 0.00648448, -0.000770331, 0.00200793, 0.02391, 0.0040036, -0.0126747, -0.102977, 0.126815, -0.0190771, 0.471008, -0.543281, 0.335923, -2.08377, -2.16582, -0.129895, 0.468444, -0.543355, 0.33285, -2.08283, -2.16161, -0.121721, -4.63483e-05, 0.0068141, 0.00179515, -0.00364734, -0.0150029, -0.0143112
0.0601301, 1.69147, -1.22814, -1.54168, -0.901052, -1.19553, 1.22763, -1.3026, 0.0200461, -0.00126806, -0.0218661, -0.0208518, -0.152228, -0.00857516, 0.00156977, 3.26881, 64.4061, 32.0707, 6.32324, 2.20935, 4.42813, -0.0750012, -0.000484374, -0.00247662, 0.00312763, 0.00659023, -0.000901631, 0.00203371, 0.02609, 0.00689416, -0.0137873, -0.109619, 0.12838, -0.0243035, 0.471008, -0.543274, 0.335924, -2.08376, -2.16582, -0.129895, 0.468438, -0.543372, 0.332836, -2.08286, -2.16162, -0.121469, -4.93422e-05, 0.00708797, 0.00186624, -0.00649937, -0.0168282, -0.01559
0.0611301, 1.69148, -1.22814, -1.54169, -0.901068, -1.1957, 1.22763, -1.30259, 0.0172614, -0.00179853, -0.0177004, -0.0183583, -0.153074, -0.00660958, 0.00180648, 3.30451, 64.4815, 32.1421, 6.32324, 2.23407, 4.44278, -0.0951428, -0.000517492, -0.00248789, 0.0031391, 0.00669444, -0.0010428, 0.00207763, 0.0279059, 0.0080092, -0.0119827, -0.103045, 0.12915, -0.0277214, 0.471007, -0.543267, 0.335926, -2.08376, -2.16582, -0.129896, 0.468428, -0.543396, 0.332821, -2.08292, -2.16161, -0.121206, -5.24605e-05, 0.00736687, 0.00193857, -0.00748586, -0.0186654, -0.0139841
0.0621301, 1.6915, -1.22815, -1.54171, -0.901086, -1.19586, 1.22763, -1.3026, 0.0160404, -0.00318992, -0.0178159, -0.0174984, -0.151842, -0.00626279, 0.00046882, 3.30451, 64.5926, 32.2175, 6.35895, 2.21576, 4.48581, -0.0750012, -0.000545512, -0.00249439, 0.00315498, 0.00679876, -0.00116821, 0.00210012, 0.0289379, 0.00868701, -0.0126527, -0.101745, 0.127026, -0.027934, 0.471007, -0.543259, 0.335928, -2.08375, -2.16582, -0.129897, 0.468422, -0.543414, 0.332804, -2.08295, -2.16161, -0.120962, -5.57056e-05, 0.00765073, 0.00201212, -0.00815333, -0.019325, -0.014712
0.0631301, 1.69152, -1.22815, -1.54174, -0.901107, -1.19602, 1.22762, -1.3026, 0.015179, -0.00250616, -0.0185974, -0.0199614, -0.15032, -0.00515211, 0.00055777, 3.30451, 64.6283, 32.3285, 6.39465, 2.18555, 4.50686, -0.0814099, -0.00057381, -0.00250008, 0.0031707, 0.0069053, -0.00129978, 0.00212622, 0.0288009, 0.00840264, -0.0127517, -0.101682, 0.127465, -0.0265694, 0.471007, -0.543252, 0.33593, -2.08374, -2.16582, -0.129897, 0.468416, -0.543432, 0.332786, -2.08298, -2.16162, -0.120708, -5.90798e-05, 0.00793954, 0.00208689, -0.00788117, -0.0188739, -0.0147224
0.0641301, 1.69154, -1.22816, -1.54175, -0.901123, -1.19618, 1.22762, -1.3026, 0.0168232, -0.00299946, -0.015785, -0.0202445, -0.150212, -0.00385378, 0.000377745, 3.34419, 64.6997, 32.2928, 6.35895, 2.17273, 4.51419, -0.0814099, -0.000604636, -0.0025085, 0.0031837, 0.00700501, -0.00143109, 0.00216082, 0.0278669, 0.0066635, -0.012083, -0.0984223, 0.127648, -0.0230959, 0.471007, -0.543244, 0.335932, -2.08374, -2.16582, -0.129898, 0.468409, -0.543453, 0.332771, -2.08302, -2.16161, -0.120462, -6.25855e-05, 0.00823327, 0.00216285, -0.00615703, -0.0176898, -0.0138937
0.0651301, 1.69157, -1.22816, -1.54177, -0.90114, -1.19634, 1.22762, -1.3026, 0.0198783, -0.00267134, -0.0147449, -0.020536, -0.14812, -0.00349382, -0.000964449, 3.30451, 64.7394, 32.2928, 6.32324, 2.11139, 4.53616, -0.0484509, -0.000632429, -0.00251282, 0.00319519, 0.00710494, -0.0015667, 0.0021827, 0.0261123, 0.00440688, -0.0117176, -0.0967566, 0.126722, -0.0172665, 0.471007, -0.543236, 0.335935, -2.08373, -2.16581, -0.129898, 0.468405, -0.543471, 0.332757, -2.08306, -2.16163, -0.120212, -6.6225e-05, 0.00853189, 0.00224002, -0.00395654, -0.0156228, -0.0132515
0.0661301, 1.69159, -1.22816, -1.54179, -0.901156, -1.1965, 1.22762, -1.3026, 0.0209902, -0.00158866, -0.017156, -0.0208216, -0.156636, -0.00214107, -0.000877007, 3.30451, 64.7394, 32.2928, 6.28357, 2.05646, 4.52884, -0.0420422, -0.000662793, -0.00251875, 0.00320427, 0.00720451, -0.00171216, 0.00221525, 0.0280715, 0.00488739, -0.0119286, -0.101825, 0.135893, -0.0199999, 0.471007, -0.543227, 0.335937, -2.08373, -2.16581, -0.129899, 0.4684, -0.543491, 0.332746, -2.0831, -2.16163, -0.119951, -7.00005e-05, 0.00883538, 0.00231837, -0.0043777, -0.0172407, -0.0136713
0.0671301, 1.69161, -1.22815, -1.5418, -0.901173, -1.19667, 1.22761, -1.30259, 0.0252199, 1.30904e-05, -0.0157319, -0.0210994, -0.15835, -0.000947183, 0.000875879, 3.30451, 64.6997, 32.2928, 6.24786, 2.00061, 4.51419, -0.0814099, -0.000692172, -0.00252442, 0.00321241, 0.00730365, -0.00185587, 0.00224869, 0.0264529, 0.00220555, -0.0106609, -0.100935, 0.139799, -0.0172283, 0.471007, -0.543218, 0.335939, -2.08372, -2.16581, -0.1299, 0.468395, -0.54351, 0.332736, -2.08315, -2.16164, -0.119693, -7.39143e-05, 0.00914373, 0.0023979, -0.00171533, -0.0154197, -0.0121698
0.0681301, 1.69164, -1.22815, -1.54182, -0.901189, -1.19684, 1.22762, -1.30259, 0.0237977, 0.0017873, -0.0139474, -0.0181151, -0.159123, -0.000169585, -0.00036365, 3.22913, 64.6283, 32.2532, 6.20819, 1.94568, 4.50046, -0.0557752, -0.000720912, -0.00252666, 0.00321899, 0.00740042, -0.00200891, 0.00227061, 0.027988, 0.00333853, -0.00845242, -0.0972216, 0.142391, -0.0194215, 0.471007, -0.543209, 0.335941, -2.08371, -2.16581, -0.1299, 0.468393, -0.543529, 0.332727, -2.0832, -2.16166, -0.119429, -7.79688e-05, 0.0094569, 0.0024786, -0.00271604, -0.0170086, -0.0101127
0.0691301, 1.69166, -1.22815, -1.54183, -0.901206, -1.19701, 1.22762, -1.30259, 0.0215861, 0.000437412, -0.0128154, -0.0192686, -0.160146, 0.000665679, -0.00146174, 3.19343, 64.664, 32.2175, 6.17248, 1.89075, 4.47848, -0.0228162, -0.000751788, -0.00253096, 0.00323119, 0.0075006, -0.00215178, 0.00229708, 0.029132, 0.00406713, -0.00884144, -0.0962466, 0.142486, -0.0192385, 0.471007, -0.5432, 0.335944, -2.08371, -2.16581, -0.129901, 0.468389, -0.543548, 0.332713, -2.08324, -2.16167, -0.119171, -8.21662e-05, 0.00977487, 0.00256046, -0.00342098, -0.0177898, -0.0105707
0.0701301, 1.6917, -1.22816, -1.54185, -0.901221, -1.19718, 1.22762, -1.30259, 0.0250146, -0.000482785, -0.011911, -0.0209234, -0.161985, 0.000688753, -0.000261365, 3.07838, 64.6997, 32.1818, 6.17248, 1.86603, 4.47116, -0.0420422, -0.000779409, -0.0025304, 0.00324338, 0.00760283, -0.00229714, 0.0023167, 0.0277187, 0.00180288, -0.00949336, -0.0976236, 0.143539, -0.015738, 0.471007, -0.54319, 0.335947, -2.0837, -2.16581, -0.129902, 0.46839, -0.543563, 0.332699, -2.08327, -2.16169, -0.118909, -8.65087e-05, 0.0100976, 0.00264348, -0.00123817, -0.0158786, -0.0109804
0.0711301, 1.69173, -1.22816, -1.54186, -0.901228, -1.19735, 1.22762, -1.3026, 0.0273602, -0.00380271, -0.0134633, -0.0154435, -0.16349, 0.00203314, -0.000648174, 2.96729, 64.8505, 32.1064, 6.02173, 1.84772, 4.42813, -0.0292249, -0.000809872, -0.00252963, 0.0032558, 0.00769557, -0.00244116, 0.00233881, 0.0297032, 0.00185697, -0.0112667, -0.0965086, 0.142073, -0.0189827, 0.471007, -0.54318, 0.335949, -2.08369, -2.1658, -0.129903, 0.468392, -0.543581, 0.332685, -2.08331, -2.16171, -0.118659, -9.09987e-05, 0.0104251, 0.00272764, -0.00128978, -0.0172392, -0.012954
0.0721301, 1.69176, -1.22817, -1.54188, -0.901235, -1.19752, 1.22762, -1.30259, 0.0241194, -0.00977167, -0.0142575, -0.012476, -0.169919, 0.00184926, 0.000551819, 2.92762, 64.8862, 32.1421, 5.91064, 1.84131, 4.4144, -0.0557752, -0.000843428, -0.00253338, 0.00326814, 0.00779544, -0.00258776, 0.00237408, 0.0343248, 0.00514384, -0.0145129, -0.0989035, 0.141236, -0.0283569, 0.471007, -0.543169, 0.335952, -2.08368, -2.1658, -0.129903, 0.468389, -0.543602, 0.33267, -2.08336, -2.16172, -0.118397, -9.56382e-05, 0.0107574, 0.00281294, -0.00452902, -0.0211041, -0.0166926
0.0731301, 1.6918, -1.22818, -1.54189, -0.901245, -1.1977, 1.22763, -1.30259, 0.0257046, -0.00962354, -0.0138206, -0.0120754, -0.164951, 0.00257808, 0.00206374, 2.85224, 64.9973, 32.1421, 5.87494, 1.84131, 4.37778, -0.101552, -0.000873588, -0.00253209, 0.00328187, 0.00789156, -0.00273169, 0.00240081, 0.0330767, 0.00357878, -0.0142691, -0.0955529, 0.137924, -0.0267594, 0.471007, -0.543159, 0.335955, -2.08368, -2.1658, -0.129904, 0.46839, -0.543619, 0.332655, -2.0834, -2.16173, -0.118142, -0.00010043, 0.0110943, 0.00289937, -0.00300663, -0.0195084, -0.016219
0.0741301, 1.69184, -1.22819, -1.54191, -0.901254, -1.19787, 1.22764, -1.30259, 0.0259253, -0.0102323, -0.013568, -0.00943613, -0.170343, 0.00408399, 0.000392817, 2.81654, 65.144, 32.1421, 5.87494, 1.84772, 4.31369, -0.0750012, -0.000905115, -0.00252901, 0.00329796, 0.00798333, -0.00287502, 0.00242305, 0.035337, 0.00432977, -0.0140722, -0.0953169, 0.14249, -0.0288162, 0.471006, -0.543147, 0.335958, -2.08367, -2.1658, -0.129905, 0.468394, -0.543637, 0.332637, -2.08344, -2.16175, -0.117894, -0.000105375, 0.011436, 0.00298692, -0.0036735, -0.0214592, -0.0162655
0.0751301, 1.69188, -1.22819, -1.54193, -0.901259, -1.19804, 1.22765, -1.30258, 0.0271324, -0.00794401, -0.0184152, -0.00640214, -0.17045, 0.00485265, 0.000736845, 2.73719, 65.1797, 32.2175, 5.83527, 1.85321, 4.25601, -0.0878186, -0.000935766, -0.00252559, 0.00330975, 0.00807839, -0.00302629, 0.00244874, 0.0369502, 0.00511138, -0.0140421, -0.0974385, 0.145586, -0.0330021, 0.471006, -0.543136, 0.335961, -2.08366, -2.1658, -0.129906, 0.468398, -0.543654, 0.332624, -2.08349, -2.16177, -0.117633, -0.000110477, 0.0117823, 0.00307558, -0.00440032, -0.0227419, -0.0163743
0.0761301, 1.69188, -1.22819, -1.54193, -0.901259, -1.19804, 1.22765, -1.30258, 0.0271324, -0.00794401, -0.0184152, -0.00640214, -0.17045, 0.00485265, 0.000736845, 2.73719, 65.1797, 32.2175, 5.83527, 1.85321, 4.25601, -0.0878186, -0.000947893, -0.00252585, 0.00331098, 0.00807348, -0.00303223, 0.00245158, 0.0373109, 0.00511783, -0.0140763, -0.097381, 0.145844, -0.0329767, 0.471006, -0.543124, 0.335964, -2.08365, -2.16579, -0.129907, 0.468398, -0.543654, 0.332624, -2.08349, -2.16177, -0.117633, -0.000115737, 0.0121332, 0.00316535, -0.00440032, -0.0227419, -0.0163743
0.0771301, 1.69192, -1.2282, -1.54194, -0.901265, -1.19822, 1.22765, -1.30259, 0.0316298, -0.00810988, -0.0206925, -0.00504765, -0.166162, 0.00560401, 0.00469708, 2.73719, 65.2908, 32.2532, 5.83527, 1.87244, 4.19192, -0.0750012, -0.000979497, -0.0025227, 0.00332584, 0.00816565, -0.00317545, 0.00247245, 0.0358021, 0.00267881, -0.014997, -0.09672, 0.143001, -0.0333053, 0.471006, -0.543112, 0.335967, -2.08364, -2.16579, -0.129908, 0.468401, -0.54367, 0.332607, -2.08353, -2.16179, -0.117385, -0.000121158, 0.0124888, 0.00325621, -0.00205725, -0.020655, -0.0170321
0.0781301, 1.69192, -1.2282, -1.54194, -0.901265, -1.19822, 1.22765, -1.30259, 0.0316298, -0.00810988, -0.0206925, -0.00504765, -0.166162, 0.00560401, 0.00469708, 2.73719, 65.2908, 32.2532, 5.83527, 1.87244, 4.19192, -0.0750012, -0.00099235, -0.00252298, 0.00332714, 0.00816043, -0.00318175, 0.00247546, 0.0361722, 0.00268525, -0.0150319, -0.0966606, 0.143266, -0.0332792, 0.471006, -0.5431, 0.33597, -2.08363, -2.16579, -0.129909, 0.468401, -0.54367, 0.332607, -2.08353, -2.16179, -0.117385, -0.000126741, 0.012849, 0.00334816, -0.00205725, -0.020655, -0.0170321
0.0791301, 1.69192, -1.2282, -1.54194, -0.901265, -1.19822, 1.22765, -1.30259, 0.0316298, -0.00810988, -0.0206925, -0.00504765, -0.166162, 0.00560401, 0.00469708, 2.73719, 65.2908, 32.2532, 5.83527, 1.87244, 4.19192, -0.0750012, -0.00100557, -0.00252326, 0.00332847, 0.00815507, -0.00318824, 0.00247856, 0.0365471, 0.00269168, -0.0150671, -0.0966002, 0.143535, -0.0332527, 0.471006, -0.543087, 0.335973, -2.08362, -2.16579, -0.129909, 0.468401, -0.54367, 0.332607, -2.08353, -2.16179, -0.117385, -0.00013249, 0.0132137, 0.00344119, -0.00205725, -0.020655, -0.0170321
0.0801301, 1.6921, -1.22824, -1.542, -0.901278, -1.19885, 1.2277, -1.30259, 0.03027, -0.00849011, -0.0161296, -0.00393905, -0.156154, 0.0172514, -0.000243673, 2.77686, 65.8066, 32.3682, 5.87494, 1.82941, 3.94107, -0.0164075, -0.00108213, -0.00249462, 0.00338215, 0.00849853, -0.00370286, 0.00252777, 0.0361787, -0.000374659, -0.0124699, -0.0770554, 0.140558, -0.0250068, 0.471006, -0.543074, 0.335977, -2.08361, -2.16578, -0.12991, 0.468431, -0.543723, 0.332545, -2.08365, -2.16189, -0.116478, -0.000138406, 0.013583, 0.0035353, 0.00108012, -0.0201963, -0.0144093
0.0811301, 1.69215, -1.22825, -1.54202, -0.901283, -1.199, 1.22771, -1.30259, 0.0379194, -0.00830965, -0.0166884, -0.00552327, -0.153729, 0.0150505, -0.000276355, 2.77686, 65.9177, 32.4396, 5.98602, 1.80469, 3.86966, -0.00999879, -0.00110748, -0.00248189, 0.00339724, 0.00857934, -0.00383686, 0.00253646, 0.0320955, -0.00479194, -0.0134081, -0.0801669, 0.138381, -0.0154683, 0.471006, -0.54306, 0.33598, -2.0836, -2.16578, -0.129911, 0.468444, -0.543732, 0.332529, -2.08367, -2.16193, -0.116253, -0.00014449, 0.0139569, 0.00363046, 0.00530532, -0.0154657, -0.01474
0.0821301, 1.6922, -1.22827, -1.54205, -0.901283, -1.19915, 1.22772, -1.30259, 0.0401172, -0.009847, -0.0213144, -0.00474149, -0.152556, 0.011526, 0.00109515, 2.81654, 66.1002, 32.5547, 6.02173, 1.79187, 3.84768, -0.0420422, -0.00113549, -0.00247258, 0.00341683, 0.00866392, -0.00395813, 0.00255408, 0.0322426, -0.00453725, -0.0162957, -0.0867616, 0.134736, -0.0171239, 0.471006, -0.543046, 0.335984, -2.08359, -2.16578, -0.129913, 0.468453, -0.543742, 0.332509, -2.0837, -2.16194, -0.116035, -0.000150747, 0.0143352, 0.00372669, 0.00494532, -0.0147979, -0.0175103
0.0831301, 1.69226, -1.22828, -1.54206, -0.901282, -1.1993, 1.22773, -1.30259, 0.0427038, -0.00919188, -0.0178458, -0.00332906, -0.152452, 0.00951532, 8.74638e-05, 2.81654, 66.2112, 32.515, 6.02173, 1.79828, 3.81198, -0.0228162, -0.00116021, -0.00245812, 0.00343165, 0.00873724, -0.00408426, 0.00255338, 0.030898, -0.00591755, -0.0148296, -0.0850292, 0.134331, -0.0130963, 0.471005, -0.543032, 0.335988, -2.08358, -2.16578, -0.129914, 0.468468, -0.543749, 0.332494, -2.08371, -2.16198, -0.115827, -0.000157176, 0.014718, 0.00382396, 0.00632236, -0.0132569, -0.0157986
0.0841301, 1.69232, -1.2283, -1.54208, -0.901277, -1.19944, 1.22774, -1.30259, 0.0470312, -0.0121816, -0.0189383, 0.00160891, -0.156918, 0.00726775, -0.00111031, 2.81654, 66.4691, 32.6261, 5.98602, 1.79828, 3.79733, 0.0101428, -0.00118836, -0.00244431, 0.00345537, 0.00881763, -0.00420181, 0.00255855, 0.0319893, -0.00618076, -0.0167389, -0.088539, 0.133966, -0.0138782, 0.471005, -0.543017, 0.335992, -2.08357, -2.16577, -0.129915, 0.468481, -0.543758, 0.332469, -2.08372, -2.16201, -0.115619, -0.000163782, 0.0151053, 0.00392227, 0.00654851, -0.0136417, -0.0177632
0.0851301, 1.69238, -1.22832, -1.5421, -0.901284, -1.19959, 1.22776, -1.30259, 0.0502778, -0.0115709, -0.0171593, -0.00052524, -0.151976, 0.00540269, 0.000756915, 2.85224, 66.6159, 32.6261, 6.0614, 1.82941, 3.79001, -0.0292249, -0.00121051, -0.00242733, 0.00347455, 0.00889517, -0.00431975, 0.00256145, 0.0287253, -0.00900071, -0.01642, -0.0876764, 0.130089, -0.0081554, 0.471005, -0.543002, 0.335996, -2.08356, -2.16577, -0.129916, 0.468498, -0.543761, 0.33245, -2.08373, -2.16204, -0.115414, -0.000170564, 0.0154971, 0.00402162, 0.00925257, -0.00996101, -0.0169274
0.0861301, 1.69244, -1.22834, -1.54212, -0.901279, -1.19973, 1.22777, -1.30259, 0.0541234, -0.012923, -0.0166214, 0.000701902, -0.146911, 0.00848953, 0.000296547, 2.81654, 66.8381, 32.6658, 6.02173, 1.8349, 3.79001, -0.0228162, -0.00123433, -0.00240864, 0.00349693, 0.00896996, -0.00443256, 0.00255775, 0.027124, -0.0121412, -0.0168329, -0.0822195, 0.126407, -0.00295025, 0.471005, -0.542986, 0.336, -2.08355, -2.16577, -0.129917, 0.468517, -0.543765, 0.332428, -2.08373, -2.16207, -0.115219, -0.000177527, 0.0158932, 0.00412199, 0.0123096, -0.00779133, -0.0170813
0.0871301, 1.6925, -1.22835, -1.54214, -0.901279, -1.19987, 1.22778, -1.30259, 0.0555096, -0.00945965, -0.0218694, 0.000560966, -0.14426, 0.00644748, 0.000694388, 2.85224, 66.8738, 32.8126, 6.02173, 1.86603, 3.7836, -0.0356336, -0.00126031, -0.00239371, 0.00351448, 0.00904849, -0.00455788, 0.00256693, 0.0269104, -0.011875, -0.0169556, -0.0872638, 0.127373, -0.00353072, 0.471005, -0.542971, 0.336004, -2.08354, -2.16576, -0.129918, 0.468532, -0.543771, 0.33241, -2.08375, -2.1621, -0.115005, -0.000184671, 0.0162937, 0.00422337, 0.0120245, -0.00717177, -0.0170601
0.0881301, 1.69257, -1.22836, -1.54216, -0.901283, -1.20001, 1.2278, -1.30258, 0.0612938, -0.0120722, -0.0182928, -0.000484269, -0.141799, 0.0108555, 0.00146275, 2.81654, 66.9849, 32.7768, 6.0614, 1.88434, 3.74698, -0.0621838, -0.00127996, -0.00236895, 0.00353258, 0.00911415, -0.0046792, 0.00255642, 0.0239251, -0.0171263, -0.0173352, -0.0806816, 0.125309, 0.00497222, 0.471005, -0.542954, 0.336008, -2.08353, -2.16576, -0.129919, 0.468556, -0.543771, 0.332393, -2.08376, -2.16215, -0.114811, -0.000192, 0.0166987, 0.00432576, 0.0171408, -0.00354547, -0.0170279
0.0891301, 1.69263, -1.22839, -1.54219, -0.901287, -1.20015, 1.22782, -1.30259, 0.0576907, -0.0197005, -0.0232041, -0.00110573, -0.140494, 0.0131475, 0.000750166, 2.85224, 67.207, 32.9236, 6.09711, 1.91546, 3.73324, -0.0557752, -0.00130618, -0.00235052, 0.00356007, 0.00919257, -0.00479081, 0.00255229, 0.0274579, -0.0150649, -0.0233015, -0.0827082, 0.118327, 0.000973332, 0.471004, -0.542938, 0.336012, -2.08351, -2.16576, -0.129921, 0.468574, -0.543775, 0.332365, -2.08376, -2.16219, -0.114613, -0.000199514, 0.0171079, 0.00442916, 0.0149846, -0.00578859, -0.0233024
0.0901301, 1.69269, -1.2284, -1.54221, -0.90129, -1.20028, 1.22784, -1.30259, 0.058141, -0.015521, -0.0240874, -0.00162593, -0.134606, 0.0135534, 0.000238113, 2.89191, 67.2784, 32.9633, 6.13678, 1.94568, 3.7543, -0.0484509, -0.00132983, -0.00233014, 0.00357953, 0.0092639, -0.00491178, 0.00254849, 0.0262045, -0.0159367, -0.021258, -0.0802686, 0.118291, 0.00387434, 0.471004, -0.54292, 0.336017, -2.0835, -2.16575, -0.129922, 0.468595, -0.543777, 0.332346, -2.08376, -2.16223, -0.114413, -0.000207216, 0.0175215, 0.00453354, 0.0158768, -0.00441647, -0.0210122
0.0911301, 1.69277, -1.22842, -1.54223, -0.901284, -1.20042, 1.22787, -1.30259, 0.0626392, -0.0165103, -0.0239056, 0.000708721, -0.130184, 0.00930088, -7.16651e-05, 2.89191, 67.3895, 32.9633, 6.0614, 1.9823, 3.77627, -0.0420422, -0.00135236, -0.00230628, 0.00359914, 0.00932806, -0.00502777, 0.00253772, 0.0240667, -0.0177076, -0.022103, -0.0813388, 0.111823, 0.00817976, 0.471004, -0.542903, 0.336021, -2.08349, -2.16575, -0.129923, 0.468618, -0.543778, 0.332327, -2.08376, -2.16228, -0.114226, -0.000215108, 0.0179394, 0.00463891, 0.0175301, -0.00168486, -0.0214629
0.0921301, 1.69283, -1.22842, -1.54226, -0.901292, -1.20055, 1.22789, -1.30259, 0.0620595, -0.0148354, -0.0264535, -0.0021039, -0.130135, 0.0101132, -0.00075464, 2.92762, 67.3895, 33.0744, 6.17248, 1.99512, 3.8193, -0.0228162, -0.00137476, -0.00228443, 0.0036171, 0.00940017, -0.00515274, 0.00252557, 0.0243726, -0.0176767, -0.0223409, -0.0838618, 0.114561, 0.00955906, 0.471004, -0.542885, 0.336026, -2.08348, -2.16575, -0.129924, 0.46864, -0.543778, 0.33231, -2.08376, -2.16233, -0.114022, -0.000223192, 0.0183616, 0.00474526, 0.0174933, -0.00152891, -0.0216383
0.0931301, 1.69289, -1.22845, -1.54229, -0.901292, -1.20068, 1.22791, -1.30259, 0.0606112, -0.015008, -0.0260537, -0.00138604, -0.130851, 0.0108162, -0.00148253, 3.003, 67.576, 33.2212, 6.17248, 2.00702, 3.86233, 0.00373412, -0.00140139, -0.00226356, 0.0036442, 0.00947284, -0.00526343, 0.00251994, 0.0258109, -0.016818, -0.0220994, -0.0826138, 0.115498, 0.0082237, 0.471003, -0.542867, 0.336031, -2.08346, -2.16574, -0.129926, 0.468661, -0.543781, 0.332283, -2.08376, -2.16236, -0.113831, -0.00023147, 0.0187881, 0.00485258, 0.0166878, -0.00259458, -0.0214904
0.0941301, 1.69296, -1.22846, -1.54231, -0.9013, -1.20081, 1.22794, -1.30259, 0.064211, -0.0114076, -0.0251882, 0.00267444, -0.131547, 0.015969, -0.000476792, 3.003, 67.6117, 33.2212, 6.28357, 2.03174, 3.91269, -0.00999879, -0.00142395, -0.00223909, 0.00366364, 0.00953975, -0.00538702, 0.00251185, 0.0260207, -0.0188827, -0.0188849, -0.075947, 0.122244, 0.00737409, 0.471003, -0.542848, 0.336035, -2.08345, -2.16574, -0.129927, 0.468685, -0.543781, 0.332265, -2.08377, -2.16241, -0.113634, -0.000239944, 0.0192188, 0.00496086, 0.0188655, -0.00278145, -0.0183038
0.0951301, 1.69304, -1.22846, -1.54234, -0.901295, -1.20094, 1.22796, -1.30259, 0.0659438, -0.00719511, -0.0289525, 0.00314287, -0.126181, 0.0192077, -0.000824288, 2.92762, 67.576, 33.2609, 6.24786, 2.01343, 3.97677, 0.00373412, -0.00144529, -0.00221348, 0.00367928, 0.0096039, -0.00550897, 0.00249792, 0.0255051, -0.0202012, -0.017525, -0.0735345, 0.124233, 0.00897235, 0.471003, -0.542829, 0.33604, -2.08343, -2.16574, -0.129929, 0.468711, -0.543779, 0.33225, -2.08376, -2.16247, -0.113442, -0.000248615, 0.0196537, 0.00507009, 0.0202045, -0.00199269, -0.0168121
0.0961301, 1.69311, -1.22848, -1.54237, -0.901302, -1.20107, 1.22798, -1.30259, 0.0655478, -0.00678614, -0.0301901, 0.000725525, -0.127249, 0.0212918, -0.000785234, 2.89191, 67.6474, 33.3719, 6.32324, 2.01343, 4.04819, 0.0101428, -0.00146702, -0.00218813, 0.00370493, 0.00968808, -0.00562735, 0.0024853, 0.0260616, -0.0205482, -0.0178887, -0.0742687, 0.127158, 0.00975481, 0.471003, -0.542809, 0.336045, -2.08342, -2.16573, -0.12993, 0.468735, -0.543776, 0.332226, -2.08375, -2.16251, -0.113231, -0.000257487, 0.0200928, 0.00518027, 0.0205489, -0.0020323, -0.0171584
0.0971301, 1.69318, -1.22848, -1.5424, -0.901305, -1.2012, 1.228, -1.30259, 0.0664844, -0.00392809, -0.0275304, -5.63971e-05, -0.12841, 0.0231386, 0.000223733, 2.81654, 67.6117, 33.3362, 6.35895, 2.01343, 4.12051, -0.00999879, -0.00148809, -0.00216266, 0.0037203, 0.00975668, -0.00575361, 0.00247087, 0.0254762, -0.0218742, -0.0152952, -0.0710544, 0.132136, 0.0112231, 0.471002, -0.542789, 0.336051, -2.08341, -2.16573, -0.129932, 0.468761, -0.543773, 0.332212, -2.08375, -2.16257, -0.11303, -0.000266561, 0.0205361, 0.00529139, 0.0219373, -0.0013562, -0.0144361
0.0981301, 1.69325, -1.22849, -1.54243, -0.901311, -1.20133, 1.22802, -1.30259, 0.0732303, -0.00363336, -0.0323914, -0.00157948, -0.129034, 0.0213442, 0.000150083, 2.73719, 67.6474, 33.4473, 6.43433, 2.00702, 4.15622, -0.00999879, -0.00151196, -0.0021373, 0.00374375, 0.00983273, -0.00587602, 0.00245823, 0.0234106, -0.0247325, -0.0175956, -0.078801, 0.133076, 0.0167902, 0.471002, -0.542768, 0.336056, -2.08339, -2.16572, -0.129933, 0.468786, -0.543771, 0.332189, -2.08374, -2.16262, -0.112824, -0.000275838, 0.0209836, 0.00540343, 0.0246248, 0.00160294, -0.0163615
0.0991301, 1.69332, -1.2285, -1.54246, -0.901311, -1.20146, 1.22804, -1.30259, 0.0712508, -0.0025568, -0.0324905, -0.00172219, -0.129698, 0.0243585, 0.00105019, 2.70148, 67.6474, 33.4076, 6.47003, 2.01343, 4.19925, -0.0356336, -0.00153857, -0.00211665, 0.00376004, 0.00990163, -0.0060028, 0.00245735, 0.0250743, -0.0240869, -0.0166854, -0.0761631, 0.136476, 0.0138214, 0.471002, -0.542747, 0.336061, -2.08338, -2.16572, -0.129935, 0.468807, -0.543773, 0.332174, -2.08375, -2.16266, -0.112621, -0.000285321, 0.0214351, 0.00551641, 0.0240633, 0.000245594, -0.0155893
0.10013, 1.69339, -1.2285, -1.5425, -0.901318, -1.20159, 1.22806, -1.30259, 0.07462, -0.000135018, -0.0330001, -0.00371487, -0.130538, 0.0229121, -0.000520056, 2.58643, 67.576, 33.5187, 6.58508, 2.01984, 4.21298, -0.00267457, -0.00156231, -0.00209288, 0.00377868, 0.00998325, -0.00613469, 0.00244255, 0.0233563, -0.0259275, -0.016051, -0.0794196, 0.139523, 0.0199219, 0.471002, -0.542726, 0.336067, -2.08336, -2.16572, -0.129936, 0.46883, -0.543771, 0.332157, -2.08375, -2.16271, -0.112399, -0.000295012, 0.0218908, 0.00563029, 0.0258532, 0.00237546, -0.0146382
0.10113, 1.69346, -1.2285, -1.54253, -0.901326, -1.20172, 1.22809, -1.30259, 0.0744071, -0.00100092, -0.0321116, -0.00498166, -0.130551, 0.0268733, 0.000399673, 2.43568, 67.6117, 33.4473, 6.69617, 2.01343, 4.21298, -0.0228162, -0.00158529, -0.00206657, 0.003796, 0.0100551, -0.00626593, 0.00242912, 0.0238561, -0.0269858, -0.0161053, -0.0757542, 0.141028, 0.0204034, 0.471001, -0.542704, 0.336072, -2.08334, -2.16571, -0.129938, 0.468856, -0.543768, 0.332141, -2.08375, -2.16277, -0.11219, -0.000304912, 0.0223506, 0.00574509, 0.0269161, 0.00239411, -0.0146874
0.10213, 1.69353, -1.2285, -1.54257, -0.901331, -1.20185, 1.2281, -1.30259, 0.069541, 0.00103919, -0.0319459, -0.0050143, -0.12696, 0.0203837, 2.9383e-05, 2.3603, 67.5363, 33.5187, 6.77154, 2.03174, 4.21298, -0.0164075, -0.00161356, -0.00204785, 0.00381259, 0.0101411, -0.00640463, 0.00243088, 0.0248727, -0.023459, -0.0152015, -0.0785835, 0.137064, 0.0172319, 0.471001, -0.542682, 0.336078, -2.08333, -2.16571, -0.12994, 0.468875, -0.543771, 0.332125, -2.08376, -2.16281, -0.111955, -0.000315023, 0.0228145, 0.00586078, 0.0234532, 0.00157032, -0.0137307
0.10313, 1.6936, -1.22851, -1.5426, -0.901336, -1.20198, 1.22812, -1.30259, 0.0726275, -0.00111302, -0.0320927, -0.00496078, -0.123461, 0.0198057, 0.000969245, 2.13416, 67.6117, 33.483, 6.84296, 2.03174, 4.2203, -0.0420422, -0.00163692, -0.00202203, 0.00383379, 0.0102185, -0.00652644, 0.00241668, 0.0234759, -0.0254798, -0.0167738, -0.0781229, 0.132234, 0.0204754, 0.471001, -0.542659, 0.336084, -2.08331, -2.1657, -0.129941, 0.468901, -0.543766, 0.332106, -2.08374, -2.16286, -0.111749, -0.000325348, 0.0232823, 0.00597737, 0.0253535, 0.00374319, -0.0150111
0.10413, 1.6936, -1.22851, -1.5426, -0.901336, -1.20198, 1.22812, -1.30259, 0.0726275, -0.00111302, -0.0320927, -0.00496078, -0.123461, 0.0198057, 0.000969245, 2.13416, 67.6117, 33.483, 6.84296, 2.03174, 4.2203, -0.0420422, -0.00166088, -0.00202245, 0.00383609, 0.0102087, -0.00653823, 0.00242216, 0.0239607, -0.0254745, -0.0168161, -0.0780384, 0.132577, 0.0205094, 0.471, -0.542636, 0.33609, -2.08329, -2.1657, -0.129943, 0.468901, -0.543766, 0.332106, -2.08374, -2.16286, -0.111749, -0.000335889, 0.0237543, 0.00609484, 0.0253535, 0.00374319, -0.0150111
0.10513, 1.69367, -1.2285, -1.54264, -0.901344, -1.2021, 1.22814, -1.30259, 0.0717351, 6.12723e-05, -0.0325264, -0.00503103, -0.124695, 0.0193785, 0.00139231, 2.02308, 67.576, 33.4473, 6.91833, 2.01343, 4.22763, -0.0621838, -0.0016873, -0.00200216, 0.00385217, 0.0102888, -0.00666798, 0.00241675, 0.0250046, -0.0246668, -0.0163117, -0.0790662, 0.134906, 0.0186592, 0.471, -0.542612, 0.336096, -2.08328, -2.16569, -0.129945, 0.468921, -0.543765, 0.332091, -2.08374, -2.1629, -0.111531, -0.000346646, 0.0242302, 0.00621319, 0.0245919, 0.00307805, -0.0145331
0.10613, 1.6938, -1.22849, -1.54271, -0.90136, -1.20235, 1.22816, -1.30259, 0.0674301, 0.00141627, -0.0301489, -0.00630837, -0.117335, 0.0112306, 0.000189475, 1.68189, 67.4649, 33.3362, 7.14447, 1.96399, 4.2203, -0.0484509, -0.00171225, -0.00195945, 0.00388125, 0.0104608, -0.00691004, 0.00239163, 0.0241072, -0.0222627, -0.0153837, -0.0803677, 0.126346, 0.0202865, 0.471, -0.542588, 0.336102, -2.08326, -2.16569, -0.129946, 0.468963, -0.54376, 0.332063, -2.08373, -2.16299, -0.111099, -0.000357622, 0.0247101, 0.00633241, 0.0221815, 0.00420213, -0.0132853
0.10713, 1.69387, -1.22849, -1.54274, -0.901373, -1.20246, 1.22817, -1.30259, 0.0694478, 0.00352916, -0.0295034, -0.00762264, -0.115419, 0.00923466, -0.000110973, 1.49146, 67.3538, 33.2212, 7.29126, 1.93378, 4.19925, -0.0420422, -0.001734, -0.00193648, 0.00389453, 0.0105419, -0.00703775, 0.00237118, 0.0224052, -0.0236138, -0.0144148, -0.0812935, 0.126395, 0.0246591, 0.470999, -0.542563, 0.336109, -2.08324, -2.16568, -0.129948, 0.468986, -0.543753, 0.332053, -2.08371, -2.16305, -0.110883, -0.000368819, 0.025194, 0.00645249, 0.0234937, 0.00627263, -0.0119853
0.10813, 1.69394, -1.22848, -1.54277, -0.901382, -1.20258, 1.22818, -1.30259, 0.0679523, 0.00577635, -0.0291494, -0.00776055, -0.114034, 0.0126184, -0.000311288, 1.305, 67.207, 33.1101, 7.40631, 1.90265, 4.16995, -0.0356336, -0.00175664, -0.00191346, 0.00390534, 0.0106149, -0.0071654, 0.00235744, 0.023325, -0.0235988, -0.0126539, -0.0769478, 0.12947, 0.0241403, 0.470999, -0.542538, 0.336115, -2.08322, -2.16568, -0.12995, 0.469009, -0.543748, 0.332044, -2.08371, -2.1631, -0.110676, -0.000380238, 0.0256818, 0.00657343, 0.0235645, 0.00558046, -0.0102689
0.10913, 1.69401, -1.22847, -1.54281, -0.901384, -1.20269, 1.22819, -1.30259, 0.0713937, 0.00384332, -0.029063, -0.00599957, -0.112794, 0.0103954, -0.00115692, 1.03919, 67.207, 32.999, 7.44202, 1.87793, 4.14157, -0.00999879, -0.00178133, -0.00189076, 0.0039211, 0.0106909, -0.00728539, 0.00234335, 0.0225077, -0.0249169, -0.013936, -0.0779946, 0.125747, 0.0273645, 0.470999, -0.542512, 0.336122, -2.0832, -2.16567, -0.129952, 0.469031, -0.543743, 0.332031, -2.08369, -2.16315, -0.110473, -0.000391882, 0.0261735, 0.00669522, 0.0247931, 0.00713154, -0.0113265
0.11013, 1.69408, -1.22847, -1.54284, -0.901395, -1.20281, 1.2282, -1.30259, 0.0702257, 0.00348455, -0.0308798, -0.00751918, -0.113455, 0.0140563, -5.91753e-05, 0.813057, 67.1674, 32.9633, 7.59277, 1.88434, 4.09854, -0.0292249, -0.0018068, -0.00186793, 0.00393864, 0.0107684, -0.0074082, 0.00233145, 0.0240042, -0.0248758, -0.0146587, -0.0771827, 0.12833, 0.0254294, 0.470998, -0.542486, 0.336128, -2.08318, -2.16567, -0.129954, 0.469054, -0.543738, 0.332015, -2.08368, -2.1632, -0.110266, -0.000403753, 0.0266691, 0.00681784, 0.0247676, 0.00626011, -0.0121496
0.11113, 1.69415, -1.22846, -1.54286, -0.9014, -1.20293, 1.22821, -1.30259, 0.072341, 0.00398921, -0.0293929, -0.00584274, -0.11847, 0.0121628, 0.000672649, 0.586922, 67.0959, 32.8126, 7.62848, 1.89075, 4.04819, -0.0484509, -0.00183089, -0.00184398, 0.00394911, 0.0108354, -0.00753402, 0.00231497, 0.0245138, -0.0250263, -0.0139053, -0.0792453, 0.132209, 0.0243705, 0.470998, -0.542459, 0.336135, -2.08317, -2.16566, -0.129956, 0.469078, -0.543733, 0.332007, -2.08367, -2.16325, -0.110068, -0.000415851, 0.0271686, 0.0069413, 0.0249515, 0.00614692, -0.0113668
0.11213, 1.69421, -1.22846, -1.5429, -0.901406, -1.20304, 1.22822, -1.30259, 0.0715178, 0.00349149, -0.0329964, -0.00648967, -0.11718, 0.0153473, -0.00124697, 0.436165, 67.0602, 32.8522, 7.73956, 1.89624, 3.99783, -0.00267457, -0.00186124, -0.00182671, 0.00396623, 0.0109125, -0.00765376, 0.00230581, 0.0260722, -0.0248007, -0.0152848, -0.0791695, 0.132859, 0.0248264, 0.470997, -0.542432, 0.336142, -2.08315, -2.16566, -0.129958, 0.469095, -0.543732, 0.331992, -2.08366, -2.16329, -0.109864, -0.000428179, 0.027672, 0.00706559, 0.0247196, 0.00531601, -0.0128408
0.11313, 1.69428, -1.22846, -1.54293, -0.901413, -1.20315, 1.22824, -1.30259, 0.0709115, 0.0040885, -0.0278607, -0.00608673, -0.116709, 0.0135164, -0.000322676, 0.170357, 66.9849, 32.7015, 7.81494, 1.90906, 3.93374, -0.0164075, -0.00188504, -0.00180057, 0.00397793, 0.010973, -0.00777523, 0.00229013, 0.0255766, -0.0249868, -0.0132322, -0.0756022, 0.132146, 0.0255715, 0.470997, -0.542404, 0.336149, -2.08313, -2.16565, -0.12996, 0.469121, -0.543725, 0.331983, -2.08366, -2.16335, -0.109677, -0.000440739, 0.0281791, 0.00719069, 0.0249499, 0.00600364, -0.0106182
0.11413, 1.69434, -1.22845, -1.54296, -0.901419, -1.20326, 1.22825, -1.30259, 0.0697091, 0.00355909, -0.0299176, -0.00581884, -0.116632, 0.0162398, -0.000452467, -0.0557783, 66.9492, 32.6658, 7.89032, 1.93927, 3.88339, -0.00999879, -0.00191183, -0.00177732, 0.00399151, 0.0110386, -0.00789642, 0.00227681, 0.0274553, -0.0243979, -0.0139748, -0.0746405, 0.133348, 0.023393, 0.470997, -0.542376, 0.336156, -2.08311, -2.16564, -0.129962, 0.469145, -0.54372, 0.331972, -2.08365, -2.1634, -0.109484, -0.000453532, 0.0286901, 0.0073166, 0.0243894, 0.00475096, -0.0115006
0.11513, 1.69441, -1.22844, -1.54298, -0.901419, -1.20337, 1.22827, -1.30259, 0.0666465, 0.00580505, -0.0296479, -0.00387756, -0.116395, 0.0181184, -0.000810264, -0.317619, 66.8024, 32.5547, 7.89032, 1.95758, 3.84036, 0.00373412, -0.00193898, -0.00175439, 0.0039985, 0.0110967, -0.00802411, 0.00226448, 0.0298009, -0.0226154, -0.0120023, -0.0709874, 0.136396, 0.0192298, 0.470996, -0.542347, 0.336164, -2.08308, -2.16564, -0.129964, 0.469168, -0.543716, 0.331968, -2.08365, -2.16346, -0.109294, -0.00046656, 0.0292049, 0.00744332, 0.0227527, 0.00257269, -0.00973792
0.11613, 1.69448, -1.22844, -1.54301, -0.901424, -1.20348, 1.22829, -1.30258, 0.069432, 0.00563226, -0.0300004, -0.00434703, -0.115585, 0.0193986, 0.00139261, -0.543754, 66.727, 32.5904, 7.9657, 1.95758, 3.79733, -0.0484509, -0.0019661, -0.00173041, 0.00400917, 0.0111555, -0.00814746, 0.00225609, 0.0290194, -0.0245497, -0.0123724, -0.0703542, 0.136754, 0.0203454, 0.470996, -0.542318, 0.336171, -2.08306, -2.16563, -0.129966, 0.469192, -0.543711, 0.331959, -2.08365, -2.16351, -0.109106, -0.000479825, 0.0297235, 0.00757084, 0.0246295, 0.00400004, -0.00991375
0.11713, 1.69455, -1.22844, -1.54303, -0.901427, -1.20359, 1.2283, -1.30258, 0.0726226, 0.00199084, -0.0273109, -0.00456753, -0.110377, 0.015721, 0.00143704, -0.809562, 66.8024, 32.515, 8.03711, 1.9704, 3.7543, -0.0621838, -0.00199355, -0.00170334, 0.00402483, 0.011212, -0.0082648, 0.00223967, 0.0264397, -0.0268482, -0.0141456, -0.0695697, 0.127379, 0.0267665, 0.470995, -0.542288, 0.336179, -2.08304, -2.16563, -0.129968, 0.469219, -0.543705, 0.331946, -2.08364, -2.16356, -0.108928, -0.000493328, 0.0302458, 0.00769914, 0.0267538, 0.00743792, -0.0112053
0.11813, 1.69462, -1.22843, -1.54305, -0.901429, -1.20371, 1.22832, -1.30259, 0.0705467, 0.00392512, -0.0240749, -0.00397234, -0.110433, 0.0179388, -0.000974753, -1.0357, 66.6913, 32.515, 8.07678, 1.95758, 3.70395, -0.00999879, -0.00202203, -0.00167855, 0.00403134, 0.0112643, -0.00839648, 0.0022173, 0.0274671, -0.0264864, -0.011519, -0.0639749, 0.130482, 0.0281405, 0.470995, -0.542258, 0.336186, -2.08302, -2.16562, -0.129971, 0.469244, -0.543701, 0.331943, -2.08363, -2.16364, -0.108741, -0.000507072, 0.0307718, 0.00782823, 0.0265118, 0.00652969, -0.00863253
0.11913, 1.69468, -1.22842, -1.54308, -0.901426, -1.20382, 1.22835, -1.30258, 0.0717477, 0.00521477, -0.02236, -0.000884462, -0.111036, 0.0195305, 0.00104559, -1.22613, 66.5802, 32.5547, 8.0014, 1.95209, 3.65451, -0.0557752, -0.00205389, -0.00165504, 0.00403801, 0.0113122, -0.0085293, 0.00221744, 0.0281999, -0.0269725, -0.00968898, -0.0598706, 0.133104, 0.0252355, 0.470994, -0.542227, 0.336194, -2.083, -2.16561, -0.129973, 0.469267, -0.543699, 0.331938, -2.08365, -2.16368, -0.108555, -0.000521058, 0.0313016, 0.00795809, 0.0270767, 0.00607392, -0.00682562
0.12013, 1.69475, -1.22841, -1.54309, -0.901432, -1.20394, 1.22837, -1.30259, 0.0743542, 0.00783789, -0.0213365, -0.0031877, -0.111853, 0.0241331, 0.000188434, -1.37688, 66.3937, 32.4793, 8.11249, 1.95758, 3.63986, -0.0420422, -0.00208246, -0.00162989, 0.00404152, 0.0113595, -0.00866512, 0.0022, 0.027093, -0.0298387, -0.00787597, -0.0565015, 0.139287, 0.0309159, 0.470994, -0.542196, 0.336202, -2.08297, -2.16561, -0.129975, 0.469293, -0.543695, 0.331937, -2.08365, -2.16376, -0.108369, -0.000535288, 0.031835, 0.00808872, 0.0299513, 0.00753862, -0.00482092
0.12113, 1.69482, -1.22842, -1.54311, -0.901435, -1.20406, 1.22839, -1.30258, 0.0746915, 0.00346178, -0.0231015, 0.00329306, -0.11737, 0.0237275, 0.00063425, -1.56335, 66.4691, 32.515, 8.15216, 1.9704, 3.60415, -0.0557752, -0.00211671, -0.00160486, 0.00405694, 0.0114114, -0.00879312, 0.0021916, 0.0312281, -0.0276392, -0.0102606, -0.058241, 0.139197, 0.022578, 0.470993, -0.542164, 0.33621, -2.08295, -2.1656, -0.129978, 0.469318, -0.543693, 0.331924, -2.08366, -2.16381, -0.108185, -0.000549763, 0.0323721, 0.00822011, 0.0278019, 0.00427193, -0.00762167
0.12213, 1.69488, -1.2284, -1.54312, -0.901435, -1.20419, 1.22842, -1.30258, 0.0748327, 0.00750459, -0.0198235, 0.00188921, -0.120967, 0.027205, 0.000660193, -1.75378, 66.2469, 32.4793, 8.18787, 1.97681, 3.59683, -0.0621838, -0.00214867, -0.0015798, 0.00405523, 0.0114559, -0.00894683, 0.0021816, 0.0313224, -0.0287733, -0.00664814, -0.0542378, 0.148208, 0.0242602, 0.470993, -0.542132, 0.336219, -2.08293, -2.16559, -0.12998, 0.469344, -0.543692, 0.331928, -2.08368, -2.16388, -0.107983, -0.000564485, 0.0329128, 0.00835225, 0.0290556, 0.00420871, -0.00397319
0.12313, 1.69494, -1.2284, -1.54314, -0.901439, -1.20432, 1.22845, -1.30258, 0.070104, 0.00583814, -0.0189569, -0.000106981, -0.124839, 0.0302111, 0.000677489, -1.86486, 66.2112, 32.515, 8.26324, 2.00702, 3.58218, -0.0685925, -0.00218415, -0.00155574, 0.00406166, 0.0114986, -0.00908982, 0.0021697, 0.0344378, -0.0268579, -0.00712257, -0.0529268, 0.151561, 0.0205504, 0.470992, -0.542099, 0.336227, -2.0829, -2.16559, -0.129982, 0.469368, -0.543692, 0.331924, -2.08369, -2.16395, -0.107794, -0.000579456, 0.0334572, 0.00848514, 0.0272227, 0.00167249, -0.00473646
0.12413, 1.69501, -1.22837, -1.54315, -0.901446, -1.20444, 1.22848, -1.30258, 0.0717736, 0.0107593, -0.0173812, -0.00153697, -0.122671, 0.0320248, 0.000214301, -2.05529, 65.9177, 32.515, 8.33862, 2.03174, 3.57577, -0.0621838, -0.00221399, -0.00152698, 0.00405713, 0.0115408, -0.00925257, 0.00215198, 0.0328134, -0.028884, -0.00383845, -0.0493449, 0.156066, 0.0253329, 0.470991, -0.542066, 0.336235, -2.08288, -2.16558, -0.129985, 0.469397, -0.543687, 0.331931, -2.08371, -2.16404, -0.107586, -0.000594677, 0.0340052, 0.00861877, 0.029293, 0.0034006, -0.00117017
0.12513, 1.69508, -1.22838, -1.54316, -0.901452, -1.20458, 1.22851, -1.30258, 0.0704542, 0.00457436, -0.0161705, -0.00256469, -0.126155, 0.0338831, -0.000365759, -2.16637, 66.0287, 32.515, 8.414, 2.06836, 3.56112, -0.0484509, -0.00225121, -0.00150057, 0.00406776, 0.0115825, -0.00939602, 0.00213931, 0.0348588, -0.0286459, -0.00700445, -0.0490053, 0.15405, 0.025131, 0.470991, -0.542032, 0.336244, -2.08286, -2.16557, -0.129987, 0.469424, -0.543687, 0.331923, -2.08372, -2.16411, -0.107397, -0.000610151, 0.0345567, 0.00875313, 0.0289975, 0.00241309, -0.00447409
0.12613, 1.69515, -1.22836, -1.54317, -0.901455, -1.20471, 1.22855, -1.30258, 0.0713126, 0.00824643, -0.0161062, -0.00237762, -0.128108, 0.0352367, 0.000264787, -2.3211, 65.8066, 32.5547, 8.44971, 2.08667, 3.54648, -0.0621838, -0.00228535, -0.001471, 0.0040653, 0.0116162, -0.00956056, 0.00212615, 0.0352755, -0.0290566, -0.00475087, -0.0482835, 0.1604, 0.0245332, 0.47099, -0.541997, 0.336253, -2.08283, -2.16557, -0.12999, 0.469454, -0.543685, 0.331928, -2.08375, -2.1642, -0.107197, -0.000625878, 0.0351119, 0.00888822, 0.0294898, 0.00222592, -0.00219258
0.12713, 1.69522, -1.22835, -1.54317, -0.901458, -1.20485, 1.22858, -1.30259, 0.0707106, 0.00809603, -0.0132902, -0.00229475, -0.13422, 0.0354336, -0.000806819, -2.43218, 65.6955, 32.4793, 8.48541, 2.11139, 3.54648, -0.0356336, -0.00232246, -0.00144403, 0.00406352, 0.0116492, -0.00972478, 0.00211199, 0.0367963, -0.0285477, -0.0038073, -0.0482582, 0.165547, 0.0242939, 0.47099, -0.541962, 0.336262, -2.0828, -2.16556, -0.129992, 0.469482, -0.543686, 0.331932, -2.08377, -2.16428, -0.106997, -0.00064186, 0.0356705, 0.00902402, 0.0290552, 0.00111695, -0.00134771
0.12813, 1.69528, -1.22835, -1.54318, -0.90146, -1.20499, 1.22862, -1.30259, 0.0676009, 0.0045621, -0.0118266, -0.00236369, -0.132487, 0.0358976, -0.0010126, -2.54723, 65.7312, 32.5547, 8.52509, 2.10498, 3.54648, -0.0228162, -0.00236272, -0.00141781, 0.00407302, 0.0116886, -0.00987396, 0.00210266, 0.0384583, -0.0274186, -0.00523003, -0.0455239, 0.161042, 0.0228956, 0.470989, -0.541926, 0.336271, -2.08278, -2.16555, -0.129995, 0.469509, -0.543687, 0.331925, -2.08379, -2.16436, -0.106805, -0.000658099, 0.0362327, 0.00916054, 0.0279192, 0.000212323, -0.00284141
0.12913, 1.69535, -1.22835, -1.54319, -0.90146, -1.20513, 1.22866, -1.30259, 0.0671372, 0.00554703, -0.0101866, -0.00150518, -0.136847, 0.0408609, -0.00114978, -2.62261, 65.6241, 32.4793, 8.52509, 2.10498, 3.54648, -0.00999879, -0.00240361, -0.001391, 0.00407184, 0.0117155, -0.0100414, 0.00209421, 0.0404411, -0.0276569, -0.00352214, -0.0411248, 0.168267, 0.0212096, 0.470988, -0.54189, 0.33628, -2.08275, -2.16554, -0.129998, 0.469536, -0.54369, 0.331928, -2.08383, -2.16444, -0.106609, -0.000674597, 0.0367984, 0.00929776, 0.0282752, -0.00143291, -0.00133563
0.13013, 1.69542, -1.22835, -1.54319, -0.901466, -1.20528, 1.2287, -1.30259, 0.0652845, 0.00286279, -0.010892, -0.00271372, -0.144642, 0.04372, -0.000529163, -2.77337, 65.6598, 32.4793, 8.60046, 2.09949, 3.57577, -0.0164075, -0.0024424, -0.00136056, 0.00407761, 0.0117513, -0.0102029, 0.00207927, 0.0437187, -0.0264518, -0.0051929, -0.0432863, 0.173911, 0.0170193, 0.470988, -0.541853, 0.336289, -2.08273, -2.16554, -0.13, 0.469567, -0.54369, 0.331924, -2.08385, -2.16453, -0.106409, -0.000691354, 0.0373675, 0.00943568, 0.027112, -0.00389011, -0.00332258
0.13113, 1.69549, -1.22835, -1.54319, -0.901471, -1.20543, 1.22874, -1.30259, 0.0643014, 0.00107329, -0.00823001, -0.00343986, -0.145871, 0.0461238, -0.000590134, -2.92413, 65.6955, 32.4793, 8.67188, 2.09308, 3.59683, -0.00999879, -0.00248392, -0.00133071, 0.00408341, 0.0117837, -0.0103686, 0.00206602, 0.0446295, -0.0268704, -0.00518755, -0.0396662, 0.174599, 0.0177139, 0.470987, -0.541816, 0.336299, -2.0827, -2.16553, -0.130003, 0.469597, -0.543691, 0.331921, -2.08387, -2.16461, -0.106209, -0.000708374, 0.0379402, 0.00957429, 0.0275463, -0.00419947, -0.00333481
0.13213, 1.69555, -1.22835, -1.54319, -0.901468, -1.20558, 1.22879, -1.30259, 0.0648614, 0.00155074, -0.00761293, -0.00142823, -0.147312, 0.0436453, -0.000393423, -2.9995, 65.6598, 32.4039, 8.63617, 2.09949, 3.61148, -0.00999879, -0.00252776, -0.00130215, 0.00408461, 0.0118051, -0.0105365, 0.00205915, 0.0454213, -0.0262158, -0.00469017, -0.0409237, 0.175249, 0.0161365, 0.470986, -0.541778, 0.336308, -2.08267, -2.16552, -0.130006, 0.469627, -0.543695, 0.331921, -2.08391, -2.1647, -0.106018, -0.000725657, 0.0385162, 0.00971358, 0.0269224, -0.00450849, -0.00280912
0.13313, 1.69563, -1.22835, -1.5432, -0.901474, -1.20573, 1.22884, -1.30258, 0.0663108, 0.000198599, -0.00764699, -0.00269305, -0.152952, 0.0461111, 0.000924513, -3.11059, 65.6955, 32.4793, 8.71155, 2.09949, 3.63254, -0.0420422, -0.00257095, -0.00127082, 0.00409203, 0.0118365, -0.0107053, 0.00204985, 0.0464978, -0.0271478, -0.00555987, -0.0422359, 0.18035, 0.0155669, 0.470985, -0.541739, 0.336318, -2.08264, -2.16551, -0.130009, 0.469659, -0.543697, 0.331916, -2.08394, -2.16478, -0.105815, -0.000743204, 0.0390957, 0.00985355, 0.0278427, -0.00481791, -0.00372567
0.13413, 1.69569, -1.22835, -1.54319, -0.901476, -1.20589, 1.22888, -1.30259, 0.0661784, 0.000967611, -0.00217787, -0.00261382, -0.152996, 0.0483969, -9.57348e-05, -3.18597, 65.6598, 32.3285, 8.74725, 2.1178, 3.63986, -0.0228162, -0.0026126, -0.00123954, 0.00408896, 0.0118554, -0.0108811, 0.00203289, 0.0462138, -0.0284307, -0.0030008, -0.0352318, 0.182328, 0.019024, 0.470985, -0.5417, 0.336328, -2.08262, -2.1655, -0.130011, 0.469691, -0.543698, 0.331921, -2.08398, -2.16489, -0.10562, -0.000761018, 0.0396786, 0.00999418, 0.0291904, -0.00429697, -0.00105501
0.13513, 1.69577, -1.22834, -1.54319, -0.901478, -1.20605, 1.22893, -1.30258, 0.064306, 0.00148029, -0.00366992, -0.00172998, -0.156068, 0.0498972, 0.00115688, -3.30102, 65.6241, 32.4039, 8.74725, 2.10498, 3.65451, -0.0557752, -0.00265818, -0.00120901, 0.00409324, 0.0118864, -0.0110595, 0.00202752, 0.0489308, -0.0268314, -0.00290273, -0.0357904, 0.186487, 0.0134618, 0.470984, -0.541661, 0.336338, -2.08259, -2.1655, -0.130014, 0.469722, -0.543701, 0.331919, -2.08402, -2.16497, -0.105408, -0.000779099, 0.0402649, 0.0101355, 0.0276772, -0.00647353, -0.00119307
0.13613, 1.69583, -1.22834, -1.54319, -0.901482, -1.2062, 1.22898, -1.30258, 0.063286, 0.00275009, -0.0036229, -0.00290713, -0.159387, 0.0467551, -0.000686809, -3.30102, 65.5487, 32.4396, 8.82263, 2.10498, 3.66092, -0.0164075, -0.00270625, -0.0011815, 0.00409187, 0.0119098, -0.0112452, 0.0020219, 0.0498422, -0.0255539, -0.00254792, -0.0401937, 0.189401, 0.0142445, 0.470983, -0.54162, 0.336348, -2.08256, -2.16549, -0.130017, 0.46975, -0.543707, 0.331922, -2.08406, -2.16506, -0.105196, -0.00079745, 0.0408545, 0.0102774, 0.0264293, -0.00689084, -0.000805145
0.13713, 1.6959, -1.22834, -1.54319, -0.901481, -1.20636, 1.22903, -1.30258, 0.0644164, 0.000998175, -0.00100064, -0.0010958, -0.16035, 0.0482027, 0.00245825, -3.3764, 65.5844, 32.3682, 8.78693, 2.06195, 3.69021, -0.0951428, -0.00275381, -0.00115209, 0.00409335, 0.0119276, -0.0114191, 0.00202132, 0.0504393, -0.0264393, -0.00237769, -0.0364133, 0.189319, 0.0116555, 0.470982, -0.541579, 0.336358, -2.08253, -2.16548, -0.13002, 0.46978, -0.543712, 0.331923, -2.08411, -2.16515, -0.105003, -0.000816072, 0.0414475, 0.01042, 0.0273232, -0.0068764, -0.00061641
0.13813, 1.69597, -1.22834, -1.54318, -0.901492, -1.20653, 1.22908, -1.30258, 0.065389, 0.000665448, 0.000904294, -0.00332369, -0.161495, 0.0549074, 0.000418131, -3.45177, 65.5844, 32.2928, 8.89801, 2.02533, 3.69754, -0.0621838, -0.00279972, -0.00111995, 0.00409744, 0.0119587, -0.0116035, 0.0020045, 0.0505116, -0.0289342, -0.00171587, -0.0305553, 0.193779, 0.0172508, 0.470982, -0.541538, 0.336369, -2.0825, -2.16547, -0.130023, 0.469813, -0.543714, 0.331921, -2.08414, -2.16525, -0.104785, -0.000834967, 0.0420438, 0.0105633, 0.0298233, -0.00634995, 9.05467e-05
0.13913, 1.69604, -1.22833, -1.54319, -0.901495, -1.2067, 1.22913, -1.30258, 0.0629517, 0.00304209, -0.000376245, -0.00304703, -0.166534, 0.0499586, -0.000229872, -3.52715, 65.4733, 32.3285, 8.93372, 1.9704, 3.7186, -0.0484509, -0.00284845, -0.00109011, 0.00409626, 0.0119913, -0.0118008, 0.00199713, 0.0528197, -0.0257504, -0.00104911, -0.0374872, 0.198232, 0.0129158, 0.470981, -0.541496, 0.336379, -2.08247, -2.16546, -0.130026, 0.469844, -0.543719, 0.331924, -2.08418, -2.16535, -0.104552, -0.000854135, 0.0426434, 0.0107072, 0.026733, -0.00826326, 0.000628932
0.14013, 1.6961, -1.22833, -1.54319, -0.901503, -1.20687, 1.22918, -1.30258, 0.0639021, 0.00110004, -0.000358747, -0.00687421, -0.166178, 0.0508358, 0.000355378, -3.48748, 65.513, 32.3285, 9.00909, 1.93927, 3.74057, -0.0621838, -0.0029019, -0.00106365, 0.00410103, 0.0120256, -0.0119929, 0.00199697, 0.0520772, -0.0273839, -0.00273628, -0.0385217, 0.197262, 0.0168627, 0.47098, -0.541453, 0.33639, -2.08244, -2.16545, -0.130029, 0.469871, -0.543727, 0.331921, -2.08423, -2.16543, -0.104322, -0.000873578, 0.0432462, 0.0108517, 0.028256, -0.00659795, -0.000828217
0.14113, 1.69617, -1.22833, -1.54319, -0.901509, -1.20705, 1.22923, -1.30258, 0.0611837, 0.00333181, 0.000515115, -0.00576547, -0.169567, 0.0520509, 0.000474278, -3.52715, 65.4019, 32.2928, 9.04877, 1.89624, 3.7543, -0.0685925, -0.00295297, -0.00103475, 0.00409866, 0.0120536, -0.0121933, 0.00198889, 0.0546396, -0.0255612, -0.000734096, -0.0370156, 0.20305, 0.0123802, 0.470979, -0.54141, 0.336401, -2.08241, -2.16544, -0.130032, 0.469901, -0.543733, 0.331925, -2.08428, -2.16553, -0.104091, -0.000893298, 0.0438524, 0.0109968, 0.0265831, -0.00890625, 0.000947988
0.14213, 1.69624, -1.22833, -1.54319, -0.901516, -1.20723, 1.22928, -1.30258, 0.0604396, 0.00138599, -0.000552511, -0.00486985, -0.173811, 0.0477103, 7.88262e-05, -3.48748, 65.4376, 32.3285, 9.08447, 1.87244, 3.77627, -0.0621838, -0.00300899, -0.00101003, 0.0041026, 0.0120937, -0.0123932, 0.00199184, 0.0566502, -0.0235102, -0.00249811, -0.0432043, 0.202848, 0.00939541, 0.470978, -0.541366, 0.336412, -2.08237, -2.16543, -0.130036, 0.469927, -0.543743, 0.331923, -2.08433, -2.16562, -0.103846, -0.000913297, 0.0444617, 0.0111426, 0.0245229, -0.0100928, -0.000900142
0.14313, 1.6963, -1.22832, -1.54318, -0.90153, -1.20742, 1.22933, -1.30258, 0.0633245, 0.00435767, 0.00218459, -0.00909267, -0.176966, 0.049846, 0.000527269, -3.45177, 65.2908, 32.2175, 9.19556, 1.85321, 3.7836, -0.0750012, -0.00306035, -0.000980283, 0.00409865, 0.0121249, -0.0126048, 0.00198359, 0.0547459, -0.0265507, -0.000356248, -0.0424276, 0.210209, 0.0157568, 0.470977, -0.541322, 0.336423, -2.08234, -2.16542, -0.130039, 0.469957, -0.543748, 0.331929, -2.08438, -2.16572, -0.1036, -0.000933575, 0.0450743, 0.0112889, 0.0275498, -0.00780551, 0.00156261
0.14413, 1.69637, -1.22833, -1.54318, -0.901536, -1.2076, 1.22938, -1.30258, 0.0664604, 0.000306655, 0.000587028, -0.00960212, -0.178597, 0.0521939, 0.000588871, -3.45177, 65.4019, 32.2532, 9.19556, 1.81018, 3.76895, -0.0814099, -0.00311632, -0.000951604, 0.00410783, 0.0121626, -0.0127975, 0.00198128, 0.0551027, -0.0284667, -0.00337798, -0.0434791, 0.209393, 0.0181085, 0.470976, -0.541277, 0.336434, -2.08231, -2.16541, -0.130042, 0.469987, -0.543756, 0.331921, -2.08442, -2.16581, -0.103366, -0.000954135, 0.0456901, 0.0114359, 0.0293441, -0.00699358, -0.00139031
0.14513, 1.69644, -1.22832, -1.54318, -0.901542, -1.20779, 1.22943, -1.30258, 0.0681382, 0.00196767, 0.000365743, -0.00839253, -0.181342, 0.048458, 0.000392581, -3.45177, 65.3265, 32.2532, 9.12018, 1.81659, 3.76895, -0.0814099, -0.00317339, -0.000924052, 0.00410757, 0.0122013, -0.0130134, 0.00198193, 0.0553969, -0.0280732, -0.00274865, -0.0475943, 0.211866, 0.0178623, 0.470975, -0.541231, 0.336446, -2.08228, -2.1654, -0.130045, 0.470015, -0.543765, 0.331923, -2.08448, -2.16591, -0.103106, -0.000974976, 0.0463091, 0.0115835, 0.0289647, -0.0067782, -0.000657023
0.14613, 1.69651, -1.22832, -1.54318, -0.901554, -1.20798, 1.22948, -1.30258, 0.0689966, 0.000383763, 0.000224621, -0.0103683, -0.176578, 0.0460652, -0.000450356, -3.4121, 65.3662, 32.2532, 9.15985, 1.76166, 3.76163, -0.0621838, -0.0032299, -0.000896461, 0.0041126, 0.0122391, -0.0132149, 0.00197506, 0.0540535, -0.0291032, -0.00432065, -0.0486472, 0.205862, 0.0228774, 0.470974, -0.541185, 0.336457, -2.08224, -2.16539, -0.130049, 0.470044, -0.543773, 0.33192, -2.08452, -2.166, -0.102863, -0.000996102, 0.0469312, 0.0117316, 0.0298657, -0.00454301, -0.00188449
0.14713, 1.69657, -1.22833, -1.54318, -0.901561, -1.20816, 1.22952, -1.30257, 0.0644435, -0.00141459, 0.00097056, -0.00908552, -0.179581, 0.0486494, -0.000300237, -3.30102, 65.4376, 32.2175, 9.08447, 1.75525, 3.76163, -0.0621838, -0.00328837, -0.000871076, 0.00411947, 0.0122749, -0.0134059, 0.00197835, 0.0579665, -0.0265567, -0.0045054, -0.0458792, 0.207934, 0.0165757, 0.470973, -0.541138, 0.336469, -2.08221, -2.16538, -0.130052, 0.47007, -0.543781, 0.331915, -2.08457, -2.16608, -0.102632, -0.00101751, 0.0475565, 0.0118804, 0.0274365, -0.00785649, -0.0024528
0.14813, 1.69664, -1.22832, -1.54318, -0.901576, -1.20834, 1.22957, -1.30258, 0.069202, -0.000107845, 0.000636236, -0.0108213, -0.176492, 0.0506604, -0.000946144, -3.26134, 65.4019, 32.2175, 9.12018, 1.74884, 3.76163, -0.0420422, -0.00334326, -0.000842859, 0.00412239, 0.0123193, -0.0136112, 0.00196867, 0.0555263, -0.0302596, -0.00421936, -0.0442651, 0.208506, 0.0243566, 0.470972, -0.54109, 0.336481, -2.08218, -2.16537, -0.130056, 0.470099, -0.543786, 0.331914, -2.0846, -2.16618, -0.102378, -0.00103921, 0.0481849, 0.0120297, 0.0310354, -0.00470923, -0.00175623
0.14913, 1.69671, -1.22833, -1.54317, -0.901581, -1.20852, 1.22961, -1.30257, 0.0702086, -7.18967e-05, 0.00217929, -0.00861892, -0.180183, 0.0475169, 0.000352582, -3.22564, 65.4019, 32.1421, 9.00909, 1.76807, 3.76163, -0.0685925, -0.00340071, -0.000815669, 0.00412551, 0.0123538, -0.0138077, 0.00196905, 0.056457, -0.0296127, -0.00370049, -0.0463206, 0.210214, 0.0216461, 0.470971, -0.541042, 0.336493, -2.08214, -2.16536, -0.130059, 0.470127, -0.543793, 0.331914, -2.08465, -2.16627, -0.102144, -0.0010612, 0.0488164, 0.0121795, 0.0304208, -0.00510299, -0.00122151
0.15013, 1.69677, -1.22832, -1.54318, -0.901593, -1.2087, 1.22965, -1.30257, 0.0689872, 0.000787287, -0.000316453, -0.0089528, -0.176918, 0.0445648, 0.00444992, -3.11059, 65.3662, 32.2175, 8.97339, 1.75525, 3.77627, -0.0557752, -0.00345925, -0.000792363, 0.0041302, 0.0124013, -0.0140046, 0.00197067, 0.0570392, -0.0283673, -0.00436505, -0.0492857, 0.207566, 0.0165405, 0.47097, -0.540993, 0.336505, -2.08211, -2.16535, -0.130063, 0.470151, -0.5438, 0.331911, -2.08469, -2.16635, -0.101894, -0.00108347, 0.049451, 0.01233, 0.0291517, -0.00499107, -0.00178148
0.15113, 1.69683, -1.22831, -1.54318, -0.901609, -1.20889, 1.22969, -1.30257, 0.067057, 0.00405133, -0.00105074, -0.0100903, -0.180582, 0.042935, 0.00261143, -3.07488, 65.2155, 32.2532, 8.97339, 1.77356, 3.77627, -0.0356336, -0.00351615, -0.000766555, 0.00412964, 0.0124497, -0.0142168, 0.00196084, 0.0586187, -0.026634, -0.00291647, -0.0528708, 0.213548, 0.0158616, 0.470969, -0.540944, 0.336517, -2.08207, -2.16534, -0.130066, 0.470178, -0.543806, 0.331914, -2.08472, -2.16645, -0.101629, -0.00110604, 0.0500886, 0.012481, 0.0275097, -0.00620843, -0.000395661
0.15213, 1.6969, -1.22832, -1.54317, -0.901623, -1.20907, 1.22973, -1.30257, 0.0642042, 0.000102433, 0.000131303, -0.0140596, -0.182293, 0.0464124, 0.00132197, -2.9995, 65.3265, 32.2175, 8.97339, 1.76807, 3.76895, -0.0164075, -0.00357576, -0.000742248, 0.00413871, 0.0124954, -0.0144055, 0.00195753, 0.0601835, -0.0266521, -0.00496377, -0.0512585, 0.213374, 0.0179924, 0.470968, -0.540894, 0.33653, -2.08203, -2.16533, -0.13007, 0.470203, -0.543812, 0.331908, -2.08476, -2.16653, -0.10139, -0.0011289, 0.0507293, 0.0126325, 0.027486, -0.00679321, -0.00251259
0.15313, 1.69696, -1.22831, -1.54317, -0.90164, -1.20926, 1.22976, -1.30257, 0.0632754, 0.00266674, 0.000920189, -0.0137257, -0.183679, 0.0439983, 0.0025592, -2.95983, 65.2155, 32.1818, 8.97339, 1.77356, 3.77627, -0.0557752, -0.00363454, -0.000718803, 0.00414029, 0.0125476, -0.0146125, 0.00195892, 0.0609766, -0.0255496, -0.00331826, -0.0526278, 0.216226, 0.015425, 0.470967, -0.540843, 0.336542, -2.082, -2.16532, -0.130073, 0.470227, -0.543818, 0.331909, -2.0848, -2.16661, -0.101125, -0.00115205, 0.051373, 0.0127846, 0.0264523, -0.00723272, -0.000827957
0.15413, 1.69702, -1.22831, -1.54317, -0.901653, -1.20943, 1.22979, -1.30257, 0.0616319, 0.00084981, 0.00153956, -0.0117605, -0.184677, 0.0382926, 0.000412942, -2.88445, 65.2551, 32.1421, 8.89801, 1.76807, 3.76163, -0.0164075, -0.00369485, -0.000697302, 0.0041453, 0.0125955, -0.0148029, 0.00195373, 0.0625983, -0.0231682, -0.00434798, -0.0563702, 0.212583, 0.0142238, 0.470966, -0.540792, 0.336555, -2.08196, -2.16531, -0.130077, 0.470249, -0.543824, 0.331906, -2.08483, -2.16669, -0.100883, -0.0011755, 0.0520197, 0.0129373, 0.0240717, -0.00812536, -0.00187367
0.15513, 1.69708, -1.2283, -1.54317, -0.90167, -1.20962, 1.22981, -1.30257, 0.0611843, 0.00400021, 0.00502437, -0.0152392, -0.180755, 0.0336342, -0.000109681, -2.84875, 65.1083, 32.1064, 8.89801, 1.76166, 3.7543, -0.00267457, -0.003753, -0.000674722, 0.00414613, 0.0126486, -0.0150031, 0.00194707, 0.0601602, -0.02385, -0.00217918, -0.0566772, 0.210728, 0.0202496, 0.470965, -0.54074, 0.336568, -2.08192, -2.1653, -0.130081, 0.470273, -0.543828, 0.331909, -2.08485, -2.16678, -0.100624, -0.00119924, 0.0526694, 0.0130904, 0.0247217, -0.00537664, 0.000778828
0.15613, 1.69713, -1.2283, -1.54316, -0.901683, -1.2098, 1.22984, -1.30257, 0.0567435, 0.00266681, 0.00621064, -0.0160737, -0.182431, 0.031042, 1.96179e-05, -2.77337, 65.1083, 31.9953, 8.82263, 1.75525, 3.72592, -0.00267457, -0.00381678, -0.00065595, 0.00414726, 0.0126888, -0.0151981, 0.00195414, 0.0624954, -0.0211117, -0.00268967, -0.0583647, 0.209794, 0.0165288, 0.470963, -0.540687, 0.336581, -2.08189, -2.16528, -0.130085, 0.470292, -0.543838, 0.33191, -2.0849, -2.16686, -0.100384, -0.00122328, 0.0533221, 0.0132441, 0.0220293, -0.00706307, 0.000146159
0.15713, 1.69718, -1.2283, -1.54315, -0.901702, -1.20998, 1.22986, -1.30257, 0.0558559, 0.00399209, 0.0052654, -0.018568, -0.179402, 0.0282242, -0.000392085, -2.65832, 65.144, 31.9556, 8.82263, 1.75525, 3.7186, 0.0101428, -0.00388089, -0.000640356, 0.00415453, 0.0127456, -0.0153833, 0.00195785, 0.0620077, -0.0208062, -0.0028377, -0.0610089, 0.20796, 0.0188039, 0.470962, -0.540634, 0.336594, -2.08185, -2.16527, -0.130089, 0.470309, -0.543846, 0.331905, -2.08493, -2.16692, -0.100137, -0.00124762, 0.0539777, 0.0133983, 0.0216773, -0.00591514, 0.000238008
0.15813, 1.69724, -1.22829, -1.54315, -0.901721, -1.21016, 1.22989, -1.30257, 0.0556542, 0.00634918, 0.00272996, -0.0203636, -0.180734, 0.0266583, 0.00053676, -2.69799, 64.9973, 31.9953, 8.82263, 1.74335, 3.69754, -0.00999879, -0.00394123, -0.000619677, 0.00415508, 0.0128063, -0.0155882, 0.00195726, 0.0626509, -0.0201648, -0.00274577, -0.0656552, 0.211434, 0.0175832, 0.470961, -0.54058, 0.336608, -2.08181, -2.16526, -0.130092, 0.47033, -0.54385, 0.331908, -2.08496, -2.167, -0.0998647, -0.00127226, 0.0546363, 0.013553, 0.0210394, -0.00593184, 0.000400609
0.15913, 1.69729, -1.22828, -1.54315, -0.90174, -1.21034, 1.2299, -1.30258, 0.0535768, 0.00852436, 0.003694, -0.020732, -0.18669, 0.0243345, -0.00058638, -2.65832, 64.9576, 31.9199, 8.78693, 1.75525, 3.70395, 0.0165515, -0.00400657, -0.000605821, 0.00415732, 0.0128658, -0.0157835, 0.00195758, 0.0646779, -0.018113, -0.00127641, -0.0691195, 0.217698, 0.0154252, 0.47096, -0.540525, 0.336621, -2.08177, -2.16525, -0.130096, 0.470345, -0.543859, 0.331909, -2.08499, -2.16708, -0.0996039, -0.0012972, 0.0552977, 0.0137082, 0.0190946, -0.0075841, 0.00175069
0.16013, 1.69734, -1.22828, -1.54314, -0.901757, -1.21052, 1.22992, -1.30257, 0.0546276, 0.0077607, 0.00338097, -0.0209897, -0.187248, 0.0236356, 0.000113141, -2.7337, 64.8862, 31.8842, 8.74725, 1.76166, 3.68289, 0.00373412, -0.00407006, -0.000588373, 0.00415977, 0.0129222, -0.0159773, 0.00196242, 0.0649889, -0.0185321, -0.00202718, -0.0704474, 0.217618, 0.0157167, 0.470958, -0.54047, 0.336635, -2.08173, -2.16524, -0.1301, 0.470363, -0.543865, 0.331909, -2.08502, -2.16715, -0.0993477, -0.00132244, 0.0559621, 0.013864, 0.0194718, -0.00709196, 0.00110125
0.16113, 1.69738, -1.22828, -1.54314, -0.901779, -1.2107, 1.22993, -1.30258, 0.0474338, 0.00380888, 0.00148108, -0.022179, -0.183147, 0.0220254, -0.000614642, -2.62261, 64.9576, 31.9199, 8.74725, 1.77356, 3.69021, 0.0229602, -0.00414184, -0.000581892, 0.00416911, 0.0129881, -0.016159, 0.00197491, 0.0683035, -0.0146558, -0.00501825, -0.0713052, 0.20996, 0.0109735, 0.470957, -0.540414, 0.336649, -2.08169, -2.16522, -0.130104, 0.470371, -0.543878, 0.331903, -2.08505, -2.1672, -0.0990926, -0.00134799, 0.0566293, 0.0140202, 0.0155846, -0.00939266, -0.00209568
0.16213, 1.69743, -1.22827, -1.54314, -0.901803, -1.21088, 1.22994, -1.30257, 0.0469424, 0.00527404, 0.00279736, -0.0239523, -0.179805, 0.0170106, 0.000827447, -2.69799, 64.8505, 31.8445, 8.78693, 1.77997, 3.67557, -0.00999879, -0.00420529, -0.000566651, 0.00417097, 0.0130477, -0.0163495, 0.00197678, 0.0670964, -0.0144443, -0.00440113, -0.0734154, 0.206739, 0.0123018, 0.470956, -0.540357, 0.336663, -2.08165, -2.16521, -0.130108, 0.470387, -0.543883, 0.331904, -2.08508, -2.16727, -0.0988365, -0.00137384, 0.0572994, 0.0141769, 0.0153274, -0.00763529, -0.00113625
0.16313, 1.69743, -1.22827, -1.54314, -0.901803, -1.21088, 1.22994, -1.30257, 0.0469424, 0.00527404, 0.00279736, -0.0239523, -0.179805, 0.0170106, 0.000827447, -2.69799, 64.8505, 31.8445, 8.78693, 1.77997, 3.67557, -0.00999879, -0.00426423, -0.000567181, 0.0041759, 0.0130235, -0.0163787, 0.00198954, 0.0677865, -0.0144465, -0.00444841, -0.0732718, 0.207216, 0.0123487, 0.470954, -0.5403, 0.336677, -2.08161, -2.1652, -0.130113, 0.470387, -0.543883, 0.331904, -2.08508, -2.16727, -0.0988365, -0.0014, 0.0579723, 0.0143341, 0.0153274, -0.00763529, -0.00113625
0.16413, 1.69743, -1.22827, -1.54314, -0.901803, -1.21088, 1.22994, -1.30257, 0.0469424, 0.00527404, 0.00279736, -0.0239523, -0.179805, 0.0170106, 0.000827447, -2.69799, 64.8505, 31.8445, 8.78693, 1.77997, 3.67557, -0.00999879, -0.00432387, -0.000567709, 0.00418088, 0.012999, -0.0164083, 0.00200244, 0.0684794, -0.0144489, -0.00449564, -0.0731272, 0.207696, 0.0123957, 0.470953, -0.540242, 0.336692, -2.08157, -2.16519, -0.130117, 0.470387, -0.543883, 0.331904, -2.08508, -2.16727, -0.0988365, -0.00142646, 0.058648, 0.0144917, 0.0153274, -0.00763529, -0.00113625
0.16513, 1.69755, -1.22825, -1.54312, -0.901873, -1.21141, 1.22996, -1.30257, 0.0402775, 0.0100386, 0.0020881, -0.0247879, -0.17442, 0.0141398, 0.000527556, -2.80907, 64.664, 31.7731, 8.74725, 1.79828, 3.63986, -0.0356336, -0.004412, -0.000539563, 0.00417861, 0.0132422, -0.0169187, 0.00201338, 0.0702335, -0.0107563, -0.00199261, -0.0725446, 0.206968, 0.00819885, 0.470951, -0.540183, 0.336706, -2.08153, -2.16517, -0.130121, 0.470417, -0.54391, 0.331906, -2.08517, -2.16743, -0.0980504, -0.00145324, 0.0593266, 0.0146499, 0.0117715, -0.00923094, 0.00133099
0.16613, 1.69759, -1.22825, -1.54311, -0.901895, -1.21159, 1.22996, -1.30256, 0.0380862, 0.00946641, 0.00233487, -0.0262027, -0.173476, 0.0107767, 0.00110291, -2.88445, 64.6997, 31.7335, 8.67188, 1.81659, 3.63254, -0.0557752, -0.00448445, -0.000532156, 0.00418407, 0.0133067, -0.017105, 0.00202894, 0.0709561, -0.00938775, -0.00266265, -0.0750378, 0.204481, 0.00715824, 0.47095, -0.540124, 0.336721, -2.08148, -2.16516, -0.130125, 0.470425, -0.543921, 0.331904, -2.0852, -2.16748, -0.097792, -0.00148032, 0.0600079, 0.0148084, 0.0103796, -0.00921525, 0.000755386
0.16713, 1.69762, -1.22824, -1.54311, -0.901919, -1.21177, 1.22997, -1.30256, 0.0355804, 0.00943946, 0.00156767, -0.0252411, -0.168414, 0.00877349, 0.000739191, -2.92413, 64.5926, 31.7335, 8.63617, 1.8349, 3.61148, -0.0557752, -0.00455881, -0.000528121, 0.00418523, 0.0133735, -0.0172995, 0.00204751, 0.0720106, -0.00783194, -0.00292262, -0.0741291, 0.199661, 0.00554703, 0.470949, -0.540064, 0.336735, -2.08144, -2.16515, -0.130129, 0.47043, -0.543934, 0.331906, -2.08524, -2.16753, -0.0975224, -0.00150772, 0.0606919, 0.0149675, 0.008828, -0.00959601, 0.000538833
0.16813, 1.69765, -1.22822, -1.54311, -0.901949, -1.21195, 1.22997, -1.30257, 0.0368386, 0.0102866, 0.00433099, -0.0262697, -0.168997, 0.00645585, -0.000724971, -2.95983, 64.4418, 31.7335, 8.67188, 1.84772, 3.61148, -0.0228162, -0.00462982, -0.000522213, 0.00418486, 0.013444, -0.0174949, 0.00205445, 0.0710737, -0.00876042, -0.00189638, -0.0744336, 0.200276, 0.0102746, 0.470947, -0.540003, 0.33675, -2.0814, -2.16513, -0.130134, 0.470437, -0.543943, 0.331909, -2.08527, -2.1676, -0.0972491, -0.00153542, 0.0613787, 0.015127, 0.00973267, -0.00810473, 0.00182678
0.16913, 1.69768, -1.22821, -1.5431, -0.901986, -1.21212, 1.22996, -1.30257, 0.0369239, 0.00628007, 0.00537332, -0.031963, -0.169047, 0.00503032, 0.000230966, -2.95983, 64.4815, 31.7731, 8.78693, 1.84772, 3.60415, -0.0420422, -0.00470352, -0.000518999, 0.00419179, 0.0135202, -0.0176796, 0.00206849, 0.0700772, -0.0100866, -0.00485731, -0.0776464, 0.19658, 0.0150168, 0.470946, -0.539942, 0.336766, -2.08135, -2.16512, -0.130138, 0.470441, -0.543953, 0.331906, -2.08529, -2.16764, -0.0969797, -0.00156344, 0.0620682, 0.0152869, 0.0108821, -0.00591489, -0.000823769
0.17013, 1.69771, -1.22821, -1.54309, -0.902009, -1.2123, 1.22996, -1.30257, 0.0347481, 0.00665532, 0.00795892, -0.0283444, -0.170345, -0.00533979, -0.00103117, -2.9995, 64.5172, 31.7335, 8.71155, 1.87793, 3.59683, -0.00999879, -0.00477894, -0.000516373, 0.00419469, 0.0135829, -0.0178595, 0.00208241, 0.0714408, -0.00645285, -0.00404763, -0.0827898, 0.19278, 0.0116627, 0.470944, -0.53988, 0.336781, -2.08131, -2.16511, -0.130143, 0.470445, -0.543965, 0.331906, -2.08532, -2.16769, -0.0967302, -0.00159178, 0.0627604, 0.0154473, 0.00730591, -0.00684598, 3.36887e-05
0.17113, 1.69774, -1.22819, -1.54309, -0.902037, -1.21247, 1.22996, -1.30257, 0.0309255, 0.0100843, 0.00646054, -0.0297223, -0.169452, -0.0043506, -0.00166955, -3.07488, 64.295, 31.8445, 8.67188, 1.87244, 3.60415, 0.0165515, -0.00485228, -0.000513052, 0.00419075, 0.0136526, -0.0180565, 0.0020949, 0.0733626, -0.00456652, -0.00249393, -0.0824472, 0.196524, 0.00929081, 0.470942, -0.539817, 0.336796, -2.08126, -2.16509, -0.130147, 0.470449, -0.543975, 0.331914, -2.08535, -2.16775, -0.0964557, -0.00162043, 0.0634553, 0.0156081, 0.00552293, -0.00836814, 0.00148335
0.17213, 1.69776, -1.22818, -1.54308, -0.902066, -1.21263, 1.22996, -1.30257, 0.0283425, 0.0101532, 0.00984657, -0.031014, -0.169077, -0.00356128, -0.00134946, -3.03521, 64.295, 31.7731, 8.63617, 1.86603, 3.61148, 0.0229602, -0.00492833, -0.00051187, 0.00419009, 0.0137067, -0.018235, 0.00211057, 0.0741391, -0.00419759, -0.00127686, -0.078666, 0.196969, 0.00933587, 0.470941, -0.539753, 0.336812, -2.08122, -2.16508, -0.130152, 0.470452, -0.543986, 0.331918, -2.08538, -2.16779, -0.096217, -0.00164939, 0.0641529, 0.0157694, 0.00520059, -0.00864124, 0.00273314
0.17313, 1.69778, -1.22816, -1.54308, -0.9021, -1.2128, 1.22995, -1.30257, 0.0241676, 0.0121109, 0.00885382, -0.0351854, -0.164718, -0.00344628, -0.000661585, -3.03521, 64.2236, 31.8445, 8.60046, 1.87244, 3.63254, 0.0165515, -0.00500504, -0.000511827, 0.00418922, 0.0137715, -0.0184216, 0.00213193, 0.0746535, -0.00309031, -0.000878872, -0.0784041, 0.196193, 0.00916664, 0.470939, -0.539689, 0.336828, -2.08117, -2.16506, -0.130156, 0.470453, -0.543998, 0.331923, -2.08541, -2.16784, -0.0959577, -0.00167868, 0.0648531, 0.015931, 0.00410023, -0.00855661, 0.00323922
0.17413, 1.69781, -1.22815, -1.54307, -0.902132, -1.21296, 1.22995, -1.30257, 0.0259456, 0.011993, 0.00676463, -0.035068, -0.161393, -0.00333048, -0.000203175, -3.11059, 64.2236, 31.8445, 8.56079, 1.88434, 3.65451, 0.0101428, -0.00507882, -0.000507901, 0.00418951, 0.0138352, -0.0186028, 0.00213996, 0.0744192, -0.00409634, -0.001809, -0.0786465, 0.194106, 0.0105281, 0.470937, -0.539624, 0.336844, -2.08113, -2.16505, -0.130161, 0.470458, -0.544006, 0.331926, -2.08543, -2.16789, -0.0957066, -0.00170828, 0.065556, 0.0160931, 0.00503249, -0.0074349, 0.00248569
0.17513, 1.69783, -1.22813, -1.54307, -0.902167, -1.21312, 1.22994, -1.30257, 0.0237228, 0.00875308, 0.00770961, -0.0310764, -0.155022, -0.00838015, -0.000135058, -3.03521, 64.2236, 31.9953, 8.48541, 1.90906, 3.69021, 0.0101428, -0.00515768, -0.00051076, 0.00419342, 0.0139053, -0.018777, 0.002163, 0.0756369, -0.00197232, -0.00323775, -0.0771794, 0.183133, 0.00739285, 0.470936, -0.539559, 0.33686, -2.08108, -2.16503, -0.130166, 0.470456, -0.544017, 0.331926, -2.08546, -2.16792, -0.095454, -0.0017382, 0.0662614, 0.0162556, 0.00287289, -0.00779725, 0.00111104
0.17613, 1.69784, -1.22812, -1.54306, -0.90221, -1.21327, 1.22994, -1.30256, 0.0201316, 0.0103561, 0.00436807, -0.0329458, -0.153782, -0.00660809, 0.00184304, -2.9995, 64.184, 32.0707, 8.48541, 1.91546, 3.70395, -0.0420422, -0.00523202, -0.000508375, 0.00419384, 0.0139656, -0.0189531, 0.00217662, 0.0778897, -0.000216074, -0.00342794, -0.0780144, 0.185365, 0.00236364, 0.470934, -0.539493, 0.336876, -2.08103, -2.16502, -0.13017, 0.470459, -0.544024, 0.33193, -2.08548, -2.16797, -0.0952114, -0.00176845, 0.0669695, 0.0164185, 0.00116486, -0.00935614, 0.000785001
0.17713, 1.69787, -1.22811, -1.54305, -0.902247, -1.21342, 1.22993, -1.30257, 0.0183465, 0.00980988, 0.0058556, -0.038958, -0.152852, -0.00587498, -0.000941228, -2.9995, 64.2236, 32.1064, 8.414, 1.93378, 3.73324, 0.0165515, -0.0053063, -0.000505109, 0.00419682, 0.0140248, -0.0191191, 0.00217386, 0.0772665, -0.00108522, -0.00394868, -0.0780977, 0.185296, 0.0097524, 0.470932, -0.539426, 0.336892, -2.08098, -2.165, -0.130175, 0.470463, -0.54403, 0.331932, -2.08548, -2.16803, -0.094982, -0.00179901, 0.0676801, 0.0165817, 0.00196065, -0.00791222, 0.000502093
0.17813, 1.69788, -1.2281, -1.54305, -0.90229, -1.21357, 1.22993, -1.30257, 0.0151948, 0.00880785, 0.00295118, -0.0411277, -0.148434, -0.00420505, 8.47569e-05, -2.92413, 64.295, 32.1818, 8.37433, 1.95758, 3.73324, -0.00267457, -0.00538408, -0.000503754, 0.00420149, 0.0140828, -0.0192885, 0.00218452, 0.0787534, -0.000111988, -0.00561725, -0.0776105, 0.182285, 0.00770672, 0.47093, -0.539358, 0.336909, -2.08094, -2.16499, -0.13018, 0.470465, -0.544038, 0.331931, -2.0855, -2.16807, -0.0947491, -0.0018299, 0.0683933, 0.0167454, 0.000949967, -0.00844663, -0.00118689
0.17913, 1.69789, -1.22808, -1.54304, -0.902329, -1.21371, 1.22992, -1.30257, 0.0182587, 0.009313, 0.00405686, -0.0410264, -0.144745, -0.0087512, 0.000565255, -2.80907, 64.184, 32.2532, 8.26324, 1.9823, 3.76163, -0.0164075, -0.00546265, -0.000506919, 0.00419795, 0.0141443, -0.0194663, 0.00220531, 0.0766821, -0.00158859, -0.00553475, -0.079066, 0.178056, 0.0118959, 0.470929, -0.53929, 0.336926, -2.08089, -2.16497, -0.130185, 0.470463, -0.544047, 0.331939, -2.08553, -2.16811, -0.0945027, -0.00186112, 0.069109, 0.0169095, 0.0023215, -0.00563687, -0.000665139
0.18013, 1.69791, -1.22806, -1.54302, -0.902382, -1.21386, 1.22991, -1.30256, 0.0194363, 0.0108426, 0.00825293, -0.0445522, -0.141613, -0.0116407, 0.00156372, -2.77337, 64.1483, 32.1818, 8.29895, 1.98871, 3.77627, -0.0484509, -0.00553273, -0.000499901, 0.00419623, 0.0141993, -0.0196377, 0.00220098, 0.0739202, -0.00359363, -0.00401434, -0.0779444, 0.176188, 0.0181642, 0.470927, -0.53922, 0.336943, -2.08084, -2.16496, -0.13019, 0.470471, -0.544047, 0.331946, -2.08553, -2.16817, -0.0942727, -0.00189266, 0.0698272, 0.0170739, 0.00424962, -0.00234501, 0.00136818
0.18113, 1.69793, -1.22806, -1.54301, -0.902424, -1.21401, 1.22991, -1.30256, 0.0171254, 0.00686802, 0.0086295, -0.0427842, -0.139565, -0.00907597, 0.000330476, -2.7337, 64.3347, 32.2175, 8.15216, 2.00702, 3.79001, -0.0292249, -0.00561184, -0.000498673, 0.0042036, 0.0142576, -0.0197986, 0.00220732, 0.0763594, -0.00274615, -0.0056946, -0.0734681, 0.172044, 0.0166001, 0.470925, -0.539151, 0.33696, -2.08079, -2.16494, -0.130195, 0.470473, -0.544054, 0.331943, -2.08554, -2.16822, -0.0940488, -0.00192452, 0.0705479, 0.0172387, 0.00339785, -0.00380433, -0.000485128
0.18213, 1.69793, -1.22804, -1.54301, -0.902473, -1.21415, 1.2299, -1.30256, 0.0156683, 0.0093779, 0.0109985, -0.0464944, -0.142777, -0.00665577, 0.000457729, -2.58294, 64.295, 32.2928, 8.07678, 2.02533, 3.79001, -0.0356336, -0.00569216, -0.000500549, 0.00420337, 0.0143178, -0.0199757, 0.00221986, 0.0768071, -0.00322474, -0.00362455, -0.0718964, 0.179024, 0.0183583, 0.470923, -0.53908, 0.336977, -2.08074, -2.16492, -0.1302, 0.470472, -0.544063, 0.331948, -2.08556, -2.16827, -0.0938057, -0.00195671, 0.0712712, 0.0174039, 0.00393948, -0.00382504, 0.00163475
0.18313, 1.69795, -1.22803, -1.543, -0.902521, -1.2143, 1.22989, -1.30256, 0.0136127, 0.00853074, 0.0129168, -0.0443339, -0.141409, -0.0092994, 0.000542551, -2.50756, 64.3704, 32.3682, 7.92602, 2.06195, 3.7836, -0.0420422, -0.00576976, -0.000499446, 0.00420797, 0.01438, -0.0201387, 0.002225, 0.0782406, -0.00161385, -0.00332227, -0.0704653, 0.175856, 0.0157425, 0.470921, -0.539009, 0.336994, -2.08069, -2.16491, -0.130205, 0.470474, -0.544067, 0.331949, -2.08556, -2.16831, -0.0935756, -0.00198923, 0.0719968, 0.0175694, 0.00236326, -0.0046284, 0.00192132
0.18413, 1.69795, -1.22802, -1.54299, -0.90258, -1.21443, 1.22988, -1.30256, 0.00960463, 0.00818114, 0.0105631, -0.0485705, -0.139391, -0.00743575, -0.000112988, -2.3211, 64.4418, 32.4793, 7.89032, 2.08667, 3.79733, -0.0292249, -0.00584747, -0.000499223, 0.00421346, 0.0144427, -0.020301, 0.00222408, 0.0798315, -0.000475344, -0.00462297, -0.0712326, 0.175681, 0.015798, 0.470919, -0.538937, 0.337012, -2.08064, -2.16489, -0.13021, 0.470474, -0.544071, 0.331948, -2.08556, -2.16836, -0.0933463, -0.00202208, 0.072725, 0.0177353, 0.00120328, -0.00531458, 0.000586211
0.18513, 1.69797, -1.228, -1.54298, -0.902636, -1.21457, 1.22988, -1.30256, 0.00983247, 0.01262, 0.0145493, -0.0500753, -0.138339, -0.00472292, 0.000162056, -2.28143, 64.4418, 32.4793, 7.77924, 2.11139, 3.77627, -0.0356336, -0.00592051, -0.00049309, 0.00421143, 0.0144923, -0.0204679, 0.00221892, 0.0788594, -0.0021942, -0.000623707, -0.0650497, 0.180984, 0.0192751, 0.470917, -0.538864, 0.33703, -2.08058, -2.16487, -0.130215, 0.470481, -0.54407, 0.331956, -2.08556, -2.16843, -0.0931271, -0.00205526, 0.0734555, 0.0179016, 0.00300417, -0.00417585, 0.00479513
0.18613, 1.69797, -1.22799, -1.54296, -0.902698, -1.2147, 1.22986, -1.30256, 0.00659243, 0.0140957, 0.0143595, -0.0520586, -0.137455, -0.00355785, 0.00503684, -2.091, 64.5172, 32.4793, 7.70386, 2.13611, 3.77627, -0.0420422, -0.00599597, -0.000492106, 0.00421298, 0.0145468, -0.0206242, 0.00221485, 0.0803108, -0.00107561, 0.000134385, -0.0638876, 0.182932, 0.0131691, 0.470915, -0.538791, 0.337048, -2.08053, -2.16486, -0.13022, 0.470483, -0.544071, 0.33196, -2.08555, -2.16848, -0.0929135, -0.00208877, 0.0741885, 0.0180681, 0.00193686, -0.00504023, 0.00551392
