alisrour97/Franka_experiments/Real_Robot_scripts/servo-franka/Data3/log_dyn_INIT0_10.csv
Time,q1,q2,q3,q4,q5,q6,q7,dq1,dq2,dq3,dq4,dq5,dq6,dq7,t1,t2,t3,t4,t5,t6,t7,ex1,ex2,ex3,ex4,ex5,ex6,ev1,ev2,ev3,ev4,ev5,ev6,xd,yd,zd,uxd,uyd,uzd,x,y,z,ux,uy,uz,vxd,vyd,vzd,vx,vy,vz
2.44141e-07, 1.69111, -1.22875, -1.53992, -0.900344, -1.19246, 1.22797, -1.30266, -0.0103817, 0.00551246, -0.00430383, 0.00382773, 0.00123981, -0.00659504, -0.00053098, 0.928108, 65.4376, 33.0387, 7.18018, 2.96466, 4.04086, -0.10796, 0.000146995, -0.00210018, 0.00270919, 0.00303057, 0.00230848, 0.00103602, 0.00521799, 0.00861258, 0.0022083, -0.00501586, 0.000851286, -0.0148231, 0.471008, -0.543389, 0.335894, -2.08385, -2.16584, -0.129887, 0.468818, -0.542906, 0.333302, -2.08213, -2.16228, -0.128767, 1.77043e-06, 3.2e-05, 1.02972e-05, -0.0083334, -0.00581162, 0.00164053
0.0131255, 1.69106, -1.22873, -1.53996, -0.900331, -1.19245, 1.22792, -1.30268, -0.00306544, 0.00192047, 0.000536177, -0.000752566, 0.000708431, -0.00391693, -0.000143499, 0.701973, 65.4376, 32.9633, 7.29126, 2.94086, 4.04819, -0.0814099, 0.000124157, -0.00214637, 0.00270932, 0.00309986, 0.00231523, 0.00109281, 0.000363774, 0.00213344, 0.00102548, -0.00231671, -0.000621566, -0.00175987, 0.471008, -0.543389, 0.335894, -2.08385, -2.16584, -0.129887, 0.468762, -0.542938, 0.333303, -2.08217, -2.16217, -0.128683, 1.77746e-06, 6.40623e-05, 1.89552e-05, -0.00207889, -0.000540182, 0.00103936
0.0141255, 1.69106, -1.22873, -1.53996, -0.900331, -1.19245, 1.22792, -1.30268, -0.00306544, 0.00192047, 0.000536177, -0.000752566, 0.000708431, -0.00391693, -0.000143499, 0.701973, 65.4376, 32.9633, 7.29126, 2.94086, 4.04819, -0.0814099, 0.00012415, -0.00214637, 0.00270932, 0.00309986, 0.00231523, 0.00109282, 0.00040003, 0.00213459, 0.00102152, -0.00231207, -0.000595025, -0.00175727, 0.471008, -0.543389, 0.335894, -2.08385, -2.16584, -0.129887, 0.468762, -0.542938, 0.333303, -2.08217, -2.16217, -0.128683, 1.77167e-06, 9.92934e-05, 2.84561e-05, -0.00207889, -0.000540182, 0.00103936
0.0151255, 1.69106, -1.22873, -1.53996, -0.900331, -1.19245, 1.22792, -1.30268, -0.00306544, 0.00192047, 0.000536177, -0.000752566, 0.000708431, -0.00391693, -0.000143499, 0.701973, 65.4376, 32.9633, 7.29126, 2.94086, 4.04819, -0.0814099, 0.00012413, -0.00214637, 0.00270932, 0.00309985, 0.00231522, 0.00109282, 0.000439674, 0.00213584, 0.0010172, -0.00230697, -0.000566017, -0.00175441, 0.471008, -0.543389, 0.335894, -2.08385, -2.16584, -0.129887, 0.468762, -0.542938, 0.333303, -2.08217, -2.16217, -0.128683, 1.75167e-06, 0.000137819, 3.88327e-05, -0.00207889, -0.000540182, 0.00103936
0.0161255, 1.69106, -1.22873, -1.53996, -0.900331, -1.19245, 1.22792, -1.30268, -0.00306544, 0.00192047, 0.000536177, -0.000752566, 0.000708431, -0.00391693, -0.000143499, 0.701973, 65.4376, 32.9633, 7.29126, 2.94086, 4.04819, -0.0814099, 0.000124091, -0.00214637, 0.00270933, 0.00309983, 0.0023152, 0.00109283, 0.000482835, 0.00213718, 0.00101252, -0.00230139, -0.000534451, -0.00175131, 0.471008, -0.543389, 0.335894, -2.08385, -2.16584, -0.129887, 0.468762, -0.542938, 0.333303, -2.08217, -2.16217, -0.128683, 1.716e-06, 0.000179762, 5.01169e-05, -0.00207889, -0.000540182, 0.00103936
0.0171255, 1.69106, -1.22873, -1.53996, -0.900331, -1.19245, 1.22792, -1.30268, -0.00306544, 0.00192047, 0.000536177, -0.000752566, 0.000708431, -0.00391693, -0.000143499, 0.701973, 65.4376, 32.9633, 7.29126, 2.94086, 4.04819, -0.0814099, 0.000124026, -0.00214638, 0.00270933, 0.00309981, 0.00231517, 0.00109285, 0.000529639, 0.00213862, 0.00100745, -0.00229531, -0.000500235, -0.00174793, 0.471008, -0.543389, 0.335894, -2.08385, -2.16584, -0.129887, 0.468762, -0.542938, 0.333303, -2.08217, -2.16217, -0.128683, 1.66317e-06, 0.000225248, 6.23407e-05, -0.00207889, -0.000540182, 0.00103936
0.0181255, 1.69106, -1.22873, -1.53996, -0.900331, -1.19245, 1.22792, -1.30268, -0.00306544, 0.00192047, 0.000536177, -0.000752566, 0.000708431, -0.00391693, -0.000143499, 0.701973, 65.4376, 32.9633, 7.29126, 2.94086, 4.04819, -0.0814099, 0.00012393, -0.00214638, 0.00270934, 0.00309977, 0.00231512, 0.00109287, 0.000580211, 0.00214016, 0.00100199, -0.0022887, -0.00046328, -0.00174429, 0.471008, -0.543389, 0.335894, -2.08385, -2.16584, -0.129887, 0.468762, -0.542938, 0.333303, -2.08217, -2.16217, -0.128683, 1.59159e-06, 0.000274397, 7.55354e-05, -0.00207889, -0.000540182, 0.00103936
0.0191255, 1.69106, -1.22873, -1.53996, -0.900331, -1.19245, 1.22792, -1.30268, -0.00306544, 0.00192047, 0.000536177, -0.000752566, 0.000708431, -0.00391693, -0.000143499, 0.701973, 65.4376, 32.9633, 7.29126, 2.94086, 4.04819, -0.0814099, 0.000123796, -0.00214638, 0.00270936, 0.00309972, 0.00231506, 0.0010929, 0.000634675, 0.0021418, 0.000996121, -0.00228156, -0.000423496, -0.00174036, 0.471008, -0.543389, 0.335894, -2.08385, -2.16584, -0.129887, 0.468762, -0.542938, 0.333303, -2.08217, -2.16217, -0.128683, 1.49965e-06, 0.00032733, 8.9732e-05, -0.00207889, -0.000540182, 0.00103936
0.0201255, 1.69106, -1.22873, -1.53996, -0.900331, -1.19245, 1.22792, -1.30268, -0.00306544, 0.00192047, 0.000536177, -0.000752566, 0.000708431, -0.00391693, -0.000143499, 0.701973, 65.4376, 32.9633, 7.29126, 2.94086, 4.04819, -0.0814099, 0.000123618, -0.00214639, 0.00270938, 0.00309964, 0.00231497, 0.00109295, 0.000693153, 0.00214356, 0.000989836, -0.00227385, -0.000380796, -0.00173613, 0.471008, -0.543389, 0.335894, -2.08385, -2.16584, -0.129887, 0.468762, -0.542938, 0.333303, -2.08217, -2.16217, -0.128683, 1.38564e-06, 0.000384166, 0.000104961, -0.00207889, -0.000540182, 0.00103936
0.0211255, 1.69106, -1.22873, -1.53996, -0.900331, -1.19245, 1.22792, -1.30268, -0.00306544, 0.00192047, 0.000536177, -0.000752566, 0.000708431, -0.00391693, -0.000143499, 0.701973, 65.4376, 32.9633, 7.29126, 2.94086, 4.04819, -0.0814099, 0.00012339, -0.00214639, 0.0027094, 0.00309955, 0.00231486, 0.001093, 0.000755764, 0.00214542, 0.000983121, -0.00226557, -0.000335094, -0.00173161, 0.471008, -0.543389, 0.335894, -2.08385, -2.16584, -0.129887, 0.468762, -0.542938, 0.333303, -2.08217, -2.16217, -0.128683, 1.24785e-06, 0.00044502, 0.000121252, -0.00207889, -0.000540182, 0.00103936
0.0221255, 1.69103, -1.22874, -1.53999, -0.900352, -1.19244, 1.22791, -1.30269, -0.00537429, -0.00154754, -0.0017392, -0.0029691, 0.000522556, -0.000620748, -0.00191248, 0.360787, 65.6598, 33.0387, 7.47772, 2.89783, 4.07748, -0.0164075, 0.000109313, -0.00216626, 0.00272856, 0.00312444, 0.00234162, 0.00110173, 0.00236297, 0.00270597, -0.00176727, -0.00244812, -0.00169447, -0.00138635, 0.471008, -0.543388, 0.335894, -2.08385, -2.16584, -0.129887, 0.468742, -0.542949, 0.333282, -2.08215, -2.16213, -0.128682, 1.08446e-06, 0.000510009, 0.000138634, -0.00268069, -0.00166148, -0.0018916
0.0231255, 1.69103, -1.22874, -1.53999, -0.900352, -1.19244, 1.22791, -1.30269, -0.0032532, -0.00102803, -0.00214809, -0.00197064, 0.000585774, -0.000167491, 0.00089175, 0.325081, 65.6598, 33.0744, 7.47772, 2.89142, 4.07016, -0.0750012, 0.000108699, -0.00216593, 0.00273094, 0.00312625, 0.00234372, 0.00110523, 0.00186125, 0.00173173, -0.00154836, -0.0021906, -0.00094142, -0.00315119, 0.471008, -0.543388, 0.335894, -2.08385, -2.16584, -0.129887, 0.468742, -0.542949, 0.33328, -2.08215, -2.16213, -0.128682, 8.93621e-07, 0.000579243, 0.000157137, -0.00171794, -0.00109077, -0.00160843
0.0241255, 1.69102, -1.22875, -1.53999, -0.90035, -1.19244, 1.22791, -1.30269, -0.0043112, -0.00155449, -0.00875808, -0.00188044, -0.00131058, 0.00119207, -0.00157819, 0.400459, 65.4019, 32.8522, 7.36664, 2.81177, 4.03445, -0.0164075, 0.000102536, -0.002172, 0.00273313, 0.00312521, 0.00234695, 0.00111292, 0.00436823, 0.00347172, -0.00402387, -0.0074987, 0.00119412, -0.00559891, 0.471008, -0.543388, 0.335894, -2.08384, -2.16584, -0.129887, 0.468737, -0.542955, 0.333277, -2.08216, -2.16212, -0.128685, 6.73433e-07, 0.000652833, 0.000176787, -0.00345562, -0.00318233, -0.0043698
0.0251255, 1.69102, -1.22876, -1.54001, -0.900358, -1.19243, 1.22792, -1.30269, -0.00139527, -0.00621415, -0.0115031, -0.00383086, -3.91479e-05, 0.000114334, -0.00057932, 0.325081, 64.9219, 32.515, 7.33093, 2.65155, 3.92642, -0.0292249, 0.00010122, -0.00217056, 0.00274479, 0.00313736, 0.00235417, 0.00111242, 0.00321386, 0.00185648, -0.00826155, -0.0120039, -0.00452397, -0.00281039, 0.471008, -0.543387, 0.335894, -2.08384, -2.16584, -0.129887, 0.468738, -0.542954, 0.333265, -2.08215, -2.16211, -0.128679, 4.21933e-07, 0.000730885, 0.000197611, -0.00203696, -0.00124631, -0.00840288
0.0261255, 1.69103, -1.22876, -1.54003, -0.900365, -1.19243, 1.22792, -1.30269, 0.00247582, -0.00497129, -0.0152028, -0.00436216, -0.00170892, -0.00210596, -0.00208307, 0.170357, 64.0768, 31.9556, 7.25555, 2.4245, 3.84768, 0.0165515, 0.000102608, -0.00216797, 0.00275334, 0.00315742, 0.00235501, 0.0011059, 0.0021749, 0.000837876, -0.00932299, -0.0186888, -0.00255107, 0.000628064, 0.471008, -0.543387, 0.335895, -2.08384, -2.16584, -0.129887, 0.46874, -0.54295, 0.333257, -2.08213, -2.16211, -0.128658, 1.37109e-07, 0.000813505, 0.000219637, -0.00109542, 6.7056e-05, -0.00929839
0.0271255, 1.69103, -1.22876, -1.54008, -0.900369, -1.19244, 1.22791, -1.30269, 0.0023258, 0.00159235, -0.0297914, 0.000851103, -0.00145536, -0.00399506, -0.000677711, 0.134651, 63.1564, 31.6224, 7.06909, 2.27161, 3.77627, -0.00267457, 9.20463e-05, -0.00217705, 0.00277196, 0.00321101, 0.00234566, 0.00113165, 0.00604391, 0.00510264, -0.0100842, -0.0299168, 0.00339062, -0.0125313, 0.471008, -0.543386, 0.335895, -2.08384, -2.16584, -0.129887, 0.46873, -0.542958, 0.333238, -2.08213, -2.16206, -0.128587, -1.83099e-07, 0.000900793, 0.00024289, -0.00524413, -0.00372258, -0.0104987
0.0281255, 1.69105, -1.22877, -1.54012, -0.900369, -1.19245, 1.22791, -1.30269, 0.00672028, -0.00466541, -0.0321056, -0.000757539, -0.0023567, -0.00575212, -0.000452614, -0.0914839, 62.4542, 31.0273, 6.84296, 2.14252, 3.71127, -0.00267457, 8.71508e-05, -0.00217607, 0.00279823, 0.00325975, 0.00235195, 0.00113801, 0.00476699, 0.00299928, -0.0151995, -0.035849, -0.00247752, -0.0082965, 0.471008, -0.543385, 0.335895, -2.08384, -2.16584, -0.129887, 0.468731, -0.542958, 0.333211, -2.08211, -2.16204, -0.128539, -5.40806e-07, 0.000992849, 0.000267393, -0.00337416, -0.00149652, -0.0153904
0.0291255, 1.69106, -1.2288, -1.54018, -0.900381, -1.19247, 1.22791, -1.30269, 0.00708146, -0.0106418, -0.0397465, -0.00362912, -0.00537098, -0.00197472, -0.0017265, -0.206535, 61.9385, 30.6544, 6.80725, 2.08118, 3.63254, 0.0357776, 7.43473e-05, -0.00218062, 0.00283788, 0.0033339, 0.00235237, 0.00115137, 0.0069818, 0.00305091, -0.0215198, -0.0425609, -0.00327064, -0.00870829, 0.471008, -0.543384, 0.335895, -2.08384, -2.16584, -0.129887, 0.468725, -0.542963, 0.33317, -2.08208, -2.16199, -0.128456, -9.38169e-07, 0.00108977, 0.000293171, -0.00357507, -0.00261544, -0.0219476
0.0301255, 1.69106, -1.22883, -1.54024, -0.900388, -1.19249, 1.22792, -1.30269, 0.00465349, -0.0192116, -0.0428311, -0.00613211, -0.00948895, 0.00158747, -0.000914096, -0.206535, 61.6092, 30.1703, 6.65649, 2.07477, 3.53274, 0.0293689, 5.72706e-05, -0.00218772, 0.00287978, 0.00339838, 0.00236025, 0.00117687, 0.0100385, 0.0040632, -0.0275708, -0.0455972, -0.00625693, -0.0124123, 0.471008, -0.543383, 0.335895, -2.08384, -2.16584, -0.129887, 0.468717, -0.542973, 0.333127, -2.08207, -2.16194, -0.12839, -1.3774e-06, 0.00119164, 0.000320246, -0.00469563, -0.00464131, -0.0283393
0.0311255, 1.69107, -1.22885, -1.54031, -0.900396, -1.19251, 1.22793, -1.30269, 0.00632541, -0.0227322, -0.0473706, -0.00897145, -0.0114729, 0.00446545, 0.00132304, -0.206535, 61.1649, 29.6506, 6.54541, 2.04364, 3.42471, -0.0228162, 4.04827e-05, -0.00219435, 0.00291522, 0.00346377, 0.00235013, 0.00120811, 0.0105236, 0.00293115, -0.0314919, -0.0498846, -0.00603883, -0.013279, 0.471008, -0.543382, 0.335896, -2.08384, -2.16584, -0.129887, 0.46871, -0.542984, 0.33309, -2.08207, -2.16188, -0.128304, -1.86074e-06, 0.00129855, 0.00034864, -0.00368973, -0.00436345, -0.0322921
0.0321255, 1.69107, -1.22887, -1.54039, -0.900412, -1.19254, 1.22794, -1.30268, 0.00585652, -0.0234489, -0.0571116, -0.0136466, -0.0131471, 0.00649871, 0.00233984, -0.131157, 60.8713, 29.2777, 6.54541, 2.02533, 3.31759, -0.0621838, 2.27121e-05, -0.0022014, 0.00295795, 0.00354104, 0.00234281, 0.00123723, 0.012087, 0.00368156, -0.0358255, -0.0596116, -0.00327182, -0.0158771, 0.471008, -0.543381, 0.335896, -2.08384, -2.16584, -0.129887, 0.468702, -0.542994, 0.333045, -2.08206, -2.16183, -0.128208, -2.39049e-06, 0.00141058, 0.000378373, -0.00454025, -0.00515854, -0.0367615
0.0331255, 1.69109, -1.2289, -1.54045, -0.900426, -1.19256, 1.22795, -1.30269, 0.012319, -0.0242288, -0.0568374, -0.0129907, -0.0180956, 0.00613455, -0.000135722, -0.206535, 60.6491, 28.8294, 6.5097, 1.9823, 3.25992, -0.0164075, 9.73363e-06, -0.00220285, 0.0029976, 0.00361512, 0.00233289, 0.00124681, 0.0104919, 0.000767212, -0.0364802, -0.0627431, 3.87965e-05, -0.00909176, 0.471008, -0.54338, 0.335896, -2.08384, -2.16584, -0.129887, 0.4687, -0.542999, 0.333004, -2.08204, -2.16179, -0.128115, -2.969e-06, 0.00152782, 0.000409465, -0.00171094, -0.00324651, -0.0372172
0.0341255, 1.6911, -1.22891, -1.54053, -0.900431, -1.19258, 1.22796, -1.30269, 0.0121243, -0.0234943, -0.0641773, -0.0128744, -0.0203173, 0.0103973, -0.00107397, -0.206535, 60.3912, 28.5715, 6.35895, 1.89624, 3.20956, 0.0101428, -7.99476e-06, -0.00220859, 0.00303544, 0.00368752, 0.00231943, 0.00127536, 0.0130749, 0.00168993, -0.038267, -0.0663325, 0.00524608, -0.0127173, 0.471008, -0.543379, 0.335897, -2.08384, -2.16584, -0.129888, 0.468693, -0.54301, 0.332965, -2.08204, -2.16174, -0.128018, -3.59863e-06, 0.00165034, 0.000441934, -0.00260526, -0.00543665, -0.0393221
0.0351255, 1.69112, -1.22893, -1.54061, -0.900437, -1.19261, 1.22797, -1.30269, 0.0129846, -0.0191637, -0.0630657, -0.00983073, -0.0177907, 0.00872839, -0.000478728, -0.242241, 60.2444, 28.3097, 6.20819, 1.823, 3.16653, 0.00373412, -2.33538e-05, -0.0022117, 0.00307263, 0.00376192, 0.00230387, 0.00129995, 0.0124218, 0.00179347, -0.0351096, -0.0639427, 0.00645449, -0.0138217, 0.471008, -0.543377, 0.335897, -2.08384, -2.16584, -0.129888, 0.468689, -0.543018, 0.332926, -2.08203, -2.1617, -0.127918, -4.2818e-06, 0.00177822, 0.000475796, -0.00261873, -0.00515431, -0.0360661
0.0361255, 1.69113, -1.22893, -1.54068, -0.900453, -1.19263, 1.22799, -1.30268, 0.0119109, -0.0129268, -0.0633013, -0.0112005, -0.0198974, 0.00807361, 0.00113883, -0.206535, 59.9866, 27.9725, 6.20819, 1.73053, 3.10977, -0.0356336, -3.38787e-05, -0.00221095, 0.00309769, 0.00382523, 0.00226854, 0.00131293, 0.0124498, 0.00260693, -0.0317309, -0.0656442, 0.0142726, -0.0162235, 0.471008, -0.543375, 0.335898, -2.08384, -2.16584, -0.129888, 0.468689, -0.543023, 0.3329, -2.08203, -2.16168, -0.127811, -5.02096e-06, 0.00191151, 0.000511068, -0.00330892, -0.00560197, -0.0326744
0.0371255, 1.69115, -1.22893, -1.54076, -0.900461, -1.19265, 1.22801, -1.30268, 0.0134811, -0.0077918, -0.0715519, -0.0103929, -0.0218506, 0.0130229, 0.00123388, -0.131157, 59.8398, 27.9725, 6.13678, 1.64447, 3.03012, -0.0484509, -4.84496e-05, -0.00221279, 0.00312662, 0.0038975, 0.00223216, 0.001339, 0.0142742, 0.0027784, -0.0311916, -0.0688864, 0.024054, -0.0201762, 0.471008, -0.543374, 0.335898, -2.08383, -2.16584, -0.129888, 0.468687, -0.543031, 0.33287, -2.08203, -2.16164, -0.127691, -5.81861e-06, 0.00205028, 0.000547764, -0.00339628, -0.00735426, -0.0323832
0.0381255, 1.69117, -1.22892, -1.54083, -0.900482, -1.19267, 1.22803, -1.30269, 0.0162453, -0.00715022, -0.0712645, -0.0160821, -0.0230792, 0.0112513, 0.000110462, 0.0196001, 59.8398, 27.8614, 6.20819, 1.55292, 2.97336, -0.0292249, -5.85877e-05, -0.00221168, 0.00315301, 0.0039628, 0.0021977, 0.00134379, 0.0114498, 0.000385004, -0.0318149, -0.0738032, 0.0254929, -0.0116119, 0.471008, -0.543372, 0.335899, -2.08383, -2.16584, -0.129888, 0.468687, -0.543035, 0.332843, -2.08202, -2.16163, -0.127583, -6.67726e-06, 0.00219459, 0.000585897, -0.00113036, -0.00422774, -0.0325943
0.0391255, 1.69117, -1.22892, -1.54083, -0.900482, -1.19267, 1.22803, -1.30269, 0.0162453, -0.00715022, -0.0712645, -0.0160821, -0.0230792, 0.0112513, 0.000110462, 0.0196001, 59.8398, 27.8614, 6.20819, 1.55292, 2.97336, -0.0292249, -6.07483e-05, -0.00221174, 0.00315325, 0.00396193, 0.00219664, 0.00134432, 0.011604, 0.000389001, -0.0318309, -0.0737815, 0.0256048, -0.0116007, 0.471008, -0.54337, 0.335899, -2.08383, -2.16584, -0.129888, 0.468687, -0.543035, 0.332843, -2.08202, -2.16163, -0.127583, -7.59945e-06, 0.00234449, 0.000625478, -0.00113036, -0.00422774, -0.0325943
0.0401255, 1.69117, -1.22892, -1.54083, -0.900482, -1.19267, 1.22803, -1.30269, 0.0162453, -0.00715022, -0.0712645, -0.0160821, -0.0230792, 0.0112513, 0.000110462, 0.0196001, 59.8398, 27.8614, 6.20819, 1.55292, 2.97336, -0.0292249, -6.30718e-05, -0.0022118, 0.00315349, 0.00396099, 0.00219551, 0.00134488, 0.011764, 0.000393118, -0.0318474, -0.073759, 0.0257208, -0.0115892, 0.471008, -0.543367, 0.3359, -2.08383, -2.16584, -0.129888, 0.468687, -0.543035, 0.332843, -2.08202, -2.16163, -0.127583, -8.58778e-06, 0.00250002, 0.000666519, -0.00113036, -0.00422774, -0.0325943
0.0411255, 1.69117, -1.22892, -1.54083, -0.900482, -1.19267, 1.22803, -1.30269, 0.0162453, -0.00715022, -0.0712645, -0.0160821, -0.0230792, 0.0112513, 0.000110462, 0.0196001, 59.8398, 27.8614, 6.20819, 1.55292, 2.97336, -0.0292249, -6.55638e-05, -0.00221187, 0.00315376, 0.00395999, 0.00219429, 0.00134548, 0.0119299, 0.000397352, -0.0318646, -0.0737355, 0.0258411, -0.0115772, 0.471008, -0.543365, 0.3359, -2.08383, -2.16584, -0.129889, 0.468687, -0.543035, 0.332843, -2.08202, -2.16163, -0.127583, -9.64483e-06, 0.00266124, 0.000709027, -0.00113036, -0.00422774, -0.0325943
0.0421255, 1.69117, -1.22892, -1.54083, -0.900482, -1.19267, 1.22803, -1.30269, 0.0162453, -0.00715022, -0.0712645, -0.0160821, -0.0230792, 0.0112513, 0.000110462, 0.0196001, 59.8398, 27.8614, 6.20819, 1.55292, 2.97336, -0.0292249, -6.823e-05, -0.00221194, 0.00315404, 0.00395891, 0.00219299, 0.00134612, 0.0121016, 0.000401703, -0.0318822, -0.0737112, 0.0259656, -0.0115647, 0.471008, -0.543362, 0.335901, -2.08383, -2.16584, -0.129889, 0.468687, -0.543035, 0.332843, -2.08202, -2.16163, -0.127583, -1.07732e-05, 0.00282817, 0.000753011, -0.00113036, -0.00422774, -0.0325943
0.0431255, 1.69121, -1.22887, -1.54115, -0.900598, -1.1928, 1.2281, -1.30268, 0.00835721, 0.00643285, -0.0603785, -0.0241454, -0.0318387, 0.0146764, -0.00195302, 1.64619, 60.173, 28.754, 6.58508, 1.62067, 3.20956, 0.0229602, -0.000114576, -0.0022226, 0.00324929, 0.00429711, 0.00195848, 0.00140619, 0.01197, 0.00172065, -0.020456, -0.0667277, 0.0482385, -0.0081621, 0.471008, -0.54336, 0.335902, -2.08382, -2.16584, -0.129889, 0.468675, -0.543063, 0.332743, -2.08202, -2.16157, -0.126965, -1.19756e-05, 0.00300084, 0.000798475, -0.00204096, -0.00573794, -0.0212062
0.0441255, 1.69122, -1.22886, -1.54121, -0.900619, -1.19284, 1.22812, -1.30268, 0.00817213, 0.00505866, -0.0575326, -0.0231941, -0.0312634, 0.0145195, 0.000156039, 1.90803, 60.3198, 29.0555, 6.54541, 1.69391, 3.25259, -0.0164075, -0.000124885, -0.00222042, 0.00326445, 0.00434827, 0.00190508, 0.00141842, 0.0119247, 0.00147776, -0.0201455, -0.0637163, 0.0461872, -0.00968661, 0.471008, -0.543357, 0.335903, -2.08382, -2.16584, -0.129889, 0.468677, -0.543068, 0.332727, -2.08203, -2.16157, -0.126853, -1.32547e-05, 0.00317929, 0.000845424, -0.00179008, -0.00555266, -0.0208529
0.0451255, 1.69123, -1.22886, -1.54125, -0.900649, -1.19287, 1.22814, -1.30268, 0.00574282, 0.00342394, -0.0540111, -0.0245013, -0.0350012, 0.0142504, 0.00010402, 2.13416, 60.5023, 29.3134, 6.58508, 1.76166, 3.29562, -0.0164075, -0.000131716, -0.00221597, 0.00327981, 0.00439546, 0.00185796, 0.00141477, 0.012936, 0.0023736, -0.0199539, -0.0629641, 0.0474322, -0.0103969, 0.471008, -0.543354, 0.335903, -2.08382, -2.16584, -0.129889, 0.468681, -0.543069, 0.332711, -2.08202, -2.16158, -0.126754, -1.46131e-05, 0.00336352, 0.000893861, -0.00264306, -0.00643292, -0.0207454
0.0461255, 1.69124, -1.22886, -1.54129, -0.900657, -1.1929, 1.22817, -1.30268, 0.00938998, 0.0012544, -0.0515224, -0.0151852, -0.0331459, 0.0185091, 0.00054406, 2.24921, 60.7245, 29.5752, 6.32324, 1.82941, 3.3533, -0.0292249, -0.000145293, -0.00221371, 0.00329641, 0.00443105, 0.00181563, 0.00142874, 0.0140384, 0.000942692, -0.0188965, -0.0525251, 0.0451539, -0.0135233, 0.471008, -0.54335, 0.335904, -2.08382, -2.16584, -0.12989, 0.468683, -0.543077, 0.332694, -2.08204, -2.16157, -0.126671, -1.60536e-05, 0.00355356, 0.000943786, -0.00113784, -0.0074354, -0.0198655
0.0471255, 1.69126, -1.22886, -1.54133, -0.900672, -1.19294, 1.22819, -1.30267, 0.0106513, 0.00154982, -0.0456098, -0.0137573, -0.0350585, 0.0202428, 0.00182077, 2.28492, 60.8713, 29.7974, 6.13678, 1.86603, 3.44668, -0.0685925, -0.000152641, -0.0022073, 0.00331079, 0.00446932, 0.00177376, 0.00143194, 0.0134113, -0.000585247, -0.0163639, -0.0462052, 0.0475601, -0.012594, 0.471008, -0.543347, 0.335905, -2.08381, -2.16583, -0.12989, 0.468689, -0.543078, 0.332679, -2.08204, -2.16158, -0.126586, -1.75788e-05, 0.0037494, 0.000995199, 0.000455614, -0.00694774, -0.0172621
0.0481255, 1.69127, -1.22886, -1.54137, -0.900684, -1.19297, 1.22821, -1.30268, 0.0144339, 0.00331937, -0.0448499, -0.0119368, -0.0321433, 0.0170208, -0.000956298, 2.32459, 61.0934, 30.1703, 5.91064, 1.90906, 3.53915, -0.00999879, -0.000165914, -0.00220552, 0.00333037, 0.00451861, 0.00172907, 0.00143612, 0.011248, -0.00213906, -0.0153015, -0.0465253, 0.0454009, -0.00635818, 0.471008, -0.543343, 0.335906, -2.08381, -2.16583, -0.12989, 0.468691, -0.543084, 0.332658, -2.08204, -2.16158, -0.126486, -1.91915e-05, 0.00395105, 0.0010481, 0.00196679, -0.0047103, -0.0158713
0.0491255, 1.69128, -1.22886, -1.5414, -0.900701, -1.19301, 1.22822, -1.30268, 0.0129111, 0.00241126, -0.0433605, -0.00949192, -0.0346533, 0.0145362, -0.00114616, 2.39997, 61.2759, 30.3925, 5.76385, 1.95209, 3.63986, 0.00373412, -0.000176551, -0.00220273, 0.00334384, 0.00455779, 0.00168303, 0.00143905, 0.012873, -0.000274098, -0.0151253, -0.0471999, 0.0451194, -0.00990174, 0.471008, -0.543339, 0.335907, -2.08381, -2.16583, -0.129891, 0.468694, -0.543089, 0.332644, -2.08204, -2.16159, -0.126396, -2.08943e-05, 0.0041585, 0.00110247, 0.000167001, -0.00621052, -0.015839
0.0501255, 1.6913, -1.22887, -1.54143, -0.900712, -1.19306, 1.22824, -1.30267, 0.0165422, -0.000545044, -0.0416929, -0.0108162, -0.0412856, 0.0178118, 0.000219236, 2.39997, 61.5695, 30.579, 5.6131, 1.99512, 3.72592, -0.0228162, -0.000188856, -0.00219917, 0.00335875, 0.00459412, 0.00163704, 0.0014517, 0.0126705, -0.00280299, -0.0163825, -0.0474018, 0.049517, -0.00785704, 0.471008, -0.543335, 0.335908, -2.08381, -2.16583, -0.129891, 0.468697, -0.543094, 0.332629, -2.08206, -2.16158, -0.126308, -2.269e-05, 0.00437173, 0.00115833, 0.00263816, -0.00550033, -0.0170693
0.0511255, 1.6913, -1.22889, -1.54146, -0.900732, -1.1931, 1.22826, -1.30267, 0.0133859, -0.00405699, -0.0383376, -0.0121751, -0.0421177, 0.0209245, 0.00160422, 2.51106, 62.0496, 30.8051, 5.6131, 2.05005, 3.79733, -0.0621838, -0.000202593, -0.00219648, 0.00338102, 0.00463158, 0.00160191, 0.00145809, 0.0140096, -0.00246212, -0.0170325, -0.0425652, 0.0482072, -0.00974513, 0.471008, -0.543331, 0.335909, -2.0838, -2.16583, -0.129891, 0.468699, -0.5431, 0.332606, -2.08206, -2.16158, -0.12623, -2.45814e-05, 0.00459073, 0.00121564, 0.00232025, -0.00651718, -0.0178515
0.0521255, 1.69132, -1.2289, -1.54148, -0.900744, -1.19316, 1.22829, -1.30267, 0.0127724, -0.0077094, -0.0331363, -0.0110435, -0.0429204, 0.0236835, 0.000560852, 2.55073, 62.4542, 30.9162, 5.53772, 2.11139, 3.85501, -0.0484509, -0.000217294, -0.00219335, 0.00339518, 0.00466205, 0.00155128, 0.00146676, 0.0145534, -0.00326145, -0.01693, -0.0356314, 0.0463055, -0.00797757, 0.471008, -0.543326, 0.335911, -2.0838, -2.16583, -0.129892, 0.468702, -0.543108, 0.332591, -2.08207, -2.16159, -0.126145, -2.6571e-05, 0.00481547, 0.00127442, 0.00313969, -0.00681231, -0.0178
0.0531255, 1.69133, -1.22891, -1.54151, -0.900766, -1.19322, 1.22831, -1.30268, 0.00914675, -0.00799596, -0.0329317, -0.0146384, -0.0477503, 0.0257211, -0.00105025, 2.58643, 62.8986, 31.1741, 5.6488, 2.16083, 3.91269, -0.00999879, -0.000231833, -0.00218973, 0.00341602, 0.00470543, 0.00150169, 0.00146709, 0.0164835, -0.00189169, -0.0171792, -0.0370633, 0.0513336, -0.00828188, 0.471008, -0.543321, 0.335912, -2.0838, -2.16583, -0.129892, 0.468706, -0.543114, 0.332569, -2.08207, -2.1616, -0.126047, -2.86617e-05, 0.00504591, 0.00133464, 0.00182963, -0.008505, -0.0182442
0.0541255, 1.69134, -1.22892, -1.54153, -0.90078, -1.19328, 1.22833, -1.30267, 0.00857197, -0.00603779, -0.0261386, -0.0152075, -0.0512082, 0.0230235, -0.00046281, 2.66181, 63.2635, 31.2891, 5.68848, 2.20935, 3.95572, -0.0164075, -0.000246711, -0.00218702, 0.00342705, 0.00473618, 0.00144377, 0.00147521, 0.0156269, -0.00197532, -0.0139257, -0.0350572, 0.054553, -0.00685076, 0.471008, -0.543316, 0.335913, -2.08379, -2.16583, -0.129892, 0.468709, -0.543122, 0.332557, -2.08209, -2.16161, -0.125954, -3.0856e-05, 0.00528201, 0.00139628, 0.00199783, -0.0079206, -0.0148395
0.0551255, 1.69135, -1.22892, -1.54154, -0.900798, -1.19334, 1.22835, -1.30267, 0.00893474, -0.00247475, -0.0211439, -0.0140193, -0.0566892, 0.0200295, 0.00138688, 2.70148, 63.5611, 31.4002, 5.79956, 2.20935, 4.0198, -0.0621838, -0.000259646, -0.00218364, 0.00343755, 0.0047721, 0.00138453, 0.00148343, 0.0154754, -0.00156259, -0.010197, -0.0350038, 0.060883, -0.00886556, 0.471008, -0.543311, 0.335915, -2.08379, -2.16583, -0.129893, 0.468712, -0.543127, 0.332546, -2.08211, -2.16162, -0.125853, -3.31567e-05, 0.00552372, 0.00145934, 0.00171262, -0.00812025, -0.0110588
0.0561255, 1.69136, -1.22893, -1.54157, -0.900816, -1.1934, 1.22837, -1.30267, 0.0132452, -0.00753389, -0.0201326, -0.0138346, -0.0602591, 0.0187001, 0.000924587, 2.70148, 63.8904, 31.6224, 5.95032, 2.18555, 4.06283, -0.0621838, -0.000271322, -0.00217707, 0.00345197, 0.00481234, 0.00132707, 0.00148555, 0.0146964, -0.00355982, -0.0131541, -0.03791, 0.0583522, -0.00489492, 0.471008, -0.543305, 0.335916, -2.08378, -2.16583, -0.129893, 0.468718, -0.543131, 0.332531, -2.08211, -2.16163, -0.125751, -3.55665e-05, 0.00577098, 0.0015238, 0.00357014, -0.0065669, -0.0138536
0.0571255, 1.69138, -1.22894, -1.54158, -0.900827, -1.19346, 1.22838, -1.30268, 0.018468, -0.00349663, -0.0197786, -0.0139502, -0.0624017, 0.0174148, -0.00206237, 2.73719, 64.1483, 31.7335, 5.98602, 2.14252, 4.10586, 0.0101428, -0.00028533, -0.00217356, 0.00346109, 0.00484632, 0.00126585, 0.00148104, 0.0124513, -0.00602616, -0.0110807, -0.0402055, 0.0638323, 0.00274579, 0.471008, -0.5433, 0.335918, -2.08378, -2.16583, -0.129894, 0.468722, -0.543137, 0.332521, -2.08212, -2.16166, -0.125652, -3.8088e-05, 0.00602372, 0.00158964, 0.00602534, -0.00431589, -0.0114663
0.0581255, 1.69139, -1.22894, -1.54159, -0.900855, -1.19352, 1.2284, -1.30267, 0.0161939, -0.00765934, -0.015682, -0.0194723, -0.0636087, 0.0165995, -0.00137492, 2.77686, 64.4418, 31.8088, 6.24786, 2.08667, 4.14889, 0.0101428, -0.000294644, -0.00216656, 0.00347227, 0.00488695, 0.00120422, 0.00147462, 0.0117755, -0.00649236, -0.0128194, -0.0404652, 0.0606055, 0.00631816, 0.471008, -0.543294, 0.335919, -2.08378, -2.16583, -0.129894, 0.468729, -0.543139, 0.33251, -2.08212, -2.16168, -0.125546, -4.07237e-05, 0.00628188, 0.00165682, 0.00640128, -0.00310373, -0.0130251
0.0591255, 1.69141, -1.22894, -1.5416, -0.900862, -1.1936, 1.22841, -1.30267, 0.0177438, -0.00610418, -0.0118397, -0.0160163, -0.0647861, 0.0160021, 0.00125353, 2.81654, 64.664, 31.8445, 6.20819, 2.03174, 4.19192, -0.0484509, -0.000310059, -0.00216356, 0.00347771, 0.0049187, 0.00113529, 0.00149062, 0.0116151, -0.00699618, -0.0102221, -0.0366035, 0.0625311, 0.00363308, 0.471008, -0.543287, 0.335921, -2.08377, -2.16582, -0.129894, 0.468732, -0.543146, 0.332504, -2.08215, -2.16169, -0.125439, -4.34763e-05, 0.00654537, 0.00172534, 0.00698981, -0.00306114, -0.0103824
0.0601255, 1.69143, -1.22896, -1.54161, -0.900881, -1.19366, 1.22842, -1.30266, 0.0215048, -0.0102128, -0.0140694, -0.0173996, -0.0652434, 0.0163571, 0.00134431, 2.73719, 65.1083, 31.9556, 6.32324, 1.96399, 4.21298, -0.0621838, -0.000319966, -0.0021532, 0.00349693, 0.00496372, 0.00108284, 0.00148237, 0.0107808, -0.0091032, -0.0138142, -0.0400035, 0.0595757, 0.00734961, 0.471008, -0.543281, 0.335923, -2.08377, -2.16582, -0.129895, 0.468742, -0.543146, 0.332485, -2.08214, -2.16171, -0.125338, -4.63483e-05, 0.0068141, 0.00179515, 0.00893154, -0.00132934, -0.0137935
0.0611255, 1.69145, -1.22897, -1.54163, -0.900897, -1.19374, 1.22844, -1.30267, 0.0206032, -0.00858587, -0.0143144, -0.0173106, -0.071309, 0.0174026, -0.000799213, 2.81654, 65.3662, 32.1421, 6.39465, 1.93378, 4.21298, -0.0164075, -0.00033554, -0.00214882, 0.00350981, 0.00500942, 0.00101349, 0.00148178, 0.012698, -0.00800501, -0.0128179, -0.0417757, 0.0668611, 0.00637704, 0.471008, -0.543274, 0.335924, -2.08376, -2.16582, -0.129895, 0.468747, -0.543153, 0.332472, -2.08214, -2.16173, -0.125217, -4.93422e-05, 0.00708797, 0.00186624, 0.00793636, -0.00314646, -0.0130033
0.0621255, 1.69146, -1.22898, -1.54164, -0.900906, -1.19382, 1.22845, -1.30267, 0.018281, -0.00669634, -0.0109007, -0.0148421, -0.071256, 0.018105, -0.00104144, 2.96729, 65.5844, 32.1818, 6.35895, 1.89075, 4.21298, -0.00267457, -0.000354379, -0.00214778, 0.00351866, 0.00504533, 0.000943342, 0.00149223, 0.0139277, -0.00684963, -0.00999802, -0.0364185, 0.0687458, 0.00380515, 0.471007, -0.543267, 0.335926, -2.08376, -2.16582, -0.129896, 0.468748, -0.543163, 0.332462, -2.08217, -2.16175, -0.125106, -5.24605e-05, 0.00736687, 0.00193857, 0.00692528, -0.004563, -0.0103027
0.0631255, 1.69148, -1.22899, -1.54166, -0.900921, -1.1939, 1.22847, -1.30267, 0.0163257, -0.0102618, -0.0141204, -0.0148209, -0.0759856, 0.0153291, -0.000423023, 3.003, 65.878, 32.3285, 6.39465, 1.85321, 4.16995, -0.00999879, -0.000369702, -0.00214071, 0.00353642, 0.0050911, 0.000880367, 0.00149348, 0.0167325, -0.00419088, -0.0133981, -0.0437946, 0.0680483, -0.00179087, 0.471007, -0.543259, 0.335928, -2.08375, -2.16582, -0.129897, 0.468755, -0.543168, 0.332444, -2.08217, -2.16176, -0.124992, -5.57056e-05, 0.00765073, 0.00201212, 0.00424417, -0.00663343, -0.0139417
0.0641255, 1.6915, -1.22901, -1.54167, -0.900939, -1.19398, 1.22848, -1.30266, 0.0160423, -0.012071, -0.014831, -0.0157861, -0.0793842, 0.0127908, 0.00212548, 3.11805, 66.1359, 32.4039, 6.47003, 1.81018, 4.13424, -0.0750012, -0.000384461, -0.00213529, 0.00355273, 0.00513529, 0.000821711, 0.00149968, 0.0175893, -0.00329898, -0.0150806, -0.0487272, 0.0681156, -0.00518927, 0.471007, -0.543252, 0.33593, -2.08374, -2.16582, -0.129897, 0.46876, -0.543172, 0.332427, -2.08218, -2.16177, -0.124883, -5.90798e-05, 0.00793954, 0.00208689, 0.00331986, -0.00696777, -0.0156344
0.0651255, 1.69153, -1.22902, -1.54167, -0.900949, -1.19405, 1.2285, -1.30266, 0.0186964, -0.0118072, -0.0136843, -0.0138676, -0.0774132, 0.0154668, 0.000704912, 3.11805, 66.3223, 32.4039, 6.43433, 1.77356, 4.09854, -0.0557752, -0.000397772, -0.00212542, 0.00356556, 0.00516931, 0.000758918, 0.00149666, 0.0169106, -0.00526644, -0.0141889, -0.0439129, 0.0681511, -0.00160075, 0.471007, -0.543244, 0.335932, -2.08374, -2.16582, -0.129898, 0.46877, -0.543175, 0.332414, -2.08218, -2.16179, -0.124783, -6.25855e-05, 0.00823327, 0.00216285, 0.0052892, -0.00606072, -0.0146321
0.0661255, 1.69154, -1.22903, -1.54168, -0.900962, -1.19414, 1.22851, -1.30266, 0.0180571, -0.0100186, -0.0106997, -0.0125167, -0.0806709, 0.0177968, 0.00118202, 3.22913, 66.4334, 32.4396, 6.39465, 1.73694, 4.05551, -0.0750012, -0.000415081, -0.00212065, 0.0035749, 0.00520671, 0.000684804, 0.00150463, 0.018006, -0.0051559, -0.0116824, -0.0398581, 0.0736493, -0.00355592, 0.471007, -0.543236, 0.335935, -2.08373, -2.16581, -0.129898, 0.468775, -0.543182, 0.332404, -2.0822, -2.16181, -0.124666, -6.6225e-05, 0.00853189, 0.00224002, 0.00530499, -0.0072339, -0.0122468
0.0671255, 1.69157, -1.22903, -1.54169, -0.900977, -1.19421, 1.22852, -1.30266, 0.0203806, -0.00541257, -0.00945256, -0.00937636, -0.0823995, 0.0183345, -0.000907409, 3.22913, 66.3937, 32.515, 6.39465, 1.68201, 4.04086, -0.0292249, -0.000425103, -0.00211008, 0.00358194, 0.00524909, 0.000610404, 0.00149104, 0.0179348, -0.00579519, -0.00819857, -0.0375416, 0.079865, -0.00196913, 0.471007, -0.543227, 0.335937, -2.08373, -2.16581, -0.129899, 0.468785, -0.543182, 0.332398, -2.0822, -2.16185, -0.124546, -7.00005e-05, 0.00883538, 0.00231837, 0.00606311, -0.00737041, -0.00873679
0.0681255, 1.69159, -1.22904, -1.5417, -0.900983, -1.19429, 1.22854, -1.30267, 0.0191089, -0.00855142, -0.00671885, -0.00442638, -0.0785759, 0.0189994, -0.00158828, 3.34419, 66.6159, 32.515, 6.28357, 1.62067, 4.0198, -0.00267457, -0.000444154, -0.00210637, 0.00359374, 0.00527875, 0.000550368, 0.00149664, 0.019318, -0.00506356, -0.00829658, -0.0304591, 0.0735145, -0.00420784, 0.471007, -0.543218, 0.335939, -2.08372, -2.16581, -0.1299, 0.468789, -0.54319, 0.332385, -2.08221, -2.16187, -0.124452, -7.39143e-05, 0.00914373, 0.0023979, 0.00537448, -0.00844239, -0.00894683
0.0691255, 1.69162, -1.22905, -1.5417, -0.900988, -1.19437, 1.22855, -1.30266, 0.0218967, -0.008109, -0.00887689, -0.00722426, -0.0778531, 0.0143085, 0.000907833, 3.30451, 66.727, 32.5547, 6.17248, 1.60785, 4.01248, -0.0557752, -0.000458172, -0.002096, 0.00360249, 0.00531335, 0.000478374, 0.00150038, 0.017348, -0.00607993, -0.009774, -0.0377571, 0.0717536, -0.00228172, 0.471007, -0.543209, 0.335941, -2.08371, -2.16581, -0.1299, 0.4688, -0.543192, 0.332377, -2.08223, -2.16189, -0.124341, -7.79688e-05, 0.0094569, 0.0024786, 0.00626152, -0.00591515, -0.0100498
0.0701255, 1.69165, -1.22906, -1.5417, -0.901003, -1.19444, 1.22857, -1.30266, 0.0236788, -0.00869687, -0.00548761, -0.0119655, -0.0764709, 0.0161615, 0.00527826, 3.26881, 66.8738, 32.515, 6.17248, 1.57764, 3.99142, -0.0557752, -0.000466706, -0.00207973, 0.00361328, 0.0053439, 0.000413715, 0.00148212, 0.0147507, -0.00924178, -0.00953977, -0.0350566, 0.0714535, 0.0013879, 0.471007, -0.5432, 0.335944, -2.08371, -2.16581, -0.129901, 0.468816, -0.543189, 0.332367, -2.08222, -2.16193, -0.124244, -8.21662e-05, 0.00977487, 0.00256046, 0.00933057, -0.00293952, -0.00942893
0.0711255, 1.69168, -1.22907, -1.54171, -0.901007, -1.19451, 1.22859, -1.30266, 0.0272432, -0.00652603, -0.00663015, -0.00971969, -0.0754375, 0.0169929, 0.00414562, 3.26881, 66.9095, 32.6261, 6.0614, 1.54651, 3.9841, -0.0621838, -0.000482127, -0.00207043, 0.00362036, 0.00537263, 0.00034309, 0.001484, 0.014087, -0.0107632, -0.00850244, -0.0341061, 0.073414, 0.00385194, 0.471007, -0.54319, 0.335947, -2.0837, -2.16581, -0.129902, 0.468825, -0.543193, 0.332359, -2.08223, -2.16195, -0.124141, -8.65087e-05, 0.0100976, 0.00264348, 0.0108594, -0.0020589, -0.00826463
0.0721255, 1.69171, -1.22908, -1.54172, -0.901005, -1.19458, 1.22861, -1.30266, 0.0316546, -0.00686882, -0.00714884, -0.00723952, -0.0710876, 0.0182094, 0.00112303, 3.19343, 67.0206, 32.5904, 5.91064, 1.54651, 3.96213, -0.00999879, -0.000494244, -0.00205512, 0.00362604, 0.00538816, 0.000277654, 0.00147405, 0.012608, -0.0133087, -0.00870381, -0.0309591, 0.0703094, 0.010292, 0.471007, -0.54318, 0.335949, -2.08369, -2.1658, -0.129903, 0.468841, -0.543193, 0.332354, -2.08224, -2.16199, -0.12406, -9.09987e-05, 0.0104251, 0.00272764, 0.0133369, -0.00013587, -0.00822662
0.0731255, 1.69175, -1.22909, -1.54172, -0.901008, -1.19465, 1.22863, -1.30266, 0.0330259, -0.00971588, -0.00608475, -0.00743341, -0.0684586, 0.0231929, 0.00144246, 3.19343, 67.2427, 32.6261, 5.83527, 1.57123, 3.94839, -0.0228162, -0.000508251, -0.00204003, 0.00363986, 0.00540978, 0.000218817, 0.00146536, 0.0123244, -0.0155659, -0.00970075, -0.0249616, 0.0680276, 0.0129731, 0.471007, -0.543169, 0.335952, -2.08368, -2.1658, -0.129903, 0.468856, -0.543194, 0.332341, -2.08224, -2.16203, -0.123978, -9.56382e-05, 0.0107574, 0.00281294, 0.0155403, 0.000722469, -0.00914997
0.0741255, 1.69179, -1.22909, -1.54173, -0.901008, -1.19472, 1.22866, -1.30266, 0.0367783, -0.00726729, -0.00618247, -0.00755633, -0.0711827, 0.0227673, 0.00160064, 3.07838, 67.2784, 32.7015, 5.76385, 1.59595, 3.92642, -0.0356336, -0.000519418, -0.00202276, 0.0036448, 0.0054323, 0.000143883, 0.00145914, 0.0112593, -0.0172481, -0.00857645, -0.0270658, 0.0728797, 0.0156507, 0.471007, -0.543159, 0.335955, -2.08368, -2.1658, -0.129904, 0.468873, -0.543193, 0.332336, -2.08225, -2.16206, -0.123878, -0.00010043, 0.0110943, 0.00289937, 0.0172181, 0.00200679, -0.00783893
0.0751255, 1.69182, -1.2291, -1.54173, -0.90101, -1.19479, 1.22868, -1.30265, 0.0349405, -0.00824464, -0.00439369, -0.00521825, -0.0678897, 0.0229091, 0.00241101, 3.15376, 67.4252, 32.7015, 5.72418, 1.60785, 3.89071, -0.0685925, -0.000533017, -0.00200695, 0.00365239, 0.00544422, 7.99765e-05, 0.00145554, 0.0122006, -0.0164199, -0.00811905, -0.0224734, 0.0691544, 0.0129789, 0.471006, -0.543147, 0.335958, -2.08367, -2.1658, -0.129905, 0.468889, -0.543193, 0.332329, -2.08227, -2.1621, -0.123801, -0.000105375, 0.011436, 0.00298692, 0.0164362, 0.0013149, -0.00742104
0.0761255, 1.69186, -1.22911, -1.54174, -0.901011, -1.19486, 1.22871, -1.30266, 0.0365213, -0.00723425, -0.0048964, -0.00431037, -0.0706042, 0.0266609, 0.000716409, 3.11805, 67.5006, 32.7768, 5.72418, 1.63257, 3.88339, -0.0420422, -0.000545611, -0.00198838, 0.00366152, 0.00546444, 9.25724e-06, 0.0014419, 0.0130633, -0.0173724, -0.00736476, -0.0205921, 0.0745007, 0.0143064, 0.471006, -0.543136, 0.335961, -2.08366, -2.1658, -0.129906, 0.468908, -0.543192, 0.332321, -2.08227, -2.16214, -0.12371, -0.000110477, 0.0117823, 0.00307558, 0.0174406, 0.000732454, -0.00675051
0.0771255, 1.6919, -1.22912, -1.54175, -0.901014, -1.19492, 1.22874, -1.30266, 0.0404995, -0.010564, -0.00906999, -0.00442525, -0.0682953, 0.0249223, -0.000402522, 3.07838, 67.6117, 32.8879, 5.76385, 1.66919, 3.87607, -0.0164075, -0.000556723, -0.00196745, 0.00367328, 0.00548383, -5.57243e-05, 0.00142318, 0.0121574, -0.0188877, -0.0112145, -0.0255732, 0.0690987, 0.0183165, 0.471006, -0.543124, 0.335964, -2.08365, -2.16579, -0.129907, 0.468928, -0.543189, 0.33231, -2.08227, -2.16219, -0.123625, -0.000115737, 0.0121332, 0.00316535, 0.0187768, 0.00263304, -0.0103672
0.0781255, 1.69195, -1.22913, -1.54177, -0.901007, -1.19499, 1.22877, -1.30266, 0.0396539, -0.0137464, -0.00817918, -0.00165467, -0.0664626, 0.0274106, -0.000724993, 3.07838, 67.7585, 32.9633, 5.68848, 1.70581, 3.89071, -0.00267457, -0.000572559, -0.00194988, 0.00368353, 0.00549678, -0.000120866, 0.00141723, 0.0137233, -0.0186654, -0.0121615, -0.0205431, 0.0655947, 0.0165098, 0.471006, -0.543112, 0.335967, -2.08364, -2.16579, -0.129908, 0.468946, -0.54319, 0.3323, -2.08228, -2.16223, -0.123546, -0.000121158, 0.0124888, 0.00325621, 0.0185711, 0.00157966, -0.011448
0.0791255, 1.69199, -1.22914, -1.54178, -0.901007, -1.19505, 1.2288, -1.30265, 0.0397336, -0.00960289, -0.0114974, -0.00321716, -0.064335, 0.0295835, 0.00125108, 3.04267, 67.7585, 33.0744, 5.76385, 1.71863, 3.89804, -0.0484509, -0.000582658, -0.00192577, 0.00369061, 0.00550898, -0.000194255, 0.00140729, 0.0137063, -0.0190282, -0.0109663, -0.0209081, 0.06968, 0.0150509, 0.471006, -0.5431, 0.33597, -2.08363, -2.16579, -0.129909, 0.46897, -0.543185, 0.332294, -2.08229, -2.16227, -0.12346, -0.000126741, 0.012849, 0.00334816, 0.0189705, 0.00178748, -0.0101845
0.0801255, 1.69204, -1.22914, -1.54179, -0.901003, -1.19512, 1.22884, -1.30265, 0.0421979, -0.0108462, -0.0129244, 0.000713713, -0.0689766, 0.0305189, 0.000625933, 3.04267, 67.7942, 33.1498, 5.76385, 1.77356, 3.92642, -0.0420422, -0.000596306, -0.00190402, 0.00369688, 0.00552244, -0.000274264, 0.00139632, 0.0155781, -0.0189442, -0.0117381, -0.0220742, 0.0728084, 0.0124902, 0.471006, -0.543087, 0.335973, -2.08362, -2.16579, -0.129909, 0.468992, -0.543184, 0.332288, -2.0823, -2.16232, -0.123366, -0.00013249, 0.0132137, 0.00344119, 0.01892, 0.00041999, -0.0111419
0.0811255, 1.69209, -1.22915, -1.54181, -0.901, -1.19518, 1.22887, -1.30266, 0.0409617, -0.0103494, -0.014802, 0.00286638, -0.0669388, 0.0310932, -0.00149356, 3.04267, 67.9053, 33.2609, 5.79956, 1.81018, 3.95572, 0.0101428, -0.00060961, -0.00188136, 0.00370906, 0.005536, -0.000340075, 0.00137417, 0.0171433, -0.0177556, -0.0117338, -0.020954, 0.0720786, 0.0113033, 0.471006, -0.543074, 0.335977, -2.08361, -2.16578, -0.12991, 0.469014, -0.543181, 0.332277, -2.08229, -2.16237, -0.123288, -0.000138406, 0.013583, 0.0035353, 0.0177832, -0.000805158, -0.011251
0.0821255, 1.69214, -1.22915, -1.54183, -0.900992, -1.19524, 1.22891, -1.30266, 0.0399432, -0.0112841, -0.0171651, 0.00614908, -0.06546, 0.0320645, -0.000979261, 3.04267, 67.941, 33.4076, 5.76385, 1.84772, 3.97677, 0.0101428, -0.00062561, -0.00185942, 0.0037181, 0.00554945, -0.000418166, 0.0013696, 0.019336, -0.0163859, -0.0125641, -0.0197929, 0.0705285, 0.0063181, 0.471006, -0.54306, 0.33598, -2.0836, -2.16578, -0.129911, 0.469036, -0.543181, 0.332268, -2.08231, -2.16241, -0.123195, -0.00014449, 0.0139569, 0.00363046, 0.0164576, -0.00252397, -0.012275
0.0831255, 1.69219, -1.22917, -1.54185, -0.900988, -1.1953, 1.22895, -1.30266, 0.0447684, -0.0141107, -0.0172709, 0.00775307, -0.0638486, 0.0286212, 0.000817557, 3.07838, 68.1989, 33.483, 5.76385, 1.87244, 3.9841, -0.0292249, -0.000640345, -0.00183496, 0.00373728, 0.00556204, -0.000474061, 0.0013571, 0.0176626, -0.0183146, -0.0146332, -0.0222901, 0.0649995, 0.0084487, 0.471006, -0.543046, 0.335984, -2.08359, -2.16578, -0.129913, 0.46906, -0.543178, 0.33225, -2.08231, -2.16245, -0.123127, -0.000150747, 0.0143352, 0.00372669, 0.0182426, -9.56206e-05, -0.0140204
0.0841255, 1.69224, -1.22918, -1.54187, -0.900992, -1.19537, 1.229, -1.30265, 0.0479624, -0.00982398, -0.0190753, 0.00631607, -0.058773, 0.0357379, 0.000791649, 3.003, 68.1989, 33.6338, 5.87494, 1.92096, 3.9841, -0.0356336, -0.000652765, -0.00180717, 0.00374919, 0.00558094, -0.00055818, 0.00133976, 0.0159299, -0.0219032, -0.0125367, -0.0160661, 0.069265, 0.0136718, 0.471005, -0.543032, 0.335988, -2.08358, -2.16578, -0.129914, 0.469088, -0.543173, 0.332239, -2.08232, -2.16251, -0.123023, -0.000157176, 0.014718, 0.00382396, 0.0218339, 0.00182211, -0.0116927
0.0851255, 1.69229, -1.22919, -1.5419, -0.900991, -1.19543, 1.22904, -1.30266, 0.0467078, -0.0103884, -0.01845, 0.00410872, -0.0592767, 0.0408556, -0.00139808, 3.07838, 68.3496, 33.7052, 5.91064, 1.95758, 3.99142, 0.0165515, -0.000670473, -0.00178336, 0.00376646, 0.00559215, -0.000626886, 0.00132348, 0.0167839, -0.0226877, -0.012478, -0.0121397, 0.0720393, 0.0167426, 0.471005, -0.543017, 0.335992, -2.08357, -2.16577, -0.129915, 0.469112, -0.543172, 0.332222, -2.08232, -2.16256, -0.122944, -0.000163782, 0.0151053, 0.00392227, 0.0226435, 0.00138969, -0.0116931
0.0861255, 1.69235, -1.2292, -1.54192, -0.900996, -1.1955, 1.22909, -1.30265, 0.0486312, -0.00716011, -0.020399, 0.000690605, -0.0595688, 0.040215, 0.000768575, 3.04267, 68.3496, 33.7449, 6.02173, 1.99512, 3.99142, -0.0292249, -0.000684473, -0.00175631, 0.00377895, 0.0056126, -0.0007126, 0.00130989, 0.0154164, -0.0239717, -0.0119354, -0.0161119, 0.0759609, 0.0184087, 0.471005, -0.543002, 0.335996, -2.08356, -2.16577, -0.129916, 0.469139, -0.543167, 0.332211, -2.08232, -2.16261, -0.122837, -0.000170564, 0.0154971, 0.00402162, 0.0238897, 0.00310071, -0.0108846
0.0871255, 1.6924, -1.22921, -1.54195, -0.900992, -1.19557, 1.22914, -1.30266, 0.0467862, -0.00745492, -0.0229153, 0.00395664, -0.0558778, 0.0393197, -0.000704417, 3.003, 68.4567, 33.8202, 6.02173, 2.05005, 3.99783, 0.00373412, -0.000702476, -0.00172969, 0.00379579, 0.00562993, -0.000794073, 0.00129442, 0.0173343, -0.0220103, -0.012568, -0.0154976, 0.0723059, 0.0152593, 0.471005, -0.542986, 0.336, -2.08355, -2.16577, -0.129917, 0.469165, -0.543166, 0.332195, -2.08233, -2.16266, -0.122738, -0.000177527, 0.0158932, 0.00412199, 0.0219697, 0.00162068, -0.0116478
0.0881255, 1.69246, -1.22922, -1.54199, -0.900997, -1.19563, 1.22918, -1.30266, 0.0475508, -0.0098848, -0.0278332, 0.00144084, -0.0613001, 0.0431833, -0.000466684, 3.003, 68.5321, 33.8917, 6.09711, 2.07477, 4.01248, 0.00373412, -0.000720195, -0.00170379, 0.00381525, 0.00565594, -0.00087522, 0.00128021, 0.0193765, -0.0222626, -0.0158266, -0.0204201, 0.0771024, 0.0139129, 0.471005, -0.542971, 0.336004, -2.08354, -2.16576, -0.129918, 0.469191, -0.543163, 0.332176, -2.08233, -2.16271, -0.122629, -0.000184671, 0.0162937, 0.00422337, 0.0221695, 0.000517986, -0.0150891
0.0891255, 1.69251, -1.22923, -1.54203, -0.901002, -1.1957, 1.22923, -1.30265, 0.0458485, -0.0120379, -0.0325011, -0.000377947, -0.065532, 0.0460989, 0.000674417, 2.96729, 68.6035, 34.0027, 6.17248, 2.10498, 4.01248, -0.0228162, -0.000739968, -0.00167937, 0.00383518, 0.00568521, -0.000960392, 0.00127257, 0.0223129, -0.0209736, -0.0186907, -0.0246555, 0.0805774, 0.00912679, 0.471005, -0.542954, 0.336008, -2.08353, -2.16576, -0.129919, 0.469215, -0.543163, 0.332157, -2.08234, -2.16275, -0.122512, -0.000192, 0.0166987, 0.00432576, 0.0208761, -0.00158718, -0.0182323
0.0901255, 1.69256, -1.22924, -1.54206, -0.901007, -1.19577, 1.22928, -1.30265, 0.0477909, -0.0121002, -0.0332409, -0.00169665, -0.072695, 0.0493967, 0.000451258, 2.92762, 68.7543, 34.0027, 6.24786, 2.11139, 3.99783, -0.0228162, -0.000760279, -0.00165284, 0.00385796, 0.00570896, -0.00104161, 0.00125942, 0.0233982, -0.022019, -0.019019, -0.0266368, 0.0885487, 0.00973027, 0.471004, -0.542938, 0.336012, -2.08351, -2.16576, -0.129921, 0.469241, -0.543161, 0.332135, -2.08234, -2.1628, -0.122406, -0.000199514, 0.0171079, 0.00442916, 0.0219396, -0.00215549, -0.0186537
0.0911255, 1.69262, -1.22924, -1.54211, -0.901004, -1.19584, 1.22934, -1.30266, 0.0528029, -0.00755019, -0.0325478, 3.58315e-05, -0.0773007, 0.0551641, -0.000681271, 2.85224, 68.7146, 34.0781, 6.20819, 2.09949, 4.00516, 0.00373412, -0.000781448, -0.00162747, 0.00387449, 0.00573701, -0.00113648, 0.00124688, 0.0230618, -0.0250192, -0.0156489, -0.0226648, 0.099986, 0.0130484, 0.471004, -0.54292, 0.336017, -2.0835, -2.16575, -0.129922, 0.469266, -0.543161, 0.332119, -2.08235, -2.16285, -0.122282, -0.000207216, 0.0175215, 0.00453354, 0.0250383, -0.00180584, -0.0152607
0.0921255, 1.69268, -1.22925, -1.54215, -0.901017, -1.19592, 1.22939, -1.30266, 0.0587644, -0.005342, -0.034939, -0.00415862, -0.0727595, 0.0555871, -0.00140269, 2.70148, 68.7146, 34.0027, 6.39465, 2.1178, 4.00516, 0.0293689, -0.000796653, -0.00159456, 0.00389308, 0.00576495, -0.00123353, 0.00121963, 0.0190382, -0.0294252, -0.0160963, -0.0249184, 0.0996987, 0.0236953, 0.471004, -0.542903, 0.336021, -2.08349, -2.16575, -0.129923, 0.469299, -0.543155, 0.332102, -2.08234, -2.16292, -0.122156, -0.000215108, 0.0179394, 0.00463891, 0.0292701, 0.00283432, -0.0151056
0.0931255, 1.69274, -1.22926, -1.54219, -0.901022, -1.19599, 1.22945, -1.30266, 0.0529933, -0.00555597, -0.0417741, -0.00356605, -0.0726681, 0.0558764, -0.00117179, 2.70148, 68.79, 34.0027, 6.43433, 2.09949, 4.00516, 0.0357776, -0.0008213, -0.0015706, 0.00391684, 0.00579847, -0.00132544, 0.00121405, 0.0236559, -0.0248984, -0.0182709, -0.029379, 0.100069, 0.0140495, 0.471004, -0.542885, 0.336026, -2.08348, -2.16575, -0.129924, 0.469322, -0.543156, 0.332078, -2.08235, -2.16296, -0.122028, -0.000223192, 0.0183616, 0.00474526, 0.0248277, -0.00115231, -0.0177272
0.0941255, 1.6928, -1.22927, -1.54224, -0.901028, -1.19607, 1.2295, -1.30265, 0.05551, -0.00471275, -0.0465067, -0.00403981, -0.0724567, 0.0563823, 0.00115211, 2.55073, 68.8257, 34.0027, 6.5097, 2.07477, 3.99142, -0.0164075, -0.000842303, -0.001541, 0.00393915, 0.00583164, -0.0014236, 0.00120567, 0.0237492, -0.0256728, -0.0196434, -0.0334484, 0.101742, 0.0124554, 0.471003, -0.542867, 0.336031, -2.08346, -2.16574, -0.129926, 0.469352, -0.543154, 0.332057, -2.08236, -2.16301, -0.121894, -0.00023147, 0.0187881, 0.00485258, 0.0255463, -0.000574232, -0.0190134
0.0951255, 1.69286, -1.22927, -1.54229, -0.901036, -1.19615, 1.22956, -1.30265, 0.0545581, -0.003272, -0.0487321, -0.00438085, -0.0725131, 0.0610679, 0.00100582, 2.51106, 68.8257, 33.9313, 6.58508, 2.05646, 3.9841, -0.0228162, -0.000865304, -0.00151336, 0.0039603, 0.00586475, -0.00152587, 0.001195, 0.0253395, -0.0256394, -0.0192106, -0.0311663, 0.106005, 0.0108985, 0.471003, -0.542848, 0.336035, -2.08345, -2.16574, -0.129927, 0.469379, -0.543154, 0.332036, -2.08237, -2.16306, -0.121756, -0.000239944, 0.0192188, 0.00496086, 0.0255771, -0.00178126, -0.0187244
0.0961255, 1.69292, -1.22928, -1.54236, -0.901039, -1.19623, 1.22962, -1.30266, 0.0565903, -0.00487741, -0.0550959, -0.00453431, -0.0725852, 0.0602779, -0.000549863, 2.3603, 68.9368, 34.0424, 6.65649, 2.04364, 3.97677, 0.0101428, -0.000894378, -0.00148819, 0.0039908, 0.00591186, -0.00162872, 0.00119105, 0.0262356, -0.0255545, -0.0226458, -0.0379063, 0.104888, 0.0115994, 0.471003, -0.542829, 0.33604, -2.08343, -2.16574, -0.129929, 0.469404, -0.543157, 0.332006, -2.08238, -2.1631, -0.121601, -0.000248615, 0.0196537, 0.00507009, 0.0253909, -0.00170438, -0.0221442
0.0971255, 1.69299, -1.22929, -1.5424, -0.901044, -1.19631, 1.22968, -1.30266, 0.0589395, -0.00156159, -0.0500934, -0.00474359, -0.0774116, 0.0639043, -0.000366355, 2.17384, 68.8614, 33.8917, 6.73187, 2.02533, 3.97677, 0.0101428, -0.000915277, -0.00145617, 0.00400878, 0.00594583, -0.00174154, 0.00117418, 0.0255708, -0.0278639, -0.0187909, -0.0327246, 0.11404, 0.0146908, 0.471003, -0.542809, 0.336045, -2.08342, -2.16573, -0.12993, 0.469436, -0.543154, 0.331989, -2.08239, -2.16317, -0.121452, -0.000257487, 0.0200928, 0.00518027, 0.0278046, -0.0011081, -0.0181949
0.0981255, 1.69304, -1.22928, -1.54247, -0.901057, -1.1964, 1.22974, -1.30266, 0.0558566, -0.000260752, -0.0552165, -0.00665698, -0.0760475, 0.0612198, -0.00146478, 2.17384, 68.8257, 33.967, 6.88263, 2.00061, 3.99783, 0.0431018, -0.00094475, -0.00143461, 0.0040339, 0.00600263, -0.00185798, 0.00116792, 0.0272194, -0.0252818, -0.0202164, -0.0391453, 0.113612, 0.0124361, 0.471002, -0.542789, 0.336051, -2.08341, -2.16573, -0.129932, 0.469457, -0.543158, 0.331964, -2.0824, -2.16322, -0.121273, -0.000266561, 0.0205361, 0.00529139, 0.0252241, -0.00217818, -0.0196697
0.0991255, 1.69311, -1.22929, -1.54253, -0.901057, -1.19649, 1.22979, -1.30266, 0.0576166, -0.000215019, -0.0549819, -0.00441407, -0.0791394, 0.0591768, 0.000990295, 2.02308, 68.8257, 33.8917, 6.88263, 1.96399, 4.01248, -0.00999879, -0.000970439, -0.00140652, 0.00405477, 0.00604527, -0.00197229, 0.00116917, 0.0279076, -0.0250805, -0.0201005, -0.04128, 0.11537, 0.00887367, 0.471002, -0.542768, 0.336056, -2.08339, -2.16572, -0.129933, 0.469485, -0.543159, 0.331944, -2.08242, -2.16326, -0.121112, -0.000275838, 0.0209836, 0.00540343, 0.0250426, -0.00243579, -0.0195446
0.100125, 1.69317, -1.22929, -1.54259, -0.90107, -1.19657, 1.22985, -1.30266, 0.0578053, -0.000174235, -0.0592302, -0.00635845, -0.0819765, 0.0583922, 0.00113501, 1.90803, 68.8257, 33.8559, 7.02942, 1.93378, 4.0198, -0.0228162, -0.000996443, -0.00137916, 0.00407918, 0.00609846, -0.00208988, 0.00115843, 0.0290659, -0.0243954, -0.0219651, -0.0478663, 0.118137, 0.00768637, 0.471002, -0.542747, 0.336061, -2.08338, -2.16572, -0.129935, 0.469512, -0.543159, 0.331921, -2.08242, -2.16331, -0.120936, -0.000285321, 0.0214351, 0.00551641, 0.0243226, -0.0028679, -0.0214325
0.101125, 1.69324, -1.22927, -1.54265, -0.901076, -1.19666, 1.22991, -1.30265, 0.0605225, 0.00412957, -0.0585733, -0.00598875, -0.0888234, 0.0577853, 0.0009941, 1.79694, 68.6432, 33.7806, 7.1048, 1.90265, 4.02713, -0.0292249, -0.0010239, -0.00135332, 0.00409542, 0.00614971, -0.00222278, 0.00115811, 0.0291962, -0.0249884, -0.0193721, -0.0508025, 0.128092, 0.00817978, 0.471002, -0.542726, 0.336067, -2.08336, -2.16572, -0.129936, 0.469538, -0.543161, 0.331905, -2.08245, -2.16336, -0.120746, -0.000295012, 0.0218908, 0.00563029, 0.0250041, -0.00291598, -0.0187971
0.102125, 1.69331, -1.22927, -1.54272, -0.901086, -1.19676, 1.22996, -1.30266, 0.0647969, 0.00366369, -0.0613039, -0.00658086, -0.0893379, 0.0524581, -0.00150735, 1.60651, 68.6035, 33.7052, 7.21588, 1.87244, 4.03445, 0.0293689, -0.00104872, -0.00132246, 0.00411769, 0.00620773, -0.00235241, 0.00113914, 0.0277497, -0.0260044, -0.0214227, -0.0589592, 0.126121, 0.0139853, 0.471001, -0.542704, 0.336072, -2.08334, -2.16571, -0.129938, 0.469568, -0.543158, 0.331884, -2.08245, -2.16343, -0.120554, -0.000304912, 0.0223506, 0.00574509, 0.0258822, -0.000669715, -0.0205134
0.103125, 1.69337, -1.22926, -1.54279, -0.901097, -1.19685, 1.23002, -1.30267, 0.062926, 0.00326465, -0.0660166, -0.00707093, -0.0901294, 0.0577649, -0.00222557, 1.49146, 68.5678, 33.7449, 7.33093, 1.85321, 4.04819, 0.0623279, -0.00107931, -0.00129739, 0.00414534, 0.00627648, -0.00248046, 0.00113102, 0.0306328, -0.0251094, -0.0228716, -0.0587362, 0.12963, 0.0108368, 0.471001, -0.542682, 0.336078, -2.08333, -2.16571, -0.12994, 0.469593, -0.543161, 0.331857, -2.08245, -2.16348, -0.12035, -0.000315023, 0.0228145, 0.00586078, 0.025029, -0.00286483, -0.02225
0.104125, 1.69344, -1.22926, -1.54286, -0.901103, -1.19695, 1.23007, -1.30266, 0.0679407, 0.00476511, -0.0667807, -0.0055435, -0.0854707, 0.056502, 0.000686457, 1.38038, 68.4567, 33.6695, 7.36664, 1.823, 4.07748, 0.00373412, -0.00111028, -0.00127393, 0.00416758, 0.00634135, -0.00261141, 0.00114122, 0.0283065, -0.02771, -0.0224641, -0.058163, 0.127123, 0.0127307, 0.471001, -0.542659, 0.336084, -2.08331, -2.1657, -0.129941, 0.469617, -0.543164, 0.331835, -2.08248, -2.16351, -0.120146, -0.000325348, 0.0232823, 0.00597737, 0.027547, -5.59316e-05, -0.0214488
0.105125, 1.69351, -1.22925, -1.54293, -0.901119, -1.19705, 1.23013, -1.30266, 0.0676455, 0.00567507, -0.0665838, -0.00721788, -0.0872678, 0.051642, 0.000220301, 1.305, 68.3496, 33.5584, 7.51739, 1.80469, 4.08389, 0.0101428, -0.0011388, -0.00124712, 0.00419037, 0.00640442, -0.00274435, 0.00113295, 0.0281499, -0.0268372, -0.0225352, -0.0636301, 0.12757, 0.0138851, 0.471, -0.542636, 0.33609, -2.08329, -2.1657, -0.129943, 0.469643, -0.543165, 0.331813, -2.08249, -2.16357, -0.119944, -0.000335889, 0.0237543, 0.00609484, 0.0266566, 0.000546166, -0.0213511
0.106125, 1.69357, -1.22924, -1.54301, -0.901128, -1.19714, 1.23017, -1.30266, 0.0677342, 0.00730436, -0.0672039, -0.00657197, -0.0892032, 0.0470754, 0.00136759, 1.22962, 68.1989, 33.483, 7.59277, 1.79828, 4.11319, -0.0228162, -0.00116834, -0.00122278, 0.00421179, 0.00647574, -0.00287892, 0.00113124, 0.0286771, -0.0255412, -0.0221436, -0.06852, 0.128865, 0.0113185, 0.471, -0.542612, 0.336096, -2.08328, -2.16569, -0.129945, 0.469667, -0.543166, 0.331793, -2.0825, -2.16361, -0.11973, -0.000346646, 0.0242302, 0.00621319, 0.0253846, 0.000388436, -0.0208892
0.107125, 1.69364, -1.22923, -1.54308, -0.901136, -1.19724, 1.23022, -1.30266, 0.0686736, 0.00653588, -0.067054, -0.00844204, -0.0902697, 0.049306, 0.000674378, 1.11457, 68.1274, 33.3719, 7.62848, 1.78638, 4.11319, -0.0164075, -0.00119948, -0.0011976, 0.00423421, 0.0065404, -0.00301253, 0.0011306, 0.0286789, -0.0268101, -0.0226958, -0.0679514, 0.130617, 0.0143655, 0.471, -0.542588, 0.336102, -2.08326, -2.16569, -0.129946, 0.469692, -0.543168, 0.331772, -2.08251, -2.16366, -0.119525, -0.000357622, 0.0247101, 0.00633241, 0.0266207, 0.00100447, -0.0213547
0.108125, 1.69371, -1.22922, -1.54315, -0.901147, -1.19734, 1.23027, -1.30266, 0.0680623, 0.0108206, -0.0688413, -0.00765846, -0.0908128, 0.0458468, -0.00124583, 1.03919, 67.9807, 33.3362, 7.70386, 1.76807, 4.13424, 0.0293689, -0.00123021, -0.00117337, 0.00425727, 0.00661492, -0.00314819, 0.00112348, 0.0294048, -0.0251946, -0.0210021, -0.0718541, 0.134, 0.013907, 0.470999, -0.542563, 0.336109, -2.08324, -2.16568, -0.129948, 0.469717, -0.543169, 0.33175, -2.08252, -2.16371, -0.119307, -0.000368819, 0.025194, 0.00645249, 0.0250838, 0.000444461, -0.0196266
0.109125, 1.69378, -1.22921, -1.54321, -0.901161, -1.19744, 1.23032, -1.30266, 0.0733009, 0.0131936, -0.0672455, -0.0110126, -0.09172, 0.0442169, -0.00133917, 0.85273, 67.8696, 33.1855, 7.81494, 1.76807, 4.12692, 0.0431018, -0.00125531, -0.00114157, 0.00427796, 0.00668217, -0.00328593, 0.00110418, 0.0260437, -0.0287216, -0.0199607, -0.0743883, 0.137026, 0.0225693, 0.470999, -0.542538, 0.336115, -2.08322, -2.16568, -0.12995, 0.469748, -0.543164, 0.331731, -2.08251, -2.16378, -0.119097, -0.000380238, 0.0256818, 0.00657343, 0.0285118, 0.00423517, -0.0180624
0.110125, 1.69385, -1.2292, -1.54329, -0.901173, -1.19753, 1.23037, -1.30266, 0.0717265, 0.0150071, -0.0707062, -0.0126199, -0.0967855, 0.0477019, 0.000327928, 0.777352, 67.7585, 33.2212, 7.89032, 1.75525, 4.12051, 0.0101428, -0.00128729, -0.0011171, 0.00430241, 0.00675372, -0.00341857, 0.00110189, 0.0286862, -0.0276095, -0.0199862, -0.077015, 0.145397, 0.0174415, 0.470999, -0.542512, 0.336122, -2.0832, -2.16567, -0.129952, 0.469772, -0.543165, 0.331707, -2.08252, -2.16382, -0.118885, -0.000391882, 0.0261735, 0.00669522, 0.0274835, 0.00207696, -0.0183437
0.111125, 1.69392, -1.22918, -1.54335, -0.901185, -1.19764, 1.23042, -1.30266, 0.0715821, 0.0174723, -0.067216, -0.0107423, -0.102292, 0.0453379, 0.000964608, 0.6623, 67.4649, 33.1498, 7.9657, 1.79187, 4.11319, -0.00999879, -0.00131544, -0.00108999, 0.00431521, 0.00682175, -0.00356994, 0.0010969, 0.0297087, -0.0266247, -0.0172652, -0.077358, 0.151172, 0.0148434, 0.470998, -0.542486, 0.336128, -2.08318, -2.16567, -0.129954, 0.4698, -0.543163, 0.331696, -2.08254, -2.16388, -0.118659, -0.000403753, 0.0266691, 0.00681784, 0.0266241, 0.00110327, -0.0156643
0.112125, 1.69399, -1.22916, -1.54341, -0.901196, -1.19774, 1.23046, -1.30266, 0.0673632, 0.0138616, -0.0674636, -0.0116553, -0.100565, 0.0435837, 0.000643075, 0.586922, 67.3895, 33.0744, 8.0014, 1.79828, 4.10586, -0.00999879, -0.00134622, -0.00106554, 0.00433511, 0.00689097, -0.0037044, 0.00109158, 0.0316821, -0.0243476, -0.0195803, -0.0782904, 0.145612, 0.0123703, 0.470998, -0.542459, 0.336135, -2.08317, -2.16566, -0.129956, 0.469824, -0.543163, 0.331678, -2.08254, -2.16393, -0.118448, -0.000415851, 0.0271686, 0.0069413, 0.0243243, -8.12271e-05, -0.0180651
0.113125, 1.69406, -1.22915, -1.54348, -0.9012, -1.19784, 1.2305, -1.30266, 0.0682531, 0.0154573, -0.0674974, -0.00752278, -0.0949305, 0.0425175, -7.99075e-05, 0.475838, 67.2784, 33.1101, 7.9657, 1.81659, 4.08389, 0.00373412, -0.00137829, -0.001041, 0.00435541, 0.0069611, -0.00383915, 0.001088, 0.0316645, -0.024323, -0.0182645, -0.0745728, 0.142098, 0.0122096, 0.470997, -0.542432, 0.336142, -2.08315, -2.16566, -0.129958, 0.469848, -0.543163, 0.331659, -2.08255, -2.16398, -0.118236, -0.000428179, 0.027672, 0.00706559, 0.0243348, 0.00023588, -0.0166388
0.114125, 1.69413, -1.22914, -1.54354, -0.901214, -1.19794, 1.23054, -1.30266, 0.0721997, 0.0172907, -0.0625989, -0.0102358, -0.0964049, 0.0415746, -0.00151133, 0.360787, 67.1317, 33.0744, 8.03711, 1.86603, 4.07748, 0.0431018, -0.0014068, -0.00101356, 0.00437326, 0.00703291, -0.00398003, 0.0010707, 0.0286347, -0.0276412, -0.0161546, -0.073421, 0.145084, 0.0217748, 0.470997, -0.542404, 0.336149, -2.08313, -2.16565, -0.12996, 0.469876, -0.54316, 0.331643, -2.08255, -2.16404, -0.118017, -0.000440739, 0.0281791, 0.00719069, 0.027604, 0.00354536, -0.0140607
0.115125, 1.6942, -1.22913, -1.54359, -0.901221, -1.19804, 1.23057, -1.30266, 0.0688775, 0.0147727, -0.0602436, -0.00657835, -0.0963824, 0.0408167, -0.00100755, 0.245735, 67.0206, 32.9633, 8.0014, 1.88434, 4.07016, 0.0431018, -0.00143514, -0.000986846, 0.00438693, 0.00709179, -0.00411289, 0.00105888, 0.031378, -0.0252804, -0.0162274, -0.0698846, 0.141977, 0.0160102, 0.470997, -0.542376, 0.336156, -2.08311, -2.16564, -0.129962, 0.469902, -0.543156, 0.331632, -2.08255, -2.1641, -0.11782, -0.000453532, 0.0286901, 0.0073166, 0.0253295, 0.00126283, -0.0143624
0.116125, 1.6942, -1.22913, -1.54359, -0.901221, -1.19804, 1.23057, -1.30266, 0.0688775, 0.0147727, -0.0602436, -0.00657835, -0.0963824, 0.0408167, -0.00100755, 0.245735, 67.0206, 32.9633, 8.0014, 1.88434, 4.07016, 0.0431018, -0.00146467, -0.000987309, 0.0043897, 0.00707975, -0.00412746, 0.00106552, 0.0319068, -0.025276, -0.0162718, -0.0697895, 0.14235, 0.0160481, 0.470996, -0.542347, 0.336164, -2.08308, -2.16564, -0.129964, 0.469902, -0.543156, 0.331632, -2.08255, -2.1641, -0.11782, -0.00046656, 0.0292049, 0.00744332, 0.0253295, 0.00126283, -0.0143624
0.117125, 1.69434, -1.22911, -1.54369, -0.901235, -1.19825, 1.23065, -1.30266, 0.0703997, 0.0140985, -0.0573722, -0.00871871, -0.10132, 0.0357669, 0.00068248, -0.0161054, 66.9492, 32.9236, 8.0014, 1.96399, 4.04086, -0.00267457, -0.00149734, -0.000934324, 0.00442116, 0.00721642, -0.00438157, 0.00104536, 0.0310428, -0.025645, -0.016499, -0.0751523, 0.143675, 0.0175234, 0.470996, -0.542318, 0.336171, -2.08306, -2.16563, -0.129966, 0.469955, -0.543152, 0.331601, -2.08256, -2.16421, -0.117415, -0.000479825, 0.0297235, 0.00757084, 0.0256453, 0.00268504, -0.0143367
0.118125, 1.69441, -1.2291, -1.54374, -0.901247, -1.19835, 1.23069, -1.30266, 0.0661588, 0.0110776, -0.0526378, -0.00911363, -0.100209, 0.0368946, -0.000257089, -0.0914839, 66.9095, 32.9236, 8.11249, 1.98871, 4.0198, 0.0165515, -0.00152774, -0.000908775, 0.00443807, 0.00727298, -0.00450688, 0.00103047, 0.0325364, -0.0245761, -0.0163806, -0.0692033, 0.140271, 0.0173654, 0.470995, -0.542288, 0.336179, -2.08304, -2.16563, -0.129968, 0.46998, -0.543149, 0.331587, -2.08256, -2.16427, -0.117229, -0.000493328, 0.0302458, 0.00769914, 0.0246224, 0.00167116, -0.0142921
0.119125, 1.69447, -1.2291, -1.54378, -0.901253, -1.19845, 1.23072, -1.30266, 0.068386, 0.00794807, -0.0489519, -0.00660277, -0.100712, 0.0283427, -0.00210417, -0.242241, 66.9095, 32.9236, 8.11249, 2.05005, 3.99783, 0.0687366, -0.00155973, -0.000882518, 0.00445404, 0.00732854, -0.00463764, 0.00101446, 0.0315633, -0.0243495, -0.0174747, -0.072968, 0.13333, 0.0208827, 0.470995, -0.542258, 0.336186, -2.08302, -2.16562, -0.129971, 0.470006, -0.543146, 0.331573, -2.08256, -2.16433, -0.117039, -0.000507072, 0.0307718, 0.00782823, 0.0243073, 0.00331797, -0.0150855
0.120125, 1.69454, -1.22908, -1.54383, -0.90126, -1.19856, 1.23076, -1.30266, 0.068921, 0.0113203, -0.0458282, -0.00572513, -0.100153, 0.03237, -0.000182078, -0.357292, 66.8024, 33.0387, 8.15216, 2.08667, 3.94839, 0.0357776, -0.00159416, -0.000859713, 0.00446691, 0.00738669, -0.0047759, 0.00101407, 0.0314787, -0.0257466, -0.0139779, -0.0657379, 0.138357, 0.0203867, 0.470994, -0.542227, 0.336194, -2.083, -2.16561, -0.129973, 0.470029, -0.543147, 0.331562, -2.08258, -2.16438, -0.116836, -0.000521058, 0.0313016, 0.00795809, 0.0258134, 0.00344925, -0.0115335
0.121125, 1.69461, -1.22908, -1.54386, -0.901258, -1.19866, 1.23079, -1.30266, 0.0707259, 0.00961884, -0.0345588, -0.00318518, -0.0996718, 0.03457, 0.000353333, -0.543754, 66.8738, 32.9236, 8.11249, 2.12421, 3.90536, 0.0229602, -0.00162779, -0.000833818, 0.00448026, 0.00743066, -0.00490254, 0.0010073, 0.029925, -0.0286848, -0.0105856, -0.052848, 0.136848, 0.0250383, 0.470994, -0.542196, 0.336202, -2.08297, -2.16561, -0.129975, 0.470055, -0.543145, 0.331551, -2.08259, -2.16444, -0.116662, -0.000535288, 0.031835, 0.00808872, 0.0288017, 0.00511409, -0.00790209
0.122125, 1.69467, -1.22906, -1.5439, -0.901262, -1.19877, 1.23083, -1.30266, 0.0684129, 0.0105411, -0.0334255, -0.00327381, -0.102958, 0.035561, 0.00145626, -0.694511, 66.727, 32.9633, 8.15216, 2.13611, 3.89071, -0.00999879, -0.00165977, -0.000808178, 0.00448542, 0.00747826, -0.00504618, 0.00100125, 0.0319096, -0.0273977, -0.00948017, -0.0520211, 0.141205, 0.0212104, 0.470993, -0.542164, 0.33621, -2.08295, -2.1656, -0.129978, 0.470081, -0.543143, 0.331548, -2.08261, -2.1645, -0.116466, -0.000549763, 0.0323721, 0.00822011, 0.0276139, 0.00346875, -0.00694998
0.123125, 1.69474, -1.22906, -1.54393, -0.901267, -1.19888, 1.23086, -1.30266, 0.0666992, 0.00976035, -0.0362291, -0.00411253, -0.101871, 0.0323783, 0.000224854, -0.845268, 66.7627, 33.0387, 8.22754, 2.16724, 3.85501, 0.0101428, -0.00169567, -0.000783519, 0.00450016, 0.007526, -0.00517765, 0.000991675, 0.0330846, -0.0256725, -0.0112804, -0.0568328, 0.138552, 0.0205566, 0.470993, -0.542132, 0.336219, -2.08293, -2.16559, -0.12998, 0.470106, -0.543143, 0.331535, -2.08261, -2.16456, -0.116283, -0.000564485, 0.0329128, 0.00835225, 0.0258526, 0.00305698, -0.00872632
0.124125, 1.6948, -1.22905, -1.54396, -0.901262, -1.19899, 1.23089, -1.30266, 0.066177, 0.00975013, -0.0331871, -0.00193873, -0.1012, 0.033903, -0.00202024, -1.0357, 66.6516, 33.0387, 8.18787, 2.20386, 3.84036, 0.0687366, -0.00173151, -0.000759654, 0.0045054, 0.00756936, -0.00531999, 0.000982041, 0.0339136, -0.0257871, -0.00978982, -0.0513224, 0.138727, 0.0221062, 0.470992, -0.542099, 0.336227, -2.0829, -2.16559, -0.129982, 0.470131, -0.543143, 0.331532, -2.08263, -2.16463, -0.116094, -0.000579456, 0.0334572, 0.00848514, 0.0260367, 0.00255801, -0.00725536
0.125125, 1.69487, -1.22904, -1.54398, -0.901262, -1.19911, 1.23093, -1.30266, 0.0656996, 0.00605565, -0.0283185, -0.00231431, -0.104525, 0.0354625, -0.00134682, -1.22613, 66.6913, 32.9236, 8.22754, 2.21576, 3.81198, 0.0687366, -0.00176475, -0.000731273, 0.00451059, 0.0076, -0.00545721, 0.000967855, 0.0347217, -0.0264453, -0.0101733, -0.0475633, 0.138645, 0.0226448, 0.470991, -0.542066, 0.336235, -2.08288, -2.16558, -0.129985, 0.470159, -0.543141, 0.331529, -2.08264, -2.1647, -0.115925, -0.000594677, 0.0340052, 0.00861877, 0.026694, 0.0023952, -0.00764736
0.126125, 1.69493, -1.22903, -1.54401, -0.901261, -1.19922, 1.23097, -1.30266, 0.0633157, 0.00932228, -0.0313834, 0.00070834, -0.106951, 0.0318595, 0.000797538, -1.33721, 66.6159, 33.0744, 8.26324, 2.23407, 3.79001, 0.0229602, -0.00180441, -0.000710176, 0.00451596, 0.00764214, -0.00560339, 0.00097438, 0.0376867, -0.0228868, -0.00913546, -0.0523172, 0.142376, 0.0131874, 0.470991, -0.542032, 0.336244, -2.08286, -2.16557, -0.129987, 0.470181, -0.543144, 0.331526, -2.08268, -2.16475, -0.115732, -0.000610151, 0.0345567, 0.00875313, 0.0232697, -0.000286896, -0.00684238
0.127125, 1.69499, -1.22901, -1.54403, -0.901263, -1.19934, 1.231, -1.30265, 0.0647322, 0.00842057, -0.0295615, -0.000152688, -0.113583, 0.0343643, 0.00198975, -1.45226, 66.5445, 33.0744, 8.29895, 2.25238, 3.7543, -0.0164075, -0.00184447, -0.00068788, 0.00451948, 0.00767975, -0.00575557, 0.000977468, 0.0386457, -0.0239248, -0.00902757, -0.0522182, 0.148573, 0.0128979, 0.47099, -0.541997, 0.336253, -2.08283, -2.16557, -0.12999, 0.470204, -0.543147, 0.331524, -2.08271, -2.16481, -0.115538, -0.000625878, 0.0351119, 0.00888822, 0.0243293, -0.000651736, -0.00678304
0.128125, 1.69506, -1.22901, -1.54404, -0.901265, -1.19946, 1.23104, -1.30266, 0.0647849, 0.00739058, -0.0252129, -0.000872084, -0.117437, 0.0404823, -0.000131559, -1.63873, 66.6159, 33.0744, 8.33862, 2.25238, 3.73324, 0.0229602, -0.00188147, -0.000661558, 0.00452519, 0.00771402, -0.00589908, 0.000962721, 0.0395681, -0.025594, -0.0077006, -0.0452163, 0.153914, 0.0165976, 0.47099, -0.541962, 0.336262, -2.0828, -2.16556, -0.129992, 0.470231, -0.543147, 0.331521, -2.08273, -2.16489, -0.115358, -0.00064186, 0.0356705, 0.00902402, 0.0260624, -0.00113929, -0.00553313
0.129125, 1.69511, -1.229, -1.54406, -0.901268, -1.19958, 1.23108, -1.30266, 0.0660416, 0.00769979, -0.0196616, -0.00222633, -0.116052, 0.0408419, -0.000833691, -1.75378, 66.6516, 33.1101, 8.414, 2.24689, 3.69754, 0.0431018, -0.00192174, -0.000638037, 0.00452988, 0.00774752, -0.00604717, 0.000955764, 0.0377643, -0.0278063, -0.00582294, -0.0400866, 0.153464, 0.0228813, 0.470989, -0.541926, 0.336271, -2.08278, -2.16555, -0.129995, 0.470255, -0.543149, 0.331518, -2.08275, -2.16496, -0.115174, -0.000658099, 0.0362327, 0.00916054, 0.0282595, 0.00100507, -0.00333046
0.130125, 1.69517, -1.229, -1.54407, -0.901265, -1.19971, 1.23112, -1.30266, 0.0671416, 0.00404056, -0.0206822, -0.00046748, -0.119951, 0.040481, -0.000555794, -1.86486, 66.727, 33.1101, 8.37433, 2.24689, 3.67557, 0.0431018, -0.0019648, -0.000615444, 0.0045342, 0.00777451, -0.00619392, 0.000956223, 0.0396574, -0.0274075, -0.00822124, -0.0426512, 0.153206, 0.0204914, 0.470988, -0.54189, 0.33628, -2.08275, -2.16554, -0.129998, 0.470278, -0.543154, 0.331516, -2.08279, -2.16502, -0.114998, -0.000674597, 0.0367984, 0.00929776, 0.0278251, 5.69897e-05, -0.00584511
0.131125, 1.69524, -1.22899, -1.54408, -0.901267, -1.19983, 1.23116, -1.30266, 0.0665085, 0.00236145, -0.0176437, -0.00117313, -0.12245, 0.0399101, 0.000850174, -2.05529, 66.7627, 33.0744, 8.414, 2.23407, 3.65451, 0.0101428, -0.00200412, -0.00058838, 0.00453669, 0.00779849, -0.0063439, 0.000949099, 0.0402694, -0.027393, -0.00828884, -0.0419089, 0.15356, 0.0197829, 0.470988, -0.541853, 0.336289, -2.08273, -2.16554, -0.13, 0.470306, -0.543154, 0.331516, -2.08281, -2.1651, -0.114822, -0.000691354, 0.0373675, 0.00943568, 0.0278136, 3.24838e-05, -0.00587004
0.132125, 1.6953, -1.22899, -1.54408, -0.901275, -1.19997, 1.2312, -1.30266, 0.0619517, 0.00414476, -0.0124115, -0.00333064, -0.123732, 0.04447, 0.000566782, -2.20605, 66.8024, 33.0387, 8.52509, 2.20935, 3.63986, 0.0101428, -0.0020445, -0.000560902, 0.00453976, 0.00782385, -0.00649999, 0.000936731, 0.0417163, -0.0269053, -0.00508792, -0.0340069, 0.158744, 0.0195635, 0.470987, -0.541816, 0.336299, -2.0827, -2.16553, -0.130003, 0.470334, -0.543155, 0.331515, -2.08284, -2.16518, -0.114639, -0.000708374, 0.0379402, 0.00957429, 0.0274797, -0.00133785, -0.00278308
0.133125, 1.69535, -1.22899, -1.54409, -0.90127, -1.2001, 1.23124, -1.30265, 0.0608465, 0.00220028, -0.00845956, -0.000419758, -0.125199, 0.0431629, 0.0013612, -2.3211, 66.9849, 32.999, 8.44971, 2.19104, 3.62521, -0.0164075, -0.0020918, -0.000538081, 0.00454525, 0.00784107, -0.00664747, 0.000942231, 0.0431725, -0.0259656, -0.00452698, -0.0308701, 0.157231, 0.0166071, 0.470986, -0.541778, 0.336308, -2.08267, -2.16552, -0.130006, 0.470357, -0.543162, 0.331511, -2.08289, -2.16524, -0.114473, -0.000725657, 0.0385162, 0.00971358, 0.0265974, -0.00232427, -0.00228946
0.134125, 1.69541, -1.22899, -1.5441, -0.90127, -1.20024, 1.23129, -1.30266, 0.0630568, 0.00130248, -0.0112647, -0.000251766, -0.127006, 0.0423832, -0.00153394, -2.43218, 67.0206, 33.0744, 8.44971, 2.19104, 3.60415, 0.0495105, -0.00214044, -0.000516515, 0.00454892, 0.00786806, -0.00680969, 0.00093941, 0.0437745, -0.026338, -0.00624826, -0.0350745, 0.158093, 0.0196652, 0.470985, -0.541739, 0.336318, -2.08264, -2.16551, -0.130009, 0.470379, -0.54317, 0.331509, -2.08292, -2.16532, -0.114281, -0.000743204, 0.0390957, 0.00985355, 0.0269104, -0.00205679, -0.00395548
0.135125, 1.69546, -1.22898, -1.5441, -0.901275, -1.20038, 1.23134, -1.30266, 0.0609015, 0.00137146, -0.0083882, -0.00191003, -0.132345, 0.0418547, -0.00125999, -2.50756, 67.0206, 33.0744, 8.52509, 2.17914, 3.58218, 0.0559192, -0.00218806, -0.000493281, 0.00454833, 0.00788651, -0.00697804, 0.000937728, 0.0452341, -0.025309, -0.00538367, -0.0358228, 0.162584, 0.0183668, 0.470985, -0.5417, 0.336328, -2.08262, -2.1655, -0.130011, 0.470404, -0.543177, 0.331511, -2.08297, -2.1654, -0.114093, -0.000761018, 0.0396786, 0.00999418, 0.0259497, -0.00309052, -0.00315862
0.136125, 1.69552, -1.22899, -1.5441, -0.901272, -1.20051, 1.23138, -1.30266, 0.0561808, 0.00173306, -0.00541573, -0.000329542, -0.130851, 0.0451436, 0.00109279, -2.58294, 67.1317, 33.0387, 8.48541, 2.13611, 3.58951, 0.00373412, -0.00223723, -0.000469952, 0.00455356, 0.00790016, -0.00712837, 0.000944855, 0.0477966, -0.023596, -0.00340873, -0.0280385, 0.163282, 0.0119354, 0.470984, -0.541661, 0.336338, -2.08259, -2.1655, -0.130014, 0.470428, -0.543184, 0.331507, -2.08302, -2.16547, -0.113927, -0.000779099, 0.0402649, 0.0101355, 0.0243864, -0.00540963, -0.00141599
0.137125, 1.69558, -1.22899, -1.5441, -0.901276, -1.20065, 1.23144, -1.30266, 0.0565904, -0.000906748, -0.00317658, -0.00197109, -0.130172, 0.0484482, 0.000965885, -2.69799, 67.2427, 32.999, 8.56079, 2.10498, 3.57577, -0.00267457, -0.0022846, -0.000442347, 0.00455821, 0.00791158, -0.0072862, 0.000938652, 0.047715, -0.0253226, -0.00418069, -0.0238327, 0.162166, 0.0153252, 0.470983, -0.54162, 0.336348, -2.08256, -2.16549, -0.130017, 0.470456, -0.543188, 0.331505, -2.08305, -2.16555, -0.113758, -0.00079745, 0.0408545, 0.0102774, 0.0260613, -0.00454799, -0.00207795
0.138125, 1.69563, -1.22899, -1.5441, -0.901275, -1.20079, 1.23149, -1.30266, 0.0537132, 0.00156099, -0.00341632, -0.00130518, -0.129557, 0.0460728, -0.000305512, -2.80907, 67.1674, 33.0387, 8.56079, 2.06836, 3.56112, 0.0229602, -0.00233458, -0.000417246, 0.00455772, 0.00792134, -0.00745409, 0.000936081, 0.0492544, -0.0231014, -0.00281572, -0.0247337, 0.163226, 0.0132447, 0.470982, -0.541579, 0.336358, -2.08253, -2.16548, -0.13002, 0.470482, -0.543196, 0.331507, -2.0831, -2.16563, -0.113579, -0.000816072, 0.0414475, 0.01042, 0.0239307, -0.00577729, -0.000761009
0.139125, 1.69569, -1.22899, -1.5441, -0.901275, -1.20092, 1.23154, -1.30266, 0.0530447, -0.00125611, -0.00255549, -0.000863457, -0.128034, 0.0432605, -0.00118702, -2.84875, 67.2784, 33.0387, 8.56079, 2.00061, 3.57577, 0.0495105, -0.00238565, -0.000393369, 0.00456292, 0.00792958, -0.0076052, 0.000933536, 0.0497801, -0.0224865, -0.00436938, -0.0255303, 0.158088, 0.0140899, 0.470982, -0.541538, 0.336369, -2.0825, -2.16547, -0.130023, 0.470507, -0.543203, 0.331503, -2.08314, -2.16571, -0.11342, -0.000834967, 0.0420438, 0.0105633, 0.0232598, -0.00548434, -0.00221614
0.140125, 1.69574, -1.22899, -1.5441, -0.901277, -1.20106, 1.2316, -1.30266, 0.0533425, -0.000611139, -0.00191211, -0.000570641, -0.127125, 0.0464154, 0.000666716, -2.92413, 67.2784, 33.0387, 8.56079, 1.94568, 3.58218, 0.0101428, -0.00243553, -0.000366748, 0.00456373, 0.00793495, -0.00776858, 0.000934019, 0.0503017, -0.0233717, -0.00350564, -0.0215203, 0.159929, 0.0129347, 0.470981, -0.541496, 0.336379, -2.08247, -2.16546, -0.130026, 0.470534, -0.543209, 0.331505, -2.08319, -2.16579, -0.113251, -0.000854135, 0.0426434, 0.0107072, 0.0241757, -0.00549615, -0.00132971
0.141125, 1.6958, -1.229, -1.5441, -0.901281, -1.2012, 1.23165, -1.30266, 0.0538436, -0.00200096, -0.00310152, -0.00213992, -0.131545, 0.0439263, 0.000444477, -2.9995, 67.3538, 33.1101, 8.63617, 1.89075, 3.58951, 0.0101428, -0.00248817, -0.000342392, 0.00457057, 0.00794918, -0.00792669, 0.000933866, 0.0512215, -0.0228625, -0.00524121, -0.0275945, 0.16161, 0.0130661, 0.47098, -0.541453, 0.33639, -2.08244, -2.16545, -0.130029, 0.470559, -0.543216, 0.3315, -2.08324, -2.16587, -0.113078, -0.000873578, 0.0432462, 0.0108517, 0.0236172, -0.00555295, -0.00302802
0.142125, 1.69585, -1.229, -1.54409, -0.90129, -1.20134, 1.23171, -1.30266, 0.0494147, -0.0012067, 0.00124874, -0.00402226, -0.131193, 0.0470844, 0.000771036, -2.9995, 67.3538, 32.9633, 8.74725, 1.86603, 3.58951, -0.00267457, -0.00253877, -0.000314745, 0.00457001, 0.00794986, -0.008096, 0.000927185, 0.0525324, -0.0221744, -0.00303016, -0.0208864, 0.163834, 0.0122601, 0.470979, -0.54141, 0.336401, -2.08241, -2.16544, -0.130032, 0.470588, -0.543221, 0.331502, -2.08328, -2.16596, -0.112909, -0.000893298, 0.0438524, 0.0109968, 0.0230398, -0.0066112, -0.000885046
0.143125, 1.6959, -1.229, -1.5441, -0.901285, -1.20148, 1.23176, -1.30266, 0.0469844, 0.000126206, -0.00101869, -0.000916159, -0.131399, 0.0485114, -0.00141876, -3.03521, 67.3181, 33.0387, 8.67188, 1.85321, 3.60415, 0.0495105, -0.00259505, -0.000292528, 0.00457226, 0.00795918, -0.00826118, 0.000929638, 0.0556963, -0.0199226, -0.0024016, -0.0196622, 0.166263, 0.00820384, 0.470978, -0.541366, 0.336412, -2.08237, -2.16543, -0.130036, 0.470611, -0.543232, 0.331501, -2.08333, -2.16604, -0.112733, -0.000913297, 0.0444617, 0.0111426, 0.0209091, -0.00931502, -0.000544989
0.144125, 1.69596, -1.229, -1.54409, -0.901296, -1.20162, 1.23182, -1.30266, 0.0479339, -0.000679488, 0.00101816, -0.00330045, -0.136375, 0.0497101, -0.000199852, -3.07488, 67.3538, 32.9633, 8.78693, 1.84772, 3.62521, 0.0293689, -0.00264571, -0.000263612, 0.00457393, 0.00796509, -0.00843031, 0.000921302, 0.0559515, -0.0210266, -0.00246449, -0.0203534, 0.170692, 0.0094152, 0.470977, -0.541322, 0.336423, -2.08234, -2.16542, -0.130039, 0.47064, -0.543236, 0.331502, -2.08337, -2.16613, -0.112559, -0.000933575, 0.0450743, 0.0112889, 0.0219987, -0.00889823, -0.00053632
0.145125, 1.69601, -1.22899, -1.5441, -0.901298, -1.20176, 1.23188, -1.30266, 0.0511932, 0.00136394, -0.00113393, -0.00219911, -0.138588, 0.0560701, 0.000104124, -3.07488, 67.2784, 33.0387, 8.78693, 1.81018, 3.63254, 0.0229602, -0.00270077, -0.000238839, 0.00457551, 0.00797315, -0.00859965, 0.000923417, 0.0568136, -0.0231082, -0.00151848, -0.0174091, 0.178299, 0.00964969, 0.470976, -0.541277, 0.336434, -2.08231, -2.16541, -0.130042, 0.470666, -0.543243, 0.331502, -2.08343, -2.16621, -0.112381, -0.000954135, 0.0456901, 0.0114359, 0.0241236, -0.00919298, 0.00034383
0.146125, 1.69607, -1.229, -1.5441, -0.901299, -1.2019, 1.23193, -1.30266, 0.0530276, -0.000813674, -0.00162827, -0.00146519, -0.142345, 0.0563454, 0.000781493, -3.03521, 67.3538, 33.0744, 8.78693, 1.84131, 3.63254, 0.00373412, -0.00275884, -0.000215356, 0.00458061, 0.00797774, -0.00876232, 0.000930136, 0.0579229, -0.0235537, -0.00298219, -0.0193415, 0.179833, 0.00876243, 0.470975, -0.541231, 0.336446, -2.08228, -2.1654, -0.130045, 0.470691, -0.543253, 0.331499, -2.08348, -2.16628, -0.112213, -0.000974976, 0.0463091, 0.0115835, 0.0245341, -0.00942308, -0.00114252
0.147125, 1.69612, -1.229, -1.5441, -0.901312, -1.20203, 1.23199, -1.30266, 0.0544711, -0.00134746, -0.000278123, -0.0044098, -0.135703, 0.0556352, -0.000937067, -2.9995, 67.3895, 33.0387, 8.93372, 1.85321, 3.65451, 0.0431018, -0.00281111, -0.00018681, 0.00458514, 0.00798297, -0.00892425, 0.000914877, 0.0554238, -0.0258944, -0.00342889, -0.0172112, 0.174157, 0.0173969, 0.470974, -0.541185, 0.336457, -2.08224, -2.16539, -0.130049, 0.47072, -0.543257, 0.331497, -2.08351, -2.16638, -0.112048, -0.000996102, 0.0469312, 0.0117316, 0.0267439, -0.0061671, -0.00111896
0.148125, 1.69617, -1.229, -1.54409, -0.901315, -1.20215, 1.23205, -1.30266, 0.0525236, -0.000875657, 0.000721736, -0.00210415, -0.134506, 0.0597025, -0.000353444, -2.95983, 67.3895, 32.999, 8.89801, 1.84772, 3.67557, 0.0357776, -0.00286607, -0.000160306, 0.00458613, 0.00797735, -0.00908322, 0.000912735, 0.0575464, -0.0253343, -0.00206322, -0.0106851, 0.175773, 0.0138054, 0.470973, -0.541138, 0.336469, -2.08221, -2.16538, -0.130052, 0.470747, -0.543262, 0.331498, -2.08356, -2.16646, -0.111896, -0.00101751, 0.0475565, 0.0118804, 0.0262912, -0.00787117, 6.1712e-05
0.149125, 1.69623, -1.229, -1.5441, -0.901321, -1.20228, 1.23211, -1.30266, 0.051135, 0.000268435, -0.000462515, -0.00223761, -0.133953, 0.0617594, -0.000235629, -2.92413, 67.3538, 33.0387, 8.93372, 1.84772, 3.71127, 0.0357776, -0.0029199, -0.000133575, 0.00458855, 0.00798146, -0.0092428, 0.000906958, 0.0590117, -0.024792, -0.00161608, -0.00929546, 0.177973, 0.0120931, 0.470972, -0.54109, 0.336481, -2.08218, -2.16537, -0.130056, 0.470775, -0.543266, 0.331498, -2.0836, -2.16655, -0.111733, -0.00103921, 0.0481849, 0.0120297, 0.025798, -0.00878039, 0.000438277
0.150125, 1.69628, -1.229, -1.5441, -0.901327, -1.2024, 1.23216, -1.30266, 0.0523522, 0.00102692, -0.000320082, -0.00149146, -0.128852, 0.0592784, 0.00153833, -2.84875, 67.3181, 33.0387, 8.93372, 1.85321, 3.74698, -0.00999879, -0.00297461, -0.000107029, 0.00458957, 0.00797868, -0.0094009, 0.000906883, 0.0579722, -0.0254412, -0.00135241, -0.00857588, 0.173742, 0.012646, 0.470971, -0.541042, 0.336493, -2.08214, -2.16536, -0.130059, 0.470802, -0.543271, 0.3315, -2.08364, -2.16663, -0.111579, -0.0010612, 0.0488164, 0.0121795, 0.0263969, -0.00713613, 0.000988977
0.151125, 1.69634, -1.229, -1.5441, -0.901335, -1.20252, 1.23222, -1.30266, 0.0552273, 0.000694168, -0.00105741, -0.000994094, -0.120529, 0.0573387, 4.22124e-05, -2.84875, 67.3181, 33.0744, 8.93372, 1.85962, 3.7836, 0.0165515, -0.00302569, -7.68645e-05, 0.00459426, 0.00798484, -0.00955373, 0.000889722, 0.0558265, -0.0274041, -0.00212858, -0.00713805, 0.166176, 0.0189993, 0.47097, -0.540993, 0.336505, -2.08211, -2.16535, -0.130063, 0.470833, -0.54327, 0.331499, -2.08367, -2.16672, -0.111422, -0.00108347, 0.049451, 0.01233, 0.0282289, -0.00418099, 0.000645955
0.152125, 1.69639, -1.22899, -1.5441, -0.901336, -1.20263, 1.23227, -1.30266, 0.052245, 0.00223318, -0.00154676, 0.00193588, -0.118617, 0.0567085, -0.00142992, -2.77337, 67.2427, 33.1101, 8.82263, 1.85962, 3.80466, 0.0559192, -0.0030791, -4.81807e-05, 0.00459338, 0.00797407, -0.00970558, 0.000877354, 0.0581921, -0.0250564, -0.000931255, -0.00512987, 0.16595, 0.0153689, 0.470969, -0.540944, 0.336517, -2.08207, -2.16534, -0.130066, 0.470862, -0.543272, 0.331503, -2.0837, -2.16681, -0.111285, -0.00110604, 0.0500886, 0.012481, 0.0259925, -0.00616093, 0.00167988
0.153126, 1.69644, -1.22899, -1.5441, -0.901346, -1.20275, 1.23233, -1.30266, 0.0517885, 0.00149416, -0.000200908, 0.000455491, -0.118266, 0.0559638, -0.000478562, -2.62261, 67.2427, 33.0744, 8.85834, 1.89075, 3.82663, 0.0431018, -0.00313445, -2.20568e-05, 0.00459649, 0.00797429, -0.00985843, 0.00087083, 0.0582526, -0.0252891, -0.00118397, -0.00498324, 0.165045, 0.0160892, 0.470968, -0.540894, 0.33653, -2.08203, -2.16533, -0.13007, 0.470889, -0.543275, 0.331502, -2.08373, -2.16689, -0.111133, -0.0011289, 0.0507293, 0.0126325, 0.0261953, -0.00553049, 0.00156328
0.154126, 1.6965, -1.22899, -1.5441, -0.901354, -1.20287, 1.23237, -1.30266, 0.0528866, 0.00100014, -0.000972871, 0.00113897, -0.117903, 0.0505568, 0.00113902, -2.54723, 67.2427, 33.1101, 8.82263, 1.91546, 3.85501, 0.00373412, -0.00318605, 7.056e-06, 0.00460056, 0.00797907, -0.0100047, 0.000860601, 0.0582006, -0.024675, -0.00222997, -0.00993053, 0.162079, 0.0147391, 0.470967, -0.540843, 0.336542, -2.082, -2.16532, -0.130073, 0.470918, -0.543274, 0.331502, -2.08376, -2.16697, -0.110984, -0.00115205, 0.051373, 0.0127846, 0.0255187, -0.00469806, 0.000708001
0.155126, 1.69655, -1.22899, -1.5441, -0.901356, -1.20298, 1.23242, -1.30266, 0.0512172, 0.000669785, 0.000183852, 0.00117533, -0.113093, 0.0515721, 0.00126797, -2.3568, 67.2427, 33.0744, 8.67188, 1.95209, 3.86966, -0.00999879, -0.00324282, 3.08515e-05, 0.0046014, 0.00797199, -0.0101473, 0.000858924, 0.0585593, -0.0246704, -0.00189212, -0.00541592, 0.158628, 0.0151389, 0.470966, -0.540792, 0.336555, -2.08196, -2.16531, -0.130077, 0.470943, -0.543277, 0.331504, -2.0838, -2.16705, -0.110851, -0.0011755, 0.0520197, 0.0129373, 0.0255168, -0.00445732, 0.00113615
0.156126, 1.6966, -1.22899, -1.5441, -0.901368, -1.20308, 1.23247, -1.30266, 0.0522552, 0.000448791, -0.00164276, -0.00181585, -0.109568, 0.048746, 9.93303e-05, -2.24175, 67.2427, 33.1498, 8.63617, 1.98871, 3.85501, 0.0101428, -0.00329565, 6.03143e-05, 0.00460862, 0.00797467, -0.0102877, 0.000840364, 0.0572852, -0.0254838, -0.00344222, -0.00928187, 0.154998, 0.0202979, 0.470965, -0.54074, 0.336568, -2.08192, -2.1653, -0.130081, 0.470973, -0.543275, 0.331501, -2.08381, -2.16713, -0.110711, -0.00119924, 0.0526694, 0.0130904, 0.0262018, -0.00227494, -6.88369e-05
0.157126, 1.69665, -1.22899, -1.5441, -0.901376, -1.20319, 1.23251, -1.30266, 0.0516846, -0.000534323, -0.00193196, -0.00229519, -0.112278, 0.0551012, -0.00115448, -2.091, 67.2784, 33.1855, 8.52509, 2.04364, 3.84036, 0.0431018, -0.00335136, 8.56155e-05, 0.00461555, 0.00797851, -0.0104237, 0.000827595, 0.0594079, -0.0260995, -0.00364148, -0.00536475, 0.159893, 0.0204904, 0.470963, -0.540687, 0.336581, -2.08189, -2.16528, -0.130085, 0.470999, -0.543275, 0.331497, -2.08382, -2.16721, -0.110574, -0.00122328, 0.0533221, 0.0132441, 0.0268628, -0.00366003, -0.000465432
0.158126, 1.69671, -1.22898, -1.5441, -0.901392, -1.20329, 1.23256, -1.30266, 0.0495952, 0.00307873, -0.00128915, -0.0052499, -0.113984, 0.0507256, -0.00148173, -1.97991, 67.1317, 33.1855, 8.52509, 2.09308, 3.84036, 0.0623279, -0.00340172, 0.000114575, 0.00461519, 0.00798153, -0.0105702, 0.00080488, 0.0595501, -0.0246417, -0.00200384, -0.0100094, 0.163338, 0.0210359, 0.470962, -0.540634, 0.336594, -2.08185, -2.16527, -0.130089, 0.471028, -0.54327, 0.331502, -2.08383, -2.16731, -0.110428, -0.00124762, 0.0539777, 0.0133983, 0.0254494, -0.00345902, 0.00132644
0.159126, 1.69675, -1.22898, -1.5441, -0.901407, -1.20339, 1.2326, -1.30266, 0.0490961, 0.0099327, -0.000860313, -0.00959664, -0.113719, 0.0522857, 0.0007076, -1.78948, 67.0602, 33.1855, 8.48541, 2.09949, 3.83304, 0.0165515, -0.0034549, 0.000141136, 0.00461747, 0.00797978, -0.0107072, 0.000793625, 0.058543, -0.0256033, 0.00170865, -0.0093617, 0.171534, 0.0223767, 0.470961, -0.54058, 0.336608, -2.08181, -2.16526, -0.130092, 0.471055, -0.543267, 0.331504, -2.08385, -2.16738, -0.110295, -0.00127226, 0.0546363, 0.013553, 0.0264875, -0.00234213, 0.00527159
0.160126, 1.69681, -1.22898, -1.5441, -0.901413, -1.20349, 1.23264, -1.30266, 0.0516521, 0.00806794, -0.000574203, -0.0103232, -0.109985, 0.0490649, 0.000471733, -1.7141, 67.0206, 33.1855, 8.33862, 2.13611, 3.8193, 0.0165515, -0.00350865, 0.000168551, 0.00462074, 0.0079827, -0.0108441, 0.000779322, 0.0569072, -0.0271208, 0.000133936, -0.0109221, 0.165625, 0.0272208, 0.47096, -0.540525, 0.336621, -2.08177, -2.16525, -0.130096, 0.471083, -0.543263, 0.331505, -2.08387, -2.16746, -0.110158, -0.0012972, 0.0552977, 0.0137082, 0.0278604, 0.000242365, 0.00407902
0.161126, 1.69686, -1.22897, -1.5441, -0.901431, -1.20359, 1.23267, -1.30266, 0.0510162, 0.00660243, 0.00045192, -0.0136229, -0.100791, 0.0465874, 7.71298e-05, -1.56335, 66.9849, 33.1498, 8.29895, 2.12421, 3.80466, 0.0229602, -0.00356163, 0.000193998, 0.00462337, 0.00798503, -0.0109765, 0.000760351, 0.0547377, -0.0282972, -0.00108526, -0.00934042, 0.156063, 0.0334859, 0.470958, -0.54047, 0.336635, -2.08173, -2.16524, -0.1301, 0.471109, -0.543259, 0.331507, -2.08387, -2.16755, -0.110027, -0.00132244, 0.0559621, 0.013864, 0.0288861, 0.00328715, 0.00333218
0.162126, 1.6969, -1.22897, -1.54411, -0.901438, -1.20369, 1.23271, -1.30266, 0.0489515, 0.00469306, -0.00136953, -0.0125252, -0.0998992, 0.0406122, -0.001644, -1.45226, 66.9849, 33.2212, 8.11249, 2.14801, 3.77627, 0.0687366, -0.00362142, 0.000215934, 0.00463064, 0.00799145, -0.0111084, 0.000751092, 0.0564279, -0.0256081, -0.00316632, -0.0149192, 0.150896, 0.0316868, 0.470957, -0.540414, 0.336649, -2.08169, -2.16522, -0.130104, 0.471131, -0.543259, 0.331504, -2.08389, -2.16762, -0.109891, -0.00134799, 0.0566293, 0.0140202, 0.0261594, 0.00249795, 0.00125111
0.163126, 1.69694, -1.22897, -1.54411, -0.901457, -1.20379, 1.23274, -1.30266, 0.0462087, 0.00418251, -0.00184132, -0.0122862, -0.0975091, 0.035794, 0.00107414, -1.30151, 66.9492, 33.2609, 8.07678, 2.1297, 3.7543, 0.0101428, -0.00367855, 0.000237165, 0.00463608, 0.00799834, -0.0112369, 0.000745859, 0.0575813, -0.0233261, -0.00393131, -0.0177638, 0.146445, 0.0266473, 0.470956, -0.540357, 0.336663, -2.08165, -2.16521, -0.130108, 0.471153, -0.543257, 0.331503, -2.0839, -2.16768, -0.109757, -0.00137384, 0.0572994, 0.0141769, 0.0238684, 0.00205398, 0.000541087
0.164126, 1.69698, -1.22897, -1.54411, -0.901474, -1.20388, 1.23278, -1.30266, 0.0467412, 0.00295227, -0.00122775, -0.0182004, -0.0957382, 0.0371325, 0.000953451, -1.11108, 66.9492, 33.2609, 8.03711, 2.1178, 3.72592, 0.00373412, -0.00373753, 0.000256936, 0.00464085, 0.008003, -0.0113649, 0.000737968, 0.0560511, -0.025532, -0.00522676, -0.0180601, 0.145406, 0.0334564, 0.470954, -0.5403, 0.336677, -2.08161, -2.1652, -0.130113, 0.471173, -0.543257, 0.331502, -2.08392, -2.16775, -0.109627, -0.0014, 0.0579723, 0.0143341, 0.0259415, 0.00453139, -0.000411881
0.165126, 1.69703, -1.22896, -1.54411, -0.901495, -1.20398, 1.2328, -1.30266, 0.0476414, 0.00385437, -0.000818659, -0.0171591, -0.0956564, 0.0331721, 0.000160916, -1.07537, 66.8738, 33.2609, 8.03711, 2.12421, 3.70395, 0.0165515, -0.00379187, 0.000280609, 0.00464518, 0.00801964, -0.0114984, 0.000717441, 0.0560576, -0.0251463, -0.00484435, -0.0205268, 0.14467, 0.0344509, 0.470953, -0.540242, 0.336692, -2.08157, -2.16519, -0.130117, 0.471197, -0.54325, 0.331503, -2.08391, -2.16782, -0.109479, -0.00142646, 0.058648, 0.0144917, 0.0255449, 0.00512597, 0.00013212
0.166126, 1.69706, -1.22897, -1.5441, -0.901512, -1.20408, 1.23283, -1.30266, 0.0461749, 6.33404e-05, 0.00121735, -0.0178263, -0.0941594, 0.035719, -0.0018255, -0.960319, 66.9849, 33.1855, 7.9657, 2.09949, 3.66092, 0.0687366, -0.00385226, 0.000299674, 0.00465466, 0.00802966, -0.0116183, 0.000702327, 0.0570998, -0.0255441, -0.00620641, -0.016121, 0.141272, 0.0371936, 0.470951, -0.540183, 0.336706, -2.08153, -2.16517, -0.130121, 0.471216, -0.543249, 0.331498, -2.08391, -2.16789, -0.109352, -0.00145324, 0.0593266, 0.0146499, 0.0259027, 0.00500514, -0.00123242
0.167126, 1.6971, -1.22896, -1.5441, -0.901534, -1.20418, 1.23285, -1.30266, 0.0397142, 0.00354506, 0.00164669, -0.0189891, -0.0994315, 0.0278468, 0.00024106, -0.884941, 66.8381, 33.1498, 7.92602, 2.11139, 3.62521, 0.0293689, -0.00391063, 0.000319569, 0.0046543, 0.00803859, -0.0117571, 0.00069427, 0.0601488, -0.0201488, -0.00453651, -0.0241349, 0.145513, 0.0281455, 0.47095, -0.540124, 0.336721, -2.08148, -2.16516, -0.130125, 0.471237, -0.543246, 0.331503, -2.08392, -2.16796, -0.109206, -0.00148032, 0.0600079, 0.0148084, 0.020662, 0.00219273, 0.000263283
0.168126, 1.69714, -1.22896, -1.54409, -0.901555, -1.20428, 1.23288, -1.30266, 0.0348397, 0.00158003, 0.00202575, -0.0200536, -0.0983706, 0.0219207, 0.000872784, -0.809562, 66.8738, 33.1101, 7.89032, 2.1178, 3.58951, 0.0101428, -0.00397328, 0.000336116, 0.00466097, 0.00804859, -0.0118826, 0.000689814, 0.0619856, -0.0167869, -0.00602243, -0.0282408, 0.140139, 0.0242189, 0.470949, -0.540064, 0.336735, -2.08144, -2.16515, -0.130129, 0.471254, -0.543246, 0.331501, -2.08393, -2.16802, -0.109072, -0.00150772, 0.0606919, 0.0149675, 0.017289, 0.00115513, -0.00122936
0.169126, 1.69717, -1.22896, -1.54409, -0.901581, -1.20438, 1.2329, -1.30266, 0.0361936, 0.00192747, 0.00042243, -0.0216431, -0.101488, 0.0219577, 0.000581856, -0.809562, 66.8381, 33.1498, 7.89032, 2.09949, 3.56112, 0.0101428, -0.00403377, 0.00035376, 0.00466723, 0.00806636, -0.0120114, 0.000678319, 0.0625368, -0.0172719, -0.0067083, -0.0318329, 0.143848, 0.0254941, 0.470947, -0.540003, 0.33675, -2.0814, -2.16513, -0.130134, 0.471272, -0.543243, 0.331499, -2.08393, -2.16808, -0.108927, -0.00153542, 0.0613787, 0.015127, 0.0177405, 0.00142573, -0.00185092
0.170126, 1.69719, -1.22896, -1.54408, -0.901605, -1.20447, 1.23292, -1.30266, 0.0309775, 0.00047894, 0.00204482, -0.0249242, -0.094599, 0.0172309, -0.00154488, -0.694511, 66.8738, 33.0744, 7.85065, 2.08667, 3.53274, 0.0623279, -0.00409874, 0.00036567, 0.00467316, 0.00807402, -0.0121282, 0.000669933, 0.062538, -0.0153042, -0.00765481, -0.0320572, 0.134887, 0.0284524, 0.470946, -0.539942, 0.336766, -2.08135, -2.16512, -0.130138, 0.471284, -0.543244, 0.331498, -2.08394, -2.16814, -0.108805, -0.00156344, 0.0620682, 0.0152869, 0.0157124, 0.00217972, -0.00256593
0.171126, 1.69722, -1.22895, -1.54408, -0.90163, -1.20456, 1.23294, -1.30266, 0.0316797, 0.00293963, 0.00136319, -0.0251666, -0.0941031, 0.0137283, -0.00102992, -0.76989, 66.7627, 33.0744, 7.85065, 2.07477, 3.50345, 0.0623279, -0.00415976, 0.000380542, 0.00467566, 0.00809185, -0.0122551, 0.000660566, 0.0623179, -0.0150033, -0.00686685, -0.0353127, 0.135785, 0.0286558, 0.470944, -0.53988, 0.336781, -2.08131, -2.16511, -0.130143, 0.4713, -0.543241, 0.331501, -2.08394, -2.1682, -0.108662, -0.00159178, 0.0627604, 0.0154473, 0.0154057, 0.00295473, -0.00158606
0.172126, 1.69724, -1.22895, -1.54408, -0.901661, -1.20465, 1.23295, -1.30265, 0.0270176, 0.00513791, 0.00090877, -0.0292999, -0.0935567, 0.0152229, 0.00124617, -0.76989, 66.7627, 33.0744, 7.89032, 2.05646, 3.48971, 0.0101428, -0.00422365, 0.000392234, 0.00468214, 0.0081074, -0.0123716, 0.000662831, 0.0638168, -0.0135273, -0.00597375, -0.0350318, 0.138998, 0.0253836, 0.470942, -0.539817, 0.336796, -2.08126, -2.16509, -0.130147, 0.471312, -0.54324, 0.331499, -2.08395, -2.16825, -0.108531, -0.00162043, 0.0634553, 0.0156081, 0.013992, 0.0019703, -0.000734868
0.173126, 1.69727, -1.22893, -1.54407, -0.901684, -1.20473, 1.23296, -1.30266, 0.0244138, 0.00713473, 0.00320429, -0.0285658, -0.0928837, 0.0163318, 0.000356061, -0.809562, 66.6159, 32.9633, 7.77924, 2.02533, 3.47507, 0.0229602, -0.00428713, 0.000403722, 0.0046787, 0.00811344, -0.0124969, 0.000654702, 0.0652268, -0.0125538, -0.00369248, -0.0306772, 0.141163, 0.0243868, 0.470941, -0.539753, 0.336812, -2.08122, -2.16508, -0.130152, 0.471324, -0.543239, 0.331508, -2.08395, -2.16831, -0.108402, -0.00164939, 0.0641529, 0.0157694, 0.0131289, 0.000881026, 0.00148503
0.174126, 1.69728, -1.22894, -1.54407, -0.90172, -1.20482, 1.23298, -1.30265, 0.0205467, 0.00320009, 0.00213618, -0.0327736, -0.0876198, 0.0169837, 0.000949451, -0.76989, 66.6913, 32.9633, 7.85065, 1.99512, 3.46774, 0.00373412, -0.00435303, 0.000413656, 0.00468782, 0.00812821, -0.0126071, 0.000652095, 0.0660303, -0.0119244, -0.0067824, -0.0301809, 0.134051, 0.0250491, 0.470939, -0.539689, 0.336828, -2.08117, -2.16506, -0.130156, 0.471334, -0.543238, 0.331504, -2.08395, -2.16835, -0.108279, -0.00167868, 0.0648531, 0.015931, 0.0123846, 0.00124375, -0.00151211
0.175126, 1.6973, -1.22893, -1.54406, -0.901752, -1.2049, 1.23299, -1.30266, 0.0172473, 0.00321654, 0.00318735, -0.0339827, -0.0839565, 0.013364, -0.00129981, -0.845268, 66.6516, 32.8879, 7.85065, 1.9704, 3.44668, 0.0559192, -0.00441643, 0.00042667, 0.00468974, 0.00813369, -0.0127232, 0.000636387, 0.0665426, -0.0102808, -0.00677084, -0.0306275, 0.129676, 0.0268389, 0.470937, -0.539624, 0.336844, -2.08113, -2.16505, -0.130161, 0.471348, -0.543235, 0.331507, -2.08394, -2.16842, -0.108161, -0.00170828, 0.065556, 0.0160931, 0.0107334, 0.00137098, -0.00136969
0.176126, 1.69732, -1.22891, -1.54405, -0.901789, -1.20497, 1.233, -1.30266, 0.0175894, 0.00476636, 0.00612309, -0.0327132, -0.0815562, 0.0101268, -0.0011039, -0.920646, 66.5445, 32.8522, 7.89032, 1.96399, 3.43936, 0.0623279, -0.00447857, 0.00043802, 0.00468883, 0.00814452, -0.0128411, 0.000622907, 0.0659261, -0.0103634, -0.00499662, -0.0289087, 0.127851, 0.0280499, 0.470936, -0.539559, 0.33686, -2.08108, -2.16503, -0.130166, 0.47136, -0.54323, 0.331514, -2.08394, -2.16848, -0.108036, -0.0017382, 0.0662614, 0.0162556, 0.010831, 0.00241279, 0.000635892
0.177126, 1.69732, -1.22891, -1.54404, -0.901823, -1.20504, 1.23301, -1.30266, 0.0129801, 0.000759183, 0.00527366, -0.0298249, -0.0791088, 0.0074609, -0.000261216, -0.920646, 66.6516, 32.8126, 7.85065, 1.93378, 3.43936, 0.0495105, -0.00454624, 0.000445651, 0.00469432, 0.00814757, -0.0129427, 0.000616599, 0.0693509, -0.00683941, -0.00730607, -0.0289715, 0.120675, 0.0206451, 0.470934, -0.539493, 0.336876, -2.08103, -2.16502, -0.13017, 0.471368, -0.543229, 0.331514, -2.08393, -2.16853, -0.107934, -0.00176845, 0.0669695, 0.0164185, 0.00732029, -4.66366e-05, -0.00191019
0.178126, 1.69733, -1.2289, -1.54403, -0.901861, -1.20511, 1.23302, -1.30266, 0.00959373, 0.00372587, 0.00581342, -0.0319123, -0.0791168, 0.00523492, 0.00152128, -0.920646, 66.6516, 32.8522, 7.85065, 1.95209, 3.44668, 0.00373412, -0.00461333, 0.000451561, 0.00469596, 0.00815954, -0.0130533, 0.000616112, 0.0703527, -0.00503982, -0.00571501, -0.0304713, 0.123073, 0.0175734, 0.470932, -0.539426, 0.336892, -2.08098, -2.165, -0.130175, 0.471374, -0.543228, 0.331518, -2.08393, -2.16857, -0.107814, -0.00179901, 0.0676801, 0.0165817, 0.00559012, -0.000647552, -0.000279534
0.179126, 1.69734, -1.22888, -1.54402, -0.901901, -1.20518, 1.23303, -1.30266, 0.0110618, 0.00530151, 0.0042762, -0.0325267, -0.0733809, 0.00388913, -0.000443877, -0.960319, 66.5445, 32.8522, 7.81494, 1.94568, 3.44668, 0.0431018, -0.00467737, 0.000460625, 0.00469156, 0.00816472, -0.0131705, 0.000603159, 0.0691489, -0.00610477, -0.00567426, -0.0305463, 0.119973, 0.022703, 0.47093, -0.539358, 0.336909, -2.08094, -2.16499, -0.13018, 0.471384, -0.543223, 0.331528, -2.08393, -2.16864, -0.107695, -0.0018299, 0.0683933, 0.0167454, 0.00658095, 0.00129283, 7.74086e-05
0.180126, 1.69734, -1.22887, -1.54401, -0.901943, -1.20524, 1.23304, -1.30266, 0.0103702, 0.00843129, 0.00547033, -0.0338634, -0.0695587, 0.00778131, -0.00175398, -0.920646, 66.6159, 32.8879, 7.81494, 1.95209, 3.43936, 0.0824695, -0.00474327, 0.000468748, 0.00469367, 0.00816392, -0.0132693, 0.000585133, 0.0688993, -0.00732008, -0.00326979, -0.0244348, 0.122391, 0.0263502, 0.470929, -0.53929, 0.336926, -2.08089, -2.16497, -0.130185, 0.471392, -0.543219, 0.331532, -2.08391, -2.1687, -0.107602, -0.00186112, 0.069109, 0.0169095, 0.00784607, 0.00193182, 0.00261297
0.181126, 1.69735, -1.22886, -1.54401, -0.901991, -1.2053, 1.23304, -1.30266, 0.00776155, 0.00946365, 0.00329986, -0.035744, -0.0675726, 0.00528828, -0.000660694, -0.920646, 66.6159, 32.9236, 7.85065, 1.98871, 3.45309, 0.0687366, -0.00480859, 0.000475534, 0.00469377, 0.00817343, -0.0133764, 0.00057607, 0.0699463, -0.00564143, -0.00382254, -0.0278107, 0.121286, 0.023967, 0.470927, -0.53922, 0.336943, -2.08084, -2.16496, -0.13019, 0.4714, -0.543214, 0.331538, -2.0839, -2.16875, -0.107489, -0.00189266, 0.0698272, 0.0170739, 0.00615638, 0.00163306, 0.00211773
0.182126, 1.69735, -1.22886, -1.54399, -0.90203, -1.20536, 1.23305, -1.30266, 0.00991266, 0.00578471, 0.00480226, -0.0367847, -0.0604367, 0.00449117, 0.00149232, -0.960319, 66.8024, 32.9633, 7.73956, 2.00702, 3.43936, 0.0165515, -0.00487481, 0.000485778, 0.00469875, 0.00817072, -0.0134689, 0.000565432, 0.067952, -0.00808515, -0.00586529, -0.0248304, 0.111954, 0.0280615, 0.470925, -0.539151, 0.33696, -2.08079, -2.16494, -0.130195, 0.47141, -0.543208, 0.331539, -2.08389, -2.1688, -0.107404, -0.00192452, 0.0705479, 0.0172387, 0.00841507, 0.00474404, 0.000499878
0.183126, 1.69736, -1.22883, -1.54398, -0.902087, -1.20541, 1.23306, -1.30266, 0.00642199, 0.00867495, 0.00499982, -0.0444736, -0.0610046, 0.00865805, 0.00123224, -0.920646, 66.7627, 33.0387, 7.77924, 2.05005, 3.42471, 0.0101428, -0.00493662, 0.000495633, 0.00469323, 0.00817397, -0.0135808, 0.000542354, 0.0681977, -0.00853504, -0.0046525, -0.0239665, 0.118413, 0.0315537, 0.470923, -0.53908, 0.336977, -2.08074, -2.16492, -0.1302, 0.47142, -0.543199, 0.331552, -2.08387, -2.16887, -0.107294, -0.00195671, 0.0712712, 0.0174039, 0.00888794, 0.00505534, 0.00180649
0.184126, 1.69736, -1.22881, -1.54397, -0.902128, -1.20546, 1.23307, -1.30266, 0.00400228, 0.00889891, 0.0055193, -0.0406872, -0.0560547, 0.00588479, -0.000636571, -0.884941, 66.8024, 33.1101, 7.5531, 2.08118, 3.43936, 0.0495105, -0.00500393, 0.000501263, 0.00469084, 0.00817289, -0.0136788, 0.000528707, 0.0697487, -0.00646815, -0.0039878, -0.021307, 0.113247, 0.0296186, 0.470921, -0.539009, 0.336994, -2.08069, -2.16491, -0.130205, 0.471427, -0.543194, 0.331561, -2.08385, -2.16892, -0.107203, -0.00198923, 0.0719968, 0.0175694, 0.00687428, 0.00406037, 0.00244696
0.185126, 1.69736, -1.2288, -1.54396, -0.902188, -1.2055, 1.23307, -1.30266, 0.00308532, 0.00740301, 0.00583155, -0.0474363, -0.0521776, 0.00960293, -0.000899098, -0.884941, 66.9095, 33.1855, 7.59277, 2.10498, 3.42471, 0.0623279, -0.0050649, 0.000513088, 0.00469052, 0.00817301, -0.013775, 0.000501022, 0.0685894, -0.00867647, -0.00538675, -0.0190005, 0.11147, 0.0364539, 0.470919, -0.538937, 0.337012, -2.08064, -2.16489, -0.13021, 0.471439, -0.543181, 0.331568, -2.08382, -2.16899, -0.107113, -0.00202208, 0.072725, 0.0177353, 0.00895176, 0.00624465, 0.00134159
0.186126, 1.69735, -1.22879, -1.54395, -0.902231, -1.20554, 1.23307, -1.30266, 0.000606491, 0.00465776, 0.00526931, -0.0463646, -0.049984, 0.0117908, -0.000599399, -0.809562, 67.0959, 33.2966, 7.36664, 2.14801, 3.42471, 0.0623279, -0.0051333, 0.000517945, 0.00469196, 0.00817115, -0.0138616, 0.000491671, 0.0709233, -0.00764954, -0.0067878, -0.0157703, 0.108388, 0.0333571, 0.470917, -0.538864, 0.33703, -2.08058, -2.16487, -0.130215, 0.471444, -0.543175, 0.331574, -2.0838, -2.16903, -0.107033, -0.00205526, 0.0734555, 0.0179016, 0.00792608, 0.0048483, -0.00021266
