alisrour97/Franka_experiments/Real_Robot_scripts/servo-franka/Data3/log_dyn_INIT0_8.csv
Time,q1,q2,q3,q4,q5,q6,q7,dq1,dq2,dq3,dq4,dq5,dq6,dq7,t1,t2,t3,t4,t5,t6,t7,ex1,ex2,ex3,ex4,ex5,ex6,ev1,ev2,ev3,ev4,ev5,ev6,xd,yd,zd,uxd,uyd,uzd,x,y,z,ux,uy,uz,vxd,vyd,vzd,vx,vy,vz
7.32422e-07, 1.69137, -1.22745, -1.53909, -0.900304, -1.19229, 1.22795, -1.30257, -0.00534946, 0.0057095, 0.00112377, 0.000275308, 0.000317272, 6.07527e-05, 7.43197e-05, 0.325081, 61.756, 30.9162, 6.84296, 2.84198, 4.02713, -0.245289, 0.00057873, -0.0018276, 0.00165865, 0.00216426, 0.00120462, 0.000470328, 0.00166308, 0.00292415, 0.00407194, 0.00262436, 0.0052214, -0.00505277, 0.471008, -0.543389, 0.335894, -2.08385, -2.16584, -0.129887, 0.469108, -0.54263, 0.334397, -2.08256, -2.16383, -0.12867, 1.77043e-06, 3.2e-05, 1.02972e-05, -0.00271215, -0.00235621, 0.00386104
0.0121565, 1.69133, -1.2274, -1.53911, -0.900259, -1.19229, 1.22795, -1.30258, -0.0035768, 0.00561701, -0.00181423, 0.00561455, -0.00031659, -0.000593234, 0.00131215, 0.0949785, 61.9385, 30.9876, 7.06909, 2.84198, 4.04086, -0.291066, 0.000547398, -0.00186489, 0.00163268, 0.00215361, 0.00116522, 0.000558536, 0.00316857, 0.00383002, 0.00356167, 0.0014484, 0.00512641, -0.0108365, 0.471008, -0.543389, 0.335894, -2.08385, -2.16584, -0.129887, 0.469067, -0.542674, 0.334423, -2.0827, -2.16375, -0.128621, 1.77746e-06, 6.40623e-05, 1.89552e-05, -0.00358144, -0.00376894, 0.0031595
0.0131567, 1.69133, -1.2274, -1.53911, -0.900259, -1.19229, 1.22795, -1.30258, -0.0035768, 0.00561701, -0.00181423, 0.00561455, -0.00031659, -0.000593234, 0.00131215, 0.0949785, 61.9385, 30.9876, 7.06909, 2.84198, 4.04086, -0.291066, 0.000547391, -0.00186489, 0.00163268, 0.0021536, 0.00116521, 0.000558538, 0.00320482, 0.00383117, 0.00355771, 0.00145303, 0.00515295, -0.0108339, 0.471008, -0.543389, 0.335894, -2.08385, -2.16584, -0.129887, 0.469067, -0.542674, 0.334423, -2.0827, -2.16375, -0.128621, 1.77167e-06, 9.92934e-05, 2.84561e-05, -0.00358144, -0.00376894, 0.0031595
0.0141567, 1.69133, -1.2274, -1.53911, -0.900259, -1.19229, 1.22795, -1.30258, -0.0035768, 0.00561701, -0.00181423, 0.00561455, -0.00031659, -0.000593234, 0.00131215, 0.0949785, 61.9385, 30.9876, 7.06909, 2.84198, 4.04086, -0.291066, 0.000547371, -0.00186489, 0.00163268, 0.0021536, 0.0011652, 0.000558543, 0.00324447, 0.00383241, 0.0035534, 0.00145812, 0.00518196, -0.010831, 0.471008, -0.543389, 0.335894, -2.08385, -2.16584, -0.129887, 0.469067, -0.542674, 0.334423, -2.0827, -2.16375, -0.128621, 1.75167e-06, 0.000137819, 3.88327e-05, -0.00358144, -0.00376894, 0.0031595
0.0151567, 1.69133, -1.2274, -1.53911, -0.900259, -1.19229, 1.22795, -1.30258, -0.0035768, 0.00561701, -0.00181423, 0.00561455, -0.00031659, -0.000593234, 0.00131215, 0.0949785, 61.9385, 30.9876, 7.06909, 2.84198, 4.04086, -0.291066, 0.000547331, -0.00186489, 0.00163269, 0.00215358, 0.00116518, 0.000558553, 0.00328763, 0.00383375, 0.00354871, 0.0014637, 0.00521353, -0.0108279, 0.471008, -0.543389, 0.335894, -2.08385, -2.16584, -0.129887, 0.469067, -0.542674, 0.334423, -2.0827, -2.16375, -0.128621, 1.716e-06, 0.000179762, 5.01169e-05, -0.00358144, -0.00376894, 0.0031595
0.0161592, 1.69133, -1.2274, -1.53911, -0.900259, -1.19229, 1.22795, -1.30258, -0.0035768, 0.00561701, -0.00181423, 0.00561455, -0.00031659, -0.000593234, 0.00131215, 0.0949785, 61.9385, 30.9876, 7.06909, 2.84198, 4.04086, -0.291066, 0.000547267, -0.00186489, 0.00163269, 0.00215356, 0.00116515, 0.000558569, 0.00333443, 0.00383519, 0.00354364, 0.00146977, 0.00524774, -0.0108245, 0.471008, -0.543389, 0.335894, -2.08385, -2.16584, -0.129887, 0.469067, -0.542674, 0.334423, -2.0827, -2.16375, -0.128621, 1.66317e-06, 0.000225248, 6.23407e-05, -0.00358144, -0.00376894, 0.0031595
0.0171594, 1.69133, -1.2274, -1.53911, -0.900259, -1.19229, 1.22795, -1.30258, -0.0035768, 0.00561701, -0.00181423, 0.00561455, -0.00031659, -0.000593234, 0.00131215, 0.0949785, 61.9385, 30.9876, 7.06909, 2.84198, 4.04086, -0.291066, 0.000547171, -0.00186489, 0.0016327, 0.00215352, 0.00116511, 0.000558593, 0.003385, 0.00383673, 0.00353818, 0.00147637, 0.0052847, -0.0108208, 0.471008, -0.543389, 0.335894, -2.08385, -2.16584, -0.129887, 0.469067, -0.542674, 0.334423, -2.0827, -2.16375, -0.128621, 1.59159e-06, 0.000274397, 7.55354e-05, -0.00358144, -0.00376894, 0.0031595
0.0181594, 1.69133, -1.2274, -1.53911, -0.900259, -1.19229, 1.22795, -1.30258, -0.0035768, 0.00561701, -0.00181423, 0.00561455, -0.00031659, -0.000593234, 0.00131215, 0.0949785, 61.9385, 30.9876, 7.06909, 2.84198, 4.04086, -0.291066, 0.000547037, -0.0018649, 0.00163272, 0.00215346, 0.00116504, 0.000558626, 0.00343947, 0.00383838, 0.00353232, 0.00148351, 0.00532448, -0.0108169, 0.471008, -0.543389, 0.335894, -2.08385, -2.16584, -0.129887, 0.469067, -0.542674, 0.334423, -2.0827, -2.16375, -0.128621, 1.49965e-06, 0.00032733, 8.9732e-05, -0.00358144, -0.00376894, 0.0031595
0.0191597, 1.69133, -1.2274, -1.53911, -0.900259, -1.19229, 1.22795, -1.30258, -0.0035768, 0.00561701, -0.00181423, 0.00561455, -0.00031659, -0.000593234, 0.00131215, 0.0949785, 61.9385, 30.9876, 7.06909, 2.84198, 4.04086, -0.291066, 0.000546859, -0.0018649, 0.00163274, 0.00215339, 0.00116495, 0.000558669, 0.00349794, 0.00384013, 0.00352603, 0.00149121, 0.00536718, -0.0108126, 0.471008, -0.543389, 0.335894, -2.08385, -2.16584, -0.129887, 0.469067, -0.542674, 0.334423, -2.0827, -2.16375, -0.128621, 1.38564e-06, 0.000384166, 0.000104961, -0.00358144, -0.00376894, 0.0031595
0.0201597, 1.69133, -1.2274, -1.53911, -0.900259, -1.19229, 1.22795, -1.30258, -0.0035768, 0.00561701, -0.00181423, 0.00561455, -0.00031659, -0.000593234, 0.00131215, 0.0949785, 61.9385, 30.9876, 7.06909, 2.84198, 4.04086, -0.291066, 0.000546631, -0.00186491, 0.00163276, 0.0021533, 0.00116484, 0.000558725, 0.00356056, 0.00384199, 0.00351932, 0.00149948, 0.00541288, -0.0108081, 0.471008, -0.543389, 0.335894, -2.08385, -2.16584, -0.129887, 0.469067, -0.542674, 0.334423, -2.0827, -2.16375, -0.128621, 1.24785e-06, 0.00044502, 0.000121252, -0.00358144, -0.00376894, 0.0031595
0.0211597, 1.69133, -1.2274, -1.53911, -0.900259, -1.19229, 1.22795, -1.30258, -0.0035768, 0.00561701, -0.00181423, 0.00561455, -0.00031659, -0.000593234, 0.00131215, 0.0949785, 61.9385, 30.9876, 7.06909, 2.84198, 4.04086, -0.291066, 0.000546347, -0.00186492, 0.00163279, 0.00215319, 0.0011647, 0.000558795, 0.00362742, 0.00384396, 0.00351216, 0.00150835, 0.00546167, -0.0108033, 0.471008, -0.543388, 0.335894, -2.08385, -2.16584, -0.129887, 0.469067, -0.542674, 0.334423, -2.0827, -2.16375, -0.128621, 1.08446e-06, 0.000510009, 0.000138634, -0.00358144, -0.00376894, 0.0031595
0.0221597, 1.69133, -1.2274, -1.53911, -0.900259, -1.19229, 1.22795, -1.30258, -0.0035768, 0.00561701, -0.00181423, 0.00561455, -0.00031659, -0.000593234, 0.00131215, 0.0949785, 61.9385, 30.9876, 7.06909, 2.84198, 4.04086, -0.291066, 0.000546, -0.00186493, 0.00163283, 0.00215305, 0.00116454, 0.00055888, 0.00369864, 0.00384605, 0.00350455, 0.00151784, 0.00551363, -0.0107981, 0.471008, -0.543388, 0.335894, -2.08385, -2.16584, -0.129887, 0.469067, -0.542674, 0.334423, -2.0827, -2.16375, -0.128621, 8.93621e-07, 0.000579243, 0.000157137, -0.00358144, -0.00376894, 0.0031595
0.0231597, 1.69128, -1.22738, -1.53915, -0.900261, -1.19229, 1.22795, -1.30257, -0.00895574, 6.07692e-05, -0.00028836, -0.0017042, -0.00015797, -0.000216187, 0.000697102, -0.242241, 61.9742, 31.0273, 7.14447, 2.83649, 4.03445, -0.291066, 0.000517913, -0.00189964, 0.00163124, 0.00217363, 0.00114405, 0.000628564, 0.00420283, 0.00477665, 7.53825e-05, 0.000160249, 0.000464542, -0.00819151, 0.471008, -0.543388, 0.335894, -2.08384, -2.16584, -0.129887, 0.469033, -0.542703, 0.334421, -2.08277, -2.16368, -0.128571, 6.73433e-07, 0.000652833, 0.000176787, -0.00461681, -0.00370336, -0.000257105
0.0241597, 1.69128, -1.22739, -1.53915, -0.900263, -1.19229, 1.22794, -1.30258, -0.00605445, -0.000842605, -0.00102696, -0.0043269, -0.00030876, -0.000381494, -0.000755969, -0.392998, 62.0139, 31.063, 7.14447, 2.84198, 4.04086, -0.258107, 0.000519553, -0.00189692, 0.00163556, 0.00218489, 0.0011438, 0.000620483, 0.00246934, 0.00272626, -0.00125621, -0.00246142, 3.13833e-05, -0.00196115, 0.471008, -0.543387, 0.335894, -2.08384, -2.16584, -0.129887, 0.469036, -0.5427, 0.334417, -2.08276, -2.16369, -0.128559, 4.21933e-07, 0.000730885, 0.000197611, -0.00267937, -0.00162512, -0.00134388
0.0251597, 1.69128, -1.22739, -1.53915, -0.900269, -1.1923, 1.22795, -1.30258, -0.00730562, -0.00388888, -0.00385038, -0.00404567, -0.00320232, 0.00133936, -0.00169077, -0.281914, 61.756, 30.8051, 7.18018, 2.79346, 3.99783, -0.226063, 0.000516173, -0.00189981, 0.00163532, 0.0021814, 0.00114076, 0.000621011, 0.00481697, 0.00394757, -0.00380038, -0.00469706, 0.000395875, -0.00477304, 0.471008, -0.543387, 0.335895, -2.08384, -2.16584, -0.129887, 0.469033, -0.542703, 0.334417, -2.08276, -2.16369, -0.12856, 1.37109e-07, 0.000813505, 0.000219637, -0.00390728, -0.00351853, -0.00416158
0.0261597, 1.69128, -1.22739, -1.53917, -0.900271, -1.1923, 1.22794, -1.30258, -0.00361032, -0.00536901, -0.0124935, -0.00117827, -0.00565597, -0.00186985, 0.00116817, -0.357292, 61.3116, 30.6544, 7.1048, 2.62134, 3.94839, -0.172963, 0.000514616, -0.00190089, 0.00164392, 0.00220417, 0.0011422, 0.000621481, 0.00620291, 0.00487743, -0.00782151, -0.015513, -0.000168283, -0.0114397, 0.471008, -0.543386, 0.335895, -2.08384, -2.16584, -0.129887, 0.469032, -0.542703, 0.334409, -2.08275, -2.16368, -0.128536, -1.83099e-07, 0.000900793, 0.00024289, -0.00493185, -0.00421861, -0.00829595
0.0271597, 1.69128, -1.2274, -1.53919, -0.900274, -1.19231, 1.22794, -1.30258, -0.00194902, -0.0101412, -0.0137428, -0.00231854, -0.00932839, -0.00428303, 0.000184514, -0.392998, 60.9824, 30.2814, 7.02942, 2.48584, 3.89071, -0.147328, 0.000509172, -0.00190251, 0.00165929, 0.00222612, 0.00114717, 0.000628552, 0.00640445, 0.00468301, -0.0115342, -0.0215999, -0.00280934, -0.00955392, 0.471008, -0.543385, 0.335895, -2.08384, -2.16584, -0.129887, 0.46903, -0.542705, 0.334393, -2.08274, -2.16366, -0.128516, -5.40806e-07, 0.000992849, 0.000267393, -0.00486485, -0.00374611, -0.0119746
0.0281597, 1.69128, -1.2274, -1.53922, -0.900275, -1.19232, 1.22794, -1.30258, -0.00241759, -0.00314049, -0.0170371, -0.000685296, -0.0114927, -0.00584658, -0.00154339, -0.357292, 60.4666, 29.9839, 6.84296, 2.33295, 3.82663, -0.0951428, 0.000498565, -0.0019118, 0.00167092, 0.00226362, 0.00113586, 0.000652567, 0.00748953, 0.00655095, -0.0084858, -0.0254, 0.00528917, -0.0121496, 0.471008, -0.543384, 0.335895, -2.08384, -2.16584, -0.129887, 0.469021, -0.542713, 0.33438, -2.08275, -2.16363, -0.12846, -9.38169e-07, 0.00108977, 0.000293171, -0.00658193, -0.00526605, -0.00905086
0.0291597, 1.69129, -1.22741, -1.53925, -0.900281, -1.19234, 1.22793, -1.30257, -6.07507e-05, -0.00131333, -0.0229288, -0.00245699, -0.0106879, -0.00815036, 0.000357649, -0.43267, 60.2087, 29.6863, 6.77154, 2.23407, 3.79001, -0.127186, 0.000490972, -0.00191511, 0.00169181, 0.00231611, 0.00112601, 0.000669407, 0.00667686, 0.0062385, -0.0100831, -0.0332217, 0.00599793, -0.0127627, 0.471008, -0.543383, 0.335895, -2.08384, -2.16584, -0.129887, 0.469017, -0.542717, 0.334359, -2.08274, -2.16359, -0.128391, -1.3774e-06, 0.00119164, 0.000320246, -0.00635705, -0.00410325, -0.0104842
0.0301597, 1.69129, -1.22742, -1.53929, -0.900284, -1.19238, 1.22793, -1.30257, -0.000199699, -0.00456975, -0.0273434, -0.00190374, -0.0163535, -0.00440172, 0.00208369, -0.43267, 60.0223, 29.3888, 6.62079, 2.17914, 3.73324, -0.172963, 0.000477605, -0.00192247, 0.00171166, 0.00236701, 0.00110636, 0.000697546, 0.00974638, 0.00711584, -0.0131604, -0.0364383, 0.00956089, -0.0190624, 0.471008, -0.543382, 0.335896, -2.08384, -2.16584, -0.129887, 0.469009, -0.542726, 0.334338, -2.08276, -2.16355, -0.128311, -1.86074e-06, 0.00129855, 0.00034864, -0.00723507, -0.00658891, -0.0139444
0.0311597, 1.6913, -1.22743, -1.53934, -0.900303, -1.19242, 1.22793, -1.30257, 0.00302245, -0.00558267, -0.0295741, -0.00777927, -0.0222693, -0.00551079, 0.000789429, -0.43267, 59.9152, 29.1666, 6.73187, 2.17273, 3.65451, -0.153737, 0.000466883, -0.00192664, 0.00173438, 0.00243649, 0.00107149, 0.00070785, 0.00830375, 0.00524427, -0.0156384, -0.0454717, 0.0136894, -0.012469, 0.471008, -0.543381, 0.335896, -2.08384, -2.16584, -0.129887, 0.469005, -0.542732, 0.334314, -2.08275, -2.16354, -0.128198, -2.39049e-06, 0.00141058, 0.000378373, -0.00550749, -0.00459467, -0.016194
0.0321597, 1.6913, -1.22745, -1.53938, -0.900313, -1.19246, 1.22793, -1.30256, 0.00262834, -0.0120437, -0.0291379, -0.00829893, -0.0306872, -0.00280184, 0.00159391, -0.317619, 60.062, 28.8691, 6.69617, 2.15442, 3.60415, -0.180287, 0.000448892, -0.00193656, 0.00176406, 0.00250227, 0.00105199, 0.000737643, 0.0109071, 0.0056132, -0.0191057, -0.0473694, 0.0155795, -0.0156868, 0.471008, -0.54338, 0.335896, -2.08384, -2.16584, -0.129887, 0.468994, -0.542745, 0.334282, -2.08275, -2.16349, -0.128102, -2.969e-06, 0.00152782, 0.000409465, -0.00590861, -0.00652894, -0.0199795
0.0331597, 1.69131, -1.22745, -1.53943, -0.900328, -1.19251, 1.22793, -1.30257, 0.00038662, -0.0118071, -0.0349547, -0.0103693, -0.0368672, -0.00129017, 0.000854554, -0.242241, 60.0223, 28.6826, 6.73187, 2.13611, 3.56845, -0.172963, 0.000433855, -0.00194432, 0.00178474, 0.00257176, 0.00100896, 0.000758823, 0.0139801, 0.00786355, -0.0210777, -0.0546199, 0.0222, -0.0202083, 0.471008, -0.543379, 0.335897, -2.08384, -2.16584, -0.129888, 0.468986, -0.542755, 0.33426, -2.08276, -2.16346, -0.12798, -3.59863e-06, 0.00165034, 0.000441934, -0.00811799, -0.00922876, -0.0223035
0.0341597, 1.69131, -1.22745, -1.53948, -0.900343, -1.19257, 1.22794, -1.30257, -0.000279249, -0.00762763, -0.0399832, -0.0110096, -0.0413199, -0.00114737, -0.00084095, -0.206535, 59.9509, 28.5319, 6.73187, 2.11139, 3.56112, -0.133595, 0.000417945, -0.00195343, 0.00180383, 0.0026485, 0.000957283, 0.000779653, 0.0157663, 0.00953727, -0.0204584, -0.0608009, 0.0305333, -0.0225853, 0.471008, -0.543377, 0.335897, -2.08384, -2.16584, -0.129888, 0.468977, -0.542767, 0.33424, -2.08277, -2.16344, -0.12784, -4.2818e-06, 0.00177822, 0.000475796, -0.00970401, -0.011028, -0.0218848
0.0351597, 1.69132, -1.22745, -1.53953, -0.900353, -1.19262, 1.22794, -1.30257, -0.000890519, -0.00699029, -0.0421308, -0.00964139, -0.049364, -0.00145508, -0.000525076, -0.166862, 59.9866, 28.4565, 6.65649, 2.09308, 3.56845, -0.133595, 0.000399956, -0.00196218, 0.00182536, 0.00272628, 0.000904268, 0.000811478, 0.0185257, 0.0115446, -0.0206624, -0.065879, 0.0377028, -0.0284289, 0.471008, -0.543375, 0.335898, -2.08384, -2.16584, -0.129888, 0.468968, -0.54278, 0.334216, -2.08278, -2.16341, -0.127697, -5.02096e-06, 0.00191151, 0.000511068, -0.0116182, -0.0136697, -0.0224188
0.0361597, 1.69133, -1.22744, -1.53958, -0.900361, -1.19268, 1.22793, -1.30257, 2.98536e-05, -0.00119379, -0.0434837, -0.0110592, -0.0498776, -0.00260665, -0.00151018, -0.0557783, 59.8041, 28.3851, 6.54541, 2.05005, 3.60415, -0.101552, 0.000382936, -0.00197293, 0.00183676, 0.00280246, 0.000838421, 0.000839755, 0.0175601, 0.0113284, -0.018095, -0.0686142, 0.0436715, -0.026213, 0.471008, -0.543374, 0.335898, -2.08383, -2.16584, -0.129888, 0.468958, -0.542794, 0.334203, -2.08281, -2.16339, -0.127543, -5.81861e-06, 0.00205028, 0.000547764, -0.0113449, -0.0129639, -0.0197036
0.0371597, 1.69133, -1.22742, -1.53963, -0.900375, -1.19274, 1.22793, -1.30257, 0.000878188, 0.00379919, -0.0440799, -0.0108328, -0.0546166, -0.00224466, 0.0032967, 0.059273, 59.5819, 28.3097, 6.5097, 1.99512, 3.61148, -0.101552, 0.000367815, -0.00198171, 0.00184605, 0.00287889, 0.000765975, 0.000865632, 0.0180316, 0.0115713, -0.015367, -0.070618, 0.0528662, -0.0323354, 0.471008, -0.543372, 0.335899, -2.08383, -2.16584, -0.129888, 0.468949, -0.542806, 0.334193, -2.08283, -2.16337, -0.127383, -6.67726e-06, 0.00219459, 0.000585897, -0.011473, -0.0137149, -0.0170377
0.0381597, 1.69134, -1.2274, -1.53968, -0.90039, -1.19281, 1.22793, -1.30256, 0.000693696, 0.0072783, -0.0463136, -0.0160689, -0.0536088, -0.00194443, 0.00450254, 0.21003, 59.3597, 28.3097, 6.43433, 1.94568, 3.6188, -0.153737, 0.000352434, -0.00199048, 0.00185493, 0.00295727, 0.00068942, 0.000899867, 0.0166865, 0.0107991, -0.0148187, -0.0739863, 0.0563669, -0.0299282, 0.471008, -0.54337, 0.335899, -2.08383, -2.16584, -0.129888, 0.468941, -0.542818, 0.334182, -2.08286, -2.16334, -0.127215, -7.59945e-06, 0.00234449, 0.000625478, -0.0107311, -0.0122899, -0.0162712
0.0391597, 1.69135, -1.22739, -1.53973, -0.900414, -1.19288, 1.22793, -1.30256, 0.00254131, 0.00934707, -0.0463498, -0.0173814, -0.0582631, -0.00166619, 0.00253467, 0.285408, 59.2883, 28.3851, 6.5097, 1.91546, 3.62521, -0.133595, 0.000340423, -0.00199443, 0.00187148, 0.00304632, 0.000616904, 0.000911746, 0.0164021, 0.00999194, -0.0138844, -0.0766595, 0.0626669, -0.0265881, 0.471008, -0.543367, 0.3359, -2.08383, -2.16584, -0.129888, 0.468936, -0.542825, 0.334165, -2.08286, -2.16334, -0.127042, -8.58778e-06, 0.00250002, 0.000666519, -0.00990235, -0.0119644, -0.0152878
0.0401597, 1.69136, -1.22738, -1.53977, -0.900431, -1.19295, 1.22793, -1.30256, 0.00247114, 0.00967472, -0.0452595, -0.0208171, -0.061363, -0.00148147, 0.00240763, 0.551216, 59.1415, 28.4208, 6.43433, 1.87244, 3.63254, -0.147328, 0.000322945, -0.0020037, 0.00188103, 0.00312107, 0.000538559, 0.000943353, 0.0159566, 0.00939861, -0.0137765, -0.0785601, 0.0659726, -0.0240282, 0.471008, -0.543365, 0.3359, -2.08383, -2.16584, -0.129889, 0.468927, -0.542839, 0.334154, -2.08289, -2.16332, -0.126876, -9.64483e-06, 0.00266124, 0.000709027, -0.00932289, -0.0113556, -0.0150875
0.0411597, 1.69136, -1.22737, -1.53982, -0.900447, -1.19302, 1.22793, -1.30255, 0.00294965, 0.00961633, -0.0420821, -0.0171971, -0.0647525, -0.00160473, 0.00223673, 0.813057, 59.1415, 28.4961, 6.35895, 1.85962, 3.64718, -0.160145, 0.000304671, -0.0020129, 0.00189647, 0.00320263, 0.000466292, 0.00097205, 0.0169919, 0.00978688, -0.0122333, -0.0758035, 0.0682476, -0.0261465, 0.471008, -0.543362, 0.335901, -2.08383, -2.16584, -0.129889, 0.468918, -0.542852, 0.334136, -2.08291, -2.1633, -0.12671, -1.07732e-05, 0.00282817, 0.000753011, -0.00961905, -0.0124642, -0.0136687
0.0421597, 1.69136, -1.22736, -1.53986, -0.900474, -1.1931, 1.22793, -1.30256, 0.00155214, 0.00927805, -0.0394023, -0.0203596, -0.0677436, -0.00244817, 0.0039381, 1.15424, 59.0305, 28.5715, 6.39465, 1.85962, 3.68289, -0.10796, 0.000286046, -0.00202501, 0.00190943, 0.00329187, 0.000384564, 0.000995711, 0.0168312, 0.0098831, -0.0119365, -0.076875, 0.0701347, -0.0261512, 0.471008, -0.54336, 0.335902, -2.08382, -2.16584, -0.129889, 0.468906, -0.542866, 0.334122, -2.08293, -2.16328, -0.126526, -1.19756e-05, 0.00300084, 0.000798475, -0.00971138, -0.0121824, -0.0133023
0.0431597, 1.69138, -1.22735, -1.5399, -0.900497, -1.19318, 1.22793, -1.30255, 0.00134679, 0.00815014, -0.0390172, -0.0231881, -0.0710361, 0.00164744, 0.0033062, 1.34071, 58.9551, 28.7183, 6.32324, 1.89075, 3.7186, -0.114369, 0.000270434, -0.00203083, 0.0019221, 0.00337904, 0.000298462, 0.00101603, 0.0173716, 0.00890541, -0.0125021, -0.0758925, 0.0740835, -0.024123, 0.471008, -0.543357, 0.335903, -2.08382, -2.16584, -0.129889, 0.468901, -0.542877, 0.334108, -2.08295, -2.16328, -0.12634, -1.32547e-05, 0.00317929, 0.000845424, -0.00873733, -0.0124105, -0.0139272
0.0441597, 1.69138, -1.22736, -1.53994, -0.90052, -1.19327, 1.22793, -1.30255, 0.0043558, 0.000387663, -0.0399983, -0.0221738, -0.0728631, 0.00118257, 0.000841289, 1.64619, 59.1772, 28.7937, 6.24786, 1.90906, 3.72592, -0.0685925, 0.000249963, -0.00204117, 0.00194474, 0.00346368, 0.000235074, 0.00103911, 0.0177694, 0.00777308, -0.0174866, -0.0786142, 0.0678198, -0.0204947, 0.471008, -0.543354, 0.335903, -2.08382, -2.16584, -0.129889, 0.46889, -0.542891, 0.334083, -2.08296, -2.16326, -0.12618, -1.46131e-05, 0.00336352, 0.000893861, -0.00777359, -0.0118053, -0.0188965
0.0451597, 1.69138, -1.22734, -1.53999, -0.90054, -1.19336, 1.22793, -1.30255, 0.00249377, 0.0047335, -0.044207, -0.0175543, -0.0792569, 0.000783765, 0.000810293, 1.87232, 58.9908, 29.0159, 6.13678, 1.93378, 3.73324, -0.0685925, 0.000231392, -0.00205095, 0.00195239, 0.00355154, 0.00013842, 0.00106668, 0.021851, 0.0114725, -0.0157349, -0.0827459, 0.0771374, -0.0305777, 0.471008, -0.54335, 0.335904, -2.08382, -2.16584, -0.12989, 0.468881, -0.542905, 0.334074, -2.08299, -2.16325, -0.125982, -1.60536e-05, 0.00355356, 0.000943786, -0.0112604, -0.0160657, -0.0176389
0.0461597, 1.69139, -1.22734, -1.54002, -0.900561, -1.19345, 1.22793, -1.30255, 0.00429841, 0.00147745, -0.0454927, -0.0170921, -0.0812953, 0.000722501, 0.00646267, 2.09846, 59.0662, 29.1666, 6.02173, 2.01984, 3.73324, -0.10796, 0.000209222, -0.00206025, 0.00196764, 0.00363806, 4.68235e-05, 0.00110267, 0.0223571, 0.0109785, -0.0181572, -0.0851777, 0.0757898, -0.0360735, 0.471008, -0.543347, 0.335905, -2.08381, -2.16583, -0.12989, 0.468872, -0.542922, 0.334057, -2.08302, -2.16323, -0.12579, -1.75788e-05, 0.0037494, 0.000995199, -0.010838, -0.0159765, -0.0200728
0.0471597, 1.6914, -1.22734, -1.54005, -0.900579, -1.19355, 1.22792, -1.30254, 0.0074019, -0.00414818, -0.0381821, -0.0121977, -0.085297, -0.000962035, 0.00456784, 2.24921, 59.2883, 29.238, 5.83527, 2.04364, 3.77627, -0.101552, 0.000191025, -0.00206594, 0.00198684, 0.00371991, -2.47341e-05, 0.00112505, 0.0222611, 0.00970206, -0.0185216, -0.0807116, 0.071977, -0.033102, 0.471008, -0.543343, 0.335906, -2.08381, -2.16583, -0.12989, 0.468866, -0.542933, 0.334036, -2.08304, -2.16321, -0.125625, -1.91915e-05, 0.00395105, 0.0010481, -0.00958142, -0.0155717, -0.0204033
0.0481597, 1.69142, -1.22734, -1.54009, -0.9006, -1.19365, 1.22792, -1.30254, 0.00804668, -0.00438806, -0.0370206, -0.0135402, -0.0886612, -0.00130875, 0.0038925, 2.32459, 59.3597, 29.3531, 5.72418, 2.08118, 3.79733, -0.114369, 0.000174374, -0.00206934, 0.00200209, 0.00380911, -0.000114967, 0.00114302, 0.0222012, 0.00927957, -0.0185189, -0.0822906, 0.0745404, -0.0311596, 0.471008, -0.543339, 0.335907, -2.08381, -2.16583, -0.129891, 0.468863, -0.542943, 0.33402, -2.08305, -2.16321, -0.125433, -2.08943e-05, 0.0041585, 0.00110247, -0.00916324, -0.0152882, -0.0203497
0.0491597, 1.69143, -1.22734, -1.54012, -0.900614, -1.19376, 1.22792, -1.30254, 0.00895705, -0.00322951, -0.0368821, -0.0157834, -0.100547, -0.00292436, 0.00239971, 2.51106, 59.5065, 29.4999, 5.53772, 2.11139, 3.85501, -0.101552, 0.000151024, -0.00207881, 0.00201694, 0.00389875, -0.000209223, 0.00117249, 0.0233979, 0.00990681, -0.0183025, -0.0901895, 0.0850042, -0.0307199, 0.471008, -0.543335, 0.335908, -2.08381, -2.16583, -0.129891, 0.468854, -0.54296, 0.334003, -2.08308, -2.16319, -0.125235, -2.269e-05, 0.00437173, 0.00115833, -0.00974085, -0.0163153, -0.020247
0.0501597, 1.69145, -1.22735, -1.54014, -0.90063, -1.19387, 1.22792, -1.30254, 0.00980326, -0.00706521, -0.034017, -0.0162894, -0.104053, -0.00293746, 0.000588669, 2.55073, 59.7287, 29.5395, 5.42664, 2.1297, 3.88339, -0.0685925, 0.000133966, -0.00207961, 0.00203378, 0.00398248, -0.000296989, 0.001182, 0.0235529, 0.00914692, -0.0196758, -0.0899884, 0.0840961, -0.0273333, 0.471008, -0.543331, 0.335909, -2.0838, -2.16583, -0.129891, 0.468853, -0.54297, 0.333985, -2.08309, -2.1632, -0.125053, -2.45814e-05, 0.00459073, 0.00121564, -0.0090279, -0.0160068, -0.0215928
0.0511597, 1.69147, -1.22735, -1.54017, -0.900648, -1.19399, 1.22791, -1.30254, 0.0108504, -0.00477722, -0.0337719, -0.0174973, -0.106538, -0.00299592, 0.00078698, 2.70148, 59.8755, 29.6506, 5.35126, 2.14801, 3.91269, -0.0750012, 0.000111239, -0.00208732, 0.00204804, 0.00407258, -0.000397104, 0.00121175, 0.0231826, 0.0085845, -0.0184903, -0.0914917, 0.0886758, -0.0261785, 0.471008, -0.543326, 0.335911, -2.0838, -2.16583, -0.129892, 0.468845, -0.542986, 0.333969, -2.08312, -2.16319, -0.124849, -2.6571e-05, 0.00481547, 0.00127442, -0.00843863, -0.015576, -0.0203229
0.0521597, 1.69148, -1.22736, -1.54019, -0.900668, -1.1941, 1.22791, -1.30254, 0.00941399, -0.00795882, -0.0269973, -0.0193189, -0.112149, -0.00219904, -0.000815528, 2.81654, 60.0977, 29.611, 5.31555, 2.14801, 3.9191, -0.0356336, 9.26353e-05, -0.00208951, 0.00206298, 0.00415219, -0.000488833, 0.00122203, 0.0235996, 0.00822196, -0.0180859, -0.0883618, 0.0903438, -0.0229389, 0.471008, -0.543321, 0.335912, -2.0838, -2.16583, -0.129892, 0.468843, -0.542998, 0.333952, -2.08313, -2.1632, -0.124667, -2.86617e-05, 0.00504591, 0.00133464, -0.00804915, -0.0158045, -0.0199391
0.0531597, 1.6915, -1.22736, -1.54022, -0.900683, -1.19423, 1.22791, -1.30254, 0.0105163, -0.00597488, -0.0266253, -0.01718, -0.117629, -0.00143933, 1.94438e-05, 2.96729, 60.2802, 29.7617, 5.27588, 2.16724, 3.9191, -0.0484509, 6.57476e-05, -0.00209862, 0.00207836, 0.00424452, -0.000597577, 0.00125589, 0.0248874, 0.00853662, -0.0165, -0.0888821, 0.0971878, -0.0262304, 0.471008, -0.543316, 0.335913, -2.08379, -2.16583, -0.129892, 0.468834, -0.543017, 0.333935, -2.08317, -2.16319, -0.124451, -3.0856e-05, 0.00528201, 0.00139628, -0.00826224, -0.0170968, -0.018502
0.0541597, 1.6915, -1.22736, -1.54022, -0.900683, -1.19423, 1.22791, -1.30254, 0.0105163, -0.00597488, -0.0266253, -0.01718, -0.117629, -0.00143933, 1.94438e-05, 2.96729, 60.2802, 29.7617, 5.27588, 2.16724, 3.9191, -0.0484509, 6.03175e-05, -0.00209876, 0.00207893, 0.00424232, -0.000600235, 0.00125718, 0.0251359, 0.00854231, -0.0165249, -0.0888454, 0.0973673, -0.0262125, 0.471008, -0.543311, 0.335915, -2.08379, -2.16583, -0.129893, 0.468834, -0.543017, 0.333935, -2.08317, -2.16319, -0.124451, -3.31567e-05, 0.00552372, 0.00145934, -0.00826224, -0.0170968, -0.018502
0.0551597, 1.69153, -1.22737, -1.54025, -0.900728, -1.1945, 1.22791, -1.30254, 0.0101231, -0.005505, -0.0196645, -0.0205035, -0.123269, -0.00106345, -0.000530379, 3.22913, 60.6134, 29.7617, 5.42664, 2.16083, 3.93374, -0.0228162, 2.0196e-05, -0.00210866, 0.00210454, 0.00442169, -0.000819253, 0.00129337, 0.0242448, 0.00737217, -0.0142045, -0.0864935, 0.102659, -0.0216683, 0.471008, -0.543305, 0.335916, -2.08378, -2.16583, -0.129893, 0.468825, -0.543048, 0.333905, -2.08322, -2.1632, -0.124027, -3.55665e-05, 0.00577098, 0.0015238, -0.00704406, -0.0162791, -0.0160432
0.0561597, 1.69154, -1.22738, -1.54027, -0.900748, -1.19464, 1.22791, -1.30254, 0.00878435, -0.00572695, -0.0203392, -0.023488, -0.129615, 0.00340367, 0.00520384, 3.34419, 60.7245, 29.8728, 5.50201, 2.14801, 3.94839, -0.0557752, -5.35908e-06, -0.00211575, 0.00211843, 0.00451702, -0.000936317, 0.00132277, 0.0260955, 0.0074766, -0.0145449, -0.0873427, 0.110312, -0.0285244, 0.471008, -0.5433, 0.335918, -2.08378, -2.16583, -0.129894, 0.468818, -0.543065, 0.333889, -2.08326, -2.1632, -0.1238, -3.8088e-05, 0.00602372, 0.00158964, -0.00709697, -0.0178053, -0.0165977
0.0571597, 1.69155, -1.22739, -1.54028, -0.900765, -1.19478, 1.22791, -1.30254, 0.0100903, -0.00944397, -0.0180586, -0.0192245, -0.133354, 0.00266456, 0.00480492, 3.49494, 60.9824, 29.8728, 5.57739, 2.10498, 3.94839, -0.0814099, -3.39479e-05, -0.0021237, 0.00213468, 0.00459827, -0.00104234, 0.00135485, 0.02758, 0.00778944, -0.015484, -0.0861828, 0.10902, -0.0306316, 0.471008, -0.543294, 0.335919, -2.08378, -2.16583, -0.129894, 0.468811, -0.543085, 0.33387, -2.0833, -2.16319, -0.123599, -4.07237e-05, 0.00628188, 0.00165682, -0.00739288, -0.0188808, -0.0176789
0.0581597, 1.69157, -1.2274, -1.5403, -0.900785, -1.19492, 1.22791, -1.30254, 0.0106826, -0.00942506, -0.014135, -0.0189678, -0.137041, 0.00102179, 0.00349297, 3.53065, 61.1292, 29.9085, 5.6488, 2.08118, 3.97677, -0.0814099, -5.85737e-05, -0.00212885, 0.00214653, 0.00468847, -0.00116085, 0.00137697, 0.0274056, 0.00754382, -0.0142417, -0.0858217, 0.111186, -0.0282901, 0.471008, -0.543287, 0.335921, -2.08377, -2.16582, -0.129894, 0.468806, -0.543102, 0.333857, -2.08333, -2.1632, -0.123377, -4.34763e-05, 0.00654537, 0.00172534, -0.00711167, -0.0186264, -0.0163641
0.0591597, 1.69159, -1.2274, -1.54031, -0.900798, -1.19507, 1.22791, -1.30254, 0.0126041, -0.00537711, -0.0153113, -0.0170061, -0.139534, -0.000418801, 0.00254592, 3.49494, 61.2402, 29.9839, 5.6488, 2.05646, 4.01248, -0.0814099, -8.4078e-05, -0.00213295, 0.00215947, 0.00478347, -0.00128356, 0.00140117, 0.0276202, 0.00773598, -0.0122531, -0.0882465, 0.116713, -0.0286225, 0.471008, -0.543281, 0.335923, -2.08377, -2.16582, -0.129895, 0.468802, -0.543119, 0.333842, -2.08336, -2.16321, -0.123146, -4.63483e-05, 0.0068141, 0.00179515, -0.0072269, -0.0188834, -0.0143583
0.0601597, 1.6916, -1.22741, -1.54032, -0.900809, -1.19522, 1.2279, -1.30254, 0.0134134, -0.00573884, -0.0121097, -0.0155964, -0.136906, -0.0022486, 0.000639529, 3.60603, 61.3513, 30.0236, 5.6488, 2.03174, 4.07016, -0.0484509, -0.00011409, -0.00214337, 0.00217196, 0.00487178, -0.00139753, 0.00143191, 0.0266185, 0.00706882, -0.0113639, -0.085255, 0.113191, -0.0247099, 0.471008, -0.543274, 0.335924, -2.08376, -2.16582, -0.129895, 0.468792, -0.54314, 0.333827, -2.0834, -2.1632, -0.12293, -4.93422e-05, 0.00708797, 0.00186624, -0.00656729, -0.0177303, -0.013274
0.0611597, 1.69162, -1.22742, -1.54034, -0.900824, -1.19538, 1.2279, -1.30254, 0.0174883, -0.00859673, -0.0114021, -0.0156023, -0.140352, -0.00269638, -0.00138421, 3.57032, 61.5695, 30.1346, 5.68848, 2.02533, 4.10586, 0.00373412, -0.00014201, -0.00214884, 0.00218883, 0.00497052, -0.00151772, 0.00145599, 0.0258511, 0.00507962, -0.0130685, -0.0874592, 0.113237, -0.0193914, 0.471007, -0.543267, 0.335926, -2.08376, -2.16582, -0.129896, 0.468787, -0.543158, 0.333808, -2.08343, -2.1632, -0.122696, -5.24605e-05, 0.00736687, 0.00193857, -0.00467286, -0.0163498, -0.0148257
0.0621597, 1.69165, -1.22743, -1.54035, -0.900836, -1.19553, 1.2279, -1.30254, 0.0194155, -0.00891488, -0.00981978, -0.0115338, -0.148111, -0.00197501, -0.000322521, 3.57032, 61.7163, 30.206, 5.68848, 2.02533, 4.11319, -0.00999879, -0.00017041, -0.00215378, 0.00220131, 0.00506038, -0.00164344, 0.00148241, 0.0278037, 0.00537125, -0.0121862, -0.0874109, 0.119451, -0.0239194, 0.471007, -0.543259, 0.335928, -2.08375, -2.16582, -0.129897, 0.468783, -0.543177, 0.333793, -2.08347, -2.16321, -0.122467, -5.57056e-05, 0.00765073, 0.00201212, -0.00486558, -0.0181414, -0.0141753
0.0631597, 1.69167, -1.22744, -1.54035, -0.900842, -1.19568, 1.2279, -1.30254, 0.0178769, -0.00751903, -0.00999375, -0.0138535, -0.143739, -0.00151756, -0.000146268, 3.57032, 61.7917, 30.206, 5.6488, 2.00702, 4.12051, -0.00999879, -0.000198667, -0.00215905, 0.00220938, 0.00513729, -0.00176376, 0.0015138, 0.0271844, 0.00520196, -0.0116561, -0.0858251, 0.11787, -0.0222077, 0.471007, -0.543252, 0.33593, -2.08374, -2.16582, -0.129897, 0.468778, -0.543196, 0.333783, -2.08351, -2.16321, -0.122257, -5.90798e-05, 0.00793954, 0.00208689, -0.00470287, -0.0173158, -0.0134863
0.0641597, 1.69168, -1.22745, -1.54037, -0.900853, -1.19584, 1.22789, -1.30254, 0.0158295, -0.00747054, -0.0139219, -0.013507, -0.14651, -0.000958924, 0.000666124, 3.60603, 61.9028, 30.3568, 5.6488, 2.03815, 4.12051, -0.0292249, -0.000230674, -0.00216817, 0.0022214, 0.00523171, -0.00189303, 0.00155202, 0.0299137, 0.00734293, -0.0128357, -0.089534, 0.120841, -0.028133, 0.471007, -0.543244, 0.335932, -2.08374, -2.16582, -0.129898, 0.46877, -0.543218, 0.333769, -2.08357, -2.16321, -0.122018, -6.25855e-05, 0.00823327, 0.00216285, -0.00678954, -0.0196224, -0.0149342
0.0651597, 1.69171, -1.22745, -1.54038, -0.900866, -1.19599, 1.22789, -1.30253, 0.0222094, -0.00654535, -0.0148977, -0.0141755, -0.147236, -0.000837053, 0.00170346, 3.57032, 61.9742, 30.4322, 5.68848, 2.02533, 4.12692, -0.0621838, -0.000256381, -0.00216929, 0.00223285, 0.00531685, -0.00201657, 0.00157603, 0.0274664, 0.00386522, -0.0130785, -0.0917915, 0.122977, -0.0229891, 0.471007, -0.543236, 0.335935, -2.08373, -2.16581, -0.129898, 0.468769, -0.543234, 0.333755, -2.0836, -2.16322, -0.121797, -6.6225e-05, 0.00853189, 0.00224002, -0.00341634, -0.0167279, -0.0148219
0.0661597, 1.69173, -1.22747, -1.54039, -0.900882, -1.19614, 1.22789, -1.30253, 0.0207529, -0.00864617, -0.0123802, -0.0155645, -0.147194, -0.00134215, 0.00163936, 3.53065, 62.1606, 30.5036, 5.76385, 1.99512, 4.14889, -0.0750012, -0.000281817, -0.00217027, 0.00224835, 0.00540438, -0.00213149, 0.00159508, 0.0276248, 0.00398342, -0.0136086, -0.0905673, 0.12074, -0.0218585, 0.471007, -0.543227, 0.335937, -2.08373, -2.16581, -0.129899, 0.468768, -0.543248, 0.333738, -2.08363, -2.16323, -0.121582, -7.00005e-05, 0.00883538, 0.00231837, -0.00355165, -0.016504, -0.0152881
0.0671597, 1.69175, -1.22746, -1.5404, -0.900888, -1.1963, 1.22789, -1.30254, 0.0198737, -0.00394156, -0.0115281, -0.0167613, -0.148277, -0.00114376, 0.000402579, 3.60603, 62.0853, 30.6186, 5.72418, 1.99512, 4.15622, -0.0557752, -0.000312634, -0.00217761, 0.00225144, 0.00548799, -0.00227059, 0.00162692, 0.0275962, 0.00423632, -0.0106661, -0.0901377, 0.126661, -0.0204649, 0.471007, -0.543218, 0.335939, -2.08372, -2.16581, -0.1299, 0.468762, -0.543269, 0.333733, -2.08368, -2.16324, -0.121345, -7.39143e-05, 0.00914373, 0.0023979, -0.00370273, -0.0166308, -0.0122911
0.0681597, 1.69178, -1.22747, -1.5404, -0.900893, -1.19645, 1.22789, -1.30254, 0.0221731, -0.0060169, -0.00719499, -0.0116813, -0.152706, -0.0015257, 1.34326e-05, 3.57032, 62.2321, 30.579, 5.68848, 1.96399, 4.17727, -0.0484509, -0.000340167, -0.00217994, 0.00225923, 0.00556475, -0.0023934, 0.00164995, 0.0285324, 0.0038528, -0.00982407, -0.0868109, 0.127613, -0.0215941, 0.471007, -0.543209, 0.335941, -2.08371, -2.16581, -0.1299, 0.46876, -0.543286, 0.333724, -2.08372, -2.16325, -0.121134, -7.79688e-05, 0.0094569, 0.0024786, -0.00325978, -0.0173558, -0.0115361
0.0691597, 1.6918, -1.22746, -1.5404, -0.900902, -1.19661, 1.22789, -1.30254, 0.024086, -0.00147225, -0.00688808, -0.0119122, -0.150423, -0.00073334, -0.000928245, 3.6457, 62.1249, 30.6544, 5.68848, 1.91546, 4.16995, -0.0228162, -0.000369112, -0.00218617, 0.00225986, 0.00564586, -0.00253207, 0.00167661, 0.0270862, 0.00235794, -0.0071338, -0.0847576, 0.130962, -0.0177163, 0.471007, -0.5432, 0.335944, -2.08371, -2.16581, -0.129901, 0.468755, -0.543306, 0.333721, -2.08377, -2.16327, -0.120901, -8.21662e-05, 0.00977487, 0.00256046, -0.00172548, -0.0159631, -0.0086185
0.0701597, 1.69183, -1.22747, -1.5404, -0.900904, -1.19676, 1.22789, -1.30254, 0.0273584, -0.00346213, -0.00567341, -0.0104429, -0.153836, -0.00102203, -0.000609654, 3.53065, 62.2321, 30.6901, 5.6131, 1.89075, 4.1846, -0.0228162, -0.000395514, -0.00218418, 0.00226807, 0.00572467, -0.00266143, 0.00169643, 0.0269801, 0.00104185, -0.00789066, -0.0854551, 0.131775, -0.0165852, 0.471007, -0.54319, 0.335947, -2.0837, -2.16581, -0.129902, 0.468758, -0.543321, 0.333712, -2.08381, -2.16329, -0.120682, -8.65087e-05, 0.0100976, 0.00264348, -0.000446587, -0.015365, -0.0093062
0.0711597, 1.69186, -1.22748, -1.54041, -0.90091, -1.19693, 1.22789, -1.30254, 0.0267508, -0.00488777, -0.00665814, -0.0102803, -0.152751, -0.000945577, -0.000399554, 3.53065, 62.3431, 30.8051, 5.57739, 1.87244, 4.19192, -0.0228162, -0.000427618, -0.00218845, 0.00227941, 0.00581352, -0.00279487, 0.00172698, 0.0277645, 0.00143828, -0.00904488, -0.0856382, 0.129778, -0.0175919, 0.471007, -0.54318, 0.335949, -2.08369, -2.1658, -0.129903, 0.468754, -0.543341, 0.333698, -2.08385, -2.16329, -0.120445, -9.09987e-05, 0.0104251, 0.00272764, -0.000860652, -0.0156504, -0.0104717
0.0721597, 1.69189, -1.22748, -1.54042, -0.900915, -1.19709, 1.22789, -1.30254, 0.0248743, -0.00417246, -0.00541243, -0.00695963, -0.156006, -0.000353833, -0.000261207, 3.45527, 62.3828, 30.8408, 5.53772, 1.84772, 4.1846, -0.0228162, -0.000455027, -0.00218763, 0.00228414, 0.00589344, -0.00293364, 0.00174827, 0.0303006, 0.0032937, -0.00759579, -0.0835708, 0.133262, -0.0229725, 0.471007, -0.543169, 0.335952, -2.08368, -2.1658, -0.129903, 0.468756, -0.543356, 0.333692, -2.0839, -2.16332, -0.120215, -9.56382e-05, 0.0107574, 0.00281294, -0.00257503, -0.0181209, -0.0092935
0.0731597, 1.69192, -1.22749, -1.54041, -0.900912, -1.19725, 1.22789, -1.30254, 0.0278503, -0.00620476, -0.00194889, -0.00281688, -0.158971, -0.00077446, 0.000779169, 3.45527, 62.5296, 30.7654, 5.42664, 1.82941, 4.19925, -0.0484509, -0.000485717, -0.00218921, 0.00229022, 0.00596648, -0.00306389, 0.00177879, 0.0305666, 0.00231716, -0.00720877, -0.0808945, 0.133221, -0.0239705, 0.471007, -0.543159, 0.335955, -2.08368, -2.1658, -0.129904, 0.468755, -0.543375, 0.333684, -2.08395, -2.16333, -0.119999, -0.00010043, 0.0110943, 0.00289937, -0.00158098, -0.0180661, -0.00889589
0.0741597, 1.69196, -1.22749, -1.54042, -0.90092, -1.19742, 1.22789, -1.30253, 0.028802, -0.00579902, -0.00397559, -0.00651993, -0.166746, 2.92005e-05, 0.00174305, 3.37989, 62.601, 30.8765, 5.46234, 1.84131, 4.1846, -0.0814099, -0.000513352, -0.00218665, 0.0022997, 0.00605435, -0.00320358, 0.00180058, 0.0314032, 0.00205722, -0.00819781, -0.0873945, 0.141142, -0.0243003, 0.471006, -0.543147, 0.335958, -2.08367, -2.1658, -0.129905, 0.468758, -0.54339, 0.333673, -2.08399, -2.16335, -0.119759, -0.000105375, 0.011436, 0.00298692, -0.00133213, -0.0183873, -0.00992287
0.0751597, 1.692, -1.22751, -1.54042, -0.900919, -1.19759, 1.22789, -1.30253, 0.0333715, -0.00822177, -0.00363683, -0.00421643, -0.168021, 2.16964e-05, 0.00116421, 3.26881, 62.7875, 30.9162, 5.42664, 1.84772, 4.1846, -0.0814099, -0.000542487, -0.0021845, 0.0023128, 0.00613983, -0.00333129, 0.00182177, 0.0308217, 5.33256e-05, -0.00945161, -0.0874559, 0.139952, -0.0214155, 0.471006, -0.543136, 0.335961, -2.08366, -2.1658, -0.129906, 0.46876, -0.543405, 0.333659, -2.08402, -2.16336, -0.119533, -0.000110477, 0.0117823, 0.00307558, 0.00059789, -0.0171916, -0.0110426
0.0761597, 1.69203, -1.22752, -1.54042, -0.900917, -1.19775, 1.22789, -1.30253, 0.0340479, -0.0160111, -0.00154034, -0.0024117, -0.16845, 0.00079603, 0.000777775, 3.26881, 62.97, 30.8765, 5.38696, 1.84131, 4.16354, -0.0814099, -0.000573656, -0.00218307, 0.00232185, 0.00621008, -0.00346073, 0.00184918, 0.0318725, -0.000521873, -0.01304, -0.0849968, 0.132915, -0.020892, 0.471006, -0.543124, 0.335964, -2.08365, -2.16579, -0.129907, 0.468763, -0.543422, 0.333648, -2.08407, -2.16338, -0.119322, -0.000115737, 0.0121332, 0.00316535, 0.00107481, -0.0173016, -0.0146769
0.0771597, 1.69207, -1.22753, -1.54042, -0.900923, -1.19792, 1.22789, -1.30253, 0.0346579, -0.00842013, -0.00198777, 0.00160309, -0.164403, 0.00134574, -0.000192335, 3.26881, 63.1168, 30.9162, 5.50201, 1.85321, 4.14157, -0.0621838, -0.000603005, -0.00217988, 0.00233257, 0.0062924, -0.00359742, 0.00186637, 0.0317974, -0.000300905, -0.00819336, -0.0805156, 0.137388, -0.0218256, 0.471006, -0.543112, 0.335967, -2.08364, -2.16579, -0.129908, 0.468766, -0.543437, 0.333636, -2.0841, -2.1634, -0.119091, -0.000121158, 0.0124888, 0.00325621, 0.00102156, -0.0176275, -0.00978223
0.0781597, 1.69212, -1.22753, -1.54043, -0.900912, -1.19808, 1.2279, -1.30253, 0.0402421, -0.00641333, -0.00302026, 0.00398745, -0.161259, 0.00144064, -0.00087329, 3.19343, 63.1564, 30.9876, 5.38696, 1.85962, 4.12692, -0.0420422, -0.000633287, -0.00217622, 0.00233906, 0.006369, -0.0037356, 0.00188971, 0.0298127, -0.0030518, -0.00736622, -0.07937, 0.137167, -0.0171766, 0.471006, -0.5431, 0.33597, -2.08363, -2.16579, -0.129909, 0.468771, -0.543454, 0.333628, -2.08415, -2.16342, -0.118864, -0.000126741, 0.012849, 0.00334816, 0.0037222, -0.0153225, -0.00864863
0.0791597, 1.69216, -1.22755, -1.54043, -0.900912, -1.19824, 1.2279, -1.30253, 0.042283, -0.00761314, -0.00203199, 0.00190088, -0.162906, 0.00146976, -0.000818863, 3.19343, 63.3032, 30.9876, 5.42664, 1.84772, 4.11319, -0.0356336, -0.000660816, -0.00217099, 0.00234937, 0.00644367, -0.00386092, 0.00190476, 0.0288999, -0.00467564, -0.00814426, -0.0805839, 0.137797, -0.013411, 0.471006, -0.543087, 0.335973, -2.08362, -2.16579, -0.129909, 0.468776, -0.543466, 0.333617, -2.08418, -2.16345, -0.118654, -0.00013249, 0.0132137, 0.00344119, 0.00527735, -0.0138702, -0.00923136
0.0801597, 1.6922, -1.22755, -1.54043, -0.900917, -1.19839, 1.2279, -1.30253, 0.0432794, -0.0066738, -0.00313176, -0.00120326, -0.160468, 0.00179417, -7.06742e-05, 3.22913, 63.3746, 31.063, 5.53772, 1.85962, 4.09122, -0.0484509, -0.00068758, -0.00216437, 0.00235728, 0.00651822, -0.00399495, 0.00191874, 0.0276108, -0.00604747, -0.00846839, -0.0816029, 0.137555, -0.010155, 0.471006, -0.543074, 0.335977, -2.08361, -2.16578, -0.12991, 0.468783, -0.543478, 0.333608, -2.08421, -2.16347, -0.118435, -0.000138406, 0.013583, 0.0035353, 0.00658359, -0.012122, -0.00929873
0.0811597, 1.69224, -1.22755, -1.54044, -0.900914, -1.19855, 1.2279, -1.30253, 0.0449493, -0.00523037, -0.00302625, 0.00241414, -0.157419, 0.000925242, 0.00117397, 3.22913, 63.4103, 31.1027, 5.53772, 1.84131, 4.09854, -0.0814099, -0.000714659, -0.00216009, 0.00236356, 0.0065948, -0.00412358, 0.00193963, 0.0274749, -0.00634742, -0.00727932, -0.0791982, 0.136074, -0.0118558, 0.471006, -0.54306, 0.33598, -2.0836, -2.16578, -0.129911, 0.468788, -0.54349, 0.333601, -2.08425, -2.16349, -0.118218, -0.00014449, 0.0139569, 0.00363046, 0.00691532, -0.0117848, -0.00801766
0.0821597, 1.69229, -1.22756, -1.54044, -0.900913, -1.1987, 1.2279, -1.30253, 0.0447839, -0.00520962, -0.00109728, 0.00194143, -0.155713, 0.000345858, 0.000545581, 3.15376, 63.4857, 31.063, 5.53772, 1.84772, 4.10586, -0.0750012, -0.000737897, -0.00214872, 0.00237156, 0.00666726, -0.00425189, 0.00194382, 0.0269965, -0.00678224, -0.00672608, -0.0773474, 0.134602, -0.00945572, 0.471006, -0.543046, 0.335984, -2.08359, -2.16578, -0.129913, 0.4688, -0.543497, 0.333593, -2.08427, -2.16353, -0.118008, -0.000150747, 0.0143352, 0.00372669, 0.00734625, -0.0110014, -0.0073142
0.0831597, 1.69234, -1.22757, -1.54044, -0.90091, -1.19885, 1.2279, -1.30253, 0.0461128, -0.00604113, -0.0025006, 0.00467229, -0.154366, 0.0010446, 0.000838657, 3.15376, 63.5968, 31.1384, 5.53772, 1.84131, 4.08389, -0.0878186, -0.000763473, -0.00213907, 0.00238198, 0.00674062, -0.00437662, 0.00195486, 0.0277835, -0.0069579, -0.00737666, -0.0762555, 0.133194, -0.0110027, 0.471005, -0.543032, 0.335988, -2.08358, -2.16578, -0.129914, 0.46881, -0.543506, 0.333582, -2.0843, -2.16356, -0.1178, -0.000157176, 0.014718, 0.00382396, 0.00751992, -0.0112879, -0.00798714
0.0841597, 1.69239, -1.22758, -1.54046, -0.900912, -1.199, 1.22791, -1.30253, 0.0453969, -0.00660308, -0.00426991, 0.00583507, -0.153538, 0.00120519, 8.45502e-05, 3.22913, 63.7079, 31.2494, 5.57739, 1.84131, 4.07016, -0.0750012, -0.000791479, -0.00213291, 0.00239399, 0.00681956, -0.00450147, 0.00197046, 0.0291149, -0.00610851, -0.00815411, -0.0765999, 0.132307, -0.0125027, 0.471005, -0.543017, 0.335992, -2.08357, -2.16577, -0.129915, 0.468817, -0.543517, 0.333569, -2.08432, -2.16358, -0.117586, -0.000163782, 0.0151053, 0.00392227, 0.0066846, -0.01213, -0.00883787
0.0851597, 1.69244, -1.22759, -1.54046, -0.900912, -1.19915, 1.22791, -1.30252, 0.0472488, -0.00996478, -0.00201468, 0.0044924, -0.153659, 0.00107485, 0.000293848, 3.19343, 63.819, 31.2137, 5.57739, 1.85962, 4.06283, -0.0814099, -0.000814729, -0.00212125, 0.0024026, 0.00688983, -0.00462437, 0.00197542, 0.0281541, -0.00786698, -0.00966281, -0.0759278, 0.129322, -0.00856739, 0.471005, -0.543002, 0.335996, -2.08356, -2.16577, -0.129916, 0.468829, -0.543523, 0.333561, -2.08434, -2.16361, -0.117384, -0.000170564, 0.0154971, 0.00402162, 0.00834489, -0.0104849, -0.0101324
0.0861597, 1.69249, -1.2276, -1.54046, -0.900912, -1.1993, 1.22791, -1.30253, 0.0488626, -0.00938447, -0.00310882, 0.0034467, -0.153805, 0.000716664, -0.00149943, 3.15376, 63.9261, 31.2891, 5.57739, 1.87793, 4.06283, -0.0356336, -0.000840416, -0.00211128, 0.00241521, 0.00696893, -0.00474751, 0.00197819, 0.0277002, -0.00871558, -0.0100015, -0.0778897, 0.130349, -0.00481913, 0.471005, -0.542986, 0.336, -2.08355, -2.16577, -0.129917, 0.468839, -0.54353, 0.333548, -2.08436, -2.16364, -0.117172, -0.000177527, 0.0158932, 0.00412199, 0.00915689, -0.00955355, -0.0103219
0.0871597, 1.69253, -1.2276, -1.54047, -0.900907, -1.19944, 1.22791, -1.30253, 0.0472536, -0.00559781, -0.00374484, 0.00356464, -0.14889, 0.00129165, -0.000999551, 3.22913, 63.8904, 31.3605, 5.53772, 1.89624, 4.04086, -0.0356336, -0.00087039, -0.00210636, 0.00242102, 0.00704003, -0.00487847, 0.00199742, 0.0277263, -0.00825808, -0.00788737, -0.0749602, 0.130654, -0.00571877, 0.471005, -0.542971, 0.336004, -2.08354, -2.16576, -0.129918, 0.468844, -0.543543, 0.333542, -2.08439, -2.16367, -0.116959, -0.000184671, 0.0162937, 0.00422337, 0.00877049, -0.00952318, -0.00812346
0.0881597, 1.69258, -1.22761, -1.54048, -0.900906, -1.19959, 1.22791, -1.30252, 0.0489308, -0.0113928, -0.00342596, 0.00263054, -0.149901, 0.00164105, 0.00493551, 3.19343, 64.0768, 31.4002, 5.53772, 1.92737, 4.0198, -0.0685925, -0.000896827, -0.00209561, 0.0024359, 0.00711417, -0.00499452, 0.00200776, 0.0278319, -0.0095153, -0.0114061, -0.0759521, 0.126325, -0.0092094, 0.471005, -0.542954, 0.336008, -2.08353, -2.16576, -0.129919, 0.468855, -0.54355, 0.333527, -2.08441, -2.16369, -0.116759, -0.000192, 0.0166987, 0.00432576, 0.0098949, -0.0086285, -0.0115502
0.0891597, 1.69263, -1.22761, -1.54048, -0.900906, -1.19973, 1.22791, -1.30252, 0.0501684, -0.01099, -0.00228502, 0.00194428, -0.146165, 0.000822803, 0.00463882, 3.15376, 64.0768, 31.4002, 5.53772, 1.95209, 4.02713, -0.0951428, -0.000920573, -0.00208351, 0.00244421, 0.00718744, -0.00511936, 0.00201644, 0.0264019, -0.0108258, -0.0110377, -0.0743286, 0.123592, -0.00527401, 0.471004, -0.542938, 0.336012, -2.08351, -2.16576, -0.129921, 0.468868, -0.543555, 0.333519, -2.08443, -2.16372, -0.116552, -0.000199514, 0.0171079, 0.00442916, 0.0111583, -0.0068103, -0.0109007
0.0901597, 1.69269, -1.22762, -1.5405, -0.900906, -1.19988, 1.22791, -1.30252, 0.0527235, -0.0126914, -0.00412258, 0.000511111, -0.148185, 0.000819832, 0.00285777, 3.04267, 64.1483, 31.5113, 5.57739, 1.9823, 4.0198, -0.0814099, -0.000946758, -0.00207141, 0.00245921, 0.00727262, -0.00524572, 0.00202125, 0.0262081, -0.0120537, -0.0130528, -0.0780218, 0.124187, -0.00119904, 0.471004, -0.54292, 0.336017, -2.0835, -2.16575, -0.129922, 0.46888, -0.543561, 0.333504, -2.08445, -2.16375, -0.11633, -0.000207216, 0.0175215, 0.00453354, 0.0122968, -0.00584418, -0.0127934
0.0911597, 1.69274, -1.22763, -1.5405, -0.900904, -1.20002, 1.22792, -1.30252, 0.0525617, -0.00995411, -0.00498145, 0.00349487, -0.148644, 0.000546577, 0.00187321, 3.003, 64.184, 31.4716, 5.57739, 1.97681, 4.0198, -0.0750012, -0.000972411, -0.00205975, 0.00246633, 0.0073384, -0.00536968, 0.00202621, 0.027577, -0.0109845, -0.0113805, -0.0774832, 0.127244, -0.0035824, 0.471004, -0.542903, 0.336021, -2.08349, -2.16575, -0.129923, 0.468892, -0.543567, 0.333497, -2.08447, -2.16378, -0.116132, -0.000215108, 0.0179394, 0.00463891, 0.0113309, -0.00707918, -0.0112176
0.0921597, 1.6928, -1.22763, -1.54051, -0.900905, -1.20017, 1.22792, -1.30252, 0.0502272, -0.00889275, -0.0045128, 0.00182901, -0.144725, 0.000364402, 0.0004195, 2.92762, 64.2593, 31.5113, 5.6131, 1.98871, 4.0198, -0.0484509, -0.000998233, -0.00204699, 0.00247957, 0.00741863, -0.00549519, 0.00202621, 0.0275622, -0.010513, -0.0107558, -0.0756723, 0.125347, -0.00142957, 0.471004, -0.542885, 0.336026, -2.08348, -2.16575, -0.129924, 0.468905, -0.543572, 0.333484, -2.08447, -2.16382, -0.115917, -0.000223192, 0.0183616, 0.00474526, 0.0108741, -0.00675779, -0.0104781
0.0931597, 1.69285, -1.22764, -1.54053, -0.900903, -1.20032, 1.22792, -1.30252, 0.0483118, -0.00806182, -0.00814259, 0.00147007, -0.142119, 0.00466681, -0.000554239, 2.85224, 64.3347, 31.5867, 5.6131, 2.00061, 4.02713, -0.0228162, -0.00102837, -0.00203856, 0.00249506, 0.00750327, -0.00561849, 0.00203642, 0.0293505, -0.00993549, -0.0111636, -0.073631, 0.126686, -0.00286352, 0.471003, -0.542867, 0.336031, -2.08346, -2.16574, -0.129926, 0.468914, -0.543581, 0.333469, -2.08449, -2.16384, -0.115698, -0.00023147, 0.0187881, 0.00485258, 0.0103384, -0.00805736, -0.0110342
0.0941597, 1.6929, -1.22765, -1.54054, -0.900905, -1.20046, 1.22792, -1.30252, 0.0511391, -0.00565211, -0.00888943, -0.00143035, -0.144094, 0.00377374, 0.000937858, 2.73719, 64.3347, 31.5867, 5.72418, 1.99512, 4.0198, -0.0557752, -0.00105267, -0.00202323, 0.00250545, 0.0075785, -0.00574735, 0.0020383, 0.0279085, -0.0116061, -0.0106675, -0.0774905, 0.130993, -5.889e-05, 0.471003, -0.542848, 0.336035, -2.08345, -2.16574, -0.129927, 0.468929, -0.543584, 0.333459, -2.0845, -2.16388, -0.115485, -0.000239944, 0.0192188, 0.00496086, 0.0119647, -0.00621078, -0.0102629
0.0951597, 1.69296, -1.22765, -1.54057, -0.900907, -1.2006, 1.22792, -1.30252, 0.0520658, -0.00397625, -0.00816035, 0.000571133, -0.140388, 0.00253801, -0.000530479, 2.66181, 64.3347, 31.6581, 5.79956, 1.9823, 4.02713, -0.0228162, -0.00108017, -0.00201166, 0.0025197, 0.00766486, -0.00587417, 0.00204055, 0.0273671, -0.0119639, -0.00934487, -0.0751768, 0.129135, 0.00215023, 0.471003, -0.542829, 0.33604, -2.08343, -2.16574, -0.129929, 0.468941, -0.543589, 0.333446, -2.08451, -2.16391, -0.115262, -0.000248615, 0.0196537, 0.00507009, 0.012342, -0.0054305, -0.00877478
0.0961597, 1.69302, -1.22765, -1.54058, -0.900903, -1.20074, 1.22792, -1.30252, 0.0568025, -0.00364218, -0.0098416, 0.00470312, -0.137975, 0.00218337, 0.000407164, 2.55073, 64.3704, 31.6977, 5.76385, 1.9704, 4.0198, -0.0420422, -0.00110807, -0.00199945, 0.00253302, 0.00774241, -0.00599587, 0.00205236, 0.0267435, -0.0135983, -0.00949129, -0.0744927, 0.127545, 0.00229563, 0.471003, -0.542809, 0.336045, -2.08342, -2.16573, -0.12993, 0.468954, -0.543594, 0.333433, -2.08453, -2.16394, -0.115053, -0.000257487, 0.0200928, 0.00518027, 0.0139378, -0.00428584, -0.00876215
0.0971597, 1.69308, -1.22767, -1.5406, -0.900911, -1.20088, 1.22792, -1.30252, 0.0571461, -0.00514367, -0.0103128, 0.00340564, -0.140869, 0.00162064, 0.00105398, 2.43568, 64.4815, 31.6977, 5.91064, 1.95758, 4.0198, -0.0621838, -0.00113232, -0.00198425, 0.00255103, 0.0078294, -0.00611314, 0.00205018, 0.0274135, -0.0135902, -0.0108194, -0.0774496, 0.128633, 0.00199662, 0.471002, -0.542789, 0.336051, -2.08341, -2.16573, -0.129932, 0.468969, -0.543595, 0.333416, -2.08452, -2.16397, -0.114839, -0.000266561, 0.0205361, 0.00529139, 0.0138963, -0.0042992, -0.0100667
0.0981597, 1.69314, -1.22766, -1.54061, -0.900906, -1.20103, 1.22792, -1.30252, 0.0593465, -0.00401096, -0.00993245, 0.00293638, -0.142788, 0.000932962, 0.000730071, 2.24921, 64.3704, 31.6581, 5.91064, 1.93927, 4.02713, -0.0621838, -0.00115696, -0.00196795, 0.0025572, 0.00790379, -0.00624731, 0.00205029, 0.026881, -0.0146308, -0.0102903, -0.0789827, 0.131417, 0.00445204, 0.471002, -0.542768, 0.336056, -2.08339, -2.16572, -0.129933, 0.468985, -0.543597, 0.333411, -2.08454, -2.16401, -0.114622, -0.000275838, 0.0209836, 0.00540343, 0.0149265, -0.00336471, -0.00938135
0.0991597, 1.69319, -1.22767, -1.54063, -0.900915, -1.20117, 1.22792, -1.30251, 0.0582205, -0.00466798, -0.0114812, -0.00106942, -0.144985, 0.000714825, 0.000744635, 2.17384, 64.4418, 31.6977, 6.0614, 1.93927, 4.02713, -0.0685925, -0.00118448, -0.00195576, 0.00257546, 0.00799386, -0.00636769, 0.0020515, 0.0274529, -0.0143392, -0.0117707, -0.0832413, 0.133213, 0.00541142, 0.471002, -0.542747, 0.336061, -2.08338, -2.16572, -0.129935, 0.468998, -0.5436, 0.333394, -2.08454, -2.16404, -0.114401, -0.000285321, 0.0214351, 0.00551641, 0.0145924, -0.00326115, -0.0108106
0.10016, 1.69325, -1.22767, -1.54065, -0.900917, -1.20131, 1.22792, -1.30252, 0.0595987, -0.00168423, -0.0107525, -0.00210159, -0.145671, 3.75614e-05, -0.000708859, 2.13416, 64.3704, 31.6581, 6.13678, 1.92096, 4.04086, -0.0356336, -0.00121231, -0.00194322, 0.00258748, 0.0080798, -0.00649835, 0.00205075, 0.0266396, -0.0152133, -0.0100644, -0.0838692, 0.136836, 0.00921758, 0.471002, -0.542726, 0.336067, -2.08336, -2.16572, -0.129936, 0.46901, -0.543603, 0.333383, -2.08454, -2.16407, -0.114175, -0.000295012, 0.0218908, 0.00563029, 0.0154886, -0.00222955, -0.00891234
0.10116, 1.69331, -1.22767, -1.54068, -0.900917, -1.20145, 1.22792, -1.30252, 0.0635778, -0.00446409, -0.0161771, -0.00195533, -0.147209, 0.000314628, -0.00168171, 1.98341, 64.3704, 31.7335, 6.17248, 1.92096, 4.03445, -0.00267457, -0.00124044, -0.0019287, 0.00260245, 0.00816748, -0.00662743, 0.00204978, 0.0271078, -0.0163775, -0.0138172, -0.0897874, 0.13628, 0.0109827, 0.471001, -0.542704, 0.336072, -2.08334, -2.16571, -0.129938, 0.469025, -0.543606, 0.333369, -2.08454, -2.16411, -0.113948, -0.000304912, 0.0223506, 0.00574509, 0.0165217, -0.00160499, -0.0126115
0.10216, 1.69337, -1.22767, -1.5407, -0.900926, -1.2016, 1.22792, -1.30252, 0.0653854, -0.00254062, -0.0151724, -0.00461931, -0.148716, 0.000520191, -0.000129121, 1.87232, 64.3347, 31.7335, 6.32324, 1.93378, 4.02713, -0.0292249, -0.00126803, -0.00191397, 0.00261647, 0.00825857, -0.00676413, 0.00205062, 0.0259251, -0.0179963, -0.0128075, -0.0907015, 0.140121, 0.0135238, 0.471001, -0.542682, 0.336078, -2.08333, -2.16571, -0.12994, 0.46904, -0.543608, 0.333356, -2.08455, -2.16414, -0.11371, -0.000315023, 0.0228145, 0.00586078, 0.0181225, -6.24998e-05, -0.0113646
0.10316, 1.69344, -1.22767, -1.54072, -0.900931, -1.20175, 1.22792, -1.30252, 0.0604794, -0.00340706, -0.0135113, -0.00459195, -0.149353, 0.000104905, -0.000554293, 1.75727, 64.2593, 31.6977, 6.39465, 1.93378, 4.03445, -0.0164075, -0.00129659, -0.00189894, 0.00262836, 0.00834613, -0.00690425, 0.00204955, 0.0284074, -0.0153892, -0.0125408, -0.0891294, 0.139638, 0.0097128, 0.471001, -0.542659, 0.336084, -2.08331, -2.1657, -0.129941, 0.469055, -0.543611, 0.333345, -2.08455, -2.16419, -0.113473, -0.000325348, 0.0232823, 0.00597737, 0.0156074, -0.00219313, -0.011292
0.10416, 1.69349, -1.22767, -1.54075, -0.900941, -1.20189, 1.22792, -1.30252, 0.0628599, -0.00276098, -0.0182079, -0.00563403, -0.14552, -0.000145389, 0.000822146, 1.64619, 64.2593, 31.7731, 6.5097, 1.94568, 4.04086, -0.0484509, -0.00132604, -0.00188501, 0.00264741, 0.00844342, -0.00703547, 0.00205313, 0.0276586, -0.0164981, -0.0141565, -0.0923799, 0.137856, 0.010661, 0.471, -0.542636, 0.33609, -2.08329, -2.1657, -0.129943, 0.469069, -0.543614, 0.333327, -2.08456, -2.16421, -0.113233, -0.000335889, 0.0237543, 0.00609484, 0.0166185, -0.000686796, -0.0126875
0.10516, 1.69356, -1.22767, -1.54077, -0.900948, -1.20203, 1.22792, -1.30252, 0.06447, -0.000444614, -0.0197498, -0.00450234, -0.141818, 0.000156959, 0.00106038, 1.53114, 64.184, 31.7731, 6.54541, 1.94568, 4.03445, -0.0621838, -0.0013531, -0.00186958, 0.00266086, 0.00853356, -0.00716768, 0.00205097, 0.0271711, -0.0173025, -0.0132838, -0.0911638, 0.137688, 0.0115093, 0.471, -0.542612, 0.336096, -2.08328, -2.16569, -0.129945, 0.469085, -0.543614, 0.333315, -2.08456, -2.16425, -0.113001, -0.000346646, 0.0242302, 0.00621319, 0.0174254, 0.000169181, -0.0116565
0.10616, 1.69361, -1.22768, -1.54079, -0.900961, -1.20217, 1.22791, -1.30252, 0.0602647, -0.00317027, -0.019178, -0.00646137, -0.144712, -0.000391593, -3.63185e-05, 1.53114, 64.295, 31.6977, 6.69617, 1.96399, 4.04819, -0.0420422, -0.00138343, -0.00185698, 0.00268052, 0.00862499, -0.00729012, 0.0020477, 0.0295995, -0.0150959, -0.0148169, -0.0929168, 0.137417, 0.00957004, 0.471, -0.542588, 0.336102, -2.08326, -2.16569, -0.129946, 0.469097, -0.543616, 0.333297, -2.08455, -2.16428, -0.112777, -0.000357622, 0.0247101, 0.00633241, 0.0152421, -0.00160207, -0.0133622
0.10716, 1.69368, -1.22768, -1.54081, -0.900971, -1.20231, 1.22792, -1.30252, 0.0616082, -0.000649626, -0.0180875, -0.00685603, -0.136642, 0.000528127, -0.000259513, 1.34071, 64.2236, 31.5867, 6.80725, 1.95758, 4.02713, -0.0356336, -0.00140636, -0.00183478, 0.00269321, 0.00871042, -0.00742443, 0.0020339, 0.0274213, -0.017163, -0.0130487, -0.0874866, 0.134138, 0.0146729, 0.470999, -0.542563, 0.336109, -2.08324, -2.16568, -0.129948, 0.469119, -0.543611, 0.333287, -2.08454, -2.16434, -0.112549, -0.000368819, 0.025194, 0.00645249, 0.0172814, 0.000844614, -0.0112207
0.10816, 1.69374, -1.22767, -1.54085, -0.900982, -1.20245, 1.22792, -1.30252, 0.0567839, 0.00117524, -0.0242035, -0.00713164, -0.134707, 8.77889e-05, -0.0011209, 1.26533, 64.1483, 31.6224, 6.91833, 1.93927, 4.03445, -0.00999879, -0.00143552, -0.00181972, 0.0027093, 0.0088092, -0.00756144, 0.00202977, 0.0306519, -0.0135268, -0.013999, -0.0914753, 0.134765, 0.00873171, 0.470999, -0.542538, 0.336115, -2.08322, -2.16568, -0.12995, 0.469134, -0.543612, 0.333272, -2.08453, -2.16437, -0.112303, -0.000380238, 0.0256818, 0.00657343, 0.01372, -0.00185937, -0.0124306
0.10916, 1.6938, -1.22767, -1.54087, -0.90099, -1.20258, 1.22792, -1.30252, 0.0571567, 0.000667309, -0.0249758, -0.00875634, -0.133115, 6.37547e-05, -0.000746109, 1.15424, 64.1483, 31.5113, 6.95801, 1.90906, 4.03445, -0.00999879, -0.00146343, -0.00180304, 0.00272359, 0.0088926, -0.00768791, 0.00202383, 0.0304007, -0.0141435, -0.0148603, -0.0922017, 0.133518, 0.0103627, 0.470999, -0.542512, 0.336122, -2.0832, -2.16567, -0.129952, 0.469151, -0.54361, 0.33326, -2.08453, -2.16441, -0.112085, -0.000391882, 0.0261735, 0.00669522, 0.0142838, -0.000961026, -0.0131394
0.11016, 1.69386, -1.22766, -1.54091, -0.901004, -1.20271, 1.22791, -1.30251, 0.0572049, 0.00379141, -0.0269975, -0.0117864, -0.131902, -0.000190934, 0.000452898, 1.03919, 64.0015, 31.5867, 7.06909, 1.87793, 4.04086, -0.0356336, -0.00149246, -0.00178835, 0.00273903, 0.00899028, -0.00782252, 0.00202324, 0.0298542, -0.0145195, -0.0142183, -0.0946941, 0.13629, 0.0112774, 0.470998, -0.542486, 0.336128, -2.08318, -2.16567, -0.129954, 0.469166, -0.54361, 0.333246, -2.08452, -2.16445, -0.111842, -0.000403753, 0.0266691, 0.00681784, 0.0146512, -9.12911e-06, -0.0123098
0.11116, 1.69393, -1.22767, -1.54092, -0.901013, -1.20285, 1.22792, -1.30251, 0.06108, 0.00162703, -0.0221425, -0.0100583, -0.126971, 0.000113011, 0.000539942, 0.888436, 64.0372, 31.4002, 7.14447, 1.86603, 4.03445, -0.0420422, -0.00151886, -0.00176851, 0.00275364, 0.00906933, -0.00794653, 0.00201109, 0.0274084, -0.01782, -0.0137697, -0.0877449, 0.130274, 0.0175569, 0.470998, -0.542459, 0.336135, -2.08317, -2.16566, -0.129956, 0.469186, -0.543606, 0.333234, -2.08451, -2.16449, -0.111631, -0.000415851, 0.0271686, 0.0069413, 0.0178637, 0.00297175, -0.0114638
0.11216, 1.69399, -1.22767, -1.54095, -0.901022, -1.20298, 1.22792, -1.30251, 0.0635716, 0.00187089, -0.0233179, -0.0128113, -0.128258, 0.000348814, 0.000869076, 0.777352, 64.0015, 31.4002, 7.25555, 1.85962, 4.02713, -0.0557752, -0.0015499, -0.00175346, 0.0027692, 0.009158, -0.00807731, 0.00200728, 0.0265053, -0.0195183, -0.0145683, -0.0907224, 0.132476, 0.0211475, 0.470997, -0.542432, 0.336142, -2.08315, -2.16566, -0.129958, 0.469201, -0.543607, 0.33322, -2.08451, -2.16453, -0.111403, -0.000428179, 0.027672, 0.00706559, 0.0194858, 0.00456025, -0.0120397
0.11316, 1.69405, -1.22766, -1.54097, -0.901027, -1.20311, 1.22792, -1.30251, 0.0623044, 0.00380895, -0.0222144, -0.00905189, -0.124306, 0.000505464, 0.000308483, 0.6623, 63.8904, 31.3248, 7.25555, 1.85321, 4.0198, -0.0484509, -0.00157944, -0.00173715, 0.00277787, 0.00923767, -0.00821258, 0.00200503, 0.0275246, -0.0185942, -0.0124854, -0.0855516, 0.131159, 0.0190024, 0.470997, -0.542404, 0.336149, -2.08313, -2.16565, -0.12996, 0.469217, -0.543606, 0.333214, -2.08451, -2.16457, -0.111179, -0.000440739, 0.0281791, 0.00719069, 0.018663, 0.00370193, -0.00998914
0.11416, 1.69411, -1.22766, -1.541, -0.901038, -1.20324, 1.22792, -1.30251, 0.0621282, 0.00251173, -0.0191903, -0.0113954, -0.125458, 0.000609484, -0.000268788, 0.511544, 63.8904, 31.2891, 7.33093, 1.82941, 4.01248, -0.0356336, -0.00160765, -0.00171854, 0.00279514, 0.00932069, -0.00833248, 0.00199345, 0.0271649, -0.0194655, -0.0125254, -0.0844389, 0.131245, 0.0225887, 0.470997, -0.542376, 0.336156, -2.08311, -2.16564, -0.129962, 0.469236, -0.543602, 0.333199, -2.08449, -2.16462, -0.110969, -0.000453532, 0.0286901, 0.0073166, 0.019506, 0.00461053, -0.00987389
0.11516, 1.69417, -1.22765, -1.54102, -0.901045, -1.20336, 1.22792, -1.30251, 0.0609047, 0.00332425, -0.0169173, -0.00898747, -0.128105, 0.000678521, 0.00406183, 0.400459, 63.819, 31.2494, 7.36664, 1.84772, 4.00516, -0.0356336, -0.00163641, -0.00170004, 0.00280676, 0.00939859, -0.00846066, 0.00198493, 0.0289304, -0.0183358, -0.0108731, -0.0821069, 0.134247, 0.0151582, 0.470996, -0.542347, 0.336164, -2.08308, -2.16564, -0.129964, 0.469255, -0.543599, 0.33319, -2.08449, -2.16466, -0.110755, -0.00046656, 0.0292049, 0.00744332, 0.0184887, 0.00308122, -0.00835678
0.11616, 1.69417, -1.22765, -1.54102, -0.901045, -1.20336, 1.22792, -1.30251, 0.0609047, 0.00332425, -0.0169173, -0.00898747, -0.128105, 0.000678521, 0.00406183, 0.400459, 63.819, 31.2494, 7.36664, 1.84772, 4.00516, -0.0356336, -0.00166645, -0.00170052, 0.00280958, 0.00938634, -0.00847548, 0.00199172, 0.0294629, -0.0183315, -0.0109178, -0.0820106, 0.134623, 0.0151957, 0.470996, -0.542318, 0.336171, -2.08306, -2.16563, -0.129966, 0.469255, -0.543599, 0.33319, -2.08449, -2.16466, -0.110755, -0.000479825, 0.0297235, 0.00757084, 0.0184887, 0.00308122, -0.00835678
0.11716, 1.69417, -1.22765, -1.54102, -0.901045, -1.20336, 1.22792, -1.30251, 0.0609047, 0.00332425, -0.0169173, -0.00898747, -0.128105, 0.000678521, 0.00406183, 0.400459, 63.819, 31.2494, 7.36664, 1.84772, 4.00516, -0.0356336, -0.00169701, -0.00170102, 0.00281245, 0.00937388, -0.00849057, 0.00199863, 0.0299992, -0.0183273, -0.0109626, -0.0819133, 0.135002, 0.0152335, 0.470995, -0.542288, 0.336179, -2.08304, -2.16563, -0.129968, 0.469255, -0.543599, 0.33319, -2.08449, -2.16466, -0.110755, -0.000493328, 0.0302458, 0.00769914, 0.0184887, 0.00308122, -0.00835678
0.11816, 1.69417, -1.22765, -1.54102, -0.901045, -1.20336, 1.22792, -1.30251, 0.0609047, 0.00332425, -0.0169173, -0.00898747, -0.128105, 0.000678521, 0.00406183, 0.400459, 63.819, 31.2494, 7.36664, 1.84772, 4.00516, -0.0356336, -0.00172812, -0.00170151, 0.00281535, 0.00936119, -0.00850592, 0.00200565, 0.0305394, -0.0183232, -0.0110076, -0.0818149, 0.135382, 0.0152716, 0.470995, -0.542258, 0.336186, -2.08302, -2.16562, -0.129971, 0.469255, -0.543599, 0.33319, -2.08449, -2.16466, -0.110755, -0.000507072, 0.0307718, 0.00782823, 0.0184887, 0.00308122, -0.00835678
0.11916, 1.69442, -1.22766, -1.5411, -0.901071, -1.20388, 1.22792, -1.30252, 0.0609482, -0.000324436, -0.0197342, -0.00578342, -0.138458, 0.000338475, -0.00686464, -0.166862, 63.8904, 31.1741, 7.51739, 1.85962, 3.99142, -0.0228162, -0.00176127, -0.00162867, 0.00286512, 0.00970915, -0.00895763, 0.00195075, 0.0349455, -0.0159604, -0.0137404, -0.0881291, 0.140318, 0.0187486, 0.470994, -0.542227, 0.336194, -2.083, -2.16561, -0.129973, 0.469326, -0.543591, 0.333141, -2.08445, -2.16483, -0.109919, -0.000521058, 0.0313016, 0.00795809, 0.0161737, -0.000413353, -0.0115399
0.12016, 1.69448, -1.22765, -1.54112, -0.901075, -1.20402, 1.22792, -1.30251, 0.0599964, 0.00144924, -0.019012, -0.00418625, -0.141955, 0.000768406, -0.00394123, -0.281914, 63.819, 31.2137, 7.51739, 1.86603, 3.97677, -0.0557752, -0.00179615, -0.00161298, 0.00287441, 0.00978337, -0.00909472, 0.00195554, 0.036808, -0.014843, -0.0121611, -0.0875779, 0.145345, 0.0126614, 0.470994, -0.542196, 0.336202, -2.08297, -2.16561, -0.129975, 0.469342, -0.543592, 0.333134, -2.08446, -2.16487, -0.109699, -0.000535288, 0.031835, 0.00808872, 0.0151685, -0.00200809, -0.0101067
0.12116, 1.69455, -1.22765, -1.54113, -0.901081, -1.20416, 1.22793, -1.30251, 0.0592999, 0.0018905, -0.0189759, -0.00387403, -0.139768, 0.0015636, -0.00333789, -0.392998, 63.7793, 31.1384, 7.5531, 1.87244, 3.94839, -0.0484509, -0.00182848, -0.00159355, 0.00288164, 0.00985257, -0.00923444, 0.00194647, 0.0373612, -0.0147694, -0.0117858, -0.0854367, 0.144726, 0.0118798, 0.470993, -0.542164, 0.33621, -2.08295, -2.1656, -0.129978, 0.469362, -0.54359, 0.333129, -2.08446, -2.16493, -0.109484, -0.000549763, 0.0323721, 0.00822011, 0.0151141, -0.00207766, -0.00968945
0.12216, 1.69461, -1.22765, -1.54115, -0.901089, -1.20429, 1.22793, -1.30252, 0.0595131, 0.00125757, -0.0182438, -0.00369669, -0.143681, 0.00131379, -0.00448739, -0.543754, 63.7793, 31.1741, 7.59277, 1.90265, 3.94107, 0.00373412, -0.00186039, -0.0015726, 0.00289547, 0.00993113, -0.00936784, 0.00192854, 0.0385282, -0.0144997, -0.0119381, -0.0867317, 0.147515, 0.0121784, 0.470993, -0.542132, 0.336219, -2.08293, -2.16559, -0.12998, 0.469383, -0.543586, 0.333118, -2.08445, -2.16498, -0.109265, -0.000564485, 0.0329128, 0.00835225, 0.0148666, -0.00267606, -0.00988211
0.12316, 1.69467, -1.22764, -1.54116, -0.901095, -1.20444, 1.22793, -1.30252, 0.0572554, 0.00250675, -0.0178107, -0.00343916, -0.14533, 0.00168975, -0.00225526, -0.583427, 63.7079, 31.2137, 7.62848, 1.90265, 3.9191, -0.0228162, -0.001897, -0.00155715, 0.00290282, 0.010004, -0.00951159, 0.00193015, 0.0403229, -0.013106, -0.0108967, -0.0860995, 0.150575, 0.00715999, 0.470992, -0.542099, 0.336227, -2.0829, -2.16559, -0.129982, 0.469399, -0.543587, 0.333113, -2.08446, -2.16503, -0.109041, -0.000579456, 0.0334572, 0.00848514, 0.0135628, -0.00412133, -0.00895886
0.12416, 1.69473, -1.22764, -1.54118, -0.901103, -1.20458, 1.22793, -1.30252, 0.0614073, 0.00259763, -0.0181164, -0.00640562, -0.147924, 0.00190647, -0.00216348, -0.619133, 63.6682, 31.2891, 7.66418, 1.93378, 3.89804, -0.00999879, -0.00193369, -0.00154064, 0.0029143, 0.010079, -0.00964953, 0.00192491, 0.0387552, -0.0157934, -0.0115939, -0.0892892, 0.15374, 0.0128003, 0.470991, -0.542066, 0.336235, -2.08288, -2.16558, -0.129985, 0.469416, -0.543588, 0.333104, -2.08446, -2.16507, -0.10882, -0.000594677, 0.0340052, 0.00861877, 0.0161495, -0.00180674, -0.00935233
0.12516, 1.6948, -1.22764, -1.54118, -0.901109, -1.20472, 1.22793, -1.30251, 0.0618245, 0.00173059, -0.0179904, -0.0077875, -0.144702, 0.00232219, -0.00039447, -0.76989, 63.6682, 31.2137, 7.66418, 1.95209, 3.86966, -0.0420422, -0.00196701, -0.0015198, 0.00292326, 0.0101481, -0.0097871, 0.00191606, 0.0381873, -0.0168136, -0.0122886, -0.0879874, 0.150987, 0.0138567, 0.470991, -0.542032, 0.336244, -2.08286, -2.16557, -0.129987, 0.469437, -0.543584, 0.333098, -2.08446, -2.16513, -0.108607, -0.000610151, 0.0345567, 0.00875313, 0.0171069, -0.000544615, -0.0098474
0.12616, 1.69486, -1.22763, -1.54119, -0.901114, -1.20486, 1.22794, -1.30251, 0.0623874, 0.00282329, -0.0165789, -0.00571334, -0.145633, 0.00236197, 0.000616156, -0.809562, 63.5968, 31.2137, 7.66418, 1.94568, 3.84768, -0.0685925, -0.00200455, -0.00150217, 0.00292879, 0.0102164, -0.00993637, 0.00191579, 0.0389129, -0.0167948, -0.0109228, -0.0860421, 0.153008, 0.0119605, 0.47099, -0.541997, 0.336253, -2.08283, -2.16557, -0.12999, 0.469455, -0.543585, 0.333095, -2.08447, -2.16518, -0.108383, -0.000625878, 0.0351119, 0.00888822, 0.0171488, -0.000917082, -0.00847728
0.12716, 1.69492, -1.22762, -1.5412, -0.901122, -1.20501, 1.22794, -1.30251, 0.0607688, 0.00531521, -0.0155958, -0.00596339, -0.14686, 0.00262584, -0.00041337, -0.884941, 63.45, 31.2137, 7.73956, 1.93927, 3.8193, -0.0484509, -0.00203878, -0.00148048, 0.00293188, 0.010282, -0.0100903, 0.00190127, 0.0399632, -0.0159769, -0.00906924, -0.0850671, 0.156931, 0.011655, 0.47099, -0.541962, 0.336262, -2.0828, -2.16556, -0.129992, 0.469477, -0.543582, 0.333095, -2.08447, -2.16525, -0.108158, -0.00064186, 0.0356705, 0.00902402, 0.016422, -0.00171509, -0.00665102
0.12816, 1.69499, -1.22762, -1.54121, -0.901131, -1.20515, 1.22794, -1.30251, 0.0590941, 0.00354298, -0.01347, -0.00519706, -0.143066, 0.00256438, -0.000571556, -0.960319, 63.45, 31.2891, 7.77924, 1.93927, 3.79733, -0.0420422, -0.00207559, -0.0014617, 0.0029421, 0.0103573, -0.0102329, 0.00189257, 0.040476, -0.015688, -0.00922889, -0.0809201, 0.152164, 0.01185, 0.470989, -0.541926, 0.336271, -2.08278, -2.16555, -0.129995, 0.469496, -0.543581, 0.333087, -2.08447, -2.1653, -0.107933, -0.000658099, 0.0362327, 0.00916054, 0.0161301, -0.00164598, -0.00674415
0.12916, 1.69506, -1.22762, -1.54121, -0.901134, -1.2053, 1.22794, -1.30251, 0.0600899, 0.00328964, -0.0121983, -0.00591975, -0.145458, 0.00198087, 8.36264e-05, -1.11108, 63.4103, 31.2494, 7.73956, 1.95209, 3.79001, -0.0557752, -0.00211152, -0.00144044, 0.00294952, 0.0104259, -0.0103776, 0.00188336, 0.0405719, -0.0162608, -0.00916657, -0.0818154, 0.154019, 0.0126623, 0.470988, -0.54189, 0.33628, -2.08275, -2.16554, -0.129998, 0.469518, -0.543578, 0.333083, -2.08447, -2.16536, -0.107713, -0.000674597, 0.0367984, 0.00929776, 0.0166915, -0.00116045, -0.00657888
0.13016, 1.69512, -1.22762, -1.54121, -0.901141, -1.20545, 1.22794, -1.30252, 0.0621018, 0.00219282, -0.00736926, -0.00530316, -0.142229, 0.00182922, -0.00218127, -1.18645, 63.4103, 31.1741, 7.77924, 1.95209, 3.77627, 0.00373412, -0.0021491, -0.00142077, 0.00295532, 0.0104914, -0.0105255, 0.00186715, 0.038889, -0.018466, -0.0081957, -0.0762174, 0.150306, 0.0198206, 0.470988, -0.541853, 0.336289, -2.08273, -2.16554, -0.13, 0.469538, -0.543576, 0.33308, -2.08447, -2.16542, -0.107495, -0.000691354, 0.0373675, 0.00943568, 0.0188521, 0.00101143, -0.00528863
0.13116, 1.69518, -1.22762, -1.54122, -0.901146, -1.2056, 1.22795, -1.30251, 0.0624954, 0.00146167, -0.00566306, -0.00385692, -0.144741, 0.00176202, -2.08459e-05, -1.22613, 63.4103, 31.1741, 7.77924, 1.9704, 3.76163, -0.0356336, -0.00219011, -0.00140358, 0.0029643, 0.0105598, -0.010671, 0.00187108, 0.039932, -0.0183812, -0.00788498, -0.0752587, 0.151804, 0.0168113, 0.470987, -0.541816, 0.336299, -2.0827, -2.16553, -0.130003, 0.469555, -0.543577, 0.333073, -2.08448, -2.16547, -0.107273, -0.000708374, 0.0379402, 0.00957429, 0.0187996, 0.00050343, -0.00500432
0.13216, 1.69518, -1.22762, -1.54122, -0.901146, -1.2056, 1.22795, -1.30251, 0.0624954, 0.00146167, -0.00566306, -0.00385692, -0.144741, 0.00176202, -2.08459e-05, -1.22613, 63.4103, 31.1741, 7.77924, 1.9704, 3.76163, -0.0356336, -0.00222913, -0.00140412, 0.00296784, 0.0105438, -0.0106903, 0.00187977, 0.0405233, -0.0183787, -0.00793168, -0.0751464, 0.152218, 0.0168527, 0.470986, -0.541778, 0.336308, -2.08267, -2.16552, -0.130006, 0.469555, -0.543577, 0.333073, -2.08448, -2.16547, -0.107273, -0.000725657, 0.0385162, 0.00971358, 0.0187996, 0.00050343, -0.00500432
0.13316, 1.69518, -1.22762, -1.54122, -0.901146, -1.2056, 1.22795, -1.30251, 0.0624954, 0.00146167, -0.00566306, -0.00385692, -0.144741, 0.00176202, -2.08459e-05, -1.22613, 63.4103, 31.1741, 7.77924, 1.9704, 3.76163, -0.0356336, -0.00226873, -0.00140466, 0.00297143, 0.0105276, -0.0107099, 0.00188859, 0.0411181, -0.0183763, -0.00797847, -0.0750331, 0.152635, 0.0168943, 0.470985, -0.541739, 0.336318, -2.08264, -2.16551, -0.130009, 0.469555, -0.543577, 0.333073, -2.08448, -2.16547, -0.107273, -0.000743204, 0.0390957, 0.00985355, 0.0187996, 0.00050343, -0.00500432
0.13416, 1.69537, -1.22762, -1.54122, -0.90116, -1.20605, 1.22796, -1.30251, 0.0594391, 0.000742193, -0.00382507, -0.00443551, -0.14899, 0.00249255, 0.00121295, -1.48797, 63.4103, 31.2137, 7.81494, 1.98871, 3.69021, -0.0685925, -0.00231021, -0.00134341, 0.00298512, 0.0107451, -0.0111104, 0.00185122, 0.0434997, -0.0167808, -0.00762801, -0.0744907, 0.156029, 0.0126691, 0.470985, -0.5417, 0.336328, -2.08262, -2.1655, -0.130011, 0.469617, -0.543574, 0.333061, -2.0845, -2.16564, -0.106632, -0.000761018, 0.0396786, 0.00999418, 0.0172875, -0.0013843, -0.00484131
0.13516, 1.69543, -1.22762, -1.54121, -0.901163, -1.2062, 1.22796, -1.30251, 0.0607191, 0.00049473, -0.00102418, -0.00320746, -0.149622, 0.00220424, 0.000563451, -1.52764, 63.4103, 31.1384, 7.81494, 1.98871, 3.67557, -0.0621838, -0.00235378, -0.0013268, 0.00298941, 0.0108045, -0.0112606, 0.00184965, 0.0434313, -0.0176011, -0.00674848, -0.0720963, 0.15633, 0.0146741, 0.470984, -0.541661, 0.336338, -2.08259, -2.1655, -0.130014, 0.469634, -0.543576, 0.33306, -2.08451, -2.1657, -0.106416, -0.000779099, 0.0402649, 0.0101355, 0.0181188, -0.000832129, -0.00384736
0.13616, 1.6955, -1.22762, -1.54121, -0.901164, -1.20635, 1.22797, -1.30251, 0.0641131, -0.000598249, -2.5599e-05, -0.00232615, -0.148428, 0.00252065, 0.000369765, -1.6784, 63.45, 31.1027, 7.81494, 1.95758, 3.64718, -0.0621838, -0.00239462, -0.00130419, 0.00299563, 0.0108587, -0.0114071, 0.0018397, 0.04248, -0.0197008, -0.00711689, -0.07046, 0.154823, 0.0183927, 0.470983, -0.54162, 0.336348, -2.08256, -2.16549, -0.130017, 0.469657, -0.543574, 0.333057, -2.08452, -2.16576, -0.106211, -0.00079745, 0.0408545, 0.0102774, 0.0201496, 0.000840927, -0.00398645
0.13716, 1.69556, -1.22762, -1.54122, -0.901167, -1.20651, 1.22797, -1.30251, 0.0640701, 0.00052915, -0.00182102, -0.00169165, -0.151457, 0.00222297, -0.000741235, -1.7141, 63.4103, 31.1741, 7.81494, 1.91546, 3.63254, -0.0356336, -0.00244138, -0.00128877, 0.0030027, 0.0109269, -0.0115622, 0.00183993, 0.0441305, -0.0187966, -0.00705182, -0.0731768, 0.158766, 0.01705, 0.470982, -0.541579, 0.336358, -2.08253, -2.16548, -0.13002, 0.469673, -0.543578, 0.333052, -2.08453, -2.16581, -0.105981, -0.000816072, 0.0414475, 0.01042, 0.0192902, -0.00024228, -0.00401057
0.13816, 1.69563, -1.22762, -1.54121, -0.901175, -1.20667, 1.22797, -1.30251, 0.0636922, 0.00118796, 0.000356278, -0.00617087, -0.150164, 0.00175325, -0.00144689, -1.86486, 63.3746, 31.1027, 7.89032, 1.87793, 3.62521, -0.00999879, -0.00248173, -0.00126465, 0.00300653, 0.0109903, -0.0117255, 0.00182181, 0.042766, -0.0200226, -0.00658229, -0.0729432, 0.158812, 0.0228075, 0.470982, -0.541538, 0.336369, -2.0825, -2.16547, -0.130023, 0.469697, -0.543575, 0.333052, -2.08453, -2.16589, -0.10575, -0.000834967, 0.0420438, 0.0105633, 0.020464, 0.00167951, -0.00322973
0.13916, 1.69568, -1.22761, -1.54121, -0.901175, -1.20684, 1.22798, -1.30251, 0.0576367, 0.000791951, 0.00109043, -0.00667902, -0.154013, 0.00222, -0.00123834, -1.78948, 63.3746, 31.063, 7.85065, 1.84772, 3.59683, -0.00267457, -0.00253381, -0.00125205, 0.00300953, 0.0110475, -0.0118894, 0.00183148, 0.0466123, -0.0165193, -0.0062958, -0.0729162, 0.162019, 0.0161807, 0.470981, -0.541496, 0.336379, -2.08247, -2.16546, -0.130026, 0.469711, -0.543583, 0.333051, -2.08456, -2.16594, -0.105522, -0.000854135, 0.0426434, 0.0107072, 0.0170961, -0.00170653, -0.00329678
0.14016, 1.69575, -1.22761, -1.5412, -0.901176, -1.207, 1.22798, -1.30251, 0.0621041, 0.00136317, 0.00150584, -0.00413773, -0.158437, 0.00628116, 0.000155928, -1.94024, 63.3389, 31.0273, 7.81494, 1.85321, 3.59683, -0.0292249, -0.00257927, -0.00123195, 0.00301481, 0.0111131, -0.0120508, 0.00182999, 0.0471523, -0.0187699, -0.00536727, -0.0703665, 0.168575, 0.0157493, 0.47098, -0.541453, 0.33639, -2.08244, -2.16545, -0.130029, 0.469732, -0.543583, 0.333049, -2.08458, -2.166, -0.105288, -0.000873578, 0.0432462, 0.0108517, 0.0193782, -0.00168663, -0.00239064
0.14116, 1.69581, -1.22762, -1.5412, -0.901181, -1.20717, 1.22799, -1.30251, 0.062505, -0.00168969, 0.00272489, -0.00398391, -0.160992, 0.00513007, 0.00132326, -1.97991, 63.45, 30.9519, 7.85065, 1.82941, 3.58218, -0.0621838, -0.0026273, -0.00121197, 0.00302245, 0.0111712, -0.0122105, 0.00182892, 0.0480587, -0.0187331, -0.0068721, -0.0716028, 0.167427, 0.0146752, 0.470979, -0.54141, 0.336401, -2.08241, -2.16544, -0.130032, 0.469752, -0.543586, 0.333044, -2.08459, -2.16606, -0.105065, -0.000893298, 0.0438524, 0.0109968, 0.0192993, -0.00174308, -0.0038729
0.14216, 1.69587, -1.22761, -1.5412, -0.901185, -1.20734, 1.22799, -1.30251, 0.0622356, 0.000636771, 0.000949687, -0.00387661, -0.164288, 0.00863786, 0.000643772, -1.97991, 63.3746, 30.9876, 7.89032, 1.84772, 3.57577, -0.0557752, -0.00267986, -0.00119838, 0.00302632, 0.0112424, -0.0123853, 0.00183627, 0.0500001, -0.018471, -0.00581845, -0.071219, 0.174721, 0.0130639, 0.470978, -0.541366, 0.336412, -2.08237, -2.16543, -0.130036, 0.469766, -0.543592, 0.333042, -2.08462, -2.16611, -0.10481, -0.000913297, 0.0444617, 0.0111426, 0.019127, -0.00322353, -0.0029835
0.14316, 1.69594, -1.22761, -1.54119, -0.90119, -1.20752, 1.228, -1.30251, 0.0638445, -0.000410711, 0.0022798, -0.0028039, -0.165375, 0.00664493, 0.000903116, -2.05529, 63.4103, 30.9162, 7.89032, 1.8349, 3.56845, -0.0685925, -0.00272835, -0.00117784, 0.00303299, 0.0113082, -0.0125533, 0.0018328, 0.0500606, -0.0189014, -0.00611525, -0.0719836, 0.173901, 0.0137744, 0.470977, -0.541322, 0.336423, -2.08234, -2.16542, -0.130039, 0.469787, -0.543594, 0.333039, -2.08464, -2.16617, -0.10457, -0.000933575, 0.0450743, 0.0112889, 0.0195281, -0.00260624, -0.00315434
0.14416, 1.696, -1.2276, -1.54119, -0.901197, -1.20769, 1.22801, -1.30251, 0.0641482, 0.0048303, 0.00243006, -0.00694609, -0.166656, 0.0102237, -0.000856572, -2.091, 63.1921, 30.8765, 7.9657, 1.84131, 3.5538, -0.0292249, -0.00277841, -0.00115913, 0.00302981, 0.0113724, -0.0127445, 0.00182796, 0.0494331, -0.0204447, -0.0032806, -0.0707431, 0.182762, 0.019064, 0.470976, -0.541277, 0.336434, -2.08231, -2.16541, -0.130042, 0.469807, -0.543598, 0.333045, -2.08466, -2.16625, -0.104308, -0.000954135, 0.0456901, 0.0114359, 0.0211312, -0.00174566, -0.000160065
0.14516, 1.69606, -1.22761, -1.54119, -0.901191, -1.20786, 1.22801, -1.30251, 0.0603063, 0.000621739, 0.00160667, -0.00232534, -0.166838, 0.00728965, -0.00104621, -2.091, 63.3032, 30.8765, 7.85065, 1.823, 3.56112, -0.0164075, -0.0028352, -0.00114648, 0.00304006, 0.0114368, -0.012901, 0.00183987, 0.0534371, -0.0166186, -0.00551079, -0.0715906, 0.177202, 0.0110668, 0.470975, -0.541231, 0.336446, -2.08228, -2.1654, -0.130045, 0.46982, -0.543606, 0.333037, -2.08468, -2.16629, -0.10408, -0.000974976, 0.0463091, 0.0115835, 0.0173522, -0.00489157, -0.00272308
0.14616, 1.69613, -1.2276, -1.54119, -0.901197, -1.20804, 1.22801, -1.30251, 0.063333, 0.00134251, 0.00106109, -0.00276766, -0.167594, 0.00541863, -0.000460443, -2.20605, 63.2635, 30.8765, 7.89032, 1.81659, 3.56112, -0.0228162, -0.00288484, -0.00112607, 0.00304392, 0.0115054, -0.0130774, 0.00183604, 0.052602, -0.0178809, -0.00569938, -0.0745032, 0.178257, 0.0133581, 0.470974, -0.541185, 0.336457, -2.08224, -2.16539, -0.130049, 0.469841, -0.543607, 0.333036, -2.0847, -2.16636, -0.103828, -0.000996102, 0.0469312, 0.0117316, 0.0185548, -0.0033629, -0.00267119
0.14716, 1.69618, -1.2276, -1.54119, -0.9012, -1.20821, 1.22802, -1.30251, 0.0625397, 0.00256544, 0.000699874, -0.00522266, -0.167597, 0.00457409, 0.000167508, -2.20605, 63.1921, 30.8765, 7.89032, 1.79828, 3.54648, -0.0356336, -0.00294062, -0.00111213, 0.00304798, 0.0115673, -0.0132483, 0.00184898, 0.0527432, -0.017744, -0.00551719, -0.0763399, 0.179737, 0.013937, 0.470973, -0.541138, 0.336469, -2.08221, -2.16538, -0.130052, 0.469856, -0.543614, 0.333035, -2.08473, -2.16641, -0.103588, -0.00101751, 0.0475565, 0.0118804, 0.0184089, -0.00291036, -0.002362
0.14816, 1.69624, -1.22759, -1.54118, -0.901201, -1.20838, 1.22803, -1.3025, 0.0632358, 0.00254551, 0.00213138, -0.00613518, -0.168497, 0.00336375, 0.00109483, -2.24175, 63.1564, 30.8051, 7.85065, 1.80469, 3.54648, -0.0621838, -0.00299478, -0.00109467, 0.00304988, 0.0116234, -0.0134215, 0.00185653, 0.0525649, -0.0182716, -0.00533058, -0.0769434, 0.180331, 0.0149133, 0.470972, -0.54109, 0.336481, -2.08218, -2.16537, -0.130056, 0.469875, -0.543619, 0.333036, -2.08476, -2.16646, -0.103352, -0.00103921, 0.0481849, 0.0120297, 0.0189149, -0.00211239, -0.00201852
0.14916, 1.6963, -1.2276, -1.54119, -0.901211, -1.20854, 1.22803, -1.3025, 0.0618803, 0.000861787, -0.000253746, -0.00643592, -0.168073, 0.00715314, 0.000729748, -2.20605, 63.1921, 30.8765, 7.92602, 1.79187, 3.54648, -0.0621838, -0.00304987, -0.0010786, 0.00305966, 0.0116916, -0.0135869, 0.00185839, 0.0546857, -0.0179292, -0.00684783, -0.0754966, 0.180774, 0.0133284, 0.470971, -0.541042, 0.336493, -2.08214, -2.16536, -0.130059, 0.469891, -0.543623, 0.333029, -2.08478, -2.16652, -0.103112, -0.0010612, 0.0488164, 0.0121795, 0.0185719, -0.00335255, -0.00368914
0.15016, 1.69636, -1.22759, -1.54119, -0.901213, -1.20871, 1.22804, -1.3025, 0.059852, 0.00233776, -0.00110036, -0.00389232, -0.169026, 0.00479263, -0.00049695, -2.24175, 63.1168, 30.9162, 7.89032, 1.80469, 3.56112, -0.0356336, -0.00310491, -0.00106191, 0.00306328, 0.0117561, -0.0137603, 0.00185963, 0.0569713, -0.0154987, -0.00605917, -0.0769726, 0.182054, 0.00958421, 0.47097, -0.540993, 0.336505, -2.08211, -2.16535, -0.130063, 0.469909, -0.543627, 0.333028, -2.0848, -2.16658, -0.102867, -0.00108347, 0.049451, 0.01233, 0.016235, -0.00519667, -0.00304386
0.15116, 1.69643, -1.22759, -1.54118, -0.901215, -1.20888, 1.22804, -1.3025, 0.0582237, 0.00457705, 0.00186251, -0.00199455, -0.164634, 0.00854413, 0.00369483, -2.28143, 63.1168, 30.8051, 7.85065, 1.80469, 3.5538, -0.0292249, -0.00315852, -0.00104256, 0.00306589, 0.0118111, -0.0139301, 0.00185695, 0.0576007, -0.0158274, -0.00307639, -0.0675744, 0.182592, 0.00502064, 0.470969, -0.540944, 0.336517, -2.08207, -2.16534, -0.130066, 0.469929, -0.543629, 0.333029, -2.08481, -2.16665, -0.102638, -0.00110604, 0.0500886, 0.012481, 0.0166748, -0.00562865, -5.86472e-05
0.15216, 1.69648, -1.22757, -1.54118, -0.901224, -1.20906, 1.22804, -1.3025, 0.0576099, 0.0075718, -0.00135857, -0.00250349, -0.166634, 0.0058599, 0.00353053, -2.20605, 62.9343, 30.9162, 7.89032, 1.823, 3.56845, -0.0484509, -0.00321749, -0.00103108, 0.00306769, 0.0118877, -0.0141169, 0.00187283, 0.0588876, -0.0142506, -0.00274717, -0.0733994, 0.186586, 0.00277222, 0.470968, -0.540894, 0.33653, -2.08203, -2.16533, -0.13007, 0.469941, -0.543636, 0.33303, -2.08485, -2.16669, -0.102365, -0.0011289, 0.0507293, 0.0126325, 0.0151367, -0.00637435, 0.000263779
0.15316, 1.69655, -1.22758, -1.54119, -0.901231, -1.20923, 1.22805, -1.3025, 0.0607214, 0.00356609, -0.00257749, -0.00580766, -0.167735, 0.00443636, 0.00119596, -2.28143, 63.0057, 30.9876, 7.92602, 1.82941, 3.56845, -0.00999879, -0.00327538, -0.00101382, 0.00307973, 0.0119606, -0.0142858, 0.00187204, 0.0578881, -0.0162164, -0.0063239, -0.0784603, 0.183749, 0.0102634, 0.470967, -0.540843, 0.336542, -2.082, -2.16532, -0.130073, 0.469959, -0.54364, 0.333021, -2.08486, -2.16675, -0.102116, -0.00115205, 0.051373, 0.0127846, 0.0169078, -0.00410674, -0.00302155
0.15416, 1.6966, -1.22757, -1.54117, -0.901237, -1.2094, 1.22805, -1.3025, 0.0561047, 0.00595256, 0.00171435, -0.00426994, -0.167905, 0.00308363, 0.00170921, -2.20605, 62.8589, 30.8408, 7.92602, 1.82941, 3.57577, -0.0292249, -0.00333323, -0.000999966, 0.00307493, 0.0120127, -0.0144669, 0.00188004, 0.0598329, -0.0137255, -0.00310482, -0.074179, 0.185465, 0.00579668, 0.470966, -0.540792, 0.336555, -2.08196, -2.16531, -0.130077, 0.469974, -0.543646, 0.333029, -2.08489, -2.16681, -0.101877, -0.0011755, 0.0520197, 0.0129373, 0.0145877, -0.0059822, 8.02093e-05
0.15516, 1.69666, -1.22757, -1.54118, -0.901242, -1.20956, 1.22805, -1.3025, 0.0555601, 0.0040745, -0.000621094, -0.00548676, -0.171117, 0.00235374, 0.00105198, -2.24175, 62.8589, 30.9162, 7.89032, 1.80469, 3.57577, -0.0228162, -0.00339259, -0.000985488, 0.00308292, 0.0120797, -0.0146337, 0.0018853, 0.0616026, -0.0128173, -0.00526764, -0.0788681, 0.186581, 0.00488249, 0.470965, -0.54074, 0.336568, -2.08192, -2.1653, -0.130081, 0.469989, -0.543651, 0.333024, -2.08491, -2.16686, -0.101636, -0.00119924, 0.0526694, 0.0130904, 0.0136412, -0.00678077, -0.00215232
0.15616, 1.69671, -1.22756, -1.54117, -0.901247, -1.20974, 1.22805, -1.3025, 0.0533892, 0.00606065, 0.000513393, -0.00642179, -0.172271, 0.00179265, 0.00176315, -2.20605, 62.8589, 30.8765, 7.85065, 1.84131, 3.57577, -0.0484509, -0.00345505, -0.000973634, 0.00308742, 0.0121449, -0.0148092, 0.00189951, 0.062707, -0.011739, -0.00379446, -0.0786825, 0.189632, 0.00299243, 0.470963, -0.540687, 0.336581, -2.08189, -2.16528, -0.130085, 0.470001, -0.543658, 0.333023, -2.08494, -2.16691, -0.101388, -0.00122328, 0.0533221, 0.0132441, 0.0126359, -0.00749116, -0.000685565
0.15716, 1.69677, -1.22756, -1.54117, -0.901251, -1.20991, 1.22805, -1.3025, 0.0526531, 0.00604262, -0.000586181, -0.00717654, -0.16571, 0.00136272, 0.001531, -2.20605, 62.7875, 30.9162, 7.81494, 1.81659, 3.57577, -0.0557752, -0.00351664, -0.000960633, 0.00309236, 0.0122129, -0.0149839, 0.00190994, 0.0623717, -0.0119632, -0.00436464, -0.0770777, 0.184606, 0.00487297, 0.470962, -0.540634, 0.336594, -2.08185, -2.16527, -0.130089, 0.470015, -0.543664, 0.333021, -2.08496, -2.16696, -0.101137, -0.00124762, 0.0539777, 0.0133983, 0.0128025, -0.00640614, -0.00105064
0.15816, 1.69683, -1.22755, -1.54117, -0.901265, -1.21008, 1.22805, -1.30249, 0.0536674, 0.00604047, 0.00137213, -0.0105162, -0.167696, 0.00130546, 0.000812626, -2.28143, 62.7121, 30.8408, 7.89032, 1.84131, 3.56845, -0.0484509, -0.00357409, -0.000943236, 0.00309534, 0.0122773, -0.0151615, 0.00190855, 0.0615881, -0.0133995, -0.00422854, -0.0779052, 0.186893, 0.00983781, 0.470961, -0.54058, 0.336608, -2.08181, -2.16526, -0.130092, 0.470033, -0.543666, 0.333022, -2.08498, -2.16702, -0.100889, -0.00127226, 0.0546363, 0.013553, 0.0141894, -0.00493483, -0.000685604
0.15916, 1.69688, -1.22755, -1.54117, -0.901274, -1.21026, 1.22805, -1.30249, 0.0517917, 0.00588403, 7.9299e-05, -0.0109445, -0.168354, 0.000964595, 0.000351811, -2.24175, 62.6407, 30.8765, 7.89032, 1.8349, 3.56845, -0.0420422, -0.00363778, -0.000932372, 0.00309933, 0.0123505, -0.0153431, 0.00191957, 0.063351, -0.0120791, -0.00480398, -0.0794296, 0.187638, 0.00803163, 0.47096, -0.540525, 0.336621, -2.08177, -2.16525, -0.130096, 0.470045, -0.543673, 0.333021, -2.085, -2.16707, -0.100626, -0.0012972, 0.0552977, 0.0137082, 0.012889, -0.00597851, -0.00133537
0.16016, 1.69693, -1.22755, -1.54116, -0.901283, -1.21043, 1.22805, -1.3025, 0.0522866, 0.00322742, 5.26874e-05, -0.0113434, -0.163008, 0.00044251, -0.00118796, -2.16637, 62.6764, 30.8765, 7.89032, 1.81018, 3.57577, -0.00267457, -0.00370496, -0.000923018, 0.00310699, 0.012416, -0.015516, 0.00192961, 0.062838, -0.0130023, -0.00657439, -0.0777866, 0.180874, 0.0122921, 0.470958, -0.54047, 0.336635, -2.08173, -2.16524, -0.1301, 0.470055, -0.543682, 0.333016, -2.08503, -2.16712, -0.100381, -0.00132244, 0.0559621, 0.013864, 0.0137015, -0.0044936, -0.00287779
0.16116, 1.69698, -1.22754, -1.54116, -0.901292, -1.2106, 1.22805, -1.3025, 0.0559103, 0.00225659, 0.00390769, -0.0107797, -0.165708, 0.00061931, -0.000256673, -2.20605, 62.6764, 30.8408, 7.85065, 1.8349, 3.56845, -0.0164075, -0.00376848, -0.000909811, 0.00311156, 0.0124755, -0.0156874, 0.00193759, 0.0619192, -0.0153472, -0.00591713, -0.0757071, 0.182522, 0.0154463, 0.470957, -0.540414, 0.336649, -2.08169, -2.16522, -0.130104, 0.470069, -0.543688, 0.333015, -2.08505, -2.16717, -0.100144, -0.00134799, 0.0566293, 0.0140202, 0.0160092, -0.00292307, -0.00200414
0.16216, 1.69703, -1.22754, -1.54115, -0.9013, -1.21077, 1.22806, -1.30249, 0.0535579, 0.00418157, 0.00285815, -0.0104668, -0.166103, 0.000995185, 0.00103568, -2.16637, 62.5653, 30.8408, 7.81494, 1.82941, 3.5538, -0.0484509, -0.00383475, -0.000899739, 0.00311294, 0.0125343, -0.0158645, 0.00195402, 0.0638978, -0.0137582, -0.00498853, -0.0756539, 0.185391, 0.0109255, 0.470956, -0.540357, 0.336663, -2.08165, -2.16521, -0.130108, 0.47008, -0.543696, 0.333017, -2.08508, -2.16722, -0.0999009, -0.00137384, 0.0572994, 0.0141769, 0.0145038, -0.00441573, -0.00119328
0.16316, 1.69708, -1.22754, -1.54115, -0.901317, -1.21093, 1.22806, -1.30249, 0.0518551, 0.00201154, 0.0020952, -0.0128277, -0.166485, 0.000693289, 0.000976727, -2.13067, 62.601, 30.8408, 7.89032, 1.81018, 3.5538, -0.0557752, -0.00390001, -0.000888439, 0.00312088, 0.0125988, -0.0160324, 0.00196047, 0.0650528, -0.0131406, -0.00684171, -0.0776563, 0.184083, 0.0109816, 0.470954, -0.5403, 0.336677, -2.08161, -2.1652, -0.130113, 0.470092, -0.543701, 0.333013, -2.0851, -2.16727, -0.099662, -0.0014, 0.0579723, 0.0143341, 0.0138341, -0.00461992, -0.00302934
0.16416, 1.69712, -1.22753, -1.54114, -0.901334, -1.2111, 1.22805, -1.30249, 0.050554, 0.00222053, 0.00330236, -0.0134978, -0.168103, -0.000329235, 0.000662404, -2.091, 62.5653, 30.7654, 7.92602, 1.823, 3.57577, -0.0557752, -0.00396467, -0.00087784, 0.00312467, 0.0126628, -0.0162039, 0.00196822, 0.0660689, -0.0124022, -0.00644002, -0.0781857, 0.185529, 0.0106605, 0.470953, -0.540242, 0.336692, -2.08157, -2.16519, -0.130117, 0.470104, -0.543706, 0.333013, -2.08512, -2.16732, -0.09942, -0.00142646, 0.058648, 0.0144917, 0.0131229, -0.00503958, -0.00261354
0.16516, 1.69717, -1.22753, -1.54114, -0.901347, -1.21127, 1.22805, -1.30249, 0.0515517, 0.000678348, -0.000290137, -0.0154147, -0.173279, 0.000339826, 0.00346413, -2.13067, 62.601, 30.8765, 7.89032, 1.823, 3.56112, -0.0228162, -0.00403309, -0.000865778, 0.00313377, 0.0127293, -0.016379, 0.00197495, 0.0677397, -0.0123273, -0.00889174, -0.0841629, 0.189533, 0.00718085, 0.470951, -0.540183, 0.336706, -2.08153, -2.16517, -0.130121, 0.470116, -0.543713, 0.333007, -2.08513, -2.16737, -0.0991718, -0.00145324, 0.0593266, 0.0146499, 0.0129907, -0.00563127, -0.00513747
0.16616, 1.69722, -1.22753, -1.54113, -0.901363, -1.21144, 1.22805, -1.30249, 0.0512847, 0.000477142, 0.00458505, -0.0178987, -0.171466, -3.21312e-05, 0.00192266, -2.13067, 62.601, 30.8051, 7.89032, 1.79828, 3.56845, -0.00267457, -0.00409868, -0.000853978, 0.00313779, 0.0127865, -0.016547, 0.00197631, 0.0664294, -0.0137454, -0.00770539, -0.0803666, 0.188036, 0.0136107, 0.47095, -0.540124, 0.336721, -2.08148, -2.16516, -0.130125, 0.470129, -0.543717, 0.333007, -2.08515, -2.16743, -0.0989416, -0.00148032, 0.0600079, 0.0148084, 0.0143772, -0.0037811, -0.00364907
0.16716, 1.69726, -1.22752, -1.54112, -0.901376, -1.21161, 1.22805, -1.30249, 0.0470382, 0.00293523, 0.00253386, -0.0178828, -0.171727, 0.000530553, 0.00205982, -2.091, 62.4899, 30.8408, 7.81494, 1.81659, 3.5538, -0.0164075, -0.00417118, -0.000847835, 0.00313827, 0.0128479, -0.0167328, 0.00199324, 0.0693271, -0.0110197, -0.00673865, -0.0807823, 0.191442, 0.0081921, 0.470949, -0.540064, 0.336735, -2.08144, -2.16515, -0.130129, 0.470136, -0.543728, 0.33301, -2.08518, -2.16748, -0.0986871, -0.00150772, 0.0606919, 0.0149675, 0.0117703, -0.00622062, -0.00290711
0.16816, 1.6973, -1.22752, -1.54111, -0.901397, -1.21178, 1.22805, -1.30249, 0.0448702, 0.00104281, 0.00923239, -0.0176841, -0.171397, 0.000903316, 0.00205, -2.091, 62.5296, 30.8051, 7.85065, 1.81659, 3.53915, -0.0292249, -0.0042382, -0.000835206, 0.00314372, 0.0129045, -0.0169036, 0.00199799, 0.0698084, -0.0110902, -0.00536702, -0.074023, 0.189417, 0.00927492, 0.470947, -0.540003, 0.33675, -2.0814, -2.16513, -0.130134, 0.470149, -0.543732, 0.333008, -2.0852, -2.16754, -0.0984544, -0.00153542, 0.0613787, 0.015127, 0.0118827, -0.00621843, -0.00147377
0.16916, 1.69734, -1.22752, -1.54111, -0.901421, -1.21194, 1.22805, -1.30249, 0.0422502, 0.00163374, 0.00836888, -0.0205551, -0.16802, -0.000206282, 0.00199293, -2.05529, 62.4899, 30.8765, 7.89032, 1.84772, 3.56112, -0.0420422, -0.0043084, -0.000827476, 0.00314785, 0.012969, -0.0170803, 0.00200855, 0.0701733, -0.0102788, -0.00573412, -0.0749235, 0.187406, 0.0100046, 0.470946, -0.539942, 0.336766, -2.08135, -2.16512, -0.130138, 0.470158, -0.543739, 0.333008, -2.08522, -2.16758, -0.0982065, -0.00156344, 0.0620682, 0.0152869, 0.0110446, -0.00586521, -0.00171039
0.17016, 1.69738, -1.22751, -1.5411, -0.901441, -1.21211, 1.22805, -1.30249, 0.0402712, 0.00109704, 0.00545172, -0.020649, -0.163593, -0.000133539, 0.000492849, -2.01562, 62.4899, 30.9162, 7.85065, 1.84772, 3.56112, -0.0164075, -0.00438043, -0.000820099, 0.00315166, 0.0130243, -0.0172517, 0.0020172, 0.0715243, -0.00919611, -0.00704282, -0.0750195, 0.18389, 0.00978827, 0.470944, -0.53988, 0.336781, -2.08131, -2.16511, -0.130143, 0.470166, -0.543747, 0.333008, -2.08524, -2.16764, -0.0979745, -0.00159178, 0.0627604, 0.0154473, 0.00993573, -0.00634737, -0.00302231
0.17116, 1.69741, -1.22751, -1.54109, -0.901462, -1.21226, 1.22805, -1.30249, 0.0390154, 0.00157249, 0.00642524, -0.017814, -0.165307, -0.000628574, 0.00136325, -1.97991, 62.4542, 30.9519, 7.81494, 1.85321, 3.57577, -0.0420422, -0.00445073, -0.00081177, 0.00315434, 0.0130783, -0.0174205, 0.0020271, 0.073672, -0.00773556, -0.00603705, -0.0736645, 0.185647, 0.0051042, 0.470942, -0.539817, 0.336796, -2.08126, -2.16509, -0.130147, 0.470175, -0.543752, 0.333009, -2.08526, -2.16769, -0.0977464, -0.00162043, 0.0634553, 0.0156081, 0.00856546, -0.0079891, -0.00216242
0.17216, 1.69745, -1.22749, -1.54108, -0.901482, -1.21242, 1.22804, -1.30249, 0.0377879, 0.00365122, 0.00828288, -0.0148847, -0.161303, -0.000654168, 0.00121013, -1.94024, 62.3431, 30.9519, 7.73956, 1.85321, 3.58218, -0.0484509, -0.00452191, -0.000805515, 0.0031523, 0.0131302, -0.0175931, 0.00203832, 0.0744207, -0.0071285, -0.00374805, -0.0683013, 0.18447, 0.00368678, 0.470941, -0.539753, 0.336812, -2.08122, -2.16508, -0.130152, 0.470183, -0.543759, 0.333016, -2.08529, -2.16774, -0.0975165, -0.00164939, 0.0641529, 0.0157694, 0.0080446, -0.00841152, 0.000157256
0.17316, 1.69748, -1.22749, -1.54106, -0.90151, -1.21257, 1.22805, -1.30249, 0.0388574, 0.00243747, 0.00949269, -0.0208297, -0.163335, -0.000197073, -9.47338e-05, -1.97991, 62.3431, 30.9519, 7.73956, 1.87244, 3.57577, -0.0228162, -0.00458967, -0.000792622, 0.00315396, 0.0131771, -0.0177618, 0.00203211, 0.073218, -0.00916513, -0.00490851, -0.0706847, 0.186166, 0.0112481, 0.470939, -0.539689, 0.336828, -2.08117, -2.16506, -0.130156, 0.470196, -0.543761, 0.333019, -2.0853, -2.16781, -0.0972982, -0.00167868, 0.0648531, 0.015931, 0.00996225, -0.00625747, -0.000704463
0.17416, 1.69752, -1.22748, -1.54106, -0.901533, -1.21272, 1.22805, -1.30248, 0.0356563, 0.00246269, 0.00776074, -0.0203552, -0.159693, 0.000141145, 0.00119351, -1.97991, 62.3074, 31.063, 7.66418, 1.85962, 3.56845, -0.0557752, -0.00466188, -0.000785497, 0.00315658, 0.0132297, -0.0179273, 0.00204743, 0.0751735, -0.00742743, -0.00529858, -0.0693486, 0.183829, 0.00682654, 0.470937, -0.539624, 0.336844, -2.08113, -2.16505, -0.130161, 0.470204, -0.543767, 0.33302, -2.08532, -2.16785, -0.0970747, -0.00170828, 0.065556, 0.0160931, 0.00825481, -0.00749597, -0.00118245
0.17516, 1.69754, -1.22747, -1.54105, -0.901566, -1.21287, 1.22804, -1.30249, 0.02947, 0.00164366, 0.010564, -0.0248634, -0.15774, -0.000176226, -0.0013814, -1.82915, 62.3074, 31.1384, 7.66418, 1.86603, 3.57577, 0.00373412, -0.0047355, -0.000782219, 0.00315901, 0.0132834, -0.0180902, 0.00205059, 0.0763872, -0.00564118, -0.00517175, -0.0673866, 0.18174, 0.00929749, 0.470936, -0.539559, 0.33686, -2.08108, -2.16503, -0.130166, 0.470208, -0.543773, 0.333022, -2.08533, -2.1679, -0.0968538, -0.0017382, 0.0662614, 0.0162556, 0.00649104, -0.00808239, -0.00103177
0.17616, 1.69757, -1.22747, -1.54103, -0.901601, -1.21301, 1.22804, -1.30249, 0.0318051, -0.00150128, 0.0131538, -0.0289772, -0.151815, -0.000354134, -0.000663346, -1.82915, 62.4185, 31.063, 7.70386, 1.87793, 3.58218, -0.00267457, -0.00480418, -0.00077199, 0.00316285, 0.0133256, -0.0182419, 0.0020457, 0.0734275, -0.00904261, -0.00689828, -0.0649045, 0.174472, 0.01784, 0.470934, -0.539493, 0.336876, -2.08103, -2.16502, -0.13017, 0.470219, -0.543773, 0.333023, -2.08533, -2.16796, -0.096658, -0.00176845, 0.0669695, 0.0164185, 0.00968488, -0.0040408, -0.00221811
0.17716, 1.69759, -1.22746, -1.54101, -0.901629, -1.21314, 1.22804, -1.30249, 0.0324279, -0.000164581, 0.00993456, -0.0286091, -0.146923, -0.000506825, 0.000556286, -1.78948, 62.3828, 31.063, 7.59277, 1.87244, 3.58951, -0.0292249, -0.00487498, -0.000764196, 0.00316194, 0.0133622, -0.0183961, 0.00205012, 0.0735503, -0.00924341, -0.00730321, -0.0652196, 0.172433, 0.0170341, 0.470932, -0.539426, 0.336892, -2.08098, -2.165, -0.130175, 0.470228, -0.543776, 0.333029, -2.08535, -2.16801, -0.0964648, -0.00179901, 0.0676801, 0.0165817, 0.00984472, -0.00337893, -0.0024829
0.17816, 1.69761, -1.22745, -1.541, -0.901666, -1.21327, 1.22804, -1.30249, 0.0280247, 0.00293093, 0.0129075, -0.0303708, -0.143608, -0.000608752, 0.000382236, -1.6784, 62.3828, 31.1027, 7.5531, 1.88434, 3.59683, -0.0292249, -0.00494663, -0.000758019, 0.00316258, 0.0134001, -0.0185477, 0.00205009, 0.0741397, -0.00799265, -0.00450656, -0.0608945, 0.173049, 0.0168947, 0.47093, -0.539358, 0.336909, -2.08094, -2.16499, -0.13018, 0.470235, -0.543779, 0.333033, -2.08535, -2.16807, -0.0962735, -0.0018299, 0.0683933, 0.0167454, 0.00869299, -0.00373513, 0.000385376
0.17916, 1.69764, -1.22744, -1.54099, -0.901705, -1.21339, 1.22804, -1.30248, 0.0253897, 0.00441848, 0.0112813, -0.0316602, -0.136873, -0.000134268, 0.0012467, -1.7141, 62.4185, 31.1741, 7.51739, 1.90265, 3.58951, -0.0557752, -0.00501502, -0.000746297, 0.0031649, 0.0134408, -0.0187006, 0.00204369, 0.0745789, -0.00733684, -0.0042742, -0.0586944, 0.169884, 0.0160586, 0.470929, -0.53929, 0.336926, -2.08089, -2.16497, -0.130185, 0.470247, -0.543777, 0.333037, -2.08535, -2.16813, -0.0960783, -0.00186112, 0.069109, 0.0169095, 0.00803258, -0.00351595, 0.000727696
0.18016, 1.69765, -1.22744, -1.54097, -0.901748, -1.21352, 1.22804, -1.30249, 0.0187392, 0.00792829, 0.0131325, -0.0336528, -0.131266, -0.000631823, -0.000145808, -1.56335, 62.4899, 31.2494, 7.51739, 1.92096, 3.60415, -0.0292249, -0.00509011, -0.00074333, 0.003169, 0.0134819, -0.0188482, 0.00204343, 0.0758043, -0.0048524, -0.00158779, -0.0543847, 0.168841, 0.0153397, 0.470927, -0.53922, 0.336943, -2.08084, -2.16496, -0.13019, 0.470251, -0.543781, 0.333037, -2.08536, -2.16818, -0.0958878, -0.00189266, 0.0698272, 0.0170739, 0.00566764, -0.00452975, 0.00342694
0.18116, 1.69768, -1.22743, -1.54096, -0.90179, -1.21364, 1.22803, -1.30249, 0.0254849, 0.00353766, 0.0123672, -0.0361965, -0.131605, 0.000121488, -0.00155047, -1.63873, 62.601, 31.2891, 7.44202, 1.92737, 3.58951, 0.0101428, -0.0051574, -0.00073006, 0.00317453, 0.0135179, -0.0189866, 0.0020234, 0.0735133, -0.00927573, -0.00513427, -0.0569854, 0.166175, 0.0253381, 0.470925, -0.539151, 0.33696, -2.08079, -2.16494, -0.130195, 0.470264, -0.543776, 0.333038, -2.08533, -2.16825, -0.0957142, -0.00192452, 0.0705479, 0.0172387, 0.00983539, -0.000808064, 0.000308488
0.18216, 1.69769, -1.22742, -1.54094, -0.901831, -1.21376, 1.22804, -1.30248, 0.023586, 0.0038316, 0.0151651, -0.0405685, -0.127639, 0.000861012, -4.67001e-05, -1.56335, 62.5653, 31.3248, 7.33093, 1.94568, 3.56845, -0.0164075, -0.00523012, -0.000723995, 0.00317094, 0.0135453, -0.0191378, 0.00202662, 0.0724879, -0.0102729, -0.00447854, -0.0536051, 0.164258, 0.0285057, 0.470923, -0.53908, 0.336977, -2.08074, -2.16492, -0.1302, 0.470271, -0.543777, 0.333047, -2.08535, -2.16831, -0.0955346, -0.00195671, 0.0712712, 0.0174039, 0.0107871, 0.000867646, 0.00124772
0.18316, 1.69771, -1.22741, -1.54092, -0.901887, -1.21388, 1.22803, -1.30248, 0.0170847, 0.00746887, 0.0130239, -0.0451546, -0.124329, 0.00111664, -0.000537059, -1.52764, 62.6407, 31.4002, 7.40631, 1.95209, 3.5538, -0.00267457, -0.00529911, -0.000714138, 0.00317426, 0.0135871, -0.0192855, 0.00200981, 0.0742402, -0.00762441, -0.00341021, -0.054423, 0.166128, 0.0266523, 0.470921, -0.539009, 0.336994, -2.08069, -2.16491, -0.130205, 0.470281, -0.543773, 0.33305, -2.08533, -2.16837, -0.0953449, -0.00198923, 0.0719968, 0.0175694, 0.00821549, -0.000413507, 0.00227316
0.18416, 1.69771, -1.2274, -1.54091, -0.901932, -1.21399, 1.22803, -1.30248, 0.0147958, 0.0072277, 0.0123889, -0.0439102, -0.122146, 0.000744496, 0.00062733, -1.33721, 62.7121, 31.4359, 7.29126, 1.9704, 3.5538, -0.0292249, -0.00537633, -0.00071246, 0.00317564, 0.0136152, -0.0194256, 0.00201546, 0.0760557, -0.006133, -0.00357021, -0.0532109, 0.164272, 0.0226135, 0.470919, -0.538937, 0.337012, -2.08064, -2.16489, -0.13021, 0.470284, -0.543777, 0.333054, -2.08534, -2.16842, -0.0951759, -0.00202208, 0.072725, 0.0177353, 0.00675468, -0.0015142, 0.00203978
0.18516, 1.69772, -1.22739, -1.54088, -0.901988, -1.21411, 1.22803, -1.30248, 0.013812, 0.00816459, 0.0158057, -0.0450513, -0.12092, 0.00154754, 0.000657098, -1.30151, 62.7478, 31.4359, 7.25555, 2.00702, 3.52542, -0.0356336, -0.00544563, -0.000701058, 0.00317477, 0.0136414, -0.0195727, 0.00199697, 0.0759434, -0.00671822, -0.00189855, -0.0490788, 0.164959, 0.0246815, 0.470917, -0.538864, 0.33703, -2.08058, -2.16487, -0.130215, 0.470296, -0.543772, 0.333061, -2.08533, -2.1685, -0.0950043, -0.00205526, 0.0734555, 0.0179016, 0.00736638, -0.000908356, 0.00385201
