alisrour97/Franka_experiments/Real_Robot_scripts/servo-franka/Data3/log_dyn_INIT0_7.csv
Time,q1,q2,q3,q4,q5,q6,q7,dq1,dq2,dq3,dq4,dq5,dq6,dq7,t1,t2,t3,t4,t5,t6,t7,ex1,ex2,ex3,ex4,ex5,ex6,ev1,ev2,ev3,ev4,ev5,ev6,xd,yd,zd,uxd,uyd,uzd,x,y,z,ux,uy,uz,vxd,vyd,vzd,vx,vy,vz
7.32422e-07, 1.69127, -1.22743, -1.53888, -0.900262, -1.19198, 1.22827, -1.30267, 0.00516938, 0.00321948, -0.00247264, -0.000875204, 0.00906994, 0.000622509, -0.00118761, -0.809562, 61.6092, 29.7974, 7.14447, 1.91546, 3.40365, -0.101552, 0.00059598, -0.0017628, 0.00153311, 0.00151833, 0.0013034, 0.000303536, -0.00403903, -0.00373549, 0.00067068, 0.00165462, -0.0034906, 0.00884996, 0.471008, -0.543389, 0.335894, -2.08385, -2.16584, -0.129887, 0.469168, -0.542642, 0.334523, -2.08271, -2.16418, -0.129467, 1.77043e-06, 3.2e-05, 1.02972e-05, 0.00361222, 0.00406906, 0.00118682
0.0121379, 1.69133, -1.22742, -1.53887, -0.900271, -1.19192, 1.22828, -1.30267, 0.00662687, -0.00133081, 0.000152367, 0.000765339, 0.00268562, 0.000882274, -0.000676855, -0.920646, 61.756, 29.7617, 7.1048, 1.89624, 3.37436, -0.0750012, 0.000635963, -0.00171766, 0.00152775, 0.00148596, 0.00132673, 0.000215601, -0.00299441, -0.00405844, -0.000901751, 0.00137684, -0.00291125, 0.00755054, 0.471008, -0.543389, 0.335894, -2.08385, -2.16584, -0.129887, 0.469215, -0.542597, 0.334536, -2.08261, -2.16428, -0.12956, 1.77746e-06, 6.40623e-05, 1.89552e-05, 0.00391535, 0.00332508, -0.000529027
0.0131379, 1.69133, -1.22742, -1.53887, -0.900271, -1.19192, 1.22828, -1.30267, 0.00662687, -0.00133081, 0.000152367, 0.000765339, 0.00268562, 0.000882274, -0.000676855, -0.920646, 61.756, 29.7617, 7.1048, 1.89624, 3.37436, -0.0750012, 0.000635955, -0.00171766, 0.00152775, 0.00148596, 0.00132672, 0.000215602, -0.00295816, -0.00405729, -0.000905709, 0.00138147, -0.0028847, 0.00755317, 0.471008, -0.543389, 0.335894, -2.08385, -2.16584, -0.129887, 0.469215, -0.542597, 0.334536, -2.08261, -2.16428, -0.12956, 1.77167e-06, 9.92934e-05, 2.84561e-05, 0.00391535, 0.00332508, -0.000529027
0.0141379, 1.69133, -1.22742, -1.53887, -0.900271, -1.19192, 1.22828, -1.30267, 0.00662687, -0.00133081, 0.000152367, 0.000765339, 0.00268562, 0.000882274, -0.000676855, -0.920646, 61.756, 29.7617, 7.1048, 1.89624, 3.37436, -0.0750012, 0.000635935, -0.00171766, 0.00152776, 0.00148595, 0.00132671, 0.000215607, -0.00291851, -0.00405604, -0.000910025, 0.00138656, -0.0028557, 0.00755604, 0.471008, -0.543389, 0.335894, -2.08385, -2.16584, -0.129887, 0.469215, -0.542597, 0.334536, -2.08261, -2.16428, -0.12956, 1.75167e-06, 0.000137819, 3.88327e-05, 0.00391535, 0.00332508, -0.000529027
0.0151379, 1.69133, -1.22742, -1.53887, -0.900271, -1.19192, 1.22828, -1.30267, 0.00662687, -0.00133081, 0.000152367, 0.000765339, 0.00268562, 0.000882274, -0.000676855, -0.920646, 61.756, 29.7617, 7.1048, 1.89624, 3.37436, -0.0750012, 0.000635896, -0.00171766, 0.00152776, 0.00148594, 0.00132669, 0.000215617, -0.00287535, -0.0040547, -0.00091471, 0.00139213, -0.00282413, 0.00755917, 0.471008, -0.543389, 0.335894, -2.08385, -2.16584, -0.129887, 0.469215, -0.542597, 0.334536, -2.08261, -2.16428, -0.12956, 1.716e-06, 0.000179762, 5.01169e-05, 0.00391535, 0.00332508, -0.000529027
0.0161379, 1.69133, -1.22742, -1.53887, -0.900271, -1.19192, 1.22828, -1.30267, 0.00662687, -0.00133081, 0.000152367, 0.000765339, 0.00268562, 0.000882274, -0.000676855, -0.920646, 61.756, 29.7617, 7.1048, 1.89624, 3.37436, -0.0750012, 0.000635831, -0.00171767, 0.00152777, 0.00148591, 0.00132666, 0.000215633, -0.00282855, -0.00405326, -0.000919777, 0.0013982, -0.00278992, 0.00756257, 0.471008, -0.543389, 0.335894, -2.08385, -2.16584, -0.129887, 0.469215, -0.542597, 0.334536, -2.08261, -2.16428, -0.12956, 1.66317e-06, 0.000225248, 6.23407e-05, 0.00391535, 0.00332508, -0.000529027
0.0171379, 1.69133, -1.22742, -1.53887, -0.900271, -1.19192, 1.22828, -1.30267, 0.00662687, -0.00133081, 0.000152367, 0.000765339, 0.00268562, 0.000882274, -0.000676855, -0.920646, 61.756, 29.7617, 7.1048, 1.89624, 3.37436, -0.0750012, 0.000635735, -0.00171767, 0.00152778, 0.00148587, 0.00132662, 0.000215657, -0.00277798, -0.00405172, -0.000925239, 0.00140479, -0.00275296, 0.00756624, 0.471008, -0.543389, 0.335894, -2.08385, -2.16584, -0.129887, 0.469215, -0.542597, 0.334536, -2.08261, -2.16428, -0.12956, 1.59159e-06, 0.000274397, 7.55354e-05, 0.00391535, 0.00332508, -0.000529027
0.0181379, 1.69133, -1.22742, -1.53887, -0.900271, -1.19192, 1.22828, -1.30267, 0.00662687, -0.00133081, 0.000152367, 0.000765339, 0.00268562, 0.000882274, -0.000676855, -0.920646, 61.756, 29.7617, 7.1048, 1.89624, 3.37436, -0.0750012, 0.000635602, -0.00171767, 0.00152779, 0.00148582, 0.00132655, 0.00021569, -0.00272351, -0.00405008, -0.000931106, 0.00141192, -0.00271318, 0.0075702, 0.471008, -0.543389, 0.335894, -2.08385, -2.16584, -0.129887, 0.469215, -0.542597, 0.334536, -2.08261, -2.16428, -0.12956, 1.49965e-06, 0.00032733, 8.9732e-05, 0.00391535, 0.00332508, -0.000529027
0.0191379, 1.69133, -1.22742, -1.53887, -0.900271, -1.19192, 1.22828, -1.30267, 0.00662687, -0.00133081, 0.000152367, 0.000765339, 0.00268562, 0.000882274, -0.000676855, -0.920646, 61.756, 29.7617, 7.1048, 1.89624, 3.37436, -0.0750012, 0.000635424, -0.00171768, 0.00152781, 0.00148575, 0.00132646, 0.000215733, -0.00266503, -0.00404832, -0.000937391, 0.00141961, -0.00267048, 0.00757446, 0.471008, -0.543389, 0.335894, -2.08385, -2.16584, -0.129887, 0.469215, -0.542597, 0.334536, -2.08261, -2.16428, -0.12956, 1.38564e-06, 0.000384166, 0.000104961, 0.00391535, 0.00332508, -0.000529027
0.0201379, 1.69133, -1.22742, -1.53887, -0.900271, -1.19192, 1.22828, -1.30267, 0.00662687, -0.00133081, 0.000152367, 0.000765339, 0.00268562, 0.000882274, -0.000676855, -0.920646, 61.756, 29.7617, 7.1048, 1.89624, 3.37436, -0.0750012, 0.000635196, -0.00171769, 0.00152784, 0.00148566, 0.00132635, 0.000215789, -0.00260242, -0.00404646, -0.000944106, 0.00142787, -0.00262477, 0.00757901, 0.471008, -0.543389, 0.335894, -2.08385, -2.16584, -0.129887, 0.469215, -0.542597, 0.334536, -2.08261, -2.16428, -0.12956, 1.24785e-06, 0.00044502, 0.000121252, 0.00391535, 0.00332508, -0.000529027
0.0211379, 1.69133, -1.22742, -1.53887, -0.900271, -1.19192, 1.22828, -1.30267, 0.00662687, -0.00133081, 0.000152367, 0.000765339, 0.00268562, 0.000882274, -0.000676855, -0.920646, 61.756, 29.7617, 7.1048, 1.89624, 3.37436, -0.0750012, 0.000634911, -0.00171769, 0.00152787, 0.00148554, 0.00132621, 0.000215859, -0.00253556, -0.00404449, -0.000951261, 0.00143673, -0.00257598, 0.00758388, 0.471008, -0.543388, 0.335894, -2.08385, -2.16584, -0.129887, 0.469215, -0.542597, 0.334536, -2.08261, -2.16428, -0.12956, 1.08446e-06, 0.000510009, 0.000138634, 0.00391535, 0.00332508, -0.000529027
0.0221379, 1.69133, -1.22742, -1.53887, -0.900271, -1.19192, 1.22828, -1.30267, 0.00662687, -0.00133081, 0.000152367, 0.000765339, 0.00268562, 0.000882274, -0.000676855, -0.920646, 61.756, 29.7617, 7.1048, 1.89624, 3.37436, -0.0750012, 0.000634564, -0.00171771, 0.00152791, 0.0014854, 0.00132605, 0.000215944, -0.00246433, -0.00404241, -0.000958867, 0.00144621, -0.00252403, 0.00758908, 0.471008, -0.543388, 0.335894, -2.08385, -2.16584, -0.129887, 0.469215, -0.542597, 0.334536, -2.08261, -2.16428, -0.12956, 8.93621e-07, 0.000579243, 0.000157137, 0.00391535, 0.00332508, -0.000529027
0.0231379, 1.6914, -1.22741, -1.53886, -0.900282, -1.19188, 1.2283, -1.30267, 0.00852695, -8.07136e-05, 0.000456595, 0.00122057, 0.00331947, 0.00195811, 0.00104189, -0.884941, 62.0139, 29.6863, 7.18018, 1.79187, 3.2883, -0.120778, 0.000678695, -0.0016661, 0.00152519, 0.00145259, 0.00135184, 0.000120609, -0.00329132, -0.00530357, -6.74518e-05, 0.0029758, -0.00121013, 0.00768909, 0.471008, -0.543388, 0.335894, -2.08384, -2.16584, -0.129887, 0.469265, -0.542551, 0.334544, -2.08251, -2.16438, -0.129633, 6.73433e-07, 0.000652833, 0.000176787, 0.00517727, 0.00412949, 0.00046117
0.0241379, 1.6914, -1.22742, -1.53886, -0.900285, -1.19188, 1.2283, -1.30267, 0.00726046, -0.000862345, -0.00145923, -0.00213496, 0.00644764, 0.00110317, 0.000457234, -0.920646, 62.0496, 29.7617, 7.18018, 1.81018, 3.29562, -0.114369, 0.000681534, -0.00166107, 0.00152869, 0.00145599, 0.00135331, 0.000111593, -0.00388075, -0.00521241, -0.0016875, 0.000564338, -0.00453696, 0.0101073, 0.471008, -0.543387, 0.335894, -2.08384, -2.16584, -0.129887, 0.46927, -0.542547, 0.334541, -2.0825, -2.16439, -0.129631, 4.21933e-07, 0.000730885, 0.000197611, 0.00500642, 0.00503508, -0.00102345
0.0251379, 1.69141, -1.22742, -1.53886, -0.900285, -1.19187, 1.22831, -1.30267, 0.00945477, -0.0057489, -0.000937586, -0.00367847, 0.00733565, 0.00132976, -0.000169896, -0.960319, 61.8671, 29.611, 7.14447, 1.74335, 3.28097, -0.101552, 0.000686588, -0.001654, 0.0015307, 0.00144931, 0.00136282, 9.71046e-05, -0.00502956, -0.00710711, -0.00469101, 0.000160186, -0.00979014, 0.0148945, 0.471008, -0.543387, 0.335895, -2.08384, -2.16584, -0.129887, 0.469276, -0.542541, 0.33454, -2.08248, -2.1644, -0.12965, 1.37109e-07, 0.000813505, 0.000219637, 0.00674889, 0.00679164, -0.00384597
0.0261379, 1.69142, -1.22742, -1.53886, -0.900284, -1.19187, 1.22831, -1.30267, 0.00781591, -0.00559308, -0.00177625, -0.00307355, 0.00805845, 0.00170523, 0.0101838, -0.996025, 61.387, 29.3531, 7.02942, 1.66919, 3.25992, -0.0814099, 0.000689062, -0.00164915, 0.001532, 0.00145002, 0.00136208, 9.12102e-05, -0.00397717, -0.00604966, -0.00470343, 0.000651053, -0.0100177, 0.00223552, 0.471008, -0.543386, 0.335895, -2.08384, -2.16584, -0.129887, 0.469281, -0.542537, 0.334539, -2.08248, -2.16441, -0.129649, -1.83099e-07, 0.000900793, 0.00024289, 0.00572967, 0.00579863, -0.00396644
0.0271379, 1.69143, -1.22743, -1.53886, -0.90029, -1.19187, 1.22831, -1.30267, 0.00969935, -0.00303224, 0.00262103, -0.0038092, 0.00748553, 0.00143721, 0.00530193, -1.0357, 61.0181, 29.0159, 6.95801, 1.62067, 3.25259, -0.0164075, 0.000692858, -0.00164155, 0.00154048, 0.00145612, 0.00136833, 7.00239e-05, -0.00600577, -0.00788221, -0.00187423, 0.00358213, -0.00722503, 0.0115052, 0.471008, -0.543385, 0.335895, -2.08384, -2.16584, -0.129887, 0.469288, -0.542531, 0.334531, -2.08245, -2.16443, -0.129651, -5.40806e-07, 0.000992849, 0.000267393, 0.00758909, 0.0075329, -0.000888712
0.0281379, 1.69144, -1.22744, -1.53887, -0.9003, -1.19187, 1.22831, -1.30267, 0.0061737, -0.0037638, 0.00257854, -0.00808257, 0.00705846, 0.000437449, 0.00422481, -0.996025, 60.6134, 28.7937, 6.91833, 1.57123, 3.26724, -0.0164075, 0.000694934, -0.00163772, 0.00155024, 0.0014718, 0.00137388, 6.38513e-05, -0.00555075, -0.00662992, -0.00282366, 0.000949, -0.0077585, 0.0127, 0.471008, -0.543384, 0.335895, -2.08384, -2.16584, -0.129887, 0.469292, -0.542527, 0.334522, -2.08243, -2.16442, -0.12964, -9.38169e-07, 0.00108977, 0.000293171, 0.00632001, 0.00727551, -0.00183331
0.0291379, 1.69145, -1.22745, -1.53889, -0.900305, -1.19187, 1.22831, -1.30267, 0.00856866, -0.00406787, -0.00368459, -0.00666588, 0.00532424, 3.6747e-05, 0.00282555, -1.0357, 60.3198, 28.6826, 6.80725, 1.55932, 3.27456, -0.00267457, 0.000697755, -0.0016305, 0.00156125, 0.00148654, 0.00137823, 5.19869e-05, -0.00445712, -0.00628837, -0.0052, -0.00539378, -0.00641056, 0.0116431, 0.471008, -0.543383, 0.335895, -2.08384, -2.16584, -0.129887, 0.469298, -0.542521, 0.334511, -2.08241, -2.16443, -0.129629, -1.3774e-06, 0.00119164, 0.000320246, 0.00593179, 0.0066495, -0.00431212
0.0301379, 1.69146, -1.22746, -1.53889, -0.90031, -1.19188, 1.22832, -1.30266, 0.00678696, -0.00535013, -0.00372089, -0.00570617, 0.00256386, 0.00535795, 0.00423862, -0.920646, 60.2087, 28.5319, 6.69617, 1.58954, 3.25992, -0.0557752, 0.000695193, -0.00162769, 0.00157283, 0.0014947, 0.00138234, 5.54767e-05, -0.0020431, -0.00575118, -0.00528504, -0.00144607, -0.00285171, 0.00671878, 0.471008, -0.543382, 0.335896, -2.08384, -2.16584, -0.129887, 0.469301, -0.542521, 0.3345, -2.0824, -2.16442, -0.129624, -1.86074e-06, 0.00129855, 0.00034864, 0.00547805, 0.00436433, -0.00472616
0.0311379, 1.69147, -1.22748, -1.53891, -0.900312, -1.19189, 1.22832, -1.30267, 0.00348287, -0.00596871, -0.00722236, -0.00409505, 0.000452914, 0.00530183, 0.00260829, -0.845268, 60.0977, 28.5319, 6.54541, 1.62616, 3.22421, -0.0420422, 0.000691672, -0.00162543, 0.00158638, 0.00150975, 0.00138562, 5.47694e-05, 0.00121446, -0.00268131, -0.00651047, -0.00429415, -0.00170179, 0.00130494, 0.471008, -0.543381, 0.335896, -2.08384, -2.16584, -0.129887, 0.469303, -0.542521, 0.334486, -2.08239, -2.16441, -0.129611, -2.39049e-06, 0.00141058, 0.000378373, 0.00248386, 0.00132341, -0.0063195
0.0321379, 1.69147, -1.22749, -1.53891, -0.900325, -1.19189, 1.22833, -1.30267, 0.00336897, -0.00645187, -0.00613059, -0.00750478, -0.000538578, 0.00543382, 0.00246587, -0.734184, 60.1334, 28.3851, 6.58508, 1.65088, 3.18118, -0.0557752, 0.000692772, -0.00161747, 0.00159828, 0.00151414, 0.00138804, 3.83057e-05, 0.000402453, -0.00348861, -0.00687469, -0.005313, -0.000993673, 0.00453093, 0.471008, -0.54338, 0.335896, -2.08384, -2.16584, -0.129887, 0.46931, -0.542516, 0.334474, -2.08237, -2.16443, -0.12961, -2.969e-06, 0.00152782, 0.000409465, 0.00324735, 0.00233139, -0.00654635
0.0331379, 1.69147, -1.22749, -1.53891, -0.900325, -1.19189, 1.22833, -1.30267, 0.00336897, -0.00645187, -0.00613059, -0.00750478, -0.000538578, 0.00543382, 0.00246587, -0.734184, 60.1334, 28.3851, 6.58508, 1.65088, 3.18118, -0.0557752, 0.000691341, -0.00161751, 0.00159844, 0.00151357, 0.00138734, 3.8653e-05, 0.000528477, -0.00348521, -0.00688787, -0.00529561, -0.000902052, 0.00454016, 0.471008, -0.543379, 0.335897, -2.08384, -2.16584, -0.129888, 0.46931, -0.542516, 0.334474, -2.08237, -2.16443, -0.12961, -3.59863e-06, 0.00165034, 0.000441934, 0.00324735, 0.00233139, -0.00654635
0.0341379, 1.69149, -1.22751, -1.53893, -0.900344, -1.1919, 1.22835, -1.30267, 0.0075055, -0.00756377, -0.00586115, -0.00744254, -0.00869261, 0.0070456, 0.000830646, -0.583427, 60.173, 28.3097, 6.5097, 1.66369, 3.1528, -0.0292249, 0.00069539, -0.00160143, 0.00161906, 0.00152858, 0.00138684, 1.21569e-05, 0.000671984, -0.0052325, -0.00752807, -0.00814775, 0.00566422, 0.0076337, 0.471008, -0.543377, 0.335897, -2.08384, -2.16584, -0.129888, 0.469325, -0.542507, 0.334455, -2.08233, -2.16445, -0.129596, -4.2818e-06, 0.00177822, 0.000475796, 0.00497371, 0.00248762, -0.00721957
0.0351379, 1.6915, -1.22752, -1.53894, -0.900352, -1.1919, 1.22836, -1.30267, 0.00640757, -0.010126, -0.00488138, -0.00416266, -0.0053009, 0.00874829, 0.00112061, -0.468376, 60.2087, 28.3097, 6.43433, 1.63257, 3.18118, -0.0420422, 0.00069592, -0.00159501, 0.00162978, 0.0015386, 0.00138859, 3.91428e-06, 0.00181193, -0.00479316, -0.00803806, -0.00269572, 0.000891161, 0.00505104, 0.471008, -0.543375, 0.335898, -2.08384, -2.16584, -0.129888, 0.469331, -0.542503, 0.334444, -2.08232, -2.16445, -0.129587, -5.02096e-06, 0.00191151, 0.000511068, 0.00455656, 0.00155605, -0.00785156
0.0361379, 1.69151, -1.22752, -1.53895, -0.90036, -1.19191, 1.22837, -1.30267, 0.00574952, -0.00597831, -0.00734055, -0.00545641, -0.00358716, 0.0108231, -0.00111661, -0.357292, 60.1334, 28.3097, 6.39465, 1.62067, 3.19583, 0.0101428, 0.000695993, -0.00158842, 0.00163411, 0.00154342, 0.00137613, -1.08176e-05, 0.00186201, -0.00477375, -0.00645182, -0.00238871, 0.00499976, 0.00709778, 0.471008, -0.543374, 0.335898, -2.08383, -2.16584, -0.129888, 0.469338, -0.5425, 0.33444, -2.0823, -2.16447, -0.129571, -5.81861e-06, 0.00205028, 0.000547764, 0.00459542, 0.00140043, -0.00625577
0.0371379, 1.69153, -1.22752, -1.53895, -0.900372, -1.19192, 1.22839, -1.30267, 0.0120565, -0.00389346, -0.00488598, -0.00818938, -0.00160908, 0.0131209, 0.000290761, -0.392998, 60.0977, 28.274, 6.43433, 1.58954, 3.18851, -0.0164075, 0.000703468, -0.00157269, 0.00163728, 0.00154564, 0.00136088, -3.18274e-05, -0.00245844, -0.00995582, -0.00488142, 0.000588578, 0.00697794, 0.0161259, 0.471008, -0.543372, 0.335899, -2.08383, -2.16584, -0.129888, 0.469353, -0.54249, 0.334438, -2.08229, -2.1645, -0.129555, -6.67726e-06, 0.00219459, 0.000585897, 0.00967213, 0.00578035, -0.00415262
0.0381379, 1.69154, -1.22753, -1.53896, -0.900379, -1.19192, 1.2284, -1.30267, 0.0120418, -0.00491623, -0.00471316, -0.00819531, -0.000231635, 0.00984038, 0.00118214, -0.242241, 60.173, 28.3097, 6.39465, 1.55932, 3.18851, -0.0420422, 0.000703267, -0.00156455, 0.0016458, 0.00154729, 0.00135706, -4.16887e-05, -0.00285408, -0.00954847, -0.0057241, -0.00153456, 0.00331007, 0.0158001, 0.471008, -0.54337, 0.335899, -2.08383, -2.16584, -0.129888, 0.469361, -0.542486, 0.33443, -2.08227, -2.16452, -0.129551, -7.59945e-06, 0.00234449, 0.000625478, 0.00921981, 0.00643389, -0.00487144
0.0391379, 1.69156, -1.22753, -1.53897, -0.900386, -1.19192, 1.22842, -1.30267, 0.0100696, -0.00109705, -0.00693173, -0.00837425, 0.0010274, 0.00792263, 0.0010546, -0.131157, 60.062, 28.3097, 6.35895, 1.52179, 3.17386, -0.0484509, 0.00070656, -0.00155353, 0.00164391, 0.00154331, 0.0013363, -5.76799e-05, -0.00221765, -0.00780898, -0.00437323, -0.00399093, 0.00534962, 0.0134351, 0.471008, -0.543367, 0.3359, -2.08383, -2.16584, -0.129888, 0.469372, -0.54248, 0.334433, -2.08227, -2.16455, -0.129536, -8.58778e-06, 0.00250002, 0.000666519, 0.0075531, 0.00568202, -0.00354287
0.0401379, 1.69157, -1.22753, -1.53898, -0.900396, -1.19193, 1.22843, -1.30267, 0.0139755, -0.00271531, -0.00784572, -0.00932726, -0.00461731, 0.00976505, 0.000487573, 0.0196001, 60.1334, 28.4208, 6.35895, 1.53461, 3.19583, -0.0420422, 0.000705461, -0.00154619, 0.00165298, 0.00155546, 0.00132371, -6.80406e-05, -0.00241791, -0.00977832, -0.00584206, -0.00699188, 0.0096543, 0.0164046, 0.471008, -0.543365, 0.3359, -2.08383, -2.16584, -0.129889, 0.469379, -0.542477, 0.334424, -2.08226, -2.16456, -0.129511, -9.64483e-06, 0.00266124, 0.000709027, 0.00945863, 0.00634763, -0.00497901
0.0411379, 1.69158, -1.22754, -1.53899, -0.900408, -1.19194, 1.22844, -1.30266, 0.0120921, -0.00380858, -0.00829852, -0.0109067, -0.00310999, 0.0115479, -0.000133272, 0.245735, 60.2087, 28.5319, 6.39465, 1.52179, 3.20956, -0.0292249, 0.000704911, -0.00153752, 0.00166147, 0.00156247, 0.00131111, -7.85921e-05, -0.00179487, -0.00950581, -0.00662606, -0.00565906, 0.00844536, 0.016868, 0.471008, -0.543362, 0.335901, -2.08383, -2.16584, -0.129889, 0.469387, -0.542474, 0.334416, -2.08225, -2.16457, -0.129492, -1.07732e-05, 0.00282817, 0.000753011, 0.00917932, 0.00600902, -0.00579765
0.0421379, 1.69159, -1.22754, -1.53899, -0.900423, -1.19195, 1.22846, -1.30267, 0.0117218, -0.00614908, -0.00504932, -0.0120179, -0.00269057, 0.0173122, -0.00105989, 0.436165, 60.3555, 28.4961, 6.43433, 1.5282, 3.23153, -0.00267457, 0.000705848, -0.00152714, 0.00166881, 0.00156387, 0.0012997, -9.79842e-05, -0.00172149, -0.0112582, -0.00649611, 0.00174827, 0.00862432, 0.0201594, 0.471008, -0.54336, 0.335902, -2.08382, -2.16584, -0.129889, 0.469397, -0.542468, 0.33441, -2.08223, -2.1646, -0.129481, -1.19756e-05, 0.00300084, 0.000798475, 0.0109355, 0.00616097, -0.00568808
0.0431379, 1.6916, -1.22755, -1.539, -0.900428, -1.19197, 1.22848, -1.30267, 0.0107946, -0.0068301, -0.00807641, -0.0100692, -0.00808068, 0.0174877, -0.00164681, 0.6623, 60.4666, 28.5319, 6.35895, 1.56482, 3.23886, 0.0229602, 0.000700574, -0.00151995, 0.0016762, 0.00156222, 0.00128197, -0.000104534, 0.00122993, -0.00920302, -0.00765499, -0.00221761, 0.0125759, 0.0148908, 0.471008, -0.543357, 0.335903, -2.08382, -2.16584, -0.129889, 0.469404, -0.542469, 0.334402, -2.08223, -2.16462, -0.129466, -1.32547e-05, 0.00317929, 0.000845424, 0.00894544, 0.00351998, -0.00718159
0.0441379, 1.69162, -1.22756, -1.53902, -0.900442, -1.19198, 1.22851, -1.30267, 0.0119201, -0.00548782, -0.0127482, -0.0114339, -0.00578449, 0.0227026, -0.000616237, 0.813057, 60.5023, 28.6826, 6.39465, 1.55932, 3.23886, 0.0101428, 0.000701365, -0.0015065, 0.00168537, 0.00156743, 0.00126297, -0.000121655, 0.00144829, -0.0105001, -0.00833493, -0.0013851, 0.0152048, 0.0146776, 0.471008, -0.543354, 0.335903, -2.08382, -2.16584, -0.129889, 0.469417, -0.542463, 0.334394, -2.08222, -2.16464, -0.129443, -1.46131e-05, 0.00336352, 0.000893861, 0.0102228, 0.0036464, -0.00787754
0.0451379, 1.69163, -1.22757, -1.53902, -0.900448, -1.19199, 1.22853, -1.30267, 0.0119393, -0.00716662, -0.0108217, -0.00978149, -0.00474776, 0.0217928, -0.000168278, 1.00349, 60.6491, 28.754, 6.32324, 1.57123, 3.23886, 0.00373412, 0.000696516, -0.00149699, 0.00169217, 0.00155978, 0.00124393, -0.000127735, 0.00158211, -0.0104571, -0.0085092, 0.000661564, 0.0121067, 0.0141205, 0.471008, -0.54335, 0.335904, -2.08382, -2.16584, -0.12989, 0.469427, -0.542463, 0.334387, -2.08222, -2.16466, -0.129433, -1.60536e-05, 0.00355356, 0.000943786, 0.0101769, 0.00372942, -0.00801918
0.0461379, 1.69164, -1.22758, -1.53903, -0.900457, -1.19201, 1.22855, -1.30266, 0.0177605, -0.007432, -0.00946707, -0.00747371, -0.00862065, 0.0204378, 0.00134977, 1.07887, 60.7602, 28.8294, 6.32324, 1.58313, 3.25992, -0.0356336, 0.000695945, -0.00148382, 0.00169997, 0.00156059, 0.00122389, -0.000139762, 0.000251845, -0.012762, -0.00831081, -0.000941047, 0.014382, 0.0157047, 0.471008, -0.543347, 0.335905, -2.08381, -2.16583, -0.12989, 0.46944, -0.542459, 0.334379, -2.08222, -2.16469, -0.129413, -1.75788e-05, 0.0037494, 0.000995199, 0.0124368, 0.00530235, -0.0076349
0.0471379, 1.69166, -1.22759, -1.53904, -0.900462, -1.19203, 1.22858, -1.30266, 0.0180224, -0.00926541, -0.00844163, -0.00393378, -0.0116681, 0.0240549, 0.00114012, 1.18995, 60.9427, 28.9048, 6.24786, 1.59595, 3.28097, -0.0420422, 0.000691818, -0.00147083, 0.00171061, 0.0015584, 0.00120347, -0.000149636, 0.00233136, -0.0126465, -0.00825165, 0.00319763, 0.016622, 0.0125951, 0.471008, -0.543343, 0.335906, -2.08381, -2.16583, -0.12989, 0.469452, -0.542457, 0.334369, -2.08221, -2.16471, -0.129396, -1.91915e-05, 0.00395105, 0.0010481, 0.0123964, 0.00343723, -0.0078429
0.0481379, 1.69169, -1.22759, -1.53905, -0.900461, -1.19205, 1.22861, -1.30266, 0.0206549, -0.00620832, -0.0111678, -0.00338257, -0.0130679, 0.0259212, 0.00076227, 1.18995, 60.9427, 28.9802, 6.13678, 1.58954, 3.324, -0.0420422, 0.000690378, -0.00145433, 0.00171412, 0.00155021, 0.0011723, -0.000160541, 0.00229046, -0.0136438, -0.00734359, 0.0019219, 0.0221007, 0.0132711, 0.471008, -0.543339, 0.335907, -2.08381, -2.16583, -0.129891, 0.469469, -0.542453, 0.334366, -2.08222, -2.16474, -0.129375, -2.08943e-05, 0.0041585, 0.00110247, 0.013422, 0.00358611, -0.00691562
0.0491379, 1.69171, -1.2276, -1.53906, -0.900458, -1.19206, 1.22864, -1.30266, 0.0214288, -0.00676088, -0.0097067, -0.00304282, -0.013898, 0.0270027, -0.000202255, 1.22962, 61.0538, 29.0555, 6.02173, 1.57764, 3.37436, -0.0228162, 0.000686042, -0.00144183, 0.00172027, 0.00154259, 0.00115082, -0.000172442, 0.00229149, -0.0143687, -0.00707101, 0.00377992, 0.0228227, 0.0151536, 0.471008, -0.543335, 0.335908, -2.08381, -2.16583, -0.129891, 0.469481, -0.542452, 0.33436, -2.08222, -2.16477, -0.129363, -2.269e-05, 0.00437173, 0.00115833, 0.014154, 0.00378607, -0.00661265
0.0501379, 1.69173, -1.22761, -1.53906, -0.900462, -1.19208, 1.22867, -1.30266, 0.0248704, -0.00795858, -0.00768003, -0.00274323, -0.0153229, 0.027279, -0.00159167, 1.26533, 61.2006, 29.0912, 6.02173, 1.58313, 3.44668, 0.0165515, 0.000684894, -0.00142519, 0.00172882, 0.00153686, 0.00113028, -0.000191927, 0.0010784, -0.0164958, -0.00719404, 0.00466817, 0.0230442, 0.0202151, 0.471008, -0.543331, 0.335909, -2.0838, -2.16583, -0.129891, 0.469498, -0.542447, 0.334352, -2.08221, -2.1648, -0.129351, -2.45814e-05, 0.00459073, 0.00121564, 0.0162286, 0.0053087, -0.00655269
0.0511379, 1.69175, -1.22762, -1.53908, -0.90046, -1.1921, 1.22871, -1.30267, 0.0234603, -0.00884544, -0.00799874, -0.00152962, -0.0153921, 0.0293394, -0.00106019, 1.34071, 61.3513, 29.2023, 5.98602, 1.55932, 3.47507, 0.0165515, 0.000676588, -0.00141262, 0.00173795, 0.00152614, 0.00110334, -0.000197717, 0.00267293, -0.0157578, -0.0074284, 0.0069037, 0.0232745, 0.0170861, 0.471008, -0.543326, 0.335911, -2.0838, -2.16583, -0.129892, 0.46951, -0.542448, 0.334342, -2.08222, -2.16483, -0.129336, -2.6571e-05, 0.00481547, 0.00127442, 0.0155381, 0.00396518, -0.00695061
0.0521379, 1.69177, -1.22762, -1.53908, -0.900458, -1.19212, 1.22874, -1.30267, 0.022413, -0.00590689, -0.00637791, -0.000586537, -0.0212007, 0.0313322, -0.000943459, 1.41608, 61.3513, 29.238, 5.95032, 1.56482, 3.48971, 0.0229602, 0.000670014, -0.00139914, 0.00173703, 0.00151025, 0.00105997, -0.000204546, 0.0043995, -0.0148976, -0.00479057, 0.00823812, 0.0318974, 0.0139108, 0.471008, -0.543321, 0.335912, -2.0838, -2.16583, -0.129892, 0.469524, -0.54245, 0.334343, -2.08224, -2.16486, -0.129311, -2.86617e-05, 0.00504591, 0.00133464, 0.014834, 0.00204984, -0.00452785
0.0531379, 1.6918, -1.22763, -1.53909, -0.900461, -1.19215, 1.22878, -1.30266, 0.0234322, -0.00645103, -0.00617282, -0.00236297, -0.0164027, 0.0315179, 0.000320983, 1.41608, 61.4584, 29.3134, 6.02173, 1.57764, 3.53274, -0.00267457, 0.000666045, -0.00138097, 0.00174533, 0.00150366, 0.00102576, -0.000213923, 0.00273971, -0.0164802, -0.0053453, 0.00980194, 0.027867, 0.0169407, 0.471008, -0.543316, 0.335913, -2.08379, -2.16583, -0.129892, 0.469542, -0.542446, 0.334335, -2.08225, -2.16489, -0.129285, -3.0856e-05, 0.00528201, 0.00139628, 0.016333, 0.00407476, -0.00480407
0.0541382, 1.69182, -1.22763, -1.5391, -0.900461, -1.19217, 1.22882, -1.30267, 0.0213471, -0.00606951, -0.00423345, 0.00306365, -0.017519, 0.0323012, -0.000972417, 1.53114, 61.5338, 29.3134, 6.0614, 1.58954, 3.56112, 0.0293689, 0.000657723, -0.00136754, 0.00174893, 0.00148745, 0.000987685, -0.000221779, 0.00538787, -0.0144463, -0.00352718, 0.01463, 0.0290631, 0.0119949, 0.471008, -0.543311, 0.335915, -2.08379, -2.16583, -0.129893, 0.469555, -0.542448, 0.334331, -2.08226, -2.16493, -0.129266, -3.31567e-05, 0.00552372, 0.00145934, 0.0144597, 0.001339, -0.00329554
0.0551382, 1.69184, -1.22764, -1.53912, -0.900461, -1.1922, 1.22886, -1.30266, 0.0209907, -0.00664898, -0.00993903, 0.00152037, -0.0226681, 0.0374233, 0.00175951, 1.60651, 61.6449, 29.4642, 6.09711, 1.59595, 3.59683, -0.0356336, 0.000648265, -0.00135401, 0.00175665, 0.00148279, 0.000946835, -0.000217336, 0.00813497, -0.0139485, -0.00566352, 0.0110043, 0.035915, 0.00582748, 0.471008, -0.543305, 0.335916, -2.08378, -2.16583, -0.129893, 0.469569, -0.54245, 0.334323, -2.08229, -2.16495, -0.129229, -3.55665e-05, 0.00577098, 0.0015238, 0.0139813, -0.000817193, -0.00575202
0.0561382, 1.69187, -1.22765, -1.53913, -0.900462, -1.19223, 1.2289, -1.30266, 0.0244536, -0.00703425, -0.0122568, 0.000320433, -0.0215841, 0.0406029, -0.000759553, 1.64619, 61.756, 29.5395, 6.13678, 1.59595, 3.64718, 0.0165515, 0.000640221, -0.00133812, 0.00176477, 0.00147355, 0.000908288, -0.000231603, 0.00713439, -0.0164558, -0.00680809, 0.0111449, 0.0367631, 0.0120922, 0.471008, -0.5433, 0.335918, -2.08378, -2.16583, -0.129894, 0.469585, -0.542451, 0.334315, -2.08229, -2.16499, -0.129202, -3.8088e-05, 0.00602372, 0.00158964, 0.0164056, 0.000702247, -0.00673671
0.0571382, 1.6919, -1.22765, -1.53914, -0.900465, -1.19226, 1.22894, -1.30266, 0.0264887, -0.00729032, -0.0130255, -0.000445443, -0.0254188, 0.0437029, 0.00047714, 1.57081, 61.8671, 29.5752, 6.17248, 1.58954, 3.68289, -0.00999879, 0.000636356, -0.00131758, 0.00177057, 0.00146325, 0.000866913, -0.000243089, 0.0075334, -0.0177675, -0.00719927, 0.0107182, 0.0415541, 0.0119092, 0.471008, -0.543294, 0.335919, -2.08378, -2.16583, -0.129894, 0.469605, -0.542447, 0.33431, -2.0823, -2.16503, -0.129174, -4.07237e-05, 0.00628188, 0.00165682, 0.0177131, 0.000680477, -0.00715735
0.0581382, 1.69192, -1.22766, -1.53914, -0.90046, -1.19228, 1.22899, -1.30266, 0.0244583, -0.0056972, -0.00762947, 0.000670371, -0.0274979, 0.0418509, 0.00126765, 1.64619, 61.9028, 29.4999, 6.13678, 1.56482, 3.70395, -0.0356336, 0.000626435, -0.00130203, 0.00177106, 0.0014355, 0.000822617, -0.000246728, 0.00798448, -0.0167221, -0.00427609, 0.013878, 0.0436155, 0.0100282, 0.471008, -0.543287, 0.335921, -2.08377, -2.16582, -0.129894, 0.469621, -0.542449, 0.334309, -2.08233, -2.16506, -0.12916, -4.34763e-05, 0.00654537, 0.00172534, 0.0167882, 5.8427e-06, -0.00424099
0.0591382, 1.69194, -1.22767, -1.53915, -0.900467, -1.19231, 1.22903, -1.30266, 0.0240384, -0.00723313, -0.00991068, -0.00205246, -0.0291569, 0.0448345, 0.000370476, 1.68189, 62.0496, 29.5395, 6.24786, 1.5401, 3.73324, -0.0228162, 0.000619008, -0.00128336, 0.00178072, 0.00142562, 0.000781643, -0.00026304, 0.00889556, -0.0170737, -0.00610882, 0.0123896, 0.045491, 0.0112938, 0.471008, -0.543281, 0.335923, -2.08377, -2.16582, -0.129895, 0.469639, -0.542448, 0.334299, -2.08234, -2.16511, -0.129132, -4.63483e-05, 0.0068141, 0.00179515, 0.0171027, -0.00032825, -0.00613296
0.0601382, 1.69196, -1.22767, -1.53916, -0.900466, -1.19234, 1.22908, -1.30266, 0.0258779, -0.00482308, -0.00728633, -0.000365969, -0.0312785, 0.0473676, 9.6945e-06, 1.75727, 62.0496, 29.5395, 6.20819, 1.53461, 3.7543, -0.0164075, 0.000608501, -0.00126855, 0.00178186, 0.00140769, 0.000730593, -0.000267911, 0.0087721, -0.0183667, -0.00343019, 0.0166571, 0.050825, 0.0125253, 0.471008, -0.543274, 0.335924, -2.08376, -2.16582, -0.129895, 0.469654, -0.542451, 0.334298, -2.08236, -2.16515, -0.129101, -4.93422e-05, 0.00708797, 0.00186624, 0.0184835, -0.000291929, -0.00343687
0.0611382, 1.69199, -1.22768, -1.53917, -0.900467, -1.19237, 1.22912, -1.30266, 0.0299226, -0.00581459, -0.0070374, -0.000188244, -0.0281907, 0.0493283, -0.000976829, 1.72157, 62.1606, 29.611, 6.20819, 1.53461, 3.76895, 0.0101428, 0.000600345, -0.00124874, 0.00178929, 0.00139611, 0.000683664, -0.000283115, 0.00694772, -0.0213582, -0.00396908, 0.0194339, 0.0485762, 0.0185429, 0.471007, -0.543267, 0.335926, -2.08376, -2.16582, -0.129896, 0.469674, -0.54245, 0.33429, -2.08237, -2.16519, -0.129068, -5.24605e-05, 0.00736687, 0.00193857, 0.0213832, 0.00199357, -0.00370375
0.0621382, 1.69202, -1.22769, -1.53919, -0.900462, -1.19241, 1.22917, -1.30266, 0.0296581, -0.00990908, -0.00767211, 0.00158674, -0.0305781, 0.0515873, -0.0011259, 1.68189, 62.4185, 29.722, 6.13678, 1.53461, 3.76163, 0.0229602, 0.000587477, -0.00123108, 0.00180322, 0.00138441, 0.000645217, -0.000285374, 0.00910641, -0.0209144, -0.0061704, 0.0203156, 0.0476579, 0.0158702, 0.471007, -0.543259, 0.335928, -2.08375, -2.16582, -0.129897, 0.469692, -0.542452, 0.334276, -2.08239, -2.16522, -0.129043, -5.57056e-05, 0.00765073, 0.00201212, 0.0209345, 0.000467169, -0.00612566
0.0631382, 1.69204, -1.22769, -1.5392, -0.900465, -1.19244, 1.22922, -1.30266, 0.0249484, -0.00577126, -0.00880798, -0.000581256, -0.0323648, 0.0524957, -0.00075057, 1.83265, 62.3828, 29.722, 6.20819, 1.53461, 3.77627, 0.0229602, 0.000576121, -0.00121569, 0.00180221, 0.0013643, 0.000585678, -0.00029283, 0.0111483, -0.0184405, -0.00414327, 0.0193747, 0.0540256, 0.0115505, 0.471007, -0.543252, 0.33593, -2.08374, -2.16582, -0.129897, 0.469707, -0.542455, 0.334277, -2.08242, -2.16527, -0.129006, -5.90798e-05, 0.00793954, 0.00208689, 0.0186068, -0.0016732, -0.00429174
0.0641382, 1.69207, -1.22771, -1.53921, -0.900464, -1.19248, 1.22927, -1.30266, 0.0261983, -0.00811671, -0.00902803, -0.000363991, -0.0346819, 0.0497102, -0.000737717, 1.79694, 62.5653, 29.6863, 6.20819, 1.55932, 3.7543, 0.0293689, 0.000565548, -0.0011959, 0.00181203, 0.00134891, 0.000541489, -0.000301864, 0.011393, -0.0183201, -0.00590869, 0.0154402, 0.0524615, 0.0117676, 0.471007, -0.543244, 0.335932, -2.08374, -2.16582, -0.129898, 0.469727, -0.542455, 0.334267, -2.08243, -2.16531, -0.12898, -6.25855e-05, 0.00823327, 0.00216285, 0.0184279, -0.00135402, -0.00599341
0.0651382, 1.6921, -1.22771, -1.53922, -0.900469, -1.19251, 1.22932, -1.30266, 0.0302046, -0.00541138, -0.011902, -0.00198826, -0.0350637, 0.0467194, 0.000457641, 1.75727, 62.5653, 29.7617, 6.28357, 1.55292, 3.7543, 0.00373412, 0.00055781, -0.00117445, 0.0018183, 0.00134238, 0.000484873, -0.00031719, 0.00954549, -0.0197785, -0.00606693, 0.00902889, 0.0546652, 0.0144182, 0.471007, -0.543236, 0.335935, -2.08373, -2.16581, -0.129898, 0.469749, -0.542453, 0.334261, -2.08244, -2.16536, -0.128932, -6.6225e-05, 0.00853189, 0.00224002, 0.0198089, 0.00085264, -0.00582976
0.0661382, 1.69213, -1.22772, -1.53923, -0.900469, -1.19255, 1.22937, -1.30266, 0.0271116, -0.00620622, -0.0122215, -0.00131228, -0.0400959, 0.0492864, 0.00128845, 1.83265, 62.6764, 29.7617, 6.28357, 1.54651, 3.74698, -0.0228162, 0.000544289, -0.00115754, 0.00182327, 0.00132399, 0.000429809, -0.000316416, 0.0128359, -0.0177479, -0.00619498, 0.00941995, 0.0593571, 0.00814656, 0.471007, -0.543227, 0.335937, -2.08373, -2.16581, -0.129899, 0.469766, -0.542456, 0.334256, -2.08247, -2.16539, -0.128897, -7.00005e-05, 0.00883538, 0.00231837, 0.0178903, -0.00215556, -0.00632756
0.0671382, 1.69216, -1.22771, -1.53924, -0.900464, -1.19259, 1.22942, -1.30265, 0.0306306, -0.00566226, -0.0125068, -2.97171e-05, -0.0389948, 0.0460096, 0.00109634, 1.79694, 62.601, 29.7617, 6.24786, 1.5401, 3.7543, -0.0292249, 0.00053372, -0.00113829, 0.00182232, 0.00130666, 0.000366165, -0.000322596, 0.0114187, -0.0188937, -0.00630187, 0.00699198, 0.0576203, 0.0109366, 0.471007, -0.543218, 0.335939, -2.08372, -2.16581, -0.1299, 0.469785, -0.542457, 0.334257, -2.0825, -2.16544, -0.128853, -7.39143e-05, 0.00914373, 0.0023979, 0.0189761, -0.000384675, -0.00616822
0.0681382, 1.69218, -1.22772, -1.53926, -0.900469, -1.19262, 1.22947, -1.30265, 0.0244145, -0.00581217, -0.0118874, -0.00177561, -0.0337554, 0.0481576, 0.000493538, 1.87232, 62.6764, 29.8728, 6.32324, 1.53461, 3.76895, -0.0228162, 0.000518034, -0.00112298, 0.00183, 0.0012955, 0.000308128, -0.000325128, 0.0130553, -0.0168845, -0.00592723, 0.0120173, 0.0543925, 0.00900896, 0.471007, -0.543209, 0.335941, -2.08371, -2.16581, -0.1299, 0.469801, -0.542462, 0.334249, -2.08253, -2.16548, -0.128808, -7.79688e-05, 0.0094569, 0.0024786, 0.0170376, -0.00182711, -0.00591118
0.0691382, 1.69221, -1.22773, -1.53927, -0.900469, -1.19266, 1.22953, -1.30266, 0.0278793, -0.00575078, -0.0121383, -0.00117816, -0.0386473, 0.0510994, -0.000654314, 1.87232, 62.7478, 29.8728, 6.32324, 1.5163, 3.74698, 0.00373412, 0.00050392, -0.00110369, 0.00183608, 0.00127657, 0.000249167, -0.000334481, 0.0133399, -0.0186312, -0.00585253, 0.0118773, 0.0602216, 0.011326, 0.471007, -0.5432, 0.335944, -2.08371, -2.16581, -0.129901, 0.46982, -0.542465, 0.334243, -2.08255, -2.16553, -0.128771, -8.21662e-05, 0.00977487, 0.00256046, 0.0187907, -0.00172992, -0.00585261
0.0701384, 1.69224, -1.22772, -1.53929, -0.900466, -1.1927, 1.22958, -1.30266, 0.0304808, -0.00231759, -0.00975408, 0.000146765, -0.0383272, 0.0522576, -0.000910923, 1.87232, 62.6764, 29.9085, 6.28357, 1.50989, 3.7543, 0.0165515, 0.000490869, -0.00108485, 0.00183658, 0.00126135, 0.000180876, -0.000341178, 0.0121476, -0.0203945, -0.00287202, 0.0156834, 0.0640007, 0.0142094, 0.471007, -0.54319, 0.335947, -2.0837, -2.16581, -0.129902, 0.469839, -0.542467, 0.334242, -2.08258, -2.16558, -0.12872, -8.65087e-05, 0.0100976, 0.00264348, 0.0206126, -0.000616889, -0.00269487
0.0711384, 1.69227, -1.22772, -1.5393, -0.900469, -1.19275, 1.22963, -1.30266, 0.0306433, 0.000102544, -0.0122432, -0.000827038, -0.0434822, 0.0531915, -0.001082, 1.79694, 62.601, 29.9839, 6.32324, 1.5282, 3.7543, 0.0293689, 0.000479711, -0.00106318, 0.00183786, 0.00125184, 0.000106335, -0.000354484, 0.0135306, -0.0198054, -0.00242543, 0.0116859, 0.0715917, 0.0124614, 0.471007, -0.54318, 0.335949, -2.08369, -2.1658, -0.129903, 0.469861, -0.542467, 0.334241, -2.0826, -2.16564, -0.128657, -9.09987e-05, 0.0104251, 0.00272764, 0.0200854, -0.00174745, -0.00236685
0.0721384, 1.6923, -1.22773, -1.53931, -0.900471, -1.19279, 1.22969, -1.30266, 0.0290893, -0.00345203, -0.01241, -0.00138422, -0.0425369, 0.0541421, -0.000721329, 1.79694, 62.7478, 29.9839, 6.35895, 1.5401, 3.7543, 0.0293689, 0.000465417, -0.00104295, 0.00184497, 0.00123475, 4.61369e-05, -0.00036349, 0.0146758, -0.019367, -0.00451777, 0.0125396, 0.0680032, 0.0113824, 0.471007, -0.543169, 0.335952, -2.08368, -2.1658, -0.129903, 0.469882, -0.542468, 0.334234, -2.08263, -2.16568, -0.128617, -9.56382e-05, 0.0107574, 0.00281294, 0.0196082, -0.00224138, -0.00451229
0.0731387, 1.69233, -1.22773, -1.53933, -0.900467, -1.19283, 1.22974, -1.30266, 0.0279757, -0.00412964, -0.0126118, -8.58316e-05, -0.0415942, 0.0553465, -0.000243525, 1.79694, 62.8232, 29.9839, 6.32324, 1.54651, 3.74057, 0.0229602, 0.000448647, -0.00102543, 0.00185085, 0.00121867, -1.456e-05, -0.000364401, 0.0159458, -0.0187493, -0.00467561, 0.0146364, 0.0672662, 0.00892704, 0.471007, -0.543159, 0.335955, -2.08368, -2.1658, -0.129904, 0.469899, -0.542473, 0.334228, -2.08266, -2.16572, -0.128574, -0.00010043, 0.0110943, 0.00289937, 0.0190263, -0.00315916, -0.00476046
0.0741387, 1.69237, -1.22773, -1.53935, -0.900466, -1.19288, 1.2298, -1.30266, 0.0290503, -0.00280187, -0.015441, -5.58969e-05, -0.0417847, 0.0514511, 0.00105835, 1.72157, 62.8232, 30.095, 6.32324, 1.58313, 3.72592, -0.00999879, 0.000433662, -0.00100395, 0.00185639, 0.00120964, -8.84823e-05, -0.000367837, 0.0159241, -0.0180824, -0.00532612, 0.00870197, 0.0672877, 0.00724233, 0.471006, -0.543147, 0.335958, -2.08367, -2.1658, -0.129905, 0.469921, -0.542475, 0.334222, -2.08269, -2.16577, -0.12851, -0.000105375, 0.011436, 0.00298692, 0.018331, -0.00272313, -0.00529187
0.0751387, 1.6924, -1.22774, -1.53936, -0.90046, -1.19292, 1.22985, -1.30266, 0.027643, -0.00366774, -0.0138979, 0.00172697, -0.046295, 0.048034, -4.0415e-05, 1.72157, 62.8986, 30.0593, 6.24786, 1.60785, 3.72592, 0.0101428, 0.000416411, -0.000986553, 0.00186077, 0.00119379, -0.000152365, -0.000371503, 0.017732, -0.016043, -0.00529842, 0.00602846, 0.0683878, 0.00466849, 0.471006, -0.543136, 0.335961, -2.08366, -2.1658, -0.129906, 0.469939, -0.542479, 0.334218, -2.08272, -2.16582, -0.128464, -0.000110477, 0.0117823, 0.00307558, 0.0163549, -0.00424934, -0.00539518
0.0761387, 1.69244, -1.22774, -1.53937, -0.900458, -1.19297, 1.2299, -1.30266, 0.0287218, -0.00330782, -0.0156024, 0.00401562, -0.0491029, 0.0503389, 0.000719043, 1.64619, 62.9343, 30.1346, 6.24786, 1.62067, 3.7186, -0.00999879, 0.000401821, -0.000964578, 0.00186702, 0.00118624, -0.000223064, -0.000377983, 0.0194083, -0.01593, -0.00526156, 0.00623975, 0.0723913, 0.00123808, 0.471006, -0.543124, 0.335964, -2.08365, -2.16579, -0.129907, 0.469961, -0.54248, 0.334212, -2.08274, -2.16586, -0.128402, -0.000115737, 0.0121332, 0.00316535, 0.0162982, -0.00556343, -0.00552614
0.0771387, 1.69247, -1.22773, -1.53938, -0.900453, -1.19302, 1.22995, -1.30266, 0.0276672, 0.000372664, -0.0140332, 0.00575612, -0.0515476, 0.0523269, 0.000208095, 1.64619, 62.8232, 30.095, 6.24786, 1.63898, 3.70395, -0.00267457, 0.000384563, -0.000946543, 0.00186341, 0.00116767, -0.000305364, -0.000380016, 0.020778, -0.0152419, -0.00210264, 0.00955938, 0.0790202, -0.00091387, 0.471006, -0.543112, 0.335967, -2.08364, -2.16579, -0.129908, 0.46998, -0.542484, 0.334215, -2.08278, -2.16592, -0.128341, -0.000121158, 0.0124888, 0.00325621, 0.015769, -0.00707473, -0.00250831
0.0781387, 1.69251, -1.22774, -1.5394, -0.900449, -1.19307, 1.23001, -1.30265, 0.0326967, -0.00153023, -0.0148522, 0.00518148, -0.0484307, 0.0532652, 0.00112207, 1.53114, 62.8986, 30.1346, 6.20819, 1.65088, 3.70395, -0.0292249, 0.000368904, -0.000923743, 0.00187104, 0.00116135, -0.000377291, -0.00038228, 0.0185698, -0.0185983, -0.00380903, 0.00995793, 0.0755592, 0.00435467, 0.471006, -0.5431, 0.33597, -2.08363, -2.16579, -0.129909, 0.470003, -0.542485, 0.334208, -2.08281, -2.16596, -0.128276, -0.000126741, 0.012849, 0.00334816, 0.0189747, -0.0041341, -0.00385993
0.0791387, 1.69254, -1.22774, -1.53942, -0.900446, -1.19312, 1.23006, -1.30265, 0.0305317, -0.00186695, -0.0153284, 0.00376635, -0.0501007, 0.0535819, -0.000710012, 1.53114, 62.9343, 30.1703, 6.20819, 1.65088, 3.71127, 0.0101428, 0.000350381, -0.000906122, 0.00187656, 0.00115583, -0.000449901, -0.000387238, 0.0199802, -0.0174856, -0.00426414, 0.00873546, 0.0771052, 0.0045402, 0.471006, -0.543087, 0.335973, -2.08362, -2.16579, -0.129909, 0.47002, -0.542489, 0.334202, -2.08284, -2.16601, -0.12821, -0.00013249, 0.0132137, 0.00344119, 0.0178917, -0.0051371, -0.00440192
0.0801387, 1.69258, -1.22774, -1.53944, -0.900444, -1.19318, 1.23011, -1.30265, 0.0307249, -0.00208853, -0.0156441, 0.00181691, -0.0468629, 0.0499665, 1.37671e-06, 1.45576, 62.97, 30.206, 6.24786, 1.65088, 3.70395, -0.00267457, 0.000334082, -0.00088272, 0.00188339, 0.00114932, -0.000527053, -0.000397621, 0.0187636, -0.0176741, -0.00513998, 0.00591374, 0.0729137, 0.00669095, 0.471006, -0.543074, 0.335977, -2.08361, -2.16578, -0.12991, 0.470044, -0.54249, 0.334196, -2.08286, -2.16606, -0.128141, -0.000138406, 0.013583, 0.0035353, 0.0179987, -0.00342396, -0.00498953
0.0811387, 1.69262, -1.22774, -1.53946, -0.900435, -1.19323, 1.23016, -1.30266, 0.0342153, -0.00139887, -0.0159029, 0.00596759, -0.0489932, 0.056341, -0.00118588, 1.49146, 62.97, 30.2457, 6.17248, 1.64447, 3.70395, 0.0293689, 0.00031194, -0.000866919, 0.00188765, 0.00114319, -0.000605442, -0.000392726, 0.0199013, -0.0195679, -0.00390903, 0.0117836, 0.0785356, 0.0068766, 0.471006, -0.54306, 0.33598, -2.0836, -2.16578, -0.129911, 0.47006, -0.542497, 0.334191, -2.0829, -2.1661, -0.128069, -0.00014449, 0.0139569, 0.00363046, 0.0199694, -0.00428512, -0.00391319
0.0821387, 1.69266, -1.22774, -1.53947, -0.900436, -1.19329, 1.23021, -1.30266, 0.0369405, -0.000102243, -0.0141577, 0.00258159, -0.0555756, 0.0559115, -0.000790584, 1.41608, 62.9343, 30.206, 6.24786, 1.64447, 3.7186, 0.0293689, 0.000296374, -0.000843415, 0.00189079, 0.00113796, -0.000690559, -0.000403935, 0.0188454, -0.0213117, -0.00321224, 0.00801638, 0.0855542, 0.0107894, 0.471006, -0.543046, 0.335984, -2.08359, -2.16578, -0.129913, 0.470084, -0.542497, 0.334189, -2.08292, -2.16616, -0.12799, -0.000150747, 0.0143352, 0.00372669, 0.0216922, -0.00290011, -0.00301791
0.0831387, 1.6927, -1.22774, -1.53949, -0.90043, -1.19335, 1.23026, -1.30265, 0.0376641, 0.000763393, -0.013914, 0.00292391, -0.0565424, 0.0511022, 0.000931006, 1.38038, 62.8986, 30.206, 6.20819, 1.66369, 3.72592, -0.00999879, 0.000277571, -0.000823377, 0.00189436, 0.0011347, -0.00077282, -0.000405278, 0.0185775, -0.0206733, -0.00306522, 0.00378761, 0.0850917, 0.00929178, 0.471005, -0.543032, 0.335988, -2.08358, -2.16578, -0.129914, 0.470104, -0.5425, 0.334185, -2.08295, -2.16621, -0.127912, -0.000157176, 0.014718, 0.00382396, 0.0210439, -0.00230154, -0.00271478
0.0841387, 1.69273, -1.22775, -1.53951, -0.900422, -1.1934, 1.23031, -1.30265, 0.0356633, -0.00199947, -0.014834, 0.00299061, -0.0513878, 0.0517094, -0.000362674, 1.45576, 63.0057, 30.2457, 6.17248, 1.65729, 3.74698, 0.0165515, 0.000253937, -0.000806814, 0.00190368, 0.00113246, -0.000847271, -0.000401043, 0.0193771, -0.0201088, -0.00488517, 0.00608567, 0.0786927, 0.00991314, 0.471005, -0.543017, 0.335992, -2.08357, -2.16577, -0.129915, 0.470121, -0.542506, 0.334176, -2.08299, -2.16624, -0.127839, -0.000163782, 0.0151053, 0.00392227, 0.0204362, -0.00244615, -0.00452086
0.0851396, 1.69278, -1.22775, -1.53953, -0.900424, -1.19347, 1.23036, -1.30265, 0.0372199, -0.00133504, -0.0188303, 0.00328165, -0.0527396, 0.0526946, 0.000470295, 1.41608, 63.0057, 30.2814, 6.24786, 1.65729, 3.74698, -0.00267457, 0.000236051, -0.000784173, 0.00191083, 0.00113927, -0.00093504, -0.000407532, 0.0203121, -0.020223, -0.00590313, 0.00283688, 0.0815233, 0.0080163, 0.471005, -0.543002, 0.335996, -2.08356, -2.16577, -0.129916, 0.470144, -0.542507, 0.334169, -2.08301, -2.16629, -0.127745, -0.000170564, 0.0154971, 0.00402162, 0.0205401, -0.00281575, -0.00557564
0.0861396, 1.69281, -1.22776, -1.53955, -0.900421, -1.19353, 1.23042, -1.30265, 0.0393213, -0.00349003, -0.0176051, 0.00455176, -0.0540079, 0.0493436, 0.000822156, 1.45576, 63.1168, 30.2814, 6.28357, 1.66919, 3.74057, -0.0164075, 0.000213334, -0.000764333, 0.00192193, 0.00113928, -0.0010139, -0.000407208, 0.0200108, -0.0206112, -0.00700087, 0.000567813, 0.0789256, 0.00886237, 0.471005, -0.542986, 0.336, -2.08355, -2.16577, -0.129917, 0.470164, -0.542511, 0.334158, -2.08304, -2.16633, -0.127666, -0.000177527, 0.0158932, 0.00412199, 0.0208703, -0.00193691, -0.00652438
0.0871396, 1.69286, -1.22775, -1.53957, -0.900409, -1.1936, 1.23047, -1.30265, 0.0405491, -0.00149263, -0.0175455, 0.00530256, -0.0596677, 0.0520518, 0.00126018, 1.38038, 63.0811, 30.3211, 6.20819, 1.68201, 3.7186, -0.0356336, 0.000192283, -0.000741817, 0.00192665, 0.00114013, -0.00110622, -0.00040657, 0.0213004, -0.0209594, -0.00556236, 0.000741742, 0.0871575, 0.00712082, 0.471005, -0.542971, 0.336004, -2.08354, -2.16576, -0.129918, 0.470187, -0.542514, 0.334154, -2.08308, -2.16638, -0.127572, -0.000184671, 0.0162937, 0.00422337, 0.0213092, -0.0030167, -0.00521386
0.0881494, 1.6929, -1.22776, -1.53959, -0.900416, -1.19367, 1.23052, -1.30265, 0.0396313, -0.00183117, -0.0198178, 0.000387176, -0.0636481, 0.0534989, 0.000128044, 1.38038, 63.1168, 30.3211, 6.35895, 1.6875, 3.71127, -0.0164075, 0.000172493, -0.000719622, 0.00193621, 0.00115171, -0.00119706, -0.000418594, 0.0221063, -0.0209592, -0.0071094, -0.00398897, 0.0916454, 0.00927856, 0.471005, -0.542954, 0.336008, -2.08353, -2.16576, -0.129919, 0.470209, -0.542515, 0.334145, -2.08309, -2.16644, -0.12747, -0.000192, 0.0166987, 0.00432576, 0.0212745, -0.0031687, -0.00676452
0.0891494, 1.69295, -1.22775, -1.53962, -0.90041, -1.19375, 1.23056, -1.30266, 0.0399365, -0.000386215, -0.0198108, 0.00137729, -0.0666007, 0.0492541, -0.0013727, 1.34071, 63.0811, 30.3925, 6.32324, 1.69391, 3.7186, 0.0229602, 0.000149295, -0.000700266, 0.00194304, 0.00116893, -0.00129646, -0.000425031, 0.0226909, -0.0197691, -0.0065447, -0.00843377, 0.0936308, 0.00923872, 0.471004, -0.542938, 0.336012, -2.08351, -2.16576, -0.129921, 0.470229, -0.542519, 0.334138, -2.08312, -2.16649, -0.127352, -0.000199514, 0.0171079, 0.00442916, 0.02012, -0.00347224, -0.00615867
0.0901494, 1.693, -1.22776, -1.53964, -0.900409, -1.19383, 1.23061, -1.30266, 0.0392074, -0.00369164, -0.0180178, -0.00053927, -0.0640902, 0.0413576, -0.00166112, 1.34071, 63.2278, 30.3925, 6.39465, 1.69391, 3.72592, 0.0431018, 0.000126981, -0.000678443, 0.00195559, 0.00118411, -0.0013857, -0.000430885, 0.0214892, -0.0189955, -0.00881274, -0.0135629, 0.0847088, 0.0122728, 0.471004, -0.54292, 0.336017, -2.0835, -2.16575, -0.129922, 0.470251, -0.542521, 0.334126, -2.08313, -2.16654, -0.127246, -0.000207216, 0.0175215, 0.00453354, 0.0192142, -0.0015543, -0.00808378
0.0911494, 1.69305, -1.22775, -1.53966, -0.900407, -1.1939, 1.23065, -1.30266, 0.0387131, 0.000972214, -0.0151926, -0.000199787, -0.0713072, 0.0446624, -0.000598786, 1.34071, 63.0811, 30.3211, 6.39465, 1.6875, 3.74057, 0.0293689, 0.000106866, -0.000656864, 0.00195742, 0.00119767, -0.00148951, -0.000435086, 0.0229849, -0.0188425, -0.00473818, -0.0108732, 0.0969828, 0.00932953, 0.471004, -0.542903, 0.336021, -2.08349, -2.16575, -0.129923, 0.470273, -0.542523, 0.334125, -2.08316, -2.16659, -0.127128, -0.000215108, 0.0179394, 0.00463891, 0.0192551, -0.00324711, -0.00418343
0.0921494, 1.69309, -1.22776, -1.53969, -0.900408, -1.19399, 1.23069, -1.30265, 0.0407235, -0.00195059, -0.0166227, -0.000941416, -0.0721566, 0.0468563, 7.55273e-05, 1.38038, 63.1921, 30.3925, 6.43433, 1.6875, 3.76163, 0.0165515, 8.21605e-05, -0.000636393, 0.00197183, 0.00122092, -0.00158367, -0.000435859, 0.0232704, -0.0202375, -0.00701795, -0.0114475, 0.0963843, 0.010413, 0.471004, -0.542885, 0.336026, -2.08348, -2.16575, -0.129924, 0.470294, -0.542526, 0.334111, -2.08318, -2.16664, -0.127008, -0.000223192, 0.0183616, 0.00474526, 0.0205677, -0.00269795, -0.00641509
0.0931494, 1.69315, -1.22776, -1.53971, -0.900407, -1.19406, 1.23074, -1.30266, 0.0479185, -0.0013006, -0.0191257, -0.00137298, -0.0718686, 0.0395183, -0.000932993, 1.305, 63.1921, 30.3925, 6.47003, 1.65729, 3.77627, 0.0431018, 6.45793e-05, -0.000609193, 0.00198148, 0.00124101, -0.00167909, -0.000454689, 0.0200198, -0.0226018, -0.00864683, -0.0210694, 0.0939069, 0.0178184, 0.471003, -0.542867, 0.336031, -2.08346, -2.16574, -0.129926, 0.470321, -0.542522, 0.334103, -2.08319, -2.1667, -0.126892, -0.00023147, 0.0187881, 0.00485258, 0.0227449, 0.00128594, -0.0074828
0.0941494, 1.6932, -1.22776, -1.53973, -0.900401, -1.19415, 1.23078, -1.30265, 0.0514158, -0.00170244, -0.0202635, -1.27187e-05, -0.0726367, 0.0391559, 0.00158205, 1.305, 63.2278, 30.3568, 6.43433, 1.65088, 3.77627, -0.0164075, 3.98493e-05, -0.000588908, 0.00199036, 0.00126132, -0.00177913, -0.000449126, 0.0196984, -0.0239086, -0.00935225, -0.0225885, 0.0943407, 0.0168076, 0.471003, -0.542848, 0.336035, -2.08345, -2.16574, -0.129927, 0.470341, -0.542526, 0.334094, -2.08322, -2.16674, -0.126769, -0.000239944, 0.0192188, 0.00496086, 0.0240044, 0.00219663, -0.00806105
0.0951494, 1.69325, -1.22776, -1.53975, -0.900401, -1.19423, 1.23082, -1.30265, 0.0541473, -0.000299857, -0.0177423, -0.000793158, -0.0736848, 0.0338748, 0.00129206, 1.305, 63.1921, 30.3211, 6.47003, 1.65729, 3.7836, -0.0228162, 1.74426e-05, -0.000565976, 0.0019977, 0.00128494, -0.00188638, -0.000455789, 0.0176998, -0.0249445, -0.00838784, -0.0260561, 0.0942943, 0.0213457, 0.471003, -0.542829, 0.33604, -2.08343, -2.16574, -0.129929, 0.470365, -0.542527, 0.334088, -2.08324, -2.16679, -0.126636, -0.000248615, 0.0196537, 0.00507009, 0.0249936, 0.00449862, -0.00672062
0.0961494, 1.6933, -1.22776, -1.53979, -0.900397, -1.19432, 1.23086, -1.30265, 0.0532231, -0.00103521, -0.0229385, -0.000490868, -0.0786897, 0.0349899, 0.000624015, 1.305, 63.2278, 30.4322, 6.47003, 1.65088, 3.7836, -0.0164075, -9.35527e-06, -0.000546597, 0.00201237, 0.00131959, -0.00198733, -0.000451635, 0.020908, -0.0230911, -0.0105104, -0.0316621, 0.0988266, 0.0167287, 0.471003, -0.542809, 0.336045, -2.08342, -2.16573, -0.12993, 0.470384, -0.54253, 0.334074, -2.08327, -2.16683, -0.126496, -0.000257487, 0.0200928, 0.00518027, 0.0231717, 0.00202208, -0.00914917
0.0971494, 1.69336, -1.22776, -1.53981, -0.900396, -1.19441, 1.2309, -1.30265, 0.0548118, -0.000690205, -0.0229803, -0.000298818, -0.0872326, 0.0356004, -0.00104205, 1.34071, 63.2278, 30.3925, 6.47003, 1.65729, 3.7836, 0.0229602, -3.50876e-05, -0.000526222, 0.00202177, 0.00134888, -0.00209626, -0.000460421, 0.0224432, -0.0230712, -0.0103596, -0.035193, 0.106837, 0.0169613, 0.471002, -0.542789, 0.336051, -2.08341, -2.16573, -0.129932, 0.470405, -0.542533, 0.334065, -2.08328, -2.16688, -0.126355, -0.000266561, 0.0205361, 0.00529139, 0.0232033, 0.000925988, -0.0091276
0.0981494, 1.69341, -1.22777, -1.53983, -0.900397, -1.1945, 1.23093, -1.30265, 0.0512883, -0.00222342, -0.0214215, 0.00172782, -0.0926037, 0.0409857, 1.73753e-05, 1.305, 63.3032, 30.2814, 6.5097, 1.64447, 3.7836, 0.00373412, -5.75495e-05, -0.000501813, 0.00203202, 0.00137165, -0.00219714, -0.000470692, 0.0265125, -0.0213198, -0.00980323, -0.0301918, 0.112316, 0.00967729, 0.471002, -0.542768, 0.336056, -2.08339, -2.16572, -0.129933, 0.470429, -0.542532, 0.334056, -2.0833, -2.16694, -0.12623, -0.000275838, 0.0209836, 0.00540343, 0.0216112, -0.00280113, -0.00904624
0.0991494, 1.69347, -1.22776, -1.53986, -0.900393, -1.1946, 1.23097, -1.30265, 0.0496064, 0.00111614, -0.0239039, 0.00233204, -0.0887962, 0.0357383, 0.000757569, 1.22962, 63.1921, 30.3211, 6.47003, 1.65729, 3.77627, -0.0164075, -8.29963e-05, -0.000480818, 0.00204012, 0.00140902, -0.00231291, -0.000470299, 0.0268087, -0.0192049, -0.00904862, -0.0342398, 0.110321, 0.00679818, 0.471002, -0.542747, 0.336061, -2.08338, -2.16572, -0.129935, 0.470451, -0.542534, 0.334049, -2.08332, -2.16699, -0.126073, -0.000285321, 0.0214351, 0.00551641, 0.0195277, -0.002845, -0.00817046
0.100149, 1.69352, -1.22777, -1.53988, -0.900396, -1.19469, 1.231, -1.30265, 0.0487411, -0.00352483, -0.0230712, 0.000815773, -0.0896318, 0.0362993, -0.000953016, 1.26533, 63.3746, 30.2457, 6.5097, 1.64447, 3.77627, 0.0229602, -0.000109797, -0.000460732, 0.00205653, 0.00144047, -0.0024071, -0.000480064, 0.0276953, -0.0192927, -0.0116382, -0.0343108, 0.107045, 0.00922834, 0.471002, -0.542726, 0.336067, -2.08336, -2.16572, -0.129936, 0.470471, -0.542536, 0.334033, -2.08333, -2.16703, -0.125945, -0.000295012, 0.0218908, 0.00563029, 0.0195434, -0.0028613, -0.0107544
0.101149, 1.69358, -1.22777, -1.5399, -0.900398, -1.19478, 1.23104, -1.30266, 0.0477959, 0.00024855, -0.0233461, -0.000149543, -0.0914049, 0.0319233, -0.00111006, 1.18995, 63.2635, 30.206, 6.54541, 1.65729, 3.77627, 0.0357776, -0.000130534, -0.00043498, 0.00206259, 0.00147511, -0.00252296, -0.00049647, 0.0279008, -0.0178551, -0.0100226, -0.0390869, 0.110506, 0.00854093, 0.471001, -0.542704, 0.336072, -2.08334, -2.16571, -0.129938, 0.470497, -0.542533, 0.334029, -2.08333, -2.1671, -0.125792, -0.000304912, 0.0223506, 0.00574509, 0.0181639, -0.00291236, -0.00903319
0.102149, 1.69363, -1.22777, -1.53993, -0.900396, -1.19488, 1.23107, -1.30265, 0.0501045, 0.00638918, -0.0264601, 0.00376682, -0.0911937, 0.032769, -2.79645e-05, 1.11457, 63.2635, 30.2814, 6.5097, 1.63898, 3.79001, 0.0165515, -0.000156715, -0.000414419, 0.00207658, 0.00152025, -0.00262828, -0.000494284, 0.0286313, -0.0177877, -0.00705698, -0.0388712, 0.117147, 0.00481426, 0.471001, -0.542682, 0.336078, -2.08333, -2.16571, -0.12994, 0.470517, -0.542533, 0.334016, -2.08335, -2.16713, -0.125637, -0.000315023, 0.0228145, 0.00586078, 0.0182207, -0.00362958, -0.00610137
0.103149, 1.69368, -1.22776, -1.53995, -0.900401, -1.19498, 1.2311, -1.30265, 0.0489482, 0.00561328, -0.0285816, 0.00107149, -0.0923447, 0.0349493, -0.000256002, 1.15424, 63.2278, 30.206, 6.58508, 1.64447, 3.76895, 0.0229602, -0.000184919, -0.000396593, 0.00208516, 0.00155731, -0.00274272, -0.000499386, 0.0297932, -0.0176456, -0.00842565, -0.040446, 0.119079, 0.00492021, 0.471001, -0.542659, 0.336084, -2.08331, -2.1657, -0.129941, 0.470535, -0.542536, 0.334009, -2.08337, -2.16719, -0.125482, -0.000325348, 0.0232823, 0.00597737, 0.0180605, -0.00410316, -0.00751305
0.104149, 1.69374, -1.22776, -1.53998, -0.900401, -1.19508, 1.23113, -1.30265, 0.0509244, 0.00413115, -0.0283997, 0.000121752, -0.0927904, 0.0308687, 0.00105004, 1.07887, 63.2278, 30.206, 6.62079, 1.64447, 3.76895, -0.00999879, -0.000211147, -0.000374935, 0.00209709, 0.0016006, -0.00285435, -0.000502897, 0.0288812, -0.0182236, -0.0098679, -0.0448323, 0.116432, 0.00639823, 0.471, -0.542636, 0.33609, -2.08329, -2.1657, -0.129943, 0.470557, -0.542536, 0.333998, -2.08338, -2.16723, -0.125323, -0.000335889, 0.0237543, 0.00609484, 0.0185419, -0.0024844, -0.00869578
0.105149, 1.69379, -1.22776, -1.54001, -0.9004, -1.19517, 1.23115, -1.30265, 0.0482909, 0.00388104, -0.024887, 0.000263148, -0.0931836, 0.0280979, 0.00639178, 1.03919, 63.1921, 30.206, 6.62079, 1.65088, 3.76163, -0.0228162, -0.000239779, -0.000356933, 0.00210731, 0.00164317, -0.00296558, -0.000499066, 0.0296654, -0.0167815, -0.00889409, -0.0438014, 0.115164, -7.49243e-05, 0.471, -0.542612, 0.336096, -2.08328, -2.16569, -0.129945, 0.470575, -0.542538, 0.333989, -2.0834, -2.16727, -0.125164, -0.000346646, 0.0242302, 0.00621319, 0.0171546, -0.00299188, -0.00769457
0.106149, 1.69385, -1.22776, -1.54003, -0.900398, -1.19528, 1.23118, -1.30265, 0.0509275, 0.00364137, -0.0212224, 0.000311918, -0.0942279, 0.0257345, 0.00445858, 0.928108, 63.1564, 30.1703, 6.62079, 1.6756, 3.76163, -0.0164075, -0.000267711, -0.000337472, 0.00211681, 0.00168689, -0.00307937, -0.000504722, 0.0282192, -0.0183457, -0.00811554, -0.0434516, 0.114801, 0.00586851, 0.471, -0.542588, 0.336102, -2.08326, -2.16569, -0.129946, 0.470595, -0.542539, 0.333981, -2.08341, -2.16732, -0.125002, -0.000357622, 0.0247101, 0.00633241, 0.0186822, -0.00113981, -0.00662971
0.107149, 1.69389, -1.22775, -1.54006, -0.9004, -1.19537, 1.2312, -1.30265, 0.0536913, 0.00435491, -0.021292, -0.00145293, -0.0930167, 0.0239585, 0.00306109, 0.928108, 63.0811, 30.2457, 6.69617, 1.65088, 3.76163, -0.00999879, -0.000298145, -0.000322531, 0.00212613, 0.00173053, -0.00318987, -0.000500598, 0.0264846, -0.020072, -0.00830901, -0.0456041, 0.11424, 0.011937, 0.470999, -0.542563, 0.336109, -2.08324, -2.16568, -0.129948, 0.47061, -0.542542, 0.333973, -2.08343, -2.16735, -0.124843, -0.000368819, 0.025194, 0.00645249, 0.0203257, 0.00115761, -0.00648378
0.108149, 1.69395, -1.22776, -1.54007, -0.900405, -1.19547, 1.23122, -1.30265, 0.0511986, 0.0012631, -0.018454, -0.00265508, -0.0933562, 0.0223714, 0.00177665, 0.85273, 63.1564, 30.206, 6.77154, 1.65088, 3.76895, 0.00373412, -0.000324699, -0.000302131, 0.00214018, 0.00177669, -0.00329225, -0.000514245, 0.0273381, -0.0191651, -0.00933794, -0.0450171, 0.110851, 0.0131546, 0.470999, -0.542538, 0.336115, -2.08322, -2.16568, -0.12995, 0.470631, -0.54254, 0.333961, -2.08343, -2.1674, -0.124691, -0.000380238, 0.0256818, 0.00657343, 0.0194018, 0.000924606, -0.00748448
0.109149, 1.694, -1.22775, -1.54009, -0.900404, -1.19557, 1.23124, -1.30265, 0.0525408, 0.00353283, -0.0201542, -0.00171248, -0.0938324, 0.0268246, 0.000655768, 0.777352, 63.0453, 30.1703, 6.77154, 1.65729, 3.7543, 0.0229602, -0.000353863, -0.000284803, 0.00214583, 0.00181883, -0.00340938, -0.000518637, 0.0282221, -0.0201234, -0.0081931, -0.0423314, 0.116136, 0.0138093, 0.470999, -0.542512, 0.336122, -2.0832, -2.16567, -0.129952, 0.470649, -0.542542, 0.333957, -2.08344, -2.16745, -0.124528, -0.000391882, 0.0261735, 0.00669522, 0.0204208, 0.000406798, -0.00639963
0.110149, 1.69405, -1.22775, -1.54011, -0.900405, -1.19567, 1.23126, -1.30265, 0.0541429, 0.00242444, -0.0186997, -0.00193368, -0.0986633, 0.0247499, 0.000812096, 0.6623, 63.0453, 30.1703, 6.80725, 1.66369, 3.7543, 0.0165515, -0.000382575, -0.000266293, 0.00215659, 0.00186261, -0.00351568, -0.000522767, 0.0284934, -0.0204208, -0.00866457, -0.0454624, 0.118305, 0.0145743, 0.470998, -0.542486, 0.336128, -2.08318, -2.16567, -0.129954, 0.470667, -0.542542, 0.333948, -2.08345, -2.1675, -0.124374, -0.000403753, 0.0266691, 0.00681784, 0.0206985, 0.000719933, -0.00679436
0.111149, 1.6941, -1.22774, -1.54013, -0.90041, -1.19577, 1.23128, -1.30266, 0.0513593, 0.00426667, -0.0175432, -0.00385519, -0.093027, 0.0284619, -6.75103e-05, 0.586922, 62.9343, 30.1703, 6.91833, 1.66919, 3.74057, 0.0357776, -0.000411307, -0.000248583, 0.00216172, 0.00190634, -0.0036347, -0.000529881, 0.0285288, -0.0207677, -0.00700941, -0.0388296, 0.117723, 0.016836, 0.470998, -0.542459, 0.336135, -2.08317, -2.16566, -0.129956, 0.470685, -0.542542, 0.333944, -2.08346, -2.16755, -0.124207, -0.000415851, 0.0271686, 0.0069413, 0.0210946, 0.000943645, -0.00505335
0.112149, 1.69416, -1.22774, -1.54015, -0.900411, -1.19586, 1.2313, -1.30265, 0.0500699, 0.00288339, -0.0166194, -0.00347385, -0.0934914, 0.0270822, 0.00121916, 0.475838, 62.9343, 30.1703, 6.95801, 1.6756, 3.71127, 0.00373412, -0.000440148, -0.000229593, 0.00217327, 0.00194821, -0.00373734, -0.000529805, 0.029618, -0.0198377, -0.00753769, -0.0390774, 0.116279, 0.0142939, 0.470997, -0.542432, 0.336142, -2.08315, -2.16566, -0.129958, 0.470705, -0.54254, 0.333935, -2.08347, -2.16758, -0.124059, -0.000428179, 0.027672, 0.00706559, 0.0201734, 0.000415273, -0.00559246
0.113149, 1.69421, -1.22774, -1.54017, -0.900414, -1.19596, 1.23132, -1.30265, 0.049958, 0.00454992, -0.0151465, -0.0031329, -0.0933263, 0.0206904, 0.00110817, 0.325081, 62.8232, 30.1346, 6.99371, 1.66369, 3.69754, -0.00267457, -0.000466975, -0.000210031, 0.00217837, 0.00198734, -0.00384674, -0.000537654, 0.0291309, -0.0187719, -0.00658588, -0.0428498, 0.114885, 0.0147531, 0.470997, -0.542404, 0.336149, -2.08313, -2.16565, -0.12996, 0.470724, -0.542538, 0.333932, -2.08348, -2.16763, -0.123907, -0.000440739, 0.0281791, 0.00719069, 0.0191137, 0.00121281, -0.00441985
0.114149, 1.69426, -1.22773, -1.54019, -0.900414, -1.19605, 1.23133, -1.30265, 0.0471398, 0.00221997, -0.0122822, -0.00207494, -0.0933769, 0.0200932, 0.00129093, 0.285408, 62.8589, 30.1703, 6.99371, 1.65729, 3.69754, -0.0164075, -0.000499203, -0.000195592, 0.00218787, 0.00203047, -0.00395048, -0.000538024, 0.0307935, -0.0173822, -0.00674073, -0.0400529, 0.112313, 0.0122978, 0.470997, -0.542376, 0.336156, -2.08311, -2.16564, -0.129962, 0.470739, -0.542539, 0.333925, -2.08349, -2.16767, -0.123756, -0.000453532, 0.0286901, 0.0073166, 0.0177673, 4.95182e-05, -0.00466391
0.115149, 1.69431, -1.22773, -1.5402, -0.900419, -1.19615, 1.23135, -1.30265, 0.0511096, 0.00316684, -0.0099809, -0.00313628, -0.0936126, 0.01977, 0.000655904, 0.134651, 62.7875, 30.0593, 7.06909, 1.66369, 3.69754, -0.00999879, -0.000525939, -0.000175272, 0.00219404, 0.00207016, -0.00405834, -0.000549676, 0.0286834, -0.0201462, -0.00579534, -0.0393626, 0.113731, 0.0188309, 0.470996, -0.542347, 0.336164, -2.08308, -2.16564, -0.129964, 0.47076, -0.542535, 0.333921, -2.08349, -2.16772, -0.123606, -0.00046656, 0.0292049, 0.00744332, 0.0204734, 0.00261558, -0.00336017
0.116149, 1.69435, -1.22772, -1.54021, -0.900419, -1.19625, 1.23136, -1.30264, 0.0470194, 0.004722, -0.0109503, -0.00208317, -0.0983649, 0.0189641, 0.00093647, 0.134651, 62.6764, 30.0593, 7.06909, 1.6756, 3.71127, -0.0228162, -0.000560599, -0.000164552, 0.00219888, 0.00211484, -0.00417009, -0.000541487, 0.0322624, -0.0167295, -0.00496888, -0.0417628, 0.119001, 0.0115511, 0.470996, -0.542318, 0.336171, -2.08306, -2.16563, -0.129966, 0.470771, -0.542539, 0.333918, -2.08351, -2.16775, -0.123444, -0.000479825, 0.0297235, 0.00757084, 0.017207, -0.000667085, -0.00287038
0.117149, 1.6944, -1.22772, -1.54022, -0.900421, -1.19635, 1.23137, -1.30265, 0.0457814, 0.00399246, -0.0109177, -0.00138301, -0.0975282, 0.0147358, -0.00105275, 0.059273, 62.6407, 30.0236, 7.06909, 1.68201, 3.69754, 0.0229602, -0.000593203, -0.000150288, 0.00220571, 0.00215491, -0.00427574, -0.000547774, 0.0330152, -0.0152131, -0.00563967, -0.0444655, 0.115775, 0.0120433, 0.470995, -0.542288, 0.336179, -2.08304, -2.16563, -0.129968, 0.470786, -0.54254, 0.333913, -2.08351, -2.1678, -0.123295, -0.000493328, 0.0302458, 0.00769914, 0.0156818, -0.000846456, -0.00347594
0.118149, 1.69444, -1.22773, -1.54024, -0.900425, -1.19645, 1.23138, -1.30265, 0.0483744, 0.000998135, -0.0083507, -0.00268092, -0.0964291, 0.0112835, -0.00116278, -0.0161054, 62.7121, 30.0236, 7.14447, 1.68201, 3.69021, 0.0357776, -0.000627186, -0.000135818, 0.00221814, 0.00220158, -0.00437809, -0.000550897, 0.0311854, -0.0169538, -0.00715804, -0.0458759, 0.110594, 0.0175364, 0.470995, -0.542258, 0.336186, -2.08302, -2.16562, -0.129971, 0.4708, -0.54254, 0.333903, -2.08351, -2.16784, -0.123142, -0.000507072, 0.0307718, 0.00782823, 0.0172851, 0.00179249, -0.00461481
0.119149, 1.6945, -1.22772, -1.54025, -0.900427, -1.19655, 1.23139, -1.30265, 0.0497816, 0.00150584, -0.00981887, -0.00261926, -0.0957763, 0.00922743, 0.000421938, -0.206535, 62.6764, 30.0236, 7.18018, 1.68201, 3.66824, 0.00373412, -0.000657178, -0.000116261, 0.00222541, 0.00224382, -0.00448797, -0.000557199, 0.0310364, -0.0171545, -0.00766982, -0.0486814, 0.110073, 0.0168292, 0.470994, -0.542227, 0.336194, -2.083, -2.16561, -0.129973, 0.47082, -0.542537, 0.333898, -2.08352, -2.16788, -0.122987, -0.000521058, 0.0313016, 0.00795809, 0.0174477, 0.00255696, -0.00497384
0.120149, 1.69454, -1.22771, -1.54025, -0.900429, -1.19666, 1.23141, -1.30265, 0.0478271, 0.00360625, -0.00650832, -0.00257896, -0.100513, 0.0173193, -0.00116902, -0.281914, 62.5653, 29.9839, 7.21588, 1.70032, 3.63986, 0.0431018, -0.000691593, -0.00010129, 0.00222543, 0.00227765, -0.00461079, -0.000562604, 0.033354, -0.0175397, -0.00447563, -0.0403533, 0.120151, 0.0164857, 0.470994, -0.542196, 0.336202, -2.08297, -2.16561, -0.129975, 0.470836, -0.542539, 0.3339, -2.08354, -2.16794, -0.122828, -0.000535288, 0.031835, 0.00808872, 0.0180186, 0.000325394, -0.00206307
0.121149, 1.69459, -1.22771, -1.54026, -0.900431, -1.19676, 1.23142, -1.30265, 0.0505048, 0.00240709, -0.00417148, -0.00171748, -0.103095, 0.0122924, -0.000773539, -0.392998, 62.5653, 29.9482, 7.21588, 1.6875, 3.65451, 0.0431018, -0.000725417, -8.69904e-05, 0.00223245, 0.00232116, -0.00471761, -0.000568606, 0.0325844, -0.0180696, -0.00485814, -0.0438798, 0.118835, 0.0182898, 0.470993, -0.542164, 0.33621, -2.08295, -2.1656, -0.129978, 0.470851, -0.542539, 0.333896, -2.08354, -2.16798, -0.122674, -0.000549763, 0.0323721, 0.00822011, 0.0184917, 0.00170343, -0.00220638
0.122149, 1.69464, -1.22771, -1.54026, -0.900437, -1.19686, 1.23142, -1.30265, 0.0491325, 0.00160692, -0.00235383, -0.00290686, -0.105332, 0.0189441, 0.000472009, -0.508049, 62.5653, 29.9085, 7.29126, 1.68201, 3.64718, 0.0165515, -0.000757879, -6.96249e-05, 0.00223939, 0.00236205, -0.00482736, -0.000572505, 0.034224, -0.0188639, -0.00423246, -0.0378578, 0.123496, 0.016932, 0.470993, -0.542132, 0.336219, -2.08293, -2.16559, -0.12998, 0.470868, -0.542537, 0.333892, -2.08354, -2.16803, -0.12252, -0.000564485, 0.0329128, 0.00835225, 0.0193523, 0.000562134, -0.00173705
0.123149, 1.69468, -1.22771, -1.54027, -0.900433, -1.19697, 1.23144, -1.30265, 0.0494489, 0.00190814, -0.00194487, -0.00110166, -0.102365, 0.0193606, 8.05816e-05, -0.543754, 62.5296, 29.9085, 7.25555, 1.68201, 3.63254, 0.0229602, -0.00079812, -5.92624e-05, 0.00224259, 0.00239896, -0.00494475, -0.000562761, 0.0345197, -0.0191111, -0.00368614, -0.0348205, 0.121789, 0.0172755, 0.470992, -0.542099, 0.336227, -2.0829, -2.16559, -0.129982, 0.470879, -0.542543, 0.33389, -2.08357, -2.16806, -0.122361, -0.000579456, 0.0334572, 0.00848514, 0.0196152, 0.000740745, -0.00111922
0.124149, 1.69472, -1.2277, -1.54028, -0.900437, -1.19708, 1.23144, -1.30265, 0.0487407, 0.004707, -0.00583907, -0.00156889, -0.099598, 0.0144345, 0.000768249, -0.658806, 62.3828, 29.9482, 7.29126, 1.66369, 3.63254, 0.00373412, -0.000832324, -4.47305e-05, 0.00224411, 0.00244231, -0.00506386, -0.000564001, 0.0347494, -0.0174855, -0.00392571, -0.0409861, 0.12055, 0.0153322, 0.470991, -0.542066, 0.336235, -2.08288, -2.16558, -0.129985, 0.470894, -0.542542, 0.333891, -2.08358, -2.16811, -0.122195, -0.000594677, 0.0340052, 0.00861877, 0.0179761, 0.00103223, -0.00120895
0.125149, 1.69477, -1.2277, -1.54028, -0.90044, -1.19719, 1.23145, -1.30265, 0.0471072, 0.00313893, -0.00345372, -0.00197337, -0.103219, 0.0110398, 0.00102263, -0.734184, 62.3828, 29.9085, 7.33093, 1.66919, 3.62521, -0.00999879, -0.000869238, -3.03898e-05, 0.0022485, 0.00247793, -0.00517754, -0.000564818, 0.0359374, -0.0160767, -0.00431157, -0.0434988, 0.120506, 0.0138177, 0.470991, -0.542032, 0.336244, -2.08286, -2.16557, -0.129987, 0.470909, -0.542543, 0.33389, -2.0836, -2.16815, -0.122042, -0.000610151, 0.0345567, 0.00875313, 0.0165826, 0.000412875, -0.00159839
0.126149, 1.69482, -1.22769, -1.54027, -0.900438, -1.1973, 1.23146, -1.30265, 0.0477371, 0.00690238, -0.00183404, -0.00131515, -0.105975, 0.00821903, 0.000174506, -0.884941, 62.3074, 29.8728, 7.33093, 1.6756, 3.62521, 0.00373412, -0.000905462, -1.43569e-05, 0.00224924, 0.00251121, -0.00529698, -0.000569185, 0.0359842, -0.0156701, -0.00175156, -0.0451688, 0.125378, 0.0145319, 0.47099, -0.541997, 0.336253, -2.08283, -2.16557, -0.12999, 0.470926, -0.542544, 0.333891, -2.08361, -2.1682, -0.121887, -0.000625878, 0.0351119, 0.00888822, 0.0162565, 0.000509551, 0.00106852
0.127149, 1.69486, -1.22768, -1.54028, -0.90044, -1.19741, 1.23147, -1.30265, 0.0446628, 0.00661917, -0.00233299, -0.00087644, -0.107473, 0.00612372, 0.000117371, -0.884941, 62.2321, 29.9085, 7.33093, 1.66919, 3.62521, 0.00373412, -0.000945274, -3.58651e-06, 0.00225079, 0.00255056, -0.00541672, -0.000564639, 0.0382667, -0.0132084, -0.00209749, -0.0473584, 0.125591, 0.010472, 0.47099, -0.541962, 0.336262, -2.0828, -2.16556, -0.129992, 0.470937, -0.542547, 0.333892, -2.08363, -2.16824, -0.121724, -0.00064186, 0.0356705, 0.00902402, 0.013852, -0.00123275, 0.000581566
0.128149, 1.69491, -1.22768, -1.54028, -0.900443, -1.19752, 1.23148, -1.30265, 0.0460155, 0.00367551, -0.00268966, -0.00141927, -0.108613, 0.00507438, -0.000870413, -1.0357, 62.2717, 29.9482, 7.36664, 1.66919, 3.61148, 0.0293689, -0.000981222, 1.49329e-05, 0.00225777, 0.00258837, -0.00553007, -0.000576122, 0.0385472, -0.0137571, -0.00423898, -0.0497207, 0.123597, 0.012817, 0.470989, -0.541926, 0.336271, -2.08278, -2.16555, -0.129995, 0.470956, -0.542545, 0.333888, -2.08363, -2.1683, -0.121571, -0.000658099, 0.0362327, 0.00916054, 0.0143154, -0.000593347, -0.00145763
0.129149, 1.69495, -1.22768, -1.54028, -0.900448, -1.19763, 1.23148, -1.30265, 0.0440683, 0.00519186, -0.00194784, -0.00822494, -0.109759, 0.00428791, -0.00108832, -1.07537, 62.1606, 29.9482, 7.40631, 1.66919, 3.59683, 0.0431018, -0.0010196, 2.75611e-05, 0.0022586, 0.00262816, -0.0056509, -0.000578972, 0.0378212, -0.0140138, -0.00403671, -0.0529629, 0.126557, 0.0170643, 0.470988, -0.54189, 0.33628, -2.08275, -2.16554, -0.129998, 0.47097, -0.542546, 0.33389, -2.08364, -2.16835, -0.121407, -0.000674597, 0.0367984, 0.00929776, 0.0145368, 0.000668585, -0.00101627
0.130149, 1.695, -1.22767, -1.54028, -0.900446, -1.19774, 1.23149, -1.30265, 0.0438678, 0.00533178, -0.00317784, -0.00508438, -0.110451, 0.00848739, 2.0875e-05, -1.15075, 62.0853, 30.0236, 7.36664, 1.66369, 3.58218, 0.0229602, -0.00105919, 4.13616e-05, 0.00226103, 0.00266894, -0.00577162, -0.00057525, 0.0402416, -0.013668, -0.00361575, -0.0490662, 0.129553, 0.0122379, 0.470988, -0.541853, 0.336289, -2.08273, -2.16554, -0.13, 0.470984, -0.542547, 0.33389, -2.08366, -2.16839, -0.121242, -0.000691354, 0.0373675, 0.00943568, 0.0142777, -0.00123047, -0.000830533
0.131149, 1.69504, -1.22767, -1.54027, -0.900449, -1.19785, 1.2315, -1.30265, 0.0436217, 0.00270697, -0.0048709, -0.00471444, -0.111662, 0.00677197, -0.000460474, -1.22613, 62.1249, 29.8728, 7.40631, 1.6756, 3.56845, 0.0357776, -0.00109764, 5.79113e-05, 0.00226377, 0.00269622, -0.00588578, -0.000583455, 0.04171, -0.0127441, -0.00589042, -0.0525028, 0.12757, 0.0110264, 0.470987, -0.541816, 0.336299, -2.0827, -2.16553, -0.130003, 0.471001, -0.542547, 0.333891, -2.08367, -2.16844, -0.121099, -0.000708374, 0.0379402, 0.00957429, 0.0133075, -0.00179338, -0.00313929
0.132149, 1.69504, -1.22767, -1.54027, -0.900449, -1.19785, 1.2315, -1.30265, 0.0436217, 0.00270697, -0.0048709, -0.00471444, -0.111662, 0.00677197, -0.000460474, -1.22613, 62.1249, 29.8728, 7.40631, 1.6756, 3.56845, 0.0357776, -0.00113665, 5.73696e-05, 0.00226731, 0.00268028, -0.00590513, -0.000574875, 0.0423012, -0.0127415, -0.00593718, -0.0523909, 0.127985, 0.0110701, 0.470986, -0.541778, 0.336308, -2.08267, -2.16552, -0.130006, 0.471001, -0.542547, 0.333891, -2.08367, -2.16844, -0.121099, -0.000725657, 0.0385162, 0.00971358, 0.0133075, -0.00179338, -0.00313929
0.133149, 1.69504, -1.22767, -1.54027, -0.900449, -1.19785, 1.2315, -1.30265, 0.0436217, 0.00270697, -0.0048709, -0.00471444, -0.111662, 0.00677197, -0.000460474, -1.22613, 62.1249, 29.8728, 7.40631, 1.6756, 3.56845, 0.0357776, -0.00117626, 5.68254e-05, 0.00227089, 0.00266409, -0.00592478, -0.000566174, 0.042896, -0.0127391, -0.00598402, -0.0522781, 0.128402, 0.011114, 0.470985, -0.541739, 0.336318, -2.08264, -2.16551, -0.130009, 0.471001, -0.542547, 0.333891, -2.08367, -2.16844, -0.121099, -0.000743204, 0.0390957, 0.00985355, 0.0133075, -0.00179338, -0.00313929
0.134149, 1.69504, -1.22767, -1.54027, -0.900449, -1.19785, 1.2315, -1.30265, 0.0436217, 0.00270697, -0.0048709, -0.00471444, -0.111662, 0.00677197, -0.000460474, -1.22613, 62.1249, 29.8728, 7.40631, 1.6756, 3.56845, 0.0357776, -0.00121646, 5.62789e-05, 0.00227451, 0.00264766, -0.00594472, -0.000557353, 0.0434941, -0.0127368, -0.00603096, -0.0521642, 0.128821, 0.0111582, 0.470985, -0.5417, 0.336328, -2.08262, -2.1655, -0.130011, 0.471001, -0.542547, 0.333891, -2.08367, -2.16844, -0.121099, -0.000761018, 0.0396786, 0.00999418, 0.0133075, -0.00179338, -0.00313929
0.135149, 1.69523, -1.22767, -1.54027, -0.900459, -1.19828, 1.23152, -1.30265, 0.0498847, -3.22418e-05, -0.00217284, -0.00495975, -0.104564, 0.0118406, 0.00083999, -1.41259, 62.1249, 29.9482, 7.47772, 1.69391, 3.50345, -0.00999879, -0.00125941, 0.000117492, 0.00228777, 0.00284501, -0.00633352, -0.000591372, 0.0400447, -0.0185598, -0.00665496, -0.0432684, 0.123254, 0.02003, 0.470984, -0.541661, 0.336338, -2.08259, -2.1655, -0.130014, 0.471063, -0.542545, 0.333879, -2.08369, -2.16861, -0.120492, -0.000779099, 0.0402649, 0.0101355, 0.0189573, 0.00253595, -0.00325598
0.136149, 1.69528, -1.22767, -1.54027, -0.90046, -1.19838, 1.23152, -1.30265, 0.0473255, 0.000925622, -0.00163248, -0.00359531, -0.102211, 0.00978465, -0.000897991, -1.45226, 62.0853, 29.9482, 7.47772, 1.70032, 3.47507, 0.0293689, -0.00129965, 0.00013293, 0.00229146, 0.0028769, -0.00644252, -0.000600375, 0.0413131, -0.0167819, -0.00580415, -0.0422557, 0.121447, 0.0191056, 0.470983, -0.54162, 0.336348, -2.08256, -2.16549, -0.130017, 0.471078, -0.542543, 0.333879, -2.08369, -2.16866, -0.120349, -0.00079745, 0.0408545, 0.0102774, 0.0172408, 0.00166869, -0.00241837
0.137149, 1.69533, -1.22767, -1.54027, -0.900458, -1.19847, 1.23153, -1.30265, 0.0494095, 0.00146662, -0.00122625, -0.00177826, -0.100394, 0.00796669, -0.00158195, -1.52764, 62.0496, 29.9482, 7.44202, 1.70581, 3.45309, 0.0559192, -0.00133952, 0.000149321, 0.00229552, 0.00290858, -0.00654871, -0.00060881, 0.0408491, -0.0174766, -0.00540764, -0.0419305, 0.119904, 0.0210825, 0.470982, -0.541579, 0.336358, -2.08253, -2.16548, -0.13002, 0.471095, -0.54254, 0.333878, -2.08369, -2.16871, -0.12021, -0.000816072, 0.0414475, 0.01042, 0.0179141, 0.00268755, -0.00183438
0.138149, 1.69537, -1.22767, -1.54027, -0.90046, -1.19857, 1.23153, -1.30265, 0.0531768, 0.00098849, -0.00175617, -0.00218318, -0.0990509, 0.00656336, -0.000817229, -1.56335, 62.0496, 29.9839, 7.47772, 1.71863, 3.43204, 0.0495105, -0.00138048, 0.000166267, 0.00230247, 0.00294393, -0.00665734, -0.000614975, 0.0394066, -0.0194898, -0.00630346, -0.0436741, 0.118257, 0.0246375, 0.470982, -0.541538, 0.336369, -2.0825, -2.16547, -0.130023, 0.471113, -0.542537, 0.333875, -2.08369, -2.16876, -0.120064, -0.000834967, 0.0420438, 0.0105633, 0.0198207, 0.00493026, -0.0024135
0.139149, 1.69542, -1.22766, -1.54027, -0.900458, -1.19867, 1.23154, -1.30265, 0.0501881, 0.00410072, -0.000413152, -0.000742075, -0.0990635, 0.00472983, -0.000307427, -1.48797, 61.9028, 29.9482, 7.44202, 1.74884, 3.43204, 0.0431018, -0.00142447, 0.000178612, 0.0023007, 0.00297139, -0.00677457, -0.000611933, 0.0410205, -0.0173304, -0.00384267, -0.0425665, 0.120581, 0.020529, 0.470981, -0.541496, 0.336379, -2.08247, -2.16546, -0.130026, 0.471126, -0.542538, 0.33388, -2.08371, -2.1688, -0.119918, -0.000854135, 0.0426434, 0.0107072, 0.0177945, 0.00346676, -2.67541e-05
0.140149, 1.69547, -1.22766, -1.54027, -0.90046, -1.19877, 1.23154, -1.30265, 0.0499552, 0.00106942, -0.00116884, -0.00142132, -0.0980601, 0.00423272, -0.0113147, -1.48797, 61.9742, 29.9839, 7.47772, 1.75525, 3.41006, 0.0623279, -0.00146561, 0.000197044, 0.00231065, 0.00300237, -0.00687378, -0.000623713, 0.0417332, -0.017295, -0.00606911, -0.0436554, 0.117015, 0.0319771, 0.47098, -0.541453, 0.33639, -2.08244, -2.16545, -0.130029, 0.471144, -0.542534, 0.333874, -2.0837, -2.16885, -0.119787, -0.000873578, 0.0432462, 0.0108517, 0.0176835, 0.00370994, -0.00219165
0.141149, 1.69552, -1.22766, -1.54027, -0.900465, -1.19887, 1.23155, -1.30265, 0.0508731, 0.0015527, 1.23449e-05, -0.0019441, -0.0976778, 0.00325844, -0.00718887, -1.52764, 61.9385, 29.9482, 7.51739, 1.77997, 3.40365, 0.0293689, -0.00150432, 0.000216223, 0.00231401, 0.00303521, -0.00698366, -0.000634048, 0.041322, -0.0179902, -0.0056192, -0.0434964, 0.117142, 0.0299415, 0.470979, -0.54141, 0.336401, -2.08241, -2.16544, -0.130032, 0.471164, -0.542528, 0.333875, -2.0837, -2.1689, -0.119643, -0.000893298, 0.0438524, 0.0109968, 0.0183599, 0.00468159, -0.00156076
0.142149, 1.69556, -1.22766, -1.54027, -0.900463, -1.19896, 1.23156, -1.30265, 0.047459, -0.00155992, -0.000859721, -0.00269966, -0.0922383, 0.00757611, -0.00473034, -1.41259, 62.0496, 29.9839, 7.44202, 1.78638, 3.38901, 0.0101428, -0.00155172, 0.000229137, 0.00232317, 0.00305697, -0.00707809, -0.000629573, 0.0430871, -0.0175485, -0.00736065, -0.037949, 0.112171, 0.0262916, 0.470978, -0.541366, 0.336412, -2.08237, -2.16543, -0.130036, 0.471177, -0.542529, 0.333869, -2.08371, -2.16893, -0.119526, -0.000913297, 0.0444617, 0.0111426, 0.0178985, 0.00380062, -0.00339755
0.143149, 1.69561, -1.22766, -1.54028, -0.900466, -1.19905, 1.23156, -1.30265, 0.0481934, -0.000202183, -0.00236093, -0.00293316, -0.0885132, 0.0107968, 0.00654209, -1.41259, 62.0139, 30.0593, 7.47772, 1.80469, 3.37436, 0.0165515, -0.00159381, 0.000247543, 0.00232956, 0.0030881, -0.00718516, -0.000636694, 0.0430991, -0.0187313, -0.00693169, -0.0346698, 0.112664, 0.016506, 0.470977, -0.541322, 0.336423, -2.08234, -2.16542, -0.130039, 0.471196, -0.542524, 0.333866, -2.08371, -2.16898, -0.119387, -0.000933575, 0.0450743, 0.0112889, 0.019076, 0.0043846, -0.00286738
0.144149, 1.69565, -1.22765, -1.54027, -0.900464, -1.19914, 1.23157, -1.30265, 0.0448238, 0.00163036, -0.000757151, -0.00367909, -0.0900763, 0.00823929, 0.00486423, -1.37688, 61.9385, 30.0236, 7.40631, 1.81018, 3.36703, 0.0165515, -0.00163736, 0.000263842, 0.00233092, 0.00310809, -0.00728992, -0.000643913, 0.0445478, -0.0166107, -0.00547795, -0.0357727, 0.114798, 0.0157575, 0.470976, -0.541277, 0.336434, -2.08231, -2.16541, -0.130042, 0.471213, -0.542521, 0.333869, -2.08371, -2.16903, -0.119262, -0.000954135, 0.0456901, 0.0114359, 0.0170442, 0.00325766, -0.00144733
0.145149, 1.69571, -1.22766, -1.54027, -0.900464, -1.19923, 1.23157, -1.30265, 0.0471845, -0.00151011, -0.000518576, -0.00195663, -0.092055, 0.011403, 0.00361994, -1.41259, 62.0496, 30.0236, 7.36664, 1.8349, 3.3533, 0.0165515, -0.00168145, 0.000282674, 0.00234157, 0.00313474, -0.00738641, -0.000653932, 0.0456064, -0.0180074, -0.00689305, -0.0334286, 0.115208, 0.0173984, 0.470975, -0.541231, 0.336446, -2.08228, -2.1654, -0.130045, 0.471232, -0.542516, 0.333862, -2.0837, -2.16907, -0.119139, -0.000974976, 0.0463091, 0.0115835, 0.0184044, 0.00310958, -0.00290678
0.146149, 1.69574, -1.22765, -1.54028, -0.900464, -1.19931, 1.23158, -1.30265, 0.0447819, 0.00159279, -0.00202651, -0.000793149, -0.0921643, 0.00870845, 0.00198406, -1.30151, 61.9385, 30.095, 7.33093, 1.8349, 3.34598, 0.0357776, -0.00172903, 0.000294557, 0.00234363, 0.00315751, -0.00749124, -0.000654598, 0.0474258, -0.0155684, -0.005593, -0.0358342, 0.117421, 0.01486, 0.470974, -0.541185, 0.336457, -2.08224, -2.16539, -0.130049, 0.471244, -0.542516, 0.333864, -2.08371, -2.16912, -0.119011, -0.000996102, 0.0469312, 0.0117316, 0.0160619, 0.0016336, -0.00168545
0.147149, 1.69579, -1.22766, -1.54027, -0.900468, -1.1994, 1.23159, -1.30265, 0.0452392, 0.000227447, -0.000523556, -0.00160694, -0.0928077, 0.00616075, 0.00224691, -1.26183, 61.9742, 30.0593, 7.36664, 1.84131, 3.3533, 0.0165515, -0.00177412, 0.000311103, 0.00234816, 0.00317514, -0.00759049, -0.000660841, 0.0473005, -0.0157585, -0.00627222, -0.0374727, 0.115766, 0.0163306, 0.470973, -0.541138, 0.336469, -2.08221, -2.16538, -0.130052, 0.471261, -0.542512, 0.333864, -2.08371, -2.16916, -0.118895, -0.00101751, 0.0475565, 0.0118804, 0.0162009, 0.00249628, -0.00219494
0.148149, 1.69583, -1.22766, -1.54027, -0.90047, -1.19948, 1.2316, -1.30265, 0.0435511, -0.001611, 0.0022282, -0.00125351, -0.0941363, 0.00539076, -3.83793e-05, -1.26183, 62.0496, 30.095, 7.36664, 1.86603, 3.33133, 0.0623279, -0.00182116, 0.000328591, 0.00235725, 0.00319477, -0.00768792, -0.000672785, 0.0485839, -0.0149608, -0.00635453, -0.0359626, 0.114822, 0.0175922, 0.470972, -0.54109, 0.336481, -2.08218, -2.16537, -0.130056, 0.471279, -0.542509, 0.333859, -2.0837, -2.16921, -0.118779, -0.00103921, 0.0481849, 0.0120297, 0.0154263, 0.00183804, -0.00230425
0.149149, 1.69588, -1.22766, -1.54027, -0.900468, -1.19957, 1.23161, -1.30265, 0.0450579, 0.00124678, 0.00260117, 0.000790898, -0.0941236, 0.00915179, 0.000331097, -1.37688, 62.0853, 30.0593, 7.29126, 1.87244, 3.31759, 0.0559192, -0.00186509, 0.00034945, 0.0023643, 0.00321273, -0.00778334, -0.000684382, 0.0492055, -0.0160524, -0.00404873, -0.0312437, 0.119813, 0.0171088, 0.470971, -0.541042, 0.336493, -2.08214, -2.16536, -0.130059, 0.4713, -0.542502, 0.333856, -2.08369, -2.16926, -0.118667, -0.0010612, 0.0488164, 0.0121795, 0.0166029, 0.00154444, -1.05869e-05
0.150149, 1.69592, -1.22766, -1.54027, -0.900474, -1.19965, 1.23161, -1.30265, 0.0422591, 0.00109449, 0.00110926, -0.000503252, -0.0896608, 0.0114594, 0.00105621, -1.33721, 62.0853, 30.095, 7.33093, 1.88434, 3.31759, 0.0357776, -0.00191294, 0.000364055, 0.00237126, 0.00323579, -0.00788098, -0.000687754, 0.0503989, -0.0154356, -0.00454914, -0.0285311, 0.117721, 0.0155892, 0.47097, -0.540993, 0.336505, -2.08211, -2.16535, -0.130063, 0.471315, -0.542498, 0.333854, -2.08369, -2.1693, -0.118546, -0.00108347, 0.049451, 0.01233, 0.0159898, 0.00105359, -0.000523182
0.151149, 1.69596, -1.22766, -1.54027, -0.900477, -1.19973, 1.23162, -1.30266, 0.0393362, -8.86544e-07, 0.0017325, -0.000412375, -0.0905932, 0.0087945, -0.000686803, -1.26183, 62.1249, 30.0593, 7.33093, 1.89075, 3.31027, 0.0751453, -0.00196193, 0.000379787, 0.00237622, 0.00324598, -0.00797782, -0.000697336, 0.0522643, -0.0133121, -0.00508624, -0.0302149, 0.116387, 0.0144117, 0.470969, -0.540944, 0.336517, -2.08207, -2.16534, -0.130066, 0.471331, -0.542496, 0.333853, -2.08369, -2.16935, -0.118441, -0.00110604, 0.0500886, 0.012481, 0.0138946, -0.000154421, -0.00112982
0.152149, 1.696, -1.22767, -1.54027, -0.900478, -1.19981, 1.23163, -1.30265, 0.0359233, -0.00152292, 0.000438112, 0.000595448, -0.0899408, 0.00652573, 0.00105053, -1.26183, 62.1964, 30.095, 7.29126, 1.86603, 3.31027, 0.0357776, -0.00201143, 0.00039532, 0.00238556, 0.00326393, -0.00806799, -0.000697178, 0.0547912, -0.0106289, -0.0063685, -0.0320119, 0.113562, 0.00808686, 0.470968, -0.540894, 0.33653, -2.08203, -2.16533, -0.13007, 0.471347, -0.542492, 0.333848, -2.08369, -2.16938, -0.118333, -0.0011289, 0.0507293, 0.0126325, 0.0112365, -0.00192008, -0.00255766
0.153149, 1.69604, -1.22767, -1.54028, -0.900486, -1.19989, 1.23164, -1.30265, 0.0395835, -0.00173942, -0.00138242, -0.00373977, -0.0863013, 0.0051188, 0.000738111, -1.26183, 62.2321, 30.1703, 7.33093, 1.86603, 3.30295, 0.0357776, -0.00206119, 0.000410936, 0.0023934, 0.00328459, -0.00816742, -0.000703803, 0.0520675, -0.0134895, -0.00811381, -0.0356263, 0.110754, 0.0162073, 0.470967, -0.540843, 0.336542, -2.082, -2.16532, -0.130073, 0.471363, -0.542489, 0.333844, -2.08369, -2.16943, -0.118213, -0.00115205, 0.051373, 0.0127846, 0.0139067, 0.00180242, -0.00379284
0.154149, 1.69608, -1.22766, -1.54027, -0.900487, -1.19997, 1.23165, -1.30265, 0.0383106, 0.000594135, 0.00230918, -0.00470737, -0.0879252, 0.00405658, 0.00146983, -1.22613, 62.1606, 30.1703, 7.29126, 1.85962, 3.29562, 0.0101428, -0.00211296, 0.000424565, 0.00239582, 0.0032933, -0.00826695, -0.000701938, 0.0522314, -0.0132228, -0.00563574, -0.0339909, 0.114147, 0.0162895, 0.470966, -0.540792, 0.336555, -2.08196, -2.16531, -0.130077, 0.471377, -0.542488, 0.333846, -2.0837, -2.16947, -0.118106, -0.0011755, 0.0520197, 0.0129373, 0.0137156, 0.00189239, -0.00121286
0.155149, 1.69612, -1.22766, -1.54027, -0.900494, -1.20004, 1.23166, -1.30265, 0.0414428, -0.000376645, 0.00101784, -0.00359757, -0.0846232, 0.00325524, -0.000931659, -1.22613, 62.1964, 30.206, 7.29126, 1.85321, 3.2883, 0.0623279, -0.00216292, 0.000440777, 0.00240345, 0.00330743, -0.00836006, -0.000716031, 0.051456, -0.0147488, -0.00680045, -0.0341948, 0.110626, 0.0213598, 0.470965, -0.54074, 0.336568, -2.08192, -2.1653, -0.130081, 0.471394, -0.542483, 0.333843, -2.08369, -2.16952, -0.118001, -0.00119924, 0.0526694, 0.0130904, 0.0151445, 0.00355236, -0.00213723
0.156149, 1.69616, -1.22766, -1.54027, -0.900504, -1.20012, 1.23168, -1.30265, 0.043869, 0.00201961, 0.000913764, -0.0036709, -0.0827442, 0.00315974, 0.00156496, -1.22613, 62.2321, 30.206, 7.33093, 1.86603, 3.26724, 0.00373412, -0.00221339, 0.000458474, 0.00240901, 0.00331614, -0.00845991, -0.000719835, 0.0504359, -0.0162593, -0.00562233, -0.0335421, 0.111988, 0.0219032, 0.470963, -0.540687, 0.336581, -2.08189, -2.16528, -0.130085, 0.471412, -0.542478, 0.333842, -2.08369, -2.16956, -0.117894, -0.00122328, 0.0533221, 0.0132441, 0.0166362, 0.00509261, -0.000709522
0.157149, 1.69619, -1.22767, -1.54027, -0.900513, -1.20018, 1.23169, -1.30265, 0.0396433, 0.000708454, -0.00014244, -0.00270564, -0.0803197, 0.00695704, -0.000131542, -1.11108, 62.2717, 30.2457, 7.33093, 1.85321, 3.26724, 0.0357776, -0.00226742, 0.000470764, 0.00241723, 0.00332689, -0.0085487, -0.000725437, 0.0535333, -0.014479, -0.00612741, -0.0289219, 0.110882, 0.0189753, 0.470962, -0.540634, 0.336594, -2.08185, -2.16527, -0.130089, 0.471425, -0.542477, 0.333838, -2.08369, -2.1696, -0.117797, -0.00124762, 0.0539777, 0.0133983, 0.0149281, 0.00269583, -0.00148516
0.158149, 1.69623, -1.22767, -1.54028, -0.900517, -1.20025, 1.2317, -1.30265, 0.0404709, -0.0019086, -0.00256111, -0.00106952, -0.0795459, 0.00541835, -0.00082472, -1.15075, 62.3828, 30.3568, 7.29126, 1.86603, 3.25992, 0.0559192, -0.00232095, 0.000486408, 0.00242986, 0.0033405, -0.00863327, -0.000732589, 0.0547654, -0.0140064, -0.0085265, -0.0314629, 0.107393, 0.0182479, 0.470961, -0.54058, 0.336608, -2.08181, -2.16526, -0.130092, 0.47144, -0.542473, 0.33383, -2.08367, -2.16964, -0.117701, -0.00127226, 0.0546363, 0.013553, 0.0143871, 0.00249179, -0.00387872
0.159149, 1.69626, -1.22767, -1.54028, -0.900525, -1.20032, 1.23171, -1.30265, 0.0419714, -0.000181218, -0.000772964, -0.0028722, -0.0777474, 0.0042653, -6.83761e-05, -1.11108, 62.3431, 30.3211, 7.25555, 1.84772, 3.25259, 0.0431018, -0.00237262, 0.000501972, 0.00243242, 0.00334607, -0.00872942, -0.000739551, 0.053228, -0.0155283, -0.00735747, -0.0308475, 0.107632, 0.0220204, 0.47096, -0.540525, 0.336621, -2.08177, -2.16525, -0.130096, 0.471456, -0.542468, 0.333833, -2.08367, -2.16969, -0.117602, -0.0012972, 0.0552977, 0.0137082, 0.0158701, 0.00455333, -0.00237793
0.160149, 1.69629, -1.22767, -1.54027, -0.900535, -1.20039, 1.23172, -1.30265, 0.0353379, -0.000926459, -0.000440889, -0.00226122, -0.0772221, 0.00729731, 0.00118016, -0.996025, 62.3828, 30.3211, 7.25555, 1.84772, 3.26724, 0.0101428, -0.00242743, 0.000513967, 0.00243965, 0.00335314, -0.00881466, -0.00074288, 0.057256, -0.0123566, -0.00702307, -0.0262948, 0.108139, 0.0140968, 0.470958, -0.54047, 0.336635, -2.08173, -2.16524, -0.1301, 0.471469, -0.542465, 0.33383, -2.08367, -2.16973, -0.117512, -0.00132244, 0.0559621, 0.013864, 0.0128369, 0.00105846, -0.00242594
0.161149, 1.69632, -1.22768, -1.54028, -0.900547, -1.20045, 1.23173, -1.30265, 0.0322144, -0.00303151, -0.00190855, -0.00377048, -0.0762291, 0.0105616, -0.00066751, -0.960319, 62.4899, 30.3925, 7.21588, 1.8349, 3.25992, 0.0495105, -0.00248045, 0.000530325, 0.00245189, 0.00336226, -0.00889426, -0.000755917, 0.0595288, -0.0114337, -0.00858795, -0.0245657, 0.107444, 0.013921, 0.470957, -0.540414, 0.336649, -2.08169, -2.16522, -0.130104, 0.471485, -0.542459, 0.333823, -2.08365, -2.16977, -0.117426, -0.00134799, 0.0566293, 0.0140202, 0.0119142, -0.000312253, -0.00414368
0.162149, 1.69636, -1.22768, -1.54028, -0.900555, -1.20051, 1.23174, -1.30265, 0.0299904, -0.00195217, -0.00299374, -0.00128235, -0.070987, 0.00789802, -0.00091689, -0.920646, 62.4899, 30.4679, 7.14447, 1.823, 3.25992, 0.0623279, -0.00253548, 0.00054432, 0.00246019, 0.00337121, -0.0089805, -0.000761706, 0.0607577, -0.00952002, -0.00816552, -0.0236472, 0.103157, 0.0110374, 0.470956, -0.540357, 0.336663, -2.08165, -2.16521, -0.130108, 0.471499, -0.542454, 0.33382, -2.08364, -2.16981, -0.117333, -0.00137384, 0.0572994, 0.0141769, 0.0100383, -0.00100002, -0.00370468
0.163149, 1.69639, -1.22768, -1.54028, -0.900573, -1.20057, 1.23175, -1.30265, 0.0321703, -0.00124982, -0.00112921, -0.00609023, -0.0726549, 0.00590807, -0.000371775, -0.920646, 62.4899, 30.4322, 7.21588, 1.8349, 3.25992, 0.0559192, -0.00258628, 0.000562854, 0.00246509, 0.00337298, -0.00907036, -0.000779073, 0.0587176, -0.0115865, -0.0080937, -0.0269101, 0.105098, 0.0172266, 0.470954, -0.5403, 0.336677, -2.08161, -2.1652, -0.130113, 0.471518, -0.542446, 0.333821, -2.08363, -2.16987, -0.117246, -0.0014, 0.0579723, 0.0143341, 0.0120047, 0.00176236, -0.0032234
0.164149, 1.69642, -1.22768, -1.54027, -0.900583, -1.20063, 1.23176, -1.30265, 0.0279509, -0.00432097, 0.00103398, -0.0057462, -0.0680685, 0.00442075, -0.000720973, -0.809562, 62.6407, 30.3568, 7.14447, 1.823, 3.25992, 0.0687366, -0.00264272, 0.000575856, 0.0024734, 0.00336605, -0.00914272, -0.000786986, 0.0601695, -0.00982555, -0.00905544, -0.0234964, 0.0977069, 0.0157743, 0.470953, -0.540242, 0.336692, -2.08157, -2.16519, -0.130117, 0.471532, -0.542441, 0.333818, -2.08362, -2.16991, -0.117185, -0.00142646, 0.058648, 0.0144917, 0.0102369, 0.00108168, -0.00418956
0.165149, 1.69645, -1.22767, -1.54027, -0.900596, -1.20068, 1.23177, -1.30265, 0.0265572, -0.000253153, 0.000530388, -0.00663866, -0.0657186, 0.00357996, 0.000232624, -0.76989, 62.5296, 30.5036, 7.1048, 1.8349, 3.25259, 0.0495105, -0.0026981, 0.000589423, 0.00247812, 0.00337197, -0.0092317, -0.000791568, 0.0603901, -0.00919078, -0.00701216, -0.02328, 0.0999672, 0.0147371, 0.470951, -0.540183, 0.336706, -2.08153, -2.16517, -0.130121, 0.471545, -0.542436, 0.333818, -2.08362, -2.16995, -0.117093, -0.00145324, 0.0593266, 0.0146499, 0.00966137, 0.00119897, -0.00203114
0.166149, 1.69647, -1.22767, -1.54027, -0.900608, -1.20073, 1.23178, -1.30265, 0.0268179, -0.000982207, 0.00391879, -0.00913344, -0.0635449, 0.00316642, 0.000901965, -0.658806, 62.5653, 30.5036, 7.02942, 1.84131, 3.23886, 0.0293689, -0.002755, 0.000602362, 0.00248329, 0.00336662, -0.00931232, -0.000796465, 0.0591194, -0.0106787, -0.00669134, -0.020791, 0.0977432, 0.0189224, 0.47095, -0.540124, 0.336721, -2.08148, -2.16516, -0.130125, 0.471559, -0.542431, 0.333818, -2.08361, -2.16999, -0.117022, -0.00148032, 0.0600079, 0.0148084, 0.0110864, 0.00314741, -0.00140522
0.167149, 1.6965, -1.22768, -1.54027, -0.900625, -1.20077, 1.23179, -1.30265, 0.0320295, -0.00407214, 0.0030994, -0.0120153, -0.0617874, 0.00700389, -0.000381362, -0.619133, 62.7121, 30.5036, 6.99371, 1.84131, 3.23886, 0.0559192, -0.00280917, 0.0006184, 0.0024941, 0.00336188, -0.00937777, -0.000815095, 0.057153, -0.0150678, -0.00919081, -0.0196359, 0.0960885, 0.0282089, 0.470949, -0.540064, 0.336735, -2.08144, -2.16515, -0.130129, 0.471575, -0.542422, 0.333813, -2.08358, -2.17003, -0.116967, -0.00150772, 0.0606919, 0.0149675, 0.015277, 0.00634543, -0.00354476
0.168149, 1.69652, -1.22768, -1.54026, -0.900646, -1.20082, 1.2318, -1.30265, 0.0319895, -0.00186729, 0.00399663, -0.0123597, -0.0612924, 0.0101679, 0.00120433, -0.543754, 62.6764, 30.579, 6.99371, 1.86603, 3.23153, 0.0165515, -0.00286361, 0.000633019, 0.0024991, 0.00335986, -0.00945724, -0.000825433, 0.0576046, -0.015878, -0.00738771, -0.0156762, 0.0999022, 0.0275044, 0.470947, -0.540003, 0.33675, -2.0814, -2.16513, -0.130134, 0.47159, -0.542414, 0.333814, -2.08357, -2.17007, -0.116894, -0.00153542, 0.0613787, 0.015127, 0.0161431, 0.00634076, -0.00170381
0.169149, 1.69654, -1.22767, -1.54026, -0.90066, -1.20086, 1.23182, -1.30265, 0.029884, -0.00123567, 0.00462163, -0.0124899, -0.0555858, 0.0126022, 0.00127798, -0.508049, 62.6764, 30.6544, 6.88263, 1.87793, 3.22421, 0.00373412, -0.00292114, 0.000647048, 0.00250406, 0.00335154, -0.00953623, -0.000833124, 0.0581416, -0.0159147, -0.0065453, -0.00989681, 0.0974421, 0.0277194, 0.470946, -0.539942, 0.336766, -2.08135, -2.16512, -0.130138, 0.471604, -0.542408, 0.333815, -2.08356, -2.17012, -0.116829, -0.00156344, 0.0620682, 0.0152869, 0.0162034, 0.00637164, -0.000799899
0.170149, 1.69657, -1.22767, -1.54026, -0.900687, -1.2009, 1.23183, -1.30265, 0.0272616, 0.00139972, 0.00459384, -0.0168103, -0.0516837, 0.00966728, 0.00085227, -0.43267, 62.7121, 30.6186, 6.91833, 1.90265, 3.21689, 0.00373412, -0.00297405, 0.000664181, 0.00250913, 0.00334352, -0.00961133, -0.000855954, 0.0574182, -0.01526, -0.005778, -0.0119201, 0.0962077, 0.0306188, 0.470944, -0.53988, 0.336781, -2.08131, -2.16511, -0.130143, 0.471621, -0.542396, 0.333816, -2.08354, -2.17017, -0.116768, -0.00159178, 0.0627604, 0.0154473, 0.0155244, 0.00763166, 0.000249842
0.171149, 1.69659, -1.22767, -1.54026, -0.900701, -1.20093, 1.23184, -1.30265, 0.0301593, 0.00341286, 0.000137031, -0.0146756, -0.0486918, 0.0116202, 0.000331034, -0.43267, 62.7478, 30.7654, 6.73187, 1.92096, 3.22421, 0.0101428, -0.00303172, 0.000678917, 0.00251619, 0.00333772, -0.00968557, -0.000867193, 0.0578226, -0.0162834, -0.00590644, -0.0118454, 0.0974189, 0.0310213, 0.470942, -0.539817, 0.336796, -2.08126, -2.16509, -0.130147, 0.471636, -0.542389, 0.333815, -2.08352, -2.17022, -0.116705, -0.00162043, 0.0634553, 0.0156081, 0.0165281, 0.0079912, 0.000185974
0.172149, 1.6966, -1.22767, -1.54026, -0.900729, -1.20097, 1.23185, -1.30265, 0.021573, 0.00149987, -0.00129077, -0.020092, -0.0423787, 0.0133728, 0.000220849, -0.242241, 62.9343, 30.8408, 6.73187, 1.95758, 3.22421, 0.0101428, -0.00309196, 0.000689249, 0.00252798, 0.00333064, -0.00974782, -0.000878488, 0.0601658, -0.0134955, -0.00774322, -0.00990231, 0.0919904, 0.0289251, 0.470941, -0.539753, 0.336812, -2.08122, -2.16508, -0.130152, 0.471647, -0.542382, 0.333809, -2.0835, -2.17025, -0.116656, -0.00164939, 0.0641529, 0.0157694, 0.0137319, 0.00654595, -0.00174825
0.173149, 1.69663, -1.22766, -1.54025, -0.900752, -1.201, 1.23186, -1.30265, 0.0222904, 0.00419672, 0.00359614, -0.0222747, -0.0374083, 0.0149976, -0.000327365, -0.206535, 62.8232, 30.8051, 6.62079, 1.98871, 3.21689, 0.0229602, -0.00314536, 0.000706189, 0.00252498, 0.00331409, -0.0098294, -0.000901741, 0.057822, -0.0160582, -0.00468027, -0.0026538, 0.0917881, 0.0360977, 0.470939, -0.539689, 0.336828, -2.08117, -2.16506, -0.130156, 0.471664, -0.542371, 0.333819, -2.08348, -2.17031, -0.116598, -0.00167868, 0.0648531, 0.015931, 0.0162922, 0.00919075, 0.00172187
0.174149, 1.69665, -1.22767, -1.54024, -0.900781, -1.20103, 1.23187, -1.30265, 0.0225706, 0.00121389, 0.0059368, -0.0247923, -0.0334033, 0.0164298, -0.00143886, -0.166862, 63.0453, 30.8051, 6.58508, 2.01343, 3.20224, 0.0559192, -0.00319966, 0.000725113, 0.00253527, 0.00329558, -0.00988627, -0.000932954, 0.056817, -0.0179654, -0.00590435, 0.00116041, 0.0868127, 0.0422703, 0.470937, -0.539624, 0.336844, -2.08113, -2.16505, -0.130161, 0.471683, -0.542357, 0.333816, -2.08344, -2.17037, -0.116569, -0.00170828, 0.065556, 0.0160931, 0.0180848, 0.0111569, 0.000771093
0.175149, 1.69666, -1.22766, -1.54025, -0.900805, -1.20105, 1.23189, -1.30265, 0.0168163, 0.000574301, 0.00242042, -0.0216909, -0.0304209, 0.0124944, 0.000261533, -0.0161054, 63.0811, 31.0273, 6.43433, 2.03815, 3.19583, 0.0229602, -0.00326299, 0.000732861, 0.00254121, 0.00328925, -0.00995885, -0.000932522, 0.0608253, -0.0130513, -0.00719155, -0.00150824, 0.0820536, 0.0315269, 0.470936, -0.539559, 0.33686, -2.08108, -2.16503, -0.130166, 0.471691, -0.542352, 0.333815, -2.08343, -2.1704, -0.116507, -0.0017382, 0.0662614, 0.0162556, 0.013246, 0.0079015, -0.000813996
0.176149, 1.69668, -1.22765, -1.54023, -0.900839, -1.20108, 1.2319, -1.30265, 0.0131465, 0.00304607, 0.00409725, -0.0253056, -0.0281448, 0.0145506, -0.00128366, -0.0161054, 63.1168, 30.9519, 6.39465, 2.06195, 3.18118, 0.0623279, -0.0033121, 0.000756222, 0.00253989, 0.0032639, -0.0100318, -0.000976102, 0.0612893, -0.0126867, -0.00531936, 0.00202248, 0.0842522, 0.0341948, 0.470934, -0.539493, 0.336876, -2.08103, -2.16502, -0.13017, 0.471714, -0.542334, 0.333824, -2.08339, -2.17048, -0.116471, -0.00176845, 0.0669695, 0.0164185, 0.0129399, 0.0078455, 0.00113311
0.177149, 1.69669, -1.22764, -1.54024, -0.900879, -1.2011, 1.23192, -1.30265, 0.0107855, 0.00262238, 0.00123788, -0.0289631, -0.0274691, 0.0113681, -0.000618374, 0.0949785, 63.1168, 31.1741, 6.43433, 2.11139, 3.16653, 0.0559192, -0.0033702, 0.000770082, 0.00254606, 0.00325701, -0.0101067, -0.000997164, 0.06216, -0.0111823, -0.00729394, -0.00417705, 0.0826477, 0.033312, 0.470932, -0.539426, 0.336892, -2.08098, -2.165, -0.130175, 0.471728, -0.542322, 0.333825, -2.08336, -2.17054, -0.116409, -0.00179901, 0.0676801, 0.0165817, 0.0113648, 0.00794202, -0.000744339
0.178149, 1.6967, -1.22763, -1.54023, -0.900909, -1.20111, 1.23193, -1.30265, 0.0088858, 0.00353198, 0.0053443, -0.030969, -0.0254592, 0.0133871, 0.000571123, 0.21003, 63.1921, 31.1384, 6.28357, 2.12421, 3.15921, 0.0293689, -0.00342695, 0.000785098, 0.00254826, 0.00322883, -0.010165, -0.00101787, 0.0620068, -0.0118724, -0.00535567, 0.00169482, 0.0832498, 0.0346862, 0.47093, -0.539358, 0.336909, -2.08094, -2.16499, -0.13018, 0.471743, -0.54231, 0.33383, -2.08334, -2.17059, -0.116389, -0.0018299, 0.0683933, 0.0167454, 0.0120914, 0.00853414, 0.00133234
0.179149, 1.69671, -1.22763, -1.54022, -0.90094, -1.20113, 1.23194, -1.30265, 0.00872242, 0.00444984, 0.00564735, -0.0316886, -0.0299566, 0.0104573, -0.000127856, 0.285408, 63.2635, 31.2137, 6.13678, 2.16724, 3.14548, 0.0431018, -0.00348598, 0.000798364, 0.00255133, 0.00320654, -0.0102278, -0.00103928, 0.0630377, -0.0109408, -0.0050939, -0.00275378, 0.0869501, 0.0345223, 0.470929, -0.53929, 0.336926, -2.08089, -2.16497, -0.130185, 0.471757, -0.542298, 0.333834, -2.08331, -2.17064, -0.116357, -0.00186112, 0.069109, 0.0169095, 0.0111782, 0.00815329, 0.0016197
0.180149, 1.69672, -1.22762, -1.54021, -0.900979, -1.20114, 1.23195, -1.30265, 0.00833586, 0.00423668, 0.00282421, -0.0349129, -0.0284128, 0.00828206, 0.000423405, 0.360787, 63.3746, 31.2891, 6.09711, 2.20935, 3.13083, 0.0293689, -0.00354388, 0.000814114, 0.00255709, 0.00318629, -0.0102905, -0.00106445, 0.0630693, -0.010733, -0.00688896, -0.00771862, 0.0853695, 0.0356321, 0.470927, -0.53922, 0.336943, -2.08084, -2.16496, -0.13019, 0.471772, -0.542285, 0.333835, -2.08328, -2.17069, -0.116323, -0.00189266, 0.0698272, 0.0170739, 0.0108728, 0.00911225, 1.14587e-05
0.181149, 1.69673, -1.22761, -1.54021, -0.901025, -1.20115, 1.23197, -1.30265, 0.00496774, 0.0101079, 0.00338013, -0.0369999, -0.0214578, 0.0108018, 0.000994359, 0.436165, 63.3746, 31.4002, 6.13678, 2.22217, 3.13083, 0.0101428, -0.00359866, 0.000830358, 0.00255982, 0.00316948, -0.0103549, -0.00109564, 0.0628984, -0.0105447, -0.003184, -0.0016095, 0.0873029, 0.0361012, 0.470925, -0.539151, 0.33696, -2.08079, -2.16494, -0.130195, 0.471789, -0.542268, 0.33384, -2.08323, -2.17075, -0.116285, -0.00192452, 0.0705479, 0.0172387, 0.010788, 0.00941666, 0.00386354
0.182149, 1.69674, -1.2276, -1.54021, -0.901056, -1.20116, 1.23198, -1.30265, 0.00638296, 0.0110245, 0.000407555, -0.0351009, -0.0167517, 0.0129549, 0.000425556, 0.475838, 63.3746, 31.5113, 5.95032, 2.24689, 3.1235, 0.0165515, -0.00365919, 0.000844168, 0.00256079, 0.00314571, -0.010423, -0.00111302, 0.0633968, -0.0113021, -0.00337415, 0.000762912, 0.0860026, 0.0366005, 0.470923, -0.53908, 0.336977, -2.08074, -2.16492, -0.1302, 0.471803, -0.542256, 0.333847, -2.08321, -2.1708, -0.116249, -0.00195671, 0.0712712, 0.0174039, 0.0115239, 0.0097103, 0.00373598
0.183149, 1.69675, -1.22759, -1.54019, -0.901108, -1.20116, 1.23199, -1.30265, 0.00656034, 0.0109198, 0.00490738, -0.0411019, -0.0127568, 0.0191805, 0.000283711, 0.551216, 63.4103, 31.4716, 6.02173, 2.25879, 3.1235, 0.0165515, -0.0037128, 0.000862887, 0.00256151, 0.0031167, -0.0104841, -0.00115632, 0.0611968, -0.0151359, -0.00219234, 0.00926535, 0.0864504, 0.0457564, 0.470921, -0.539009, 0.336994, -2.08069, -2.16491, -0.130205, 0.471821, -0.542237, 0.333854, -2.08316, -2.17088, -0.116229, -0.00198923, 0.0719968, 0.0175694, 0.0152848, 0.012585, 0.0052898
0.184149, 1.69675, -1.22758, -1.54019, -0.901158, -1.20117, 1.232, -1.30265, 0.00759639, 0.00968246, 0.00467374, -0.0445333, -0.0102812, 0.0140652, -0.000285572, 0.586922, 63.4857, 31.5867, 6.0614, 2.28351, 3.13083, 0.0293689, -0.00376976, 0.000879231, 0.00256866, 0.00310276, -0.0105437, -0.00119329, 0.0596112, -0.015815, -0.00404163, 0.00403816, 0.0815298, 0.0511273, 0.470919, -0.538937, 0.337012, -2.08064, -2.16489, -0.13021, 0.471837, -0.542219, 0.333855, -2.08311, -2.17094, -0.116193, -0.00202208, 0.072725, 0.0177353, 0.0158024, 0.0151959, 0.00385583
