alisrour97/Franka_experiments/Real_Robot_scripts/servo-franka/Data3/log_dyn_INIT0_l_ki_1.csv
Time,q1,q2,q3,q4,q5,q6,q7,dq1,dq2,dq3,dq4,dq5,dq6,dq7,t1,t2,t3,t4,t5,t6,t7,ex1,ex2,ex3,ex4,ex5,ex6,ev1,ev2,ev3,ev4,ev5,ev6,xd,yd,zd,uxd,uyd,uzd,x,y,z,ux,uy,uz,vxd,vyd,vzd,vx,vy,vz
9.76563e-07, 1.69153, -1.22485, -1.53741, -0.899929, -1.1918, 1.22855, -1.30266, -0.00369851, 0.00260046, -0.00260392, 0.00554469, 3.89511e-05, -0.00059247, -0.00134772, -0.809562, 56.0074, 26.4847, 6.24786, 1.73694, 3.00906, -0.133595, 0.00117331, -0.00140465, -0.000560744, -0.000429244, -0.00114094, -0.000377151, 0.00351593, 0.00392057, 0.00151598, 0.000656845, 0.0018368, -0.00844226, 0.471008, -0.543389, 0.335894, -2.08385, -2.16584, -0.129887, 0.469593, -0.542365, 0.336678, -2.08425, -2.16708, -0.129233, -4.82042e-07, 4.44613e-06, 1.21621e-06, -0.00373555, -0.00386033, 0.00107061
0.0123062, 1.6915, -1.22487, -1.53743, -0.899908, -1.1918, 1.22855, -1.30265, -0.000980267, -0.00097058, -0.00248764, 0.00422782, 5.30948e-05, -0.0001823, 0.000524833, -0.845268, 56.1185, 26.5244, 6.17248, 1.74335, 3.00906, -0.166554, 0.00114446, -0.00143331, -0.000544205, -0.000418408, -0.00111936, -0.00030831, 0.00228583, 0.00193913, -0.000829834, -0.000220671, -0.00133621, -0.00635545, 0.471008, -0.543389, 0.335894, -2.08385, -2.16584, -0.129887, 0.469555, -0.542402, 0.336652, -2.08433, -2.16696, -0.129247, -1.47349e-06, 1.36697e-05, 3.70923e-06, -0.00188632, -0.00219458, -0.00111201
0.0133062, 1.6915, -1.22487, -1.53743, -0.899908, -1.1918, 1.22855, -1.30265, -0.000980267, -0.00097058, -0.00248764, 0.00422782, 5.30948e-05, -0.0001823, 0.000524833, -0.845268, 56.1185, 26.5244, 6.17248, 1.74335, 3.00906, -0.166554, 0.00114445, -0.00143331, -0.000544204, -0.00041841, -0.00111936, -0.000308309, 0.00229957, 0.00193813, -0.000831282, -0.000218728, -0.00133003, -0.0063543, 0.471008, -0.543389, 0.335894, -2.08385, -2.16584, -0.129887, 0.469555, -0.542402, 0.336652, -2.08433, -2.16696, -0.129247, -2.9032e-06, 2.69793e-05, 7.30333e-06, -0.00188632, -0.00219458, -0.00111201
0.0143062, 1.6915, -1.22487, -1.53743, -0.899908, -1.1918, 1.22855, -1.30265, -0.000980267, -0.00097058, -0.00248764, 0.00422782, 5.30948e-05, -0.0001823, 0.000524833, -0.845268, 56.1185, 26.5244, 6.17248, 1.74335, 3.00906, -0.166554, 0.00114443, -0.00143331, -0.000544202, -0.000418415, -0.00111937, -0.000308307, 0.0023182, 0.00193679, -0.000833241, -0.00021609, -0.00132166, -0.00635275, 0.471008, -0.543389, 0.335894, -2.08385, -2.16584, -0.129887, 0.469555, -0.542402, 0.336652, -2.08433, -2.16696, -0.129247, -4.83863e-06, 4.50071e-05, 1.21677e-05, -0.00188632, -0.00219458, -0.00111201
0.0153062, 1.6915, -1.22487, -1.53743, -0.899908, -1.1918, 1.22855, -1.30265, -0.000980267, -0.00097058, -0.00248764, 0.00422782, 5.30948e-05, -0.0001823, 0.000524833, -0.845268, 56.1185, 26.5244, 6.17248, 1.74335, 3.00906, -0.166554, 0.00114439, -0.0014333, -0.000544197, -0.000418426, -0.00111938, -0.000308302, 0.00234228, 0.00193506, -0.00083577, -0.000212667, -0.00131083, -0.00635074, 0.471008, -0.543389, 0.335894, -2.08385, -2.16584, -0.129887, 0.469555, -0.542402, 0.336652, -2.08433, -2.16696, -0.129247, -7.34058e-06, 6.83239e-05, 1.84546e-05, -0.00188632, -0.00219458, -0.00111201
0.0163062, 1.6915, -1.22487, -1.53743, -0.899908, -1.1918, 1.22855, -1.30265, -0.000980267, -0.00097058, -0.00248764, 0.00422782, 5.30948e-05, -0.0001823, 0.000524833, -0.845268, 56.1185, 26.5244, 6.17248, 1.74335, 3.00906, -0.166554, 0.00114432, -0.0014333, -0.000544191, -0.000418442, -0.0011194, -0.000308294, 0.00237233, 0.0019329, -0.000838919, -0.000208385, -0.0012973, -0.00634823, 0.471008, -0.543389, 0.335894, -2.08385, -2.16584, -0.129887, 0.469555, -0.542402, 0.336652, -2.08433, -2.16696, -0.129247, -1.04607e-05, 9.7416e-05, 2.62933e-05, -0.00188632, -0.00219458, -0.00111201
0.0173064, 1.6915, -1.22487, -1.53743, -0.899908, -1.1918, 1.22855, -1.30265, -0.000980267, -0.00097058, -0.00248764, 0.00422782, 5.30948e-05, -0.0001823, 0.000524833, -0.845268, 56.1185, 26.5244, 6.17248, 1.74335, 3.00906, -0.166554, 0.00114423, -0.00143329, -0.00054418, -0.000418468, -0.00111944, -0.000308283, 0.00240873, 0.00193028, -0.000842729, -0.000203183, -0.00128091, -0.00634519, 0.471008, -0.543389, 0.335894, -2.08385, -2.16584, -0.129887, 0.469555, -0.542402, 0.336652, -2.08433, -2.16696, -0.129247, -1.42391e-05, 0.000132663, 3.57838e-05, -0.00188632, -0.00219458, -0.00111201
0.0183066, 1.6915, -1.22487, -1.53743, -0.899908, -1.1918, 1.22855, -1.30265, -0.000980267, -0.00097058, -0.00248764, 0.00422782, 5.30948e-05, -0.0001823, 0.000524833, -0.845268, 56.1185, 26.5244, 6.17248, 1.74335, 3.00906, -0.166554, 0.00114409, -0.00143328, -0.000544166, -0.000418503, -0.00111948, -0.000308267, 0.00245175, 0.00192719, -0.000847223, -0.00019702, -0.00126152, -0.00634159, 0.471008, -0.543389, 0.335894, -2.08385, -2.16584, -0.129887, 0.469555, -0.542402, 0.336652, -2.08433, -2.16696, -0.129247, -1.87016e-05, 0.000174312, 4.69907e-05, -0.00188632, -0.00219458, -0.00111201
0.0193066, 1.6915, -1.22487, -1.53743, -0.899908, -1.1918, 1.22855, -1.30265, -0.000980267, -0.00097058, -0.00248764, 0.00422782, 5.30948e-05, -0.0001823, 0.000524833, -0.845268, 56.1185, 26.5244, 6.17248, 1.74335, 3.00906, -0.166554, 0.00114392, -0.00143327, -0.000544147, -0.000418549, -0.00111955, -0.000308246, 0.00250148, 0.00192362, -0.00085241, -0.000189876, -0.0012391, -0.00633744, 0.471008, -0.543389, 0.335894, -2.08385, -2.16584, -0.129887, 0.469555, -0.542402, 0.336652, -2.08433, -2.16696, -0.129247, -2.38577e-05, 0.00022246, 5.99368e-05, -0.00188632, -0.00219458, -0.00111201
0.0203066, 1.6915, -1.22487, -1.53743, -0.899908, -1.1918, 1.22855, -1.30265, -0.000980267, -0.00097058, -0.00248764, 0.00422782, 5.30948e-05, -0.0001823, 0.000524833, -0.845268, 56.1185, 26.5244, 6.17248, 1.74335, 3.00906, -0.166554, 0.00114369, -0.00143325, -0.000544123, -0.000418609, -0.00111963, -0.00030822, 0.00255783, 0.00191958, -0.000858277, -0.000181755, -0.00121367, -0.00633273, 0.471008, -0.543389, 0.335894, -2.08385, -2.16584, -0.129887, 0.469555, -0.542402, 0.336652, -2.08433, -2.16696, -0.129247, -2.96979e-05, 0.000277024, 7.45974e-05, -0.00188632, -0.00219458, -0.00111201
0.0213071, 1.6915, -1.22487, -1.53743, -0.899908, -1.1918, 1.22855, -1.30265, -0.000980267, -0.00097058, -0.00248764, 0.00422782, 5.30948e-05, -0.0001823, 0.000524833, -0.845268, 56.1185, 26.5244, 6.17248, 1.74335, 3.00906, -0.166554, 0.0011434, -0.00143323, -0.000544093, -0.000418684, -0.00111972, -0.000308186, 0.00262052, 0.00191508, -0.000864791, -0.000172694, -0.00118536, -0.00632749, 0.471008, -0.543388, 0.335894, -2.08385, -2.16584, -0.129887, 0.469555, -0.542402, 0.336652, -2.08433, -2.16696, -0.129247, -3.61913e-05, 0.000337726, 9.08941e-05, -0.00188632, -0.00219458, -0.00111201
0.0223074, 1.6915, -1.22487, -1.53743, -0.899908, -1.1918, 1.22855, -1.30265, -0.000980267, -0.00097058, -0.00248764, 0.00422782, 5.30948e-05, -0.0001823, 0.000524833, -0.845268, 56.1185, 26.5244, 6.17248, 1.74335, 3.00906, -0.166554, 0.00114305, -0.00143321, -0.000544056, -0.000418775, -0.00111985, -0.000308145, 0.00268933, 0.00191016, -0.000871927, -0.000162716, -0.00115426, -0.00632173, 0.471008, -0.543388, 0.335894, -2.08385, -2.16584, -0.129887, 0.469555, -0.542402, 0.336652, -2.08433, -2.16696, -0.129247, -4.33151e-05, 0.00040436, 0.000108769, -0.00188632, -0.00219458, -0.00111201
0.0233076, 1.6915, -1.22487, -1.53743, -0.899908, -1.1918, 1.22855, -1.30265, -0.000980267, -0.00097058, -0.00248764, 0.00422782, 5.30948e-05, -0.0001823, 0.000524833, -0.845268, 56.1185, 26.5244, 6.17248, 1.74335, 3.00906, -0.166554, 0.00114264, -0.00143318, -0.000544013, -0.000418884, -0.00111999, -0.000308097, 0.00276424, 0.0019048, -0.000879681, -0.000151819, -0.00112037, -0.00631547, 0.471008, -0.543388, 0.335894, -2.08385, -2.16584, -0.129887, 0.469555, -0.542402, 0.336652, -2.08433, -2.16696, -0.129247, -5.10658e-05, 0.000476901, 0.000128212, -0.00188632, -0.00219458, -0.00111201
0.0243079, 1.6915, -1.22487, -1.53743, -0.899908, -1.1918, 1.22855, -1.30265, -0.000980267, -0.00097058, -0.00248764, 0.00422782, 5.30948e-05, -0.0001823, 0.000524833, -0.845268, 56.1185, 26.5244, 6.17248, 1.74335, 3.00906, -0.166554, 0.00114215, -0.00143314, -0.000543961, -0.000419014, -0.00112016, -0.000308039, 0.00284522, 0.00189901, -0.000888046, -0.000140001, -0.00108372, -0.00630869, 0.471008, -0.543387, 0.335894, -2.08385, -2.16584, -0.129887, 0.469555, -0.542402, 0.336652, -2.08433, -2.16696, -0.129247, -5.94401e-05, 0.000555325, 0.000149214, -0.00188632, -0.00219458, -0.00111201
0.0253079, 1.6915, -1.22487, -1.53743, -0.899908, -1.1918, 1.22855, -1.30265, -0.000980267, -0.00097058, -0.00248764, 0.00422782, 5.30948e-05, -0.0001823, 0.000524833, -0.845268, 56.1185, 26.5244, 6.17248, 1.74335, 3.00906, -0.166554, 0.00114157, -0.0014331, -0.000543901, -0.000419164, -0.00112036, -0.000307972, 0.00293225, 0.00189279, -0.000897017, -0.00012726, -0.0010443, -0.00630141, 0.471008, -0.543387, 0.335895, -2.08385, -2.16584, -0.129887, 0.469555, -0.542402, 0.336652, -2.08433, -2.16696, -0.129247, -6.84344e-05, 0.000639605, 0.000171766, -0.00188632, -0.00219458, -0.00111201
0.0263083, 1.69146, -1.22494, -1.53748, -0.899882, -1.1918, 1.22856, -1.30266, -0.00341622, -0.00439635, -0.00136946, 0.00514468, 0.000643296, 0.00135314, -0.00017723, -0.619133, 56.9318, 26.7466, 6.09711, 1.71222, 2.95138, -0.133595, 0.0010989, -0.00146445, -0.000491601, -0.000403237, -0.0010518, -0.000234501, 0.00451643, 0.00285181, -0.00213014, 0.00300066, -0.00436543, -0.00800254, 0.471008, -0.543386, 0.335895, -2.08384, -2.16584, -0.129887, 0.469524, -0.542437, 0.336595, -2.08436, -2.16684, -0.129291, -7.80454e-05, 0.000729718, 0.000195859, -0.00284157, -0.00351787, -0.00252249
0.0273083, 1.69146, -1.22495, -1.53748, -0.899884, -1.1918, 1.22856, -1.30265, -0.00463966, -0.00468578, -0.00500631, 0.00516797, 0.000428865, 0.000708983, 0.000627832, -0.658806, 57.0032, 26.7823, 6.17248, 1.71222, 2.95871, -0.153737, 0.00109802, -0.00146388, -0.000485832, -0.000396503, -0.00104643, -0.000230987, 0.00592836, 0.0043109, -0.00358825, -0.000645453, -0.00455542, -0.0118485, 0.471008, -0.543385, 0.335895, -2.08384, -2.16584, -0.129887, 0.469524, -0.542436, 0.336589, -2.08436, -2.16683, -0.129289, -8.82697e-05, 0.000825639, 0.000221482, -0.00431115, -0.00465112, -0.0041118
0.0283083, 1.69146, -1.22495, -1.53748, -0.899878, -1.1918, 1.22856, -1.30266, -0.00350923, -0.00279457, -0.00418675, 0.00659124, 0.00140489, 0.00107381, -0.00103951, -0.658806, 56.8564, 26.6712, 6.0614, 1.68201, 2.94406, -0.114369, 0.00109382, -0.00146621, -0.000485529, -0.000402076, -0.00104392, -0.000226559, 0.00544538, 0.00370136, -0.0020283, 0.00151707, -0.00338657, -0.0096105, 0.471008, -0.543384, 0.335895, -2.08384, -2.16584, -0.129887, 0.469522, -0.542439, 0.336589, -2.08436, -2.16682, -0.129297, -9.91039e-05, 0.000927342, 0.000248628, -0.00367419, -0.00428776, -0.00248773
0.0293083, 1.69146, -1.22496, -1.5375, -0.899883, -1.1918, 1.22856, -1.30265, -0.00441482, -0.00186105, -0.00409515, 0.00396954, 0.00344582, -0.000325237, -0.000218287, -0.583427, 56.7096, 26.7069, 6.09711, 1.61426, 2.97336, -0.127186, 0.00108948, -0.00147009, -0.000475958, -0.000385577, -0.001037, -0.000215698, 0.00452339, 0.00364288, -0.00189945, 0.000317342, -0.00457055, -0.00830959, 0.471007, -0.543383, 0.335895, -2.08384, -2.16584, -0.129887, 0.469517, -0.542441, 0.336579, -2.08436, -2.1668, -0.129285, -0.000110545, 0.0010348, 0.000277287, -0.00365555, -0.00328752, -0.00219052
0.0303083, 1.69146, -1.22496, -1.5375, -0.899883, -1.1918, 1.22856, -1.30265, -0.00317728, 0.00125661, -0.000483224, 0.00378953, 0.00365355, -0.00123501, -0.00109496, -0.583427, 56.4517, 26.5958, 6.0614, 1.57764, 3.00174, -0.101552, 0.00108631, -0.00147037, -0.000475016, -0.000382621, -0.00104533, -0.000211149, 0.00284858, 0.00246628, 0.00102825, 0.00277827, -0.00221142, -0.0042863, 0.471007, -0.543382, 0.335896, -2.08384, -2.16584, -0.129887, 0.469517, -0.542443, 0.336578, -2.08437, -2.1668, -0.129273, -0.000122588, 0.001148, 0.000307449, -0.00244671, -0.00192339, 0.000954995
0.0313083, 1.69146, -1.22497, -1.5375, -0.899884, -1.19181, 1.22856, -1.30265, -0.00322176, -0.00061644, 0.000249385, 0.00368534, 0.0024357, 0.00176398, -0.00171332, -0.543754, 56.4874, 26.5601, 6.02173, 1.57764, 3.05942, -0.0750012, 0.00108089, -0.0014715, -0.000464363, -0.000375528, -0.00103797, -0.000207778, 0.00353951, 0.00188529, 0.000428477, 0.0052776, -0.00158139, -0.00363324, 0.471007, -0.543381, 0.335896, -2.08384, -2.16584, -0.129887, 0.469516, -0.542446, 0.336567, -2.08436, -2.16679, -0.129272, -0.000135232, 0.0012669, 0.000339106, -0.00187606, -0.00237051, 0.000269683
0.0323083, 1.69145, -1.22498, -1.53751, -0.899882, -1.19182, 1.22857, -1.30265, -0.00487796, -0.00347364, -3.15061e-05, 0.00346533, 0.00209852, 0.00535124, -0.000396227, -0.43267, 56.5985, 26.5601, 5.98602, 1.56482, 3.0878, -0.0951428, 0.0010732, -0.00147441, -0.000457282, -0.000375958, -0.00103546, -0.000192139, 0.00511049, 0.00213533, -0.000988211, 0.00792692, -0.00233228, -0.00658099, 0.471007, -0.54338, 0.335896, -2.08384, -2.16584, -0.129887, 0.469513, -0.542451, 0.336559, -2.08438, -2.16677, -0.129274, -0.000148472, 0.00139149, 0.000372248, -0.00213398, -0.00358903, -0.00133232
0.0333083, 1.69146, -1.22499, -1.53751, -0.89989, -1.19183, 1.22857, -1.30265, -0.000203821, -0.00693282, -0.00193256, 0.000676901, 0.000720844, 0.00373391, -0.000772778, -0.43267, 56.781, 26.6355, 6.0614, 1.58313, 3.10245, -0.0814099, 0.00107314, -0.00146992, -0.000450979, -0.000369821, -0.00103816, -0.000200681, 0.00317566, -0.000397715, -0.00448212, 0.0018999, -0.00488031, -0.000458289, 0.471007, -0.543379, 0.335897, -2.08384, -2.16584, -0.129888, 0.469517, -0.542449, 0.336553, -2.08437, -2.16678, -0.129265, -0.000162305, 0.00152173, 0.000406866, 0.000186651, -0.000907235, -0.00452373
0.0343083, 1.69145, -1.225, -1.53751, -0.899883, -1.19184, 1.22859, -1.30265, -0.00171094, -0.0100799, -0.00307005, 0.00231194, -0.00459024, 0.00848958, -0.000989903, -0.357292, 57.0032, 26.7069, 5.98602, 1.58954, 3.08047, -0.0685925, 0.0010644, -0.00147065, -0.000446723, -0.000379227, -0.00104306, -0.000190582, 0.00655453, 0.000673552, -0.00602005, 0.00333786, -0.00136803, -0.00542519, 0.471007, -0.543377, 0.335897, -2.08384, -2.16584, -0.129888, 0.469516, -0.542455, 0.336548, -2.08438, -2.16677, -0.12927, -0.000176727, 0.00165761, 0.000442951, -0.000832354, -0.00391421, -0.00649835
0.0353083, 1.69145, -1.225, -1.53751, -0.899888, -1.19184, 1.2286, -1.30265, -0.00369075, -0.00867902, 0.000195121, -0.000148864, -0.00437848, 0.0064464, 0.000323409, -0.242241, 57.0786, 26.7466, 6.0614, 1.61426, 3.08047, -0.0951428, 0.00105996, -0.00146986, -0.000445113, -0.00038271, -0.00105291, -0.00018952, 0.00578028, 0.00102655, -0.00447298, 0.00378724, -0.00114261, -0.00490793, 0.471007, -0.543375, 0.335898, -2.08384, -2.16584, -0.129888, 0.469517, -0.542458, 0.336546, -2.08439, -2.16678, -0.129264, -0.000191736, 0.0017991, 0.000480493, -0.00117175, -0.00326091, -0.00480239
0.0363083, 1.69145, -1.22501, -1.53751, -0.899888, -1.19185, 1.22861, -1.30265, -0.00411788, -0.00676812, 0.00162481, -4.44341e-05, -0.00776932, 0.00434507, -0.000530379, -0.166862, 57.1143, 26.822, 6.0614, 1.60785, 3.09512, -0.0750012, 0.00105462, -0.00146922, -0.000444957, -0.000389741, -0.00106356, -0.000185462, 0.00612401, 0.00182872, -0.0030076, 0.0019286, 0.00245384, -0.00503812, 0.471006, -0.543374, 0.335898, -2.08384, -2.16584, -0.129888, 0.469517, -0.542461, 0.336545, -2.0844, -2.16678, -0.12926, -0.000207328, 0.00194618, 0.000519485, -0.00192328, -0.00371154, -0.00334563
0.0373083, 1.69145, -1.22501, -1.53751, -0.89989, -1.19186, 1.22862, -1.30265, -0.00350109, -0.00462224, 0.000658505, -0.000823734, -0.00604227, 0.00669534, -0.00181165, -0.131157, 57.1143, 26.8577, 6.09711, 1.61426, 3.13083, -0.0356336, 0.00105095, -0.00146653, -0.000443009, -0.00039009, -0.00107592, -0.000189463, 0.00567505, 0.000881933, -0.00204011, 0.00366662, 0.00456193, -0.00237419, 0.471006, -0.543372, 0.335899, -2.08384, -2.16584, -0.129888, 0.46952, -0.542462, 0.336543, -2.08441, -2.1668, -0.129249, -0.0002235, 0.00209882, 0.000559916, -0.000975014, -0.00322586, -0.00230873
0.0383083, 1.69146, -1.225, -1.53751, -0.89989, -1.19187, 1.22863, -1.30265, -0.00403775, -0.0023289, -8.83252e-05, 0.000316892, -0.00334432, 0.00883299, -0.00168248, -0.0557783, 57.0786, 26.8934, 6.0614, 1.58313, 3.15921, -0.0228162, 0.00104748, -0.001464, -0.000445095, -0.000395285, -0.00109124, -0.000189611, 0.00603892, 0.000904482, -0.000600212, 0.00697017, 0.00570116, -0.00350971, 0.471006, -0.54337, 0.335899, -2.08384, -2.16584, -0.129888, 0.469522, -0.542464, 0.336545, -2.08441, -2.16681, -0.129239, -0.000240248, 0.00225699, 0.000601779, -0.000949288, -0.00364946, -0.000900873
0.0393083, 1.69146, -1.225, -1.53751, -0.899883, -1.19188, 1.22864, -1.30266, -0.00217546, -0.000686543, 0.000172033, 0.00283284, -0.00190315, 0.0104261, -0.00159637, 0.059273, 57.0389, 26.8934, 5.95032, 1.56482, 3.18851, -0.00999879, 0.00104039, -0.00146401, -0.000447414, -0.000403797, -0.00110677, -0.00018196, 0.00579497, -5.93386e-05, 0.000830881, 0.0103258, 0.0068395, -0.00336175, 0.471006, -0.543367, 0.3359, -2.08384, -2.16584, -0.129888, 0.469523, -0.542469, 0.336547, -2.08443, -2.16681, -0.129232, -0.000257569, 0.00242068, 0.000645063, 3.89096e-05, -0.00342578, 0.000564315
0.0403083, 1.69146, -1.225, -1.53751, -0.899883, -1.19188, 1.22864, -1.30266, -0.00217546, -0.000686543, 0.000172033, 0.00283284, -0.00190315, 0.0104261, -0.00159637, 0.059273, 57.0389, 26.8934, 5.95032, 1.56482, 3.18851, -0.00999879, 0.00103789, -0.00146383, -0.000447157, -0.000404464, -0.00110765, -0.00018167, 0.00596956, -7.16297e-05, 0.000813438, 0.0103526, 0.00691951, -0.00334708, 0.471005, -0.543365, 0.3359, -2.08384, -2.16584, -0.129889, 0.469523, -0.542469, 0.336547, -2.08443, -2.16681, -0.129232, -0.00027546, 0.00258986, 0.000689759, 3.89096e-05, -0.00342578, 0.000564315
0.0413083, 1.69146, -1.225, -1.53751, -0.899883, -1.19188, 1.22864, -1.30266, -0.00217546, -0.000686543, 0.000172033, 0.00283284, -0.00190315, 0.0104261, -0.00159637, 0.059273, 57.0389, 26.8934, 5.95032, 1.56482, 3.18851, -0.00999879, 0.00103522, -0.00146364, -0.000446883, -0.000405178, -0.0011086, -0.00018136, 0.00614978, -8.43051e-05, 0.000795471, 0.0103804, 0.00700216, -0.00333193, 0.471005, -0.543362, 0.335901, -2.08383, -2.16584, -0.129889, 0.469523, -0.542469, 0.336547, -2.08443, -2.16681, -0.129232, -0.000293917, 0.0027645, 0.00073586, 3.89096e-05, -0.00342578, 0.000564315
0.0423083, 1.69147, -1.22501, -1.53751, -0.899888, -1.1919, 1.22867, -1.30265, 0.00129923, -0.00358811, 0.00087862, 0.000974267, -0.00570758, 0.0109642, -7.65422e-05, 0.245735, 57.1896, 26.8577, 5.95032, 1.55932, 3.18851, -0.0292249, 0.0010307, -0.00145215, -0.000443067, -0.000420531, -0.00113383, -0.000187855, 0.00518108, -0.00230873, -0.00106889, 0.00806, 0.00779934, -0.000666073, 0.471005, -0.54336, 0.335902, -2.08383, -2.16584, -0.129889, 0.469534, -0.54247, 0.336543, -2.08445, -2.16684, -0.129224, -0.000312938, 0.00294458, 0.000783355, 0.00213949, -0.00191137, -0.0011458
0.0433083, 1.69147, -1.22501, -1.53751, -0.899888, -1.1919, 1.22867, -1.30265, 0.00129923, -0.00358811, 0.00087862, 0.000974267, -0.00570758, 0.0109642, -7.65422e-05, 0.245735, 57.1896, 26.8577, 5.95032, 1.55932, 3.18851, -0.0292249, 0.00102767, -0.00145193, -0.000442756, -0.000421344, -0.0011349, -0.000187503, 0.00537249, -0.00232217, -0.00108789, 0.00808966, 0.00788726, -0.000649981, 0.471005, -0.543357, 0.335903, -2.08383, -2.16584, -0.129889, 0.469534, -0.54247, 0.336543, -2.08445, -2.16684, -0.129224, -0.000332518, 0.00313007, 0.000832236, 0.00213949, -0.00191137, -0.0011458
0.0443083, 1.69147, -1.22501, -1.53751, -0.899888, -1.1919, 1.22867, -1.30265, 0.00129923, -0.00358811, 0.00087862, 0.000974267, -0.00570758, 0.0109642, -7.65422e-05, 0.245735, 57.1896, 26.8577, 5.95032, 1.55932, 3.18851, -0.0292249, 0.00102444, -0.0014517, -0.000442426, -0.00042221, -0.00113605, -0.000187128, 0.00556947, -0.00233599, -0.0011074, 0.00812028, 0.00797781, -0.000633417, 0.471004, -0.543354, 0.335903, -2.08383, -2.16584, -0.129889, 0.469534, -0.54247, 0.336543, -2.08445, -2.16684, -0.129224, -0.000352655, 0.00332096, 0.000882495, 0.00213949, -0.00191137, -0.0011458
0.0453083, 1.69149, -1.22501, -1.53751, -0.899885, -1.19195, 1.22873, -1.30264, 0.00142663, -0.00189405, 0.000580617, 0.0027689, -0.00903385, 0.0137885, 0.00159616, 0.928108, 57.2253, 26.8934, 5.72418, 1.52179, 3.31027, -0.0814099, 0.00101431, -0.00143458, -0.000444537, -0.000448331, -0.0012016, -0.000179963, 0.00709904, -0.00207954, 0.000253892, 0.00977468, 0.0137432, -0.00502197, 0.471004, -0.54335, 0.335904, -2.08383, -2.16584, -0.12989, 0.469551, -0.542476, 0.336544, -2.0845, -2.16687, -0.129186, -0.000373345, 0.00351722, 0.000934121, 0.00196654, -0.0034452, 2.03108e-05
0.0463083, 1.6915, -1.22501, -1.53752, -0.899886, -1.19196, 1.22875, -1.30265, 0.00461471, -0.00127097, -0.00134534, 0.0025386, -0.0120901, 0.0193113, 0.00011467, 1.07887, 57.2253, 26.9687, 5.68848, 1.53461, 3.33133, -0.0557752, 0.00100849, -0.00142845, -0.000443965, -0.000453266, -0.00122676, -0.000183304, 0.00734395, -0.00425057, 0.000204364, 0.0109504, 0.0199335, -0.00213615, 0.471004, -0.543347, 0.335905, -2.08383, -2.16583, -0.12989, 0.469557, -0.542478, 0.336543, -2.08451, -2.16689, -0.129167, -0.000394586, 0.00371881, 0.000987107, 0.0041205, -0.00338892, -7.90705e-05
0.0473083, 1.69151, -1.22502, -1.53752, -0.899889, -1.19198, 1.22877, -1.30265, 0.00493326, -0.00168873, -3.85553e-05, 0.000750273, -0.0130861, 0.0238953, -0.00114426, 1.18995, 57.261, 26.933, 5.72418, 1.5163, 3.33865, -0.0228162, 0.00100567, -0.00141814, -0.000444043, -0.000465296, -0.00125016, -0.000196822, 0.00732636, -0.00580675, 0.000540742, 0.0147105, 0.0227804, 0.00132474, 0.471003, -0.543343, 0.335906, -2.08382, -2.16583, -0.12989, 0.469567, -0.542477, 0.336544, -2.08451, -2.16693, -0.129158, -0.000416373, 0.00392573, 0.00104144, 0.0056644, -0.00315275, 0.00026322
0.0483083, 1.69152, -1.22502, -1.53752, -0.899882, -1.192, 1.22879, -1.30265, 0.00908847, -0.00196569, -0.0017716, 0.00301845, -0.0107733, 0.022962, 0.000457865, 1.26533, 57.2968, 27.0084, 5.6131, 1.5401, 3.33133, -0.0557752, 0.000996435, -0.00141266, -0.000441844, -0.000469978, -0.00127732, -0.000187107, 0.00620555, -0.00743698, -0.000244106, 0.0139115, 0.0202863, 0.0018061, 0.471003, -0.543339, 0.335907, -2.08382, -2.16583, -0.129891, 0.469572, -0.542481, 0.336541, -2.08454, -2.16693, -0.129135, -0.000438704, 0.00413795, 0.00109712, 0.00720177, -0.0016465, -0.000331272
0.0493083, 1.69153, -1.22502, -1.53752, -0.899882, -1.19201, 1.22882, -1.30264, 0.012126, -0.00224197, -0.00116806, 0.00278738, -0.0125533, 0.0260298, 0.000542603, 1.34071, 57.3364, 27.0084, 5.57739, 1.53461, 3.3533, -0.0621838, 0.000991124, -0.00140367, -0.000441068, -0.000482114, -0.00130058, -0.000191195, 0.00558363, -0.00967982, -0.000135392, 0.0157099, 0.0231609, 0.00464153, 0.471002, -0.543335, 0.335908, -2.08382, -2.16583, -0.129891, 0.469581, -0.542482, 0.33654, -2.08455, -2.16695, -0.129126, -0.000461575, 0.00435543, 0.00115413, 0.00940053, -0.000740002, -0.000138014
0.0503083, 1.69155, -1.22502, -1.53752, -0.899875, -1.19204, 1.22884, -1.30264, 0.0111007, -0.000569245, -0.000768957, 0.00357639, -0.0152875, 0.0336054, 0.000124376, 1.41608, 57.2968, 27.0084, 5.50201, 1.56482, 3.36062, -0.0557752, 0.00098445, -0.00139449, -0.00044394, -0.000495245, -0.0013345, -0.000189884, 0.00758714, -0.0100614, 0.00179838, 0.0220804, 0.0307919, 0.00262562, 0.471002, -0.543331, 0.335909, -2.08382, -2.16583, -0.129891, 0.46959, -0.542484, 0.336543, -2.08457, -2.16698, -0.129106, -0.000484983, 0.00457817, 0.00121247, 0.00989967, -0.00277725, 0.00150727
0.0513083, 1.69157, -1.22502, -1.53752, -0.899869, -1.19206, 1.22887, -1.30264, 0.0140718, -0.00038146, -0.00134054, 0.00411367, -0.0209867, 0.0339528, 0.000320276, 1.45576, 57.2968, 27.0441, 5.42664, 1.57123, 3.38168, -0.0621838, 0.000979279, -0.00138291, -0.000444408, -0.000506887, -0.00136481, -0.000193391, 0.00792727, -0.0109427, 0.00163327, 0.0190795, 0.0360044, 0.00272142, 0.471001, -0.543326, 0.335911, -2.08382, -2.16583, -0.129892, 0.469601, -0.542484, 0.336543, -2.08459, -2.167, -0.129089, -0.000508925, 0.00480613, 0.00127212, 0.0107621, -0.0028236, 0.0013245
0.0523083, 1.69157, -1.22502, -1.53753, -0.899862, -1.19208, 1.22889, -1.30264, 0.0105713, -0.000255779, -0.00172343, 0.0036451, -0.020575, 0.0297289, -0.000295109, 1.60651, 57.2968, 27.0798, 5.38696, 1.57764, 3.39633, -0.0484509, 0.000967757, -0.00137821, -0.00044513, -0.000520335, -0.00139587, -0.000186093, 0.00913133, -0.00830484, 0.00129479, 0.0156314, 0.0337774, 0.000260424, 0.471001, -0.543321, 0.335912, -2.08381, -2.16583, -0.129892, 0.469606, -0.542491, 0.336543, -2.08462, -2.16701, -0.129072, -0.000533398, 0.00503929, 0.00133308, 0.00813404, -0.00383495, 0.00094384
0.0533083, 1.69157, -1.22502, -1.53753, -0.899862, -1.19208, 1.22889, -1.30264, 0.0105713, -0.000255779, -0.00172343, 0.0036451, -0.020575, 0.0297289, -0.000295109, 1.60651, 57.2968, 27.0798, 5.38696, 1.57764, 3.39633, -0.0484509, 0.000962558, -0.00137784, -0.000444605, -0.000521741, -0.00139772, -0.000185493, 0.00937719, -0.00832193, 0.00127094, 0.0156707, 0.0338912, 0.000281135, 0.471, -0.543316, 0.335913, -2.08381, -2.16583, -0.129892, 0.469606, -0.542491, 0.336543, -2.08462, -2.16701, -0.129072, -0.000558399, 0.00527762, 0.00139533, 0.00813404, -0.00383495, 0.00094384
0.0543083, 1.6916, -1.22502, -1.53753, -0.899862, -1.19213, 1.22895, -1.30264, 0.0109419, -0.00104326, 0.000353486, 0.00392506, -0.0205134, 0.0249682, -0.00131795, 1.9477, 57.3364, 27.0084, 5.38696, 1.60144, 3.40365, -0.00999879, 0.000952812, -0.00135844, -0.000447544, -0.000549328, -0.00146503, -0.000195171, 0.0086814, -0.00799998, 0.00112016, 0.0134263, 0.0306709, 0.00248006, 0.471, -0.543311, 0.335915, -2.08381, -2.16583, -0.129893, 0.469625, -0.542495, 0.336545, -2.08466, -2.16707, -0.129036, -0.000583923, 0.00552111, 0.00145888, 0.00775666, -0.00289452, 0.000976181
0.0553083, 1.69162, -1.22502, -1.53753, -0.899858, -1.19215, 1.22898, -1.30264, 0.00960784, -0.00069613, -0.00236048, 0.00447077, -0.0199714, 0.0229646, -0.000641277, 2.05878, 57.3364, 27.1195, 5.31555, 1.60144, 3.41739, -0.0164075, 0.000945336, -0.00134711, -0.00044617, -0.00055569, -0.00150063, -0.000196437, 0.00991014, -0.00635957, 0.000306643, 0.0101021, 0.0297892, -0.0011021, 0.470999, -0.543305, 0.335916, -2.08381, -2.16583, -0.129893, 0.469636, -0.542496, 0.336544, -2.08467, -2.16709, -0.129007, -0.000609969, 0.00576973, 0.0015237, 0.00610689, -0.00380084, 9.6432e-05
0.0563083, 1.69163, -1.22502, -1.53753, -0.899855, -1.19218, 1.22901, -1.30264, 0.0074923, 0.000463467, 0.000191317, 0.00404625, -0.0196881, 0.0263041, -0.000936144, 2.20954, 57.2968, 27.0441, 5.27588, 1.60144, 3.43204, -0.00267457, 0.000938366, -0.00133518, -0.000451298, -0.000574725, -0.00154265, -0.000203402, 0.0106324, -0.00635479, 0.00221417, 0.0156303, 0.0322939, -0.00119566, 0.470999, -0.5433, 0.335918, -2.0838, -2.16583, -0.129894, 0.469648, -0.542497, 0.336549, -2.0847, -2.16713, -0.128987, -0.000636533, 0.00602345, 0.0015898, 0.00617029, -0.00455395, 0.00193406
0.0573083, 1.69166, -1.22502, -1.53753, -0.899853, -1.1922, 1.22904, -1.30265, 0.014246, 0.00197906, 0.000964065, 0.00363601, -0.0234942, 0.0281706, -0.000861455, 2.28492, 57.2253, 27.0084, 5.24017, 1.58313, 3.46042, 0.00373412, 0.00093387, -0.00131914, -0.000456567, -0.000593158, -0.00158798, -0.000219016, 0.00841764, -0.0102747, 0.0031053, 0.0150877, 0.0381551, 0.00485093, 0.470998, -0.543294, 0.335919, -2.0838, -2.16582, -0.129894, 0.469664, -0.542496, 0.336555, -2.08471, -2.16718, -0.128963, -0.000663611, 0.00628226, 0.00165716, 0.010011, -0.00208548, 0.00310689
0.0583083, 1.69167, -1.22502, -1.53753, -0.899847, -1.19223, 1.22907, -1.30264, 0.0123006, 0.00131911, 0.000643686, 0.00426471, -0.0271029, 0.0245154, 0.000409041, 2.51106, 57.2253, 27.0084, 5.16479, 1.58313, 3.50345, -0.0228162, 0.000922383, -0.0013115, -0.000456358, -0.000603208, -0.00162474, -0.000213618, 0.0102052, -0.00794289, 0.00244658, 0.0105404, 0.0386789, -0.000223925, 0.470997, -0.543287, 0.335921, -2.0838, -2.16582, -0.129894, 0.469671, -0.542501, 0.336554, -2.08474, -2.1672, -0.128937, -0.000691201, 0.00654612, 0.00172578, 0.00769482, -0.00358032, 0.00231788
0.0593083, 1.6917, -1.22502, -1.53753, -0.89984, -1.19227, 1.22909, -1.30264, 0.0163025, 0.000879213, 0.000429856, 0.0054997, -0.029062, 0.0217231, -0.000473291, 2.51106, 57.2253, 27.0084, 5.05371, 1.56482, 3.54648, -0.00267457, 0.000916829, -0.00129504, -0.000457836, -0.000614454, -0.00166745, -0.000223329, 0.00925506, -0.00917067, 0.00180093, 0.00699233, 0.0386181, 0.00279902, 0.470997, -0.543281, 0.335923, -2.0838, -2.16582, -0.129895, 0.469687, -0.542499, 0.336556, -2.08475, -2.16724, -0.128908, -0.0007193, 0.00681502, 0.00179564, 0.0088356, -0.00222379, 0.00186063
0.0603083, 1.69171, -1.22501, -1.53753, -0.899835, -1.1923, 1.22913, -1.30264, 0.0169146, 0.00234923, 0.00028712, 0.0108665, -0.0311104, 0.0250765, -0.000552887, 2.73719, 57.15, 27.0084, 5.01404, 1.55932, 3.56845, 0.00373412, 0.000905271, -0.00128422, -0.000462699, -0.00063361, -0.00171838, -0.000221752, 0.0114991, -0.00866493, 0.00359693, 0.0114575, 0.0431038, -0.00196808, 0.470996, -0.543274, 0.335924, -2.08379, -2.16582, -0.129895, 0.469698, -0.542504, 0.336561, -2.08479, -2.16727, -0.128878, -0.000747904, 0.00708893, 0.00186675, 0.00844708, -0.00446242, 0.003372
0.0613083, 1.69174, -1.22501, -1.53753, -0.899829, -1.19233, 1.22916, -1.30264, 0.0231815, 0.00240126, 0.000191825, 0.0126995, -0.0373502, 0.0281852, 0.00132683, 2.73719, 57.1143, 27.0084, 4.94263, 1.55292, 3.57577, -0.0420422, 0.00090085, -0.00126519, -0.000465119, -0.000645732, -0.00176565, -0.000230768, 0.0111182, -0.0116395, 0.00376726, 0.0111303, 0.049967, -0.00137729, 0.470995, -0.543267, 0.335926, -2.08379, -2.16582, -0.129896, 0.469716, -0.542501, 0.336564, -2.0848, -2.16731, -0.128845, -0.00077701, 0.00736784, 0.00193908, 0.0113812, -0.00371201, 0.00358187
0.0623083, 1.69177, -1.22501, -1.53753, -0.899819, -1.19236, 1.22919, -1.30264, 0.025688, 0.000765541, -0.000707025, 0.0140233, -0.0382528, 0.0302515, 0.000172476, 2.81654, 57.15, 27.0441, 4.86725, 1.57123, 3.58951, -0.0228162, 0.000890698, -0.00125111, -0.000465188, -0.000655311, -0.00181274, -0.000238351, 0.0114272, -0.0129183, 0.00269542, 0.0118746, 0.0502515, 0.000412818, 0.470994, -0.543259, 0.335928, -2.08379, -2.16582, -0.129897, 0.46973, -0.542503, 0.336564, -2.08482, -2.16735, -0.128809, -0.000806615, 0.0076517, 0.00201263, 0.0126012, -0.00351583, 0.00251047
0.0633083, 1.69179, -1.22501, -1.53753, -0.899812, -1.1924, 1.22923, -1.30264, 0.0266715, 0.00218073, -0.000471119, 0.0118837, -0.038498, 0.0322567, -0.000359734, 2.92762, 57.0786, 27.0441, 4.79187, 1.58313, 3.58951, -0.00999879, 0.000880788, -0.00123601, -0.000469917, -0.000672584, -0.00186836, -0.000242371, 0.0107249, -0.0143234, 0.00341039, 0.0127072, 0.0531956, 0.00382344, 0.470993, -0.543252, 0.33593, -2.08378, -2.16582, -0.129897, 0.469745, -0.542505, 0.336568, -2.08485, -2.16739, -0.128773, -0.000836715, 0.00794051, 0.00208739, 0.013975, -0.00258625, 0.00335779
0.0643083, 1.69182, -1.22501, -1.53753, -0.899807, -1.19244, 1.22927, -1.30264, 0.0266363, -0.0033784, -0.000313905, 0.0125391, -0.0391607, 0.0290019, 0.000946972, 3.07838, 57.15, 27.0441, 4.75616, 1.60144, 3.58951, -0.0420422, 0.000869638, -0.00122134, -0.000468582, -0.000685091, -0.0019158, -0.000242899, 0.011531, -0.0136373, -2.07302e-05, 0.00961161, 0.0466623, 0.00188098, 0.470993, -0.543244, 0.335932, -2.08378, -2.16582, -0.129898, 0.469759, -0.542507, 0.336567, -2.08488, -2.16742, -0.128739, -0.000867309, 0.00823424, 0.00216336, 0.0131641, -0.00258805, -5.86824e-05
0.0653083, 1.69185, -1.22501, -1.53753, -0.899797, -1.19248, 1.2293, -1.30264, 0.0282956, 8.26765e-05, 0.0015541, 0.0108235, -0.0346679, 0.0264946, 0.000868674, 3.15376, 57.0389, 26.9687, 4.68079, 1.62067, 3.58951, -0.0484509, 0.000860444, -0.00120481, -0.000476324, -0.000700616, -0.00197858, -0.00024783, 0.00872043, -0.0152846, 0.00209652, 0.0104247, 0.045415, 0.00747354, 0.470992, -0.543236, 0.335935, -2.08378, -2.16581, -0.129898, 0.469775, -0.542509, 0.336575, -2.08491, -2.16746, -0.128694, -0.000898392, 0.00853286, 0.00224052, 0.0147542, 0.000226661, 0.00249565
0.0663083, 1.69187, -1.225, -1.53753, -0.899795, -1.19252, 1.22933, -1.30264, 0.0286448, 0.00152792, 0.00103616, 0.00690616, -0.0355251, 0.0294998, 0.000850383, 3.26881, 56.9675, 26.9687, 4.71649, 1.62616, 3.58218, -0.0557752, 0.000852122, -0.00118771, -0.000479958, -0.000710765, -0.00203717, -0.000257704, 0.00816725, -0.0167134, 0.00243574, 0.0104416, 0.0495789, 0.0107328, 0.470991, -0.543227, 0.335937, -2.08377, -2.16581, -0.129899, 0.469792, -0.542508, 0.336579, -2.08493, -2.16751, -0.128647, -0.000929962, 0.00883635, 0.00231887, 0.0161421, 0.00108254, 0.00295166
0.0673083, 1.6919, -1.225, -1.53753, -0.899784, -1.19257, 1.22937, -1.30263, 0.0297171, 0.000870386, 0.000690849, 0.00759683, -0.0360709, 0.0319042, 0.000566922, 3.34419, 56.9675, 26.9687, 4.60541, 1.62616, 3.57577, -0.0557752, 0.000840164, -0.00117167, -0.00048075, -0.000722502, -0.00209215, -0.000257859, 0.00870573, -0.0175121, 0.00214991, 0.0121375, 0.0507019, 0.0111623, 0.47099, -0.543218, 0.335939, -2.08377, -2.16581, -0.1299, 0.469807, -0.542511, 0.33658, -2.08496, -2.16754, -0.128605, -0.000962015, 0.00914469, 0.0023984, 0.0169166, 0.00093601, 0.00264119
0.0683083, 1.69193, -1.225, -1.53753, -0.899781, -1.19261, 1.2294, -1.30263, 0.0265076, 0.000469088, -0.000467399, 0.0077005, -0.036899, 0.0329003, 0.000377948, 3.45527, 56.9675, 27.0084, 4.64111, 1.63898, 3.58951, -0.0557752, 0.000828342, -0.00115579, -0.000479709, -0.0007274, -0.0021501, -0.00026588, 0.0110329, -0.0156035, 0.001746, 0.0121709, 0.051595, 0.00729132, 0.470989, -0.543209, 0.335941, -2.08376, -2.16581, -0.1299, 0.469822, -0.542513, 0.336579, -2.08498, -2.16758, -0.128553, -0.000994548, 0.00945786, 0.0024791, 0.0150466, -0.00106419, 0.00201927
0.0693083, 1.69196, -1.225, -1.53753, -0.899767, -1.19266, 1.22944, -1.30263, 0.0289894, 0.00199259, 0.0023797, 0.00821852, -0.036614, 0.033701, 0.000489324, 3.49494, 56.8921, 26.8934, 4.53003, 1.62616, 3.60415, -0.0621838, 0.000817545, -0.00113912, -0.000487575, -0.000746515, -0.00221118, -0.000267591, 0.0096965, -0.0175527, 0.0036315, 0.0155352, 0.0532715, 0.010648, 0.470988, -0.5432, 0.335944, -2.08376, -2.16581, -0.129901, 0.469839, -0.542514, 0.336587, -2.08502, -2.16763, -0.128513, -0.00102756, 0.00977584, 0.00256097, 0.0169806, 0.000362604, 0.00411149
0.0703083, 1.69199, -1.225, -1.53753, -0.899763, -1.19271, 1.22947, -1.30264, 0.0307718, 0.00210108, 0.000658477, 0.00584381, -0.0409644, 0.0346572, -0.00113185, 3.53065, 56.8564, 26.933, 4.53003, 1.60785, 3.60415, -0.0228162, 0.000807494, -0.00112094, -0.000488843, -0.000752209, -0.002272, -0.00028112, 0.00984177, -0.0184876, 0.00271691, 0.011497, 0.057947, 0.0138474, 0.470987, -0.54319, 0.335947, -2.08375, -2.1658, -0.129902, 0.469856, -0.542514, 0.336588, -2.08503, -2.16768, -0.12846, -0.00106104, 0.0100986, 0.00264398, 0.017853, 0.000721081, 0.00324057
0.0713083, 1.69203, -1.22499, -1.53753, -0.899758, -1.19275, 1.2295, -1.30264, 0.0332455, 0.00218904, 0.00220225, 0.00416947, -0.0445831, 0.034645, -0.000991923, 3.53065, 56.8207, 26.8577, 4.53003, 1.60785, 3.62521, -0.0164075, 0.000798192, -0.0011022, -0.00049219, -0.000760522, -0.00233311, -0.00029333, 0.00896682, -0.0201326, 0.00292213, 0.0100393, 0.0612717, 0.0171735, 0.470986, -0.54318, 0.335949, -2.08375, -2.1658, -0.129903, 0.469874, -0.542513, 0.336592, -2.08505, -2.16772, -0.128409, -0.001095, 0.0104261, 0.00272814, 0.019438, 0.00194813, 0.00361349
0.0723083, 1.69206, -1.22499, -1.53753, -0.899749, -1.1928, 1.22954, -1.30264, 0.0345031, 0.00402264, 0.000632963, 0.00298485, -0.0429822, 0.0354619, -0.00116991, 3.53065, 56.7096, 26.8934, 4.53003, 1.60785, 3.62521, -0.00267457, 0.000787162, -0.00108398, -0.000497648, -0.000767278, -0.00240356, -0.000302426, 0.00831792, -0.0211472, 0.00325256, 0.00957853, 0.0625969, 0.0194119, 0.470985, -0.543169, 0.335952, -2.08374, -2.1658, -0.129903, 0.469892, -0.542513, 0.336598, -2.08507, -2.16777, -0.128347, -0.00112942, 0.0107583, 0.00281344, 0.0204057, 0.00291168, 0.00409509
0.0733083, 1.69209, -1.22499, -1.53752, -0.899748, -1.19286, 1.22957, -1.30264, 0.0322812, 0.00265538, 0.00209242, 0.00349108, -0.0418627, 0.0362361, -0.00149202, 3.53065, 56.7096, 26.822, 4.60541, 1.61426, 3.6188, 0.0165515, 0.000775835, -0.00106553, -0.000499414, -0.000774524, -0.00246834, -0.000315872, 0.00948723, -0.0203597, 0.00319092, 0.0125766, 0.0606582, 0.0182298, 0.470984, -0.543159, 0.335955, -2.08374, -2.1658, -0.129904, 0.46991, -0.542513, 0.3366, -2.08509, -2.16783, -0.128292, -0.00116431, 0.0110953, 0.00289987, 0.0196239, 0.00207154, 0.00396276
0.0743083, 1.69213, -1.22498, -1.53753, -0.899734, -1.19291, 1.2296, -1.30264, 0.0346637, 0.00518414, -0.00247774, 0.00446526, -0.0410625, 0.0369748, -1.13329e-05, 3.49494, 56.5628, 26.8577, 4.53003, 1.61426, 3.61148, -0.00999879, 0.000761444, -0.00105001, -0.000504198, -0.000777972, -0.00253923, -0.000312765, 0.00969886, -0.02088, 0.00309951, 0.00996827, 0.0633362, 0.0163066, 0.470983, -0.543147, 0.335958, -2.08373, -2.1658, -0.129905, 0.469925, -0.542516, 0.336605, -2.08513, -2.16786, -0.128224, -0.00119966, 0.0114369, 0.00298742, 0.0201124, 0.00223967, 0.00391138
0.0753083, 1.69216, -1.22497, -1.53753, -0.899724, -1.19296, 1.22963, -1.30264, 0.0323952, 0.00436927, -0.00106972, 0.00638064, -0.0453696, 0.0373887, -0.000278823, 3.49494, 56.5231, 26.822, 4.53003, 1.62616, 3.60415, -0.00267457, 0.000748404, -0.00103341, -0.000509131, -0.000785385, -0.00260668, -0.000319137, 0.0123111, -0.0190562, 0.0035121, 0.0108081, 0.0660965, 0.0119361, 0.470981, -0.543136, 0.335961, -2.08373, -2.16579, -0.129906, 0.469941, -0.542518, 0.336611, -2.08515, -2.16791, -0.128165, -0.00123547, 0.0117833, 0.00307608, 0.0183636, -0.000131041, 0.00405676
0.0763083, 1.69219, -1.22497, -1.53753, -0.899723, -1.19302, 1.22966, -1.30264, 0.0315795, 0.00373694, -0.000902985, 0.00523557, -0.0530508, 0.032709, 0.000322745, 3.45527, 56.4874, 26.822, 4.64111, 1.62616, 3.60415, -0.0164075, 0.000735832, -0.00101462, -0.000509121, -0.000783227, -0.0026772, -0.000328293, 0.013756, -0.0172, 0.00264097, 0.00290338, 0.0696811, 0.00907304, 0.47098, -0.543124, 0.335964, -2.08372, -2.16579, -0.129907, 0.469959, -0.542518, 0.336611, -2.08517, -2.16795, -0.128093, -0.00127174, 0.0121342, 0.00316585, 0.0164938, -0.00114841, 0.00311791
0.0773083, 1.69223, -1.22497, -1.53752, -0.899708, -1.19308, 1.2297, -1.30264, 0.0347845, 0.00415338, 0.00278211, 0.0111564, -0.0534175, 0.0298703, -0.000530822, 3.37989, 56.416, 26.6712, 4.60541, 1.61426, 3.58951, 0.00373412, 0.000724331, -0.000994595, -0.000516895, -0.000799373, -0.00274481, -0.000340306, 0.0134209, -0.0177778, 0.00456159, 0.00590613, 0.0684979, 0.00958324, 0.470979, -0.543112, 0.335967, -2.08372, -2.16579, -0.129908, 0.469978, -0.542517, 0.33662, -2.0852, -2.16801, -0.128044, -0.00130846, 0.0124898, 0.00325671, 0.0170916, -0.000734082, 0.00513969
0.0783083, 1.69226, -1.22497, -1.53752, -0.899694, -1.19313, 1.22972, -1.30263, 0.0329578, 0.00276266, 0.00174796, 0.011533, -0.0533139, 0.0272767, 0.000392104, 3.34419, 56.416, 26.6712, 4.60541, 1.58954, 3.58218, -0.0164075, 0.00070813, -0.000979131, -0.0005168, -0.000800882, -0.00280692, -0.000335502, 0.0147753, -0.0160754, 0.00326437, 0.00320604, 0.0659004, 0.00611714, 0.470978, -0.5431, 0.33597, -2.08371, -2.16579, -0.129909, 0.469993, -0.54252, 0.33662, -2.08523, -2.16804, -0.127984, -0.00134563, 0.01285, 0.00334867, 0.0153558, -0.00158094, 0.00379171
0.0793083, 1.6923, -1.22497, -1.53752, -0.899683, -1.19319, 1.22975, -1.30264, 0.0358253, 0.00360032, 0.00108522, 0.0110168, -0.0538589, 0.0253365, -0.000247224, 3.26881, 56.3406, 26.6712, 4.64111, 1.57764, 3.57577, -0.00267457, 0.000692181, -0.000964391, -0.000520185, -0.000798991, -0.00287809, -0.000340443, 0.0136874, -0.0172775, 0.00309388, 0.000135398, 0.0665749, 0.00955517, 0.470976, -0.543087, 0.335973, -2.08371, -2.16578, -0.129909, 0.470007, -0.542523, 0.336624, -2.08526, -2.16808, -0.127911, -0.00138324, 0.0132147, 0.0034417, 0.0164737, -6.66189e-05, 0.00384892
0.0803083, 1.69234, -1.22496, -1.53752, -0.899671, -1.19325, 1.22977, -1.30263, 0.0372736, 0.00323191, 0.00149863, 0.0106635, -0.0591732, 0.0281023, 0.000106452, 3.07838, 56.3049, 26.6355, 4.68079, 1.57123, 3.58218, -0.00999879, 0.000679775, -0.000943605, -0.000522095, -0.000797003, -0.00294891, -0.00034763, 0.0146063, -0.0181818, 0.003112, 7.43387e-05, 0.0721554, 0.0094001, 0.470975, -0.543074, 0.335977, -2.0837, -2.16578, -0.12991, 0.470027, -0.542522, 0.336626, -2.08528, -2.16812, -0.127838, -0.0014213, 0.013584, 0.0035358, 0.0173723, -0.000570237, 0.00379074
0.0813083, 1.69238, -1.22496, -1.53752, -0.899658, -1.19332, 1.2298, -1.30263, 0.0355488, 0.00307998, 0.00188206, 0.00945488, -0.0577846, 0.026273, 0.0010204, 3.003, 56.2653, 26.5958, 4.75616, 1.54651, 3.56845, -0.0356336, 0.000663002, -0.000927843, -0.00052535, -0.000797507, -0.003021, -0.00034886, 0.0148691, -0.0174022, 0.00288524, -0.000786673, 0.0701751, 0.00852545, 0.470973, -0.54306, 0.33598, -2.08369, -2.16578, -0.129911, 0.470042, -0.542524, 0.33663, -2.08531, -2.16816, -0.127767, -0.0014598, 0.0139578, 0.00363097, 0.0165565, -0.00045278, 0.00364461
0.0823083, 1.69241, -1.22496, -1.53752, -0.899644, -1.19337, 1.22983, -1.30263, 0.0405031, 0.00372178, -0.00122528, 0.0095714, -0.0563285, 0.0299701, 0.00142625, 2.92762, 56.1938, 26.5601, 4.79187, 1.50989, 3.54648, -0.0557752, 0.000647222, -0.000911059, -0.000529343, -0.000800335, -0.00309023, -0.000347312, 0.0137728, -0.0204654, 0.00220796, -0.000193707, 0.0719752, 0.0119312, 0.470972, -0.543046, 0.335984, -2.08369, -2.16578, -0.129913, 0.470058, -0.542526, 0.336635, -2.08534, -2.1682, -0.127701, -0.00149874, 0.0143362, 0.00372719, 0.019513, 0.00123764, 0.00314964
0.0833083, 1.69245, -1.22495, -1.53751, -0.899633, -1.19344, 1.22985, -1.30263, 0.0385766, 0.00331492, -0.000280429, 0.0087559, -0.0562019, 0.0270345, 0.000679569, 2.81654, 56.1581, 26.5244, 4.86725, 1.50348, 3.54648, -0.0484509, 0.00062995, -0.000896253, -0.000531519, -0.000792698, -0.00316355, -0.000349039, 0.0142935, -0.0192442, 0.00199775, -0.00191684, 0.0701556, 0.0120243, 0.47097, -0.543032, 0.335988, -2.08368, -2.16577, -0.129914, 0.470072, -0.542528, 0.336638, -2.08536, -2.16824, -0.127619, -0.00153811, 0.014719, 0.00382447, 0.018265, 0.00108889, 0.00299524
0.0843083, 1.69249, -1.22495, -1.53751, -0.899625, -1.19351, 1.22987, -1.30263, 0.0382398, 0.00480729, 0.00135219, 0.00343275, -0.0562499, 0.029115, 0.000961672, 2.66181, 56.0471, 26.449, 5.01404, 1.50348, 3.5538, -0.0621838, 0.000615816, -0.000877761, -0.000536171, -0.000787388, -0.00324095, -0.000357054, 0.0130032, -0.0209067, 0.0028804, -0.000983955, 0.0732537, 0.0168511, 0.470969, -0.543017, 0.335992, -2.08367, -2.16577, -0.129915, 0.47009, -0.542528, 0.336643, -2.08539, -2.16829, -0.127536, -0.00157792, 0.0151063, 0.00392278, 0.0198714, 0.00268209, 0.00411509
0.0853083, 1.69252, -1.22495, -1.5375, -0.899614, -1.19358, 1.22989, -1.30263, 0.0368293, 0.00496726, 0.00333185, 0.00439423, -0.0602798, 0.0262397, 0.000641115, 2.55073, 55.9717, 26.3379, 5.08942, 1.47876, 3.56112, -0.0621838, 0.000599443, -0.000861553, -0.000540276, -0.000784115, -0.00331372, -0.000362104, 0.0143889, -0.0192926, 0.0035965, -0.00286849, 0.075228, 0.0145669, 0.470967, -0.543002, 0.335996, -2.08367, -2.16577, -0.129916, 0.470105, -0.542529, 0.336648, -2.08541, -2.16833, -0.12746, -0.00161815, 0.015498, 0.00402212, 0.0182947, 0.00152944, 0.00475489
0.0863083, 1.69256, -1.22494, -1.5375, -0.899596, -1.19365, 1.22991, -1.30263, 0.0350463, 0.000973138, 0.00209518, 0.0100561, -0.0638874, 0.0290434, -0.000318575, 2.47535, 55.936, 26.3379, 5.08942, 1.47327, 3.56112, -0.0420422, 0.00057683, -0.000850266, -0.000543433, -0.00077494, -0.00339298, -0.000355192, 0.0189158, -0.0170162, 0.00190729, -0.000490166, 0.0753114, 0.00711118, 0.470966, -0.542986, 0.336, -2.08366, -2.16576, -0.129917, 0.470116, -0.542536, 0.336651, -2.08544, -2.16836, -0.12737, -0.00165881, 0.0158942, 0.00412249, 0.0160816, -0.0023764, 0.00255277
0.0873083, 1.6926, -1.22494, -1.5375, -0.899584, -1.19372, 1.22993, -1.30263, 0.0385667, 0.00121909, 0.00223027, 0.0115612, -0.0618936, 0.0312105, 0.00494378, 2.32459, 55.9003, 26.2983, 5.2005, 1.46686, 3.56112, -0.0557752, 0.000559965, -0.000832461, -0.0005444, -0.000764183, -0.00346841, -0.000360189, 0.0179867, -0.0193225, 0.00227782, 0.00271843, 0.0751523, 0.00477698, 0.470964, -0.542971, 0.336004, -2.08365, -2.16576, -0.129918, 0.470132, -0.542536, 0.336653, -2.08546, -2.1684, -0.127283, -0.0016999, 0.0162947, 0.00422387, 0.018324, -0.00102114, 0.00309443
0.0883083, 1.69264, -1.22494, -1.5375, -0.899568, -1.1938, 1.22994, -1.30262, 0.0380997, 0.00154209, 0.00225116, 0.0112902, -0.0653615, 0.028082, 0.00415786, 2.17384, 55.8606, 26.2626, 5.24017, 1.46686, 3.56112, -0.0685925, 0.000541225, -0.00081646, -0.000546475, -0.000751326, -0.00354611, -0.00035693, 0.0188572, -0.0181845, 0.00215125, -0.00155153, 0.0769764, 0.00421238, 0.470962, -0.542954, 0.336008, -2.08364, -2.16576, -0.129919, 0.470147, -0.542538, 0.336656, -2.08549, -2.16843, -0.127191, -0.0017414, 0.0166996, 0.00432627, 0.0171726, -0.0015027, 0.00297082
0.0893083, 1.69268, -1.22494, -1.5375, -0.899554, -1.19387, 1.22996, -1.30263, 0.0393448, 0.00171428, 0.000612375, 0.0110406, -0.0714816, 0.0260298, 0.000620975, 2.09846, 55.8249, 26.2983, 5.27588, 1.44855, 3.5538, -0.00267457, 0.000520043, -0.000803343, -0.000545193, -0.000729749, -0.00362234, -0.000363347, 0.0199753, -0.0176128, 0.00135744, -0.00784085, 0.0815167, 0.00638734, 0.470961, -0.542938, 0.336012, -2.08364, -2.16575, -0.129921, 0.470159, -0.542541, 0.336656, -2.08551, -2.16847, -0.127092, -0.00178332, 0.0171089, 0.00442966, 0.016571, -0.00209825, 0.00213381
0.0903083, 1.69272, -1.22493, -1.53749, -0.899545, -1.19396, 1.22997, -1.30263, 0.0385917, 0.00362956, 0.0021316, 0.0091442, -0.0731085, 0.019501, 0.000903104, 1.9477, 55.7138, 26.2229, 5.38696, 1.46045, 3.5538, -0.00999879, 0.000503215, -0.000785781, -0.000549673, -0.000710809, -0.00370997, -0.000368155, 0.0193167, -0.0164975, 0.0021843, -0.0134899, 0.0817798, 0.00720182, 0.470959, -0.54292, 0.336017, -2.08363, -2.16575, -0.129922, 0.470176, -0.542541, 0.336661, -2.08553, -2.16851, -0.126983, -0.00182565, 0.0175225, 0.00453405, 0.0154212, -0.00120755, 0.00319048
0.0913083, 1.69277, -1.22494, -1.53749, -0.899532, -1.19404, 1.22998, -1.30263, 0.0404661, 0.00150068, 0.00222637, 0.0127095, -0.0732583, 0.0192755, 0.000765459, 1.83265, 55.7495, 26.1872, 5.42664, 1.44855, 3.5538, -0.00999879, 0.000483063, -0.000769617, -0.000548136, -0.000692743, -0.0037862, -0.000370022, 0.0201615, -0.0167781, 0.00130664, -0.0123673, 0.0796101, 0.0061381, 0.470957, -0.542903, 0.336021, -2.08362, -2.16575, -0.129923, 0.470191, -0.542542, 0.336661, -2.08555, -2.16855, -0.126887, -0.0018684, 0.0179404, 0.00463942, 0.0156572, -0.00147682, 0.0022893
0.0923083, 1.6928, -1.22493, -1.53749, -0.899513, -1.19412, 1.23, -1.30262, 0.0398487, 0.00344325, 0.000626597, 0.0139255, -0.0741696, 0.0144471, 0.00158228, 1.79694, 55.6424, 26.2229, 5.38696, 1.44855, 3.5538, -0.0356336, 0.000458943, -0.000757474, -0.000550445, -0.000673617, -0.00387173, -0.000358779, 0.0210586, -0.0148871, 0.00161935, -0.017469, 0.0800924, 0.00256884, 0.470955, -0.542885, 0.336026, -2.08361, -2.16574, -0.129924, 0.470202, -0.542548, 0.336664, -2.08558, -2.16857, -0.12678, -0.00191155, 0.0183626, 0.00474577, 0.013769, -0.00206591, 0.00262203
0.0933083, 1.69286, -1.22492, -1.53749, -0.899494, -1.1942, 1.23001, -1.30263, 0.0410159, 0.00577483, 0.00123612, 0.0145147, -0.0746257, 0.0156548, 0.000197327, 1.57081, 55.4916, 26.1872, 5.35126, 1.45404, 3.5538, -0.00999879, 0.000443341, -0.000736896, -0.000556963, -0.000649579, -0.0039643, -0.000370779, 0.0210164, -0.0156732, 0.00329596, -0.0157217, 0.0835395, 0.00473044, 0.470953, -0.542867, 0.336031, -2.0836, -2.16574, -0.129926, 0.470222, -0.542545, 0.336672, -2.0856, -2.16863, -0.126661, -0.00195511, 0.0187891, 0.00485308, 0.0145698, -0.00182385, 0.00436736
0.0943083, 1.6929, -1.22492, -1.53749, -0.899484, -1.19429, 1.23002, -1.30263, 0.0425146, 0.00464975, 0.000811463, 0.0122659, -0.0802517, 0.0120082, -7.07857e-05, 1.57081, 55.4559, 26.1872, 5.42664, 1.45404, 3.54648, -0.00267457, 0.000419549, -0.000724344, -0.000555993, -0.000621453, -0.00405022, -0.000368587, 0.0210587, -0.0156931, 0.00173682, -0.0231918, 0.0857104, 0.00640769, 0.470951, -0.542848, 0.336035, -2.08359, -2.16574, -0.129927, 0.470233, -0.542549, 0.336672, -2.08562, -2.16866, -0.126544, -0.00199908, 0.0192197, 0.00496136, 0.0144907, -0.00119382, 0.00292875
0.0953083, 1.69295, -1.22491, -1.53748, -0.899475, -1.19438, 1.23002, -1.30263, 0.0463923, 0.00390853, 0.00229475, 0.0107521, -0.0787686, 0.00843819, -0.000232852, 1.45576, 55.4202, 26.1118, 5.50201, 1.44214, 3.56112, 0.00373412, 0.000402263, -0.000705902, -0.000557488, -0.000591156, -0.00413716, -0.000380279, 0.0184299, -0.0180252, 0.00105689, -0.0256012, 0.0823605, 0.0129808, 0.470949, -0.542829, 0.33604, -2.08358, -2.16573, -0.129929, 0.47025, -0.542546, 0.336675, -2.08563, -2.1687, -0.126425, -0.00204344, 0.0196547, 0.0050706, 0.0166568, 0.00203679, 0.00270431
0.0963083, 1.69299, -1.22491, -1.53748, -0.899462, -1.19447, 1.23003, -1.30263, 0.0460017, 0.00342102, 0.00319317, 0.0115541, -0.0782858, 0.00608565, 0.000392165, 1.38038, 55.3845, 26.0404, 5.50201, 1.45404, 3.56845, -0.00999879, 0.000382081, -0.000689707, -0.000558966, -0.000563081, -0.00422263, -0.000383454, 0.0188128, -0.0174474, 0.000974079, -0.0261504, 0.0803918, 0.0119044, 0.470947, -0.542809, 0.336045, -2.08357, -2.16573, -0.12993, 0.470265, -0.542546, 0.336678, -2.08564, -2.16874, -0.126309, -0.0020882, 0.0200938, 0.00518077, 0.0160456, 0.00208706, 0.00269049
0.0973083, 1.69304, -1.2249, -1.53748, -0.899452, -1.19456, 1.23003, -1.30262, 0.0478632, 0.00662745, 0.00128824, 0.0101717, -0.0776173, 0.00487695, 0.00147732, 1.34071, 55.1981, 26.0761, 5.57739, 1.45404, 3.56112, -0.0420422, 0.000360335, -0.000675329, -0.000562251, -0.000528663, -0.0043185, -0.000381237, 0.0178628, -0.0182928, 0.00174826, -0.0291375, 0.0829653, 0.0131578, 0.470945, -0.542789, 0.336051, -2.08357, -2.16572, -0.129932, 0.470278, -0.542547, 0.336682, -2.08567, -2.16878, -0.126174, -0.00213335, 0.0205371, 0.00529189, 0.0168389, 0.00338359, 0.00368782
0.0983083, 1.69309, -1.22489, -1.53748, -0.899441, -1.19465, 1.23004, -1.30262, 0.0466176, 0.00524233, 0.000854832, 0.0110076, -0.0778312, 0.00420528, 0.00175267, 1.26533, 55.1624, 26.0761, 5.57739, 1.47327, 3.54648, -0.0621838, 0.000340174, -0.000657697, -0.00056186, -0.000492236, -0.00440848, -0.000385869, 0.0193215, -0.0172399, 0.00086505, -0.0296411, 0.0815681, 0.0107012, 0.470943, -0.542768, 0.336056, -2.08356, -2.16572, -0.129933, 0.470294, -0.542546, 0.336683, -2.08568, -2.16881, -0.126045, -0.0021789, 0.0209845, 0.00540394, 0.015762, 0.00248397, 0.00273272
0.0993083, 1.69314, -1.22489, -1.53748, -0.899429, -1.19475, 1.23004, -1.30262, 0.04727, 0.00432172, -0.000268324, 0.0115127, -0.082489, 0.00808776, 0.000947448, 1.22962, 55.1266, 26.1118, 5.57739, 1.48517, 3.53915, -0.0557752, 0.000317523, -0.000642033, -0.000558736, -0.000451264, -0.00449676, -0.000389201, 0.0212931, -0.0175296, 0.000271154, -0.0292663, 0.0866596, 0.00966818, 0.470941, -0.542747, 0.336061, -2.08355, -2.16572, -0.129935, 0.470308, -0.542546, 0.336682, -2.08569, -2.16885, -0.125911, -0.00222483, 0.0214361, 0.00551691, 0.0160546, 0.00109273, 0.00194381
0.100308, 1.69319, -1.22489, -1.53748, -0.899418, -1.19484, 1.23004, -1.30262, 0.0492684, 0.00463809, 0.000654089, 0.010999, -0.0810275, 0.00652393, 0.00539896, 1.15424, 55.0513, 26.0761, 5.6131, 1.49158, 3.52542, -0.0557752, 0.00029768, -0.000624084, -0.000560553, -0.000415629, -0.00458912, -0.000398016, 0.0200456, -0.0188314, 0.000428586, -0.0295631, 0.0852754, 0.00860521, 0.470939, -0.542726, 0.336067, -2.08354, -2.16571, -0.129936, 0.470325, -0.542544, 0.336686, -2.0857, -2.16889, -0.12578, -0.00227115, 0.0218918, 0.0056308, 0.0172694, 0.00280916, 0.00236733
0.101308, 1.69324, -1.22488, -1.53748, -0.899403, -1.19494, 1.23004, -1.30262, 0.0492486, 0.00475778, 0.00219761, 0.0132646, -0.084301, 0.00508816, 0.00447948, 1.15424, 54.9799, 26.0007, 5.53772, 1.49707, 3.5181, -0.0685925, 0.000273428, -0.00060975, -0.000563458, -0.000382424, -0.00468375, -0.000392921, 0.0213641, -0.0179822, 0.00119815, -0.0298067, 0.0872918, 0.0072003, 0.470936, -0.542704, 0.336072, -2.08353, -2.16571, -0.129938, 0.470338, -0.542546, 0.33669, -2.08572, -2.16892, -0.125649, -0.00231785, 0.0223516, 0.00574559, 0.0164499, 0.00181398, 0.00306247
0.102308, 1.6933, -1.22488, -1.53748, -0.899396, -1.19504, 1.23004, -1.30262, 0.0487378, 0.00493155, 0.000535792, 0.0113096, -0.0831478, 0.00374281, 0.00230707, 1.03919, 54.9045, 26.0404, 5.6131, 1.50989, 3.5181, -0.0420422, 0.00025451, -0.000588744, -0.000560246, -0.00033562, -0.00477716, -0.000409265, 0.0214515, -0.0177536, 0.000308217, -0.0326413, 0.0863559, 0.0102021, 0.470934, -0.542682, 0.336078, -2.08351, -2.1657, -0.12994, 0.470357, -0.542541, 0.336689, -2.08572, -2.16897, -0.125505, -0.00236493, 0.0228154, 0.00586128, 0.0161454, 0.00231939, 0.00229251
0.103308, 1.69335, -1.22487, -1.53747, -0.899378, -1.19514, 1.23004, -1.30262, 0.0464589, 0.0058835, 0.0030475, 0.0135816, -0.0858429, 0.00330076, 0.00200347, 1.00349, 54.7934, 25.9253, 5.53772, 1.50989, 3.50345, -0.0484509, 0.000232021, -0.000571875, -0.000565264, -0.000301159, -0.00487529, -0.000415052, 0.023491, -0.0160371, 0.00211724, -0.0304827, 0.0890899, 0.00659135, 0.470932, -0.542659, 0.336084, -2.0835, -2.1657, -0.129941, 0.470373, -0.54254, 0.336696, -2.08573, -2.16901, -0.125369, -0.00241239, 0.0232833, 0.00597787, 0.0145224, 0.000424689, 0.00392997
0.104308, 1.6934, -1.22487, -1.53748, -0.899372, -1.19523, 1.23004, -1.30262, 0.0489604, 0.00392034, 0.000267721, 0.00918766, -0.0831047, 0.00239778, 0.000557264, 0.928108, 54.7934, 26.0007, 5.57739, 1.50348, 3.50345, -0.0228162, 0.000210403, -0.000552241, -0.00056014, -0.000256025, -0.00496606, -0.000427344, 0.0216949, -0.0181476, -0.000885384, -0.0349701, 0.0853316, 0.0140109, 0.470929, -0.542636, 0.33609, -2.08349, -2.16569, -0.129943, 0.47039, -0.542537, 0.336693, -2.08573, -2.16906, -0.12523, -0.00246022, 0.0237552, 0.00609534, 0.016409, 0.00321931, 0.00129765
0.105308, 1.69345, -1.22486, -1.53747, -0.899361, -1.19533, 1.23004, -1.30262, 0.0488513, 0.0042825, 0.00101317, 0.0100121, -0.0818874, 0.00252637, -0.000246187, 0.928108, 54.722, 25.965, 5.57739, 1.52179, 3.48239, -0.00267457, 0.000186631, -0.000535532, -0.000560957, -0.000217872, -0.00506107, -0.000434236, 0.0220588, -0.0182186, -0.000317743, -0.0331091, 0.0848706, 0.0147861, 0.470927, -0.542612, 0.336096, -2.08348, -2.16569, -0.129945, 0.470406, -0.542536, 0.336695, -2.08574, -2.1691, -0.125094, -0.00250842, 0.0242312, 0.00621369, 0.0164654, 0.00325149, 0.00191742
0.106308, 1.69351, -1.22485, -1.53747, -0.899349, -1.19543, 1.23004, -1.30262, 0.0498636, 0.00638036, 0.00792158, 0.00752928, -0.0849872, 0.00152394, 0.000440718, 0.888436, 54.5712, 25.9253, 5.57739, 1.52179, 3.48971, -0.0164075, 0.000164047, -0.000517632, -0.000564771, -0.000178585, -0.0051617, -0.000439783, 0.0202283, -0.0200156, 0.00283761, -0.0304386, 0.0890392, 0.0195566, 0.470924, -0.542588, 0.336102, -2.08347, -2.16568, -0.129946, 0.470422, -0.542534, 0.336701, -2.08575, -2.16914, -0.12495, -0.00255699, 0.0247111, 0.00633291, 0.0182606, 0.00512579, 0.00538194
0.107308, 1.69356, -1.22486, -1.53747, -0.899338, -1.19553, 1.23004, -1.30262, 0.0499218, 0.00332471, 0.00487927, 0.00876724, -0.0870321, 0.00191299, -0.000380011, 0.888436, 54.6109, 25.965, 5.57739, 1.5163, 3.46774, 0.00373412, 0.000138057, -0.000500474, -0.00055887, -0.000137467, -0.0052492, -0.000446741, 0.0224427, -0.0191676, 0.000129259, -0.0332982, 0.0881982, 0.0172978, 0.470922, -0.542563, 0.336109, -2.08346, -2.16568, -0.129948, 0.470437, -0.542533, 0.336697, -2.08576, -2.16918, -0.124818, -0.00260593, 0.0251949, 0.006453, 0.0173458, 0.00380652, 0.00250893
0.108308, 1.69362, -1.22485, -1.53747, -0.899331, -1.19563, 1.23004, -1.30262, 0.0523206, 0.00221584, 0.00541077, 0.00800139, -0.094283, 0.000795206, 0.000784125, 0.777352, 54.6109, 25.8896, 5.6488, 1.53461, 3.48239, -0.0228162, 0.000117627, -0.000478065, -0.000557382, -9.53183e-05, -0.00534405, -0.000461367, 0.022965, -0.0198114, -0.000699371, -0.0378996, 0.0928323, 0.017055, 0.470919, -0.542538, 0.336115, -2.08345, -2.16567, -0.12995, 0.470458, -0.542527, 0.336698, -2.08576, -2.16922, -0.124678, -0.00265523, 0.0256827, 0.00657393, 0.017928, 0.00393312, 0.0017106
0.109308, 1.69367, -1.22485, -1.53747, -0.899321, -1.19573, 1.23004, -1.30262, 0.048344, 0.00240478, 0.00390319, 0.00926167, -0.094397, 0.00139075, -0.000420002, 0.777352, 54.5712, 25.8896, 5.6488, 1.5401, 3.46042, 0.00373412, 9.07562e-05, -0.000460836, -0.000554837, -5.53225e-05, -0.00543974, -0.000468883, 0.0259951, -0.0171593, -0.000724273, -0.0374356, 0.0935221, 0.0125049, 0.470916, -0.542512, 0.336122, -2.08343, -2.16567, -0.129952, 0.470473, -0.542527, 0.336698, -2.08576, -2.16927, -0.124539, -0.00270489, 0.0261745, 0.00669572, 0.0153376, 0.00132868, 0.00141671
0.110308, 1.69372, -1.22485, -1.53747, -0.899309, -1.19582, 1.23004, -1.30262, 0.050576, 0.00243805, 0.00198892, 0.0102085, -0.094321, 0.000691011, 0.00144586, 0.701973, 54.5355, 25.9253, 5.6488, 1.5401, 3.46774, -0.0420422, 6.55041e-05, -0.000442456, -0.000551502, -1.39574e-05, -0.00552928, -0.000471041, 0.0261018, -0.0177775, -0.00147141, -0.0394663, 0.0935063, 0.0111604, 0.470914, -0.542486, 0.336128, -2.08342, -2.16566, -0.129954, 0.47049, -0.542524, 0.336697, -2.08577, -2.1693, -0.124405, -0.00275491, 0.0266701, 0.00681835, 0.0158816, 0.00185965, 0.000765884
0.111308, 1.69378, -1.22485, -1.53747, -0.899306, -1.19592, 1.23004, -1.30262, 0.0541804, 0.000789882, 0.00316289, 0.00502966, -0.0942101, 0.00153817, -0.00070868, 0.6623, 54.5712, 25.8539, 5.76385, 1.5401, 3.43936, 0.00373412, 4.21361e-05, -0.000420924, -0.00054831, 2.39419e-05, -0.0056223, -0.000492847, 0.0234543, -0.0213964, -0.00290043, -0.0407052, 0.0929378, 0.0220857, 0.470911, -0.542459, 0.336135, -2.08341, -2.16566, -0.129956, 0.470509, -0.542519, 0.336696, -2.08577, -2.16935, -0.124272, -0.00280528, 0.0271696, 0.00694181, 0.0192986, 0.00534188, -0.000220147
0.112308, 1.69383, -1.22484, -1.53746, -0.899295, -1.19602, 1.23004, -1.30262, 0.0546967, 0.00303204, 0.00223347, 0.00714516, -0.0937896, 0.00104519, 5.32976e-05, 0.586922, 54.4641, 25.8539, 5.76385, 1.52179, 3.43936, -0.00999879, 1.55857e-05, -0.00040333, -0.000550355, 6.10387e-05, -0.00572143, -0.000497096, 0.0242133, -0.0209993, -0.00172947, -0.0405304, 0.094725, 0.0196781, 0.470908, -0.542432, 0.336142, -2.0834, -2.16565, -0.129958, 0.470525, -0.542518, 0.3367, -2.08578, -2.16939, -0.124133, -0.00285601, 0.0276729, 0.00706609, 0.0189211, 0.00489915, 0.000953901
0.113308, 1.69388, -1.22484, -1.53746, -0.899285, -1.19612, 1.23004, -1.30262, 0.0526429, 0.00294923, 0.0042739, 0.00470185, -0.0941192, 0.00125414, 0.00123517, 0.475838, 54.4244, 25.7389, 5.79956, 1.52179, 3.42471, -0.0420422, -9.03855e-06, -0.000382156, -0.000550563, 9.43479e-05, -0.00581593, -0.000506686, 0.0245919, -0.0207882, -0.001309, -0.0394633, 0.0952919, 0.0195224, 0.470905, -0.542404, 0.336149, -2.08338, -2.16565, -0.12996, 0.470544, -0.542514, 0.336703, -2.08579, -2.16944, -0.124003, -0.00290708, 0.0281801, 0.00719119, 0.0186882, 0.00495922, 0.00144126
0.114308, 1.69394, -1.22483, -1.53747, -0.899274, -1.19622, 1.23004, -1.30262, 0.0540038, 0.00363648, 0.000228253, 0.00683021, -0.0934098, 0.000575937, -0.000353716, 0.400459, 54.353, 25.8539, 5.79956, 1.50348, 3.43204, -0.00999879, -3.84002e-05, -0.000366429, -0.000546296, 0.000146432, -0.00591358, -0.000512174, 0.0257122, -0.0203433, -0.00221499, -0.0423008, 0.0954379, 0.0189156, 0.470902, -0.542376, 0.336156, -2.08337, -2.16564, -0.129962, 0.470558, -0.542513, 0.336701, -2.08579, -2.16947, -0.123849, -0.0029585, 0.0286911, 0.00731711, 0.0181997, 0.00448593, 0.000511456
0.115308, 1.69398, -1.22483, -1.53746, -0.899267, -1.19632, 1.23005, -1.30262, 0.0494414, 0.00242423, 0.00289611, 0.00441304, -0.098163, 0.00120609, 0.000958209, 0.400459, 54.353, 25.7389, 5.83527, 1.49158, 3.41006, -0.0420422, -6.79404e-05, -0.000349043, -0.000546341, 0.000175067, -0.00600895, -0.000515326, 0.0281201, -0.0184295, -0.00205817, -0.0420739, 0.0985961, 0.0149677, 0.470899, -0.542347, 0.336164, -2.08336, -2.16563, -0.129964, 0.470573, -0.542513, 0.336703, -2.08581, -2.16951, -0.123722, -0.00301027, 0.0292059, 0.00744383, 0.0163287, 0.00252112, 0.000476134
0.116308, 1.69404, -1.22484, -1.53746, -0.89926, -1.19642, 1.23005, -1.30261, 0.0506234, -5.43424e-05, 0.00197025, 0.00481408, -0.100842, 0.00104767, 0.000881583, 0.21003, 54.4244, 25.7389, 5.91064, 1.45404, 3.40365, -0.0484509, -9.32625e-05, -0.000325247, -0.000538858, 0.000217564, -0.00609899, -0.000529088, 0.0291924, -0.0185907, -0.00390265, -0.044362, 0.0985678, 0.0146047, 0.470896, -0.542318, 0.336171, -2.08334, -2.16563, -0.129966, 0.470595, -0.542507, 0.336699, -2.0858, -2.16956, -0.123587, -0.00306237, 0.0297245, 0.00757134, 0.0164089, 0.00227247, -0.00138972
0.117308, 1.69404, -1.22484, -1.53746, -0.89926, -1.19642, 1.23005, -1.30261, 0.0506234, -5.43424e-05, 0.00197025, 0.00481408, -0.100842, 0.00104767, 0.000881583, 0.21003, 54.4244, 25.7389, 5.91064, 1.45404, 3.40365, -0.0484509, -0.000123886, -0.000323184, -0.000536079, 0.000208748, -0.00611046, -0.00052565, 0.02973, -0.0186255, -0.00394632, -0.0442585, 0.0988299, 0.0146498, 0.470893, -0.542288, 0.336179, -2.08333, -2.16562, -0.129968, 0.470595, -0.542507, 0.336699, -2.0858, -2.16956, -0.123587, -0.00311481, 0.0302468, 0.00769965, 0.0164089, 0.00227247, -0.00138972
0.118308, 1.69404, -1.22484, -1.53746, -0.89926, -1.19642, 1.23005, -1.30261, 0.0506234, -5.43424e-05, 0.00197025, 0.00481408, -0.100842, 0.00104767, 0.000881583, 0.21003, 54.4244, 25.7389, 5.91064, 1.45404, 3.40365, -0.0484509, -0.000155046, -0.000321087, -0.000533257, 0.000199768, -0.00612214, -0.000522154, 0.0302714, -0.0186604, -0.00399016, -0.044154, 0.099094, 0.0146951, 0.47089, -0.542258, 0.336186, -2.08331, -2.16562, -0.129971, 0.470595, -0.542507, 0.336699, -2.0858, -2.16956, -0.123587, -0.00316759, 0.0307728, 0.00782873, 0.0164089, 0.00227247, -0.00138972
0.119308, 1.69419, -1.22484, -1.53745, -0.899241, -1.19673, 1.23005, -1.30261, 0.0479744, -0.0013154, 0.00155646, 0.00446592, -0.100994, 0.00134227, -0.000188546, 0.0196001, 54.4641, 25.6675, 6.0614, 1.43024, 3.36703, -0.0356336, -0.000186742, -0.000274169, -0.000526947, 0.000340467, -0.00638613, -0.000547082, 0.0321593, -0.017275, -0.00479808, -0.0440862, 0.0983585, 0.0132712, 0.470887, -0.542227, 0.336194, -2.0833, -2.16561, -0.129973, 0.470639, -0.542504, 0.336694, -2.08582, -2.16967, -0.123168, -0.0032207, 0.0313025, 0.00795859, 0.0150106, 0.00100646, -0.00230972
0.120308, 1.69424, -1.22483, -1.53744, -0.899226, -1.19683, 1.23005, -1.30262, 0.0511416, 0.0017215, 0.0036486, 0.0108074, -0.0998378, 0.00113418, -0.000598701, -0.0914839, 54.353, 25.5564, 6.02173, 1.43024, 3.36062, -0.0228162, -0.000218734, -0.000256675, -0.000530938, 0.000372914, -0.00649239, -0.000551656, 0.0321969, -0.0180709, -0.00162077, -0.0390066, 0.0999914, 0.0126399, 0.470884, -0.542196, 0.336202, -2.08328, -2.1656, -0.129975, 0.470655, -0.542505, 0.3367, -2.08584, -2.16972, -0.123026, -0.00327414, 0.031836, 0.00808922, 0.0158692, 0.00104532, 0.000927403
0.121308, 1.69429, -1.22484, -1.53744, -0.899226, -1.19694, 1.23005, -1.30261, 0.0533385, -0.000522783, 0.000771338, 0.00553798, -0.0979634, 0.00102887, 0.000314229, -0.206535, 54.4244, 25.6278, 6.13678, 1.41192, 3.3533, -0.0420422, -0.000251801, -0.000238802, -0.000520854, 0.000424663, -0.00658932, -0.000557528, 0.030645, -0.0202476, -0.00486037, -0.0436547, 0.0971729, 0.017845, 0.470881, -0.542164, 0.33621, -2.08327, -2.1656, -0.129978, 0.47067, -0.542503, 0.336693, -2.08584, -2.16975, -0.122873, -0.00332791, 0.0323731, 0.00822061, 0.0178155, 0.00370407, -0.00196509
0.122308, 1.69434, -1.22484, -1.53744, -0.899222, -1.19704, 1.23005, -1.30262, 0.0529461, -0.000348533, 0.000521258, 0.00362499, -0.0963631, 0.000958294, -0.000738986, -0.242241, 54.4244, 25.6278, 6.17248, 1.38721, 3.34598, -0.0164075, -0.000286904, -0.000223821, -0.000517087, 0.000465333, -0.00668806, -0.00056275, 0.0305197, -0.0206117, -0.00514193, -0.0439147, 0.096451, 0.020646, 0.470877, -0.542132, 0.336219, -2.08325, -2.16559, -0.12998, 0.470683, -0.542504, 0.336691, -2.08584, -2.16979, -0.122731, -0.00338201, 0.0329138, 0.00835276, 0.0181103, 0.0044272, -0.00210308
0.123308, 1.69439, -1.22483, -1.53744, -0.899218, -1.19715, 1.23005, -1.30261, 0.0515, 0.00681411, 0.001188, 0.00122959, -0.100688, 0.000910964, 0.000457502, -0.357292, 54.3887, 25.5921, 6.24786, 1.38721, 3.33865, -0.0420422, -0.000319624, -0.000205716, -0.000515984, 0.000506715, -0.00679358, -0.000568124, 0.0310334, -0.019862, -0.000989149, -0.0455655, 0.10751, 0.0189074, 0.470874, -0.542099, 0.336227, -2.08324, -2.16558, -0.129982, 0.470699, -0.542503, 0.336693, -2.08585, -2.16984, -0.122581, -0.00343642, 0.0334582, 0.00848565, 0.0174772, 0.00379273, 0.00207231
0.124308, 1.69444, -1.22484, -1.53744, -0.899211, -1.19725, 1.23005, -1.30262, 0.0502188, 0.00246188, 0.000795954, 0.00125186, -0.0990463, 0.00115047, -0.000406533, -0.468376, 54.4998, 25.5921, 6.24786, 1.3808, 3.324, -0.0228162, -0.000354882, -0.000187468, -0.000507387, 0.00054889, -0.00688718, -0.00057598, 0.0323751, -0.0194146, -0.00364096, -0.0449933, 0.102211, 0.0189739, 0.47087, -0.542066, 0.336235, -2.08322, -2.16557, -0.129985, 0.470714, -0.542502, 0.336687, -2.08586, -2.16987, -0.122442, -0.00349116, 0.0340062, 0.00861928, 0.0169271, 0.00340742, -0.000608135
0.125308, 1.69448, -1.22484, -1.53744, -0.899204, -1.19736, 1.23005, -1.30262, 0.0483324, 0.00379269, -0.000301615, 0.00115867, -0.101694, 0.00100481, -0.0010166, -0.543754, 54.4244, 25.6278, 6.24786, 1.3689, 3.31759, -0.00267457, -0.000392514, -0.000173178, -0.000504117, 0.00059212, -0.00699041, -0.000577222, 0.0343646, -0.0178719, -0.0032111, -0.0468393, 0.105939, 0.0164097, 0.470867, -0.542032, 0.336244, -2.0832, -2.16557, -0.129987, 0.470726, -0.542504, 0.336686, -2.08587, -2.16991, -0.122292, -0.00354621, 0.0345577, 0.00875364, 0.0154185, 0.00186545, -0.000312687
0.126308, 1.69453, -1.22484, -1.53744, -0.899203, -1.19746, 1.23005, -1.30262, 0.0504345, 0.000221155, 0.000636366, 0.000180299, -0.104279, 0.00148403, -0.000406161, -0.619133, 54.5355, 25.5921, 6.28357, 1.35608, 3.29562, -0.00999879, -0.000428204, -0.000154697, -0.000496966, 0.000632476, -0.00708774, -0.000585048, 0.0344188, -0.0193348, -0.00522393, -0.0477748, 0.105109, 0.0184285, 0.470863, -0.541997, 0.336253, -2.08319, -2.16556, -0.12999, 0.470742, -0.542503, 0.336681, -2.08587, -2.16995, -0.122151, -0.00360158, 0.0351128, 0.00888872, 0.0167526, 0.00273833, -0.00221861
0.127308, 1.69458, -1.22484, -1.53744, -0.899202, -1.19757, 1.23006, -1.30262, 0.0484897, 0.000365799, -0.000409305, -0.000625516, -0.102095, 0.00153215, -0.000779172, -0.694511, 54.5355, 25.6278, 6.32324, 1.36249, 3.28097, 0.00373412, -0.000466209, -0.000139183, -0.000491441, 0.000678375, -0.00719199, -0.000589626, 0.0353975, -0.0185292, -0.00555935, -0.0475903, 0.103855, 0.0178623, 0.47086, -0.541962, 0.336262, -2.08317, -2.16555, -0.129992, 0.470755, -0.542504, 0.336679, -2.08588, -2.16999, -0.121998, -0.00365725, 0.0356715, 0.00902453, 0.0159153, 0.00234975, -0.00254245
0.128308, 1.69462, -1.22484, -1.53744, -0.899201, -1.19767, 1.23006, -1.30262, 0.0470796, 0.00207807, -0.000271618, -0.000280283, -0.100382, 0.000750363, -0.000993994, -0.76989, 54.4641, 25.6278, 6.32324, 1.36249, 3.2883, 0.0165515, -0.000503153, -0.000122943, -0.00049026, 0.000716924, -0.00729736, -0.000596254, 0.0360913, -0.0177398, -0.00449554, -0.0467099, 0.103973, 0.0170378, 0.470856, -0.541926, 0.336271, -2.08315, -2.16554, -0.129995, 0.470769, -0.542504, 0.33668, -2.08589, -2.17003, -0.121851, -0.00371324, 0.0362337, 0.00916105, 0.0151349, 0.00203051, -0.00144024
0.129308, 1.69467, -1.22484, -1.53744, -0.899201, -1.19777, 1.23006, -1.30262, 0.0452721, 0.000672993, 0.00110365, -0.000919527, -0.103303, 0.00100902, 4.95429e-05, -0.809562, 54.4998, 25.7032, 6.35895, 1.35608, 3.27456, -0.00267457, -0.000541221, -0.000107048, -0.000481615, 0.00076439, -0.00739292, -0.000599083, 0.0377408, -0.0168918, -0.00484463, -0.0466644, 0.105295, 0.014523, 0.470852, -0.54189, 0.33628, -2.08314, -2.16554, -0.129998, 0.470783, -0.542503, 0.336674, -2.08589, -2.17006, -0.121704, -0.00376953, 0.0367994, 0.00929827, 0.0142782, 0.000987191, -0.00187939
0.130308, 1.69467, -1.22484, -1.53744, -0.899201, -1.19777, 1.23006, -1.30262, 0.0452721, 0.000672993, 0.00110365, -0.000919527, -0.103303, 0.00100902, 4.95429e-05, -0.809562, 54.4998, 25.7032, 6.35895, 1.35608, 3.27456, -0.00267457, -0.000579123, -0.000104521, -0.000478263, 0.00075334, -0.00740726, -0.000594848, 0.0383263, -0.016929, -0.00489008, -0.0465475, 0.105583, 0.0145719, 0.470849, -0.541853, 0.336289, -2.08312, -2.16553, -0.13, 0.470783, -0.542503, 0.336674, -2.08589, -2.17006, -0.121704, -0.00382613, 0.0373685, 0.00943618, 0.0142782, 0.000987191, -0.00187939
0.131308, 1.69467, -1.22484, -1.53744, -0.899201, -1.19777, 1.23006, -1.30262, 0.0452721, 0.000672993, 0.00110365, -0.000919527, -0.103303, 0.00100902, 4.95429e-05, -0.809562, 54.4998, 25.7032, 6.35895, 1.35608, 3.27456, -0.00267457, -0.000617611, -0.000101957, -0.000474867, 0.000742109, -0.00742183, -0.00059055, 0.0389154, -0.0169664, -0.00493563, -0.0464297, 0.105874, 0.0146211, 0.470845, -0.541816, 0.336299, -2.0831, -2.16552, -0.130003, 0.470783, -0.542503, 0.336674, -2.08589, -2.17006, -0.121704, -0.00388303, 0.0379411, 0.00957479, 0.0142782, 0.000987191, -0.00187939
0.132308, 1.69467, -1.22484, -1.53744, -0.899201, -1.19777, 1.23006, -1.30262, 0.0452721, 0.000672993, 0.00110365, -0.000919527, -0.103303, 0.00100902, 4.95429e-05, -0.809562, 54.4998, 25.7032, 6.35895, 1.35608, 3.27456, -0.00267457, -0.000656687, -9.93568e-05, -0.000471426, 0.000730695, -0.00743664, -0.000586188, 0.0395079, -0.017004, -0.00498129, -0.0463108, 0.106166, 0.0146705, 0.470841, -0.541778, 0.336308, -2.08308, -2.16551, -0.130006, 0.470783, -0.542503, 0.336674, -2.08589, -2.17006, -0.121704, -0.00394022, 0.0385172, 0.00971408, 0.0142782, 0.000987191, -0.00187939
0.133308, 1.69467, -1.22484, -1.53744, -0.899201, -1.19777, 1.23006, -1.30262, 0.0452721, 0.000672993, 0.00110365, -0.000919527, -0.103303, 0.00100902, 4.95429e-05, -0.809562, 54.4998, 25.7032, 6.35895, 1.35608, 3.27456, -0.00267457, -0.000696356, -9.67189e-05, -0.00046794, 0.000719097, -0.00745169, -0.000581763, 0.040104, -0.0170417, -0.00502704, -0.0461909, 0.106461, 0.0147203, 0.470837, -0.541739, 0.336318, -2.08306, -2.1655, -0.130009, 0.470783, -0.542503, 0.336674, -2.08589, -2.17006, -0.121704, -0.00399771, 0.0390967, 0.00985405, 0.0142782, 0.000987191, -0.00187939
0.134308, 1.69487, -1.22485, -1.53744, -0.89921, -1.19827, 1.23006, -1.30262, 0.041892, -0.000866998, 0.00168747, -0.000889766, -0.0887143, 0.000698993, -0.00011894, -1.18645, 54.6109, 25.7786, 6.43433, 1.3808, 3.24527, -0.0164075, -0.00073976, -3.06259e-05, -0.000449742, 0.000968816, -0.00787131, -0.000624028, 0.0393212, -0.0168922, -0.00563065, -0.0386399, 0.0929796, 0.0167753, 0.470833, -0.5417, 0.336328, -2.08305, -2.1655, -0.130011, 0.470845, -0.542501, 0.336657, -2.08591, -2.17024, -0.121008, -0.0040555, 0.0396796, 0.00999469, 0.014021, 0.00243016, -0.00220893
0.135308, 1.6949, -1.22484, -1.53744, -0.899216, -1.19836, 1.23006, -1.30262, 0.0364525, 0.000371882, 0.00138842, -0.00233816, -0.0903697, 0.000703381, 0.000395447, -1.15075, 54.5712, 25.7786, 6.5097, 1.38721, 3.23886, -0.0292249, -0.000781249, -1.79168e-05, -0.000447099, 0.00100301, -0.00796568, -0.000626288, 0.0421878, -0.0139415, -0.00496158, -0.0392921, 0.0958551, 0.0114845, 0.470829, -0.541661, 0.336338, -2.08303, -2.16549, -0.130014, 0.470856, -0.542502, 0.336658, -2.08592, -2.17028, -0.120877, -0.00411357, 0.0402659, 0.010136, 0.0111437, -3.7924e-05, -0.00176431
0.136308, 1.69495, -1.22485, -1.53744, -0.899218, -1.19844, 1.23006, -1.30262, 0.036653, -0.00149892, 0.00112319, -0.00154509, -0.086298, 0.000740208, -0.000211069, -1.30151, 54.6466, 25.7786, 6.5097, 1.37439, 3.23153, -0.0164075, -0.000819254, 1.74577e-06, -0.000437121, 0.00103789, -0.00804658, -0.000641929, 0.0423735, -0.0143677, -0.00610506, -0.0372938, 0.0909272, 0.0129182, 0.470825, -0.54162, 0.336348, -2.08301, -2.16548, -0.130017, 0.470872, -0.542497, 0.336652, -2.0859, -2.17032, -0.12076, -0.00417194, 0.0408555, 0.0102779, 0.0114758, 0.000563001, -0.00279411
0.137308, 1.69499, -1.22486, -1.53744, -0.899224, -1.19853, 1.23006, -1.30262, 0.0374559, -0.00275022, 6.17569e-05, -0.00278303, -0.0838117, 0.00130729, -0.0013614, -1.33721, 54.722, 25.8143, 6.58508, 1.3808, 3.20956, 0.0165515, -0.000862292, 1.6155e-05, -0.000426862, 0.0010747, -0.00813127, -0.000651009, 0.0421678, -0.0153546, -0.00742958, -0.0372689, 0.0884349, 0.0163473, 0.470821, -0.541579, 0.336358, -2.08299, -2.16547, -0.13002, 0.470883, -0.542496, 0.336645, -2.0859, -2.17035, -0.120637, -0.00423059, 0.0414484, 0.0104206, 0.012347, 0.00160474, -0.00395817
0.138308, 1.69502, -1.22486, -1.53744, -0.899227, -1.19861, 1.23006, -1.30262, 0.034995, -0.00349469, -0.00161093, -0.00184765, -0.0857432, 0.000871537, 7.57518e-05, -1.37688, 54.7934, 25.8896, 6.58508, 1.37439, 3.20956, -0.00999879, -0.000906529, 2.91555e-05, -0.000416207, 0.00111188, -0.00821154, -0.000650036, 0.0449135, -0.0132264, -0.00827917, -0.0391221, 0.0893189, 0.0102718, 0.470816, -0.541538, 0.336369, -2.08297, -2.16546, -0.130023, 0.470893, -0.542496, 0.336637, -2.0859, -2.17037, -0.120518, -0.00428952, 0.0420447, 0.0105638, 0.0102302, -0.00046533, -0.00501742
0.139308, 1.69505, -1.22486, -1.53744, -0.89923, -1.1987, 1.23006, -1.30262, 0.0319389, -0.0031581, -0.000155382, -0.00206121, -0.0845231, 0.0008523, 0.000525226, -1.37688, 54.8291, 25.8539, 6.62079, 1.41192, 3.20224, -0.0228162, -0.000950515, 4.28683e-05, -0.000409795, 0.00114324, -0.00829776, -0.000652737, 0.0462466, -0.0119807, -0.00748301, -0.0367764, 0.0887795, 0.00814332, 0.470812, -0.541496, 0.336379, -2.08295, -2.16545, -0.130026, 0.470904, -0.542496, 0.336634, -2.0859, -2.1704, -0.120398, -0.00434873, 0.0426443, 0.0107077, 0.00900423, -0.0013558, -0.00425804
0.140308, 1.6951, -1.22487, -1.53744, -0.899232, -1.19878, 1.23007, -1.30262, 0.0358477, -0.00469867, 0.00133792, -0.00136981, -0.0875147, 0.000805565, -0.000633188, -1.48797, 54.9402, 25.9253, 6.62079, 1.43024, 3.19583, 0.00373412, -0.000992124, 6.09317e-05, -0.000397978, 0.00117792, -0.00837477, -0.000666703, 0.0457541, -0.0140039, -0.00801642, -0.0371743, 0.0899422, 0.0123495, 0.470808, -0.541453, 0.33639, -2.08293, -2.16544, -0.130029, 0.470919, -0.542492, 0.336626, -2.08589, -2.17044, -0.120286, -0.00440822, 0.0432472, 0.0108522, 0.010928, -0.00010057, -0.00462629
0.141308, 1.69513, -1.22486, -1.53744, -0.899238, -1.19885, 1.23007, -1.30262, 0.0337888, -0.000530098, 0.00119295, -0.00174518, -0.0841995, 0.000537048, -0.0011342, -1.52764, 54.8291, 25.9253, 6.65649, 1.42383, 3.19583, 0.0229602, -0.00103278, 7.6849e-05, -0.000396442, 0.00120565, -0.00846128, -0.000679486, 0.0461262, -0.0131925, -0.00563216, -0.0353718, 0.0915355, 0.0121634, 0.470803, -0.54141, 0.336401, -2.08291, -2.16543, -0.130032, 0.470932, -0.542488, 0.336629, -2.08588, -2.17048, -0.120172, -0.00446799, 0.0438533, 0.0109973, 0.0101589, -0.000263522, -0.00216126
0.142308, 1.69517, -1.22487, -1.53744, -0.899244, -1.19892, 1.23007, -1.30262, 0.0362984, -0.00294894, 0.00102106, -0.00208903, -0.0777004, 0.000629303, -0.000281411, -1.60302, 54.9402, 25.9253, 6.69617, 1.43573, 3.18851, 0.0101428, -0.0010737, 9.54501e-05, -0.000386591, 0.00123507, -0.00853568, -0.000692885, 0.0445253, -0.0154798, -0.00734598, -0.0330416, 0.0842805, 0.0162868, 0.470799, -0.541366, 0.336412, -2.08288, -2.16542, -0.130036, 0.470947, -0.542482, 0.336623, -2.08587, -2.17052, -0.120068, -0.00452802, 0.0444627, 0.0111431, 0.0122628, 0.00228582, -0.00352896
0.143308, 1.69521, -1.22487, -1.53745, -0.89925, -1.19899, 1.23007, -1.30262, 0.036952, -0.00289179, -0.00184124, -0.00620573, -0.0729403, 0.000962073, -0.00113704, -1.63873, 54.9799, 26.0404, 6.77154, 1.44855, 3.17386, 0.0357776, -0.00111745, 0.000111048, -0.000376899, 0.00126647, -0.00861167, -0.000704593, 0.043329, -0.0169015, -0.00895456, -0.0349609, 0.0815008, 0.0216726, 0.470794, -0.541322, 0.336423, -2.08286, -2.16541, -0.130039, 0.470959, -0.542479, 0.336617, -2.08586, -2.17055, -0.119961, -0.00458833, 0.0450753, 0.0112895, 0.0135202, 0.00438707, -0.00482871
0.144308, 1.69524, -1.22488, -1.53745, -0.899249, -1.19907, 1.23007, -1.30262, 0.0367293, -0.00359665, -0.00277094, -0.00577006, -0.0693759, 0.000912651, -0.000283308, -1.63873, 55.0513, 26.1118, 6.69617, 1.46686, 3.16653, 0.0229602, -0.00116466, 0.000124515, -0.000367083, 0.00129494, -0.00868615, -0.000704895, 0.0437421, -0.0169605, -0.0096824, -0.0338462, 0.0781869, 0.0210333, 0.47079, -0.541277, 0.336434, -2.08284, -2.1654, -0.130042, 0.47097, -0.542478, 0.336611, -2.08586, -2.17057, -0.119857, -0.00464891, 0.0456911, 0.0114364, 0.0135067, 0.00471045, -0.00546755
0.145308, 1.69528, -1.22488, -1.53745, -0.899253, -1.19913, 1.23007, -1.30262, 0.03473, -0.00323176, -0.00175205, -0.00429834, -0.0662868, 0.000608436, 0.00103183, -1.6784, 55.087, 26.1118, 6.69617, 1.47327, 3.16653, -0.00999879, -0.00120733, 0.000141435, -0.000361464, 0.00131669, -0.0087592, -0.000713439, 0.0448133, -0.0160121, -0.00887598, -0.0306132, 0.075924, 0.0180244, 0.470785, -0.541231, 0.336446, -2.08282, -2.16539, -0.130045, 0.470983, -0.542473, 0.33661, -2.08585, -2.1706, -0.119763, -0.00470975, 0.04631, 0.011584, 0.012567, 0.00410858, -0.00466279
0.146308, 1.69531, -1.22488, -1.53746, -0.899256, -1.1992, 1.23007, -1.30262, 0.0322226, -0.00391682, -0.00285984, -0.00544174, -0.0636945, 0.000405625, 0.000179263, -1.6784, 55.1624, 26.1872, 6.65649, 1.46686, 3.16653, 0.00373412, -0.00125354, 0.00015637, -0.000349798, 0.0013441, -0.00882632, -0.000721815, 0.0459946, -0.0149739, -0.00976546, -0.0306441, 0.0734367, 0.0178057, 0.47078, -0.541185, 0.336457, -2.0828, -2.16538, -0.130049, 0.470995, -0.54247, 0.336602, -2.08584, -2.17063, -0.119668, -0.00477085, 0.0469322, 0.0117321, 0.0114789, 0.00365995, -0.0055462
0.147308, 1.69535, -1.22489, -1.53746, -0.899262, -1.19926, 1.23007, -1.30262, 0.0304948, -0.00520898, -0.00361623, -0.00507368, -0.0619109, 0.000541685, 0.000356868, -1.6784, 55.2734, 26.2626, 6.69617, 1.46686, 3.15921, -0.00267457, -0.00129856, 0.000172367, -0.000338555, 0.00136841, -0.00889054, -0.000732363, 0.04746, -0.0140788, -0.0106882, -0.0298982, 0.0710412, 0.0159128, 0.470776, -0.541138, 0.336469, -2.08277, -2.16537, -0.130052, 0.471007, -0.542465, 0.336595, -2.08583, -2.17066, -0.119581, -0.00483222, 0.0475574, 0.0118809, 0.0105425, 0.002945, -0.00651068
0.148308, 1.69538, -1.2249, -1.53746, -0.899265, -1.19932, 1.23007, -1.30261, 0.0315619, -0.0069058, -0.00237064, -0.00284281, -0.0611418, 0.000598483, 0.00145862, -1.63873, 55.4202, 26.2626, 6.65649, 1.47876, 3.1528, -0.0356336, -0.00134533, 0.00018765, -0.000327047, 0.00138732, -0.00895024, -0.000737387, 0.0480485, -0.014565, -0.0110363, -0.0275128, 0.0688216, 0.0148519, 0.470771, -0.54109, 0.336481, -2.08275, -2.16536, -0.130056, 0.471019, -0.542461, 0.336588, -2.08582, -2.17068, -0.119503, -0.00489384, 0.0481858, 0.0120302, 0.0109748, 0.00306685, -0.00681288
0.149308, 1.69541, -1.2249, -1.53746, -0.899274, -1.19938, 1.23007, -1.30261, 0.0308074, -0.00376826, -0.00015179, -0.00526668, -0.0602785, 0.000941524, 0.00120977, -1.6784, 55.3845, 26.3379, 6.65649, 1.48517, 3.13815, -0.0420422, -0.00138856, 0.000205819, -0.000321896, 0.00140976, -0.00902495, -0.000752406, 0.0474113, -0.0152152, -0.00871877, -0.0254969, 0.0717826, 0.0178312, 0.470766, -0.541042, 0.336493, -2.08273, -2.16535, -0.130059, 0.471033, -0.542454, 0.336587, -2.08581, -2.17072, -0.119407, -0.00495572, 0.0488173, 0.01218, 0.0116247, 0.00399595, -0.00429659
0.150308, 1.69544, -1.2249, -1.53746, -0.899278, -1.19943, 1.23007, -1.30262, 0.0319343, -0.00501754, 0.0023967, -0.00632026, -0.0592308, 0.00089895, 9.44368e-05, -1.63873, 55.4916, 26.3736, 6.62079, 1.48517, 3.13083, -0.0228162, -0.001434, 0.000222397, -0.000312968, 0.00142483, -0.00908344, -0.000767215, 0.0466241, -0.0167041, -0.00881124, -0.0234618, 0.0699459, 0.0226344, 0.470761, -0.540993, 0.336505, -2.0827, -2.16534, -0.130063, 0.471046, -0.542448, 0.336583, -2.08579, -2.17075, -0.119336, -0.00501785, 0.0494519, 0.0123305, 0.0130179, 0.00548371, -0.0041615
0.151308, 1.69548, -1.2249, -1.53746, -0.899287, -1.19948, 1.23008, -1.30262, 0.0333989, -0.00427283, 0.000303041, -0.00483396, -0.0540232, 0.00114184, 0.000300317, -1.63873, 55.5313, 26.449, 6.62079, 1.49158, 3.11618, -0.0292249, -0.00147667, 0.00024295, -0.000305056, 0.00143671, -0.00914365, -0.000787408, 0.0464279, -0.0174826, -0.00901934, -0.0219784, 0.0669214, 0.0233595, 0.470756, -0.540944, 0.336517, -2.08268, -2.16533, -0.130066, 0.471063, -0.542439, 0.33658, -2.08577, -2.17079, -0.119267, -0.00508023, 0.0500896, 0.0124815, 0.0137182, 0.00637985, -0.0042104
0.152308, 1.69551, -1.22491, -1.53746, -0.899291, -1.19952, 1.23008, -1.30262, 0.0305206, -0.00451882, -0.000281832, -0.00826067, -0.0501364, 0.000998583, 0.000200212, -1.60302, 55.6027, 26.4847, 6.54541, 1.49707, 3.10977, -0.0292249, -0.00152196, 0.000259672, -0.000296975, 0.00144719, -0.00919582, -0.000801946, 0.0467144, -0.0169885, -0.00976077, -0.0218771, 0.0640114, 0.0247019, 0.470751, -0.540894, 0.33653, -2.08266, -2.16532, -0.13007, 0.471076, -0.542431, 0.336577, -2.08575, -2.17082, -0.119208, -0.00514285, 0.0507303, 0.012633, 0.0131452, 0.00683265, -0.00482147
0.153308, 1.69554, -1.22492, -1.53746, -0.899293, -1.19956, 1.23008, -1.30262, 0.0291953, -0.0064461, -0.000852388, -0.00685404, -0.0468968, 0.000665722, -0.00203666, -1.60302, 55.7495, 26.5244, 6.43433, 1.49158, 3.10977, 0.0293689, -0.00156776, 0.000277451, -0.000285129, 0.00145609, -0.00923902, -0.000823625, 0.0480132, -0.0162097, -0.0109143, -0.0203313, 0.0594726, 0.0253006, 0.470746, -0.540843, 0.336542, -2.08263, -2.16531, -0.130073, 0.47109, -0.542423, 0.33657, -2.08572, -2.17085, -0.11916, -0.00520573, 0.051374, 0.0127851, 0.0123089, 0.00634121, -0.00598813
0.154308, 1.69557, -1.22492, -1.53745, -0.899305, -1.1996, 1.23008, -1.30262, 0.0263639, -0.00689576, -0.00120584, -0.00951945, -0.0450938, 0.00152888, 0.000100286, -1.52764, 55.8606, 26.5601, 6.47003, 1.50348, 3.08047, -0.00999879, -0.00161239, 0.000296512, -0.000275574, 0.00146428, -0.0092901, -0.000840611, 0.0489983, -0.015566, -0.0114974, -0.019772, 0.0584872, 0.0232057, 0.470741, -0.540792, 0.336555, -2.08261, -2.1653, -0.130077, 0.471105, -0.542414, 0.336566, -2.0857, -2.17089, -0.119105, -0.00526884, 0.0520207, 0.0129378, 0.011617, 0.00607988, -0.00654639
0.155308, 1.69561, -1.22492, -1.53745, -0.899314, -1.19964, 1.23008, -1.30261, 0.0298061, -0.00459711, 0.000749064, -0.0103427, -0.0441412, 0.00179915, 0.00101629, -1.52764, 55.8606, 26.6355, 6.47003, 1.5282, 3.05942, -0.0356336, -0.00165444, 0.000318325, -0.000270967, 0.00147084, -0.00934769, -0.000863289, 0.0470955, -0.0181792, -0.00977442, -0.0179489, 0.0605196, 0.0276839, 0.470735, -0.54074, 0.336568, -2.08258, -2.16528, -0.130081, 0.471123, -0.542401, 0.336567, -2.08567, -2.17093, -0.119045, -0.0053322, 0.0526704, 0.0130909, 0.0141584, 0.00844942, -0.00447682
0.156308, 1.69564, -1.22493, -1.53745, -0.899323, -1.19967, 1.23008, -1.30262, 0.0321063, -0.00425091, -0.00255913, -0.0101344, -0.0432327, 0.0014707, 0.000202811, -1.52764, 56.0471, 26.7823, 6.43433, 1.54651, 3.05209, -0.0228162, -0.00170058, 0.000338232, -0.000256404, 0.00147756, -0.0093874, -0.000885784, 0.0472487, -0.01892, -0.0109106, -0.020787, 0.0605719, 0.0293546, 0.47073, -0.540687, 0.336581, -2.08255, -2.16527, -0.130085, 0.471138, -0.542391, 0.336558, -2.08564, -2.17096, -0.119003, -0.0053958, 0.0533231, 0.0132446, 0.0147983, 0.00915795, -0.00549281
0.157308, 1.69566, -1.22493, -1.53744, -0.899333, -1.1997, 1.23009, -1.30262, 0.0326091, -0.00256928, 0.00250656, -0.00996965, -0.0374626, 0.00203163, -0.000848137, -1.48797, 56.0471, 26.7466, 6.39465, 1.55932, 3.02371, 0.00373412, -0.00174383, 0.000359489, -0.000253802, 0.00147035, -0.00943736, -0.000914881, 0.0454381, -0.0208141, -0.00814276, -0.0129015, 0.057795, 0.0351524, 0.470725, -0.540634, 0.336594, -2.08253, -2.16526, -0.130089, 0.471156, -0.542379, 0.336561, -2.08561, -2.17101, -0.118968, -0.00545963, 0.0539787, 0.0133988, 0.0166631, 0.0112508, -0.00238299
0.158308, 1.69569, -1.22494, -1.53743, -0.899338, -1.19973, 1.23009, -1.30262, 0.0321789, -0.00494803, 0.00353733, -0.00504951, -0.0330859, 0.00111706, 0.000180561, -1.41259, 56.1938, 26.822, 6.28357, 1.57123, 3.03012, -0.0164075, -0.0017913, 0.000376928, -0.000243894, 0.00146987, -0.00947383, -0.000930195, 0.0468181, -0.0200615, -0.00861033, -0.0084249, 0.0511991, 0.0314484, 0.470719, -0.54058, 0.336608, -2.0825, -2.16525, -0.130092, 0.471169, -0.54237, 0.336557, -2.08559, -2.17104, -0.118937, -0.00552369, 0.0546373, 0.0135535, 0.01588, 0.0105891, -0.00288354
0.159308, 1.69571, -1.22495, -1.53743, -0.899353, -1.19975, 1.23009, -1.30262, 0.0288702, -0.00741871, 0.00445354, -0.00814382, -0.0296214, 0.000982066, -0.00086297, -1.33721, 56.3763, 26.8934, 6.32324, 1.57764, 3.02371, 0.0101428, -0.00183734, 0.00039621, -0.000232743, 0.00146564, -0.00950741, -0.000958602, 0.0474013, -0.019511, -0.0100609, -0.00716785, 0.0462905, 0.0336397, 0.470714, -0.540525, 0.336621, -2.08248, -2.16524, -0.130096, 0.471184, -0.542358, 0.336552, -2.08555, -2.17108, -0.118914, -0.00558799, 0.0552987, 0.0137087, 0.0152333, 0.0108774, -0.00423579
0.160308, 1.69574, -1.22496, -1.53742, -0.899366, -1.19977, 1.23009, -1.30262, 0.028351, -0.00826783, 0.00276492, -0.00943503, -0.0266613, 0.000417351, -0.000812673, -1.33721, 56.5231, 26.933, 6.32324, 1.57123, 3.03012, 0.0165515, -0.0018805, 0.000417462, -0.000222966, 0.00146432, -0.00953825, -0.000989493, 0.0477238, -0.0194996, -0.0114123, -0.00822054, 0.0433, 0.0344627, 0.470708, -0.54047, 0.336635, -2.08245, -2.16522, -0.1301, 0.471201, -0.542343, 0.336548, -2.08551, -2.17111, -0.118892, -0.00565251, 0.0559631, 0.0138645, 0.0151191, 0.011433, -0.00546557
0.161308, 1.69576, -1.22496, -1.53741, -0.899378, -1.19978, 1.23009, -1.30262, 0.0290889, -0.00719138, 0.00469544, -0.0125596, -0.0293469, 0.000515593, -0.000304423, -1.26183, 56.5985, 26.9687, 6.28357, 1.57123, 3.02371, 0.0101428, -0.00192561, 0.000436493, -0.000217018, 0.00145224, -0.00956801, -0.0010153, 0.0471871, -0.0206893, -0.0106016, -0.00903838, 0.0471483, 0.0374836, 0.470702, -0.540414, 0.336649, -2.08242, -2.16521, -0.130104, 0.471216, -0.54233, 0.336549, -2.08548, -2.17115, -0.118882, -0.00571726, 0.0566303, 0.0140207, 0.0162531, 0.0125541, -0.00446325
0.162308, 1.69579, -1.22497, -1.5374, -0.899394, -1.19979, 1.23009, -1.30262, 0.0276268, -0.00900034, 0.00591495, -0.0126335, -0.0215382, 0.000343729, -0.000677666, -1.22613, 56.781, 27.0084, 6.28357, 1.55932, 3.02371, 0.0229602, -0.00196858, 0.000458984, -0.000206361, 0.00144233, -0.00958958, -0.00105115, 0.0468602, -0.0210207, -0.0112465, -0.00431974, 0.0390886, 0.0397751, 0.470697, -0.540357, 0.336663, -2.08239, -2.1652, -0.130108, 0.471234, -0.542313, 0.336545, -2.08543, -2.17119, -0.118878, -0.00578224, 0.0573004, 0.0141774, 0.0164835, 0.0136612, -0.00490371
0.163308, 1.69581, -1.22497, -1.53739, -0.899404, -1.1998, 1.23009, -1.30262, 0.0254452, -0.00688114, 0.00713476, -0.013113, -0.0168478, 0.000229153, -0.000214419, -1.15075, 56.8207, 27.0441, 6.17248, 1.57764, 3.02371, 0.0165515, -0.00201423, 0.000478117, -0.000203538, 0.00142571, -0.00962054, -0.00107679, 0.0469796, -0.0206257, -0.0095857, -0.000735318, 0.0375423, 0.0397554, 0.470691, -0.5403, 0.336677, -2.08237, -2.16519, -0.130113, 0.471248, -0.5423, 0.336548, -2.0854, -2.17123, -0.118872, -0.00584743, 0.0579733, 0.0143346, 0.0160897, 0.0139429, -0.00311478
0.164308, 1.69584, -1.22498, -1.53738, -0.899425, -1.1998, 1.23009, -1.30262, 0.025761, -0.00882099, 0.00916973, -0.0172388, -0.0121152, -8.45906e-05, 0.00107776, -1.15075, 57.0032, 27.1552, 6.20819, 1.56482, 3.03012, -0.0164075, -0.0020557, 0.00050258, -0.000190067, 0.00141692, -0.00963448, -0.00111436, 0.0451011, -0.0226358, -0.010682, 0.000956999, 0.0321787, 0.0450488, 0.470685, -0.540242, 0.336692, -2.08234, -2.16517, -0.130117, 0.471268, -0.542279, 0.336542, -2.08534, -2.17127, -0.118876, -0.00591285, 0.058649, 0.0144922, 0.0179234, 0.0167267, -0.00380923
0.165308, 1.69585, -1.22498, -1.53737, -0.899442, -1.1998, 1.23009, -1.30261, 0.0209795, -0.00350512, 0.00865671, -0.018495, -0.00933275, -5.63937e-05, 0.00119322, -1.07537, 57.0389, 27.2306, 6.17248, 1.57123, 3.03012, -0.0292249, -0.0021018, 0.000520932, -0.000186988, 0.00140018, -0.00966256, -0.00113809, 0.0466005, -0.0204042, -0.00770545, 0.00256804, 0.0355592, 0.0419592, 0.470679, -0.540183, 0.336706, -2.08231, -2.16516, -0.130121, 0.471282, -0.542265, 0.336546, -2.08531, -2.1713, -0.118873, -0.00597848, 0.0593275, 0.0146504, 0.0157937, 0.0153717, -0.000879424
0.166308, 1.69586, -1.22499, -1.53735, -0.899463, -1.19981, 1.23009, -1.30261, 0.0164974, -0.00252977, 0.00689258, -0.020357, -0.00742658, 0.000471031, 0.000320764, -0.960319, 57.1896, 27.2306, 6.17248, 1.58313, 3.01639, -0.0164075, -0.00214927, 0.000539374, -0.00017889, 0.00137984, -0.00968059, -0.00116937, 0.0486974, -0.0183317, -0.00777973, 0.00239984, 0.0357309, 0.0398729, 0.470673, -0.540124, 0.336721, -2.08228, -2.16515, -0.130125, 0.471296, -0.542251, 0.336544, -2.08527, -2.17134, -0.118885, -0.00604433, 0.0600088, 0.0148089, 0.0137311, 0.0139096, -0.00105933
0.167308, 1.69588, -1.22499, -1.53734, -0.899483, -1.1998, 1.23009, -1.30261, 0.01919, -0.00372422, 0.00764675, -0.0208048, -0.00599872, 4.2753e-05, 0.000688561, -0.960319, 57.2968, 27.2663, 6.13678, 1.59595, 3.02371, -0.0292249, -0.00219363, 0.000561082, -0.000173141, 0.00136183, -0.00970159, -0.00120414, 0.0476977, -0.0202211, -0.0085089, 0.00278177, 0.033593, 0.0434789, 0.470667, -0.540064, 0.336735, -2.08225, -2.16513, -0.130129, 0.471313, -0.542233, 0.336546, -2.08522, -2.17138, -0.118892, -0.00611038, 0.0606929, 0.014968, 0.0154888, 0.0157723, -0.0015238
0.168308, 1.6959, -1.22499, -1.53732, -0.899509, -1.1998, 1.23009, -1.30261, 0.0160787, -0.0038951, 0.00421922, -0.0220308, -0.00534439, 0.000299769, -0.000253036, -0.884941, 57.3721, 27.3417, 6.13678, 1.62067, 3.01639, -0.00999879, -0.00224003, 0.000580201, -0.000168755, 0.0013446, -0.00972764, -0.00124078, 0.0500578, -0.0183155, -0.00985163, 0.000337657, 0.0336162, 0.041061, 0.470661, -0.540003, 0.33675, -2.08222, -2.16512, -0.130134, 0.471327, -0.542216, 0.336548, -2.08518, -2.17143, -0.118892, -0.00617665, 0.0613797, 0.0151275, 0.013555, 0.0142597, -0.00300147
0.169308, 1.69591, -1.225, -1.53731, -0.899532, -1.1998, 1.23009, -1.30261, 0.0163408, -0.00576719, 0.00962708, -0.0251452, -0.00317313, -7.14211e-05, 0.000306027, -0.920646, 57.5189, 27.3417, 6.09711, 1.60144, 3.02371, -0.0228162, -0.00228427, 0.000603322, -0.000161605, 0.00132422, -0.0097443, -0.00128383, 0.0483046, -0.0203603, -0.00957216, 0.00423622, 0.0300795, 0.046906, 0.470655, -0.539942, 0.336766, -2.08219, -2.1651, -0.130138, 0.471346, -0.542196, 0.336549, -2.08512, -2.17148, -0.118907, -0.00624313, 0.0620692, 0.0152874, 0.0154777, 0.0167215, -0.00235631
0.170308, 1.69593, -1.225, -1.53729, -0.899558, -1.1998, 1.23009, -1.30261, 0.0155704, -0.0044826, 0.0119885, -0.02521, 0.00254144, -0.000284973, 0.000678736, -0.920646, 57.5546, 27.417, 6.09711, 1.59595, 3.03012, -0.0356336, -0.00233077, 0.000623632, -0.000158029, 0.00130587, -0.00977074, -0.00131706, 0.0475659, -0.0209767, -0.00802715, 0.00912386, 0.0267559, 0.0489166, 0.470649, -0.53988, 0.336781, -2.08216, -2.16509, -0.130143, 0.471361, -0.542179, 0.336553, -2.08508, -2.17152, -0.118909, -0.00630981, 0.0627614, 0.0154478, 0.0160575, 0.0179293, -0.000575772
0.171308, 1.69593, -1.22501, -1.53728, -0.899585, -1.1998, 1.23009, -1.30261, 0.00918052, -0.00401462, 0.0139151, -0.0244239, 0.00190427, 0.000589912, 0.000215132, -0.809562, 57.7411, 27.4885, 6.0614, 1.59595, 3.00906, -0.0292249, -0.00238342, 0.000639332, -0.00014923, 0.00128383, -0.00978874, -0.00134548, 0.051127, -0.0176755, -0.00659052, 0.0128131, 0.0281381, 0.043145, 0.470642, -0.539817, 0.336796, -2.08213, -2.16508, -0.130147, 0.471372, -0.542166, 0.336551, -2.08504, -2.17156, -0.118922, -0.00637669, 0.0634563, 0.0156086, 0.012876, 0.01475, 0.000546865
0.172308, 1.69594, -1.22501, -1.53725, -0.899613, -1.19979, 1.23009, -1.30261, 0.0111614, -0.00489821, 0.0140383, -0.0229111, 0.00166435, 0.00922991, -9.39379e-05, -0.845268, 57.8522, 27.4885, 5.98602, 1.58954, 3.02371, -0.0228162, -0.00242898, 0.000661328, -0.00014641, 0.00125774, -0.00980909, -0.00138887, 0.0524052, -0.0200837, -0.00624097, 0.0208188, 0.032005, 0.0441813, 0.470636, -0.539753, 0.336812, -2.0821, -2.16506, -0.130152, 0.471389, -0.542146, 0.336555, -2.08498, -2.17161, -0.11894, -0.00644377, 0.0641539, 0.0157699, 0.0152732, 0.0142322, 0.000776382
0.173308, 1.69595, -1.22502, -1.53723, -0.89965, -1.19979, 1.23009, -1.30261, 0.0117581, -0.00416354, 0.0153186, -0.0245397, 0.000990321, 0.00720614, -0.000537343, -0.845268, 58.0347, 27.5638, 6.02173, 1.59595, 3.01639, -0.00999879, -0.00247616, 0.000683157, -0.000138523, 0.0012391, -0.00983058, -0.00143491, 0.0519603, -0.0205892, -0.00583826, 0.0192267, 0.03274, 0.0470673, 0.470629, -0.539689, 0.336828, -2.08207, -2.16505, -0.130156, 0.471406, -0.542126, 0.336555, -2.08493, -2.17167, -0.118948, -0.00651106, 0.0648541, 0.0159315, 0.0157099, 0.0153305, 0.00138782
0.174308, 1.69595, -1.22501, -1.53721, -0.899685, -1.19979, 1.23009, -1.30261, 0.00629992, -0.00314168, 0.017938, -0.0279989, 0.00531563, 0.00539029, 0.000116489, -0.734184, 58.0704, 27.5638, 6.02173, 1.60144, 3.01639, -0.0228162, -0.00252752, 0.000698674, -0.00013844, 0.00121128, -0.00985744, -0.00146756, 0.0523965, -0.0189367, -0.00471812, 0.0213894, 0.0296534, 0.0467958, 0.470623, -0.539624, 0.336844, -2.08204, -2.16503, -0.130161, 0.471417, -0.542112, 0.336563, -2.08489, -2.17171, -0.11896, -0.00657853, 0.0655569, 0.0160936, 0.0140498, 0.0153608, 0.00263713
0.175308, 1.69596, -1.22502, -1.53719, -0.89972, -1.19979, 1.23009, -1.30261, 0.00582991, -0.0051762, 0.0153485, -0.029615, 0.00309218, 0.00403318, 0.00400655, -0.76989, 58.2172, 27.7503, 5.98602, 1.62616, 3.01639, -0.00267457, -0.00257862, 0.000718008, -0.000130181, 0.00119691, -0.00988295, -0.00150776, 0.0538919, -0.0181644, -0.00719237, 0.0162244, 0.0294602, 0.0419618, 0.470616, -0.539559, 0.33686, -2.082, -2.16502, -0.130166, 0.471431, -0.542094, 0.336562, -2.08483, -2.17176, -0.118959, -0.0066462, 0.0662624, 0.0162561, 0.0131728, 0.0149432, 0.000145223
0.176308, 1.69596, -1.22502, -1.53717, -0.899763, -1.19979, 1.23009, -1.30261, 0.00505717, -0.0049501, 0.0204564, -0.0356942, 0.00217207, 0.00328979, 0.00211117, -0.658806, 58.2925, 27.79, 6.02173, 1.63257, 3.00906, 0.0229602, -0.00263007, 0.000734849, -0.000127435, 0.00117137, -0.00990853, -0.00154696, 0.0521726, -0.0197847, -0.00616626, 0.017033, 0.0306338, 0.0506155, 0.47061, -0.539493, 0.336876, -2.08197, -2.165, -0.13017, 0.471443, -0.542078, 0.336567, -2.08479, -2.17181, -0.11897, -0.00671407, 0.0669704, 0.016419, 0.0146993, 0.0172567, 0.00153812
0.177308, 1.69595, -1.22503, -1.53714, -0.899811, -1.19979, 1.23009, -1.30261, 0.00315488, -0.007371, 0.0194492, -0.041076, 0.00170902, 0.00244049, 0.00169963, -0.619133, 58.475, 27.9011, 6.09711, 1.63257, 3.00906, 0.0229602, -0.00268025, 0.000753977, -0.000119137, 0.00115164, -0.00992755, -0.00159526, 0.052604, -0.0196269, -0.0087133, 0.0128924, 0.0290569, 0.0533277, 0.470603, -0.539426, 0.336892, -2.08194, -2.16499, -0.130175, 0.471457, -0.542058, 0.336566, -2.08472, -2.17187, -0.118983, -0.00678212, 0.0676811, 0.0165822, 0.0143944, 0.0179313, -0.000877355
0.178308, 1.69595, -1.22503, -1.53712, -0.899848, -1.19978, 1.23009, -1.30261, 0.00263685, -0.00569355, 0.0219724, -0.0375345, 0.000419555, 0.00154121, 0.00158958, -0.619133, 58.5147, 28.0121, 5.98602, 1.65729, 3.01639, 0.0165515, -0.00273331, 0.000771061, -0.000117605, 0.00112659, -0.00995589, -0.00163207, 0.0540878, -0.0186864, -0.00643838, 0.0157848, 0.0312099, 0.0506276, 0.470596, -0.539358, 0.336909, -2.0819, -2.16497, -0.13018, 0.471469, -0.542042, 0.336572, -2.08468, -2.17192, -0.118991, -0.00685036, 0.0683942, 0.0167459, 0.0135257, 0.016788, 0.001327
0.179308, 1.69595, -1.22504, -1.53709, -0.899889, -1.19978, 1.23009, -1.30262, 0.00132288, -0.0057026, 0.0224697, -0.0351173, 0.00420056, 0.000895311, 0.00122407, -0.583427, 58.7329, 28.0478, 5.87494, 1.68201, 3.02371, 0.0165515, -0.00278783, 0.000787616, -0.00011119, 0.0010988, -0.00997351, -0.00167106, 0.0552059, -0.0178443, -0.00597374, 0.0189191, 0.027866, 0.0491465, 0.470589, -0.53929, 0.336926, -2.08187, -2.16495, -0.130185, 0.471481, -0.542026, 0.336574, -2.08463, -2.17196, -0.119013, -0.00691878, 0.06911, 0.01691, 0.0126744, 0.0162937, 0.00179892
0.180308, 1.69594, -1.22503, -1.53706, -0.899944, -1.19978, 1.23009, -1.30261, 0.000254045, -0.00346106, 0.0267868, -0.0431213, 0.0074796, 0.00124374, 0.00165139, -0.543754, 58.7329, 28.0478, 5.91064, 1.70032, 3.00906, -0.00267457, -0.00283683, 0.000807294, -0.000112517, 0.00107217, -0.010005, -0.0017212, 0.0523081, -0.0202235, -0.00420403, 0.021255, 0.0283729, 0.0578714, 0.470582, -0.53922, 0.336943, -2.08184, -2.16494, -0.13019, 0.471495, -0.542004, 0.336584, -2.08457, -2.17203, -0.11902, -0.00698738, 0.0698282, 0.0170744, 0.0149434, 0.0196963, 0.00408838
0.181308, 1.69594, -1.22504, -1.53703, -0.899992, -1.19977, 1.23009, -1.30261, -0.00220398, -0.00465033, 0.0253836, -0.0432552, 0.00508862, 0.000364873, 0.00217672, -0.43267, 58.844, 28.2343, 5.83527, 1.71863, 3.02371, -0.0292249, -0.00289218, 0.000822249, -0.000106244, 0.00105091, -0.0100254, -0.00175455, 0.0548966, -0.0182653, -0.00540682, 0.0185325, 0.029126, 0.05364, 0.470575, -0.539151, 0.33696, -2.0818, -2.16492, -0.130195, 0.471505, -0.541987, 0.336585, -2.08452, -2.17207, -0.119032, -0.00705617, 0.0705489, 0.0172392, 0.0129678, 0.0179685, 0.00271936
0.182308, 1.69593, -1.22504, -1.53699, -0.900045, -1.19977, 1.23009, -1.30261, -0.00130049, -0.00467183, 0.0281016, -0.0498796, 0.00826179, 0.000844469, 0.000808403, -0.43267, 58.9194, 28.274, 5.76385, 1.73053, 3.00906, -0.00999879, -0.00294166, 0.000844736, -0.000105352, 0.00101796, -0.0100512, -0.00181147, 0.0521231, -0.0212169, -0.00543498, 0.0196849, 0.0275768, 0.064141, 0.470568, -0.53908, 0.336977, -2.08177, -2.16491, -0.1302, 0.471522, -0.541965, 0.336593, -2.08446, -2.17214, -0.119053, -0.00712513, 0.0712721, 0.0174044, 0.0157452, 0.0215567, 0.00319739
0.183308, 1.69593, -1.22503, -1.53696, -0.90011, -1.19977, 1.23008, -1.30261, -0.00250361, 0.00105243, 0.0318417, -0.0542862, 0.00542504, 6.44593e-05, -0.000392407, -0.357292, 58.8837, 28.2343, 5.79956, 1.75525, 3.02371, 0.0165515, -0.00298883, 0.000867166, -0.000109454, 0.000990232, -0.0100881, -0.0018763, 0.0512372, -0.0216545, -0.00140124, 0.0197168, 0.0357213, 0.0688079, 0.470561, -0.539009, 0.336994, -2.08173, -2.16489, -0.130205, 0.471539, -0.54194, 0.336606, -2.08439, -2.17222, -0.119059, -0.00719427, 0.0719978, 0.0175699, 0.0162325, 0.0225481, 0.00746805
