alisrour97/Franka_experiments/Real_Robot_scripts/servo-franka/Data3/log_dyn_INIT0_0.csv
Time,q1,q2,q3,q4,q5,q6,q7,dq1,dq2,dq3,dq4,dq5,dq6,dq7,t1,t2,t3,t4,t5,t6,t7,ex1,ex2,ex3,ex4,ex5,ex6,ev1,ev2,ev3,ev4,ev5,ev6,xd,yd,zd,uxd,uyd,uzd,x,y,z,ux,uy,uz,vxd,vyd,vzd,vx,vy,vz
4.88281e-07, 1.69167, -1.2253, -1.5381, -0.900098, -1.19187, 1.2286, -1.30264, -0.000143253, 0.00383912, 0.00956213, 0.0031632, 0.00312191, 0.000588186, 0.000245015, -1.37688, 55.936, 27.0084, 6.62079, 1.73694, 2.80124, -0.172963, 0.00107627, -0.00140305, -2.64349e-05, 0.000296608, -0.000838414, -0.00029192, -0.0018846, -0.0012794, 0.00613597, 0.0121689, 0.000684198, 0.00243723, 0.471008, -0.543389, 0.335894, -2.08385, -2.16584, -0.129887, 0.469563, -0.542394, 0.336111, -2.08382, -2.16647, -0.12872, 1.77043e-06, 3.2e-05, 1.02972e-05, 0.00143361, 0.00100046, 0.00632303
0.0170474, 1.69166, -1.22528, -1.53802, -0.900073, -1.19184, 1.22862, -1.30264, 0.000865623, -0.00315081, 0.00599666, 0.00178807, 0.000680003, -0.000347488, 0.00120581, -1.45226, 57.0032, 27.3774, 6.5097, 1.76807, 2.81589, -0.186696, 0.00108968, -0.00139076, -6.96391e-05, 0.000190663, -0.000835982, -0.000310113, -0.000909779, -0.00120591, 0.000438954, 0.00571412, -0.00433687, 0.00126177, 0.471008, -0.543389, 0.335894, -2.08385, -2.16584, -0.129887, 0.469583, -0.542381, 0.336174, -2.08385, -2.16657, -0.128858, 1.77746e-06, 6.40623e-05, 1.89552e-05, 0.00118944, 0.000944, 0.000557246
0.0180474, 1.69166, -1.22528, -1.53802, -0.900073, -1.19184, 1.22862, -1.30264, 0.000865623, -0.00315081, 0.00599666, 0.00178807, 0.000680003, -0.000347488, 0.00120581, -1.45226, 57.0032, 27.3774, 6.5097, 1.76807, 2.81589, -0.186696, 0.00108967, -0.00139076, -6.96383e-05, 0.00019066, -0.000835985, -0.000310111, -0.000873523, -0.00120476, 0.000434996, 0.00571874, -0.00431033, 0.00126441, 0.471008, -0.543389, 0.335894, -2.08385, -2.16584, -0.129887, 0.469583, -0.542381, 0.336174, -2.08385, -2.16657, -0.128858, 1.77167e-06, 9.92934e-05, 2.84561e-05, 0.00118944, 0.000944, 0.000557246
0.0190474, 1.69166, -1.22528, -1.53802, -0.900073, -1.19184, 1.22862, -1.30264, 0.000865623, -0.00315081, 0.00599666, 0.00178807, 0.000680003, -0.000347488, 0.00120581, -1.45226, 57.0032, 27.3774, 6.5097, 1.76807, 2.81589, -0.186696, 0.00108965, -0.00139076, -6.9636e-05, 0.000190652, -0.000835995, -0.000310106, -0.000833878, -0.00120352, 0.00043068, 0.00572382, -0.00428133, 0.00126729, 0.471008, -0.543389, 0.335894, -2.08385, -2.16584, -0.129887, 0.469583, -0.542381, 0.336174, -2.08385, -2.16657, -0.128858, 1.75167e-06, 0.000137819, 3.88327e-05, 0.00118944, 0.000944, 0.000557246
0.0200474, 1.69166, -1.22528, -1.53802, -0.900073, -1.19184, 1.22862, -1.30264, 0.000865623, -0.00315081, 0.00599666, 0.00178807, 0.000680003, -0.000347488, 0.00120581, -1.45226, 57.0032, 27.3774, 6.5097, 1.76807, 2.81589, -0.186696, 0.00108961, -0.00139076, -6.96317e-05, 0.000190636, -0.000836014, -0.000310096, -0.000790718, -0.00120218, 0.000425995, 0.00572939, -0.00424976, 0.00127044, 0.471008, -0.543389, 0.335894, -2.08385, -2.16584, -0.129887, 0.469583, -0.542381, 0.336174, -2.08385, -2.16657, -0.128858, 1.716e-06, 0.000179762, 5.01169e-05, 0.00118944, 0.000944, 0.000557246
0.0210474, 1.69166, -1.22528, -1.53802, -0.900073, -1.19184, 1.22862, -1.30264, 0.000865623, -0.00315081, 0.00599666, 0.00178807, 0.000680003, -0.000347488, 0.00120581, -1.45226, 57.0032, 27.3774, 6.5097, 1.76807, 2.81589, -0.186696, 0.00108955, -0.00139076, -6.96246e-05, 0.00019061, -0.000836046, -0.00031008, -0.000743914, -0.00120074, 0.000420928, 0.00573545, -0.00421554, 0.00127385, 0.471008, -0.543389, 0.335894, -2.08385, -2.16584, -0.129887, 0.469583, -0.542381, 0.336174, -2.08385, -2.16657, -0.128858, 1.66317e-06, 0.000225248, 6.23407e-05, 0.00118944, 0.000944, 0.000557246
0.0220474, 1.69166, -1.22528, -1.53802, -0.900073, -1.19184, 1.22862, -1.30264, 0.000865623, -0.00315081, 0.00599666, 0.00178807, 0.000680003, -0.000347488, 0.00120581, -1.45226, 57.0032, 27.3774, 6.5097, 1.76807, 2.81589, -0.186696, 0.00108945, -0.00139076, -6.9614e-05, 0.000190572, -0.000836092, -0.000310057, -0.000693341, -0.0011992, 0.000415466, 0.00574204, -0.00417859, 0.00127754, 0.471008, -0.543389, 0.335894, -2.08385, -2.16584, -0.129887, 0.469583, -0.542381, 0.336174, -2.08385, -2.16657, -0.128858, 1.59159e-06, 0.000274397, 7.55354e-05, 0.00118944, 0.000944, 0.000557246
0.0230474, 1.69166, -1.22528, -1.53802, -0.900073, -1.19184, 1.22862, -1.30264, 0.000865623, -0.00315081, 0.00599666, 0.00178807, 0.000680003, -0.000347488, 0.00120581, -1.45226, 57.0032, 27.3774, 6.5097, 1.76807, 2.81589, -0.186696, 0.00108932, -0.00139077, -6.95992e-05, 0.000190518, -0.000836158, -0.000310024, -0.000638877, -0.00119755, 0.000409599, 0.00574916, -0.00413881, 0.00128152, 0.471008, -0.543389, 0.335894, -2.08385, -2.16584, -0.129887, 0.469583, -0.542381, 0.336174, -2.08385, -2.16657, -0.128858, 1.49965e-06, 0.00032733, 8.9732e-05, 0.00118944, 0.000944, 0.000557246
0.0240474, 1.69166, -1.22528, -1.53802, -0.900073, -1.19184, 1.22862, -1.30264, 0.000865623, -0.00315081, 0.00599666, 0.00178807, 0.000680003, -0.000347488, 0.00120581, -1.45226, 57.0032, 27.3774, 6.5097, 1.76807, 2.81589, -0.186696, 0.00108914, -0.00139077, -6.95796e-05, 0.000190447, -0.000836244, -0.00030998, -0.0005804, -0.0011958, 0.000403313, 0.00575684, -0.00409611, 0.00128579, 0.471008, -0.543389, 0.335894, -2.08385, -2.16584, -0.129887, 0.469583, -0.542381, 0.336174, -2.08385, -2.16657, -0.128858, 1.38564e-06, 0.000384166, 0.000104961, 0.00118944, 0.000944, 0.000557246
0.0250474, 1.69166, -1.22528, -1.53802, -0.900073, -1.19184, 1.22862, -1.30264, 0.000865623, -0.00315081, 0.00599666, 0.00178807, 0.000680003, -0.000347488, 0.00120581, -1.45226, 57.0032, 27.3774, 6.5097, 1.76807, 2.81589, -0.186696, 0.00108891, -0.00139078, -6.95545e-05, 0.000190355, -0.000836356, -0.000309924, -0.000517788, -0.00119394, 0.000396599, 0.0057651, -0.00405041, 0.00129037, 0.471008, -0.543389, 0.335894, -2.08385, -2.16584, -0.129887, 0.469583, -0.542381, 0.336174, -2.08385, -2.16657, -0.128858, 1.24785e-06, 0.00044502, 0.000121252, 0.00118944, 0.000944, 0.000557246
0.0260474, 1.69166, -1.22528, -1.53802, -0.900077, -1.19184, 1.22861, -1.30264, 0.00122933, -0.000329471, -0.00117455, -0.000613835, 0.000785847, 5.83962e-05, -0.0014667, -1.41259, 57.0786, 27.4885, 6.62079, 1.79828, 2.83694, -0.114369, 0.00108856, -0.00139061, -6.50672e-05, 0.000197109, -0.000833785, -0.000319847, -7.59813e-05, -0.00070763, -0.000813256, -0.00105592, -0.000390421, 0.00295921, 0.471008, -0.543388, 0.335894, -2.08385, -2.16584, -0.129887, 0.469583, -0.542381, 0.336169, -2.08384, -2.16658, -0.128855, 1.08446e-06, 0.000510009, 0.000138634, 0.000675728, 0.000739142, -0.000673925
0.0270474, 1.69166, -1.22529, -1.53802, -0.90008, -1.19184, 1.22862, -1.30264, -0.000943436, -0.00102228, -0.000916839, -0.00123309, 0.00153943, 0.000357979, 0.00170097, -1.33721, 57.1143, 27.4885, 6.65649, 1.77356, 2.82962, -0.186696, 0.00108695, -0.00139246, -6.35788e-05, 0.000195746, -0.00082961, -0.000309856, 0.00067108, 0.000177404, -0.00108157, -0.000224932, -0.00152526, -0.00141764, 0.471008, -0.543388, 0.335894, -2.08385, -2.16584, -0.129887, 0.469581, -0.542382, 0.336168, -2.08385, -2.16656, -0.128859, 8.93621e-07, 0.000579243, 0.000157137, -0.000191326, 7.59422e-05, -0.00100963
0.0280474, 1.69166, -1.22529, -1.53803, -0.900074, -1.19184, 1.22862, -1.30264, 0.00583467, -0.00418318, -0.00376101, 0.00178491, 0.00130474, 0.000274488, -0.000324085, -1.33721, 57.0032, 27.4885, 6.54541, 1.76807, 2.82962, -0.147328, 0.00108259, -0.00139503, -5.91834e-05, 0.000200114, -0.000826906, -0.000305409, -0.000436141, -0.00246463, -0.0038984, -0.00275881, -0.0043456, 0.00327105, 0.471008, -0.543388, 0.335894, -2.08384, -2.16584, -0.129887, 0.469578, -0.542385, 0.336163, -2.08385, -2.16655, -0.128857, 6.73433e-07, 0.000652833, 0.000176787, 0.0023058, 0.00178426, -0.00367917
0.0290474, 1.69167, -1.2253, -1.53804, -0.900079, -1.19185, 1.22862, -1.30264, 0.00535656, 0.00015284, -0.00818602, -0.0018719, 0.0029945, 0.00318172, -0.00143676, -1.37688, 56.8564, 27.4528, 6.54541, 1.71222, 2.86532, -0.114369, 0.00108372, -0.00139052, -4.85601e-05, 0.000213787, -0.000821983, -0.000312936, -0.000750449, -0.00287653, -0.0031572, -0.00460671, 0.000680241, 0.0054776, 0.471008, -0.543387, 0.335894, -2.08384, -2.16584, -0.129887, 0.469582, -0.542382, 0.336152, -2.08383, -2.16655, -0.128847, 4.21933e-07, 0.000730885, 0.000197611, 0.00273243, 0.00207538, -0.0028901
0.0300474, 1.69167, -1.2253, -1.53804, -0.900077, -1.19186, 1.22862, -1.30264, 0.00624527, 0.000831289, -0.00514595, 0.00109963, 0.00227588, 0.00117673, -0.00265326, -1.33721, 56.6739, 27.2663, 6.43433, 1.70581, 2.90103, -0.0685925, 0.00108107, -0.00139037, -4.64829e-05, 0.000219852, -0.000830188, -0.000310575, -0.000944573, -0.00278309, -0.00150064, -0.00268312, 0.000584019, 0.00618905, 0.471008, -0.543387, 0.335895, -2.08384, -2.16584, -0.129887, 0.469583, -0.542383, 0.33615, -2.08383, -2.16655, -0.128832, 1.37109e-07, 0.000813505, 0.000219637, 0.00269169, 0.00209085, -0.0011994
0.0310474, 1.69167, -1.22532, -1.53805, -0.900078, -1.19186, 1.22862, -1.30264, 0.00296985, -0.00165723, -0.00659552, -0.000790168, 0.00290523, -0.00106823, -0.00251483, -1.26183, 56.7453, 27.2306, 6.35895, 1.66919, 2.95871, -0.0484509, 0.00107649, -0.00139128, -3.48191e-05, 0.000230741, -0.000823173, -0.000306881, 0.000222031, -0.000816095, -0.0037727, -0.00619624, -0.00329407, 0.00403149, 0.471008, -0.543386, 0.335895, -2.08384, -2.16584, -0.129887, 0.469581, -0.542385, 0.336138, -2.08383, -2.16654, -0.128827, -1.83099e-07, 0.000900793, 0.00024289, 0.000686613, 0.00129567, -0.00354142
0.0320474, 1.69167, -1.22532, -1.53806, -0.900085, -1.19187, 1.22863, -1.30264, 0.0020737, 0.00375042, -0.00529422, -0.000926101, -0.0028866, -0.00236448, -0.00167655, -1.11108, 56.781, 27.2306, 6.35895, 1.6756, 3.00906, -0.0484509, 0.00107347, -0.00139079, -2.95252e-05, 0.000238389, -0.000830511, -0.000305551, 0.000898762, 0.000417624, -0.000231487, -0.00834424, 0.00616582, 0.00102261, 0.471008, -0.543385, 0.335895, -2.08384, -2.16584, -0.129887, 0.469582, -0.542387, 0.336133, -2.08383, -2.16654, -0.128811, -5.40806e-07, 0.000992849, 0.000267393, -0.000393844, 0.000124103, -8.80825e-05
0.0330474, 1.69167, -1.22533, -1.53807, -0.900083, -1.19188, 1.22864, -1.30264, 0.00161418, 0.0013468, -0.00596563, 0.000846346, -0.00320628, 0.00209291, 0.00108635, -0.960319, 56.9675, 27.306, 6.28357, 1.70032, 3.03012, -0.10796, 0.00106689, -0.00139154, -2.3634e-05, 0.000238975, -0.000836563, -0.00029056, 0.00262401, 0.000368742, -0.00122801, -0.00447603, 0.0061828, -0.00412466, 0.471008, -0.543384, 0.335895, -2.08384, -2.16584, -0.129887, 0.469581, -0.542392, 0.336126, -2.08385, -2.16653, -0.128803, -9.38169e-07, 0.00108977, 0.000293171, -0.000319704, -0.00132682, -0.00131552
0.0340474, 1.69168, -1.22533, -1.53807, -0.900088, -1.19189, 1.22866, -1.30263, 0.00212056, -0.00129743, -0.00531698, -0.000588408, -0.00353126, 0.00238097, 0.00096159, -0.845268, 57.0786, 27.3417, 6.32324, 1.73053, 3.01639, -0.114369, 0.00106439, -0.00138661, -2.23677e-05, 0.000231808, -0.000852438, -0.000292524, 0.00228973, -0.000410845, -0.00276221, -0.00477775, 0.00413258, -0.00198692, 0.471008, -0.543383, 0.335895, -2.08384, -2.16584, -0.129887, 0.469586, -0.542393, 0.336124, -2.08385, -2.16654, -0.128795, -1.3774e-06, 0.00119164, 0.000320246, 0.000391102, -0.000626906, -0.00277496
0.0350474, 1.69168, -1.22534, -1.53807, -0.900093, -1.19189, 1.22867, -1.30264, 0.00288518, -0.00483148, -0.0056864, -0.00139595, -0.00256024, 0.00621633, -0.00105436, -0.734184, 57.261, 27.417, 6.35895, 1.73053, 3.01639, -0.0685925, 0.00106177, -0.00138178, -1.566e-05, 0.000230501, -0.00085957, -0.000301219, 0.00244122, -0.00182723, -0.00479456, -0.00209791, 0.00191009, 0.00171, 0.471008, -0.543382, 0.335896, -2.08384, -2.16584, -0.129887, 0.469591, -0.542393, 0.336118, -2.08385, -2.16656, -0.12879, -1.86074e-06, 0.00129855, 0.00034864, 0.00173723, -0.000298786, -0.00481955
0.0360474, 1.69169, -1.22533, -1.53807, -0.900091, -1.19191, 1.22869, -1.30263, 0.00418784, -0.00132377, -0.00407482, -0.000221766, -0.00118322, 0.00774656, 9.16952e-06, -0.658806, 57.1896, 27.417, 6.32324, 1.71222, 3.05209, -0.0878186, 0.0010605, -0.00137677, -2.03447e-05, 0.00022258, -0.000881939, -0.00029787, 0.00154127, -0.00294679, -0.00194706, 0.00194777, 0.00494957, 0.00209216, 0.471008, -0.543381, 0.335896, -2.08384, -2.16584, -0.129887, 0.469596, -0.542394, 0.336122, -2.08387, -2.16657, -0.128776, -2.39049e-06, 0.00141058, 0.000378373, 0.00292542, 0.000309235, -0.0018722
0.0370474, 1.6917, -1.22533, -1.53808, -0.900094, -1.19192, 1.2287, -1.30263, 0.0019374, 0.00021559, -0.00552791, -0.00107782, -0.00607827, 0.0123039, 0.000989457, -0.583427, 57.15, 27.5281, 6.35895, 1.72504, 3.11618, -0.114369, 0.00105835, -0.00137164, -1.93776e-05, 0.000221981, -0.00090162, -0.000296594, 0.00400669, -0.00187187, -0.00116907, 0.00244688, 0.0129341, -0.00271999, 0.471008, -0.54338, 0.335896, -2.08384, -2.16584, -0.129887, 0.469601, -0.542394, 0.336121, -2.08388, -2.16658, -0.128756, -2.969e-06, 0.00152782, 0.000409465, 0.00196756, -0.0021712, -0.00142314
0.0380474, 1.6917, -1.22534, -1.53808, -0.900089, -1.19192, 1.22872, -1.30263, 0.00654575, -0.00149195, -0.00384496, 0.000973618, -0.00314044, 0.0124415, -0.000561065, -0.508049, 57.2253, 27.5281, 6.28357, 1.6875, 3.1528, -0.0814099, 0.0010547, -0.00136595, -1.72972e-05, 0.000207852, -0.000910541, -0.000299859, 0.00193818, -0.00467775, -0.00153442, 0.00554235, 0.00883626, 0.00342211, 0.471008, -0.543379, 0.335897, -2.08384, -2.16584, -0.129888, 0.469607, -0.542396, 0.336119, -2.08389, -2.16659, -0.128763, -3.59863e-06, 0.00165034, 0.000441934, 0.00468202, 0.000164459, -0.00151496
0.0390474, 1.69172, -1.22533, -1.53809, -0.900091, -1.19194, 1.22874, -1.30264, 0.0116943, 0.000864277, -0.00444631, 0.000595776, -0.00704268, 0.0121228, -0.00132348, -0.508049, 57.15, 27.6035, 6.28357, 1.68201, 3.20224, -0.0557752, 0.00105506, -0.00135719, -1.62948e-05, 0.0002099, -0.000932932, -0.000310915, 0.000310558, -0.00700051, -0.000729016, 0.00216106, 0.0145454, 0.00796884, 0.471008, -0.543377, 0.335897, -2.08384, -2.16584, -0.129888, 0.469615, -0.542394, 0.336118, -2.08388, -2.16662, -0.12874, -4.2818e-06, 0.00177822, 0.000475796, 0.00697197, 0.00187024, -0.000503217
0.0400474, 1.69173, -1.22534, -1.53809, -0.900097, -1.19195, 1.22876, -1.30263, 0.00872469, -0.0011153, -0.00305403, -0.00140603, -0.00488903, 0.0129313, 0.000304475, -0.357292, 57.2253, 27.6035, 6.35895, 1.66919, 3.22421, -0.0878186, 0.00105276, -0.00134998, -1.33193e-05, 0.000204224, -0.000951049, -0.000310559, 0.00072919, -0.00644897, -0.00146301, 0.00444462, 0.0113049, 0.00659875, 0.471008, -0.543375, 0.335898, -2.08384, -2.16584, -0.129888, 0.469623, -0.542393, 0.336115, -2.08389, -2.16663, -0.128728, -5.02096e-06, 0.00191151, 0.000511068, 0.00640888, 0.00168066, -0.00124106
0.0410474, 1.69174, -1.22534, -1.5381, -0.900092, -1.19196, 1.22878, -1.30263, 0.00678544, -0.000689718, -0.00693805, 0.000795901, -0.00845595, 0.0179318, 0.000202984, -0.206535, 57.2253, 27.6749, 6.28357, 1.66919, 3.24527, -0.0878186, 0.00104726, -0.00134457, -1.25382e-05, 0.000197845, -0.000974996, -0.000305998, 0.00438191, -0.0046891, -0.00175518, 0.00514018, 0.017225, -0.00020412, 0.471008, -0.543374, 0.335898, -2.08383, -2.16584, -0.129888, 0.469628, -0.542397, 0.336113, -2.08391, -2.16664, -0.12871, -5.81861e-06, 0.00205028, 0.000547764, 0.00477055, -0.00181369, -0.00200674
0.0420474, 1.69174, -1.22535, -1.5381, -0.900097, -1.19198, 1.2288, -1.30263, 0.00841726, -0.00561636, -0.0072599, -0.000419907, -0.0110869, 0.0209894, -0.00179746, -0.0557783, 57.4475, 27.6392, 6.32324, 1.66919, 3.28097, -0.0356336, 0.00104331, -0.00133603, -3.86808e-06, 0.000190862, -0.000987016, -0.000318381, 0.00482059, -0.00616827, -0.00476237, 0.00506943, 0.0162672, 0.00353233, 0.471008, -0.543372, 0.335899, -2.08383, -2.16584, -0.129888, 0.469637, -0.542397, 0.336105, -2.08391, -2.16666, -0.128707, -6.67726e-06, 0.00219459, 0.000585897, 0.00615407, -0.00157905, -0.00505064
0.0430474, 1.69175, -1.22535, -1.5381, -0.900098, -1.192, 1.22883, -1.30263, 0.00711106, -0.00454919, -0.00533855, -0.000296803, -0.0126168, 0.0235869, 0.000259757, 0.21003, 57.4832, 27.6392, 6.32324, 1.65729, 3.31027, -0.0750012, 0.00103573, -0.00133222, -3.03457e-06, 0.000180075, -0.00101248, -0.00030956, 0.00566139, -0.00602517, -0.0031556, 0.00866654, 0.019805, 0.000484385, 0.471008, -0.54337, 0.335899, -2.08383, -2.16584, -0.129888, 0.469641, -0.542402, 0.336103, -2.08394, -2.16667, -0.128693, -7.59945e-06, 0.00234449, 0.000625478, 0.00609831, -0.00251239, -0.00355069
0.0440474, 1.69176, -1.22536, -1.53811, -0.900097, -1.19201, 1.22885, -1.30263, 0.00900752, -0.00301009, -0.003933, 0.000717502, -0.0134984, 0.0297707, -0.000301547, 0.360787, 57.4832, 27.6392, 6.28357, 1.63898, 3.33865, -0.0621838, 0.00103058, -0.0013249, -2.21208e-06, 0.000169166, -0.0010384, -0.00031209, 0.00565623, -0.00810917, -0.00118429, 0.0151998, 0.0251105, 0.00240076, 0.471008, -0.543367, 0.3359, -2.08383, -2.16584, -0.129888, 0.469648, -0.542404, 0.336102, -2.08395, -2.16669, -0.128679, -8.58778e-06, 0.00250002, 0.000666519, 0.00824962, -0.00256992, -0.00162516
0.0450474, 1.69177, -1.22536, -1.53811, -0.900092, -1.19204, 1.22888, -1.30263, 0.0122014, -0.00458815, -0.00912842, 0.0030673, -0.00998603, 0.0303686, -0.000709657, 0.436165, 57.5943, 27.6392, 6.17248, 1.63257, 3.36062, -0.0484509, 0.00102432, -0.00131569, 2.77946e-06, 0.000162439, -0.00106487, -0.000310833, 0.00570138, -0.00899243, -0.00375922, 0.0133301, 0.021304, 0.00262245, 0.471008, -0.543365, 0.3359, -2.08383, -2.16584, -0.129889, 0.469657, -0.542407, 0.336096, -2.08397, -2.16671, -0.128659, -9.64483e-06, 0.00266124, 0.000709027, 0.00903933, -0.00202077, -0.00415884
0.0460474, 1.69178, -1.22537, -1.53812, -0.900093, -1.19206, 1.2289, -1.30263, 0.00865784, -0.00471643, -0.0118646, 0.00287297, -0.0113534, 0.0312359, -0.00189726, 0.626595, 57.6657, 27.7146, 6.13678, 1.60785, 3.37436, -0.00999879, 0.00101775, -0.00130816, 7.65942e-06, 0.000156732, -0.00109055, -0.000314115, 0.00833368, -0.00657021, -0.00458551, 0.0115246, 0.0229369, -0.00128005, 0.471008, -0.543362, 0.335901, -2.08383, -2.16584, -0.129889, 0.469665, -0.54241, 0.336091, -2.08398, -2.16673, -0.12864, -1.07732e-05, 0.00282817, 0.000753011, 0.00668341, -0.00442445, -0.00526631
0.0470474, 1.6918, -1.22538, -1.53813, -0.900091, -1.19209, 1.22894, -1.30263, 0.0142737, -0.00406273, -0.0108329, 0.00367322, -0.0132297, 0.0320503, -0.000315403, 0.737679, 57.7054, 27.6749, 6.0614, 1.60144, 3.38168, -0.0356336, 0.00101058, -0.00129849, 1.04574e-05, 0.000147958, -0.00112645, -0.000311439, 0.00643171, -0.00964427, -0.00396665, 0.0118537, 0.0256888, 0.00185415, 0.471008, -0.54336, 0.335902, -2.08382, -2.16584, -0.129889, 0.469675, -0.542413, 0.336087, -2.084, -2.16675, -0.128614, -1.19756e-05, 0.00300084, 0.000798475, 0.00970662, -0.00234355, -0.00440725
0.0480476, 1.69181, -1.22538, -1.53813, -0.900092, -1.19211, 1.22896, -1.30263, 0.0160862, -0.00437174, -0.0112667, 0.00244481, -0.01944, 0.0324814, 0.000264449, 0.813057, 57.7768, 27.6749, 6.0614, 1.60144, 3.38901, -0.0484509, 0.00100472, -0.00128858, 1.3694e-05, 0.000142752, -0.00116083, -0.000313183, 0.00683975, -0.0102401, -0.00454734, 0.00809405, 0.0310045, 0.00186714, 0.471008, -0.543357, 0.335903, -2.08382, -2.16584, -0.129889, 0.469685, -0.542415, 0.336084, -2.08402, -2.16677, -0.128585, -1.32547e-05, 0.00317929, 0.000845424, 0.010294, -0.00245415, -0.00501499
0.0490476, 1.69183, -1.22537, -1.53814, -0.900076, -1.19214, 1.22899, -1.30263, 0.0196305, -0.00031065, -0.0148802, 0.00691658, -0.0237515, 0.0281096, -0.0010105, 0.928108, 57.6657, 27.6749, 5.83527, 1.59595, 3.41006, -0.0164075, 0.000994215, -0.00128252, 7.50293e-06, 0.00012955, -0.00120984, -0.000304477, 0.00754656, -0.0092312, -0.0034118, 0.00107394, 0.0365066, -0.000516083, 0.471008, -0.543354, 0.335903, -2.08382, -2.16584, -0.129889, 0.469691, -0.542423, 0.336089, -2.08406, -2.16679, -0.128549, -1.46131e-05, 0.00336352, 0.000893861, 0.00935135, -0.00318377, -0.00392461
0.0500476, 1.69185, -1.22537, -1.53815, -0.900082, -1.19217, 1.22903, -1.30262, 0.0222933, -0.00113108, -0.0103096, 0.00284557, -0.0221165, 0.0247108, 0.000784399, 1.03919, 57.7054, 27.6392, 5.91064, 1.58313, 3.43204, -0.0557752, 0.000989777, -0.0012703, 1.05115e-05, 0.000125321, -0.00124853, -0.000305534, 0.00379896, -0.0120094, -0.00329939, 0.000487208, 0.0329537, 0.00665916, 0.471008, -0.54335, 0.335904, -2.08382, -2.16584, -0.12989, 0.469704, -0.542423, 0.336086, -2.08408, -2.16682, -0.128515, -1.60536e-05, 0.00355356, 0.000943786, 0.0119945, 0.000802417, -0.00326578
0.0510476, 1.69185, -1.22537, -1.53815, -0.900082, -1.19217, 1.22903, -1.30262, 0.0222933, -0.00113108, -0.0103096, 0.00284557, -0.0221165, 0.0247108, 0.000784399, 1.03919, 57.7054, 27.6392, 5.91064, 1.58313, 3.43204, -0.0557752, 0.000986161, -0.0012704, 1.08954e-05, 0.000123862, -0.0012503, -0.000304667, 0.00400035, -0.0120045, -0.00331993, 0.000516095, 0.0330996, 0.00667406, 0.471008, -0.543347, 0.335905, -2.08381, -2.16583, -0.12989, 0.469704, -0.542423, 0.336086, -2.08408, -2.16682, -0.128515, -1.75788e-05, 0.0037494, 0.000995199, 0.0119945, 0.000802417, -0.00326578
0.0520476, 1.69187, -1.22538, -1.53815, -0.900071, -1.1922, 1.22905, -1.30262, 0.0251926, -0.00242146, -0.0101318, 0.00532903, -0.0259785, 0.0254807, 0.000760291, 1.11457, 57.7768, 27.6035, 5.76385, 1.57764, 3.48239, -0.0621838, 0.000976967, -0.00126107, 1.50737e-05, 0.000117582, -0.00128482, -0.000302272, 0.00458622, -0.0128321, -0.00377427, 0.000198462, 0.0353656, 0.00621741, 0.471008, -0.543343, 0.335906, -2.08381, -2.16583, -0.12989, 0.469713, -0.542428, 0.336081, -2.0841, -2.16683, -0.128487, -1.91915e-05, 0.00395105, 0.0010481, 0.012824, 0.000529508, -0.00377743
0.0530476, 1.69187, -1.22538, -1.53815, -0.900071, -1.1922, 1.22905, -1.30262, 0.0251926, -0.00242146, -0.0101318, 0.00532903, -0.0259785, 0.0254807, 0.000760291, 1.11457, 57.7768, 27.6035, 5.76385, 1.57764, 3.48239, -0.0621838, 0.000972931, -0.00126118, 1.5501e-05, 0.000115953, -0.0012868, -0.000301306, 0.00479954, -0.0128269, -0.00379594, 0.000229248, 0.0355201, 0.00623321, 0.471008, -0.543339, 0.335907, -2.08381, -2.16583, -0.129891, 0.469713, -0.542428, 0.336081, -2.0841, -2.16683, -0.128487, -2.08943e-05, 0.0041585, 0.00110247, 0.012824, 0.000529508, -0.00377743
0.0540476, 1.69187, -1.22538, -1.53815, -0.900071, -1.1922, 1.22905, -1.30262, 0.0251926, -0.00242146, -0.0101318, 0.00532903, -0.0259785, 0.0254807, 0.000760291, 1.11457, 57.7768, 27.6035, 5.76385, 1.57764, 3.48239, -0.0621838, 0.000968676, -0.00126129, 1.59507e-05, 0.000114237, -0.00128888, -0.000300289, 0.00501881, -0.0128217, -0.00381817, 0.000260989, 0.0356787, 0.00624945, 0.471008, -0.543335, 0.335908, -2.08381, -2.16583, -0.129891, 0.469713, -0.542428, 0.336081, -2.0841, -2.16683, -0.128487, -2.269e-05, 0.00437173, 0.00115833, 0.012824, 0.000529508, -0.00377743
0.0550476, 1.69187, -1.22538, -1.53815, -0.900071, -1.1922, 1.22905, -1.30262, 0.0251926, -0.00242146, -0.0101318, 0.00532903, -0.0259785, 0.0254807, 0.000760291, 1.11457, 57.7768, 27.6035, 5.76385, 1.57764, 3.48239, -0.0621838, 0.000964199, -0.00126141, 1.64233e-05, 0.00011243, -0.00129108, -0.000299219, 0.005244, -0.0128163, -0.00384095, 0.000293689, 0.0358417, 0.00626614, 0.471008, -0.543331, 0.335909, -2.0838, -2.16583, -0.129891, 0.469713, -0.542428, 0.336081, -2.0841, -2.16683, -0.128487, -2.45814e-05, 0.00459073, 0.00121564, 0.012824, 0.000529508, -0.00377743
0.0560476, 1.69196, -1.22538, -1.53821, -0.900049, -1.19239, 1.22923, -1.30262, 0.0273299, -6.50854e-05, -0.00466492, 0.00731623, -0.036462, 0.0319498, 0.00105709, 1.64619, 57.7768, 27.6749, 5.57739, 1.55292, 3.53915, -0.0621838, 0.000928695, -0.00121037, 2.35111e-05, 9.49298e-05, -0.0015375, -0.00028126, 0.00649426, -0.0144873, 0.000196083, 0.00666282, 0.0496781, 0.00544567, 0.471008, -0.543326, 0.335911, -2.0838, -2.16583, -0.129892, 0.469765, -0.542455, 0.336068, -2.08425, -2.16696, -0.128255, -2.6571e-05, 0.00481547, 0.00127442, 0.0146814, -0.00103312, 2.30915e-05
0.0570476, 1.69198, -1.22538, -1.53822, -0.900054, -1.19243, 1.22927, -1.30262, 0.0276633, -0.000878069, -0.00344776, 0.0065833, -0.0368443, 0.0329846, 0.000704728, 1.75727, 57.8125, 27.6749, 5.6488, 1.55292, 3.53274, -0.0621838, 0.000917966, -0.00120044, 2.73139e-05, 9.48069e-05, -0.00159054, -0.000281185, 0.00637193, -0.0152075, 9.85318e-05, 0.00801497, 0.0498598, 0.00726076, 0.471008, -0.543321, 0.335912, -2.0838, -2.16583, -0.129892, 0.469775, -0.54246, 0.336064, -2.08427, -2.16699, -0.128202, -2.86617e-05, 0.00504591, 0.00133464, 0.0153907, -0.000637386, -1.57869e-05
0.0580476, 1.692, -1.22538, -1.53822, -0.900052, -1.19247, 1.2293, -1.30263, 0.0261177, 0.00108546, -0.00481508, 0.00485389, -0.0418746, 0.0323175, -0.000988244, 1.83265, 57.7411, 27.6392, 5.6488, 1.55292, 3.56112, -0.0228162, 0.000907418, -0.00118932, 2.41208e-05, 8.76649e-05, -0.00165467, -0.000284068, 0.00781281, -0.0137571, 0.000527294, 0.00351352, 0.0559767, 0.00658131, 0.471008, -0.543316, 0.335913, -2.08379, -2.16583, -0.129892, 0.469787, -0.542465, 0.336066, -2.0843, -2.16703, -0.128145, -3.0856e-05, 0.00528201, 0.00139628, 0.014007, -0.00194912, 0.000289257
0.0590476, 1.69202, -1.22538, -1.53823, -0.900046, -1.19252, 1.22933, -1.30262, 0.0254076, -0.000111274, -0.00599352, 0.00525513, -0.040446, 0.0352168, 0.000290607, 1.87232, 57.7768, 27.6035, 5.57739, 1.5401, 3.6188, -0.0484509, 0.000895823, -0.00118019, 2.68345e-05, 8.77555e-05, -0.00170495, -0.000276674, 0.00887396, -0.0137693, -0.00026929, 0.00590736, 0.0552476, 0.00420448, 0.471008, -0.543311, 0.335915, -2.08379, -2.16583, -0.129893, 0.469796, -0.542471, 0.336063, -2.08433, -2.16705, -0.128094, -3.31567e-05, 0.00552372, 0.00145934, 0.0140261, -0.00263185, -0.000599386
0.0600476, 1.69204, -1.22538, -1.53824, -0.900043, -1.19257, 1.22937, -1.30262, 0.0249967, 0.000761263, -0.00987685, 0.00469301, -0.0402464, 0.0346055, 0.000465005, 1.90803, 57.7411, 27.5638, 5.53772, 1.55292, 3.63986, -0.0557752, 0.000884075, -0.0011706, 2.63521e-05, 8.78494e-05, -0.00176624, -0.000268922, 0.0097681, -0.0128711, -0.00126839, 0.00198235, 0.0561251, 0.00231854, 0.471008, -0.543305, 0.335916, -2.08378, -2.16583, -0.129893, 0.469806, -0.542476, 0.336063, -2.08437, -2.16708, -0.128031, -3.55665e-05, 0.00577098, 0.0015238, 0.0131226, -0.00315023, -0.00163322
0.0610476, 1.69206, -1.22538, -1.53825, -0.900044, -1.19261, 1.2294, -1.30262, 0.0244025, 0.0013429, -0.00671703, 0.00239683, -0.0446383, 0.0342679, -0.00114806, 1.9477, 57.7054, 27.5281, 5.57739, 1.55932, 3.65451, -0.0164075, 0.000872592, -0.00116128, 2.62111e-05, 8.75376e-05, -0.00182547, -0.000270071, 0.00972992, -0.0130335, -0.000148176, 0.00149221, 0.0603015, 0.00541438, 0.471008, -0.5433, 0.335918, -2.08378, -2.16583, -0.129894, 0.469816, -0.542482, 0.336062, -2.08439, -2.16711, -0.127972, -3.8088e-05, 0.00602372, 0.00158964, 0.0133213, -0.00302558, -0.000460297
0.0620476, 1.69208, -1.22538, -1.53826, -0.90004, -1.19266, 1.22943, -1.30262, 0.0234094, 0.000895393, -0.0091933, 0.00267304, -0.0436881, 0.0346081, 0.000930049, 1.87232, 57.7054, 27.5638, 5.53772, 1.58313, 3.65451, -0.0621838, 0.000859964, -0.00115017, 2.90081e-05, 9.30296e-05, -0.00188943, -0.000261182, 0.010925, -0.0121511, -0.00119394, 0.000355234, 0.0595449, 0.00127002, 0.471008, -0.543294, 0.335919, -2.08378, -2.16583, -0.129894, 0.469827, -0.542487, 0.336059, -2.08443, -2.16713, -0.1279, -4.07237e-05, 0.00628188, 0.00165682, 0.0124424, -0.00382236, -0.00158469
0.0630476, 1.6921, -1.22538, -1.53827, -0.90004, -1.19271, 1.22947, -1.30262, 0.0220553, -0.000238193, -0.0124467, 0.00096436, -0.0468695, 0.0349289, 0.000382673, 1.9477, 57.7411, 27.5281, 5.57739, 1.58313, 3.64718, -0.0557752, 0.000844506, -0.00114313, 3.21668e-05, 9.3782e-05, -0.00194795, -0.000253794, 0.0127411, -0.0109168, -0.00317574, -0.00434896, 0.0616973, -0.0006146, 0.471008, -0.543287, 0.335921, -2.08377, -2.16582, -0.129894, 0.469835, -0.542495, 0.336055, -2.08446, -2.16716, -0.12784, -4.34763e-05, 0.00654537, 0.00172534, 0.0112003, -0.00509714, -0.00371779
0.0640476, 1.69212, -1.22538, -1.53828, -0.900038, -1.19277, 1.2295, -1.30262, 0.0240503, -0.000158724, -0.0111953, 0.00072567, -0.0449731, 0.035105, -0.000965587, 1.90803, 57.7411, 27.6035, 5.57739, 1.59595, 3.63986, -0.0228162, 0.000828116, -0.00113514, 3.64284e-05, 0.000100837, -0.00201319, -0.000247775, 0.0114337, -0.0125475, -0.00283572, -0.00259337, 0.0605101, 0.00417242, 0.471008, -0.543281, 0.335923, -2.08377, -2.16582, -0.129895, 0.469843, -0.542504, 0.33605, -2.08449, -2.16718, -0.127766, -4.63483e-05, 0.0068141, 0.00179515, 0.0127915, -0.0035232, -0.00315852
0.0650476, 1.69214, -1.22538, -1.53829, -0.900037, -1.19282, 1.22953, -1.30262, 0.0212344, -0.000105762, -0.0114574, -0.000289365, -0.0437492, 0.0351922, -0.00138971, 1.90803, 57.7411, 27.6035, 5.6131, 1.61426, 3.63254, -0.00267457, 0.000813434, -0.00112641, 3.97857e-05, 0.000109472, -0.00207807, -0.000244149, 0.0124817, -0.0112951, -0.00291004, -0.00217845, 0.0598285, 0.00301044, 0.471008, -0.543274, 0.335924, -2.08376, -2.16582, -0.129895, 0.469852, -0.542511, 0.336045, -2.08452, -2.16721, -0.12769, -4.93422e-05, 0.00708797, 0.00186624, 0.0115726, -0.00432379, -0.00328581
0.0660476, 1.69216, -1.22538, -1.5383, -0.900031, -1.19288, 1.22957, -1.30262, 0.0230308, 0.000764751, -0.00677495, 0.000688862, -0.0427713, 0.0354068, 0.00104021, 1.87232, 57.7054, 27.5281, 5.57739, 1.63257, 3.6188, -0.0557752, 0.000796351, -0.00111943, 3.76012e-05, 0.000109884, -0.00215096, -0.000226386, 0.0110278, -0.0130347, -0.0007068, 0.00286394, 0.0598715, 0.00408838, 0.471007, -0.543267, 0.335926, -2.08376, -2.16582, -0.129896, 0.46986, -0.542521, 0.336047, -2.08457, -2.16723, -0.127615, -5.24605e-05, 0.00736687, 0.00193857, 0.0133344, -0.00287754, -0.000864814
0.0670476, 1.69218, -1.22537, -1.53831, -0.900031, -1.19294, 1.2296, -1.30262, 0.0189877, 0.0022731, -0.00426356, -0.000341061, -0.0450091, 0.0309171, 0.00018485, 1.79694, 57.63, 27.4885, 5.6131, 1.60785, 3.6188, -0.0420422, 0.000782238, -0.0011103, 3.71865e-05, 0.000116737, -0.00222151, -0.000220225, 0.0121193, -0.0103311, 0.0007164, 0.000419103, 0.0610034, 0.0023044, 0.471007, -0.543259, 0.335928, -2.08375, -2.16582, -0.129897, 0.469869, -0.542527, 0.336047, -2.0846, -2.16726, -0.127535, -5.57056e-05, 0.00765073, 0.00201212, 0.0107216, -0.00400104, 0.000526072
0.0680476, 1.6922, -1.22537, -1.53832, -0.90003, -1.193, 1.22963, -1.30262, 0.0222594, 0.00327866, -0.00567759, 0.00204499, -0.0527046, 0.0323058, -0.00133483, 1.72157, 57.5546, 27.4528, 5.6488, 1.62067, 3.60415, -0.00267457, 0.000766995, -0.00110021, 3.6645e-05, 0.000124531, -0.00229988, -0.000218355, 0.0135361, -0.0107485, 0.00106315, -0.00243355, 0.0691916, 0.0017155, 0.471007, -0.543252, 0.33593, -2.08374, -2.16582, -0.129897, 0.46988, -0.542534, 0.336046, -2.08464, -2.1673, -0.127448, -5.90798e-05, 0.00793954, 0.00208689, 0.0111983, -0.00514717, 0.000710575
0.0690476, 1.69221, -1.22537, -1.53833, -0.900029, -1.19306, 1.22966, -1.30262, 0.0186812, 0.00302101, -0.00760387, 0.00071173, -0.0527752, 0.0278779, -0.000889886, 1.75727, 57.5189, 27.4528, 5.68848, 1.59595, 3.6188, -0.00267457, 0.000748362, -0.00109594, 3.79751e-05, 0.000135175, -0.00236992, -0.00020479, 0.0150139, -0.00788083, -0.000186734, -0.00805604, 0.0671566, -0.00202256, 0.471007, -0.543244, 0.335932, -2.08374, -2.16582, -0.129898, 0.469885, -0.542544, 0.336044, -2.08467, -2.16732, -0.127364, -6.25855e-05, 0.00823327, 0.00216285, 0.00833863, -0.00623729, -0.000590582
0.0700476, 1.69224, -1.22536, -1.53834, -0.900026, -1.19313, 1.22969, -1.30262, 0.0195543, 0.00461248, -0.00813175, 0.00382256, -0.0535644, 0.0290873, -0.00106798, 1.64619, 57.4078, 27.417, 5.68848, 1.58954, 3.63254, 0.0101428, 0.000733208, -0.00108662, 3.49011e-05, 0.000149265, -0.0024543, -0.000199662, 0.016095, -0.00767988, 0.00102601, -0.00630817, 0.0699958, -0.00422537, 0.471007, -0.543236, 0.335935, -2.08373, -2.16581, -0.129898, 0.469895, -0.542551, 0.336047, -2.08471, -2.16736, -0.127263, -6.6225e-05, 0.00853189, 0.00224002, 0.00821687, -0.00720096, 0.000522164
0.0710476, 1.69226, -1.22536, -1.53834, -0.900026, -1.19319, 1.22971, -1.30262, 0.0183498, 0.00214697, -0.00848901, 0.00213038, -0.0540937, 0.0258738, -0.000237265, 1.60651, 57.4475, 27.3774, 5.72418, 1.58313, 3.63986, -0.00267457, 0.000715883, -0.00107999, 3.84547e-05, 0.000163261, -0.00252205, -0.000189777, 0.0165214, -0.00671072, -0.00103359, -0.0104364, 0.0667452, -0.00504911, 0.471007, -0.543227, 0.335937, -2.08373, -2.16581, -0.129899, 0.469902, -0.542559, 0.336043, -2.08474, -2.16738, -0.127178, -7.00005e-05, 0.00883538, 0.00231837, 0.007186, -0.00704089, -0.00147019
0.0720476, 1.69228, -1.22535, -1.53836, -0.900017, -1.19326, 1.22974, -1.30261, 0.0174298, 0.00319456, -0.0114771, 0.00659351, -0.0600959, 0.0234889, 0.00153724, 1.57081, 57.3721, 27.4528, 5.6488, 1.60144, 3.64718, -0.0484509, 0.00069495, -0.00107507, 3.91327e-05, 0.000181718, -0.00260477, -0.000166578, 0.0200352, -0.00353435, -0.00104463, -0.0155127, 0.0715308, -0.0150835, 0.471007, -0.543218, 0.335939, -2.08372, -2.16581, -0.1299, 0.469907, -0.54257, 0.336041, -2.08479, -2.16739, -0.127072, -7.39143e-05, 0.00914373, 0.0023979, 0.00413524, -0.0103298, -0.00185138
0.0730476, 1.69231, -1.22535, -1.53836, -0.900019, -1.19334, 1.22976, -1.30261, 0.0178708, 0.00296493, -0.00830508, 0.00396043, -0.0597284, 0.0226145, 0.0012961, 1.49146, 57.3364, 27.306, 5.68848, 1.61426, 3.63254, -0.0557752, 0.000679461, -0.00106609, 3.84663e-05, 0.000196609, -0.00268399, -0.000162858, 0.0185759, -0.00480721, -0.000552282, -0.0146169, 0.0708387, -0.0104236, 0.471007, -0.543209, 0.335941, -2.08371, -2.16581, -0.1299, 0.469917, -0.542576, 0.336041, -2.08482, -2.16742, -0.126975, -7.79688e-05, 0.0094569, 0.0024786, 0.00536799, -0.00859964, -0.00109646
0.0740476, 1.69233, -1.22535, -1.53837, -0.900014, -1.19341, 1.22979, -1.30262, 0.0201409, 0.00114141, -0.0113428, 0.00617037, -0.0586858, 0.021706, -0.00110262, 1.45576, 57.3721, 27.3774, 5.68848, 1.60785, 3.6188, -0.00267457, 0.000660037, -0.00105883, 4.4049e-05, 0.00021751, -0.00275789, -0.000157446, 0.0190566, -0.00503107, -0.00262381, -0.0169817, 0.068027, -0.00877293, 0.471007, -0.5432, 0.335944, -2.08371, -2.16581, -0.129901, 0.469924, -0.542585, 0.336035, -2.08485, -2.16745, -0.126877, -8.21662e-05, 0.00977487, 0.00256046, 0.00552967, -0.00842795, -0.00314154
0.0750476, 1.69235, -1.22535, -1.53838, -0.900011, -1.19348, 1.22981, -1.30261, 0.0211258, 0.00159616, -0.0100214, 0.00776466, -0.0621986, 0.0213403, 0.000722979, 1.45576, 57.3364, 27.306, 5.68848, 1.59595, 3.59683, -0.0420422, 0.000641144, -0.00105204, 4.48638e-05, 0.000233003, -0.00283568, -0.000139907, 0.0197611, -0.00498257, -0.00177969, -0.0170801, 0.0712198, -0.0115446, 0.471007, -0.54319, 0.335947, -2.0837, -2.16581, -0.129902, 0.469932, -0.542593, 0.336034, -2.08489, -2.16747, -0.12678, -8.65087e-05, 0.0100976, 0.00264348, 0.00553268, -0.00893266, -0.00233309
0.0760476, 1.69238, -1.22535, -1.53838, -0.900004, -1.19356, 1.22983, -1.30261, 0.0227365, 0.00282735, -0.00675249, 0.00676909, -0.0658816, 0.0207304, 0.000990613, 1.41608, 57.261, 27.2663, 5.6488, 1.60785, 3.58218, -0.0557752, 0.000622275, -0.00104385, 4.19898e-05, 0.000249744, -0.00292615, -0.000127184, 0.0189516, -0.00612858, -0.000203892, -0.01703, 0.0753276, -0.00900652, 0.471007, -0.54318, 0.335949, -2.08369, -2.1658, -0.129903, 0.46994, -0.542602, 0.336036, -2.08493, -2.1675, -0.126669, -9.09987e-05, 0.0104251, 0.00272764, 0.00670079, -0.00800172, -0.000602007
0.0770476, 1.69241, -1.22534, -1.53839, -0.900006, -1.19364, 1.22986, -1.30261, 0.0233252, 0.00272012, -0.00830317, 0.00324796, -0.072023, 0.0245058, -0.000322936, 1.41608, 57.2253, 27.2663, 5.72418, 1.58313, 3.56845, -0.0292249, 0.000604526, -0.00103554, 4.33627e-05, 0.000273228, -0.0030105, -0.000124539, 0.0199281, -0.00696838, -0.00103134, -0.0196824, 0.0827939, -0.00679766, 0.471007, -0.543169, 0.335952, -2.08368, -2.1658, -0.129903, 0.469949, -0.542608, 0.336034, -2.08496, -2.16753, -0.126558, -9.56382e-05, 0.0107574, 0.00281294, 0.00753992, -0.00847161, -0.00151088
0.0780476, 1.69243, -1.22534, -1.5384, -0.900006, -1.19373, 1.22988, -1.30261, 0.0275912, 0.00181341, -0.00856144, 0.00161114, -0.0729785, 0.0228174, 0.000259427, 1.38038, 57.2253, 27.2306, 5.76385, 1.58313, 3.56112, -0.0420422, 0.000584287, -0.00102717, 4.65626e-05, 0.00030021, -0.00310094, -0.000114413, 0.0180467, -0.00927667, -0.00228819, -0.0232739, 0.082379, -0.00213641, 0.471007, -0.543159, 0.335955, -2.08368, -2.1658, -0.129904, 0.469958, -0.542617, 0.336031, -2.08499, -2.16756, -0.126436, -0.00010043, 0.0110943, 0.00289937, 0.00972761, -0.00598907, -0.00244316
0.0790476, 1.69247, -1.22533, -1.53841, -0.9, -1.19381, 1.2299, -1.30261, 0.028786, 0.0038074, -0.00740899, 0.00228251, -0.0777189, 0.0209762, 0.000681578, 1.305, 57.1143, 27.2663, 5.72418, 1.56482, 3.56845, -0.0557752, 0.000566949, -0.0010166, 4.5281e-05, 0.000327128, -0.00319454, -0.000107183, 0.0183815, -0.00908656, -0.000868884, -0.025712, 0.0874941, -0.00300928, 0.471006, -0.543147, 0.335958, -2.08367, -2.1658, -0.129905, 0.469969, -0.542622, 0.336032, -2.08503, -2.16759, -0.126311, -0.000105375, 0.011436, 0.00298692, 0.00959619, -0.00620429, -0.00100058
0.0800476, 1.69249, -1.22533, -1.53841, -0.899989, -1.1939, 1.22992, -1.30261, 0.0250411, 0.0043015, -0.00875441, 0.0034952, -0.0776135, 0.0199961, -0.000528959, 1.41608, 57.0389, 27.2663, 5.6488, 1.57764, 3.56845, -0.0292249, 0.00054059, -0.00101609, 4.44395e-05, 0.000355598, -0.00328855, -8.4617e-05, 0.0208726, -0.00629434, -0.00080757, -0.0264424, 0.087539, -0.00715291, 0.471006, -0.543136, 0.335961, -2.08366, -2.1658, -0.129906, 0.469971, -0.542637, 0.336031, -2.08508, -2.16761, -0.126183, -0.000110477, 0.0117823, 0.00307558, 0.00689398, -0.0084411, -0.00115405
0.0810476, 1.69253, -1.22533, -1.53842, -0.899988, -1.19399, 1.22993, -1.30261, 0.0276576, 0.00193965, -0.00787587, 0.00570309, -0.0809231, 0.0189843, -0.00157334, 1.305, 57.0786, 27.1909, 5.6488, 1.55292, 3.57577, 0.00373412, 0.000525055, -0.00100292, 4.8371e-05, 0.00038749, -0.0033745, -8.77427e-05, 0.0213167, -0.00690263, -0.00183492, -0.027589, 0.0874844, -0.00607503, 0.471006, -0.543124, 0.335964, -2.08365, -2.16579, -0.129907, 0.469984, -0.54264, 0.336028, -2.08509, -2.16764, -0.126061, -0.000115737, 0.0121332, 0.00316535, 0.00747497, -0.00834532, -0.00216621
0.0820476, 1.69256, -1.22533, -1.53842, -0.899978, -1.19409, 1.22995, -1.30261, 0.0282766, 0.00305634, -0.00523293, 0.00585872, -0.0843915, 0.0188067, 0.00115515, 1.38038, 57.0032, 27.1552, 5.57739, 1.55292, 3.56845, -0.0557752, 0.000501839, -0.000997194, 4.64323e-05, 0.000412014, -0.00347071, -6.69905e-05, 0.0214621, -0.00723004, -0.000299126, -0.0269093, 0.0914464, -0.0082103, 0.471006, -0.543112, 0.335967, -2.08364, -2.16579, -0.129908, 0.469991, -0.54265, 0.336029, -2.08514, -2.16766, -0.125935, -0.000121158, 0.0124888, 0.00325621, 0.0078574, -0.00835641, -0.00059155
0.0830476, 1.69259, -1.22533, -1.53843, -0.899974, -1.19419, 1.22996, -1.3026, 0.0296549, 0.00203756, -0.00900825, 0.00649003, -0.0877062, 0.0181105, 0.000770102, 1.41608, 57.0032, 27.2306, 5.6131, 1.57764, 3.57577, -0.0557752, 0.000478871, -0.00099051, 5.09763e-05, 0.000452496, -0.00356794, -5.20788e-05, 0.022876, -0.00671027, -0.0023121, -0.0322955, 0.0933032, -0.00989618, 0.471006, -0.5431, 0.33597, -2.08363, -2.16579, -0.129909, 0.469998, -0.54266, 0.336024, -2.08517, -2.16769, -0.125791, -0.000126741, 0.012849, 0.00334816, 0.00731051, -0.00910314, -0.00269128
0.0840476, 1.69263, -1.22532, -1.53843, -0.89997, -1.19429, 1.22998, -1.30261, 0.0326731, 0.00135837, -0.00579929, 0.00480476, -0.0941648, 0.0181296, -0.000944661, 1.38038, 57.0032, 27.1909, 5.6131, 1.57764, 3.56845, -0.0164075, 0.00046031, -0.000978408, 5.21062e-05, 0.000486517, -0.00366713, -5.32905e-05, 0.0220837, -0.00862779, -0.00199453, -0.0337408, 0.0982273, -0.00430322, 0.471006, -0.543087, 0.335973, -2.08362, -2.16579, -0.129909, 0.47001, -0.542664, 0.336023, -2.0852, -2.16773, -0.125653, -0.00013249, 0.0132137, 0.00344119, 0.00920296, -0.00792647, -0.00221977
0.0850476, 1.69266, -1.22533, -1.53844, -0.899959, -1.19439, 1.22999, -1.30261, 0.0321526, 7.03642e-05, -0.0061708, 0.00532496, -0.0950146, 0.0177092, -0.000867133, 1.45576, 57.0389, 27.2663, 5.53772, 1.60144, 3.57577, -0.00999879, 0.000434175, -0.000972654, 5.81178e-05, 0.000527096, -0.00376437, -3.54041e-05, 0.0231736, -0.00799852, -0.00285321, -0.0345453, 0.0976684, -0.00576154, 0.471006, -0.543074, 0.335977, -2.08361, -2.16578, -0.12991, 0.470017, -0.542676, 0.336016, -2.08523, -2.16774, -0.125509, -0.000138406, 0.013583, 0.0035353, 0.00857658, -0.00852655, -0.003124
0.0860476, 1.6927, -1.22532, -1.53845, -0.899958, -1.1945, 1.23001, -1.3026, 0.0309593, 0.00171735, -0.00368467, 0.00289086, -0.098942, 0.0176919, 0.000846065, 1.57081, 56.9675, 27.2306, 5.57739, 1.60144, 3.57577, -0.0484509, 0.000412048, -0.000964505, 5.81729e-05, 0.000564467, -0.00386991, -2.26534e-05, 0.0234648, -0.00782866, -0.00131176, -0.0349799, 0.102811, -0.00664089, 0.471006, -0.54306, 0.33598, -2.0836, -2.16578, -0.129911, 0.470026, -0.542684, 0.336016, -2.08527, -2.16777, -0.12536, -0.00014449, 0.0139569, 0.00363046, 0.0084672, -0.0086846, -0.00154711
0.0870476, 1.69274, -1.22532, -1.53845, -0.89995, -1.1946, 1.23002, -1.30261, 0.0332386, 0.00290813, -0.00183294, 0.00615892, -0.102865, 0.0178098, -0.000622751, 1.57081, 56.8921, 27.1909, 5.53772, 1.61426, 3.56845, -0.0164075, 0.000391837, -0.000952611, 5.66012e-05, 0.000596565, -0.00397495, -2.11801e-05, 0.0240969, -0.00825442, 0.000358176, -0.0337186, 0.107208, -0.00619665, 0.471006, -0.543046, 0.335984, -2.08359, -2.16578, -0.129913, 0.470038, -0.54269, 0.336018, -2.0853, -2.16782, -0.125218, -0.000150747, 0.0143352, 0.00372669, 0.00896939, -0.00917004, 8.66963e-05
0.0880476, 1.69278, -1.22533, -1.53845, -0.899944, -1.19471, 1.23003, -1.3026, 0.0345955, -0.000659699, -0.00145035, 0.00772465, -0.105191, 0.0171224, 0.000534268, 1.57081, 57.0032, 27.1909, 5.53772, 1.61426, 3.58218, -0.0420422, 0.000369981, -0.000941818, 6.4337e-05, 0.000639463, -0.0040682, -1.30023e-05, 0.0250008, -0.00840434, -0.0015506, -0.0347615, 0.105381, -0.0078871, 0.471005, -0.543032, 0.335988, -2.08358, -2.16578, -0.129914, 0.470049, -0.542695, 0.33601, -2.08532, -2.16784, -0.125076, -0.000157176, 0.014718, 0.00382396, 0.00907595, -0.00937928, -0.00184595
0.0890476, 1.69282, -1.22533, -1.53846, -0.899935, -1.19482, 1.23005, -1.3026, 0.0328681, 0.00591364, -0.00206621, 0.00655972, -0.112225, 0.0174973, 0.000593538, 1.68189, 57.0032, 27.2306, 5.50201, 1.62616, 3.57577, -0.0484509, 0.000343535, -0.000934986, 6.73521e-05, 0.000679247, -0.00417392, 3.50235e-06, 0.0267523, -0.0067372, 0.00203001, -0.0379123, 0.118255, -0.0113687, 0.471005, -0.543017, 0.335992, -2.08357, -2.16577, -0.129915, 0.470057, -0.542706, 0.336007, -2.08536, -2.16787, -0.124924, -0.000163782, 0.0151053, 0.00392227, 0.00759705, -0.0113411, 0.0015659
0.0900476, 1.69287, -1.22532, -1.53845, -0.899928, -1.19493, 1.23005, -1.30261, 0.0391716, 0.00707033, 0.000257297, 0.00796718, -0.112876, 0.0131237, -0.00129973, 1.60651, 56.8921, 27.1552, 5.50201, 1.63898, 3.57577, -0.00267457, 0.0003265, -0.000919838, 6.45552e-05, 0.000720325, -0.00428523, -4.94879e-06, 0.0238486, -0.00946822, 0.00297616, -0.0401202, 0.117984, -0.0035822, 0.471005, -0.543002, 0.335996, -2.08356, -2.16577, -0.129916, 0.470072, -0.542707, 0.33601, -2.08538, -2.16792, -0.124768, -0.000170564, 0.0154971, 0.00402162, 0.0102481, -0.00811654, 0.00296775
0.0910476, 1.69291, -1.22532, -1.53847, -0.899917, -1.19505, 1.23007, -1.3026, 0.0410652, 0.00511065, -0.00649116, 0.00682634, -0.11276, 0.00984322, 0.000116858, 1.64619, 56.8921, 27.306, 5.46234, 1.63257, 3.57577, -0.0292249, 0.000299226, -0.000912067, 6.97323e-05, 0.000768445, -0.00439505, 1.77385e-05, 0.0243086, -0.00904207, -0.00114872, -0.0497433, 0.11521, -0.00527409, 0.471005, -0.542986, 0.336, -2.08355, -2.16577, -0.129917, 0.470081, -0.542718, 0.336005, -2.08542, -2.16793, -0.124602, -0.000177527, 0.0158932, 0.00412199, 0.00968248, -0.00755628, -0.00106357
0.0920476, 1.69295, -1.22532, -1.53847, -0.899913, -1.19516, 1.23007, -1.3026, 0.0418071, 0.00277689, -0.003725, 0.00322781, -0.113305, 0.0111301, 0.00106125, 1.72157, 56.9318, 27.2663, 5.53772, 1.64447, 3.58951, -0.0557752, 0.000276166, -0.000901438, 7.23048e-05, 0.000812688, -0.0045036, 2.68647e-05, 0.023209, -0.0109608, -0.00200136, -0.0484047, 0.114423, -0.00111159, 0.471005, -0.542971, 0.336004, -2.08354, -2.16576, -0.129918, 0.470092, -0.542724, 0.336002, -2.08545, -2.16797, -0.124442, -0.000184671, 0.0162937, 0.00422337, 0.0115213, -0.00585997, -0.00169155
0.0930476, 1.69299, -1.22531, -1.53847, -0.899906, -1.19528, 1.23008, -1.3026, 0.0392029, 0.0056011, -0.00272752, 0.00248198, -0.108948, 0.0126752, -3.84855e-05, 1.79694, 56.781, 27.2663, 5.53772, 1.66369, 3.58951, -0.0356336, 0.000250787, -0.000893807, 6.9659e-05, 0.000854545, -0.00462007, 3.74922e-05, 0.0233806, -0.0105568, 0.000143252, -0.0438082, 0.114649, -7.73115e-06, 0.471005, -0.542954, 0.336008, -2.08353, -2.16576, -0.129919, 0.4701, -0.542733, 0.336005, -2.08549, -2.168, -0.124278, -0.000192, 0.0166987, 0.00432576, 0.0111945, -0.00597145, 0.000513721
0.0940476, 1.69304, -1.22531, -1.53847, -0.899897, -1.19539, 1.23009, -1.3026, 0.044337, 0.00297357, -0.00292951, 0.00506647, -0.114711, 0.00926349, -0.00124636, 1.72157, 56.8207, 27.306, 5.53772, 1.66369, 3.59683, -0.00267457, 0.000229395, -0.00087896, 7.52189e-05, 0.000900236, -0.00472413, 3.45208e-05, 0.0233642, -0.0115939, -0.00171599, -0.0493436, 0.115311, 0.00205252, 0.471004, -0.542938, 0.336012, -2.08351, -2.16576, -0.129921, 0.470116, -0.542736, 0.336, -2.0855, -2.16804, -0.124123, -0.000199514, 0.0171079, 0.00442916, 0.0121548, -0.00521681, -0.00124782
0.0950476, 1.69308, -1.22532, -1.53848, -0.899888, -1.19551, 1.2301, -1.3026, 0.0432698, 0.0012728, -0.00292558, 0.00692534, -0.110543, 0.00671789, 0.000627155, 1.83265, 56.8564, 27.3417, 5.53772, 1.6875, 3.60415, -0.0420422, 0.000201364, -0.000872165, 7.96998e-05, 0.000948624, -0.00483235, 5.36887e-05, 0.0238874, -0.0106082, -0.00266504, -0.0486341, 0.109051, -0.00104885, 0.471004, -0.54292, 0.336017, -2.0835, -2.16575, -0.129922, 0.470123, -0.542745, 0.335996, -2.08554, -2.16806, -0.123959, -0.000207216, 0.0175215, 0.00453354, 0.011147, -0.00521373, -0.00213222
0.0960476, 1.69313, -1.22532, -1.53848, -0.899884, -1.19563, 1.23011, -1.3026, 0.0421437, 0.000942767, -0.0020534, 0.00652308, -0.111541, 0.00992707, 0.000655462, 1.83265, 56.8564, 27.3417, 5.6131, 1.70032, 3.58951, -0.0484509, 0.000178287, -0.00085937, 8.34962e-05, 0.000998615, -0.00494464, 5.65041e-05, 0.0250768, -0.0106944, -0.00229836, -0.0455171, 0.111378, -0.00170617, 0.471004, -0.542903, 0.336021, -2.08349, -2.16575, -0.129923, 0.470136, -0.542749, 0.335993, -2.08556, -2.1681, -0.12379, -0.000215108, 0.0179394, 0.00463891, 0.0112812, -0.00602289, -0.00185257
0.0970476, 1.69317, -1.22531, -1.53848, -0.899869, -1.19575, 1.23011, -1.3026, 0.0444566, 0.00246242, -0.000610981, 0.00984278, -0.112299, 0.0114153, -0.00125845, 1.83265, 56.781, 27.306, 5.53772, 1.71222, 3.59683, -0.00267457, 0.000152177, -0.000849441, 8.18972e-05, 0.00103936, -0.00505924, 6.31024e-05, 0.0253234, -0.0116565, -0.00045873, -0.0418941, 0.114242, 3.25399e-05, 0.471004, -0.542885, 0.336026, -2.08348, -2.16575, -0.129924, 0.470147, -0.542757, 0.335994, -2.08559, -2.16814, -0.123629, -0.000223192, 0.0183616, 0.00474526, 0.0123097, -0.0060881, 2.38683e-06
0.0980476, 1.69322, -1.22531, -1.53848, -0.899862, -1.19586, 1.23012, -1.3026, 0.0468387, 0.0007666, -0.000465268, 0.00951511, -0.112281, 0.0134193, 0.00014438, 1.79694, 56.8207, 27.306, 5.57739, 1.71222, 3.58218, -0.0292249, 0.000129264, -0.000836657, 8.67759e-05, 0.00108526, -0.0051609, 7.06955e-05, 0.0249401, -0.0134865, -0.00143566, -0.0405992, 0.113936, 0.0014142, 0.471003, -0.542867, 0.336031, -2.08346, -2.16574, -0.129926, 0.47016, -0.54276, 0.33599, -2.08561, -2.16817, -0.123476, -0.00023147, 0.0187881, 0.00485258, 0.0140799, -0.00505741, -0.000851131
0.0990476, 1.69326, -1.22531, -1.53848, -0.899852, -1.19598, 1.23012, -1.3026, 0.047708, 0.00231406, -0.00118886, 0.0134975, -0.112693, 0.0100291, 0.00131696, 1.79694, 56.7453, 27.3417, 5.57739, 1.71863, 3.58218, -0.0621838, 0.000103502, -0.0008262, 8.68188e-05, 0.00112885, -0.00527412, 8.05763e-05, 0.0259095, -0.012255, -0.000610106, -0.0424015, 0.114178, -0.00287618, 0.471003, -0.542848, 0.336035, -2.08345, -2.16574, -0.129927, 0.470171, -0.542766, 0.335991, -2.08564, -2.1682, -0.123313, -0.000239944, 0.0192188, 0.00496086, 0.0129064, -0.00576137, -4.1394e-05
0.100048, 1.69331, -1.22531, -1.53848, -0.899843, -1.1961, 1.23013, -1.3026, 0.0501664, 0.00240774, -0.000825166, 0.0101565, -0.11678, 0.00854946, 0.000131986, 1.72157, 56.7096, 27.3417, 5.57739, 1.70032, 3.5538, -0.0420422, 7.87868e-05, -0.000813483, 8.87841e-05, 0.0011763, -0.00538754, 8.5347e-05, 0.0248422, -0.0137084, -0.00118332, -0.0471465, 0.117556, 0.00249766, 0.471003, -0.542829, 0.33604, -2.08343, -2.16574, -0.129929, 0.470185, -0.542771, 0.33599, -2.08567, -2.16824, -0.123146, -0.000248615, 0.0196537, 0.00507009, 0.0142903, -0.00412467, -0.000376641
0.101048, 1.69336, -1.22531, -1.53848, -0.899836, -1.19622, 1.23013, -1.3026, 0.0496248, -4.2915e-05, 0.000260661, 0.00993414, -0.120885, 0.00658006, -0.00160743, 1.60651, 56.781, 27.306, 5.6131, 1.70581, 3.54648, 0.00373412, 5.38571e-05, -0.000799675, 9.6192e-05, 0.00122554, -0.00549289, 8.23707e-05, 0.0260835, -0.0128617, -0.00244923, -0.049974, 0.117758, 0.00311634, 0.471003, -0.542809, 0.336045, -2.08342, -2.16573, -0.12993, 0.470199, -0.542774, 0.335983, -2.08568, -2.16828, -0.122986, -0.000257487, 0.0200928, 0.00518027, 0.0134344, -0.00475037, -0.00168404
0.102048, 1.69341, -1.22531, -1.53849, -0.899824, -1.19634, 1.23014, -1.30259, 0.0464016, -1.18389e-05, -0.000679779, 0.0106968, -0.118556, 0.0053522, 0.000623801, 1.60651, 56.781, 27.3417, 5.6131, 1.69391, 3.53274, -0.0420422, 2.28567e-05, -0.000792374, 9.97426e-05, 0.0012725, -0.0056057, 0.000103739, 0.027803, -0.0107474, -0.00263672, -0.0498366, 0.115495, -0.00260816, 0.471002, -0.542789, 0.336051, -2.08341, -2.16573, -0.129932, 0.470207, -0.542783, 0.33598, -2.08572, -2.16829, -0.122818, -0.000266561, 0.0205361, 0.00529139, 0.0113687, -0.00606239, -0.00196161
0.103048, 1.69345, -1.22531, -1.53849, -0.899819, -1.19646, 1.23015, -1.30259, 0.0472942, 0.000839904, -0.000466937, 0.00947861, -0.11612, 0.00445332, 0.000653226, 1.60651, 56.7453, 27.3417, 5.68848, 1.66919, 3.5181, -0.0484509, -4.79156e-06, -0.000781928, 0.000101469, 0.0013192, -0.00572193, 0.000111329, 0.0268027, -0.0116472, -0.00239708, -0.0498575, 0.114354, 0.000245473, 0.471002, -0.542768, 0.336056, -2.08339, -2.16572, -0.129933, 0.470218, -0.54279, 0.335979, -2.08575, -2.16833, -0.122649, -0.000275838, 0.0209836, 0.00540343, 0.012231, -0.0046273, -0.00148508
0.104048, 1.6935, -1.22531, -1.53849, -0.899806, -1.19658, 1.23015, -1.3026, 0.047369, 0.00056937, -0.000321605, 0.0113549, -0.119504, 0.00322587, -0.000276593, 1.49146, 56.7453, 27.3417, 5.6488, 1.65088, 3.5181, -0.0292249, -3.25769e-05, -0.000770803, 0.000104984, 0.00136962, -0.00583422, 0.000117534, 0.028327, -0.0106883, -0.00239024, -0.0514359, 0.116408, -0.00142225, 0.471002, -0.542747, 0.336061, -2.08338, -2.16572, -0.129935, 0.47023, -0.542795, 0.335976, -2.08577, -2.16836, -0.12248, -0.000285321, 0.0214351, 0.00551641, 0.011319, -0.00572075, -0.00157365
0.105048, 1.69355, -1.22531, -1.53849, -0.899803, -1.19671, 1.23015, -1.3026, 0.0464018, 0.00205709, -0.00151073, 0.00896763, -0.122455, 0.00315712, -0.00116774, 1.41608, 56.6739, 27.2663, 5.76385, 1.64447, 3.49612, -0.00267457, -5.97401e-05, -0.000758447, 0.000103827, 0.00141693, -0.0059607, 0.000117837, 0.0291998, -0.0100929, -0.00225668, -0.0546837, 0.120869, -0.000947383, 0.471002, -0.542726, 0.336067, -2.08336, -2.16572, -0.129936, 0.470243, -0.5428, 0.335978, -2.08579, -2.16841, -0.122301, -0.000295012, 0.0218908, 0.00563029, 0.0107509, -0.00617168, -0.00144595
0.106048, 1.69359, -1.22532, -1.53849, -0.899797, -1.19684, 1.23016, -1.30259, 0.0447211, -0.00205697, -0.00126728, 0.00846305, -0.124118, 0.0030292, 0.000916928, 1.38038, 56.8207, 27.2663, 5.83527, 1.62616, 3.47507, -0.0484509, -8.97707e-05, -0.00074775, 0.000112154, 0.0014696, -0.00607119, 0.00012982, 0.0309279, -0.00916454, -0.00461978, -0.0555973, 0.118386, -0.00458055, 0.471001, -0.542704, 0.336072, -2.08334, -2.16571, -0.129938, 0.470254, -0.542806, 0.335971, -2.08582, -2.16844, -0.12213, -0.000304912, 0.0223506, 0.00574509, 0.00979004, -0.0070913, -0.00390537
0.107048, 1.69364, -1.22531, -1.53848, -0.899785, -1.19697, 1.23016, -1.3026, 0.043583, 0.00206634, -0.000204723, 0.0105935, -0.125806, 0.00267041, -0.00033815, 1.34071, 56.6739, 27.2306, 5.79956, 1.61426, 3.46042, -0.0228162, -0.000122174, -0.000741036, 0.000108459, 0.00151743, -0.0062002, 0.000143626, 0.0322218, -0.00789837, -0.00152947, -0.0541473, 0.123743, -0.00641313, 0.471001, -0.542682, 0.336078, -2.08333, -2.16571, -0.12994, 0.470261, -0.542816, 0.335975, -2.08585, -2.16847, -0.121946, -0.000315023, 0.0228145, 0.00586078, 0.00867447, -0.00843336, -0.00090163
0.108048, 1.69364, -1.22531, -1.53848, -0.899785, -1.19697, 1.23016, -1.3026, 0.043583, 0.00206634, -0.000204723, 0.0105935, -0.125806, 0.00267041, -0.00033815, 1.34071, 56.6739, 27.2306, 5.79956, 1.61426, 3.46042, -0.0228162, -0.000145617, -0.000741482, 0.000110721, 0.00150789, -0.00621179, 0.000148953, 0.0327022, -0.00789283, -0.00157157, -0.054064, 0.124084, -0.00637771, 0.471001, -0.542659, 0.336084, -2.08331, -2.1657, -0.129941, 0.470261, -0.542816, 0.335975, -2.08585, -2.16847, -0.121946, -0.000325348, 0.0232823, 0.00597737, 0.00867447, -0.00843336, -0.00090163
0.109048, 1.69364, -1.22531, -1.53848, -0.899785, -1.19697, 1.23016, -1.3026, 0.043583, 0.00206634, -0.000204723, 0.0105935, -0.125806, 0.00267041, -0.00033815, 1.34071, 56.6739, 27.2306, 5.79956, 1.61426, 3.46042, -0.0228162, -0.00016954, -0.000741932, 0.000113025, 0.00149815, -0.00622361, 0.000154384, 0.0331868, -0.00788736, -0.0016139, -0.0539798, 0.124428, -0.00634197, 0.471, -0.542636, 0.33609, -2.08329, -2.1657, -0.129943, 0.470261, -0.542816, 0.335975, -2.08585, -2.16847, -0.121946, -0.000335889, 0.0237543, 0.00609484, 0.00867447, -0.00843336, -0.00090163
0.110048, 1.69377, -1.22531, -1.53848, -0.899769, -1.19737, 1.23017, -1.30259, 0.0452651, -0.00105369, -0.000281152, 0.00515342, -0.131697, 0.00487953, 0.00131643, 1.15424, 56.781, 27.2306, 5.91064, 1.56482, 3.40365, -0.0484509, -0.000218997, -0.000711144, 0.000123302, 0.00167551, -0.00656507, 0.000177976, 0.033022, -0.0098301, -0.00414924, -0.057863, 0.128138, -0.00347787, 0.471, -0.542612, 0.336096, -2.08328, -2.16569, -0.129945, 0.470293, -0.542838, 0.335962, -2.08594, -2.16857, -0.121402, -0.000346646, 0.0242302, 0.00621319, 0.0105058, -0.00732346, -0.00332047
0.111048, 1.69382, -1.22531, -1.53848, -0.899766, -1.1975, 1.23018, -1.30259, 0.0455535, 0.000134018, 0.000678858, 0.00229433, -0.135322, 0.0048451, -7.18186e-05, 1.03919, 56.7453, 27.1909, 5.98602, 1.5401, 3.36703, -0.0228162, -0.000249099, -0.000698097, 0.000126016, 0.00172593, -0.00668995, 0.000179104, 0.0329379, -0.0103599, -0.00355963, -0.059949, 0.132826, -3.86337e-05, 0.471, -0.542588, 0.336102, -2.08326, -2.16569, -0.129946, 0.470307, -0.542843, 0.33596, -2.08596, -2.16861, -0.121221, -0.000357622, 0.0247101, 0.00633241, 0.0110425, -0.0068295, -0.00262263
0.112048, 1.69387, -1.22531, -1.53848, -0.89976, -1.19765, 1.23018, -1.3026, 0.0418714, 9.02895e-05, 0.00124149, 0.00199602, -0.140411, 0.0039155, -0.00126858, 0.963814, 56.7453, 27.1552, 5.98602, 1.56482, 3.3533, 0.0101428, -0.000283474, -0.000689673, 0.000128013, 0.00178144, -0.00682085, 0.000184556, 0.035781, -0.00771076, -0.00334651, -0.062128, 0.136721, -0.00361835, 0.470999, -0.542563, 0.336109, -2.08324, -2.16568, -0.129948, 0.470316, -0.542851, 0.335959, -2.08599, -2.16865, -0.121027, -0.000368819, 0.025194, 0.00645249, 0.00849569, -0.00929399, -0.00265441
0.113048, 1.69391, -1.22531, -1.53848, -0.899752, -1.19778, 1.23019, -1.3026, 0.0422371, 6.09013e-05, -4.22773e-05, 0.0047825, -0.137419, 0.00355674, -0.000371004, 0.888436, 56.7453, 27.1909, 5.98602, 1.5401, 3.33133, -0.00267457, -0.000320012, -0.000680919, 0.00013257, 0.00183005, -0.00694597, 0.00020318, 0.0365864, -0.00733295, -0.00352591, -0.0608143, 0.134268, -0.00617312, 0.470999, -0.542538, 0.336115, -2.08322, -2.16568, -0.12995, 0.470326, -0.542861, 0.335955, -2.08603, -2.16868, -0.120846, -0.000380238, 0.0256818, 0.00657343, 0.00812951, -0.00958891, -0.00282496
0.114048, 1.69396, -1.22532, -1.53848, -0.899748, -1.19792, 1.23019, -1.30259, 0.0414723, -0.000794086, 0.000780992, 0.002874, -0.140821, 0.00297924, 0.00144809, 0.85273, 56.781, 27.1552, 6.02173, 1.53461, 3.31759, -0.0484509, -0.000355466, -0.000672163, 0.000136377, 0.00188055, -0.00707089, 0.000220096, 0.0373885, -0.00699785, -0.00404756, -0.062938, 0.136372, -0.00776932, 0.470999, -0.542512, 0.336122, -2.0832, -2.16567, -0.129952, 0.470335, -0.542869, 0.335952, -2.08606, -2.16871, -0.120663, -0.000391882, 0.0261735, 0.00669522, 0.00779317, -0.00982216, -0.0033334
0.115048, 1.694, -1.22532, -1.53848, -0.899746, -1.19805, 1.2302, -1.30259, 0.0419069, -0.000528992, -0.000334088, 0.00137865, -0.138837, 0.00260329, 1.59544e-05, 0.777352, 56.781, 27.1909, 6.0614, 1.5401, 3.30295, -0.0228162, -0.000390378, -0.000660919, 0.000140918, 0.00193313, -0.00720127, 0.00022227, 0.0370364, -0.00752584, -0.00459249, -0.0639798, 0.135407, -0.00443618, 0.470998, -0.542486, 0.336128, -2.08318, -2.16567, -0.129954, 0.470347, -0.542877, 0.335949, -2.08608, -2.16875, -0.120474, -0.000403753, 0.0266691, 0.00681784, 0.0082762, -0.00887284, -0.00371064
0.116048, 1.69404, -1.22532, -1.53848, -0.899743, -1.19818, 1.23021, -1.3026, 0.042819, -0.00346037, -0.000237374, 0.0012121, -0.132545, 0.00206273, -0.000972708, 0.813057, 56.781, 27.1909, 6.0614, 1.54651, 3.29562, 0.00373412, -0.00042872, -0.000654372, 0.000144978, 0.0019837, -0.00732725, 0.000234317, 0.0360532, -0.00875136, -0.00645296, -0.0618173, 0.127465, -0.000156601, 0.470998, -0.542459, 0.336135, -2.08317, -2.16566, -0.129956, 0.470354, -0.542887, 0.335945, -2.08612, -2.16879, -0.120291, -0.000415851, 0.0271686, 0.0069413, 0.0093849, -0.00706496, -0.00530897
0.117048, 1.69409, -1.22531, -1.53848, -0.899739, -1.19831, 1.23022, -1.3026, 0.0470879, -0.000895253, -0.00109726, 0.00102781, -0.132663, 0.00626013, -0.00136055, 0.701973, 56.7096, 27.2306, 6.0614, 1.55292, 3.28097, 0.0229602, -0.000460613, -0.000639674, 0.000145057, 0.00202987, -0.007459, 0.000233747, 0.0350074, -0.0117419, -0.00516717, -0.0593969, 0.132768, 0.00416454, 0.470997, -0.542432, 0.336142, -2.08315, -2.16566, -0.129958, 0.47037, -0.542891, 0.335947, -2.08614, -2.16884, -0.120108, -0.000428179, 0.027672, 0.00706559, 0.0123686, -0.00560427, -0.00384412
0.118048, 1.69413, -1.22531, -1.53848, -0.899741, -1.19844, 1.23023, -1.30259, 0.0477338, -0.00162614, -0.000739743, -0.000913217, -0.132821, 0.00885445, 0.00150047, 0.701973, 56.7453, 27.2306, 6.13678, 1.55932, 3.28097, -0.0420422, -0.000496146, -0.000629321, 0.000151658, 0.00208046, -0.00757958, 0.000246745, 0.0349597, -0.0130687, -0.00558541, -0.0578731, 0.133997, 0.00382362, 0.470997, -0.542404, 0.336149, -2.08313, -2.16565, -0.12996, 0.470381, -0.542897, 0.335941, -2.08617, -2.16887, -0.11993, -0.000440739, 0.0281791, 0.00719069, 0.0136642, -0.00493051, -0.00416561
0.119048, 1.69418, -1.22532, -1.53848, -0.899733, -1.19857, 1.23024, -1.3026, 0.0491171, -0.00122965, 0.000428678, 0.00127804, -0.128343, 0.01108, -0.00164455, 0.6623, 56.7453, 27.1909, 6.0614, 1.57123, 3.27456, 0.0293689, -0.00053411, -0.000618628, 0.000154229, 0.00211923, -0.00770441, 0.000254041, 0.0345796, -0.0144602, -0.00455941, -0.0518874, 0.131963, 0.00851582, 0.470997, -0.542376, 0.336156, -2.08311, -2.16564, -0.129962, 0.470392, -0.542905, 0.33594, -2.0862, -2.16891, -0.119761, -0.000453532, 0.0286901, 0.0073166, 0.0150651, -0.00414509, -0.00301059
0.120048, 1.69422, -1.22531, -1.53848, -0.899734, -1.1987, 1.23025, -1.3026, 0.0473327, 0.000741497, 0.000281151, 0.00094473, -0.130086, 0.00850286, -0.000146929, 0.626595, 56.6739, 27.1909, 6.0614, 1.59595, 3.26724, 0.00373412, -0.000568748, -0.000606925, 0.000153942, 0.00216515, -0.00783599, 0.000262197, 0.0357228, -0.0127983, -0.0036688, -0.0546777, 0.134441, 0.00488558, 0.470996, -0.542347, 0.336164, -2.08308, -2.16564, -0.129964, 0.470405, -0.54291, 0.335942, -2.08623, -2.16895, -0.119578, -0.00046656, 0.0292049, 0.00744332, 0.0134662, -0.00496458, -0.00213249
0.121048, 1.69427, -1.22532, -1.53848, -0.899735, -1.19882, 1.23026, -1.30259, 0.0464193, -0.0020932, 0.000183958, -0.000135868, -0.126422, 0.0114135, 0.00136011, 0.551216, 56.781, 27.1909, 6.09711, 1.62067, 3.24527, -0.0356336, -0.000604237, -0.000591267, 0.000163081, 0.00220789, -0.00795509, 0.00026373, 0.0362082, -0.0135042, -0.00526431, -0.0510393, 0.130509, 0.00470892, 0.470996, -0.542318, 0.336171, -2.08306, -2.16563, -0.129966, 0.470421, -0.542914, 0.335934, -2.08624, -2.169, -0.119411, -0.000479825, 0.0297235, 0.00757084, 0.0141172, -0.00464948, -0.00367809
0.122048, 1.69432, -1.22531, -1.53848, -0.899731, -1.19895, 1.23027, -1.30259, 0.044841, 0.00021356, -0.000807989, 0.00172481, -0.133327, 0.00895101, 0.000194663, 0.511544, 56.7096, 27.2306, 6.02173, 1.64447, 3.23153, -0.0164075, -0.000642727, -0.000580897, 0.000164677, 0.00224941, -0.00808354, 0.000274483, 0.0390954, -0.0107512, -0.00416165, -0.0558416, 0.137477, -0.000116265, 0.470995, -0.542288, 0.336179, -2.08304, -2.16563, -0.129968, 0.470432, -0.542921, 0.335934, -2.08628, -2.16904, -0.119236, -0.000493328, 0.0302458, 0.00769914, 0.0114987, -0.00726073, -0.00282738
0.123048, 1.69436, -1.22532, -1.53848, -0.899731, -1.19907, 1.23029, -1.3026, 0.0418261, -0.00250214, -0.000540614, 0.00118898, -0.134371, 0.00686366, -0.001803, 0.551216, 56.8207, 27.2306, 6.02173, 1.6875, 3.22421, 0.0357776, -0.000682396, -0.000570018, 0.000171736, 0.00228968, -0.00820389, 0.000277697, 0.0410124, -0.0087717, -0.00580521, -0.057843, 0.134912, -0.000765779, 0.470995, -0.542258, 0.336186, -2.08302, -2.16562, -0.129971, 0.470444, -0.542929, 0.335928, -2.0863, -2.16908, -0.119071, -0.000507072, 0.0307718, 0.00782823, 0.00951714, -0.00845456, -0.00455985
0.124048, 1.6944, -1.22532, -1.53849, -0.899732, -1.1992, 1.2303, -1.30259, 0.0440112, -0.00170264, -0.00296033, -0.000106033, -0.134588, 0.0055871, 0.000222151, 0.551216, 56.8207, 27.3417, 6.0614, 1.71863, 3.20956, -0.00267457, -0.000722931, -0.000560085, 0.000178057, 0.00233845, -0.0083321, 0.000293073, 0.0405399, -0.00958674, -0.00663904, -0.0619341, 0.13599, -0.000708833, 0.470994, -0.542227, 0.336194, -2.083, -2.16561, -0.129973, 0.470454, -0.542937, 0.335923, -2.08633, -2.16911, -0.118887, -0.000521058, 0.0313016, 0.00795809, 0.0102698, -0.00729573, -0.00520529
0.125048, 1.69445, -1.22531, -1.53848, -0.899726, -1.19932, 1.23031, -1.30259, 0.0450307, 0.000602241, -0.000211417, 0.00254977, -0.129441, 0.00835212, 0.0013688, 0.436165, 56.7453, 27.2663, 5.95032, 1.73053, 3.20956, -0.0356336, -0.000758772, -0.000544646, 0.000176285, 0.00237013, -0.00846093, 0.000295723, 0.039892, -0.0110873, -0.00380225, -0.0533228, 0.135436, -0.000125383, 0.470994, -0.542196, 0.336202, -2.08297, -2.16561, -0.129975, 0.470471, -0.54294, 0.335927, -2.08636, -2.16916, -0.118723, -0.000535288, 0.031835, 0.00808872, 0.0118348, -0.00649875, -0.00221953
0.126048, 1.69449, -1.22531, -1.53849, -0.899724, -1.19945, 1.23033, -1.3026, 0.0406577, 0.000382064, -0.00106979, 0.00171634, -0.126062, 0.0150479, -0.000545526, 0.400459, 56.7453, 27.306, 5.95032, 1.75525, 3.20224, 0.00373412, -0.000799402, -0.000532756, 0.000180811, 0.00241085, -0.00858934, 0.000302175, 0.0423647, -0.0102739, -0.00357638, -0.0463369, 0.13614, -0.00100553, 0.470993, -0.542164, 0.33621, -2.08295, -2.1656, -0.129978, 0.470483, -0.542947, 0.335924, -2.08639, -2.1692, -0.118549, -0.000549763, 0.0323721, 0.00822011, 0.0111056, -0.00847076, -0.00222632
0.127048, 1.69454, -1.22531, -1.53849, -0.899728, -1.19957, 1.23034, -1.3026, 0.0414038, 0.00191057, -0.00154903, 0.000321387, -0.12876, 0.0152295, -0.00131312, 0.325081, 56.6739, 27.3417, 5.98602, 1.79187, 3.20956, 0.0293689, -0.000836767, -0.000518215, 0.000183432, 0.00245461, -0.00872206, 0.000300692, 0.04268, -0.010619, -0.00309923, -0.0483902, 0.140538, 0.000602584, 0.470993, -0.542132, 0.336219, -2.08293, -2.16559, -0.12998, 0.470498, -0.542951, 0.335923, -2.08641, -2.16926, -0.118368, -0.000564485, 0.0329128, 0.00835225, 0.0114646, -0.00830046, -0.00168359
0.128048, 1.69459, -1.22531, -1.53849, -0.899729, -1.19969, 1.23035, -1.30259, 0.0411934, -0.00040765, -0.00103315, -0.000611679, -0.129757, 0.0157707, 0.000820008, 0.285408, 56.7453, 27.3417, 6.02173, 1.80469, 3.20956, -0.0164075, -0.000875682, -0.00050345, 0.000190572, 0.00249273, -0.00884222, 0.000307468, 0.0434228, -0.0108272, -0.00439275, -0.0484236, 0.139756, -0.000918415, 0.470992, -0.542099, 0.336227, -2.0829, -2.16559, -0.129982, 0.470514, -0.542955, 0.335918, -2.08643, -2.1693, -0.118205, -0.000579456, 0.0334572, 0.00848514, 0.0116371, -0.00828054, -0.00295077
0.129048, 1.69463, -1.22531, -1.53849, -0.899726, -1.19982, 1.23037, -1.30259, 0.039929, 0.000555254, -0.00245235, 0.000434393, -0.129884, 0.0212832, 0.00125875, 0.285408, 56.7096, 27.417, 5.98602, 1.80469, 3.18851, -0.0356336, -0.000919621, -0.000492115, 0.000193174, 0.00252762, -0.00897648, 0.000318841, 0.045656, -0.0106065, -0.00366958, -0.044054, 0.143904, -0.00419577, 0.470991, -0.542066, 0.336235, -2.08288, -2.16558, -0.129985, 0.470526, -0.542964, 0.335916, -2.08647, -2.16934, -0.118031, -0.000594677, 0.0340052, 0.00861877, 0.0115087, -0.0100576, -0.00244534
0.130048, 1.69467, -1.22532, -1.5385, -0.899729, -1.19994, 1.23039, -1.3026, 0.0434035, -0.00223443, -0.0033056, -0.000540402, -0.125797, 0.0199011, -0.00156833, 0.245735, 56.8207, 27.4885, 6.02173, 1.81018, 3.19583, 0.0293689, -0.000961463, -0.000478882, 0.000203636, 0.00256997, -0.00909565, 0.000315229, 0.0438811, -0.0128826, -0.00610618, -0.0452347, 0.137745, 0.00396902, 0.470991, -0.542032, 0.336244, -2.08286, -2.16557, -0.129987, 0.47054, -0.542969, 0.335908, -2.08648, -2.16939, -0.117866, -0.000610151, 0.0345567, 0.00875313, 0.0136132, -0.00728305, -0.00451062
0.131048, 1.69472, -1.22531, -1.53849, -0.899728, -1.20007, 1.23041, -1.3026, 0.0453745, 0.000269004, 0.000394528, -0.000356353, -0.128149, 0.0202566, -0.00104555, 0.0949785, 56.7453, 27.3774, 6.02173, 1.8349, 3.16653, 0.0293689, -0.00100081, -0.000461113, 0.000202197, 0.00259928, -0.00923654, 0.000313974, 0.0431158, -0.0143505, -0.00340832, -0.0426614, 0.142546, 0.00621508, 0.47099, -0.541997, 0.336253, -2.08283, -2.16557, -0.12999, 0.470558, -0.542973, 0.335911, -2.08651, -2.16945, -0.117693, -0.000625878, 0.0351119, 0.00888822, 0.015135, -0.00632851, -0.00163856
0.132048, 1.69477, -1.22531, -1.53849, -0.899728, -1.2002, 1.23042, -1.30259, 0.0430821, 0.000175878, 0.000262872, -0.000234632, -0.124431, 0.0190999, 0.0014731, 0.0949785, 56.7453, 27.3774, 6.02173, 1.84131, 3.17386, -0.0292249, -0.00104393, -0.000448772, 0.000205666, 0.00263541, -0.00936637, 0.000330561, 0.0439258, -0.0132182, -0.00352468, -0.041534, 0.139168, 0.00254705, 0.47099, -0.541962, 0.336262, -2.0828, -2.16556, -0.129992, 0.470571, -0.542979, 0.33591, -2.08655, -2.16948, -0.117522, -0.00064186, 0.0356705, 0.00902402, 0.0140135, -0.00659789, -0.00171016
0.133048, 1.69481, -1.22531, -1.5385, -0.899728, -1.20032, 1.23044, -1.30259, 0.0426271, 0.000114658, -0.00335134, -0.000154219, -0.121288, 0.0150545, 0.000744709, 0.059273, 56.7453, 27.5281, 6.02173, 1.8349, 3.1528, -0.0228162, -0.00109, -0.000436782, 0.000213631, 0.00267797, -0.00949862, 0.000342415, 0.0444501, -0.0119206, -0.00521059, -0.0465422, 0.135156, 0.00210401, 0.470989, -0.541926, 0.336271, -2.08278, -2.16555, -0.129995, 0.470584, -0.542987, 0.335903, -2.08658, -2.16952, -0.117341, -0.000658099, 0.0362327, 0.00916054, 0.0126585, -0.00634587, -0.00328103
0.134048, 1.69486, -1.22531, -1.5385, -0.899728, -1.20045, 1.23046, -1.3026, 0.0451772, -0.000760724, -0.00047107, -0.000101161, -0.128673, 0.0203327, -0.000961589, 0.0196001, 56.781, 27.4528, 6.02173, 1.84131, 3.13815, 0.0165515, -0.00113308, -0.000421056, 0.000215994, 0.00270777, -0.00963337, 0.00034125, 0.0453989, -0.0139961, -0.004395, -0.0431955, 0.143241, 0.00527587, 0.470988, -0.54189, 0.33628, -2.08275, -2.16554, -0.129998, 0.470601, -0.542992, 0.335903, -2.08661, -2.16958, -0.117174, -0.000674597, 0.0367984, 0.00929776, 0.0147793, -0.00675669, -0.00255124
0.135048, 1.6949, -1.22531, -1.53849, -0.899734, -1.20057, 1.23048, -1.30259, 0.043199, 0.00255287, -0.000314109, -0.00182944, -0.127913, 0.0197088, 0.00105436, 0.0196001, 56.781, 27.4528, 6.09711, 1.81659, 3.13083, -0.0292249, -0.00117544, -0.000405363, 0.000219393, 0.00273959, -0.0097652, 0.000346448, 0.0457846, -0.0132077, -0.00262298, -0.0433535, 0.146108, 0.00312876, 0.470988, -0.541853, 0.336289, -2.08273, -2.16554, -0.13, 0.470617, -0.542996, 0.335902, -2.08663, -2.16963, -0.117007, -0.000691354, 0.0373675, 0.00943568, 0.0140545, -0.00687454, -0.00070082
0.136048, 1.69495, -1.22531, -1.53849, -0.899731, -1.2007, 1.2305, -1.30259, 0.0443341, 0.00279116, 0.000625766, -0.000383479, -0.128837, 0.0189716, 0.000465549, -0.0914839, 56.7453, 27.417, 6.0614, 1.81659, 3.13083, -0.0228162, -0.00121699, -0.000387079, 0.000220607, 0.00276906, -0.00990011, 0.0003449, 0.0461819, -0.0134406, -0.00211583, -0.0429547, 0.146996, 0.00374868, 0.470987, -0.541816, 0.336299, -2.0827, -2.16553, -0.130003, 0.470636, -0.542999, 0.335903, -2.08666, -2.16969, -0.11684, -0.000708374, 0.0379402, 0.00957429, 0.0143033, -0.00676261, -0.000131704
0.137048, 1.695, -1.22531, -1.5385, -0.899736, -1.20082, 1.23052, -1.3026, 0.0465023, 0.00121608, -0.00301653, -0.00109017, -0.128517, 0.0184664, -0.0011477, -0.131157, 56.781, 27.5638, 6.09711, 1.78638, 3.13083, 0.0165515, -0.00126265, -0.000372162, 0.00023153, 0.00281299, -0.0100293, 0.000344565, 0.0463955, -0.0141469, -0.004632, -0.0471227, 0.145708, 0.00656049, 0.470986, -0.541778, 0.336308, -2.08267, -2.16552, -0.130006, 0.470652, -0.543004, 0.335894, -2.08667, -2.16974, -0.116663, -0.000725657, 0.0385162, 0.00971358, 0.0149069, -0.00597852, -0.00253267
0.138048, 1.69504, -1.22532, -1.5385, -0.899739, -1.20095, 1.23054, -1.3026, 0.0463394, 2.559e-05, -0.00117583, -0.00165428, -0.12851, 0.0221693, -0.000765131, -0.0914839, 56.8207, 27.5281, 6.13678, 1.75525, 3.13815, 0.0165515, -0.00130758, -0.000356551, 0.00023564, 0.00284105, -0.01016, 0.000346283, 0.0470047, -0.0152048, -0.00446793, -0.042515, 0.146691, 0.0074826, 0.470985, -0.541739, 0.336318, -2.08264, -2.16551, -0.130009, 0.470668, -0.543008, 0.335892, -2.0867, -2.16979, -0.116501, -0.000743204, 0.0390957, 0.00985355, 0.0159741, -0.00598164, -0.00235943
0.139048, 1.69509, -1.22532, -1.53849, -0.899742, -1.20107, 1.23057, -1.30259, 0.0473816, -0.00154621, 0.00342941, -0.00110246, -0.128913, 0.0217244, 0.00118533, -0.0914839, 56.8921, 27.4885, 6.13678, 1.74335, 3.11618, -0.0292249, -0.00135363, -0.000340216, 0.000240591, 0.00286779, -0.010292, 0.000353107, 0.0465233, -0.0163774, -0.00382672, -0.0389606, 0.145337, 0.00822185, 0.470985, -0.5417, 0.336328, -2.08262, -2.1655, -0.130011, 0.470685, -0.543013, 0.335889, -2.08673, -2.16984, -0.116339, -0.000761018, 0.0396786, 0.00999418, 0.0171339, -0.00497374, -0.00154784
0.140048, 1.69514, -1.22532, -1.5385, -0.899745, -1.2012, 1.23059, -1.30259, 0.049091, -0.00187845, 0.00163201, -0.0015699, -0.123677, 0.0199702, 0.000552864, -0.131157, 56.9318, 27.5281, 6.17248, 1.70581, 3.13083, -0.0228162, -0.00139861, -0.000322578, 0.000248257, 0.00290235, -0.010422, 0.000351832, 0.0454153, -0.0173996, -0.00502415, -0.0400171, 0.140487, 0.0118904, 0.470984, -0.541661, 0.336338, -2.08259, -2.1655, -0.130014, 0.470703, -0.543016, 0.335884, -2.08675, -2.16989, -0.116172, -0.000779099, 0.0402649, 0.0101355, 0.0180528, -0.00306579, -0.00244845
0.141048, 1.69519, -1.22533, -1.5385, -0.899745, -1.20132, 1.23061, -1.3026, 0.0510103, -0.00369767, 0.00129333, -0.00104638, -0.125766, 0.0235021, -0.000852127, -0.206535, 57.0389, 27.5281, 6.17248, 1.70032, 3.13083, 0.0101428, -0.00144308, -0.000302254, 0.000256222, 0.0029285, -0.0105477, 0.000344211, 0.0463437, -0.0187446, -0.00597055, -0.0383009, 0.142596, 0.0139715, 0.470983, -0.54162, 0.336348, -2.08256, -2.16549, -0.130017, 0.470724, -0.543018, 0.335879, -2.08676, -2.16995, -0.116019, -0.00079745, 0.0408545, 0.0102774, 0.0193765, -0.00318982, -0.00342834
0.142048, 1.69524, -1.22533, -1.53849, -0.899753, -1.20144, 1.23064, -1.3026, 0.0527319, -0.0024199, 0.00194423, -0.00246066, -0.126891, 0.0263364, -0.000568085, -0.166862, 57.0389, 27.4885, 6.24786, 1.6875, 3.13083, 0.0101428, -0.00149014, -0.000286266, 0.000260482, 0.00295645, -0.0106826, 0.000344741, 0.0460219, -0.0205109, -0.00506484, -0.0364833, 0.146763, 0.016601, 0.470982, -0.541579, 0.336358, -2.08253, -2.16548, -0.13002, 0.470741, -0.543022, 0.335877, -2.08679, -2.17001, -0.115854, -0.000816072, 0.0414475, 0.01042, 0.0211439, -0.0023458, -0.00239701
0.143048, 1.69529, -1.22533, -1.53849, -0.899751, -1.20156, 1.23066, -1.30259, 0.0530801, -0.0033426, 0.000483625, -0.000712295, -0.128454, 0.0283366, 0.000604621, -0.206535, 57.1143, 27.5281, 6.20819, 1.6875, 3.13083, -0.0164075, -0.0015378, -0.000268208, 0.000267015, 0.00298071, -0.010811, 0.000349287, 0.0479057, -0.0202632, -0.00576326, -0.0359271, 0.148499, 0.0130931, 0.470982, -0.541538, 0.336369, -2.0825, -2.16547, -0.130023, 0.470759, -0.543026, 0.335873, -2.08681, -2.17006, -0.115699, -0.000834967, 0.0420438, 0.0105633, 0.0209203, -0.00351051, -0.00323104
0.144048, 1.69533, -1.22534, -1.5385, -0.899763, -1.20168, 1.23068, -1.30259, 0.0506089, -0.00480142, -0.000426182, -0.00316603, -0.129607, 0.0256676, 0.000165722, -0.131157, 57.2253, 27.5638, 6.32324, 1.69391, 3.13083, -0.00999879, -0.00158622, -0.000251812, 0.000278199, 0.00301423, -0.0109384, 0.000346924, 0.049176, -0.0186732, -0.0074316, -0.0403698, 0.147308, 0.0124824, 0.470981, -0.541496, 0.336379, -2.08247, -2.16546, -0.130026, 0.470776, -0.543029, 0.335865, -2.08683, -2.17011, -0.115535, -0.000854135, 0.0426434, 0.0107072, 0.0192978, -0.00397193, -0.00488488
0.145048, 1.69538, -1.22534, -1.53849, -0.899762, -1.2018, 1.23071, -1.3026, 0.0475097, -0.00318187, 0.00154408, -0.0011826, -0.125668, 0.0238065, -0.00111022, -0.131157, 57.2253, 27.4885, 6.28357, 1.69391, 3.1235, 0.0229602, -0.001633, -0.000232399, 0.000279569, 0.00303129, -0.0110718, 0.00034134, 0.0502212, -0.0169054, -0.00556094, -0.0367702, 0.144791, 0.0112255, 0.47098, -0.541453, 0.33639, -2.08244, -2.16545, -0.130029, 0.470797, -0.543032, 0.335866, -2.08685, -2.17018, -0.115384, -0.000873578, 0.0432462, 0.0108517, 0.0176201, -0.00476316, -0.00300359
0.146048, 1.69538, -1.22534, -1.53849, -0.899762, -1.2018, 1.23071, -1.3026, 0.0475097, -0.00318187, 0.00154408, -0.0011826, -0.125668, 0.0238065, -0.00111022, -0.131157, 57.2253, 27.4885, 6.28357, 1.69391, 3.1235, 0.0229602, -0.00167742, -0.000232997, 0.000283521, 0.0030131, -0.0110939, 0.000351069, 0.0508432, -0.0169041, -0.0056082, -0.0366491, 0.145226, 0.0112711, 0.470979, -0.54141, 0.336401, -2.08241, -2.16544, -0.130032, 0.470797, -0.543032, 0.335866, -2.08685, -2.17018, -0.115384, -0.000893298, 0.0438524, 0.0109968, 0.0176201, -0.00476316, -0.00300359
0.147048, 1.69538, -1.22534, -1.53849, -0.899762, -1.2018, 1.23071, -1.3026, 0.0475097, -0.00318187, 0.00154408, -0.0011826, -0.125668, 0.0238065, -0.00111022, -0.131157, 57.2253, 27.4885, 6.28357, 1.69391, 3.1235, 0.0229602, -0.00172246, -0.000233596, 0.000287518, 0.00299466, -0.0111163, 0.000360922, 0.0514684, -0.0169029, -0.00565551, -0.0365269, 0.145663, 0.0113171, 0.470978, -0.541366, 0.336412, -2.08237, -2.16543, -0.130036, 0.470797, -0.543032, 0.335866, -2.08685, -2.17018, -0.115384, -0.000913297, 0.0444617, 0.0111426, 0.0176201, -0.00476316, -0.00300359
0.148048, 1.69552, -1.22536, -1.5385, -0.899768, -1.20212, 1.23078, -1.30259, 0.045037, -0.00426209, -0.0015004, -0.00486758, -0.114661, 0.0231314, 0.000221115, -0.131157, 57.4078, 27.6392, 6.24786, 1.68201, 3.1235, -0.00999879, -0.00177796, -0.000176712, 0.000303353, 0.00309381, -0.0114347, 0.000340572, 0.050596, -0.0169423, -0.00787566, -0.0359853, 0.136137, 0.0130748, 0.470977, -0.541322, 0.336423, -2.08234, -2.16542, -0.130039, 0.470854, -0.543037, 0.335851, -2.0869, -2.17033, -0.114955, -0.000933575, 0.0450743, 0.0112889, 0.0175258, -0.00294331, -0.00491537
0.149048, 1.69557, -1.22536, -1.5385, -0.899772, -1.20223, 1.23081, -1.3026, 0.0408614, -0.00543382, -0.000979714, -0.00763649, -0.110258, 0.0213723, -0.00107329, -0.166862, 57.5189, 27.6392, 6.28357, 1.70032, 3.13083, 0.0229602, -0.00182516, -0.000156525, 0.00031194, 0.00311032, -0.0115483, 0.000330087, 0.0512162, -0.0155049, -0.0087583, -0.0356734, 0.131013, 0.0144567, 0.470976, -0.541277, 0.336434, -2.08231, -2.16541, -0.130042, 0.470874, -0.543036, 0.335846, -2.08691, -2.17039, -0.114826, -0.000954135, 0.0456901, 0.0114359, 0.0160599, -0.00286204, -0.00569366
0.150048, 1.69562, -1.22536, -1.53849, -0.899777, -1.20233, 1.23083, -1.30259, 0.0441119, -0.0027828, 0.00112551, -0.00661901, -0.10605, 0.019801, 0.000742533, -0.206535, 57.4832, 27.5638, 6.32324, 1.69391, 3.14548, -0.0164075, -0.00187106, -0.000136066, 0.000314211, 0.00312563, -0.0116719, 0.000325723, 0.0490148, -0.0176098, -0.00667832, -0.0328795, 0.129746, 0.0173646, 0.470975, -0.541231, 0.336446, -2.08228, -2.1654, -0.130045, 0.470896, -0.543035, 0.335847, -2.08693, -2.17045, -0.114687, -0.000974976, 0.0463091, 0.0115835, 0.0181387, -0.000304441, -0.00321519
0.151048, 1.69566, -1.22536, -1.5385, -0.899777, -1.20243, 1.23086, -1.3026, 0.0406966, -0.0018518, -0.00100133, -0.00393465, -0.103225, 0.0186617, -0.000488322, -0.131157, 57.4832, 27.6392, 6.28357, 1.69391, 3.15921, 0.0101428, -0.00192324, -0.000121083, 0.00031926, 0.00313739, -0.0117881, 0.000327405, 0.0516471, -0.0148059, -0.00648185, -0.0324359, 0.128027, 0.0128198, 0.470974, -0.541185, 0.336457, -2.08224, -2.16539, -0.130049, 0.470911, -0.543039, 0.335845, -2.08695, -2.1705, -0.114559, -0.000996102, 0.0469312, 0.0117316, 0.0154204, -0.00242695, -0.00319919
0.152048, 1.69571, -1.22537, -1.5385, -0.89978, -1.20252, 1.23088, -1.3026, 0.0451459, -0.00290243, -0.000658885, -0.0029606, -0.0973227, 0.0186107, -0.00154625, -0.206535, 57.5546, 27.6392, 6.28357, 1.72504, 3.1528, 0.0431018, -0.00196993, -9.93624e-05, 0.000327059, 0.00315156, -0.0118988, 0.000313715, 0.049452, -0.0178227, -0.00714619, -0.0296167, 0.122598, 0.0196296, 0.470973, -0.541138, 0.336469, -2.08221, -2.16538, -0.130052, 0.470933, -0.543036, 0.335841, -2.08695, -2.17056, -0.114436, -0.00101751, 0.0475565, 0.0118804, 0.0183078, 0.000593963, -0.00345806
0.153048, 1.69575, -1.22537, -1.5385, -0.899784, -1.20261, 1.2309, -1.3026, 0.0415127, -0.00369628, 0.00190624, -0.00315488, -0.0957253, 0.0182862, 0.000189869, -0.131157, 57.63, 27.6749, 6.32324, 1.71863, 3.1528, 0.0101428, -0.00202145, -8.32399e-05, 0.000335574, 0.00316371, -0.0120056, 0.000316979, 0.0508457, -0.0164118, -0.00662179, -0.0263831, 0.120518, 0.0162987, 0.470972, -0.54109, 0.336481, -2.08218, -2.16537, -0.130056, 0.47095, -0.543037, 0.335836, -2.08697, -2.1706, -0.114317, -0.00103921, 0.0481849, 0.0120297, 0.0169474, -0.000292601, -0.00296673
0.154048, 1.69579, -1.22537, -1.5385, -0.899786, -1.2027, 1.23092, -1.30259, 0.0416992, -0.00246275, 0.000612203, -0.00446583, -0.0917596, 0.0175024, 0.00110992, -0.166862, 57.63, 27.7146, 6.28357, 1.74884, 3.16653, -0.0164075, -0.00207008, -6.36191e-05, 0.000340074, 0.00317671, -0.0121203, 0.000314183, 0.0503079, -0.0168637, -0.00666975, -0.026757, 0.118775, 0.0174424, 0.470971, -0.541042, 0.336493, -2.08214, -2.16536, -0.130059, 0.47097, -0.543035, 0.335835, -2.08698, -2.17065, -0.114189, -0.0010612, 0.0488164, 0.0121795, 0.0173558, 0.000896537, -0.00279564
0.155048, 1.69584, -1.22537, -1.5385, -0.89979, -1.2028, 1.23094, -1.3026, 0.0415221, -0.000805544, 0.000610182, -0.003378, -0.0879809, 0.0215146, -0.0014641, -0.206535, 57.5943, 27.7146, 6.28357, 1.76166, 3.17386, 0.0431018, -0.00211927, -4.54577e-05, 0.000342537, 0.00318744, -0.012235, 0.000302061, 0.0508658, -0.0176492, -0.00523385, -0.0207152, 0.119658, 0.0201932, 0.47097, -0.540993, 0.336505, -2.08211, -2.16535, -0.130063, 0.470989, -0.543034, 0.335837, -2.08698, -2.17072, -0.114066, -0.00108347, 0.049451, 0.01233, 0.0181919, 0.000791098, -0.00134086
0.156048, 1.69588, -1.22537, -1.5385, -0.899796, -1.20289, 1.23097, -1.3026, 0.0412646, -0.000536224, -0.00120491, -0.0034806, -0.0862609, 0.0210019, -0.000704798, -0.242241, 57.5943, 27.79, 6.32324, 1.80469, 3.15921, 0.0357776, -0.00216985, -2.64726e-05, 0.000349158, 0.00320013, -0.0123479, 0.000297154, 0.0515641, -0.0173037, -0.00581303, -0.0217987, 0.118844, 0.0190194, 0.470969, -0.540944, 0.336517, -2.08207, -2.16534, -0.130066, 0.471008, -0.543032, 0.335834, -2.08699, -2.17077, -0.113941, -0.00110604, 0.0500886, 0.012481, 0.0178285, 0.000815551, -0.00186174
0.157048, 1.69592, -1.22537, -1.53851, -0.899801, -1.20297, 1.23099, -1.30259, 0.0426621, -0.000356878, 0.000699, -0.00254584, -0.0833265, 0.0201503, 0.000716929, -0.206535, 57.5943, 27.8614, 6.32324, 1.81018, 3.15921, 0.00373412, -0.00222241, -1.12874e-05, 0.000355162, 0.00321024, -0.0124537, 0.000299775, 0.0507912, -0.018386, -0.0051089, -0.0191183, 0.116489, 0.0200931, 0.470968, -0.540894, 0.33653, -2.08203, -2.16533, -0.13007, 0.471024, -0.543033, 0.335832, -2.08701, -2.17081, -0.113825, -0.0011289, 0.0507293, 0.0126325, 0.0188849, 0.00215551, -0.000929413
0.158048, 1.69596, -1.22536, -1.53851, -0.899805, -1.20305, 1.23101, -1.3026, 0.0413674, -0.000237466, -0.000121859, -0.0018663, -0.0821862, 0.0238121, 0.000240594, -0.206535, 57.5943, 27.9011, 6.32324, 1.8349, 3.15921, 0.0101428, -0.00227448, 6.14821e-06, 0.000359538, 0.00321791, -0.0125643, 0.000295766, 0.0525402, -0.0181591, -0.00489019, -0.0154661, 0.117895, 0.0187545, 0.470967, -0.540843, 0.336542, -2.082, -2.16532, -0.130073, 0.471042, -0.543032, 0.335831, -2.08702, -2.17086, -0.113709, -0.00115205, 0.051373, 0.0127846, 0.0187072, 0.00103017, -0.000829711
0.159048, 1.696, -1.22536, -1.53851, -0.899811, -1.20313, 1.23103, -1.3026, 0.0382314, -0.000993189, 0.0011019, -0.00137101, -0.0801441, 0.0222273, -0.000551681, -0.242241, 57.63, 27.8614, 6.32324, 1.82941, 3.15921, 0.0293689, -0.00232407, 2.43167e-05, 0.000365179, 0.003222, -0.0126601, 0.000284491, 0.0539951, -0.0164561, -0.00486173, -0.014053, 0.114916, 0.017338, 0.470966, -0.540792, 0.336555, -2.08196, -2.16531, -0.130077, 0.471061, -0.543028, 0.33583, -2.08702, -2.17092, -0.113612, -0.0011755, 0.0520197, 0.0129373, 0.0170373, 0.000166197, -0.000825423
0.160048, 1.69603, -1.22537, -1.53851, -0.899814, -1.20321, 1.23105, -1.3026, 0.0371225, -0.00149709, -0.00167252, -8.10946e-05, -0.0798652, 0.0161267, -0.000367787, -0.206535, 57.6657, 27.9725, 6.28357, 1.85962, 3.17386, 0.0293689, -0.00238008, 3.7139e-05, 0.000374434, 0.00323618, -0.01276, 0.000288345, 0.0554829, -0.01398, -0.00648941, -0.0207852, 0.111666, 0.0137162, 0.470965, -0.54074, 0.336568, -2.08192, -2.1653, -0.130081, 0.471074, -0.543029, 0.335825, -2.08703, -2.17095, -0.113498, -0.00119924, 0.0526694, 0.0130904, 0.0145346, -0.000502547, -0.00243663
0.161048, 1.69607, -1.22536, -1.53851, -0.89982, -1.20328, 1.23106, -1.30259, 0.0378903, 0.00160059, -0.000971505, -0.000125393, -0.0782078, 0.0167142, 0.00145023, -0.242241, 57.5546, 27.9725, 6.28357, 1.84772, 3.16653, -0.0164075, -0.00242871, 5.59311e-05, 0.000373747, 0.00323932, -0.012866, 0.000282509, 0.0550839, -0.014782, -0.00446143, -0.0186058, 0.114135, 0.0135789, 0.470963, -0.540687, 0.336581, -2.08189, -2.16528, -0.130085, 0.471094, -0.543024, 0.33583, -2.08704, -2.17101, -0.113391, -0.00122328, 0.0533221, 0.0132441, 0.015373, 0.000263176, -0.000245236
0.162048, 1.69611, -1.22536, -1.53851, -0.899829, -1.20335, 1.23108, -1.30259, 0.0380049, -0.000696036, -0.000540041, -0.00330132, -0.0770369, 0.0171144, 0.000458193, -0.242241, 57.63, 27.9725, 6.28357, 1.8349, 3.15921, -0.00267457, -0.00247886, 7.50503e-05, 0.000382583, 0.00324608, -0.0129566, 0.000268555, 0.0547041, -0.0158857, -0.00612418, -0.0189192, 0.111816, 0.0181667, 0.470962, -0.540634, 0.336594, -2.08185, -2.16527, -0.130089, 0.471113, -0.543018, 0.335826, -2.08703, -2.17106, -0.113296, -0.00124762, 0.0539777, 0.0133983, 0.0163755, 0.00159843, -0.00170917
0.163048, 1.69615, -1.22536, -1.53851, -0.899826, -1.20342, 1.23109, -1.3026, 0.0378263, -0.000463916, 0.00287006, -0.00534763, -0.0767945, 0.0165727, -0.00111869, -0.242241, 57.63, 27.9725, 6.13678, 1.84131, 3.17386, 0.0357776, -0.00253287, 9.01905e-05, 0.000385366, 0.00324796, -0.0130534, 0.000263643, 0.054012, -0.0167702, -0.00515279, -0.0170788, 0.112, 0.0231157, 0.470961, -0.54058, 0.336608, -2.08181, -2.16526, -0.130092, 0.471129, -0.543016, 0.335828, -2.08703, -2.17111, -0.1132, -0.00127226, 0.0546363, 0.013553, 0.0172457, 0.00282688, -0.000516529
0.164048, 1.69619, -1.22537, -1.53851, -0.899839, -1.2035, 1.2311, -1.3026, 0.0378782, -0.00290765, 0.000473123, -0.0090801, -0.0722589, 0.0165538, -0.000271076, -0.242241, 57.7411, 28.0478, 6.20819, 1.85321, 3.18118, 0.0229602, -0.00258584, 0.000106194, 0.00039856, 0.00326637, -0.0131425, 0.000255482, 0.0533989, -0.0177717, -0.00802231, -0.0189237, 0.106815, 0.0260656, 0.47096, -0.540525, 0.336621, -2.08177, -2.16525, -0.130096, 0.471145, -0.543011, 0.33582, -2.08702, -2.17115, -0.113094, -0.0012972, 0.0552977, 0.0137082, 0.0180919, 0.00458148, -0.00313105
0.165048, 1.69622, -1.22536, -1.53851, -0.899847, -1.20356, 1.23111, -1.30259, 0.0329445, -0.000175137, 0.00560748, -0.00687439, -0.0722052, 0.0121889, 0.00127734, -0.166862, 57.6657, 27.9725, 6.20819, 1.8349, 3.18851, -0.0164075, -0.00263761, 0.000121633, 0.000399939, 0.00326906, -0.013237, 0.00025142, 0.0551315, -0.0145639, -0.00446536, -0.0160225, 0.107101, 0.0201479, 0.470958, -0.54047, 0.336635, -2.08173, -2.16524, -0.1301, 0.471161, -0.543006, 0.335823, -2.08702, -2.17119, -0.113, -0.00132244, 0.0559621, 0.013864, 0.0150595, 0.00285014, 0.00036283
0.166048, 1.69626, -1.22536, -1.53851, -0.899855, -1.20363, 1.23112, -1.3026, 0.0343292, -0.00104473, 0.00243065, -0.00750666, -0.0730725, 0.0138607, -0.000606499, -0.166862, 57.7054, 28.0478, 6.17248, 1.8349, 3.18118, 0.0229602, -0.00269136, 0.0001374, 0.000408148, 0.00327979, -0.013328, 0.000239634, 0.0561042, -0.0151525, -0.00615647, -0.0182053, 0.108563, 0.0222251, 0.470957, -0.540414, 0.336649, -2.08169, -2.16522, -0.130104, 0.471177, -0.543001, 0.33582, -2.08701, -2.17124, -0.112901, -0.00134799, 0.0566293, 0.0140202, 0.0155943, 0.0028453, -0.00132303
0.167048, 1.6963, -1.22536, -1.53851, -0.899865, -1.2037, 1.23113, -1.30259, 0.0353741, -0.00153167, 0.0019621, -0.00888992, -0.0694284, 0.0144201, 0.000545103, -0.166862, 57.7411, 28.0478, 6.17248, 1.84772, 3.18851, -0.00267457, -0.00274422, 0.000154284, 0.00041422, 0.00328947, -0.0134226, 0.00023148, 0.0553973, -0.0164925, -0.00686409, -0.0171373, 0.106039, 0.0243806, 0.470956, -0.540357, 0.336663, -2.08165, -2.16521, -0.130108, 0.471194, -0.542995, 0.335819, -2.087, -2.17129, -0.112799, -0.00137384, 0.0572994, 0.0141769, 0.0168549, 0.00437969, -0.00179789
0.168048, 1.69633, -1.22536, -1.53851, -0.899872, -1.20377, 1.23114, -1.30259, 0.0373772, -0.000185871, 0.00378321, -0.0121596, -0.0707463, 0.0108459, 0.00158411, -0.0914839, 57.7054, 28.0875, 6.13678, 1.84131, 3.18851, -0.0356336, -0.00280047, 0.000166094, 0.000418421, 0.00329867, -0.0135153, 0.000233498, 0.053608, -0.0178471, -0.00634717, -0.0208324, 0.107416, 0.0286185, 0.470954, -0.5403, 0.336677, -2.08161, -2.1652, -0.130113, 0.471206, -0.542992, 0.33582, -2.087, -2.17132, -0.112698, -0.0014, 0.0579723, 0.0143341, 0.0181361, 0.00679561, -0.000894289
0.169048, 1.69637, -1.22536, -1.53851, -0.899884, -1.20383, 1.23114, -1.30259, 0.0363267, -0.00262955, 0.00297657, -0.0123243, -0.0672732, 0.0129504, 0.000818711, -0.166862, 57.8125, 28.0875, 6.13678, 1.84131, 3.17386, -0.0292249, -0.00284989, 0.000187305, 0.000428224, 0.00330625, -0.0135956, 0.000211549, 0.0546533, -0.0179775, -0.00791053, -0.0180903, 0.10369, 0.0293827, 0.470953, -0.540242, 0.336692, -2.08157, -2.16519, -0.130117, 0.471228, -0.54298, 0.335816, -2.08698, -2.17137, -0.112615, -0.00142646, 0.058648, 0.0144917, 0.0182198, 0.00668886, -0.00244982
0.170048, 1.6964, -1.22535, -1.5385, -0.899891, -1.20389, 1.23115, -1.3026, 0.0316757, 0.00395473, 0.0023252, -0.0107795, -0.0639347, 0.0142515, -0.00162433, -0.0914839, 57.7054, 28.0875, 6.0614, 1.82941, 3.16653, 0.0293689, -0.00290636, 0.000198964, 0.000428973, 0.00330876, -0.0136878, 0.000202327, 0.0568517, -0.0153946, -0.00373938, -0.0138477, 0.108381, 0.0266112, 0.470951, -0.540183, 0.336706, -2.08153, -2.16517, -0.130121, 0.47124, -0.542977, 0.335821, -2.08697, -2.17142, -0.112523, -0.00145324, 0.0593266, 0.0146499, 0.0158506, 0.0044419, 0.00155995
0.171048, 1.69644, -1.22535, -1.5385, -0.899906, -1.20395, 1.23115, -1.30259, 0.0342146, 0.000397683, 0.000970537, -0.0121901, -0.0662047, 0.010645, -0.000133452, -0.131157, 57.8125, 28.1232, 6.09711, 1.823, 3.16653, 0.00373412, -0.00295734, 0.000218484, 0.00043915, 0.00331935, -0.0137681, 0.000184914, 0.0567066, -0.0160544, -0.00700499, -0.0204205, 0.105708, 0.0275572, 0.47095, -0.540124, 0.336721, -2.08148, -2.16516, -0.130125, 0.471259, -0.542965, 0.335816, -2.08694, -2.17147, -0.112436, -0.00148032, 0.0600079, 0.0148084, 0.016355, 0.00580251, -0.001505
0.172048, 1.69647, -1.22536, -1.5385, -0.899913, -1.204, 1.23116, -1.30259, 0.0300235, -0.0021332, 0.0040092, -0.0097678, -0.0642294, 0.00822597, 0.00136909, -0.0557783, 57.9236, 28.1232, 5.98602, 1.8349, 3.15921, -0.0356336, -0.00301532, 0.000231599, 0.000447497, 0.00332211, -0.0138476, 0.000184296, 0.0589597, -0.01352, -0.00713398, -0.0172354, 0.100296, 0.0219892, 0.470949, -0.540064, 0.336735, -2.08144, -2.16515, -0.130129, 0.471273, -0.54296, 0.335813, -2.08694, -2.1715, -0.112357, -0.00150772, 0.0606919, 0.0149675, 0.0138745, 0.00417764, -0.00174928
0.173048, 1.69651, -1.22535, -1.53849, -0.899932, -1.20406, 1.23116, -1.30259, 0.0321933, -0.000436808, 0.00391601, -0.0115087, -0.0577813, 0.00663612, 0.000438012, -0.0557783, 57.8879, 28.0875, 6.02173, 1.84131, 3.14548, -0.0228162, -0.00306605, 0.000250107, 0.000449158, 0.0033272, -0.0139383, 0.000161397, 0.0565977, -0.0155202, -0.00673106, -0.0165612, 0.0966354, 0.0287141, 0.470947, -0.540003, 0.33675, -2.0814, -2.16513, -0.130134, 0.471292, -0.542949, 0.335818, -2.08691, -2.17156, -0.112266, -0.00153542, 0.0613787, 0.015127, 0.0157737, 0.00721742, -0.000886369
0.174048, 1.69654, -1.22535, -1.53849, -0.899945, -1.20412, 1.23116, -1.3026, 0.0337854, -0.00194187, 0.00453541, -0.0109896, -0.0580054, 0.00439809, -0.00116605, -0.0557783, 57.9633, 28.1589, 5.98602, 1.85321, 3.15921, 0.0165515, -0.00312047, 0.000265692, 0.000457899, 0.00334048, -0.0140183, 0.000143013, 0.0565788, -0.0160041, -0.00765674, -0.0180538, 0.0946645, 0.031724, 0.470946, -0.539942, 0.336766, -2.08135, -2.16512, -0.130138, 0.471307, -0.542939, 0.335815, -2.08688, -2.17161, -0.112176, -0.00156344, 0.0620682, 0.0152869, 0.016194, 0.00809066, -0.00165453
0.175048, 1.69657, -1.22535, -1.53849, -0.899958, -1.20417, 1.23117, -1.30259, 0.0331355, -0.00288058, 0.0048194, -0.0137414, -0.0575196, 0.00407393, 0.000205975, 0.0196001, 58.0347, 28.2343, 5.95032, 1.85321, 3.13815, -0.00999879, -0.00317628, 0.000281525, 0.000465194, 0.0033433, -0.0140976, 0.000132726, 0.0566641, -0.0163242, -0.0085345, -0.0189818, 0.0938764, 0.0324913, 0.470944, -0.53988, 0.336781, -2.08131, -2.16511, -0.130143, 0.471323, -0.54293, 0.335814, -2.08687, -2.17165, -0.112098, -0.00159178, 0.0627604, 0.0154473, 0.0164558, 0.00884956, -0.00238619
0.176048, 1.6966, -1.22534, -1.53849, -0.899974, -1.20422, 1.23117, -1.30259, 0.0318419, 0.000338071, 0.00700575, -0.0188854, -0.0578098, 0.00352997, 0.00156147, 0.134651, 58.0704, 28.2343, 5.91064, 1.86603, 3.1235, -0.0484509, -0.00323231, 0.000294481, 0.000469465, 0.00334429, -0.0141737, 0.00012467, 0.0556607, -0.0169478, -0.0066044, -0.0194612, 0.0978278, 0.035301, 0.470942, -0.539817, 0.336796, -2.08126, -2.16509, -0.130147, 0.471337, -0.542921, 0.335816, -2.08685, -2.17168, -0.112025, -0.00162043, 0.0634553, 0.0156081, 0.0170864, 0.0102613, -0.000184449
0.177048, 1.69663, -1.22534, -1.53848, -0.899989, -1.20426, 1.23117, -1.30259, 0.0337328, 0.00191523, 0.0076518, -0.0156841, -0.0531104, 0.00255692, 0.000566262, 0.134651, 58.1458, 28.274, 5.83527, 1.87793, 3.1235, -0.0356336, -0.00328543, 0.00031369, 0.000476686, 0.00334753, -0.0142506, 0.000101491, 0.0551638, -0.0177295, -0.00525023, -0.0160502, 0.0952832, 0.0372548, 0.470941, -0.539753, 0.336812, -2.08122, -2.16508, -0.130152, 0.471356, -0.542908, 0.335816, -2.08682, -2.17174, -0.11195, -0.00164939, 0.0641529, 0.0157694, 0.0178714, 0.0112721, 0.00136469
0.178048, 1.69667, -1.22533, -1.53847, -0.900011, -1.20431, 1.23117, -1.30259, 0.0341513, 0.00581672, 0.00906808, -0.0151913, -0.054204, 0.00212859, 0.000140149, 0.170357, 58.11, 28.274, 5.83527, 1.89075, 3.11618, -0.0292249, -0.00333676, 0.000332251, 0.000476937, 0.00334531, -0.0143329, 7.84831e-05, 0.0553389, -0.017831, -0.0024848, -0.0150258, 0.100224, 0.037944, 0.470939, -0.539689, 0.336828, -2.08117, -2.16506, -0.130156, 0.471375, -0.542894, 0.335822, -2.08679, -2.1718, -0.111876, -0.00167868, 0.0648531, 0.015931, 0.0180547, 0.0113738, 0.00422311
0.179048, 1.6967, -1.22533, -1.53847, -0.900031, -1.20435, 1.23117, -1.30259, 0.0343206, 0.00497147, 0.00972308, -0.0169302, -0.0512927, 0.00204222, -0.00112727, 0.21003, 58.2172, 28.4208, 5.79956, 1.92737, 3.10245, 0.00373412, -0.00339097, 0.000349365, 0.000484679, 0.00335045, -0.0144054, 5.43256e-05, 0.0548278, -0.0187643, -0.00306589, -0.0139496, 0.0975689, 0.042262, 0.470937, -0.539624, 0.336844, -2.08113, -2.16505, -0.130161, 0.471392, -0.542881, 0.335821, -2.08675, -2.17185, -0.111804, -0.00170828, 0.065556, 0.0160931, 0.0189171, 0.0127115, 0.00386018
0.180048, 1.69673, -1.22532, -1.53846, -0.90005, -1.20439, 1.23117, -1.30259, 0.0346664, 0.00487208, 0.00987861, -0.0173965, -0.0485971, 0.000938751, 0.000706548, 0.245735, 58.1815, 28.4565, 5.72418, 1.95209, 3.11618, -0.0356336, -0.00344327, 0.000366593, 0.000483258, 0.00334758, -0.0144854, 3.55683e-05, 0.0545884, -0.0191984, -0.00330599, -0.0136324, 0.0952608, 0.042204, 0.470936, -0.539559, 0.33686, -2.08108, -2.16503, -0.130166, 0.471409, -0.542866, 0.33583, -2.08673, -2.1719, -0.111733, -0.0017382, 0.0662614, 0.0162556, 0.0193034, 0.0137096, 0.00380727
0.181048, 1.69673, -1.22532, -1.53846, -0.90005, -1.20439, 1.23117, -1.30259, 0.0346664, 0.00487208, 0.00987861, -0.0173965, -0.0485971, 0.000938751, 0.000706548, 0.245735, 58.1815, 28.4565, 5.72418, 1.95209, 3.11618, -0.0356336, -0.00351131, 0.000366023, 0.000488786, 0.00331957, -0.0145194, 4.99074e-05, 0.0553143, -0.0192033, -0.00335291, -0.0134759, 0.0957611, 0.0422584, 0.470934, -0.539493, 0.336876, -2.08103, -2.16502, -0.13017, 0.471409, -0.542866, 0.33583, -2.08673, -2.1719, -0.111733, -0.00176845, 0.0669695, 0.0164185, 0.0193034, 0.0137096, 0.00380727
0.182048, 1.69675, -1.22532, -1.53846, -0.900075, -1.20442, 1.23117, -1.30259, 0.0268789, -0.000571734, 0.00745195, -0.0195681, -0.0420583, 0.000927617, -0.00146175, 0.360787, 58.3679, 28.6072, 5.72418, 1.9823, 3.10977, 0.0165515, -0.00356908, 0.000380467, 0.000499239, 0.00331907, -0.0145821, 2.43876e-05, 0.0586079, -0.0157321, -0.00737733, -0.0127685, 0.0855744, 0.0398323, 0.470932, -0.539426, 0.336892, -2.08098, -2.165, -0.130175, 0.471424, -0.542854, 0.335826, -2.08669, -2.17195, -0.111677, -0.00179901, 0.0676801, 0.0165817, 0.0157752, 0.0116518, -0.000412147
0.183048, 1.6968, -1.2253, -1.53845, -0.900121, -1.20449, 1.23117, -1.30258, 0.0242941, 0.0023392, 0.00666619, -0.0233218, -0.0372758, 0.000661569, 0.000955333, 0.475838, 58.5147, 28.7937, 5.6131, 2.01984, 3.10245, -0.0420422, -0.00361078, 0.000413369, 0.000498592, 0.00333414, -0.0146904, -2.88733e-05, 0.0582868, -0.0154237, -0.00640835, -0.0124194, 0.0852412, 0.0393735, 0.47093, -0.539358, 0.336909, -2.08094, -2.16499, -0.13018, 0.471456, -0.542826, 0.335836, -2.08663, -2.17204, -0.111561, -0.0018299, 0.0683933, 0.0167454, 0.0154618, 0.0125188, 0.00076582
0.184048, 1.69683, -1.22529, -1.53843, -0.900146, -1.20451, 1.23117, -1.30259, 0.0279452, 0.00449013, 0.00787542, -0.0262179, -0.0335857, 0.000196958, 0.0046144, 0.475838, 58.5504, 28.8294, 5.57739, 2.05005, 3.10977, -0.0228162, -0.00366277, 0.000432399, 0.000497605, 0.00332251, -0.0147612, -6.20788e-05, 0.0552958, -0.0186326, -0.00540867, -0.0115911, 0.0849462, 0.0436847, 0.470929, -0.53929, 0.336926, -2.08089, -2.16497, -0.130185, 0.471476, -0.542808, 0.335845, -2.08659, -2.17211, -0.11151, -0.00186112, 0.069109, 0.0169095, 0.0185641, 0.0161663, 0.00228293
0.185048, 1.69685, -1.22527, -1.53843, -0.900174, -1.20454, 1.23117, -1.30259, 0.0259749, 0.00989896, 0.00762827, -0.025243, -0.0307114, 0.000422956, 0.00177164, 0.551216, 58.5504, 28.9048, 5.53772, 2.07477, 3.10245, 0.0229602, -0.00371874, 0.000447698, 0.000496828, 0.00331448, -0.0148371, -8.78327e-05, 0.0561803, -0.0175295, -0.00210336, -0.00890941, 0.0884522, 0.0445174, 0.470927, -0.53922, 0.336943, -2.08084, -2.16496, -0.13019, 0.471491, -0.542794, 0.335853, -2.08655, -2.17217, -0.11145, -0.00189266, 0.0698272, 0.0170739, 0.0175893, 0.0154506, 0.00560324
0.186048, 1.69687, -1.22527, -1.53842, -0.900207, -1.20456, 1.23117, -1.30258, 0.0228225, 0.00969277, 0.00918758, -0.0262865, -0.0275063, 0.000839794, 0.00364433, 0.551216, 58.7329, 28.9048, 5.57739, 2.07477, 3.0878, -0.0356336, -0.00377147, 0.000467079, 0.000502219, 0.00330357, -0.0148951, -0.000118753, 0.0571148, -0.0167131, -0.00167246, -0.00555691, 0.0862227, 0.0423271, 0.470925, -0.539151, 0.33696, -2.08079, -2.16494, -0.130195, 0.47151, -0.542775, 0.335856, -2.08651, -2.17222, -0.111411, -0.00192452, 0.0705479, 0.0172387, 0.0167933, 0.0151483, 0.00606976
0.187048, 1.6969, -1.22526, -1.53841, -0.900235, -1.20458, 1.23117, -1.30258, 0.0244717, 0.0100358, 0.00858997, -0.0274133, -0.0211596, 0.000842596, 0.00288674, 0.511544, 58.7726, 28.9802, 5.50201, 2.09308, 3.08047, -0.0420422, -0.00382645, 0.000485939, 0.000503302, 0.00329253, -0.0149667, -0.000148345, 0.0556232, -0.0185017, -0.00199236, -0.00372698, 0.082069, 0.0475931, 0.470923, -0.53908, 0.336977, -2.08074, -2.16492, -0.1302, 0.471529, -0.542757, 0.335862, -2.08647, -2.17228, -0.111359, -0.00195671, 0.0712712, 0.0174039, 0.0184812, 0.0174695, 0.00609461
0.188048, 1.69691, -1.22525, -1.5384, -0.900269, -1.2046, 1.23117, -1.30259, 0.0229988, 0.00833669, 0.0059464, -0.0269488, -0.0252722, 0.00057033, 0.000156581, 0.586922, 58.8837, 29.0159, 5.50201, 2.09949, 3.08047, 0.0101428, -0.00388212, 0.000502554, 0.000505282, 0.00327922, -0.0150309, -0.000181928, 0.0586653, -0.0166311, -0.00384174, -0.00775154, 0.0842088, 0.0459061, 0.470921, -0.539009, 0.336994, -2.08069, -2.16491, -0.130205, 0.471546, -0.54274, 0.335868, -2.08642, -2.17234, -0.111317, -0.00198923, 0.0719968, 0.0175694, 0.0166225, 0.0154036, 0.0040128
0.189048, 1.69693, -1.22523, -1.53839, -0.900307, -1.20461, 1.23117, -1.30259, 0.022979, 0.00897094, 0.00711278, -0.0305148, -0.0240939, 0.00116656, -9.32041e-06, 0.626595, 58.9194, 29.0555, 5.53772, 2.1178, 3.05942, 0.0165515, -0.00393664, 0.000519636, 0.000505003, 0.00326784, -0.0150986, -0.000215043, 0.0578852, -0.0178616, -0.00354749, -0.00712595, 0.0849314, 0.0501795, 0.470919, -0.538937, 0.337012, -2.08064, -2.16489, -0.13021, 0.471563, -0.542721, 0.335877, -2.08637, -2.1724, -0.11127, -0.00202208, 0.072725, 0.0177353, 0.0178016, 0.0169084, 0.0045502
