alisrour97/Franka_experiments/Real_Robot_scripts/servo-franka/Data3/log_dyn_INIT0_l_ki_3.csv
Time,q1,q2,q3,q4,q5,q6,q7,dq1,dq2,dq3,dq4,dq5,dq6,dq7,t1,t2,t3,t4,t5,t6,t7,ex1,ex2,ex3,ex4,ex5,ex6,ev1,ev2,ev3,ev4,ev5,ev6,xd,yd,zd,uxd,uyd,uzd,x,y,z,ux,uy,uz,vxd,vyd,vzd,vx,vy,vz
1.2207e-06, 1.69138, -1.22608, -1.53798, -0.90005, -1.19181, 1.22856, -1.30301, -0.00686251, -0.00212937, 0.00034716, -0.00246296, 0.00555811, -8.49705e-05, -0.00068556, -0.583427, 58.9551, 27.79, 6.54541, 1.60144, 3.05209, 0.245433, 0.000900304, -0.00154128, 0.000375351, 0.000207822, 2.98753e-05, -0.000430667, 0.00134239, 0.00258961, -0.00111541, 0.00253664, -0.00672549, -0.0018656, 0.471008, -0.543389, 0.335894, -2.08385, -2.16584, -0.129887, 0.469431, -0.542499, 0.335711, -2.08326, -2.16622, -0.129725, -4.82042e-07, 4.44613e-06, 1.21621e-06, -0.00257901, -0.00125507, -0.00123047
0.0122476, 1.69135, -1.22608, -1.53798, -0.900046, -1.19178, 1.22856, -1.30302, -0.00189291, 0.00153899, -0.000538857, 0.000982477, 0.00218138, -0.00018409, -0.0010619, -0.543754, 58.9194, 27.8257, 6.54541, 1.60144, 3.05209, 0.271984, 0.00089531, -0.00155226, 0.000371797, 0.000182012, 5.96704e-05, -0.000418285, 0.000661039, 0.00119098, 0.000930781, 0.00127649, -0.000446127, -0.00122029, 0.471008, -0.543389, 0.335894, -2.08385, -2.16584, -0.129887, 0.469412, -0.542512, 0.335712, -2.08328, -2.16618, -0.129787, -1.47349e-06, 1.36697e-05, 3.70923e-06, -0.00113368, -0.000830916, 0.000856082
0.0132476, 1.69135, -1.22608, -1.53798, -0.900046, -1.19178, 1.22856, -1.30302, -0.00189291, 0.00153899, -0.000538857, 0.000982477, 0.00218138, -0.00018409, -0.0010619, -0.543754, 58.9194, 27.8257, 6.54541, 1.60144, 3.05209, 0.271984, 0.000895303, -0.00155226, 0.000371798, 0.000182011, 5.96678e-05, -0.000418284, 0.000674787, 0.00118999, 0.000929332, 0.00127843, -0.000439951, -0.00121914, 0.471008, -0.543389, 0.335894, -2.08385, -2.16584, -0.129887, 0.469412, -0.542512, 0.335712, -2.08328, -2.16618, -0.129787, -2.9032e-06, 2.69793e-05, 7.30333e-06, -0.00113368, -0.000830916, 0.000856082
0.0142478, 1.69135, -1.22608, -1.53798, -0.900046, -1.19178, 1.22856, -1.30302, -0.00189291, 0.00153899, -0.000538857, 0.000982477, 0.00218138, -0.00018409, -0.0010619, -0.543754, 58.9194, 27.8257, 6.54541, 1.60144, 3.05209, 0.271984, 0.000895283, -0.00155225, 0.0003718, 0.000182005, 5.96608e-05, -0.000418282, 0.000693409, 0.00118865, 0.000927373, 0.00128107, -0.00043158, -0.00121759, 0.471008, -0.543389, 0.335894, -2.08385, -2.16584, -0.129887, 0.469412, -0.542512, 0.335712, -2.08328, -2.16618, -0.129787, -4.83863e-06, 4.50071e-05, 1.21677e-05, -0.00113368, -0.000830916, 0.000856082
0.0152478, 1.69135, -1.22608, -1.53798, -0.900046, -1.19178, 1.22856, -1.30302, -0.00189291, 0.00153899, -0.000538857, 0.000982477, 0.00218138, -0.00018409, -0.0010619, -0.543754, 58.9194, 27.8257, 6.54541, 1.60144, 3.05209, 0.271984, 0.000895243, -0.00155225, 0.000371804, 0.000181995, 5.96472e-05, -0.000418277, 0.000717494, 0.00118691, 0.000924845, 0.00128449, -0.000420745, -0.00121558, 0.471008, -0.543389, 0.335894, -2.08385, -2.16584, -0.129887, 0.469412, -0.542512, 0.335712, -2.08328, -2.16618, -0.129787, -7.34058e-06, 6.83239e-05, 1.84546e-05, -0.00113368, -0.000830916, 0.000856082
0.0162478, 1.69135, -1.22608, -1.53798, -0.900046, -1.19178, 1.22856, -1.30302, -0.00189291, 0.00153899, -0.000538857, 0.000982477, 0.00218138, -0.00018409, -0.0010619, -0.543754, 58.9194, 27.8257, 6.54541, 1.60144, 3.05209, 0.271984, 0.000895179, -0.00155225, 0.000371811, 0.000181978, 5.96248e-05, -0.000418269, 0.000747542, 0.00118475, 0.000921695, 0.00128877, -0.000407219, -0.00121307, 0.471008, -0.543389, 0.335894, -2.08385, -2.16584, -0.129887, 0.469412, -0.542512, 0.335712, -2.08328, -2.16618, -0.129787, -1.04607e-05, 9.7416e-05, 2.62933e-05, -0.00113368, -0.000830916, 0.000856082
0.017248, 1.69135, -1.22608, -1.53798, -0.900046, -1.19178, 1.22856, -1.30302, -0.00189291, 0.00153899, -0.000538857, 0.000982477, 0.00218138, -0.00018409, -0.0010619, -0.543754, 58.9194, 27.8257, 6.54541, 1.60144, 3.05209, 0.271984, 0.000895082, -0.00155224, 0.000371821, 0.000181953, 5.95914e-05, -0.000418258, 0.000783947, 0.00118213, 0.000917885, 0.00129397, -0.000390822, -0.00121003, 0.471008, -0.543389, 0.335894, -2.08385, -2.16584, -0.129887, 0.469412, -0.542512, 0.335712, -2.08328, -2.16618, -0.129787, -1.42391e-05, 0.000132663, 3.57838e-05, -0.00113368, -0.000830916, 0.000856082
0.018248, 1.69135, -1.22608, -1.53798, -0.900046, -1.19178, 1.22856, -1.30302, -0.00189291, 0.00153899, -0.000538857, 0.000982477, 0.00218138, -0.00018409, -0.0010619, -0.543754, 58.9194, 27.8257, 6.54541, 1.60144, 3.05209, 0.271984, 0.000894948, -0.00155223, 0.000371835, 0.000181918, 5.95448e-05, -0.000418242, 0.000826964, 0.00117904, 0.000913391, 0.00130013, -0.000371434, -0.00120644, 0.471008, -0.543389, 0.335894, -2.08385, -2.16584, -0.129887, 0.469412, -0.542512, 0.335712, -2.08328, -2.16618, -0.129787, -1.87016e-05, 0.000174312, 4.69907e-05, -0.00113368, -0.000830916, 0.000856082
0.0192483, 1.69135, -1.22608, -1.53798, -0.900046, -1.19178, 1.22856, -1.30302, -0.00189291, 0.00153899, -0.000538857, 0.000982477, 0.00218138, -0.00018409, -0.0010619, -0.543754, 58.9194, 27.8257, 6.54541, 1.60144, 3.05209, 0.271984, 0.00089477, -0.00155222, 0.000371854, 0.000181871, 5.94828e-05, -0.000418221, 0.00087669, 0.00117547, 0.000908204, 0.00130727, -0.000349007, -0.00120229, 0.471008, -0.543389, 0.335894, -2.08385, -2.16584, -0.129887, 0.469412, -0.542512, 0.335712, -2.08328, -2.16618, -0.129787, -2.38577e-05, 0.00022246, 5.99368e-05, -0.00113368, -0.000830916, 0.000856082
0.0202488, 1.69135, -1.22608, -1.53798, -0.900046, -1.19178, 1.22856, -1.30302, -0.00189291, 0.00153899, -0.000538857, 0.000982477, 0.00218138, -0.00018409, -0.0010619, -0.543754, 58.9194, 27.8257, 6.54541, 1.60144, 3.05209, 0.271984, 0.000894541, -0.0015522, 0.000371878, 0.000181812, 5.94033e-05, -0.000418195, 0.000933042, 0.00117143, 0.000902337, 0.00131539, -0.000323575, -0.00119758, 0.471008, -0.543389, 0.335894, -2.08385, -2.16584, -0.129887, 0.469412, -0.542512, 0.335712, -2.08328, -2.16618, -0.129787, -2.96979e-05, 0.000277024, 7.45974e-05, -0.00113368, -0.000830916, 0.000856082
0.021249, 1.69135, -1.22608, -1.53798, -0.900046, -1.19178, 1.22856, -1.30302, -0.00189291, 0.00153899, -0.000538857, 0.000982477, 0.00218138, -0.00018409, -0.0010619, -0.543754, 58.9194, 27.8257, 6.54541, 1.60144, 3.05209, 0.271984, 0.000894256, -0.00155218, 0.000371908, 0.000181737, 5.9304e-05, -0.000418161, 0.000995731, 0.00116694, 0.000895823, 0.00132444, -0.000295262, -0.00119235, 0.471008, -0.543388, 0.335894, -2.08385, -2.16584, -0.129887, 0.469412, -0.542512, 0.335712, -2.08328, -2.16618, -0.129787, -3.61913e-05, 0.000337726, 9.08941e-05, -0.00113368, -0.000830916, 0.000856082
0.0222493, 1.69135, -1.22608, -1.53798, -0.900046, -1.19178, 1.22856, -1.30302, -0.00189291, 0.00153899, -0.000538857, 0.000982477, 0.00218138, -0.00018409, -0.0010619, -0.543754, 58.9194, 27.8257, 6.54541, 1.60144, 3.05209, 0.271984, 0.000893908, -0.00155216, 0.000371945, 0.000181646, 5.91829e-05, -0.000418121, 0.00106454, 0.00116201, 0.000888686, 0.00133442, -0.000264159, -0.00118659, 0.471008, -0.543388, 0.335894, -2.08385, -2.16584, -0.129887, 0.469412, -0.542512, 0.335712, -2.08328, -2.16618, -0.129787, -4.33151e-05, 0.00040436, 0.000108769, -0.00113368, -0.000830916, 0.000856082
0.0232495, 1.69135, -1.22608, -1.53798, -0.900046, -1.19178, 1.22856, -1.30302, -0.00189291, 0.00153899, -0.000538857, 0.000982477, 0.00218138, -0.00018409, -0.0010619, -0.543754, 58.9194, 27.8257, 6.54541, 1.60144, 3.05209, 0.271984, 0.000893491, -0.00155213, 0.000371989, 0.000181536, 5.90376e-05, -0.000418072, 0.00113945, 0.00115665, 0.000880933, 0.00134531, -0.000230275, -0.00118033, 0.471008, -0.543388, 0.335894, -2.08385, -2.16584, -0.129887, 0.469412, -0.542512, 0.335712, -2.08328, -2.16618, -0.129787, -5.10658e-05, 0.000476901, 0.000128212, -0.00113368, -0.000830916, 0.000856082
0.0242498, 1.69135, -1.22608, -1.53798, -0.900046, -1.19178, 1.22856, -1.30302, -0.00189291, 0.00153899, -0.000538857, 0.000982477, 0.00218138, -0.00018409, -0.0010619, -0.543754, 58.9194, 27.8257, 6.54541, 1.60144, 3.05209, 0.271984, 0.000892999, -0.00155209, 0.00037204, 0.000181407, 5.88662e-05, -0.000418014, 0.00122043, 0.00115087, 0.000872568, 0.00135712, -0.000193617, -0.00117356, 0.471008, -0.543387, 0.335894, -2.08385, -2.16584, -0.129887, 0.469412, -0.542512, 0.335712, -2.08328, -2.16618, -0.129787, -5.94401e-05, 0.000555325, 0.000149214, -0.00113368, -0.000830916, 0.000856082
0.02525, 1.69134, -1.22608, -1.53796, -0.90003, -1.19173, 1.22856, -1.30302, -0.00155291, 0.000334288, 0.00180133, 0.00436315, 0.008205, -8.99302e-05, -0.00101682, -0.357292, 58.844, 27.6392, 6.43433, 1.5401, 3.04477, 0.29121, 0.00089217, -0.00155741, 0.000361178, 0.000138626, 9.05767e-05, -0.000412193, 0.000603164, 0.000580509, 0.00144556, 0.00775958, -0.00667704, -0.000665145, 0.471008, -0.543387, 0.335895, -2.08385, -2.16584, -0.129887, 0.469407, -0.542514, 0.335723, -2.0833, -2.16617, -0.129866, -6.84344e-05, 0.000639605, 0.000171766, -0.000574447, -0.000202105, 0.00152304
0.02625, 1.69134, -1.22607, -1.53796, -0.900024, -1.19174, 1.22856, -1.30302, -0.000203286, 0.0018933, 0.00120088, 0.00504548, 0.00564056, 0.000211229, 0.00101756, -0.392998, 58.7726, 27.6392, 6.35895, 1.55292, 3.03744, 0.245433, 0.000891092, -0.00155713, 0.00035798, 0.000133732, 8.65523e-05, -0.000403456, 0.000815172, 0.000336562, 0.00218846, 0.00655969, -0.00281339, -0.00313294, 0.471008, -0.543386, 0.335895, -2.08384, -2.16584, -0.129887, 0.469408, -0.542515, 0.335726, -2.08331, -2.16617, -0.129867, -7.80454e-05, 0.000729718, 0.000195859, -0.000306029, -0.00042566, 0.00224043
0.0272502, 1.69135, -1.22607, -1.53796, -0.900024, -1.19173, 1.22856, -1.30301, 0.000790074, 0.00217041, -0.00464211, 0.00364376, 0.00583803, 0.000140755, 0.00213644, -0.43267, 58.5861, 27.6035, 6.35895, 1.50989, 3.03744, 0.206066, 0.000893466, -0.00155414, 0.000358413, 0.000133038, 9.0857e-05, -0.000407452, 0.0012023, 0.000481235, 1.60835e-05, 0.000700062, -0.00215927, -0.00478865, 0.471008, -0.543385, 0.335895, -2.08384, -2.16584, -0.129887, 0.469411, -0.542512, 0.335727, -2.0833, -2.16617, -0.129873, -8.82697e-05, 0.000825639, 0.000221482, -0.000525312, -0.00038348, 6.52726e-05
0.0282502, 1.69134, -1.22608, -1.53796, -0.900031, -1.19173, 1.22856, -1.30301, -0.00123834, -0.00423052, -0.00371646, -0.0044757, 0.00127354, -0.000448746, 0.00284845, -0.357292, 58.3679, 27.3417, 6.39465, 1.46045, 3.05209, 0.167614, 0.00089205, -0.00155405, 0.000362708, 0.000131113, 9.68982e-05, -0.000410393, 0.00105804, 0.000141328, -0.00449605, -0.00519429, -0.00445138, -0.00136326, 0.471008, -0.543384, 0.335895, -2.08384, -2.16584, -0.129887, 0.469411, -0.542511, 0.335722, -2.0833, -2.16617, -0.129881, -9.91039e-05, 0.000927342, 0.000248628, -0.000364711, 0.000569048, -0.00435082
0.0292502, 1.69135, -1.22609, -1.53796, -0.900026, -1.19173, 1.22856, -1.30302, 0.000936317, -0.00354285, -0.00296533, -0.000751097, 0.00163574, -0.00162163, 0.00142426, -0.43267, 58.0704, 27.1909, 6.28357, 1.43573, 3.0878, 0.180431, 0.000891673, -0.00155124, 0.000366034, 0.000133471, 9.83701e-05, -0.000418128, 0.000892164, -0.000200453, -0.00353826, -0.0038803, -0.00490259, -0.00057077, 0.471007, -0.543383, 0.335895, -2.08384, -2.16584, -0.129887, 0.469413, -0.54251, 0.335719, -2.08329, -2.16618, -0.129881, -0.000110545, 0.0010348, 0.000277287, -6.1718e-06, 0.000706829, -0.00336098
0.0302502, 1.69135, -1.22609, -1.53797, -0.900024, -1.19174, 1.22856, -1.30303, 0.00062319, -0.00117876, -0.00525397, 0.000988193, 0.00167205, 0.00148149, 0.000237431, -0.43267, 57.8125, 27.1552, 6.20819, 1.41742, 3.14548, 0.199657, 0.00088814, -0.00155327, 0.000369566, 0.000142702, 9.69034e-05, -0.000418944, 0.00223168, 0.00022869, -0.00244299, -0.00207692, -0.0010036, -0.00233671, 0.471007, -0.543382, 0.335896, -2.08384, -2.16584, -0.129887, 0.469411, -0.542512, 0.335715, -2.08328, -2.16617, -0.129869, -0.000122588, 0.001148, 0.000307449, -0.000359371, -0.000688531, -0.00244427
0.0312502, 1.69135, -1.2261, -1.53797, -0.900025, -1.19174, 1.22856, -1.30303, -0.000513326, -0.00302934, -0.00423267, 0.00128828, 0.000567524, 0.00541561, 0.000395649, -0.392998, 57.8522, 27.0084, 6.17248, 1.43024, 3.16653, 0.193248, 0.000884979, -0.00155281, 0.000375293, 0.000142246, 0.000101447, -0.000422465, 0.003539, 0.000116459, -0.00273232, 0.00190403, -6.78122e-05, -0.00371601, 0.471007, -0.543381, 0.335896, -2.08384, -2.16584, -0.129887, 0.469411, -0.542513, 0.33571, -2.08328, -2.16617, -0.129875, -0.000135232, 0.0012669, 0.000339106, -0.000223627, -0.00181113, -0.00290458
0.0322502, 1.69135, -1.2261, -1.53797, -0.900028, -1.19175, 1.22856, -1.30304, -0.00117801, -0.00384139, -0.00465103, 0.00070455, -0.000557613, 0.0045767, -0.000956935, -0.357292, 57.8879, 27.0441, 6.17248, 1.45404, 3.15921, 0.226207, 0.000882155, -0.00155259, 0.000380627, 0.000148288, 0.00010099, -0.000427006, 0.0040894, 0.000688754, -0.0034903, 6.23468e-05, -0.000254068, -0.00306292, 0.471007, -0.54338, 0.335896, -2.08384, -2.16584, -0.129887, 0.469411, -0.542514, 0.335704, -2.08327, -2.16618, -0.129868, -0.000148472, 0.00139149, 0.000372248, -0.000816104, -0.00213667, -0.00368806
0.0332502, 1.69135, -1.22611, -1.53797, -0.900035, -1.19175, 1.22857, -1.30304, -0.00254901, 0.000181039, -0.00301099, -0.00140926, -0.00156539, 0.00462356, 0.000582748, -0.281914, 58.0347, 27.0084, 6.24786, 1.48517, 3.13083, 0.193248, 0.000879824, -0.00155064, 0.000386196, 0.000144106, 0.000104771, -0.000430913, 0.00368629, 0.000866056, -0.00077766, 0.000628096, 0.00470223, -0.00371334, 0.471007, -0.543379, 0.335897, -2.08384, -2.16584, -0.129888, 0.469413, -0.542514, 0.335699, -2.08326, -2.16618, -0.129877, -0.000162305, 0.00152173, 0.000406866, -0.000923502, -0.00203324, -0.000907021
0.0342502, 1.69134, -1.22611, -1.53797, -0.90003, -1.19176, 1.22857, -1.30303, -0.00439092, 0.00349618, 0.00106102, 0.000736934, -0.00680599, 0.00922146, 0.00184656, -0.166862, 58.0347, 27.1195, 6.17248, 1.50989, 3.10245, 0.153881, 0.000872521, -0.0015544, 0.00038668, 0.000146268, 9.52005e-05, -0.000414887, 0.00563308, 0.00146287, 0.00339771, 0.00734442, 0.014128, -0.00851723, 0.471007, -0.543377, 0.335897, -2.08384, -2.16584, -0.129888, 0.469409, -0.54252, 0.335698, -2.08328, -2.16617, -0.129864, -0.000176727, 0.00165761, 0.000442951, -0.00131363, -0.00448639, 0.00296776
0.0352502, 1.69135, -1.22612, -1.53797, -0.900032, -1.19176, 1.22858, -1.30304, -0.00376274, -0.000807375, 0.000806819, -0.000409025, -0.00496161, 0.0073748, 0.0014684, -0.131157, 58.1815, 27.1195, 6.20819, 1.50989, 3.0878, 0.147472, 0.000870813, -0.001551, 0.000390192, 0.000139131, 9.68566e-05, -0.000421987, 0.00506503, 0.000940781, 0.000411598, 0.00539885, 0.00761916, -0.00593239, 0.471007, -0.543375, 0.335898, -2.08384, -2.16584, -0.129888, 0.469412, -0.542519, 0.335694, -2.08328, -2.16618, -0.129874, -0.000191736, 0.0017991, 0.000480493, -0.000935329, -0.00330312, 0.000129179
0.0362502, 1.69135, -1.22612, -1.53797, -0.900032, -1.19176, 1.22858, -1.30304, -0.00250868, 0.000518601, 0.0015405, -0.000321505, -0.00294778, 0.00410757, 0.000978935, -0.131157, 58.1458, 27.0798, 6.20819, 1.49158, 3.1235, 0.147472, 0.000873868, -0.0015451, 0.000387904, 0.000132726, 9.56714e-05, -0.000433882, 0.00366857, 0.000511985, 0.00109369, 0.00411903, 0.00572768, -0.00326259, 0.471006, -0.543374, 0.335898, -2.08384, -2.16584, -0.129888, 0.469418, -0.542514, 0.335697, -2.08327, -2.16619, -0.129881, -0.000207328, 0.00194618, 0.000519485, -0.000547989, -0.00186485, 0.00104549
0.0372502, 1.69136, -1.22612, -1.53797, -0.90003, -1.19176, 1.22859, -1.30304, 0.000861797, 0.00134718, -0.000680283, 0.000584265, -0.00152568, 0.00649477, -0.000330721, -0.0914839, 58.11, 27.1552, 6.17248, 1.47327, 3.16653, 0.174022, 0.000870973, -0.00154388, 0.000390007, 0.000134942, 9.19703e-05, -0.000435301, 0.00294898, -0.00137931, 0.000934957, 0.00491581, 0.00680689, -1.11918e-05, 0.471006, -0.543372, 0.335899, -2.08384, -2.16584, -0.129888, 0.469419, -0.542515, 0.335695, -2.08327, -2.1662, -0.129875, -0.0002235, 0.00209882, 0.000559916, 0.00129323, -0.000900006, 0.000983865
0.0382502, 1.69137, -1.22612, -1.53797, -0.900027, -1.19176, 1.22859, -1.30305, 0.00426966, -0.00510454, -0.00124678, 0.00212529, -0.000958757, 0.00448989, -0.0019159, -0.0914839, 58.0704, 27.1909, 6.09711, 1.46686, 3.18118, 0.219799, 0.000870581, -0.00153935, 0.000389, 0.000132589, 8.4171e-05, -0.000444463, 0.00246613, -0.00267324, -0.00321235, 0.00263581, -0.000998912, 0.00363359, 0.471006, -0.54337, 0.335899, -2.08384, -2.16584, -0.129888, 0.469423, -0.542513, 0.335697, -2.08326, -2.16621, -0.129871, -0.000240248, 0.00225699, 0.000601779, 0.00240175, 0.000426159, -0.00303348
0.0392502, 1.69137, -1.22612, -1.53797, -0.900035, -1.19176, 1.2286, -1.30305, 0.00419509, -0.00389747, 0.00179875, -0.0012022, -0.00431381, 0.00718832, -0.000531282, 0.0196001, 58.0704, 27.0798, 6.20819, 1.43573, 3.20956, 0.199657, 0.000874477, -0.00153181, 0.000386201, 0.000125446, 7.76022e-05, -0.000461909, 0.00187708, -0.00401531, -0.0016609, 0.00463407, 0.00445672, 0.00542177, 0.471006, -0.543367, 0.3359, -2.08384, -2.16584, -0.129888, 0.469431, -0.542507, 0.3357, -2.08325, -2.16623, -0.129874, -0.000257569, 0.00242068, 0.000645063, 0.00375972, 0.000987484, -0.00140729
0.0402502, 1.69138, -1.22611, -1.53797, -0.90003, -1.19177, 1.2286, -1.30305, 0.00518684, -0.00213393, 0.000294749, 0.00178154, -0.00292686, 0.00503815, -0.000862814, 0.0949785, 58.0347, 27.1195, 6.09711, 1.42383, 3.22421, 0.21339, 0.000872643, -0.00152864, 0.000383555, 0.000123042, 6.66213e-05, -0.000461456, 0.00214363, -0.0033843, -0.00100369, 0.00353588, 0.00395948, 0.00384628, 0.471005, -0.543365, 0.3359, -2.08384, -2.16584, -0.129889, 0.469434, -0.542507, 0.335703, -2.08326, -2.16624, -0.129866, -0.00027546, 0.00258986, 0.000689759, 0.00314489, 0.000766544, -0.000735999
0.0412502, 1.69139, -1.22611, -1.53797, -0.900033, -1.19177, 1.22861, -1.30305, 0.00422376, -0.00253596, 0.000214203, 0.00117611, -0.00255744, 0.00742871, 0.000170776, 0.245735, 58.0704, 27.1195, 6.09711, 1.43024, 3.25992, 0.193248, 0.000872688, -0.00152353, 0.000385092, 0.00012199, 6.27321e-05, -0.000469688, 0.00280251, -0.00346386, -0.00110923, 0.00557106, 0.00455094, 0.00249889, 0.471005, -0.543362, 0.335901, -2.08383, -2.16584, -0.129889, 0.469439, -0.542504, 0.335702, -2.08325, -2.16625, -0.129864, -0.000293917, 0.0027645, 0.00073586, 0.00322564, 0.000310217, -0.000898778
0.0422502, 1.69139, -1.22612, -1.53797, -0.900033, -1.19177, 1.22861, -1.30305, 0.00702213, -0.00282726, -0.000679138, 0.0016106, -0.000828706, 0.00474492, 0.00133455, 0.400459, 58.11, 27.1552, 6.0614, 1.39911, 3.2883, 0.160289, 0.000871781, -0.00151818, 0.000388937, 0.000120146, 6.27114e-05, -0.000476586, 0.00146695, -0.00450194, -0.00193876, 0.00304002, 0.00170698, 0.00388841, 0.471005, -0.54336, 0.335902, -2.08383, -2.16584, -0.129889, 0.469443, -0.542501, 0.335699, -2.08324, -2.16626, -0.129867, -0.000312938, 0.00294458, 0.000783355, 0.00416565, 0.00197897, -0.00149438
0.0432502, 1.6914, -1.22612, -1.53797, -0.900039, -1.19178, 1.22862, -1.30305, 0.0083767, -0.00204128, -0.0004428, -0.0020995, -0.00191283, 0.00740419, 0.000889703, 0.586922, 58.11, 27.1552, 6.0614, 1.43024, 3.31759, 0.160289, 0.000871287, -0.00151145, 0.00038994, 0.000118693, 5.04775e-05, -0.000490753, 0.000323981, -0.00649546, -0.00176462, 0.00317222, 0.00513254, 0.00867041, 0.471005, -0.543357, 0.335903, -2.08383, -2.16584, -0.129889, 0.46945, -0.542498, 0.335698, -2.08323, -2.16628, -0.129858, -0.000332518, 0.00313007, 0.000832236, 0.00610242, 0.0033476, -0.00115624
0.0442502, 1.69141, -1.22611, -1.53797, -0.900042, -1.19178, 1.22863, -1.30306, 0.00948111, 0.000285049, -0.00112295, -0.00386078, -0.000752658, 0.00447933, -0.00491551, 0.777352, 58.0347, 27.1909, 6.02173, 1.41192, 3.3533, 0.180431, 0.000871539, -0.00150533, 0.000388484, 0.000117915, 3.80604e-05, -0.000509563, -0.00110503, -0.00695617, -0.00121932, -0.00020912, 0.00537594, 0.0171454, 0.471004, -0.543354, 0.335903, -2.08383, -2.16584, -0.129889, 0.469456, -0.542495, 0.3357, -2.08322, -2.16631, -0.129849, -0.000352655, 0.00332096, 0.000882495, 0.00651099, 0.00488418, -0.000359641
0.0452502, 1.69142, -1.22612, -1.53797, -0.900038, -1.19179, 1.22864, -1.30306, 0.00883649, -0.00416686, -0.000743031, 0.000398205, -0.0015001, 0.00813828, -0.00245319, 1.03919, 58.2172, 27.1909, 5.87494, 1.43573, 3.36062, 0.147472, 0.00086596, -0.00150154, 0.000395354, 0.000112641, 3.92904e-05, -0.000511485, 0.001519, -0.00639014, -0.00277174, 0.00474272, 0.00303712, 0.0103458, 0.471004, -0.54335, 0.335904, -2.08383, -2.16584, -0.12989, 0.469459, -0.542496, 0.335694, -2.08322, -2.16631, -0.129856, -0.000373345, 0.00351722, 0.000934121, 0.00596278, 0.00270571, -0.00223112
0.0462502, 1.69143, -1.22612, -1.53797, -0.900037, -1.19179, 1.22865, -1.30307, 0.00787877, -0.00200869, -0.000491153, 0.0016825, -0.00156231, 0.00631028, -0.000949781, 1.18995, 58.1815, 27.1909, 5.79956, 1.44855, 3.36062, 0.120922, 0.000866471, -0.00149232, 0.000394026, 0.000107624, 2.53023e-05, -0.000524615, 0.00209769, -0.0052443, -0.00136798, 0.00431652, 0.00427217, 0.00685314, 0.471004, -0.543347, 0.335905, -2.08383, -2.16583, -0.12989, 0.469468, -0.542492, 0.335696, -2.08321, -2.16633, -0.129849, -0.000394586, 0.00371881, 0.000987107, 0.00486856, 0.00207305, -0.000847322
0.0472502, 1.69145, -1.22612, -1.53798, -0.900035, -1.1918, 1.22866, -1.30307, 0.0102745, -0.00222384, -0.00208752, 0.00262524, -0.00246352, 0.00541296, -0.00136506, 1.34071, 58.2172, 27.2663, 5.72418, 1.48517, 3.34598, 0.134655, 0.000865035, -0.00148216, 0.000397138, 0.000104732, 1.13478e-05, -0.000540319, 0.00196492, -0.00585056, -0.00215576, 0.00181365, 0.0045425, 0.00775956, 0.471003, -0.543343, 0.335906, -2.08382, -2.16583, -0.12989, 0.469478, -0.542488, 0.335693, -2.0832, -2.16636, -0.12984, -0.000416373, 0.00392573, 0.00104144, 0.00541906, 0.00255712, -0.00156853
0.0482502, 1.69147, -1.22612, -1.53798, -0.900035, -1.19181, 1.22867, -1.30308, 0.0163519, 0.000150748, -0.00231734, 0.00331866, -0.00634275, 0.00825706, -0.000331494, 1.45576, 58.1458, 27.306, 5.6488, 1.48517, 3.36062, 0.114513, 0.000867516, -0.00146935, 0.000394853, 0.000100149, -8.3528e-06, -0.000562673, 0.000576453, -0.0091203, -0.000838189, 0.00189536, 0.0117296, 0.0106854, 0.471003, -0.543339, 0.335907, -2.08382, -2.16583, -0.129891, 0.46949, -0.542482, 0.335696, -2.08319, -2.1664, -0.129828, -0.000438704, 0.00413795, 0.00109712, 0.00866016, 0.00407105, -9.49209e-05
0.0492502, 1.69149, -1.22612, -1.53798, -0.900032, -1.19182, 1.22868, -1.30308, 0.0166153, -0.000762563, -0.00321356, 0.00373682, -0.0102748, 0.00959237, -0.00576044, 1.60651, 58.1815, 27.3774, 5.57739, 1.50989, 3.39633, 0.128246, 0.000865804, -0.00145977, 0.00039789, 0.000100827, -2.26333e-05, -0.000578728, 0.00199851, -0.00885102, -0.00155253, 0.000557961, 0.0148317, 0.0142928, 0.471002, -0.543335, 0.335908, -2.08382, -2.16583, -0.129891, 0.469499, -0.542479, 0.335694, -2.08318, -2.16642, -0.129815, -0.000461575, 0.00435543, 0.00115413, 0.00839341, 0.00298358, -0.000955882
0.0502502, 1.69151, -1.22612, -1.53799, -0.900027, -1.19183, 1.2287, -1.30309, 0.0191382, -0.00136448, -0.00306906, 0.00507292, -0.00823861, 0.0104642, -0.00505532, 1.79694, 58.2172, 27.417, 5.46234, 1.5282, 3.43936, 0.147472, 0.000863646, -0.00144937, 0.000400661, 9.87746e-05, -3.78336e-05, -0.000594168, 0.0012186, -0.0104089, -0.00174802, 0.0026211, 0.0130517, 0.0156921, 0.471002, -0.543331, 0.335909, -2.08382, -2.16583, -0.129891, 0.469509, -0.542476, 0.335692, -2.08317, -2.16644, -0.129803, -0.000484983, 0.00457817, 0.00121247, 0.00989095, 0.00407012, -0.0010165
0.0512502, 1.69152, -1.22613, -1.53799, -0.90002, -1.19184, 1.22871, -1.3031, 0.0160339, -0.00268855, -0.00288026, 0.00589825, -0.0062627, 0.0117884, -0.00829244, 2.05878, 58.2925, 27.4528, 5.35126, 1.53461, 3.46774, 0.141063, 0.000859892, -0.0014415, 0.000404451, 9.67579e-05, -4.71973e-05, -0.000602808, 0.00291009, -0.0090214, -0.00208692, 0.00565928, 0.0106999, 0.0159383, 0.471001, -0.543326, 0.335911, -2.08382, -2.16583, -0.129892, 0.469516, -0.542474, 0.335688, -2.08316, -2.16646, -0.129797, -0.000508925, 0.00480613, 0.00127212, 0.00852952, 0.00262359, -0.00151222
0.0522502, 1.69155, -1.22613, -1.53799, -0.90002, -1.19186, 1.22872, -1.30311, 0.016498, -0.000968896, -0.00191943, 0.00387055, -0.0101948, 0.0129889, -0.00692181, 2.20954, 58.2568, 27.4528, 5.35126, 1.55932, 3.48971, 0.160289, 0.000861454, -0.00142661, 0.00040361, 9.40075e-05, -7.20938e-05, -0.000631396, 0.00288252, -0.0096658, -0.000959915, 0.00485501, 0.0164681, 0.015935, 0.471001, -0.543321, 0.335912, -2.08381, -2.16583, -0.129892, 0.469531, -0.542467, 0.33569, -2.08314, -2.1665, -0.129778, -0.000533398, 0.00503929, 0.00133308, 0.00918833, 0.00273686, -0.000353595
0.0532502, 1.69157, -1.22614, -1.53799, -0.900018, -1.19187, 1.22873, -1.30311, 0.0193452, -0.0032532, -0.00211427, 0.00253415, -0.0125839, 0.0141477, -0.00912165, 2.39997, 58.3679, 27.4885, 5.35126, 1.57123, 3.51077, 0.141063, 0.000858694, -0.00141542, 0.000409234, 9.33861e-05, -8.55177e-05, -0.000648995, 0.0023184, -0.0115288, -0.00262756, 0.00335035, 0.0170509, 0.0212813, 0.471, -0.543316, 0.335913, -2.08381, -2.16583, -0.129892, 0.469541, -0.542463, 0.335685, -2.08313, -2.16653, -0.129768, -0.000558399, 0.00527762, 0.00139533, 0.0109435, 0.00386507, -0.00190663
0.0542502, 1.69159, -1.22613, -1.538, -0.90001, -1.19189, 1.22875, -1.30312, 0.0206452, -0.00124739, -0.00410035, 0.00341801, -0.0099742, 0.0149543, -0.0103987, 2.62611, 58.3282, 27.6035, 5.27588, 1.58954, 3.52542, 0.108104, 0.000854045, -0.00140616, 0.000409845, 9.44067e-05, -0.000110401, -0.000658028, 0.00204471, -0.0121341, -0.0020533, 0.00395697, 0.0175178, 0.0229741, 0.471, -0.543311, 0.335915, -2.08381, -2.16583, -0.129893, 0.46955, -0.542462, 0.335685, -2.08313, -2.16655, -0.129743, -0.000583923, 0.00552111, 0.00145888, 0.0115335, 0.00431514, -0.00125184
0.0552502, 1.69161, -1.22613, -1.538, -0.900006, -1.19191, 1.22876, -1.30313, 0.0208298, -0.000836546, -0.000970016, 0.0030879, -0.011791, 0.011679, -0.0079111, 2.73719, 58.3282, 27.5281, 5.24017, 1.58313, 3.5181, 0.108104, 0.000855539, -0.0013885, 0.000407908, 8.27072e-05, -0.000135546, -0.000688232, 0.00144851, -0.012068, -0.00107046, 0.00288994, 0.0177463, 0.0218701, 0.470999, -0.543305, 0.335916, -2.08381, -2.16583, -0.129893, 0.469567, -0.542455, 0.335688, -2.08311, -2.1666, -0.129734, -0.000609969, 0.00576973, 0.0015237, 0.0114555, 0.00499835, -0.000122016
0.0562502, 1.69164, -1.22613, -1.538, -0.900001, -1.19193, 1.22878, -1.30314, 0.0232431, -0.000561414, -0.00240968, 0.00296712, -0.0134427, 0.0129049, -0.0105911, 2.89191, 58.3282, 27.6035, 5.2005, 1.58313, 3.53915, 0.101696, 0.000852392, -0.00137558, 0.0004095, 8.14831e-05, -0.000161635, -0.000707168, 0.00133055, -0.0132473, -0.00148057, 0.00156047, 0.0202768, 0.0258092, 0.470999, -0.5433, 0.335918, -2.0838, -2.16583, -0.129894, 0.469579, -0.542451, 0.335687, -2.0831, -2.16664, -0.129711, -0.000636533, 0.00602345, 0.0015898, 0.0125877, 0.00547994, -0.000478137
0.0572502, 1.69166, -1.22614, -1.538, -0.899991, -1.19194, 1.2288, -1.30315, 0.0243755, -0.00130508, -0.00160627, 0.00363389, -0.0147343, 0.0136204, -0.0130455, 3.07838, 58.3679, 27.6035, 5.12909, 1.58313, 3.56845, 0.108104, 0.000845958, -0.00136575, 0.00041079, 7.53755e-05, -0.000184304, -0.000720299, 0.00152533, -0.0138921, -0.00156212, 0.00240523, 0.0209949, 0.0287875, 0.470998, -0.543294, 0.335919, -2.0838, -2.16582, -0.129894, 0.469589, -0.542451, 0.335686, -2.0831, -2.16666, -0.129696, -0.000663611, 0.00628226, 0.00165716, 0.0132087, 0.00558541, -0.000541008
0.0582502, 1.69169, -1.22613, -1.538, -0.899987, -1.19197, 1.22881, -1.30315, 0.0253217, 5.58737e-05, 0.000692521, 0.00333965, -0.0151891, 0.0147017, -0.00933602, 3.11805, 58.3282, 27.5281, 5.08942, 1.57123, 3.58218, 0.0952869, 0.000847956, -0.00134648, 0.000406925, 6.47499e-05, -0.000215359, -0.000748207, 0.000883419, -0.015033, 3.06252e-05, 0.0050136, 0.0232906, 0.0272239, 0.470997, -0.543287, 0.335921, -2.0838, -2.16582, -0.129894, 0.469607, -0.542443, 0.335691, -2.08309, -2.16672, -0.12968, -0.000691201, 0.00654612, 0.00172578, 0.0143551, 0.00628449, 0.00116553
0.0592502, 1.69169, -1.22613, -1.538, -0.899987, -1.19197, 1.22881, -1.30315, 0.0253217, 5.58737e-05, 0.000692521, 0.00333965, -0.0151891, 0.0147017, -0.00933602, 3.11805, 58.3282, 27.5281, 5.08942, 1.57123, 3.58218, 0.0952869, 0.000841202, -0.001346, 0.000407601, 6.29128e-05, -0.000217779, -0.000747431, 0.00116075, -0.0150522, 4.08427e-06, 0.00505865, 0.0234196, 0.0272473, 0.470997, -0.543281, 0.335923, -2.0838, -2.16582, -0.129895, 0.469607, -0.542443, 0.335691, -2.08309, -2.16672, -0.12968, -0.0007193, 0.00681502, 0.00179564, 0.0143551, 0.00628449, 0.00116553
0.0602502, 1.69169, -1.22613, -1.538, -0.899987, -1.19197, 1.22881, -1.30315, 0.0253217, 5.58737e-05, 0.000692521, 0.00333965, -0.0151891, 0.0147017, -0.00933602, 3.11805, 58.3282, 27.5281, 5.08942, 1.57123, 3.58218, 0.0952869, 0.00083417, -0.00134551, 0.000408303, 6.09984e-05, -0.0002203, -0.000746623, 0.00144323, -0.0150717, -2.28864e-05, 0.00510468, 0.0235511, 0.0272711, 0.470996, -0.543274, 0.335924, -2.08379, -2.16582, -0.129895, 0.469607, -0.542443, 0.335691, -2.08309, -2.16672, -0.12968, -0.000747904, 0.00708893, 0.00186675, 0.0143551, 0.00628449, 0.00116553
0.0612502, 1.69177, -1.22614, -1.538, -0.89997, -1.19204, 1.22888, -1.30319, 0.0284056, -0.000738535, 0.00107149, 0.0046541, -0.0221798, 0.0111386, -0.0133926, 3.30451, 58.4393, 27.5281, 5.01404, 1.57123, 3.58951, 0.108104, 0.000836258, -0.00129932, 0.000411162, 4.35199e-05, -0.000305434, -0.0008207, 0.00175946, -0.0151703, -0.000675553, -0.000790339, 0.0268082, 0.0310991, 0.470995, -0.543267, 0.335926, -2.08379, -2.16582, -0.129896, 0.469653, -0.542431, 0.335689, -2.08306, -2.16685, -0.129621, -0.00077701, 0.00736784, 0.00193908, 0.0144122, 0.00635574, 0.000541307
0.0622502, 1.6918, -1.22615, -1.538, -0.899961, -1.19206, 1.2289, -1.3032, 0.0278662, -0.00309147, -0.00104887, 0.00503401, -0.0270583, 0.0128102, -0.0157925, 3.34419, 58.5504, 27.6035, 4.94263, 1.59595, 3.59683, 0.134655, 0.000827688, -0.00128733, 0.000416503, 4.1994e-05, -0.000332902, -0.000837259, 0.00420936, -0.01423, -0.00260828, -0.00334793, 0.0295092, 0.0300432, 0.470994, -0.543259, 0.335928, -2.08379, -2.16582, -0.129897, 0.469664, -0.542431, 0.335684, -2.08306, -2.16688, -0.129597, -0.000806615, 0.0076517, 0.00201263, 0.0134613, 0.0044801, -0.00164554
0.0632502, 1.69182, -1.22615, -1.538, -0.899956, -1.19209, 1.22892, -1.30321, 0.0277151, -0.00122626, -0.000699213, 0.00355163, -0.0253265, 0.0198703, -0.0114983, 3.37989, 58.5147, 27.6035, 4.94263, 1.60785, 3.58218, 0.128246, 0.000822342, -0.00127117, 0.000415548, 3.35634e-05, -0.000372078, -0.000858204, 0.00427508, -0.0160107, -0.000993353, 0.00342432, 0.0336838, 0.0276409, 0.470993, -0.543252, 0.33593, -2.08378, -2.16582, -0.129897, 0.46968, -0.542428, 0.335686, -2.08306, -2.16693, -0.12957, -0.000836715, 0.00794051, 0.00208739, 0.0152703, 0.00452829, -4.01346e-05
0.0642502, 1.69186, -1.22615, -1.53801, -0.89995, -1.19212, 1.22895, -1.30322, 0.0254531, -0.0016531, -0.00130134, 0.00568244, -0.0285132, 0.0193153, -0.00829976, 3.34419, 58.5504, 27.6392, 4.94263, 1.61426, 3.58951, 0.120922, 0.00081689, -0.001254, 0.000417947, 3.11009e-05, -0.000410039, -0.000880068, 0.0069538, -0.0137286, -0.00111969, 0.00231026, 0.0355187, 0.0190187, 0.470993, -0.543244, 0.335932, -2.08378, -2.16582, -0.129898, 0.469696, -0.542424, 0.335684, -2.08305, -2.16697, -0.129537, -0.000867309, 0.00823424, 0.00216336, 0.0130518, 0.00210358, -0.000435973
0.0652502, 1.69188, -1.22616, -1.53801, -0.899946, -1.19216, 1.22897, -1.30322, 0.0227286, -0.00286558, -0.00086754, 0.00332711, -0.0315016, 0.0244778, -0.00451687, 3.34419, 58.6258, 27.6392, 4.97833, 1.63257, 3.58218, 0.0751453, 0.000807919, -0.00123912, 0.000420347, 2.32846e-05, -0.000450354, -0.00089629, 0.0089262, -0.0134537, -0.00143514, 0.00503734, 0.039552, 0.0138627, 0.470992, -0.543236, 0.335935, -2.08378, -2.16581, -0.129898, 0.46971, -0.542424, 0.335682, -2.08305, -2.16701, -0.129507, -0.000898392, 0.00853286, 0.00224052, 0.0128053, 0.000492339, -0.000968265
0.0662502, 1.69191, -1.22615, -1.538, -0.899945, -1.19219, 1.229, -1.30324, 0.0214397, -0.000147359, 0.00118489, -9.98506e-05, -0.0281819, 0.0227843, -0.00773177, 3.30451, 58.5504, 27.5638, 5.08942, 1.63257, 3.58951, 0.0623279, 0.000803841, -0.00122144, 0.000415529, 1.43553e-05, -0.000498434, -0.000926077, 0.00727531, -0.0138925, 0.00030288, 0.00575452, 0.0389803, 0.0208854, 0.470991, -0.543227, 0.335937, -2.08377, -2.16581, -0.129899, 0.469727, -0.54242, 0.335688, -2.08305, -2.16707, -0.129472, -0.000929962, 0.00883635, 0.00231887, 0.0132158, 0.00217602, 0.00106924
0.0672502, 1.69194, -1.22615, -1.53801, -0.899936, -1.19223, 1.22903, -1.30325, 0.0237742, -0.000933614, -0.0009733, 0.00415577, -0.0295824, 0.0217968, -0.00592701, 3.26881, 58.5861, 27.6392, 5.05371, 1.60785, 3.58951, 0.0623279, 0.000793416, -0.0012069, 0.000417515, 8.37455e-06, -0.000540881, -0.000941423, 0.0085172, -0.0135705, -0.000573119, 0.00400697, 0.0388404, 0.0161935, 0.47099, -0.543218, 0.335939, -2.08377, -2.16581, -0.1299, 0.469741, -0.54242, 0.335686, -2.08305, -2.16711, -0.129437, -0.000962015, 0.00914469, 0.0023984, 0.0128749, 0.00138006, 0.000100649
0.0682502, 1.69197, -1.22616, -1.53801, -0.899929, -1.19227, 1.22905, -1.30326, 0.0289293, -0.00155055, -0.000648859, 0.00543561, -0.0262422, 0.0246816, -0.00405599, 3.22913, 58.6258, 27.6392, 5.08942, 1.58954, 3.6188, 0.0495105, 0.000784118, -0.00119152, 0.000418499, 3.79792e-06, -0.000586089, -0.000958479, 0.0065582, -0.0171702, -0.000690944, 0.00816684, 0.0370906, 0.019608, 0.470989, -0.543209, 0.335941, -2.08376, -2.16581, -0.1299, 0.469756, -0.542419, 0.335686, -2.08306, -2.16716, -0.129399, -0.000994548, 0.00945786, 0.0024791, 0.0163631, 0.00379274, 0.000260467
0.0692502, 1.69199, -1.22615, -1.538, -0.89992, -1.19231, 1.22908, -1.30328, 0.0284281, 0.00156467, 0.000402651, 0.0073003, -0.0294026, 0.027748, -0.0050713, 3.22913, 58.5147, 27.6035, 5.08942, 1.59595, 3.63254, 0.101696, 0.000771916, -0.00117936, 0.000411543, -6.005e-06, -0.000645853, -0.000977753, 0.00809041, -0.0168284, 0.00203692, 0.0115575, 0.0442059, 0.0179183, 0.470988, -0.5432, 0.335944, -2.08376, -2.16581, -0.129901, 0.469768, -0.542423, 0.335693, -2.08307, -2.16721, -0.129352, -0.00102756, 0.00977584, 0.00256097, 0.0161421, 0.00216407, 0.00280821
0.0702502, 1.69202, -1.22615, -1.53801, -0.899918, -1.19235, 1.2291, -1.30329, 0.0308105, 0.000207829, -0.001402, 0.00606757, -0.030934, 0.0297622, -0.00879842, 3.11805, 58.5504, 27.6749, 5.2005, 1.57764, 3.64718, 0.114513, 0.000763339, -0.00116202, 0.000414768, -6.23548e-06, -0.000692358, -0.00100238, 0.00801597, -0.0183667, 0.000450402, 0.0100037, 0.0455577, 0.0237481, 0.470987, -0.54319, 0.335947, -2.08375, -2.1658, -0.129902, 0.469784, -0.54242, 0.335691, -2.08306, -2.16727, -0.129308, -0.00106104, 0.0100986, 0.00264398, 0.0175849, 0.00286761, 0.00128973
0.0712502, 1.69204, -1.22615, -1.538, -0.899906, -1.19239, 1.22913, -1.3033, 0.0272567, 0.00190174, 0.00166379, 0.00565595, -0.032342, 0.0213872, -0.0114291, 3.07838, 58.475, 27.5638, 5.16479, 1.57123, 3.67557, 0.120922, 0.000750787, -0.00114925, 0.00040805, -1.78766e-05, -0.000749794, -0.00101393, 0.0084185, -0.0153055, 0.00189424, 0.00530125, 0.0441452, 0.0242308, 0.470986, -0.54318, 0.335949, -2.08375, -2.1658, -0.129903, 0.469797, -0.542423, 0.335698, -2.08308, -2.16731, -0.129265, -0.001095, 0.0104261, 0.00272814, 0.0145603, 0.0024501, 0.00282939
0.0722502, 1.69207, -1.22615, -1.53801, -0.899905, -1.19244, 1.22916, -1.30331, 0.029649, 0.00033977, -0.00148926, 0.00175394, -0.0336051, 0.0215307, -0.00777062, 2.96729, 58.5147, 27.6749, 5.27588, 1.56482, 3.66092, 0.101696, 0.00073901, -0.00113266, 0.000411679, -1.60235e-05, -0.000805051, -0.00103317, 0.00761065, -0.0169013, -0.000827221, -0.000214977, 0.0444748, 0.0244666, 0.470985, -0.543169, 0.335952, -2.08374, -2.1658, -0.129903, 0.469812, -0.542423, 0.335694, -2.08308, -2.16736, -0.12921, -0.00112942, 0.0107583, 0.00281344, 0.0159924, 0.00406433, 0.000304673
0.0732502, 1.6921, -1.22615, -1.53801, -0.899893, -1.19249, 1.22919, -1.30331, 0.0303954, 0.00115451, -0.000157619, 0.00552825, -0.0398476, 0.026274, -0.00436982, 2.89191, 58.475, 27.6392, 5.24017, 1.57764, 3.65451, 0.0623279, 0.000724747, -0.00111724, 0.000409039, -2.6572e-05, -0.000865871, -0.00104114, 0.010119, -0.0168848, 0.00099507, 0.00397074, 0.0525126, 0.0170653, 0.470984, -0.543159, 0.335955, -2.08374, -2.1658, -0.129904, 0.469827, -0.542426, 0.335697, -2.08311, -2.16741, -0.129161, -0.00116431, 0.0110953, 0.00289987, 0.0160967, 0.00164372, 0.00180137
0.0742502, 1.69213, -1.22616, -1.538, -0.899888, -1.19253, 1.22922, -1.30332, 0.0299995, -0.00182881, 0.00249338, 0.00555488, -0.0387842, 0.029398, -0.0029241, 2.85224, 58.5861, 27.5281, 5.31555, 1.56482, 3.64718, 0.0495105, 0.00071093, -0.00110227, 0.000410519, -3.87184e-05, -0.000914568, -0.00105622, 0.0104995, -0.0178917, 0.000450206, 0.00938479, 0.0501942, 0.016921, 0.470983, -0.543147, 0.335958, -2.08373, -2.1658, -0.129905, 0.469841, -0.542428, 0.335696, -2.08312, -2.16745, -0.129128, -0.00119966, 0.0114369, 0.00298742, 0.0170608, 0.00173494, 0.00126135
0.0752502, 1.69216, -1.22615, -1.53801, -0.899882, -1.19259, 1.22926, -1.30334, 0.0310734, 0.000451216, -0.00177142, 0.00583207, -0.0439058, 0.0313535, -0.0023136, 2.77686, 58.5147, 27.6749, 5.38696, 1.58313, 3.65451, 0.0495105, 0.000694832, -0.00108869, 0.000409187, -3.47079e-05, -0.00098572, -0.00106783, 0.0123503, -0.0174475, 0.000400313, 0.00518742, 0.0580805, 0.0133525, 0.470981, -0.543136, 0.335961, -2.08373, -2.16579, -0.129906, 0.469854, -0.542432, 0.335697, -2.08313, -2.1675, -0.129053, -0.00123547, 0.0117833, 0.00307608, 0.0166458, 0.000243549, 0.00102664
0.0762502, 1.69219, -1.22615, -1.53801, -0.899873, -1.19264, 1.22929, -1.30335, 0.0332842, 0.000300799, -0.000345728, 0.00466626, -0.0420184, 0.0331762, -0.00616666, 2.62611, 58.5147, 27.6392, 5.38696, 1.57764, 3.64718, 0.0357776, 0.000682779, -0.00106985, 0.00040793, -3.94246e-05, -0.00104856, -0.00108649, 0.0109156, -0.0197716, 0.000666758, 0.00804902, 0.0575342, 0.0217633, 0.47098, -0.543124, 0.335964, -2.08372, -2.16579, -0.129907, 0.469872, -0.542431, 0.335699, -2.08314, -2.16756, -0.128997, -0.00127174, 0.0121342, 0.00316585, 0.018889, 0.00206507, 0.001532
0.0772502, 1.69222, -1.22615, -1.53802, -0.899862, -1.19269, 1.22932, -1.30336, 0.0312661, 0.00112854, -0.0010657, 0.00369449, -0.0452033, 0.0386566, -0.00499221, 2.62611, 58.475, 27.6749, 5.38696, 1.57123, 3.66092, 0.0431018, 0.000665128, -0.00105681, 0.000406923, -4.38243e-05, -0.00111174, -0.00109424, 0.0131614, -0.0193841, 0.00132012, 0.0106824, 0.0639226, 0.0180536, 0.470979, -0.543112, 0.335967, -2.08372, -2.16579, -0.129908, 0.469885, -0.542436, 0.3357, -2.08316, -2.1676, -0.12894, -0.00130846, 0.0124898, 0.00325671, 0.0185693, 8.71164e-05, 0.00193083
0.0782502, 1.69226, -1.22614, -1.53801, -0.899857, -1.19274, 1.22935, -1.30337, 0.0309027, 0.00158757, -0.000710468, 0.00507225, -0.047881, 0.0381727, -0.00524358, 2.43568, 58.4393, 27.6749, 5.42664, 1.56482, 3.66824, 0.0824695, 0.000654777, -0.00103491, 0.000403682, -4.81392e-05, -0.00118217, -0.00112379, 0.0144641, -0.018562, 0.00185095, 0.010139, 0.066354, 0.0160386, 0.470978, -0.5431, 0.33597, -2.08371, -2.16579, -0.129909, 0.469906, -0.542433, 0.335704, -2.08316, -2.16767, -0.128877, -0.00134563, 0.01285, 0.00334867, 0.0177769, -0.000954139, 0.00236932
0.0792502, 1.69229, -1.22615, -1.53802, -0.89985, -1.1928, 1.22938, -1.30338, 0.0334963, 0.00022316, -0.00140167, 0.00624463, -0.0501995, 0.0334864, -0.00407612, 2.39997, 58.475, 27.7146, 5.46234, 1.57123, 3.66824, 0.0888782, 0.00063819, -0.00101885, 0.000407025, -4.51518e-05, -0.00124582, -0.00113768, 0.0142806, -0.0185659, 0.000384278, 0.00448976, 0.0647733, 0.0153511, 0.470976, -0.543087, 0.335973, -2.08371, -2.16578, -0.129909, 0.469921, -0.542436, 0.335701, -2.08317, -2.16772, -0.128812, -0.00138324, 0.0132147, 0.0034417, 0.0176836, -0.000182098, 0.0010424
0.0802502, 1.69233, -1.22614, -1.53802, -0.899838, -1.19286, 1.22941, -1.30339, 0.0333822, 0.00181921, -6.42325e-06, 0.00887429, -0.0514245, 0.0343298, -0.00825429, 2.32459, 58.4036, 27.6749, 5.42664, 1.55932, 3.67557, 0.101696, 0.000621937, -0.0010026, 0.000402146, -5.34092e-05, -0.00131654, -0.00115089, 0.0153786, -0.0181726, 0.00222841, 0.00733639, 0.0676391, 0.0173818, 0.470975, -0.543074, 0.335977, -2.0837, -2.16578, -0.12991, 0.469937, -0.542439, 0.335707, -2.08319, -2.16777, -0.128751, -0.0014213, 0.013584, 0.0035358, 0.0173588, -0.00119695, 0.00279862
0.0812502, 1.69236, -1.22614, -1.53802, -0.899831, -1.19292, 1.22945, -1.3034, 0.0332823, 0.0012128, -4.28199e-06, 0.00587015, -0.0569626, 0.031651, -0.00963818, 2.24921, 58.4036, 27.6749, 5.46234, 1.54651, 3.65451, 0.0687366, 0.000606196, -0.0009834, 0.000401414, -5.82933e-05, -0.00138805, -0.00116754, 0.0157917, -0.0177122, 0.00119269, 0.00103402, 0.0706893, 0.0194855, 0.470973, -0.54306, 0.33598, -2.08369, -2.16578, -0.129911, 0.469955, -0.54244, 0.335708, -2.08321, -2.16783, -0.128687, -0.0014598, 0.0139578, 0.00363097, 0.0168378, -0.00109015, 0.00182073
0.0822502, 1.6924, -1.22615, -1.53802, -0.899825, -1.19298, 1.22948, -1.30341, 0.0332979, -2.66863e-05, -0.000930874, 0.00675025, -0.0619818, 0.0276007, -0.00604666, 2.17384, 58.4393, 27.7146, 5.50201, 1.55292, 3.67557, 0.0357776, 0.000589343, -0.000964543, 0.000403279, -5.77792e-05, -0.00145957, -0.00118421, 0.0173193, -0.0161049, -0.000132677, -0.00525113, 0.0717298, 0.0130651, 0.470972, -0.543046, 0.335984, -2.08369, -2.16578, -0.129913, 0.469973, -0.542442, 0.335707, -2.08322, -2.16789, -0.128617, -0.00149874, 0.0143362, 0.00372719, 0.0152004, -0.00208154, 0.000419432
0.0832502, 1.69243, -1.22615, -1.53802, -0.89982, -1.19304, 1.22951, -1.30342, 0.0341999, -0.00085301, 0.000307437, 0.00344525, -0.061187, 0.0304253, -0.00395047, 2.20954, 58.475, 27.6749, 5.57739, 1.56482, 3.67557, 0.0165515, 0.000571959, -0.000947744, 0.000404248, -5.85934e-05, -0.00152781, -0.00119564, 0.0162878, -0.0182148, -0.000471143, -0.00305075, 0.0720777, 0.0156664, 0.47097, -0.543032, 0.335988, -2.08368, -2.16577, -0.129914, 0.469989, -0.542444, 0.335706, -2.08324, -2.16794, -0.128551, -0.00153811, 0.014719, 0.00382447, 0.017219, -0.00054175, 0.000278802
0.0842502, 1.69247, -1.22614, -1.53802, -0.899811, -1.1931, 1.22954, -1.30343, 0.0350076, 0.00193698, 0.000204958, 0.00601108, -0.0647184, 0.0319652, -0.00807831, 2.09846, 58.3679, 27.6749, 5.57739, 1.57123, 3.68289, 0.0165515, 0.000556033, -0.000927857, 0.000400814, -5.847e-05, -0.0016082, -0.00121215, 0.0177031, -0.0179371, 0.0015473, -0.00205166, 0.0785067, 0.0171012, 0.470969, -0.543017, 0.335992, -2.08367, -2.16577, -0.129915, 0.470008, -0.542444, 0.33571, -2.08326, -2.168, -0.128472, -0.00157792, 0.0151063, 0.00392278, 0.0170256, -0.00187399, 0.0021585
0.0852502, 1.69251, -1.22615, -1.53803, -0.899798, -1.19317, 1.22957, -1.30344, 0.0371606, -0.00472815, -0.0016266, 0.00559909, -0.0623118, 0.033526, -0.0078504, 2.05878, 58.475, 27.7503, 5.53772, 1.55932, 3.68289, 0.0623279, 0.000534897, -0.000911755, 0.000407417, -5.15691e-05, -0.00167421, -0.00122856, 0.0177285, -0.0196204, -0.00308732, -0.00219039, 0.0710799, 0.0194382, 0.470967, -0.543002, 0.335996, -2.08367, -2.16577, -0.129916, 0.470023, -0.542448, 0.335704, -2.08326, -2.16804, -0.1284, -0.00161815, 0.015498, 0.00402212, 0.0184996, -0.000724289, -0.00237337
0.0862502, 1.69255, -1.22616, -1.53802, -0.899792, -1.19323, 1.22961, -1.30345, 0.0396962, -0.00520815, -0.00242797, 0.00650514, -0.0660644, 0.0305305, -0.0113844, 1.98341, 58.5504, 27.6749, 5.57739, 1.57123, 3.66824, 0.0824695, 0.000518145, -0.000890124, 0.000410773, -5.38324e-05, -0.00174291, -0.00124966, 0.0179221, -0.0197659, -0.00396008, -0.00717448, 0.0724369, 0.0230828, 0.470966, -0.542986, 0.336, -2.08366, -2.16576, -0.129917, 0.470043, -0.542448, 0.335701, -2.08327, -2.1681, -0.128336, -0.00165881, 0.0158942, 0.00412249, 0.0185796, -0.000378769, -0.00316942
0.0872502, 1.69258, -1.22616, -1.53803, -0.899782, -1.1933, 1.22964, -1.30346, 0.0405965, -0.00544844, -0.00364078, 0.00808504, -0.0686935, 0.0270644, -0.00913679, 1.9477, 58.475, 27.7503, 5.57739, 1.57764, 3.68289, 0.101696, 0.000497416, -0.000873316, 0.000411033, -4.67261e-05, -0.00182474, -0.00126109, 0.0188391, -0.0188073, -0.00469991, -0.0118051, 0.0728005, 0.0189155, 0.470964, -0.542971, 0.336004, -2.08365, -2.16576, -0.129918, 0.470059, -0.542452, 0.335702, -2.08329, -2.16816, -0.128247, -0.0016999, 0.0162947, 0.00422387, 0.0175872, -0.000808721, -0.0039122
0.0882502, 1.69263, -1.22616, -1.53803, -0.899769, -1.19337, 1.22967, -1.30347, 0.0422333, -0.00745344, -0.000858126, 0.0110091, -0.0698905, 0.0301081, -0.00624281, 1.87232, 58.475, 27.6749, 5.50201, 1.56482, 3.67557, 0.0888782, 0.000480461, -0.000852585, 0.000410664, -4.82766e-05, -0.00189581, -0.00127815, 0.0195586, -0.0200475, -0.00433966, -0.0062388, 0.0730985, 0.0160887, 0.470962, -0.542954, 0.336008, -2.08364, -2.16576, -0.129919, 0.470079, -0.542452, 0.335703, -2.0833, -2.16821, -0.12818, -0.0017414, 0.0166996, 0.00432627, 0.0188231, -0.00111866, -0.00360357
0.0892502, 1.69267, -1.22617, -1.53804, -0.899766, -1.19344, 1.2297, -1.30348, 0.044439, -0.00652077, -0.00248095, 0.00866066, -0.0706467, 0.0276741, -0.00944428, 1.75727, 58.5147, 27.7503, 5.6131, 1.55292, 3.66824, 0.0888782, 0.000463798, -0.000829499, 0.000418753, -2.9622e-05, -0.00197168, -0.00130169, 0.0184484, -0.0210059, -0.00505984, -0.0114303, 0.0740243, 0.0225109, 0.470961, -0.542938, 0.336012, -2.08364, -2.16575, -0.129921, 0.4701, -0.542449, 0.335696, -2.08329, -2.16827, -0.128086, -0.00178332, 0.0171089, 0.00442966, 0.0196725, 0.000536888, -0.004068
0.0902502, 1.69272, -1.22616, -1.53803, -0.899753, -1.19352, 1.22972, -1.30348, 0.0440651, -0.003887, 4.51526e-08, 0.00747837, -0.0716769, 0.0255049, -0.00460815, 1.72157, 58.475, 27.6749, 5.57739, 1.54651, 3.66824, 0.0229602, 0.000444495, -0.000811026, 0.000416991, -2.44167e-05, -0.0020513, -0.00130859, 0.0178997, -0.020964, -0.00300445, -0.0118267, 0.0765541, 0.0191788, 0.470959, -0.54292, 0.336017, -2.08363, -2.16575, -0.129922, 0.470118, -0.542451, 0.335699, -2.08332, -2.16832, -0.128001, -0.00182565, 0.0175225, 0.00453405, 0.0196431, 0.00117392, -0.00184782
0.0912502, 1.69276, -1.22617, -1.53804, -0.899749, -1.19359, 1.22975, -1.30349, 0.0517027, -0.00294222, -0.00277315, 0.00396717, -0.0720578, 0.0240704, -0.00316241, 1.64619, 58.475, 27.79, 5.6488, 1.5282, 3.66824, 0.0101428, 0.00042564, -0.000790761, 0.000423052, -1.89574e-06, -0.00213167, -0.00132595, 0.0143061, -0.025253, -0.00448563, -0.0183626, 0.0780251, 0.0269101, 0.470957, -0.542903, 0.336021, -2.08362, -2.16575, -0.129923, 0.470137, -0.54245, 0.335694, -2.08332, -2.16837, -0.127898, -0.0018684, 0.0179404, 0.00463942, 0.0237015, 0.00554358, -0.00277659
0.0922502, 1.69281, -1.22617, -1.53804, -0.899739, -1.19367, 1.22977, -1.3035, 0.0495487, -0.00392756, -0.000146964, 0.00626281, -0.0732243, 0.0274428, -0.00253204, 1.60651, 58.4036, 27.7146, 5.6488, 1.53461, 3.66824, 0.0101428, 0.000407652, -0.000769662, 0.000421538, 8.27524e-06, -0.00221671, -0.00134583, 0.0165058, -0.0245255, -0.00344061, -0.0122581, 0.0794371, 0.0230728, 0.470955, -0.542885, 0.336026, -2.08361, -2.16574, -0.129924, 0.470157, -0.542449, 0.335696, -2.08333, -2.16843, -0.127804, -0.00191155, 0.0183626, 0.00474577, 0.0230485, 0.00360342, -0.0019584
0.0932502, 1.69286, -1.22617, -1.53804, -0.899732, -1.19375, 1.22979, -1.30351, 0.049378, -0.00393208, 0.000783965, 0.00387471, -0.0785889, 0.030169, -0.00705975, 1.53114, 58.4393, 27.6749, 5.68848, 1.53461, 3.66824, 0.0165515, 0.000390386, -0.000747203, 0.000425219, 2.70039e-05, -0.00229704, -0.00137019, 0.0174624, -0.0250518, -0.00322994, -0.0126055, 0.0855306, 0.0282156, 0.470953, -0.542867, 0.336031, -2.0836, -2.16574, -0.129926, 0.470178, -0.542446, 0.335694, -2.08333, -2.16849, -0.127705, -0.00195511, 0.0187891, 0.00485308, 0.0235724, 0.00307479, -0.00180787
0.0942502, 1.6929, -1.22617, -1.53805, -0.899718, -1.19383, 1.22982, -1.30352, 0.0469613, -0.00298025, -0.00127515, 0.00713239, -0.0819391, 0.0275974, -0.00582097, 1.53114, 58.4393, 27.7503, 5.6488, 1.52179, 3.66092, 0.0293689, 0.000365666, -0.000730498, 0.000429727, 4.69927e-05, -0.00238186, -0.00137865, 0.0206821, -0.0217713, -0.00308348, -0.0161194, 0.0879391, 0.0196461, 0.470951, -0.542848, 0.336035, -2.08359, -2.16574, -0.129927, 0.470193, -0.542451, 0.33569, -2.08334, -2.16854, -0.127599, -0.00199908, 0.0192197, 0.00496136, 0.0203728, 0.000170051, -0.00195624
0.0952502, 1.69295, -1.22616, -1.53805, -0.899713, -1.19392, 1.22983, -1.30353, 0.0453322, 0.000342477, -0.00332246, 0.00677893, -0.0858109, 0.0254404, -0.00486908, 1.53114, 58.3282, 27.7146, 5.72418, 1.5401, 3.66092, 0.0431018, 0.000345604, -0.000712162, 0.000427856, 7.18111e-05, -0.00247733, -0.00139424, 0.0224024, -0.019716, -0.00204485, -0.0211406, 0.0936856, 0.0150936, 0.470949, -0.542829, 0.33604, -2.08358, -2.16573, -0.129929, 0.47021, -0.542451, 0.335693, -2.08335, -2.16859, -0.127478, -0.00204344, 0.0196547, 0.0050706, 0.0183752, -0.00133753, -0.00102684
0.0962502, 1.69299, -1.22617, -1.53806, -0.899708, -1.19401, 1.22985, -1.30354, 0.0450725, -0.000901562, -0.00650484, 0.00662522, -0.0875753, 0.0195716, -0.00974803, 1.49146, 58.3679, 27.7503, 5.79956, 1.53461, 3.64718, 0.0824695, 0.000324635, -0.000692037, 0.000433656, 9.88707e-05, -0.00256302, -0.00141645, 0.0234467, -0.0178268, -0.00446617, -0.0299057, 0.0914202, 0.0177855, 0.470947, -0.542809, 0.336045, -2.08357, -2.16573, -0.12993, 0.470229, -0.54245, 0.335689, -2.08335, -2.16865, -0.127365, -0.0020882, 0.0200938, 0.00518077, 0.0163932, -0.00163353, -0.00341279
0.0972502, 1.69304, -1.22617, -1.53806, -0.899699, -1.19409, 1.22987, -1.30355, 0.0460623, -0.00242287, -0.00481972, 0.00750588, -0.0843638, 0.0146248, -0.00715892, 1.53114, 58.4393, 27.7503, 5.83527, 1.53461, 3.64718, 0.0824695, 0.000300727, -0.000675245, 0.000438591, 0.000124759, -0.00264714, -0.00142524, 0.022368, -0.0179956, -0.00516947, -0.03101, 0.0848896, 0.0173488, 0.470945, -0.542789, 0.336051, -2.08357, -2.16572, -0.129932, 0.470244, -0.542452, 0.335685, -2.08336, -2.1687, -0.127253, -0.00213335, 0.0205371, 0.00529189, 0.0164525, -9.93491e-06, -0.00383384
0.0982502, 1.69309, -1.22617, -1.53805, -0.899694, -1.19418, 1.22988, -1.30355, 0.0483683, -5.83591e-05, -0.000977064, 0.00727827, -0.0855988, 0.0112039, -0.00380973, 1.38038, 58.3679, 27.6392, 5.91064, 1.50348, 3.63986, 0.0431018, 0.000284561, -0.000650712, 0.000437756, 0.000146765, -0.00273768, -0.00144907, 0.0205973, -0.0192378, -0.00291057, -0.031371, 0.0866261, 0.0179041, 0.470943, -0.542768, 0.336056, -2.08356, -2.16572, -0.129933, 0.470267, -0.542447, 0.335688, -2.08336, -2.16876, -0.127141, -0.0021789, 0.0209845, 0.00540394, 0.0176661, 0.0018884, -0.00125409
0.0992502, 1.69314, -1.22617, -1.53805, -0.899682, -1.19428, 1.2299, -1.30356, 0.0461827, -0.000959284, -0.000923155, 0.00968649, -0.0828405, 0.0138332, -0.00362328, 1.38038, 58.4036, 27.6392, 5.87494, 1.49707, 3.6188, 0.0623279, 0.000260134, -0.00063225, 0.000441291, 0.000172125, -0.00282779, -0.00146347, 0.0225496, -0.0183214, -0.00277953, -0.026263, 0.0847123, 0.0144591, 0.470941, -0.542747, 0.336061, -2.08355, -2.16572, -0.129935, 0.470284, -0.542448, 0.335685, -2.08337, -2.16881, -0.127024, -0.00222483, 0.0214361, 0.00551691, 0.0167797, 0.000355082, -0.00128767
0.10025, 1.69319, -1.22618, -1.53806, -0.899675, -1.19437, 1.22992, -1.30357, 0.046585, -0.00237383, -0.00081927, 0.0088629, -0.086614, 0.0153419, -0.00543982, 1.305, 58.475, 27.6392, 5.95032, 1.5163, 3.61148, 0.0101428, 0.000237541, -0.000611088, 0.000448543, 0.000207438, -0.00291941, -0.00147375, 0.0236112, -0.0186581, -0.003613, -0.0271043, 0.0874455, 0.0162479, 0.470939, -0.542726, 0.336067, -2.08354, -2.16571, -0.129936, 0.470303, -0.542447, 0.335679, -2.08337, -2.16886, -0.126894, -0.00227115, 0.0218918, 0.0056308, 0.0170774, -9.48102e-05, -0.00217223
0.10125, 1.69326, -1.22617, -1.53806, -0.899664, -1.19447, 1.22993, -1.30357, 0.05205, 3.99812e-05, -0.00298073, 0.00781189, -0.0877101, 0.0119623, -0.00470004, 1.15424, 58.4036, 27.6035, 5.91064, 1.49158, 3.59683, 0.0229602, 0.00021969, -0.000585948, 0.000447895, 0.000236047, -0.00301593, -0.00149756, 0.0214283, -0.0208252, -0.00373071, -0.0334881, 0.089706, 0.0204145, 0.470936, -0.542704, 0.336072, -2.08353, -2.16571, -0.129938, 0.470327, -0.542442, 0.335682, -2.08337, -2.16892, -0.126769, -0.00231785, 0.0223516, 0.00574559, 0.0191126, 0.00262706, -0.00190033
0.10225, 1.69331, -1.22618, -1.53806, -0.899658, -1.19456, 1.22994, -1.30358, 0.0506648, -0.000844491, -0.00236155, 0.00501136, -0.0887546, 0.0132926, -0.00480315, 1.07887, 58.4393, 27.6035, 5.95032, 1.47876, 3.60415, 0.0559192, 0.00019748, -0.000565111, 0.000452408, 0.000268304, -0.0031065, -0.00151745, 0.0219899, -0.0209567, -0.00426752, -0.0333764, 0.090735, 0.0216087, 0.470934, -0.542682, 0.336078, -2.08351, -2.1657, -0.12994, 0.470346, -0.54244, 0.335679, -2.08337, -2.16898, -0.126645, -0.00236493, 0.0228154, 0.00586128, 0.0191974, 0.00262477, -0.00240627
0.10325, 1.69335, -1.22617, -1.53805, -0.899654, -1.19465, 1.22995, -1.30358, 0.0478606, 0.000245279, -9.19296e-05, 0.00764197, -0.0900634, 0.0149696, -0.00330155, 1.07887, 58.4036, 27.5281, 6.0614, 1.47327, 3.59683, 0.0495105, 0.000176022, -0.000545134, 0.000450943, 0.000294994, -0.00320179, -0.00153405, 0.0243545, -0.0193655, -0.0021999, -0.0286773, 0.0934899, 0.0157104, 0.470932, -0.542659, 0.336084, -2.0835, -2.1657, -0.129941, 0.470365, -0.542438, 0.335683, -2.08337, -2.16903, -0.126522, -0.00241239, 0.0232833, 0.00597787, 0.0177206, 0.000374392, -0.000567852
0.10425, 1.69341, -1.22618, -1.53806, -0.899641, -1.19475, 1.22997, -1.30359, 0.055606, -0.000691907, -0.00203512, 0.00779857, -0.0907238, 0.0122251, -0.00367435, 0.963814, 58.4393, 27.6035, 5.98602, 1.46045, 3.56845, 0.0824695, 0.000150966, -0.000524434, 0.000457259, 0.000329004, -0.00329322, -0.00154851, 0.021781, -0.0228075, -0.00410809, -0.0341743, 0.0923246, 0.0224955, 0.470929, -0.542636, 0.33609, -2.08349, -2.16569, -0.129943, 0.470383, -0.542438, 0.335678, -2.08338, -2.16908, -0.126395, -0.00246022, 0.0237552, 0.00609534, 0.0209489, 0.0038224, -0.0020391
0.10525, 1.69346, -1.22617, -1.53806, -0.899634, -1.19484, 1.22998, -1.3036, 0.0519202, 0.00035879, -0.0015147, 0.00506934, -0.091203, 0.00931693, -0.0021304, 0.813057, 58.4036, 27.6035, 6.02173, 1.44214, 3.56112, 0.0687366, 0.000128984, -0.00050259, 0.000459288, 0.00036194, -0.00338811, -0.00156501, 0.0226848, -0.0208684, -0.00378576, -0.0370116, 0.0926595, 0.0198105, 0.470927, -0.542612, 0.336096, -2.08348, -2.16569, -0.129945, 0.470403, -0.542434, 0.335678, -2.08338, -2.16914, -0.126265, -0.00250842, 0.0242312, 0.00621369, 0.0190082, 0.00327701, -0.00168452
0.10625, 1.69351, -1.22618, -1.53806, -0.89963, -1.19494, 1.22998, -1.3036, 0.0521733, -0.00144261, -0.00112826, 0.00438915, -0.0878727, 0.00742554, -0.00541975, 0.813057, 58.475, 27.6035, 6.13678, 1.45404, 3.54648, 0.0431018, 0.000102407, -0.000485333, 0.000465832, 0.000400616, -0.00347975, -0.00157348, 0.0220994, -0.0213244, -0.00502495, -0.0371911, 0.0874839, 0.0253174, 0.470924, -0.542588, 0.336102, -2.08347, -2.16568, -0.129946, 0.470419, -0.542435, 0.335673, -2.08339, -2.16918, -0.126132, -0.00255699, 0.0247111, 0.00633291, 0.0193491, 0.00454481, -0.00271199
0.10725, 1.69356, -1.22618, -1.53805, -0.899625, -1.19504, 1.23, -1.3036, 0.0509635, -0.000135048, 8.7e-05, 0.00591876, -0.0936316, 0.0156927, -0.0041203, 0.737679, 58.4393, 27.5638, 6.17248, 1.44855, 3.53274, 0.0431018, 7.75159e-05, -0.000464764, 0.000466406, 0.000430684, -0.00358072, -0.00158528, 0.0252074, -0.021391, -0.00285522, -0.0305036, 0.0975843, 0.0201718, 0.470922, -0.542563, 0.336109, -2.08346, -2.16568, -0.129948, 0.470438, -0.542433, 0.335674, -2.0834, -2.16923, -0.125999, -0.00260593, 0.0251949, 0.006453, 0.0195569, 0.00162877, -0.000935248
0.10825, 1.69361, -1.22617, -1.53805, -0.899621, -1.19514, 1.23001, -1.30361, 0.0491335, 0.000738792, -8.63477e-06, 0.00294237, -0.0940553, 0.0119217, -0.00857923, 0.701973, 58.4036, 27.5638, 6.24786, 1.45404, 3.52542, 0.0623279, 5.15459e-05, -0.000446851, 0.00046854, 0.000467272, -0.0036781, -0.00159889, 0.0252697, -0.0202925, -0.00306402, -0.0350292, 0.0973947, 0.025264, 0.470919, -0.542538, 0.336115, -2.08345, -2.16567, -0.12995, 0.470454, -0.542433, 0.335674, -2.0834, -2.16928, -0.125863, -0.00265523, 0.0256827, 0.00657393, 0.0184052, 0.00204239, -0.000997197
0.10925, 1.69366, -1.22617, -1.53806, -0.899611, -1.19524, 1.23001, -1.3036, 0.0461169, 0.000487732, -0.000983753, 0.00660018, -0.0944124, 0.00883931, -0.0054164, 0.586922, 58.4036, 27.6035, 6.20819, 1.46045, 3.52542, 0.0357776, 2.57369e-05, -0.000427269, 0.000471647, 0.000507491, -0.0037759, -0.00160472, 0.0281818, -0.0170445, -0.00320248, -0.0364458, 0.0958086, 0.0153721, 0.470916, -0.542512, 0.336122, -2.08343, -2.16567, -0.129952, 0.470472, -0.542431, 0.335673, -2.08341, -2.16932, -0.125721, -0.00270489, 0.0261745, 0.00669572, 0.0152112, -0.000452523, -0.00136678
0.11025, 1.69371, -1.22617, -1.53805, -0.899607, -1.19534, 1.23002, -1.3036, 0.0454424, 0.00115678, 0.00106992, 0.00644757, -0.0932935, 0.0065615, -0.00388377, 0.551216, 58.3679, 27.5281, 6.28357, 1.43573, 3.52542, 0.0293689, 1.70003e-06, -0.000406271, 0.000472973, 0.000537807, -0.00386926, -0.00161878, 0.0279962, -0.0167911, -0.00230972, -0.035918, 0.0945392, 0.0146953, 0.470914, -0.542486, 0.336128, -2.08342, -2.16566, -0.129954, 0.470491, -0.542428, 0.335674, -2.08342, -2.16937, -0.125596, -0.00275491, 0.0266701, 0.00681835, 0.0149339, 7.841e-05, -0.000326512
0.11125, 1.69376, -1.22617, -1.53805, -0.899606, -1.19543, 1.23003, -1.30361, 0.0458002, 0.000768486, -0.000150049, 0.00647508, -0.0930737, 0.0104239, -0.00348045, 0.475838, 58.3679, 27.5638, 6.35895, 1.42383, 3.50345, 0.0431018, -2.4563e-05, -0.000386113, 0.00047588, 0.000570916, -0.00396601, -0.00163187, 0.0290067, -0.0175438, -0.00268512, -0.0334995, 0.0962229, 0.014167, 0.470911, -0.542459, 0.336135, -2.08341, -2.16566, -0.129956, 0.470509, -0.542426, 0.335673, -2.08342, -2.16942, -0.125465, -0.00280528, 0.0271696, 0.00694181, 0.0156579, -0.000330719, -0.000754156
0.11225, 1.69382, -1.22617, -1.53805, -0.899599, -1.19553, 1.23004, -1.30361, 0.0486919, -0.00116013, 0.00164212, 0.00825285, -0.093719, 0.0121474, -0.00260729, 0.285408, 58.4393, 27.4885, 6.35895, 1.43573, 3.51077, 0.0431018, -4.84943e-05, -0.000362453, 0.000482507, 0.000606382, -0.00405326, -0.00164937, 0.0288806, -0.0193954, -0.00297917, -0.0303957, 0.095749, 0.0153183, 0.470908, -0.542432, 0.336142, -2.0834, -2.16565, -0.129958, 0.47053, -0.54242, 0.335669, -2.08342, -2.16947, -0.125341, -0.00285601, 0.0276729, 0.00706609, 0.0174412, 0.000418624, -0.000957291
0.11325, 1.69386, -1.22617, -1.53805, -0.899592, -1.19562, 1.23004, -1.30361, 0.0454573, 0.00265873, 0.000150915, 0.00639411, -0.093525, 0.0093391, -0.00314022, 0.325081, 58.2925, 27.5281, 6.35895, 1.42383, 3.50345, 0.0751453, -7.97327e-05, -0.000349593, 0.000481097, 0.000640523, -0.00415239, -0.00165097, 0.029908, -0.0172065, -0.00163736, -0.0340105, 0.0984249, 0.0136051, 0.470905, -0.542404, 0.336149, -2.08338, -2.16565, -0.12996, 0.470542, -0.542423, 0.335672, -2.08343, -2.16951, -0.125204, -0.00290708, 0.0281801, 0.00719119, 0.0152897, -0.000385086, 0.000398932
0.11425, 1.69391, -1.22618, -1.53805, -0.899586, -1.19571, 1.23005, -1.30361, 0.0460585, -0.00166232, 8.87505e-05, 0.0080157, -0.0933078, 0.00695322, -0.00323826, 0.245735, 58.4393, 27.5281, 6.35895, 1.41192, 3.50345, 0.101696, -0.000108042, -0.000330343, 0.000491179, 0.000675552, -0.00423019, -0.00166389, 0.0307819, -0.0168715, -0.00426018, -0.0356247, 0.0928981, 0.0130357, 0.470902, -0.542376, 0.336156, -2.08337, -2.16564, -0.129962, 0.470558, -0.542421, 0.335665, -2.08343, -2.16955, -0.12509, -0.0029585, 0.0286911, 0.00731711, 0.0148398, -0.000345735, -0.00219105
0.11525, 1.69396, -1.22617, -1.53805, -0.899587, -1.1958, 1.23006, -1.30361, 0.044565, 0.0023246, 5.02723e-05, 0.00750613, -0.0891612, 0.0157697, -0.00180519, 0.0949785, 58.2925, 27.5281, 6.43433, 1.42383, 3.47507, 0.0888782, -0.000131529, -0.000307223, 0.000489279, 0.000709189, -0.00433283, -0.00168208, 0.031544, -0.0181821, -0.00118716, -0.0256318, 0.098096, 0.0119365, 0.470899, -0.542347, 0.336164, -2.08336, -2.16563, -0.129964, 0.47058, -0.542414, 0.33567, -2.08343, -2.16961, -0.124952, -0.00301027, 0.0292059, 0.00744383, 0.0162361, -0.00100338, 0.000810945
0.11625, 1.69401, -1.22616, -1.53805, -0.899583, -1.19589, 1.23007, -1.30361, 0.0405612, 0.00238431, 2.68439e-05, 0.00583712, -0.0852127, 0.0122595, -7.35615e-05, 0.059273, 58.2568, 27.5281, 6.43433, 1.41192, 3.46042, 0.0559192, -0.000160713, -0.000288995, 0.000491227, 0.000736725, -0.00442327, -0.00168703, 0.0322177, -0.0161402, -0.00153574, -0.0269278, 0.0934737, 0.00906074, 0.470896, -0.542318, 0.336171, -2.08334, -2.16563, -0.129966, 0.470596, -0.542413, 0.33567, -2.08344, -2.16965, -0.124832, -0.00306237, 0.0297245, 0.00757134, 0.0141564, -0.00117989, 0.000551065
0.11725, 1.69405, -1.22616, -1.53805, -0.899588, -1.19598, 1.23007, -1.30361, 0.0423678, 0.000753845, 1.28927e-05, 0.00191773, -0.0883099, 0.00907587, 0.000357574, -0.0161054, 58.2925, 27.5281, 6.54541, 1.43573, 3.46042, 0.0431018, -0.000187123, -0.000269134, 0.00049692, 0.000776391, -0.00451084, -0.00170576, 0.0312295, -0.0171619, -0.00345887, -0.0333143, 0.0934811, 0.0128714, 0.470893, -0.542288, 0.336179, -2.08333, -2.16562, -0.129968, 0.470613, -0.542408, 0.335667, -2.08343, -2.1697, -0.124704, -0.00311481, 0.0302468, 0.00769965, 0.0150189, 0.000656893, -0.00109724
0.11825, 1.6941, -1.22617, -1.53805, -0.899582, -1.19607, 1.23007, -1.30361, 0.0426275, -0.000333015, -0.0017584, 0.00258228, -0.083864, 0.00672773, 0.000187306, -0.0557783, 58.3282, 27.6035, 6.5097, 1.40552, 3.46042, 0.0431018, -0.000220401, -0.00025482, 0.000504364, 0.00081432, -0.00459473, -0.00170765, 0.0312022, -0.0169732, -0.00490106, -0.0345462, 0.0879262, 0.0134148, 0.47089, -0.542258, 0.336186, -2.08331, -2.16562, -0.129971, 0.470625, -0.542408, 0.335662, -2.08344, -2.16973, -0.124579, -0.00316759, 0.0307728, 0.00782873, 0.0147241, 0.00142488, -0.0023826
0.11925, 1.69414, -1.22616, -1.53805, -0.899579, -1.19615, 1.23008, -1.30361, 0.0470638, 0.00321139, 0.00058816, 0.00207296, -0.0815119, 0.00526429, 8.65626e-05, -0.131157, 58.1815, 27.5281, 6.5097, 1.39911, 3.45309, 0.0431018, -0.000248066, -0.00023528, 0.000501357, 0.000839869, -0.00468937, -0.00171805, 0.0281754, -0.0199549, -0.00246443, -0.0331827, 0.089101, 0.0202369, 0.470887, -0.542227, 0.336194, -2.0833, -2.16561, -0.129973, 0.470643, -0.542405, 0.335668, -2.08345, -2.16977, -0.124458, -0.0032207, 0.0313025, 0.00795859, 0.0176291, 0.0046892, 0.000532852
0.12025, 1.69419, -1.22616, -1.53805, -0.899583, -1.19624, 1.23008, -1.30361, 0.0471362, 0.00214073, -0.000445222, 0.000810331, -0.0842852, 0.00494159, -0.00166644, -0.206535, 58.1815, 27.5638, 6.54541, 1.3927, 3.42471, 0.0888782, -0.000276303, -0.000215348, 0.000506555, 0.000877016, -0.00477762, -0.00174114, 0.0291504, -0.0197808, -0.00370729, -0.036253, 0.0905994, 0.0218076, 0.470884, -0.542196, 0.336202, -2.08328, -2.1656, -0.129975, 0.47066, -0.5424, 0.335666, -2.08343, -2.16983, -0.124332, -0.00327414, 0.031836, 0.00808922, 0.0173915, 0.00444503, -0.000710604
0.12125, 1.69423, -1.22616, -1.53804, -0.899583, -1.19632, 1.23009, -1.30361, 0.0470454, 0.000591781, 0.00146484, 0.000737903, -0.0866368, 0.00385133, -0.000623884, -0.281914, 58.2172, 27.4885, 6.54541, 1.38721, 3.41739, 0.0751453, -0.000305683, -0.000195868, 0.000510667, 0.000905904, -0.00486157, -0.00175494, 0.0298231, -0.0196816, -0.00408401, -0.0366628, 0.090594, 0.0209395, 0.470881, -0.542164, 0.33621, -2.08327, -2.1656, -0.129978, 0.470677, -0.542395, 0.335665, -2.08343, -2.16987, -0.124218, -0.00332791, 0.0323731, 0.00822061, 0.0172491, 0.00437236, -0.00105338
0.12225, 1.69428, -1.22615, -1.53804, -0.89958, -1.19641, 1.2301, -1.30361, 0.0459366, 0.00206484, 0.00181059, 0.00147541, -0.0881722, 0.00410424, 4.2634e-05, -0.317619, 58.1458, 27.4528, 6.5097, 1.37439, 3.38168, 0.0623279, -0.000337625, -0.000178326, 0.000509964, 0.0009291, -0.00495376, -0.00176237, 0.0312087, -0.0188378, -0.00295302, -0.0360969, 0.0935964, 0.0182044, 0.470877, -0.542132, 0.336219, -2.08325, -2.16559, -0.12998, 0.470693, -0.542394, 0.335668, -2.08344, -2.16992, -0.124102, -0.00338201, 0.0329138, 0.00835276, 0.0164433, 0.00333617, 4.90315e-06
0.12325, 1.69431, -1.22615, -1.53804, -0.899583, -1.19649, 1.2301, -1.30361, 0.0443536, 0.000541258, 0.000370952, 0.000259588, -0.0849091, 0.00316812, -0.000729683, -0.317619, 58.1815, 27.4885, 6.54541, 1.3689, 3.37436, 0.0824695, -0.000372716, -0.000163944, 0.000516774, 0.000962966, -0.00503849, -0.0017696, 0.0318154, -0.0182286, -0.00457322, -0.0370045, 0.0893727, 0.0189526, 0.470874, -0.542099, 0.336227, -2.08324, -2.16558, -0.129982, 0.470705, -0.542394, 0.335664, -2.08344, -2.16995, -0.123981, -0.00343642, 0.0334582, 0.00848565, 0.0157432, 0.00350693, -0.00153833
0.12425, 1.69436, -1.22616, -1.53804, -0.899583, -1.19658, 1.23011, -1.30362, 0.0469158, -0.000474443, -0.000681386, 0.00109167, -0.0874612, 0.00328376, -0.00120762, -0.468376, 58.2172, 27.5281, 6.5097, 1.3689, 3.34598, 0.101696, -0.000403541, -0.000143531, 0.000524213, 0.000997236, -0.00512106, -0.00178623, 0.0323189, -0.0190843, -0.00559366, -0.0389847, 0.0908619, 0.0199386, 0.47087, -0.542066, 0.336235, -2.08322, -2.16557, -0.129985, 0.470722, -0.542389, 0.335659, -2.08343, -2.17, -0.123864, -0.00349116, 0.0340062, 0.00861928, 0.016524, 0.00375089, -0.00251727
0.12525, 1.6944, -1.22615, -1.53804, -0.899581, -1.19666, 1.23011, -1.30361, 0.046992, 0.00395255, 0.0021437, 0.000790331, -0.0841547, 0.0076384, 0.000171444, -0.543754, 58.0347, 27.417, 6.5097, 1.36249, 3.33133, 0.0751453, -0.00043429, -0.00012445, 0.000519803, 0.00101985, -0.00521747, -0.00179634, 0.0315453, -0.0208144, -0.00169705, -0.0308486, 0.0948399, 0.0213408, 0.470867, -0.542032, 0.336244, -2.0832, -2.16557, -0.129987, 0.470739, -0.542385, 0.335667, -2.08344, -2.17005, -0.123744, -0.00354621, 0.0345577, 0.00875364, 0.0183112, 0.00453577, 0.00153143
0.12625, 1.69444, -1.22616, -1.53803, -0.899588, -1.19674, 1.23011, -1.30361, 0.0427349, -0.000798678, 0.00235678, -0.00118944, -0.0818797, 0.00529015, 0.000346542, -0.583427, 58.1815, 27.3774, 6.58508, 1.3689, 3.33865, 0.0687366, -0.000466735, -0.000106987, 0.000530085, 0.00105402, -0.0052897, -0.00181076, 0.0331395, -0.0188563, -0.00472002, -0.0322195, 0.0873949, 0.019687, 0.470863, -0.541997, 0.336253, -2.08319, -2.16556, -0.12999, 0.470754, -0.54238, 0.33566, -2.08343, -2.17008, -0.123637, -0.00360158, 0.0351128, 0.00888872, 0.0162473, 0.00390366, -0.00150729
0.12725, 1.69448, -1.22615, -1.53804, -0.899592, -1.19683, 1.23012, -1.30361, 0.0429166, 0.00113796, -0.00102755, -0.00242821, -0.0805622, 0.00465852, 0.000939269, -0.619133, 58.11, 27.4885, 6.65649, 1.37439, 3.31759, 0.0495105, -0.000502976, -9.1959e-05, 0.000533932, 0.00108962, -0.00538294, -0.00181405, 0.0334611, -0.0186749, -0.00506106, -0.0354478, 0.0885574, 0.0191888, 0.47086, -0.541962, 0.336262, -2.08317, -2.16555, -0.129992, 0.470767, -0.54238, 0.335659, -2.08344, -2.17012, -0.123506, -0.00365725, 0.0356715, 0.00902453, 0.0160096, 0.00419034, -0.00175336
0.12825, 1.69453, -1.22615, -1.53804, -0.899593, -1.19691, 1.23012, -1.30361, 0.0455011, 0.00168664, -0.000685247, -0.00159242, -0.0795195, 0.0078329, 0.000385944, -0.76989, 58.0704, 27.4885, 6.65649, 1.3808, 3.324, 0.0559192, -0.000534933, -7.11909e-05, 0.000537539, 0.00112309, -0.00547382, -0.00183084, 0.0331339, -0.0207233, -0.00440236, -0.0317408, 0.0900885, 0.0221233, 0.470856, -0.541926, 0.336271, -2.08315, -2.16554, -0.129995, 0.470785, -0.542374, 0.335659, -2.08343, -2.17017, -0.123381, -0.00371324, 0.0362337, 0.00916105, 0.0180117, 0.00505831, -0.000978701
0.12925, 1.69457, -1.22614, -1.53804, -0.899592, -1.19699, 1.23012, -1.30361, 0.0451115, 0.00279485, -0.00138501, -0.00104182, -0.0829982, 0.00659147, -0.000728205, -0.809562, 57.999, 27.5281, 6.65649, 1.37439, 3.30295, 0.0824695, -0.000571585, -5.60628e-05, 0.000540158, 0.00115259, -0.00556073, -0.0018387, 0.034653, -0.0196571, -0.00405042, -0.0345201, 0.093702, 0.020895, 0.470852, -0.54189, 0.33628, -2.08314, -2.16554, -0.129998, 0.470797, -0.542373, 0.335659, -2.08344, -2.1702, -0.123263, -0.00376953, 0.0367994, 0.00929827, 0.0169581, 0.00402641, -0.000698733
0.13025, 1.6946, -1.22614, -1.53804, -0.899593, -1.19707, 1.23013, -1.30361, 0.0411724, 0.000192783, 0.000839779, -0.000679706, -0.0810535, 0.00510782, 0.000258897, -0.845268, 58.0704, 27.4528, 6.65649, 1.37439, 3.29562, 0.0623279, -0.000606808, -3.93984e-05, 0.000545253, 0.00117867, -0.00563761, -0.00184769, 0.0363447, -0.0177891, -0.00471295, -0.0322838, 0.0887718, 0.0175104, 0.470849, -0.541853, 0.336289, -2.08312, -2.16553, -0.13, 0.470811, -0.54237, 0.335657, -2.08343, -2.17024, -0.12316, -0.00382613, 0.0373685, 0.00943618, 0.0150725, 0.00295139, -0.00142209
0.13125, 1.69465, -1.22613, -1.53804, -0.899597, -1.19715, 1.23013, -1.30362, 0.0357977, 0.00356219, -0.000275454, -0.00137003, -0.0796395, 0.00451678, -0.00128668, -0.920646, 57.9236, 27.4885, 6.69617, 1.37439, 3.27456, 0.101696, -0.000640954, -1.97937e-05, 0.000544856, 0.00120485, -0.0057325, -0.00186886, 0.0386916, -0.0147585, -0.00303468, -0.0322167, 0.0909378, 0.0142778, 0.470845, -0.541816, 0.336299, -2.0831, -2.16552, -0.130003, 0.470828, -0.542365, 0.335661, -2.08343, -2.1703, -0.123039, -0.00388303, 0.0379411, 0.00957479, 0.0121348, 0.000823515, 9.97785e-05
0.13225, 1.69468, -1.22614, -1.53804, -0.899599, -1.19722, 1.23014, -1.30362, 0.0377644, 0.00144677, -0.00111172, -0.000905001, -0.0786215, 0.00353121, -0.000383977, -0.960319, 57.9633, 27.5281, 6.69617, 1.37439, 3.26724, 0.0888782, -0.000679325, -3.73573e-06, 0.000551615, 0.00123123, -0.00581221, -0.00187309, 0.0386193, -0.0156218, -0.00474775, -0.0334688, 0.0878786, 0.0149355, 0.470841, -0.541778, 0.336308, -2.08308, -2.16551, -0.130006, 0.470841, -0.542363, 0.335658, -2.08343, -2.17033, -0.122932, -0.00394022, 0.0385172, 0.00971408, 0.0128746, 0.00177141, -0.00146811
0.13325, 1.69473, -1.22614, -1.53803, -0.8996, -1.1973, 1.23014, -1.30362, 0.0399472, 0.000129287, 0.00102204, -0.000597072, -0.0772545, 0.00254071, 0.000251959, -1.0357, 57.999, 27.4528, 6.69617, 1.36249, 3.26724, 0.0751453, -0.000714112, 1.56748e-05, 0.000556477, 0.00125491, -0.00588849, -0.00188957, 0.0376412, -0.0171866, -0.00497439, -0.0320033, 0.0851515, 0.0177379, 0.470837, -0.541739, 0.336318, -2.08306, -2.1655, -0.130009, 0.470858, -0.542358, 0.335657, -2.08342, -2.17037, -0.122833, -0.00399771, 0.0390967, 0.00985405, 0.0143365, 0.00341612, -0.00144809
0.13425, 1.69476, -1.22614, -1.53803, -0.899602, -1.19737, 1.23015, -1.30362, 0.040879, 0.000921406, 0.00382331, -0.00122857, -0.0768985, 0.00703652, -0.000815883, -1.07537, 57.9633, 27.4528, 6.73187, 1.36249, 3.25259, 0.101696, -0.000751281, 3.32629e-05, 0.000560273, 0.00127937, -0.00597063, -0.00190153, 0.037371, -0.019229, -0.00330135, -0.0257328, 0.0880693, 0.0217913, 0.470833, -0.5417, 0.336328, -2.08305, -2.1655, -0.130011, 0.470873, -0.542354, 0.335656, -2.08342, -2.17041, -0.122727, -0.0040555, 0.0396796, 0.00999469, 0.01637, 0.00409157, 0.000323243
0.13525, 1.69481, -1.22614, -1.53803, -0.899607, -1.19745, 1.23015, -1.30362, 0.0363836, -0.00105617, 0.00197546, -0.00488553, -0.0775047, 0.00545558, 0.000913756, -1.18645, 58.0347, 27.4885, 6.77154, 1.38721, 3.24527, 0.0623279, -0.000787201, 5.3864e-05, 0.000568091, 0.00130727, -0.00604924, -0.00191682, 0.0394219, -0.0169179, -0.00557193, -0.0300892, 0.0864257, 0.0178185, 0.470829, -0.541661, 0.336338, -2.08303, -2.16549, -0.130014, 0.47089, -0.542348, 0.335653, -2.08341, -2.17046, -0.12262, -0.00411357, 0.0402659, 0.010136, 0.0139944, 0.00290933, -0.00202691
0.13625, 1.69481, -1.22614, -1.53803, -0.899607, -1.19745, 1.23015, -1.30362, 0.0363836, -0.00105617, 0.00197546, -0.00488553, -0.0775047, 0.00545558, 0.000913756, -1.18645, 58.0347, 27.4885, 6.77154, 1.38721, 3.24527, 0.0623279, -0.000828685, 5.66271e-05, 0.000571711, 0.00129512, -0.00606501, -0.00191221, 0.0400283, -0.0169561, -0.00561798, -0.0299664, 0.0867262, 0.0178694, 0.470825, -0.54162, 0.336348, -2.08301, -2.16548, -0.130017, 0.47089, -0.542348, 0.335653, -2.08341, -2.17046, -0.12262, -0.00417194, 0.0408555, 0.0102779, 0.0139944, 0.00290933, -0.00202691
0.13725, 1.69488, -1.22613, -1.53804, -0.899616, -1.19759, 1.23017, -1.30362, 0.0353499, 0.000922619, 0.00176888, -0.00420897, -0.0761479, 0.00337834, 0.000563945, -1.22613, 57.9633, 27.5638, 6.84296, 1.37439, 3.23153, 0.0623279, -0.000866029, 8.70811e-05, 0.000576058, 0.00135137, -0.00621126, -0.00193625, 0.0406691, -0.0159629, -0.0046074, -0.0305464, 0.0867847, 0.0169701, 0.470821, -0.541579, 0.336358, -2.08299, -2.16547, -0.13002, 0.470918, -0.542342, 0.335652, -2.08341, -2.17053, -0.122415, -0.00423059, 0.0414484, 0.0104206, 0.013004, 0.00267291, -0.000956847
0.13825, 1.69492, -1.22613, -1.53803, -0.899613, -1.19765, 1.23017, -1.30362, 0.0361872, 0.000615078, 0.00630037, -0.00128134, -0.0720589, 0.00246034, -0.000370184, -1.33721, 57.9633, 27.4885, 6.77154, 1.39911, 3.23153, 0.0824695, -0.000902404, 0.000107809, 0.000579695, 0.0013664, -0.00628256, -0.00195631, 0.0399555, -0.0169089, -0.00295512, -0.0241218, 0.0824419, 0.0197626, 0.470816, -0.541538, 0.336369, -2.08297, -2.16546, -0.130023, 0.470935, -0.542335, 0.335652, -2.0834, -2.17058, -0.122331, -0.00428952, 0.0420447, 0.0105638, 0.0139249, 0.00375746, 0.000899136
0.13925, 1.69496, -1.22613, -1.53803, -0.899622, -1.19772, 1.23018, -1.30362, 0.0371617, 0.00133807, 0.00375768, -0.00356203, -0.0686664, 0.00206757, 0.000973792, -1.48797, 57.9236, 27.5281, 6.88263, 1.41192, 3.22421, 0.0495105, -0.000937312, 0.000130913, 0.000584342, 0.0013886, -0.00636231, -0.00197626, 0.0392105, -0.0178544, -0.00388212, -0.0261445, 0.0809002, 0.0213344, 0.470812, -0.541496, 0.336379, -2.08295, -2.16545, -0.130026, 0.470955, -0.542325, 0.335652, -2.08338, -2.17063, -0.12223, -0.00434873, 0.0426443, 0.0107077, 0.0147493, 0.00527498, 0.000214123
0.14025, 1.695, -1.22613, -1.53803, -0.899622, -1.19778, 1.23018, -1.30362, 0.0377078, 0.0051239, 0.00521071, -0.00152867, -0.066282, 0.00230925, -0.000571599, -1.48797, 57.8879, 27.5638, 6.84296, 1.43024, 3.20224, 0.0824695, -0.000978831, 0.000146595, 0.000586394, 0.00140617, -0.00644055, -0.00198709, 0.0390773, -0.018242, -0.000914416, -0.0222272, 0.0828838, 0.0231164, 0.470808, -0.541453, 0.33639, -2.08293, -2.16544, -0.130029, 0.470968, -0.542323, 0.335654, -2.08338, -2.17067, -0.122136, -0.00440822, 0.0432472, 0.0108522, 0.0151811, 0.00556677, 0.00329667
0.14125, 1.69504, -1.22613, -1.53802, -0.899628, -1.19784, 1.23019, -1.30362, 0.0427919, 0.00193575, 0.00577484, -0.00200864, -0.0682795, 0.00213592, -0.00156793, -1.52764, 57.9633, 27.4885, 6.88263, 1.42383, 3.18851, 0.114513, -0.00101522, 0.000168786, 0.000593016, 0.00141934, -0.0065052, -0.00201358, 0.0378576, -0.0211424, -0.00298479, -0.0239631, 0.0817342, 0.0292665, 0.470803, -0.54141, 0.336401, -2.08291, -2.16543, -0.130032, 0.470987, -0.542314, 0.335652, -2.08336, -2.17072, -0.122061, -0.00446799, 0.0438533, 0.0109973, 0.0178982, 0.00781685, 0.00149812
0.14225, 1.69508, -1.22613, -1.53803, -0.899628, -1.1979, 1.2302, -1.30362, 0.0370386, 0.00150279, 0.000726763, -0.000457206, -0.0652999, 0.00658687, -0.0012827, -1.60302, 57.9633, 27.6392, 6.84296, 1.42383, 3.18118, 0.120922, -0.00105448, 0.000190074, 0.000601119, 0.00143796, -0.00657387, -0.00203001, 0.0424727, -0.0178788, -0.004163, -0.0214181, 0.0813921, 0.0205915, 0.470799, -0.541366, 0.336412, -2.08288, -2.16542, -0.130036, 0.471005, -0.542306, 0.335648, -2.08335, -2.17076, -0.121976, -0.00452802, 0.0444627, 0.0111431, 0.0147016, 0.00391857, -0.000139927
0.14325, 1.69511, -1.22613, -1.53802, -0.899639, -1.19795, 1.2302, -1.30362, 0.0359944, 0.00116108, 0.00338547, -0.00525818, -0.0634751, 0.00484278, -0.000380451, -1.52764, 57.9633, 27.5281, 6.91833, 1.43573, 3.18118, 0.108104, -0.00109257, 0.000209919, 0.000603302, 0.00144871, -0.0066454, -0.00204992, 0.0410779, -0.0187652, -0.0042362, -0.0217665, 0.079231, 0.0248045, 0.470794, -0.541322, 0.336423, -2.08286, -2.16541, -0.130039, 0.471021, -0.542298, 0.33565, -2.08333, -2.17081, -0.121897, -0.00458833, 0.0450753, 0.0112895, 0.0154738, 0.00595614, 0.00012356
0.14425, 1.69516, -1.22613, -1.53803, -0.899642, -1.198, 1.23021, -1.30362, 0.0391295, -0.00161219, 0.000720627, -0.00379436, -0.0611383, 0.00383844, 0.000695773, -1.60302, 58.0704, 27.6035, 6.91833, 1.43024, 3.17386, 0.0824695, -0.00113022, 0.00023338, 0.000614566, 0.00146484, -0.00670236, -0.00207034, 0.0410042, -0.0198984, -0.00691275, -0.0237719, 0.0745187, 0.0251484, 0.47079, -0.541277, 0.336434, -2.08284, -2.1654, -0.130042, 0.471041, -0.542288, 0.335644, -2.08331, -2.17085, -0.121826, -0.00464891, 0.0456911, 0.0114364, 0.016444, 0.00710584, -0.00239622
0.14525, 1.6952, -1.22613, -1.53802, -0.899645, -1.19805, 1.23022, -1.30362, 0.0402499, 0.000685202, 0.0015786, -0.00497927, -0.0600377, 0.00254168, -0.00383726, -1.63873, 57.999, 27.5638, 6.88263, 1.43024, 3.18118, 0.0623279, -0.00116837, 0.000255219, 0.000615984, 0.0014711, -0.0067706, -0.00208896, 0.0400383, -0.0208258, -0.00564303, -0.0240531, 0.0756642, 0.0326137, 0.470785, -0.541231, 0.336446, -2.08282, -2.16539, -0.130045, 0.471059, -0.542278, 0.335647, -2.0833, -2.17089, -0.121755, -0.00470975, 0.04631, 0.011584, 0.0173214, 0.00852048, -0.000873855
0.14625, 1.69523, -1.22613, -1.53802, -0.899654, -1.1981, 1.23022, -1.30362, 0.0355109, -0.000311247, 0.00118002, -0.00457293, -0.0550509, 0.00658008, -0.00274142, -1.56335, 58.0347, 27.5638, 6.91833, 1.44855, 3.18118, 0.0559192, -0.00120778, 0.000275929, 0.000623037, 0.00148114, -0.00682962, -0.00211337, 0.042517, -0.0193646, -0.0057599, -0.0176046, 0.0727449, 0.0280458, 0.47078, -0.541185, 0.336457, -2.0828, -2.16538, -0.130049, 0.471077, -0.542269, 0.335645, -2.08328, -2.17094, -0.12169, -0.00477085, 0.0469322, 0.0117321, 0.0158859, 0.00665399, -0.00118395
0.14725, 1.69527, -1.22613, -1.53802, -0.89966, -1.19814, 1.23023, -1.30362, 0.0346892, -0.000157121, 0.00220257, -0.00336227, -0.0511843, 0.0102471, -0.00312641, -1.60302, 58.0347, 27.6392, 6.91833, 1.46045, 3.16653, 0.0824695, -0.0012455, 0.000299156, 0.000628311, 0.00148951, -0.00688982, -0.00213917, 0.0432688, -0.0199552, -0.00482389, -0.010879, 0.0716626, 0.0284076, 0.470776, -0.541138, 0.336469, -2.08277, -2.16537, -0.130052, 0.471096, -0.542258, 0.335645, -2.08325, -2.17099, -0.121626, -0.00483222, 0.0475574, 0.0118809, 0.016476, 0.00641715, -0.000247619
0.14825, 1.6953, -1.22613, -1.53802, -0.899667, -1.19818, 1.23023, -1.30362, 0.0344669, -6.69644e-05, 0.000961897, -0.005569, -0.0432024, 0.012722, -0.00279558, -1.52764, 58.0347, 27.6749, 6.91833, 1.46686, 3.15921, 0.0952869, -0.0012867, 0.000318453, 0.000634395, 0.00149717, -0.00694638, -0.0021584, 0.0422838, -0.021495, -0.00534384, -0.0069684, 0.0670326, 0.0319317, 0.470771, -0.54109, 0.336481, -2.08275, -2.16536, -0.130056, 0.471112, -0.542249, 0.335644, -2.08323, -2.17102, -0.121565, -0.00489384, 0.0481858, 0.0120302, 0.0178977, 0.00816218, -0.000506344
0.14925, 1.69534, -1.22613, -1.53802, -0.899671, -1.19822, 1.23024, -1.30362, 0.0364309, -0.00177954, -4.0202e-05, -0.00647828, -0.0429767, 0.00999105, -0.0029906, -1.52764, 58.11, 27.7146, 6.88263, 1.49707, 3.14548, 0.120922, -0.00132734, 0.000341487, 0.000643258, 0.00150031, -0.00699848, -0.00218372, 0.0418344, -0.0222215, -0.00722492, -0.0108549, 0.0643275, 0.034536, 0.470766, -0.541042, 0.336493, -2.08273, -2.16535, -0.130059, 0.471131, -0.542239, 0.33564, -2.08321, -2.17107, -0.121515, -0.00495572, 0.0488173, 0.01218, 0.018476, 0.00955883, -0.00216687
0.15025, 1.69538, -1.22614, -1.53802, -0.899679, -1.19825, 1.23025, -1.30363, 0.0367821, -0.00367076, -0.00160512, -0.00807505, -0.0412619, 0.0126547, -0.00263544, -1.48797, 58.2172, 27.79, 6.88263, 1.49158, 3.13083, 0.134655, -0.00136822, 0.000364525, 0.000654747, 0.00150376, -0.00704518, -0.00221322, 0.0422992, -0.0232571, -0.00894549, -0.00994427, 0.0629419, 0.0358507, 0.470761, -0.540993, 0.336505, -2.0827, -2.16534, -0.130063, 0.47115, -0.542227, 0.335634, -2.08318, -2.17111, -0.12147, -0.00501785, 0.0494519, 0.0123305, 0.0194015, 0.0100441, -0.00382062
0.15125, 1.69541, -1.22614, -1.53801, -0.899683, -1.19828, 1.23026, -1.30362, 0.0355415, -0.00335926, 0.00175986, -0.00432613, -0.0359584, 0.0088488, -0.00111079, -1.37688, 58.2568, 27.6749, 6.80725, 1.50348, 3.14548, 0.114513, -0.00140801, 0.000385892, 0.00065768, 0.00149309, -0.00708822, -0.00223362, 0.0424428, -0.0222462, -0.0073777, -0.00570808, 0.0567553, 0.033242, 0.470756, -0.540944, 0.336517, -2.08268, -2.16533, -0.130066, 0.471168, -0.542216, 0.335636, -2.08316, -2.17115, -0.121444, -0.00508023, 0.0500896, 0.0124815, 0.0183926, 0.010256, -0.00211421
0.15225, 1.69544, -1.22614, -1.53801, -0.899693, -1.19831, 1.23027, -1.30363, 0.0373105, -0.00129953, -0.000485983, -0.00653641, -0.0367338, 0.00742914, -0.00156137, -1.37688, 58.2172, 27.7503, 6.80725, 1.5163, 3.1235, 0.134655, -0.00144687, 0.000410351, 0.00066184, 0.00149145, -0.00714217, -0.00226708, 0.0419361, -0.022994, -0.00753144, -0.0102689, 0.0594756, 0.0360535, 0.470751, -0.540894, 0.33653, -2.08266, -2.16532, -0.13007, 0.471188, -0.542202, 0.335638, -2.08313, -2.17121, -0.121398, -0.00514285, 0.0507303, 0.012633, 0.0190529, 0.0114521, -0.00205949
0.15325, 1.69548, -1.22614, -1.53802, -0.899702, -1.19833, 1.23028, -1.30362, 0.0342138, 0.0016141, -0.000611048, -0.00815941, -0.0323446, 0.00548986, 0.00134435, -1.33721, 58.2568, 27.9011, 6.80725, 1.52179, 3.1235, 0.0687366, -0.00148756, 0.000432928, 0.000671815, 0.00149665, -0.00718594, -0.00228695, 0.042173, -0.0217223, -0.00614728, -0.00991797, 0.0582148, 0.0329175, 0.470746, -0.540843, 0.336542, -2.08263, -2.16531, -0.130073, 0.471207, -0.542189, 0.335633, -2.0831, -2.17124, -0.121354, -0.00520573, 0.051374, 0.0127851, 0.0177797, 0.0115955, -0.000539822
0.15425, 1.69551, -1.22614, -1.538, -0.899711, -1.19835, 1.23029, -1.30362, 0.0337919, 0.00136608, 0.00568351, -0.0116541, -0.0288782, 0.004334, 0.000854125, -1.37688, 58.2568, 27.79, 6.77154, 1.52179, 3.11618, 0.0687366, -0.00152431, 0.00045961, 0.000674191, 0.00148036, -0.0072268, -0.00232332, 0.0398891, -0.0235946, -0.00468293, -0.00527432, 0.054772, 0.0402894, 0.470741, -0.540792, 0.336555, -2.08261, -2.1653, -0.130077, 0.47123, -0.542173, 0.335637, -2.08307, -2.1713, -0.121338, -0.00526884, 0.0520207, 0.0129378, 0.0195582, 0.0143476, 0.0013563
0.15525, 1.69554, -1.22614, -1.538, -0.899724, -1.19837, 1.2303, -1.30362, 0.0323526, 0.000293016, 0.00262424, -0.00886021, -0.0272141, 0.00342881, 0.000537836, -1.22613, 58.2925, 27.8614, 6.77154, 1.54651, 3.10977, 0.0687366, -0.00156892, 0.000478587, 0.0006807, 0.00147468, -0.00727145, -0.00234472, 0.0423466, -0.0217075, -0.00606307, -0.00637338, 0.0521358, 0.0358997, 0.470735, -0.54074, 0.336568, -2.08258, -2.16528, -0.130081, 0.471245, -0.542163, 0.335636, -2.08304, -2.17134, -0.121305, -0.0053322, 0.0526704, 0.0130909, 0.0176479, 0.0127078, -0.000179883
0.15625, 1.69556, -1.22614, -1.538, -0.899729, -1.19839, 1.2303, -1.30362, 0.0305274, -0.00047674, 0.00353472, -0.0112951, -0.0254179, 0.003055, 0.00057223, -1.18645, 58.3282, 27.9368, 6.69617, 1.55932, 3.09512, 0.0623279, -0.00161302, 0.000498928, 0.000686675, 0.00146388, -0.00730982, -0.00236576, 0.0425965, -0.0215767, -0.00651787, -0.00586292, 0.0501518, 0.0373043, 0.47073, -0.540687, 0.336581, -2.08255, -2.16527, -0.130085, 0.471261, -0.542152, 0.335636, -2.08302, -2.17138, -0.121284, -0.0053958, 0.0533231, 0.0132446, 0.017446, 0.0131794, -0.000511379
0.15725, 1.6956, -1.22615, -1.53799, -0.899741, -1.1984, 1.23031, -1.30362, 0.0309712, -0.00195871, 0.0060618, -0.0118407, -0.0239606, 0.00220661, -0.000382263, -1.22613, 58.4036, 27.9368, 6.69617, 1.56482, 3.09512, 0.0824695, -0.00165089, 0.000525292, 0.000693405, 0.00145362, -0.00734262, -0.00240565, 0.042147, -0.0224676, -0.00671956, -0.00402417, 0.0472966, 0.0409564, 0.470725, -0.540634, 0.336594, -2.08253, -2.16526, -0.130089, 0.471283, -0.542134, 0.335636, -2.08298, -2.17143, -0.12127, -0.00545963, 0.0539787, 0.0133988, 0.0182484, 0.0143472, -0.000514789
0.15825, 1.69563, -1.22615, -1.53799, -0.899756, -1.19841, 1.23032, -1.30362, 0.0302735, -0.00464772, 0.0061279, -0.0122091, -0.0187924, 0.00186979, -0.000505524, -1.22613, 58.5504, 28.0121, 6.69617, 1.58954, 3.0878, 0.0888782, -0.00169294, 0.00054895, 0.000705066, 0.00144267, -0.00736915, -0.00243554, 0.0422101, -0.0227802, -0.00837817, -0.0020114, 0.0405646, 0.0425826, 0.470719, -0.54058, 0.336608, -2.0825, -2.16525, -0.130092, 0.471302, -0.542119, 0.33563, -2.08294, -2.17147, -0.121263, -0.00552369, 0.0546373, 0.0135535, 0.0184375, 0.0152139, -0.00201824
0.15925, 1.69565, -1.22615, -1.53799, -0.899764, -1.19842, 1.23033, -1.30363, 0.0285664, -0.00302966, 0.00637522, -0.0105283, -0.0184282, 0.00134212, -0.00129644, -1.18645, 58.5504, 28.0875, 6.62079, 1.58313, 3.0878, 0.114513, -0.00173875, 0.00056783, 0.000708353, 0.001425, -0.00740544, -0.00246178, 0.0438157, -0.0214454, -0.00710918, -0.000746072, 0.0417393, 0.040481, 0.470714, -0.540525, 0.336621, -2.08248, -2.16524, -0.130096, 0.471317, -0.542108, 0.335633, -2.08291, -2.17151, -0.121252, -0.00558799, 0.0552987, 0.0137087, 0.0171451, 0.0140392, -0.000821158
0.16025, 1.69567, -1.22615, -1.53797, -0.899779, -1.19842, 1.23034, -1.30363, 0.0250464, -0.00196815, 0.00907422, -0.0121056, -0.0137485, 0.00174634, -0.00634081, -1.18645, 58.5504, 28.0478, 6.65649, 1.58313, 3.06674, 0.134655, -0.00177903, 0.000591601, 0.000708878, 0.00139993, -0.00743818, -0.00250064, 0.0440466, -0.0209181, -0.00558052, 0.00415199, 0.0393546, 0.0463327, 0.470708, -0.54047, 0.336635, -2.08245, -2.16522, -0.1301, 0.471337, -0.542091, 0.335639, -2.08287, -2.17157, -0.121255, -0.00565251, 0.0559631, 0.0138645, 0.016619, 0.0142173, 0.000822628
0.16125, 1.69569, -1.22615, -1.53796, -0.899792, -1.19843, 1.23034, -1.30363, 0.0249864, -0.00210861, 0.00601374, -0.0114078, -0.0100595, 0.00592053, -0.00340571, -1.15075, 58.5861, 28.0875, 6.62079, 1.57764, 3.06674, 0.101696, -0.00182514, 0.000610705, 0.000713795, 0.00137911, -0.00746735, -0.00252195, 0.0453191, -0.0214145, -0.00632978, 0.00730318, 0.0387427, 0.0425716, 0.470702, -0.540414, 0.336649, -2.08242, -2.16521, -0.130104, 0.471352, -0.542079, 0.33564, -2.08285, -2.1716, -0.121255, -0.00571726, 0.0566303, 0.0140207, 0.0170682, 0.0137657, 2.35596e-05
0.16225, 1.69571, -1.22615, -1.53795, -0.89981, -1.19843, 1.23035, -1.30363, 0.0224962, -0.00230472, 0.0108896, -0.015818, -0.00820741, 0.00492176, -0.00355322, -1.15075, 58.6258, 28.0875, 6.65649, 1.59595, 3.05209, 0.128246, -0.00186941, 0.000632051, 0.000717803, 0.00135503, -0.00749669, -0.00255643, 0.0443365, -0.0219294, -0.00533794, 0.00998668, 0.0368789, 0.0471411, 0.470697, -0.540357, 0.336663, -2.08239, -2.1652, -0.130108, 0.471369, -0.542065, 0.335642, -2.08281, -2.17165, -0.121259, -0.00578224, 0.0573004, 0.0141774, 0.0175188, 0.0152737, 0.00129577
0.16325, 1.69573, -1.22615, -1.53795, -0.899823, -1.19843, 1.23037, -1.30363, 0.0211343, 0.000310351, 0.0106576, -0.0132766, -0.00608881, 0.00895275, -0.000626679, -1.18645, 58.6972, 28.1232, 6.58508, 1.59595, 3.03744, 0.0751453, -0.00191447, 0.000654353, 0.000722554, 0.00132882, -0.00752365, -0.00258414, 0.0461823, -0.0215252, -0.00315, 0.0160686, 0.0398364, 0.0412664, 0.470691, -0.5403, 0.336677, -2.08237, -2.16519, -0.130113, 0.471387, -0.54205, 0.335644, -2.08278, -2.1717, -0.121268, -0.00584743, 0.0579733, 0.0143346, 0.0171978, 0.0137693, 0.00333543
0.16425, 1.69574, -1.22615, -1.53793, -0.899842, -1.19843, 1.23038, -1.30362, 0.0167662, -0.000320694, 0.0113092, -0.014117, -0.00496292, 0.00712065, -0.000586202, -1.22613, 58.7329, 28.1232, 6.62079, 1.60785, 3.02371, 0.0751453, -0.00196011, 0.000675236, 0.000725918, 0.00130256, -0.00755277, -0.00261319, 0.0480857, -0.0192218, -0.00338683, 0.0159356, 0.0376271, 0.0384017, 0.470685, -0.540242, 0.336692, -2.08234, -2.16517, -0.130117, 0.471403, -0.542036, 0.335647, -2.08275, -2.17174, -0.121275, -0.00591285, 0.058649, 0.0144922, 0.0148921, 0.012508, 0.00303157
0.16525, 1.69575, -1.22616, -1.53793, -0.899853, -1.19842, 1.23038, -1.30363, 0.0159951, -0.00350955, 0.0110046, -0.014244, -0.00321498, 0.00522974, -0.000517113, -1.22613, 58.8837, 28.1589, 6.5097, 1.59595, 3.02371, 0.0751453, -0.00201042, 0.000691842, 0.000732216, 0.00127681, -0.0075728, -0.00263629, 0.0489169, -0.0187158, -0.00556522, 0.0147735, 0.0324454, 0.0382336, 0.470679, -0.540183, 0.336706, -2.08231, -2.16516, -0.130121, 0.471415, -0.542025, 0.335647, -2.08272, -2.17177, -0.12129, -0.00597848, 0.0593275, 0.0146504, 0.0142705, 0.0126835, 0.000923426
0.16625, 1.69577, -1.22615, -1.53791, -0.899879, -1.19842, 1.23039, -1.30363, 0.0154001, 0.00132428, 0.0147406, -0.0189158, -0.0024037, 0.00384848, -0.000710743, -1.22613, 58.8837, 28.1589, 6.58508, 1.59595, 3.02371, 0.0824695, -0.00205576, 0.000712613, 0.000733988, 0.00125393, -0.00760635, -0.00266991, 0.0469458, -0.0198712, -0.00218546, 0.0156656, 0.0364225, 0.0439622, 0.470673, -0.540124, 0.336721, -2.08228, -2.16515, -0.130125, 0.471432, -0.542009, 0.335652, -2.08269, -2.17182, -0.121289, -0.00604433, 0.0600088, 0.0148089, 0.015413, 0.0148344, 0.00468958
0.16725, 1.69578, -1.22616, -1.5379, -0.899893, -1.19842, 1.2304, -1.30363, 0.0167646, -0.00213013, 0.0132769, -0.0156594, -0.0015604, 0.0084041, -0.00173167, -1.30151, 59.0305, 28.1986, 6.5097, 1.58954, 3.00174, 0.114513, -0.00210511, 0.00073324, 0.00073937, 0.0012239, -0.00763178, -0.00270056, 0.0489466, -0.0206873, -0.00400173, 0.0199236, 0.034746, 0.0431986, 0.470667, -0.540064, 0.336735, -2.08225, -2.16513, -0.130129, 0.471448, -0.541996, 0.335653, -2.08266, -2.17187, -0.121304, -0.00611038, 0.0606929, 0.014968, 0.0161669, 0.0138596, 0.00271572
0.16825, 1.69579, -1.22616, -1.53789, -0.899917, -1.19842, 1.23041, -1.30363, 0.0124011, 0.000711402, 0.0123207, -0.0182285, -0.00142409, 0.00647371, -0.00171636, -1.30151, 59.1019, 28.2343, 6.5097, 1.59595, 2.99441, 0.128246, -0.00215449, 0.000750812, 0.000742242, 0.00119863, -0.0076602, -0.00273371, 0.0505356, -0.0182976, -0.00301096, 0.0173214, 0.0370285, 0.0407126, 0.470661, -0.540003, 0.33675, -2.08222, -2.16512, -0.130134, 0.471461, -0.541983, 0.335657, -2.08262, -2.17192, -0.121311, -0.00617665, 0.0613797, 0.0151275, 0.0138085, 0.0127258, 0.00367733
0.16925, 1.6958, -1.22615, -1.53787, -0.899945, -1.19842, 1.23042, -1.30363, 0.0126906, 0.00183666, 0.0116412, -0.0208858, -0.000381074, 0.00527422, -0.00091294, -1.30151, 59.0662, 28.274, 6.54541, 1.57764, 2.98068, 0.120922, -0.00220239, 0.000770387, 0.000740944, 0.00117146, -0.00769788, -0.00276703, 0.0500294, -0.0188534, -0.00312804, 0.0151221, 0.0373574, 0.042583, 0.470655, -0.539942, 0.336766, -2.08219, -2.1651, -0.130138, 0.471476, -0.541969, 0.335665, -2.08259, -2.17197, -0.121311, -0.00624313, 0.0620692, 0.0152874, 0.0142747, 0.0139566, 0.0037821
0.17025, 1.69581, -1.22616, -1.53785, -0.89997, -1.19842, 1.23043, -1.30363, 0.0136368, -0.000160602, 0.012983, -0.0220112, -0.000777246, 0.00827456, -0.000401242, -1.33721, 59.2883, 28.2343, 6.54541, 1.58954, 2.98709, 0.114513, -0.00225271, 0.000790155, 0.000747783, 0.00113924, -0.00771758, -0.00280033, 0.0502824, -0.0204555, -0.00381487, 0.018031, 0.0375809, 0.0446113, 0.470649, -0.53988, 0.336781, -2.08216, -2.16509, -0.130143, 0.471491, -0.541954, 0.335665, -2.08255, -2.17201, -0.121335, -0.00630981, 0.0627614, 0.0154478, 0.0157917, 0.0145726, 0.00317344
0.17125, 1.69582, -1.22615, -1.53784, -0.899997, -1.19842, 1.23044, -1.30363, 0.0101069, 0.00386651, 0.0136244, -0.0218446, -0.00102076, 0.0117596, 0.00065946, -1.33721, 59.2883, 28.3454, 6.5097, 1.60144, 2.97336, 0.0888782, -0.00230401, 0.000808792, 0.000748743, 0.00111404, -0.00775682, -0.00282756, 0.0525049, -0.0191288, -0.00074542, 0.0226348, 0.043711, 0.0401433, 0.470642, -0.539817, 0.336796, -2.08213, -2.16508, -0.130147, 0.471505, -0.541941, 0.335671, -2.08252, -2.17206, -0.121331, -0.00637669, 0.0634563, 0.0156086, 0.0145946, 0.0125429, 0.006056
0.17225, 1.69582, -1.22615, -1.53782, -0.900026, -1.19842, 1.23045, -1.30363, 0.0101814, 0.00424105, 0.0150355, -0.0259199, -0.00164238, 0.00928759, 0.000931406, -1.30151, 59.3994, 28.4208, 6.5097, 1.62616, 2.95871, 0.0751453, -0.00235664, 0.000826005, 0.000751567, 0.00108883, -0.00779065, -0.0028557, 0.0515147, -0.0198418, -0.00085951, 0.0196835, 0.044015, 0.0440297, 0.470636, -0.539753, 0.336812, -2.0821, -2.16506, -0.130152, 0.471518, -0.541928, 0.335675, -2.08249, -2.17211, -0.121332, -0.00644377, 0.0641539, 0.0157699, 0.0151999, 0.0142655, 0.00623579
0.17325, 1.69582, -1.22615, -1.5378, -0.900054, -1.19842, 1.23046, -1.30363, 0.00672401, 0.00282639, 0.0139716, -0.0271456, -0.000688867, 0.0113451, 0.000608292, -1.26183, 59.4351, 28.4565, 6.43433, 1.61426, 2.96603, 0.0751453, -0.00240829, 0.000843877, 0.000749929, 0.00105585, -0.00782481, -0.00288425, 0.0537924, -0.0185436, -0.00192091, 0.0209699, 0.0432815, 0.0419165, 0.470629, -0.539689, 0.336828, -2.08207, -2.16505, -0.130156, 0.471531, -0.541915, 0.335684, -2.08247, -2.17215, -0.121341, -0.00651106, 0.0648541, 0.0159315, 0.0138791, 0.0128291, 0.00503168
0.17425, 1.69583, -1.22615, -1.53778, -0.900093, -1.19842, 1.23047, -1.30363, 0.00605901, 0.00257328, 0.0153387, -0.0277179, -0.00160429, 0.0134382, 0.000124776, -1.30151, 59.5819, 28.5319, 6.47003, 1.64447, 2.95871, 0.0824695, -0.00245895, 0.000864681, 0.000755939, 0.00103111, -0.00785495, -0.00292758, 0.054775, -0.018866, -0.00148947, 0.0235288, 0.045124, 0.0426676, 0.470623, -0.539624, 0.336844, -2.08204, -2.16503, -0.130161, 0.471547, -0.541898, 0.335685, -2.08242, -2.17221, -0.121347, -0.00657853, 0.0655569, 0.0160936, 0.0141855, 0.0125089, 0.00545393
0.17525, 1.69583, -1.22615, -1.53776, -0.900123, -1.19842, 1.23048, -1.30363, 0.00802563, 0.00164098, 0.02051, -0.030818, -0.00132644, 0.0100289, 0.000347339, -1.30151, 59.6176, 28.5715, 6.35895, 1.65088, 2.95871, 0.0751453, -0.00251125, 0.00088409, 0.000754809, 0.000997579, -0.00789113, -0.00296192, 0.0523018, -0.0210345, -0.00109101, 0.0235335, 0.0426534, 0.049744, 0.470616, -0.539559, 0.33686, -2.082, -2.16502, -0.130166, 0.471562, -0.541883, 0.335694, -2.08238, -2.17227, -0.121356, -0.0066462, 0.0662624, 0.0162561, 0.0162092, 0.0156839, 0.00632779
0.17625, 1.69584, -1.22615, -1.53773, -0.900161, -1.19842, 1.23048, -1.30363, 0.00841723, 0.00242623, 0.0220295, -0.0350127, -0.00137367, 0.0111511, -0.000282402, -1.26183, 59.7287, 28.5715, 6.32324, 1.66369, 2.98709, 0.0888782, -0.0025621, 0.000903127, 0.000756393, 0.000967236, -0.00791785, -0.00300424, 0.0513393, -0.0226859, -0.000640524, 0.0239986, 0.0446923, 0.0552009, 0.47061, -0.539493, 0.336876, -2.08197, -2.165, -0.13017, 0.471576, -0.541866, 0.3357, -2.08234, -2.17232, -0.121372, -0.00671407, 0.0669704, 0.016419, 0.0177728, 0.017341, 0.00703285
0.17725, 1.69583, -1.22615, -1.53772, -0.900201, -1.19842, 1.23049, -1.30363, 0.00730891, 0.00149016, 0.0195505, -0.0379752, -0.00068942, 0.0132708, -0.00165033, -1.15075, 59.7644, 28.7183, 6.28357, 1.65729, 2.98709, 0.128246, -0.00261828, 0.000917785, 0.000757668, 0.000940093, -0.00795375, -0.00303943, 0.0523748, -0.0228179, -0.00228048, 0.0228352, 0.045018, 0.057198, 0.470603, -0.539426, 0.336892, -2.08194, -2.16499, -0.130175, 0.471586, -0.541854, 0.335705, -2.0823, -2.17238, -0.121374, -0.00678212, 0.0676811, 0.0165822, 0.0178131, 0.0172904, 0.005409
0.17825, 1.69583, -1.22615, -1.53769, -0.900248, -1.19842, 1.23049, -1.30363, 0.00481622, 0.00327955, 0.0244058, -0.0382347, -0.00114603, 0.00972546, -0.000594595, -1.11108, 59.8398, 28.7183, 6.28357, 1.6756, 2.99441, 0.114513, -0.00266904, 0.000938307, 0.000758369, 0.000911838, -0.00798842, -0.00308396, 0.0526768, -0.0216366, 0.000227673, 0.0243695, 0.0454248, 0.0560996, 0.470596, -0.539358, 0.336909, -2.0819, -2.16497, -0.13018, 0.471601, -0.541835, 0.335713, -2.08225, -2.17244, -0.12138, -0.00685036, 0.0683942, 0.0167459, 0.01667, 0.0172672, 0.0080363
0.17925, 1.69583, -1.22615, -1.53767, -0.900295, -1.19842, 1.2305, -1.30363, 0.00386454, 0.00447617, 0.0213425, -0.0405756, 0.00274931, 0.00734581, -0.000636006, -1.11108, 59.9152, 28.8691, 6.24786, 1.70581, 2.99441, 0.120922, -0.00272109, 0.000959727, 0.000762842, 0.000889908, -0.00802447, -0.00312994, 0.0526498, -0.0211109, -0.000690754, 0.0207339, 0.0430116, 0.0571209, 0.470589, -0.53929, 0.336926, -2.08187, -2.16495, -0.130185, 0.471618, -0.541817, 0.335716, -2.0822, -2.1725, -0.121378, -0.00691878, 0.06911, 0.01691, 0.0160416, 0.0181309, 0.00731253
0.18025, 1.69583, -1.22615, -1.53764, -0.900338, -1.19842, 1.2305, -1.30363, 0.00130342, 0.00127714, 0.0243092, -0.0405715, 0.00174006, 0.00527256, 0.000523743, -1.0357, 60.0223, 28.9405, 6.13678, 1.71863, 3.00174, 0.0952869, -0.00277503, 0.000977862, 0.000764822, 0.000862101, -0.00805453, -0.00316483, 0.0542024, -0.0198035, -0.00161401, 0.0213496, 0.0397324, 0.054627, 0.470582, -0.53922, 0.336943, -2.08184, -2.16494, -0.13019, 0.471631, -0.5418, 0.335722, -2.08216, -2.17255, -0.121387, -0.00698738, 0.0698282, 0.0170744, 0.0146893, 0.0174065, 0.00636115
0.18125, 1.69583, -1.22614, -1.53762, -0.900392, -1.19842, 1.23051, -1.30363, 0.000308648, 0.00228566, 0.0234354, -0.0455369, 0.00100565, 0.00881062, 0.000822614, -0.996025, 59.9866, 29.0159, 6.09711, 1.73053, 3.00174, 0.0824695, -0.00282621, 0.00099868, 0.00076236, 0.000833543, -0.00809656, -0.00321531, 0.0545063, -0.020792, -0.00169724, 0.0213764, 0.0439445, 0.0570889, 0.470575, -0.539151, 0.33696, -2.0818, -2.16492, -0.130195, 0.471646, -0.54178, 0.335733, -2.08211, -2.17262, -0.121386, -0.00705617, 0.0705489, 0.0172392, 0.0156158, 0.0178819, 0.00636325
0.18225, 1.69581, -1.22613, -1.53758, -0.900446, -1.19842, 1.23051, -1.30363, -0.00388014, 0.00632206, 0.0282923, -0.0453025, 0.000207088, 0.00636709, 0.000310101, -0.809562, 59.9509, 28.9802, 6.02173, 1.74884, 3.00906, 0.0888782, -0.00288126, 0.0010146, 0.00075693, 0.000800164, -0.00813935, -0.00325928, 0.0556857, -0.0186704, 0.00239038, 0.0243935, 0.0473236, 0.0553002, 0.470568, -0.53908, 0.336977, -2.08177, -2.16491, -0.1302, 0.471657, -0.541764, 0.335746, -2.08207, -2.17269, -0.121389, -0.00712513, 0.0712721, 0.0174044, 0.0136243, 0.0167176, 0.0104429
0.18325, 1.69581, -1.22614, -1.53756, -0.900506, -1.19841, 1.23052, -1.30363, -0.00330793, 0.00318921, 0.0251519, -0.0492042, 0.000299173, 0.00481819, 0.000952007, -0.76989, 60.173, 29.0912, 5.98602, 1.74884, 3.00906, 0.0687366, -0.0029334, 0.00103623, 0.000767494, 0.000781888, -0.0081608, -0.003312, 0.0557981, -0.0191421, -0.00131917, 0.0183113, 0.0443271, 0.0572826, 0.470561, -0.539009, 0.336994, -2.08173, -2.16489, -0.130205, 0.471673, -0.541741, 0.335744, -2.082, -2.17275, -0.121399, -0.00719427, 0.0719978, 0.0175699, 0.0138916, 0.0179295, 0.00691225
0.18425, 1.6958, -1.22613, -1.53753, -0.900567, -1.19842, 1.23052, -1.30363, -0.00464861, 0.00618667, 0.0236932, -0.0542487, -0.00127341, 0.00391349, -0.000823925, -0.658806, 60.173, 29.1666, 5.91064, 1.79187, 3.00174, 0.108104, -0.00298859, 0.00105421, 0.000766774, 0.00075816, -0.00820481, -0.00336389, 0.0558801, -0.0189066, -0.00082475, 0.0137537, 0.0490529, 0.0609321, 0.470554, -0.538937, 0.337012, -2.0817, -2.16487, -0.13021, 0.471686, -0.541723, 0.335753, -2.08194, -2.17282, -0.121391, -0.00726359, 0.0727259, 0.0177358, 0.013609, 0.0184904, 0.00755868
