alisrour97/Franka_experiments/Real_Robot_scripts/servo-franka/Data4/log_dyn_PI3_ki_0.csv
Time,q1,q2,q3,q4,q5,q6,q7,dq1,dq2,dq3,dq4,dq5,dq6,dq7,t1,t2,t3,t4,t5,t6,t7,ex1,ex2,ex3,ex4,ex5,ex6,ev1,ev2,ev3,ev4,ev5,ev6,xd,yd,zd,uxd,uyd,uzd,x,y,z,ux,uy,uz,vxd,vyd,vzd,vx,vy,vz
4.88281e-07, 0.107562, -0.77355, -0.913773, -1.45392, -0.624925, 1.07119, -0.2567, -0.00213829, -0.00187588, -0.00476861, -0.00027374, -0.00304504, -0.000702699, -0.000141985, -0.0161054, 14.7952, 15.8762, 12.7423, 0.693236, 2.27756, -0.226063, 0.00149575, -0.00186459, -0.00149758, -0.00370461, 0.00178018, -0.000489538, 0.00366394, -0.00112204, -0.00150454, -0.00247549, 0.00118221, -0.00695203, -0.011112, -0.444721, 0.635038, -3.13187, -0.0555627, -0.107532, -0.0097793, -0.442815, 0.636649, -3.13544, -0.0566336, -0.110553, 0, 0, 0, -0.00351001, -0.00123725, -0.00175957
0.0171165, 0.10754, -0.77355, -0.913819, -1.45393, -0.62493, 1.07118, -0.256695, 0.000869959, 0.000227289, -0.00255546, -0.000812718, 0.000250572, -0.000506512, -0.000915897, -0.0161054, 14.8309, 15.8405, 12.7423, 0.680419, 2.32059, -0.238881, 0.00147081, -0.00185723, -0.00148275, -0.00366919, 0.00176673, -0.000428127, 0.000204775, -0.0003441, -0.00103338, -0.00268654, 0.000953697, 0.000387374, -0.011112, -0.444721, 0.635038, -3.13187, -0.0555627, -0.107532, -0.00981331, -0.442826, 0.63663, -3.1354, -0.0565106, -0.11053, 1.73063e-06, -1.42215e-06, -3.96181e-06, -0.000119436, -0.000343615, -0.00105107
0.0181165, 0.10754, -0.77355, -0.913819, -1.45393, -0.62493, 1.07118, -0.256695, 0.000869959, 0.000227289, -0.00255546, -0.000812718, 0.000250572, -0.000506512, -0.000915897, -0.0161054, 14.8309, 15.8405, 12.7423, 0.680419, 2.32059, -0.238881, 0.00147081, -0.00185723, -0.00148276, -0.00366921, 0.0017667, -0.000428119, 0.000208981, -0.000339592, -0.00102124, -0.00266242, 0.000970152, 0.000430949, -0.011112, -0.444721, 0.635038, -3.13187, -0.0555628, -0.107532, -0.00981331, -0.442826, 0.63663, -3.1354, -0.0565106, -0.11053, 6.91577e-06, -5.6745e-06, -1.58141e-05, -0.000119436, -0.000343615, -0.00105107
0.0191165, 0.10754, -0.77355, -0.913819, -1.45393, -0.62493, 1.07118, -0.256695, 0.000869959, 0.000227289, -0.00255546, -0.000812718, 0.000250572, -0.000506512, -0.000915897, -0.0161054, 14.8309, 15.8405, 12.7423, 0.680419, 2.32059, -0.238881, 0.0014708, -0.00185724, -0.00148278, -0.00366926, 0.00176665, -0.0004281, 0.000215984, -0.000332106, -0.00100106, -0.00262236, 0.000997492, 0.000503349, -0.011112, -0.444721, 0.635038, -3.13187, -0.0555628, -0.107532, -0.00981331, -0.442826, 0.63663, -3.1354, -0.0565106, -0.11053, 1.55453e-05, -1.2736e-05, -3.55071e-05, -0.000119436, -0.000343615, -0.00105107
0.0201165, 0.10754, -0.77355, -0.913819, -1.45393, -0.62493, 1.07118, -0.256695, 0.000869959, 0.000227289, -0.00255546, -0.000812718, 0.000250572, -0.000506512, -0.000915897, -0.0161054, 14.8309, 15.8405, 12.7423, 0.680419, 2.32059, -0.238881, 0.00147078, -0.00185726, -0.00148283, -0.00366937, 0.00176653, -0.000428062, 0.000225777, -0.000321663, -0.000972901, -0.00256649, 0.00103565, 0.000604392, -0.011112, -0.444721, 0.635038, -3.13187, -0.0555628, -0.107532, -0.00981331, -0.442826, 0.63663, -3.1354, -0.0565106, -0.11053, 2.7609e-05, -2.25855e-05, -6.29913e-05, -0.000119436, -0.000343615, -0.00105107
0.0211165, 0.10754, -0.77355, -0.913819, -1.45393, -0.62493, 1.07118, -0.256695, 0.000869959, 0.000227289, -0.00255546, -0.000812718, 0.000250572, -0.000506512, -0.000915897, -0.0161054, 14.8309, 15.8405, 12.7423, 0.680419, 2.32059, -0.238881, 0.00147076, -0.00185729, -0.00148291, -0.00366954, 0.00176634, -0.000428, 0.000238355, -0.000308285, -0.000936807, -0.00249492, 0.00108454, 0.000733895, -0.0111119, -0.444721, 0.635038, -3.13187, -0.0555629, -0.107532, -0.00981331, -0.442826, 0.63663, -3.1354, -0.0565106, -0.11053, 4.30968e-05, -3.5202e-05, -9.82172e-05, -0.000119436, -0.000343615, -0.00105107
0.0221165, 0.10754, -0.77355, -0.913819, -1.45393, -0.62493, 1.07118, -0.256695, 0.000869959, 0.000227289, -0.00255546, -0.000812718, 0.000250572, -0.000506512, -0.000915897, -0.0161054, 14.8309, 15.8405, 12.7423, 0.680419, 2.32059, -0.238881, 0.00147071, -0.00185733, -0.00148303, -0.0036698, 0.00176607, -0.000427908, 0.000253712, -0.000291994, -0.00089283, -0.00240777, 0.00114411, 0.000891675, -0.0111119, -0.444721, 0.635038, -3.13187, -0.0555631, -0.107533, -0.00981331, -0.442826, 0.63663, -3.1354, -0.0565106, -0.11053, 6.19987e-05, -5.05647e-05, -0.000141136, -0.000119436, -0.000343615, -0.00105107
0.0231165, 0.10754, -0.77355, -0.913819, -1.45393, -0.62493, 1.07118, -0.256695, 0.000869959, 0.000227289, -0.00255546, -0.000812718, 0.000250572, -0.000506512, -0.000915897, -0.0161054, 14.8309, 15.8405, 12.7423, 0.680419, 2.32059, -0.238881, 0.00147066, -0.0018574, -0.0014832, -0.00367016, 0.00176568, -0.000427779, 0.000271842, -0.00027281, -0.000841017, -0.00230515, 0.00121428, 0.00107755, -0.0111118, -0.444721, 0.635037, -3.13187, -0.0555633, -0.107533, -0.00981331, -0.442826, 0.63663, -3.1354, -0.0565106, -0.11053, 8.43044e-05, -6.86525e-05, -0.000191697, -0.000119436, -0.000343615, -0.00105107
0.0241165, 0.10754, -0.77355, -0.913819, -1.45393, -0.62493, 1.07118, -0.256695, 0.000869959, 0.000227289, -0.00255546, -0.000812718, 0.000250572, -0.000506512, -0.000915897, -0.0161054, 14.8309, 15.8405, 12.7423, 0.680419, 2.32059, -0.238881, 0.00147058, -0.00185748, -0.00148343, -0.00367064, 0.00176516, -0.000427608, 0.000292739, -0.000250757, -0.00078142, -0.00218718, 0.00129498, 0.00129134, -0.0111117, -0.444721, 0.635037, -3.13187, -0.0555636, -0.107534, -0.00981331, -0.442826, 0.63663, -3.1354, -0.0565106, -0.11053, 0.000110004, -8.94448e-05, -0.000249853, -0.000119436, -0.000343615, -0.00105107
0.0251165, 0.10754, -0.77355, -0.913819, -1.45393, -0.62493, 1.07118, -0.256695, 0.000869959, 0.000227289, -0.00255546, -0.000812718, 0.000250572, -0.000506512, -0.000915897, -0.0161054, 14.8309, 15.8405, 12.7423, 0.680419, 2.32059, -0.238881, 0.00147048, -0.00185759, -0.00148371, -0.00367125, 0.0017645, -0.000427389, 0.000316396, -0.000225854, -0.000714087, -0.00205398, 0.00138615, 0.00153287, -0.0111116, -0.444721, 0.635037, -3.13187, -0.055564, -0.107535, -0.00981331, -0.442826, 0.63663, -3.1354, -0.0565106, -0.11053, 0.000139087, -0.000112921, -0.000315553, -0.000119436, -0.000343615, -0.00105107
0.0261165, 0.10754, -0.77355, -0.913819, -1.45393, -0.62493, 1.07118, -0.256695, 0.000869959, 0.000227289, -0.00255546, -0.000812718, 0.000250572, -0.000506512, -0.000915897, -0.0161054, 14.8309, 15.8405, 12.7423, 0.680419, 2.32059, -0.238881, 0.00147035, -0.00185772, -0.00148407, -0.00367201, 0.00176368, -0.000427116, 0.000342809, -0.000198123, -0.000639068, -0.00190566, 0.00148771, 0.00180194, -0.0111114, -0.444721, 0.635037, -3.13186, -0.0555644, -0.107536, -0.00981331, -0.442826, 0.63663, -3.1354, -0.0565106, -0.11053, 0.000171544, -0.000139059, -0.00038875, -0.000119436, -0.000343615, -0.00105107
0.0271165, 0.10754, -0.77355, -0.913819, -1.45393, -0.62493, 1.07118, -0.256695, 0.000869959, 0.000227289, -0.00255546, -0.000812718, 0.000250572, -0.000506512, -0.000915897, -0.0161054, 14.8309, 15.8405, 12.7423, 0.680419, 2.32059, -0.238881, 0.0014702, -0.00185789, -0.00148451, -0.00367294, 0.00176268, -0.000426784, 0.00037197, -0.000167586, -0.000556411, -0.00174234, 0.00159959, 0.00209839, -0.0111112, -0.444721, 0.635036, -3.13186, -0.055565, -0.107538, -0.00981331, -0.442826, 0.63663, -3.1354, -0.0565106, -0.11053, 0.000207364, -0.00016784, -0.000469394, -0.000119436, -0.000343615, -0.00105107
0.0281165, 0.107577, -0.77355, -0.913797, -1.45394, -0.624928, 1.07118, -0.256702, 0.00716882, -3.61422e-05, 0.00292274, -0.00099494, -3.79996e-05, -0.00030189, 0.00419224, -0.468376, 14.8706, 15.543, 12.8177, 0.662108, 2.32791, -0.172963, 0.00149691, -0.00186265, -0.00148579, -0.00367621, 0.00175405, -0.00049586, -0.00405819, 0.000709013, 0.000853768, 0.00171243, 0.00145337, 0.00772856, -0.011111, -0.444722, 0.635036, -3.13186, -0.0555656, -0.10754, -0.00978671, -0.44282, 0.636632, -3.1354, -0.0566187, -0.110519, 0.000246538, -0.000199242, -0.000557437, 0.00420889, 0.000644717, 0.000577478
0.0291165, 0.107585, -0.773552, -0.913795, -1.45395, -0.624925, 1.07119, -0.256701, 0.00694933, 2.85486e-05, 0.000268955, -0.00422037, 0.000415372, -0.00125247, 0.00349835, -0.543754, 14.8706, 15.6144, 12.9645, 0.650206, 2.35629, -0.180287, 0.0015022, -0.0018631, -0.00148492, -0.00367611, 0.00175401, -0.000508205, -0.00375337, 0.0006563, -0.000862309, -0.00260884, 0.00401539, 0.00840286, -0.0111107, -0.444722, 0.635035, -3.13186, -0.0555664, -0.107542, -0.00978113, -0.44282, 0.636631, -3.1354, -0.0566387, -0.110521, 0.000289055, -0.000233245, -0.00065283, 0.00406682, 0.000562078, -0.00125117
0.0301165, 0.107586, -0.773548, -0.913791, -1.45395, -0.624929, 1.07119, -0.256705, 0.00493804, 0.00182175, 0.00293316, -0.00409862, -0.0010795, 5.93497e-05, 0.000452379, -0.543754, 14.7952, 15.7651, 13.1509, 0.686827, 2.44967, -0.120778, 0.00150402, -0.00186417, -0.00148718, -0.00368142, 0.00174491, -0.000513011, -0.00405489, 0.000889849, 0.000279782, 0.00145174, 0.00620821, 0.0110713, -0.0111104, -0.444722, 0.635034, -3.13186, -0.0555673, -0.107544, -0.0097792, -0.442819, 0.636633, -3.1354, -0.0566469, -0.11051, 0.000334905, -0.000269828, -0.000755525, 0.00432679, 0.000759672, -0.000192325
0.0311165, 0.107581, -0.773553, -0.913768, -1.45393, -0.624931, 1.07119, -0.256701, 0.00175765, -0.00135434, 0.00913511, 0.00239064, -0.00139789, 0.00433889, 0.00625069, -0.468376, 14.9063, 15.8762, 13.3414, 0.705138, 2.57144, -0.147328, 0.00150505, -0.0018671, -0.00149809, -0.00370906, 0.001758, -0.000514425, -0.00267286, 0.000942689, 0.00449657, 0.0131231, -0.00327409, 0.00375052, -0.0111101, -0.444722, 0.635033, -3.13186, -0.0555684, -0.107547, -0.00977867, -0.442816, 0.636643, -3.13543, -0.0566491, -0.110535, 0.000384079, -0.000308971, -0.000865474, 0.00270756, 0.000688422, 0.00380985
0.0321165, 0.107576, -0.773554, -0.913749, -1.45393, -0.624931, 1.0712, -0.256698, -0.000419818, 0.000590333, 0.0120149, 0.0063271, -0.0018475, 0.00846035, 0.00450568, -0.392998, 14.9777, 16.2095, 13.7143, 0.729857, 2.67215, -0.140919, 0.00150814, -0.00186884, -0.00150774, -0.00373696, 0.00176764, -0.000516426, -0.00271937, 0.000607937, 0.00713867, 0.0214657, -0.0056205, 0.0037169, -0.0111097, -0.444723, 0.635033, -3.13186, -0.0555696, -0.10755, -0.00977591, -0.442815, 0.636652, -3.13545, -0.0566524, -0.110555, 0.000436566, -0.000350653, -0.000982628, 0.00263751, 0.000291089, 0.00632963
0.0331165, 0.107568, -0.773558, -0.913711, -1.45392, -0.62493, 1.07121, -0.256698, -0.0027496, -0.00285448, 0.0195557, 0.00809361, -0.00146906, 0.00730773, 0.00292709, -0.281914, 15.1285, 16.4713, 14.1626, 0.736266, 2.77926, -0.127186, 0.00151408, -0.00187406, -0.00152434, -0.00378043, 0.00178537, -0.000531606, -0.0025991, 0.00225447, 0.0097919, 0.0263229, -0.0101028, 0.00845096, -0.0111092, -0.444723, 0.635032, -3.13185, -0.0555709, -0.107554, -0.00977084, -0.44281, 0.636668, -3.13549, -0.0566757, -0.110589, 0.000492356, -0.000394854, -0.00110694, 0.00233299, 0.00186525, 0.00885415
0.0341165, 0.107555, -0.773559, -0.913672, -1.45389, -0.624932, 1.07123, -0.256696, -0.00526299, -0.00102934, 0.0250302, 0.0108559, -0.00165757, 0.0112666, 0.00180062, -0.131157, 15.2356, 16.8799, 14.5712, 0.754576, 2.87265, -0.114369, 0.00151671, -0.0018778, -0.00154582, -0.00383754, 0.00180857, -0.00053269, -0.00356779, 0.00256949, 0.0128195, 0.0354713, -0.0120233, 0.0102223, -0.0111087, -0.444723, 0.63503, -3.13185, -0.0555724, -0.107558, -0.00976931, -0.442807, 0.636688, -3.13555, -0.0566767, -0.110634, 0.000551439, -0.000441554, -0.00123836, 0.00313937, 0.00214133, 0.0118116
0.0351165, 0.107537, -0.773562, -0.913623, -1.45386, -0.624935, 1.07125, -0.2567, -0.00789074, -0.000686246, 0.0358726, 0.0152712, -0.00110506, 0.013543, 0.000731301, 0.059273, 15.3864, 17.2925, 15.0195, 0.754576, 2.98709, -0.0951428, 0.00151834, -0.00188337, -0.00157174, -0.00390397, 0.00183427, -0.000538706, -0.00537714, 0.00419428, 0.0176846, 0.0471417, -0.0164552, 0.0154485, -0.0111081, -0.444724, 0.635029, -3.13185, -0.0555741, -0.107563, -0.00976909, -0.442802, 0.636713, -3.13561, -0.0566852, -0.110683, 0.000613805, -0.000490732, -0.00137684, 0.0046146, 0.00373758, 0.0166611
0.0361165, 0.107526, -0.773565, -0.913568, -1.45383, -0.624935, 1.07126, -0.256699, -0.00696942, -0.00331675, 0.0404309, 0.0220396, -0.00141489, 0.0138015, 0.00114447, 0.134651, 15.5331, 17.7369, 15.4678, 0.772887, 3.13815, -0.10796, 0.00152439, -0.00188945, -0.0016007, -0.00397701, 0.00186766, -0.000550096, -0.00494602, 0.00456157, 0.0210946, 0.0542615, -0.0234, 0.0163433, -0.0111074, -0.444724, 0.635028, -3.13184, -0.055576, -0.107568, -0.00976462, -0.442796, 0.636741, -3.13568, -0.056702, -0.110745, 0.000679445, -0.000542368, -0.00152234, 0.00400379, 0.00400837, 0.0198901
0.0371165, 0.107514, -0.773561, -0.913512, -1.45379, -0.624932, 1.07128, -0.256694, -0.007204, 0.000491288, 0.0438197, 0.0256785, -0.000265102, 0.0142103, 0.00161173, 0.245735, 15.5688, 18.1852, 15.8408, 0.754576, 3.29562, -0.127186, 0.00153109, -0.00189613, -0.001634, -0.00405611, 0.00190203, -0.000553697, -0.00655144, 0.00520744, 0.0235053, 0.0589191, -0.0230031, 0.0174777, -0.0111067, -0.444725, 0.635026, -3.13184, -0.055578, -0.107574, -0.00975975, -0.44279, 0.636773, -3.13575, -0.0567066, -0.110809, 0.000748347, -0.000596442, -0.0016748, 0.00548514, 0.00463537, 0.022257
0.0381165, 0.10749, -0.773561, -0.913448, -1.45374, -0.624936, 1.0713, -0.256693, -0.0123676, 7.43254e-05, 0.0493788, 0.0320264, -0.000617552, 0.0151151, 0.00117698, 0.436165, 15.6046, 18.5184, 16.178, 0.766478, 3.43936, -0.127186, 0.00153188, -0.00190323, -0.00167035, -0.00414578, 0.00193748, -0.000550667, -0.00457769, 0.00588481, 0.0274071, 0.0676374, -0.0278116, 0.0141623, -0.0111059, -0.444726, 0.635024, -3.13184, -0.0555803, -0.10758, -0.00976094, -0.442784, 0.636808, -3.13583, -0.0567007, -0.110877, 0.000820503, -0.000652933, -0.00183418, 0.00329803, 0.0051526, 0.0258586
0.0391165, 0.10749, -0.773561, -0.913448, -1.45374, -0.624936, 1.0713, -0.256693, -0.0123676, 7.43254e-05, 0.0493788, 0.0320264, -0.000617552, 0.0151151, 0.00117698, 0.436165, 15.6046, 18.5184, 16.178, 0.766478, 3.43936, -0.127186, 0.00153119, -0.00190396, -0.0016723, -0.00414992, 0.001933, -0.00054918, -0.00451615, 0.00594749, 0.0275775, 0.0679718, -0.0275812, 0.0147737, -0.0111051, -0.444726, 0.635022, -3.13183, -0.0555828, -0.107587, -0.00976094, -0.442784, 0.636808, -3.13583, -0.0567007, -0.110877, 0.000895902, -0.000711822, -0.00200043, 0.00329803, 0.0051526, 0.0258586
0.0401165, 0.10749, -0.773561, -0.913448, -1.45374, -0.624936, 1.0713, -0.256693, -0.0123676, 7.43254e-05, 0.0493788, 0.0320264, -0.000617552, 0.0151151, 0.00117698, 0.436165, 15.6046, 18.5184, 16.178, 0.766478, 3.43936, -0.127186, 0.00153043, -0.00190476, -0.00167442, -0.00415443, 0.00192811, -0.000547563, -0.00445195, 0.00601271, 0.027755, 0.0683197, -0.0273414, 0.0154101, -0.0111041, -0.444727, 0.63502, -3.13183, -0.0555855, -0.107594, -0.00976094, -0.442784, 0.636808, -3.13583, -0.0567007, -0.110877, 0.000974534, -0.000773089, -0.00217351, 0.00329803, 0.0051526, 0.0258586
0.0411165, 0.107476, -0.773562, -0.913261, -1.45357, -0.624934, 1.07137, -0.256691, -0.00211425, 0.000545777, 0.0557059, 0.0502869, 0.000408526, 0.0258671, 0.000558772, 0.245735, 15.6442, 19.4864, 16.8127, 0.741759, 3.66824, -0.147328, 0.00155597, -0.00192033, -0.00178746, -0.00443188, 0.00207798, -0.000586801, -0.00861966, 0.00412414, 0.0359734, 0.0911, -0.0449982, 0.0228804, -0.0111031, -0.444728, 0.635018, -3.13182, -0.0555884, -0.107602, -0.00974277, -0.442769, 0.63692, -3.13609, -0.0567539, -0.111137, 0.00105639, -0.000836713, -0.00235336, 0.00703962, 0.00327715, 0.0341523
0.0421165, 0.107468, -0.77357, -0.913192, -1.45351, -0.624933, 1.07139, -0.256693, -0.00391024, -0.00112243, 0.059941, 0.0530257, 0.000950517, 0.0281567, -0.000341039, 0.21003, 15.7156, 19.5975, 16.8842, 0.723448, 3.68289, -0.127186, 0.00156092, -0.00192588, -0.0018315, -0.00454043, 0.00213995, -0.000598932, -0.00838471, 0.00451408, 0.0384025, 0.0974775, -0.0499638, 0.024761, -0.011102, -0.444729, 0.635016, -3.13182, -0.0555915, -0.107611, -0.00973997, -0.442765, 0.636962, -3.13619, -0.0567716, -0.11125, 0.00114146, -0.000902674, -0.00253994, 0.00670995, 0.00357142, 0.0363754
0.0431165, 0.107464, -0.773568, -0.913135, -1.45345, -0.624932, 1.07142, -0.256696, -0.00758393, 0.00106026, 0.0578539, 0.0538523, 0.00107449, 0.0263044, -0.00237318, 0.134651, 15.6442, 19.784, 16.9992, 0.711547, 3.67557, -0.0685925, 0.00156743, -0.00192984, -0.00187123, -0.00463923, 0.00218768, -0.000608956, -0.00634472, 0.00462336, 0.038285, 0.0957392, -0.047131, 0.0218875, -0.0111008, -0.44473, 0.635013, -3.13181, -0.0555949, -0.10762, -0.00973517, -0.442762, 0.636999, -3.13628, -0.0567868, -0.111341, 0.00122973, -0.000970953, -0.00273321, 0.00476823, 0.00354135, 0.0359254
0.0441165, 0.107473, -0.773578, -0.913079, -1.45337, -0.624933, 1.07145, -0.256698, -0.00282802, -0.00409144, 0.0577469, 0.0598415, 0.000275513, 0.0289687, -0.00132652, -0.131157, 15.7156, 19.8951, 16.8842, 0.723448, 3.66092, -0.0750012, 0.00157276, -0.00193145, -0.00191441, -0.00474708, 0.00225555, -0.000621571, -0.00563061, 0.00350518, 0.0401955, 0.101363, -0.0566224, 0.0227796, -0.0110996, -0.444731, 0.63501, -3.1318, -0.0555986, -0.10763, -0.00973161, -0.442762, 0.63704, -3.13638, -0.0568058, -0.111464, 0.00132119, -0.00104153, -0.00293311, 0.00405652, 0.00231143, 0.0375754
0.0451165, 0.107475, -0.773582, -0.91302, -1.4533, -0.624933, 1.07149, -0.256694, -0.000190975, -0.00291922, 0.0570145, 0.0615676, 0.000183674, 0.0331758, -0.000633302, -0.242241, 15.7156, 19.8951, 16.8484, 0.723448, 3.58218, -0.0814099, 0.00158028, -0.00193318, -0.00195858, -0.00486221, 0.00231882, -0.000628574, -0.00690694, 0.00252364, 0.0410641, 0.105836, -0.058308, 0.0239929, -0.0110982, -0.444732, 0.635007, -3.1318, -0.0556025, -0.107641, -0.00972585, -0.442761, 0.637082, -3.13648, -0.056816, -0.111581, 0.00141584, -0.00111438, -0.0031396, 0.00539894, 0.00129481, 0.0383172
0.0461165, 0.10749, -0.773592, -0.912967, -1.45323, -0.624935, 1.07152, -0.256693, 0.00541235, -0.00610555, 0.0537917, 0.0657566, -0.000352269, 0.0360704, -0.000174581, -0.508049, 15.7513, 19.8594, 16.6977, 0.736266, 3.50345, -0.0878186, 0.00158723, -0.00193249, -0.00200222, -0.00497607, 0.00239076, -0.000639738, -0.00661271, 0.000921734, 0.0416196, 0.108634, -0.0648116, 0.0250421, -0.0110967, -0.444733, 0.635004, -3.13179, -0.0556067, -0.107652, -0.00972045, -0.442763, 0.637122, -3.13658, -0.0568331, -0.111713, 0.00151366, -0.0011895, -0.00335263, 0.00522226, -0.00039661, 0.0386281
0.0471165, 0.107507, -0.773597, -0.912923, -1.45315, -0.624935, 1.07156, -0.256687, 0.00922462, -0.00444318, 0.0508097, 0.0683903, -0.000234847, 0.0387894, 0.00631679, -0.76989, 15.7513, 19.8237, 16.5509, 0.736266, 3.41006, -0.133595, 0.00159459, -0.00193022, -0.00204461, -0.00508735, 0.00245913, -0.000643476, -0.00752315, -0.00027602, 0.0419889, 0.110755, -0.0658951, 0.0195974, -0.0110952, -0.444734, 0.635, -3.13178, -0.0556111, -0.107664, -0.0097144, -0.442767, 0.637162, -3.13668, -0.0568389, -0.111839, 0.00161465, -0.00126685, -0.00357216, 0.00624809, -0.00164239, 0.0388322
0.0481165, 0.107521, -0.773597, -0.912874, -1.45307, -0.624934, 1.0716, -0.256689, 0.0155401, -0.0038552, 0.0467319, 0.0759429, 8.0794e-05, 0.0434433, 0.00413642, -0.920646, 15.6442, 19.5975, 16.2891, 0.729857, 3.3533, -0.120778, 0.00160199, -0.00192823, -0.00209158, -0.00520896, 0.00253031, -0.000650389, -0.00807179, -0.00240096, 0.0436125, 0.116269, -0.0722943, 0.0220827, -0.0110935, -0.444735, 0.634997, -3.13177, -0.0556159, -0.107677, -0.00970852, -0.44277, 0.637205, -3.13679, -0.0568496, -0.111971, 0.00171879, -0.00134642, -0.00379814, 0.00686352, -0.00384062, 0.0402505
0.0491165, 0.107545, -0.773604, -0.912834, -1.45298, -0.624934, 1.07165, -0.256686, 0.0159769, -0.00608433, 0.0438346, 0.0787487, -0.0094212, 0.047585, 0.00305757, -1.15075, 15.6442, 19.3397, 15.9915, 0.729857, 3.27456, -0.120778, 0.00160796, -0.00192362, -0.00213654, -0.00532694, 0.00260884, -0.000653225, -0.00455297, -0.00494747, 0.044162, 0.124017, -0.0707909, 0.01623, -0.0110917, -0.444737, 0.634993, -3.13176, -0.0556209, -0.107691, -0.00970374, -0.442776, 0.637247, -3.13689, -0.0568543, -0.112116, 0.00182607, -0.00142819, -0.00403052, 0.00351545, -0.00659625, 0.0403082
0.0501165, 0.107572, -0.773602, -0.912802, -1.45289, -0.624935, 1.0717, -0.256687, 0.0192677, -0.000300469, 0.0391355, 0.0795076, -0.00639222, 0.0458356, 0.00250071, -1.37688, 15.4578, 19.0421, 15.7297, 0.711547, 3.20956, -0.127186, 0.00161629, -0.00191627, -0.00218046, -0.00544807, 0.00268006, -0.000657539, -0.0064251, -0.00511204, 0.0432569, 0.119217, -0.0663647, 0.0184422, -0.0110899, -0.444738, 0.634989, -3.13175, -0.0556263, -0.107706, -0.00969633, -0.442785, 0.637287, -3.137, -0.0568615, -0.11225, 0.00193648, -0.00151214, -0.00426926, 0.00555991, -0.00677125, 0.0392943
0.0511165, 0.107602, -0.773609, -0.912776, -1.4528, -0.624934, 1.07175, -0.256694, 0.0216952, -0.00291908, 0.0361927, 0.0812452, -0.00509103, 0.0484267, -0.000334274, -1.60302, 15.4221, 18.7049, 15.4282, 0.717955, 3.15921, -0.0685925, 0.00162068, -0.00190716, -0.00222337, -0.00556627, 0.00276502, -0.000664857, -0.00581854, -0.00613907, 0.0432671, 0.12008, -0.0719119, 0.0220885, -0.0110879, -0.44474, 0.634984, -3.13174, -0.0556319, -0.107721, -0.0096926, -0.442796, 0.637326, -3.1371, -0.0568737, -0.112406, 0.00205002, -0.00159825, -0.00451432, 0.00510429, -0.00790557, 0.0390113
0.0521165, 0.107638, -0.773609, -0.912759, -1.45271, -0.624934, 1.07181, -0.256687, 0.0274276, -0.0022693, 0.0296655, 0.0844117, -0.00316, 0.051816, 0.00136176, -1.86486, 15.2753, 18.4073, 15.1703, 0.699645, 3.06674, -0.10796, 0.00162839, -0.00189423, -0.00226523, -0.00569083, 0.00284526, -0.000656358, -0.00642792, -0.00803685, 0.0427904, 0.119848, -0.0758335, 0.0213655, -0.0110858, -0.444741, 0.63498, -3.13173, -0.0556379, -0.107738, -0.00968525, -0.442811, 0.637363, -3.1372, -0.0568614, -0.112556, 0.00216668, -0.00168649, -0.00476563, 0.00592857, -0.00986515, 0.0383144
0.0531165, 0.107667, -0.773606, -0.912745, -1.45262, -0.624933, 1.07188, -0.256685, 0.0250752, -0.00190344, 0.0253841, 0.0849874, -0.00196506, 0.0584376, 0.00124011, -1.97991, 15.1285, 18.0741, 14.9799, 0.686827, 2.98068, -0.114369, 0.00163352, -0.00188024, -0.00230651, -0.00581716, 0.00292472, -0.000644939, -0.00484175, -0.00980479, 0.0426918, 0.123297, -0.0795421, 0.0171054, -0.0110835, -0.444743, 0.634975, -3.13172, -0.0556442, -0.107755, -0.00968028, -0.442827, 0.6374, -3.13731, -0.0568448, -0.112706, 0.00228643, -0.00177687, -0.00502317, 0.00453642, -0.0117778, 0.037838
0.0541165, 0.107711, -0.773612, -0.912732, -1.45253, -0.624932, 1.07196, -0.256686, 0.0323446, -0.000299411, 0.0238754, 0.0864186, -0.00111906, 0.0628147, 0.000423201, -2.20605, 15.0531, 17.6615, 14.7577, 0.674925, 2.90103, -0.101552, 0.00164219, -0.00186399, -0.00234941, -0.00595119, 0.00301962, -0.000648211, -0.00828364, -0.0109308, 0.0432016, 0.126653, -0.0812669, 0.0246705, -0.0110812, -0.444745, 0.634969, -3.13171, -0.0556509, -0.107773, -0.00967168, -0.442845, 0.637438, -3.13743, -0.0568511, -0.112882, 0.00240928, -0.00186934, -0.00528689, 0.00809568, -0.0128792, 0.0383128
0.0551165, 0.107755, -0.773607, -0.912727, -1.45243, -0.624932, 1.07204, -0.256686, 0.0341103, 0.00347402, 0.0175672, 0.0883805, -0.000696053, 0.0703994, 0.00033552, -2.39648, 14.8706, 17.3282, 14.4958, 0.668517, 2.82962, -0.101552, 0.0016511, -0.0018447, -0.00239333, -0.00609215, 0.00311061, -0.000640996, -0.00856473, -0.0134674, 0.043048, 0.130721, -0.0822554, 0.0219071, -0.0110787, -0.444747, 0.634964, -3.1317, -0.0556578, -0.107792, -0.00966269, -0.442866, 0.637477, -3.13755, -0.0568411, -0.113053, 0.00253522, -0.00196389, -0.00555673, 0.0086026, -0.0154979, 0.0378929
0.0561165, 0.107795, -0.773603, -0.91272, -1.45233, -0.624934, 1.07213, -0.256684, 0.0338619, 0.00222558, 0.0127082, 0.0928467, -0.000163756, 0.0747294, -0.000244907, -2.39648, 14.7198, 16.995, 14.3491, 0.656615, 2.79391, -0.0878186, 0.00165899, -0.00182546, -0.00243673, -0.00623521, 0.00319838, -0.000630363, -0.00603278, -0.015329, 0.043666, 0.134057, -0.088392, 0.0175141, -0.0110761, -0.444749, 0.634958, -3.13168, -0.0556652, -0.107812, -0.00965456, -0.442888, 0.637515, -3.13767, -0.0568261, -0.113219, 0.00266423, -0.00206051, -0.00583265, 0.00623092, -0.01755, 0.0380473
0.0571165, 0.107843, -0.773602, -0.912723, -1.45223, -0.624932, 1.07222, -0.256685, 0.0348946, 0.00339033, 0.0105951, 0.0939447, 0.000700959, 0.0773383, -0.000845318, -2.43218, 14.6127, 16.7331, 14.1983, 0.631896, 2.77286, -0.0685925, 0.00166691, -0.00180388, -0.00247898, -0.00637599, 0.0032945, -0.000623244, -0.00627218, -0.0160748, 0.0439374, 0.135746, -0.0894254, 0.0184263, -0.0110734, -0.444751, 0.634952, -3.13167, -0.0556729, -0.107834, -0.0096461, -0.442911, 0.637552, -3.13779, -0.0568169, -0.1134, 0.0027963, -0.00215917, -0.00611461, 0.00660921, -0.0183885, 0.0380477
0.0581165, 0.107892, -0.773601, -0.912719, -1.45213, -0.624931, 1.07232, -0.256685, 0.0404843, 0.000343732, 0.00794411, 0.0978041, 0.00198195, 0.0879552, -0.000541023, -2.39648, 14.5374, 16.3959, 14.0475, 0.588866, 2.74356, -0.0685925, 0.00167737, -0.00178172, -0.002525, -0.00653105, 0.00339655, -0.000618408, -0.00740725, -0.0187034, 0.0453323, 0.144743, -0.100773, 0.0213689, -0.0110705, -0.444753, 0.634946, -3.13166, -0.0556809, -0.107856, -0.00963523, -0.442936, 0.637592, -3.13792, -0.0568111, -0.113592, 0.00293143, -0.00225986, -0.00640257, 0.00787374, -0.0210889, 0.0392126
0.0591165, 0.107931, -0.773597, -0.912719, -1.45203, -0.62493, 1.07243, -0.256687, 0.0402675, 0.00222145, 0.0048414, 0.100148, 0.00194018, 0.0905945, -0.00108978, -2.16637, 14.4263, 16.0984, 13.9365, 0.570555, 2.75088, -0.0484509, 0.00168293, -0.00175795, -0.00257167, -0.00669063, 0.00349843, -0.00060124, -0.00655585, -0.0197758, 0.0457826, 0.147079, -0.101177, 0.0191983, -0.0110675, -0.444756, 0.63494, -3.13164, -0.0556894, -0.107879, -0.00962909, -0.442962, 0.637632, -3.13806, -0.0567863, -0.113785, 0.00306961, -0.00236255, -0.00669647, 0.00716994, -0.0222978, 0.0393022
0.0601165, 0.107992, -0.773598, -0.912728, -1.45192, -0.624931, 1.07254, -0.256686, 0.0480541, 0.00186156, -2.202e-05, 0.10499, 0.00192716, 0.0925846, -0.000442581, -2.13067, 14.3906, 15.9119, 13.8254, 0.552245, 2.76553, -0.0557752, 0.001694, -0.00172949, -0.00261702, -0.00685572, 0.00360943, -0.000593769, -0.00739583, -0.0214759, 0.0461196, 0.148383, -0.105024, 0.0212208, -0.0110644, -0.444758, 0.634933, -3.13162, -0.0556982, -0.107903, -0.00961706, -0.442993, 0.637671, -3.1382, -0.0567767, -0.113994, 0.00321082, -0.00246723, -0.00699628, 0.00818572, -0.0240755, 0.0393854
0.0611165, 0.108049, -0.773596, -0.912732, -1.45181, -0.624932, 1.07266, -0.256682, 0.0515787, 0.00173529, -0.000932355, 0.102625, 0.00264167, 0.102624, 0.00117251, -1.97991, 14.3549, 15.6144, 13.7143, 0.514708, 2.78659, -0.0951428, 0.00170562, -0.00170229, -0.00266527, -0.00702655, 0.00372077, -0.000582605, -0.0101954, -0.0232205, 0.0462463, 0.155166, -0.108748, 0.0251096, -0.0110611, -0.444761, 0.634926, -3.13161, -0.0557074, -0.107928, -0.00960459, -0.443023, 0.637713, -3.13835, -0.0567615, -0.114205, 0.00335505, -0.00257388, -0.00730195, 0.0111742, -0.0258287, 0.0393877
0.0621165, 0.108108, -0.773597, -0.912749, -1.45171, -0.62493, 1.07278, -0.25668, 0.0534463, 0.000901134, -0.00283451, 0.104842, -0.00205648, 0.108918, 0.00150088, -1.78948, 14.3549, 15.5033, 13.5635, 0.489989, 2.82962, -0.114369, 0.0017134, -0.00167185, -0.00271001, -0.00719165, 0.0038354, -0.000564811, -0.00931055, -0.0253518, 0.0471855, 0.163108, -0.110126, 0.0229393, -0.0110577, -0.444763, 0.634918, -3.13159, -0.055717, -0.107955, -0.00959544, -0.443056, 0.637751, -3.13849, -0.0567366, -0.114422, 0.0035023, -0.00268248, -0.00761342, 0.0104504, -0.0281075, 0.0399383
0.0631165, 0.10817, -0.773589, -0.912759, -1.45159, -0.624933, 1.07291, -0.25668, 0.0521203, 0.00841291, -0.00454876, 0.108364, -0.00134128, 0.113716, 0.00100593, -1.60302, 14.2795, 15.2811, 13.4525, 0.478087, 2.87265, -0.114369, 0.00172634, -0.00164141, -0.00275928, -0.00737143, 0.00394501, -0.000554211, -0.0102669, -0.0263637, 0.0488469, 0.169056, -0.10738, 0.0205281, -0.0110541, -0.444766, 0.63491, -3.13157, -0.055727, -0.107982, -0.00958132, -0.443089, 0.637793, -3.13864, -0.0567227, -0.114633, 0.00365255, -0.002793, -0.00793067, 0.0114756, -0.0292109, 0.0413377
0.0641165, 0.108236, -0.773589, -0.912789, -1.45148, -0.624938, 1.07304, -0.256681, 0.0565715, 0.0051496, -0.0141807, 0.109953, -0.00143987, 0.118599, 0.000437269, -1.37688, 14.3152, 15.2811, 13.266, 0.484496, 2.89462, -0.10796, 0.00173216, -0.00160505, -0.00280458, -0.0075478, 0.00406381, -0.000530363, -0.0081677, -0.029307, 0.0471168, 0.16808, -0.113135, 0.0185034, -0.0110504, -0.444769, 0.634902, -3.13155, -0.0557374, -0.108011, -0.00957368, -0.443129, 0.63783, -3.13879, -0.0566887, -0.114859, 0.0038058, -0.00290544, -0.00825364, 0.00975951, -0.0323243, 0.0391246
0.0651165, 0.108305, -0.773581, -0.912814, -1.45136, -0.62494, 1.07319, -0.256681, 0.060757, 0.00538566, -0.0181002, 0.108394, -0.00139461, 0.128504, 0.000294519, -1.15075, 14.2438, 15.17, 13.1906, 0.489989, 2.86532, -0.10796, 0.00174532, -0.00156843, -0.00285129, -0.00773341, 0.00417914, -0.000514916, -0.0100786, -0.0317432, 0.0466421, 0.173581, -0.116263, 0.0218615, -0.0110465, -0.444772, 0.634894, -3.13154, -0.0557483, -0.10804, -0.00955864, -0.443168, 0.637869, -3.13895, -0.0566678, -0.115081, 0.00396204, -0.00301977, -0.00858229, 0.0119401, -0.0348023, 0.0384381
0.0661165, 0.108378, -0.773575, -0.912828, -1.45125, -0.624944, 1.07333, -0.256682, 0.0642464, 0.00783571, -0.0177641, 0.10985, -0.00110317, 0.135726, -0.000276117, -0.960319, 14.2041, 14.9082, 13.1509, 0.489989, 2.83694, -0.0951428, 0.00176206, -0.00153344, -0.00290247, -0.00793035, 0.0042979, -0.000510452, -0.0128627, -0.0329435, 0.0481646, 0.181301, -0.118183, 0.0268004, -0.0110424, -0.444775, 0.634885, -3.13152, -0.0557596, -0.108071, -0.00954024, -0.443206, 0.637912, 3.13882, 0.0566587, 0.1153, 0.00412125, -0.00313597, -0.00891658, 0.0148126, -0.0360342, 0.0398067
0.0671165, 0.108447, -0.773565, -0.912859, -1.45113, -0.624945, 1.07349, -0.256686, 0.0618032, 0.00731176, -0.0218667, 0.113539, 1.60965e-05, 0.141327, -0.00140309, -0.694511, 14.1327, 14.8328, 13.0042, 0.466185, 2.78659, -0.0621838, 0.00177326, -0.0014942, -0.00295152, -0.00812495, 0.00441852, -0.000490437, -0.0102063, -0.0346762, 0.0490402, 0.185863, -0.124119, 0.0222554, -0.0110382, -0.444778, 0.634876, -3.13149, -0.0557713, -0.108103, -0.00952692, -0.443249, 0.637953, 3.13864, 0.056625, 0.115522, 0.00428343, -0.00325403, -0.00925645, 0.0123275, -0.0379863, 0.0401451
0.0681165, 0.10852, -0.773559, -0.912889, -1.45101, -0.624951, 1.07364, -0.256686, 0.0636671, 0.00829572, -0.0232009, 0.116793, -0.000290276, 0.144564, -0.00117148, -0.43267, 14.1327, 14.686, 12.8177, 0.471678, 2.77926, -0.0557752, 0.00178378, -0.00145478, -0.00300172, -0.00832307, 0.00454119, -0.000468914, -0.0103642, -0.0356482, 0.0502875, 0.190366, -0.126119, 0.0223221, -0.0110339, -0.444781, 0.634867, -3.13147, -0.0557834, -0.108137, -0.00951419, -0.443291, 0.637994, 3.13845, 0.0565891, 0.115747, 0.00444857, -0.00337392, -0.00960188, 0.0125983, -0.0390841, 0.041048
0.0691165, 0.108597, -0.773545, -0.912927, -1.45089, -0.624954, 1.07379, -0.256685, 0.0690155, 0.011715, -0.0257432, 0.116721, -0.000944853, 0.147025, -0.00030532, -0.206535, 14.0216, 14.6107, 12.7423, 0.489989, 2.76553, -0.0685925, 0.00179775, -0.00141424, -0.00304782, -0.00851355, 0.00465173, -0.00044709, -0.0129646, -0.0365871, 0.050094, 0.191655, -0.122793, 0.0258733, -0.0110293, -0.444785, 0.634857, -3.13145, -0.055796, -0.108171, -0.00949753, -0.443335, 0.638031, 3.13828, 0.0565539, 0.115955, 0.00461665, -0.00349563, -0.0099528, 0.0154052, -0.0400515, 0.0406771
0.0701165, 0.108681, -0.773536, -0.912958, -1.45077, -0.624957, 1.07394, -0.25668, 0.0725079, 0.0115486, -0.0280989, 0.11864, -0.000481327, 0.151153, 0.00149259, -0.0914839, 14.0216, 14.4242, 12.5916, 0.484496, 2.80124, -0.114369, 0.00181442, -0.00137487, -0.00309718, -0.00870926, 0.00477018, -0.000432055, -0.0136796, -0.0378146, 0.050644, 0.194999, -0.126041, 0.0263109, -0.0110246, -0.444788, 0.634847, -3.13143, -0.055809, -0.108207, -0.00947829, -0.443378, 0.638071, 3.1381, 0.0565292, 0.116177, 0.00478767, -0.00361914, -0.0103092, 0.0162944, -0.0413824, 0.0409102
0.0711165, 0.108765, -0.773527, -0.912993, -1.45065, -0.624963, 1.0741, -0.256683, 0.0739761, 0.0115362, -0.0301096, 0.119842, -0.00080285, 0.151111, 1.22493e-05, 0.059273, 14.0216, 14.2377, 12.4448, 0.496398, 2.79391, -0.0878186, 0.00182896, -0.00133384, -0.00314647, -0.00890749, 0.00488746, -0.000418775, -0.0132112, -0.03821, 0.0507708, 0.195086, -0.125969, 0.0282805, -0.0110198, -0.444792, 0.634836, -3.1314, -0.0558225, -0.108244, -0.00946093, -0.443423, 0.63811, 3.13792, 0.0565076, 0.116397, 0.00496161, -0.00374443, -0.010671, 0.0160059, -0.0419216, 0.0406392
0.0721165, 0.108843, -0.773513, -0.913029, -1.45053, -0.624972, 1.07426, -0.25668, 0.0744077, 0.00933264, -0.0317068, 0.120878, -0.00104082, 0.154639, 8.56747e-06, 0.245735, 13.9859, 14.0513, 12.294, 0.509215, 2.80856, -0.0878186, 0.00184231, -0.00129241, -0.00319658, -0.00911135, 0.00499721, -0.000392466, -0.0121702, -0.0391713, 0.0512441, 0.198313, -0.129859, 0.028195, -0.0110147, -0.444796, 0.634825, -3.13138, -0.0558365, -0.108282, -0.00944463, -0.443468, 0.63815, 3.13774, 0.0564658, 0.116608, 0.00513848, -0.00387148, -0.0110382, 0.0151459, -0.0430515, 0.0406652
0.0731165, 0.10893, -0.773505, -0.913076, -1.45042, -0.624978, 1.07442, -0.256679, 0.0826476, 0.0082668, -0.0383521, 0.119838, -0.00071703, 0.158259, -0.000231346, 0.325081, 14.0573, 13.9799, 12.2186, 0.509215, 2.81589, -0.0814099, 0.00185533, -0.00124793, -0.00324254, -0.00930858, 0.00511544, -0.000371414, -0.0138562, -0.0411224, 0.0494648, 0.196496, -0.131457, 0.0336346, -0.0110095, -0.4448, 0.634814, -3.13135, -0.055851, -0.108322, -0.00942809, -0.443517, 0.638186, 3.13756, 0.0564331, 0.116833, 0.00531825, -0.00400028, -0.0114107, 0.0171983, -0.0450554, 0.0386208
0.0741165, 0.10901, -0.773496, -0.913116, -1.45029, -0.624985, 1.07458, -0.25668, 0.084505, 0.0106721, -0.0378367, 0.12668, -0.00117355, 0.156126, -0.000628723, 0.475838, 14.1327, 13.7934, 12.0718, 0.527526, 2.83694, -0.0685925, 0.00186546, -0.00120563, -0.00329291, -0.00951121, 0.00523193, -0.000345196, -0.0136803, -0.0409492, 0.0519363, 0.199788, -0.1316, 0.0339475, -0.0110041, -0.444804, 0.634803, -3.13133, -0.0558659, -0.108363, -0.00941464, -0.443563, 0.638225, 3.13738, 0.0563924, 0.117057, 0.00550092, -0.0041308, -0.0117885, 0.017028, -0.0450428, 0.0406968
0.0751165, 0.109102, -0.77348, -0.913158, -1.45017, -0.624994, 1.07474, -0.256675, 0.086206, 0.0113325, -0.0349374, 0.124137, -0.00079539, 0.155059, 0.00127644, 0.475838, 14.1327, 13.6426, 11.9965, 0.527526, 2.83694, -0.114369, 0.0018831, -0.00116243, -0.003343, -0.00971634, 0.00534128, -0.000324541, -0.0159053, -0.0398702, 0.0522625, 0.199811, -0.128658, 0.0388522, -0.0109985, -0.444808, 0.634791, -3.1313, -0.0558813, -0.108405, -0.00939347, -0.44361, 0.638264, 3.13719, 0.0563608, 0.117271, 0.00568647, -0.00426302, -0.0121715, 0.0193697, -0.0440222, 0.0407998
0.0761165, 0.109179, -0.773475, -0.913199, -1.45005, -0.625001, 1.07491, -0.256674, 0.0837184, 0.0114398, -0.0390742, 0.1232, 0.000138142, 0.1601, 0.00132581, 0.626595, 14.2795, 13.4958, 11.8854, 0.509215, 2.78659, -0.127186, 0.00189188, -0.00111921, -0.00339371, -0.00992447, 0.00546169, -0.000294028, -0.0142596, -0.0412176, 0.0517431, 0.201508, -0.130457, 0.0355214, -0.0109927, -0.444812, 0.634778, -3.13127, -0.0558972, -0.108449, -0.009381, -0.443658, 0.638302, 3.137, 0.0563141, 0.117503, 0.00587491, -0.00439694, -0.0125597, 0.0180006, -0.0455574, 0.0397696
0.0771165, 0.109265, -0.773465, -0.913247, -1.44992, -0.625005, 1.07507, -0.256675, 0.0835797, 0.00946403, -0.037359, 0.127677, 0.000796847, 0.163653, 0.000409248, 0.701973, 14.3906, 13.4205, 11.6989, 0.489989, 2.74356, -0.114369, 0.00190281, -0.00107437, -0.00344485, -0.0101322, 0.00558319, -0.000267289, -0.0135464, -0.0416081, 0.0542663, 0.208519, -0.13718, 0.0370715, -0.0109867, -0.444817, 0.634765, -3.13124, -0.0559137, -0.108494, -0.00936616, -0.443707, 0.638341, 3.13682, 0.0562737, 0.117739, 0.00606621, -0.00453252, -0.0129531, 0.0173197, -0.0461329, 0.0418404
0.0781165, 0.109353, -0.773451, -0.913289, -1.4498, -0.625013, 1.07524, -0.256674, 0.0845229, 0.00899737, -0.0386192, 0.124086, 0.000525737, 0.162317, 0.000747622, 0.737679, 14.462, 13.3094, 11.6592, 0.489989, 2.70053, -0.127186, 0.001919, -0.00103031, -0.00349555, -0.0103446, 0.0056928, -0.000246703, -0.013808, -0.0413108, 0.0530634, 0.205341, -0.133816, 0.039889, -0.0109806, -0.444821, 0.634752, -3.13121, -0.0559306, -0.108541, -0.0093459, -0.443756, 0.638379, 3.13663, 0.0562432, 0.117957, 0.00626038, -0.00466976, -0.0133516, 0.0178459, -0.0459541, 0.0402613
0.0791165, 0.109435, -0.773434, -0.913329, -1.44968, -0.625018, 1.07541, -0.256675, 0.084068, 0.0125765, -0.0364605, 0.1233, 0.000787181, 0.164957, -0.000959594, 0.813057, 14.5016, 13.1943, 11.5482, 0.478087, 2.67215, -0.0878186, 0.00193245, -0.000988087, -0.00354895, -0.010556, 0.00580322, -0.000222374, -0.0157319, -0.041038, 0.0542446, 0.209538, -0.130812, 0.0448223, -0.0109742, -0.444826, 0.634739, -3.13118, -0.055948, -0.108588, -0.00932842, -0.443803, 0.63842, 3.13644, 0.0562075, 0.118179, 0.00645739, -0.00480863, -0.0137552, 0.0198684, -0.0457646, 0.0411705
0.0801165, 0.109521, -0.773418, -0.913368, -1.44956, -0.625026, 1.07558, -0.256681, 0.0844924, 0.0173796, -0.0347981, 0.124035, 0.000521697, 0.165625, -0.00209775, 0.85273, 14.5731, 13.0832, 11.5085, 0.478087, 2.66482, -0.0484509, 0.00194936, -0.000945323, -0.00360181, -0.0107723, 0.00590858, -0.000210125, -0.0176295, -0.0406507, 0.0555944, 0.212832, -0.126156, 0.0486747, -0.0109676, -0.444831, 0.634725, -3.13115, -0.055966, -0.108638, -0.00930726, -0.443851, 0.63846, 3.13625, 0.0561907, 0.118393, 0.00665724, -0.00494912, -0.0141638, 0.0218515, -0.0454649, 0.0422421
0.0811165, 0.109607, -0.773406, -0.913408, -1.44944, -0.625028, 1.07575, -0.256678, 0.0867029, 0.0139931, -0.0351948, 0.125307, 0.000582839, 0.170354, -0.0011272, 0.813057, 14.6841, 13.0475, 11.4371, 0.471678, 2.6575, -0.0557752, 0.0019638, -0.000902642, -0.00365613, -0.0109879, 0.00602559, -0.000185533, -0.01751, -0.0416276, 0.0565436, 0.217732, -0.132213, 0.050495, -0.0109609, -0.444836, 0.63471, -3.13111, -0.0559845, -0.108688, -0.00928845, -0.443898, 0.6385, 3.13606, 0.0561553, 0.118628, 0.00685993, -0.0050912, -0.0145774, 0.0219033, -0.0465978, 0.0427596
0.0821165, 0.109682, -0.773392, -0.913443, -1.44931, -0.62503, 1.07591, -0.256681, 0.0813978, 0.0147084, -0.0355584, 0.124471, 0.00126844, 0.165365, -0.00102271, 0.928108, 14.7952, 13.0118, 11.322, 0.447875, 2.66482, -0.0484509, 0.00197591, -0.000861998, -0.00371196, -0.0112055, 0.00613832, -0.000161787, -0.0148759, -0.0403583, 0.0563613, 0.213668, -0.128374, 0.0471262, -0.0109539, -0.444841, 0.634696, -3.13108, -0.0560035, -0.108741, -0.00927196, -0.443944, 0.638542, 3.13587, 0.0561216, 0.118857, 0.00706543, -0.00523486, -0.0149959, 0.0194483, -0.0455663, 0.0419841
0.0831165, 0.109762, -0.773376, -0.913476, -1.4492, -0.625033, 1.07608, -0.256674, 0.0794694, 0.0129142, -0.0345189, 0.121919, 0.00131904, 0.166516, 0.00104754, 0.963814, 14.8706, 12.9365, 11.2863, 0.435057, 2.66482, -0.0951428, 0.00199286, -0.000821889, -0.00376738, -0.011424, 0.00624304, -0.000136191, -0.0142962, -0.0400324, 0.056421, 0.214702, -0.128609, 0.0468165, -0.0109468, -0.444846, 0.63468, -3.13105, -0.0560231, -0.108794, -0.00925043, -0.44399, 0.638583, 3.13568, 0.0560855, 0.119075, 0.00727374, -0.00538009, -0.0154193, 0.0190614, -0.0454087, 0.0415813
0.0841165, 0.109835, -0.773356, -0.9135, -1.44908, -0.625032, 1.07625, -0.256671, 0.0822293, 0.0148548, -0.029991, 0.12191, 0.00155655, 0.167543, 0.00117309, 1.07887, 14.942, 12.8254, 11.1752, 0.416747, 2.6575, -0.10796, 0.00201, -0.00078402, -0.0038271, -0.0116505, 0.00634978, -0.000114817, -0.0175518, -0.039159, 0.0582368, 0.219159, -0.127012, 0.0546134, -0.0109394, -0.444852, 0.634665, -3.13101, -0.0560432, -0.10885, -0.00922889, -0.444033, 0.638628, 3.13548, 0.056056, 0.119298, 0.00748486, -0.00552686, -0.0158476, 0.0223595, -0.0445861, 0.043196
0.0851174, 0.109911, -0.773339, -0.913533, -1.44897, -0.625033, 1.07642, -0.25667, 0.0800396, 0.0153064, -0.0333476, 0.119242, -0.00372247, 0.168136, 0.00101943, 1.11457, 15.0531, 12.8611, 11.1752, 0.416747, 2.63644, -0.114369, 0.00202749, -0.000744955, -0.00388107, -0.011867, 0.00644889, -9.6756e-05, -0.015049, -0.0401403, 0.05706, 0.21939, -0.120365, 0.0504518, -0.0109318, -0.444858, 0.634649, -3.13097, -0.0560639, -0.108906, -0.00920635, -0.444078, 0.638667, 3.13529, 0.056033, 0.119511, 0.00769877, -0.00567515, -0.0162807, 0.0201936, -0.0457944, 0.0414071
0.0861174, 0.109983, -0.773323, -0.913558, -1.44885, -0.625032, 1.07659, -0.256671, 0.0783591, 0.0157435, -0.0316205, 0.120582, -0.00264146, 0.166093, 0.000442267, 1.15424, 15.1642, 12.8611, 11.0245, 0.410338, 2.58609, -0.10796, 0.00204318, -0.000707729, -0.00394008, -0.0120911, 0.00655423, -7.83224e-05, -0.014529, -0.0391677, 0.0583036, 0.220006, -0.120081, 0.0521249, -0.010924, -0.444863, 0.634632, -3.13094, -0.0560851, -0.108965, -0.00918581, -0.444121, 0.63871, 3.1351, 0.0560093, 0.119735, 0.00791545, -0.00582496, -0.0167186, 0.0197689, -0.0450044, 0.0421794
0.0871174, 0.11005, -0.773306, -0.913579, -1.44875, -0.625033, 1.07674, -0.256671, 0.0765265, 0.0129339, -0.027068, 0.113314, -0.00229621, 0.16384, -0.000925853, 1.22962, 15.2753, 12.8611, 11.0999, 0.416747, 2.55771, -0.0750012, 0.00206035, -0.000674532, -0.0039942, -0.0122999, 0.00663864, -6.54766e-05, -0.0154899, -0.0372367, 0.0575908, 0.217557, -0.116895, 0.0606639, -0.010916, -0.444869, 0.634615, -3.1309, -0.0561069, -0.109025, -0.0091634, -0.44416, 0.638748, 3.13492, 0.0559961, 0.119927, 0.00813491, -0.00597625, -0.0171612, 0.0209246, -0.043187, 0.0411054
0.0881174, 0.110113, -0.773291, -0.913601, -1.44864, -0.625034, 1.0769, -0.256672, 0.0739752, 0.0139725, -0.0243397, 0.116492, -0.00199157, 0.16196, -0.00132931, 1.34071, 15.3864, 12.8968, 10.9491, 0.423155, 2.52109, -0.0557752, 0.0020722, -0.000639623, -0.00405347, -0.0125212, 0.00673562, -4.07757e-05, -0.0145675, -0.0362565, 0.0597541, 0.220452, -0.116745, 0.0607834, -0.0109077, -0.444875, 0.634598, -3.13086, -0.0561293, -0.109086, -0.00914637, -0.444201, 0.63879, 3.13473, 0.0559641, 0.120141, 0.00835714, -0.00612902, -0.0176085, 0.0200399, -0.0424158, 0.0427578
0.0891174, 0.110186, -0.773276, -0.913618, -1.44854, -0.625033, 1.07705, -0.256675, 0.073471, 0.0149421, -0.0242372, 0.112072, -0.00125791, 0.159709, -0.000886203, 1.26533, 15.4935, 12.8968, 10.9491, 0.416747, 2.4927, -0.0557752, 0.00209169, -0.00060812, -0.00411014, -0.0127312, 0.00682129, -3.82224e-05, -0.0153218, -0.0352731, 0.0587518, 0.216757, -0.111713, 0.0642113, -0.0108992, -0.444881, 0.63458, -3.13082, -0.0561522, -0.109149, -0.00912144, -0.444239, 0.63883, 3.13455, 0.055968, 0.12034, 0.00858211, -0.00628324, -0.0180604, 0.0210492, -0.0415529, 0.0413648
0.0901174, 0.110244, -0.773254, -0.91364, -1.44843, -0.625034, 1.0772, -0.256678, 0.0681729, 0.017232, -0.0222859, 0.11053, -0.00120163, 0.153609, -0.00109943, 1.38038, 15.5331, 12.9365, 10.8777, 0.423155, 2.47897, -0.0420422, 0.00210365, -0.000577141, -0.00416665, -0.0129383, 0.00689617, -1.4595e-05, -0.0138121, -0.0333284, 0.0590051, 0.213295, -0.104872, 0.0631498, -0.0108905, -0.444888, 0.634562, -3.13078, -0.0561758, -0.109214, -0.00910382, -0.444276, 0.638869, 3.13438, 0.05594, 0.120522, 0.00880983, -0.00643891, -0.018517, 0.019682, -0.0398234, 0.0410684
0.0911174, 0.110298, -0.773243, -0.913652, -1.44834, -0.625034, 1.07734, -0.256671, 0.0662031, 0.0194328, -0.0196668, 0.105375, -0.00089534, 0.149362, 0.000487754, 1.45576, 15.6799, 12.9365, 10.838, 0.423155, 2.47165, -0.0750012, 0.00211455, -0.000549195, -0.00422359, -0.0131435, 0.00697587, 1.09192e-05, -0.0149641, -0.0314252, 0.0584099, 0.209482, -0.0969282, 0.0661089, -0.0108816, -0.444894, 0.634543, -3.13073, -0.0561999, -0.10928, -0.00908718, -0.444311, 0.638908, 3.13421, 0.0559097, 0.120714, 0.00904028, -0.00659599, -0.0189781, 0.0210317, -0.0380341, 0.040107
0.0921174, 0.110352, -0.773224, -0.913668, -1.44824, -0.625035, 1.07748, -0.256669, 0.061754, 0.0214572, -0.0164643, 0.104358, -0.00110839, 0.145137, 0.000799889, 1.49146, 15.6799, 13.0118, 10.8023, 0.435057, 2.4927, -0.0878186, 0.00212653, -0.000521876, -0.00427894, -0.0133431, 0.00703968, 3.49761e-05, -0.0141829, -0.029659, 0.0593227, 0.208787, -0.0914923, 0.0659618, -0.0108725, -0.444901, 0.634524, -3.13069, -0.0562246, -0.109348, -0.00906914, -0.444345, 0.638945, 3.13405, 0.0558828, 0.120883, 0.00927346, -0.00675447, -0.0194438, 0.0203566, -0.0364664, 0.0405092
0.0931174, 0.110407, -0.773207, -0.913675, -1.44814, -0.625035, 1.07761, -0.256667, 0.0623647, 0.018784, -0.0136018, 0.102699, -0.000791943, 0.141308, 0.00104189, 1.49146, 15.7156, 12.9365, 10.6873, 0.435057, 2.52109, -0.101552, 0.00213944, -0.000497724, -0.00433785, -0.0135444, 0.00710567, 5.22954e-05, -0.0143613, -0.028166, 0.0596561, 0.206908, -0.0908979, 0.0712484, -0.0108631, -0.444908, 0.634504, -3.13064, -0.0562499, -0.109417, -0.00905032, -0.444377, 0.638984, 3.13389, 0.0558668, 0.121057, 0.00950935, -0.00691434, -0.0199139, 0.020691, -0.0351335, 0.0403942
0.0941174, 0.110454, -0.773193, -0.91369, -1.44805, -0.625037, 1.07773, -0.25667, 0.0608499, 0.0190726, -0.0150902, 0.0962145, -0.00104244, 0.135059, -0.000288753, 1.57081, 15.791, 13.0118, 10.6516, 0.447875, 2.52841, -0.0750012, 0.00214509, -0.000473462, -0.00439247, -0.0137332, 0.00716489, 7.78256e-05, -0.0137539, -0.0267482, 0.0572311, 0.198091, -0.0823117, 0.0748923, -0.0108534, -0.444915, 0.634484, -3.1306, -0.0562758, -0.109488, -0.0090382, -0.444408, 0.639019, 3.13374, 0.0558396, 0.121223, 0.00974794, -0.00707558, -0.0203885, 0.0204394, -0.0338782, 0.0374678
0.0951174, 0.110501, -0.773178, -0.913698, -1.44796, -0.625035, 1.07786, -0.256673, 0.0544823, 0.020195, -0.0133286, 0.0947689, -0.000250065, 0.126599, -0.00117585, 1.60651, 15.8267, 12.9722, 10.6158, 0.435057, 2.52841, -0.0484509, 0.00215481, -0.000452051, -0.00444854, -0.0139231, 0.00722107, 9.33896e-05, -0.0112147, -0.02433, 0.0572547, 0.192231, -0.0760215, 0.0736753, -0.0108436, -0.444922, 0.634463, -3.13055, -0.0563023, -0.109561, -0.009022, -0.444437, 0.639055, 3.13358, 0.0558285, 0.121385, 0.00998923, -0.00723817, -0.0208674, 0.018058, -0.0317172, 0.0368517
0.0961174, 0.11054, -0.773174, -0.913705, -1.44788, -0.625037, 1.07797, -0.256673, 0.0519455, 0.0183542, -0.0153931, 0.0944227, -0.000663794, 0.125381, -0.000783896, 1.68189, 15.9735, 12.9365, 10.5405, 0.447875, 2.50735, -0.0484509, 0.00215684, -0.000430832, -0.00450454, -0.014113, 0.00728317, 0.000121379, -0.00851705, -0.0243418, 0.0569658, 0.190817, -0.0759443, 0.0709327, -0.0108335, -0.444929, 0.634442, -3.1305, -0.0563295, -0.109636, -0.00901323, -0.444467, 0.63909, 3.13344, 0.0557986, 0.121558, 0.0102332, -0.00740209, -0.0213508, 0.0156309, -0.0319886, 0.0358903
0.0971174, 0.110578, -0.773158, -0.913712, -1.44779, -0.625037, 1.07809, -0.256673, 0.048684, 0.0190871, -0.0106807, 0.0903367, -0.000662754, 0.124226, -0.000522597, 1.68189, 15.9021, 12.8968, 10.5008, 0.453368, 2.4927, -0.0484509, 0.00216186, -0.000411883, -0.00456032, -0.0142964, 0.00732721, 0.000148865, -0.00935005, -0.0226758, 0.0575858, 0.191787, -0.0715547, 0.0749308, -0.0108231, -0.444937, 0.634421, -3.13045, -0.0563573, -0.109712, -0.00900132, -0.444494, 0.639124, 3.13329, 0.0557708, 0.121705, 0.0104799, -0.00756732, -0.0218384, 0.016602, -0.030468, 0.036091
0.0981174, 0.110619, -0.773148, -0.913719, -1.44771, -0.625037, 1.0782, -0.256668, 0.0447252, 0.0169454, -0.0105117, 0.0888252, -0.000250966, 0.119412, 0.00138093, 1.60651, 15.9378, 12.8611, 10.3897, 0.447875, 2.457, -0.0951428, 0.00216605, -0.000392954, -0.00461653, -0.0144799, 0.00737806, 0.000178852, -0.00667337, -0.0214018, 0.0572885, 0.187776, -0.0699457, 0.0719905, -0.0108125, -0.444944, 0.634399, -3.1304, -0.0563857, -0.10979, -0.00899002, -0.444521, 0.639159, 3.13315, 0.0557396, 0.121864, 0.0107292, -0.00773386, -0.0223304, 0.0141551, -0.0294565, 0.0351233
0.0991174, 0.110653, -0.773135, -0.913728, -1.44762, -0.625038, 1.0783, -0.256669, 0.040683, 0.0169784, -0.0111124, 0.087365, -0.000617556, 0.115232, 0.0016327, 1.57081, 15.9021, 12.8611, 10.2786, 0.459777, 2.43594, -0.114369, 0.00216612, -0.000374892, -0.00467198, -0.0146588, 0.00741914, 0.000212783, -0.00428377, -0.020433, 0.0569315, 0.184376, -0.065873, 0.0696572, -0.0108016, -0.444952, 0.634376, -3.13035, -0.0564147, -0.10987, -0.00898257, -0.444547, 0.639191, 3.13302, 0.0557033, 0.12201, 0.0109812, -0.00790168, -0.0228265, 0.0120122, -0.0287405, 0.0341097
0.100117, 0.110686, -0.77313, -0.913735, -1.44754, -0.625037, 1.0784, -0.256667, 0.040788, 0.0119614, -0.00985123, 0.0863835, -0.000181422, 0.108469, 0.000851106, 1.53114, 15.9378, 12.7857, 10.1675, 0.453368, 2.40664, -0.10796, 0.00216479, -0.000359943, -0.00472557, -0.0148269, 0.00745897, 0.000244043, -0.0025549, -0.0187872, 0.0567062, 0.179177, -0.066536, 0.0740443, -0.0107905, -0.44496, 0.634353, -3.1303, -0.0564444, -0.109952, -0.00897625, -0.444571, 0.639222, 3.1329, 0.0556726, 0.122156, 0.0112358, -0.00807076, -0.0233269, 0.0104967, -0.0273271, 0.0332745
0.101117, 0.110715, -0.773126, -0.913748, -1.44747, -0.625039, 1.07849, -0.256668, 0.037726, 0.0114166, -0.0115454, 0.081849, -0.000600973, 0.10378, 9.26865e-05, 1.49146, 15.9735, 12.8254, 10.0922, 0.466185, 2.37094, -0.0951428, 0.00216038, -0.000344619, -0.00477549, -0.0149865, 0.00749058, 0.000278815, -0.00064559, -0.0178013, 0.0550067, 0.172844, -0.0606621, 0.0744392, -0.0107792, -0.444968, 0.634329, -3.13025, -0.0564747, -0.110035, -0.0089725, -0.444595, 0.639247, 3.13279, 0.0556377, 0.122291, 0.011493, -0.00824109, -0.0238314, 0.00893122, -0.026566, 0.0309469
0.102117, 0.110748, -0.773117, -0.913752, -1.4474, -0.625039, 1.07858, -0.256671, 0.0379645, 0.00954156, -0.00929347, 0.0800926, -0.00060808, 0.103816, -0.00115891, 1.34071, 15.9378, 12.7143, 9.94141, 0.471678, 2.33523, -0.0621838, 0.00216013, -0.000331961, -0.00482929, -0.0151509, 0.00751759, 0.000303339, -0.001054, -0.0171183, 0.0555656, 0.174155, -0.0608167, 0.0804234, -0.0107676, -0.444977, 0.634305, -3.13019, -0.0565057, -0.11012, -0.0089647, -0.444617, 0.639277, 3.13267, 0.0556191, 0.12242, 0.0117529, -0.00841265, -0.0243401, 0.00953165, -0.026049, 0.0310287
0.103117, 0.110773, -0.773109, -0.913756, -1.44733, -0.625039, 1.07866, -0.256671, 0.0329631, 0.00894576, -0.00765533, 0.0786089, -0.000204922, 0.0992372, -0.000535249, 1.26533, 15.8624, 12.5992, 9.79462, 0.466185, 2.31326, -0.0685925, 0.00215667, -0.000321137, -0.0048816, -0.0153079, 0.00753951, 0.000336462, 0.00112685, -0.0155312, 0.055824, 0.171544, -0.0578344, 0.0789133, -0.0107557, -0.444985, 0.634281, -3.13014, -0.0565373, -0.110207, -0.00895983, -0.444637, 0.639304, 3.13256, 0.0555884, 0.122544, 0.0120154, -0.00858543, -0.0248528, 0.00754156, -0.0247194, 0.0306312
0.104117, 0.110798, -0.773108, -0.913764, -1.44726, -0.62504, 1.07874, -0.256668, 0.0293883, 0.00741516, -0.00770794, 0.0763672, -0.000579663, 0.0919599, -0.000594192, 1.18995, 15.8267, 12.5278, 9.67957, 0.478087, 2.2922, -0.0621838, 0.00214996, -0.000310037, -0.00493196, -0.0154607, 0.00756158, 0.000373797, 0.00379012, -0.0138922, 0.0550482, 0.165272, -0.0532408, 0.0782373, -0.0107435, -0.444994, 0.634256, -3.13008, -0.0565696, -0.110296, -0.0089578, -0.444658, 0.639329, 3.13246, 0.0555521, 0.12267, 0.0122806, -0.0087594, -0.0253696, 0.00514374, -0.0233458, 0.0291644
0.105117, 0.110827, -0.773106, -0.913779, -1.4472, -0.625039, 1.07881, -0.256672, 0.0314415, 0.00624074, -0.0124748, 0.0749113, -0.000150762, 0.0865484, -0.00114211, 1.03919, 15.791, 12.5278, 9.56848, 0.471678, 2.27023, -0.0420422, 0.00214322, -0.000299819, -0.00497893, -0.0155986, 0.00757577, 0.000402603, 0.00518512, -0.0136089, 0.0531844, 0.157289, -0.0500957, 0.0800534, -0.0107311, -0.445003, 0.63423, -3.13002, -0.0566025, -0.110386, -0.00895534, -0.444678, 0.63935, 3.13237, 0.0555308, 0.122785, 0.0125483, -0.00893455, -0.0258904, 0.00413863, -0.0232716, 0.0266871
0.106117, 0.110855, -0.773103, -0.913789, -1.44713, -0.625039, 1.07888, -0.256664, 0.0297076, 0.00627029, -0.0109389, 0.0715827, -0.000101768, 0.0778725, 0.00120528, 0.888436, 15.7156, 12.4524, 9.42169, 0.471678, 2.2565, -0.0951428, 0.00213681, -0.00029023, -0.00502849, -0.0157437, 0.00758962, 0.000444361, 0.00587831, -0.0112983, 0.0524056, 0.150017, -0.0429453, 0.0808198, -0.0107184, -0.445012, 0.634204, -3.12996, -0.0566361, -0.110479, -0.00895249, -0.444698, 0.639373, 3.13228, 0.0554896, 0.122902, 0.0128186, -0.00911087, -0.0264151, 0.00368566, -0.0211587, 0.0253535
0.107117, 0.110881, -0.773101, -0.913802, -1.44707, -0.625041, 1.07895, -0.256665, 0.0273436, 0.00611055, -0.0098121, 0.0703338, -0.000746958, 0.0806358, 5.75346e-05, 0.777352, 15.6442, 12.3771, 9.34631, 0.489989, 2.21347, -0.0750012, 0.00212946, -0.000280972, -0.00507547, -0.0158833, 0.00759549, 0.000477112, 0.00641093, -0.0113216, 0.0532127, 0.153883, -0.0425261, 0.0827611, -0.0107055, -0.445021, 0.634177, -3.1299, -0.0566704, -0.110573, -0.00895015, -0.444717, 0.639392, 3.1322, 0.0554635, 0.123008, 0.0130915, -0.00928833, -0.0269437, 0.00336882, -0.0213903, 0.0255908
0.108117, 0.110908, -0.773101, -0.913821, -1.44702, -0.625044, 1.07902, -0.256664, 0.0287733, 0.00206889, -0.0108379, 0.0704308, -0.00121076, 0.0749794, 0.000275715, 0.6623, 15.6046, 12.3771, 9.23523, 0.509215, 2.15579, -0.0814099, 0.00211924, -0.000271262, -0.00512071, -0.0160168, 0.00760019, 0.000516377, 0.00829361, -0.0104966, 0.052793, 0.149199, -0.0426388, 0.0848549, -0.0106922, -0.44503, 0.63415, -3.12984, -0.0567054, -0.110669, -0.00895027, -0.444737, 0.63941, 3.13212, 0.0554284, 0.123114, 0.0133669, -0.00946692, -0.0274763, 0.00176402, -0.0208108, 0.0245118
0.109117, 0.110935, -0.773102, -0.913844, -1.44696, -0.625043, 1.07908, -0.256663, 0.0288295, 0.00210004, -0.015311, 0.0641261, -0.000570344, 0.0702599, 0.000692437, 0.586922, 15.5688, 12.4128, 9.12018, 0.502806, 2.11276, -0.0951428, 0.00210768, -0.000261879, -0.00516395, -0.0161426, 0.00760234, 0.000558167, 0.00898143, -0.00988546, 0.0497119, 0.139459, -0.0356427, 0.0865899, -0.0106787, -0.44504, 0.634122, -3.12978, -0.056741, -0.110767, -0.00895134, -0.444757, 0.639424, 3.13205, 0.0553907, 0.123219, 0.0136449, -0.00964662, -0.0280126, 0.0015483, -0.020375, 0.020857
0.110117, 0.11097, -0.773101, -0.913868, -1.44691, -0.625043, 1.07914, -0.256664, 0.0277072, 0.00214941, -0.0209882, 0.0623281, -0.000380628, 0.066599, -4.70019e-05, 0.436165, 15.5331, 12.4128, 9.00909, 0.502806, 2.06973, -0.0814099, 0.00209978, -0.000253141, -0.00520669, -0.016265, 0.00759776, 0.000589033, 0.0115006, -0.00999179, 0.0478076, 0.13268, -0.0316794, 0.0848711, -0.0106649, -0.44505, 0.634094, -3.12971, -0.0567774, -0.110867, -0.00894847, -0.444777, 0.639438, 3.13198, 0.0553709, 0.123315, 0.0139255, -0.00982742, -0.0285528, -0.000546966, -0.0207354, 0.0182364
0.111117, 0.110999, -0.773103, -0.913899, -1.44686, -0.625044, 1.0792, -0.256668, 0.0272131, 0.00136857, -0.023753, 0.056407, -0.00049141, 0.0637829, -0.00125204, 0.400459, 15.5331, 12.4882, 8.97339, 0.509215, 2.0267, -0.0484509, 0.00208748, -0.0002433, -0.0052467, -0.0163836, 0.0075923, 0.000625378, 0.0121633, -0.00949796, 0.0454997, 0.126225, -0.0261989, 0.0884531, -0.0106509, -0.44506, 0.634065, -3.12965, -0.0568144, -0.110969, -0.00894949, -0.444798, 0.639448, 3.13192, 0.0553436, 0.123411, 0.0142086, -0.0100093, -0.0290967, -0.000782251, -0.0204261, 0.0153458
0.112117, 0.111036, -0.773104, -0.913926, -1.44681, -0.625042, 1.07925, -0.256663, 0.0351606, 2.8881e-05, -0.0263263, 0.0528738, 0.000146887, 0.0604608, 0.000894638, 0.285408, 15.5688, 12.4524, 8.89801, 0.496398, 2.01297, -0.0951428, 0.00207899, -0.000235429, -0.00528759, -0.0164991, 0.00758348, 0.00066115, 0.00960672, -0.00915614, 0.0436498, 0.119778, -0.0231766, 0.0963933, -0.0106365, -0.44507, 0.634036, -3.12958, -0.0568522, -0.111073, -0.00894656, -0.444817, 0.639459, 3.13187, 0.0553181, 0.123505, 0.0144943, -0.0101922, -0.0296444, 0.00216744, -0.0201587, 0.0131359
0.113117, 0.111071, -0.773101, -0.913965, -1.44677, -0.625043, 1.07931, -0.256669, 0.0352015, 0.00174628, -0.0309005, 0.0494794, -0.000139602, 0.0585047, -0.00137026, 0.285408, 15.4935, 12.5278, 8.85834, 0.502806, 1.991, -0.0420422, 0.00206817, -0.000225688, -0.00532443, -0.016607, 0.00756291, 0.000694666, 0.0103239, -0.00929917, 0.0417615, 0.114561, -0.0170368, 0.0988441, -0.0106219, -0.44508, 0.634006, -3.12951, -0.0568906, -0.111178, -0.00894534, -0.444838, 0.639465, 3.13182, 0.0552975, 0.123582, 0.0147825, -0.0103762, -0.0301957, 0.0018769, -0.020494, 0.0106474
0.114117, 0.111113, -0.773102, -0.914012, -1.44673, -0.625038, 1.07936, -0.256663, 0.0372362, 0.00020901, -0.0358586, 0.0429067, 0.000381524, 0.0518824, 0.00105318, 0.21003, 15.5331, 12.6746, 8.85834, 0.489989, 1.99832, -0.0951428, 0.0020582, -0.000215821, -0.00535689, -0.016701, 0.00754388, 0.000733664, 0.0109547, -0.00852153, 0.0381847, 0.102526, -0.0103441, 0.100307, -0.010607, -0.44509, 0.633975, -3.12945, -0.0569298, -0.111286, -0.00894268, -0.444859, 0.639467, 3.13179, 0.05527, 0.123664, 0.0150731, -0.0105613, -0.0307507, 0.00176116, -0.0198885, 0.00648482
0.115117, 0.11115, -0.773104, -0.914053, -1.4467, -0.62504, 1.07942, -0.256661, 0.0352057, -0.00155146, -0.0382924, 0.0392457, 0.000457705, 0.0516916, 0.00117684, 0.285408, 15.6046, 12.6389, 8.82263, 0.484496, 1.991, -0.10796, 0.00204594, -0.00020638, -0.00539153, -0.0168036, 0.00752065, 0.000772777, 0.0126644, -0.00852871, 0.0369314, 0.0997906, -0.00878575, 0.100262, -0.0105917, -0.445101, 0.633944, -3.12938, -0.0569696, -0.111396, -0.00894218, -0.44488, 0.639469, 3.13175, 0.0552426, 0.123741, 0.0153663, -0.0107473, -0.0313093, 0.000436886, -0.0201323, 0.00455277
0.116117, 0.111191, -0.773096, -0.91411, -1.44667, -0.625042, 1.07947, -0.256663, 0.0378887, 0.00154887, -0.0444911, 0.035396, -0.000373103, 0.0470186, 0.00030984, 0.325081, 15.4935, 12.7857, 8.82263, 0.502806, 1.991, -0.0951428, 0.00203466, -0.000194614, -0.00542084, -0.0168946, 0.00747919, 0.000814601, 0.0126125, -0.00857064, 0.0341704, 0.0910911, 0.000901884, 0.102719, -0.0105762, -0.445112, 0.633913, -3.1293, -0.0570102, -0.111507, -0.00893996, -0.444904, 0.639466, 3.13173, 0.0552126, 0.123792, 0.015662, -0.0109343, -0.0318714, 0.000979464, -0.0203316, 0.00123837
0.117117, 0.111235, -0.773098, -0.914164, -1.44664, -0.625043, 1.07952, -0.25666, 0.0360687, -0.000742115, -0.0481479, 0.0303533, -0.000486147, 0.0465377, 0.00451021, 0.400459, 15.5688, 12.7857, 8.78693, 0.509215, 2.01938, -0.0878186, 0.00202184, -0.000184873, -0.00544966, -0.0169798, 0.00744436, 0.000853811, 0.0145699, -0.00872314, 0.0321011, 0.0865737, 0.00316187, 0.0985085, -0.0105604, -0.445123, 0.63388, -3.12923, -0.0570515, -0.111621, -0.00893903, -0.444926, 0.639462, 3.13171, 0.0551878, 0.123855, 0.0159602, -0.0111224, -0.0324371, -0.000523045, -0.0207222, -0.00153401
0.118117, 0.11128, -0.7731, -0.914233, -1.44662, -0.625045, 1.07956, -0.256662, 0.0411253, -0.00133855, -0.0551884, 0.0257411, -0.000764948, 0.0471346, 0.00243861, 0.475838, 15.6046, 12.9365, 8.78693, 0.521117, 2.03403, -0.0621838, 0.00200596, -0.000173147, -0.00547256, -0.0170508, 0.00740038, 0.000896149, 0.0140617, -0.0099176, 0.0291496, 0.0807741, 0.00665159, 0.104557, -0.0105443, -0.445134, 0.633848, -3.12916, -0.0570936, -0.111737, -0.00894036, -0.44495, 0.639451, 3.13171, 0.0551599, 0.123906, 0.0162609, -0.0113113, -0.0330063, 0.000536072, -0.022056, -0.00502292
0.119117, 0.111332, -0.773097, -0.914303, -1.44661, -0.625047, 1.0796, -0.256663, 0.0460252, 0.00311689, -0.0587513, 0.0175157, -0.00118816, 0.0469941, 0.00167432, 0.511544, 15.5688, 13.0475, 8.85834, 0.539427, 2.06241, -0.0557752, 0.00199598, -0.000161787, -0.00549313, -0.0171179, 0.00734455, 0.000929361, 0.0102869, -0.00997064, 0.0262013, 0.0750009, 0.0178254, 0.113628, -0.0105279, -0.445146, 0.633814, -3.12908, -0.0571363, -0.111854, -0.00893537, -0.444974, 0.639438, 3.13171, 0.0551474, 0.123941, 0.016564, -0.0115013, -0.033579, 0.00481189, -0.0221318, -0.00826847
0.120117, 0.111373, -0.773095, -0.914373, -1.44659, -0.625048, 1.07965, -0.256667, 0.0442688, 0.00233813, -0.0631889, 0.0148667, -0.000113963, 0.043488, 0.000822034, 0.777352, 15.5688, 13.0832, 8.78693, 0.521117, 2.06973, -0.0420422, 0.00197963, -0.000150873, -0.00551537, -0.0171877, 0.00729014, 0.000972205, 0.0125973, -0.00970179, 0.0244286, 0.0683291, 0.020759, 0.113319, -0.0105112, -0.445157, 0.633781, -3.12901, -0.0571798, -0.111974, -0.00893657, -0.444997, 0.639425, 3.13171, 0.0551204, 0.12398, 0.0168696, -0.0116921, -0.034155, 0.00292933, -0.0221196, -0.0107774
0.121117, 0.111429, -0.77309, -0.914457, -1.44659, -0.625049, 1.07968, -0.256663, 0.0477167, 0.00258913, -0.0683293, 0.0102152, -0.00122888, 0.0399515, 0.00121749, 0.85273, 15.5331, 13.1943, 8.82263, 0.552245, 2.09903, -0.0557752, 0.00196889, -0.000139044, -0.00552962, -0.0172367, 0.00721923, 0.00101128, 0.012524, -0.00980484, 0.0217169, 0.0607171, 0.0277312, 0.116406, -0.0104942, -0.445169, 0.633746, -3.12893, -0.0572241, -0.112096, -0.00893128, -0.445022, 0.639404, 3.13173, 0.0551017, 0.123996, 0.0171776, -0.0118839, -0.0347344, 0.00350618, -0.0223828, -0.014059
0.122117, 0.111488, -0.773089, -0.914542, -1.44658, -0.625053, 1.07972, -0.256661, 0.0503495, 0.00103723, -0.0728159, 0.00766465, -0.00126007, 0.0425811, 0.00262771, 0.928108, 15.5688, 13.1943, 8.82263, 0.564147, 2.10544, -0.101552, 0.00195626, -0.000125894, -0.00554459, -0.0172909, 0.00715264, 0.00105132, 0.0127394, -0.0109106, 0.0203649, 0.0594712, 0.0275697, 0.117619, -0.0104768, -0.445181, 0.633711, -3.12885, -0.0572691, -0.112219, -0.00892758, -0.445048, 0.639383, 3.13175, 0.0550819, 0.12402, 0.017488, -0.0120766, -0.0353172, 0.003738, -0.0236747, -0.0160174
0.123117, 0.111545, -0.773086, -0.914637, -1.44659, -0.625052, 1.07976, -0.256657, 0.0504784, 0.000801264, -0.0804437, 0.00575064, -0.00128087, 0.0394255, 0.00231699, 1.07887, 15.5688, 13.234, 8.82263, 0.576048, 2.13473, -0.114369, 0.00194216, -0.000113509, -0.00555453, -0.017327, 0.0070766, 0.00109544, 0.0154174, -0.0115365, 0.017915, 0.0518685, 0.0313987, 0.115339, -0.0104592, -0.445193, 0.633676, -3.12877, -0.0573148, -0.112345, -0.0089247, -0.445074, 0.639356, 3.13179, 0.0550578, 0.124032, 0.0178009, -0.0122702, -0.0359033, 0.00157872, -0.0245641, -0.019247
0.124117, 0.111602, -0.773079, -0.914736, -1.44659, -0.625053, 1.07979, -0.256656, 0.0506741, 0.003748, -0.0849944, 0.00114894, -0.00132864, 0.0373167, 0.00184987, 1.22962, 15.5688, 13.234, 8.82263, 0.588866, 2.15579, -0.120778, 0.00192843, -0.000100364, -0.00556294, -0.0173621, 0.00699153, 0.00113985, 0.0154208, -0.0115121, 0.0157271, 0.0458903, 0.0394892, 0.117034, -0.0104412, -0.445205, 0.633639, -3.12869, -0.0573613, -0.112473, -0.00892103, -0.4451, 0.639327, 3.13183, 0.0550343, 0.124033, 0.0181163, -0.0124646, -0.0364926, 0.0020454, -0.0247106, -0.0220208
0.125117, 0.111671, -0.773072, -0.914844, -1.4466, -0.625054, 1.07982, -0.256657, 0.0567926, 0.00599683, -0.094543, -0.00313803, -0.00132657, 0.0349526, 0.000572062, 1.26533, 15.5688, 13.2697, 8.85834, 0.600768, 2.19882, -0.101552, 0.00191645, -8.63246e-05, -0.00556799, -0.0173865, 0.00690115, 0.00117541, 0.0147164, -0.0126092, 0.0119833, 0.0361534, 0.0470483, 0.121484, -0.0104229, -0.445218, 0.633603, -3.12861, -0.0574085, -0.112603, -0.00891501, -0.445128, 0.639295, 3.13189, 0.0550261, 0.124027, 0.018434, -0.0126599, -0.0370852, 0.00337336, -0.0259343, -0.0263088
0.126117, 0.111733, -0.773071, -0.914952, -1.44662, -0.625055, 1.07985, -0.256662, 0.0583463, 0.00511191, -0.10034, -0.0113105, -0.0013591, 0.0381728, -0.00127588, 1.41608, 15.6799, 13.1943, 8.97339, 0.613585, 2.22079, -0.0557752, 0.00190096, -7.32597e-05, -0.00557029, -0.0174048, 0.00680776, 0.00121078, 0.0143957, -0.0137006, 0.00866088, 0.0315967, 0.051036, 0.126803, -0.0104044, -0.445231, 0.633565, -3.12852, -0.0574565, -0.112735, -0.00891203, -0.445154, 0.639259, 3.13195, 0.0550194, 0.124019, 0.0187541, -0.012856, -0.0376809, 0.00429154, -0.0271715, -0.0302073
0.127117, 0.111798, -0.773062, -0.915076, -1.44664, -0.625054, 1.07988, -0.256663, 0.0601071, 0.0071656, -0.104508, -0.0121853, -0.000668713, 0.0362705, -0.00109323, 1.57081, 15.6799, 13.234, 9.00909, 0.607176, 2.24917, -0.0484509, 0.0018833, -5.86191e-05, -0.00556934, -0.0174109, 0.0067042, 0.00126023, 0.0144814, -0.0138301, 0.00767095, 0.0276284, 0.055136, 0.128173, -0.0103854, -0.445244, 0.633527, -3.12844, -0.0575053, -0.11287, -0.00891059, -0.445183, 0.639218, 3.13202, 0.0549927, 0.123997, 0.0190766, -0.013053, -0.0382798, 0.0046044, -0.0274903, -0.0318033
0.128117, 0.111866, -0.773053, -0.915194, -1.44666, -0.625054, 1.0799, -0.256664, 0.0620288, 0.00777625, -0.111284, -0.0186583, -0.000445811, 0.0306086, -0.000944708, 1.68189, 15.7156, 13.1586, 9.15985, 0.607176, 2.27756, -0.0420422, 0.00187055, -4.59633e-05, -0.00556751, -0.0174153, 0.00659232, 0.00129755, 0.0151002, -0.0135573, 0.00382465, 0.0156997, 0.0638345, 0.13038, -0.0103662, -0.445257, 0.633489, -3.12835, -0.0575548, -0.113006, -0.00890396, -0.44521, 0.639177, 3.1321, 0.0549857, 0.123964, 0.0194015, -0.0132507, -0.0388819, 0.00457898, -0.0273928, -0.0362861
0.129117, 0.111945, -0.773048, -0.91532, -1.44669, -0.625054, 1.07992, -0.256663, 0.0629277, 0.00574312, -0.116439, -0.0185699, -5.98502e-05, 0.0262824, -0.000376345, 1.68189, 15.8624, 13.1229, 9.23523, 0.600768, 2.30685, -0.0484509, 0.00185711, -3.1503e-05, -0.005565, -0.0174166, 0.00648683, 0.00133473, 0.0176709, -0.0136081, 0.00251448, 0.00944267, 0.0647421, 0.129105, -0.0103466, -0.44527, 0.633449, -3.12826, -0.0576051, -0.113144, -0.00889759, -0.445238, 0.639134, 3.13218, 0.05498, 0.123944, 0.0197288, -0.0134493, -0.039487, 0.00244057, -0.0277206, -0.038387
0.130117, 0.112019, -0.773034, -0.915443, -1.44671, -0.625054, 1.07993, -0.256653, 0.0647988, 0.00694403, -0.116337, -0.0192187, -0.00027726, 0.0225011, 0.00220259, 1.75727, 15.9021, 13.0118, 9.34631, 0.607176, 2.34988, -0.114369, 0.00184646, -1.94837e-05, -0.00556208, -0.0174151, 0.00636156, 0.00138103, 0.0170196, -0.0126901, 0.00260956, 0.00704799, 0.0692487, 0.130934, -0.0103267, -0.445284, 0.63341, -3.12817, -0.0576562, -0.113285, -0.00888816, -0.445265, 0.639091, 3.13227, 0.0549613, 0.123894, 0.0200585, -0.0136486, -0.0400951, 0.00337874, -0.0269807, -0.0388471
0.131117, 0.112093, -0.773022, -0.915578, -1.44674, -0.625053, 1.07995, -0.256656, 0.0692279, 0.00703956, -0.120636, -0.0210709, 0.000255968, 0.024081, 0.00100273, 1.83265, 15.9735, 13.0832, 9.38202, 0.595275, 2.39291, -0.101552, 0.00182901, -5.61259e-06, -0.00555735, -0.0174048, 0.00624063, 0.00142586, 0.0160373, -0.0135419, 0.00145981, 0.0051995, 0.0704386, 0.136709, -0.0103065, -0.445298, 0.633369, -3.12808, -0.0577081, -0.113428, -0.00888499, -0.445293, 0.639044, 3.13236, 0.0549462, 0.123854, 0.0203905, -0.0138487, -0.0407063, 0.00480494, -0.0279828, -0.0405444
0.132117, 0.112173, -0.773007, -0.915709, -1.44676, -0.625052, 1.07996, -0.25666, 0.0734722, 0.0070094, -0.120919, -0.0233497, 0.000408004, 0.0165658, -0.000308064, 1.87232, 16.0489, 13.0475, 9.4574, 0.588866, 2.44235, -0.0750012, 0.00181725, 6.30534e-06, -0.00555241, -0.0173935, 0.00610894, 0.00145914, 0.014821, -0.0119753, 0.000487903, -0.00199629, 0.0764477, 0.145518, -0.010286, -0.445311, 0.633328, -3.12799, -0.0577607, -0.113573, -0.00887589, -0.44532, 0.638998, 3.13246, 0.0549502, 0.1238, 0.0207248, -0.0140495, -0.0413204, 0.00636391, -0.0265625, -0.0420269
0.133117, 0.11225, -0.772988, -0.915835, -1.4468, -0.625051, 1.07996, -0.256655, 0.0717259, 0.00796325, -0.120463, -0.026948, 0.00074672, 0.0156599, 0.000274436, 1.98341, 16.0846, 12.9722, 9.60815, 0.576048, 2.47897, -0.0878186, 0.00180863, 1.60229e-05, -0.00554658, -0.0173795, 0.0059657, 0.00149498, 0.0147116, -0.0111778, 0.000158138, -0.0033036, 0.0807689, 0.147818, -0.0102651, -0.445326, 0.633287, -3.1279, -0.0578142, -0.11372, -0.00886333, -0.445345, 0.63895, 3.13256, 0.0549512, 0.12373, 0.0210615, -0.0142511, -0.0419374, 0.00680428, -0.0259596, -0.0429596
0.134117, 0.11233, -0.772976, -0.915968, -1.44684, -0.625049, 1.07997, -0.256661, 0.0775122, 0.00894716, -0.120669, -0.0275357, 0.00117598, 0.0110579, -0.00198336, 2.05878, 16.2314, 13.0475, 9.67957, 0.557738, 2.50735, -0.0292249, 0.00179636, 2.63586e-05, -0.00553973, -0.01736, 0.00582814, 0.00152339, 0.012471, -0.0102027, -1.27939e-05, -0.00713906, 0.0850262, 0.158467, -0.0102438, -0.44534, 0.633244, -3.1278, -0.0578684, -0.113869, -0.008854, -0.44537, 0.6389, 3.13267, 0.054965, 0.123671, 0.0214005, -0.0144534, -0.0425574, 0.00935299, -0.0251039, -0.0435795
0.135117, 0.112401, -0.772962, -0.916091, -1.44688, -0.62505, 1.07997, -0.256659, 0.0792983, 0.0100119, -0.11705, -0.0321181, 0.000546628, 0.00757262, -0.000607298, 2.24921, 16.3782, 13.0118, 9.79462, 0.564147, 2.53573, -0.0484509, 0.00178333, 3.4126e-05, -0.00553517, -0.0173464, 0.00568191, 0.00156218, 0.00999584, -0.00845271, -8.78138e-05, -0.00902756, 0.0919722, 0.165976, -0.0102223, -0.445355, 0.633201, -3.12771, -0.0579234, -0.114021, -0.00884534, -0.445393, 0.638851, 3.13278, 0.0549631, 0.1236, 0.0217418, -0.0146563, -0.0431802, 0.0121017, -0.0234671, -0.0440812
0.136117, 0.112485, -0.772942, -0.91622, -1.44692, -0.62505, 1.07997, -0.256658, 0.0803588, 0.011849, -0.117954, -0.0347898, 0.000364419, 0.00493613, -0.000402716, 2.32459, 16.4893, 13.0832, 9.87, 0.564147, 2.56412, -0.0484509, 0.00177528, 4.25182e-05, -0.00552878, -0.0173256, 0.00552724, 0.00159036, 0.00929487, -0.00777393, -0.000726839, -0.012083, 0.0979298, 0.169716, -0.0102004, -0.445369, 0.633158, -3.12761, -0.0579792, -0.114174, -0.00883122, -0.445417, 0.638801, 3.13289, 0.0549792, 0.123519, 0.0220854, -0.01486, -0.0438058, 0.0131655, -0.022959, -0.0452879
0.137117, 0.112565, -0.772921, -0.916345, -1.44696, -0.625047, 1.07997, -0.256659, 0.080303, 0.017205, -0.115833, -0.0326024, 5.58663e-06, 0.00345238, 0.00047912, 2.43568, 16.5646, 13.0832, 9.9057, 0.570555, 2.57876, -0.0685925, 0.00176744, 4.92562e-05, -0.00552469, -0.0173089, 0.00537201, 0.00161762, 0.00795808, -0.00690015, 0.00125527, -0.00905188, 0.103623, 0.171438, -0.0101781, -0.445384, 0.633114, -3.12751, -0.0580358, -0.11433, -0.0088168, -0.445439, 0.638752, 3.133, 0.0549972, 0.123439, 0.0224314, -0.0150643, -0.0444342, 0.0146672, -0.0222668, -0.0438345
0.138117, 0.112641, -0.772904, -0.916471, -1.447, -0.625045, 1.07996, -0.256654, 0.0823589, 0.0194802, -0.116912, -0.0334123, 0.000241083, 0.00123601, 0.00130397, 2.58643, 16.7114, 13.1586, 9.9057, 0.564147, 2.62179, -0.0951428, 0.00175602, 5.53381e-05, -0.00552044, -0.0172896, 0.0052158, 0.00165568, 0.00700588, -0.00640739, 0.00116585, -0.0110344, 0.10829, 0.174683, -0.0101555, -0.445399, 0.633069, -3.12741, -0.0580933, -0.114488, -0.00880561, -0.445462, 0.638703, 3.13311, 0.0549995, 0.12336, 0.0227796, -0.0152693, -0.0450654, 0.0159527, -0.0219437, -0.0444815
0.139117, 0.112722, -0.772886, -0.9166, -1.44704, -0.625046, 1.07995, -0.256654, 0.0825602, 0.0204629, -0.119484, -0.0350943, -7.66369e-05, -0.00880528, 0.000870218, 2.66181, 16.8939, 13.3094, 9.94141, 0.570555, 2.66482, -0.0951428, 0.00174534, 6.1488e-05, -0.00551418, -0.0172648, 0.00505194, 0.00168701, 0.00851147, -0.00479242, -0.000314796, -0.0209259, 0.116688, 0.17636, -0.0101325, -0.445415, 0.633024, -3.12731, -0.0581515, -0.114649, -0.00879319, -0.445484, 0.63865, 3.13323, 0.0550136, 0.123272, 0.0231301, -0.0154749, -0.0456993, 0.0148503, -0.020572, -0.0466873
0.140117, 0.112791, -0.772864, -0.916725, -1.44709, -0.625049, 1.07994, -0.256652, 0.080104, 0.023053, -0.117756, -0.0401378, -5.10913e-05, -0.00868326, 0.00105554, 2.85224, 17.005, 13.4562, 10.0168, 0.570555, 2.72983, -0.10796, 0.00173136, 6.55035e-05, -0.00550932, -0.0172423, 0.00487737, 0.00172809, 0.00746733, -0.00381532, -0.000530841, -0.0209941, 0.123267, 0.179987, -0.0101092, -0.44543, 0.632978, -3.12721, -0.0582105, -0.114811, -0.0087839, -0.445504, 0.638598, 3.13336, 0.0550134, 0.123168, 0.0234829, -0.0156811, -0.0463358, 0.016223, -0.0197609, -0.0474537
0.141117, 0.112863, -0.772839, -0.916843, -1.44713, -0.625048, 1.07994, -0.256653, 0.0769635, 0.0217518, -0.11716, -0.0432724, -0.00047487, -0.00768671, 0.000229488, 2.96729, 17.1161, 13.5673, 10.0565, 0.582457, 2.77286, -0.0951428, 0.0017233, 6.85661e-05, -0.00550741, -0.0172279, 0.00470347, 0.00175622, 0.00869134, -0.00345725, -0.000516133, -0.020003, 0.124692, 0.181879, -0.0100856, -0.445446, 0.632931, -3.1271, -0.0582704, -0.114976, -0.00876861, -0.445524, 0.638549, 3.13347, 0.0550335, 0.123069, 0.0238379, -0.015888, -0.046975, 0.015344, -0.0196553, -0.0481658
0.142117, 0.112941, -0.772819, -0.916951, -1.44718, -0.625048, 1.07993, -0.256654, 0.076539, 0.0199522, -0.113991, -0.0432068, -0.000553939, -0.00694631, -0.00130469, 3.003, 17.2629, 13.6426, 10.1279, 0.588866, 2.81589, -0.0557752, 0.00171934, 6.9745e-05, -0.00550785, -0.0172199, 0.00453195, 0.00177117, 0.00866047, -0.00277478, 0.00108272, -0.0161879, 0.123286, 0.187695, -0.0100616, -0.445462, 0.632884, -3.127, -0.0583311, -0.115144, -0.00874912, -0.445542, 0.638502, 3.13358, 0.0550744, 0.122975, 0.0241952, -0.0160954, -0.0476168, 0.0155894, -0.0192012, -0.047205
0.143117, 0.113009, -0.772793, -0.917072, -1.44723, -0.625048, 1.07993, -0.256653, 0.0722987, 0.0202467, -0.117941, -0.0423763, -0.000606652, -0.00558186, -0.000869505, 3.07838, 17.3383, 13.9045, 10.1675, 0.595275, 2.83694, -0.0557752, 0.00170775, 7.30131e-05, -0.0055071, -0.0172085, 0.00435424, 0.00181012, 0.0120772, -0.00350608, 0.00116067, -0.0155194, 0.123485, 0.181917, -0.0100372, -0.445478, 0.632836, -3.12689, -0.0583926, -0.115313, -0.00873673, -0.445562, 0.638453, 3.13369, 0.0550793, 0.122874, 0.0245547, -0.0163034, -0.0482612, 0.0125658, -0.0202673, -0.048033
0.144117, 0.11308, -0.772768, -0.917173, -1.44728, -0.625049, 1.07992, -0.256654, 0.0725418, 0.0205215, -0.108253, -0.0435745, -0.000607885, -0.00490073, -0.00108808, 3.11805, 17.4097, 13.9799, 10.2786, 0.600768, 2.86532, -0.0420422, 0.00170392, 7.22643e-05, -0.00551122, -0.0172093, 0.00417526, 0.00182764, 0.00872667, -0.00140776, 0.00426967, -0.00821647, 0.124598, 0.192793, -0.0100124, -0.445495, 0.632787, -3.12678, -0.0584549, -0.115485, -0.00871676, -0.445579, 0.638408, 3.13379, 0.0551174, 0.122774, 0.0249165, -0.016512, -0.0489081, 0.015959, -0.0182981, -0.045311
0.145117, 0.113137, -0.772752, -0.917282, -1.44733, -0.625049, 1.07992, -0.256655, 0.070725, 0.0179593, -0.106132, -0.0481364, -0.000405257, -0.0041772, -0.000962585, 3.22913, 17.5961, 14.1623, 10.4294, 0.600768, 2.8873, -0.0356336, 0.00168954, 7.19534e-05, -0.00551245, -0.0172027, 0.0039996, 0.00186294, 0.00887173, -0.000604203, 0.00417357, -0.00775275, 0.125288, 0.197286, -0.00998734, -0.445511, 0.632738, -3.12667, -0.058518, -0.115659, -0.00870672, -0.445596, 0.638359, 3.1339, 0.0551293, 0.122681, 0.0252805, -0.0167211, -0.0495576, 0.0161548, -0.0177091, -0.0460595
0.146117, 0.113197, -0.772726, -0.917387, -1.44737, -0.62505, 1.07991, -0.256652, 0.0691753, 0.0205545, -0.10518, -0.0457567, -0.00050753, -0.00336561, 0.00129118, 3.22913, 17.5961, 14.3488, 10.4651, 0.607176, 2.90103, -0.0878186, 0.00167854, 7.17875e-05, -0.00551963, -0.0172101, 0.00382053, 0.00190229, 0.0091934, -0.000376836, 0.00606797, -0.00355817, 0.126832, 0.195351, -0.00996188, -0.445528, 0.632688, -3.12656, -0.058582, -0.115835, -0.0086934, -0.445614, 0.638316, 3.134, 0.0551347, 0.122584, 0.0256467, -0.0169307, -0.0502094, 0.0160518, -0.0177302, -0.0448448
0.147117, 0.113256, -0.772704, -0.917485, -1.44743, -0.625052, 1.07991, -0.256649, 0.0655927, 0.0212713, -0.105137, -0.0477253, -0.00101652, -0.00256914, 0.00113214, 3.19343, 17.6318, 14.4599, 10.6516, 0.625487, 2.90835, -0.0951428, 0.00166944, 6.9903e-05, -0.00552586, -0.0172183, 0.00363801, 0.00193345, 0.0104647, -0.000107584, 0.00636925, -0.00219794, 0.129717, 0.195135, -0.00993605, -0.445545, 0.632638, -3.12645, -0.0586468, -0.116014, -0.00867781, -0.44563, 0.638271, 3.1341, 0.0551538, 0.122485, 0.0260151, -0.0171409, -0.0508638, 0.0151202, -0.0177235, -0.0452914
0.148117, 0.113317, -0.772683, -0.91759, -1.44747, -0.625048, 1.07991, -0.25665, 0.0646203, 0.0195779, -0.104425, -0.047013, -0.000677681, -0.0022959, 0.000246204, 3.07838, 17.6318, 14.6464, 10.7626, 0.625487, 2.923, -0.0814099, 0.00165806, 6.89331e-05, -0.00553287, -0.0172245, 0.00346245, 0.00196564, 0.0115536, 0.000203906, 0.00746565, -0.000114832, 0.128056, 0.197797, -0.00990985, -0.445562, 0.632586, -3.12633, -0.0587125, -0.116195, -0.00866415, -0.445647, 0.638226, 3.1342, 0.0551722, 0.1224, 0.0263857, -0.0173516, -0.0515205, 0.0143122, -0.0176796, -0.0449337
0.149117, 0.113365, -0.772666, -0.917679, -1.44752, -0.625052, 1.07991, -0.256648, 0.0617055, 0.0211578, -0.0972398, -0.0484439, -0.000892597, -0.00183232, 0.000910172, 3.04267, 17.6318, 14.686, 10.9491, 0.637389, 2.93033, -0.101552, 0.00164385, 6.44582e-05, -0.00554441, -0.0172424, 0.0032815, 0.00200414, 0.010038, 0.0019504, 0.00993575, 0.00571483, 0.131026, 0.202789, -0.00988328, -0.44558, 0.632535, -3.12622, -0.058779, -0.116378, -0.00865343, -0.445661, 0.638185, 3.13429, 0.0551808, 0.122308, 0.0267585, -0.0175627, -0.0521796, 0.0159452, -0.0161255, -0.0429986
0.150117, 0.113426, -0.772647, -0.917773, -1.44757, -0.625052, 1.0799, -0.256655, 0.0619694, 0.0232068, -0.094351, -0.0436094, -0.000391614, -0.00124439, -0.00183459, 2.77686, 17.5961, 14.8328, 11.0245, 0.631896, 2.93033, -0.0356336, 0.00163314, 6.18254e-05, -0.00555764, -0.0172632, 0.00310691, 0.00202701, 0.00951824, 0.00246832, 0.0130422, 0.0119025, 0.130045, 0.208212, -0.00985633, -0.445598, 0.632482, -3.1261, -0.0588463, -0.116563, -0.00863891, -0.445677, 0.638145, 3.13438, 0.0552144, 0.122228, 0.0271335, -0.0177744, -0.052841, 0.0165868, -0.0158458, -0.0405188
0.151117, 0.113475, -0.772635, -0.917864, -1.44761, -0.625049, 1.0799, -0.256651, 0.0565775, 0.0205444, -0.0946762, -0.0427225, -0.000261076, -0.00111799, -2.32578e-06, 2.58643, 17.5961, 14.9439, 11.2109, 0.631896, 2.93765, -0.0685925, 0.00161759, 5.73559e-05, -0.00557025, -0.017282, 0.00293544, 0.00206607, 0.0133005, 0.00265921, 0.0140043, 0.0136504, 0.127563, 0.202788, -0.00982901, -0.445615, 0.632429, -3.12598, -0.0589145, -0.116751, -0.00862888, -0.445692, 0.638103, 3.13447, 0.0552238, 0.122156, 0.0275107, -0.0179865, -0.0535047, 0.0131145, -0.0160233, -0.040505
0.152117, 0.113521, -0.772624, -0.917955, -1.44765, -0.625049, 1.0799, -0.256651, 0.0545401, 0.0163693, -0.0909025, -0.0432013, -0.000377501, -0.00490026, -1.52898e-06, 2.43568, 17.5565, 15.0193, 11.322, 0.637389, 2.93765, -0.0685925, 0.00159796, 5.28266e-05, -0.00558595, -0.0173063, 0.00276522, 0.00210975, 0.0149055, 0.004296, 0.015186, 0.0136183, 0.126433, 0.206258, -0.00980131, -0.445634, 0.632375, -3.12586, -0.0589835, -0.116942, -0.00862277, -0.445707, 0.638064, 3.13456, 0.0552266, 0.122088, 0.02789, -0.018199, -0.0541706, 0.0117423, -0.0146791, -0.0400956
0.153117, 0.113568, -0.772614, -0.918046, -1.4477, -0.625047, 1.0799, -0.256654, 0.0516703, 0.0170063, -0.0945745, -0.0462565, 0.000189142, -0.00335038, -0.000984347, 2.20954, 17.485, 15.0947, 11.5482, 0.625487, 2.93033, -0.0420422, 0.00158032, 4.87548e-05, -0.00560039, -0.0173319, 0.00259384, 0.00214612, 0.0165845, 0.00386627, 0.0141598, 0.012122, 0.12897, 0.205851, -0.00977323, -0.445652, 0.63232, -3.12574, -0.0590534, -0.117134, -0.0086142, -0.445723, 0.638023, 3.13465, 0.0552414, 0.122021, 0.0282715, -0.018412, -0.0548388, 0.0105417, -0.0153715, -0.0419196
0.154117, 0.113614, -0.772602, -0.918135, -1.44774, -0.625046, 1.0799, -0.256649, 0.0501452, 0.0160123, -0.0932731, -0.0450032, 0.000363454, -0.00222843, 0.0010392, 1.9477, 17.3383, 15.1304, 11.6235, 0.619078, 2.923, -0.0878186, 0.00156036, 4.4457e-05, -0.0056202, -0.0173671, 0.0024261, 0.00219716, 0.0175764, 0.00412469, 0.0157256, 0.0157973, 0.127312, 0.205206, -0.00974476, -0.44567, 0.632265, -3.12562, -0.0591241, -0.117329, -0.00860798, -0.445739, 0.637986, 3.13473, 0.0552336, 0.121962, 0.0286551, -0.0186253, -0.0555092, 0.0098083, -0.0153889, -0.0411022
0.155117, 0.113658, -0.772598, -0.918221, -1.44778, -0.625044, 1.0799, -0.256644, 0.0457993, 0.0133689, -0.0909038, -0.0476812, 0.00112392, -0.00195647, 0.00120144, 1.68189, 17.2629, 15.1304, 11.8457, 0.595275, 2.93033, -0.101552, 0.00153973, 3.78789e-05, -0.00563772, -0.017394, 0.00225768, 0.00224173, 0.0191365, 0.00508015, 0.016342, 0.017047, 0.126509, 0.206721, -0.00971592, -0.445689, 0.632209, -3.12549, -0.0591957, -0.117527, -0.00860198, -0.445753, 0.637946, 3.13482, 0.0552375, 0.121904, 0.0290408, -0.0188391, -0.0561817, 0.00855476, -0.0147179, -0.0412683
0.156117, 0.113698, -0.772593, -0.91831, -1.44782, -0.625044, 1.0799, -0.256646, 0.0414889, 0.00909622, -0.0908593, -0.0467895, 0.00054583, -0.000911461, 5.49792e-05, 1.45576, 17.1518, 15.17, 11.9568, 0.600768, 2.91568, -0.0814099, 0.0015144, 3.36519e-05, -0.00565857, -0.0174334, 0.00209272, 0.00229407, 0.0228649, 0.00503515, 0.017416, 0.0199508, 0.122515, 0.205339, -0.00968668, -0.445708, 0.632153, -3.12537, -0.0592682, -0.117726, -0.00860045, -0.445769, 0.637909, 3.13489, 0.0552291, 0.121855, 0.0294287, -0.0190533, -0.0568564, 0.00514658, -0.0151351, -0.041156
0.157117, 0.113744, -0.772593, -0.918406, -1.44786, -0.625043, 1.07991, -0.256646, 0.0431099, 0.00575257, -0.0925113, -0.0448256, 0.000804696, -0.000448637, -0.000200701, 1.15424, 17.0407, 15.2811, 12.1432, 0.588866, 2.90835, -0.0750012, 0.00148921, 2.99062e-05, -0.0056759, -0.017463, 0.00192721, 0.00234303, 0.0243481, 0.00466317, 0.018125, 0.0211168, 0.118511, 0.207539, -0.00965706, -0.445727, 0.632096, -3.12524, -0.0593415, -0.117929, -0.00859811, -0.445786, 0.637867, 3.13498, 0.0552277, 0.121807, 0.0298187, -0.0192678, -0.0575331, 0.00401748, -0.0157905, -0.0412452
0.158117, 0.11378, -0.772587, -0.918498, -1.4479, -0.625044, 1.0799, -0.25665, 0.0438429, 0.00803755, -0.0941911, -0.0392365, 9.56548e-05, -0.000112022, -0.00159186, 1.00349, 16.8582, 15.2811, 12.294, 0.600768, 2.90103, -0.0356336, 0.0014606, 2.44686e-05, -0.00569697, -0.0174988, 0.00175405, 0.00239869, 0.0254642, 0.00414124, 0.0201653, 0.0251265, 0.118567, 0.207673, -0.00962704, -0.445747, 0.632038, -3.12511, -0.0594156, -0.118133, -0.00859916, -0.445802, 0.637828, 3.13507, 0.0552164, 0.121749, 0.0302108, -0.0194827, -0.0582119, 0.00316171, -0.0166028, -0.0399836
0.159117, 0.113826, -0.77259, -0.918593, -1.44793, -0.625043, 1.07991, -0.256651, 0.0480629, 0.00707181, -0.0941398, -0.0363697, 0.000504579, 9.95292e-05, -0.0012986, 0.701973, 16.7828, 15.3565, 12.3694, 0.588866, 2.89462, -0.0292249, 0.00143201, 2.10327e-05, -0.00571923, -0.0175385, 0.00159694, 0.00245268, 0.0246965, 0.00410541, 0.0216126, 0.027591, 0.116284, 0.212855, -0.00959664, -0.445766, 0.631979, -3.12498, -0.0594907, -0.11834, -0.00859981, -0.445821, 0.63779, 3.13515, 0.0552081, 0.121719, 0.0306049, -0.019698, -0.0588927, 0.00421067, -0.0168508, -0.0391669
0.160117, 0.113873, -0.772584, -0.918685, -1.44796, -0.625041, 1.0799, -0.256651, 0.0471155, 0.00978131, -0.0953002, -0.0346197, 0.000811104, 1.89914e-05, -0.000865728, 0.436165, 16.5646, 15.3565, 12.4448, 0.576048, 2.89462, -0.0292249, 0.00140685, 1.53276e-05, -0.00574243, -0.0175766, 0.00142516, 0.00250449, 0.0253063, 0.00415789, 0.0226541, 0.0291308, 0.118662, 0.212349, -0.00956583, -0.445786, 0.63192, -3.12485, -0.0595666, -0.11855, -0.00859684, -0.445837, 0.637752, 3.13523, 0.0552044, 0.121668, 0.0310012, -0.0199136, -0.0595756, 0.00391582, -0.0170566, -0.0388602
0.161117, 0.113917, -0.77258, -0.91878, -1.448, -0.625047, 1.07991, -0.256652, 0.0485955, 0.00767407, -0.0998719, -0.0343423, -0.000171341, -2.286e-05, -0.000814509, 0.21003, 16.3782, 15.3922, 12.5558, 0.595275, 2.89462, -0.0228162, 0.00137811, 1.155e-05, -0.0057656, -0.0176207, 0.00125064, 0.00256322, 0.027373, 0.00329364, 0.0220348, 0.0277141, 0.118343, 0.212159, -0.00953463, -0.445806, 0.63186, -3.12472, -0.0596434, -0.118761, -0.00859697, -0.445855, 0.637713, 3.13531, 0.0551905, 0.121616, 0.0313996, -0.0201295, -0.0602603, 0.00233217, -0.0182082, -0.040334
0.162117, 0.113966, -0.772578, -0.918879, -1.44803, -0.625043, 1.07991, -0.256648, 0.0496817, 0.00826368, -0.100654, -0.0330902, 0.000360491, 0.00128055, 0.000677698, -0.0161054, 16.2314, 15.4279, 12.6312, 0.582457, 2.85892, -0.0557752, 0.00135117, 8.00017e-06, -0.00578854, -0.0176615, 0.00108357, 0.00262202, 0.0273183, 0.00312511, 0.0230164, 0.0299951, 0.118049, 0.21329, -0.00950303, -0.445826, 0.6318, -3.12458, -0.059721, -0.118976, -0.00859489, -0.445874, 0.637674, 3.1354, 0.0551775, 0.121578, 0.0318, -0.0203457, -0.060947, 0.00271642, -0.0186101, -0.0400438
0.163117, 0.114013, -0.772574, -0.918988, -1.44806, -0.625044, 1.07991, -0.256647, 0.0520448, 0.00639925, -0.103923, -0.0312589, -0.000234391, 0.00164752, 0.000926518, -0.166862, 16.0489, 15.5787, 12.6669, 0.595275, 2.83694, -0.0685925, 0.00131886, 6.25807e-06, -0.00581011, -0.0176991, 0.000910546, 0.0026913, 0.0287026, 0.00238185, 0.0232634, 0.0304193, 0.116404, 0.214191, -0.00947103, -0.445847, 0.631738, -3.12445, -0.0597996, -0.119192, -0.0085976, -0.445895, 0.637632, 3.13549, 0.0551495, 0.121533, 0.0322025, -0.0205621, -0.0616356, 0.00174675, -0.0196295, -0.0406052
0.164117, 0.114069, -0.772566, -0.919086, -1.44809, -0.625042, 1.07992, -0.256646, 0.0524749, 0.00820327, -0.101909, -0.0302638, 0.000318457, 0.0016259, 0.000855038, -0.392998, 15.8624, 15.543, 12.7066, 0.582457, 2.82229, -0.0750012, 0.0012956, 1.71872e-06, -0.00583431, -0.017741, 0.000731967, 0.00274132, 0.0277415, 0.00306899, 0.024903, 0.0333374, 0.118016, 0.218528, -0.00943863, -0.445867, 0.631676, -3.12431, -0.059879, -0.119411, -0.00859121, -0.445913, 0.637592, 3.13558, 0.0551521, 0.121482, 0.032607, -0.0207789, -0.062326, 0.00295453, -0.0191539, -0.0395827
0.165117, 0.114119, -0.772562, -0.91919, -1.44813, -0.625043, 1.07992, -0.256646, 0.0523679, 0.00774887, -0.102891, -0.0327347, -2.5054e-05, 0.00290375, 0.000570026, -0.468376, 15.7513, 15.5033, 12.7423, 0.588866, 2.77286, -0.0750012, 0.00126697, -1.24938e-06, -0.00585806, -0.0177852, 0.000555313, 0.00280088, 0.0280067, 0.00299271, 0.0246902, 0.0337834, 0.119812, 0.221593, -0.00940582, -0.445888, 0.631614, -3.12417, -0.0599593, -0.119633, -0.0085897, -0.445933, 0.637551, 3.13566, 0.0551406, 0.121437, 0.0330136, -0.0209959, -0.0630183, 0.00311272, -0.0194584, -0.0405125
0.166117, 0.11418, -0.77255, -0.919308, -1.44815, -0.625042, 1.07992, -0.256648, 0.0584587, 0.00919597, -0.10921, -0.0309562, 0.000220656, 0.00219867, -0.000332059, -0.658806, 15.5688, 15.654, 12.6312, 0.582457, 2.76553, -0.0557752, 0.00123747, -1.83337e-06, -0.00588093, -0.017822, 0.000373969, 0.00286514, 0.0276535, 0.00192328, 0.02396, 0.0309052, 0.121598, 0.225468, -0.0093726, -0.445909, 0.63155, -3.12403, -0.0600404, -0.119857, -0.0085885, -0.445956, 0.637508, 3.13576, 0.0551233, 0.121387, 0.0334222, -0.0212132, -0.0637123, 0.0039672, -0.0207237, -0.0419256
0.167117, 0.114234, -0.772545, -0.919418, -1.44819, -0.625043, 1.07993, -0.25665, 0.0563667, 0.00771476, -0.108817, -0.0375304, -9.02548e-05, 0.00332442, -0.000729999, -0.694511, 15.4935, 15.6144, 12.7066, 0.588866, 2.71518, -0.0420422, 0.00120912, -4.24716e-06, -0.00590262, -0.0178617, 0.000189419, 0.00292279, 0.0278278, 0.00241884, 0.0228911, 0.0298541, 0.125023, 0.229842, -0.00933897, -0.445931, 0.631486, -3.12389, -0.0601225, -0.120083, -0.00858573, -0.445977, 0.637464, 3.13585, 0.0551171, 0.121334, 0.0338328, -0.0214307, -0.0644081, 0.00426338, -0.0204398, -0.0436981
0.168117, 0.114305, -0.772531, -0.919539, -1.44822, -0.625047, 1.07993, -0.256651, 0.0607886, 0.00844251, -0.113556, -0.0347839, -0.000500979, 0.00221154, -0.000961384, -0.845268, 15.3467, 15.654, 12.5916, 0.600768, 2.71518, -0.0292249, 0.00118315, -3.72857e-06, -0.00592527, -0.0179016, -2.83292e-06, 0.00298214, 0.0282996, 0.00163088, 0.0229036, 0.028544, 0.126078, 0.231796, -0.00930493, -0.445952, 0.631421, -3.12375, -0.0602054, -0.120312, -0.00858016, -0.446001, 0.63742, 3.13594, 0.0551093, 0.121272, 0.0342455, -0.0216484, -0.0651057, 0.00423268, -0.0214674, -0.0444344
0.169117, 0.114369, -0.772515, -0.919666, -1.44825, -0.625046, 1.07994, -0.25665, 0.0596156, 0.00896126, -0.119427, -0.0378164, -0.000571345, 0.00333577, -0.000166204, -0.809562, 15.1999, 15.654, 12.5558, 0.607176, 2.66482, -0.0420422, 0.00115551, -2.96192e-06, -0.00594585, -0.017937, -0.000196032, 0.00304948, 0.0301858, 0.000735044, 0.0212051, 0.0254635, 0.129327, 0.229402, -0.00927048, -0.445974, 0.631356, -3.1236, -0.0602893, -0.120544, -0.00857569, -0.446026, 0.637373, 3.13604, 0.0550903, 0.121211, 0.0346601, -0.0218663, -0.0658049, 0.00293046, -0.0226284, -0.0469893
0.170117, 0.114448, -0.772506, -0.919802, -1.44827, -0.625049, 1.07994, -0.25665, 0.0678815, 0.00987278, -0.124188, -0.0326168, -0.000618256, 0.00276371, -0.000348162, -0.884941, 15.1642, 15.654, 12.3297, 0.613585, 2.65018, -0.0356336, 0.00112498, 2.29169e-07, -0.00596685, -0.0179705, -0.000382751, 0.00311586, 0.0292861, -0.000351105, 0.0218959, 0.0255441, 0.128447, 0.234059, -0.00923561, -0.445996, 0.63129, -3.12346, -0.060374, -0.120777, -0.00857363, -0.446053, 0.637325, 3.13615, 0.0550739, 0.121163, 0.0350768, -0.0220844, -0.0665058, 0.00423001, -0.0239136, -0.0469516
0.171117, 0.114535, -0.77249, -0.919942, -1.4483, -0.625048, 1.07994, -0.256647, 0.0711106, 0.012497, -0.131949, -0.0318115, -0.00085298, 0.00289164, 0.000751236, -0.960319, 15.0531, 15.5787, 12.2186, 0.625487, 2.62179, -0.0621838, 0.00110212, 3.13502e-06, -0.00598414, -0.0179957, -0.000582171, 0.00317353, 0.0301263, -0.00174669, 0.0206867, 0.0224532, 0.132047, 0.232269, -0.00920033, -0.446018, 0.631223, -3.12331, -0.0604596, -0.121014, -0.00856325, -0.44608, 0.637274, 3.13626, 0.0550727, 0.121097, 0.0354954, -0.0223027, -0.0672083, 0.00395666, -0.0255424, -0.0489491
0.172117, 0.114617, -0.772473, -0.920098, -1.44834, -0.625052, 1.07995, -0.256648, 0.0729537, 0.0136107, -0.140911, -0.0329925, -0.00100946, 0.00270615, 0.000263465, -0.884941, 14.9777, 15.6144, 12.1829, 0.637389, 2.60074, -0.0557752, 0.00107177, 9.35162e-06, -0.00599703, -0.0180148, -0.000789516, 0.00324552, 0.0320452, -0.00319575, 0.0184947, 0.0171662, 0.135602, 0.230814, -0.00916462, -0.446041, 0.631155, -3.12316, -0.0605461, -0.121253, -0.00855946, -0.446111, 0.637217, 3.13638, 0.0550508, 0.121022, 0.0359161, -0.0225212, -0.0679124, 0.0026892, -0.027249, -0.0520132
0.173117, 0.114712, -0.772454, -0.920258, -1.44837, -0.62505, 1.07995, -0.256644, 0.0805975, 0.0153183, -0.146246, -0.0303383, -0.000910334, 0.00261678, 0.00136244, -0.920646, 14.8706, 15.654, 11.9965, 0.643798, 2.57876, -0.0878186, 0.00104513, 1.61917e-05, -0.00601211, -0.0180332, -0.000991863, 0.00331542, 0.0307621, -0.00427849, 0.0183383, 0.0159193, 0.136848, 0.234512, -0.00912849, -0.446063, 0.631087, -3.12301, -0.0606336, -0.121494, -0.00855171, -0.446142, 0.637162, 3.1365, 0.0550332, 0.120957, 0.0363387, -0.0227398, -0.068618, 0.00444259, -0.0285021, -0.0527959
0.174117, 0.114808, -0.772433, -0.920416, -1.4484, -0.625052, 1.07996, -0.256649, 0.0836242, 0.0190193, -0.15282, -0.0310331, -0.00152242, 0.0030661, -0.00054977, -0.845268, 14.7952, 15.6144, 11.9211, 0.668517, 2.54306, -0.0484509, 0.00102085, 2.29507e-05, -0.00602582, -0.0180538, -0.0012032, 0.00337265, 0.0307109, -0.00541915, 0.0170824, 0.0132925, 0.142599, 0.237043, -0.00909194, -0.446086, 0.631018, -3.12286, -0.0607219, -0.121738, -0.0085411, -0.446174, 0.637104, 3.13663, 0.0550361, 0.120881, 0.0367632, -0.0229586, -0.0693252, 0.00505835, -0.0298411, -0.0547731
0.175117, 0.114906, -0.77241, -0.920587, -1.44843, -0.625052, 1.07997, -0.25665, 0.0851233, 0.0226075, -0.157965, -0.0328601, -0.0012523, 0.00336586, -0.000603872, -0.734184, 14.6841, 15.5787, 11.7703, 0.674925, 2.50735, -0.0420422, 0.00099331, 3.21898e-05, -0.00603904, -0.0180719, -0.00141412, 0.00344373, 0.0305174, -0.00604606, 0.0159139, 0.0105328, 0.148287, 0.238292, -0.00905497, -0.446109, 0.630949, -3.12271, -0.0608111, -0.121984, -0.00853318, -0.446208, 0.637046, 3.13675, 0.0550187, 0.120808, 0.0371897, -0.0231774, -0.0700339, 0.00579124, -0.0306626, -0.0566464
0.176117, 0.115013, -0.772392, -0.920764, -1.44847, -0.625052, 1.07997, -0.25665, 0.0931388, 0.0172159, -0.163376, -0.0360757, -0.000834869, 0.00305724, -0.00063994, -0.658806, 14.6484, 15.6144, 11.6989, 0.674925, 2.48538, -0.0356336, 0.000966941, 4.14537e-05, -0.00604732, -0.0180766, -0.00163002, 0.00350734, 0.0300209, -0.00690043, 0.0136453, 0.00502554, 0.146176, 0.24659, -0.00901756, -0.446132, 0.630878, -3.12255, -0.0609012, -0.122233, -0.00852329, -0.446243, 0.636981, 3.13689, 0.0550149, 0.12073, 0.0376182, -0.0233964, -0.0707441, 0.00692291, -0.0316803, -0.0595976
0.177117, 0.115126, -0.772366, -0.920935, -1.4485, -0.625058, 1.07998, -0.256651, 0.102792, 0.0204724, -0.16424, -0.0365556, -0.00147211, 0.00254643, -0.000663986, -0.583427, 14.5731, 15.543, 11.5482, 0.699645, 2.47165, -0.0292249, 0.000945104, 5.03682e-05, -0.00606045, -0.0180946, -0.00185412, 0.00356606, 0.0254583, -0.00693884, 0.0137333, 0.00480053, 0.151592, 0.25811, -0.00897973, -0.446156, 0.630807, -3.12239, -0.0609922, -0.122484, -0.00850887, -0.446277, 0.636922, 3.13702, 0.0550188, 0.120641, 0.0380486, -0.0236155, -0.0714557, 0.0118918, -0.0317679, -0.0598695
0.178117, 0.115242, -0.772348, -0.92111, -1.44853, -0.625059, 1.07998, -0.256649, 0.105408, 0.0197649, -0.167008, -0.0363022, -0.000981404, 0.00196862, 0.00026942, -0.43267, 14.6484, 15.543, 11.3617, 0.699645, 2.46432, -0.0484509, 0.000920813, 5.99056e-05, -0.00607337, -0.0181092, -0.00206763, 0.00362821, 0.0257975, -0.00716469, 0.0136083, 0.0034517, 0.151809, 0.260362, -0.00894147, -0.44618, 0.630735, -3.12224, -0.0610841, -0.122738, -0.00849643, -0.446313, 0.636861, 3.13715, 0.0550185, 0.120572, 0.0384809, -0.0238347, -0.0721687, 0.0120036, -0.0322269, -0.0607427
0.179117, 0.115365, -0.77232, -0.921292, -1.44856, -0.62506, 1.07999, -0.256648, 0.109198, 0.0217863, -0.175048, -0.0348031, -0.00177325, 0.00542571, 0.00045088, -0.357292, 14.6127, 15.5033, 11.2506, 0.729857, 2.46432, -0.0557752, 0.000900802, 6.97972e-05, -0.00608385, -0.0181181, -0.00229541, 0.00368525, 0.0265849, -0.00934163, 0.0128147, 0.00362213, 0.153162, 0.259264, -0.00890277, -0.446204, 0.630663, -3.12208, -0.061177, -0.122995, -0.0084791, -0.446348, 0.636797, 3.13729, 0.0550278, 0.120484, 0.0389151, -0.0240539, -0.0728831, 0.0118008, -0.0346406, -0.0623484
0.180117, 0.115491, -0.772298, -0.921481, -1.4486, -0.625058, 1.07999, -0.256643, 0.113994, 0.0231194, -0.177962, -0.036494, -0.000741356, 0.00317989, 0.000775305, -0.242241, 14.7198, 15.4676, 11.2506, 0.717955, 2.48538, -0.0685925, 0.000879607, 8.0033e-05, -0.0060907, -0.0181165, -0.00252273, 0.00374426, 0.0250485, -0.00912644, 0.0118948, -0.000603686, 0.157143, 0.265433, -0.00886363, -0.446228, 0.630589, -3.12192, -0.0612707, -0.123253, -0.00846222, -0.446385, 0.636729, 3.13745, 0.0550358, 0.120398, 0.0393512, -0.0242732, -0.0735988, 0.0138299, -0.0345723, -0.0638624
0.181117, 0.115619, -0.772272, -0.921687, -1.44863, -0.625063, 1.07999, -0.25664, 0.118293, 0.028309, -0.180281, -0.0329754, -0.00137586, 0.00156311, 0.00122895, -0.131157, 14.7952, 15.5033, 11.0641, 0.741759, 2.50735, -0.0878186, 0.000850792, 9.5671e-05, -0.00609724, -0.0181176, -0.00275305, 0.0038235, 0.0236991, -0.00929542, 0.0129666, 0.000109802, 0.162495, 0.26799, -0.00882406, -0.446252, 0.630515, -3.12175, -0.0613653, -0.123515, -0.00845227, -0.446427, 0.636659, 3.1376, 0.0550132, 0.120311, 0.0397893, -0.0244926, -0.0743159, 0.0155336, -0.0349313, -0.0634126
0.182117, 0.115619, -0.772272, -0.921687, -1.44863, -0.625063, 1.07999, -0.25664, 0.118293, 0.028309, -0.180281, -0.0329754, -0.00137586, 0.00156311, 0.00122895, -0.131157, 14.7952, 15.5033, 11.0641, 0.741759, 2.50735, -0.0878186, 0.000818889, 6.74766e-05, -0.00617423, -0.0182684, -0.00292868, 0.00388075, 0.02407, -0.00904428, 0.0137187, 0.00134824, 0.1635, 0.27062, -0.00878406, -0.446277, 0.630441, -3.12159, -0.0614609, -0.123779, -0.00845227, -0.446427, 0.636659, 3.1376, 0.0550132, 0.120311, 0.0402292, -0.0247119, -0.0750342, 0.0155336, -0.0349313, -0.0634126
0.183117, 0.115758, -0.772244, -0.921877, -1.44867, -0.625062, 1.08, -0.256642, 0.122721, 0.0283825, -0.182327, -0.0338943, -0.00139196, 0.00482272, 0.00109057, -0.0914839, 14.9063, 15.3565, 11.0245, 0.754576, 2.52109, -0.0951428, 0.00080326, 7.85688e-05, -0.00618426, -0.0182765, -0.00316376, 0.00392553, 0.0225892, -0.00983497, 0.0137564, 0.00326449, 0.163719, 0.276701, -0.00874361, -0.446302, 0.630365, -3.12142, -0.0615574, -0.124045, -0.0084288, -0.446464, 0.636592, 3.13774, 0.0550457, 0.120221, 0.040671, -0.0249313, -0.0757538, 0.0174778, -0.0358875, -0.0639948
0.184117, 0.115758, -0.772244, -0.921877, -1.44867, -0.625062, 1.08, -0.256642, 0.122721, 0.0283825, -0.182327, -0.0338943, -0.00139196, 0.00482272, 0.00109057, -0.0914839, 14.9063, 15.3565, 11.0245, 0.754576, 2.52109, -0.0951428, 0.000770676, 4.98189e-05, -0.00626276, -0.01843, -0.00334281, 0.00398391, 0.0229632, -0.00958322, 0.0145113, 0.00450261, 0.164729, 0.27934, -0.00870271, -0.446327, 0.630289, -3.12126, -0.0616548, -0.124315, -0.0084288, -0.446464, 0.636592, 3.13774, 0.0550457, 0.120221, 0.0411146, -0.0251507, -0.0764746, 0.0174778, -0.0358875, -0.0639948
0.185117, 0.115758, -0.772244, -0.921877, -1.44867, -0.625062, 1.08, -0.256642, 0.122721, 0.0283825, -0.182327, -0.0338943, -0.00139196, 0.00482272, 0.00109057, -0.0914839, 14.9063, 15.3565, 11.0245, 0.754576, 2.52109, -0.0951428, 0.000737758, 2.07844e-05, -0.006342, -0.0185848, -0.00352357, 0.00404284, 0.0233387, -0.00933108, 0.0152677, 0.00574055, 0.16574, 0.281983, -0.00866138, -0.446352, 0.630212, -3.12109, -0.0617531, -0.124586, -0.0084288, -0.446464, 0.636592, 3.13774, 0.0550457, 0.120221, 0.0415602, -0.0253701, -0.0771966, 0.0174778, -0.0358875, -0.0639948
0.186117, 0.116314, -0.772104, -0.922703, -1.44881, -0.625059, 1.08003, -0.256647, 0.134865, 0.036635, -0.19641, -0.0357564, 0.000342933, 0.000544422, -0.00210166, 0.400459, 15.2356, 15.2811, 11.0245, 0.736266, 2.57144, -0.0228162, 0.000758599, 0.000161633, -0.00613252, -0.0181213, -0.00397058, 0.00410175, 0.0201233, -0.0108431, 0.0109632, -0.00774522, 0.177991, 0.290782, -0.00861959, -0.446377, 0.630135, -3.12092, -0.0618523, -0.12486, -0.00834505, -0.446627, 0.636305, 3.13837, 0.0550997, 0.119811, 0.0420076, -0.0255895, -0.0779197, 0.0215292, -0.037414, -0.0687802
0.187117, 0.116456, -0.772066, -0.922909, -1.44885, -0.625059, 1.08004, -0.256645, 0.13677, 0.0355312, -0.206984, -0.0373632, 0.000228622, 0.00408767, -0.000926386, 0.511544, 15.311, 15.2057, 11.0641, 0.736266, 2.58609, -0.0356336, 0.000741713, 0.000175241, -0.00614089, -0.0181272, -0.00422409, 0.00416043, 0.022768, -0.0132948, 0.00847599, -0.0112505, 0.177825, 0.286795, -0.00857736, -0.446403, 0.630057, -3.12075, -0.0619525, -0.125137, -0.00832084, -0.446668, 0.636234, 3.13853, 0.0551151, 0.119703, 0.0424568, -0.0258089, -0.078644, 0.0196406, -0.0401406, -0.072241
0.188117, 0.116603, -0.772029, -0.923124, -1.44889, -0.62506, 1.08005, -0.256645, 0.139753, 0.0340578, -0.208253, -0.0390892, -5.1036e-05, 0.00665339, -0.00061759, 0.551216, 15.4221, 15.17, 11.1356, 0.741759, 2.60715, -0.0356336, 0.00072364, 0.000189861, -0.00614587, -0.018124, -0.00448219, 0.00421828, 0.0221175, -0.013785, 0.00842178, -0.00978088, 0.177543, 0.291883, -0.00853468, -0.446429, 0.629978, -3.12057, -0.0620535, -0.125416, -0.00829706, -0.44671, 0.636158, 3.13869, 0.0551335, 0.119591, 0.0429079, -0.0260282, -0.0793694, 0.0207636, -0.0408259, -0.0729823
