alisrour97/Franka_experiments/Real_Robot_scripts/servo-franka/Data4/log_dyn_PIw_ki_8.csv
Time,q1,q2,q3,q4,q5,q6,q7,dq1,dq2,dq3,dq4,dq5,dq6,dq7,t1,t2,t3,t4,t5,t6,t7,ex1,ex2,ex3,ex4,ex5,ex6,ev1,ev2,ev3,ev4,ev5,ev6,xd,yd,zd,uxd,uyd,uzd,x,y,z,ux,uy,uz,vxd,vyd,vzd,vx,vy,vz
2.44141e-07, 0.107601, -0.774407, -0.916537, -1.45694, -0.625331, 1.0702, -0.256726, 0.00139126, -0.00627791, 0.00379174, 0.0103419, -0.0011814, -0.000715685, -0.000913008, 0.0949785, 16.7828, 20.268, 16.6977, 1.2215, 3.30295, -0.193104, 0.000806488, -0.00162641, 0.000328329, 0.000502768, -0.000265705, 0.000197695, 0.00253428, -8.9006e-05, 0.00389589, 0.00758459, -0.0119062, -0.000682058, -0.011112, -0.444721, 0.635038, -3.13187, -0.0555627, -0.107532, -0.0103423, -0.443066, 0.63477, -3.13137, -0.0556935, -0.107072, 0, 0, 0, -0.00279016, -0.000211588, 0.00371197
0.0120659, 0.107592, -0.774424, -0.916534, -1.45688, -0.625335, 1.0702, -0.256733, -0.000500062, -0.000223619, 1.31745e-05, 0.00265762, 8.33985e-05, -0.000302524, -0.00177797, 0.0196001, 16.636, 20.2323, 16.6977, 1.2215, 3.31759, -0.10796, 0.000784932, -0.00162249, 0.000309137, 0.000465259, -0.000211193, 0.000230723, 0.000854097, -8.86364e-05, 0.000798389, 0.00122073, -0.00186338, -2.10435e-05, -0.011112, -0.444721, 0.635038, -3.13187, -0.0555627, -0.107532, -0.0103661, -0.443069, 0.634793, -3.13141, -0.0556451, -0.10717, 1.73063e-06, -1.42215e-06, -3.96181e-06, -0.000901293, -0.000126908, 0.000733305
0.0130662, 0.107592, -0.774424, -0.916534, -1.45688, -0.625335, 1.0702, -0.256733, -0.000500062, -0.000223619, 1.31745e-05, 0.00265762, 8.33985e-05, -0.000302524, -0.00177797, 0.0196001, 16.636, 20.2323, 16.6977, 1.2215, 3.31759, -0.10796, 0.000784929, -0.00162249, 0.000309127, 0.000465239, -0.000211214, 0.00023073, 0.000858302, -8.41287e-05, 0.000810531, 0.0012449, -0.00184684, 2.24734e-05, -0.011112, -0.444721, 0.635038, -3.13187, -0.0555628, -0.107532, -0.0103661, -0.443069, 0.634793, -3.13141, -0.0556451, -0.10717, 6.91577e-06, -5.6745e-06, -1.58141e-05, -0.000901293, -0.000126908, 0.000733305
0.0140662, 0.107592, -0.774424, -0.916534, -1.45688, -0.625335, 1.0702, -0.256733, -0.000500062, -0.000223619, 1.31745e-05, 0.00265762, 8.33985e-05, -0.000302524, -0.00177797, 0.0196001, 16.636, 20.2323, 16.6977, 1.2215, 3.31759, -0.10796, 0.00078492, -0.0016225, 0.000309102, 0.000465185, -0.000211273, 0.00023075, 0.000865305, -7.66425e-05, 0.000830707, 0.00128503, -0.00181936, 9.47775e-05, -0.011112, -0.444721, 0.635038, -3.13187, -0.0555628, -0.107532, -0.0103661, -0.443069, 0.634793, -3.13141, -0.0556451, -0.10717, 1.55453e-05, -1.2736e-05, -3.55071e-05, -0.000901293, -0.000126908, 0.000733305
0.0150662, 0.107592, -0.774424, -0.916534, -1.45688, -0.625335, 1.0702, -0.256733, -0.000500062, -0.000223619, 1.31745e-05, 0.00265762, 8.33985e-05, -0.000302524, -0.00177797, 0.0196001, 16.636, 20.2323, 16.6977, 1.2215, 3.31759, -0.10796, 0.000784903, -0.00162252, 0.000309052, 0.000465079, -0.000211386, 0.000230788, 0.000875098, -6.61994e-05, 0.000858867, 0.00134102, -0.00178102, 0.000195686, -0.011112, -0.444721, 0.635038, -3.13187, -0.0555628, -0.107532, -0.0103661, -0.443069, 0.634793, -3.13141, -0.0556451, -0.10717, 2.7609e-05, -2.25855e-05, -6.29913e-05, -0.000901293, -0.000126908, 0.000733305
0.0160662, 0.107592, -0.774424, -0.916534, -1.45688, -0.625335, 1.0702, -0.256733, -0.000500062, -0.000223619, 1.31745e-05, 0.00265762, 8.33985e-05, -0.000302524, -0.00177797, 0.0196001, 16.636, 20.2323, 16.6977, 1.2215, 3.31759, -0.10796, 0.000784874, -0.00162255, 0.000308971, 0.000464905, -0.000211573, 0.00023085, 0.000887676, -5.28211e-05, 0.000894961, 0.00141273, -0.00173188, 0.000325017, -0.0111119, -0.444721, 0.635038, -3.13187, -0.0555629, -0.107532, -0.0103661, -0.443069, 0.634793, -3.13141, -0.0556451, -0.10717, 4.30968e-05, -3.5202e-05, -9.82172e-05, -0.000901293, -0.000126908, 0.000733305
0.0170662, 0.107592, -0.774424, -0.916534, -1.45688, -0.625335, 1.0702, -0.256733, -0.000500062, -0.000223619, 1.31745e-05, 0.00265762, 8.33985e-05, -0.000302524, -0.00177797, 0.0196001, 16.636, 20.2323, 16.6977, 1.2215, 3.31759, -0.10796, 0.000784832, -0.0016226, 0.00030885, 0.000464647, -0.000211852, 0.000230944, 0.000903032, -3.65291e-05, 0.000938938, 0.00150006, -0.00167202, 0.000482588, -0.0111119, -0.444721, 0.635038, -3.13187, -0.0555631, -0.107533, -0.0103661, -0.443069, 0.634793, -3.13141, -0.0556451, -0.10717, 6.19987e-05, -5.05647e-05, -0.000141136, -0.000901293, -0.000126908, 0.000733305
0.0180662, 0.107592, -0.774424, -0.916534, -1.45688, -0.625335, 1.0702, -0.256733, -0.000500062, -0.000223619, 1.31745e-05, 0.00265762, 8.33985e-05, -0.000302524, -0.00177797, 0.0196001, 16.636, 20.2323, 16.6977, 1.2215, 3.31759, -0.10796, 0.000784773, -0.00162266, 0.000308681, 0.000464286, -0.000212239, 0.000231074, 0.000921161, -1.7345e-05, 0.000990751, 0.00160289, -0.00160149, 0.000668218, -0.0111118, -0.444721, 0.635037, -3.13187, -0.0555633, -0.107533, -0.0103661, -0.443069, 0.634793, -3.13141, -0.0556451, -0.10717, 8.43044e-05, -6.86525e-05, -0.000191697, -0.000901293, -0.000126908, 0.000733305
0.0190662, 0.107592, -0.774424, -0.916534, -1.45688, -0.625335, 1.0702, -0.256733, -0.000500062, -0.000223619, 1.31745e-05, 0.00265762, 8.33985e-05, -0.000302524, -0.00177797, 0.0196001, 16.636, 20.2323, 16.6977, 1.2215, 3.31759, -0.10796, 0.000784694, -0.00162274, 0.000308456, 0.000463808, -0.000212754, 0.000231246, 0.000942057, 4.70987e-06, 0.00105035, 0.00172109, -0.00152039, 0.000881726, -0.0111117, -0.444721, 0.635037, -3.13187, -0.0555636, -0.107534, -0.0103661, -0.443069, 0.634793, -3.13141, -0.0556451, -0.10717, 0.000110004, -8.94448e-05, -0.000249853, -0.000901293, -0.000126908, 0.000733305
0.0200662, 0.107592, -0.774424, -0.916534, -1.45688, -0.625335, 1.0702, -0.256733, -0.000500062, -0.000223619, 1.31745e-05, 0.00265762, 8.33985e-05, -0.000302524, -0.00177797, 0.0196001, 16.636, 20.2323, 16.6977, 1.2215, 3.31759, -0.10796, 0.000784594, -0.00162285, 0.000308169, 0.000463196, -0.000213414, 0.000231467, 0.000965713, 2.9614e-05, 0.00111768, 0.00185456, -0.00142877, 0.00112293, -0.0111116, -0.444721, 0.635037, -3.13187, -0.055564, -0.107535, -0.0103661, -0.443069, 0.634793, -3.13141, -0.0556451, -0.10717, 0.000139087, -0.000112921, -0.000315553, -0.000901293, -0.000126908, 0.000733305
0.0210662, 0.107592, -0.774424, -0.916534, -1.45688, -0.625335, 1.0702, -0.256733, -0.000500062, -0.000223619, 1.31745e-05, 0.00265762, 8.33985e-05, -0.000302524, -0.00177797, 0.0196001, 16.636, 20.2323, 16.6977, 1.2215, 3.31759, -0.10796, 0.000784468, -0.00162298, 0.00030781, 0.000462434, -0.000214236, 0.000231742, 0.000992124, 5.73462e-05, 0.0011927, 0.00200318, -0.0013267, 0.00139165, -0.0111114, -0.444721, 0.635037, -3.13186, -0.0555644, -0.107536, -0.0103661, -0.443069, 0.634793, -3.13141, -0.0556451, -0.10717, 0.000171544, -0.000139059, -0.00038875, -0.000901293, -0.000126908, 0.000733305
0.0220662, 0.107567, -0.774431, -0.916554, -1.45684, -0.625355, 1.0702, -0.256737, -0.00311163, -0.00135434, -0.00164674, 0.00306338, -0.0030619, 0.000129051, -0.000486464, 0.21003, 16.6718, 20.4545, 16.5509, 1.34418, 3.31759, -0.120778, 0.000752598, -0.00161564, 0.00030088, 0.000444761, -0.000201113, 0.000298101, 0.0037063, -0.000653327, 0.00100158, 0.00318174, -0.000381236, -0.00518856, -0.0111112, -0.444721, 0.635036, -3.13186, -0.055565, -0.107538, -0.0103979, -0.443078, 0.634798, -3.13142, -0.0555418, -0.107193, 0.000207364, -0.00016784, -0.000469394, -0.00353312, -0.000959729, 0.00027114
0.0230662, 0.107563, -0.774428, -0.916556, -1.45683, -0.625358, 1.0702, -0.256738, -0.00311697, -0.000103711, -0.00109502, 0.0031561, -0.00264791, 8.60092e-05, 0.000150409, 0.245735, 16.636, 20.4545, 16.5112, 1.35608, 3.31759, -0.133595, 0.000749305, -0.00161497, 0.000299281, 0.00044107, -0.000203396, 0.000305814, 0.00312545, -0.000436044, 0.00131976, 0.00363936, 0.000611378, -0.00493834, -0.011111, -0.444722, 0.635036, -3.13186, -0.0555656, -0.10754, -0.0104011, -0.443079, 0.634798, -3.13143, -0.0555303, -0.107192, 0.000246538, -0.000199242, -0.000557437, -0.00294435, -0.000756298, 0.00054176
0.0240662, 0.107565, -0.774427, -0.916563, -1.45683, -0.625359, 1.0702, -0.256742, -0.00139826, 0.00157427, -0.000727909, -0.00062409, -0.00121148, 0.000599856, -0.000611805, 0.21003, 16.5646, 20.4545, 16.3644, 1.33777, 3.30295, -0.114369, 0.000746852, -0.00161303, 0.000299195, 0.000439902, -0.000203199, 0.000309515, 0.000651223, -3.09333e-05, 0.000424724, 0.00177031, 0.00352663, 0.000796539, -0.0111107, -0.444722, 0.635035, -3.13186, -0.0555664, -0.107542, -0.0104032, -0.443081, 0.634798, -3.13143, -0.0555253, -0.107194, 0.000289055, -0.000233245, -0.00065283, -0.00038819, -0.000290721, -0.00027405
0.0250662, 0.107568, -0.774424, -0.916571, -1.45683, -0.62536, 1.0702, -0.256743, -0.000120781, 0.00223168, -0.00175567, -0.00213851, -0.00457542, 0.00039989, 0.00612934, 0.170357, 16.3782, 20.3791, 16.2891, 1.30755, 3.30295, -0.0484509, 0.000747099, -0.001612, 0.00030217, 0.000445704, -0.000212397, 0.000309904, 0.000620415, -0.00046422, -0.000256255, 0.00174393, 0.00801826, -0.00591245, -0.0111104, -0.444722, 0.635034, -3.13186, -0.0555673, -0.107544, -0.0104024, -0.443082, 0.634794, -3.13142, -0.0555258, -0.107182, 0.000334905, -0.000269828, -0.000755525, -0.000249554, -0.000753363, -0.00105666
0.0260662, 0.107566, -0.774425, -0.91658, -1.45685, -0.625372, 1.07021, -0.25674, 0.000667228, 0.00235908, -0.00435201, -0.00832996, -0.00260417, -4.68451e-06, 0.00510571, 0.134651, 16.1957, 20.2323, 16.2891, 1.28284, 3.31027, -0.0557752, 0.000743731, -0.00160971, 0.000307992, 0.000450434, -0.000230251, 0.000320225, -0.00052176, -0.000259218, -0.00282507, -0.00443717, 0.0111651, -0.00154987, -0.0111101, -0.444722, 0.635033, -3.13186, -0.0555684, -0.107547, -0.0104049, -0.443085, 0.634787, -3.13141, -0.0555111, -0.107156, 0.000384079, -0.000308971, -0.000865474, 0.00110689, -0.000525347, -0.00364956
0.0270662, 0.107568, -0.774428, -0.916588, -1.45684, -0.625381, 1.07021, -0.256743, 0.00130724, 0.00142709, -0.00242297, -0.00444333, -0.00161346, 0.000539404, 0.00274427, 0.0949785, 16.0489, 20.0458, 16.0629, 1.27002, 3.29562, -0.0228162, 0.00073831, -0.0016066, 0.000308499, 0.000445945, -0.000234225, 0.000328901, -0.000541798, -0.00010609, -0.000976748, -0.000861549, 0.0067577, 0.00182893, -0.0111097, -0.444723, 0.635033, -3.13186, -0.0555696, -0.10755, -0.0104098, -0.443088, 0.634785, -3.13142, -0.0554987, -0.107154, 0.000436566, -0.000350653, -0.000982628, 0.00104739, -0.000429204, -0.00192048
0.0280662, 0.107575, -0.774429, -0.916605, -1.45685, -0.625389, 1.07021, -0.256738, -0.000548168, 0.000610045, -0.00372451, -0.00627683, -0.00526569, 0.000359597, 0.00394581, 0.0196001, 15.9021, 19.9705, 16.0272, 1.2453, 3.29562, -0.0685925, 0.000735774, -0.00160316, 0.00031492, 0.000456078, -0.000247778, 0.000340156, 0.00134307, -0.000551362, -0.00176876, -0.000946989, 0.0102162, -0.00256714, -0.0111092, -0.444723, 0.635032, -3.13185, -0.0555709, -0.107554, -0.0104113, -0.443092, 0.634778, -3.13141, -0.055483, -0.107135, 0.000492356, -0.000394854, -0.00110694, -0.000705961, -0.000977871, -0.00296717
0.0290662, 0.10758, -0.774436, -0.916612, -1.45686, -0.625403, 1.07021, -0.256738, 0.00109975, -0.00261497, 0.00102064, -0.00833188, -0.0055022, 0.000782262, 0.00270883, -0.0557783, 15.8624, 19.784, 16.0272, 1.28284, 3.28097, -0.0621838, 0.000732988, -0.00160063, 0.000319047, 0.000456886, -0.000259807, 0.000341523, -0.000305792, 0.00032684, -0.00104164, 0.00136364, 0.00828053, 0.00535555, -0.0111087, -0.444723, 0.63503, -3.13185, -0.0555724, -0.107558, -0.0104132, -0.443095, 0.634772, -3.1314, -0.0554824, -0.107121, 0.000551439, -0.000441554, -0.00123836, 0.000915956, -9.51974e-05, -0.00225448
0.0300662, 0.107575, -0.774448, -0.916626, -1.45687, -0.62542, 1.07021, -0.256742, 0.00502358, -0.00348166, -0.00137408, -0.0104667, -0.00571295, 0.0110366, 0.000821927, 0.0196001, 15.9021, 19.7086, 16.0629, 1.32587, 3.24527, -0.0292249, 0.000720988, -0.00159613, 0.000324821, 0.000458239, -0.00026899, 0.000358015, -0.00244374, -0.00196171, -0.00148177, 0.00751883, 0.00412303, 0.0108392, -0.0111081, -0.444724, 0.635029, -3.13185, -0.0555741, -0.107563, -0.010424, -0.443101, 0.634764, -3.1314, -0.0554586, -0.107111, 0.000613805, -0.000490732, -0.00137684, 0.0032217, -0.00235241, -0.00269928
0.0310662, 0.107578, -0.774451, -0.916643, -1.45687, -0.625434, 1.07022, -0.256737, 0.00453972, -0.00116562, -0.00793308, -0.0094887, -0.00414698, 0.0102261, 0.00242093, -0.0161054, 15.8267, 19.7086, 15.9915, 1.32587, 3.18851, -0.0750012, 0.000714075, -0.00159004, 0.000328086, 0.000453184, -0.000277846, 0.000380475, -0.000790387, -0.00284765, -0.00287265, 0.0029244, 0.00551816, 0.004544, -0.0111074, -0.444724, 0.635028, -3.13184, -0.055576, -0.107568, -0.0104298, -0.443107, 0.634759, -3.1314, -0.0554254, -0.107102, 0.000679445, -0.000542368, -0.00152234, 0.00176577, -0.00333557, -0.00435144
0.0320662, 0.107585, -0.77446, -0.916652, -1.45688, -0.625453, 1.07023, -0.25674, 0.0050563, -0.00206811, -0.00687266, -0.00818671, -0.00821048, 0.0076632, 0.000763775, -0.0914839, 15.8624, 19.5975, 16.0272, 1.33777, 3.18118, -0.0484509, 0.000709616, -0.00158666, 0.000332024, 0.000451529, -0.000291886, 0.000382213, 0.00031012, -0.00269804, -0.0022917, 0.00412885, 0.00830824, 0.00546684, -0.0111067, -0.444725, 0.635026, -3.13184, -0.055578, -0.107574, -0.0104331, -0.443112, 0.634753, -3.1314, -0.0554248, -0.107086, 0.000748347, -0.000596442, -0.0016748, 0.000692349, -0.00328386, -0.00399905
0.0330662, 0.107591, -0.774464, -0.916671, -1.4569, -0.625471, 1.07023, -0.256741, 0.00533405, -0.000885376, -0.00968953, -0.0120468, -0.0107495, 0.0055397, -0.000815096, -0.166862, 15.8267, 19.6372, 16.1383, 1.33777, 3.18118, -0.00999879, 0.000703684, -0.00158211, 0.000340262, 0.000460115, -0.000316028, 0.000392501, 0.000712402, -0.00282873, -0.00425838, -0.000171818, 0.0153489, 0.00652693, -0.0111059, -0.444726, 0.635024, -3.13184, -0.0555803, -0.10758, -0.0104375, -0.443117, 0.634743, -3.13139, -0.0554115, -0.107054, 0.000820503, -0.000652933, -0.00183418, 0.000502752, -0.00346813, -0.00614889
0.0340662, 0.107589, -0.774473, -0.916679, -1.4569, -0.62549, 1.07023, -0.256737, 0.00601673, -0.00168186, -0.00887382, -0.00887656, -0.0113542, 0.00401631, 0.00146429, -0.131157, 15.8624, 19.5618, 16.1383, 1.30115, 3.18118, -0.0621838, 0.000694628, -0.00157876, 0.0003427, 0.000454775, -0.000328247, 0.000411875, 0.00139187, -0.00263313, -0.00307307, 0.00130948, 0.0139153, 0.00424252, -0.0111051, -0.444726, 0.635022, -3.13183, -0.0555828, -0.107587, -0.0104454, -0.443121, 0.634738, -3.13139, -0.0553837, -0.107041, 0.000895902, -0.000711822, -0.00200043, -0.000187408, -0.00336567, -0.00517816
0.0350671, 0.107589, -0.774477, -0.916685, -1.45691, -0.625508, 1.07023, -0.256742, 0.00438579, -0.00442774, -0.00832661, -0.00747977, -0.0126188, 0.00291993, -0.00140903, -0.131157, 15.8624, 19.4864, 16.178, 1.28284, 3.18118, 0.00373412, 0.00068957, -0.00157606, 0.000344805, 0.000447743, -0.00034669, 0.000416917, 0.00349002, -0.00251189, -0.0024625, 0.00231782, 0.0119828, 0.00522061, -0.0111041, -0.444727, 0.63502, -3.13183, -0.0555855, -0.107594, -0.0104493, -0.443125, 0.634733, -3.13139, -0.0553784, -0.10702, 0.000974534, -0.000773089, -0.00217351, -0.00224678, -0.00338487, -0.00488561
0.0360671, 0.107592, -0.77448, -0.916697, -1.45692, -0.625525, 1.07024, -0.256735, 0.00404005, -0.00252035, -0.00888316, -0.00948784, -0.0173322, 0.00107724, 0.00130683, -0.166862, 15.8267, 19.4507, 16.2137, 1.2334, 3.20956, -0.0557752, 0.000683747, -0.00157279, 0.000348611, 0.000446881, -0.000367473, 0.000436286, 0.00400973, -0.00257983, -0.00312948, 0.00185465, 0.0199681, 0.00116427, -0.0111031, -0.444728, 0.635018, -3.13182, -0.0555884, -0.107602, -0.0104537, -0.443129, 0.634727, -3.13139, -0.0553513, -0.106996, 0.00105639, -0.000836713, -0.00235336, -0.00263496, -0.0035289, -0.00576703
0.0370671, 0.107594, -0.774484, -0.916705, -1.45693, -0.625548, 1.07023, -0.256735, 0.00290409, -0.00114782, -0.0123266, -0.00694775, -0.016815, 0.000854503, 0.000631551, -0.166862, 15.791, 19.4111, 16.2137, 1.20318, 3.20956, -0.0484509, 0.000676532, -0.00156998, 0.000350791, 0.000442119, -0.000392624, 0.00044989, 0.00572056, -0.00317457, -0.00307832, 0.0011772, 0.019813, -0.00228888, -0.011102, -0.444729, 0.635016, -3.13182, -0.0555915, -0.107611, -0.0104596, -0.443133, 0.634722, -3.13139, -0.0553333, -0.106965, 0.00114146, -0.000902674, -0.00253994, -0.00423786, -0.00424986, -0.00602392
0.0380671, 0.107592, -0.774483, -0.916712, -1.45694, -0.625568, 1.07024, -0.256744, 0.00125889, -0.00320076, -0.0130312, -0.00686197, -0.0207035, 0.00118055, -0.00148804, -0.131157, 15.7513, 19.3, 16.2891, 1.16015, 3.19583, 0.00373412, 0.000671846, -0.00156743, 0.000353102, 0.000434531, -0.00042057, 0.000453418, 0.00811527, -0.00374938, -0.00305187, 0.00312388, 0.020782, -0.0035436, -0.0111008, -0.44473, 0.635013, -3.13181, -0.0555949, -0.10762, -0.0104628, -0.443137, 0.634717, -3.1314, -0.0553311, -0.106931, 0.00122973, -0.000970953, -0.00273321, -0.0065184, -0.00497707, -0.00635907
0.0390671, 0.107592, -0.774489, -0.916729, -1.45696, -0.625596, 1.07024, -0.256734, 0.000957797, -0.00349356, -0.012777, -0.0106825, -0.0254288, 0.000863725, 0.00170451, -0.131157, 15.791, 19.4111, 16.4001, 1.16565, 3.19583, -0.0685925, 0.000661774, -0.00156274, 0.000360122, 0.000435656, -0.00045387, 0.000483527, 0.00849574, -0.00386831, -0.00396859, 0.00337379, 0.0269841, -0.00641227, -0.0110996, -0.444731, 0.63501, -3.1318, -0.0555986, -0.10763, -0.0104709, -0.443143, 0.634706, -3.13139, -0.0552881, -0.106889, 0.00132119, -0.00104153, -0.00293311, -0.00673919, -0.00517195, -0.00750048
0.0400671, 0.1076, -0.774492, -0.916735, -1.45696, -0.625622, 1.07024, -0.256742, 0.00332589, -0.00265281, -0.0142646, -0.0109355, -0.0241579, 0.000633336, -0.00176645, -0.242241, 15.791, 19.3397, 16.4001, 1.16565, 3.19583, 0.0101428, 0.000658476, -0.00155942, 0.000361753, 0.000425148, -0.000481582, 0.000482268, 0.00747331, -0.00391956, -0.00431808, 0.00182162, 0.0275107, -0.000214837, -0.0110982, -0.444732, 0.635007, -3.1318, -0.0556025, -0.107641, -0.0104726, -0.443147, 0.634701, -3.1314, -0.0552938, -0.106857, 0.00141584, -0.00111438, -0.0031396, -0.00559936, -0.005257, -0.00798572
0.0410671, 0.1076, -0.774488, -0.91675, -1.45698, -0.625651, 1.07025, -0.256739, 0.00228393, -0.00108335, -0.0149453, -0.00879395, -0.0272643, 0.00507516, -0.000184292, -0.242241, 15.7513, 19.3754, 16.4359, 1.15375, 3.19583, -0.0164075, 0.000650873, -0.00155443, 0.000365799, 0.000417416, -0.000521644, 0.000507288, 0.00833769, -0.00520492, -0.00316006, 0.00840085, 0.0281172, -0.00516451, -0.0110967, -0.444733, 0.635004, -3.13179, -0.0556067, -0.107652, -0.0104783, -0.443153, 0.634693, -3.1314, -0.055259, -0.106806, 0.00151366, -0.0011895, -0.00335263, -0.00639672, -0.00665708, -0.00711104
0.0420671, 0.107602, -0.774491, -0.91676, -1.45699, -0.625686, 1.07025, -0.256737, 0.00157263, -0.0026676, -0.016673, -0.00729197, -0.026007, 0.00329132, 0.000596715, -0.242241, 15.8267, 19.3397, 16.4755, 1.17206, 3.20956, -0.0356336, 0.000642188, -0.00155047, 0.00036907, 0.000408459, -0.000561719, 0.000528092, 0.0100271, -0.00509849, -0.00316248, 0.00640035, 0.0258858, -0.00733074, -0.0110952, -0.444734, 0.635, -3.13178, -0.0556111, -0.107664, -0.010485, -0.443159, 0.634686, -3.1314, -0.055231, -0.106756, 0.00161465, -0.00126685, -0.00357216, -0.00798368, -0.00668752, -0.00744864
0.0430671, 0.107606, -0.774487, -0.916771, -1.457, -0.625715, 1.07025, -0.25674, 0.00515126, -0.00107977, -0.0157077, -0.00737317, -0.0287536, 0.00223532, -0.000817269, -0.281914, 15.791, 19.3397, 16.4359, 1.16565, 3.21689, -0.00267457, 0.000636827, -0.0015466, 0.000371424, 0.000398121, -0.000602128, 0.000540325, 0.00837279, -0.00500292, -0.00282241, 0.00760549, 0.0304293, -0.00206036, -0.0110935, -0.444735, 0.634997, -3.13177, -0.0556159, -0.107677, -0.0104884, -0.443164, 0.63468, -3.13141, -0.0552166, -0.106706, 0.00171879, -0.00134642, -0.00379814, -0.00625685, -0.0066163, -0.00722108
0.0440671, 0.107611, -0.774492, -0.91678, -1.45702, -0.625747, 1.07026, -0.25674, 0.00455897, -0.00165751, -0.014109, -0.013682, -0.0260484, 0.00226703, 0.000680075, -0.317619, 15.8267, 19.3, 16.5112, 1.16015, 3.20224, -0.0356336, 0.000631018, -0.00154231, 0.000374801, 0.000386086, -0.000639022, 0.000552974, 0.00653952, -0.00390764, -0.00405307, 0.00441238, 0.0321427, 0.00246128, -0.0110917, -0.444737, 0.634993, -3.13176, -0.0556209, -0.107691, -0.010492, -0.44317, 0.634672, -3.13141, -0.0552018, -0.106663, 0.00182607, -0.00142819, -0.00403052, -0.00427651, -0.00552825, -0.00854831
0.0450671, 0.107616, -0.774496, -0.916788, -1.45704, -0.625781, 1.07026, -0.256742, 0.00418451, -0.00294508, -0.00986873, -0.0150541, -0.0290492, 0.00168707, -0.00100151, -0.357292, 15.9021, 19.2643, 16.5866, 1.16565, 3.20224, 0.00373412, 0.000626266, -0.00153862, 0.000378682, 0.000374895, -0.000681314, 0.000560409, 0.00618822, -0.00316823, -0.00310607, 0.00762675, 0.0344538, 0.00714103, -0.0110899, -0.444738, 0.634989, -3.13175, -0.0556263, -0.107706, -0.0104945, -0.443175, 0.634664, -3.13142, -0.0551954, -0.106612, 0.00193648, -0.00151214, -0.00426926, -0.00390712, -0.00486913, -0.00781359
0.0460671, 0.107615, -0.77449, -0.916803, -1.45704, -0.625811, 1.07026, -0.256737, 0.00202454, -0.000257772, -0.0113919, -0.0132244, -0.030316, 0.0012565, 0.000792758, -0.317619, 15.8267, 19.3, 16.5509, 1.13544, 3.20224, -0.0356336, 0.00061735, -0.00153389, 0.000380259, 0.000361689, -0.00072401, 0.000591754, 0.00758181, -0.00343541, -0.00260277, 0.0086858, 0.0375166, 0.00138027, -0.0110879, -0.44474, 0.634984, -3.13174, -0.0556319, -0.107721, -0.0105011, -0.443182, 0.634657, -3.13142, -0.0551521, -0.106561, 0.00205002, -0.00159825, -0.00451432, -0.0052079, -0.0052757, -0.00765422
0.0470671, 0.10762, -0.774487, -0.916813, -1.45706, -0.62585, 1.07027, -0.256736, 0.00239987, 0.000620151, -0.0108345, -0.0128274, -0.0319525, 0.00605492, 0.000767644, -0.357292, 15.791, 19.2643, 16.5509, 1.12903, 3.18851, -0.0420422, 0.000611395, -0.00152816, 0.00038136, 0.000339739, -0.000770953, 0.000611257, 0.00696005, -0.0043079, -0.00162184, 0.0146776, 0.0372814, 0.00213779, -0.0110858, -0.444741, 0.63498, -3.13173, -0.0556379, -0.107738, -0.0105047, -0.443189, 0.634651, -3.13144, -0.0551272, -0.106505, 0.00216668, -0.00168649, -0.00476563, -0.00450738, -0.00622253, -0.00688977
0.0480671, 0.107618, -0.77449, -0.916823, -1.45707, -0.625883, 1.07028, -0.256738, 0.000763519, -0.000454198, -0.0136241, -0.0119079, -0.0325141, 0.003715, 0.00431737, -0.317619, 15.8267, 19.2246, 16.5112, 1.10431, 3.20956, -0.0228162, 0.000600751, -0.0015243, 0.000381923, 0.000323622, -0.00081003, 0.00063324, 0.00955417, -0.00442789, -0.00206679, 0.0121649, 0.0376923, -0.00496314, -0.0110835, -0.444743, 0.634975, -3.13172, -0.0556442, -0.107755, -0.0105129, -0.443195, 0.634645, -3.13144, -0.055099, -0.106462, 0.00228643, -0.00177687, -0.00502317, -0.00693913, -0.0065203, -0.00777066
0.0490671, 0.107618, -0.774495, -0.916841, -1.45707, -0.625921, 1.07029, -0.256735, -0.000257488, -0.00292556, -0.0161574, -0.00952851, -0.0341722, 0.00282038, 0.00420505, -0.281914, 15.9378, 19.3397, 16.4001, 1.11072, 3.20956, -0.0484509, 0.000585914, -0.00151706, 0.000383581, 0.000304866, -0.000846597, 0.000669164, 0.0125867, -0.00502161, -0.00193059, 0.012234, 0.0358615, -0.00884378, -0.0110812, -0.444745, 0.634969, -3.13171, -0.0556509, -0.107773, -0.0105249, -0.443205, 0.634637, -3.13145, -0.0550493, -0.106424, 0.00240928, -0.00186934, -0.00528689, -0.0098278, -0.00731414, -0.00811121
0.0500671, 0.107621, -0.774489, -0.916848, -1.45709, -0.625961, 1.0703, -0.256742, 0.000715097, -0.000205371, -0.0132138, -0.0123187, -0.0347667, 0.00680741, 0.00091625, -0.317619, 15.8624, 19.2643, 16.4755, 1.0979, 3.20956, 0.0101428, 0.000582088, -0.00151277, 0.000384763, 0.000282305, -0.000903378, 0.000678191, 0.00960097, -0.004936, -0.00124411, 0.0169554, 0.0390787, -0.000207771, -0.0110787, -0.444747, 0.634964, -3.1317, -0.0556578, -0.107792, -0.0105261, -0.443211, 0.63463, -3.13147, -0.0550418, -0.106356, 0.00253522, -0.00196389, -0.00555673, -0.00677517, -0.00722399, -0.00749027
0.0510671, 0.107621, -0.774494, -0.916866, -1.45711, -0.625999, 1.0703, -0.256736, -0.000319834, -0.00191383, -0.0149101, -0.0124793, -0.0351615, 0.00430692, 0.00156909, -0.281914, 15.9378, 19.3397, 16.4755, 1.086, 3.23153, -0.00999879, 0.000568649, -0.00150653, 0.000387553, 0.000266337, -0.000946159, 0.0007133, 0.0115386, -0.00475186, -0.00174404, 0.0142819, 0.0394939, -0.00227619, -0.0110761, -0.444749, 0.634958, -3.13168, -0.0556652, -0.107812, -0.0105364, -0.44322, 0.63462, -3.13147, -0.0549942, -0.10631, 0.00266423, -0.00206051, -0.00583265, -0.00855017, -0.0072005, -0.00839741
0.0520671, 0.107624, -0.774494, -0.916876, -1.45711, -0.626039, 1.07031, -0.256733, 0.000650985, -0.00128614, -0.0110747, -0.00843734, -0.0353957, 0.00303685, 0.00290068, -0.317619, 15.9378, 19.3397, 16.4359, 1.0741, 3.23886, -0.0557752, 0.000559135, -0.00150091, 0.000386226, 0.000239577, -0.000992246, 0.000741028, 0.0108153, -0.00396339, 0.000752564, 0.01857, 0.0385281, -0.000875782, -0.0110734, -0.444751, 0.634952, -3.13167, -0.0556729, -0.107834, -0.0105431, -0.443228, 0.634615, -3.13149, -0.0549581, -0.10626, 0.0027963, -0.00215917, -0.00611461, -0.00789648, -0.0065077, -0.00613414
0.0530671, 0.107627, -0.774494, -0.916888, -1.45713, -0.626078, 1.07032, -0.256734, 0.00356498, -0.00170034, -0.0113434, -0.0104342, -0.0311187, 0.0015723, 0.00106984, -0.317619, 15.9735, 19.3397, 16.4755, 1.06769, 3.25992, -0.0292249, 0.00055092, -0.00149558, 0.000387585, 0.000217388, -0.00104231, 0.000762127, 0.0087548, -0.0031148, 0.000130058, 0.0144682, 0.0373441, 0.00779184, -0.0110705, -0.444753, 0.634946, -3.13166, -0.0556809, -0.107856, -0.0105481, -0.443236, 0.634607, -3.1315, -0.0549328, -0.106205, 0.00293143, -0.00225986, -0.00640257, -0.00569462, -0.00568232, -0.00689593
0.0540671, 0.107622, -0.774496, -0.916906, -1.45714, -0.626118, 1.07033, -0.256734, 5.36116e-05, -0.00197454, -0.0164147, -0.00863771, -0.0334814, 0.0101116, 0.00151485, -0.206535, 16.0092, 19.4111, 16.5112, 1.07959, 3.27456, -0.0484509, 0.000536074, -0.00148936, 0.000389183, 0.000196645, -0.00109134, 0.000797426, 0.0120641, -0.00583328, 0.000383229, 0.0214175, 0.0340053, -0.000989511, -0.0110675, -0.444756, 0.63494, -3.13164, -0.0556894, -0.107879, -0.0105596, -0.443245, 0.634598, -3.13151, -0.0548859, -0.106153, 0.00306961, -0.00236255, -0.00669647, -0.00877592, -0.00862062, -0.00718287
0.0550671, 0.107622, -0.774499, -0.916917, -1.45715, -0.626156, 1.07034, -0.256735, -0.000685721, -0.00224871, -0.0183559, -0.00875239, -0.0381791, 0.011828, -0.000109729, -0.166862, 16.0489, 19.4111, 16.4755, 1.04938, 3.2883, -0.0164075, 0.000525214, -0.00148392, 0.000387239, 0.000167446, -0.0011348, 0.000822744, 0.0139295, -0.00692496, 0.000267899, 0.0242859, 0.0370023, -0.00267185, -0.0110644, -0.444758, 0.634933, -3.13162, -0.0556982, -0.107903, -0.0105672, -0.443253, 0.634592, -3.13153, -0.0548545, -0.10611, 0.00321082, -0.00246723, -0.00699628, -0.0104474, -0.00988108, -0.00773357
0.0560671, 0.107626, -0.774496, -0.916929, -1.45716, -0.626197, 1.07035, -0.256731, 0.000625792, -0.000574365, -0.016756, -0.00657719, -0.0384472, 0.0081807, 0.000926655, -0.206535, 16.0092, 19.4111, 16.4755, 1.05578, 3.31027, -0.0420422, 0.00051641, -0.00147878, 0.000385838, 0.000140892, -0.00118804, 0.000851196, 0.0133373, -0.00600201, 0.00140307, 0.0241455, 0.0396575, -0.00131075, -0.0110611, -0.444761, 0.634926, -3.13161, -0.0557074, -0.107928, -0.0105727, -0.443261, 0.634586, -3.13154, -0.0548188, -0.106054, 0.00335505, -0.00257388, -0.00730195, -0.00982377, -0.00905463, -0.00686038
0.0570671, 0.10762, -0.774493, -0.916946, -1.45717, -0.626234, 1.07036, -0.256728, -0.00299309, 0.00356285, -0.0197699, -0.00401347, -0.0378204, 0.0110089, 0.00163889, -0.0557783, 15.9735, 19.4507, 16.4359, 1.04297, 3.31027, -0.0685925, 0.000502115, -0.00147231, 0.000384566, 0.000112875, -0.00123639, 0.000892671, 0.0148784, -0.00688375, 0.00215901, 0.0269601, 0.0407616, -0.00780571, -0.0110577, -0.444763, 0.634918, -3.13159, -0.055717, -0.107955, -0.0105833, -0.443271, 0.634579, -3.13155, -0.0547632, -0.106006, 0.0035023, -0.00268248, -0.00761342, -0.0112333, -0.0101055, -0.00653002
0.0580671, 0.107624, -0.774491, -0.916963, -1.45719, -0.626274, 1.07038, -0.256733, -0.00107304, 0.00263282, -0.0195561, -0.00708146, -0.0386452, 0.0122868, -0.000574491, -0.0914839, 15.9735, 19.5261, 16.4755, 1.06128, 3.33133, -0.0228162, 0.000492753, -0.00146617, 0.000385014, 8.76484e-05, -0.00129228, 0.000913902, 0.0137573, -0.00693115, 0.00163036, 0.0272852, 0.0422567, -0.00116605, -0.0110541, -0.444766, 0.63491, -3.13157, -0.055727, -0.107982, -0.0105888, -0.44328, 0.63457, -3.13156, -0.0547396, -0.105947, 0.00365255, -0.002793, -0.00793067, -0.00992733, -0.0102193, -0.00729799
0.0590671, 0.107632, -0.774494, -0.91698, -1.4572, -0.626316, 1.07039, -0.256726, 0.00027802, 0.000185168, -0.0185004, -0.00934172, -0.0431096, 0.00961813, 0.00204575, -0.131157, 16.0489, 19.5618, 16.5112, 1.06128, 3.324, -0.0878186, 0.000483437, -0.00145912, 0.000385185, 5.90449e-05, -0.00134333, 0.00094497, 0.0143804, -0.00658058, 0.00120868, 0.0267511, 0.0464251, -0.00142583, -0.0110504, -0.444769, 0.634902, -3.13155, -0.0557374, -0.108011, -0.0105941, -0.44329, 0.634561, -3.13158, -0.054701, -0.105897, 0.0038058, -0.00290544, -0.00825364, -0.0103788, -0.00999974, -0.00808275
0.0600671, 0.107628, -0.774491, -0.916998, -1.45721, -0.626352, 1.0704, -0.25673, -0.00152887, 0.000268339, -0.0175495, -0.0101842, -0.0370786, 0.00673627, -7.82878e-05, -0.0557783, 16.0489, 19.5975, 16.5112, 1.06128, 3.33865, -0.0484509, 0.000470257, -0.00145317, 0.000383583, 3.1076e-05, -0.00139485, 0.000976424, 0.0139253, -0.00495943, 0.00136383, 0.0225191, 0.0443401, 0.00414839, -0.0110465, -0.444772, 0.634894, -3.13154, -0.0557483, -0.10804, -0.0106033, -0.443299, 0.634553, -3.13159, -0.0546622, -0.105848, 0.00396204, -0.00301977, -0.00858229, -0.00983748, -0.00847943, -0.00821512
0.0610671, 0.107631, -0.77449, -0.917013, -1.45723, -0.626391, 1.07042, -0.256733, -0.000982487, 0.000287563, -0.0160413, -0.0109306, -0.0377369, 0.00459835, -0.000989674, -0.0557783, 16.0489, 19.5975, 16.5112, 1.0741, 3.3533, -0.0228162, 0.000459559, -0.0014473, 0.000381722, 1.10221e-06, -0.00144808, 0.00100232, 0.0135254, -0.0041975, 0.00170597, 0.02215, 0.0468205, 0.00804629, -0.0110424, -0.444775, 0.634885, -3.13152, -0.0557596, -0.108071, -0.0106099, -0.443309, 0.634545, -3.1316, -0.0546324, -0.105797, 0.00412125, -0.00313597, -0.00891658, -0.00933042, -0.00782327, -0.00817592
0.0620671, 0.107629, -0.77449, -0.917029, -1.45724, -0.626431, 1.07043, -0.256722, -0.00155544, -0.000562006, -0.0182158, -0.0112293, -0.0382959, 0.00304447, 0.00202795, -0.0161054, 16.0846, 19.5975, 16.5112, 1.09241, 3.36703, -0.0951428, 0.000446227, -0.00144151, 0.000379601, -2.99907e-05, -0.00150215, 0.0010475, 0.0150829, -0.00425784, 0.0011952, 0.0201361, 0.0479425, 0.00393527, -0.0110382, -0.444778, 0.634876, -3.13149, -0.0557713, -0.108103, -0.0106189, -0.443318, 0.634538, -3.13162, -0.054573, -0.105746, 0.00428343, -0.00325403, -0.00925645, -0.0106837, -0.00805216, -0.00913368
0.0630671, 0.107633, -0.774492, -0.917051, -1.45726, -0.626469, 1.07044, -0.256728, -0.0018515, -0.00207678, -0.0184918, -0.0133533, -0.0422819, 0.00733519, -0.00108272, 0.0196001, 16.16, 19.6729, 16.5866, 1.086, 3.36062, -0.0292249, 0.000434906, -0.00143486, 0.000380377, -5.54939e-05, -0.00155543, 0.00106938, 0.0157845, -0.00531144, 0.00115514, 0.0248343, 0.0491644, 0.00699432, -0.0110339, -0.444781, 0.634867, -3.13147, -0.0557834, -0.108137, -0.0106255, -0.443329, 0.634527, -3.13162, -0.0545505, -0.105698, 0.00444857, -0.00337392, -0.00960188, -0.0111775, -0.00924949, -0.00957483
0.0640671, 0.107638, -0.774488, -0.917064, -1.45726, -0.626507, 1.07046, -0.256723, -0.000383605, -0.000410656, -0.0158258, -0.0112927, -0.0410687, 0.0143192, 0.000741293, -0.0161054, 16.1203, 19.6372, 16.5112, 1.07959, 3.36703, -0.0685925, 0.00042574, -0.00142955, 0.000375288, -9.19176e-05, -0.0016092, 0.00110144, 0.0133608, -0.00592674, 0.00353403, 0.0339233, 0.0454202, 0.00947665, -0.0110293, -0.444785, 0.634857, -3.13145, -0.055796, -0.108171, -0.0106303, -0.443338, 0.634521, -3.13164, -0.0545122, -0.10565, 0.00461665, -0.00349563, -0.0099528, -0.00873467, -0.00992206, -0.00738958
0.0650671, 0.107635, -0.774491, -0.917087, -1.45728, -0.626544, 1.07047, -0.25672, -0.00200734, -0.00116741, -0.0166101, -0.0124801, -0.044517, 0.0105245, 0.00148132, 0.059273, 16.16, 19.7086, 16.5509, 1.06769, 3.37436, -0.0951428, 0.000410356, -0.00142254, 0.000374774, -0.000120788, -0.00166115, 0.00114226, 0.0155337, -0.00554964, 0.00300453, 0.0317636, 0.0504847, 0.00678366, -0.0110246, -0.444788, 0.634847, -3.13143, -0.055809, -0.108207, -0.0106407, -0.443349, 0.634511, -3.13165, -0.0544611, -0.105606, 0.00478767, -0.00361914, -0.0103092, -0.010707, -0.00974087, -0.00842241
0.0660671, 0.10764, -0.774486, -0.917108, -1.45729, -0.626578, 1.07049, -0.256728, 0.000983617, 0.000175537, -0.0186265, -0.00837997, -0.0426331, 0.0123262, -0.00168838, 0.0949785, 16.1203, 19.7086, 16.5112, 1.06128, 3.38168, -0.0228162, 0.00040096, -0.00141597, 0.000372107, -0.000153511, -0.00171672, 0.00116383, 0.0148891, -0.00622197, 0.00417004, 0.0340775, 0.0474339, 0.0115257, -0.0110198, -0.444792, 0.634836, -3.1314, -0.0558225, -0.108244, -0.0106452, -0.443359, 0.634502, -3.13166, -0.0544401, -0.105558, 0.00496161, -0.00374443, -0.010671, -0.0099466, -0.010526, -0.00758187
0.0670671, 0.107649, -0.774486, -0.917131, -1.4573, -0.626615, 1.07051, -0.256722, 0.00175987, -0.000791654, -0.0147733, -0.00773357, -0.04031, 0.0130732, 0.00104668, 0.059273, 16.16, 19.7483, 16.4359, 1.03107, 3.40365, -0.0814099, 0.00038952, -0.00140925, 0.000369006, -0.000184909, -0.00177003, 0.00120038, 0.0133468, -0.00529318, 0.00584711, 0.0371546, 0.0442495, 0.0146287, -0.0110147, -0.444796, 0.634825, -3.13138, -0.0558365, -0.108282, -0.0106515, -0.44337, 0.634494, -3.13167, -0.0543965, -0.105514, 0.00513848, -0.00387148, -0.0110382, -0.00838096, -0.00968582, -0.00616369
0.0680671, 0.10765, -0.774485, -0.91715, -1.45731, -0.626647, 1.07052, -0.256728, 0.00273673, 0.000998043, -0.014013, -0.00831077, -0.0396405, 0.0135493, -0.00147076, 0.134651, 16.2314, 19.7483, 16.4001, 1.02466, 3.43204, -0.0228162, 0.00037719, -0.00140468, 0.000365891, -0.000213393, -0.00182392, 0.00122502, 0.0119739, -0.00496884, 0.00634913, 0.0382363, 0.0461527, 0.0206815, -0.0110095, -0.4448, 0.634814, -3.13135, -0.055851, -0.108322, -0.0106586, -0.443379, 0.634485, -3.13168, -0.0543719, -0.105471, 0.00531825, -0.00400028, -0.0114107, -0.00687883, -0.00944678, -0.0059387
0.0690671, 0.107659, -0.774479, -0.917174, -1.45733, -0.626683, 1.07053, -0.256727, 0.00223617, 0.0017766, -0.0144135, -0.0134906, -0.0343532, 0.0140109, -0.00050459, 0.134651, 16.1957, 19.784, 16.4359, 1.01825, 3.45309, -0.0356336, 0.00036917, -0.00139854, 0.000365044, -0.000241498, -0.00188972, 0.00125297, 0.0100772, -0.00403457, 0.00512669, 0.0339819, 0.0466023, 0.0254936, -0.0110041, -0.444804, 0.634803, -3.13133, -0.0558659, -0.108363, -0.0106611, -0.44339, 0.634473, -3.13169, -0.0543427, -0.105411, 0.00550092, -0.0041308, -0.0117885, -0.00475449, -0.00856571, -0.00739887
0.0700671, 0.107659, -0.774479, -0.917174, -1.45733, -0.626683, 1.07053, -0.256727, 0.00223617, 0.0017766, -0.0144135, -0.0134906, -0.0343532, 0.0140109, -0.00050459, 0.134651, 16.1957, 19.784, 16.4359, 1.01825, 3.45309, -0.0356336, 0.000364574, -0.001403, 0.000352792, -0.000267035, -0.00191772, 0.00126236, 0.0102309, -0.00389299, 0.00552077, 0.0347371, 0.0471344, 0.0268984, -0.0109985, -0.444808, 0.634791, -3.1313, -0.0558813, -0.108405, -0.0106611, -0.44339, 0.634473, -3.13169, -0.0543427, -0.105411, 0.00568647, -0.00426302, -0.0121715, -0.00475449, -0.00856571, -0.00739887
0.0710671, 0.107667, -0.774478, -0.917215, -1.45736, -0.62675, 1.07056, -0.256728, 0.0014642, 0.00215176, -0.0153809, -0.0143278, -0.0328629, 0.0192049, -0.00094637, 0.245735, 16.3068, 19.784, 16.3248, 1.03107, 3.47507, -0.0292249, 0.000345718, -0.00138745, 0.000356621, -0.000309911, -0.00199955, 0.00131435, 0.00990873, -0.00462937, 0.00588285, 0.038317, 0.0448861, 0.0284082, -0.0109927, -0.444812, 0.634778, -3.13127, -0.0558972, -0.108449, -0.0106733, -0.44341, 0.634456, -3.13171, -0.0542767, -0.105329, 0.00587491, -0.00439694, -0.0125597, -0.00424352, -0.00942769, -0.00740891
0.0720671, 0.107674, -0.774475, -0.917243, -1.45737, -0.626782, 1.07058, -0.25672, 0.00357366, 0.00329625, -0.0163738, -0.0123475, -0.0342492, 0.0192673, 0.001811, 0.285408, 16.3782, 19.8594, 16.2494, 1.03107, 3.47507, -0.0951428, 0.000333249, -0.00138103, 0.000353387, -0.000340476, -0.00205798, 0.00135615, 0.00978395, -0.00499911, 0.00659348, 0.0401655, 0.046363, 0.0267592, -0.0109867, -0.444817, 0.634765, -3.13124, -0.0559137, -0.108494, -0.0106797, -0.443422, 0.634445, -3.13171, -0.0542273, -0.105284, 0.00606621, -0.00453252, -0.0129531, -0.00396368, -0.00993515, -0.00708767
0.0730671, 0.10768, -0.774476, -0.917265, -1.45738, -0.626814, 1.0706, -0.256723, 0.00429436, 0.000143829, -0.0183879, -0.0160056, -0.0308853, 0.0235474, 0.000461725, 0.360787, 16.4893, 19.8594, 16.2494, 1.04297, 3.48239, -0.0750012, 0.000322521, -0.00137578, 0.00034987, -0.000373114, -0.00211466, 0.00138166, 0.00936006, -0.00549678, 0.00554992, 0.0395334, 0.0415461, 0.032259, -0.0109806, -0.444821, 0.634752, -3.13121, -0.0559306, -0.108541, -0.0106843, -0.443432, 0.634435, -3.13172, -0.0542037, -0.105243, 0.00626038, -0.00466976, -0.0133516, -0.00325705, -0.0105454, -0.0085016
0.0740671, 0.107687, -0.774472, -0.917287, -1.45739, -0.626841, 1.07061, -0.256726, 0.00574731, -0.00125876, -0.0200051, -0.0127593, -0.0322129, 0.0219694, -0.00186204, 0.400459, 16.5646, 19.8594, 16.1383, 1.03107, 3.48971, -0.0164075, 0.000312234, -0.00137105, 0.000343668, -0.000407608, -0.00216991, 0.00140767, 0.0109306, -0.00579582, 0.00626104, 0.0401151, 0.0404798, 0.0339784, -0.0109742, -0.444826, 0.634739, -3.13118, -0.055948, -0.108588, -0.0106885, -0.443442, 0.634427, -3.13172, -0.0541798, -0.105207, 0.00645739, -0.00480863, -0.0137552, -0.00466431, -0.0110455, -0.00830727
0.0750671, 0.107692, -0.774472, -0.917307, -1.45741, -0.626872, 1.07063, -0.256718, 0.00514106, -0.00303839, -0.0204383, -0.0140212, -0.0292765, 0.0209206, 0.00116635, 0.511544, 16.6718, 19.8237, 16.178, 1.04297, 3.49612, -0.0814099, 0.000301556, -0.00136674, 0.000338737, -0.000443108, -0.00222826, 0.00144376, 0.0113182, -0.00514753, 0.00603229, 0.0376438, 0.0384121, 0.0335727, -0.0109676, -0.444831, 0.634725, -3.13115, -0.055966, -0.108638, -0.0106928, -0.443451, 0.634417, -3.13173, -0.0541406, -0.105167, 0.00665724, -0.00494912, -0.0141638, -0.00485847, -0.0105501, -0.00896709
0.0760671, 0.107709, -0.774466, -0.917344, -1.45742, -0.626896, 1.07064, -0.256724, 0.00913959, 0.0013246, -0.027959, -0.015953, -0.0312178, 0.0157624, -0.00162977, 0.436165, 16.6718, 19.9705, 16.1383, 1.03107, 3.49612, -0.0164075, 0.000293903, -0.00135991, 0.000337895, -0.000465134, -0.0022903, 0.00146264, 0.0113418, -0.00562307, 0.00331626, 0.0289559, 0.0490386, 0.036201, -0.0109609, -0.444836, 0.63471, -3.13111, -0.0559845, -0.108688, -0.0106934, -0.443463, 0.634403, -3.13172, -0.0541293, -0.105121, 0.00685993, -0.0050912, -0.0145774, -0.00447438, -0.0111432, -0.0120955
0.0770671, 0.107717, -0.774467, -0.917365, -1.45744, -0.626923, 1.07066, -0.256728, 0.0060499, 0.00181169, -0.0252245, -0.0153485, -0.027884, 0.0158104, -0.00108639, 0.475838, 16.7828, 19.8951, 16.1383, 1.02466, 3.51077, -0.0164075, 0.000283672, -0.0013566, 0.00033213, -0.0004979, -0.00234772, 0.00148462, 0.0113159, -0.0045128, 0.00482472, 0.0306977, 0.0470153, 0.037478, -0.0109539, -0.444841, 0.634696, -3.13108, -0.0560035, -0.108741, -0.010697, -0.443472, 0.634393, -3.13173, -0.0541133, -0.105086, 0.00706543, -0.00523486, -0.0149959, -0.00438743, -0.0101908, -0.0110004
0.0780671, 0.107729, -0.774458, -0.917398, -1.45745, -0.626951, 1.07067, -0.25672, 0.00469691, 0.00598356, -0.0268839, -0.0131268, -0.0209451, 0.0124775, 0.00120861, 0.475838, 16.7471, 19.9705, 16.0629, 1.02466, 3.49612, -0.0685925, 0.000273385, -0.00135017, 0.000327688, -0.000529529, -0.00241379, 0.00152613, 0.0108078, -0.00328943, 0.00536633, 0.0261445, 0.046804, 0.0362957, -0.0109468, -0.444846, 0.63468, -3.13105, -0.0560231, -0.108794, -0.0107001, -0.443484, 0.634382, -3.13173, -0.0540675, -0.105038, 0.00727374, -0.00538009, -0.0154193, -0.00375422, -0.00910081, -0.0108403
0.0790671, 0.107739, -0.774457, -0.917426, -1.45746, -0.626975, 1.07069, -0.256725, 0.00593604, 0.00294231, -0.0284057, -0.0141729, -0.0198284, 0.0141172, -0.00136433, 0.511544, 16.8225, 19.9347, 16.1026, 1.00635, 3.48971, -0.00999879, 0.000264237, -0.00134547, 0.000323966, -0.00055977, -0.00247334, 0.00154563, 0.0112402, -0.00363136, 0.00504761, 0.0260287, 0.0434536, 0.0415975, -0.0109394, -0.444852, 0.634665, -3.13101, -0.0560432, -0.10885, -0.010702, -0.443495, 0.634369, -3.13173, -0.0540565, -0.105001, 0.00748486, -0.00552686, -0.0158476, -0.0039399, -0.00960192, -0.0116195
0.0800671, 0.107754, -0.774445, -0.917457, -1.45748, -0.626995, 1.07071, -0.25672, 0.00857742, 0.00744283, -0.0307165, -0.0147146, -0.0194655, 0.0196017, 0.00173535, 0.475838, 16.7471, 19.9347, 16.1383, 0.999938, 3.49612, -0.0814099, 0.000259484, -0.00134131, 0.000320845, -0.00058485, -0.00254425, 0.00157236, 0.00886245, -0.00481182, 0.00523851, 0.0298084, 0.0459819, 0.0414136, -0.0109318, -0.444858, 0.634649, -3.13097, -0.0560639, -0.108906, -0.0106992, -0.443505, 0.634356, -3.13172, -0.0540351, -0.104949, 0.00769877, -0.00567515, -0.0162807, -0.00132626, -0.0108477, -0.0117055
0.0810671, 0.107754, -0.774445, -0.917457, -1.45748, -0.626995, 1.07071, -0.25672, 0.00857742, 0.00744283, -0.0307165, -0.0147146, -0.0194655, 0.0196017, 0.00173535, 0.475838, 16.7471, 19.9347, 16.1383, 0.999938, 3.49612, -0.0814099, 0.000253059, -0.00134744, 0.000303956, -0.000619865, -0.00258281, 0.0015853, 0.00904253, -0.00465094, 0.00568942, 0.0306648, 0.0465901, 0.0430191, -0.010924, -0.444863, 0.634632, -3.13094, -0.0560851, -0.108965, -0.0106992, -0.443505, 0.634356, -3.13172, -0.0540351, -0.104949, 0.00791545, -0.00582496, -0.0167186, -0.00132626, -0.0108477, -0.0117055
0.0820671, 0.107788, -0.77444, -0.917526, -1.45751, -0.627042, 1.07074, -0.256727, 0.0111905, 0.00806668, -0.0317522, -0.0162113, -0.0235247, 0.0198648, -0.0021448, 0.436165, 16.8582, 19.9347, 16.0629, 1.02466, 3.47507, 0.00373412, 0.000240235, -0.00132935, 0.000311064, -0.00064766, -0.00266331, 0.00162108, 0.00867211, -0.00516187, 0.00536214, 0.0319117, 0.0518133, 0.0491654, -0.010916, -0.444869, 0.634615, -3.1309, -0.0561069, -0.109025, -0.0107028, -0.443529, 0.634331, -3.13172, -0.0540007, -0.104884, 0.00813491, -0.00597625, -0.0171612, -0.000696492, -0.0114936, -0.0124529
0.0830671, 0.107801, -0.774429, -0.91756, -1.45752, -0.627059, 1.07076, -0.256719, 0.0136606, 0.011098, -0.0322518, -0.0136933, -0.0263735, 0.0194205, 0.00124892, 0.475838, 16.7828, 19.8951, 15.9915, 1.00635, 3.47507, -0.0685925, 0.000232396, -0.00132446, 0.000304694, -0.000679578, -0.00272845, 0.00165899, 0.00813418, -0.0054933, 0.00644855, 0.0348037, 0.0562404, 0.0468309, -0.0109077, -0.444875, 0.634598, -3.13086, -0.0561293, -0.109086, -0.0107027, -0.44354, 0.63432, -3.13171, -0.0539634, -0.104845, 0.00835714, -0.00612902, -0.0176085, -1.55998e-06, -0.0119692, -0.0117818
0.0840671, 0.107824, -0.774427, -0.917593, -1.45753, -0.627081, 1.07078, -0.256726, 0.0143412, 0.00735896, -0.031923, -0.0126113, -0.0299415, 0.019217, -0.00160878, 0.436165, 16.8225, 19.8237, 15.9518, 1.02466, 3.47507, -0.00267457, 0.000224718, -0.00131942, 0.000297764, -0.000712554, -0.00278739, 0.00167353, 0.0099967, -0.00580103, 0.00716243, 0.0375845, 0.055233, 0.0500164, -0.0108992, -0.444881, 0.63458, -3.13082, -0.0561522, -0.109149, -0.0107022, -0.443552, 0.634308, -3.13171, -0.0539628, -0.104818, 0.00858211, -0.00628324, -0.0180604, -0.00167201, -0.0125043, -0.0116544
0.0850671, 0.107846, -0.774424, -0.917634, -1.45754, -0.627101, 1.07079, -0.256724, 0.0146866, 0.00868518, -0.0343412, -0.0120028, -0.0275474, 0.0192343, -0.000563881, 0.400459, 16.8225, 19.8594, 15.9161, 1.03656, 3.46774, -0.0164075, 0.000215713, -0.00131283, 0.000293203, -0.000742208, -0.00284974, 0.00170208, 0.0100648, -0.00584812, 0.00716924, 0.036281, 0.055084, 0.0499817, -0.0108905, -0.444888, 0.634562, -3.13078, -0.0561758, -0.109214, -0.0107025, -0.443565, 0.634294, -3.1317, -0.0539412, -0.104786, 0.00880983, -0.00643891, -0.018517, -0.00151115, -0.0127099, -0.0121099
0.0860671, 0.107868, -0.774418, -0.917671, -1.45756, -0.627122, 1.07081, -0.25672, 0.0180792, 0.00654921, -0.0365049, -0.0130775, -0.0258198, 0.0187852, 0.00108215, 0.360787, 16.8225, 19.784, 15.9518, 1.04938, 3.47507, -0.0557752, 0.000209374, -0.0013076, 0.000288983, -0.00077134, -0.00291914, 0.00172811, 0.00958968, -0.00588902, 0.00647673, 0.033643, 0.0533334, 0.0531476, -0.0108816, -0.444894, 0.634543, -3.13073, -0.0561999, -0.10928, -0.0107, -0.443577, 0.634279, -3.13169, -0.0539242, -0.104746, 0.00904028, -0.00659599, -0.0189781, -0.000757528, -0.0128847, -0.0132296
0.0870671, 0.107884, -0.774412, -0.917711, -1.45756, -0.627138, 1.07083, -0.256724, 0.0179299, 0.00586348, -0.0393492, -0.0113204, -0.0239809, 0.0196083, -0.000736622, 0.436165, 16.7828, 19.7483, 15.8765, 1.04938, 3.44668, -0.0164075, 0.000199228, -0.00130148, 0.00028136, -0.000807486, -0.00297902, 0.00175612, 0.0108916, -0.00632736, 0.00673407, 0.0335467, 0.0504749, 0.0543404, -0.0108725, -0.444901, 0.634524, -3.13069, -0.0562246, -0.109348, -0.0107013, -0.443591, 0.634266, -3.13169, -0.0539043, -0.104722, 0.00927346, -0.00675447, -0.0194438, -0.00182444, -0.0135305, -0.0135334
0.0880671, 0.107908, -0.774411, -0.917755, -1.45758, -0.627157, 1.07085, -0.256722, 0.0206005, 0.00340796, -0.0422941, -0.0149913, -0.0230616, 0.0194887, 0.00120435, 0.400459, 16.8225, 19.7483, 15.8765, 1.06128, 3.43936, -0.0621838, 0.000189457, -0.00129465, 0.000276605, -0.000837723, -0.00304102, 0.00178484, 0.0106735, -0.00649519, 0.0050759, 0.0296375, 0.050586, 0.0568774, -0.0108631, -0.444908, 0.634504, -3.13064, -0.0562499, -0.109417, -0.0107018, -0.443605, 0.634251, -3.13168, -0.0538842, -0.104696, 0.00950935, -0.00691434, -0.0199139, -0.00124971, -0.0138345, -0.0156443
0.0890671, 0.107931, -0.774408, -0.917801, -1.45759, -0.627177, 1.07088, -0.256725, 0.0216385, 0.00569906, -0.044489, -0.0128524, -0.0224736, 0.0153479, -0.000892521, 0.400459, 16.8225, 19.7483, 15.8011, 1.0741, 3.41739, -0.0164075, 0.000177252, -0.00128684, 0.000270166, -0.000872295, -0.00310312, 0.00181669, 0.0111928, -0.00603497, 0.00528251, 0.026591, 0.0538872, 0.059251, -0.0108534, -0.444915, 0.634484, -3.1306, -0.0562758, -0.109488, -0.0107045, -0.44362, 0.634236, -3.13167, -0.0538597, -0.104672, 0.00974794, -0.00707558, -0.0203885, -0.00155992, -0.0135567, -0.0159466
0.0900671, 0.107955, -0.774402, -0.917841, -1.4576, -0.627191, 1.07089, -0.256722, 0.0224859, 0.00832723, -0.0442515, -0.0172407, -0.0256706, 0.0162515, 0.000117066, 0.400459, 16.7828, 19.6729, 15.8408, 1.05578, 3.41006, -0.0356336, 0.000171152, -0.00128256, 0.000264254, -0.000900655, -0.00317155, 0.00184039, 0.00976487, -0.00603528, 0.00465692, 0.0275558, 0.0619948, 0.0617434, -0.0108436, -0.444922, 0.634463, -3.13055, -0.0563023, -0.109561, -0.010701, -0.443632, 0.634221, -3.13166, -0.0538487, -0.104639, 0.00998923, -0.00723817, -0.0208674, 0.00014839, -0.013663, -0.0169504
0.0910671, 0.107975, -0.774399, -0.917893, -1.45761, -0.627209, 1.07092, -0.256722, 0.0213691, 0.00525618, -0.0466975, -0.0161487, -0.0240087, 0.0169456, 0.000315405, 0.475838, 16.8225, 19.7086, 15.8408, 1.05578, 3.40365, -0.0420422, 0.000157076, -0.00127394, 0.000258878, -0.000934443, -0.0032339, 0.00188054, 0.0120104, -0.00637246, 0.00477308, 0.0272394, 0.0573885, 0.060583, -0.0108335, -0.444929, 0.634442, -3.1305, -0.0563295, -0.109636, -0.010705, -0.443648, 0.634204, -3.13165, -0.0538125, -0.104618, 0.0102332, -0.00740209, -0.0213508, -0.00184217, -0.0142454, -0.0174785
0.0920671, 0.108003, -0.774392, -0.917941, -1.45763, -0.627222, 1.07094, -0.256725, 0.0255599, 0.00490667, -0.0468526, -0.0172461, -0.0227988, 0.0168928, -0.000976523, 0.475838, 16.7828, 19.6729, 15.9161, 1.05578, 3.41006, -0.00999879, 0.000150627, -0.00126806, 0.000254523, -0.000960883, -0.00330398, 0.00189997, 0.0100611, -0.00612789, 0.00474857, 0.0265766, 0.0575802, 0.0688694, -0.0108231, -0.444937, 0.634421, -3.13045, -0.0563573, -0.109712, -0.0107011, -0.443662, 0.634187, -3.13163, -0.0538095, -0.104586, 0.0104799, -0.00756732, -0.0218384, 0.000340523, -0.0140969, -0.017853
0.0930671, 0.108031, -0.774389, -0.917989, -1.45764, -0.627238, 1.07096, -0.256723, 0.0255549, 0.00362701, -0.0502423, -0.0141515, -0.0215175, 0.0212713, -0.0092994, 0.475838, 16.7828, 19.6372, 15.8408, 1.04938, 3.42471, -0.0292249, 0.000140412, -0.00126091, 0.000246725, -0.000996084, -0.00336764, 0.00193209, 0.011679, -0.00747195, 0.00557298, 0.0301756, 0.0519576, 0.0754438, -0.0108125, -0.444944, 0.634399, -3.1304, -0.0563857, -0.10979, -0.010701, -0.443677, 0.634172, -3.13162, -0.0537871, -0.104566, 0.0107292, -0.00773386, -0.0223304, -0.00103196, -0.015673, -0.017647
0.0940671, 0.108059, -0.774385, -0.918038, -1.45765, -0.627253, 1.07098, -0.256724, 0.0246341, 0.00435537, -0.0525966, -0.0138682, -0.0210639, 0.0198646, -0.007217, 0.511544, 16.7114, 19.5975, 15.8408, 1.04938, 3.44668, -0.0228162, 0.000131515, -0.00125448, 0.000240059, -0.00102878, -0.00343603, 0.0019584, 0.0129529, -0.00741432, 0.00543323, 0.028476, 0.0536555, 0.0725372, -0.0108016, -0.444952, 0.634376, -3.13035, -0.0564147, -0.10987, -0.0106993, -0.443692, 0.634155, -3.1316, -0.0537744, -0.104541, 0.0109812, -0.00790168, -0.0228265, -0.00204235, -0.0158277, -0.0183726
0.0950671, 0.108089, -0.774381, -0.918086, -1.45766, -0.627268, 1.071, -0.256724, 0.0280122, 0.00620088, -0.0482613, -0.0154026, -0.0255082, 0.0189466, -0.00563372, 0.511544, 16.7114, 19.5618, 15.9161, 1.05578, 3.46042, -0.0164075, 0.000123558, -0.00124811, 0.000233863, -0.00106154, -0.00350714, 0.00198258, 0.0103651, -0.00668821, 0.00659955, 0.0324718, 0.0608482, 0.0781134, -0.0107905, -0.44496, 0.634353, -3.1303, -0.0564444, -0.109952, -0.0106963, -0.443706, 0.634138, -3.13159, -0.0537656, -0.104513, 0.0112358, -0.00807076, -0.0233269, 0.000684052, -0.0151911, -0.0175232
0.0960671, 0.108114, -0.774375, -0.918139, -1.45768, -0.627285, 1.07103, -0.256721, 0.0287458, 0.00547018, -0.0519362, -0.0114368, -0.0197981, 0.0184975, -0.00300779, 0.586922, 16.6718, 19.5618, 15.9161, 1.0741, 3.47507, -0.0484509, 0.000112395, -0.00124092, 0.000227761, -0.00109421, -0.00358156, 0.00202002, 0.011413, -0.00676174, 0.00719229, 0.030272, 0.0543105, 0.0759683, -0.0107792, -0.444968, 0.634329, -3.13025, -0.0564747, -0.110035, -0.0106963, -0.443722, 0.63412, -3.13157, -0.053737, -0.104482, 0.011493, -0.00824109, -0.0238314, -0.000142352, -0.0154789, -0.0175117
0.0970671, 0.108149, -0.774371, -0.918189, -1.45769, -0.627303, 1.07105, -0.256724, 0.0320282, 0.00395296, -0.0476971, -0.0116687, -0.0147846, 0.0224879, -0.00352107, 0.551216, 16.6718, 19.5261, 15.9161, 1.0741, 3.48971, -0.0164075, 0.000104223, -0.00123409, 0.000219451, -0.00113178, -0.00365298, 0.00204151, 0.0078185, -0.00601754, 0.00903881, 0.0347575, 0.0476775, 0.0873786, -0.0107676, -0.444977, 0.634305, -3.13019, -0.0565057, -0.11012, -0.0106931, -0.443738, 0.634103, -3.13156, -0.0537336, -0.104457, 0.0117529, -0.00841265, -0.0243401, 0.00354414, -0.0147977, -0.0159207
0.0980671, 0.108175, -0.774366, -0.918242, -1.4577, -0.627315, 1.07107, -0.256727, 0.0317604, 0.00370016, -0.0505094, -0.0095356, -0.0112492, 0.02156, -0.00334017, 0.626595, 16.636, 19.4864, 15.9518, 1.07959, 3.48971, 0.00373412, 9.39439e-05, -0.00122749, 0.000212272, -0.00116613, -0.00372611, 0.00207083, 0.00898705, -0.00593182, 0.00933392, 0.0327539, 0.0446653, 0.0872644, -0.0107557, -0.444985, 0.634281, -3.13014, -0.0565373, -0.110207, -0.0106918, -0.443753, 0.634085, -3.13154, -0.0537188, -0.104432, 0.0120154, -0.00858543, -0.0248528, 0.0026176, -0.0149303, -0.0162215
0.0990671, 0.108207, -0.774358, -0.918293, -1.45771, -0.627333, 1.0711, -0.256721, 0.0294105, 0.00664718, -0.0487686, -0.00849954, -0.0132351, 0.0209162, -0.000479108, 0.6623, 16.6003, 19.4111, 15.8765, 1.086, 3.48971, -0.0484509, 8.3796e-05, -0.0012201, 0.000201328, -0.00120968, -0.00379987, 0.00210986, 0.00946324, -0.00545198, 0.0108051, 0.0361612, 0.0493814, 0.0837878, -0.0107435, -0.444994, 0.634256, -3.13008, -0.0565696, -0.110296, -0.0106903, -0.44377, 0.63407, -3.13154, -0.0536892, -0.104407, 0.0122806, -0.0087594, -0.0253696, 0.00228693, -0.0146576, -0.0153016
0.100067, 0.108244, -0.774354, -0.91835, -1.45773, -0.627346, 1.07112, -0.256726, 0.0323079, 0.00398981, -0.0555053, -0.0146664, -0.00919812, 0.0248421, -0.00215366, 0.626595, 16.636, 19.4111, 15.9518, 1.06769, 3.48971, -0.00267457, 7.66234e-05, -0.00121292, 0.000196208, -0.00123993, -0.00387674, 0.00212758, 0.00889848, -0.00657144, 0.00769657, 0.0305696, 0.0467653, 0.0902466, -0.0107311, -0.445003, 0.63423, -3.13002, -0.0566025, -0.110386, -0.0106851, -0.443786, 0.634049, -3.13151, -0.053694, -0.104379, 0.0125483, -0.00893455, -0.0258904, 0.00337637, -0.0158998, -0.0188928
0.101067, 0.108272, -0.774345, -0.918403, -1.45774, -0.627362, 1.07114, -0.256727, 0.0288074, 0.0046255, -0.0535349, -0.0132437, -0.011898, 0.0272962, -0.00201461, 0.701973, 16.5646, 19.3754, 15.9161, 1.0741, 3.50345, 0.0101428, 6.49135e-05, -0.00120713, 0.000185851, -0.00127816, -0.00395727, 0.00216231, 0.0104073, -0.00673293, 0.00958239, 0.037253, 0.0479003, 0.0880188, -0.0107184, -0.445012, 0.634204, -3.12996, -0.0566361, -0.110479, -0.0106847, -0.443801, 0.634032, -3.1315, -0.0536727, -0.104348, 0.0128186, -0.00911087, -0.0264151, 0.00201565, -0.0163118, -0.0176453
0.102067, 0.108306, -0.774345, -0.91846, -1.45775, -0.627377, 1.07116, -0.256719, 0.0312119, 0.00163462, -0.0559664, -0.0137718, -0.00935995, 0.0251872, 0.0012576, 0.701973, 16.636, 19.3754, 15.9518, 1.086, 3.50345, -0.0621838, 5.40142e-05, -0.00119948, 0.000177869, -0.00131652, -0.00403151, 0.00220016, 0.0108811, -0.00643472, 0.00890211, 0.0330789, 0.0452628, 0.0887205, -0.0107055, -0.445021, 0.634177, -3.1299, -0.0566704, -0.110573, -0.0106829, -0.443818, 0.634013, -3.13148, -0.0536472, -0.104328, 0.0130915, -0.00928833, -0.0269437, 0.00185281, -0.0162019, -0.0188847
0.103067, 0.108338, -0.774334, -0.918515, -1.45776, -0.627389, 1.07119, -0.256728, 0.0321252, 0.00209101, -0.057866, -0.0117265, -0.0119622, 0.0183917, -0.00213629, 0.737679, 16.6003, 19.3754, 15.8765, 1.09241, 3.5181, 0.0165515, 4.49804e-05, -0.00119328, 0.000167078, -0.00135658, -0.00411215, 0.00222327, 0.0128371, -0.00580931, 0.00893084, 0.0292622, 0.0506192, 0.0912187, -0.0106922, -0.44503, 0.63415, -3.12984, -0.0567054, -0.110669, -0.0106792, -0.443834, 0.633996, -3.13147, -0.0536452, -0.1043, 0.0133669, -0.00946692, -0.0274763, 0.000153299, -0.0158266, -0.0195231
0.104067, 0.108374, -0.774323, -0.918569, -1.45778, -0.627403, 1.07121, -0.256721, 0.0336438, 0.0048783, -0.0581903, -0.0150997, -0.00912887, 0.0130883, 0.000702017, 0.737679, 16.6003, 19.3397, 15.8765, 1.0979, 3.53915, -0.0420422, 3.76442e-05, -0.00118763, 0.000156863, -0.00139583, -0.00419931, 0.00225763, 0.0109642, -0.00415994, 0.00794883, 0.0224664, 0.0568889, 0.0946844, -0.0106787, -0.44504, 0.634122, -3.12978, -0.056741, -0.110767, -0.0106735, -0.44385, 0.633978, -3.13145, -0.0536266, -0.104264, 0.0136449, -0.00964662, -0.0280126, 0.00230696, -0.0142813, -0.0208942
0.105067, 0.108401, -0.774315, -0.918627, -1.45779, -0.627417, 1.07123, -0.256722, 0.0298659, 0.00588989, -0.0602362, -0.0137251, -0.0112887, 0.0141394, 0.000197707, 0.813057, 16.636, 19.3754, 15.8408, 1.09241, 3.54648, -0.0356336, 2.39152e-05, -0.00118187, 0.000146232, -0.00143397, -0.00428284, 0.00229637, 0.0138191, -0.00475628, 0.00859473, 0.0251464, 0.0589304, 0.0901004, -0.0106649, -0.44505, 0.634094, -3.12971, -0.0567774, -0.110867, -0.010674, -0.443866, 0.633959, -3.13143, -0.0536018, -0.104235, 0.0139255, -0.00982742, -0.0285528, -0.000282469, -0.0151681, -0.0209984
0.106067, 0.108434, -0.774308, -0.918676, -1.4578, -0.627433, 1.07125, -0.256727, 0.0288888, 0.00690069, -0.0582318, -0.0135637, -0.0138417, 0.0150225, -0.00158833, 0.813057, 16.6718, 19.2643, 15.8408, 1.11072, 3.5538, 0.0101428, 1.44922e-05, -0.00117786, 0.000133577, -0.00147746, -0.0043712, 0.0023201, 0.0139746, -0.00458361, 0.00992277, 0.0296069, 0.0619855, 0.0931254, -0.0106509, -0.44506, 0.634065, -3.12965, -0.0568144, -0.110969, -0.0106701, -0.443881, 0.633942, -3.13141, -0.0536009, -0.104202, 0.0142086, -0.0100093, -0.0290967, -0.000254827, -0.0151981, -0.0202286
0.107067, 0.10847, -0.774303, -0.918731, -1.45781, -0.627441, 1.07127, -0.256721, 0.0311449, 0.00351355, -0.0565178, -0.0123712, -0.0141662, 0.0160506, 0.00109272, 0.813057, 16.7471, 19.2643, 15.8011, 1.086, 3.5538, -0.0484509, 4.69578e-06, -0.00117331, 0.000121418, -0.00151614, -0.00445007, 0.00235432, 0.0138927, -0.00448589, 0.0112339, 0.0330649, 0.0582611, 0.0952494, -0.0106365, -0.44507, 0.634036, -3.12958, -0.0568522, -0.111073, -0.0106662, -0.443896, 0.633925, -3.13139, -0.0535845, -0.104184, 0.0144943, -0.0101922, -0.0296444, 1.57741e-05, -0.0152956, -0.0194631
0.108067, 0.108506, -0.774292, -0.918791, -1.45782, -0.627456, 1.07129, -0.256727, 0.0305838, 0.00593462, -0.0568765, -0.0157531, -0.0159255, 0.016409, -0.0012182, 0.777352, 16.7471, 19.3397, 15.8011, 1.0979, 3.56112, 0.00373412, -5.52905e-06, -0.00116786, 0.000110701, -0.0015538, -0.00454489, 0.00238218, 0.0133688, -0.00434227, 0.010808, 0.0332978, 0.064814, 0.0996367, -0.0106219, -0.44508, 0.634006, -3.12951, -0.0568906, -0.111178, -0.0106624, -0.443912, 0.633905, -3.13137, -0.0535789, -0.104144, 0.0147825, -0.0103762, -0.0301957, 0.000850509, -0.0153136, -0.0204021
0.109067, 0.108533, -0.774284, -0.918843, -1.45783, -0.627471, 1.07131, -0.256725, 0.0243085, 0.00375872, -0.0550624, -0.0157937, -0.0168686, 0.0215919, -0.000313928, 0.85273, 16.7828, 19.3397, 15.69, 1.10431, 3.56112, -0.00999879, -1.93589e-05, -0.00116316, 9.50549e-05, -0.00160444, -0.0046311, 0.00242366, 0.016088, -0.00471597, 0.0124557, 0.0406797, 0.0614194, 0.0954745, -0.010607, -0.44509, 0.633975, -3.12945, -0.0569298, -0.111286, -0.0106622, -0.443928, 0.633889, -3.13135, -0.0535522, -0.104119, 0.0150731, -0.0105613, -0.0307507, -0.00167289, -0.015989, -0.0195116
0.110067, 0.108565, -0.77427, -0.918897, -1.45785, -0.627482, 1.07132, -0.256719, 0.0300712, 0.00619105, -0.054739, -0.0170552, -0.0126214, 0.0151841, 0.00171568, 0.888436, 16.7828, 19.3754, 15.7654, 1.10431, 3.58951, -0.0621838, -2.82894e-05, -0.00116089, 8.28966e-05, -0.0016409, -0.00473267, 0.00246006, 0.0125281, -0.00282476, 0.0120808, 0.0336195, 0.0654794, 0.104144, -0.0105917, -0.445101, 0.633944, -3.12938, -0.0569696, -0.111396, -0.0106567, -0.443941, 0.633869, -3.13133, -0.0535349, -0.104072, 0.0153663, -0.0107473, -0.0313093, 0.00212538, -0.0141541, -0.0201761
0.111067, 0.108597, -0.774261, -0.918946, -1.45786, -0.627493, 1.07134, -0.256727, 0.0321675, 0.00694803, -0.0558512, -0.0160469, -0.00992074, 0.0120118, -0.00154084, 0.888436, 16.8225, 19.3397, 15.7654, 1.11713, 3.57577, 0.0101428, -3.77673e-05, -0.00115883, 6.73028e-05, -0.00168663, -0.00482554, 0.00248048, 0.0119934, -0.00205259, 0.0123343, 0.0305028, 0.0659819, 0.111468, -0.0105762, -0.445112, 0.633913, -3.1293, -0.0570102, -0.111507, -0.0106517, -0.443954, 0.633853, -3.13131, -0.0535426, -0.104041, 0.015662, -0.0109343, -0.0318714, 0.00290694, -0.0135541, -0.0204419
0.112067, 0.108628, -0.774252, -0.918999, -1.45787, -0.627506, 1.07135, -0.256721, 0.0304783, 0.00770818, -0.0544375, -0.0152318, -0.0121735, 0.0132224, 0.00113851, 0.888436, 16.8582, 19.3397, 15.7654, 1.11713, 3.58951, -0.0484509, -5.02965e-05, -0.00115672, 5.2693e-05, -0.00172824, -0.00492449, 0.00252254, 0.0127848, -0.00203832, 0.0137588, 0.0351742, 0.0680185, 0.108757, -0.0105604, -0.445123, 0.63388, -3.12923, -0.0570515, -0.111621, -0.0106493, -0.443968, 0.633834, -3.13128, -0.0535177, -0.104002, 0.0159602, -0.0111224, -0.0324371, 0.0023138, -0.0137734, -0.0196443
0.113067, 0.108664, -0.774242, -0.919062, -1.45787, -0.627522, 1.07137, -0.256718, 0.0300591, 0.0113442, -0.0569161, -0.0121979, -0.0144737, 0.0144502, 0.00075571, 0.85273, 16.8939, 19.4864, 15.6543, 1.13544, 3.58951, -0.0484509, -6.57084e-05, -0.00115176, 3.70696e-05, -0.00177282, -0.00502078, 0.00256913, 0.0138679, -0.00289054, 0.0148288, 0.0387289, 0.0717011, 0.106252, -0.0105443, -0.445134, 0.633848, -3.12916, -0.0570936, -0.111737, -0.0106495, -0.443985, 0.633816, -3.13126, -0.0534863, -0.10397, 0.0162609, -0.0113113, -0.0330063, 0.0014892, -0.0148664, -0.0192321
0.114067, 0.108691, -0.774231, -0.919105, -1.45789, -0.62753, 1.07138, -0.256725, 0.0279852, 0.00785585, -0.0522003, -0.0133625, -0.015546, 0.015883, -0.00143145, 0.888436, 16.9296, 19.3754, 15.69, 1.13544, 3.58218, 0.00373412, -7.4815e-05, -0.00115234, 1.88851e-05, -0.00182154, -0.00511876, 0.00258903, 0.014391, -0.00210347, 0.0164659, 0.0438091, 0.0696431, 0.112158, -0.0105279, -0.445146, 0.633814, -3.12908, -0.0571363, -0.111854, -0.0106436, -0.443997, 0.6338, -3.13124, -0.053497, -0.103937, 0.016564, -0.0115013, -0.033579, 0.00112447, -0.0143086, -0.0182039
0.115067, 0.10872, -0.774219, -0.919166, -1.4579, -0.627541, 1.07139, -0.25672, 0.0263766, 0.009319, -0.0544403, -0.013384, -0.0113688, 0.0161732, 0.000976627, 0.928108, 16.9296, 19.4864, 15.69, 1.12903, 3.58951, -0.0484509, -9.02654e-05, -0.00115083, 5.74006e-06, -0.00185488, -0.00522838, 0.00263671, 0.0147828, -0.00182622, 0.0165441, 0.0420707, 0.0686958, 0.110554, -0.0105112, -0.445157, 0.633781, -3.12901, -0.0571798, -0.111974, -0.0106432, -0.44401, 0.633778, -3.13121, -0.053466, -0.103887, 0.0168696, -0.0116921, -0.034155, 0.00102263, -0.014239, -0.018729
0.116067, 0.10875, -0.774204, -0.919221, -1.45791, -0.627557, 1.0714, -0.256728, 0.0271096, 0.0102775, -0.0540415, -0.0124453, -0.0139082, 0.0121568, -0.0017578, 0.888436, 16.9296, 19.5261, 15.6543, 1.14734, 3.58951, 0.0165515, -0.000104457, -0.0011489, -1.27814e-05, -0.0019043, -0.00533658, 0.00267185, 0.0154153, -0.00115402, 0.017206, 0.0416218, 0.0737873, 0.114735, -0.0104942, -0.445169, 0.633746, -3.12893, -0.0572241, -0.112096, -0.0106416, -0.444025, 0.633762, -3.13119, -0.0534545, -0.103842, 0.0171776, -0.0118839, -0.0347344, 0.000626987, -0.0137912, -0.0186892
0.117067, 0.108779, -0.774188, -0.919274, -1.45792, -0.627567, 1.07141, -0.256724, 0.0265594, 0.0109111, -0.052876, -0.00943995, -0.0148182, 0.00964412, 0.000285149, 0.888436, 16.9296, 19.5261, 15.6543, 1.14093, 3.57577, -0.0228162, -0.00011746, -0.00114903, -3.05018e-05, -0.00194771, -0.00544754, 0.00271513, 0.0164167, -0.000520105, 0.0188795, 0.043485, 0.075173, 0.113177, -0.0104768, -0.445181, 0.633711, -3.12885, -0.0572691, -0.112219, -0.0106385, -0.444037, 0.633743, -3.13116, -0.0534314, -0.103795, 0.017488, -0.0120766, -0.0353172, -0.000204867, -0.0134076, -0.0176705
0.118067, 0.108809, -0.774177, -0.919321, -1.45793, -0.627577, 1.07142, -0.256721, 0.0322053, 0.01048, -0.0510559, -0.00622258, -0.0157273, 0.0110319, 0.000901393, 0.888436, 16.9693, 19.4864, 15.6146, 1.13544, 3.59683, -0.0420422, -0.000129872, -0.00115071, -5.14575e-05, -0.00199594, -0.00555286, 0.002751, 0.014421, -0.000671719, 0.0209143, 0.0487543, 0.0734216, 0.119644, -0.0104592, -0.445193, 0.633676, -3.12877, -0.0573148, -0.112345, -0.0106348, -0.444048, 0.633728, -3.13113, -0.0534204, -0.103758, 0.0178009, -0.0122702, -0.0359033, 0.00195602, -0.0137059, -0.0160866
0.119067, 0.108833, -0.774162, -0.919376, -1.45795, -0.627593, 1.07142, -0.256726, 0.0286847, 0.0111396, -0.0507914, -0.0130411, -0.017388, 0.00804739, -0.00109508, 0.963814, 16.9693, 19.4864, 15.69, 1.16015, 3.60415, 0.00373412, -0.000146095, -0.00115144, -6.80546e-05, -0.00203726, -0.00567588, 0.00279087, 0.0151874, 0.000476696, 0.0193889, 0.0446709, 0.0820641, 0.123181, -0.0104412, -0.445205, 0.633639, -3.12869, -0.0573613, -0.112473, -0.0106343, -0.444061, 0.633707, -3.1311, -0.0534043, -0.103696, 0.0181163, -0.0124646, -0.0364926, 0.00157254, -0.0127647, -0.0182435
0.120067, 0.108865, -0.774143, -0.919439, -1.45796, -0.627603, 1.07143, -0.256721, 0.0256107, 0.0125312, -0.0558488, -0.0128284, -0.012965, 0.00530806, 0.000964928, 0.928108, 16.9296, 19.5975, 15.69, 1.16015, 3.62521, -0.0420422, -0.000160636, -0.00115099, -8.45511e-05, -0.00207584, -0.00579668, 0.00283966, 0.0174919, 0.000818001, 0.0185351, 0.0386387, 0.0823703, 0.118364, -0.0104229, -0.445218, 0.633603, -3.12861, -0.0574085, -0.112603, -0.0106317, -0.444075, 0.633686, -3.13107, -0.0533752, -0.103639, 0.018434, -0.0126599, -0.0370852, -0.000359648, -0.0126945, -0.019852
0.121067, 0.108894, -0.774125, -0.919491, -1.45797, -0.627614, 1.07143, -0.256725, 0.0255232, 0.0133642, -0.0533677, -0.01116, -0.00987646, 0.00431833, -0.00054384, 0.928108, 16.8939, 19.5618, 15.6146, 1.16565, 3.6188, -0.00999879, -0.000174144, -0.00115312, -0.000105392, -0.00212193, -0.00591752, 0.00287648, 0.016588, 0.00196325, 0.0203075, 0.0401415, 0.0809936, 0.124471, -0.0104044, -0.445231, 0.633565, -3.12852, -0.0574565, -0.112735, -0.0106282, -0.444086, 0.633668, -3.13104, -0.0533652, -0.103585, 0.0187541, -0.012856, -0.0376809, 0.000690378, -0.0117364, -0.0186059
0.122067, 0.108925, -0.774109, -0.919547, -1.45798, -0.627623, 1.07143, -0.256725, 0.0263442, 0.0162796, -0.0524028, -0.00848847, -0.0118855, 0.00304823, -0.00158351, 0.888436, 16.8939, 19.5618, 15.6146, 1.16015, 3.62521, 0.0229602, -0.000188164, -0.00115548, -0.000123894, -0.0021602, -0.00604064, 0.00291491, 0.0163799, 0.00224729, 0.0219905, 0.0433392, 0.0851277, 0.12691, -0.0103854, -0.445244, 0.633527, -3.12844, -0.0575053, -0.11287, -0.0106247, -0.444097, 0.633648, -3.131, -0.0533538, -0.103529, 0.0190766, -0.013053, -0.0382798, 0.00108716, -0.0116641, -0.01751
0.123067, 0.108959, -0.77409, -0.919606, -1.458, -0.627632, 1.07144, -0.256716, 0.0299926, 0.0161424, -0.0550552, -0.0126639, -0.00889727, 0.00206591, 0.001589, 0.85273, 16.8582, 19.5618, 15.6146, 1.16015, 3.63254, -0.0484509, -0.000201291, -0.00115709, -0.000141955, -0.00219944, -0.00616803, 0.00296302, 0.0145916, 0.00262749, 0.0203723, 0.0380004, 0.0869276, 0.131127, -0.0103662, -0.445257, 0.633489, -3.12835, -0.0575548, -0.113006, -0.01062, -0.44411, 0.633626, -3.13096, -0.0533281, -0.103468, 0.0194015, -0.0132507, -0.0388819, 0.00329496, -0.0113999, -0.0195946
0.124067, 0.108991, -0.77408, -0.919667, -1.45801, -0.627642, 1.07144, -0.256727, 0.0296017, 0.013532, -0.0566831, -0.0118685, -0.0113773, 0.00292847, -0.00134831, 0.813057, 16.9296, 19.5618, 15.5789, 1.16015, 3.59683, 0.0165515, -0.000217942, -0.00115806, -0.000160972, -0.00224197, -0.00628681, 0.00299537, 0.0169158, 0.00199763, 0.020776, 0.0402041, 0.0861748, 0.133064, -0.0103466, -0.44527, 0.633449, -3.12826, -0.0576051, -0.113144, -0.0106185, -0.444123, 0.633605, -3.13092, -0.0533275, -0.103423, 0.0197288, -0.0134493, -0.039487, 0.00129822, -0.0123194, -0.0199726
0.125067, 0.109025, -0.774054, -0.919724, -1.45803, -0.627651, 1.07144, -0.256727, 0.0300499, 0.0190039, -0.0555665, -0.0161897, -0.00828807, 0.00239516, -0.000898975, 0.737679, 16.8225, 19.4507, 15.6146, 1.15375, 3.58951, 0.0165515, -0.000228093, -0.00116113, -0.000180678, -0.00228325, -0.00642504, 0.00303095, 0.0135299, 0.00325711, 0.0205346, 0.0381974, 0.0931759, 0.139811, -0.0103267, -0.445284, 0.63341, -3.12817, -0.0576562, -0.113285, -0.0106103, -0.444134, 0.633584, -3.13089, -0.0533228, -0.10335, 0.0200585, -0.0136486, -0.0400951, 0.00497131, -0.0111363, -0.0205655
0.126067, 0.109056, -0.774045, -0.91979, -1.45804, -0.627659, 1.07144, -0.256721, 0.031734, 0.0178579, -0.0576569, -0.0157774, -0.010561, 0.00172545, 0.0018081, 0.737679, 16.9296, 19.4507, 15.5035, 1.14093, 3.58951, -0.0484509, -0.000249347, -0.00116222, -0.000199828, -0.00232127, -0.00654432, 0.00308831, 0.0146887, 0.00284185, 0.0205497, 0.0384639, 0.0947876, 0.138129, -0.0103065, -0.445298, 0.633369, -3.12808, -0.0577081, -0.113428, -0.0106127, -0.444148, 0.633562, -3.13084, -0.0532851, -0.103308, 0.0203905, -0.0138487, -0.0407063, 0.00416081, -0.0117959, -0.021251
0.127067, 0.10909, -0.774019, -0.919856, -1.45805, -0.627669, 1.07144, -0.256729, 0.0307594, 0.0191677, -0.0603562, -0.0142735, -0.00797016, 0.00175544, -0.00167687, 0.701973, 16.8225, 19.3754, 15.4678, 1.14093, 3.57577, 0.0293689, -0.00026349, -0.00116375, -0.000219097, -0.00236131, -0.00668486, 0.00312551, 0.0156751, 0.00279607, 0.0209589, 0.0377482, 0.0941153, 0.141292, -0.010286, -0.445311, 0.633328, -3.12799, -0.0577607, -0.113573, -0.0106078, -0.444161, 0.633539, -3.1308, -0.0532797, -0.103235, 0.0207248, -0.0140495, -0.0413204, 0.00348231, -0.0120858, -0.0215305
0.128067, 0.109124, -0.774, -0.919923, -1.45806, -0.627675, 1.07144, -0.256719, 0.0322794, 0.0173499, -0.0644633, -0.0163271, -0.010637, 0.00178521, 0.00227288, 0.701973, 16.8225, 19.2643, 15.4282, 1.13544, 3.56112, -0.0621838, -0.000279395, -0.00116565, -0.000237889, -0.00239877, -0.00681804, 0.00318046, 0.0172605, 0.00196265, 0.0196974, 0.0360874, 0.0967058, 0.137768, -0.0102651, -0.445326, 0.633287, -3.1279, -0.0578142, -0.11372, -0.0106042, -0.444174, 0.633515, -3.13075, -0.0532475, -0.103176, 0.0210615, -0.0142511, -0.0419374, 0.00235925, -0.0131647, -0.0235306
0.129067, 0.109161, -0.77398, -0.920003, -1.45809, -0.627686, 1.07144, -0.25672, 0.0335125, 0.0170121, -0.0675904, -0.0187683, -0.00777932, 0.00124443, 5.71602e-05, 0.701973, 16.7828, 19.2643, 15.4282, 1.12903, 3.56112, -0.0228162, -0.000298405, -0.00116518, -0.000251701, -0.00242659, -0.00696254, 0.00323155, 0.0171059, 0.00211648, 0.0186025, 0.0320135, 0.0970888, 0.143713, -0.0102438, -0.44534, 0.633244, -3.1278, -0.0578684, -0.113869, -0.010603, -0.44419, 0.633485, -3.1307, -0.0532225, -0.103101, 0.0214005, -0.0144534, -0.0425574, 0.00292422, -0.0131963, -0.0252314
0.130067, 0.1092, -0.773957, -0.920085, -1.4581, -0.627693, 1.07144, -0.256726, 0.0384509, 0.0174328, -0.0720899, -0.0196014, -0.00611757, 0.000870335, -0.00118262, 0.6623, 16.7114, 19.2246, 15.3925, 1.13544, 3.56112, 0.0101428, -0.000315944, -0.00116502, -0.000266371, -0.00245446, -0.00710877, 0.00327707, 0.016078, 0.00165722, 0.01754, 0.0284339, 0.0981022, 0.149943, -0.0102223, -0.445355, 0.633201, -3.12771, -0.0579234, -0.114021, -0.0106, -0.444205, 0.633456, -3.13064, -0.0532071, -0.103025, 0.0217418, -0.0146563, -0.0431802, 0.00438253, -0.0138095, -0.026845
0.131067, 0.109237, -0.77394, -0.92016, -1.45812, -0.627699, 1.07145, -0.256719, 0.0379383, 0.0190869, -0.0697835, -0.020486, -0.00837294, 0.00142456, 0.000669629, 0.6623, 16.7114, 19.0778, 15.3568, 1.11072, 3.53915, -0.0292249, -0.000333547, -0.00116595, -0.000283344, -0.00248835, -0.00724721, 0.00333103, 0.0155461, 0.00207687, 0.0186992, 0.0322428, 0.102528, 0.150994, -0.0102004, -0.445369, 0.633158, -3.12761, -0.0579792, -0.114174, -0.010597, -0.44422, 0.633428, -3.13058, -0.0531791, -0.102964, 0.0220854, -0.01486, -0.0438058, 0.00515462, -0.0135912, -0.0262732
0.132067, 0.10928, -0.773914, -0.920247, -1.45815, -0.627706, 1.07145, -0.256728, 0.0417585, 0.0190263, -0.0759551, -0.0217302, -0.00660049, 0.0017525, -0.00172373, 0.626595, 16.636, 19.0024, 15.3568, 1.11713, 3.5181, 0.0293689, -0.00034988, -0.00116497, -0.000297003, -0.00251495, -0.00739897, 0.00337267, 0.0155233, 0.0012267, 0.017123, 0.0279568, 0.102968, 0.156275, -0.0101781, -0.445384, 0.633114, -3.12751, -0.0580358, -0.11433, -0.0105921, -0.444237, 0.633396, -3.13052, -0.0531714, -0.102884, 0.0224314, -0.0150643, -0.0444342, 0.00566804, -0.0146264, -0.0284819
0.133067, 0.109321, -0.773899, -0.920337, -1.45817, -0.627716, 1.07145, -0.256723, 0.0406439, 0.0163006, -0.0808863, -0.022012, -0.0101959, 0.00223667, 0.000783614, 0.626595, 16.6718, 18.9271, 15.3171, 1.12903, 3.48971, -0.0228162, -0.000371838, -0.00116306, -0.000310563, -0.00254299, -0.00754294, 0.00343369, 0.0193275, -5.78405e-06, 0.01628, 0.0276929, 0.104013, 0.149639, -0.0101555, -0.445399, 0.633069, -3.12741, -0.0580933, -0.114488, -0.0105923, -0.444255, 0.633363, -3.13046, -0.0531343, -0.102818, 0.0227796, -0.0152693, -0.0450654, 0.0023309, -0.0161937, -0.0302469
0.134067, 0.109367, -0.77387, -0.920427, -1.45819, -0.62772, 1.07146, -0.256723, 0.0407414, 0.0186871, -0.0814104, -0.0211198, -0.00695589, 0.0023178, 0.000522401, 0.586922, 16.525, 18.8556, 15.2417, 1.11072, 3.46774, -0.0228162, -0.000387212, -0.00116203, -0.000325328, -0.00257014, -0.00769713, 0.00348376, 0.0185652, 0.000472563, 0.0171477, 0.0278418, 0.104233, 0.152995, -0.0101325, -0.445415, 0.633024, -3.12731, -0.0581515, -0.114649, -0.0105858, -0.444272, 0.633332, -3.1304, -0.0531152, -0.102739, 0.0231301, -0.0154749, -0.0456993, 0.00335837, -0.0159068, -0.0299567
0.135067, 0.109411, -0.773856, -0.920522, -1.45821, -0.627726, 1.07146, -0.256726, 0.0442535, 0.0190871, -0.0856434, -0.0176223, -0.00550223, 0.00260602, -0.000635082, 0.6623, 16.5646, 18.816, 15.1703, 1.11713, 3.43936, 0.00373412, -0.000409948, -0.0011599, -0.000338257, -0.00259469, -0.00784111, 0.0035376, 0.0189633, -0.000301584, 0.0176054, 0.0276409, 0.10223, 0.155654, -0.0101092, -0.44543, 0.632978, -3.12721, -0.0582105, -0.114811, -0.0105861, -0.444291, 0.633297, -3.13033, -0.0530911, -0.102678, 0.0234829, -0.0156811, -0.0463358, 0.00330845, -0.0169096, -0.0301763
0.136067, 0.109454, -0.773835, -0.920618, -1.45823, -0.627734, 1.07146, -0.25672, 0.0449061, 0.0190824, -0.0889922, -0.0189747, -0.00895912, 0.0025584, 0.000559951, 0.701973, 16.4893, 18.7803, 15.1306, 1.11713, 3.41739, -0.0228162, -0.000431409, -0.00115791, -0.000351472, -0.00262023, -0.00799672, 0.0036026, 0.0204638, -0.00103518, 0.0168878, 0.0273646, 0.106806, 0.15393, -0.0100856, -0.445446, 0.632931, -3.1271, -0.0582704, -0.114976, -0.0105848, -0.44431, 0.633262, -3.13026, -0.0530505, -0.1026, 0.0238379, -0.015888, -0.046975, 0.00224655, -0.0178976, -0.0316516
0.137067, 0.109507, -0.773816, -0.920714, -1.45826, -0.62774, 1.07147, -0.256728, 0.0481127, 0.0180048, -0.0896867, -0.0216696, -0.00672747, 0.00276219, -0.00132212, 0.626595, 16.4536, 18.6692, 15.1703, 1.11713, 3.38901, 0.0229602, -0.000447798, -0.00115583, -0.000363933, -0.00264613, -0.00815055, 0.00364119, 0.0188813, -0.000665797, 0.0164014, 0.0254769, 0.106661, 0.163278, -0.0100616, -0.445462, 0.632884, -3.127, -0.0583311, -0.115144, -0.0105781, -0.444329, 0.633226, -3.13019, -0.0530518, -0.102528, 0.0241952, -0.0160954, -0.0476168, 0.0042011, -0.0176737, -0.0326603
0.138067, 0.109551, -0.773795, -0.920813, -1.45828, -0.627746, 1.07147, -0.256725, 0.0467542, 0.0244711, -0.0909868, -0.0198854, -0.00525447, 0.00265934, 0.000339285, 0.701973, 16.3782, 18.5938, 15.0552, 1.12262, 3.36703, -0.00999879, -0.000470942, -0.00115406, -0.000378466, -0.00267122, -0.00830592, 0.00370603, 0.0183368, -0.000425318, 0.0175178, 0.0266755, 0.111836, 0.161383, -0.0100372, -0.445478, 0.632836, -3.12689, -0.0583926, -0.115313, -0.0105778, -0.444348, 0.633191, -3.13012, -0.0530132, -0.102456, 0.0245547, -0.0163034, -0.0482612, 0.00501072, -0.0176386, -0.032151
0.139067, 0.109597, -0.773779, -0.920916, -1.45831, -0.627752, 1.07147, -0.256726, 0.0468949, 0.0211466, -0.0961912, -0.0214628, -0.00440223, 0.00255585, -0.000282438, 0.737679, 16.3782, 18.5581, 15.0552, 1.13544, 3.34598, 0.00373412, -0.000494565, -0.00115197, -0.000389958, -0.00269147, -0.00846307, 0.00376344, 0.020791, -0.00105978, 0.0160975, 0.0229084, 0.110102, 0.161766, -0.0100124, -0.445495, 0.632787, -3.12678, -0.0584549, -0.115485, -0.0105775, -0.444367, 0.633152, -3.13004, -0.0529872, -0.102383, 0.0249165, -0.016512, -0.0489081, 0.00305334, -0.018555, -0.0344049
0.140067, 0.10965, -0.77376, -0.921019, -1.45834, -0.627758, 1.07147, -0.256728, 0.0478495, 0.0196048, -0.0963498, -0.0216597, -0.00369402, 0.00251999, -0.000663011, 0.737679, 16.3425, 18.5184, 15.0195, 1.14734, 3.324, 0.0165515, -0.000514492, -0.00114935, -0.000402418, -0.00271607, -0.00862214, 0.00381523, 0.0210175, -0.000815707, 0.0165741, 0.0233732, 0.109109, 0.165793, -0.00998734, -0.445511, 0.632738, -3.12667, -0.058518, -0.115659, -0.0105732, -0.444387, 0.633114, -3.12997, -0.0529707, -0.102309, 0.0252805, -0.0167211, -0.0495576, 0.00314573, -0.0185375, -0.0345958
0.141067, 0.109698, -0.773742, -0.921116, -1.45837, -0.627765, 1.07148, -0.256722, 0.0467766, 0.0216645, -0.0943813, -0.0217448, -0.00246412, 0.00246161, 0.00149077, 0.813057, 16.3068, 18.3716, 14.9799, 1.14093, 3.30295, -0.0356336, -0.000535547, -0.00114825, -0.000417514, -0.00274535, -0.00878334, 0.00387616, 0.0202856, 3.13068e-05, 0.0178833, 0.0254458, 0.111136, 0.16707, -0.00996188, -0.445528, 0.632688, -3.12656, -0.058582, -0.115835, -0.0105698, -0.444406, 0.633077, -3.1299, -0.0529406, -0.102235, 0.0256467, -0.0169307, -0.0502094, 0.0041111, -0.0178943, -0.0338814
0.142067, 0.109747, -0.773723, -0.921221, -1.45839, -0.627769, 1.07148, -0.256722, 0.0437815, 0.021017, -0.0987655, -0.0211762, -0.00677218, 0.0021849, 0.000993847, 0.85273, 16.2314, 18.332, 14.9084, 1.14734, 3.2883, -0.0356336, -0.000558957, -0.00114632, -0.000431625, -0.0027691, -0.00894309, 0.00393681, 0.0245308, -0.000983211, 0.0175571, 0.0259774, 0.114618, 0.161274, -0.00993605, -0.445545, 0.632638, -3.12645, -0.0586468, -0.116014, -0.0105684, -0.444426, 0.633039, -3.12982, -0.0529121, -0.102165, 0.0260151, -0.0171409, -0.0508638, 0.000309692, -0.0192734, -0.0351902
0.143067, 0.109801, -0.77371, -0.921325, -1.45842, -0.627777, 1.07148, -0.256723, 0.045535, 0.0185936, -0.102095, -0.0256517, -0.00551658, 0.00172883, 0.000425205, 0.85273, 16.2314, 18.2963, 14.9084, 1.16015, 3.28097, -0.0292249, -0.000582226, -0.00114456, -0.000444952, -0.00279318, -0.00910605, 0.0039918, 0.0247599, -0.000989554, 0.0157382, 0.0212785, 0.115487, 0.166349, -0.00990985, -0.445562, 0.632586, -3.12633, -0.0587125, -0.116195, -0.0105664, -0.444447, 0.632999, -3.12974, -0.0528932, -0.102092, 0.0263857, -0.0173516, -0.0515205, 0.00058502, -0.0194764, -0.037681
0.144067, 0.109852, -0.773695, -0.921431, -1.45845, -0.627779, 1.07148, -0.256726, 0.0451183, 0.0137555, -0.104752, -0.0267168, -0.00383567, 0.000882013, -0.00188667, 0.928108, 16.2314, 18.2963, 14.9442, 1.15375, 3.2883, 0.0293689, -0.000604962, -0.00114348, -0.000457966, -0.0028145, -0.00926804, 0.00404418, 0.0271252, -0.000948467, 0.0151053, 0.018365, 0.111558, 0.16999, -0.00988328, -0.44558, 0.632535, -3.12622, -0.058779, -0.116378, -0.0105635, -0.444466, 0.632959, -3.12966, -0.0528793, -0.102023, 0.0267585, -0.0175627, -0.0521796, -0.00135544, -0.019728, -0.0391503
0.145067, 0.109904, -0.773678, -0.921536, -1.45847, -0.627783, 1.07149, -0.256722, 0.045845, 0.01732, -0.105165, -0.0236547, -0.00285359, 0.000317285, -0.000308344, 0.963814, 16.1957, 18.2209, 14.8331, 1.15375, 3.29562, 0.00373412, -0.000628649, -0.00114191, -0.000474603, -0.00284441, -0.00942848, 0.00410715, 0.0266718, -0.000701805, 0.0166698, 0.0203334, 0.113619, 0.170115, -0.00985633, -0.445598, 0.632482, -3.1261, -0.0588463, -0.116563, -0.0105615, -0.444487, 0.632921, -3.12959, -0.0528495, -0.10196, 0.0271335, -0.0177744, -0.052841, -0.00065561, -0.0197013, -0.0382186
0.146067, 0.109956, -0.773665, -0.921644, -1.4585, -0.627792, 1.07149, -0.25672, 0.0462563, 0.0159639, -0.107917, -0.0243477, -0.00256556, 0.000483199, 0.000540422, 1.00349, 16.1957, 18.1455, 14.8331, 1.16565, 3.2883, -0.0164075, -0.000654886, -0.00113918, -0.00048974, -0.00287481, -0.00959318, 0.00417286, 0.0278939, -0.000988252, 0.0163209, 0.019282, 0.113481, 0.170497, -0.00982901, -0.445615, 0.632429, -3.12598, -0.0589145, -0.116751, -0.0105614, -0.444509, 0.632881, -3.12951, -0.0528164, -0.101892, 0.0275107, -0.0179865, -0.0535047, -0.00146111, -0.020243, -0.0393286
0.147067, 0.110008, -0.773647, -0.921759, -1.45853, -0.627794, 1.0715, -0.256724, 0.0498258, 0.0206898, -0.113753, -0.0257099, -0.00167369, 0.000322439, -0.000148345, 1.03919, 16.0846, 18.1852, 14.8688, 1.16015, 3.2883, -0.00267457, -0.000679226, -0.00113615, -0.000502252, -0.00289813, -0.00976227, 0.004231, 0.0266587, -0.0016511, 0.0149872, 0.0155438, 0.119725, 0.17382, -0.00980131, -0.445634, 0.632375, -3.12586, -0.0589835, -0.116942, -0.0105589, -0.444531, 0.632838, -3.12943, -0.0527962, -0.101819, 0.02789, -0.018199, -0.0541706, 0.000272001, -0.0210557, -0.0412433
0.148067, 0.110064, -0.773633, -0.921877, -1.45856, -0.627798, 1.0715, -0.256724, 0.0500546, 0.0152324, -0.116873, -0.0237881, -0.00124087, -0.000327346, 0.000172371, 1.03919, 16.0846, 18.1852, 14.7934, 1.16015, 3.30295, -0.00999879, -0.000706853, -0.00113241, -0.00051665, -0.00292273, -0.00992646, 0.00429753, 0.0299226, -0.00208741, 0.0151269, 0.0146625, 0.11412, 0.17303, -0.00977323, -0.445652, 0.63232, -3.12574, -0.0590534, -0.117134, -0.0105594, -0.444554, 0.632796, -3.12934, -0.0527638, -0.101756, 0.0282715, -0.018412, -0.0548388, -0.00259409, -0.021831, -0.042026
0.149067, 0.110116, -0.773619, -0.921993, -1.4586, -0.627799, 1.07151, -0.256722, 0.0490203, 0.0152276, -0.116045, -0.0269585, -0.00538067, 0.00489744, 0.00106435, 1.07887, 16.0489, 18.1852, 14.9084, 1.15375, 3.2883, -0.0356336, -0.000732054, -0.00113028, -0.000528076, -0.00294264, -0.0100974, 0.00436044, 0.0300421, -0.00288264, 0.0155855, 0.0210784, 0.117595, 0.173853, -0.00974476, -0.44567, 0.632265, -3.12562, -0.0591241, -0.117329, -0.0105569, -0.444576, 0.63275, -3.12925, -0.0527381, -0.101684, 0.0286551, -0.0186253, -0.0555092, -0.00233491, -0.0228531, -0.0422618
0.150067, 0.110175, -0.773604, -0.922111, -1.45863, -0.627802, 1.07152, -0.256729, 0.0526461, 0.015274, -0.115103, -0.0285151, -0.00381153, 0.00364617, -0.00146057, 1.07887, 16.0092, 18.1852, 14.8688, 1.14734, 3.2883, 0.0229602, -0.000757478, -0.00112744, -0.00054263, -0.00296767, -0.0102675, 0.00441565, 0.0279471, -0.00205504, 0.0158416, 0.020003, 0.119049, 0.184704, -0.00971592, -0.445689, 0.632209, -3.12549, -0.0591957, -0.117527, -0.0105545, -0.444599, 0.632707, -3.12916, -0.0527251, -0.101617, 0.0290408, -0.0188391, -0.0561817, 8.61286e-05, -0.0221687, -0.0425157
0.151067, 0.110233, -0.773586, -0.92222, -1.45865, -0.627803, 1.07152, -0.25672, 0.0521321, 0.0160908, -0.114425, -0.0300871, -0.00288735, 0.00298795, 0.000721706, 1.07887, 15.9378, 18.0344, 14.8331, 1.14734, 3.28097, -0.0228162, -0.000779792, -0.00112586, -0.000561095, -0.00300302, -0.0104371, 0.00448103, 0.027599, -0.00132681, 0.0162393, 0.0199229, 0.121436, 0.186224, -0.00968668, -0.445708, 0.632153, -3.12537, -0.0592682, -0.117726, -0.0105489, -0.444621, 0.632667, -3.12908, -0.0526968, -0.101554, 0.0294287, -0.0190533, -0.0568564, 0.000761488, -0.0216512, -0.0427629
0.152067, 0.110289, -0.773576, -0.92234, -1.45869, -0.627805, 1.07153, -0.256722, 0.0549199, 0.0140765, -0.115317, -0.0328791, -0.00265936, 0.00193513, -0.000264848, 1.07887, 15.9735, 18.0741, 14.8688, 1.16015, 3.2883, -0.00267457, -0.000807858, -0.00112294, -0.000575221, -0.00302893, -0.0106062, 0.00454454, 0.0270856, -0.000987449, 0.0155758, 0.0176535, 0.122633, 0.19332, -0.00965706, -0.445727, 0.632096, -3.12524, -0.0593415, -0.117929, -0.0105484, -0.444644, 0.632622, -3.129, -0.0526726, -0.101493, 0.0298187, -0.0192678, -0.0575331, 0.00169811, -0.0215007, -0.0440623
0.153067, 0.110343, -0.773563, -0.922462, -1.45872, -0.627808, 1.07154, -0.256727, 0.0560141, 0.0135448, -0.115478, -0.0309442, -0.00196772, 0.00567024, -0.001126, 1.11457, 15.9735, 18.1098, 14.8688, 1.16015, 3.30295, 0.0229602, -0.000837244, -0.00111972, -0.000589351, -0.00305489, -0.010781, 0.00460813, 0.0270096, -0.00153287, 0.0170995, 0.0226756, 0.11943, 0.196986, -0.00962704, -0.445747, 0.632038, -3.12511, -0.0594156, -0.118133, -0.0105487, -0.444668, 0.632576, -3.12891, -0.0526493, -0.101425, 0.0302108, -0.0194827, -0.0582119, 0.00207073, -0.0222838, -0.0432268
0.154067, 0.1104, -0.773546, -0.922577, -1.45876, -0.627809, 1.07155, -0.256717, 0.0578376, 0.0140211, -0.114129, -0.0345256, -0.00145792, 0.0042976, 0.00189419, 1.11457, 15.9378, 18.0741, 14.9442, 1.16015, 3.30295, -0.0484509, -0.000859765, -0.00111797, -0.000605719, -0.00308859, -0.0109602, 0.00467578, 0.0252617, -0.000540122, 0.0169235, 0.0212871, 0.123463, 0.201361, -0.00959664, -0.445766, 0.631979, -3.12498, -0.0594907, -0.11834, -0.010542, -0.444691, 0.632532, -3.12882, -0.0526203, -0.101354, 0.0306049, -0.019698, -0.0588927, 0.00417969, -0.0214423, -0.0439424
0.155067, 0.110455, -0.77353, -0.922694, -1.45879, -0.62781, 1.07156, -0.256726, 0.0582621, 0.0135164, -0.110829, -0.0344282, -0.00108153, 0.00702496, -0.000907346, 1.15424, 15.9378, 18.0741, 14.9084, 1.16015, 3.324, 0.0101428, -0.00088705, -0.00111633, -0.000623359, -0.00312069, -0.011137, 0.00473295, 0.0241441, -0.00013918, 0.0187979, 0.0268184, 0.122078, 0.20974, -0.00956583, -0.445786, 0.63192, -3.12485, -0.0595666, -0.11855, -0.0105398, -0.444713, 0.632488, -3.12874, -0.0526085, -0.101289, 0.0310012, -0.0199136, -0.0595756, 0.00553066, -0.0212473, -0.0426702
0.156067, 0.110515, -0.773515, -0.922812, -1.45883, -0.627809, 1.07157, -0.256723, 0.063484, 0.0100566, -0.111556, -0.0339206, -0.000565843, 0.00975179, 0.000615806, 1.11457, 15.9378, 18.0741, 14.9799, 1.15375, 3.33133, -0.0228162, -0.000910619, -0.00111576, -0.000638688, -0.00314644, -0.0113216, 0.00479255, 0.0231627, -0.000721046, 0.0193975, 0.0293897, 0.117603, 0.215387, -0.00953463, -0.445806, 0.63186, -3.12472, -0.0596434, -0.118761, -0.0105334, -0.444735, 0.632442, -3.12864, -0.0525942, -0.101213, 0.0313996, -0.0201295, -0.0602603, 0.00688184, -0.0220205, -0.0426933
0.157067, 0.110567, -0.773501, -0.922927, -1.45887, -0.627809, 1.07157, -0.256721, 0.0606433, 0.00975419, -0.112895, -0.0380133, -0.000438868, 0.00685055, 0.00112261, 1.22962, 15.9735, 18.1098, 14.9799, 1.15375, 3.34598, -0.0420422, -0.000938029, -0.00111605, -0.000656296, -0.00317798, -0.0115045, 0.00485817, 0.0247266, 0.000132814, 0.0183077, 0.0250896, 0.122331, 0.215666, -0.00950303, -0.445826, 0.6318, -3.12458, -0.059721, -0.118976, -0.0105306, -0.444757, 0.632397, -3.12855, -0.0525712, -0.101143, 0.0318, -0.0203457, -0.060947, 0.00577114, -0.0214289, -0.0445787
0.158067, 0.110625, -0.773488, -0.923041, -1.45891, -0.627804, 1.07159, -0.256724, 0.0605235, 0.00875536, -0.115839, -0.0369054, 0.000339361, 0.00523595, -0.00118437, 1.26533, 16.0489, 18.1098, 14.9442, 1.13544, 3.34598, 0.0101428, -0.000962118, -0.00111588, -0.000675887, -0.00321461, -0.0116799, 0.00491235, 0.026623, 0.000110526, 0.01836, 0.0232392, 0.12195, 0.217917, -0.00947103, -0.445847, 0.631738, -3.12445, -0.0597996, -0.119192, -0.0105242, -0.444779, 0.632353, -3.12847, -0.0525666, -0.101088, 0.0322025, -0.0205621, -0.0616356, 0.00427886, -0.0217434, -0.0453641
0.159067, 0.110688, -0.773469, -0.923158, -1.45895, -0.627808, 1.0716, -0.256716, 0.0590381, 0.0130569, -0.115973, -0.0395132, -0.0004866, 0.00794317, 0.00138056, 1.22962, 16.0489, 18.1455, 14.9084, 1.15375, 3.36062, -0.0484509, -0.000984483, -0.00111458, -0.000694108, -0.00325229, -0.0118728, 0.004977, 0.025704, 4.42238e-05, 0.0186841, 0.0260884, 0.128174, 0.217211, -0.00943863, -0.445867, 0.631676, -3.12431, -0.059879, -0.119411, -0.0105155, -0.444802, 0.632307, -3.12838, -0.0525468, -0.101008, 0.032607, -0.0207789, -0.062326, 0.0055747, -0.0220006, -0.045666
0.160067, 0.110743, -0.773453, -0.923282, -1.45899, -0.627805, 1.07161, -0.256721, 0.0614915, 0.0155026, -0.120123, -0.0423349, -0.000113045, 0.00553753, -0.000775049, 1.305, 16.0846, 18.2209, 14.9084, 1.14734, 3.37436, -0.00267457, -0.0010117, -0.00111386, -0.000709722, -0.00327912, -0.0120638, 0.00503767, 0.0251745, 0.000133498, 0.0171642, 0.0208309, 0.134577, 0.222756, -0.00940582, -0.445888, 0.631614, -3.12417, -0.0599593, -0.119633, -0.0105112, -0.444825, 0.632258, -3.12828, -0.0525345, -0.100932, 0.0330136, -0.0209959, -0.0630183, 0.00661883, -0.0220878, -0.0478358
0.161067, 0.110799, -0.773438, -0.923403, -1.45904, -0.627807, 1.07162, -0.256719, 0.0579363, 0.0172288, -0.121402, -0.0447592, 0.000142493, 0.0141967, 0.000229286, 1.34071, 16.1203, 18.2209, 14.9084, 1.14093, 3.36062, -0.0228162, -0.00103855, -0.00111327, -0.000726438, -0.00331208, -0.0122584, 0.00510344, 0.0255201, -0.001123, 0.0177193, 0.0276592, 0.134338, 0.221159, -0.0093726, -0.445909, 0.63155, -3.12403, -0.0600404, -0.119857, -0.0105061, -0.444848, 0.632209, -3.12819, -0.0525151, -0.100854, 0.0334222, -0.0212132, -0.0637123, 0.00668758, -0.023586, -0.0480235
0.162067, 0.110857, -0.773418, -0.923523, -1.45908, -0.627802, 1.07163, -0.256716, 0.0594091, 0.0184807, -0.119807, -0.0445583, 0.000961987, 0.0143377, 0.00110229, 1.34071, 16.16, 18.2606, 14.8331, 1.11713, 3.38168, -0.0484509, -0.00106303, -0.00111444, -0.000745286, -0.00334329, -0.012454, 0.0051669, 0.0241822, -0.000521711, 0.0189597, 0.0298075, 0.135706, 0.225786, -0.00933897, -0.445931, 0.631486, -3.12389, -0.0601225, -0.120083, -0.0104985, -0.44487, 0.632162, -3.12809, -0.0525002, -0.100776, 0.0338328, -0.0214307, -0.0644081, 0.00831069, -0.0231759, -0.0473759
0.163067, 0.110912, -0.773398, -0.923648, -1.45913, -0.627805, 1.07164, -0.256719, 0.0586966, 0.0203235, -0.119485, -0.0470829, 0.000189545, 0.0105639, -0.000214574, 1.41608, 16.16, 18.332, 14.8688, 1.12903, 3.38901, -0.0228162, -0.00109039, -0.00111435, -0.000760529, -0.00337204, -0.0126646, 0.00523153, 0.02422, 0.000606566, 0.0187638, 0.027113, 0.142645, 0.230062, -0.00930493, -0.445952, 0.631421, -3.12375, -0.0602054, -0.120312, -0.0104931, -0.444893, 0.63211, -3.128, -0.0524848, -0.100678, 0.0342455, -0.0216484, -0.0651057, 0.00865423, -0.0222683, -0.0482604
0.164067, 0.110974, -0.773381, -0.923757, -1.45917, -0.627805, 1.07165, -0.256715, 0.0599385, 0.0168718, -0.119331, -0.0485028, 0.000355494, 0.0120076, 0.00107765, 1.41608, 16.2314, 18.2963, 14.7577, 1.12262, 3.40365, -0.0557752, -0.00111174, -0.0011165, -0.000783462, -0.00341683, -0.0128624, 0.00528686, 0.0245345, 0.00061994, 0.019057, 0.0285059, 0.140285, 0.233508, -0.00927048, -0.445974, 0.631356, -3.1236, -0.0602893, -0.120544, -0.0104819, -0.444914, 0.632066, -3.12791, -0.0524838, -0.100603, 0.0346601, -0.0218663, -0.0658049, 0.00873005, -0.0224934, -0.0486954
0.165067, 0.111031, -0.773364, -0.923882, -1.45923, -0.627802, 1.07166, -0.256714, 0.0599136, 0.0183187, -0.120345, -0.0492425, 0.000434276, 0.00859372, 0.00575781, 1.45576, 16.2671, 18.4073, 14.7577, 1.11713, 3.41739, -0.0621838, -0.00113836, -0.00111762, -0.000800693, -0.0034464, -0.0130668, 0.00535091, 0.0249861, 0.00138651, 0.0190291, 0.0258484, 0.144904, 0.230961, -0.00923561, -0.445996, 0.63129, -3.12346, -0.060374, -0.120777, -0.0104751, -0.444936, 0.632015, -3.12781, -0.052471, -0.100519, 0.0350768, -0.0220844, -0.0665058, 0.00866638, -0.0219662, -0.0494526
0.166067, 0.111089, -0.773348, -0.924001, -1.45928, -0.6278, 1.07167, -0.256717, 0.0576131, 0.0153682, -0.121357, -0.0504213, 0.000522248, 0.00600959, 0.00325536, 1.45576, 16.3425, 18.4073, 14.7934, 1.11072, 3.43204, -0.0356336, -0.00116226, -0.00111955, -0.000817893, -0.00347891, -0.0132761, 0.00540426, 0.0275943, 0.00199643, 0.01886, 0.0234436, 0.144988, 0.233599, -0.00920033, -0.446018, 0.631223, -3.12331, -0.0604596, -0.121014, -0.0104652, -0.444958, 0.631964, -3.12771, -0.0524757, -0.10043, 0.0354954, -0.0223027, -0.0672083, 0.0064731, -0.0216754, -0.0505217
0.167067, 0.111144, -0.77333, -0.924123, -1.45934, -0.627798, 1.07168, -0.256715, 0.0609293, 0.0172746, -0.124112, -0.0528357, 0.000819412, 0.00462362, 0.00321635, 1.49146, 16.3782, 18.4827, 14.7577, 1.0979, 3.43204, -0.0557752, -0.00118845, -0.0011215, -0.000835714, -0.00351174, -0.0134878, 0.00546857, 0.026397, 0.00210326, 0.0179104, 0.0201492, 0.150101, 0.238753, -0.00916462, -0.446041, 0.631155, -3.12316, -0.0605461, -0.121253, -0.0104572, -0.44498, 0.631912, -3.12761, -0.0524644, -0.10034, 0.0359161, -0.0225212, -0.0679124, 0.00815305, -0.0217295, -0.0520822
0.168067, 0.111199, -0.773314, -0.924245, -1.4594, -0.627798, 1.07169, -0.256712, 0.0574864, 0.0177296, -0.124192, -0.0545296, 0.000747122, 0.00731195, 0.00236933, 1.53114, 16.4536, 18.4827, 14.722, 1.09241, 3.45309, -0.0557752, -0.00121509, -0.00112377, -0.000853193, -0.00354441, -0.0137028, 0.00553362, 0.027549, 0.00205546, 0.0184709, 0.0230368, 0.151337, 0.239516, -0.00912849, -0.446063, 0.631087, -3.12301, -0.0606336, -0.121494, -0.0104492, -0.445001, 0.631859, -3.12751, -0.0524528, -0.100247, 0.0363387, -0.0227398, -0.068618, 0.00738399, -0.0220534, -0.0523238
0.169067, 0.111257, -0.773294, -0.924364, -1.45946, -0.627795, 1.0717, -0.256716, 0.0599257, 0.0167359, -0.123492, -0.0589781, 0.000292678, 0.0110245, 5.29534e-05, 1.49146, 16.4536, 18.443, 14.6823, 1.0979, 3.43204, -0.00999879, -0.00123809, -0.00112661, -0.000872933, -0.00358235, -0.0139197, 0.00558607, 0.0256829, 0.00189874, 0.0182414, 0.0253953, 0.152742, 0.249458, -0.00909194, -0.446086, 0.631018, -3.12286, -0.0607219, -0.121738, -0.0104374, -0.445023, 0.631808, -3.12741, -0.0524616, -0.100155, 0.0367632, -0.0229586, -0.0693252, 0.00968892, -0.0223576, -0.0531207
0.170067, 0.111319, -0.773277, -0.924488, -1.45953, -0.627793, 1.07171, -0.25671, 0.0593227, 0.0182095, -0.124862, -0.0610938, 0.000634464, 0.0166256, 0.0020947, 1.41608, 16.4893, 18.4827, 14.722, 1.086, 3.45309, -0.0621838, -0.00126075, -0.00112943, -0.000888516, -0.0036105, -0.0141429, 0.00564483, 0.0252164, 0.00108963, 0.0185047, 0.0294467, 0.153585, 0.249615, -0.00905497, -0.446109, 0.630949, -3.12271, -0.0608111, -0.121984, -0.0104245, -0.445044, 0.631752, -3.1273, -0.0524621, -0.100054, 0.0371897, -0.0231774, -0.0700339, 0.010589, -0.0233756, -0.0535463
0.171067, 0.111374, -0.773253, -0.924607, -1.45958, -0.627795, 1.07173, -0.256717, 0.0590454, 0.0217521, -0.123869, -0.0631385, 0.000659237, 0.0138652, -0.000949979, 1.45576, 16.4178, 18.443, 14.6466, 1.07959, 3.41739, 0.00373412, -0.00128573, -0.00113279, -0.000909765, -0.00365223, -0.0143721, 0.00570084, 0.0241798, 0.00225348, 0.0187902, 0.0280658, 0.160796, 0.256732, -0.00901756, -0.446132, 0.630878, -3.12255, -0.0609012, -0.122233, -0.010414, -0.445066, 0.631701, -3.1272, -0.0524672, -0.0999472, 0.0376182, -0.0233964, -0.0707441, 0.0119793, -0.0224011, -0.053878
0.172067, 0.111432, -0.773241, -0.924728, -1.45965, -0.627795, 1.07174, -0.256714, 0.0578109, 0.0177474, -0.124502, -0.0623797, 0.000642118, 0.0103377, 0.000421246, 1.41608, 16.4893, 18.3716, 14.6069, 1.0741, 3.41739, -0.0228162, -0.00131253, -0.00113601, -0.000929349, -0.0036902, -0.014592, 0.00576249, 0.0270379, 0.00292865, 0.019179, 0.0261005, 0.159127, 0.255841, -0.00897973, -0.446156, 0.630807, -3.12239, -0.0609922, -0.122484, -0.0104047, -0.445088, 0.631647, -3.1271, -0.0524646, -0.0998573, 0.0380486, -0.0236155, -0.0714557, 0.00950263, -0.0220663, -0.0544208
0.173067, 0.111497, -0.773224, -0.924857, -1.45972, -0.627792, 1.07175, -0.25671, 0.0593526, 0.0165586, -0.125763, -0.0661447, 0.000427461, 0.0125303, 0.00155495, 1.26533, 16.4893, 18.4073, 14.6069, 1.0741, 3.41006, -0.0557752, -0.00133645, -0.00113853, -0.000945271, -0.00371828, -0.01482, 0.00582078, 0.0265292, 0.00267963, 0.0185049, 0.0262346, 0.160554, 0.259716, -0.00894147, -0.44618, 0.630735, -3.12224, -0.0610841, -0.122738, -0.0103918, -0.44511, 0.631589, -3.12699, -0.0524688, -0.0997567, 0.0384809, -0.0238347, -0.0721687, 0.0105013, -0.022507, -0.0557739
0.174067, 0.111543, -0.773213, -0.924989, -1.45978, -0.627791, 1.07176, -0.256718, 0.0539892, 0.0139153, -0.125538, -0.0679905, 0.000521869, 0.0186285, -0.00160207, 1.38038, 16.5646, 18.4073, 14.5712, 1.06769, 3.41006, 0.0165515, -0.00137263, -0.00114119, -0.000962769, -0.00374844, -0.0150433, 0.00589088, 0.0289514, 0.00208617, 0.0193659, 0.0319957, 0.156942, 0.261344, -0.00890277, -0.446204, 0.630663, -3.12208, -0.061177, -0.122995, -0.0103909, -0.445134, 0.631531, -3.12688, -0.0524554, -0.099666, 0.0389151, -0.0240539, -0.0728831, 0.00847605, -0.0234321, -0.0558345
0.175067, 0.111606, -0.773194, -0.92512, -1.45985, -0.627789, 1.07177, -0.25671, 0.0557455, 0.0154968, -0.128838, -0.0672984, 0.000584924, 0.0199502, 0.00164076, 1.26533, 16.4893, 18.4073, 14.5712, 1.06128, 3.37436, -0.0557752, -0.00139822, -0.00114344, -0.000979989, -0.0037812, -0.0152779, 0.00595941, 0.0291302, 0.0014215, 0.0195107, 0.0326611, 0.15855, 0.259605, -0.00886363, -0.446228, 0.630589, -3.12192, -0.0612707, -0.123253, -0.0103789, -0.445157, 0.631473, -3.12677, -0.0524455, -0.0995603, 0.0393512, -0.0242732, -0.0735988, 0.00874629, -0.0243296, -0.0564351
0.176067, 0.11167, -0.773189, -0.925251, -1.45992, -0.62779, 1.07178, -0.256711, 0.0590364, 0.0131184, -0.125931, -0.066219, 0.00015233, 0.019669, 0.000845111, 1.18995, 16.5646, 18.332, 14.5712, 1.06769, 3.36703, -0.0484509, -0.00142763, -0.00114701, -0.000996366, -0.0038085, -0.0155072, 0.00601662, 0.0281449, 0.00203248, 0.0211833, 0.0359312, 0.156906, 0.26777, -0.00882406, -0.446252, 0.630515, -3.12175, -0.0613653, -0.123515, -0.0103702, -0.445179, 0.631413, -3.12665, -0.0524542, -0.0994654, 0.0397893, -0.0244926, -0.0743159, 0.010007, -0.0239358, -0.0554027
0.177067, 0.11167, -0.773189, -0.925251, -1.45992, -0.62779, 1.07178, -0.256711, 0.0590364, 0.0131184, -0.125931, -0.066219, 0.00015233, 0.019669, 0.000845111, 1.18995, 16.5646, 18.332, 14.5712, 1.06769, 3.36703, -0.0484509, -0.00146035, -0.00117457, -0.00107357, -0.00395909, -0.0156822, 0.00607608, 0.0285137, 0.00228512, 0.0219345, 0.0371877, 0.157929, 0.270389, -0.00878406, -0.446277, 0.630441, -3.12159, -0.0614609, -0.123779, -0.0103702, -0.445179, 0.631413, -3.12665, -0.0524542, -0.0994654, 0.0402292, -0.0247119, -0.0750342, 0.010007, -0.0239358, -0.0554027
0.178067, 0.111782, -0.773168, -0.925517, -1.46007, -0.627788, 1.07181, -0.256711, 0.0547807, 0.0128154, -0.131509, -0.0689297, -0.000249053, 0.0156182, 0.000320428, 1.18995, 16.5646, 18.4073, 14.4958, 1.0741, 3.324, -0.0356336, -0.00149118, -0.00115266, -0.001031, -0.00387282, -0.0159719, 0.00615137, 0.0326432, 0.00244973, 0.0200718, 0.0302972, 0.162964, 0.266173, -0.00874361, -0.446302, 0.630365, -3.12142, -0.0615574, -0.124045, -0.0103565, -0.445227, 0.631292, -3.12642, -0.0524428, -0.0992739, 0.040671, -0.0249313, -0.0757538, 0.00647266, -0.0241208, -0.0583103
0.179067, 0.111842, -0.773164, -0.925647, -1.46015, -0.62779, 1.07182, -0.256714, 0.0604649, 0.00886528, -0.131398, -0.0739012, -0.000166145, 0.0167149, -0.0014723, 1.15424, 16.6003, 18.332, 14.4958, 1.0741, 3.31027, 0.0101428, -0.0015211, -0.0011563, -0.00104709, -0.00390534, -0.0162095, 0.00620767, 0.0305053, 0.00259477, 0.0190781, 0.0290235, 0.162767, 0.278955, -0.00870271, -0.446327, 0.630289, -3.12126, -0.0616548, -0.124315, -0.0103471, -0.44525, 0.63123, -3.1263, -0.0524558, -0.0991741, 0.0411146, -0.0251507, -0.0764746, 0.00911547, -0.0240989, -0.0598545
0.180067, 0.1119, -0.773152, -0.925779, -1.46023, -0.627792, 1.07183, -0.256715, 0.0587072, 0.00854111, -0.132776, -0.0734666, -0.000551656, 0.0165637, -0.000499682, 1.11457, 16.525, 18.332, 14.4601, 1.086, 3.31759, -0.00267457, -0.00155139, -0.00116006, -0.00106422, -0.00393847, -0.0164552, 0.00627117, 0.0323887, 0.0025917, 0.019618, 0.0297965, 0.163608, 0.277393, -0.00866138, -0.446352, 0.630212, -3.12109, -0.0617531, -0.124586, -0.0103377, -0.445273, 0.631167, -3.12619, -0.0524587, -0.0990641, 0.0415602, -0.0253701, -0.0771966, 0.00763942, -0.0244095, -0.0601945
0.181067, 0.111959, -0.773149, -0.925915, -1.46032, -0.627793, 1.07185, -0.256709, 0.0595526, 0.00634484, -0.130926, -0.07709, -0.000605191, 0.0181071, 0.000892929, 1.11457, 16.525, 18.332, 14.4601, 1.09241, 3.2883, -0.0356336, -0.00158406, -0.00116282, -0.00107973, -0.00397071, -0.0166932, 0.00634098, 0.0315559, 0.00306913, 0.0197997, 0.0313517, 0.164022, 0.282738, -0.00861959, -0.446377, 0.630135, -3.12092, -0.0618523, -0.12486, -0.01033, -0.445298, 0.631103, -3.12607, -0.0524528, -0.0989686, 0.0420076, -0.0255895, -0.0779197, 0.00887951, -0.0241281, -0.060668
