alisrour97/Franka_experiments/Real_Robot_scripts/servo-franka/Data4/log_dyn_PIw_ki_13.csv
Time,q1,q2,q3,q4,q5,q6,q7,dq1,dq2,dq3,dq4,dq5,dq6,dq7,t1,t2,t3,t4,t5,t6,t7,ex1,ex2,ex3,ex4,ex5,ex6,ev1,ev2,ev3,ev4,ev5,ev6,xd,yd,zd,uxd,uyd,uzd,x,y,z,ux,uy,uz,vxd,vyd,vzd,vx,vy,vz
9.76563e-07, 0.107568, -0.774189, -0.916022, -1.4562, -0.625289, 1.07015, -0.25673, -0.00453647, 0.00309887, 0.00505206, 0.0026188, -0.00387513, -0.000167404, -0.00105749, 0.0949785, 16.0846, 18.7803, 15.3568, 1.11072, 3.36703, -0.193104, 0.000873194, -0.00170079, -4.74252e-05, -0.000194442, 2.59296e-05, 0.000193046, 0.000755544, 0.000591365, 0.00247262, 0.0068339, 0.00414493, -0.00282947, -0.011112, -0.444721, 0.635038, -3.13187, -0.0555627, -0.107532, -0.0102978, -0.44299, 0.635156, -3.13205, -0.0556937, -0.107585, 0, 0, 0, -0.000943606, 0.000543141, 0.00241847
0.0135237, 0.107555, -0.774222, -0.916035, -1.4562, -0.625287, 1.07015, -0.256728, 0.00497264, -0.00139029, -0.00182415, -0.000889758, -0.000131496, -0.000225905, 0.000711726, 0.134651, 16.2671, 18.9271, 15.3568, 1.10431, 3.38901, -0.199513, 0.000853928, -0.00169915, -4.14418e-05, -0.000178325, 5.47437e-05, 0.000215477, -0.00131856, -0.000431609, -0.00100772, -0.00224719, -0.000473922, 0.0032698, -0.011112, -0.444721, 0.635038, -3.13187, -0.0555627, -0.107532, -0.0103241, -0.442993, 0.635148, -3.13203, -0.0556442, -0.107627, 1.73063e-06, -1.42215e-06, -3.96181e-06, 0.00140072, -0.000377703, -0.00092136
0.0145237, 0.107555, -0.774222, -0.916035, -1.4562, -0.625287, 1.07015, -0.256728, 0.00497264, -0.00139029, -0.00182415, -0.000889758, -0.000131496, -0.000225905, 0.000711726, 0.134651, 16.2671, 18.9271, 15.3568, 1.10431, 3.38901, -0.199513, 0.000853925, -0.00169916, -4.14512e-05, -0.000178345, 5.47221e-05, 0.000215484, -0.00131435, -0.000427101, -0.000995576, -0.00222303, -0.000457398, 0.00331332, -0.011112, -0.444721, 0.635038, -3.13187, -0.0555628, -0.107532, -0.0103241, -0.442993, 0.635148, -3.13203, -0.0556442, -0.107627, 6.91577e-06, -5.6745e-06, -1.58141e-05, 0.00140072, -0.000377703, -0.00092136
0.0155237, 0.107555, -0.774222, -0.916035, -1.4562, -0.625287, 1.07015, -0.256728, 0.00497264, -0.00139029, -0.00182415, -0.000889758, -0.000131496, -0.000225905, 0.000711726, 0.134651, 16.2671, 18.9271, 15.3568, 1.10431, 3.38901, -0.199513, 0.000853916, -0.00169917, -4.14767e-05, -0.000178399, 5.46636e-05, 0.000215504, -0.00130735, -0.000419615, -0.0009754, -0.0021829, -0.000429945, 0.00338564, -0.011112, -0.444721, 0.635038, -3.13187, -0.0555628, -0.107532, -0.0103241, -0.442993, 0.635148, -3.13203, -0.0556442, -0.107627, 1.55453e-05, -1.2736e-05, -3.55071e-05, 0.00140072, -0.000377703, -0.00092136
0.0165237, 0.107555, -0.774222, -0.916035, -1.4562, -0.625287, 1.07015, -0.256728, 0.00497264, -0.00139029, -0.00182415, -0.000889758, -0.000131496, -0.000225905, 0.000711726, 0.134651, 16.2671, 18.9271, 15.3568, 1.10431, 3.38901, -0.199513, 0.000853899, -0.00169918, -4.15262e-05, -0.000178505, 5.45499e-05, 0.000215542, -0.00129756, -0.000409172, -0.00094724, -0.00212693, -0.000391634, 0.00348657, -0.011112, -0.444721, 0.635038, -3.13187, -0.0555628, -0.107532, -0.0103241, -0.442993, 0.635148, -3.13203, -0.0556442, -0.107627, 2.7609e-05, -2.25855e-05, -6.29913e-05, 0.00140072, -0.000377703, -0.00092136
0.0175237, 0.107555, -0.774222, -0.916035, -1.4562, -0.625287, 1.07015, -0.256728, 0.00497264, -0.00139029, -0.00182415, -0.000889758, -0.000131496, -0.000225905, 0.000711726, 0.134651, 16.2671, 18.9271, 15.3568, 1.10431, 3.38901, -0.199513, 0.000853871, -0.00169921, -4.16077e-05, -0.000178679, 5.43629e-05, 0.000215605, -0.00128498, -0.000395794, -0.000911147, -0.00205523, -0.000342535, 0.00361592, -0.0111119, -0.444721, 0.635038, -3.13187, -0.0555629, -0.107532, -0.0103241, -0.442993, 0.635148, -3.13203, -0.0556442, -0.107627, 4.30968e-05, -3.5202e-05, -9.82172e-05, 0.00140072, -0.000377703, -0.00092136
0.0185237, 0.107555, -0.774222, -0.916035, -1.4562, -0.625287, 1.07015, -0.256728, 0.00497264, -0.00139029, -0.00182415, -0.000889758, -0.000131496, -0.000225905, 0.000711726, 0.134651, 16.2671, 18.9271, 15.3568, 1.10431, 3.38901, -0.199513, 0.000853828, -0.00169926, -4.1729e-05, -0.000178937, 5.40845e-05, 0.000215698, -0.00126962, -0.000379503, -0.00086717, -0.00196793, -0.000282719, 0.00377353, -0.0111119, -0.444721, 0.635038, -3.13187, -0.0555631, -0.107533, -0.0103241, -0.442993, 0.635148, -3.13203, -0.0556442, -0.107627, 6.19987e-05, -5.05647e-05, -0.000141136, 0.00140072, -0.000377703, -0.00092136
0.0195237, 0.107555, -0.774222, -0.916035, -1.4562, -0.625287, 1.07015, -0.256728, 0.00497264, -0.00139029, -0.00182415, -0.000889758, -0.000131496, -0.000225905, 0.000711726, 0.134651, 16.2671, 18.9271, 15.3568, 1.10431, 3.38901, -0.199513, 0.00085377, -0.00169932, -4.18979e-05, -0.000179297, 5.36968e-05, 0.000215827, -0.00125149, -0.00036032, -0.000815358, -0.00186513, -0.000212257, 0.00395919, -0.0111118, -0.444721, 0.635037, -3.13187, -0.0555633, -0.107533, -0.0103241, -0.442993, 0.635148, -3.13203, -0.0556442, -0.107627, 8.43044e-05, -6.86525e-05, -0.000191697, 0.00140072, -0.000377703, -0.00092136
0.0205237, 0.107555, -0.774222, -0.916035, -1.4562, -0.625287, 1.07015, -0.256728, 0.00497264, -0.00139029, -0.00182415, -0.000889758, -0.000131496, -0.000225905, 0.000711726, 0.134651, 16.2671, 18.9271, 15.3568, 1.10431, 3.38901, -0.199513, 0.000853691, -0.00169941, -4.21222e-05, -0.000179775, 5.3182e-05, 0.000216, -0.0012306, -0.000338266, -0.000755761, -0.00174695, -0.000131218, 0.00417274, -0.0111117, -0.444721, 0.635037, -3.13187, -0.0555636, -0.107534, -0.0103241, -0.442993, 0.635148, -3.13203, -0.0556442, -0.107627, 0.000110004, -8.94448e-05, -0.000249853, 0.00140072, -0.000377703, -0.00092136
0.0215239, 0.107555, -0.774222, -0.916035, -1.4562, -0.625287, 1.07015, -0.256728, 0.00497264, -0.00139029, -0.00182415, -0.000889758, -0.000131496, -0.000225905, 0.000711726, 0.134651, 16.2671, 18.9271, 15.3568, 1.10431, 3.38901, -0.199513, 0.000853591, -0.00169951, -4.24096e-05, -0.000180387, 5.25224e-05, 0.00021622, -0.00120694, -0.000313364, -0.000688429, -0.00161351, -3.96722e-05, 0.00441399, -0.0111116, -0.444721, 0.635037, -3.13187, -0.055564, -0.107535, -0.0103241, -0.442993, 0.635148, -3.13203, -0.0556442, -0.107627, 0.000139087, -0.000112921, -0.000315553, 0.00140072, -0.000377703, -0.00092136
0.0225242, 0.107555, -0.774222, -0.916035, -1.4562, -0.625287, 1.07015, -0.256728, 0.00497264, -0.00139029, -0.00182415, -0.000889758, -0.000131496, -0.000225905, 0.000711726, 0.134651, 16.2671, 18.9271, 15.3568, 1.10431, 3.38901, -0.199513, 0.000853465, -0.00169965, -4.27679e-05, -0.00018115, 5.17003e-05, 0.000216495, -0.00118053, -0.000285634, -0.000613411, -0.00146493, 6.23101e-05, 0.00468276, -0.0111114, -0.444721, 0.635037, -3.13186, -0.0555644, -0.107536, -0.0103241, -0.442993, 0.635148, -3.13203, -0.0556442, -0.107627, 0.000171544, -0.000139059, -0.00038875, 0.00140072, -0.000377703, -0.00092136
0.0235244, 0.107555, -0.774222, -0.916035, -1.4562, -0.625287, 1.07015, -0.256728, 0.00497264, -0.00139029, -0.00182415, -0.000889758, -0.000131496, -0.000225905, 0.000711726, 0.134651, 16.2671, 18.9271, 15.3568, 1.10431, 3.38901, -0.199513, 0.000853312, -0.00169981, -4.32045e-05, -0.00018208, 5.06983e-05, 0.00021683, -0.00115136, -0.000255097, -0.000530756, -0.00130132, 0.000174659, 0.00497888, -0.0111112, -0.444721, 0.635036, -3.13186, -0.055565, -0.107538, -0.0103241, -0.442993, 0.635148, -3.13203, -0.0556442, -0.107627, 0.000207364, -0.00016784, -0.000469394, 0.00140072, -0.000377703, -0.00092136
0.0245244, 0.107555, -0.774222, -0.916035, -1.4562, -0.625287, 1.07015, -0.256728, 0.00497264, -0.00139029, -0.00182415, -0.000889758, -0.000131496, -0.000225905, 0.000711726, 0.134651, 16.2671, 18.9271, 15.3568, 1.10431, 3.38901, -0.199513, 0.000853128, -0.0017, -4.37271e-05, -0.000183192, 4.94991e-05, 0.000217232, -0.00111946, -0.000221776, -0.000440513, -0.0011228, 0.000297307, 0.00530216, -0.011111, -0.444722, 0.635036, -3.13186, -0.0555656, -0.10754, -0.0103241, -0.442993, 0.635148, -3.13203, -0.0556442, -0.107627, 0.000246538, -0.000199242, -0.000557437, 0.00140072, -0.000377703, -0.00092136
0.0255244, 0.107535, -0.774229, -0.916076, -1.4562, -0.62531, 1.07015, -0.256723, -0.00011356, -0.00120189, -0.00412165, 9.85793e-05, -0.00411341, 0.000200379, 0.00144094, 0.245735, 16.1203, 19.3, 15.3925, 1.23981, 3.38168, -0.21233, 0.000824798, -0.00168984, -3.21433e-05, -0.000167914, 3.47467e-05, 0.000283318, 0.0027811, -0.00108812, -0.000496955, 0.000629752, 0.00285007, -0.00431962, -0.0111107, -0.444722, 0.635035, -3.13186, -0.0555664, -0.107542, -0.0103509, -0.443004, 0.635134, -3.13202, -0.0555428, -0.107604, 0.000289055, -0.000233245, -0.00065283, -0.00241091, -0.00141421, -0.00134639
0.0265244, 0.107534, -0.774234, -0.916079, -1.4562, -0.625309, 1.07014, -0.256733, -0.000993189, -0.00177966, -0.00587198, 8.4647e-05, -0.00232897, -0.00040896, -0.00144687, 0.285408, 16.16, 19.3, 15.3925, 1.2215, 3.39633, -0.147328, 0.000821661, -0.00168998, -3.18966e-05, -0.000165804, 3.79093e-05, 0.000277228, 0.00365742, -0.00106275, -0.000942394, -0.0015985, 0.00145667, -0.00240067, -0.0111104, -0.444722, 0.635034, -3.13186, -0.0555673, -0.107544, -0.0103537, -0.443005, 0.635133, -3.13201, -0.0555533, -0.107612, 0.000334905, -0.000269828, -0.000755525, -0.00320918, -0.00145243, -0.00195352
0.0275244, 0.107535, -0.774236, -0.916076, -1.4562, -0.625311, 1.07015, -0.256726, 0.000273798, -0.00339574, -0.0047878, -0.00215201, -0.00107312, 0.000812421, 0.00049348, 0.245735, 16.1203, 19.1889, 15.3568, 1.20318, 3.36703, -0.186696, 0.000822064, -0.00168995, -3.37871e-05, -0.00017278, 3.90395e-05, 0.000282411, 0.00244156, -0.000819393, -0.00119344, -0.00162859, -0.000154304, -9.45922e-05, -0.0111101, -0.444722, 0.635033, -3.13186, -0.0555684, -0.107547, -0.0103531, -0.443005, 0.635134, -3.13202, -0.055546, -0.107617, 0.000384079, -0.000308971, -0.000865474, -0.00193927, -0.00120344, -0.00222888
0.0285244, 0.10754, -0.774231, -0.916084, -1.45621, -0.625311, 1.07015, -0.256734, 0.0019517, -0.00139454, -0.00911315, -0.0021618, -0.0038034, 0.000541607, -0.00258714, 0.170357, 15.9378, 19.1532, 15.2417, 1.16565, 3.36703, -0.10796, 0.000822967, -0.00168883, -3.22391e-05, -0.000169312, 3.08852e-05, 0.000275935, 0.00308605, -0.00187593, -0.00230792, -0.0031905, 0.00442516, 0.000488414, -0.0111097, -0.444723, 0.635033, -3.13186, -0.0555696, -0.10755, -0.0103516, -0.443006, 0.635132, -3.13201, -0.0555574, -0.107607, 0.000436566, -0.000350653, -0.000982628, -0.00241536, -0.00231405, -0.00350867
0.0295244, 0.107537, -0.774232, -0.91609, -1.45621, -0.625309, 1.07015, -0.256727, 0.00130558, -0.00114212, -0.00841132, -0.00423035, -0.000973602, 0.000598426, -0.000504055, 0.170357, 15.791, 19.0778, 15.206, 1.11072, 3.36062, -0.140919, 0.000820082, -0.00168818, -3.0663e-05, -0.000165782, 2.87373e-05, 0.00028915, 0.00212382, -0.00122892, -0.00257761, -0.00478072, 0.00398906, 0.00117193, -0.0111092, -0.444723, 0.635032, -3.13185, -0.0555709, -0.107554, -0.0103539, -0.443007, 0.635129, -3.13201, -0.0555383, -0.107607, 0.000492356, -0.000394854, -0.00110694, -0.00140483, -0.00167548, -0.00383193
0.0305244, 0.107542, -0.774242, -0.916096, -1.45621, -0.625313, 1.07015, -0.256729, 0.00263696, -0.00762681, -0.0119505, -0.0034207, -0.00478165, 0.000398947, -0.00254008, 0.0949785, 15.791, 19.0421, 15.206, 1.0979, 3.36062, -0.0814099, 0.000817329, -0.00168717, -2.79083e-05, -0.000161724, 2.94296e-05, 0.000286147, 0.00563268, -0.00249268, -0.00350002, -0.00539855, 0.000332904, 8.72251e-05, -0.0111087, -0.444723, 0.63503, -3.13185, -0.0555724, -0.107558, -0.0103559, -0.443009, 0.635125, -3.132, -0.0555446, -0.107612, 0.000551439, -0.000441554, -0.00123836, -0.00473589, -0.00310061, -0.0051325
0.0315244, 0.107536, -0.774244, -0.916103, -1.45621, -0.625317, 1.07015, -0.256724, -2.76585e-06, -0.0034716, -0.00919689, -0.000967573, -0.00268898, 0.00878853, -0.000710045, 0.170357, 15.6799, 19.0421, 15.1306, 1.06769, 3.38168, -0.10796, 0.000810046, -0.00168552, -2.84168e-05, -0.000164858, 2.71382e-05, 0.000306362, 0.00390819, -0.00318301, -0.000854991, 0.00483195, -0.00288667, -0.00203042, -0.0111081, -0.444724, 0.635029, -3.13185, -0.0555741, -0.107563, -0.0103626, -0.443011, 0.635123, -3.132, -0.0555148, -0.107613, 0.000613805, -0.000490732, -0.00137684, -0.00311059, -0.00380178, -0.00251804
0.0325244, 0.107539, -0.774257, -0.916107, -1.45621, -0.625324, 1.07015, -0.256722, 0.00083525, -0.00789819, -0.0092849, -0.00274605, -0.00269861, 0.00663422, 0.000238713, 0.134651, 15.7513, 19.0024, 15.206, 1.07959, 3.38168, -0.127186, 0.000805069, -0.00168422, -2.71837e-05, -0.00016637, 2.8629e-05, 0.000312029, 0.00482914, -0.00276412, -0.00165133, 0.00184221, -0.00483774, -0.000762387, -0.0111074, -0.444724, 0.635028, -3.13184, -0.055576, -0.107568, -0.0103667, -0.443013, 0.63512, -3.132, -0.0555078, -0.107621, 0.000679445, -0.000542368, -0.00152234, -0.00392358, -0.00346034, -0.00351869
0.0335244, 0.107536, -0.774261, -0.916107, -1.45622, -0.625332, 1.07015, -0.256727, -0.000276978, -0.00524911, -0.00630979, -0.00384726, -0.0028261, 0.00500422, -0.00177364, 0.170357, 15.7156, 18.9667, 15.2814, 1.0979, 3.38168, -0.0750012, 0.000801359, -0.00168413, -2.80358e-05, -0.000171886, 2.21415e-05, 0.000312013, 0.00358205, -0.00169249, -0.000996255, 0.00237493, -0.000490643, 0.00346683, -0.0111067, -0.444725, 0.635026, -3.13184, -0.055578, -0.107574, -0.0103698, -0.443014, 0.635119, -3.132, -0.0555097, -0.107616, 0.000748347, -0.000596442, -0.0016748, -0.0026944, -0.00240526, -0.00292533
0.0345244, 0.107539, -0.774263, -0.916107, -1.45622, -0.625339, 1.07015, -0.256722, 0.000651621, -0.00327834, -0.00492284, -0.00124051, -0.00285779, 0.00350093, 0.000750355, 0.134651, 15.6799, 18.9667, 15.3568, 1.11713, 3.38901, -0.127186, 0.000800354, -0.00168342, -2.90205e-05, -0.000178927, 1.43715e-05, 0.000319554, 0.00289284, -0.00123654, 0.000268895, 0.00384307, 0.000722297, 0.0021545, -0.0111059, -0.444726, 0.635024, -3.13184, -0.0555803, -0.10758, -0.0103701, -0.443015, 0.635119, -3.132, -0.0555, -0.107611, 0.000820503, -0.000652933, -0.00183418, -0.00203797, -0.00199277, -0.0017724
0.0355244, 0.107541, -0.774274, -0.916113, -1.45622, -0.625347, 1.07015, -0.256731, 0.00136323, -0.00431661, -0.00558236, -0.00236681, -0.00210143, 0.00371215, -0.00143254, 0.0949785, 15.7513, 19.0421, 15.4282, 1.11713, 3.36062, -0.0750012, 0.000794768, -0.00168177, -2.84318e-05, -0.000181953, 1.34999e-05, 0.000316394, 0.00276391, -0.0012254, -0.000132921, 0.0028466, 7.30713e-06, 0.00609813, -0.0111051, -0.444726, 0.635022, -3.13183, -0.0555828, -0.107587, -0.0103747, -0.443018, 0.635116, -3.132, -0.0555073, -0.107616, 0.000895902, -0.000711822, -0.00200043, -0.00180691, -0.00203253, -0.0023306
0.0365244, 0.107547, -0.774278, -0.916113, -1.45622, -0.625353, 1.07015, -0.256724, 0.00267265, -0.0032232, -0.00495971, -0.000644676, -0.00154813, -0.00690757, 0.00172374, 0.0196001, 15.7513, 19.0778, 15.3925, 1.11713, 3.36703, -0.147328, 0.000792932, -0.0016816, -3.10796e-05, -0.000188876, 9.76111e-06, 0.000324691, 0.00309325, 0.00083626, -0.00018737, -0.00486714, 0.0051317, 0.00473731, -0.0111041, -0.444727, 0.63502, -3.13183, -0.0555855, -0.107594, -0.0103757, -0.443019, 0.635116, -3.13201, -0.0554968, -0.107618, 0.000974534, -0.000773089, -0.00217351, -0.00212651, -4.46069e-05, -0.00256787
0.0375244, 0.107549, -0.774281, -0.91611, -1.45623, -0.625362, 1.07015, -0.256731, 0.00178221, -0.0024079, -0.00277345, -0.00295476, -0.000430389, -0.00547487, -0.00224168, 0.0196001, 15.7513, 19.0421, 15.5035, 1.0979, 3.37436, -0.0557752, 0.000792618, -0.00168252, -3.17407e-05, -0.000194523, -4.44918e-06, 0.000315258, 0.00175094, 0.00137975, 9.80788e-05, -0.00351876, 0.00602557, 0.0118613, -0.0111031, -0.444728, 0.635018, -3.13182, -0.0555884, -0.107602, -0.0103751, -0.443019, 0.635115, -3.13201, -0.0555142, -0.107604, 0.00105639, -0.000836713, -0.00235336, -0.000745298, 0.000479665, -0.00236732
0.0385244, 0.10755, -0.77429, -0.916107, -1.45623, -0.625372, 1.07015, -0.256723, 0.00118847, -0.00356283, -0.00114759, -0.00284275, -0.000369712, -0.00464137, 0.000913041, 0.0196001, 15.8267, 19.0024, 15.5432, 1.0979, 3.38901, -0.120778, 0.000789109, -0.00168255, -3.40723e-05, -0.000205397, -1.02624e-05, 0.000325875, 0.00183482, 0.00160372, 0.000835022, -0.00137922, 0.00451542, 0.0100102, -0.011102, -0.444729, 0.635016, -3.13182, -0.0555915, -0.107611, -0.0103777, -0.44302, 0.635114, -3.13201, -0.0555005, -0.107605, 0.00114146, -0.000902674, -0.00253994, -0.000802328, 0.0006282, -0.00182309
0.0395244, 0.10755, -0.774291, -0.916107, -1.45622, -0.625378, 1.07015, -0.256728, 0.000792566, -0.00252096, -0.000935043, -9.05914e-05, 0.00104777, -0.00397347, -0.00132409, 0.0196001, 15.8267, 19.0024, 15.4678, 1.06128, 3.40365, -0.0685925, 0.000785647, -0.00168265, -3.83075e-05, -0.000216041, -1.65194e-05, 0.000327652, 0.00191995, 0.00162097, 0.002042, 0.000735797, 0.00260783, 0.0119899, -0.0111008, -0.44473, 0.635013, -3.13181, -0.0555949, -0.10762, -0.0103803, -0.443021, 0.635116, -3.13202, -0.0555008, -0.107605, 0.00122973, -0.000970953, -0.00273321, -0.000882217, 0.000563707, -0.000818006
0.0405244, 0.107547, -0.774291, -0.916107, -1.45623, -0.625386, 1.07015, -0.256723, -0.000399455, -0.00178994, 8.43685e-05, -0.000864611, -0.00293639, -0.00313886, -0.000170647, 0.059273, 15.8267, 18.9667, 15.5035, 1.04297, 3.41006, -0.0878186, 0.000782843, -0.00168333, -3.99525e-05, -0.000223072, -3.1685e-05, 0.000339016, 0.00250163, 0.0013818, 0.00243782, 0.00398232, 0.00666233, 0.00964129, -0.0110996, -0.444731, 0.63501, -3.1318, -0.0555986, -0.10763, -0.0103819, -0.443021, 0.635114, -3.13202, -0.0554866, -0.107591, 0.00132119, -0.00104153, -0.00293311, -0.00138929, 0.000230204, -0.000664526
0.0415244, 0.107552, -0.774286, -0.916105, -1.45623, -0.625393, 1.07015, -0.256726, 0.00149708, 0.000487962, 0.00088865, -0.000553157, -0.00166989, -0.0028245, -0.00157183, -0.0161054, 15.7513, 18.9271, 15.5035, 1.02466, 3.42471, -0.0484509, 0.000784822, -0.0016843, -4.33282e-05, -0.000232617, -5.08015e-05, 0.000334503, 0.000573188, 0.00168415, 0.00302776, 0.00483624, 0.00787555, 0.0147504, -0.0110982, -0.444732, 0.635007, -3.1318, -0.0556025, -0.107641, -0.0103788, -0.443021, 0.635115, -3.13202, -0.0554972, -0.107573, 0.00141584, -0.00111438, -0.0031396, 0.000576809, 0.000522239, -0.00014799
0.0425244, 0.107552, -0.774287, -0.916108, -1.45623, -0.625403, 1.07015, -0.256721, 0.000998156, 0.00555685, -0.000407298, -0.00127935, -0.00140611, -0.00175377, 0.000410178, -0.0161054, 15.791, 18.9667, 15.5432, 1.02466, 3.41739, -0.0878186, 0.000781283, -0.00168386, -4.49096e-05, -0.000240902, -6.66103e-05, 0.000347128, -0.000570036, 0.00151823, 0.00295244, 0.00522864, 0.0130171, 0.0125596, -0.0110967, -0.444733, 0.635004, -3.13179, -0.0556067, -0.107652, -0.010381, -0.443023, 0.635113, -3.13202, -0.0554816, -0.10756, 0.00151366, -0.0011895, -0.00335263, 0.0018255, 0.00032219, -0.000358564
0.0435244, 0.107552, -0.774287, -0.916108, -1.45623, -0.625403, 1.07015, -0.256721, 0.000998156, 0.00555685, -0.000407298, -0.00127935, -0.00140611, -0.00175377, 0.000410178, -0.0161054, 15.791, 18.9667, 15.5432, 1.02466, 3.41739, -0.0878186, 0.00078001, -0.00168516, -4.84408e-05, -0.00024836, -7.47047e-05, 0.000349835, -0.000487204, 0.00160053, 0.00317768, 0.00566893, 0.0133225, 0.0133654, -0.0110952, -0.444734, 0.635, -3.13178, -0.0556111, -0.107664, -0.010381, -0.443023, 0.635113, -3.13202, -0.0554816, -0.10756, 0.00161465, -0.00126685, -0.00357216, 0.0018255, 0.00032219, -0.000358564
0.0445244, 0.107557, -0.77428, -0.916108, -1.45624, -0.625425, 1.07015, -0.25672, 0.00137176, 0.00434524, -0.00112337, -0.0019421, -0.00417374, -0.00174418, 0.00100741, -0.0557783, 15.7513, 18.9667, 15.6146, 1.02466, 3.43936, -0.101552, 0.000779806, -0.00168492, -4.9585e-05, -0.000259666, -0.00011331, 0.000356194, 0.000435939, 0.00123278, 0.00294874, 0.00640858, 0.0149869, 0.0124381, -0.0110935, -0.444735, 0.634997, -3.13177, -0.0556159, -0.107677, -0.0103796, -0.443025, 0.63511, -3.13203, -0.0554762, -0.107513, 0.00171879, -0.00134642, -0.00379814, 0.00103804, -0.000155418, -0.000878721
0.0455244, 0.107561, -0.774283, -0.916102, -1.45624, -0.625437, 1.07015, -0.256726, 0.00174977, 0.004561, -0.00206756, -0.00128738, -0.00670259, -0.00149397, -0.00153244, -0.0914839, 15.8267, 18.8913, 15.6146, 1.00635, 3.44668, -0.0420422, 0.000778278, -0.00168609, -5.47295e-05, -0.000275443, -0.000128908, 0.000350944, 0.00119992, 0.000756433, 0.00313686, 0.00795346, 0.0169342, 0.0139386, -0.0110917, -0.444737, 0.634993, -3.13176, -0.0556209, -0.107691, -0.0103798, -0.443025, 0.635111, -3.13204, -0.0554889, -0.107504, 0.00182607, -0.00142819, -0.00403052, 0.000387728, -0.000741789, -0.000978978
0.0465244, 0.107558, -0.77428, -0.91611, -1.45624, -0.625449, 1.07015, -0.25672, -0.000596693, 0.00433862, -0.0034186, -0.000852735, -0.00865443, -0.000769659, 0.00118242, -0.0161054, 15.791, 18.9667, 15.6146, 0.988036, 3.43936, -0.101552, 0.000772143, -0.00168425, -5.73948e-05, -0.000288821, -0.000149518, 0.000375169, 0.00322411, 0.000258776, 0.00325673, 0.00943515, 0.0179217, 0.00757056, -0.0110899, -0.444738, 0.634989, -3.13175, -0.0556263, -0.107706, -0.0103841, -0.443028, 0.63511, -3.13204, -0.0554562, -0.107487, 0.00193648, -0.00151214, -0.00426926, -0.00151046, -0.00139542, -0.00124055
0.0475244, 0.107563, -0.774275, -0.916103, -1.45624, -0.625463, 1.07015, -0.256726, 0.00053025, 0.00634876, 0.000111644, -0.00149237, -0.0105595, -0.00081808, -0.00117841, -0.0557783, 15.791, 18.8556, 15.6543, 0.981627, 3.44668, -0.0484509, 0.000774177, -0.00168566, -6.37305e-05, -0.000308689, -0.000174573, 0.00036785, 0.00131826, 0.000880303, 0.00435361, 0.0127194, 0.0219967, 0.0140548, -0.0110879, -0.44474, 0.634984, -3.13174, -0.0556319, -0.107721, -0.0103806, -0.443029, 0.635112, -3.13205, -0.0554727, -0.107464, 0.00205002, -0.00159825, -0.00451432, 0.000405784, -0.0008029, -0.000256318
0.0485244, 0.107565, -0.774276, -0.916108, -1.45624, -0.625469, 1.07015, -0.25672, 0.00118874, 0.0047519, -0.000916597, 0.000771427, -0.0106734, -0.000570667, 0.00118108, -0.0914839, 15.791, 18.8913, 15.5789, 0.938597, 3.44668, -0.101552, 0.000769298, -0.00168538, -6.82001e-05, -0.000320623, -0.000187243, 0.00038477, 0.00240716, 0.000524251, 0.00495223, 0.0139251, 0.0192909, 0.0112765, -0.0110858, -0.444741, 0.63498, -3.13173, -0.0556379, -0.107738, -0.0103837, -0.443031, 0.635111, -3.13206, -0.0554519, -0.107461, 0.00216668, -0.00168649, -0.00476563, -0.000591568, -0.00129059, 1.23513e-05
0.0495244, 0.107569, -0.774269, -0.916105, -1.45624, -0.625478, 1.07015, -0.256726, 0.00172053, 0.00532072, 0.00103532, -0.000318606, -0.0066082, -0.000636764, -0.00141666, -0.131157, 15.7156, 18.816, 15.6146, 0.895568, 3.45309, -0.0420422, 0.000771322, -0.00168703, -7.30228e-05, -0.000334447, -0.000214494, 0.000378233, 0.000454196, 0.00154189, 0.00543835, 0.013242, 0.0177945, 0.0193469, -0.0110835, -0.444743, 0.634975, -3.13172, -0.0556442, -0.107755, -0.0103798, -0.443031, 0.635111, -3.13206, -0.055468, -0.107437, 0.00228643, -0.00177687, -0.00502317, 0.00140554, -0.000299516, 0.000380607
0.0505244, 0.107572, -0.77427, -0.916104, -1.45623, -0.625491, 1.07015, -0.256724, 0.00114703, 0.00300409, 0.00143779, 0.00145978, -0.00498284, -0.00043873, -0.0011818, -0.131157, 15.7513, 18.7803, 15.5432, 0.889159, 3.45309, -0.0356336, 0.000766911, -0.00168732, -8.00471e-05, -0.000354828, -0.000231553, 0.000389772, 0.00141486, 0.0017221, 0.00631509, 0.0143462, 0.0133386, 0.0196842, -0.0110812, -0.444745, 0.634969, -3.13171, -0.0556509, -0.107773, -0.0103824, -0.443032, 0.635113, -3.13207, -0.055456, -0.10743, 0.00240928, -0.00186934, -0.00528689, 0.000503956, -0.000253481, 0.000926531
0.0515244, 0.10757, -0.77427, -0.916104, -1.45623, -0.625505, 1.07015, -0.25672, 0.00301138, 0.00222184, 0.00172801, 0.000974495, -0.00393294, -0.000574419, -4.18804e-05, -0.0914839, 15.7513, 18.7446, 15.5432, 0.889159, 3.46042, -0.0557752, 0.000761287, -0.00168794, -8.55784e-05, -0.000372251, -0.000255666, 0.000405953, 0.000548403, 0.00198777, 0.00642935, 0.0140354, 0.0125206, 0.0223697, -0.0110787, -0.444747, 0.634964, -3.1317, -0.0556578, -0.107792, -0.0103859, -0.443034, 0.635113, -3.13208, -0.0554373, -0.107412, 0.00253522, -0.00196389, -0.00555673, 0.00147633, -5.30939e-05, 0.000832024
0.0525244, 0.107578, -0.774275, -0.916101, -1.45623, -0.625519, 1.07015, -0.256722, 0.00403539, 0.00071755, 0.00286595, -0.000184573, -0.0113601, -0.000390945, -0.000773905, -0.166862, 15.791, 18.6692, 15.5789, 0.883666, 3.46042, -0.0356336, 0.000759245, -0.00168868, -9.15628e-05, -0.000391038, -0.000274697, 0.00040544, 0.00148951, 0.00144074, 0.00661336, 0.0179393, 0.0176468, 0.0230338, -0.0110761, -0.444749, 0.634958, -3.13168, -0.0556652, -0.107812, -0.0103858, -0.443035, 0.635113, -3.13208, -0.0554449, -0.107403, 0.00266423, -0.00206051, -0.00583265, 0.0006739, -0.000731244, 0.000671387
0.0535244, 0.107583, -0.774276, -0.916107, -1.45623, -0.625531, 1.07016, -0.25672, 0.00381671, 0.000601621, -0.00193618, 0.00164093, -0.0133664, 4.63838e-06, 0.00141684, -0.206535, 15.791, 18.7049, 15.5035, 0.895568, 3.45309, -0.0878186, 0.000754241, -0.00168713, -9.80385e-05, -0.000412096, -0.000291807, 0.000420521, 0.00400437, 0.000203753, 0.00613066, 0.0176521, 0.0182725, 0.0161029, -0.0110734, -0.444751, 0.634952, -3.13167, -0.0556729, -0.107834, -0.0103885, -0.443039, 0.635113, -3.13209, -0.0554284, -0.107399, 0.0027963, -0.00215917, -0.00611461, -0.00162408, -0.00215055, -0.000273244
0.0545244, 0.107584, -0.774276, -0.916107, -1.45623, -0.625542, 1.07016, -0.256725, 0.00176527, 0.000493522, -0.00283721, 0.0010945, -0.0143665, 0.000507219, -0.00146294, -0.166862, 15.791, 18.6295, 15.5035, 0.895568, 3.43936, -0.0228162, 0.000750568, -0.00168725, -0.000104997, -0.000435092, -0.000310817, 0.000424998, 0.00537263, 1.60649e-05, 0.00610601, 0.0183474, 0.0194544, 0.0171076, -0.0110705, -0.444753, 0.634946, -3.13166, -0.0556809, -0.107856, -0.0103898, -0.443042, 0.635113, -3.1321, -0.0554287, -0.107393, 0.00293143, -0.00225986, -0.00640257, -0.00284478, -0.00248692, -0.000681329
0.0555244, 0.107587, -0.774278, -0.916105, -1.45623, -0.625559, 1.07016, -0.256715, 0.00441356, 0.000398346, 0.000247435, -0.000197937, -0.0196047, -0.000173855, 0.00194083, -0.166862, 15.791, 18.5184, 15.5432, 0.908385, 3.45309, -0.101552, 0.000746176, -0.00168867, -0.000110889, -0.000453306, -0.000340568, 0.00044214, 0.00418464, 0.000257079, 0.00674822, 0.0217463, 0.0247951, 0.017922, -0.0110675, -0.444756, 0.63494, -3.13164, -0.0556894, -0.107879, -0.0103916, -0.443043, 0.635112, -3.13211, -0.05541, -0.10737, 0.00306961, -0.00236255, -0.00669647, -0.00157498, -0.00231266, -0.000251235
0.0565244, 0.107588, -0.774277, -0.916114, -1.45622, -0.62557, 1.07016, -0.25672, 0.00642506, 0.000317562, -0.00420726, 0.00255961, -0.0142037, -0.000118434, -0.000401532, -0.166862, 15.791, 18.5581, 15.4282, 0.895568, 3.45309, -0.0557752, 0.00073816, -0.00168733, -0.00011802, -0.000473498, -0.000359655, 0.000457618, 0.0043793, -0.000112858, 0.00656992, 0.0185163, 0.0194328, 0.0211564, -0.0110644, -0.444758, 0.634933, -3.13162, -0.0556982, -0.107903, -0.0103969, -0.443047, 0.635112, -3.13211, -0.0553941, -0.107366, 0.00321082, -0.00246723, -0.00699628, -0.00160247, -0.00279244, -0.000744766
0.0575244, 0.107599, -0.774273, -0.916115, -1.45622, -0.625586, 1.07016, -0.256719, 0.00749427, 0.00117873, -0.00469303, 0.00170664, -0.0106757, -0.000352122, 0.00020703, -0.281914, 15.7513, 18.4827, 15.4282, 0.895568, 3.46042, -0.0685925, 0.000737078, -0.00168755, -0.000125445, -0.000496221, -0.000391016, 0.000464108, 0.00307641, 0.000396281, 0.00646391, 0.01656, 0.0187462, 0.024497, -0.0110611, -0.444761, 0.634926, -3.13161, -0.0557074, -0.107928, -0.0103952, -0.443049, 0.635112, -3.13212, -0.0553925, -0.107343, 0.00335505, -0.00257388, -0.00730195, -0.000170296, -0.00234353, -0.00106317
0.0585244, 0.107604, -0.774276, -0.916126, -1.45622, -0.625599, 1.07017, -0.256722, 0.00538592, -0.000112953, -0.00461272, 0.00280837, -0.0113039, 0.000543722, -0.00108268, -0.281914, 15.791, 18.5184, 15.3568, 0.870848, 3.43936, -0.0356336, 0.000729179, -0.00168519, -0.00013192, -0.000518211, -0.000409121, 0.000478504, 0.00475304, 0.000251873, 0.00723797, 0.018949, 0.0171807, 0.0240222, -0.0110577, -0.444763, 0.634918, -3.13159, -0.055717, -0.107955, -0.0104001, -0.443055, 0.635111, -3.13213, -0.055379, -0.107343, 0.0035023, -0.00268248, -0.00761342, -0.00174275, -0.00266256, -0.000719071
0.0595244, 0.107602, -0.774273, -0.91613, -1.45622, -0.625612, 1.07017, -0.256716, 0.00119166, 0.000874654, -0.00179852, 0.000201942, -0.0122743, 9.01465e-05, 0.00148226, -0.166862, 15.7513, 18.443, 15.4282, 0.858946, 3.44668, -0.0951428, 0.000723782, -0.0016863, -0.000136854, -0.000535035, -0.000444652, 0.00049917, 0.00521884, 0.00118027, 0.00769359, 0.0203413, 0.0211126, 0.0214513, -0.0110541, -0.444766, 0.63491, -3.13157, -0.055727, -0.107982, -0.0104023, -0.443056, 0.635108, -3.13213, -0.0553564, -0.107315, 0.00365255, -0.002793, -0.00793067, -0.00212158, -0.00186593, -0.000608051
0.0605244, 0.107608, -0.774273, -0.916135, -1.45622, -0.625624, 1.07017, -0.256721, 0.00194168, 0.000599556, -0.00301965, 0.000969944, -0.0128033, 0.00502939, -0.000978516, -0.206535, 15.7513, 18.3716, 15.3925, 0.840636, 3.43936, -0.0420422, 0.000719556, -0.00168582, -0.000145234, -0.000560506, -0.000468486, 0.00050412, 0.00522997, 3.25035e-05, 0.00831434, 0.0250491, 0.0187583, 0.0242695, -0.0110504, -0.444769, 0.634902, -3.13155, -0.0557374, -0.108011, -0.0104033, -0.44306, 0.635108, -3.13214, -0.0553583, -0.107308, 0.0038058, -0.00290544, -0.00825364, -0.00198113, -0.00313146, -0.000320028
0.0615244, 0.107619, -0.774266, -0.916144, -1.45622, -0.625638, 1.07017, -0.256717, 0.00322211, 0.0029177, -0.00456398, 0.000646703, -0.0137389, 0.00428643, 0.000805718, -0.281914, 15.6442, 18.332, 15.3925, 0.834227, 3.42471, -0.0814099, 0.000718159, -0.00168502, -0.000151646, -0.000581335, -0.000504782, 0.000517765, 0.00477912, -7.92473e-05, 0.00809549, 0.0243744, 0.0228993, 0.0235064, -0.0110465, -0.444772, 0.634894, -3.13154, -0.0557483, -0.10804, -0.0104013, -0.443064, 0.635106, -3.13214, -0.0553473, -0.107282, 0.00396204, -0.00301977, -0.00858229, -0.0013565, -0.0033398, -0.000836719
0.0625244, 0.107623, -0.774263, -0.916154, -1.45621, -0.62565, 1.07018, -0.256723, 0.00134337, 0.00288241, -0.0028535, 0.00219443, -0.00972544, 0.00342211, -0.00139563, -0.242241, 15.6046, 18.2963, 15.3171, 0.815917, 3.41739, -0.0292249, 0.000710572, -0.00168438, -0.000159528, -0.000603152, -0.000533684, 0.000531749, 0.00482758, 0.000945209, 0.00937649, 0.0246112, 0.0196261, 0.0274948, -0.0110424, -0.444775, 0.634885, -3.13152, -0.0557596, -0.108071, -0.0104053, -0.443068, 0.635104, -3.13214, -0.0553361, -0.107269, 0.00412125, -0.00313597, -0.00891658, -0.00137056, -0.00244557, 0.000110103
0.0635244, 0.107629, -0.774258, -0.916164, -1.45622, -0.625665, 1.07018, -0.256716, 0.00414522, 0.00276376, -0.00462945, 0.00280656, -0.0158377, 0.00223006, 0.00151098, -0.242241, 15.5688, 18.2606, 15.3925, 0.815917, 3.42471, -0.0951428, 0.000706158, -0.00168383, -0.000165186, -0.000622799, -0.00057166, 0.000552944, 0.00578316, 0.000130962, 0.00921395, 0.0259526, 0.02491, 0.0240292, -0.0110382, -0.444778, 0.634876, -3.13149, -0.0557713, -0.108103, -0.0104059, -0.443072, 0.635101, -3.13215, -0.0553143, -0.107243, 0.00428343, -0.00325403, -0.00925645, -0.00212092, -0.00340983, -0.000463327
0.0645244, 0.10763, -0.77426, -0.916168, -1.45621, -0.625678, 1.07018, -0.256718, 0.0013327, 0.0010125, -0.00721169, 0.00565645, -0.0156802, 0.00165165, -0.000959366, -0.166862, 15.6046, 18.1455, 15.2417, 0.804015, 3.42471, -0.0420422, 0.000696665, -0.00168411, -0.000176279, -0.00065159, -0.000595477, 0.000571084, 0.00914755, -0.000259327, 0.00967365, 0.0260553, 0.0220603, 0.0216093, -0.0110339, -0.444781, 0.634867, -3.13147, -0.0557834, -0.108137, -0.0104118, -0.443075, 0.635102, -3.13215, -0.0552973, -0.107241, 0.00444857, -0.00337392, -0.00960188, -0.00532786, -0.0040429, -0.000585316
0.0655244, 0.107641, -0.774257, -0.916179, -1.45621, -0.625692, 1.07018, -0.256713, 0.00521676, 0.00151412, -0.011233, 0.00127391, -0.0160999, 0.00149607, 0.000818485, -0.206535, 15.5688, 18.1098, 15.3568, 0.804015, 3.41739, -0.0814099, 0.000694896, -0.00168363, -0.000180874, -0.000670607, -0.000635859, 0.000583248, 0.00790027, -0.000748463, 0.00744101, 0.0215234, 0.0265082, 0.0239795, -0.0110293, -0.444785, 0.634857, -3.13145, -0.055796, -0.108171, -0.0104093, -0.443079, 0.635096, -3.13215, -0.0552904, -0.107213, 0.00461665, -0.00349563, -0.0099528, -0.00374522, -0.00458956, -0.00308072
0.0665244, 0.107651, -0.77425, -0.916189, -1.45621, -0.625707, 1.07019, -0.256718, 0.00705007, 0.00277558, -0.0150515, 0.00192294, -0.0121358, 0.000818892, -0.00138712, -0.206535, 15.4935, 18.1098, 15.3171, 0.804015, 3.42471, -0.0292249, 0.000691004, -0.00168283, -0.000189311, -0.000696188, -0.000674997, 0.000592886, 0.00750634, -0.000841108, 0.00684963, 0.0177475, 0.0253647, 0.0279818, -0.0110246, -0.444788, 0.634847, -3.13143, -0.055809, -0.108207, -0.0104091, -0.443084, 0.635094, -3.13216, -0.0552877, -0.107189, 0.00478767, -0.00361914, -0.0103092, -0.00313756, -0.00478663, -0.00400064
0.0675244, 0.107657, -0.774259, -0.916196, -1.45622, -0.625718, 1.07019, -0.256713, 0.0106886, -0.000745874, -0.0120445, 0.000463177, -0.0124662, 0.000344245, 0.00175402, -0.166862, 15.6046, 17.9987, 15.3568, 0.779296, 3.43204, -0.101552, 0.000683478, -0.00168385, -0.000196845, -0.000717413, -0.000701018, 0.000608388, 0.00596138, -0.000158594, 0.00734936, 0.0188232, 0.0236793, 0.032683, -0.0110198, -0.444792, 0.634836, -3.1314, -0.0558225, -0.108244, -0.0104123, -0.443087, 0.635091, -3.13216, -0.0552764, -0.107187, 0.00496161, -0.00374443, -0.010671, -0.00148236, -0.00418002, -0.00375278
0.0685244, 0.107659, -0.774255, -0.916214, -1.45621, -0.625733, 1.07019, -0.256718, 0.00633715, 0.000339616, -0.0142478, 0.00131873, -0.0136615, -0.00026085, -0.0010347, -0.0914839, 15.5688, 18.0741, 15.3171, 0.779296, 3.44668, -0.0420422, 0.000672772, -0.00168158, -0.000204061, -0.000741222, -0.000737847, 0.000632749, 0.0088825, -0.000390894, 0.00748062, 0.0189847, 0.0259999, 0.0297853, -0.0110147, -0.444796, 0.634825, -3.13138, -0.0558365, -0.108282, -0.0104184, -0.443093, 0.635087, -3.13216, -0.0552518, -0.107169, 0.00513848, -0.00387148, -0.0110382, -0.00421867, -0.00464385, -0.00419284
0.0695244, 0.107668, -0.774252, -0.916224, -1.45621, -0.625748, 1.07019, -0.256711, 0.00726898, 0.000227646, -0.0121298, 0.00177582, -0.0105185, -0.000914653, 0.00127689, -0.0557783, 15.5688, 17.9987, 15.2814, 0.784789, 3.46774, -0.0951428, 0.000666452, -0.00168185, -0.000213347, -0.00076645, -0.00077698, 0.000655605, 0.00752135, 0.000580423, 0.00851458, 0.0193177, 0.0239643, 0.0326571, -0.0110095, -0.4448, 0.634814, -3.13135, -0.055851, -0.108322, -0.0104201, -0.443097, 0.635084, -3.13216, -0.05523, -0.107148, 0.00531825, -0.00400028, -0.0114107, -0.00278817, -0.00376353, -0.00343348
0.0705244, 0.107675, -0.774251, -0.916237, -1.45621, -0.625758, 1.07019, -0.256717, 0.00794288, 0.00326444, -0.0146379, 0.000394745, -0.0108265, -0.00112295, -0.00135279, -0.0161054, 15.5688, 17.959, 15.3171, 0.748168, 3.48239, -0.0356336, 0.000659781, -0.00168265, -0.000220515, -0.00078487, -0.00081552, 0.00066451, 0.00705219, 0.000371199, 0.00784169, 0.0177982, 0.0288766, 0.0359921, -0.0110041, -0.444804, 0.634803, -3.13133, -0.0558659, -0.108363, -0.0104219, -0.443101, 0.635079, -3.13216, -0.0552305, -0.10713, 0.00550092, -0.0041308, -0.0117885, -0.00208406, -0.0040807, -0.00445165
0.0715244, 0.107685, -0.774253, -0.916252, -1.45621, -0.625774, 1.07019, -0.256714, 0.00533585, 0.0024363, -0.0133953, 0.00113294, -0.00872693, 0.00289893, 0.000318843, 0.0196001, 15.5688, 17.9233, 15.2814, 0.760985, 3.51077, -0.0685925, 0.000650202, -0.00168181, -0.000228774, -0.000808218, -0.00085269, 0.000688982, 0.00752443, 0.000267856, 0.00921662, 0.0224333, 0.0244098, 0.0347037, -0.0109985, -0.444808, 0.634791, -3.1313, -0.0558813, -0.108405, -0.0104264, -0.443106, 0.635075, -3.13215, -0.0552072, -0.107115, 0.00568647, -0.00426302, -0.0121715, -0.00246066, -0.00434575, -0.00349669
0.0725244, 0.107692, -0.774249, -0.916269, -1.45621, -0.625782, 1.07019, -0.256714, 0.00645685, 0.00265442, -0.0133039, 0.000781219, -0.00991765, 0.00179633, -2.47968e-05, 0.059273, 15.5331, 17.9233, 15.2814, 0.736266, 3.52542, -0.0621838, 0.000642981, -0.00168222, -0.000236555, -0.000826904, -0.00089305, 0.000707134, 0.00736697, 0.000490438, 0.00941168, 0.0225732, 0.0268567, 0.0372675, -0.0109927, -0.444812, 0.634778, -3.13127, -0.0558972, -0.108449, -0.0104284, -0.443111, 0.63507, -3.13215, -0.0551943, -0.107097, 0.00587491, -0.00439694, -0.0125597, -0.00213694, -0.00425377, -0.00367816
0.0735244, 0.107702, -0.774251, -0.916282, -1.45621, -0.625796, 1.07019, -0.256715, 0.00422623, 0.00108065, -0.0115316, -0.000294964, -0.00754698, 0.00204476, 0.000695546, 0.0949785, 15.5688, 17.848, 15.3171, 0.736266, 3.51077, -0.0814099, 0.000635254, -0.00168301, -0.00024465, -0.000848317, -0.000933836, 0.00072165, 0.0077047, 0.00129578, 0.0100232, 0.0230975, 0.0245181, 0.0388077, -0.0109867, -0.444817, 0.634765, -3.13124, -0.0559137, -0.108494, -0.0104308, -0.443115, 0.635065, -3.13214, -0.0551876, -0.107079, 0.00606621, -0.00453252, -0.0129531, -0.00235377, -0.00360247, -0.00347972
0.0745244, 0.107717, -0.774239, -0.916299, -1.45621, -0.62581, 1.07019, -0.256712, 0.00734658, 0.00342858, -0.0150201, 0.000653157, -0.010174, 0.00159168, 0.000972323, 0.059273, 15.4578, 17.848, 15.2814, 0.741759, 3.51077, -0.0951428, 0.000632032, -0.00168231, -0.000254281, -0.000875144, -0.000985982, 0.0007417, 0.00765504, 0.000459796, 0.00968265, 0.0228819, 0.0291936, 0.0386976, -0.0109806, -0.444821, 0.634752, -3.13121, -0.0559306, -0.108541, -0.0104285, -0.44312, 0.635061, -3.13214, -0.0551726, -0.107046, 0.00626038, -0.00466976, -0.0133516, -0.00205681, -0.0045706, -0.00422039
0.0755244, 0.107724, -0.774248, -0.916315, -1.45621, -0.625823, 1.07019, -0.256714, 0.00382075, -0.00106569, -0.0136897, 0.000446374, -0.0124152, 0.00123251, -0.000335129, 0.134651, 15.6046, 17.8122, 15.2814, 0.754576, 3.51077, -0.0685925, 0.000619935, -0.00168233, -0.000263133, -0.000898747, -0.00101874, 0.00076075, 0.0107496, 0.000682583, 0.0103241, 0.0250173, 0.0272024, 0.0380177, -0.0109742, -0.444826, 0.634739, -3.13118, -0.055948, -0.108588, -0.0104348, -0.443125, 0.635056, -3.13214, -0.0551596, -0.107044, 0.00645739, -0.00480863, -0.0137552, -0.00499761, -0.0046027, -0.00419757
0.0765244, 0.107731, -0.77424, -0.916331, -1.45621, -0.625833, 1.07019, -0.256714, 0.00444696, 0.00102168, -0.0134382, 0.0012338, -0.0137232, 0.000678939, -0.000460778, 0.21003, 15.5331, 17.8122, 15.2417, 0.760985, 3.5181, -0.0621838, 0.000611692, -0.00168353, -0.000273202, -0.000920733, -0.00106804, 0.000783148, 0.0104008, 0.000814239, 0.0110656, 0.0266304, 0.0306012, 0.0394231, -0.0109676, -0.444831, 0.634725, -3.13115, -0.055966, -0.108638, -0.0104373, -0.443129, 0.635051, -3.13213, -0.0551422, -0.107017, 0.00665724, -0.00494912, -0.0141638, -0.0045063, -0.00460659, -0.00384168
0.0775244, 0.107747, -0.774245, -0.91635, -1.45621, -0.625845, 1.07019, -0.256712, 0.00770821, 0.00137345, -0.0164442, -9.9332e-05, -0.0139998, 0.000549028, 0.000404891, 0.170357, 15.6442, 17.8122, 15.2814, 0.748168, 3.5181, -0.0814099, 0.000604212, -0.00168326, -0.000281358, -0.000943448, -0.00110731, 0.000799199, 0.00978013, 0.000380127, 0.010132, 0.0245652, 0.0328287, 0.0415897, -0.0109609, -0.444836, 0.63471, -3.13111, -0.0559845, -0.108688, -0.0104386, -0.443135, 0.635045, -3.13212, -0.055135, -0.107008, 0.00685993, -0.0050912, -0.0145774, -0.00360497, -0.00515226, -0.00514686
0.0785244, 0.107757, -0.774242, -0.916367, -1.4562, -0.625856, 1.07019, -0.256712, 0.00811306, 0.00122072, -0.0154718, 0.00170163, -0.0147022, -0.000104214, 0.00504518, 0.21003, 15.6442, 17.8122, 15.206, 0.748168, 3.53274, -0.0814099, 0.000595189, -0.00168394, -0.000293046, -0.000970476, -0.00115093, 0.000821445, 0.0100865, 0.000636227, 0.0113132, 0.0267304, 0.0329013, 0.0383673, -0.0109539, -0.444841, 0.634696, -3.13108, -0.0560035, -0.108741, -0.0104415, -0.44314, 0.635041, -3.13212, -0.0551186, -0.106993, 0.00706543, -0.00523486, -0.0149959, -0.0037962, -0.00506235, -0.00440694
0.0795244, 0.107769, -0.774239, -0.91638, -1.4562, -0.625866, 1.07019, -0.256715, 0.0116441, 0.000207406, -0.0130425, 0.00290112, -0.0153234, 0.000256017, 0.00281196, 0.245735, 15.6799, 17.7369, 15.1306, 0.748168, 3.52542, -0.0557752, 0.000588581, -0.00168586, -0.000305388, -0.000998039, -0.00119646, 0.000834543, 0.00856016, 0.000937336, 0.012692, 0.0300679, 0.0318989, 0.0466145, -0.0109468, -0.444846, 0.63468, -3.13105, -0.0560231, -0.108794, -0.0104418, -0.443144, 0.635038, -3.13212, -0.055117, -0.106977, 0.00727374, -0.00538009, -0.0154193, -0.00217287, -0.00486601, -0.00334705
0.0805244, 0.10778, -0.774232, -0.916404, -1.4562, -0.625874, 1.07019, -0.256715, 0.0111201, 0.00524233, -0.0147345, -0.00226119, -0.0110598, 0.000211348, 0.00217309, 0.285408, 15.6046, 17.8122, 15.1703, 0.736266, 3.52542, -0.0557752, 0.000580946, -0.00168572, -0.000313563, -0.00101906, -0.00124874, 0.000856753, 0.00607449, 0.00170582, 0.0112729, 0.0254043, 0.0377471, 0.0517019, -0.0109394, -0.444852, 0.634665, -3.13101, -0.0560432, -0.10885, -0.0104427, -0.44315, 0.63503, -3.1321, -0.055102, -0.106952, 0.00748486, -0.00552686, -0.0158476, 0.000586514, -0.00414383, -0.00501307
0.0815244, 0.10779, -0.77423, -0.916417, -1.45621, -0.625882, 1.07019, -0.256714, 0.0162123, 0.00295967, -0.0146477, -0.00437646, -0.00765875, -0.000337225, 0.00190993, 0.360787, 15.6442, 17.7012, 15.2814, 0.717955, 3.53915, -0.0621838, 0.000575474, -0.00168866, -0.00032342, -0.00104214, -0.00130041, 0.000869966, 0.00362371, 0.00231604, 0.0108084, 0.0226305, 0.0351803, 0.0614209, -0.0109318, -0.444858, 0.634649, -3.13097, -0.0560639, -0.108906, -0.0104414, -0.443153, 0.635023, -3.13209, -0.0551015, -0.106929, 0.00769877, -0.00567515, -0.0162807, 0.0032535, -0.00359147, -0.00573487
0.0825244, 0.107808, -0.774224, -0.916435, -1.45621, -0.625894, 1.07019, -0.256712, 0.019565, 0.00226772, -0.0142158, 0.00497862, -0.00974781, 0.000306686, 0.00215324, 0.325081, 15.6442, 17.7012, 15.206, 0.711547, 3.52542, -0.0814099, 0.000569949, -0.001689, -0.000336667, -0.00107467, -0.00135063, 0.000888795, 0.00467924, 0.00152429, 0.0141651, 0.0301904, 0.0302627, 0.0606548, -0.010924, -0.444863, 0.634632, -3.13094, -0.0560851, -0.108965, -0.01044, -0.443158, 0.63502, -3.13209, -0.0550925, -0.106911, 0.00791545, -0.00582496, -0.0167186, 0.00221322, -0.00460227, -0.00290341
0.0835244, 0.107816, -0.77422, -0.916456, -1.4562, -0.625904, 1.07019, -0.256717, 0.0153428, 0.000897551, -0.0170133, 0.00629335, -0.0113575, -0.000287011, -0.000134017, 0.436165, 15.6799, 17.7012, 15.0949, 0.705138, 3.53915, -0.0356336, 0.000557672, -0.00168979, -0.000350198, -0.00110432, -0.00139815, 0.000913507, 0.0086941, 0.00106899, 0.0142541, 0.0303707, 0.0302751, 0.0567768, -0.010916, -0.444869, 0.634615, -3.1309, -0.0561069, -0.109025, -0.0104452, -0.443164, 0.635015, -3.13209, -0.055075, -0.106898, 0.00813491, -0.00597625, -0.0171612, -0.00156019, -0.0053525, -0.00354042
0.0845244, 0.107835, -0.774214, -0.91647, -1.4562, -0.625911, 1.07019, -0.256712, 0.0188744, 0.000764083, -0.0174188, 0.00364221, -0.00882608, 5.88862e-05, 0.00170051, 0.400459, 15.6799, 17.6258, 15.1306, 0.711547, 3.53274, -0.0814099, 0.000555464, -0.00169228, -0.00036283, -0.00113356, -0.00145278, 0.000927097, 0.00640723, 0.00144847, 0.0137067, 0.028427, 0.0304402, 0.0623734, -0.0109077, -0.444875, 0.634598, -3.13086, -0.0561293, -0.109086, -0.0104402, -0.443168, 0.635011, -3.13208, -0.0550753, -0.106875, 0.00835714, -0.00612902, -0.0176085, 0.000965663, -0.00504026, -0.00437201
0.0855244, 0.107848, -0.774205, -0.916492, -1.4562, -0.625919, 1.07019, -0.256712, 0.0156746, 0.000633675, -0.0194002, 0.00440277, -0.00732498, -0.000730985, 0.000255061, 0.475838, 15.6799, 17.6258, 15.0552, 0.729857, 3.5538, -0.0557752, 0.000547044, -0.00169385, -0.000376288, -0.00116145, -0.00150741, 0.000951294, 0.00863142, 0.00158026, 0.0138642, 0.0273163, 0.0297745, 0.0611049, -0.0108992, -0.444881, 0.63458, -3.13082, -0.0561522, -0.109149, -0.0104412, -0.443173, 0.635006, -3.13207, -0.0550599, -0.106855, 0.00858211, -0.00628324, -0.0180604, -0.00104298, -0.00514394, -0.00482133
0.0865244, 0.107867, -0.774196, -0.916514, -1.4562, -0.625922, 1.07019, -0.256709, 0.0160589, 0.00363232, -0.0218165, 0.00309373, -0.00477723, 0.000299809, 0.000935236, 0.436165, 15.6799, 17.6615, 15.0552, 0.711547, 3.53274, -0.0750012, 0.000543767, -0.00169524, -0.000388565, -0.00118837, -0.00156162, 0.000967911, 0.00763488, 0.00152002, 0.0134364, 0.0258671, 0.0319167, 0.0625331, -0.0108905, -0.444888, 0.634562, -3.13078, -0.0561758, -0.109214, -0.0104367, -0.443178, 0.634999, -3.13206, -0.0550568, -0.106836, 0.00880983, -0.00643891, -0.018517, 0.000209556, -0.00532094, -0.00563582
0.0875244, 0.10788, -0.77419, -0.916536, -1.45619, -0.625931, 1.07019, -0.256711, 0.0143296, 0.00108075, -0.0194996, 0.00394463, -0.00405468, -0.000303325, -0.000320015, 0.475838, 15.7513, 17.6615, 14.9799, 0.723448, 3.54648, -0.0484509, 0.000534684, -0.00169612, -0.000403196, -0.00122221, -0.00161596, 0.000990255, 0.00871991, 0.00226773, 0.0147349, 0.0278301, 0.0290984, 0.065433, -0.0108816, -0.444894, 0.634543, -3.13073, -0.0561999, -0.10928, -0.0104379, -0.443184, 0.634995, -3.13206, -0.0550451, -0.106819, 0.00904028, -0.00659599, -0.0189781, -0.000759592, -0.00478264, -0.00487237
0.0885244, 0.107893, -0.774179, -0.916556, -1.4562, -0.62594, 1.07019, -0.256708, 0.0122594, 0.00408438, -0.0207949, 0.00179092, -0.00394044, -0.000198145, 0.00079988, 0.551216, 15.7513, 17.6615, 15.0195, 0.748168, 3.54648, -0.0750012, 0.000528685, -0.00169898, -0.00041543, -0.00124901, -0.00168302, 0.00101232, 0.00884904, 0.00243531, 0.0143725, 0.0270978, 0.0340503, 0.0641237, -0.0108725, -0.444901, 0.634524, -3.13069, -0.0562246, -0.109348, -0.0104358, -0.443188, 0.634987, -3.13204, -0.0550349, -0.106783, 0.00927346, -0.00675447, -0.0194438, -0.000636623, -0.00477547, -0.00570773
0.0895244, 0.107914, -0.774177, -0.91658, -1.45619, -0.625944, 1.07019, -0.256714, 0.0157063, 0.00455913, -0.0216629, 0.00385929, -0.00684478, -0.00040031, -0.00137712, 0.551216, 15.8267, 17.6615, 14.9084, 0.741759, 3.5538, -0.0228162, 0.000520847, -0.00170054, -0.000430281, -0.00127863, -0.00173217, 0.00102484, 0.00867807, 0.00193645, 0.0151363, 0.0295108, 0.0361959, 0.0683459, -0.0108631, -0.444908, 0.634504, -3.13064, -0.0562499, -0.109417, -0.0104353, -0.443194, 0.634982, -3.13203, -0.0550398, -0.106778, 0.00950935, -0.00691434, -0.0199139, -0.000266081, -0.005436, -0.00540797
0.0905244, 0.107926, -0.774163, -0.916607, -1.45619, -0.62595, 1.07019, -0.256707, 0.0156306, 0.00764932, -0.0233425, 0.00178781, -0.00557006, -0.000264583, 0.00126887, 0.6623, 15.791, 17.7012, 14.9442, 0.754576, 3.5538, -0.0814099, 0.000512765, -0.00170213, -0.000442283, -0.00130454, -0.00180091, 0.00105796, 0.00781529, 0.00210372, 0.0146431, 0.027975, 0.0403285, 0.0677545, -0.0108534, -0.444915, 0.634484, -3.1306, -0.0562758, -0.109488, -0.0104347, -0.4432, 0.634973, -3.13202, -0.0550136, -0.106743, 0.00974794, -0.00707558, -0.0203885, 0.000860252, -0.00539533, -0.00631334
0.0915244, 0.10795, -0.774156, -0.916628, -1.45619, -0.625955, 1.07019, -0.256712, 0.0191773, 0.0049767, -0.0227727, 0.00206471, -0.00411249, 0.000605222, -0.000599545, 0.626595, 15.8267, 17.6615, 14.9084, 0.754576, 3.53274, -0.0420422, 0.000509791, -0.00170426, -0.000458054, -0.00133926, -0.0018587, 0.0010649, 0.00675993, 0.00222838, 0.0152511, 0.0290926, 0.0366056, 0.0759146, -0.0108436, -0.444922, 0.634463, -3.13055, -0.0563023, -0.109561, -0.010429, -0.443205, 0.634969, -3.13201, -0.0550283, -0.106727, 0.00998923, -0.00723817, -0.0208674, 0.00210604, -0.00540254, -0.00611124
0.0925244, 0.107965, -0.774148, -0.916652, -1.45619, -0.62596, 1.07019, -0.256707, 0.0127634, 0.0069577, -0.0232953, 0.00140469, -0.003041, -0.000103856, 0.00130518, 0.701973, 15.8267, 17.6615, 14.9084, 0.754576, 3.54648, -0.0878186, 0.000501217, -0.00170682, -0.00047229, -0.00136816, -0.00192137, 0.00109308, 0.00908752, 0.00280963, 0.0156065, 0.0288255, 0.039209, 0.0698342, -0.0108335, -0.444929, 0.634442, -3.1305, -0.0563295, -0.109636, -0.0104286, -0.44321, 0.634961, -3.13199, -0.0550108, -0.106705, 0.0102332, -0.00740209, -0.0213508, -1.6977e-05, -0.00507289, -0.00639924
0.0935244, 0.107984, -0.774142, -0.916681, -1.45618, -0.625966, 1.07019, -0.256713, 0.018392, 0.00758311, -0.0246493, 0.00272086, -0.00691245, -6.82714e-05, -0.00129293, 0.737679, 15.8624, 17.7012, 14.8331, 0.766478, 3.54648, -0.0292249, 0.000491762, -0.00170802, -0.000487662, -0.0014004, -0.0019809, 0.00111151, 0.00808128, 0.00206099, 0.0159808, 0.0310283, 0.0426699, 0.0762691, -0.0108231, -0.444937, 0.634421, -3.13045, -0.0563573, -0.109712, -0.0104288, -0.443217, 0.634954, -3.13198, -0.055009, -0.10669, 0.0104799, -0.00756732, -0.0218384, 0.00123303, -0.005955, -0.00644896
0.0945244, 0.108011, -0.77413, -0.916703, -1.45619, -0.625967, 1.07019, -0.25671, 0.0189433, 0.00581007, -0.0230051, 0.000994564, -0.00492488, -0.000316057, 0.000126709, 0.6623, 15.8624, 17.6258, 14.8688, 0.760985, 3.5538, -0.0557752, 0.000492151, -0.00171175, -0.000501992, -0.00142866, -0.00204939, 0.00111954, 0.00733404, 0.00288456, 0.0163225, 0.0308192, 0.0412587, 0.0802981, -0.0108125, -0.444944, 0.634399, -3.1304, -0.0563857, -0.10979, -0.010419, -0.443221, 0.634947, -3.13196, -0.0550242, -0.106663, 0.0107292, -0.00773386, -0.0223304, 0.00217271, -0.00527622, -0.0065418
0.0955244, 0.108036, -0.774128, -0.916737, -1.45618, -0.625971, 1.07019, -0.25671, 0.0236156, 0.00495635, -0.0252916, 0.00243818, -0.00387672, -0.000210161, 0.00032582, 0.6623, 15.9735, 17.7012, 14.7934, 0.766478, 3.5538, -0.0621838, 0.000482452, -0.00171166, -0.000516545, -0.00146027, -0.00210501, 0.00114365, 0.00655991, 0.00249183, 0.0164582, 0.0303501, 0.0394464, 0.0846016, -0.0108016, -0.444952, 0.634376, -3.13035, -0.0564147, -0.10987, -0.0104189, -0.44323, 0.634938, -3.13195, -0.0550148, -0.106658, 0.0109812, -0.00790168, -0.0228265, 0.00320032, -0.00581118, -0.00685153
0.0965244, 0.108051, -0.774116, -0.916765, -1.45619, -0.625975, 1.07019, -0.256707, 0.0182253, 0.0111645, -0.0281861, 0.000706365, -0.00355517, 0.000131568, 0.00116964, 0.777352, 15.9378, 17.7012, 14.8331, 0.784789, 3.54648, -0.0878186, 0.000474334, -0.00171461, -0.000530982, -0.00148895, -0.00217776, 0.00117146, 0.00773476, 0.0024749, 0.0160476, 0.0294569, 0.047142, 0.079041, -0.0107905, -0.44496, 0.634353, -3.1303, -0.0564444, -0.109952, -0.0104171, -0.443235, 0.634929, -3.13193, -0.0550005, -0.106627, 0.0112358, -0.00807076, -0.0233269, 0.00231221, -0.00603592, -0.0078445
0.0975244, 0.108076, -0.774108, -0.916793, -1.45618, -0.62598, 1.07019, -0.25671, 0.0210843, 0.0107464, -0.0291216, 0.00224084, -0.00330157, 8.80174e-05, -0.000404791, 0.737679, 15.9735, 17.6615, 14.7577, 0.804015, 3.54648, -0.0557752, 0.000467075, -0.00171657, -0.000548139, -0.00152411, -0.0022428, 0.00118787, 0.00738839, 0.00233556, 0.0166626, 0.0303041, 0.0463212, 0.0839397, -0.0107792, -0.444968, 0.634329, -3.13025, -0.0564747, -0.110035, -0.0104143, -0.443242, 0.634922, -3.13191, -0.0550043, -0.10661, 0.011493, -0.00824109, -0.0238314, 0.00287588, -0.00634034, -0.00771258
0.0985244, 0.108101, -0.774103, -0.916825, -1.45619, -0.625984, 1.07019, -0.25671, 0.0190298, 0.0104775, -0.0271251, 0.0006637, -0.00212823, -0.00021236, -0.000268178, 0.737679, 16.0092, 17.6258, 14.7934, 0.797606, 3.5538, -0.0557752, 0.000459547, -0.00171884, -0.000562477, -0.00155266, -0.00231071, 0.00120649, 0.00742508, 0.00324285, 0.0172985, 0.0310376, 0.0469469, 0.0865115, -0.0107676, -0.444977, 0.634305, -3.13019, -0.0565057, -0.11012, -0.0104114, -0.443248, 0.634912, -3.13189, -0.0550056, -0.106591, 0.0117529, -0.00841265, -0.0243401, 0.00302072, -0.00561406, -0.00758295
0.0995244, 0.108123, -0.77409, -0.916857, -1.45618, -0.625987, 1.07019, -0.256707, 0.0197056, 0.00885877, -0.0289965, 0.00128145, -0.00613378, 0.000129866, 0.00100927, 0.777352, 15.9735, 17.5901, 14.7577, 0.809508, 3.54648, -0.0878186, 0.0004525, -0.00172084, -0.000579149, -0.0015864, -0.00238349, 0.00123405, 0.00931774, 0.00245637, 0.0174369, 0.033068, 0.0485944, 0.0841254, -0.0107557, -0.444985, 0.634281, -3.13014, -0.0565373, -0.110207, -0.0104078, -0.443255, 0.634904, -3.13188, -0.0549935, -0.106566, 0.0120154, -0.00858543, -0.0248528, 0.00141439, -0.00664293, -0.00809741
0.100524, 0.108143, -0.774085, -0.916894, -1.45618, -0.62599, 1.07019, -0.256706, 0.0195085, 0.00809196, -0.0311097, 0.000857126, -0.00432418, -0.000184561, -3.82829e-05, 0.85273, 16.0489, 17.5901, 14.7577, 0.804015, 3.5538, -0.0685925, 0.000440663, -0.00172246, -0.000593149, -0.00161369, -0.00245288, 0.00126337, 0.0101303, 0.00251366, 0.0171896, 0.0313449, 0.0477098, 0.0863476, -0.0107435, -0.444994, 0.634256, -3.13008, -0.0565696, -0.110296, -0.0104086, -0.443263, 0.634892, -3.13185, -0.0549795, -0.106548, 0.0122806, -0.0087594, -0.0253696, 0.000883765, -0.0067873, -0.00891826
0.101524, 0.108174, -0.77408, -0.916922, -1.45619, -0.625995, 1.07019, -0.256708, 0.0260717, 0.00858953, -0.0271029, 0.000573536, -0.00341508, 0.000148323, -2.48121e-05, 0.777352, 16.0846, 17.479, 14.7577, 0.809508, 3.54648, -0.0685925, 0.000435848, -0.00172516, -0.000610516, -0.00165029, -0.00252327, 0.001274, 0.00574059, 0.0033784, 0.0186199, 0.0342424, 0.0481243, 0.0984247, -0.0107311, -0.445003, 0.63423, -3.13002, -0.0566025, -0.110386, -0.0104024, -0.443269, 0.634883, -3.13184, -0.0549949, -0.10653, 0.0125483, -0.00893455, -0.0258904, 0.00539442, -0.00595721, -0.00769618
0.102524, 0.108197, -0.774071, -0.916964, -1.45618, -0.625995, 1.07019, -0.256709, 0.0209108, 0.00971761, -0.0307814, 0.00214718, -0.00184518, -0.000172313, -0.00123671, 0.85273, 16.0846, 17.5147, 14.6823, 0.791197, 3.5538, -0.0356336, 0.000423461, -0.00172621, -0.000626437, -0.00167907, -0.00259212, 0.00130539, 0.00913855, 0.00315951, 0.0187699, 0.0332208, 0.0480601, 0.0935522, -0.0107184, -0.445012, 0.634204, -3.12996, -0.0566361, -0.110479, -0.0104033, -0.443278, 0.634872, -3.13181, -0.0549789, -0.106516, 0.0128186, -0.00911087, -0.0264151, 0.00227372, -0.00647669, -0.00831334
0.103524, 0.108228, -0.774056, -0.917, -1.45618, -0.625994, 1.07019, -0.256706, 0.0237519, 0.0091752, -0.033736, 0.00143265, -0.00117773, 0.000427714, 0.000871346, 0.777352, 16.0092, 17.4393, 14.6823, 0.784789, 3.53915, -0.0814099, 0.000419982, -0.00172842, -0.000643304, -0.00171228, -0.00267005, 0.00132455, 0.00888585, 0.00270332, 0.0182029, 0.0319175, 0.0480672, 0.0946528, -0.0107055, -0.445021, 0.634177, -3.1299, -0.0566704, -0.110573, -0.0103951, -0.443285, 0.634862, -3.13179, -0.0549826, -0.106491, 0.0130915, -0.00928833, -0.0269437, 0.00285391, -0.0070963, -0.00939386
0.104524, 0.10825, -0.774049, -0.917041, -1.45618, -0.625997, 1.07019, -0.256706, 0.0246007, 0.00993363, -0.0348936, 0.000955992, -0.00072043, -0.000799886, -0.00013088, 0.888436, 16.0092, 17.4393, 14.6823, 0.779296, 3.56845, -0.0621838, 0.000407469, -0.00173049, -0.000658067, -0.00173896, -0.00274822, 0.00135562, 0.00882442, 0.00297198, 0.018171, 0.0306573, 0.0502088, 0.0980312, -0.0106922, -0.44503, 0.63415, -3.12984, -0.0567054, -0.110669, -0.0103956, -0.443293, 0.634849, -3.13176, -0.0549687, -0.106466, 0.0133669, -0.00946692, -0.0274763, 0.0031819, -0.00700515, -0.00995214
0.105524, 0.108277, -0.77404, -0.917082, -1.45618, -0.626, 1.07019, -0.256708, 0.0239958, 0.0105276, -0.0347972, 0.00147322, -0.0012625, 9.30807e-06, -8.7029e-05, 0.928108, 16.0092, 17.4036, 14.6466, 0.797606, 3.5538, -0.0621838, 0.000396692, -0.00173155, -0.000674998, -0.00177328, -0.00282441, 0.00138236, 0.00923867, 0.002975, 0.0190217, 0.0330611, 0.0512065, 0.0988977, -0.0106787, -0.44504, 0.634122, -3.12978, -0.056741, -0.110767, -0.0103941, -0.443302, 0.634837, -3.13173, -0.0549618, -0.106447, 0.0136449, -0.00964662, -0.0280126, 0.00298573, -0.00720702, -0.00966985
0.106524, 0.108311, -0.774033, -0.917126, -1.45619, -0.626004, 1.07019, -0.256709, 0.0254267, 0.0142055, -0.0355365, -0.000780591, -0.000919702, -0.000265039, -0.0010412, 0.888436, 16.0092, 17.4036, 14.722, 0.797606, 3.56112, -0.0356336, 0.000389019, -0.00173291, -0.000688159, -0.00179875, -0.00290812, 0.00140183, 0.00745402, 0.00329937, 0.0187462, 0.0321363, 0.0570212, 0.104006, -0.0106649, -0.44505, 0.634094, -3.12971, -0.0567774, -0.110867, -0.0103891, -0.443311, 0.634822, -3.1317, -0.0549674, -0.106417, 0.0139255, -0.00982742, -0.0285528, 0.00505165, -0.00699806, -0.0103561
0.107524, 0.10834, -0.774027, -0.917168, -1.45618, -0.626004, 1.07019, -0.256706, 0.0253834, 0.0127956, -0.0370762, 0.00217124, -0.000434302, -0.000176675, 0.00123878, 0.888436, 16.0489, 17.3282, 14.6069, 0.791197, 3.56112, -0.0878186, 0.000377386, -0.00173441, -0.000707434, -0.00183513, -0.00297925, 0.00143392, 0.00914162, 0.0030273, 0.0197294, 0.033598, 0.0541059, 0.101226, -0.0106509, -0.44506, 0.634065, -3.12965, -0.0568144, -0.110969, -0.0103881, -0.44332, 0.634812, -3.13168, -0.0549536, -0.10641, 0.0142086, -0.0100093, -0.0290967, 0.00359176, -0.00752433, -0.0100418
0.108524, 0.108374, -0.77402, -0.917213, -1.45618, -0.626009, 1.07019, -0.256708, 0.0262392, 0.00882612, -0.0395636, 0.00144778, -0.000570788, 0.000153497, -0.000869475, 0.85273, 16.0846, 17.2925, 14.6069, 0.797606, 3.5538, -0.0420422, 0.000367322, -0.0017352, -0.000723919, -0.00186825, -0.0030601, 0.00145697, 0.0108535, 0.00260295, 0.0192255, 0.032628, 0.0514415, 0.104613, -0.0106365, -0.44507, 0.634036, -3.12958, -0.0568522, -0.111073, -0.0103851, -0.44333, 0.634798, -3.13165, -0.0549547, -0.106389, 0.0144943, -0.0101922, -0.0296444, 0.00222074, -0.00818887, -0.0112178
0.109524, 0.1084, -0.774007, -0.917262, -1.45618, -0.626011, 1.07019, -0.256704, 0.0304603, 0.0125573, -0.0445013, 0.000965397, -0.000854255, -0.000168927, 0.000641124, 0.928108, 15.9735, 17.2529, 14.6069, 0.809508, 3.56112, -0.0750012, 0.000354914, -0.00173632, -0.000739506, -0.00189749, -0.00314922, 0.00149623, 0.00967594, 0.00187252, 0.0182236, 0.0300512, 0.0568781, 0.105671, -0.0106219, -0.44508, 0.634006, -3.12951, -0.0568906, -0.111178, -0.0103841, -0.44334, 0.634783, -3.13162, -0.0549315, -0.106357, 0.0147825, -0.0103762, -0.0301957, 0.00377913, -0.00905104, -0.0126914
0.110524, 0.10844, -0.774001, -0.91731, -1.45618, -0.626015, 1.07019, -0.256705, 0.0309635, 0.00927659, -0.0444243, 0.00147897, -0.00481549, -0.00011261, -4.72486e-05, 0.85273, 15.9735, 17.1775, 14.5712, 0.809508, 3.56112, -0.0621838, 0.000345655, -0.00173696, -0.000755901, -0.00192924, -0.00323195, 0.00151812, 0.0115466, 0.00150996, 0.0188477, 0.032974, 0.0570199, 0.106797, -0.010607, -0.44509, 0.633975, -3.12945, -0.0569298, -0.111286, -0.0103796, -0.44335, 0.634768, -3.13159, -0.0549359, -0.106337, 0.0150731, -0.0105613, -0.0307507, 0.00217294, -0.00967394, -0.0127608
0.111524, 0.108477, -0.773995, -0.917364, -1.45618, -0.626016, 1.07019, -0.256703, 0.033527, 0.00686316, -0.0449448, -0.00132312, -0.00358062, -7.50682e-05, 0.000680618, 0.813057, 15.9735, 17.1418, 14.5355, 0.809508, 3.56112, -0.0814099, 0.000334237, -0.00173709, -0.000771325, -0.00195759, -0.00331479, 0.00154841, 0.0107347, 0.00179676, 0.0182544, 0.0312683, 0.0563079, 0.11231, -0.0105917, -0.445101, 0.633944, -3.12938, -0.0569696, -0.111396, -0.010377, -0.443362, 0.634752, -3.13155, -0.054928, -0.106319, 0.0153663, -0.0107473, -0.0313093, 0.00330567, -0.00953917, -0.0138517
0.112524, 0.108507, -0.773986, -0.917424, -1.45619, -0.626019, 1.07019, -0.256708, 0.0295162, 0.00591973, -0.0473746, -0.00343664, -0.00246135, 0.000763761, -0.00124165, 0.888436, 15.9378, 17.1775, 14.4958, 0.804015, 3.53915, -0.0356336, 0.000317903, -0.0017359, -0.000786263, -0.00198702, -0.0034018, 0.00158505, 0.0130769, 0.00172123, 0.0176643, 0.0300244, 0.0563419, 0.112063, -0.0105762, -0.445112, 0.633913, -3.1293, -0.0570102, -0.111507, -0.0103789, -0.443374, 0.634734, -3.13152, -0.0549111, -0.106296, 0.015662, -0.0109343, -0.0318714, 0.0013101, -0.00988104, -0.0151709
0.113524, 0.108547, -0.773984, -0.917473, -1.45619, -0.62602, 1.07019, -0.256701, 0.0272003, 0.00349308, -0.047702, -0.00192072, -0.00184919, -3.33579e-05, 0.00137631, 0.813057, 15.9735, 17.0307, 14.4601, 0.804015, 3.5538, -0.0951428, 0.00030683, -0.00173802, -0.000803428, -0.00201587, -0.00348506, 0.00161433, 0.0154707, 0.00199338, 0.0185321, 0.0307658, 0.0536578, 0.108478, -0.0105604, -0.445123, 0.63388, -3.12923, -0.0570515, -0.111621, -0.0103755, -0.443384, 0.634719, -3.13148, -0.0549062, -0.106281, 0.0159602, -0.0111224, -0.0324371, -0.00085082, -0.00989463, -0.0150407
0.114524, 0.108547, -0.773984, -0.917473, -1.45619, -0.62602, 1.07019, -0.256701, 0.0272003, 0.00349308, -0.047702, -0.00192072, -0.00184919, -3.33579e-05, 0.00137631, 0.813057, 15.9735, 17.0307, 14.4601, 0.804015, 3.5538, -0.0951428, 0.000293621, -0.00175015, -0.000836942, -0.0020843, -0.00356161, 0.00163997, 0.0157214, 0.00219986, 0.0191201, 0.0318463, 0.0544508, 0.110565, -0.0105443, -0.445134, 0.633848, -3.12916, -0.0570936, -0.111737, -0.0103755, -0.443384, 0.634719, -3.13148, -0.0549062, -0.106281, 0.0162609, -0.0113113, -0.0330063, -0.00085082, -0.00989463, -0.0150407
0.115524, 0.108547, -0.773984, -0.917473, -1.45619, -0.62602, 1.07019, -0.256701, 0.0272003, 0.00349308, -0.047702, -0.00192072, -0.00184919, -3.33579e-05, 0.00137631, 0.813057, 15.9735, 17.0307, 14.4601, 0.804015, 3.5538, -0.0951428, 0.000280167, -0.00176249, -0.000871043, -0.00215389, -0.0036395, 0.00166606, 0.0159742, 0.00240752, 0.0197118, 0.0329323, 0.0552487, 0.112663, -0.0105279, -0.445146, 0.633814, -3.12908, -0.0571363, -0.111854, -0.0103755, -0.443384, 0.634719, -3.13148, -0.0549062, -0.106281, 0.016564, -0.0115013, -0.033579, -0.00085082, -0.00989463, -0.0150407
0.116524, 0.108547, -0.773984, -0.917473, -1.45619, -0.62602, 1.07019, -0.256701, 0.0272003, 0.00349308, -0.047702, -0.00192072, -0.00184919, -3.33579e-05, 0.00137631, 0.813057, 15.9735, 17.0307, 14.4601, 0.804015, 3.5538, -0.0951428, 0.000266465, -0.00177505, -0.000905734, -0.00222464, -0.00371874, 0.0016926, 0.016229, 0.00261637, 0.020307, 0.0340236, 0.0560514, 0.114775, -0.0105112, -0.445157, 0.633781, -3.12901, -0.0571798, -0.111974, -0.0103755, -0.443384, 0.634719, -3.13148, -0.0549062, -0.106281, 0.0168696, -0.0116921, -0.034155, -0.00085082, -0.00989463, -0.0150407
0.117524, 0.108704, -0.773956, -0.917717, -1.45619, -0.626033, 1.07019, -0.256704, 0.0362482, 0.00426985, -0.0565461, -0.00301006, -0.000545416, 0.00968508, 0.000475337, 0.777352, 15.791, 16.7689, 14.4205, 0.804015, 3.53915, -0.0685925, 0.000250165, -0.00173486, -0.000867157, -0.00213728, -0.00384963, 0.00175104, 0.0135942, -0.000659983, 0.0186641, 0.03605, 0.0529471, 0.121279, -0.0104942, -0.445169, 0.633746, -3.12893, -0.0572241, -0.112096, -0.0103707, -0.443436, 0.634644, -3.13132, -0.0548639, -0.106192, 0.0171776, -0.0118839, -0.0347344, 0.00231994, -0.0132483, -0.0170999
0.118524, 0.108742, -0.773951, -0.91778, -1.45619, -0.626033, 1.07019, -0.256704, 0.0387938, 0.00708704, -0.0597107, 0.000284759, 6.16789e-05, 0.00723924, 0.000316897, 0.813057, 15.7513, 16.6935, 14.3094, 0.791197, 3.53915, -0.0685925, 0.000233505, -0.00173445, -0.000884945, -0.00216903, -0.00393755, 0.0017895, 0.0137157, -0.000755441, 0.0191837, 0.0345996, 0.0553615, 0.122289, -0.0104768, -0.445181, 0.633711, -3.12885, -0.0572691, -0.112219, -0.0103713, -0.443449, 0.634626, -3.13128, -0.0548484, -0.10618, 0.017488, -0.0120766, -0.0353172, 0.00247443, -0.0135485, -0.0171753
0.119524, 0.108782, -0.773944, -0.91785, -1.45619, -0.626038, 1.07019, -0.256705, 0.0386861, 0.00680579, -0.0630615, 0.000794814, -0.00047067, 0.00565041, -0.000263449, 0.813057, 15.6799, 16.6578, 14.2737, 0.804015, 3.53274, -0.0557752, 0.000215283, -0.00173255, -0.000901169, -0.00219982, -0.004035, 0.00183254, 0.0155698, -0.000998636, 0.0188503, 0.0326801, 0.0569247, 0.121834, -0.0104592, -0.445193, 0.633676, -3.12877, -0.0573148, -0.112345, -0.010373, -0.443464, 0.634605, -3.13124, -0.0548267, -0.106155, 0.0178009, -0.0122702, -0.0359033, 0.000970562, -0.0140502, -0.0182307
0.120524, 0.10883, -0.773933, -0.917918, -1.45619, -0.626037, 1.07019, -0.256702, 0.0409639, 0.00974429, -0.0656455, 0.000357193, 0.000370494, 0.00447838, -0.00017563, 0.701973, 15.6046, 16.6221, 14.2737, 0.784789, 3.52542, -0.0557752, 0.000203989, -0.00173177, -0.00091702, -0.00222742, -0.00413426, 0.00186591, 0.014636, -0.000945494, 0.0185253, 0.0305525, 0.0610554, 0.124822, -0.0104412, -0.445205, 0.633639, -3.12869, -0.0573613, -0.112473, -0.0103676, -0.443478, 0.634584, -3.13119, -0.0548209, -0.106129, 0.0181163, -0.0124646, -0.0364926, 0.00223664, -0.0141559, -0.0190779
0.121524, 0.108871, -0.773927, -0.917983, -1.45619, -0.626041, 1.07019, -0.2567, 0.0420034, 0.00782373, -0.066247, -0.00213008, -1.12156e-05, 0.00280708, 0.000357634, 0.737679, 15.5688, 16.5467, 14.234, 0.791197, 3.53915, -0.0685925, 0.000186688, -0.00173218, -0.000934715, -0.00225733, -0.00423576, 0.00190809, 0.0149581, -0.000505061, 0.0179577, 0.0284044, 0.0627577, 0.128128, -0.0104229, -0.445218, 0.633603, -3.12861, -0.0574085, -0.112603, -0.010368, -0.443491, 0.634564, -3.13115, -0.0548021, -0.106102, 0.018434, -0.0126599, -0.0370852, 0.00225623, -0.0139179, -0.0202573
0.122524, 0.108915, -0.773919, -0.91806, -1.4562, -0.626042, 1.07019, -0.256701, 0.044052, 0.00642028, -0.0687756, -0.0027091, 0.000214243, 0.00262761, 0.000713142, 0.737679, 15.5331, 16.5467, 14.2737, 0.784789, 3.52542, -0.0814099, 0.000170198, -0.00172978, -0.000948691, -0.00228318, -0.00433749, 0.00194757, 0.0154189, -0.000771034, 0.0175486, 0.027072, 0.0626217, 0.130477, -0.0104044, -0.445231, 0.633565, -3.12852, -0.0574565, -0.112735, -0.0103669, -0.443507, 0.634539, -3.1311, -0.0547885, -0.106076, 0.0187541, -0.012856, -0.0376809, 0.00215486, -0.0143936, -0.0212982
0.123524, 0.108957, -0.773911, -0.918129, -1.45619, -0.626043, 1.07019, -0.256707, 0.0437755, 0.00455711, -0.0686763, -0.00114882, -0.00010626, 0.0022087, -0.000982633, 0.813057, 15.5331, 16.4713, 14.234, 0.791197, 3.5181, -0.0420422, 0.000152716, -0.00172898, -0.000967661, -0.002318, -0.00443701, 0.001985, 0.0167752, -0.000624117, 0.0185774, 0.0287964, 0.0610364, 0.133217, -0.0103854, -0.445244, 0.633527, -3.12844, -0.0575053, -0.11287, -0.0103669, -0.443522, 0.634519, -3.13105, -0.0547784, -0.106057, 0.0190766, -0.013053, -0.0382798, 0.00104486, -0.0145071, -0.0209692
0.124524, 0.109007, -0.773906, -0.918209, -1.45619, -0.626047, 1.07019, -0.256701, 0.0463228, 0.00636489, -0.0704931, -0.000133738, -0.000316996, 0.00161174, 0.000328257, 0.777352, 15.5331, 16.4713, 14.1983, 0.797606, 3.5181, -0.0685925, 0.000133846, -0.00172597, -0.000983117, -0.00234535, -0.00453907, 0.00203433, 0.0162727, -0.000763438, 0.0189289, 0.0288598, 0.0635854, 0.134637, -0.0103662, -0.445257, 0.633489, -3.12835, -0.0575548, -0.113006, -0.0103676, -0.443539, 0.634495, -3.131, -0.054751, -0.106035, 0.0194015, -0.0132507, -0.0388819, 0.00184906, -0.0148321, -0.0211874
0.125524, 0.109052, -0.773893, -0.918285, -1.45619, -0.626049, 1.07019, -0.256704, 0.0495129, 0.011757, -0.0744968, -0.00153247, 0.00046024, 0.000636414, -1.85205e-05, 0.813057, 15.4935, 16.4713, 14.1229, 0.779296, 3.53274, -0.0621838, 0.000115757, -0.00172462, -0.00100212, -0.00237789, -0.00464701, 0.00207813, 0.0144518, -0.000934536, 0.0180027, 0.025616, 0.0708343, 0.138396, -0.0103466, -0.44527, 0.633449, -3.12826, -0.0576051, -0.113144, -0.0103675, -0.443555, 0.634473, -3.13095, -0.0547327, -0.106006, 0.0197288, -0.0134493, -0.039487, 0.00406276, -0.0151263, -0.0225876
0.126524, 0.109099, -0.773889, -0.918363, -1.45619, -0.626053, 1.07019, -0.2567, 0.0488918, 0.0122121, -0.0767713, -0.0013904, -0.00037629, 0.00104515, 0.000462371, 0.85273, 15.6046, 16.4356, 14.1229, 0.797606, 3.5181, -0.0750012, 9.63204e-05, -0.00172248, -0.0010189, -0.00240885, -0.00475147, 0.00212616, 0.0157478, -0.00130624, 0.018105, 0.0261719, 0.0725751, 0.137311, -0.0103267, -0.445284, 0.63341, -3.12817, -0.0576562, -0.113285, -0.0103683, -0.443571, 0.634449, -3.1309, -0.0547087, -0.105985, 0.0200585, -0.0136486, -0.0400951, 0.00310565, -0.0157474, -0.0231929
0.127524, 0.10915, -0.773876, -0.91845, -1.4562, -0.626052, 1.07019, -0.256707, 0.0462334, 0.0132225, -0.0773078, -0.00296673, -1.72125e-05, 0.000484255, -0.00138717, 0.85273, 15.5688, 16.4713, 14.1983, 0.791197, 3.52542, -0.0292249, 7.96695e-05, -0.00172019, -0.001032, -0.00242868, -0.00486878, 0.0021618, 0.0167291, -0.000855132, 0.0181753, 0.0257034, 0.0754849, 0.139309, -0.0103065, -0.445298, 0.633369, -3.12808, -0.0577081, -0.113428, -0.0103657, -0.443588, 0.634421, -3.13084, -0.0547053, -0.105946, 0.0203905, -0.0138487, -0.0407063, 0.00243628, -0.0155354, -0.0238025
0.128524, 0.109199, -0.773864, -0.918532, -1.4562, -0.626056, 1.07019, -0.256699, 0.0464049, 0.0121973, -0.080069, -0.00347865, -1.42585e-05, 0.000366903, 0.001008, 0.888436, 15.6046, 16.4713, 14.1229, 0.791197, 3.52542, -0.0814099, 6.08039e-05, -0.00171816, -0.00104996, -0.00246037, -0.00498289, 0.00221759, 0.0180428, -0.00114189, 0.0178204, 0.0246036, 0.0758394, 0.137492, -0.010286, -0.445311, 0.633328, -3.12799, -0.0577607, -0.113573, -0.0103653, -0.443605, 0.634396, -3.13079, -0.0546709, -0.105914, 0.0207248, -0.0140495, -0.0413204, 0.00149611, -0.0160685, -0.0248707
0.129524, 0.109245, -0.773853, -0.918616, -1.45621, -0.626058, 1.07019, -0.2567, 0.0463329, 0.0155165, -0.0816336, -0.00365741, -0.000486311, 0.000277652, -4.00778e-05, 0.963814, 15.6046, 16.4713, 14.1626, 0.804015, 3.52542, -0.0621838, 4.08153e-05, -0.00171629, -0.00106562, -0.00248715, -0.00510186, 0.00226568, 0.0179178, -0.001172, 0.0180781, 0.0250288, 0.0806079, 0.139384, -0.0102651, -0.445326, 0.633287, -3.1279, -0.0578142, -0.11372, -0.0103656, -0.443622, 0.634369, -3.13073, -0.0546495, -0.105876, 0.0210615, -0.0142511, -0.0419374, 0.00193831, -0.0163009, -0.0252239
0.130524, 0.109292, -0.773839, -0.918701, -1.45621, -0.626059, 1.07019, -0.256703, 0.0458983, 0.0148533, -0.0842191, -0.005848, -0.000529224, 0.000481156, -2.67183e-05, 1.03919, 15.6046, 16.511, 14.1626, 0.809508, 3.5181, -0.0621838, 2.32348e-05, -0.00171484, -0.00108184, -0.00251494, -0.00522462, 0.00230894, 0.0189649, -0.00135926, 0.0173267, 0.023472, 0.0822891, 0.140335, -0.0102438, -0.44534, 0.633244, -3.1278, -0.0578684, -0.113869, -0.0103631, -0.443639, 0.634342, -3.13067, -0.0546364, -0.105835, 0.0214005, -0.0144534, -0.0425574, 0.00129363, -0.0167214, -0.0266734
0.131524, 0.109344, -0.773826, -0.918788, -1.45621, -0.626055, 1.07019, -0.256705, 0.0463681, 0.013375, -0.0832085, -0.00262472, 8.68194e-05, 0.000339361, -0.00147587, 1.07887, 15.6442, 16.5824, 14.0872, 0.797606, 3.5181, -0.0228162, 4.47244e-06, -0.00171311, -0.00110005, -0.00254304, -0.00533823, 0.00235439, 0.0197262, -0.00108345, 0.0191616, 0.0265518, 0.0791574, 0.143952, -0.0102223, -0.445355, 0.633201, -3.12771, -0.0579234, -0.114021, -0.0103617, -0.443656, 0.634316, -3.13061, -0.0546206, -0.10581, 0.0217418, -0.0146563, -0.0431802, 0.000731267, -0.0167019, -0.0255213
0.132524, 0.109393, -0.773808, -0.918878, -1.45622, -0.626058, 1.07019, -0.256697, 0.045942, 0.0163638, -0.0826632, -0.00528849, -0.000383811, 0.000240184, 0.00169485, 1.15424, 15.6442, 16.6578, 14.0872, 0.809508, 3.5181, -0.0951428, -1.49998e-05, -0.00171145, -0.00111553, -0.00256719, -0.00547178, 0.00241512, 0.0186701, -0.00054572, 0.0192633, 0.0269633, 0.0851294, 0.144185, -0.0102004, -0.445369, 0.633158, -3.12761, -0.0579792, -0.114174, -0.0103604, -0.443674, 0.634286, -3.13055, -0.0545822, -0.105756, 0.0220854, -0.01486, -0.0438058, 0.00209831, -0.0163333, -0.0259652
0.133524, 0.109449, -0.773792, -0.918964, -1.45623, -0.626059, 1.07019, -0.256701, 0.0472208, 0.0145997, -0.0826733, -0.00406519, -5.30837e-05, 0.000441847, -0.000328163, 1.15424, 15.6799, 16.6578, 14.0872, 0.804015, 3.51077, -0.0557752, -2.97385e-05, -0.00171044, -0.00113317, -0.00259637, -0.00560035, 0.00245146, 0.0191005, -0.000466813, 0.0201979, 0.0286169, 0.0831218, 0.149312, -0.0101781, -0.445384, 0.633114, -3.12751, -0.0580358, -0.11433, -0.0103543, -0.443691, 0.634259, -3.13049, -0.0545823, -0.105713, 0.0224314, -0.0150643, -0.0444342, 0.00194253, -0.016489, -0.0256944
0.134524, 0.109499, -0.773778, -0.919051, -1.45623, -0.62606, 1.07019, -0.256708, 0.0474205, 0.0157315, -0.0814554, -0.000423521, -0.000476694, 3.11403e-05, -0.00167684, 1.18995, 15.7513, 16.6935, 13.9722, 0.815917, 3.5181, -0.0164075, -4.9656e-05, -0.00170868, -0.00115353, -0.00263277, -0.00572403, 0.00249539, 0.0194447, -0.000177537, 0.0223098, 0.0325162, 0.0832442, 0.152025, -0.0101555, -0.445399, 0.633069, -3.12741, -0.0580933, -0.114488, -0.0103531, -0.443709, 0.634233, -3.13043, -0.054571, -0.105679, 0.0227796, -0.0152693, -0.0450654, 0.00178115, -0.0164473, -0.0242439
0.135524, 0.109548, -0.773762, -0.919139, -1.45624, -0.626059, 1.07019, -0.256698, 0.0474483, 0.014261, -0.0805222, -0.00387372, 0.000122642, 2.66424e-05, 0.00152697, 1.22962, 15.791, 16.7331, 13.9722, 0.804015, 3.5181, -0.0878186, -6.80678e-05, -0.00170864, -0.00117045, -0.00265856, -0.0058586, 0.00255336, 0.0190413, 0.000479117, 0.0221189, 0.0319959, 0.0844228, 0.153936, -0.0101325, -0.445415, 0.633024, -3.12731, -0.0581515, -0.114649, -0.01035, -0.443725, 0.634203, -3.13036, -0.0545393, -0.105631, 0.0231301, -0.0154749, -0.0456993, 0.00252081, -0.0159824, -0.0250342
0.136524, 0.109596, -0.77374, -0.919222, -1.45625, -0.626061, 1.07019, -0.256702, 0.049963, 0.0140343, -0.0779302, -0.00625955, -0.000596686, 0.000293441, -0.000440085, 1.305, 15.791, 16.6935, 13.9722, 0.822325, 3.51077, -0.0484509, -8.42815e-05, -0.00170851, -0.00119057, -0.00269623, -0.00599827, 0.00259719, 0.0170763, 0.00115409, 0.0227155, 0.0338643, 0.0869695, 0.163592, -0.0101092, -0.44543, 0.632978, -3.12721, -0.0582105, -0.114811, -0.0103445, -0.443742, 0.634176, -3.13031, -0.05453, -0.105577, 0.0234829, -0.0156811, -0.0463358, 0.00476081, -0.0154526, -0.0249265
0.137524, 0.109651, -0.773721, -0.919314, -1.45626, -0.62606, 1.07019, -0.256701, 0.0503561, 0.0153409, -0.0841912, -0.00701612, -0.000160641, -7.23316e-05, -2.21227e-05, 1.305, 15.8624, 16.7331, 13.9365, 0.815917, 3.5181, -0.0557752, -0.000102135, -0.00170819, -0.00120918, -0.0027244, -0.00613691, 0.00264658, 0.0186249, 0.000353413, 0.0213803, 0.0301524, 0.0898054, 0.161714, -0.0100856, -0.445446, 0.632931, -3.1271, -0.0582704, -0.114976, -0.0103401, -0.443759, 0.634147, -3.13024, -0.0545133, -0.105526, 0.0238379, -0.015888, -0.046975, 0.00369811, -0.0165017, -0.0270216
0.138524, 0.109702, -0.773701, -0.919406, -1.45627, -0.62606, 1.07019, -0.256704, 0.0465331, 0.0171087, -0.0867729, -0.00941808, -0.00010725, 0.000496795, -0.000998093, 1.34071, 15.9021, 16.8085, 13.9722, 0.815917, 3.50345, -0.0292249, -0.000119601, -0.00170759, -0.00122644, -0.00275316, -0.00628127, 0.00269243, 0.020345, 0.000277671, 0.0208193, 0.0291995, 0.0937948, 0.160499, -0.0100616, -0.445462, 0.632884, -3.127, -0.0583311, -0.115144, -0.010335, -0.443777, 0.634116, -3.13018, -0.0545029, -0.105469, 0.0241952, -0.0160954, -0.0476168, 0.00238301, -0.0168435, -0.0283526
0.139524, 0.109754, -0.773683, -0.919496, -1.45628, -0.626059, 1.07019, -0.256697, 0.0495689, 0.01773, -0.0885805, -0.00930276, 0.000369192, -0.000209477, 0.00150474, 1.38038, 15.9735, 16.7689, 13.9365, 0.804015, 3.5181, -0.0878186, -0.000138183, -0.00170739, -0.00124628, -0.00278671, -0.0064203, 0.00274846, 0.0197061, 0.000268346, 0.020874, 0.0283119, 0.0953498, 0.162164, -0.0100372, -0.445478, 0.632836, -3.12689, -0.0583926, -0.115313, -0.0103308, -0.443794, 0.634087, -3.13011, -0.0544773, -0.105423, 0.0245547, -0.0163034, -0.0482612, 0.0033735, -0.0170409, -0.0288978
0.140525, 0.109808, -0.773661, -0.919589, -1.45629, -0.62606, 1.07019, -0.256704, 0.0531115, 0.0190531, -0.0925184, -0.0062313, 4.2589e-05, 0.000133012, -0.00140434, 1.38038, 16.0092, 16.8085, 13.9008, 0.809508, 3.51077, -0.0228162, -0.000156563, -0.00170696, -0.00126624, -0.00281905, -0.00656716, 0.00279287, 0.0199775, -0.000612561, 0.0213379, 0.0289722, 0.0958712, 0.166231, -0.0100124, -0.445495, 0.632787, -3.12678, -0.0584549, -0.115485, -0.010326, -0.443812, 0.634057, -3.13005, -0.0544707, -0.105367, 0.0249165, -0.016512, -0.0489081, 0.00346192, -0.0181489, -0.0291141
0.141525, 0.10986, -0.773641, -0.919686, -1.4563, -0.626061, 1.07019, -0.256699, 0.0547694, 0.0190098, -0.0912804, -0.00480271, -0.000446391, 8.97216e-05, 0.000759198, 1.41608, 16.0846, 16.8085, 13.9008, 0.822325, 3.51077, -0.0685925, -0.000176407, -0.00170582, -0.00128456, -0.00285117, -0.00671614, 0.00285199, 0.0195576, -0.000317614, 0.0227401, 0.0318393, 0.0961658, 0.168073, -0.00998734, -0.445511, 0.632738, -3.12667, -0.058518, -0.115659, -0.0103222, -0.443831, 0.634024, -3.12998, -0.0544421, -0.10531, 0.0252805, -0.0167211, -0.0495576, 0.00412785, -0.0180699, -0.0283335
0.142525, 0.10992, -0.773621, -0.919786, -1.45632, -0.62606, 1.0702, -0.256704, 0.055615, 0.0231485, -0.0963562, -0.0098727, 0.000177074, 0.000603134, -0.00118929, 1.34071, 16.1203, 16.8085, 13.9008, 0.809508, 3.49612, -0.0228162, -0.000194173, -0.00170411, -0.00130312, -0.00288191, -0.00686371, 0.00289689, 0.0186544, -0.000709298, 0.0205982, 0.0273384, 0.104026, 0.172245, -0.00996188, -0.445528, 0.632688, -3.12656, -0.058582, -0.115835, -0.010316, -0.44385, 0.633992, -3.12991, -0.0544366, -0.105257, 0.0256467, -0.0169307, -0.0502094, 0.00556453, -0.0186113, -0.0310612
0.143525, 0.109974, -0.773599, -0.919892, -1.45632, -0.62606, 1.07019, -0.256698, 0.0573834, 0.01904, -0.0994379, -0.00898791, -0.000119347, 0.000640037, 0.00594175, 1.34071, 16.1957, 16.8085, 13.8254, 0.815917, 3.48971, -0.0814099, -0.000217496, -0.00170219, -0.00132121, -0.00290891, -0.00701641, 0.0029656, 0.0206642, -0.00130267, 0.0204762, 0.0268165, 0.100629, 0.166337, -0.00993605, -0.445545, 0.632638, -3.12645, -0.0586468, -0.116014, -0.0103149, -0.443871, 0.633958, -3.12984, -0.0543951, -0.105198, 0.0260151, -0.0171409, -0.0508638, 0.00395941, -0.01949, -0.0319955
0.144525, 0.110033, -0.773571, -0.919994, -1.45634, -0.626059, 1.07019, -0.256703, 0.0564289, 0.0209737, -0.101409, -0.0101041, 0.000361217, 0.000189774, 0.00169668, 1.305, 16.1957, 16.7689, 13.8254, 0.804015, 3.49612, -0.00999879, -0.000234777, -0.00170151, -0.00133968, -0.00293647, -0.00717802, 0.00301352, 0.0211717, -0.0011727, 0.0203214, 0.0257273, 0.104163, 0.171312, -0.00990985, -0.445562, 0.632586, -3.12633, -0.0587125, -0.116195, -0.0103075, -0.44389, 0.633924, -3.12976, -0.0543868, -0.105128, 0.0263857, -0.0173516, -0.0515205, 0.0038288, -0.0195904, -0.0328457
0.145525, 0.110093, -0.773547, -0.920101, -1.45635, -0.626059, 1.0702, -0.256694, 0.0557495, 0.0183418, -0.102529, -0.00910506, 0.00024079, 0.000635474, 0.00406126, 1.26533, 16.2314, 16.6935, 13.75, 0.804015, 3.48239, -0.0814099, -0.000254799, -0.00169875, -0.00135918, -0.0029703, -0.00733279, 0.00308004, 0.0231292, -0.00134629, 0.0209623, 0.0270811, 0.101729, 0.169265, -0.00988328, -0.44558, 0.632535, -3.12622, -0.058779, -0.116378, -0.0103024, -0.443911, 0.63389, -3.12969, -0.0543502, -0.105071, 0.0267585, -0.0175627, -0.0521796, 0.00220786, -0.0200597, -0.0330166
0.146525, 0.110147, -0.773523, -0.920213, -1.45637, -0.62606, 1.0702, -0.256698, 0.0564049, 0.0162428, -0.107776, -0.0109475, -0.000280298, 0.0012377, 0.0014634, 1.305, 16.2671, 16.6578, 13.7857, 0.815917, 3.46042, -0.0420422, -0.000278225, -0.00169653, -0.00137523, -0.00299492, -0.00749722, 0.00313951, 0.0251498, -0.00224379, 0.0195623, 0.024426, 0.10211, 0.171628, -0.00985633, -0.445598, 0.632482, -3.1261, -0.0588463, -0.116563, -0.0103002, -0.443932, 0.633852, -3.12961, -0.0543258, -0.105001, 0.0271335, -0.0177744, -0.052841, 0.000705146, -0.0212265, -0.0352383
0.147525, 0.11021, -0.773497, -0.92033, -1.45638, -0.626058, 1.0702, -0.256698, 0.0557561, 0.0195206, -0.106257, -0.0114359, 0.000491291, 0.00133395, 0.00211942, 1.26533, 16.2314, 16.6935, 13.7857, 0.797606, 3.44668, -0.0685925, -0.000298954, -0.00169287, -0.0013912, -0.0030198, -0.00766036, 0.00319951, 0.0240043, -0.00151775, 0.0206775, 0.0263848, 0.105932, 0.174509, -0.00982901, -0.445615, 0.632429, -3.12598, -0.0589145, -0.116751, -0.0102948, -0.443955, 0.633813, -3.12953, -0.0543016, -0.104935, 0.0275107, -0.0179865, -0.0535047, 0.00211131, -0.0206897, -0.0346995
0.148525, 0.110265, -0.773475, -0.920442, -1.45639, -0.626059, 1.0702, -0.256699, 0.0556547, 0.0169804, -0.106877, -0.00902567, 9.01597e-05, 0.0011607, 0.000312593, 1.34071, 16.2671, 16.6578, 13.6746, 0.804015, 3.43936, -0.0356336, -0.00032518, -0.00169014, -0.0014115, -0.00305287, -0.00781934, 0.00326762, 0.025933, -0.00161041, 0.0218309, 0.0284005, 0.103194, 0.176759, -0.00980131, -0.445634, 0.632375, -3.12586, -0.0589835, -0.116942, -0.0102949, -0.443977, 0.633778, -3.12945, -0.0542652, -0.104878, 0.02789, -0.018199, -0.0541706, 0.000484161, -0.0210865, -0.0343644
0.149525, 0.110336, -0.773447, -0.920552, -1.45641, -0.626053, 1.07021, -0.256699, 0.061087, 0.0200018, -0.109314, -0.0133737, 0.000975627, 0.00185898, 0.00104465, 1.18995, 16.2314, 16.5824, 13.6746, 0.779296, 3.41006, -0.0557752, -0.000338074, -0.00168901, -0.00142936, -0.00308013, -0.00798724, 0.00331006, 0.0225817, -0.00168293, 0.020496, 0.0256699, 0.109131, 0.184654, -0.00977323, -0.445652, 0.63232, -3.12574, -0.0590534, -0.117134, -0.0102812, -0.443998, 0.63374, -3.12937, -0.0542698, -0.10481, 0.0282715, -0.018412, -0.0548388, 0.00430511, -0.0212314, -0.0361167
0.150525, 0.110391, -0.773429, -0.920677, -1.45642, -0.626052, 1.07021, -0.256696, 0.0595281, 0.0195203, -0.112042, -0.0124075, 0.000650413, 0.0012394, 0.00123885, 1.26533, 16.3068, 16.6578, 13.6389, 0.779296, 3.41006, -0.0685925, -0.000368487, -0.0016852, -0.00144527, -0.00310181, -0.00814934, 0.00338926, 0.0249519, -0.0019188, 0.0207011, 0.0253682, 0.109637, 0.182617, -0.00974476, -0.44567, 0.632265, -3.12562, -0.0591241, -0.117329, -0.0102844, -0.444021, 0.633699, -3.12928, -0.0542185, -0.104752, 0.0286551, -0.0186253, -0.0555092, 0.0023184, -0.0217752, -0.0367669
0.151525, 0.11046, -0.773404, -0.920785, -1.45645, -0.626052, 1.07021, -0.256702, 0.0621065, 0.0220181, -0.112794, -0.013381, 0.000230155, 0.00133495, -0.000581391, 1.18995, 16.2671, 16.5467, 13.6746, 0.784789, 3.39633, -0.0292249, -0.000384992, -0.0016845, -0.00146443, -0.00313298, -0.00832423, 0.00343105, 0.0234939, -0.00184097, 0.0209048, 0.0258326, 0.114053, 0.18917, -0.00971592, -0.445689, 0.632209, -3.12549, -0.0591957, -0.117527, -0.0102736, -0.444042, 0.633661, -3.1292, -0.0542259, -0.104678, 0.0290408, -0.0188391, -0.0561817, 0.0041366, -0.0218633, -0.0371293
0.152525, 0.11052, -0.773379, -0.920911, -1.45646, -0.626054, 1.07021, -0.256696, 0.0630967, 0.023661, -0.117919, -0.0106398, -0.000321284, 0.00170381, 0.000871189, 1.26533, 16.2314, 16.6578, 13.5635, 0.797606, 3.37436, -0.0621838, -0.000412534, -0.00168025, -0.00148225, -0.00316082, -0.00849612, 0.00351119, 0.0251787, -0.00287419, 0.0210641, 0.0259263, 0.115333, 0.185579, -0.00968668, -0.445708, 0.632153, -3.12537, -0.0592682, -0.117726, -0.0102733, -0.444067, 0.63362, -3.12912, -0.0541747, -0.10461, 0.0294287, -0.0190533, -0.0568564, 0.00287106, -0.0231787, -0.0377882
0.153525, 0.110587, -0.773354, -0.921026, -1.45648, -0.626052, 1.07021, -0.256704, 0.0630911, 0.0248689, -0.11228, -0.0144791, 0.000260526, 0.00113591, -0.00108607, 1.26533, 16.1957, 16.6221, 13.5635, 0.784789, 3.37436, -0.0164075, -0.000432355, -0.0016793, -0.00150051, -0.00318771, -0.00867398, 0.00355877, 0.0224702, -0.00110787, 0.0221711, 0.0279712, 0.119603, 0.196534, -0.00965706, -0.445727, 0.632096, -3.12524, -0.0593415, -0.117929, -0.010265, -0.444088, 0.63358, -3.12903, -0.0541751, -0.104536, 0.0298187, -0.0192678, -0.0575331, 0.00580659, -0.0215473, -0.037139
0.154525, 0.110654, -0.773334, -0.921145, -1.4565, -0.626053, 1.07021, -0.256697, 0.0662167, 0.0240062, -0.113947, -0.012434, -6.36764e-05, 0.00153719, 0.000755437, 1.26533, 16.2314, 16.6935, 13.4882, 0.791197, 3.3533, -0.0557752, -0.000456243, -0.00167682, -0.00152005, -0.00321912, -0.00884567, 0.00362706, 0.0226614, -0.00152258, 0.0229362, 0.0294951, 0.118527, 0.197818, -0.00962704, -0.445747, 0.632038, -3.12511, -0.0594156, -0.118133, -0.0102605, -0.444111, 0.633539, -3.12894, -0.0541439, -0.104474, 0.0302108, -0.0194827, -0.0582119, 0.00596405, -0.0221989, -0.037078
0.155525, 0.110718, -0.773319, -0.921252, -1.45652, -0.626054, 1.07021, -0.256702, 0.0643786, 0.0193528, -0.110098, -0.0127421, -0.00051717, 0.00129608, -0.000463654, 1.305, 16.3068, 16.5824, 13.4882, 0.804015, 3.34598, -0.0292249, -0.000478401, -0.00167743, -0.00154186, -0.00325545, -0.00901833, 0.00367481, 0.0240188, -0.000574017, 0.024506, 0.0328086, 0.115337, 0.202591, -0.00959664, -0.445766, 0.631979, -3.12498, -0.0594907, -0.11834, -0.0102541, -0.444132, 0.633501, -3.12886, -0.0541454, -0.104413, 0.0306049, -0.019698, -0.0588927, 0.00484819, -0.021545, -0.0362884
0.156525, 0.110788, -0.773292, -0.921374, -1.45654, -0.626053, 1.07021, -0.256696, 0.0680971, 0.0227086, -0.112963, -0.0120642, 0.000129937, 0.00113533, 0.000923649, 1.26533, 16.2314, 16.6578, 13.4525, 0.791197, 3.33865, -0.0621838, -0.000499726, -0.00167558, -0.001561, -0.00328378, -0.00920157, 0.00374072, 0.0226482, -0.00084541, 0.0246003, 0.0321535, 0.118972, 0.205157, -0.00956583, -0.445786, 0.63192, -3.12485, -0.0595666, -0.11855, -0.0102462, -0.444155, 0.633459, -3.12877, -0.05412, -0.104338, 0.0310012, -0.0199136, -0.0595756, 0.00661053, -0.021986, -0.0367802
0.157525, 0.110854, -0.773274, -0.921502, -1.45656, -0.626052, 1.07021, -0.256699, 0.069026, 0.0223559, -0.118029, -0.0187253, 0.00353334, 0.000214365, -0.000358542, 1.305, 16.2671, 16.7689, 13.4525, 0.809508, 3.3533, -0.0356336, -0.000527326, -0.00167337, -0.0015781, -0.00330602, -0.00938029, 0.00380536, 0.0223841, -0.000653857, 0.0217119, 0.0239918, 0.122059, 0.211017, -0.00953463, -0.445806, 0.63186, -3.12472, -0.0596434, -0.118761, -0.010244, -0.444178, 0.633414, -3.12868, -0.0540977, -0.104271, 0.0313996, -0.0201295, -0.0602603, 0.00748001, -0.02196, -0.0403258
0.158525, 0.110919, -0.773255, -0.921625, -1.45658, -0.626054, 1.07022, -0.256698, 0.0688153, 0.0239286, -0.11925, -0.0155692, 0.00246194, 0.00095672, 5.10867e-06, 1.38038, 16.2314, 16.7689, 13.3771, 0.815917, 3.33133, -0.0420422, -0.000555362, -0.00167022, -0.00160035, -0.0033452, -0.00955718, 0.00387758, 0.0235128, -0.00104779, 0.0231827, 0.027474, 0.123042, 0.209883, -0.00950303, -0.445826, 0.6318, -3.12458, -0.059721, -0.118976, -0.0102422, -0.444203, 0.633374, -3.12859, -0.0540638, -0.104211, 0.0318, -0.0203457, -0.060947, 0.006657, -0.022639, -0.0396407
0.159525, 0.110986, -0.773239, -0.921751, -1.4566, -0.626055, 1.07022, -0.256697, 0.0697764, 0.0193012, -0.120846, -0.019097, 0.0018991, 0.00114645, 8.48888e-06, 1.41608, 16.3068, 16.7689, 13.4128, 0.815917, 3.31759, -0.0420422, -0.000582674, -0.00166858, -0.0016181, -0.00337037, -0.00974039, 0.00394205, 0.0247125, -0.00112223, 0.0221871, 0.0257107, 0.122123, 0.213686, -0.00947103, -0.445847, 0.631738, -3.12445, -0.0597996, -0.119192, -0.010239, -0.444227, 0.633328, -3.1285, -0.0540436, -0.104142, 0.0322025, -0.0205621, -0.0616356, 0.00593971, -0.0229635, -0.0414183
0.160525, 0.110986, -0.773239, -0.921751, -1.4566, -0.626055, 1.07022, -0.256697, 0.0697764, 0.0193012, -0.120846, -0.019097, 0.0018991, 0.00114645, 8.48888e-06, 1.41608, 16.3068, 16.7689, 13.4128, 0.815917, 3.31759, -0.0420422, -0.000609118, -0.00169153, -0.0016819, -0.00349679, -0.00988561, 0.00399101, 0.0250514, -0.000877003, 0.0229065, 0.0269504, 0.123098, 0.216208, -0.00943863, -0.445867, 0.631676, -3.12431, -0.059879, -0.119411, -0.010239, -0.444227, 0.633328, -3.1285, -0.0540436, -0.104142, 0.032607, -0.0207789, -0.062326, 0.00593971, -0.0229635, -0.0414183
0.161525, 0.11113, -0.773198, -0.922016, -1.45665, -0.626058, 1.07022, -0.256693, 0.067537, 0.0238669, -0.128214, -0.0222843, 0.000507611, 0.000588657, 0.00121857, 1.38038, 16.2314, 16.8799, 13.4128, 0.840636, 3.31759, -0.0814099, -0.000636004, -0.00166256, -0.00165348, -0.00342286, -0.0101205, 0.00408075, 0.0270719, -0.00174622, 0.020772, 0.022322, 0.132364, 0.210574, -0.00940582, -0.445888, 0.631614, -3.12417, -0.0599593, -0.119633, -0.01023, -0.444278, 0.633235, -3.1283, -0.0539907, -0.103992, 0.0330136, -0.0209959, -0.0630183, 0.00452665, -0.0240953, -0.0444091
0.162525, 0.1112, -0.773183, -0.922147, -1.45668, -0.626059, 1.07022, -0.256699, 0.0664412, 0.0233109, -0.132994, -0.0223577, 0.000243719, 0.000663708, -0.00111825, 1.38038, 16.2671, 16.8799, 13.3771, 0.846129, 3.31027, -0.0292249, -0.0006658, -0.00166013, -0.00167388, -0.00345344, -0.0103033, 0.00414446, 0.0296502, -0.00244065, 0.0201542, 0.0206632, 0.133214, 0.210606, -0.0093726, -0.445909, 0.63155, -3.12403, -0.0600404, -0.119857, -0.0102283, -0.444303, 0.63319, -3.12821, -0.0539741, -0.103932, 0.0334222, -0.0212132, -0.0637123, 0.00243813, -0.025098, -0.0459309
0.163525, 0.111263, -0.773164, -0.922291, -1.4567, -0.626059, 1.07022, -0.256696, 0.0638497, 0.022279, -0.137349, -0.0263472, 0.00024405, -6.61524e-05, 0.000239451, 1.45576, 16.1957, 17.0307, 13.3771, 0.846129, 3.324, -0.0557752, -0.00070091, -0.00165665, -0.00168967, -0.00347202, -0.0104978, 0.00423151, 0.0321294, -0.0026083, 0.0184183, 0.0163591, 0.136305, 0.207904, -0.00933897, -0.445931, 0.631486, -3.12389, -0.0601225, -0.120083, -0.0102311, -0.444329, 0.633139, -3.1281, -0.0539229, -0.103855, 0.0338328, -0.0214307, -0.0644081, 0.000515593, -0.0255527, -0.0485555
0.164525, 0.111337, -0.773151, -0.922422, -1.45673, -0.626056, 1.07022, -0.256697, 0.0645327, 0.0219819, -0.135998, -0.0301858, -1.34804e-05, 0.000193259, -0.000347786, 1.41608, 16.2314, 16.995, 13.4128, 0.852538, 3.31759, -0.0420422, -0.000728091, -0.00165532, -0.00170874, -0.00349845, -0.0106853, 0.00429164, 0.0310615, -0.00196433, 0.0183359, 0.0165877, 0.139525, 0.214581, -0.00930493, -0.445952, 0.631421, -3.12375, -0.0602054, -0.120312, -0.0102258, -0.444354, 0.633091, -3.12799, -0.053914, -0.103792, 0.0342455, -0.0216484, -0.0651057, 0.0019712, -0.0250892, -0.0492496
0.165525, 0.111411, -0.773127, -0.92256, -1.45676, -0.626055, 1.07022, -0.256693, 0.0706762, 0.0230139, -0.13615, -0.0287747, 3.68969e-05, -0.000379786, 0.00122711, 1.38038, 16.0846, 16.995, 13.4128, 0.852538, 3.33133, -0.0814099, -0.00075573, -0.00165339, -0.00172703, -0.00352173, -0.0108875, 0.00436592, 0.0287709, -0.00186095, 0.0192349, 0.0176672, 0.140967, 0.220855, -0.00927048, -0.445974, 0.631356, -3.1236, -0.0602893, -0.120544, -0.0102206, -0.444379, 0.633042, -3.12789, -0.0538844, -0.103709, 0.0346601, -0.0218663, -0.0658049, 0.00459277, -0.0251359, -0.0488793
0.166525, 0.111482, -0.773118, -0.922703, -1.45679, -0.62606, 1.07022, -0.256699, 0.0696173, 0.0215609, -0.137746, -0.0307562, -0.000619158, 1.80774e-05, -0.00111403, 1.34071, 16.16, 17.0664, 13.4128, 0.870848, 3.324, -0.0292249, -0.000790696, -0.00164969, -0.00174376, -0.00354564, -0.0110827, 0.00443749, 0.0302292, -0.00194564, 0.0189296, 0.0173722, 0.142175, 0.224178, -0.00923561, -0.445996, 0.63129, -3.12346, -0.060374, -0.120777, -0.0102221, -0.444407, 0.63299, -3.12778, -0.0538598, -0.103639, 0.0350768, -0.0220844, -0.0665058, 0.00358107, -0.025493, -0.0500037
0.167525, 0.111556, -0.773103, -0.922838, -1.45682, -0.626055, 1.07022, -0.256696, 0.0678212, 0.0202238, -0.136899, -0.0277248, 0.000528565, -0.000530483, 0.000241167, 1.34071, 16.1203, 17.0664, 13.3414, 0.846129, 3.33865, -0.0557752, -0.000820223, -0.001649, -0.00176434, -0.00357157, -0.0112747, 0.00450734, 0.03196, -0.00146002, 0.0207939, 0.0199302, 0.139224, 0.223244, -0.00920033, -0.446018, 0.631223, -3.12331, -0.0604596, -0.121014, -0.0102181, -0.444431, 0.632941, -3.12767, -0.0538387, -0.103576, 0.0354954, -0.0223027, -0.0672083, 0.00211035, -0.0253275, -0.0489807
0.168525, 0.111623, -0.773091, -0.922982, -1.45685, -0.626057, 1.07022, -0.256697, 0.0666039, 0.0182332, -0.137609, -0.0280812, -0.000340343, 0.000426239, -0.000347466, 1.34071, 16.1203, 17.1061, 13.3771, 0.865355, 3.31759, -0.0420422, -0.000854828, -0.00164565, -0.00178109, -0.00359729, -0.0114744, 0.00458436, 0.0336821, -0.00160342, 0.0212761, 0.0216788, 0.138679, 0.224423, -0.00916462, -0.446041, 0.631155, -3.12316, -0.0605461, -0.121253, -0.0102184, -0.444459, 0.632887, -3.12756, -0.0538075, -0.103504, 0.0359161, -0.0225212, -0.0679124, 0.000781166, -0.0257676, -0.0493456
0.169525, 0.111699, -0.773078, -0.923122, -1.45689, -0.626058, 1.07023, -0.256694, 0.0694607, 0.0175189, -0.139868, -0.0330994, -0.000653187, 0.000555427, 0.000989345, 1.305, 16.0846, 17.0664, 13.4882, 0.877257, 3.31027, -0.0750012, -0.00088355, -0.00164413, -0.00179709, -0.00361934, -0.0116819, 0.00465226, 0.0327447, -0.00163569, 0.019726, 0.0186627, 0.142555, 0.229188, -0.00912849, -0.446063, 0.631087, -3.12301, -0.0606336, -0.121494, -0.0102124, -0.444485, 0.632833, -3.12745, -0.0537916, -0.103423, 0.0363387, -0.0227398, -0.068618, 0.00225604, -0.025961, -0.0515298
0.170525, 0.111778, -0.773068, -0.923272, -1.45693, -0.626056, 1.07023, -0.2567, 0.0752291, 0.0130195, -0.144612, -0.0331261, 1.62401e-05, 0.000370285, -0.001273, 1.22962, 16.0846, 17.0664, 13.4525, 0.865355, 3.31027, -0.0228162, -0.000917269, -0.00164078, -0.00181387, -0.00363923, -0.0118809, 0.00472, 0.0333382, -0.00244566, 0.0187487, 0.0156303, 0.138974, 0.236512, -0.00909194, -0.446086, 0.631018, -3.12286, -0.0607219, -0.121738, -0.010211, -0.444513, 0.632778, -3.12733, -0.053777, -0.103357, 0.0367632, -0.0229586, -0.0693252, 0.00219454, -0.0269993, -0.0532749
0.171525, 0.111851, -0.773064, -0.923427, -1.45697, -0.626056, 1.07023, -0.256691, 0.0781854, 0.0110896, -0.142521, -0.0351162, 0.000256352, 0.000518124, 0.000846914, 1.22962, 16.16, 17.0664, 13.4882, 0.858946, 3.30295, -0.0685925, -0.000954937, -0.00163725, -0.00182728, -0.00365314, -0.0120824, 0.00480657, 0.0318223, -0.0017892, 0.0193042, 0.016789, 0.139058, 0.242661, -0.00905497, -0.446109, 0.630949, -3.12271, -0.0608111, -0.121984, -0.0102128, -0.444542, 0.632719, -3.12721, -0.0537344, -0.103288, 0.0371897, -0.0231774, -0.0700339, 0.00405987, -0.0265185, -0.0533079
0.172525, 0.11193, -0.773044, -0.923573, -1.457, -0.626053, 1.07023, -0.256697, 0.0752408, 0.0173528, -0.139639, -0.0306853, -6.03329e-05, 0.000887951, -0.000655973, 1.18995, 16.0489, 16.995, 13.4128, 0.865355, 3.2883, -0.0356336, -0.000984996, -0.00163525, -0.00184668, -0.0036788, -0.0122933, 0.0048724, 0.0315815, -0.00112087, 0.0225751, 0.0235327, 0.14334, 0.243561, -0.00901756, -0.446132, 0.630878, -3.12255, -0.0609012, -0.122233, -0.0102072, -0.444569, 0.632665, -3.1271, -0.0537245, -0.103209, 0.0376182, -0.0233964, -0.0707441, 0.00444472, -0.0261225, -0.0507348
0.173525, 0.112009, -0.773038, -0.923726, -1.45704, -0.626055, 1.07023, -0.256693, 0.0736768, 0.0120254, -0.143017, -0.0324233, -3.56284e-05, 0.000591967, 0.0012582, 1.11457, 16.0846, 17.0307, 13.4128, 0.865355, 3.2883, -0.0814099, -0.00102088, -0.0016321, -0.00186208, -0.00369699, -0.0125013, 0.00495141, 0.0350178, -0.00143036, 0.0216741, 0.0211001, 0.140442, 0.241026, -0.00897973, -0.446156, 0.630807, -3.12239, -0.0609922, -0.122484, -0.0102066, -0.444597, 0.632607, -3.12697, -0.0536954, -0.103136, 0.0380486, -0.0236155, -0.0714557, 0.00153147, -0.0267717, -0.0526249
0.174525, 0.112084, -0.773027, -0.923879, -1.45708, -0.626056, 1.07023, -0.256696, 0.075977, 0.00982116, -0.145149, -0.0338684, -0.000223758, 0.000123378, -0.00109391, 1.15424, 16.0489, 17.0307, 13.4128, 0.870848, 3.29562, -0.0292249, -0.00105645, -0.00162932, -0.00187878, -0.00371901, -0.0127154, 0.00502684, 0.0355156, -0.00154599, 0.0211786, 0.019509, 0.140722, 0.247293, -0.00894147, -0.44618, 0.630735, -3.12224, -0.0610841, -0.122738, -0.0102053, -0.444626, 0.632549, -3.12685, -0.0536728, -0.103057, 0.0384809, -0.0238347, -0.0721687, 0.00150828, -0.0271218, -0.0538792
0.175525, 0.112163, -0.773017, -0.924039, -1.45712, -0.626058, 1.07024, -0.25669, 0.0748962, 0.0103786, -0.144086, -0.0332549, -0.000621306, 8.22518e-05, 0.000728837, 1.18995, 16.0489, 17.0664, 13.3414, 0.883666, 3.29562, -0.0685925, -0.0010938, -0.0016248, -0.0018943, -0.00373936, -0.0129284, 0.00511348, 0.0360514, -0.00111216, 0.0224667, 0.0220735, 0.142172, 0.247296, -0.00890277, -0.446204, 0.630663, -3.12208, -0.061177, -0.122995, -0.0102053, -0.444656, 0.632489, -3.12673, -0.0536338, -0.102981, 0.0389151, -0.0240539, -0.0728831, 0.0012879, -0.0269565, -0.0533521
0.176525, 0.112251, -0.773008, -0.924198, -1.45718, -0.626055, 1.07024, -0.2567, 0.0767862, 0.0140738, -0.145283, -0.0394585, -0.000412266, 5.48346e-05, -0.00195548, 1.11457, 16.0489, 17.0664, 13.4128, 0.883666, 3.29562, -0.00267457, -0.00112426, -0.00162223, -0.00190672, -0.00374984, -0.0131486, 0.00516748, 0.0335475, -0.000650884, 0.0210346, 0.0190829, 0.150874, 0.25678, -0.00886363, -0.446228, 0.630589, -3.12192, -0.0612707, -0.123253, -0.0101978, -0.444685, 0.632425, -3.1266, -0.0536469, -0.102897, 0.0393512, -0.0242732, -0.0735988, 0.00430912, -0.0265979, -0.0552969
0.177525, 0.112334, -0.772993, -0.924347, -1.45722, -0.626057, 1.07024, -0.256698, 0.0793212, 0.0122778, -0.14684, -0.0405878, -0.000273391, 0.000579091, -8.29195e-05, 1.11457, 15.9735, 16.9553, 13.3414, 0.883666, 3.28097, -0.0356336, -0.00115549, -0.0016207, -0.0019259, -0.00377685, -0.0133727, 0.00524009, 0.0335305, -0.000814158, 0.0208938, 0.0187944, 0.150589, 0.259508, -0.00882406, -0.446252, 0.630515, -3.12175, -0.0613653, -0.123515, -0.0101912, -0.444713, 0.632368, -3.12648, -0.0536315, -0.10281, 0.0397893, -0.0244926, -0.0743159, 0.00477873, -0.0269823, -0.0561617
0.178525, 0.112418, -0.772986, -0.924509, -1.45727, -0.626055, 1.07024, -0.256699, 0.0804714, 0.00819907, -0.148458, -0.0452545, -0.000384621, 0.000114793, -0.000292617, 1.15424, 16.0092, 17.0307, 13.3017, 0.889159, 3.2883, -0.0292249, -0.00119064, -0.00161756, -0.00193997, -0.00379128, -0.0135923, 0.00531223, 0.0342694, -0.0006375, 0.0195295, 0.0156427, 0.151008, 0.264589, -0.00878406, -0.446277, 0.630441, -3.12159, -0.0614609, -0.123779, -0.0101876, -0.444743, 0.632305, -3.12634, -0.0536182, -0.102732, 0.0402292, -0.0247119, -0.0750342, 0.00458021, -0.0270336, -0.0583023
0.179525, 0.112507, -0.772979, -0.924673, -1.45733, -0.626056, 1.07024, -0.256695, 0.0814585, 0.00826707, -0.14985, -0.0475109, -0.000730314, 7.6529e-05, 0.00102564, 1.18995, 16.0489, 17.0664, 13.3414, 0.901976, 3.2883, -0.0621838, -0.00122413, -0.00161474, -0.001952, -0.00380182, -0.0138207, 0.00538425, 0.0342481, -0.000567079, 0.0191632, 0.0148032, 0.153947, 0.266786, -0.00874361, -0.446302, 0.630365, -3.12142, -0.0615574, -0.124045, -0.0101818, -0.444772, 0.632239, -3.12621, -0.0536064, -0.102642, 0.040671, -0.0249313, -0.0757538, 0.00506662, -0.02718, -0.0593907
0.180525, 0.112596, -0.772967, -0.924835, -1.45738, -0.626056, 1.07025, -0.256697, 0.0814945, 0.0134129, -0.148592, -0.0496624, -0.000486263, -0.000220248, -0.00101165, 1.26533, 16.0092, 17.0307, 13.266, 0.901976, 3.29562, -0.0164075, -0.00125588, -0.00161218, -0.00196653, -0.00381796, -0.0140526, 0.00545099, 0.0321842, 0.000264364, 0.0197623, 0.0156722, 0.161444, 0.273606, -0.00870271, -0.446327, 0.630289, -3.12126, -0.0616548, -0.124315, -0.010174, -0.444802, 0.632174, -3.12607, -0.0536036, -0.10255, 0.0411146, -0.0251507, -0.0764746, 0.00748259, -0.026505, -0.0593431
0.181525, 0.11269, -0.772953, -0.925012, -1.45744, -0.626058, 1.07025, -0.256695, 0.0854244, 0.0139578, -0.156782, -0.057079, -0.00100188, 0.000633062, -0.000437064, 1.305, 15.9735, 17.1061, 13.3017, 0.920287, 3.27456, -0.0228162, -0.00128804, -0.0016064, -0.00197487, -0.00382442, -0.0142945, 0.00552439, 0.0318234, -0.000919923, 0.0159008, 0.00822532, 0.168236, 0.27683, -0.00866138, -0.446352, 0.630212, -3.12109, -0.0617531, -0.124586, -0.0101655, -0.444834, 0.632103, -3.12593, -0.053592, -0.102444, 0.0415602, -0.0253701, -0.0771966, 0.00863844, -0.0278254, -0.0639097
