alisrour97/Franka_experiments/Real_Robot_scripts/servo-franka/Data4/log_dyn_INITw_ki_14.csv
Time,q1,q2,q3,q4,q5,q6,q7,dq1,dq2,dq3,dq4,dq5,dq6,dq7,t1,t2,t3,t4,t5,t6,t7,ex1,ex2,ex3,ex4,ex5,ex6,ev1,ev2,ev3,ev4,ev5,ev6,xd,yd,zd,uxd,uyd,uzd,x,y,z,ux,uy,uz,vxd,vyd,vzd,vx,vy,vz
9.76563e-07, 0.107586, -0.774275, -0.916586, -1.45709, -0.625257, 1.06977, -0.256728, 0.00232082, 0.00655062, 0.00934389, 0.00274097, -0.000187163, -3.90725e-05, 0.000317423, -0.468376, 15.4935, 19.8951, 17.1103, 1.00635, 3.94839, -0.180287, 0.000824318, -0.00171759, 0.00042156, 0.00101907, -0.000662892, 0.000134111, -0.00540957, 0.00170789, 0.00366247, 0.00793809, 0.00450018, 0.00760254, -0.011112, -0.444721, 0.635038, -3.13187, -0.0555627, -0.107532, -0.0103364, -0.442974, 0.634678, -3.13088, -0.0557887, -0.106454, 0, 0, 0, 0.00508185, 0.00186556, 0.0040359
0.0122603, 0.107604, -0.77423, -0.916533, -1.45706, -0.625265, 1.06977, -0.256721, -6.05353e-05, 0.000905365, 0.00706905, 0.000631809, -0.000611198, 0.000676369, -0.000285257, -0.392998, 15.7513, 20.0101, 17.0349, 1.02466, 3.9191, -0.193104, 0.000855448, -0.00172511, 0.000396056, 0.000959592, -0.000690506, 0.000102538, -0.00233991, 0.00115523, 0.00230277, 0.00585751, 0.000292297, 0.00500274, -0.011112, -0.444721, 0.635038, -3.13187, -0.0555627, -0.107532, -0.0102935, -0.442963, 0.634712, -3.13095, -0.0558648, -0.106391, 1.73063e-06, 3.0097e-06, -3.96181e-06, 0.00213585, 0.00121999, 0.00246119
0.0132605, 0.107604, -0.77423, -0.916533, -1.45706, -0.625265, 1.06977, -0.256721, -6.05353e-05, 0.000905365, 0.00706905, 0.000631809, -0.000611198, 0.000676369, -0.000285257, -0.392998, 15.7513, 20.0101, 17.0349, 1.02466, 3.9191, -0.193104, 0.000855444, -0.0017251, 0.000396046, 0.000959572, -0.000690529, 0.000102538, -0.00233523, 0.0011465, 0.00231503, 0.00588215, 0.000295639, 0.00504941, -0.011112, -0.444721, 0.635038, -3.13187, -0.0555627, -0.107532, -0.0102935, -0.442963, 0.634712, -3.13095, -0.0558648, -0.106391, 6.91577e-06, 1.20019e-05, -1.58141e-05, 0.00213585, 0.00121999, 0.00246119
0.0142605, 0.107604, -0.77423, -0.916533, -1.45706, -0.625265, 1.06977, -0.256721, -6.05353e-05, 0.000905365, 0.00706905, 0.000631809, -0.000611198, 0.000676369, -0.000285257, -0.392998, 15.7513, 20.0101, 17.0349, 1.02466, 3.9191, -0.193104, 0.000855434, -0.00172508, 0.000396021, 0.000959517, -0.000690592, 0.00010254, -0.00232746, 0.00113202, 0.00233539, 0.00592308, 0.000301215, 0.00512695, -0.011112, -0.444721, 0.635038, -3.13187, -0.0555627, -0.107532, -0.0102935, -0.442963, 0.634712, -3.13095, -0.0558648, -0.106391, 1.55453e-05, 2.69215e-05, -3.55071e-05, 0.00213585, 0.00121999, 0.00246119
0.0152605, 0.107604, -0.77423, -0.916533, -1.45706, -0.625265, 1.06977, -0.256721, -6.05353e-05, 0.000905365, 0.00706905, 0.000631809, -0.000611198, 0.000676369, -0.000285257, -0.392998, 15.7513, 20.0101, 17.0349, 1.02466, 3.9191, -0.193104, 0.000855415, -0.00172505, 0.000395971, 0.000959411, -0.000690714, 0.000102544, -0.00231659, 0.00111184, 0.00236382, 0.00598017, 0.000309029, 0.00523515, -0.011112, -0.444721, 0.635038, -3.13187, -0.0555628, -0.107532, -0.0102935, -0.442963, 0.634712, -3.13095, -0.0558648, -0.106391, 2.7609e-05, 4.77135e-05, -6.29913e-05, 0.00213585, 0.00121999, 0.00246119
0.0162607, 0.107604, -0.77423, -0.916533, -1.45706, -0.625265, 1.06977, -0.256721, -6.05353e-05, 0.000905365, 0.00706905, 0.000631809, -0.000611198, 0.000676369, -0.000285257, -0.392998, 15.7513, 20.0101, 17.0349, 1.02466, 3.9191, -0.193104, 0.000855383, -0.00172499, 0.000395888, 0.000959237, -0.000690914, 0.000102549, -0.00230263, 0.00108602, 0.00240025, 0.0060533, 0.000319088, 0.00537381, -0.0111119, -0.444721, 0.635038, -3.13187, -0.0555628, -0.107532, -0.0102935, -0.442963, 0.634712, -3.13095, -0.0558648, -0.106391, 4.30968e-05, 7.4323e-05, -9.82172e-05, 0.00213585, 0.00121999, 0.00246119
0.017261, 0.107604, -0.77423, -0.916533, -1.45706, -0.625265, 1.06977, -0.256721, -6.05353e-05, 0.000905365, 0.00706905, 0.000631809, -0.000611198, 0.000676369, -0.000285257, -0.392998, 15.7513, 20.0101, 17.0349, 1.02466, 3.9191, -0.193104, 0.000855336, -0.0017249, 0.000395766, 0.000958979, -0.000691212, 0.000102558, -0.0022856, 0.00105461, 0.00244463, 0.00614235, 0.000331395, 0.00554272, -0.0111119, -0.444721, 0.635038, -3.13187, -0.0555628, -0.107533, -0.0102935, -0.442963, 0.634712, -3.13095, -0.0558648, -0.106391, 6.19987e-05, 0.000106695, -0.000141136, 0.00213585, 0.00121999, 0.00246119
0.018261, 0.107604, -0.77423, -0.916533, -1.45706, -0.625265, 1.06977, -0.256721, -6.05353e-05, 0.000905365, 0.00706905, 0.000631809, -0.000611198, 0.000676369, -0.000285257, -0.392998, 15.7513, 20.0101, 17.0349, 1.02466, 3.9191, -0.193104, 0.00085527, -0.00172478, 0.000395596, 0.000958618, -0.000691628, 0.000102571, -0.00226549, 0.00101766, 0.00249693, 0.00624721, 0.000345955, 0.00574168, -0.0111118, -0.44472, 0.635037, -3.13187, -0.0555628, -0.107533, -0.0102935, -0.442963, 0.634712, -3.13095, -0.0558648, -0.106391, 8.43044e-05, 0.000144776, -0.000191697, 0.00213585, 0.00121999, 0.00246119
0.019261, 0.107604, -0.77423, -0.916533, -1.45706, -0.625265, 1.06977, -0.256721, -6.05353e-05, 0.000905365, 0.00706905, 0.000631809, -0.000611198, 0.000676369, -0.000285257, -0.392998, 15.7513, 20.0101, 17.0349, 1.02466, 3.9191, -0.193104, 0.000855183, -0.00172462, 0.000395369, 0.00095814, -0.000692179, 0.000102587, -0.00224233, 0.00097523, 0.00255708, 0.00636774, 0.000362773, 0.0059705, -0.0111117, -0.44472, 0.635037, -3.13187, -0.0555629, -0.107534, -0.0102935, -0.442963, 0.634712, -3.13095, -0.0558648, -0.106391, 0.000110004, 0.000188511, -0.000249853, 0.00213585, 0.00121999, 0.00246119
0.0202615, 0.107604, -0.77423, -0.916533, -1.45706, -0.625265, 1.06977, -0.256721, -6.05353e-05, 0.000905365, 0.00706905, 0.000631809, -0.000611198, 0.000676369, -0.000285257, -0.392998, 15.7513, 20.0101, 17.0349, 1.02466, 3.9191, -0.193104, 0.00085507, -0.00172441, 0.000395079, 0.000957528, -0.000692885, 0.000102608, -0.00221611, 0.000927372, 0.00262503, 0.00650384, 0.000381853, 0.00622896, -0.0111116, -0.44472, 0.635037, -3.13187, -0.0555629, -0.107535, -0.0102935, -0.442963, 0.634712, -3.13095, -0.0558648, -0.106391, 0.000139087, 0.000237846, -0.000315553, 0.00213585, 0.00121999, 0.00246119
0.0212615, 0.107604, -0.77423, -0.916533, -1.45706, -0.625265, 1.06977, -0.256721, -6.05353e-05, 0.000905365, 0.00706905, 0.000631809, -0.000611198, 0.000676369, -0.000285257, -0.392998, 15.7513, 20.0101, 17.0349, 1.02466, 3.9191, -0.193104, 0.00085493, -0.00172415, 0.000394718, 0.000956764, -0.000693766, 0.000102635, -0.00218685, 0.000874139, 0.00270075, 0.00665537, 0.0004032, 0.00651688, -0.0111114, -0.44472, 0.635037, -3.13186, -0.055563, -0.107537, -0.0102935, -0.442963, 0.634712, -3.13095, -0.0558648, -0.106391, 0.000171544, 0.000292726, -0.00038875, 0.00213585, 0.00121999, 0.00246119
0.0222615, 0.107604, -0.77423, -0.916533, -1.45706, -0.625265, 1.06977, -0.256721, -6.05353e-05, 0.000905365, 0.00706905, 0.000631809, -0.000611198, 0.000676369, -0.000285257, -0.392998, 15.7513, 20.0101, 17.0349, 1.02466, 3.9191, -0.193104, 0.000854759, -0.00172384, 0.000394277, 0.000955834, -0.000694838, 0.000102668, -0.00215456, 0.000815584, 0.00278417, 0.00682223, 0.000426819, 0.00683405, -0.0111112, -0.444719, 0.635036, -3.13186, -0.055563, -0.107538, -0.0102935, -0.442963, 0.634712, -3.13095, -0.0558648, -0.106391, 0.000207364, 0.000353099, -0.000469394, 0.00213585, 0.00121999, 0.00246119
0.0488887, 0.10762, -0.774254, -0.916854, -1.4574, -0.625435, 1.06976, -0.256717, 0.00194995, -9.84622e-06, -0.0272795, -0.0246053, -0.013208, 0.000407558, -0.00107929, -0.43267, 15.3864, 18.9271, 16.3644, 0.822325, 3.71127, -0.0420422, 0.000787778, -0.00166374, 0.000591883, 0.00128928, -0.00104341, 0.000241171, 0.0055681, -0.00578497, -0.0147118, -0.0241736, 0.0272323, -0.00924324, -0.011111, -0.444719, 0.635036, -3.13186, -0.0555631, -0.10754, -0.0103444, -0.443024, 0.63451, -3.13064, -0.0556637, -0.105826, 0.000246538, 0.00041891, -0.000557437, -0.00409164, -0.00543156, -0.0156524
0.0498887, 0.10762, -0.774254, -0.916854, -1.4574, -0.625435, 1.06976, -0.256717, 0.00194995, -9.84622e-06, -0.0272795, -0.0246053, -0.013208, 0.000407558, -0.00107929, -0.43267, 15.3864, 18.9271, 16.3644, 0.822325, 3.71127, -0.0420422, 0.000787536, -0.0016633, 0.000591261, 0.00128797, -0.00104492, 0.000241218, 0.00560646, -0.00585403, -0.0146131, -0.0239764, 0.0272605, -0.00886826, -0.0111107, -0.444719, 0.635035, -3.13186, -0.0555632, -0.107542, -0.0103444, -0.443024, 0.63451, -3.13064, -0.0556637, -0.105826, 0.000289055, 0.000490107, -0.00065283, -0.00409164, -0.00543156, -0.0156524
0.0508887, 0.10762, -0.774254, -0.916854, -1.4574, -0.625435, 1.06976, -0.256717, 0.00194995, -9.84622e-06, -0.0272795, -0.0246053, -0.013208, 0.000407558, -0.00107929, -0.43267, 15.3864, 18.9271, 16.3644, 0.822325, 3.71127, -0.0420422, 0.000787254, -0.00166278, 0.000590537, 0.00128645, -0.00104668, 0.000241274, 0.00564784, -0.00592826, -0.0145068, -0.0237642, 0.027291, -0.00846463, -0.0111104, -0.444718, 0.635034, -3.13186, -0.0555634, -0.107545, -0.0103444, -0.443024, 0.63451, -3.13064, -0.0556637, -0.105826, 0.000334905, 0.000566635, -0.000755525, -0.00409164, -0.00543156, -0.0156524
0.0518887, 0.107633, -0.774276, -0.917027, -1.45752, -0.625502, 1.06976, -0.25671, 0.00207855, -0.00381796, -0.0371589, -0.0270651, -0.0108864, 0.000816526, 0.00423685, -0.583427, 15.1642, 18.4827, 16.5509, 0.804015, 3.68289, -0.0951428, 0.00074217, -0.00162743, 0.000675508, 0.00143336, -0.00116017, 0.000337839, 0.00896058, -0.00765741, -0.0180645, -0.0322601, 0.0236147, -0.0183515, -0.0111101, -0.444717, 0.635033, -3.13186, -0.0555635, -0.107548, -0.0103819, -0.443059, 0.634421, -3.1305, -0.0555197, -0.105642, 0.000384079, 0.000648441, -0.000865474, -0.00704009, -0.00716364, -0.0195499
0.0528887, 0.107641, -0.774281, -0.917071, -1.45754, -0.625519, 1.06976, -0.256718, 0.00314896, -0.00548729, -0.0388781, -0.0264625, -0.013143, 7.4244e-07, 0.000612286, -0.658806, 15.1285, 18.4827, 16.5509, 0.804015, 3.69754, -0.0292249, 0.000730808, -0.00161766, 0.000694539, 0.0014674, -0.00118842, 0.000352575, 0.0102494, -0.00828533, -0.0184146, -0.0326963, 0.0237963, -0.0158946, -0.0111097, -0.444717, 0.635033, -3.13186, -0.0555637, -0.107552, -0.0103912, -0.443068, 0.6344, -3.13046, -0.0554984, -0.105599, 0.000436566, 0.000735474, -0.000982628, -0.00822613, -0.0077464, -0.0201087
0.0538926, 0.107641, -0.774281, -0.917071, -1.45754, -0.625519, 1.06976, -0.256718, 0.00314896, -0.00548729, -0.0388781, -0.0264625, -0.013143, 7.4244e-07, 0.000612286, -0.658806, 15.1285, 18.4827, 16.5509, 0.804015, 3.69754, -0.0292249, 0.000730388, -0.0016169, 0.000693464, 0.00146514, -0.00119103, 0.00035266, 0.0102997, -0.00837475, -0.0182859, -0.0324398, 0.0238337, -0.0154063, -0.0111092, -0.444716, 0.635032, -3.13185, -0.0555639, -0.107556, -0.0103912, -0.443068, 0.6344, -3.13046, -0.0554984, -0.105599, 0.000492356, 0.000827679, -0.00110694, -0.00822613, -0.0077464, -0.0201087
0.0548926, 0.107635, -0.774284, -0.917142, -1.45759, -0.625542, 1.06977, -0.256705, 0.000533403, -0.00727079, -0.0353624, -0.0259567, -0.0150521, 0.000349576, 0.00269702, -0.583427, 15.0174, 18.2209, 16.5509, 0.779296, 3.69021, -0.114369, 0.000709296, -0.00160204, 0.000726918, 0.00152157, -0.00124207, 0.000411737, 0.0113617, -0.00807157, -0.0169517, -0.0284158, 0.0228593, -0.0180782, -0.0111087, -0.444715, 0.63503, -3.13185, -0.0555641, -0.10756, -0.0104089, -0.443083, 0.634364, -3.13041, -0.0554091, -0.105519, 0.000551439, 0.000925004, -0.00123836, -0.00932794, -0.00739489, -0.0189803
0.0558926, 0.107633, -0.774277, -0.917185, -1.45762, -0.625555, 1.06976, -0.256714, -0.00057241, -0.00311694, -0.0413049, -0.0287654, -0.0111242, -0.000276029, -0.00125881, -0.543754, 14.9063, 18.2209, 16.5509, 0.772887, 3.70395, -0.0292249, 0.000698954, -0.00159385, 0.00074566, 0.0015578, -0.00128195, 0.000429895, 0.0112687, -0.00845991, -0.019224, -0.0354503, 0.0264707, -0.015886, -0.0111081, -0.444714, 0.635029, -3.13185, -0.0555643, -0.107565, -0.010417, -0.44309, 0.634343, -3.13037, -0.0553827, -0.10546, 0.000613805, 0.0010274, -0.00137684, -0.00900342, -0.00765769, -0.0213818
0.0568926, 0.107634, -0.774277, -0.917221, -1.45764, -0.625569, 1.06976, -0.256709, -0.000381601, -0.00189389, -0.0400536, -0.0260653, -0.00725841, -0.000184359, 0.0016747, -0.543754, 14.8706, 18.1455, 16.4755, 0.741759, 3.70395, -0.0951428, 0.000688262, -0.00158554, 0.000760902, 0.00158432, -0.00131129, 0.000457962, 0.0102638, -0.00804263, -0.0178469, -0.0343873, 0.0229473, -0.0166409, -0.0111074, -0.444713, 0.635028, -3.13184, -0.0555646, -0.10757, -0.0104257, -0.443098, 0.634326, -3.13034, -0.0553405, -0.105417, 0.000679445, 0.00113481, -0.00152234, -0.00804491, -0.00710973, -0.0200818
0.0578926, 0.107634, -0.774279, -0.91726, -1.45766, -0.62558, 1.06976, -0.256712, -0.000254396, -0.00258618, -0.0400331, -0.0269196, -0.00538185, 0.000385466, -0.000558492, -0.543754, 14.9063, 18.1098, 16.5112, 0.736266, 3.69021, -0.0484509, 0.000678442, -0.00157699, 0.00077893, 0.00161582, -0.00134225, 0.000475848, 0.00986849, -0.00800097, -0.0179236, -0.0349366, 0.0211481, -0.0123258, -0.0111067, -0.444712, 0.635026, -3.13184, -0.0555649, -0.107577, -0.0104333, -0.443105, 0.634305, -3.13031, -0.0553143, -0.105373, 0.000748347, 0.00124718, -0.0016748, -0.00757806, -0.00694109, -0.0202835
0.0588926, 0.107629, -0.774278, -0.917307, -1.45769, -0.625594, 1.06976, -0.256707, -0.00100481, -0.00209039, -0.0391585, -0.0256908, -0.00414767, -1.44814e-05, 0.00112651, -0.508049, 14.9063, 18.1852, 16.4755, 0.736266, 3.69754, -0.0878186, 0.000662787, -0.00156683, 0.000797419, 0.00164963, -0.00137493, 0.000516051, 0.00988931, -0.0077768, -0.0171293, -0.0341603, 0.0201136, -0.0135082, -0.0111059, -0.444711, 0.635024, -3.13184, -0.0555653, -0.107583, -0.0104464, -0.443115, 0.634284, -3.13028, -0.0552536, -0.105326, 0.000820503, 0.00136446, -0.00183418, -0.00758896, -0.0066073, -0.0196505
0.0598936, 0.107629, -0.774276, -0.917347, -1.45771, -0.625604, 1.06976, -0.256714, -0.000669872, -0.00250352, -0.036444, -0.0255959, -0.00778523, -0.000247157, -0.0016259, -0.508049, 14.942, 18.1852, 16.4755, 0.729857, 3.70395, -0.0228162, 0.000653172, -0.00155788, 0.00081414, 0.00167844, -0.00140657, 0.000531717, 0.00981967, -0.00776698, -0.0162013, -0.0306552, 0.0224416, -0.00949434, -0.0111051, -0.444709, 0.635022, -3.13183, -0.0555656, -0.10759, -0.0104537, -0.443122, 0.634265, -3.13024, -0.0552309, -0.105282, 0.000895902, 0.00148661, -0.00200043, -0.00750794, -0.00648083, -0.0188862
0.0608936, 0.107626, -0.774273, -0.91738, -1.45773, -0.625614, 1.06976, -0.256706, -0.0013746, -0.00187504, -0.0326528, -0.0206356, -0.0056708, -0.000164879, 0.00161777, -0.468376, 14.942, 18.1098, 16.4001, 0.723448, 3.70395, -0.0951428, 0.000643505, -0.00155066, 0.000827651, 0.00170412, -0.00143823, 0.000562489, 0.009399, -0.0072075, -0.013379, -0.0258446, 0.0180737, -0.0114124, -0.0111041, -0.444708, 0.63502, -3.13183, -0.055566, -0.107598, -0.0104612, -0.443128, 0.634248, -3.13022, -0.0551846, -0.105239, 0.000974534, 0.00161356, -0.00217351, -0.00722303, -0.00580428, -0.0162114
0.0618953, 0.107625, -0.774274, -0.917422, -1.45776, -0.625627, 1.06976, -0.256713, -0.00175162, 0.000897944, -0.0333725, -0.0196593, -0.00431904, -0.000381267, -0.00110833, -0.43267, 14.9777, 18.1852, 16.4359, 0.723448, 3.71127, -0.0356336, 0.000631638, -0.00154082, 0.00084498, 0.00173361, -0.00147033, 0.000581078, 0.00898964, -0.0072695, -0.0130049, -0.0259566, 0.0193716, -0.00876349, -0.0111031, -0.444706, 0.635018, -3.13182, -0.0555664, -0.107607, -0.0104705, -0.443137, 0.634228, -3.13018, -0.0551574, -0.105195, 0.00105639, 0.00174526, -0.00235336, -0.00675637, -0.00572329, -0.0159904
0.0628953, 0.107628, -0.774274, -0.917461, -1.45778, -0.62564, 1.06976, -0.256707, -0.000332525, -0.000183806, -0.0345826, -0.0242649, -0.00914952, -0.000525506, 0.000969436, -0.468376, 15.0174, 18.2963, 16.4359, 0.748168, 3.7186, -0.0814099, 0.000621913, -0.00153142, 0.000861267, 0.00176177, -0.00150432, 0.00060665, 0.00916369, -0.00793386, -0.0146558, -0.0270899, 0.0251501, -0.00956083, -0.011102, -0.444704, 0.635016, -3.13182, -0.0555669, -0.107616, -0.0104776, -0.443144, 0.634209, -3.13015, -0.0551194, -0.105149, 0.00114146, 0.00188168, -0.00253994, -0.00670797, -0.00624258, -0.0178401
0.0638953, 0.107619, -0.774274, -0.917493, -1.45781, -0.625649, 1.06976, -0.256712, -0.00282014, 0.00141211, -0.0291804, -0.0224453, -0.0110984, -0.00062165, -0.000802094, -0.357292, 15.0888, 18.2963, 16.4755, 0.736266, 3.72592, -0.0420422, 0.000609589, -0.00152425, 0.000874608, 0.00178592, -0.00153475, 0.000628221, 0.00888995, -0.00724466, -0.012237, -0.0211187, 0.0268787, -0.00727389, -0.0111008, -0.444702, 0.635013, -3.13181, -0.0555674, -0.107626, -0.0104876, -0.44315, 0.634192, -3.13012, -0.0550875, -0.10511, 0.00122973, 0.00202275, -0.00273321, -0.00653695, -0.00542397, -0.0155973
0.0648953, 0.107612, -0.774275, -0.917533, -1.45784, -0.62566, 1.06976, -0.256704, -0.00457135, 0.00361809, -0.0320005, -0.0247919, -0.0135711, -0.000414467, 0.000930591, -0.242241, 15.1285, 18.443, 16.5509, 0.748168, 3.72592, -0.0814099, 0.00059625, -0.00151518, 0.000891868, 0.00181678, -0.00156995, 0.000663327, 0.00995844, -0.0080086, -0.013395, -0.0222917, 0.0325559, -0.0120996, -0.0110996, -0.4447, 0.63501, -3.1318, -0.055568, -0.107637, -0.0104981, -0.443157, 0.634171, -3.13009, -0.0550348, -0.105063, 0.00132119, 0.00216842, -0.00293311, -0.00740409, -0.00606922, -0.0170308
0.0658953, 0.107606, -0.774278, -0.917563, -1.45786, -0.62567, 1.06976, -0.256708, -0.00388278, 0.00126861, -0.0324295, -0.0246095, -0.0152851, -0.000276337, -0.000832225, -0.206535, 15.1999, 18.5184, 16.5509, 0.754576, 3.72592, -0.0420422, 0.000583699, -0.00150727, 0.000902895, 0.00183528, -0.0015965, 0.000684822, 0.0109507, -0.00853841, -0.0133435, -0.0213853, 0.0314111, -0.0100761, -0.0110982, -0.444698, 0.635007, -3.1318, -0.0555686, -0.107648, -0.0105082, -0.443163, 0.634156, -3.13006, -0.0550029, -0.105032, 0.00141584, 0.00231864, -0.0031396, -0.00828325, -0.00648373, -0.0172575
0.0668953, 0.107604, -0.774272, -0.917599, -1.45788, -0.625675, 1.06976, -0.25671, -0.00351654, 0.00124097, -0.0352864, -0.0254662, -0.0109472, -0.000455511, -0.000313375, -0.166862, 15.1999, 18.7049, 16.5866, 0.741759, 3.73324, -0.0484509, 0.000574499, -0.0014996, 0.000916544, 0.00186453, -0.00163119, 0.000703848, 0.0107963, -0.00866763, -0.0142255, -0.0253776, 0.0289437, -0.00904909, -0.0110967, -0.444695, 0.635004, -3.13179, -0.0555692, -0.107661, -0.0105147, -0.443169, 0.634138, -3.13003, -0.0549752, -0.104988, 0.00151366, 0.00247337, -0.00335263, -0.00796638, -0.00644496, -0.0183408
0.0678953, 0.107597, -0.774276, -0.917627, -1.4579, -0.625684, 1.06976, -0.256704, -0.0041076, -0.00147471, -0.034458, -0.0237456, -0.0133859, -0.00135485, 0.000777489, -0.0914839, 15.311, 18.7803, 16.662, 0.748168, 3.76163, -0.0750012, 0.000562487, -0.00149237, 0.000927728, 0.00188418, -0.00165914, 0.000730647, 0.0126374, -0.00892782, -0.013399, -0.0232845, 0.0274457, -0.0112851, -0.0110952, -0.444693, 0.635, -3.13178, -0.0555699, -0.107674, -0.0105241, -0.443174, 0.634123, -3.13, -0.0549352, -0.104956, 0.00161465, 0.00263255, -0.00357216, -0.00974811, -0.00661763, -0.0178642
0.0688953, 0.107589, -0.774278, -0.91765, -1.45792, -0.625695, 1.06976, -0.256707, -0.00450164, -0.00252406, -0.0341989, -0.0215571, -0.0105021, -0.00171705, -0.000462721, -0.0161054, 15.3864, 18.8556, 16.6977, 0.760985, 3.7836, -0.0484509, 0.00055092, -0.00148563, 0.000936339, 0.00189833, -0.00168869, 0.000750138, 0.0130686, -0.00878959, -0.0124828, -0.0230716, 0.0230276, -0.00909485, -0.0110935, -0.44469, 0.634997, -3.13177, -0.0555706, -0.107688, -0.0105331, -0.443178, 0.63411, -3.12998, -0.0549063, -0.104923, 0.00171879, 0.00279613, -0.00379814, -0.0101415, -0.00633894, -0.0172052
0.0698953, 0.10759, -0.774273, -0.917685, -1.45794, -0.625702, 1.06975, -0.256705, -0.00300109, 0.000797785, -0.0311544, -0.0207255, -0.00803249, -0.0019246, 0.000201868, -0.0161054, 15.4221, 19.1135, 16.7731, 0.766478, 3.80466, -0.0621838, 0.000542597, -0.00147698, 0.000948115, 0.00192167, -0.00172386, 0.000770983, 0.0102266, -0.00806222, -0.0110624, -0.0212946, 0.0239803, -0.00428611, -0.0110917, -0.444687, 0.634993, -3.13176, -0.0555714, -0.107702, -0.0105385, -0.443184, 0.634093, -3.12995, -0.0548758, -0.104881, 0.00182607, 0.00296406, -0.00403052, -0.0073239, -0.00535638, -0.0158207
0.0708953, 0.107583, -0.774276, -0.917702, -1.45796, -0.62571, 1.06975, -0.256708, -0.00376397, -0.00075111, -0.0303373, -0.0226067, -0.010918, -0.00209687, -0.000847474, 0.059273, 15.4935, 19.1532, 16.8127, 0.766478, 3.82663, -0.0356336, 0.000533466, -0.00147149, 0.000954261, 0.00193178, -0.00175189, 0.000783058, 0.0110641, -0.0082655, -0.0112053, -0.0202626, 0.0259677, -0.00285312, -0.0110899, -0.444684, 0.634989, -3.13175, -0.0555722, -0.107718, -0.0105451, -0.443187, 0.634083, -3.12993, -0.0548584, -0.104852, 0.00193648, 0.00313629, -0.00426926, -0.00803131, -0.00541542, -0.016261
0.0718953, 0.10758, -0.774276, -0.917733, -1.45797, -0.625718, 1.06975, -0.2567, -0.00334453, 0.000286083, -0.031637, -0.0215051, -0.00863081, -0.00299162, 0.00187739, 0.0949785, 15.6046, 19.4111, 16.8842, 0.779296, 3.86966, -0.101552, 0.000521505, -0.00146342, 0.000964026, 0.00195245, -0.0017825, 0.000812839, 0.0109604, -0.00831958, -0.0110381, -0.0217239, 0.0251463, -0.00466102, -0.0110879, -0.444681, 0.634984, -3.13174, -0.0555731, -0.107735, -0.0105541, -0.443192, 0.634068, -3.12991, -0.054814, -0.104819, 0.00205002, 0.00331277, -0.00451432, -0.00782377, -0.00529068, -0.0163327
0.0728953, 0.107572, -0.774275, -0.917754, -1.45799, -0.625725, 1.06974, -0.256708, -0.00399292, 0.00123607, -0.0289265, -0.0198549, -0.00709008, -0.00358811, -0.00142644, 0.170357, 15.7156, 19.5261, 16.9238, 0.797606, 3.91269, -0.0292249, 0.000510665, -0.00145785, 0.000970253, 0.00196758, -0.00181531, 0.000824513, 0.0102961, -0.00775134, -0.00950032, -0.0196223, 0.0241034, 0.000931094, -0.0110858, -0.444678, 0.63498, -3.13173, -0.055574, -0.107752, -0.0105621, -0.443194, 0.634056, -3.12988, -0.0547976, -0.104785, 0.00216668, 0.00349346, -0.00476563, -0.00717039, -0.00453206, -0.0150008
0.0738953, 0.107569, -0.774278, -0.917785, -1.458, -0.625731, 1.06974, -0.256702, -0.00358997, -0.00198875, -0.0268802, -0.0202375, -0.00566106, -0.00344324, 0.00121972, 0.21003, 15.8624, 19.784, 17.0349, 0.809508, 3.94107, -0.0878186, 0.000498219, -0.00144892, 0.000979041, 0.00198421, -0.00184159, 0.000853211, 0.0101726, -0.00745538, -0.00888719, -0.0187527, 0.0199773, 0.00214198, -0.0110835, -0.444674, 0.634975, -3.13172, -0.055575, -0.107771, -0.0105714, -0.4432, 0.634041, -3.12986, -0.0547548, -0.104761, 0.00228643, 0.0036783, -0.00502317, -0.00698005, -0.00405238, -0.0146365
0.0748953, 0.107561, -0.774274, -0.917804, -1.45801, -0.625738, 1.06973, -0.256705, -0.00415655, 0.00142403, -0.0251192, -0.0147653, -0.00965034, -0.00416046, -0.000373238, 0.285408, 15.9021, 19.8951, 17.0349, 0.827819, 3.99142, -0.0557752, 0.000488402, -0.00144278, 0.000982455, 0.00199174, -0.00187405, 0.000869374, 0.010925, -0.00787516, -0.0063621, -0.012588, 0.0232052, 0.000810618, -0.0110812, -0.44467, 0.634969, -3.13171, -0.0555761, -0.10779, -0.0105784, -0.443203, 0.634032, -3.12984, -0.0547312, -0.104729, 0.00240928, 0.00386724, -0.00528689, -0.0077654, -0.0043314, -0.0124358
0.0758953, 0.107558, -0.774271, -0.917824, -1.45803, -0.625744, 1.06973, -0.256701, -0.00369905, -0.00093937, -0.0248701, -0.0166812, -0.00735086, -0.00409607, 0.00120954, 0.325081, 16.0092, 20.0458, 17.146, 0.834227, 4.02713, -0.0951428, 0.00048044, -0.00143676, 0.000987935, 0.0020053, -0.00190976, 0.000887949, 0.0106193, -0.00770674, -0.00669202, -0.0141106, 0.0204027, 0.00302222, -0.0110787, -0.444666, 0.634964, -3.1317, -0.0555772, -0.107811, -0.0105832, -0.443205, 0.634021, -3.12981, -0.0547042, -0.104692, 0.00253522, 0.00406024, -0.00555673, -0.00731803, -0.00395637, -0.0130129
0.0768953, 0.107555, -0.774266, -0.917844, -1.45804, -0.62575, 1.06972, -0.256708, -0.00558864, -0.00192679, -0.0211737, -0.0112757, -0.00585134, -0.00405314, -0.00163481, 0.325081, 16.0846, 20.1926, 17.1103, 0.846129, 4.06283, -0.0292249, 0.000471635, -0.00142962, 0.000989956, 0.00201078, -0.00194093, 0.000898394, 0.0115043, -0.00732974, -0.00368132, -0.00870908, 0.0146484, 0.00581786, -0.0110761, -0.444662, 0.634958, -3.13168, -0.0555784, -0.107832, -0.010589, -0.443208, 0.634012, -3.1298, -0.0546896, -0.104665, 0.00266423, 0.00425725, -0.00583265, -0.00829129, -0.00344009, -0.0103442
0.0778953, 0.107557, -0.774267, -0.917865, -1.45804, -0.625754, 1.06972, -0.256704, -0.00398598, 0.0027811, -0.0220169, -0.00825968, -0.00407991, -0.00348199, 0.000368358, 0.325081, 16.1957, 20.3434, 17.1103, 0.840636, 4.08389, -0.0685925, 0.00046358, -0.00142191, 0.000992029, 0.0020156, -0.00196579, 0.000915676, 0.00997653, -0.00771544, -0.00253325, -0.00705226, 0.0158959, 0.00516335, -0.0110734, -0.444658, 0.634952, -3.13167, -0.0555796, -0.107855, -0.0105939, -0.443212, 0.634004, -3.12978, -0.0546643, -0.104648, 0.0027963, 0.00445821, -0.00611461, -0.00670097, -0.00358088, -0.00937826
0.0788953, 0.107552, -0.774266, -0.917879, -1.45806, -0.625757, 1.06972, -0.2567, -0.0036877, 4.2296e-05, -0.0209336, -0.0108785, -0.0034476, -0.00313513, 0.00170376, 0.360787, 16.3068, 20.4188, 17.1857, 0.852538, 4.10586, -0.10796, 0.000456772, -0.00141576, 0.000994179, 0.00202024, -0.00199589, 0.000930313, 0.00974583, -0.00759956, -0.00280552, -0.0074268, 0.0142661, 0.00773204, -0.0110705, -0.444653, 0.634946, -3.13165, -0.0555809, -0.107878, -0.0105974, -0.443214, 0.633995, -3.12976, -0.0546433, -0.104624, 0.00293143, 0.00466308, -0.00640257, -0.00632122, -0.00324965, -0.00992144
0.0798953, 0.107552, -0.774259, -0.917904, -1.45807, -0.625758, 1.06972, -0.256707, -0.00260484, 0.00301599, -0.0227597, -0.00875953, -0.0027509, -0.00236135, -0.00130547, 0.360787, 16.3425, 20.6052, 17.2214, 0.858946, 4.11319, -0.0420422, 0.000449598, -0.00140713, 0.000997253, 0.00202732, -0.00202791, 0.000938659, 0.00929867, -0.00831033, -0.00222908, -0.00632856, 0.0151208, 0.0108197, -0.0110675, -0.444648, 0.63494, -3.13164, -0.0555822, -0.107903, -0.010601, -0.443218, 0.633985, -3.12974, -0.0546322, -0.104598, 0.00306961, 0.00487181, -0.00669647, -0.00575137, -0.00374054, -0.00961426
0.0808953, 0.107552, -0.774254, -0.917917, -1.45808, -0.625763, 1.06971, -0.256702, -0.00184634, 0.00438133, -0.0204817, -0.00949924, -0.0024361, -0.00651306, 0.000825182, 0.360787, 16.4178, 20.6409, 17.2214, 0.870848, 4.12051, -0.0878186, 0.000444646, -0.00140009, 0.00099642, 0.00202414, -0.00205947, 0.000952094, 0.00816986, -0.00722849, -0.00183073, -0.00833438, 0.0188242, 0.012878, -0.0110644, -0.444643, 0.634933, -3.13162, -0.0555837, -0.107929, -0.0106026, -0.44322, 0.633978, -3.12973, -0.0546129, -0.104575, 0.00321082, 0.00508435, -0.00699628, -0.00455067, -0.00241065, -0.00943219
0.0818953, 0.107549, -0.774247, -0.917942, -1.45808, -0.625765, 1.06971, -0.256705, -0.00224125, 0.00688444, -0.019082, -0.0102591, -0.0022198, -0.00523963, -0.000636618, 0.400459, 16.4178, 20.8274, 17.2214, 0.883666, 4.13424, -0.0557752, 0.000434976, -0.00139076, 0.000997461, 0.00202726, -0.00209173, 0.000969795, 0.00692968, -0.00726127, -0.00113088, -0.00602201, 0.0210458, 0.0166946, -0.0110611, -0.444638, 0.634926, -3.13161, -0.0555852, -0.107956, -0.0106086, -0.443224, 0.633969, -3.12972, -0.0545872, -0.104551, 0.00335505, 0.00530066, -0.00730195, -0.00321684, -0.00218963, -0.0089546
0.0828953, 0.107554, -0.774243, -0.917957, -1.45809, -0.625767, 1.06971, -0.256702, 0.000207323, 0.00379556, -0.0177151, -0.0097737, -0.00201144, -0.00351354, 0.000762423, 0.325081, 16.4893, 20.8631, 17.1857, 0.895568, 4.12692, -0.0878186, 0.000431451, -0.00138256, 0.000995696, 0.00202274, -0.00211945, 0.000978223, 0.00635612, -0.00766321, -0.000309072, -0.00322495, 0.0166856, 0.0198553, -0.0110577, -0.444633, 0.634918, -3.13159, -0.0555867, -0.107984, -0.0106085, -0.443227, 0.633963, -3.12971, -0.0545758, -0.104536, 0.0035023, 0.00552068, -0.00761342, -0.00253983, -0.00235837, -0.0084095
0.0838953, 0.10756, -0.774239, -0.91798, -1.4581, -0.625768, 1.06971, -0.256708, 0.00194794, 0.00795577, -0.016216, -0.00900336, -0.00164639, -0.00232379, -0.00142447, 0.245735, 16.5646, 21.0138, 17.2571, 0.901976, 4.12051, -0.0356336, 0.000426033, -0.00137352, 0.000997535, 0.0020285, -0.00215228, 0.0009807, 0.00394073, -0.00776737, 0.000887044, -0.000134386, 0.0195091, 0.025929, -0.0110541, -0.444627, 0.63491, -3.13157, -0.0555884, -0.108013, -0.0106098, -0.443231, 0.633953, -3.12968, -0.054574, -0.104514, 0.00365255, 0.00574437, -0.00793067, -5.9918e-05, -0.00216441, -0.00736773
0.0848953, 0.107562, -0.774235, -0.917995, -1.4581, -0.625772, 1.06972, -0.256697, 0.00209911, 0.00786375, -0.0114703, -0.00577987, -0.00250498, -0.000899486, 0.00149178, 0.21003, 16.636, 21.0138, 17.2214, 0.938597, 4.09854, -0.101552, 0.000420679, -0.00136389, 0.000993955, 0.00201675, -0.0021806, 0.00100114, 0.00319933, -0.00763576, 0.00367216, 0.00698844, 0.017153, 0.0259711, -0.0110504, -0.444621, 0.634902, -3.13155, -0.0555901, -0.108044, -0.0106113, -0.443235, 0.633949, -3.12968, -0.0545438, -0.1045, 0.0038058, 0.00597168, -0.00825364, 0.000636294, -0.0018043, -0.00486047
0.0858953, 0.107569, -0.774233, -0.918014, -1.4581, -0.625773, 1.06971, -0.256707, 0.00230138, 0.00368807, -0.0134094, -0.00254964, -0.00194564, -0.000993995, -0.00144687, 0.170357, 16.7471, 21.0892, 17.146, 0.945006, 4.10586, -0.0356336, 0.000414022, -0.00135466, 0.000990678, 0.00201307, -0.00220567, 0.00100077, 0.00571264, -0.00845061, 0.00427698, 0.00755443, 0.0107091, 0.0275394, -0.0110465, -0.444615, 0.634894, -3.13153, -0.0555919, -0.108076, -0.0106139, -0.443238, 0.633943, -3.12966, -0.0545462, -0.104493, 0.00396204, 0.00620257, -0.00858229, -0.00172577, -0.00248163, -0.0047648
0.0868953, 0.107576, -0.774223, -0.918032, -1.45811, -0.625775, 1.06971, -0.256702, 0.00327795, 0.00638494, -0.0139511, -0.00792824, -0.00224134, -0.000212432, 0.000730857, 0.0949785, 16.7471, 21.1249, 17.2571, 0.969725, 4.09122, -0.0814099, 0.000412454, -0.0013454, 0.00098992, 0.00200997, -0.00224699, 0.00100827, 0.00364073, -0.00858786, 0.00296799, 0.005812, 0.0168808, 0.029845, -0.0110424, -0.444609, 0.634885, -3.13151, -0.0555937, -0.108109, -0.0106112, -0.443241, 0.633935, -3.12965, -0.0545367, -0.104462, 0.00412125, 0.00643698, -0.00891658, 0.000594013, -0.00229985, -0.00626298
0.0878953, 0.107581, -0.774216, -0.918055, -1.4581, -0.625777, 1.06971, -0.256705, 0.00615183, 0.0042706, -0.0187954, -0.00321936, -0.00195657, -0.000482115, -0.000462188, 0.059273, 16.7828, 21.2003, 17.146, 0.981627, 4.09854, -0.0557752, 0.000403861, -0.00133423, 0.000985099, 0.002002, -0.00227505, 0.00102267, 0.00566809, -0.0100871, 0.00318916, 0.00528639, 0.0119845, 0.029269, -0.0110382, -0.444602, 0.634876, -3.13149, -0.0555957, -0.108143, -0.0106154, -0.443246, 0.63393, -3.12964, -0.0545162, -0.104452, 0.00428343, 0.00667487, -0.00925645, -0.00122677, -0.00363359, -0.00653233
0.0888953, 0.107582, -0.774219, -0.918074, -1.4581, -0.62578, 1.06971, -0.256699, 0.00749712, 0.00316818, -0.0215764, -0.00254548, -0.00132053, -0.000373331, 0.000878676, 0.059273, 16.9296, 21.236, 17.146, 0.981627, 4.09854, -0.0878186, 0.000392701, -0.00132354, 0.000981065, 0.00199333, -0.00229929, 0.00104531, 0.00645625, -0.0109056, 0.00288946, 0.00420326, 0.0101674, 0.0284647, -0.0110339, -0.444596, 0.634867, -3.13147, -0.0555977, -0.108178, -0.0106221, -0.44325, 0.633924, -3.12963, -0.054483, -0.10445, 0.00444857, 0.0069162, -0.00960188, -0.00179759, -0.00423529, -0.00723689
0.0898953, 0.107598, -0.774205, -0.918094, -1.45811, -0.625782, 1.06971, -0.256701, 0.00990301, 0.00767436, -0.0229045, -0.00292443, -0.00112983, 0.000254707, -0.000601005, -0.131157, 16.8582, 21.236, 17.1857, 0.988036, 4.08389, -0.0557752, 0.000394045, -0.00131247, 0.000978141, 0.00198636, -0.00234238, 0.00104196, 0.00442332, -0.0114312, 0.00290921, 0.00446042, 0.0146479, 0.0329789, -0.0110293, -0.444589, 0.634857, -3.13145, -0.0555998, -0.108215, -0.010616, -0.443254, 0.633917, -3.12961, -0.0544904, -0.10442, 0.00461665, 0.00716091, -0.0099528, 0.000414683, -0.00444459, -0.00743137
0.0908953, 0.107603, -0.774205, -0.918122, -1.45811, -0.625786, 1.06972, -0.256701, 0.010087, 0.00426178, -0.026478, -0.00124617, -0.00573795, 0.000649226, -0.000400666, -0.131157, 16.9296, 21.3471, 17.146, 0.993529, 4.07016, -0.0557752, 0.000382148, -0.00129911, 0.000974864, 0.00197847, -0.00237002, 0.00106218, 0.0078912, -0.0131426, 0.00267776, 0.00592463, 0.013735, 0.0285736, -0.0110246, -0.444581, 0.634847, -3.13142, -0.055602, -0.108254, -0.0106229, -0.443261, 0.633909, -3.1296, -0.0544611, -0.104416, 0.00478767, 0.00740896, -0.0103092, -0.00279467, -0.00602679, -0.00827015
0.0918953, 0.107614, -0.774197, -0.918143, -1.45811, -0.625788, 1.06971, -0.256696, 0.00983879, 0.00667013, -0.0265364, -0.00192723, -0.00446715, 0.000139646, 0.00119095, -0.242241, 16.9296, 21.3471, 17.1857, 0.999938, 4.07748, -0.0951428, 0.000378585, -0.00128766, 0.000971179, 0.00197168, -0.00240911, 0.00107186, 0.00710997, -0.0130563, 0.00288122, 0.00542663, 0.016005, 0.0290545, -0.0110198, -0.444574, 0.634836, -3.1314, -0.0556043, -0.108293, -0.0106214, -0.443265, 0.633902, -3.12959, -0.0544485, -0.104394, 0.00496161, 0.0076603, -0.010671, -0.00185898, -0.0056636, -0.00837486
0.0928953, 0.107618, -0.774195, -0.918163, -1.45811, -0.625791, 1.06972, -0.256699, 0.00694592, 0.00670465, -0.0257623, -0.00141114, -0.00304412, 0.000890472, -0.000189372, -0.242241, 17.005, 21.3114, 17.1857, 0.993529, 4.05551, -0.0685925, 0.000369429, -0.00127551, 0.000965393, 0.00195794, -0.00243979, 0.00108295, 0.00803611, -0.0130814, 0.00379477, 0.00717143, 0.0143192, 0.0299883, -0.0110147, -0.444566, 0.634825, -3.13137, -0.0556067, -0.108334, -0.0106254, -0.44327, 0.633896, -3.12958, -0.0544334, -0.104388, 0.00513848, 0.00791489, -0.0110382, -0.00266757, -0.00547507, -0.00789548
0.0938953, 0.107629, -0.774186, -0.918189, -1.45811, -0.625792, 1.06972, -0.256696, 0.010753, 0.00612479, -0.0226735, -0.000107483, -0.00225694, 0.000310059, 0.000857098, -0.357292, 16.9693, 21.3114, 17.146, 0.993529, 4.06283, -0.0951428, 0.00036257, -0.00126219, 0.000959965, 0.00194874, -0.00247626, 0.00109908, 0.00587711, -0.0127332, 0.00526947, 0.00949887, 0.0126126, 0.0362536, -0.0110095, -0.444558, 0.634814, -3.13135, -0.0556092, -0.108376, -0.0106269, -0.443275, 0.63389, -3.12956, -0.0544108, -0.104374, 0.00531825, 0.00817268, -0.0114107, -0.000449534, -0.00480689, -0.00664556
0.0948953, 0.107637, -0.774184, -0.918212, -1.45811, -0.625794, 1.06972, -0.256703, 0.0116009, 0.00710221, -0.0222667, -0.000142712, -0.00214999, 0.000468733, -0.00163265, -0.392998, 17.005, 21.236, 17.146, 1.00635, 4.05551, -0.0356336, 0.000354399, -0.00124932, 0.000954969, 0.00193836, -0.00250997, 0.00110333, 0.00519516, -0.0129216, 0.00579103, 0.0106018, 0.0135715, 0.0414402, -0.0110041, -0.44455, 0.634803, -3.13132, -0.0556118, -0.10842, -0.0106295, -0.44328, 0.633883, -3.12955, -0.0544067, -0.104365, 0.00550092, 0.00843363, -0.0117885, 0.000383669, -0.00471506, -0.00645756
0.0958953, 0.107645, -0.774173, -0.918248, -1.45811, -0.625791, 1.06972, -0.256696, 0.011493, 0.0113064, -0.0296306, -0.000148433, -0.000645786, 0.000576825, 0.00111562, -0.392998, 16.8939, 21.3471, 17.146, 0.981627, 4.04819, -0.0951428, 0.000345396, -0.00123423, 0.000952815, 0.00193672, -0.00255076, 0.00112924, 0.00619769, -0.0143488, 0.0042611, 0.00634798, 0.0170461, 0.0351858, -0.0109985, -0.444541, 0.634791, -3.13129, -0.0556144, -0.108465, -0.0106325, -0.443287, 0.633872, -3.12953, -0.0543694, -0.104347, 0.00568647, 0.00869769, -0.0121715, -0.00027376, -0.0058987, -0.00844635
0.0968953, 0.107657, -0.774177, -0.918272, -1.45811, -0.625796, 1.06971, -0.256702, 0.00931614, 0.00659285, -0.027493, -0.000138924, -0.00120468, 0.000379352, -0.000985584, -0.43267, 16.9693, 21.2757, 17.146, 0.999938, 4.04819, -0.0484509, 0.000335206, -0.00122068, 0.000947615, 0.00192729, -0.00258432, 0.00113397, 0.00820369, -0.0142682, 0.00514967, 0.0083952, 0.0128883, 0.0379973, -0.0109927, -0.444532, 0.634778, -3.13127, -0.0556172, -0.108512, -0.0106367, -0.443292, 0.633864, -3.12951, -0.0543647, -0.104341, 0.00587491, 0.00896481, -0.0125597, -0.00214957, -0.00562991, -0.0080873
0.0978953, 0.107664, -0.774172, -0.91831, -1.45811, -0.625798, 1.06971, -0.256696, 0.00897587, 0.00593712, -0.0319778, -0.000122593, -0.00111247, 0.000249003, 0.00107227, -0.392998, 16.9296, 21.3114, 17.146, 1.00635, 4.04819, -0.0951428, 0.000321766, -0.00120454, 0.00094525, 0.00192466, -0.00262505, 0.00116339, 0.0101686, -0.0153656, 0.00426266, 0.0061169, 0.0125647, 0.0337582, -0.0109867, -0.444523, 0.634765, -3.13124, -0.05562, -0.10856, -0.0106437, -0.443299, 0.633853, -3.12948, -0.0543222, -0.104326, 0.00606621, 0.00923495, -0.0129531, -0.00381677, -0.00651757, -0.00950992
0.0988953, 0.107675, -0.774164, -0.918348, -1.45811, -0.6258, 1.06972, -0.256702, 0.00979945, 0.00608891, -0.0327203, 0.000731007, -0.00636144, 0.000434346, -0.00125184, -0.392998, 16.8582, 21.3868, 17.1103, 1.02466, 4.04086, -0.0420422, 0.000310816, -0.00118683, 0.000941545, 0.00191607, -0.00266595, 0.00117891, 0.0113594, -0.0164764, 0.00472443, 0.00934794, 0.01623, 0.0349395, -0.0109806, -0.444514, 0.634752, -3.13121, -0.055623, -0.10861, -0.010648, -0.443308, 0.633843, -3.12947, -0.0543011, -0.104311, 0.00626038, 0.00950806, -0.0133516, -0.00480208, -0.00740081, -0.00953872
0.0998953, 0.107688, -0.774155, -0.918381, -1.45811, -0.625804, 1.06971, -0.256696, 0.0135409, 0.0101487, -0.0332507, -0.000364742, -0.00468876, -0.000526431, 0.00113213, -0.392998, 16.7471, 21.3114, 17.146, 1.02466, 4.06283, -0.0951428, 0.000301826, -0.00117154, 0.00093826, 0.00191298, -0.00271658, 0.00119965, 0.00837153, -0.0164198, 0.00461082, 0.00767489, 0.0204128, 0.03881, -0.0109742, -0.444504, 0.634739, -3.13117, -0.055626, -0.108661, -0.0106503, -0.443314, 0.633832, -3.12944, -0.0542722, -0.104283, 0.00645739, 0.00978411, -0.0137552, -0.00162052, -0.00696216, -0.00984863
0.100895, 0.107698, -0.774155, -0.918424, -1.45811, -0.625805, 1.06971, -0.256698, 0.0124321, 0.0064517, -0.0359995, -0.00118383, -0.00346169, -8.13314e-05, 0.000246127, -0.357292, 16.7828, 21.3471, 17.1857, 1.02466, 4.05551, -0.0814099, 0.000287295, -0.00115351, 0.000937897, 0.00191405, -0.00275735, 0.00122034, 0.0105908, -0.01716, 0.00393922, 0.00590322, 0.0163704, 0.0391096, -0.0109676, -0.444494, 0.634725, -3.13114, -0.0556292, -0.108713, -0.0106576, -0.443323, 0.633817, -3.12941, -0.0542437, -0.104272, 0.00665724, 0.010063, -0.0141638, -0.00356037, -0.00749503, -0.0110872
0.101895, 0.107716, -0.774152, -0.918461, -1.45811, -0.625808, 1.06971, -0.256697, 0.0174211, 0.00552719, -0.0357244, 0.000129317, -0.0034752, -5.54544e-05, -0.000547992, -0.43267, 16.7471, 21.2757, 17.146, 1.04938, 4.05551, -0.0621838, 0.0002774, -0.00113579, 0.00093317, 0.00190559, -0.00279937, 0.00123517, 0.00903479, -0.0176187, 0.00466356, 0.00726281, 0.0147711, 0.0460243, -0.0109609, -0.444484, 0.63471, -3.13111, -0.0556325, -0.108767, -0.0106604, -0.44333, 0.633807, -3.12939, -0.054224, -0.104261, 0.00685993, 0.0103448, -0.0145774, -0.00184015, -0.00762376, -0.0106741
0.102895, 0.107728, -0.774144, -0.918509, -1.45811, -0.625813, 1.06971, -0.256695, 0.0183066, 0.00574115, -0.0381838, 7.90974e-05, -0.00294653, -0.000309162, 0.00109273, -0.392998, 16.6718, 21.3114, 17.146, 1.06128, 4.06283, -0.101552, 0.000262283, -0.00111583, 0.000931827, 0.00190444, -0.00285025, 0.00126582, 0.00946942, -0.0182757, 0.00434272, 0.00598502, 0.0150205, 0.045304, -0.0109539, -0.444473, 0.634696, -3.13108, -0.0556359, -0.108823, -0.0106678, -0.44334, 0.633792, -3.12936, -0.0541802, -0.104237, 0.00706543, 0.0106294, -0.0149959, -0.00202232, -0.00800819, -0.0114484
0.103895, 0.107738, -0.774149, -0.918556, -1.45812, -0.625816, 1.06971, -0.256703, 0.0151079, 0.00228404, -0.0390972, -0.000880624, -0.00190259, -0.000478069, -0.00171292, -0.317619, 16.7471, 21.3114, 17.1857, 1.05578, 4.07016, -0.0356336, 0.000243667, -0.00109656, 0.000931888, 0.00190838, -0.00289395, 0.00128429, 0.0120275, -0.0185095, 0.00418499, 0.00505713, 0.0116638, 0.0468761, -0.0109468, -0.444463, 0.63468, -3.13104, -0.0556394, -0.10888, -0.0106785, -0.44335, 0.633775, -3.12932, -0.0541555, -0.104225, 0.00727374, 0.0109167, -0.0154193, -0.00434505, -0.0080432, -0.0122097
0.104895, 0.10775, -0.774143, -0.918598, -1.45811, -0.62582, 1.06971, -0.256692, 0.0137629, 0.00345082, -0.0382042, 0.00210017, -0.00205282, -0.000319233, 0.00153682, -0.281914, 16.6718, 21.236, 17.0706, 1.0741, 4.07016, -0.10796, 0.000228084, -0.00107697, 0.000926398, 0.00189939, -0.00294017, 0.00132251, 0.0128012, -0.0187864, 0.00589248, 0.00854125, 0.011035, 0.0430268, -0.0109394, -0.444452, 0.634665, -3.131, -0.055643, -0.108939, -0.0106863, -0.443359, 0.633764, -3.1293, -0.0540999, -0.104212, 0.00748486, 0.0112067, -0.0158476, -0.00501381, -0.00807347, -0.0109916
0.105895, 0.107765, -0.774141, -0.918646, -1.45812, -0.625822, 1.0697, -0.256703, 0.0136394, 0.00559212, -0.0392725, -0.000366123, -0.00097353, -0.00048448, -0.00189158, -0.281914, 16.6718, 21.236, 17.146, 1.06128, 4.07748, -0.0292249, 0.000214014, -0.00105744, 0.000926715, 0.00190457, -0.00299402, 0.00133143, 0.0120386, -0.0189159, 0.00535535, 0.00687412, 0.0142498, 0.0489827, -0.0109318, -0.44444, 0.634649, -3.13097, -0.0556467, -0.109, -0.010692, -0.443367, 0.633747, -3.12926, -0.0540904, -0.104188, 0.00769877, 0.0114994, -0.0162807, -0.00399783, -0.00787846, -0.0119094
0.106895, 0.107775, -0.774133, -0.918699, -1.45812, -0.625828, 1.0697, -0.256695, 0.0107849, 0.00492004, -0.0478394, -0.00245935, -0.00118351, -5.20119e-05, 0.00165507, -0.166862, 16.636, 21.2757, 17.1103, 1.0741, 4.07016, -0.10796, 0.000195925, -0.00103546, 0.000925542, 0.00190305, -0.00305147, 0.00137318, 0.0160194, -0.0207626, 0.00283756, 0.00165275, 0.0154161, 0.0387483, -0.010924, -0.444429, 0.634632, -3.13093, -0.0556505, -0.109062, -0.0107015, -0.443378, 0.63373, -3.12923, -0.0540299, -0.10416, 0.00791545, 0.0117947, -0.0167186, -0.00750911, -0.00954507, -0.0151506
0.107895, 0.107786, -0.774134, -0.918747, -1.45813, -0.625829, 1.0697, -0.256702, 0.0128865, 0.00271236, -0.0481192, -0.00517927, -0.000833838, 0.000236373, -0.00133802, -0.0914839, 16.6718, 21.2003, 17.1103, 1.0741, 4.06283, -0.0420422, 0.000178639, -0.0010144, 0.000923107, 0.00189995, -0.00309852, 0.00139119, 0.0153867, -0.0210498, 0.00226737, 0.000617572, 0.0147705, 0.0469197, -0.010916, -0.444417, 0.634615, -3.13089, -0.0556545, -0.109126, -0.01071, -0.443388, 0.633714, -3.1292, -0.0540062, -0.10415, 0.00813491, 0.0120926, -0.0171612, -0.00660898, -0.00950663, -0.0161213
0.108895, 0.107805, -0.774129, -0.918804, -1.45813, -0.625834, 1.0697, -0.256697, 0.0204066, 0.00284413, -0.0519332, -0.00517008, -0.00562674, 0.000157418, 0.000803405, -0.131157, 16.636, 21.2757, 17.0349, 1.07959, 4.06283, -0.0878186, 0.0001616, -0.000991284, 0.00092208, 0.00190194, -0.00315477, 0.00142466, 0.0144046, -0.0228036, 0.00142089, 0.00059916, 0.018976, 0.0488173, -0.0109077, -0.444404, 0.634598, -3.13085, -0.0556585, -0.109191, -0.010718, -0.443399, 0.633696, -3.12916, -0.0539589, -0.104127, 0.00835714, 0.012393, -0.0176085, -0.00528595, -0.0109162, -0.0173583
0.109895, 0.107813, -0.774123, -0.918852, -1.45813, -0.625834, 1.06969, -0.2567, 0.0190246, 0.0028818, -0.047762, -0.00637234, -0.00397574, 0.000376089, -0.00139718, -0.0161054, 16.6003, 21.2003, 16.9992, 1.0741, 4.05551, -0.0356336, 0.000143417, -0.000970419, 0.000918107, 0.00189896, -0.00321005, 0.00145238, 0.0132679, -0.0220286, 0.00277249, 0.00307508, 0.0184085, 0.0559818, -0.0108992, -0.444392, 0.63458, -3.13081, -0.0556627, -0.109258, -0.0107272, -0.443408, 0.633681, -3.12912, -0.0539205, -0.104108, 0.00858211, 0.0126959, -0.0180604, -0.00404939, -0.00981188, -0.0163786
0.110895, 0.107834, -0.774113, -0.918908, -1.45813, -0.625839, 1.06969, -0.256698, 0.0218001, 0.00699423, -0.0507516, -0.00403383, -0.00341233, -2.06341e-05, 0.000289252, -0.0557783, 16.525, 21.236, 16.9595, 1.086, 4.06283, -0.0685925, 0.000129232, -0.000947502, 0.000917478, 0.00190275, -0.00327851, 0.00147811, 0.0123801, -0.0228901, 0.0031447, 0.00287817, 0.0210973, 0.0556203, -0.0108905, -0.444379, 0.634562, -3.13077, -0.055667, -0.109327, -0.0107318, -0.443419, 0.633662, -3.12908, -0.0538856, -0.104069, 0.00880983, 0.0130012, -0.018517, -0.00293162, -0.01034, -0.0164094
0.111895, 0.10785, -0.774112, -0.918957, -1.45813, -0.625844, 1.06969, -0.256698, 0.0196437, 0.00646415, -0.0468132, -0.00543386, -0.00275301, -1.38255e-05, 0.000667553, -0.0557783, 16.6003, 21.1606, 16.9238, 1.09241, 4.06283, -0.0814099, 0.000112278, -0.000924753, 0.000913293, 0.00189611, -0.00333438, 0.00150292, 0.012013, -0.0222189, 0.00436386, 0.00538088, 0.0209628, 0.0589197, -0.0108816, -0.444366, 0.634543, -3.13072, -0.0556715, -0.109398, -0.0107392, -0.443429, 0.633647, -3.12905, -0.0538518, -0.104053, 0.00904028, 0.013309, -0.0189781, -0.00244418, -0.00936041, -0.0156254
0.112895, 0.107861, -0.774104, -0.919012, -1.45814, -0.625846, 1.06968, -0.256695, 0.0183512, 0.00484053, -0.049423, -0.00427771, -0.00201592, -9.2691e-06, 0.000207676, 0.059273, 16.6003, 21.1606, 16.9238, 1.09241, 4.06283, -0.0750012, 9.45305e-05, -0.000902169, 0.000911591, 0.00189762, -0.00340123, 0.00153521, 0.0142224, -0.0230093, 0.00443993, 0.00490997, 0.018319, 0.0576788, -0.0108725, -0.444352, 0.634524, -3.13068, -0.0556761, -0.10947, -0.010747, -0.443439, 0.633628, -3.12901, -0.053807, -0.10402, 0.00927346, 0.0136191, -0.0194438, -0.00439066, -0.00991899, -0.016177
0.113895, 0.107873, -0.774091, -0.919064, -1.45815, -0.625847, 1.06968, -0.256695, 0.0163571, 0.00538857, -0.050754, -0.00647292, -0.00168283, 0.000265049, -9.89082e-05, 0.0949785, 16.525, 21.1606, 16.9238, 1.0979, 4.05551, -0.0685925, 7.95854e-05, -0.000879828, 0.000909013, 0.00189727, -0.00347345, 0.00156139, 0.0150304, -0.0233751, 0.00398737, 0.00401904, 0.0201322, 0.0580957, -0.0108631, -0.444339, 0.634504, -3.13064, -0.0556808, -0.109544, -0.0107519, -0.443448, 0.633609, -3.12897, -0.0537717, -0.103981, 0.00950935, 0.0139315, -0.0199139, -0.00491562, -0.0099963, -0.0171595
0.114895, 0.107883, -0.774088, -0.919117, -1.45816, -0.625852, 1.06967, -0.256698, 0.0139112, 0.00545404, -0.0520999, -0.00626792, -0.00169818, -0.00410661, -0.00128664, 0.170357, 16.6003, 21.1606, 16.8484, 1.11072, 4.04086, -0.0356336, 5.83995e-05, -0.000856524, 0.000905381, 0.0018954, -0.00353895, 0.00159127, 0.0172499, -0.0230881, 0.00385864, 0.000603162, 0.0225047, 0.0575466, -0.0108534, -0.444325, 0.634484, -3.13059, -0.0556856, -0.10962, -0.0107627, -0.443458, 0.633591, -3.12893, -0.0537307, -0.103954, 0.00974794, 0.0142462, -0.0203885, -0.00689099, -0.00947189, -0.0179176
0.115895, 0.107896, -0.774079, -0.919174, -1.45816, -0.625851, 1.06967, -0.256691, 0.0121344, 0.00965799, -0.0505008, -0.00722074, -0.00073358, -0.00236002, 0.00158364, 0.245735, 16.636, 21.2003, 16.8127, 1.0979, 4.0198, -0.101552, 4.05844e-05, -0.000832597, 0.000902665, 0.00189579, -0.00360791, 0.00162814, 0.0158917, -0.0230914, 0.00488455, 0.00356838, 0.0258131, 0.0569217, -0.0108436, -0.44431, 0.634463, -3.13054, -0.0556906, -0.109698, -0.0107699, -0.443468, 0.633572, -3.12889, -0.0536791, -0.103924, 0.00998923, 0.0145631, -0.0208674, -0.00536727, -0.00912077, -0.0172799
0.116895, 0.107896, -0.774079, -0.919174, -1.45816, -0.625851, 1.06967, -0.256691, 0.0121344, 0.00965799, -0.0505008, -0.00722074, -0.00073358, -0.00236002, 0.00158364, 0.245735, 16.636, 21.2003, 16.8127, 1.0979, 4.0198, -0.101552, 3.14221e-05, -0.000818363, 0.000880796, 0.00185115, -0.00366041, 0.00163071, 0.0161121, -0.0233977, 0.00538875, 0.00452326, 0.0260049, 0.0588007, -0.0108335, -0.444295, 0.634442, -3.13049, -0.0556957, -0.109777, -0.0107699, -0.443468, 0.633572, -3.12889, -0.0536791, -0.103924, 0.0102332, 0.0148823, -0.0213508, -0.00536727, -0.00912077, -0.0172799
0.117895, 0.107916, -0.774054, -0.919273, -1.45818, -0.625859, 1.06966, -0.256697, 0.0128024, 0.0104033, -0.0458957, -0.00997476, -0.00124339, -0.00562326, 0.000285638, 0.360787, 16.6718, 21.1606, 16.8127, 1.12262, 4.00516, -0.0750012, 8.38025e-06, -0.000787427, 0.000893631, 0.00188748, -0.00376936, 0.00167537, 0.0142071, -0.0221103, 0.00608754, 0.00433942, 0.0305659, 0.0673286, -0.0108231, -0.44428, 0.634421, -3.13044, -0.0557009, -0.109858, -0.0107805, -0.443484, 0.633536, -3.12881, -0.0536173, -0.103832, 0.0104799, 0.0152035, -0.0218384, -0.00331664, -0.00745307, -0.0169291
0.118895, 0.107923, -0.774036, -0.919329, -1.45819, -0.625862, 1.06965, -0.256695, 0.0081974, 0.0151864, -0.0466981, -0.0075733, -0.00177659, -0.00871658, 0.000190426, 0.436165, 16.636, 21.236, 16.8127, 1.14734, 3.99783, -0.0750012, -9.53294e-06, -0.000763197, 0.000889767, 0.00188491, -0.00385602, 0.0017114, 0.0162059, -0.021993, 0.0071566, 0.00436435, 0.0359304, 0.0626207, -0.0108125, -0.444265, 0.634399, -3.13039, -0.0557063, -0.109941, -0.0107871, -0.443494, 0.633516, -3.12877, -0.0535675, -0.103779, 0.0107292, 0.0155269, -0.0223304, -0.00513907, -0.00709389, -0.0164961
0.119895, 0.107927, -0.774024, -0.919373, -1.45821, -0.625861, 1.06964, -0.25669, 0.00477097, 0.0129459, -0.044546, -0.00872399, -0.000971138, -0.0118516, 0.00134765, 0.511544, 16.7114, 21.2003, 16.8127, 1.14093, 4.01248, -0.10796, -2.63727e-05, -0.000742467, 0.000883704, 0.00188181, -0.0039404, 0.00174147, 0.0178698, -0.0211132, 0.00768343, 0.00309914, 0.0354894, 0.0625908, -0.0108016, -0.444249, 0.634376, -3.13034, -0.0557118, -0.110026, -0.0107927, -0.443499, 0.633498, -3.12872, -0.0535271, -0.103732, 0.0109812, 0.0158524, -0.0228265, -0.0066144, -0.00595348, -0.0165791
0.120895, 0.107938, -0.774005, -0.919421, -1.45822, -0.625863, 1.06964, -0.256698, 0.00712238, 0.0122162, -0.0447269, -0.0105747, -0.00114022, -0.00862809, -0.00154297, 0.511544, 16.7471, 21.236, 16.8484, 1.15375, 4.00516, -0.0420422, -3.9319e-05, -0.000719473, 0.000877639, 0.00187489, -0.00403081, 0.0017562, 0.0166489, -0.0220306, 0.00777097, 0.00557337, 0.0346999, 0.0705074, -0.0107905, -0.444233, 0.634353, -3.13029, -0.0557175, -0.110113, -0.010794, -0.443507, 0.63348, -3.12868, -0.0535105, -0.103678, 0.0112358, 0.0161798, -0.0233269, -0.00511616, -0.00650112, -0.0169153
0.121895, 0.107941, -0.77399, -0.919469, -1.45823, -0.625859, 1.06963, -0.256688, 0.00384813, 0.011773, -0.042193, -0.0122956, -0.000536347, -0.0073146, 0.000938041, 0.586922, 16.7828, 21.3114, 16.7731, 1.14734, 4.02713, -0.0951428, -5.82675e-05, -0.000697508, 0.000869451, 0.00187025, -0.0041137, 0.00179684, 0.0170316, -0.0218424, 0.00869118, 0.00830688, 0.0343253, 0.0698234, -0.0107792, -0.444217, 0.634329, -3.13024, -0.0557233, -0.110202, -0.0108013, -0.443513, 0.633463, -3.12864, -0.0534539, -0.103637, 0.011493, 0.0165093, -0.0238314, -0.00531197, -0.00600687, -0.0165295
0.122895, 0.107942, -0.773972, -0.919504, -1.45825, -0.625862, 1.06962, -0.256691, 0.00144952, 0.0144135, -0.0368046, -0.0102684, -0.000605092, -0.010122, 0.000625361, 0.6623, 16.8225, 21.236, 16.8127, 1.15375, 4.02713, -0.0951428, -7.16452e-05, -0.000677545, 0.000859812, 0.0018571, -0.0042113, 0.00181487, 0.0165198, -0.0206212, 0.0112988, 0.0118883, 0.0370519, 0.0727338, -0.0107676, -0.4442, 0.634305, -3.13018, -0.0557293, -0.110292, -0.0108029, -0.443517, 0.633448, -3.1286, -0.0534323, -0.103576, 0.0117529, 0.0168407, -0.0243401, -0.00476904, -0.00446417, -0.0143938
0.123895, 0.107944, -0.77395, -0.91955, -1.45826, -0.625864, 1.06961, -0.256695, -0.000311388, 0.0173681, -0.0364113, -0.00992945, -0.000851831, -0.00783078, -0.000803796, 0.737679, 16.8225, 21.3114, 16.7731, 1.16565, 4.03445, -0.0621838, -8.94227e-05, -0.000654949, 0.000850801, 0.00184756, -0.0043099, 0.00184318, 0.0163882, -0.0212176, 0.0124138, 0.0157636, 0.0389879, 0.0743948, -0.0107557, -0.444183, 0.634281, -3.13012, -0.0557354, -0.110385, -0.0108085, -0.443523, 0.633431, -3.12856, -0.0533951, -0.103514, 0.0120154, 0.017174, -0.0248528, -0.00443272, -0.00473432, -0.0137918
0.124895, 0.107945, -0.773933, -0.919589, -1.45828, -0.625862, 1.06959, -0.256689, -0.000771485, 0.0178766, -0.0385351, -0.0114971, -0.000810966, -0.0112968, 0.000413572, 0.777352, 16.8939, 21.3471, 16.8127, 1.17206, 4.05551, -0.0878186, -0.000104773, -0.000635029, 0.000842189, 0.00184314, -0.00440878, 0.00187066, 0.0173976, -0.0211901, 0.0116032, 0.0115882, 0.0425359, 0.0739223, -0.0107435, -0.444166, 0.634256, -3.13007, -0.0557417, -0.110479, -0.0108115, -0.443526, 0.633413, -3.12852, -0.0533595, -0.103454, 0.0122806, 0.0175091, -0.0253696, -0.00511832, -0.00439961, -0.0151904
0.125895, 0.107947, -0.773914, -0.919623, -1.45829, -0.62586, 1.06958, -0.25669, -0.000241228, 0.0181027, -0.0357559, -0.0116509, -0.000307575, -0.00864957, -0.000436362, 0.777352, 16.9693, 21.3471, 16.8127, 1.16565, 4.06283, -0.0685925, -0.000117629, -0.000615258, 0.000830936, 0.00183029, -0.00450921, 0.00188713, 0.016029, -0.0214002, 0.0131116, 0.0163639, 0.0412434, 0.07976, -0.0107311, -0.444148, 0.63423, -3.13001, -0.0557481, -0.110576, -0.010812, -0.443529, 0.633398, -3.12848, -0.0533409, -0.103394, 0.0125483, 0.0178461, -0.0258904, -0.00358541, -0.00424074, -0.0141138
0.126895, 0.107941, -0.773891, -0.919661, -1.45831, -0.62586, 1.06957, -0.256688, -0.00255445, 0.022542, -0.0311399, -0.012689, -0.000445627, -0.0155271, 0.00140451, 0.888436, 17.005, 21.3868, 16.8484, 1.17206, 4.05551, -0.114369, -0.000133953, -0.000595396, 0.000821241, 0.00182253, -0.00462034, 0.00191586, 0.0150042, -0.0193731, 0.0142897, 0.0144043, 0.0499091, 0.0816, -0.0107184, -0.44413, 0.634204, -3.12995, -0.0557547, -0.110674, -0.0108155, -0.443531, 0.63338, -3.12844, -0.0533037, -0.103319, 0.0128186, 0.0181849, -0.0264151, -0.00244988, -0.00185321, -0.0133771
0.127895, 0.107942, -0.773872, -0.919701, -1.45833, -0.625862, 1.06955, -0.256698, -0.00154935, 0.0178017, -0.0328443, -0.0138914, 0.000141312, -0.0164866, -0.00197978, 0.888436, 17.1161, 21.4979, 16.7731, 1.16015, 4.06283, -0.0356336, -0.000151263, -0.000573218, 0.000809669, 0.00180912, -0.00472475, 0.0019336, 0.0165308, -0.0198414, 0.0137007, 0.0121525, 0.0463064, 0.0876522, -0.0107055, -0.444112, 0.634177, -3.12989, -0.0557614, -0.110774, -0.0108197, -0.443536, 0.633363, -3.1284, -0.0532834, -0.103257, 0.0130915, 0.0185254, -0.0269437, -0.0036412, -0.00202916, -0.0146073
0.128895, 0.107938, -0.773843, -0.919729, -1.45834, -0.625862, 1.06954, -0.256687, -0.00091769, 0.0208819, -0.0338433, -0.0149719, 0.000329757, -0.016998, 0.00135891, 0.888436, 17.0804, 21.4582, 16.6977, 1.15375, 4.06283, -0.10796, -0.000163294, -0.000554062, 0.000794054, 0.00178762, -0.00483963, 0.00196495, 0.0156837, -0.0201274, 0.0136935, 0.011611, 0.0504737, 0.0868771, -0.0106922, -0.444093, 0.63415, -3.12983, -0.0557683, -0.110876, -0.0108189, -0.443537, 0.633351, -3.12836, -0.053242, -0.10318, 0.0133669, 0.0188676, -0.0274763, -0.00251117, -0.00194367, -0.0150915
0.129895, 0.107938, -0.773843, -0.919729, -1.45834, -0.625862, 1.06954, -0.256687, -0.00091769, 0.0208819, -0.0338433, -0.0149719, 0.000329757, -0.016998, 0.00135891, 0.888436, 17.0804, 21.4582, 16.6977, 1.15375, 4.06283, -0.10796, -0.000175512, -0.000535699, 0.000765246, 0.0017293, -0.00490856, 0.0019686, 0.015934, -0.0204559, 0.0142541, 0.0126583, 0.0507001, 0.0889566, -0.0106787, -0.444074, 0.634122, -3.12976, -0.0557754, -0.110981, -0.0108189, -0.443537, 0.633351, -3.12836, -0.053242, -0.10318, 0.0136449, 0.0192114, -0.0280126, -0.00251117, -0.00194367, -0.0150915
0.130895, 0.107938, -0.773843, -0.919729, -1.45834, -0.625862, 1.06954, -0.256687, -0.00091769, 0.0208819, -0.0338433, -0.0149719, 0.000329757, -0.016998, 0.00135891, 0.888436, 17.0804, 21.4582, 16.6977, 1.15375, 4.06283, -0.10796, -0.00018798, -0.000517009, 0.000735873, 0.00166987, -0.00497881, 0.00197233, 0.0161866, -0.0207857, 0.0148187, 0.0137121, 0.0509291, 0.0910504, -0.0106649, -0.444055, 0.634094, -3.1297, -0.0557826, -0.111087, -0.0108189, -0.443537, 0.633351, -3.12836, -0.053242, -0.10318, 0.0139255, 0.0195569, -0.0285528, -0.00251117, -0.00194367, -0.0150915
0.131895, 0.107938, -0.773843, -0.919729, -1.45834, -0.625862, 1.06954, -0.256687, -0.00091769, 0.0208819, -0.0338433, -0.0149719, 0.000329757, -0.016998, 0.00135891, 0.888436, 17.0804, 21.4582, 16.6977, 1.15375, 4.06283, -0.10796, -0.000200699, -0.000497991, 0.000705933, 0.00160933, -0.00505041, 0.00197615, 0.0164414, -0.021117, 0.0153874, 0.0147722, 0.0511608, 0.0931584, -0.0106509, -0.444035, 0.634065, -3.12963, -0.05579, -0.111195, -0.0108189, -0.443537, 0.633351, -3.12836, -0.053242, -0.10318, 0.0142086, 0.019904, -0.0290967, -0.00251117, -0.00194367, -0.0150915
0.132895, 0.107923, -0.773748, -0.919836, -1.45843, -0.62586, 1.06947, -0.256687, -0.00464442, 0.0248886, -0.0309886, -0.0173322, -0.000377609, -0.0172136, 0.000986783, 0.963814, 17.2272, 21.5732, 16.5866, 1.16565, 4.03445, -0.0951428, -0.000215268, -0.000478389, 0.000734163, 0.00171712, -0.00531042, 0.00203227, 0.0158872, -0.0206035, 0.0162961, 0.0170477, 0.0574163, 0.0949547, -0.0106365, -0.444015, 0.634036, -3.12957, -0.0557975, -0.111306, -0.0108163, -0.443537, 0.633292, -3.12821, -0.0531689, -0.102877, 0.0144943, 0.0202526, -0.0296444, -0.00175678, -0.00107322, -0.0146917
0.133895, 0.107906, -0.773727, -0.919856, -1.45846, -0.62586, 1.06945, -0.25669, -0.00786611, 0.0233102, -0.0257687, -0.022603, -0.000489527, -0.0215095, -0.00154619, 1.15424, 17.2986, 21.5336, 16.5866, 1.17206, 4.01248, -0.0356336, -0.000232249, -0.000460856, 0.000717429, 0.00169577, -0.0054343, 0.00205076, 0.0157539, -0.0187829, 0.0164105, 0.0149812, 0.0614958, 0.103031, -0.0106219, -0.443995, 0.634006, -3.1295, -0.0558053, -0.111418, -0.0108191, -0.443534, 0.633277, -3.12817, -0.0531484, -0.102797, 0.0147825, 0.0206027, -0.0301957, -0.00141013, 0.00109859, -0.0151068
0.134895, 0.107901, -0.773699, -0.919879, -1.45848, -0.625862, 1.06944, -0.256688, -0.00631579, 0.0250618, -0.0236898, -0.0225729, -0.000767483, -0.0202254, 0.000427267, 1.18995, 17.2629, 21.5732, 16.5509, 1.18396, 3.99142, -0.0750012, -0.000244368, -0.000441704, 0.000699868, 0.00167222, -0.00556442, 0.00206897, 0.0140542, -0.018987, 0.0177176, 0.018683, 0.0629525, 0.106181, -0.010607, -0.443974, 0.633975, -3.12943, -0.0558132, -0.111532, -0.0108168, -0.443533, 0.633263, -3.12813, -0.0531285, -0.102709, 0.0150731, 0.0209542, -0.0307507, 0.000488448, 0.00129073, -0.014241
0.135895, 0.107901, -0.773686, -0.919899, -1.4585, -0.625862, 1.06941, -0.25669, -0.00574727, 0.0208108, -0.0247464, -0.0216726, -0.000749256, -0.0200076, -0.000189873, 1.11457, 17.4454, 21.5732, 16.4755, 1.19037, 3.99142, -0.0621838, -0.000258422, -0.000423315, 0.000681589, 0.00165081, -0.00568181, 0.00207479, 0.015855, -0.0197288, 0.0181226, 0.0194184, 0.0582999, 0.108287, -0.0105917, -0.443953, 0.633944, -3.12936, -0.0558213, -0.111649, -0.0108161, -0.443531, 0.63325, -3.12809, -0.053128, -0.102643, 0.0153663, 0.0213072, -0.0313093, -0.00101667, 0.000833135, -0.014533
0.136895, 0.107899, -0.773655, -0.919917, -1.45853, -0.625864, 1.06939, -0.256683, -0.00729096, 0.0248494, -0.0210277, -0.0227859, -0.000974403, -0.0189612, 0.00133148, 1.11457, 17.3383, 21.5336, 16.4755, 1.20318, 3.96945, -0.101552, -0.000267293, -0.000405648, 0.000663005, 0.00162935, -0.00582237, 0.00208981, 0.0140832, -0.0193657, 0.0197128, 0.0237021, 0.0627661, 0.110679, -0.0105762, -0.443931, 0.633913, -3.12929, -0.0558295, -0.111768, -0.0108101, -0.443528, 0.633236, -3.12805, -0.0531137, -0.102544, 0.015662, 0.0216616, -0.0318714, 0.00091791, 0.00159397, -0.0133819
0.137895, 0.107899, -0.773655, -0.919917, -1.45853, -0.625864, 1.06939, -0.256683, -0.00729096, 0.0248494, -0.0210277, -0.0227859, -0.000974403, -0.0189612, 0.00133148, 1.11457, 17.3383, 21.5336, 16.4755, 1.20318, 3.96945, -0.101552, -0.000281574, -0.000384626, 0.000629571, 0.00156201, -0.0059022, 0.00209423, 0.014351, -0.0197043, 0.0203046, 0.0247982, 0.0630144, 0.112869, -0.0105604, -0.443909, 0.63388, -3.12921, -0.055838, -0.111888, -0.0108101, -0.443528, 0.633236, -3.12805, -0.0531137, -0.102544, 0.0159602, 0.0220173, -0.0324371, 0.00091791, 0.00159397, -0.0133819
0.138895, 0.107899, -0.773655, -0.919917, -1.45853, -0.625864, 1.06939, -0.256683, -0.00729096, 0.0248494, -0.0210277, -0.0227859, -0.000974403, -0.0189612, 0.00133148, 1.11457, 17.3383, 21.5336, 16.4755, 1.20318, 3.96945, -0.101552, -0.000296121, -0.000363267, 0.00059554, 0.00149352, -0.00598343, 0.00209875, 0.0146209, -0.0200438, 0.0209003, 0.0258998, 0.0632655, 0.115072, -0.0105443, -0.443887, 0.633848, -3.12914, -0.0558466, -0.112011, -0.0108101, -0.443528, 0.633236, -3.12805, -0.0531137, -0.102544, 0.0162609, 0.0223744, -0.0330063, 0.00091791, 0.00159397, -0.0133819
0.139895, 0.107882, -0.773592, -0.919971, -1.4586, -0.62587, 1.06933, -0.256684, -0.00616243, 0.0216294, -0.0162992, -0.0201802, -0.00177335, -0.0261153, -0.000385381, 1.22962, 17.374, 21.4979, 16.2494, 1.25812, 3.92642, -0.0685925, -0.000309847, -0.000348436, 0.00060096, 0.00154579, -0.00621521, 0.00212677, 0.0152998, -0.0185235, 0.0228605, 0.0253837, 0.062626, 0.122005, -0.0105279, -0.443865, 0.633814, -3.12906, -0.0558554, -0.112136, -0.0108064, -0.443521, 0.633196, -3.12794, -0.0530833, -0.102303, 0.016564, 0.0227327, -0.033579, 0.00034824, 0.0034239, -0.0120376
0.140895, 0.107874, -0.773577, -0.919994, -1.45863, -0.62587, 1.0693, -0.256688, -0.00845442, 0.0185862, -0.0167689, -0.020076, -0.00118229, -0.0280327, -0.00147762, 1.26533, 17.4097, 21.5336, 16.178, 1.25812, 3.89804, -0.0356336, -0.000328955, -0.000328298, 0.00058087, 0.00152235, -0.00634246, 0.00214035, 0.0177696, -0.018551, 0.0231562, 0.0242658, 0.0602971, 0.122918, -0.0105112, -0.443842, 0.633781, -3.12899, -0.0558644, -0.112263, -0.0108094, -0.443519, 0.633181, -3.12789, -0.0530717, -0.102232, 0.0168696, 0.0230922, -0.034155, -0.00182979, 0.00366379, -0.0124991
0.141895, 0.107873, -0.773562, -0.920009, -1.45865, -0.625871, 1.06928, -0.256686, -0.0085001, 0.0180579, -0.0143091, -0.0198044, -0.00122905, -0.0258793, -1.73836e-06, 1.22962, 17.374, 21.4582, 16.1026, 1.27002, 3.89804, -0.0621838, -0.000342753, -0.000309494, 0.000558532, 0.00149384, -0.00647345, 0.00214785, 0.0172685, -0.0188435, 0.0247125, 0.0289783, 0.0586991, 0.125356, -0.0104942, -0.443818, 0.633746, -3.12891, -0.0558736, -0.112393, -0.010807, -0.443515, 0.633167, -3.12785, -0.0530697, -0.102159, 0.0171776, 0.0234529, -0.0347344, -0.00112465, 0.00373024, -0.0114959
0.142895, 0.107869, -0.773542, -0.920021, -1.45868, -0.625871, 1.06925, -0.256687, -0.00633882, 0.0161398, -0.0135612, -0.0214411, -0.000819397, -0.0281835, -0.000509785, 1.22962, 17.2629, 21.4225, 16.1026, 1.27002, 3.87607, -0.0484509, -0.000354818, -0.000291162, 0.000535317, 0.00146407, -0.00661166, 0.00215034, 0.0167592, -0.0185751, 0.0246949, 0.027208, 0.0589542, 0.131879, -0.0104768, -0.443795, 0.633711, -3.12883, -0.0558829, -0.112524, -0.0108026, -0.44351, 0.633154, -3.12781, -0.0530756, -0.102076, 0.017488, 0.0238148, -0.0353172, -0.000316736, 0.00437665, -0.0120601
0.143895, 0.107869, -0.773533, -0.920037, -1.4587, -0.625871, 1.06923, -0.256682, -0.00380192, 0.0158549, -0.0165215, -0.0217291, -0.000546289, -0.0304292, 0.00138947, 1.18995, 17.2272, 21.3868, 16.0629, 1.27002, 3.86966, -0.0951428, -0.000370556, -0.00027139, 0.000512186, 0.00143435, -0.00673843, 0.00215973, 0.0170879, -0.0191061, 0.0240971, 0.0240151, 0.0602051, 0.132792, -0.0104592, -0.443771, 0.633676, -3.12875, -0.0558925, -0.112658, -0.0108016, -0.443507, 0.63314, -3.12777, -0.0530709, -0.102013, 0.0178009, 0.0241778, -0.0359033, -0.000271318, 0.00420241, -0.013274
0.144895, 0.107868, -0.773527, -0.92005, -1.45873, -0.625873, 1.0692, -0.256686, -0.00522588, 0.0116763, -0.0151177, -0.0258348, -0.00104238, -0.0274446, 0.00332764, 1.15424, 17.2272, 21.3471, 16.0629, 1.28833, 3.86233, -0.0292249, -0.00038726, -0.000252477, 0.000489483, 0.00140815, -0.00687044, 0.00215841, 0.0177455, -0.0195798, 0.0240094, 0.0263549, 0.0577812, 0.134672, -0.0104412, -0.443746, 0.633639, -3.12867, -0.0559023, -0.112794, -0.0108012, -0.443502, 0.633125, -3.12773, -0.0530833, -0.101944, 0.0181163, 0.0245419, -0.0364926, -0.000589865, 0.00406894, -0.0140056
0.145895, 0.107865, -0.773519, -0.920061, -1.45876, -0.625874, 1.06917, -0.256679, -0.00486504, 0.0103772, -0.0158801, -0.0240618, -0.000932292, -0.0244572, 0.00553811, 1.18995, 17.1518, 21.236, 15.9915, 1.29474, 3.84036, -0.10796, -0.000404576, -0.000233257, 0.000463372, 0.00137368, -0.00699913, 0.00217018, 0.018537, -0.0207518, 0.0251587, 0.0304169, 0.0540555, 0.133687, -0.0104229, -0.443722, 0.633603, -3.12858, -0.0559122, -0.112932, -0.0108013, -0.443497, 0.633113, -3.12769, -0.0530752, -0.101883, 0.018434, 0.0249071, -0.0370852, -0.00110318, 0.00321948, -0.0135232
0.146895, 0.107868, -0.773513, -0.92007, -1.45879, -0.625873, 1.06914, -0.256682, -0.00105434, 0.0101389, -0.00965773, -0.0254531, -0.000180729, -0.0234167, 0.00352002, 1.07887, 17.0407, 21.1249, 16.0272, 1.28284, 3.84768, -0.0951428, -0.00041705, -0.000214433, 0.000438719, 0.00134242, -0.00713137, 0.00216057, 0.0146582, -0.0200235, 0.0270779, 0.0350819, 0.0536725, 0.147626, -0.0104044, -0.443697, 0.633565, -3.1285, -0.0559224, -0.113072, -0.0107962, -0.443492, 0.633099, -3.12764, -0.0531007, -0.101819, 0.0187541, 0.0252732, -0.0376809, 0.00291678, 0.00442558, -0.011921
0.147895, 0.107877, -0.773508, -0.920084, -1.45881, -0.625873, 1.06912, -0.25668, 0.00251651, 0.00663095, -0.010383, -0.0267668, -0.000120493, -0.0212463, 0.00206506, 0.928108, 16.9296, 21.0892, 15.9518, 1.28284, 3.8193, -0.0814099, -0.000431102, -0.000193726, 0.000412733, 0.00130956, -0.00726073, 0.0021571, 0.0141533, -0.0209904, 0.0270464, 0.0363685, 0.0502381, 0.155128, -0.0103854, -0.443671, 0.633527, -3.12841, -0.0559327, -0.113214, -0.0107924, -0.443488, 0.633086, -3.1276, -0.0531167, -0.101761, 0.0190766, 0.0256403, -0.0382798, 0.00377754, 0.00384247, -0.0125269
0.148895, 0.107872, -0.773513, -0.920094, -1.45883, -0.62587, 1.06909, -0.256681, 0.00144737, 0.00218795, -0.00896915, -0.0247401, 0.000835193, -0.0241166, 0.000834882, 0.928108, 16.8939, 20.9742, 15.8765, 1.25812, 3.7836, -0.0621838, -0.000453031, -0.000173292, 0.000384148, 0.00127095, -0.00737672, 0.00216188, 0.01634, -0.020629, 0.0283193, 0.0364109, 0.045418, 0.158128, -0.0103662, -0.443645, 0.633489, -3.12833, -0.0559433, -0.113359, -0.0107963, -0.443484, 0.633074, -3.12756, -0.0531199, -0.101727, 0.0194015, 0.0260084, -0.0388819, 0.00181583, 0.00447684, -0.0120179
0.149895, 0.107876, -0.773514, -0.92011, -1.45886, -0.62587, 1.06906, -0.256678, 0.000344896, 0.00292937, -0.0107941, -0.0249878, 0.000319432, -0.0271657, 0.00163371, 0.813057, 16.8225, 20.9742, 15.8765, 1.26453, 3.76895, -0.0878186, -0.000471933, -0.000151427, 0.000359199, 0.0012397, -0.00750563, 0.00216531, 0.0178597, -0.0207718, 0.0281605, 0.0339803, 0.0486, 0.157042, -0.0103466, -0.443619, 0.633449, -3.12824, -0.0559541, -0.113506, -0.0107965, -0.44348, 0.633058, -3.12751, -0.0531257, -0.101674, 0.0197288, 0.0263773, -0.039487, 0.000642659, 0.00464888, -0.0128966
0.150895, 0.107875, -0.77352, -0.920121, -1.45889, -0.625868, 1.06904, -0.256679, 0.000674057, -0.000513453, -0.00934859, -0.0281055, 9.50081e-06, -0.0334322, 0.00094755, 0.777352, 16.7828, 20.8631, 15.8765, 1.27002, 3.73324, -0.0814099, -0.000492013, -0.000130976, 0.000332045, 0.00120544, -0.00762969, 0.00216373, 0.0186702, -0.0196289, 0.0275736, 0.028776, 0.050816, 0.162952, -0.0103267, -0.443593, 0.63341, -3.12815, -0.055965, -0.113655, -0.0107979, -0.443475, 0.633044, -3.12746, -0.0531394, -0.101632, 0.0200585, 0.0267472, -0.0400951, 0.000163345, 0.00613683, -0.0141418
0.151895, 0.107882, -0.773527, -0.92013, -1.45891, -0.625869, 1.069, -0.256682, 0.00191929, 0.000110199, -0.00842331, -0.0257717, 0.000447141, -0.0339816, -0.000245911, 0.701973, 16.7471, 20.752, 15.8011, 1.25812, 3.71127, -0.0557752, -0.000510968, -0.000110043, 0.000302773, 0.00116749, -0.00775495, 0.0021559, 0.0183825, -0.0198141, 0.0291257, 0.0311355, 0.0501278, 0.167461, -0.0103065, -0.443566, 0.633369, -3.12806, -0.0559762, -0.113807, -0.0107978, -0.44347, 0.633031, -3.12742, -0.0531629, -0.10159, 0.0203905, 0.0271178, -0.0407063, 0.000674013, 0.00631107, -0.0131896
0.152895, 0.107883, -0.773536, -0.920138, -1.45894, -0.625871, 1.06898, -0.256678, 0.00198756, -0.00264048, -0.00769356, -0.0267924, -0.000142717, -0.0334006, 0.00107672, 0.6623, 16.7114, 20.6409, 15.8408, 1.27002, 3.66824, -0.0878186, -0.000531444, -8.89464e-05, 0.000274874, 0.00112988, -0.00788445, 0.00215589, 0.019092, -0.020196, 0.0296143, 0.0327697, 0.0484688, 0.169388, -0.010286, -0.443538, 0.633328, -3.12796, -0.0559876, -0.113961, -0.0107989, -0.443465, 0.633016, -3.12737, -0.0531745, -0.101544, 0.0207248, 0.0274892, -0.0413204, 0.000277136, 0.0062672, -0.0133757
0.153895, 0.10789, -0.773538, -0.920154, -1.45897, -0.625867, 1.06894, -0.256681, 0.0037585, -0.00279589, -0.0134504, -0.0247467, 0.000108304, -0.0302872, -0.000191219, 0.551216, 16.6003, 20.6409, 15.7654, 1.26453, 3.67557, -0.0621838, -0.000550692, -6.73074e-05, 0.000247099, 0.00109995, -0.00801717, 0.00214968, 0.0205592, -0.0223722, 0.0294708, 0.0338153, 0.0457902, 0.169499, -0.0102651, -0.443511, 0.633287, -3.12787, -0.0559992, -0.114117, -0.0107984, -0.44346, 0.633001, -3.12732, -0.0531963, -0.101494, 0.0210615, 0.0278614, -0.0419374, -0.000762043, 0.00441189, -0.0142683
0.154895, 0.107899, -0.77355, -0.92017, -1.459, -0.625865, 1.06891, -0.256677, 0.00414516, -0.00165629, -0.0166092, -0.0272292, 0.000309561, -0.0317085, 0.00112353, 0.475838, 16.5646, 20.6052, 15.7297, 1.25812, 3.66092, -0.0951428, -0.000571397, -4.40123e-05, 0.000218897, 0.00106451, -0.00814191, 0.00214776, 0.0209688, -0.0228829, 0.028376, 0.0303095, 0.0495497, 0.169909, -0.0102438, -0.443483, 0.633244, -3.12777, -0.056011, -0.114275, -0.010799, -0.443456, 0.632985, -3.12727, -0.0532115, -0.10146, 0.0214005, 0.0282343, -0.0425574, -0.00073575, 0.00427093, -0.0160195
0.155895, 0.107903, -0.773555, -0.920181, -1.45903, -0.625868, 1.06888, -0.256686, 0.00359865, -0.00215967, -0.0180007, -0.030948, 0.000443732, -0.0272919, -0.00214438, 0.436165, 16.4536, 20.5298, 15.7654, 1.25171, 3.62521, -0.0164075, -0.000590361, -2.15267e-05, 0.000191153, 0.0010274, -0.00828267, 0.00213283, 0.0208564, -0.0240582, 0.0278833, 0.0322559, 0.0495015, 0.175955, -0.0102223, -0.443454, 0.633201, -3.12768, -0.0560231, -0.114436, -0.0107975, -0.443451, 0.632968, -3.12722, -0.0532471, -0.101403, 0.0217418, 0.0286079, -0.0431802, -0.000206401, 0.00347751, -0.0171417
0.156895, 0.107914, -0.773563, -0.920187, -1.45907, -0.625868, 1.06885, -0.256678, 0.00492795, -0.00349174, -0.0138673, -0.0318162, 0.00053318, -0.0343538, 0.00123231, 0.325081, 16.3782, 20.3791, 15.7297, 1.2453, 3.61148, -0.0878186, -0.000606454, -1.51003e-07, 0.000160498, 0.000987307, -0.00842021, 0.00212516, 0.0201993, -0.022329, 0.0287381, 0.0293109, 0.052372, 0.179938, -0.0102004, -0.443425, 0.633158, -3.12758, -0.0560353, -0.114599, -0.0107931, -0.443445, 0.632953, -3.12717, -0.0532715, -0.101354, 0.0220854, 0.0289822, -0.0438058, 0.000664783, 0.00558944, -0.0168539
0.157895, 0.107917, -0.77357, -0.920201, -1.4591, -0.625868, 1.06882, -0.256681, 0.0032331, -0.000459493, -0.0136274, -0.03339, 0.000355453, -0.0393391, -0.00133581, 0.325081, 16.2671, 20.3434, 15.7297, 1.2453, 3.59683, -0.0292249, -0.00062795, 2.27074e-05, 0.000132108, 0.000952336, -0.00856208, 0.0021183, 0.0205039, -0.0215385, 0.0287168, 0.0258766, 0.0593472, 0.184105, -0.0101781, -0.443396, 0.633114, -3.12748, -0.0560478, -0.114764, -0.0107935, -0.443439, 0.632936, -3.12712, -0.0532952, -0.1013, 0.0224314, 0.029357, -0.0444342, 0.00067745, 0.00674094, -0.0175223
0.158895, 0.107923, -0.773579, -0.920211, -1.45913, -0.625868, 1.06879, -0.256674, 0.00304426, -0.00234274, -0.00888118, -0.0367344, 0.000236968, -0.0335951, 0.00105183, 0.285408, 16.1957, 20.268, 15.69, 1.2453, 3.57577, -0.0814099, -0.000647929, 4.55949e-05, 0.000102126, 0.000913674, -0.00870325, 0.00211682, 0.0186578, -0.0218644, 0.0301344, 0.0331637, 0.0569539, 0.189264, -0.0101555, -0.443367, 0.633069, -3.12738, -0.0560605, -0.114932, -0.0107921, -0.443434, 0.632919, -3.12707, -0.0533106, -0.10125, 0.0227796, 0.0297325, -0.0450654, 0.0027711, 0.0068349, -0.0166118
0.159895, 0.107929, -0.773593, -0.920222, -1.45917, -0.625867, 1.06876, -0.25668, 0.00292816, -0.00461409, -0.0123202, -0.0393288, -0.000316739, -0.0343087, -0.00122437, 0.245735, 16.16, 20.1926, 15.6543, 1.25812, 3.56112, -0.0292249, -0.000668816, 6.89956e-05, 7.24842e-05, 0.000874841, -0.00883926, 0.00210056, 0.0204731, -0.0227012, 0.0288978, 0.0301495, 0.0576207, 0.192316, -0.0101325, -0.443337, 0.633024, -3.12728, -0.0560735, -0.115102, -0.0107913, -0.443428, 0.632901, -3.12701, -0.0533492, -0.10121, 0.0231301, 0.0301084, -0.0456993, 0.00143044, 0.00632349, -0.0186257
0.160895, 0.107932, -0.773597, -0.92024, -1.45921, -0.625863, 1.06873, -0.256678, 0.00590385, -0.00669961, -0.0166665, -0.0422008, 0.000467009, -0.0384649, -0.000336137, 0.21003, 16.0092, 20.1926, 15.6543, 1.23981, 3.5181, -0.0420422, -0.000689052, 9.36891e-05, 4.47475e-05, 0.000840191, -0.00898886, 0.00209715, 0.0212104, -0.0229964, 0.0269289, 0.0226444, 0.0594505, 0.195373, -0.0101092, -0.443306, 0.632978, -3.12717, -0.0560866, -0.115274, -0.0107893, -0.443424, 0.632881, -3.12695, -0.0533683, -0.101151, 0.0234829, 0.0304849, -0.0463358, 0.00120084, 0.0064018, -0.021288
0.161895, 0.107942, -0.773603, -0.920255, -1.45926, -0.625863, 1.0687, -0.25668, 0.00594417, -0.0061692, -0.0163304, -0.0451583, 0.000311339, -0.037758, -0.000694765, 0.134651, 15.9021, 20.1926, 15.69, 1.23981, 3.49612, -0.0292249, -0.000706451, 0.000117148, 1.76879e-05, 0.000809527, -0.00914631, 0.00208068, 0.0205888, -0.0232383, 0.0268713, 0.0231259, 0.0619788, 0.199925, -0.0100856, -0.443276, 0.632931, -3.12707, -0.0561, -0.115449, -0.0107841, -0.443418, 0.63286, -3.12689, -0.0534082, -0.101082, 0.0238379, 0.0308619, -0.046975, 0.00218588, 0.00655695, -0.0219461
0.162895, 0.107946, -0.773613, -0.920258, -1.4593, -0.625866, 1.06867, -0.25668, 0.00507457, -0.00667034, -0.0123904, -0.0444014, -0.000707968, -0.0326809, -0.000697502, 0.0949785, 15.8267, 20.0458, 15.6146, 1.26453, 3.48239, -0.0228162, -0.00072573, 0.000140211, -1.58821e-05, 0.000761155, -0.00929627, 0.00206685, 0.0199835, -0.023906, 0.0293439, 0.0321668, 0.0593497, 0.203681, -0.0100616, -0.443245, 0.632884, -3.12696, -0.0561137, -0.115626, -0.0107809, -0.443411, 0.632844, -3.12685, -0.0534435, -0.101028, 0.0241952, 0.0312393, -0.0476168, 0.00298611, 0.00625285, -0.0200894
0.163895, 0.107946, -0.773626, -0.920271, -1.45934, -0.625864, 1.06864, -0.256678, 0.00259285, -0.00469947, -0.00970733, -0.0452244, 2.73905e-06, -0.0330795, 0.000249351, 0.134651, 15.791, 20.0458, 15.5789, 1.25171, 3.46042, -0.0420422, -0.000749236, 0.000164443, -4.50233e-05, 0.000724375, -0.00944697, 0.00206221, 0.0196702, -0.0234273, 0.0306435, 0.0343128, 0.0617018, 0.205532, -0.0100372, -0.443213, 0.632836, -3.12686, -0.0561275, -0.115806, -0.0107812, -0.443405, 0.632823, -3.12679, -0.0534653, -0.100975, 0.0245547, 0.0316171, -0.0482612, 0.00354191, 0.00709961, -0.0194145
0.164895, 0.107949, -0.773634, -0.920278, -1.4594, -0.625866, 1.06861, -0.25668, 0.00183194, -0.00539782, -0.00931665, -0.0475577, -0.000472892, -0.0338449, -0.000306778, 0.134651, 15.7156, 19.9705, 15.6146, 1.26453, 3.44668, -0.0292249, -0.000767444, 0.000187516, -7.36766e-05, 0.000687478, -0.00961223, 0.00204389, 0.0201101, -0.0234718, 0.0306552, 0.0340242, 0.0635798, 0.209081, -0.0100124, -0.443182, 0.632787, -3.12675, -0.0561417, -0.115988, -0.0107759, -0.443397, 0.632802, -3.12673, -0.0535087, -0.100901, 0.0249165, 0.0319953, -0.0489081, 0.00346297, 0.00741436, -0.0200879
0.165895, 0.10795, -0.773642, -0.92029, -1.45945, -0.625866, 1.06857, -0.256679, 0.000463605, -0.00598964, -0.0117166, -0.049602, -0.000315261, -0.0300578, 3.41202e-05, 0.170357, 15.6442, 20.0101, 15.5432, 1.26453, 3.43936, -0.0356336, -0.00078839, 0.000211392, -0.000102637, 0.000651739, -0.00977759, 0.00203354, 0.0211407, -0.0248104, 0.0303899, 0.035806, 0.0627187, 0.209181, -0.00998734, -0.443149, 0.632738, -3.12664, -0.056156, -0.116172, -0.010773, -0.44339, 0.632779, -3.12666, -0.05354, -0.100829, 0.0252805, 0.0323738, -0.0495576, 0.00286499, 0.00641907, -0.0210984
0.166895, 0.107948, -0.773652, -0.920294, -1.45951, -0.62586, 1.06854, -0.256678, -0.000560804, -0.00631881, -0.0108086, -0.0521878, 0.000705353, -0.0312512, 0.000261066, 0.21003, 15.5688, 19.9347, 15.5035, 1.23981, 3.41739, -0.0420422, -0.000806192, 0.000233405, -0.000132571, 0.000614718, -0.00994136, 0.00201401, 0.0211224, -0.0244759, 0.0304577, 0.034731, 0.0641932, 0.212937, -0.00996188, -0.443117, 0.632688, -3.12652, -0.0561706, -0.116359, -0.0107667, -0.44338, 0.632758, -3.1266, -0.0535858, -0.100763, 0.0256467, 0.0327526, -0.0502094, 0.00322918, 0.00712849, -0.021683
0.167895, 0.107946, -0.773668, -0.920301, -1.45957, -0.625867, 1.06851, -0.256675, -0.00116548, -0.00600506, -0.00834899, -0.0562001, -0.00112346, -0.0327534, 0.00115811, 0.245735, 15.6046, 19.9347, 15.4282, 1.28284, 3.41006, -0.0685925, -0.000829999, 0.000257639, -0.000161649, 0.00057524, -0.0101118, 0.00200549, 0.0205231, -0.0240199, 0.0305161, 0.0348801, 0.0694937, 0.216993, -0.00993605, -0.443084, 0.632638, -3.12641, -0.0561854, -0.116548, -0.0107658, -0.443373, 0.632734, -3.12654, -0.0536148, -0.100689, 0.0260151, 0.0331317, -0.0508638, 0.00417081, 0.00798035, -0.0222348
0.168895, 0.107951, -0.773673, -0.920307, -1.45963, -0.625867, 1.06848, -0.256678, 9.09402e-05, -0.00530742, -0.00549543, -0.0599275, -0.000511615, -0.0283293, -0.000210732, 0.21003, 15.4935, 19.8951, 15.3925, 1.27643, 3.38168, -0.0420422, -0.000845461, 0.000281451, -0.000191579, 0.000535461, -0.0102894, 0.00197921, 0.0178089, -0.0243466, 0.0312374, 0.03937, 0.0701675, 0.226525, -0.00990985, -0.44305, 0.632586, -3.1263, -0.0562005, -0.11674, -0.0107564, -0.443364, 0.632711, -3.12648, -0.0536716, -0.100606, 0.0263857, 0.0335111, -0.0515205, 0.00720149, 0.00811579, -0.0219784
0.169895, 0.107944, -0.773684, -0.920314, -1.4597, -0.625868, 1.06845, -0.256675, -0.00167808, -0.00434214, -0.00777514, -0.0630613, -0.000578435, -0.0305178, 0.00108062, 0.285408, 15.4935, 19.8951, 15.3568, 1.28284, 3.37436, -0.0750012, -0.000867933, 0.000305118, -0.000220692, 0.000498345, -0.0104674, 0.00197041, 0.0189728, -0.0244884, 0.0302336, 0.0357147, 0.074751, 0.225814, -0.00988328, -0.443017, 0.632535, -3.12618, -0.0562158, -0.116934, -0.0107536, -0.443356, 0.632686, -3.12641, -0.0537017, -0.100525, 0.0267585, 0.0338906, -0.0521796, 0.00649093, 0.00832303, -0.0237324
0.170895, 0.107944, -0.773694, -0.920324, -1.45977, -0.625868, 1.06842, -0.256678, -0.000172303, -0.00577174, -0.0103497, -0.0677161, -0.000589074, -0.0318133, -0.000499986, 0.245735, 15.4578, 19.9347, 15.2814, 1.28833, 3.36062, -0.0420422, -0.000887373, 0.000329633, -0.000248828, 0.000463093, -0.0106498, 0.00194771, 0.0190953, -0.0248905, 0.0285678, 0.031347, 0.0774989, 0.231847, -0.00985633, -0.442983, 0.632482, -3.12606, -0.0562314, -0.11713, -0.0107472, -0.443347, 0.63266, -3.12634, -0.0537538, -0.100439, 0.0271335, 0.0342704, -0.052841, 0.00687944, 0.00831675, -0.026074
0.171895, 0.107938, -0.773704, -0.920327, -1.45984, -0.625868, 1.06838, -0.256678, -0.00195711, -0.00687819, -0.0095771, -0.0730813, -0.000392716, -0.0333666, -0.000333096, 0.325081, 15.4221, 19.8594, 15.2814, 1.28833, 3.36062, -0.0420422, -0.000906825, 0.000352352, -0.000277303, 0.000427735, -0.0108379, 0.00192685, 0.019333, -0.0244363, 0.0277262, 0.0286917, 0.0808291, 0.235869, -0.00982901, -0.442948, 0.632429, -3.12594, -0.0562473, -0.117329, -0.0107406, -0.443336, 0.632633, -3.12627, -0.0538033, -0.100347, 0.0275107, 0.0346502, -0.0535047, 0.00706301, 0.00915068, -0.0275951
0.172895, 0.107938, -0.773719, -0.920332, -1.45992, -0.625865, 1.06835, -0.256676, -0.00129439, -0.00944987, -0.00733306, -0.0743105, -5.83602e-05, -0.0343474, -0.000459252, 0.325081, 15.4578, 19.8594, 15.1703, 1.28284, 3.3533, -0.0356336, -0.000926102, 0.000375345, -0.00030635, 0.000394943, -0.011019, 0.00190344, 0.0192181, -0.0241385, 0.0284857, 0.0294614, 0.079581, 0.241723, -0.00980131, -0.442913, 0.632375, -3.12582, -0.0562634, -0.117531, -0.0107334, -0.443326, 0.632606, -3.1262, -0.0538572, -0.100268, 0.02789, 0.0350302, -0.0541706, 0.00748621, 0.00981814, -0.0274971
0.173896, 0.107933, -0.773724, -0.920338, -1.45999, -0.625865, 1.06831, -0.256676, -0.00169038, -0.00456811, -0.00476474, -0.0754435, -0.000479716, -0.0397689, 0.000168678, 0.360787, 15.3467, 19.8237, 15.0552, 1.29474, 3.34598, -0.0484509, -0.000944589, 0.000399068, -0.000335536, 0.000358618, -0.0112163, 0.00188202, 0.0178558, -0.022869, 0.029284, 0.0276195, 0.088489, 0.245538, -0.00977323, -0.442878, 0.63232, -3.1257, -0.0562797, -0.117734, -0.0107251, -0.443315, 0.632579, -3.12613, -0.0539082, -0.100167, 0.0282715, 0.0354102, -0.0548388, 0.00911596, 0.0115001, -0.0272572
0.174896, 0.107929, -0.773735, -0.920334, -1.46008, -0.625863, 1.06828, -0.256672, -0.00204912, -0.00369539, -0.00101867, -0.0789914, 0.000120999, -0.0343208, 0.000621174, 0.400459, 15.3467, 19.7086, 15.0552, 1.28284, 3.33865, -0.0621838, -0.000959722, 0.000420364, -0.000364642, 0.000323872, -0.011415, 0.0018519, 0.0154547, -0.0231734, 0.0304721, 0.0338259, 0.0886811, 0.252272, -0.00974476, -0.442843, 0.632265, -3.12558, -0.0562963, -0.117941, -0.0107132, -0.443302, 0.632551, -3.12605, -0.0539732, -0.100065, 0.0286551, 0.0357903, -0.0555092, 0.0118109, 0.0116402, -0.0265704
0.175896, 0.107921, -0.773744, -0.920343, -1.46017, -0.625864, 1.06824, -0.256679, -0.00396017, -0.0052154, -0.00284243, -0.0828058, -0.000122785, -0.0296717, -0.00104387, 0.511544, 15.311, 19.784, 14.9799, 1.28833, 3.31759, -0.0228162, -0.000980567, 0.000445093, -0.000391056, 0.000292029, -0.0116176, 0.00182534, 0.0164639, -0.0244993, 0.0299136, 0.0358966, 0.0879187, 0.255079, -0.00971592, -0.442807, 0.632209, -3.12545, -0.0563132, -0.11815, -0.0107062, -0.443292, 0.63252, -3.12598, -0.0540331, -0.0999605, 0.0290408, 0.0361704, -0.0561817, 0.0112779, 0.0106641, -0.0278974
0.176896, 0.107916, -0.773755, -0.920339, -1.46025, -0.625865, 1.06821, -0.256672, -0.00356486, -0.00410084, 0.00123867, -0.0849462, -0.000556574, -0.0265209, 0.000999559, 0.551216, 15.311, 19.6372, 14.8688, 1.30115, 3.30295, -0.0685925, -0.000996315, 0.000467021, -0.00042108, 0.000253547, -0.0118239, 0.00179909, 0.0142881, -0.0245397, 0.0314179, 0.0415625, 0.0893772, 0.260019, -0.00968668, -0.44277, 0.632153, -3.12533, -0.0563304, -0.118361, -0.0106942, -0.443279, 0.632492, -3.1259, -0.0540925, -0.0998526, 0.0294287, 0.0365505, -0.0568564, 0.0137185, 0.011055, -0.0269131
0.177896, 0.107916, -0.773774, -0.920342, -1.46035, -0.625866, 1.06817, -0.25668, -0.00237412, -0.00818916, 0.000600735, -0.0883257, -0.000608409, -0.0335164, -0.00126637, 0.551216, 15.3864, 19.6372, 14.8331, 1.30755, 3.2883, -0.0164075, -0.00101418, 0.000490533, -0.000446096, 0.0002264, -0.0120291, 0.00175475, 0.0156201, -0.0236624, 0.0301274, 0.034094, 0.0914871, 0.267271, -0.00965706, -0.442734, 0.632096, -3.1252, -0.0563478, -0.118575, -0.0106834, -0.443266, 0.632457, -3.12582, -0.0541808, -0.0997487, 0.0298187, 0.0369305, -0.0575331, 0.0128429, 0.0122799, -0.0289722
0.178896, 0.107908, -0.773782, -0.920344, -1.46045, -0.625864, 1.06814, -0.256675, -0.00334414, -0.00749129, 0.000231708, -0.0900575, 6.91122e-05, -0.0288946, 0.00108857, 0.626595, 15.311, 19.6372, 14.7577, 1.29474, 3.25992, -0.0685925, -0.00103136, 0.000513635, -0.000474465, 0.000192692, -0.0122426, 0.00172967, 0.0153267, -0.0247003, 0.0306662, 0.0379663, 0.0908571, 0.267491, -0.00962704, -0.442696, 0.632038, -3.12507, -0.0563654, -0.118791, -0.0106719, -0.443253, 0.632426, -3.12574, -0.0542394, -0.0996345, 0.0302108, 0.0373105, -0.0582119, 0.013521, 0.0116212, -0.0291097
0.179896, 0.107905, -0.7738, -0.920339, -1.46055, -0.625866, 1.0681, -0.256677, -0.00222805, -0.00969771, 0.00262634, -0.09706, -0.000632094, -0.0356236, -0.000969688, 0.626595, 15.3467, 19.5261, 14.7934, 1.31305, 3.25259, -0.0228162, -0.0010462, 0.000536137, -0.000502075, 0.000157505, -0.0124563, 0.0016846, 0.0145034, -0.0230929, 0.0292143, 0.0310883, 0.0974443, 0.27831, -0.00959664, -0.442659, 0.631979, -3.12494, -0.0563834, -0.11901, -0.0106576, -0.443239, 0.632393, -3.12566, -0.0543292, -0.0995228, 0.0306049, 0.0376903, -0.0588927, 0.0147832, 0.0136547, -0.0311607
0.180896, 0.107897, -0.773815, -0.920337, -1.46066, -0.625866, 1.06807, -0.256672, -0.00640222, -0.013771, 0.00258397, -0.101029, -0.000421396, -0.035352, 0.000811621, 0.701973, 15.3467, 19.4864, 14.7934, 1.31305, 3.23153, -0.0621838, -0.00106348, 0.000558923, -0.000528915, 0.000125467, -0.012674, 0.001653, 0.0170634, -0.0232107, 0.0287269, 0.0302437, 0.0960127, 0.277101, -0.00956583, -0.442621, 0.63192, -3.12481, -0.0564016, -0.119232, -0.0106453, -0.443225, 0.632359, -3.12558, -0.0543986, -0.099407, 0.0310012, 0.03807, -0.0595756, 0.0126663, 0.0138295, -0.0325318
0.181896, 0.107893, -0.773833, -0.920334, -1.46077, -0.625868, 1.06803, -0.256678, -0.00453026, -0.0168732, 0.00248666, -0.101097, -0.000755648, -0.0398933, -0.00166295, 0.701973, 15.3467, 19.4507, 14.7934, 1.32587, 3.21689, -0.00267457, -0.00107988, 0.000581415, -0.00055543, 9.67925e-05, -0.0128957, 0.0016044, 0.0181, -0.0229056, 0.0288403, 0.0272592, 0.0959265, 0.28386, -0.00953463, -0.442583, 0.63186, -3.12467, -0.0564201, -0.119456, -0.0106316, -0.443211, 0.632324, -3.12549, -0.0544948, -0.0992878, 0.0313996, 0.0384495, -0.0602603, 0.0120084, 0.0144716, -0.0331848
0.182896, 0.107883, -0.773849, -0.920335, -1.46087, -0.625868, 1.06799, -0.256673, -0.00497999, -0.0181169, 0.000769153, -0.105738, -0.000503766, -0.0387414, 0.000586795, 0.777352, 15.311, 19.4864, 14.722, 1.32587, 3.19583, -0.0484509, -0.00110017, 0.000604984, -0.000583143, 6.49607e-05, -0.0131169, 0.00157743, 0.0184688, -0.0234982, 0.0277321, 0.0256506, 0.0974034, 0.284978, -0.00950303, -0.442544, 0.6318, -3.12454, -0.0564389, -0.119682, -0.0106216, -0.443197, 0.632289, -3.12541, -0.0540578, -0.0991714, 0.0318, 0.0388288, -0.060947, 0.012144, 0.0142592, -0.0350182
0.183896, 0.107882, -0.773873, -0.920326, -1.46099, -0.625868, 1.06795, -0.256674, -0.0017042, -0.0233039, 0.00307117, -0.107739, -0.000335844, -0.0341274, -8.35142e-05, 0.701973, 15.311, 19.3754, 14.722, 1.32587, 3.20224, -0.0356336, -0.00111389, 0.000626522, -0.000610205, 3.50661e-05, -0.0133403, 0.00152219, 0.0172695, -0.0243005, 0.0286019, 0.03058, 0.0914347, 0.294471, -0.00947103, -0.442505, 0.631738, -3.1244, -0.0564579, -0.119911, -0.0106046, -0.44318, 0.632253, -3.12532, -0.0541664, -0.0990546, 0.0322025, 0.0392079, -0.0616356, 0.0137011, 0.0138618, -0.0347639
0.184896, 0.107871, -0.773893, -0.920326, -1.46111, -0.625868, 1.06791, -0.256672, -0.00519844, -0.0197682, 0.00285263, -0.114112, -0.000427346, -0.0345598, 0.000690314, 0.737679, 15.2753, 19.3397, 14.7934, 1.33136, 3.18851, -0.0557752, -0.0011325, 0.000649693, -0.000634417, 9.25807e-06, -0.0135725, 0.00148377, 0.0169398, -0.0240594, 0.0275194, 0.0283058, 0.0997734, 0.295855, -0.00943863, -0.442466, 0.631676, -3.12426, -0.0564773, -0.120143, -0.0105918, -0.443165, 0.632213, -3.12523, -0.0542493, -0.0989265, 0.032607, 0.0395867, -0.062326, 0.0145045, 0.0145065, -0.0365109
0.185896, 0.107867, -0.773919, -0.920314, -1.46122, -0.625868, 1.06787, -0.256672, -0.00297305, -0.0232509, 0.0054057, -0.11272, -0.000284898, -0.0354629, 0.000460214, 0.701973, 15.2356, 19.1889, 14.7577, 1.33136, 3.18851, -0.0557752, -0.00114858, 0.000670787, -0.000663874, -2.38656e-05, -0.0137974, 0.00143147, 0.0168986, -0.0239538, 0.0291224, 0.0307505, 0.0960747, 0.302279, -0.00940582, -0.442426, 0.631614, -3.12412, -0.0564969, -0.120377, -0.0105765, -0.443148, 0.632178, -3.12514, -0.0543538, -0.0988128, 0.0330136, 0.0399652, -0.0630183, 0.014822, 0.0149626, -0.0356066
0.186896, 0.107859, -0.773953, -0.920306, -1.46134, -0.625867, 1.06783, -0.256672, -0.00445572, -0.0249789, 0.00535014, -0.116189, 0.000250878, -0.0416537, -0.000676532, 0.6623, 15.2753, 19.1135, 14.7934, 1.31946, 3.20956, -0.0292249, -0.0011697, 0.000692175, -0.000691562, -5.02474e-05, -0.0140191, 0.00138413, 0.0183085, -0.0229096, 0.0282315, 0.0244241, 0.0997238, 0.306546, -0.0093726, -0.442386, 0.63155, -3.12398, -0.0565168, -0.120614, -0.0105658, -0.44313, 0.63214, -3.12504, -0.0544512, -0.0987061, 0.0334222, 0.0403434, -0.0637123, 0.0138522, 0.0163444, -0.03729
0.187896, 0.107854, -0.773985, -0.920301, -1.46147, -0.625861, 1.06778, -0.25667, -0.00396422, -0.0295536, 0.00615254, -0.118008, 0.00108278, -0.0411425, 0.000769684, 0.551216, 15.1999, 19.0024, 14.9084, 1.29474, 3.22421, -0.0621838, -0.00118753, 0.000713614, -0.000716112, -6.859e-05, -0.0142462, 0.00133024, 0.0189915, -0.0230999, 0.0285036, 0.0249091, 0.0958542, 0.310225, -0.00933897, -0.442345, 0.631486, -3.12384, -0.056537, -0.120853, -0.0105511, -0.443112, 0.632098, -3.12493, -0.0545596, -0.0985935, 0.0338328, 0.0407212, -0.0644081, 0.0135648, 0.0164995, -0.0377764
0.188896, 0.107849, -0.774024, -0.920293, -1.46159, -0.625857, 1.06774, -0.256671, -0.00463305, -0.0286821, 0.00669065, -0.115423, 0.00184083, -0.0455991, 0.00426171, 0.475838, 15.1999, 18.8913, 14.8688, 1.26453, 3.24527, -0.0356336, -0.00120901, 0.000734685, -0.000745077, -9.33055e-05, -0.0144662, 0.00127766, 0.020073, -0.0225649, 0.0298552, 0.0239304, 0.0971001, 0.308151, -0.00930493, -0.442304, 0.631421, -3.1237, -0.0565575, -0.121095, -0.01054, -0.443094, 0.63206, -3.12483, -0.0546659, -0.0984948, 0.0342455, 0.0410986, -0.0651057, 0.0127723, 0.0173469, -0.0372097
0.189896, 0.107843, -0.774056, -0.92029, -1.46171, -0.625855, 1.06769, -0.256671, -0.00423453, -0.0275851, 0.0044533, -0.118835, 0.00170194, -0.0529711, 0.00398145, 0.360787, 15.0531, 18.8913, 14.9084, 1.25171, 3.24527, -0.0557752, -0.00123114, 0.000757445, -0.000772182, -0.000115773, -0.014698, 0.00123071, 0.0207843, -0.0217948, 0.0283109, 0.0155913, 0.104761, 0.311403, -0.00927048, -0.442263, 0.631356, -3.12355, -0.0565783, -0.121339, -0.0105289, -0.443076, 0.63202, -3.12473, -0.054764, -0.0983801, 0.0346601, 0.0414756, -0.0658049, 0.0125654, 0.0184894, -0.0394997
0.190896, 0.107838, -0.774102, -0.920279, -1.46184, -0.625852, 1.06764, -0.256674, -0.00323736, -0.03278, 0.00993573, -0.121046, 0.00205015, -0.0536783, 0.0019667, 0.21003, 15.0174, 18.7446, 14.9442, 1.22699, 3.24527, -0.0292249, -0.001253, 0.000778687, -0.000800226, -0.000140257, -0.0149207, 0.00116898, 0.020064, -0.0209139, 0.0296378, 0.017936, 0.101339, 0.322602, -0.00923561, -0.442221, 0.63129, -3.1234, -0.0565994, -0.121587, -0.0105173, -0.443057, 0.631979, -3.12462, -0.0548853, -0.0982826, 0.0350768, 0.0418522, -0.0665058, 0.0135608, 0.0197455, -0.0388161
0.191896, 0.107825, -0.774149, -0.920261, -1.46197, -0.625845, 1.06759, -0.256668, -0.00837879, -0.0400691, 0.0122044, -0.127896, 0.00771894, -0.0446611, 0.00275365, 0.170357, 14.9777, 18.5184, 15.0552, 1.19037, 3.23886, -0.0621838, -0.00127456, 0.000797128, -0.000828174, -0.000161729, -0.0151471, 0.00111367, 0.0206977, -0.0214117, 0.0296035, 0.0219379, 0.0899781, 0.327422, -0.00920033, -0.442179, 0.631223, -3.12326, -0.0566208, -0.121836, -0.0105051, -0.443035, 0.631938, -3.12451, -0.0549972, -0.0981817, 0.0354954, 0.0422282, -0.0672083, 0.013365, 0.019598, -0.0396159
0.192896, 0.107817, -0.774197, -0.920258, -1.4621, -0.625841, 1.06754, -0.256677, -0.00727969, -0.0434005, 0.00835442, -0.131057, 0.00647781, -0.0463145, -0.000201924, 0.059273, 14.8706, 18.5184, 15.0949, 1.16565, 3.20224, -0.00267457, -0.00130138, 0.000820302, -0.000855035, -0.000182112, -0.0153722, 0.00105563, 0.0226192, -0.0222484, 0.0280134, 0.0177407, 0.0910968, 0.332255, -0.00916462, -0.442137, 0.631155, -3.12311, -0.0566425, -0.122088, -0.0104975, -0.443017, 0.631894, -3.1244, -0.0551137, -0.0980855, 0.0359161, 0.0426038, -0.0679124, 0.0120216, 0.0190918, -0.0420743
0.193896, 0.107809, -0.774248, -0.920249, -1.46224, -0.625838, 1.06749, -0.256669, -0.00644935, -0.0500606, 0.00749646, -0.132181, 0.00530895, -0.0482214, 0.00168557, -0.0557783, 14.7952, 18.443, 15.0949, 1.14734, 3.18851, -0.0484509, -0.00132793, 0.000842321, -0.000882991, -0.000203841, -0.0155992, 0.00100909, 0.0251222, -0.0226414, 0.0277625, 0.0161841, 0.0875202, 0.333292, -0.00912849, -0.442094, 0.631087, -3.12296, -0.0566645, -0.122343, -0.0104893, -0.442998, 0.631851, -3.12429, -0.0552125, -0.0979889, 0.0363387, 0.0429789, -0.068618, 0.00998077, 0.018985, -0.0432393
0.194896, 0.107801, -0.774307, -0.920238, -1.46237, -0.625832, 1.06744, -0.25667, -0.00991865, -0.0532885, 0.011218, -0.13127, 0.00468901, -0.0446316, 0.000742573, -0.131157, 14.7595, 18.332, 15.1306, 1.12262, 3.16653, -0.0356336, -0.00135451, 0.000863658, -0.000910273, -0.000223387, -0.0158213, 0.000948284, 0.0267176, -0.0230167, 0.0301597, 0.0237583, 0.0826143, 0.335607, -0.00909194, -0.442051, 0.631018, -3.1228, -0.0566868, -0.122601, -0.0104806, -0.442978, 0.631807, -3.12417, -0.055334, -0.0979026, 0.0367632, 0.0433533, -0.0693252, 0.0086388, 0.0188821, -0.0416958
0.195896, 0.107791, -0.774365, -0.920228, -1.46251, -0.62583, 1.06739, -0.256672, -0.00852348, -0.0543907, 0.00953271, -0.132626, 0.00374245, -0.0472551, -0.000146846, -0.242241, 14.6841, 18.2606, 15.1306, 1.11072, 3.1528, -0.0164075, -0.00138272, 0.000884998, -0.000937582, -0.000241556, -0.0160518, 0.000889191, 0.0275521, -0.0232908, 0.0297193, 0.0211618, 0.0849747, 0.339534, -0.00905497, -0.442007, 0.630949, -3.12265, -0.0567094, -0.122861, -0.0104732, -0.442957, 0.631761, -3.12405, -0.0554534, -0.0978057, 0.0371897, 0.0437272, -0.0700339, 0.00827444, 0.0189554, -0.0429216
0.196896, 0.107785, -0.774418, -0.920219, -1.46266, -0.625827, 1.06733, -0.256673, -0.0105693, -0.0527982, 0.00757088, -0.137883, 0.00238933, -0.0535669, 0.000666816, -0.357292, 14.5016, 18.2209, 15.1703, 1.11713, 3.13083, -0.0356336, -0.00140714, 0.000906366, -0.000962738, -0.000255191, -0.0162942, 0.000824735, 0.0288664, -0.0226033, 0.0278978, 0.0136454, 0.0947008, 0.339855, -0.00901756, -0.441964, 0.630878, -3.12249, -0.0567323, -0.123123, -0.0104615, -0.442936, 0.631713, -3.12393, -0.0555818, -0.0976929, 0.0376182, 0.0441005, -0.0707441, 0.00750689, 0.0199963, -0.0455496
0.197896, 0.10777, -0.774479, -0.920205, -1.46281, -0.625826, 1.06728, -0.256677, -0.0108183, -0.0564232, 0.00869672, -0.140865, 0.00169168, -0.0537242, -0.000465414, -0.392998, 14.3906, 18.0741, 15.1703, 1.11713, 3.10977, -0.00999879, -0.00143662, 0.000927661, -0.000990806, -0.000277496, -0.0165292, 0.000763212, 0.0296347, -0.0226627, 0.0279309, 0.0139024, 0.0940471, 0.345525, -0.00897973, -0.441919, 0.630807, -3.12233, -0.0567555, -0.123389, -0.0104545, -0.442915, 0.631667, -3.12381, -0.0557056, -0.0975947, 0.0380486, 0.0444731, -0.0714557, 0.00716768, 0.0202771, -0.0462987
0.198896, 0.107764, -0.774541, -0.920192, -1.46296, -0.625822, 1.06722, -0.256668, -0.0113597, -0.060021, 0.0112724, -0.141364, 0.00120188, -0.0542741, 0.00165211, -0.543754, 14.3152, 17.9987, 15.2417, 1.11713, 3.10245, -0.0621838, -0.00146204, 0.00094781, -0.00101592, -0.000288173, -0.0167715, 0.000701373, 0.0305607, -0.0224882, 0.0291116, 0.01611, 0.091786, 0.347599, -0.00894147, -0.441875, 0.630735, -3.12218, -0.056779, -0.123657, -0.0104429, -0.442892, 0.631618, -3.12369, -0.0558309, -0.097487, 0.0384809, 0.044845, -0.0721687, 0.00657421, 0.020765, -0.0459147
0.199896, 0.107748, -0.774605, -0.920183, -1.46311, -0.625821, 1.06716, -0.256674, -0.00912896, -0.0615714, 0.0114784, -0.143531, 0.000856828, -0.0548245, -0.00131779, -0.543754, 14.1684, 17.9987, 15.2417, 1.11713, 3.09512, 0.00373412, -0.00149556, 0.000969727, -0.00104304, -0.000303833, -0.0170117, 0.000642343, 0.0300503, -0.0226824, 0.0290915, 0.0156937, 0.0926829, 0.356619, -0.00890277, -0.44183, 0.630663, -3.12202, -0.0568029, -0.123927, -0.0104391, -0.442871, 0.631569, -3.12356, -0.0559519, -0.0973857, 0.0389151, 0.0452163, -0.0728831, 0.00752167, 0.020956, -0.0466207
0.200896, 0.107734, -0.774675, -0.920169, -1.46326, -0.625815, 1.0671, -0.256673, -0.0126169, -0.0610913, 0.0127444, -0.145848, 0.00152843, -0.0552734, 0.000596188, -0.583427, 14.097, 17.959, 15.2814, 1.09241, 3.09512, -0.0356336, -0.00152669, 0.00098956, -0.00106973, -0.000314596, -0.0172484, 0.000578604, 0.0308662, -0.0223651, 0.0295964, 0.0161065, 0.0947605, 0.356409, -0.00886363, -0.441784, 0.630589, -3.12185, -0.0568271, -0.1242, -0.0104325, -0.442847, 0.631519, -3.12343, -0.0560808, -0.0972923, 0.0393512, 0.0455868, -0.0735988, 0.00708922, 0.0216005, -0.0469026
0.201896, 0.107726, -0.774744, -0.920158, -1.46342, -0.625817, 1.06704, -0.256673, -0.0143444, -0.0630381, 0.0127204, -0.143862, 0.000846759, -0.0608017, -0.000539486, -0.658806, 13.9859, 17.959, 15.2814, 1.0979, 3.10977, -0.00999879, -0.00155872, 0.0010111, -0.00109557, -0.000325255, -0.0174977, 0.000515403, 0.0337414, -0.021892, 0.0304902, 0.0139969, 0.0952738, 0.357176, -0.00882406, -0.441738, 0.630515, -3.12169, -0.0568516, -0.124476, -0.0104262, -0.442824, 0.631467, -3.12329, -0.0562094, -0.0971819, 0.0397893, 0.0459565, -0.0743159, 0.00457044, 0.0223192, -0.0469606
0.202896, 0.107711, -0.774812, -0.920144, -1.46357, -0.625817, 1.06698, -0.256668, -0.0142441, -0.0632051, 0.0164266, -0.14848, -0.000124126, -0.0545643, 0.00107386, -0.658806, 13.8391, 17.959, 15.2814, 1.11713, 3.09512, -0.0484509, -0.00159089, 0.0010326, -0.00112303, -0.000342371, -0.0177454, 0.00045867, 0.0315178, -0.0224716, 0.0314065, 0.0208951, 0.0960461, 0.363155, -0.00878406, -0.441692, 0.630441, -3.12153, -0.0568764, -0.124755, -0.0104198, -0.442802, 0.631417, -3.12317, -0.056328, -0.097077, 0.0402292, 0.0463255, -0.0750342, 0.00716973, 0.0221664, -0.0466067
0.203896, 0.107697, -0.774889, -0.920132, -1.46374, -0.625811, 1.06692, -0.256674, -0.0164049, -0.0686972, 0.0183315, -0.154769, 0.000646909, -0.0548091, -0.00120984, -0.694511, 13.7994, 17.9987, 15.2814, 1.0979, 3.0878, 0.00373412, -0.00162363, 0.00105341, -0.00114857, -0.000350843, -0.0179874, 0.000385151, 0.032499, -0.0219759, 0.0306428, 0.019061, 0.0945918, 0.371095, -0.00874361, -0.441646, 0.630365, -3.12136, -0.0569015, -0.125036, -0.0104134, -0.442778, 0.631363, -3.12303, -0.0564735, -0.0969834, 0.040671, 0.0466936, -0.0757538, 0.00667188, 0.0230039, -0.0481682
0.204896, 0.107681, -0.774969, -0.920116, -1.4639, -0.625811, 1.06686, -0.256667, -0.0188311, -0.0746419, 0.0164485, -0.162105, -3.02576e-05, -0.0597811, 0.00140275, -0.694511, 13.7994, 18.0344, 15.2814, 1.11072, 3.08047, -0.0557752, -0.0016588, 0.00107377, -0.00117415, -0.000359786, -0.0182373, 0.000325621, 0.0355456, -0.0214588, 0.0280948, 0.0107926, 0.0969924, 0.370791, -0.00870271, -0.441599, 0.630289, -3.12119, -0.056927, -0.12532, -0.010409, -0.442753, 0.631309, -3.12289, -0.0565976, -0.0968801, 0.0411146, 0.0470609, -0.0764746, 0.00426055, 0.0238219, -0.0516752
0.205896, 0.107663, -0.775046, -0.920095, -1.46407, -0.62581, 1.0668, -0.256674, -0.018262, -0.07746, 0.0159412, -0.164513, -1.02811e-05, -0.0623237, -0.00150228, -0.658806, 13.7637, 18.0344, 15.2417, 1.11072, 3.04477, 0.0101428, -0.00169175, 0.00109393, -0.00120178, -0.000376314, -0.01849, 0.000249, 0.0364858, -0.0213485, 0.0276559, 0.00792757, 0.0975392, 0.377864, -0.00866138, -0.441552, 0.630212, -3.12102, -0.0569528, -0.125606, -0.0104021, -0.442728, 0.631256, -3.12276, -0.0567485, -0.0967758, 0.0415602, 0.0474273, -0.0771966, 0.00379652, 0.0242684, -0.0529193
0.206896, 0.107644, -0.775124, -0.920081, -1.46426, -0.625807, 1.06673, -0.256666, -0.0178079, -0.0783315, 0.0172566, -0.17011, 5.63873e-07, -0.060924, 0.00168021, -0.619133, 13.7994, 18.1098, 15.2417, 1.11072, 3.04477, -0.0621838, -0.00172513, 0.00111406, -0.00122474, -0.000379827, -0.0187506, 0.000186227, 0.0352322, -0.0213593, 0.0271532, 0.00805901, 0.100064, 0.381754, -0.00861959, -0.441504, 0.630135, -3.12085, -0.0569789, -0.125895, -0.0103948, -0.442702, 0.631198, -3.12261, -0.056879, -0.0966609, 0.0420076, 0.0477929, -0.0779197, 0.00552934, 0.0246728, -0.054053
