alisrour97/Franka_experiments/Real_Robot_scripts/servo-franka/Data4/log_dyn_PIw_ki_5.csv
Time,q1,q2,q3,q4,q5,q6,q7,dq1,dq2,dq3,dq4,dq5,dq6,dq7,t1,t2,t3,t4,t5,t6,t7,ex1,ex2,ex3,ex4,ex5,ex6,ev1,ev2,ev3,ev4,ev5,ev6,xd,yd,zd,uxd,uyd,uzd,x,y,z,ux,uy,uz,vxd,vyd,vzd,vx,vy,vz
4.88281e-07, 0.107689, -0.773794, -0.915633, -1.4562, -0.624997, 1.07027, -0.256699, -0.00303927, -0.000413848, 0.000971891, 0.00213619, 0.00105199, 0.000243242, 0.00113067, -0.357292, 15.1285, 18.2209, 15.206, 0.772887, 3.22421, -0.205922, 0.00124253, -0.00179411, -0.000177645, -0.00043602, -7.4337e-05, -0.000334455, 0.00136673, 0.000201557, 0.00102607, 0.00174443, -0.00278733, -0.00401318, -0.011112, -0.444721, 0.635038, -3.13187, -0.0555627, -0.107532, -0.00994597, -0.442884, 0.635313, -3.1323, -0.0565029, -0.10744, 0, 0, 0, -0.00144007, 0.000144528, 0.000930979
0.0160913, 0.107691, -0.773801, -0.915633, -1.4562, -0.624996, 1.07027, -0.256703, 0.00113823, -0.000259558, -0.000525314, 0.000632225, -0.000873127, 0.000328882, -0.00152879, -0.392998, 15.1285, 18.2209, 15.2417, 0.772887, 3.20956, -0.180287, 0.00124065, -0.00179304, -0.000179381, -0.000440454, -6.06172e-05, -0.000338275, 1.45532e-05, -0.000334456, 3.26588e-05, 0.000595253, -0.000138835, 0.00153545, -0.011112, -0.444721, 0.635038, -3.13187, -0.0555627, -0.107532, -0.0099513, -0.442887, 0.635313, -3.13231, -0.0564965, -0.107466, 1.73063e-06, -1.42215e-06, -3.96181e-06, -3.08004e-06, -0.000336451, 2.55575e-05
0.0170913, 0.107691, -0.773801, -0.915633, -1.4562, -0.624996, 1.07027, -0.256703, 0.00113823, -0.000259558, -0.000525314, 0.000632225, -0.000873127, 0.000328882, -0.00152879, -0.392998, 15.1285, 18.2209, 15.2417, 0.772887, 3.20956, -0.180287, 0.00124064, -0.00179304, -0.000179391, -0.000440474, -6.06388e-05, -0.000338268, 1.87591e-05, -0.000329948, 4.48011e-05, 0.000619413, -0.00012231, 0.00157898, -0.011112, -0.444721, 0.635038, -3.13187, -0.0555628, -0.107532, -0.0099513, -0.442887, 0.635313, -3.13231, -0.0564965, -0.107466, 6.91577e-06, -5.6745e-06, -1.58141e-05, -3.08004e-06, -0.000336451, 2.55575e-05
0.0180913, 0.107691, -0.773801, -0.915633, -1.4562, -0.624996, 1.07027, -0.256703, 0.00113823, -0.000259558, -0.000525314, 0.000632225, -0.000873127, 0.000328882, -0.00152879, -0.392998, 15.1285, 18.2209, 15.2417, 0.772887, 3.20956, -0.180287, 0.00124064, -0.00179305, -0.000179416, -0.000440528, -6.06973e-05, -0.000338248, 2.57616e-05, -0.000322462, 6.49771e-05, 0.000659534, -9.48554e-05, 0.0016513, -0.011112, -0.444721, 0.635038, -3.13187, -0.0555628, -0.107532, -0.0099513, -0.442887, 0.635313, -3.13231, -0.0564965, -0.107466, 1.55453e-05, -1.2736e-05, -3.55071e-05, -3.08004e-06, -0.000336451, 2.55575e-05
0.0190913, 0.107691, -0.773801, -0.915633, -1.4562, -0.624996, 1.07027, -0.256703, 0.00113823, -0.000259558, -0.000525314, 0.000632225, -0.000873127, 0.000328882, -0.00152879, -0.392998, 15.1285, 18.2209, 15.2417, 0.772887, 3.20956, -0.180287, 0.00124062, -0.00179307, -0.000179466, -0.000440634, -6.0811e-05, -0.00033821, 3.55548e-05, -0.000312019, 9.31368e-05, 0.000715499, -5.65418e-05, 0.00175223, -0.011112, -0.444721, 0.635038, -3.13187, -0.0555628, -0.107532, -0.0099513, -0.442887, 0.635313, -3.13231, -0.0564965, -0.107466, 2.7609e-05, -2.25855e-05, -6.29913e-05, -3.08004e-06, -0.000336451, 2.55575e-05
0.0200913, 0.107691, -0.773801, -0.915633, -1.4562, -0.624996, 1.07027, -0.256703, 0.00113823, -0.000259558, -0.000525314, 0.000632225, -0.000873127, 0.000328882, -0.00152879, -0.392998, 15.1285, 18.2209, 15.2417, 0.772887, 3.20956, -0.180287, 0.00124059, -0.0017931, -0.000179547, -0.000440808, -6.09981e-05, -0.000338147, 4.81327e-05, -0.000298641, 0.00012923, 0.000787191, -7.44014e-06, 0.00188158, -0.0111119, -0.444721, 0.635038, -3.13187, -0.0555629, -0.107532, -0.0099513, -0.442887, 0.635313, -3.13231, -0.0564965, -0.107466, 4.30968e-05, -3.5202e-05, -9.82172e-05, -3.08004e-06, -0.000336451, 2.55575e-05
0.0210913, 0.107691, -0.773801, -0.915633, -1.4562, -0.624996, 1.07027, -0.256703, 0.00113823, -0.000259558, -0.000525314, 0.000632225, -0.000873127, 0.000328882, -0.00152879, -0.392998, 15.1285, 18.2209, 15.2417, 0.772887, 3.20956, -0.180287, 0.00124055, -0.00179314, -0.000179668, -0.000441066, -6.12765e-05, -0.000338054, 6.34894e-05, -0.000282349, 0.000173208, 0.000874491, 5.23792e-05, 0.00203919, -0.0111119, -0.444721, 0.635038, -3.13187, -0.0555631, -0.107533, -0.0099513, -0.442887, 0.635313, -3.13231, -0.0564965, -0.107466, 6.19987e-05, -5.05647e-05, -0.000141136, -3.08004e-06, -0.000336451, 2.55575e-05
0.0220913, 0.107691, -0.773801, -0.915633, -1.4562, -0.624996, 1.07027, -0.256703, 0.00113823, -0.000259558, -0.000525314, 0.000632225, -0.000873127, 0.000328882, -0.00152879, -0.392998, 15.1285, 18.2209, 15.2417, 0.772887, 3.20956, -0.180287, 0.00124049, -0.00179321, -0.000179837, -0.000441426, -6.16643e-05, -0.000337925, 8.16188e-05, -0.000263166, 0.00022502, 0.000977283, 0.000122846, 0.00222486, -0.0111118, -0.444721, 0.635037, -3.13187, -0.0555633, -0.107533, -0.0099513, -0.442887, 0.635313, -3.13231, -0.0564965, -0.107466, 8.43044e-05, -6.86525e-05, -0.000191697, -3.08004e-06, -0.000336451, 2.55575e-05
0.0230913, 0.107691, -0.773801, -0.915633, -1.4562, -0.624996, 1.07027, -0.256703, 0.00113823, -0.000259558, -0.000525314, 0.000632225, -0.000873127, 0.000328882, -0.00152879, -0.392998, 15.1285, 18.2209, 15.2417, 0.772887, 3.20956, -0.180287, 0.00124041, -0.00179329, -0.000180061, -0.000441904, -6.21793e-05, -0.000337752, 0.000102515, -0.000241111, 0.000284617, 0.00109545, 0.000203889, 0.00243841, -0.0111117, -0.444721, 0.635037, -3.13187, -0.0555636, -0.107534, -0.0099513, -0.442887, 0.635313, -3.13231, -0.0564965, -0.107466, 0.000110004, -8.94448e-05, -0.000249853, -3.08004e-06, -0.000336451, 2.55575e-05
0.0240913, 0.107702, -0.773801, -0.915634, -1.45621, -0.624994, 1.07027, -0.256697, 0.00148699, -0.0013865, 0.00051355, -0.00708265, 0.000436073, 0.000140913, 0.00106814, -0.468376, 15.1642, 18.2209, 15.3925, 0.754576, 3.20956, -0.232472, 0.00124755, -0.0017942, -0.000176698, -0.000434042, -6.92809e-05, -0.000348307, -0.00185753, 0.000614381, -0.00177418, -0.00325549, 0.00325641, 0.00581049, -0.0111116, -0.444721, 0.635037, -3.13187, -0.055564, -0.107535, -0.00994386, -0.442886, 0.63531, -3.1323, -0.0565136, -0.107456, 0.000139087, -0.000112921, -0.000315553, 0.00209057, 0.000581656, -0.00195411
0.0250913, 0.1077, -0.7738, -0.915634, -1.45621, -0.624993, 1.07027, -0.256697, 0.0002094, -8.99917e-05, 0.000412209, -0.00438521, 0.000762934, -0.000448593, 0.000474731, -0.43267, 15.1285, 18.2209, 15.3568, 0.741759, 3.22421, -0.226063, 0.00124588, -0.0017951, -0.000177567, -0.000432492, -6.95888e-05, -0.000345079, -0.00107091, 0.000661062, -0.000871182, -0.00213842, 0.00294067, 0.00409226, -0.0111114, -0.444721, 0.635037, -3.13186, -0.0555644, -0.107536, -0.00994546, -0.442885, 0.63531, -3.1323, -0.0565091, -0.107456, 0.000171544, -0.000139059, -0.00038875, 0.00127529, 0.000566733, -0.00118021
0.026092, 0.1077, -0.7738, -0.915634, -1.45621, -0.624993, 1.07027, -0.256697, 0.0002094, -8.99917e-05, 0.000412209, -0.00438521, 0.000762934, -0.000448593, 0.000474731, -0.43267, 15.1285, 18.2209, 15.3568, 0.741759, 3.22421, -0.226063, 0.00124572, -0.00179526, -0.000178003, -0.000433421, -7.0591e-05, -0.000344744, -0.00104174, 0.000691599, -0.000788527, -0.00197483, 0.00305303, 0.00438838, -0.0111112, -0.444721, 0.635036, -3.13186, -0.055565, -0.107538, -0.00994546, -0.442885, 0.63531, -3.1323, -0.0565091, -0.107456, 0.000207364, -0.00016784, -0.000469394, 0.00127529, 0.000566733, -0.00118021
0.027092, 0.107702, -0.773803, -0.915641, -1.45621, -0.624993, 1.07027, -0.256705, 0.000706501, 0.000577751, -0.000361269, -0.00351905, 0.00820479, 0.000162315, -0.00343982, -0.468376, 15.0888, 18.2606, 15.206, 0.741759, 3.20956, -0.120778, 0.00124382, -0.00179379, -0.000175751, -0.0004289, -7.03478e-05, -0.000349916, -0.00252617, 0.00126392, -0.000591347, -0.00456553, -0.00262792, 0.0116603, -0.011111, -0.444722, 0.635036, -3.13186, -0.0555656, -0.10754, -0.00994693, -0.442887, 0.635307, -3.13229, -0.056518, -0.107458, 0.000246538, -0.000199242, -0.000557437, 0.00276054, 0.0011578, -0.000966024
0.028092, 0.107704, -0.773807, -0.915637, -1.45622, -0.624991, 1.07027, -0.256701, 0.000493483, -0.000543222, 0.00155186, -0.00658693, 0.00564319, -0.000705592, 0.00339423, -0.468376, 15.1285, 18.1852, 15.2417, 0.754576, 3.23153, -0.147328, 0.00124699, -0.00179537, -0.00017459, -0.000427137, -7.17235e-05, -0.00035647, -0.00271449, 0.001707, -0.000996074, -0.00453055, 0.000673716, 0.00676687, -0.0111107, -0.444722, 0.635035, -3.13186, -0.0555664, -0.107542, -0.00994348, -0.442885, 0.635306, -3.13229, -0.056529, -0.107458, 0.000289055, -0.000233245, -0.00065283, 0.0030027, 0.0015767, -0.0014495
0.029092, 0.107705, -0.773805, -0.915641, -1.45622, -0.624991, 1.07027, -0.256699, 0.00258518, -0.000362426, -0.00154179, -0.00509998, 0.00401081, -0.000741662, 0.00190884, -0.43267, 15.1285, 18.2963, 15.2417, 0.760985, 3.23886, -0.127186, 0.00124751, -0.00179462, -0.00017322, -0.000426597, -7.60918e-05, -0.000354455, -0.00202833, 0.000822608, -0.0013767, -0.00493062, 0.00143732, 0.00681272, -0.0111104, -0.444722, 0.635034, -3.13186, -0.0555673, -0.107544, -0.00994253, -0.442886, 0.635304, -3.13229, -0.0565268, -0.107454, 0.000334905, -0.000269828, -0.000755525, 0.00242205, 0.000635441, -0.00198451
0.030092, 0.107705, -0.77381, -0.915638, -1.45622, -0.624991, 1.07027, -0.256699, 0.00106429, 0.00354961, -0.0018465, -0.00133305, 0.00283495, -0.00100307, 0.00480363, -0.392998, 15.2356, 18.332, 15.1306, 0.766478, 3.25259, -0.0878186, 0.00124591, -0.00179513, -0.000175983, -0.00043228, -7.05341e-05, -0.00035417, -0.00137079, 0.000609707, -3.57745e-05, -0.00211996, 0.00406416, 7.08958e-05, -0.0111101, -0.444722, 0.635033, -3.13186, -0.0555684, -0.107547, -0.00994398, -0.442886, 0.635306, -3.13229, -0.0565272, -0.107466, 0.000384079, -0.000308971, -0.000865474, 0.00173147, 0.000348867, -0.000803216
0.031092, 0.107701, -0.77381, -0.915635, -1.45622, -0.624991, 1.07027, -0.256701, 7.59537e-05, 0.00196299, -0.00298181, -0.0038858, 0.00216336, 0.00448202, 0.00381419, -0.357292, 15.2753, 18.4073, 15.2417, 0.766478, 3.23886, -0.0878186, 0.00124667, -0.00179623, -0.000175966, -0.000434294, -7.61565e-05, -0.000357394, -0.00102486, -0.000490707, -0.000562113, 0.000944099, 0.00209598, 0.000629621, -0.0111097, -0.444723, 0.635033, -3.13186, -0.0555696, -0.10755, -0.00994285, -0.442885, 0.635305, -3.13229, -0.0565334, -0.10746, 0.000436566, -0.000350653, -0.000982628, 0.00151436, -0.000800144, -0.00147601
0.032092, 0.107703, -0.773811, -0.91563, -1.45623, -0.62499, 1.07028, -0.256697, 0.000201869, 0.00400643, -0.00197855, -0.00465275, 0.0072343, 0.00337486, 0.00469704, -0.357292, 15.311, 18.4073, 15.3171, 0.760985, 3.23886, -0.133595, 0.00124926, -0.00179714, -0.000177743, -0.000440498, -7.65625e-05, -0.000359318, -0.00301481, 0.00062217, -0.000410374, -0.00164676, 0.00147966, 0.00391862, -0.0111092, -0.444723, 0.635032, -3.13185, -0.0555709, -0.107554, -0.00993996, -0.442885, 0.635306, -3.13229, -0.0565375, -0.107464, 0.000492356, -0.000394854, -0.00110694, 0.00350406, 0.000336503, -0.00130534
0.033092, 0.107704, -0.773811, -0.915629, -1.45623, -0.62499, 1.07028, -0.256696, 0.000248004, 0.00239245, -0.00307528, -0.00221654, 0.00542528, 0.00203141, 0.00374674, -0.357292, 15.3467, 18.4827, 15.3925, 0.760985, 3.25259, -0.140919, 0.00124929, -0.00179777, -0.000178971, -0.000442867, -7.96245e-05, -0.000358956, -0.00113949, 0.000307597, -2.28944e-05, -0.00120782, 0.000563927, 0.00244492, -0.0111087, -0.444723, 0.63503, -3.13185, -0.0555724, -0.107558, -0.00993952, -0.442884, 0.635306, -3.13229, -0.0565383, -0.107463, 0.000551439, -0.000441554, -0.00123836, 0.00167812, -9.38736e-05, -0.001181
0.034092, 0.107704, -0.773808, -0.915627, -1.45623, -0.624991, 1.07028, -0.256702, 0.000250404, 0.00284772, -0.00204494, -0.00400493, 0.00386521, 0.00157187, 0.000789228, -0.357292, 15.311, 18.4827, 15.5035, 0.766478, 3.25259, -0.0878186, 0.00125128, -0.00179882, -0.000179821, -0.000445601, -8.87278e-05, -0.00036729, -0.00157682, 0.000585752, -0.000157261, -0.000934748, 0.00374312, 0.00686639, -0.0111081, -0.444724, 0.635029, -3.13185, -0.0555741, -0.107563, -0.00993705, -0.442884, 0.635306, -3.13229, -0.0565529, -0.107454, 0.000613805, -0.000490732, -0.00137684, 0.00217577, 0.000151467, -0.00142175
0.035092, 0.107701, -0.773813, -0.91563, -1.45623, -0.624991, 1.07027, -0.256698, -0.000697282, 0.000448397, -0.0031226, -0.00261654, 0.00291567, 0.000668579, 0.00194042, -0.317619, 15.3864, 18.5581, 15.5035, 0.766478, 3.26724, -0.120778, 0.00124637, -0.00179891, -0.000181382, -0.000447531, -8.57771e-05, -0.000356184, 0.000542836, 0.00037184, -2.94075e-05, -0.00102927, 0.00186624, 0.00331707, -0.0111074, -0.444724, 0.635028, -3.13184, -0.055576, -0.107568, -0.00994141, -0.442884, 0.635305, -3.13229, -0.0565374, -0.107464, 0.000679445, -0.000542368, -0.00152234, 0.000126971, -0.000189617, -0.00158668
0.036092, 0.107705, -0.773808, -0.915628, -1.45623, -0.62499, 1.07027, -0.256698, 0.00134623, 0.00229703, -0.00740096, -0.0017043, 0.00240137, 0.000296851, 0.00143879, -0.392998, 15.311, 18.5184, 15.5035, 0.760985, 3.27456, -0.120778, 0.00124914, -0.0018, -0.00018383, -0.000451858, -9.40252e-05, -0.000359024, 0.000839035, -0.000461332, -0.000838415, -0.00307768, 0.00411355, 0.00244127, -0.0111067, -0.444725, 0.635026, -3.13184, -0.055578, -0.107574, -0.00993815, -0.442884, 0.635306, -3.13229, -0.0565438, -0.107457, 0.000748347, -0.000596442, -0.0016748, -1.43175e-05, -0.00107976, -0.00257173
0.037092, 0.107707, -0.773813, -0.915628, -1.45622, -0.624989, 1.07027, -0.256699, 0.0018614, -5.57336e-05, -0.00461739, -0.000270932, 0.00202888, -0.000490193, -0.000389989, -0.43267, 15.3864, 18.4827, 15.4678, 0.754576, 3.29562, -0.0814099, 0.00124745, -0.00180024, -0.000186314, -0.000457152, -9.00486e-05, -0.000359792, 0.00094736, 8.53539e-05, 0.000383068, -0.000876401, 0.00160954, 0.00657735, -0.0111059, -0.444726, 0.635024, -3.13184, -0.0555803, -0.10758, -0.00993923, -0.442884, 0.635307, -3.13229, -0.056547, -0.107469, 0.000820503, -0.000652933, -0.00183418, -0.000153302, -0.000604274, -0.00151661
0.038092, 0.107704, -0.773812, -0.915631, -1.45623, -0.624989, 1.07027, -0.2567, 0.000339828, 0.00102298, -0.00346724, -0.000993305, 0.0017329, -0.000529213, -0.000653049, -0.392998, 15.3467, 18.4827, 15.5035, 0.748168, 3.30295, -0.0685925, 0.00124575, -0.00180078, -0.000186198, -0.000457034, -9.75305e-05, -0.000355999, 0.000893963, 0.000452342, 0.000742249, 7.7953e-05, 0.00356969, 0.00703642, -0.0111051, -0.444726, 0.635022, -3.13183, -0.0555828, -0.107587, -0.00994008, -0.442884, 0.635305, -3.13229, -0.0565436, -0.107464, 0.000895902, -0.000711822, -0.00200043, -6.2361e-05, -0.000297641, -0.00131859
0.039092, 0.107698, -0.77381, -0.915629, -1.45623, -0.624987, 1.07027, -0.256697, -0.0015165, 0.0024515, -0.00167521, -0.000645302, 0.0017033, -0.000843706, 0.000609223, -0.317619, 15.2753, 18.443, 15.5035, 0.736266, 3.31759, -0.0951428, 0.00124411, -0.00180253, -0.000188763, -0.000461173, -0.000104506, -0.000348037, 0.000877482, 0.000976973, 0.00161607, 0.00175102, 0.00509609, 0.00572841, -0.0111041, -0.444727, 0.63502, -3.13183, -0.0555855, -0.107594, -0.00994102, -0.442884, 0.635305, -3.13229, -0.0565338, -0.107461, 0.000974534, -0.000773089, -0.00217351, -4.58641e-05, 0.000158407, -0.00061555
0.040092, 0.107703, -0.773812, -0.915629, -1.45622, -0.624987, 1.07027, -0.256695, -6.78388e-05, 0.00087343, -0.000500386, 0.00134571, 0.00121594, -0.000523743, -0.000293902, -0.357292, 15.311, 18.4073, 15.4282, 0.736266, 3.31759, -0.0750012, 0.00124401, -0.00180289, -0.000192438, -0.00046858, -0.000105152, -0.000347486, 0.000883715, 0.000963174, 0.00266877, 0.00426306, 0.00263743, 0.00837796, -0.0111031, -0.444728, 0.635018, -3.13182, -0.0555884, -0.107602, -0.00994038, -0.442884, 0.635307, -3.13229, -0.0565356, -0.107468, 0.00105639, -0.000836713, -0.00235336, -4.18297e-05, 7.16658e-05, 0.000254274
0.041092, 0.107704, -0.773809, -0.915625, -1.45623, -0.624987, 1.07027, -0.2567, -3.38706e-05, 0.00147324, 0.00126555, -2.13716e-05, 0.000870938, -0.000320116, -0.00114483, -0.357292, 15.2753, 18.332, 15.4678, 0.736266, 3.31759, -0.0484509, 0.00124635, -0.0018049, -0.000195416, -0.000475341, -0.000115411, -0.000356179, -5.01373e-05, 0.001397, 0.0029841, 0.00538538, 0.00446422, 0.0118282, -0.011102, -0.444729, 0.635016, -3.13182, -0.0555915, -0.107611, -0.00993723, -0.442883, 0.635307, -3.13229, -0.056552, -0.107461, 0.00114146, -0.000902674, -0.00253994, 0.0009372, 0.000469362, 0.000449168
0.042092, 0.107704, -0.773809, -0.915625, -1.45623, -0.624987, 1.07027, -0.2567, -3.38706e-05, 0.00147324, 0.00126555, -2.13716e-05, 0.000870938, -0.000320116, -0.00114483, -0.357292, 15.2753, 18.332, 15.4678, 0.736266, 3.31759, -0.0484509, 0.00124539, -0.00180589, -0.000198101, -0.000481026, -0.000121577, -0.000354118, 2.21582e-05, 0.0014696, 0.00318235, 0.00577386, 0.00473317, 0.0125377, -0.0111008, -0.44473, 0.635013, -3.13181, -0.0555949, -0.10762, -0.00993723, -0.442883, 0.635307, -3.13229, -0.056552, -0.107461, 0.00122973, -0.000970953, -0.00273321, 0.0009372, 0.000469362, 0.000449168
0.043092, 0.107704, -0.773819, -0.915633, -1.45622, -0.624988, 1.07027, -0.256696, -0.000281395, -0.00185353, -0.00134419, -0.00114396, 0.000247712, -0.000710461, 0.00125712, -0.357292, 15.4221, 18.443, 15.5035, 0.741759, 3.33133, -0.0951428, 0.00123835, -0.00180462, -0.000199154, -0.000484139, -0.000116559, -0.000340244, 0.00198927, 0.00103984, 0.0021547, 0.00357831, 0.00321144, 0.00891494, -0.0110996, -0.444731, 0.63501, -3.1318, -0.0555986, -0.10763, -0.00994301, -0.442885, 0.635305, -3.13229, -0.0565339, -0.107479, 0.00132119, -0.00104153, -0.00293311, -0.000846859, -9.10531e-05, -0.000913862
0.044092, 0.107705, -0.773816, -0.915631, -1.45623, -0.624987, 1.07028, -0.256702, -0.00564199, 0.000551064, -0.000130142, -0.00168665, 0.000394035, -0.000732654, -0.000876715, -0.392998, 15.3467, 18.4073, 15.5432, 0.736266, 3.33865, -0.0484509, 0.0012397, -0.00180644, -0.000202513, -0.000491394, -0.000127313, -0.000346656, 0.00316993, 0.00159874, 0.00279416, 0.00493176, 0.00606397, 0.00773002, -0.0110982, -0.444732, 0.635007, -3.1318, -0.0556025, -0.107641, -0.00994059, -0.442885, 0.635306, -3.13229, -0.0565476, -0.107474, 0.00141584, -0.00111438, -0.0031396, -0.00199312, 0.000347507, -0.000560136
0.045092, 0.107704, -0.773819, -0.915633, -1.45623, -0.624983, 1.07028, -0.256698, -0.00428227, -0.000543009, -0.000138683, -0.00112142, 0.000519131, -0.000750513, -0.000302309, -0.392998, 15.3864, 18.4073, 15.5432, 0.729857, 3.34598, -0.0557752, 0.00123745, -0.00180712, -0.000205454, -0.000497666, -0.000126918, -0.00033955, 0.0030812, 0.0016003, 0.0031001, 0.00542642, 0.00482338, 0.0090588, -0.0110967, -0.444733, 0.635004, -3.13179, -0.0556067, -0.107652, -0.0099416, -0.442885, 0.635305, -3.13229, -0.0565405, -0.107486, 0.00151366, -0.0011895, -0.00335263, -0.00182788, 0.000274402, -0.000461861
0.046092, 0.107701, -0.773817, -0.915633, -1.45622, -0.624985, 1.07028, -0.256691, -0.00408077, 0.00057924, -0.000131397, 0.000182661, 0.000360399, -0.00103598, 0.00150206, -0.357292, 15.3467, 18.4073, 15.5035, 0.729857, 3.36062, -0.101552, 0.00123446, -0.00180806, -0.000209799, -0.000507234, -0.000137526, -0.000324914, 0.0030631, 0.00165643, 0.00373496, 0.00649068, 0.00566282, 0.00752035, -0.0110952, -0.444734, 0.635, -3.13178, -0.0556111, -0.107664, -0.00994336, -0.442886, 0.635306, -3.13229, -0.0565218, -0.107482, 0.00161465, -0.00126685, -0.00357216, -0.00175438, 0.000248229, -4.64687e-05
0.047092, 0.107703, -0.773817, -0.91563, -1.45622, -0.624988, 1.07028, -0.256691, -0.00301354, 0.000396079, 0.00248165, 0.000958684, -0.00018981, -0.000414219, 0.0010075, -0.357292, 15.3467, 18.2963, 15.4678, 0.741759, 3.3533, -0.101552, 0.00123379, -0.00180929, -0.000215954, -0.0005217, -0.000143804, -0.000322836, 0.00209647, 0.00199306, 0.00496239, 0.00975951, 0.00527829, 0.0112377, -0.0110935, -0.444735, 0.634997, -3.13177, -0.0556159, -0.107677, -0.00994283, -0.442886, 0.635308, -3.1323, -0.0565229, -0.107486, 0.00171879, -0.00134642, -0.00379814, -0.000782666, 0.000528398, 0.00102063
0.048092, 0.107709, -0.773819, -0.915636, -1.45622, -0.624985, 1.07028, -0.256695, -0.000465562, 0.000271493, -0.00230222, 0.000640392, 0.00076313, -0.000272269, -0.000781795, -0.43267, 15.3467, 18.332, 15.4678, 0.717955, 3.3533, -0.0621838, 0.0012327, -0.00180957, -0.000218176, -0.000525058, -0.000148786, -0.000326115, 0.00236825, 0.00118565, 0.00367433, 0.00647205, 0.00512662, 0.0133987, -0.0110917, -0.444737, 0.634993, -3.13176, -0.0556209, -0.107691, -0.00994232, -0.442887, 0.635307, -3.13229, -0.0565329, -0.107493, 0.00182607, -0.00142819, -0.00403052, -0.000829284, -0.000358668, -0.000520488
0.049092, 0.107707, -0.773819, -0.915638, -1.45621, -0.624986, 1.07028, -0.256697, -0.00140322, 0.000186575, -0.00180954, 0.0013559, 0.00031134, 9.26626e-05, -0.00126373, -0.392998, 15.3467, 18.332, 15.4282, 0.723448, 3.34598, -0.0420422, 0.00122834, -0.0018104, -0.000223742, -0.00053722, -0.000154593, -0.000318658, 0.00293849, 0.00123064, 0.00433518, 0.00824132, 0.00503758, 0.0136131, -0.0110899, -0.444738, 0.634989, -3.13175, -0.0556263, -0.107706, -0.00994521, -0.442888, 0.635308, -3.1323, -0.0565262, -0.107499, 0.00193648, -0.00151214, -0.00426926, -0.00133434, -0.000423532, -0.000138939
0.050092, 0.107704, -0.77382, -0.915637, -1.45621, -0.624985, 1.07028, -0.256694, -0.0010591, 0.000128568, -0.00290993, 0.00283612, 0.000415539, 0.000335223, 0.000380801, -0.392998, 15.3467, 18.2606, 15.4678, 0.717955, 3.33865, -0.0750012, 0.00122637, -0.0018115, -0.000228764, -0.000550293, -0.000162048, -0.000309987, 0.00351266, 0.00097456, 0.00473421, 0.0089828, 0.00420658, 0.0116638, -0.0110879, -0.44474, 0.634984, -3.13174, -0.0556319, -0.107721, -0.00994558, -0.442888, 0.635308, -3.1323, -0.0565179, -0.107504, 0.00205002, -0.00159825, -0.00451432, -0.00181151, -0.000789302, -2.70588e-05
0.051092, 0.107704, -0.773815, -0.915641, -1.45621, -0.624985, 1.07029, -0.256693, -0.000798786, 0.00175929, -0.00549312, 0.00129436, 0.000280422, 0.000496385, 0.000493166, -0.392998, 15.2753, 18.2606, 15.5035, 0.717955, 3.33133, -0.0814099, 0.00122518, -0.0018124, -0.000232338, -0.000559047, -0.000178043, -0.000302922, 0.00351614, 0.000647039, 0.00385321, 0.00725329, 0.00732839, 0.0114904, -0.0110858, -0.444741, 0.63498, -3.13173, -0.0556379, -0.107738, -0.00994494, -0.442889, 0.635307, -3.1323, -0.0565126, -0.107495, 0.00216668, -0.00168649, -0.00476563, -0.00162626, -0.00119735, -0.0011596
0.052092, 0.107706, -0.77382, -0.915647, -1.4562, -0.624985, 1.07029, -0.256694, 0.000325959, -0.000495224, -0.00823664, 0.00561975, 0.000189495, 6.08829e-05, -0.00112783, -0.43267, 15.3467, 18.2963, 15.4282, 0.717955, 3.33865, -0.0420422, 0.00121931, -0.00181182, -0.000238664, -0.00057313, -0.000176923, -0.000293291, 0.00564998, -6.78475e-05, 0.00450246, 0.0078353, 0.00304048, 0.0108283, -0.0110835, -0.444743, 0.634975, -3.13172, -0.0556442, -0.107755, -0.00994899, -0.442892, 0.635308, -3.1323, -0.0565034, -0.107515, 0.00228643, -0.00177687, -0.00502317, -0.00365297, -0.00208303, -0.000920882
0.053092, 0.107708, -0.773817, -0.91565, -1.45621, -0.624985, 1.07029, -0.256691, 0.000165153, 0.000506834, -0.0053509, 0.00522287, 0.000128241, -0.000501026, -4.80975e-06, -0.43267, 15.311, 18.2606, 15.5035, 0.717955, 3.3533, -0.0621838, 0.00121888, -0.00181352, -0.000241948, -0.000579909, -0.000194284, -0.00028775, 0.00457809, 0.000737091, 0.00546451, 0.00963033, 0.00486157, 0.0128842, -0.0110812, -0.444745, 0.634969, -3.13171, -0.0556509, -0.107773, -0.00994737, -0.442892, 0.635306, -3.1323, -0.0565012, -0.107507, 0.00240928, -0.00186934, -0.00528689, -0.00255624, -0.00134183, -0.000146041
0.054092, 0.107709, -0.773817, -0.915658, -1.45621, -0.624983, 1.07029, -0.256687, 7.09873e-05, 0.000339213, -0.00806451, 0.00306978, 0.000765095, 0.000209207, 0.00121832, -0.43267, 15.311, 18.2963, 15.5432, 0.699645, 3.33865, -0.0951428, 0.0012154, -0.00181315, -0.000245438, -0.000589541, -0.000203236, -0.00027468, 0.00499927, 0.000386966, 0.00437247, 0.00753836, 0.00575563, 0.0119012, -0.0110787, -0.444747, 0.634964, -3.1317, -0.0556578, -0.107792, -0.00994861, -0.442894, 0.635304, -3.13229, -0.0564875, -0.107512, 0.00253522, -0.00196389, -0.00555673, -0.00276286, -0.00179163, -0.00153657
0.055092, 0.107709, -0.773815, -0.915659, -1.4562, -0.624984, 1.0703, -0.256692, 1.79889e-05, 0.00106235, -0.00748734, 0.00419667, 0.000307687, 0.00401947, -0.000916506, -0.43267, 15.2753, 18.2209, 15.4678, 0.705138, 3.36062, -0.0484509, 0.00121217, -0.0018142, -0.000253743, -0.000607868, -0.000213155, -0.000270177, 0.0046419, -0.000194709, 0.00552734, 0.0126388, 0.0045239, 0.014638, -0.0110761, -0.444749, 0.634958, -3.13168, -0.0556652, -0.107812, -0.00994985, -0.442895, 0.635306, -3.1323, -0.0564872, -0.107518, 0.00266423, -0.00206051, -0.00583265, -0.00233605, -0.00246716, -0.000639536
0.056092, 0.107709, -0.77382, -0.915666, -1.45619, -0.624982, 1.0703, -0.25669, -1.00094e-05, -0.000961456, -0.00881538, 0.00401599, 0.00064674, 0.00283378, -0.000101917, -0.43267, 15.3467, 18.2209, 15.4282, 0.693236, 3.36703, -0.0621838, 0.00120554, -0.00181475, -0.000259704, -0.000619573, -0.000217215, -0.000256839, 0.00582869, -0.000126104, 0.00520678, 0.010924, 0.00341699, 0.0140762, -0.0110734, -0.444751, 0.634952, -3.13167, -0.0556729, -0.107834, -0.00995417, -0.442897, 0.635306, -3.1323, -0.0564737, -0.107533, 0.0027963, -0.00215917, -0.00611461, -0.00336773, -0.00253636, -0.00132269
0.057092, 0.107712, -0.773815, -0.915669, -1.45619, -0.624982, 1.0703, -0.256687, -2.31745e-05, 0.00103002, -0.00797987, 0.00196695, 0.000431765, 0.00684124, 0.0011531, -0.43267, 15.2753, 18.1455, 15.4678, 0.693236, 3.36703, -0.0951428, 0.00120496, -0.00181584, -0.000265727, -0.000634514, -0.000234907, -0.000247772, 0.00426111, -0.000437429, 0.00554097, 0.0145925, 0.00524114, 0.0154484, -0.0110705, -0.444753, 0.634946, -3.13166, -0.0556809, -0.107856, -0.00995235, -0.442898, 0.635306, -3.1323, -0.0564672, -0.107529, 0.00293143, -0.00225986, -0.00640257, -0.00168159, -0.00289596, -0.00117131
0.058092, 0.107712, -0.773815, -0.915675, -1.45619, -0.624982, 1.0703, -0.256688, -2.78258e-05, 0.000687102, -0.00851917, 0.00147453, 0.000288296, 0.0054066, 0.000260368, -0.43267, 15.2753, 18.1098, 15.4678, 0.693236, 3.36062, -0.0814099, 0.00120021, -0.00181642, -0.000271616, -0.000647618, -0.000247474, -0.000238124, 0.00473304, -0.00016547, 0.00540055, 0.0133543, 0.00648604, 0.0171882, -0.0110675, -0.444756, 0.63494, -3.13164, -0.0556894, -0.107879, -0.00995453, -0.4429, 0.635305, -3.1323, -0.0564601, -0.107533, 0.00306961, -0.00236255, -0.00669647, -0.00201409, -0.00274237, -0.00163616
0.059092, 0.107717, -0.77382, -0.915685, -1.45618, -0.624982, 1.0703, -0.256692, 0.000807385, -0.00121205, -0.00895786, 0.00203346, 0.000192538, 0.00382336, -0.00104693, -0.468376, 15.3467, 18.0741, 15.4282, 0.693236, 3.36703, -0.0484509, 0.00119442, -0.00181609, -0.000277731, -0.00066149, -0.000253629, -0.000231324, 0.00550369, 3.94216e-05, 0.00552027, 0.0124603, 0.00554121, 0.0197639, -0.0110644, -0.444758, 0.634933, -3.13162, -0.0556982, -0.107903, -0.00995759, -0.442903, 0.635304, -3.1323, -0.0564579, -0.107548, 0.00321082, -0.00246723, -0.00699628, -0.00265685, -0.00267063, -0.00186844
0.060092, 0.107723, -0.773817, -0.91569, -1.45618, -0.624981, 1.0703, -0.256688, 0.00229453, 2.74177e-05, -0.0115064, 0.00144746, 0.000603331, 0.00714977, 0.000522896, -0.543754, 15.311, 17.9987, 15.4282, 0.680419, 3.38168, -0.0814099, 0.00119318, -0.00181775, -0.000284455, -0.000674152, -0.000270171, -0.000223419, 0.00485262, -0.000873465, 0.00522409, 0.013771, 0.00572023, 0.0193555, -0.0110611, -0.444761, 0.634926, -3.13161, -0.0557074, -0.107928, -0.00995609, -0.442904, 0.635303, -3.13229, -0.0564544, -0.107548, 0.00335505, -0.00257388, -0.00730195, -0.00181057, -0.0036641, -0.00243063
0.061092, 0.107723, -0.773817, -0.915706, -1.45618, -0.624984, 1.07031, -0.256688, 0.000689249, 1.84552e-05, -0.0128949, 0.00103383, 0.000402412, 0.00620318, 0.000348706, -0.508049, 15.311, 18.0344, 15.4282, 0.680419, 3.36062, -0.0814099, 0.00118432, -0.00181567, -0.000288872, -0.000687822, -0.000285611, -0.000201617, 0.0061855, -0.00081145, 0.00498816, 0.012643, 0.00709747, 0.0181292, -0.0110577, -0.444763, 0.634918, -3.13159, -0.055717, -0.107955, -0.00996174, -0.442909, 0.6353, -3.13229, -0.0564296, -0.107551, 0.0035023, -0.00268248, -0.00761342, -0.00297828, -0.00375575, -0.00306911
0.062092, 0.107724, -0.773818, -0.915717, -1.45617, -0.624984, 1.07031, -0.256693, 0.00359793, -0.000822782, -0.0120417, 0.00074087, 0.000709228, 0.00462803, -0.00122551, -0.508049, 15.3467, 17.9987, 15.4282, 0.668517, 3.36062, -0.0420422, 0.00117772, -0.00181609, -0.000294787, -0.000700164, -0.000301011, -0.000191068, 0.00505444, -0.000282073, 0.00520949, 0.0119036, 0.00743173, 0.0247176, -0.0110541, -0.444766, 0.63491, -3.13157, -0.055727, -0.107982, -0.00996518, -0.442912, 0.635297, -3.13229, -0.0564228, -0.107555, 0.00365255, -0.002793, -0.00793067, -0.0017346, -0.00329944, -0.00308424
0.063092, 0.107723, -0.773817, -0.915729, -1.45617, -0.624986, 1.07032, -0.256688, 0.000894305, -0.000548422, -0.0145231, 0.000532648, 3.21166e-05, 0.00345479, 0.000641117, -0.43267, 15.3467, 17.959, 15.4282, 0.680419, 3.36062, -0.0814099, 0.00117034, -0.00181515, -0.000301171, -0.000718027, -0.000316964, -0.000167814, 0.00730206, -0.000419622, 0.00476124, 0.0103175, 0.00949115, 0.0192298, -0.0110504, -0.444769, 0.634902, -3.13155, -0.0557374, -0.108011, -0.00996924, -0.442916, 0.635295, -3.13229, -0.0563964, -0.10756, 0.0038058, -0.00290544, -0.00825364, -0.00378656, -0.00362477, -0.0040105
0.064092, 0.107732, -0.773814, -0.91574, -1.45616, -0.624985, 1.07032, -0.256684, 0.00255363, 0.000469678, -0.0156227, 0.00493352, 0.000224942, 0.00285154, 0.000936084, -0.508049, 15.311, 17.8876, 15.3568, 0.674925, 3.3533, -0.0951428, 0.00116689, -0.00181563, -0.000309053, -0.000733013, -0.000334247, -0.000153314, 0.00768252, -0.000672367, 0.00606275, 0.0120701, 0.00831391, 0.0187922, -0.0110465, -0.444772, 0.634894, -3.13154, -0.0557483, -0.10804, -0.00996937, -0.442919, 0.635294, -3.13228, -0.0563842, -0.107563, 0.00396204, -0.00301977, -0.00858229, -0.00409015, -0.00401684, -0.00306883
0.065092, 0.107733, -0.773812, -0.915756, -1.45617, -0.624984, 1.07033, -0.256682, 0.0040586, 0.00114839, -0.0160388, 0.000952259, 0.00062474, 0.00731527, 0.000624091, -0.468376, 15.2753, 17.9233, 15.4678, 0.662108, 3.33865, -0.0951428, 0.00116188, -0.00181497, -0.000312051, -0.000743613, -0.000357496, -0.000137691, 0.00569777, -0.00117111, 0.00544544, 0.0138617, 0.00952381, 0.0237503, -0.0110424, -0.444775, 0.634885, -3.13152, -0.0557596, -0.108071, -0.00997053, -0.442923, 0.635288, -3.13228, -0.0563708, -0.107558, 0.00412125, -0.00313597, -0.00891658, -0.00189194, -0.00455607, -0.00388529
0.066092, 0.107738, -0.773817, -0.915766, -1.45616, -0.624983, 1.07033, -0.256688, 0.00307651, -0.000904799, -0.0135359, 0.00259435, 0.000619989, 0.00968943, -0.0015506, -0.468376, 15.3467, 17.848, 15.3925, 0.656615, 3.3533, -0.0420422, 0.00115501, -0.00181512, -0.000320818, -0.00076307, -0.000366946, -0.000130252, 0.00617577, -0.00111215, 0.00717131, 0.0190403, 0.00556423, 0.0272582, -0.0110382, -0.444778, 0.634876, -3.13149, -0.0557713, -0.108103, -0.00997382, -0.442926, 0.635288, -3.13228, -0.0563702, -0.107577, 0.00428343, -0.00325403, -0.00925645, -0.00232727, -0.00464768, -0.00253625
0.067092, 0.107737, -0.773812, -0.915779, -1.45616, -0.624983, 1.07033, -0.256686, 0.000565855, 0.00023205, -0.0150349, 0.00271199, 0.00041336, 0.0116325, 0.00414058, -0.392998, 15.311, 17.7765, 15.3568, 0.656615, 3.36062, -0.0557752, 0.00114743, -0.0018152, -0.000329017, -0.000781947, -0.000388592, -0.000107268, 0.0074142, -0.00156884, 0.00742517, 0.0208463, 0.00632875, 0.019028, -0.0110339, -0.444781, 0.634867, -3.13147, -0.0557834, -0.108137, -0.0099776, -0.44293, 0.635286, -3.13227, -0.056346, -0.107577, 0.00444857, -0.00337392, -0.00960188, -0.00339806, -0.00527016, -0.00271715
0.068092, 0.107744, -0.773811, -0.915803, -1.45615, -0.624984, 1.07034, -0.256684, 0.0005858, 0.000154724, -0.0163408, 0.00654317, 7.21484e-05, 0.0133314, 0.00386128, -0.392998, 15.311, 17.848, 15.2814, 0.662108, 3.36062, -0.0750012, 0.00113836, -0.00181259, -0.000335031, -0.000796163, -0.00040585, -8.24449e-05, 0.00867002, -0.00227919, 0.00873006, 0.0244479, 0.00370397, 0.0174918, -0.0110293, -0.444785, 0.634857, -3.13145, -0.055796, -0.108171, -0.00998246, -0.442936, 0.635282, -3.13227, -0.0563195, -0.107586, 0.00461665, -0.00349563, -0.0099528, -0.00454651, -0.00615806, -0.001858
0.069092, 0.107744, -0.773806, -0.915817, -1.45615, -0.624984, 1.07034, -0.256684, 0.00192711, 0.0018664, -0.0146103, 0.00384816, 4.81181e-05, 0.0100144, 0.0028658, -0.317619, 15.2356, 17.8122, 15.3171, 0.662108, 3.36062, -0.0750012, 0.00113213, -0.00181295, -0.000341471, -0.000812256, -0.000434252, -6.37063e-05, 0.0069386, -0.00104135, 0.00849525, 0.021942, 0.00928365, 0.0238194, -0.0110246, -0.444788, 0.634847, -3.13143, -0.055809, -0.108207, -0.00998445, -0.44294, 0.635278, -3.13226, -0.0563029, -0.107578, 0.00478767, -0.00361914, -0.0103092, -0.00267768, -0.00498154, -0.00232106
0.070092, 0.10775, -0.773801, -0.91583, -1.45615, -0.624982, 1.07035, -0.256685, 0.00166401, 0.00124428, -0.0156154, 0.00280639, 0.000472903, 0.00674152, 0.000908544, -0.317619, 15.2356, 17.7369, 15.3171, 0.650206, 3.38168, -0.0420422, 0.00112781, -0.00181382, -0.000349393, -0.000828977, -0.000459888, -5.11281e-05, 0.00775932, -0.00040196, 0.00796062, 0.0183838, 0.0112194, 0.0268139, -0.0110198, -0.444792, 0.634836, -3.1314, -0.0558225, -0.108244, -0.00998448, -0.442943, 0.635275, -3.13226, -0.0562963, -0.107576, 0.00496161, -0.00374443, -0.010671, -0.00330826, -0.00449227, -0.00326896
0.071092, 0.107758, -0.773801, -0.915844, -1.45614, -0.624981, 1.07035, -0.256681, 0.00451762, -9.84879e-05, -0.0164845, 0.00381487, 0.000789997, 0.00590808, 0.00273642, -0.317619, 15.2753, 17.6615, 15.2417, 0.637389, 3.36062, -0.0951428, 0.00112297, -0.00181352, -0.000358854, -0.000851725, -0.000478059, -3.43404e-05, 0.00757097, -0.000413002, 0.00818967, 0.0179571, 0.00996993, 0.0281544, -0.0110147, -0.444796, 0.634825, -3.13138, -0.0558365, -0.108282, -0.00998492, -0.442947, 0.635273, -3.13226, -0.0562833, -0.107587, 0.00513848, -0.00387148, -0.0110382, -0.00295917, -0.00462603, -0.0033949
0.072092, 0.107762, -0.773799, -0.915868, -1.45614, -0.624982, 1.07036, -0.256682, 0.00579987, -6.56512e-05, -0.0237519, 0.00175076, 5.19549e-05, 0.00868972, 0.00167604, -0.281914, 15.2753, 17.7369, 15.2814, 0.650206, 3.37436, -0.0878186, 0.00111372, -0.00181157, -0.000363749, -0.000865739, -0.000504668, -1.25559e-05, 0.00890197, -0.00218079, 0.00608506, 0.0154854, 0.0113624, 0.0270292, -0.0110095, -0.4448, 0.634814, -3.13135, -0.055851, -0.108322, -0.00998923, -0.442953, 0.635266, -3.13225, -0.0562634, -0.107586, 0.00531825, -0.00400028, -0.0114107, -0.00389803, -0.00654961, -0.005971
0.073092, 0.107764, -0.773792, -0.915885, -1.45613, -0.624979, 1.07036, -0.256688, 0.00272106, 0.00397168, -0.0202419, 0.00303206, 3.46426e-05, 0.0062771, -0.000723153, -0.206535, 15.2356, 17.7012, 15.206, 0.650206, 3.38168, -0.0356336, 0.00110625, -0.00181174, -0.000374042, -0.000887708, -0.000529698, 4.54704e-06, 0.00857813, -0.00083353, 0.00789022, 0.0176407, 0.0161305, 0.0297462, -0.0110041, -0.444804, 0.634803, -3.13133, -0.0558659, -0.108363, -0.00999201, -0.442958, 0.635264, -3.13224, -0.056251, -0.107589, 0.00550092, -0.0041308, -0.0117885, -0.00356547, -0.00533901, -0.00451692
0.074092, 0.10777, -0.773791, -0.915901, -1.45613, -0.624981, 1.07037, -0.256685, 0.0013493, 0.00507787, -0.020546, 0.00573947, 2.30996e-05, 0.00969913, 0.000807803, -0.166862, 15.2753, 17.6615, 15.1703, 0.650206, 3.37436, -0.0685925, 0.00109909, -0.00181079, -0.000383342, -0.000913101, -0.000554149, 2.69654e-05, 0.00929894, -0.00148114, 0.00940756, 0.0228459, 0.0142889, 0.0266267, -0.0109985, -0.444808, 0.634791, -3.1313, -0.0558813, -0.108405, -0.00999419, -0.442963, 0.635261, -3.13224, -0.0562307, -0.107594, 0.00568647, -0.00426302, -0.0121715, -0.00418016, -0.00615808, -0.00344082
0.075092, 0.107774, -0.773785, -0.91592, -1.45613, -0.624983, 1.07038, -0.25668, 0.00569741, 0.00476464, -0.0186929, 0.00328216, -0.000221956, 0.00700935, 0.00106515, -0.0914839, 15.2356, 17.6615, 15.206, 0.656615, 3.38168, -0.0814099, 0.00109254, -0.00181074, -0.000390407, -0.000931134, -0.000589942, 5.14486e-05, 0.00685902, -0.000484742, 0.00920261, 0.0208975, 0.0176019, 0.0346853, -0.0109927, -0.444812, 0.634778, -3.13127, -0.0558972, -0.108449, -0.00999546, -0.442968, 0.635256, -3.13223, -0.056208, -0.107583, 0.00587491, -0.00439694, -0.0125597, -0.00158107, -0.00520841, -0.00385806
0.076092, 0.107784, -0.773782, -0.915934, -1.45613, -0.624983, 1.07038, -0.256683, 0.00863219, 0.00258693, -0.0155475, 0.0024064, -0.000147968, 0.00969476, -0.000471674, -0.131157, 15.2753, 17.5901, 15.206, 0.656615, 3.38901, -0.0484509, 0.00108877, -0.00181172, -0.000399599, -0.000952567, -0.000621005, 5.96784e-05, 0.0048927, -0.000277621, 0.0103013, 0.0251393, 0.0150121, 0.0434789, -0.0109867, -0.444817, 0.634765, -3.13124, -0.0559137, -0.108494, -0.00999396, -0.442971, 0.635252, -3.13223, -0.0562109, -0.107581, 0.00606621, -0.00453252, -0.0129531, 0.000487034, -0.00507788, -0.0030179
0.077092, 0.107787, -0.773778, -0.915954, -1.45612, -0.624982, 1.07039, -0.256684, 0.00798567, 0.00197852, -0.0149479, 0.00711321, 0.000138716, 0.00731154, -0.000759973, -0.0557783, 15.2753, 17.5901, 15.0949, 0.650206, 3.38901, -0.0356336, 0.00107925, -0.00181089, -0.000411345, -0.000980457, -0.000645552, 8.47082e-05, 0.00650543, 0.000163919, 0.0121056, 0.0267556, 0.0128452, 0.0427649, -0.0109806, -0.444821, 0.634752, -3.13121, -0.0559306, -0.108541, -0.0099981, -0.442977, 0.63525, -3.13223, -0.056188, -0.10759, 0.00626038, -0.00466976, -0.0133516, -0.00106743, -0.00484796, -0.00172558
0.078092, 0.107793, -0.773778, -0.91597, -1.45612, -0.62498, 1.0704, -0.256681, 0.00760726, 0.00305171, -0.0167345, 0.00509383, -0.00014488, 0.00551063, 0.00144803, 0.0196001, 15.3467, 17.5504, 15.0949, 0.656615, 3.38901, -0.0878186, 0.0010734, -0.00181132, -0.000420726, -0.00100433, -0.000673056, 0.000102504, 0.00691082, 0.000418903, 0.0112888, 0.0239398, 0.0169939, 0.041196, -0.0109742, -0.444826, 0.634739, -3.13118, -0.055948, -0.108588, -0.00999828, -0.442982, 0.635245, -3.13222, -0.0561769, -0.107596, 0.00645739, -0.00480863, -0.0137552, -0.00122766, -0.00473923, -0.00297061
0.079092, 0.107804, -0.773767, -0.915994, -1.45612, -0.624983, 1.0704, -0.256685, 0.00600593, 0.00639936, -0.0176275, 0.00458767, -0.000300036, 0.00360842, 3.23375e-05, 0.0196001, 15.311, 17.6258, 15.0552, 0.662108, 3.40365, -0.0621838, 0.001067, -0.00181033, -0.000429851, -0.00102593, -0.000714521, 0.000121561, 0.00717756, 0.000870745, 0.0113041, 0.0226596, 0.022339, 0.0420125, -0.0109676, -0.444831, 0.634725, -3.13115, -0.055966, -0.108638, -0.00999873, -0.442988, 0.63524, -3.13222, -0.0561646, -0.107582, 0.00665724, -0.00494912, -0.0141638, -0.00131138, -0.00443819, -0.00337961
0.080092, 0.107811, -0.773765, -0.91601, -1.45612, -0.624979, 1.07041, -0.256686, 0.00692024, 0.00307083, -0.0146015, 0.00409149, 0.000240786, 0.00752168, -0.00118683, 0.059273, 15.3864, 17.5504, 15.0195, 0.650206, 3.40365, -0.0292249, 0.0010606, -0.00181173, -0.000441209, -0.00105034, -0.000743075, 0.000136921, 0.00635827, 0.000895735, 0.0126333, 0.0279833, 0.0174021, 0.048488, -0.0109609, -0.444836, 0.63471, -3.13111, -0.0559845, -0.108688, -0.00999923, -0.442992, 0.635237, -3.13221, -0.0561584, -0.10759, 0.00685993, -0.0050912, -0.0145774, -0.00038511, -0.00453911, -0.00241042
0.081092, 0.107812, -0.773759, -0.916036, -1.45611, -0.624981, 1.07042, -0.256688, 0.00593249, 0.00477741, -0.0160684, 0.00287603, 0.000160525, 0.00595066, -0.000781982, 0.170357, 15.4221, 17.6258, 15.0195, 0.650206, 3.39633, -0.0292249, 0.00104998, -0.00181052, -0.000450165, -0.00107472, -0.000782147, 0.000164787, 0.00684668, 0.00117977, 0.0122301, 0.0260469, 0.0213917, 0.0480971, -0.0109539, -0.444841, 0.634696, -3.13108, -0.0560035, -0.108741, -0.0100035, -0.442999, 0.63523, -3.1322, -0.0561333, -0.107582, 0.00706543, -0.00523486, -0.0149959, -0.000649259, -0.00441295, -0.0032634
0.082092, 0.107827, -0.773755, -0.91606, -1.45611, -0.624983, 1.07043, -0.256682, 0.00972066, 0.00604373, -0.0189607, 0.00379187, -0.000130342, 0.00419454, 0.00165575, 0.0949785, 15.4578, 17.6615, 14.9442, 0.656615, 3.40365, -0.0878186, 0.00104383, -0.00180923, -0.000460923, -0.00110158, -0.000817023, 0.000189379, 0.00632605, 0.00093285, 0.0118994, 0.0239622, 0.0239073, 0.0481758, -0.0109468, -0.444846, 0.63468, -3.13105, -0.0560231, -0.108794, -0.0100032, -0.443006, 0.635225, -3.1322, -0.0561137, -0.107583, 0.00727374, -0.00538009, -0.0154193, 0.000109468, -0.00478386, -0.00398246
0.083092, 0.107834, -0.773751, -0.916075, -1.45611, -0.624984, 1.07044, -0.256688, 0.00645362, 0.0060704, -0.0186975, 0.00261137, -0.000290345, 0.00398419, -0.000586394, 0.134651, 15.5331, 17.5901, 14.9442, 0.662108, 3.38168, -0.0420422, 0.0010378, -0.00181038, -0.000473326, -0.00113277, -0.000854086, 0.00020128, 0.00765867, 0.00131997, 0.0121369, 0.0244259, 0.0254941, 0.0494592, -0.0109394, -0.444852, 0.634665, -3.13101, -0.0560432, -0.10885, -0.0100028, -0.44301, 0.635222, -3.13219, -0.0561143, -0.107582, 0.00748486, -0.00552686, -0.0158476, -0.00103878, -0.00459374, -0.00426408
0.084092, 0.107843, -0.773742, -0.916099, -1.4561, -0.624984, 1.07044, -0.256686, 0.0041431, 0.00716518, -0.0157576, 0.00356674, -0.000193563, 0.00320792, -0.000861751, 0.170357, 15.5688, 17.6615, 14.8688, 0.662108, 3.37436, -0.0292249, 0.00103038, -0.00180956, -0.000485253, -0.00116205, -0.00089373, 0.000227735, 0.00783785, 0.00222768, 0.0137512, 0.0272306, 0.0267347, 0.0508135, -0.0109318, -0.444858, 0.634649, -3.13097, -0.0560639, -0.108906, -0.0100034, -0.443017, 0.635217, -3.13219, -0.0560929, -0.107578, 0.00769877, -0.00567515, -0.0162807, -0.00114855, -0.0038571, -0.00309323
0.085092, 0.107851, -0.773732, -0.916113, -1.45611, -0.624981, 1.07045, -0.256679, 0.00234097, 0.00562658, -0.0194817, 0.00149675, -0.000129042, 0.00671262, 0.0013612, 0.21003, 15.5688, 17.5901, 14.9084, 0.662108, 3.38168, -0.0814099, 0.00102794, -0.00181198, -0.00049809, -0.00119242, -0.000938384, 0.000247882, 0.00966592, 0.00117721, 0.0128205, 0.0275361, 0.0254982, 0.0466579, -0.010924, -0.444863, 0.634632, -3.13094, -0.0560851, -0.108965, -0.00999906, -0.443021, 0.635213, -3.13219, -0.0560818, -0.107568, 0.00791545, -0.00582496, -0.0167186, -0.00265244, -0.00511329, -0.00459447
0.086092, 0.107858, -0.773725, -0.916137, -1.4561, -0.624981, 1.07046, -0.256682, 0.0042639, 0.00355317, -0.0217302, 0.00196106, -0.000560746, 0.00447658, -3.97755e-05, 0.245735, 15.6046, 17.6258, 14.8688, 0.674925, 3.39633, -0.0557752, 0.00101889, -0.00181187, -0.000510854, -0.00122264, -0.000979552, 0.000272184, 0.0107733, 0.00113574, 0.0124483, 0.0251842, 0.0253132, 0.0494434, -0.010916, -0.444869, 0.634615, -3.1309, -0.0561069, -0.109025, -0.010001, -0.443027, 0.635209, -3.13218, -0.0560648, -0.107565, 0.00813491, -0.00597625, -0.0171612, -0.00351012, -0.00534239, -0.00548619
0.087092, 0.107864, -0.773718, -0.916159, -1.4561, -0.624982, 1.07047, -0.256685, 0.00467229, 0.00191877, -0.0224965, 0.00133378, 0.000304338, 0.00312115, -0.00124558, 0.325081, 15.6442, 17.6258, 14.8688, 0.656615, 3.40365, -0.0228162, 0.00101018, -0.0018129, -0.000523114, -0.00125089, -0.00102544, 0.00029357, 0.0113665, 0.00148859, 0.0123081, 0.0235106, 0.0247802, 0.0528516, -0.0109077, -0.444875, 0.634598, -3.13086, -0.0561293, -0.109086, -0.0100024, -0.443033, 0.635203, -3.13217, -0.056053, -0.107557, 0.00835714, -0.00612902, -0.0176085, -0.00388277, -0.00516288, -0.00611261
0.088092, 0.107875, -0.773708, -0.916181, -1.45609, -0.624985, 1.07047, -0.256685, 0.00686329, 0.0048144, -0.0231316, 0.00350745, -0.000475276, 0.00680968, -0.000829151, 0.325081, 15.6442, 17.6258, 14.7577, 0.674925, 3.41006, -0.0228162, 0.00100214, -0.00181291, -0.000538176, -0.00128681, -0.00107089, 0.000319763, 0.0101207, 0.000645326, 0.0136202, 0.0287842, 0.0256531, 0.0543049, -0.0108992, -0.444881, 0.63458, -3.13082, -0.0561522, -0.109149, -0.010003, -0.443039, 0.6352, -3.13217, -0.0560341, -0.107551, 0.00858211, -0.00628324, -0.0180604, -0.00247702, -0.0061288, -0.00517529
0.089092, 0.107884, -0.773699, -0.916204, -1.4561, -0.624983, 1.07048, -0.256679, 0.0105593, 0.00685741, -0.023656, 0.00151794, 0.000361318, 0.00515765, 0.00138094, 0.360787, 15.6442, 17.6258, 14.7934, 0.656615, 3.41006, -0.0750012, 0.000996401, -0.0018146, -0.000550349, -0.00131422, -0.00112156, 0.000345414, 0.00782373, 0.00117874, 0.0131488, 0.0263181, 0.029868, 0.058474, -0.0108905, -0.444888, 0.634562, -3.13078, -0.0561758, -0.109214, -0.010001, -0.443044, 0.635193, -3.13216, -0.0560169, -0.107537, 0.00880983, -0.00643891, -0.018517, 5.36079e-05, -0.00566591, -0.00593833
0.090092, 0.107889, -0.773694, -0.916223, -1.45609, -0.624985, 1.07049, -0.256677, 0.00948549, 0.00667509, -0.022284, 0.00185831, -0.00043729, 0.0033593, 0.0016673, 0.436165, 15.7156, 17.5504, 14.7577, 0.674925, 3.42471, -0.0951428, 0.000986332, -0.00181618, -0.000565423, -0.00134972, -0.00116742, 0.000374205, 0.00852093, 0.00185273, 0.0139852, 0.0271533, 0.0315472, 0.0592947, -0.0108816, -0.444894, 0.634543, -3.13073, -0.0561999, -0.10928, -0.0100033, -0.44305, 0.635189, -3.13215, -0.0559951, -0.107534, 0.00904028, -0.00659599, -0.0189781, -0.000494079, -0.00518301, -0.00560935
0.091092, 0.107904, -0.773687, -0.916249, -1.4561, -0.624984, 1.0705, -0.256684, 0.0113395, 0.00436915, -0.02412, 0.000412014, 0.000183191, 0.00285835, -0.00132935, 0.400459, 15.7513, 17.5901, 14.7934, 0.662108, 3.41739, -0.0292249, 0.000980928, -0.00181657, -0.000577638, -0.00137986, -0.00121621, 0.000385201, 0.00882168, 0.00181914, 0.0133168, 0.0250599, 0.030718, 0.0654916, -0.0108725, -0.444901, 0.634524, -3.13069, -0.0562246, -0.109348, -0.0100004, -0.443056, 0.635182, -3.13214, -0.0560017, -0.107527, 0.00927346, -0.00675447, -0.0194438, -0.000513604, -0.00537997, -0.00676334
0.092092, 0.107914, -0.773673, -0.916274, -1.45609, -0.624982, 1.0705, -0.256684, 0.0149267, 0.00735946, -0.0243676, 0.00111616, -0.00035259, 0.0016237, -0.000885843, 0.400459, 15.7156, 17.5901, 14.7577, 0.674925, 3.43204, -0.0292249, 0.0009745, -0.00181833, -0.000592084, -0.00141045, -0.00127231, 0.000409549, 0.00698531, 0.00203583, 0.0138354, 0.0253456, 0.0349584, 0.0695382, -0.0108631, -0.444908, 0.634504, -3.13064, -0.0562499, -0.109417, -0.00999859, -0.443062, 0.635176, -3.13213, -0.0559883, -0.107511, 0.00950935, -0.00691434, -0.0199139, 0.00150846, -0.00526374, -0.00658656
0.093092, 0.107926, -0.773664, -0.916299, -1.45609, -0.624981, 1.07051, -0.256678, 0.0144252, 0.00558442, -0.0244295, 0.000748807, 0.000680467, 0.00127796, 0.00157987, 0.400459, 15.7156, 17.5901, 14.7577, 0.650206, 3.43204, -0.0878186, 0.000967265, -0.00181932, -0.000606157, -0.0014435, -0.00132407, 0.000438842, 0.00772386, 0.00237531, 0.0141144, 0.0251732, 0.033477, 0.068952, -0.0108534, -0.444915, 0.634484, -3.1306, -0.0562758, -0.109488, -0.00999726, -0.443068, 0.63517, -3.13212, -0.0559676, -0.107503, 0.00974794, -0.00707558, -0.0203885, 0.000978409, -0.00511548, -0.00683228
0.094092, 0.107931, -0.773661, -0.916321, -1.4561, -0.624983, 1.07052, -0.256683, 0.0113918, 0.00555691, -0.0260122, 0.000502729, 1.28353e-05, 0.00126987, -0.000641955, 0.511544, 15.791, 17.5147, 14.7577, 0.662108, 3.42471, -0.0420422, 0.000956013, -0.00182128, -0.000620826, -0.00147819, -0.0013767, 0.00046207, 0.00986182, 0.00226224, 0.0141754, 0.0254377, 0.0348393, 0.0685039, -0.0108436, -0.444922, 0.634463, -3.13055, -0.0563023, -0.109561, -0.00999976, -0.443074, 0.635163, -3.13212, -0.0559569, -0.107495, 0.00998923, -0.00723817, -0.0208674, -0.000912485, -0.00546856, -0.00740131
0.095092, 0.107944, -0.773648, -0.916345, -1.45609, -0.624984, 1.07053, -0.25668, 0.0127795, 0.00527145, -0.025829, 0.00117301, -0.000228802, 0.00122781, -0.000427806, 0.475838, 15.7513, 17.5147, 14.722, 0.668517, 3.41739, -0.0420422, 0.000949444, -0.00182237, -0.000637608, -0.00151776, -0.00143297, 0.000489568, 0.00967108, 0.00237127, 0.0148733, 0.0268212, 0.0349949, 0.0711272, -0.0108335, -0.444929, 0.634442, -3.1305, -0.0563295, -0.109636, -0.00999748, -0.443081, 0.635158, -3.13211, -0.0559401, -0.107484, 0.0102332, -0.00740209, -0.0213508, -0.000531682, -0.00552447, -0.00717472
0.096092, 0.107961, -0.773645, -0.91637, -1.45609, -0.624984, 1.07053, -0.256679, 0.0137648, 0.0044945, -0.028061, 0.000783992, -0.000152535, 0.00140964, 0.000698264, 0.436165, 15.8624, 17.479, 14.722, 0.668517, 3.40365, -0.0685925, 0.000942358, -0.00182384, -0.000653079, -0.00155327, -0.00148458, 0.000509468, 0.0102819, 0.00207328, 0.014581, 0.0261058, 0.0351098, 0.0713085, -0.0108231, -0.444937, 0.634421, -3.13045, -0.0563573, -0.109712, -0.0099954, -0.443087, 0.635152, -3.1321, -0.0559357, -0.107482, 0.0104799, -0.00756732, -0.0218384, -0.000863455, -0.00600721, -0.00799945
0.097092, 0.107969, -0.773631, -0.916398, -1.45609, -0.624985, 1.07054, -0.256678, 0.00938325, 0.00844987, -0.026493, 0.00145217, -0.000339049, 0.00076426, 0.00117768, 0.475838, 15.791, 17.4393, 14.6823, 0.674925, 3.41006, -0.0878186, 0.000932645, -0.00182581, -0.000668676, -0.00158713, -0.00154843, 0.000541662, 0.0109567, 0.00281429, 0.0159586, 0.0285591, 0.0396692, 0.0690182, -0.0108125, -0.444944, 0.634399, -3.1304, -0.0563857, -0.10979, -0.00999571, -0.443093, 0.635145, -3.13209, -0.0559131, -0.107462, 0.0107292, -0.00773386, -0.0223304, -0.0014107, -0.00547198, -0.00715953
0.098092, 0.107986, -0.773632, -0.916427, -1.45609, -0.624984, 1.07055, -0.256684, 0.0111793, 0.0037618, -0.0294394, 0.00180445, 0.000248685, 0.000793258, -0.00114759, 0.436165, 15.9021, 17.4393, 14.6466, 0.662108, 3.40365, -0.0356336, 0.000922459, -0.00182649, -0.000684206, -0.0016226, -0.00159515, 0.000558783, 0.0127056, 0.00231365, 0.0155187, 0.0271117, 0.0351425, 0.0728183, -0.0108016, -0.444952, 0.634376, -3.13035, -0.0564147, -0.10987, -0.00999619, -0.443101, 0.635137, -3.13208, -0.0559143, -0.107471, 0.0109812, -0.00790168, -0.0228265, -0.00285414, -0.00619905, -0.00822169
0.099092, 0.107994, -0.773619, -0.916458, -1.45609, -0.624985, 1.07056, -0.25668, 0.00972477, 0.00706978, -0.0315639, 0.0012038, -0.000308928, 0.00502406, 0.000455694, 0.511544, 15.8624, 17.4393, 14.6466, 0.674925, 3.41006, -0.0685925, 0.000911702, -0.00182744, -0.00069989, -0.00165941, -0.00166115, 0.000596678, 0.0127717, 0.00140021, 0.0157863, 0.030613, 0.0379038, 0.0700182, -0.0107905, -0.44496, 0.634353, -3.1303, -0.0564444, -0.109952, -0.00999702, -0.443109, 0.635129, -3.13207, -0.055884, -0.107451, 0.0112358, -0.00807076, -0.0233269, -0.00265174, -0.00728702, -0.00846739
0.100092, 0.108012, -0.773616, -0.916487, -1.45609, -0.624985, 1.07056, -0.256677, 0.0114058, 0.00445149, -0.0322296, 0.000803161, 3.14072e-05, 0.00868102, 0.00128718, 0.475838, 15.9021, 17.4036, 14.6466, 0.668517, 3.40365, -0.0951428, 0.000902229, -0.00182955, -0.000715586, -0.00169218, -0.00171833, 0.000622334, 0.0127179, 0.000753413, 0.0161705, 0.0336345, 0.0341952, 0.0725839, -0.0107792, -0.444968, 0.634329, -3.13025, -0.0564747, -0.110035, -0.00999636, -0.443115, 0.635121, -3.13205, -0.0558734, -0.107447, 0.011493, -0.00824109, -0.0238314, -0.00234506, -0.00810673, -0.00859048
0.101092, 0.108028, -0.77361, -0.916519, -1.45609, -0.624984, 1.07057, -0.256682, 0.0117037, 0.00263219, -0.0306253, 0.00146393, 0.000258297, 0.0111743, -0.000599913, 0.475838, 15.9378, 17.4036, 14.6069, 0.662108, 3.40365, -0.0557752, 0.000891478, -0.0018306, -0.00073237, -0.00172925, -0.00177597, 0.000646527, 0.0126679, 0.000735705, 0.0174964, 0.0379188, 0.0311602, 0.0776334, -0.0107676, -0.444977, 0.634305, -3.13019, -0.0565057, -0.11012, -0.00999675, -0.443123, 0.635113, -3.13204, -0.0558656, -0.107444, 0.0117529, -0.00841265, -0.0243401, -0.00212844, -0.00830883, -0.00777398
0.102092, 0.108041, -0.773595, -0.916548, -1.45609, -0.624985, 1.07057, -0.256684, 0.0110809, 0.00790478, -0.0307819, 0.000976307, -6.51609e-05, 0.00863833, -0.00138326, 0.511544, 15.8267, 17.3282, 14.6069, 0.668517, 3.39633, -0.0292249, 0.000883875, -0.00183299, -0.0007494, -0.00176733, -0.00184838, 0.000670714, 0.0118371, 0.00147901, 0.0178184, 0.0369096, 0.0389775, 0.0796381, -0.0107557, -0.444985, 0.634281, -3.13014, -0.0565373, -0.110207, -0.00999381, -0.44313, 0.635105, -3.13202, -0.0558585, -0.107419, 0.0120154, -0.00858543, -0.0248528, -0.00108829, -0.0077136, -0.00790193
0.103092, 0.108057, -0.773584, -0.916582, -1.45609, -0.624986, 1.07058, -0.256678, 0.0115401, 0.009875, -0.0318558, 0.00148635, -0.00048425, 0.00617576, 0.00124798, 0.511544, 15.791, 17.2925, 14.5712, 0.680419, 3.40365, -0.0878186, 0.00087347, -0.00183385, -0.000766436, -0.00180577, -0.00191605, 0.000708759, 0.0120503, 0.0018588, 0.0180429, 0.0356684, 0.0429379, 0.0780718, -0.0107435, -0.444994, 0.634256, -3.13008, -0.0565696, -0.110296, -0.00999336, -0.443138, 0.635096, -3.13201, -0.0558305, -0.107404, 0.0122806, -0.0087594, -0.0253696, -0.00106629, -0.00751919, -0.00820756
0.104092, 0.108075, -0.773582, -0.916618, -1.45609, -0.624986, 1.07059, -0.256678, 0.0149903, 0.00867957, -0.0335252, 0.000991101, -0.000322833, 0.00439592, 0.000831998, 0.511544, 15.8624, 17.2925, 14.5712, 0.680419, 3.41006, -0.0878186, 0.000861021, -0.00183506, -0.000782402, -0.00183991, -0.00197738, 0.000737883, 0.0117071, 0.00198047, 0.0176481, 0.0333793, 0.0436687, 0.0828971, -0.0107311, -0.445003, 0.63423, -3.13002, -0.0566025, -0.110386, -0.00999461, -0.443146, 0.635085, -3.13199, -0.0558171, -0.107401, 0.0125483, -0.00893455, -0.0258904, -0.000434188, -0.00755762, -0.00909772
0.105092, 0.108091, -0.773575, -0.916655, -1.45608, -0.624987, 1.07059, -0.256685, 0.0135069, 0.00973028, -0.0346324, 0.00242412, -0.000452581, 0.00331769, -0.00185282, 0.551216, 15.8624, 17.2925, 14.4958, 0.686827, 3.41006, -0.0228162, 0.000847342, -0.00183529, -0.000800589, -0.00188059, -0.00203993, 0.0007667, 0.0130607, 0.00211199, 0.0183023, 0.0337769, 0.0451978, 0.0843821, -0.0107184, -0.445012, 0.634204, -3.12996, -0.0566361, -0.110479, -0.00999694, -0.443156, 0.635077, -3.13198, -0.0558046, -0.107398, 0.0128186, -0.00911087, -0.0264151, -0.00156501, -0.00765905, -0.00906509
0.106092, 0.108108, -0.773568, -0.916693, -1.45608, -0.624982, 1.0706, -0.256678, 0.0156943, 0.00732612, -0.0353096, 0.000688172, 0.000139089, 0.00716418, 0.000222854, 0.586922, 15.8624, 17.2925, 14.5355, 0.674925, 3.41006, -0.0621838, 0.000835845, -0.00183711, -0.000816464, -0.00191304, -0.00210605, 0.00080405, 0.012389, 0.00153913, 0.0183089, 0.0361191, 0.0423246, 0.0870932, -0.0107055, -0.445021, 0.634177, -3.1299, -0.0566704, -0.110573, -0.00999673, -0.443164, 0.635065, -3.13195, -0.0557799, -0.10739, 0.0130915, -0.00928833, -0.0269437, -0.000603176, -0.0083863, -0.00954502
0.107092, 0.108129, -0.773563, -0.916732, -1.45608, -0.624985, 1.07061, -0.256677, 0.0149732, 0.00458552, -0.0422616, 0.0022221, -0.000110725, 0.00616225, 0.00109801, 0.586922, 15.9021, 17.2925, 14.4601, 0.680419, 3.38901, -0.0878186, 0.000823446, -0.00183749, -0.000834612, -0.00195393, -0.00217358, 0.000836904, 0.0164856, 0.000400802, 0.0171919, 0.0326103, 0.0403368, 0.0812483, -0.0106922, -0.44503, 0.63415, -3.12984, -0.0567054, -0.110669, -0.00999726, -0.443173, 0.635055, -3.13194, -0.0557626, -0.107383, 0.0133669, -0.00946692, -0.0274763, -0.00429234, -0.00983885, -0.0114915
0.108092, 0.108151, -0.77355, -0.916774, -1.45608, -0.624986, 1.07061, -0.256677, 0.0184528, 0.00529234, -0.0411556, -0.00136791, -0.000311175, 0.00378295, -0.000217425, 0.551216, 15.8267, 17.2925, 14.4601, 0.686827, 3.41006, -0.0621838, 0.000812441, -0.00183862, -0.000850664, -0.00198648, -0.00225315, 0.000868731, 0.0141577, 0.00136567, 0.0166694, 0.0301844, 0.0454558, 0.0905817, -0.0106787, -0.44504, 0.634122, -3.12978, -0.056741, -0.110767, -0.009996, -0.443182, 0.635043, -3.13191, -0.0557479, -0.107359, 0.0136449, -0.00964662, -0.0280126, -0.00169314, -0.0089667, -0.0123775
0.109092, 0.10817, -0.773544, -0.916811, -1.45608, -0.624986, 1.07062, -0.256682, 0.0192971, 0.00304708, -0.0385643, -0.00114934, -0.00020745, 0.00310034, -0.00184037, 0.586922, 15.8624, 17.2172, 14.4601, 0.686827, 3.40365, -0.0164075, 0.000800677, -0.00184075, -0.000868587, -0.00202486, -0.0023263, 0.00089445, 0.0139647, 0.0021167, 0.0178604, 0.0321534, 0.0439831, 0.0969447, -0.0106649, -0.44505, 0.634094, -3.12971, -0.0567774, -0.110867, -0.00999539, -0.443191, 0.635032, -3.13189, -0.0557431, -0.107346, 0.0139255, -0.00982742, -0.0285528, -0.00133266, -0.00840411, -0.011711
0.110092, 0.108187, -0.77353, -0.916859, -1.45608, -0.624989, 1.07062, -0.256674, 0.0159068, 0.00708403, -0.0423988, -0.000944276, -0.000816469, 0.00232265, 0.00118059, 0.6623, 15.791, 17.2529, 14.4601, 0.705138, 3.40365, -0.0814099, 0.000785605, -0.00184087, -0.000884523, -0.00205861, -0.00241008, 0.000945273, 0.0159486, 0.00180745, 0.0175813, 0.0309653, 0.0496333, 0.0892037, -0.0106509, -0.44506, 0.634065, -3.12965, -0.0568144, -0.110969, -0.00999759, -0.443201, 0.635018, -3.13186, -0.0557003, -0.107319, 0.0142086, -0.0100093, -0.0290967, -0.00299732, -0.00896471, -0.0126775
0.111092, 0.108214, -0.773523, -0.916904, -1.45608, -0.624987, 1.07062, -0.256674, 0.0184236, 0.00434636, -0.0444724, 0.000164965, -0.000103503, 0.00150289, 0.00078706, 0.6623, 15.8267, 17.2529, 14.4205, 0.693236, 3.41006, -0.0814099, 0.000773311, -0.00184171, -0.00090232, -0.00209408, -0.00248336, 0.000976969, 0.0167553, 0.00164024, 0.0176482, 0.0298963, 0.0469295, 0.0923122, -0.0106365, -0.44507, 0.634036, -3.12958, -0.0568522, -0.111073, -0.00999689, -0.443211, 0.635006, -3.13184, -0.0556878, -0.10731, 0.0144943, -0.0101922, -0.0296444, -0.00351548, -0.00934594, -0.0132182
0.112092, 0.108214, -0.773523, -0.916904, -1.45608, -0.624987, 1.07062, -0.256674, 0.0184236, 0.00434636, -0.0444724, 0.000164965, -0.000103503, 0.00150289, 0.00078706, 0.6623, 15.8267, 17.2529, 14.4205, 0.693236, 3.41006, -0.0814099, 0.000761324, -0.00185281, -0.000932917, -0.00215679, -0.00255337, 0.00100038, 0.0169954, 0.00184073, 0.0182176, 0.0309475, 0.0476968, 0.0943338, -0.0106219, -0.44508, 0.634006, -3.12951, -0.0568906, -0.111178, -0.00999689, -0.443211, 0.635006, -3.13184, -0.0556878, -0.10731, 0.0147825, -0.0103762, -0.0301957, -0.00351548, -0.00934594, -0.0132182
0.113092, 0.108214, -0.773523, -0.916904, -1.45608, -0.624987, 1.07062, -0.256674, 0.0184236, 0.00434636, -0.0444724, 0.000164965, -0.000103503, 0.00150289, 0.00078706, 0.6623, 15.8267, 17.2529, 14.4205, 0.693236, 3.41006, -0.0814099, 0.0007491, -0.00186412, -0.000964082, -0.00222063, -0.00262467, 0.00102422, 0.0172377, 0.00204248, 0.0187908, 0.0320047, 0.0484693, 0.0963688, -0.010607, -0.44509, 0.633975, -3.12945, -0.0569298, -0.111286, -0.00999689, -0.443211, 0.635006, -3.13184, -0.0556878, -0.10731, 0.0150731, -0.0105613, -0.0307507, -0.00351548, -0.00934594, -0.0132182
0.114092, 0.108214, -0.773523, -0.916904, -1.45608, -0.624987, 1.07062, -0.256674, 0.0184236, 0.00434636, -0.0444724, 0.000164965, -0.000103503, 0.00150289, 0.00078706, 0.6623, 15.8267, 17.2529, 14.4205, 0.693236, 3.41006, -0.0814099, 0.000736639, -0.00187563, -0.000995818, -0.0022856, -0.00269728, 0.0010485, 0.017482, 0.00224549, 0.0193678, 0.0330677, 0.0492469, 0.0984169, -0.0105917, -0.445101, 0.633944, -3.12938, -0.0569696, -0.111396, -0.00999689, -0.443211, 0.635006, -3.13184, -0.0556878, -0.10731, 0.0153663, -0.0107473, -0.0313093, -0.00351548, -0.00934594, -0.0132182
0.115092, 0.108308, -0.773491, -0.9171, -1.45608, -0.624988, 1.07064, -0.256674, 0.01889, 0.00516067, -0.0454406, 0.000530832, -0.000388414, 0.00247483, 0.00076959, 0.813057, 15.9021, 17.1775, 14.3094, 0.711547, 3.41006, -0.0814099, 0.000712761, -0.00184531, -0.000972464, -0.00223253, -0.00280653, 0.00113004, 0.0176159, 0.00203828, 0.0198864, 0.0347138, 0.0503844, 0.0998936, -0.0105762, -0.445112, 0.633913, -3.1293, -0.0570102, -0.111507, -0.0100025, -0.443253, 0.634949, -3.13172, -0.0556042, -0.107247, 0.015662, -0.0109343, -0.0318714, -0.00338375, -0.00975235, -0.0132757
0.116092, 0.108341, -0.773478, -0.917149, -1.45608, -0.62499, 1.07064, -0.256678, 0.0215181, 0.00803695, -0.0458585, 0.00102352, -0.000496302, 0.00210156, -0.000707643, 0.777352, 15.8624, 17.1418, 14.2737, 0.717955, 3.40365, -0.0484509, 0.000702464, -0.00184675, -0.000991018, -0.00226841, -0.00289772, 0.00115657, 0.0161259, 0.0021829, 0.0204916, 0.0355441, 0.0540324, 0.105435, -0.0105604, -0.445123, 0.63388, -3.12923, -0.0570515, -0.111621, -0.00999849, -0.443263, 0.634935, -3.13169, -0.0556034, -0.10722, 0.0159602, -0.0111224, -0.0324371, -0.0016501, -0.0097507, -0.0131314
0.117092, 0.10837, -0.773471, -0.917207, -1.45608, -0.62499, 1.07064, -0.25668, 0.0224706, 0.00510763, -0.047871, -0.00027706, -0.000330868, 0.00156177, -0.00118384, 0.777352, 15.9021, 17.1775, 14.3094, 0.717955, 3.40365, -0.0292249, 0.000686671, -0.00184656, -0.00100667, -0.00229896, -0.00298481, 0.0011934, 0.0172531, 0.00210626, 0.0199289, 0.0337798, 0.052999, 0.108162, -0.0105443, -0.445134, 0.633848, -3.12916, -0.0570936, -0.111737, -0.00999936, -0.443275, 0.634917, -3.13165, -0.0555875, -0.107201, 0.0162609, -0.0113113, -0.0330063, -0.0024317, -0.0100525, -0.0143443
0.118092, 0.108394, -0.773456, -0.917264, -1.45608, -0.624989, 1.07064, -0.256674, 0.0205952, 0.00801183, -0.053664, 0.00055737, 0.000254139, 0.001433, 0.00114355, 0.888436, 15.8624, 17.1418, 14.2737, 0.705138, 3.39633, -0.0814099, 0.000669734, -0.00184731, -0.00102538, -0.00233385, -0.00307652, 0.00124563, 0.0193909, 0.00134234, 0.0192877, 0.0315735, 0.0560177, 0.101489, -0.0105279, -0.445146, 0.633814, -3.12908, -0.0571363, -0.111854, -0.0100013, -0.443287, 0.634901, -3.13162, -0.0555483, -0.107177, 0.016564, -0.0115013, -0.033579, -0.00418712, -0.0110776, -0.0157174
0.119092, 0.10843, -0.773449, -0.917324, -1.45608, -0.62499, 1.07065, -0.256679, 0.0228448, 0.011392, -0.0528268, 0.00122974, -0.000305292, 0.00104574, -0.000933051, 0.85273, 15.9021, 17.1418, 14.234, 0.717955, 3.39633, -0.0356336, 0.000654923, -0.00184654, -0.00104265, -0.00236785, -0.00316518, 0.00127776, 0.0176432, 0.00169541, 0.020343, 0.03358, 0.0603572, 0.107937, -0.0105112, -0.445157, 0.633781, -3.12901, -0.0571798, -0.111974, -0.0100007, -0.4433, 0.634884, -3.13158, -0.055541, -0.10716, 0.0168696, -0.0116921, -0.034155, -0.00222911, -0.0108664, -0.0151141
0.120092, 0.10846, -0.773434, -0.917381, -1.45608, -0.624991, 1.07065, -0.256681, 0.0266195, 0.0127752, -0.0535295, 0.000767437, -0.000644337, 0.00103624, -0.00133411, 0.85273, 15.8624, 17.0664, 14.234, 0.729857, 3.38901, -0.0164075, 0.000640158, -0.00184779, -0.0010609, -0.00240085, -0.00326541, 0.00131633, 0.0160113, 0.00169235, 0.0205321, 0.0339437, 0.0631709, 0.113759, -0.0104942, -0.445169, 0.633746, -3.12893, -0.0572241, -0.112096, -0.00999991, -0.443311, 0.634866, -3.13155, -0.0555246, -0.107127, 0.0171776, -0.0118839, -0.0347344, -0.00030934, -0.0110064, -0.0153894
0.121092, 0.108491, -0.773419, -0.917447, -1.45609, -0.624987, 1.07065, -0.256676, 0.0277133, 0.010381, -0.0591557, -0.00045569, 1.12513e-05, 0.00101295, 0.000806014, 0.928108, 15.8267, 17.0664, 14.2737, 0.717955, 3.38168, -0.0621838, 0.000625094, -0.00184779, -0.00107647, -0.00242859, -0.00336381, 0.00136378, 0.0179537, 0.000884164, 0.019045, 0.0301769, 0.0621697, 0.111498, -0.0104768, -0.445181, 0.633711, -3.12885, -0.0572691, -0.112219, -0.00999885, -0.443324, 0.634846, -3.1315, -0.0554954, -0.107098, 0.017488, -0.0120766, -0.0353172, -0.00180046, -0.0120618, -0.0176033
0.122092, 0.108532, -0.773408, -0.917506, -1.45608, -0.624992, 1.07065, -0.256675, 0.032196, 0.0139763, -0.0585309, 0.00226519, -0.000874118, -0.00010036, 0.00101206, 0.85273, 15.8267, 16.995, 14.1626, 0.741759, 3.40365, -0.0750012, 0.000610479, -0.00184805, -0.00109653, -0.00246587, -0.00346189, 0.00140275, 0.015794, 0.00111454, 0.0205508, 0.0325898, 0.0660411, 0.116557, -0.0104592, -0.445193, 0.633676, -3.12877, -0.0573148, -0.112345, -0.00999737, -0.443337, 0.63483, -3.13147, -0.0554797, -0.107072, 0.0178009, -0.0122702, -0.0359033, 0.000547508, -0.0119664, -0.0165319
0.123092, 0.108569, -0.773402, -0.917575, -1.45608, -0.62499, 1.07065, -0.256681, 0.0326932, 0.0140112, -0.0628299, 0.00241604, 9.5423e-05, 0.000775503, -0.00149543, 0.888436, 15.9378, 16.995, 14.1229, 0.723448, 3.38168, -0.0164075, 0.000592158, -0.0018469, -0.0011141, -0.0024979, -0.00355281, 0.00144016, 0.0169631, 0.000424136, 0.0200518, 0.0313055, 0.0658279, 0.118828, -0.0104412, -0.445205, 0.633639, -3.12869, -0.0573613, -0.112473, -0.00999904, -0.443351, 0.63481, -3.13142, -0.0554673, -0.10706, 0.0181163, -0.0124646, -0.0364926, -0.000242915, -0.0128893, -0.0177107
0.124092, 0.108602, -0.773381, -0.917639, -1.45608, -0.624992, 1.07065, -0.25668, 0.0330938, 0.0156184, -0.0639088, 0.00159412, -0.000411103, 0.00504582, -0.000759596, 0.928108, 15.8624, 16.9196, 14.1229, 0.736266, 3.38901, -0.0228162, 0.000578198, -0.00184783, -0.00113176, -0.00252973, -0.00366731, 0.00148355, 0.016387, -0.000327874, 0.0205298, 0.0352727, 0.0670796, 0.12002, -0.0104229, -0.445218, 0.633603, -3.12861, -0.0574085, -0.112603, -0.00999614, -0.443364, 0.63479, -3.13138, -0.0554466, -0.107013, 0.018434, -0.0126599, -0.0370852, 0.000641115, -0.0138229, -0.0177933
0.125092, 0.108642, -0.773371, -0.917713, -1.45609, -0.624989, 1.07065, -0.256673, 0.0310703, 0.0161877, -0.0639041, 0.00188553, 0.000641459, 0.00377819, 0.0019011, 0.928108, 15.9378, 16.9196, 14.0872, 0.711547, 3.38901, -0.0878186, 0.000560518, -0.00184679, -0.00114774, -0.00255578, -0.0037676, 0.00153519, 0.0173617, 0.000288311, 0.0212084, 0.0351901, 0.0681147, 0.117876, -0.0104044, -0.445231, 0.633565, -3.12852, -0.0574565, -0.112735, -0.00999645, -0.443379, 0.634767, -3.13133, -0.055414, -0.106989, 0.0187541, -0.012856, -0.0376809, -8.34392e-05, -0.0134488, -0.0177785
0.126092, 0.108688, -0.773357, -0.917784, -1.45608, -0.624991, 1.07065, -0.256678, 0.0337416, 0.0153842, -0.065107, 0.00301093, -1.31701e-05, 0.00310079, -0.000190661, 0.888436, 15.9378, 16.8442, 14.0118, 0.723448, 3.38168, -0.0484509, 0.000546031, -0.0018451, -0.00116731, -0.00259349, -0.00387011, 0.00157141, 0.0175175, 0.000163689, 0.0216597, 0.0356282, 0.0683351, 0.123018, -0.0103854, -0.445244, 0.633527, -3.12844, -0.0575053, -0.11287, -0.00999348, -0.443394, 0.634748, -3.13129, -0.0554056, -0.106965, 0.0190766, -0.013053, -0.0382798, 5.42975e-05, -0.0137836, -0.0179414
0.127092, 0.108727, -0.77334, -0.917856, -1.45608, -0.624991, 1.07065, -0.256679, 0.0329733, 0.0178558, -0.0679983, 0.000122658, -0.000246139, 0.00257151, -0.000601826, 0.963814, 15.9378, 16.8442, 13.9722, 0.729857, 3.37436, -0.0356336, 0.000529883, -0.00184441, -0.0011854, -0.00262669, -0.00398209, 0.00161594, 0.017815, 0.000142193, 0.0206482, 0.0331593, 0.0740935, 0.124016, -0.0103662, -0.445257, 0.633489, -3.12835, -0.0575548, -0.113006, -0.00999178, -0.443409, 0.634726, -3.13124, -0.0553854, -0.106928, 0.0194015, -0.0132507, -0.0388819, 0.000154473, -0.0140038, -0.0195758
0.128092, 0.108774, -0.773321, -0.917931, -1.45608, -0.624991, 1.07066, -0.256676, 0.0350772, 0.0174538, -0.068982, -0.000361548, -0.000164093, 0.00239775, 0.000582127, 0.928108, 15.9021, 16.8085, 13.8611, 0.729857, 3.36062, -0.0621838, 0.000515608, -0.00184298, -0.00120499, -0.00266197, -0.00409282, 0.0016619, 0.017502, 0.000177113, 0.0207515, 0.0330313, 0.0749423, 0.126682, -0.0103466, -0.44527, 0.633449, -3.12826, -0.0576051, -0.113144, -0.00998798, -0.443424, 0.634706, -3.1312, -0.0553637, -0.106895, 0.0197288, -0.0134493, -0.039487, 0.000783277, -0.0141596, -0.0200566
0.129092, 0.108816, -0.773309, -0.918004, -1.45609, -0.624989, 1.07066, -0.256674, 0.0380782, 0.0146222, -0.0707611, -0.0015819, 0.000568773, 0.00172959, 0.00110016, 0.963814, 15.9735, 16.6935, 13.9008, 0.711547, 3.36062, -0.0814099, 0.000499402, -0.00184324, -0.00122229, -0.00269122, -0.00420306, 0.00170489, 0.017564, 0.000190007, 0.0202476, 0.0310247, 0.0736525, 0.131007, -0.0103267, -0.445284, 0.63341, -3.12817, -0.0576562, -0.113285, -0.00998568, -0.443439, 0.634682, -3.13115, -0.0553475, -0.106865, 0.0200585, -0.0136486, -0.0400951, 0.00108524, -0.0143445, -0.0211734
0.130092, 0.108816, -0.773309, -0.918004, -1.45609, -0.624989, 1.07066, -0.256674, 0.0380782, 0.0146222, -0.0707611, -0.0015819, 0.000568773, 0.00172959, 0.00110016, 0.963814, 15.9735, 16.6935, 13.9008, 0.711547, 3.36062, -0.0814099, 0.000482852, -0.00185821, -0.00126367, -0.00277515, -0.00429763, 0.00173656, 0.0178414, 0.000410413, 0.0208803, 0.0321684, 0.0745058, 0.133246, -0.0103065, -0.445298, 0.633369, -3.12808, -0.0577081, -0.113428, -0.00998568, -0.443439, 0.634682, -3.13115, -0.0553475, -0.106865, 0.0203905, -0.0138487, -0.0407063, 0.00108524, -0.0143445, -0.0211734
0.131092, 0.108905, -0.773272, -0.918171, -1.45609, -0.624991, 1.07066, -0.256677, 0.0408504, 0.0160135, -0.0815613, -0.00149065, -0.000108902, 0.0013601, 0.00387841, 1.07887, 15.9735, 16.6935, 13.7857, 0.723448, 3.34598, -0.0557752, 0.000463518, -0.00183854, -0.00125711, -0.00275337, -0.00443882, 0.00180429, 0.0201554, -0.0015198, 0.0184221, 0.0263088, 0.077904, 0.126855, -0.010286, -0.445311, 0.633328, -3.12799, -0.0577607, -0.113573, -0.00998338, -0.443473, 0.634633, -3.13104, -0.0552968, -0.106787, 0.0207248, -0.0140495, -0.0413204, -0.000638935, -0.0165306, -0.0244278
0.132092, 0.108961, -0.773248, -0.918255, -1.45609, -0.624991, 1.07066, -0.256678, 0.0441221, 0.0161501, -0.0824979, -0.00134653, -0.00030996, 0.00096204, 0.00260904, 1.03919, 15.9378, 16.6578, 13.7857, 0.729857, 3.34598, -0.0484509, 0.000451512, -0.00183738, -0.00127324, -0.00277888, -0.00456889, 0.00184272, 0.0193651, -0.0015204, 0.0187066, 0.0264651, 0.0792388, 0.132757, -0.0102651, -0.445326, 0.633287, -3.1279, -0.0578142, -0.11372, -0.00997577, -0.443489, 0.634607, -3.13098, -0.0552905, -0.106732, 0.0210615, -0.0142511, -0.0419374, 0.000463305, -0.0167097, -0.0247059
0.133092, 0.109014, -0.773227, -0.918343, -1.45609, -0.624991, 1.07066, -0.256675, 0.0456879, 0.01521, -0.0831909, -0.000327038, 3.07189e-05, 0.000682838, 0.00294373, 1.03919, 15.9378, 16.6221, 13.75, 0.723448, 3.34598, -0.0750012, 0.000436726, -0.00183471, -0.00129051, -0.00280863, -0.0046931, 0.00189147, 0.019641, -0.00146458, 0.0193565, 0.0271808, 0.0784361, 0.135367, -0.0102438, -0.44534, 0.633244, -3.1278, -0.0578684, -0.113869, -0.00997062, -0.443507, 0.634581, -3.13093, -0.0552687, -0.106689, 0.0214005, -0.0144534, -0.0425574, 0.000476637, -0.0168767, -0.0246994
0.134092, 0.109058, -0.773204, -0.918437, -1.45609, -0.624987, 1.07066, -0.256681, 0.0473745, 0.0185345, -0.0885432, -0.00149755, 0.00022393, 0.000757601, -4.18844e-05, 1.15424, 15.9021, 16.6578, 13.6746, 0.717955, 3.33865, -0.0164075, 0.000415764, -0.00183174, -0.0013072, -0.00283473, -0.00481705, 0.00194502, 0.0196138, -0.0021684, 0.0182034, 0.0243371, 0.0834645, 0.138905, -0.0102223, -0.445355, 0.633201, -3.12771, -0.0579234, -0.114021, -0.00997125, -0.443525, 0.634554, -3.13087, -0.0552404, -0.106648, 0.0217418, -0.0146563, -0.0431802, 0.000953398, -0.0177699, -0.0264794
0.135092, 0.109112, -0.773188, -0.918519, -1.4561, -0.624988, 1.07067, -0.256675, 0.0483273, 0.0152337, -0.0850931, -0.00348519, -0.000528882, 0.000799666, 0.00104584, 1.15424, 15.9735, 16.511, 13.6389, 0.736266, 3.33133, -0.0420422, 0.000400969, -0.00183017, -0.0013267, -0.00287141, -0.00494049, 0.00199317, 0.0191021, -0.00134249, 0.019073, 0.0266782, 0.0827505, 0.144356, -0.0102004, -0.445369, 0.633158, -3.12761, -0.0579792, -0.114174, -0.00996564, -0.443543, 0.634529, -3.13082, -0.0552209, -0.106611, 0.0220854, -0.01486, -0.0438058, 0.00171137, -0.0171429, -0.0261945
0.136092, 0.10916, -0.77316, -0.918613, -1.4561, -0.62499, 1.07066, -0.256675, 0.0472738, 0.0195287, -0.0850379, -0.00285753, -0.000115229, 8.07433e-06, 0.00153646, 1.22962, 15.9021, 16.4713, 13.6389, 0.729857, 3.34598, -0.0621838, 0.000382215, -0.00182824, -0.00134317, -0.00289616, -0.00508165, 0.00205001, 0.0186658, -0.000827407, 0.0200499, 0.0277628, 0.0875839, 0.145013, -0.0101781, -0.445384, 0.633114, -3.12751, -0.0580358, -0.11433, -0.00996341, -0.443561, 0.6345, -3.13075, -0.0551893, -0.106547, 0.0224314, -0.0150643, -0.0444342, 0.00240008, -0.0168315, -0.0258138
0.137092, 0.109217, -0.773141, -0.918711, -1.4561, -0.62499, 1.07067, -0.256676, 0.0523877, 0.0200711, -0.0909848, -0.00137755, 0.00016054, 1.85067e-05, 0.00109424, 1.18995, 15.9378, 16.5467, 13.5992, 0.723448, 3.34598, -0.0621838, 0.000364289, -0.00182455, -0.00135982, -0.00292425, -0.00521173, 0.0021005, 0.0187074, -0.00193682, 0.0193342, 0.0255026, 0.0881474, 0.147696, -0.0101555, -0.445399, 0.633069, -3.12741, -0.0580933, -0.114488, -0.00995996, -0.44358, 0.63447, -3.13069, -0.0551682, -0.106503, 0.0227796, -0.0152693, -0.0450654, 0.00279876, -0.0181399, -0.0271753
0.138092, 0.109268, -0.773119, -0.918805, -1.45611, -0.624989, 1.07067, -0.256682, 0.0492168, 0.0205671, -0.0925616, 0.000451654, -0.000367691, -0.000520354, -0.00115084, 1.305, 15.9735, 16.511, 13.5278, 0.736266, 3.36062, -0.00999879, 0.000344439, -0.00182259, -0.00137851, -0.00295354, -0.00534455, 0.00215052, 0.0212996, -0.00199096, 0.0201802, 0.0267167, 0.0890614, 0.146698, -0.0101325, -0.445415, 0.633024, -3.12731, -0.0581515, -0.114649, -0.0099583, -0.443599, 0.634442, -3.13063, -0.0551486, -0.106457, 0.0231301, -0.0154749, -0.0456993, 0.000504439, -0.0185082, -0.0271586
0.139092, 0.109326, -0.773093, -0.918901, -1.45611, -0.624992, 1.07067, -0.256673, 0.0529751, 0.0226351, -0.0946515, 7.57922e-05, -0.000448578, -6.82532e-05, 0.00120489, 1.305, 15.9378, 16.511, 13.5278, 0.741759, 3.3533, -0.0621838, 0.000328019, -0.00181972, -0.00139642, -0.00298441, -0.00548689, 0.00221061, 0.0198728, -0.00228778, 0.0201285, 0.0266645, 0.092224, 0.148968, -0.0101092, -0.44543, 0.632978, -3.12721, -0.0582105, -0.114811, -0.00995278, -0.443618, 0.634413, -3.13056, -0.0551143, -0.106399, 0.0234829, -0.0156811, -0.0463358, 0.00229228, -0.0189607, -0.0277476
0.140092, 0.109381, -0.773071, -0.918996, -1.45611, -0.624991, 1.07066, -0.256673, 0.0516655, 0.0224112, -0.0953068, 0.00164478, 0.000141757, -0.000819859, 0.00154484, 1.34071, 15.9735, 16.4713, 13.4525, 0.729857, 3.37436, -0.0814099, 0.000308916, -0.00181802, -0.00141604, -0.00301469, -0.00562403, 0.00226459, 0.0213168, -0.00204453, 0.021055, 0.0274775, 0.0918294, 0.148636, -0.0100856, -0.445446, 0.632931, -3.1271, -0.0582704, -0.114976, -0.00994976, -0.443637, 0.634385, -3.1305, -0.0550902, -0.106351, 0.0238379, -0.015888, -0.046975, 0.00112938, -0.0189925, -0.0275692
0.141092, 0.109436, -0.77305, -0.919098, -1.45611, -0.62499, 1.07067, -0.256675, 0.0537863, 0.0222383, -0.0974149, 0.000969785, -0.000583664, 0.000237473, -0.000643399, 1.38038, 16.0092, 16.511, 13.4525, 0.748168, 3.3533, -0.0356336, 0.000288172, -0.00181475, -0.00143386, -0.00304407, -0.00576114, 0.0023196, 0.0213051, -0.00251445, 0.0209388, 0.0279992, 0.093137, 0.153675, -0.0100616, -0.445462, 0.632884, -3.127, -0.0583311, -0.115144, -0.00994784, -0.443657, 0.634354, -3.13043, -0.0550654, -0.106305, 0.0241952, -0.0160954, -0.0476168, 0.00152261, -0.0196704, -0.0283338
0.142092, 0.109496, -0.773023, -0.919194, -1.45613, -0.624988, 1.07067, -0.256677, 0.0571885, 0.0207957, -0.0966392, -0.00121177, -0.00015175, 0.00016143, -0.00112441, 1.34071, 15.9735, 16.4713, 13.5278, 0.741759, 3.3533, -0.0164075, 0.000274633, -0.00181369, -0.00145158, -0.00307196, -0.0059112, 0.00236295, 0.0197648, -0.0020569, 0.0209887, 0.0278655, 0.0937398, 0.161822, -0.0100372, -0.445478, 0.632836, -3.12689, -0.0583926, -0.115313, -0.00993845, -0.443675, 0.634323, -3.13037, -0.0550598, -0.106242, 0.0245547, -0.0163034, -0.0482612, 0.00339437, -0.0193681, -0.0288126
0.143092, 0.109548, -0.772998, -0.919293, -1.45613, -0.624992, 1.07067, -0.256672, 0.0534603, 0.0218646, -0.0967838, -0.00279143, -0.000338526, -0.000161312, 0.00167034, 1.41608, 15.9735, 16.4356, 13.4882, 0.748168, 3.36062, -0.0814099, 0.000253467, -0.00181104, -0.001472, -0.00310866, -0.00605867, 0.00242882, 0.0211826, -0.00159356, 0.0212664, 0.028241, 0.0970208, 0.158273, -0.0100124, -0.445495, 0.632787, -3.12678, -0.0584549, -0.115485, -0.00993646, -0.443696, 0.634293, -3.1303, -0.0550196, -0.106185, 0.0249165, -0.016512, -0.0489081, 0.00230324, -0.0191726, -0.0292851
0.144092, 0.109606, -0.772977, -0.919392, -1.45614, -0.624987, 1.07067, -0.256669, 0.052885, 0.0209906, -0.0968521, -0.00215112, 0.000689844, -0.000105789, 0.00163152, 1.41608, 16.0489, 16.3959, 13.4882, 0.723448, 3.36062, -0.0951428, 0.000234811, -0.0018097, -0.00149157, -0.00313897, -0.00619882, 0.00248405, 0.0219541, -0.00130702, 0.0221084, 0.0293265, 0.0958418, 0.160227, -0.00998734, -0.445511, 0.632738, -3.12667, -0.058518, -0.115659, -0.00993159, -0.443715, 0.634262, -3.13023, -0.054997, -0.106141, 0.0252805, -0.0167211, -0.0495576, 0.0018235, -0.0191384, -0.0291518
0.145092, 0.109666, -0.772954, -0.919499, -1.45613, -0.624988, 1.07067, -0.256677, 0.0563928, 0.0221998, -0.102886, -0.00268924, -1.48222e-05, -6.92123e-05, -0.00182144, 1.38038, 16.0489, 16.4713, 13.4128, 0.736266, 3.36062, -0.0164075, 0.000212201, -0.00180662, -0.00151141, -0.00316842, -0.00634565, 0.0025384, 0.0223214, -0.0023621, 0.0208529, 0.0265181, 0.0991427, 0.164881, -0.00996188, -0.445528, 0.632688, -3.12656, -0.058582, -0.115835, -0.00993026, -0.443736, 0.634231, -3.13016, -0.0549767, -0.106089, 0.0256467, -0.0169307, -0.0502094, 0.00195392, -0.0204018, -0.0310974
0.146092, 0.109721, -0.772926, -0.919596, -1.45614, -0.624987, 1.07067, -0.256673, 0.05687, 0.0207995, -0.099419, -0.00311746, -9.88144e-06, 0.000497379, -2.22505e-05, 1.41608, 16.0092, 16.3602, 13.4525, 0.736266, 3.34598, -0.0484509, 0.000194719, -0.00180557, -0.00153301, -0.00320706, -0.00649964, 0.00259651, 0.0215729, -0.00157228, 0.0223627, 0.0300751, 0.0985106, 0.168824, -0.00993605, -0.445545, 0.632638, -3.12645, -0.0586468, -0.116014, -0.00992367, -0.443755, 0.634201, -3.1301, -0.0549511, -0.106029, 0.0260151, -0.0171409, -0.0508638, 0.00292477, -0.019819, -0.0301849
0.147092, 0.109786, -0.772905, -0.919705, -1.45615, -0.624988, 1.07067, -0.256673, 0.060242, 0.0219366, -0.102121, -0.00521608, -0.000210038, 0.000332325, 0.000972449, 1.34071, 16.0092, 16.3245, 13.4525, 0.741759, 3.34598, -0.0750012, 0.00017357, -0.00180275, -0.00155201, -0.00323505, -0.00665026, 0.00265337, 0.0205479, -0.00178841, 0.0215562, 0.0281626, 0.102328, 0.172496, -0.00990985, -0.445562, 0.632586, -3.12633, -0.0587125, -0.116195, -0.00992011, -0.443776, 0.634167, -3.13002, -0.0549287, -0.105976, 0.0263857, -0.0173516, -0.0515205, 0.00438243, -0.0201998, -0.0315749
0.148092, 0.109849, -0.772884, -0.919814, -1.45615, -0.624991, 1.07067, -0.256675, 0.0615233, 0.021745, -0.104025, -0.00393718, -0.000140025, 0.000222104, 0.000413894, 1.305, 16.0489, 16.2848, 13.4525, 0.741759, 3.34598, -0.0685925, 0.000151248, -0.00179973, -0.00157146, -0.00326625, -0.00680478, 0.00271171, 0.0212307, -0.00200671, 0.022038, 0.028636, 0.102339, 0.174665, -0.00988328, -0.44558, 0.632535, -3.12622, -0.058779, -0.116378, -0.00991738, -0.443798, 0.634133, -3.12995, -0.0549049, -0.10592, 0.0267585, -0.0175627, -0.0521796, 0.00404515, -0.0206643, -0.0318098
0.149092, 0.109912, -0.772862, -0.919922, -1.45616, -0.624992, 1.07067, -0.256678, 0.0592695, 0.0218892, -0.103731, -0.00296963, 0.0001101, 0.000148485, -0.00165464, 1.26533, 16.0846, 16.1738, 13.4525, 0.736266, 3.34598, -0.0164075, 0.000130522, -0.00179675, -0.00159194, -0.00330095, -0.00695856, 0.00276671, 0.0225602, -0.00166305, 0.0231767, 0.0305742, 0.102608, 0.176749, -0.00985633, -0.445598, 0.632482, -3.1261, -0.0588463, -0.116563, -0.00991277, -0.44382, 0.6341, -3.12988, -0.0548869, -0.105867, 0.0271335, -0.0177744, -0.052841, 0.00299545, -0.0206013, -0.0314342
0.150092, 0.109977, -0.772833, -0.920047, -1.45616, -0.624987, 1.07067, -0.256676, 0.0607887, 0.0254865, -0.108186, -0.00411016, 0.000548118, 0.000370569, -0.00086407, 1.22962, 15.9735, 16.2491, 13.4128, 0.723448, 3.33865, -0.0228162, 0.000107122, -0.00179146, -0.00160931, -0.00332504, -0.00711628, 0.00283683, 0.0222121, -0.00216765, 0.0223596, 0.0284464, 0.107648, 0.177267, -0.00982901, -0.445615, 0.632429, -3.12598, -0.0589145, -0.116751, -0.00991013, -0.443844, 0.634062, -3.1298, -0.0548467, -0.105809, 0.0275107, -0.0179865, -0.0535047, 0.00379703, -0.0212966, -0.0328956
0.151092, 0.110042, -0.772803, -0.920167, -1.45617, -0.624988, 1.07067, -0.256673, 0.0651265, 0.0238291, -0.111589, -0.00767545, -0.000312756, -2.39874e-05, 0.000374635, 1.18995, 15.9021, 16.2095, 13.4882, 0.741759, 3.34598, -0.0484509, 8.45206e-05, -0.00178826, -0.00162578, -0.00334658, -0.00728761, 0.00290495, 0.0216977, -0.00254911, 0.0207654, 0.0250931, 0.110307, 0.181595, -0.00980131, -0.445634, 0.632375, -3.12586, -0.0589835, -0.116942, -0.00990635, -0.443867, 0.634023, -3.12971, -0.0548108, -0.105732, 0.02789, -0.018199, -0.0541706, 0.00481982, -0.0218516, -0.0351204
0.152092, 0.110102, -0.772786, -0.920284, -1.45618, -0.624987, 1.07067, -0.256674, 0.0666176, 0.0222573, -0.111237, -0.00483095, -5.05373e-06, 0.000255451, -0.000224027, 1.22962, 15.9735, 16.1738, 13.4525, 0.736266, 3.33865, -0.0356336, 5.69651e-05, -0.00178425, -0.00164646, -0.0033801, -0.00743921, 0.00297368, 0.0222174, -0.00250176, 0.0223503, 0.0280212, 0.107463, 0.185093, -0.00977323, -0.445652, 0.63232, -3.12574, -0.0590534, -0.117134, -0.0099074, -0.443891, 0.633987, -3.12964, -0.0547741, -0.10569, 0.0282715, -0.018412, -0.0548388, 0.00456119, -0.0220629, -0.03425
0.153092, 0.11017, -0.772763, -0.9204, -1.45618, -0.624985, 1.07067, -0.256678, 0.0665545, 0.0197534, -0.113296, -0.0056212, 0.000912158, 0.000712967, -0.000386009, 1.18995, 15.9735, 16.0984, 13.4128, 0.711547, 3.324, -0.0292249, 3.50485e-05, -0.00178175, -0.00166728, -0.00341043, -0.00759877, 0.00302901, 0.0236039, -0.00264272, 0.0221769, 0.0272877, 0.105601, 0.18692, -0.00974476, -0.44567, 0.632265, -3.12562, -0.0591241, -0.117329, -0.00990254, -0.443913, 0.633951, -3.12955, -0.0547594, -0.105637, 0.0286551, -0.0186253, -0.0555092, 0.00357911, -0.0224698, -0.0352025
0.154092, 0.110232, -0.772731, -0.920526, -1.45619, -0.624986, 1.07067, -0.256671, 0.0677279, 0.0205067, -0.117341, -0.0062553, 0.000167296, 0.000712769, 0.00143861, 1.22962, 15.8624, 16.1381, 13.3771, 0.723448, 3.31759, -0.0750012, 8.71641e-06, -0.00177657, -0.00168712, -0.00344248, -0.00777044, 0.00311353, 0.0245087, -0.00324395, 0.0215332, 0.0258708, 0.108473, 0.185589, -0.00971592, -0.445689, 0.632209, -3.12549, -0.0591957, -0.117527, -0.00990152, -0.443939, 0.633913, -3.12947, -0.0547002, -0.105567, 0.0290408, -0.0188391, -0.0561817, 0.00313212, -0.0233123, -0.0365958
0.155092, 0.110301, -0.772712, -0.920648, -1.4562, -0.624984, 1.07068, -0.256671, 0.0674741, 0.0174043, -0.122684, -0.00929691, 0.000789699, 0.000746521, 0.000722107, 1.18995, 15.9021, 16.1381, 13.4525, 0.705138, 3.31027, -0.0685925, -1.52616e-05, -0.00177316, -0.00170503, -0.00346882, -0.0079338, 0.00317447, 0.0268707, -0.00384858, 0.0196982, 0.0214963, 0.108068, 0.186294, -0.00968668, -0.445708, 0.632153, -3.12537, -0.0592682, -0.117726, -0.0098977, -0.443962, 0.633873, -3.12939, -0.0546787, -0.105513, 0.0294287, -0.0190533, -0.0568564, 0.00132476, -0.0241952, -0.0392894
0.156092, 0.110363, -0.772688, -0.920772, -1.45621, -0.624985, 1.07068, -0.256677, 0.0652132, 0.0170203, -0.121134, -0.0125104, 0.000289107, 0.000497736, -0.00168844, 1.22962, 15.8624, 16.1738, 13.4525, 0.711547, 3.31027, -0.00999879, -4.30498e-05, -0.00176958, -0.00172486, -0.00349878, -0.00810499, 0.00324211, 0.0272759, -0.00306746, 0.0198927, 0.0220531, 0.111159, 0.191502, -0.00965706, -0.445727, 0.632096, -3.12524, -0.0593415, -0.117929, -0.00989743, -0.443987, 0.633834, -3.1293, -0.0546477, -0.105449, 0.0298187, -0.0192678, -0.0575331, 0.00126436, -0.0236508, -0.0397977
0.157092, 0.110429, -0.772668, -0.920901, -1.45622, -0.624986, 1.07068, -0.256676, 0.0678345, 0.0148915, -0.123968, -0.0104206, -0.000248071, 6.05982e-05, -0.000650686, 1.22962, 15.9021, 16.2491, 13.3771, 0.723448, 3.31759, -0.0228162, -7.36382e-05, -0.0017649, -0.00174522, -0.00352864, -0.00827041, 0.00332025, 0.028594, -0.00359685, 0.0202437, 0.0221601, 0.10942, 0.192073, -0.00962704, -0.445747, 0.632038, -3.12511, -0.0594156, -0.118133, -0.00989956, -0.444012, 0.633794, -3.12922, -0.0546011, -0.105397, 0.0302108, -0.0194827, -0.0582119, 0.000334964, -0.024453, -0.0402371
0.158092, 0.110498, -0.772641, -0.921019, -1.45622, -0.624983, 1.07067, -0.256671, 0.066642, 0.0160691, -0.120063, -0.010852, -0.00040274, 0.000582965, 0.0012618, 1.22962, 15.8267, 16.2095, 13.3771, 0.729857, 3.30295, -0.0685925, -9.53415e-05, -0.00176376, -0.00176802, -0.00356225, -0.00844614, 0.00338644, 0.0277132, -0.00262075, 0.0220464, 0.0263699, 0.111514, 0.194581, -0.00959664, -0.445766, 0.631979, -3.12498, -0.0594907, -0.11834, -0.00989278, -0.444034, 0.633757, -3.12913, -0.054574, -0.105331, 0.0306049, -0.019698, -0.0588927, 0.00143121, -0.0236911, -0.0390463
0.159092, 0.110566, -0.772618, -0.921142, -1.45624, -0.624983, 1.07067, -0.25667, 0.0680936, 0.0181169, -0.12215, -0.0109002, 0.000409675, -0.000391227, 0.00456576, 1.26533, 15.8267, 16.2491, 13.3771, 0.711547, 3.324, -0.0420422, -0.000122049, -0.0017617, -0.00178878, -0.00359115, -0.00862281, 0.00345505, 0.0273945, -0.00249873, 0.0220933, 0.0251017, 0.114538, 0.194016, -0.00956583, -0.445786, 0.63192, -3.12485, -0.0595666, -0.11855, -0.00989041, -0.444058, 0.633716, -3.12904, -0.0545442, -0.105265, 0.0310012, -0.0199136, -0.0595756, 0.00213428, -0.0237775, -0.0396611
0.160092, 0.110629, -0.772596, -0.921269, -1.45624, -0.624983, 1.07067, -0.256675, 0.0691103, 0.0174927, -0.127991, -0.00939885, -0.000405052, -2.34416e-05, 0.00248681, 1.305, 15.791, 16.3602, 13.3017, 0.729857, 3.31759, -0.0164075, -0.000152749, -0.00175838, -0.00181187, -0.00362635, -0.00879486, 0.00352877, 0.0297948, -0.00367397, 0.0216044, 0.0239843, 0.114618, 0.193988, -0.00953463, -0.445806, 0.63186, -3.12472, -0.0596434, -0.118761, -0.00989176, -0.444083, 0.633677, -3.12896, -0.0545071, -0.10521, 0.0313996, -0.0201295, -0.0602603, 0.000220899, -0.0252543, -0.0410352
0.161092, 0.110703, -0.772571, -0.921387, -1.45626, -0.624981, 1.07067, -0.256672, 0.0659688, 0.0171274, -0.125392, -0.0107577, -3.26755e-05, 0.000798188, 0.00341025, 1.22962, 15.7513, 16.2848, 13.4525, 0.723448, 3.29562, -0.0557752, -0.000171758, -0.00175757, -0.00183349, -0.00366093, -0.0089781, 0.00358517, 0.0303473, -0.00286924, 0.0227965, 0.026884, 0.115276, 0.195298, -0.00950303, -0.445826, 0.6318, -3.12458, -0.059721, -0.118976, -0.00988105, -0.444105, 0.633637, -3.12887, -0.054498, -0.10514, 0.0318, -0.0203457, -0.060947, -5.29995e-05, -0.02471, -0.0405703
0.162092, 0.110773, -0.772551, -0.921518, -1.45627, -0.624984, 1.07067, -0.25667, 0.0648359, 0.015795, -0.127023, -0.00897996, -2.17837e-05, 0.000260868, 0.00296894, 1.22962, 15.7513, 16.3602, 13.3771, 0.723448, 3.30295, -0.0685925, -0.000202947, -0.00175356, -0.0018559, -0.00369491, -0.00915506, 0.00366384, 0.0325401, -0.0029429, 0.0235458, 0.0275929, 0.114096, 0.194976, -0.00947103, -0.445847, 0.631738, -3.12445, -0.0597996, -0.119192, -0.00988202, -0.444131, 0.633596, -3.12878, -0.0544551, -0.105082, 0.0322025, -0.0205621, -0.0616356, -0.00189189, -0.0250988, -0.0406853
0.163092, 0.110841, -0.772529, -0.92165, -1.45628, -0.624986, 1.07067, -0.256675, 0.0674993, 0.0156626, -0.124205, -0.00945929, -0.000251881, 0.000173919, -0.000533921, 1.22962, 15.7156, 16.3959, 13.3771, 0.729857, 3.30295, 0.00373412, -0.000233268, -0.00175016, -0.00187727, -0.00372702, -0.00933808, 0.00373549, 0.0307825, -0.00220257, 0.0248087, 0.0301928, 0.115395, 0.205941, -0.00943863, -0.445867, 0.631676, -3.12431, -0.059879, -0.119411, -0.00988168, -0.444157, 0.633553, -3.12869, -0.0544242, -0.105016, 0.032607, -0.0207789, -0.062326, 0.000136372, -0.0245342, -0.0399778
0.164092, 0.11091, -0.772508, -0.92179, -1.4563, -0.624987, 1.07068, -0.256673, 0.0660713, 0.0178723, -0.129073, -0.0117694, -0.00040528, 0.000115952, 0.00027684, 1.22962, 15.7156, 16.4713, 13.4525, 0.736266, 3.30295, -0.00999879, -0.000264418, -0.00174521, -0.0018956, -0.00375453, -0.00952406, 0.00381669, 0.0322293, -0.00267356, 0.0235758, 0.0273046, 0.120435, 0.203595, -0.00940582, -0.445888, 0.631614, -3.12417, -0.0599593, -0.119633, -0.00988147, -0.444185, 0.633506, -3.12859, -0.0543796, -0.104948, 0.0330136, -0.0209959, -0.0630183, -0.000789339, -0.0252615, -0.0420216
0.165092, 0.110978, -0.772488, -0.921928, -1.45631, -0.624985, 1.07067, -0.256665, 0.0675242, 0.0164759, -0.129801, -0.0125243, -0.000710996, -0.000193962, 0.00268518, 1.26533, 15.7156, 16.5467, 13.3771, 0.748168, 3.31027, -0.0750012, -0.000298296, -0.00174196, -0.0019174, -0.00378313, -0.00970553, 0.00390658, 0.0325281, -0.00256605, 0.0237388, 0.027335, 0.120959, 0.204852, -0.0093726, -0.445909, 0.63155, -3.12403, -0.0600404, -0.119857, -0.00988392, -0.444211, 0.633462, -3.1285, -0.0543224, -0.10489, 0.0334222, -0.0212132, -0.0637123, -0.000697876, -0.0253899, -0.0425802
0.166092, 0.111053, -0.772466, -0.922061, -1.45633, -0.624985, 1.07068, -0.256669, 0.0712216, 0.01847, -0.128452, -0.0148895, -0.000711356, 0.000141962, 0.000401897, 1.18995, 15.7156, 16.5467, 13.4882, 0.754576, 3.30295, -0.0356336, -0.000323968, -0.00173909, -0.00193712, -0.00381341, -0.00989715, 0.0039678, 0.029674, -0.00202645, 0.0240915, 0.0282857, 0.125307, 0.215583, -0.00933897, -0.445931, 0.631486, -3.12389, -0.0601225, -0.120083, -0.00987764, -0.444237, 0.633416, -3.1284, -0.0543106, -0.104819, 0.0338328, -0.0214307, -0.0644081, 0.00250548, -0.0249708, -0.0427028
0.167092, 0.111118, -0.772444, -0.922195, -1.45634, -0.624984, 1.07067, -0.256675, 0.0697604, 0.0200944, -0.12945, -0.0140825, -0.000236879, 9.4644e-05, -0.000629124, 1.26533, 15.7156, 16.511, 13.3771, 0.748168, 3.30295, -0.00999879, -0.000357656, -0.00173709, -0.00196148, -0.00384792, -0.0100846, 0.00404482, 0.0305758, -0.00187653, 0.0248894, 0.0293229, 0.127094, 0.216739, -0.00930493, -0.445952, 0.631421, -3.12375, -0.0602054, -0.120312, -0.00987934, -0.444262, 0.633373, -3.1283, -0.054275, -0.104756, 0.0342455, -0.0216484, -0.0651057, 0.00194974, -0.0250907, -0.0426776
0.168092, 0.111192, -0.772419, -0.922338, -1.45636, -0.624985, 1.07067, -0.256673, 0.069924, 0.0252751, -0.134096, -0.0133646, -0.000632637, 0.000334365, 0.000806664, 1.18995, 15.6799, 16.6221, 13.3771, 0.760985, 3.29562, -0.0420422, -0.000388516, -0.00173325, -0.00198147, -0.00387601, -0.010283, 0.00412616, 0.0309915, -0.00254221, 0.0247369, 0.028765, 0.133177, 0.21387, -0.00927048, -0.445974, 0.631356, -3.1236, -0.0602893, -0.120544, -0.00987741, -0.44429, 0.633325, -3.1282, -0.0542341, -0.104679, 0.0346601, -0.0218663, -0.0658049, 0.00198485, -0.0259919, -0.0435752
0.169092, 0.111259, -0.772395, -0.922479, -1.45638, -0.624985, 1.07067, -0.256669, 0.0670614, 0.0251598, -0.135685, -0.0148429, -0.000421758, 0.000222911, 0.0020253, 1.22962, 15.6799, 16.6578, 13.3414, 0.760985, 3.29562, -0.0814099, -0.000422507, -0.00173018, -0.00200346, -0.0039072, -0.0104802, 0.00421562, 0.0328274, -0.00238643, 0.0246518, 0.0281859, 0.13496, 0.211985, -0.00923561, -0.445996, 0.63129, -3.12346, -0.060374, -0.120777, -0.00987837, -0.444317, 0.633278, -3.1281, -0.0541813, -0.104606, 0.0350768, -0.0220844, -0.0665058, 0.000569731, -0.0261277, -0.0445066
0.170092, 0.111332, -0.772375, -0.922624, -1.45641, -0.624985, 1.07067, -0.256673, 0.0669726, 0.0234077, -0.137797, -0.0186146, 0.00515473, 0.000148609, -0.0010352, 1.18995, 15.7513, 16.7331, 13.4128, 0.760985, 3.29562, -0.0164075, -0.000454331, -0.00172702, -0.00202107, -0.00392987, -0.0106827, 0.00428849, 0.0325777, -0.00170278, 0.023554, 0.0232866, 0.132588, 0.220498, -0.00920033, -0.446018, 0.631223, -3.12331, -0.0604596, -0.121014, -0.00987643, -0.444344, 0.633226, -3.12799, -0.0541556, -0.104527, 0.0354954, -0.0223027, -0.0672083, 0.00129183, -0.0256401, -0.0462804
0.171092, 0.111409, -0.772349, -0.922762, -1.45642, -0.624987, 1.07068, -0.256669, 0.0707698, 0.0239347, -0.134568, -0.0177438, 0.00321131, 9.90731e-05, 0.000275877, 1.11457, 15.7513, 16.7331, 13.3414, 0.779296, 3.29562, -0.0420422, -0.000482741, -0.00172398, -0.00204497, -0.00396822, -0.0108849, 0.00436627, 0.0306062, -0.00117763, 0.0253523, 0.0277024, 0.134961, 0.226629, -0.00916462, -0.446041, 0.631155, -3.12316, -0.0605461, -0.121253, -0.00987116, -0.444371, 0.633181, -3.1279, -0.0541226, -0.104452, 0.0359161, -0.0225212, -0.0679124, 0.00351411, -0.0252942, -0.0450369
0.172092, 0.11148, -0.772327, -0.922905, -1.45645, -0.624987, 1.07068, -0.25667, 0.0709521, 0.023448, -0.136756, -0.0225154, 0.00271798, 0.000608584, 0.000942333, 1.15424, 15.791, 16.8085, 13.3771, 0.772887, 3.28097, -0.0621838, -0.000514609, -0.00172212, -0.00206456, -0.0039942, -0.0110934, 0.00444389, 0.0308068, -0.00122259, 0.0240308, 0.0254848, 0.138812, 0.229235, -0.00912849, -0.446063, 0.631087, -3.12301, -0.0606336, -0.121494, -0.00986864, -0.444398, 0.633129, -3.12779, -0.0540914, -0.104369, 0.0363387, -0.0227398, -0.068618, 0.00383744, -0.025548, -0.0470817
0.173092, 0.111549, -0.772301, -0.923052, -1.45648, -0.624986, 1.07068, -0.256668, 0.0751672, 0.0199928, -0.137648, -0.0235794, 0.00230415, 0.000643082, 0.000637545, 1.15424, 15.8267, 16.8442, 13.3017, 0.766478, 3.27456, -0.0621838, -0.000548992, -0.00171947, -0.00208607, -0.0040237, -0.0113017, 0.00453205, 0.0304966, -0.00132049, 0.0239298, 0.025222, 0.137466, 0.236, -0.00909194, -0.446086, 0.631018, -3.12286, -0.0607219, -0.121738, -0.00986833, -0.444425, 0.633079, -3.12768, -0.0540447, -0.104289, 0.0367632, -0.0229586, -0.0693252, 0.00457951, -0.0258561, -0.0478722
0.174092, 0.111628, -0.772278, -0.923197, -1.4565, -0.624987, 1.07068, -0.256673, 0.0768988, 0.0174881, -0.139818, -0.0245254, 0.00148985, 0.000191363, -0.00150076, 1.07887, 15.8624, 16.8085, 13.2263, 0.772887, 3.28097, -0.00999879, -0.000579168, -0.00171709, -0.00210729, -0.00405256, -0.0115136, 0.00460194, 0.0315687, -0.0015402, 0.023586, 0.0242026, 0.137571, 0.240888, -0.00905497, -0.446109, 0.630949, -3.12271, -0.0608111, -0.121984, -0.0098634, -0.444452, 0.633028, -3.12757, -0.0540273, -0.104206, 0.0371897, -0.0231774, -0.0700339, 0.00397007, -0.0263346, -0.0490162
0.175092, 0.111697, -0.77225, -0.923354, -1.45653, -0.624983, 1.07068, -0.256667, 0.0746393, 0.0196396, -0.146383, -0.0270554, 0.00113656, 0.000907469, 0.000700159, 1.15424, 15.8624, 16.8442, 13.2263, 0.772887, 3.25992, -0.0557752, -0.000614421, -0.00171353, -0.00212518, -0.0040747, -0.011731, 0.004697, 0.0338919, -0.0024604, 0.021929, 0.0209419, 0.142546, 0.235097, -0.00901756, -0.446132, 0.630878, -3.12255, -0.0609012, -0.122233, -0.00986281, -0.444481, 0.632973, -3.12745, -0.0539722, -0.104115, 0.0376182, -0.0233964, -0.0707441, 0.00224645, -0.027538, -0.0515795
0.176092, 0.111775, -0.772227, -0.923508, -1.45657, -0.624982, 1.07068, -0.256666, 0.0758468, 0.0185213, -0.148176, -0.0298189, 0.000865204, 0.000876247, 0.000708065, 1.11457, 15.9735, 16.8799, 13.266, 0.772887, 3.25259, -0.0621838, -0.000645534, -0.00171006, -0.00214251, -0.00409811, -0.0119491, 0.00477458, 0.0341344, -0.00246571, 0.0212376, 0.0194202, 0.144573, 0.238791, -0.00897973, -0.446156, 0.630807, -3.12239, -0.0609922, -0.122484, -0.00985763, -0.44451, 0.632917, -3.12734, -0.0539451, -0.104027, 0.0380486, -0.0236155, -0.0714557, 0.00248647, -0.0277645, -0.0530057
0.177092, 0.111854, -0.7722, -0.923661, -1.4566, -0.624985, 1.07068, -0.256668, 0.0756616, 0.0204727, -0.14934, -0.0306381, 0.000657426, 0.000855432, -0.00122043, 1.11457, 15.9735, 16.9196, 13.1509, 0.772887, 3.24527, -0.0164075, -0.000678455, -0.00170711, -0.00216289, -0.00412506, -0.0121738, 0.00485569, 0.0342446, -0.00235304, 0.0214799, 0.0197004, 0.148303, 0.242537, -0.00894147, -0.44618, 0.630735, -3.12224, -0.0610841, -0.122738, -0.00985409, -0.444539, 0.632863, -3.12722, -0.0539134, -0.103931, 0.0384809, -0.0238347, -0.0721687, 0.00278285, -0.0278847, -0.0534907
0.178092, 0.111931, -0.772172, -0.923821, -1.45664, -0.624983, 1.07068, -0.256672, 0.0756078, 0.0210625, -0.159737, -0.0317262, 0.000498751, 0.000807647, -0.00132003, 1.11457, 16.0092, 16.995, 13.1509, 0.772887, 3.23886, -0.00267457, -0.000711192, -0.00170409, -0.00217955, -0.00414309, -0.0124025, 0.00493476, 0.0376593, -0.00403344, 0.019003, 0.013758, 0.151223, 0.237688, -0.00890277, -0.446204, 0.630663, -3.12208, -0.061177, -0.122995, -0.00984965, -0.444568, 0.632804, -3.1271, -0.0538864, -0.103831, 0.0389151, -0.0240539, -0.0728831, 7.35092e-05, -0.0298746, -0.0569752
0.179092, 0.112005, -0.77214, -0.923979, -1.45667, -0.624982, 1.07068, -0.256667, 0.0732878, 0.0238368, -0.160352, -0.034524, 0.000377851, 0.00108097, 0.00108833, 1.18995, 15.9378, 16.995, 13.1152, 0.772887, 3.22421, -0.0557752, -0.00074419, -0.00170076, -0.00219882, -0.00417018, -0.0126344, 0.00502715, 0.037839, -0.00366082, 0.018922, 0.0137384, 0.156791, 0.236438, -0.00886363, -0.446228, 0.630589, -3.12192, -0.0612707, -0.123253, -0.00984523, -0.444597, 0.632748, -3.12698, -0.0538392, -0.103729, 0.0393512, -0.0242732, -0.0735988, 0.000319887, -0.029732, -0.0577877
0.180092, 0.112084, -0.772119, -0.92414, -1.45671, -0.624981, 1.07069, -0.256666, 0.077153, 0.024773, -0.163688, -0.0372143, -0.000392255, 0.000991912, 0.00120151, 1.18995, 16.0489, 16.995, 13.1152, 0.791197, 3.21689, -0.0685925, -0.000778803, -0.00169749, -0.00221565, -0.00418984, -0.0128605, 0.00511011, 0.0369149, -0.00403993, 0.0178049, 0.0114027, 0.161338, 0.241219, -0.00882406, -0.446252, 0.630515, -3.12175, -0.0613653, -0.123515, -0.00984181, -0.444627, 0.632688, -3.12685, -0.0538079, -0.103638, 0.0397893, -0.0244926, -0.0743159, 0.00177918, -0.030279, -0.0595581
0.181092, 0.112169, -0.772086, -0.924303, -1.45675, -0.624981, 1.07069, -0.256671, 0.0806125, 0.0260312, -0.161115, -0.0363811, 0.000204816, 0.00120381, -0.000893479, 1.15424, 16.0092, 17.0307, 13.0042, 0.779296, 3.20224, -0.0228162, -0.000809165, -0.00169393, -0.00223398, -0.00421313, -0.0131012, 0.00518617, 0.0345664, -0.0033676, 0.0194745, 0.0145405, 0.162475, 0.251194, -0.00878406, -0.446277, 0.630441, -3.12159, -0.0614609, -0.123779, -0.00983382, -0.444657, 0.632629, -3.12673, -0.0537884, -0.103528, 0.0402292, -0.0247119, -0.0750342, 0.00439781, -0.0297717, -0.0584227
0.182092, 0.112253, -0.772061, -0.924468, -1.4568, -0.624979, 1.07069, -0.256668, 0.0792865, 0.0249518, -0.159081, -0.0386042, 0.000155676, 0.000802539, -0.000594953, 1.15424, 16.0489, 17.0664, 13.0042, 0.779296, 3.20224, -0.0228162, -0.000840944, -0.00169197, -0.00224885, -0.00422476, -0.0133409, 0.00526564, 0.0347883, -0.0024986, 0.020085, 0.0155514, 0.164027, 0.254853, -0.00874361, -0.446302, 0.630365, -3.12142, -0.0615574, -0.124045, -0.00982661, -0.444686, 0.632566, -3.1266, -0.053765, -0.10342, 0.040671, -0.0249313, -0.0757538, 0.00453301, -0.0291478, -0.0585448
0.183092, 0.112334, -0.772035, -0.924632, -1.45684, -0.624983, 1.07069, -0.256665, 0.0796824, 0.0274776, -0.162271, -0.0414885, -0.000560035, 0.000263759, 0.00129931, 1.22962, 16.0846, 17.0307, 12.9288, 0.797606, 3.20956, -0.0685925, -0.000876448, -0.00168854, -0.00226659, -0.00424791, -0.0135834, 0.00535547, 0.0348747, -0.00261693, 0.0190906, 0.0131747, 0.17042, 0.254624, -0.00870271, -0.446327, 0.630289, -3.12126, -0.0616548, -0.124315, -0.00982284, -0.444716, 0.632505, -3.12647, -0.0537261, -0.103311, 0.0411146, -0.0251507, -0.0764746, 0.00497144, -0.0294753, -0.0602725
