alisrour97/Franka_experiments/Real_Robot_scripts/servo-franka/Data4/log_dyn_PIw_ki_0.csv
Time,q1,q2,q3,q4,q5,q6,q7,dq1,dq2,dq3,dq4,dq5,dq6,dq7,t1,t2,t3,t4,t5,t6,t7,ex1,ex2,ex3,ex4,ex5,ex6,ev1,ev2,ev3,ev4,ev5,ev6,xd,yd,zd,uxd,uyd,uzd,x,y,z,ux,uy,uz,vxd,vyd,vzd,vx,vy,vz
2.44141e-07, 0.10773, -0.774093, -0.916037, -1.45641, -0.62529, 1.0702, -0.256724, 0.000364795, 0.000348126, 0.00228538, 0.001914, -0.000667065, -3.0958e-05, 0.000848327, -0.281914, 15.5688, 19.0421, 15.6146, 1.14734, 3.33133, -0.180287, 0.00101851, -0.00170013, 1.98324e-05, -0.000102414, -0.000188469, -6.04048e-05, -0.000469826, 0.000251939, 0.00123297, 0.0028151, -0.000481741, -4.73219e-05, -0.011112, -0.444721, 0.635038, -3.13187, -0.0555627, -0.107532, -0.0101558, -0.442985, 0.635097, -3.13197, -0.0560846, -0.107251, 0, 0, 0, 0.000375056, 0.000257699, 0.00126386
0.0120081, 0.107724, -0.774095, -0.916048, -1.4564, -0.625301, 1.07019, -0.256728, -0.00181544, -7.56343e-05, -0.0024604, 0.000606648, -0.00131912, -0.000456707, -0.00150773, -0.317619, 15.6442, 19.1135, 15.6146, 1.18396, 3.34598, -0.147328, 0.00100648, -0.001697, 1.87109e-05, -0.000104449, -0.000187809, -3.8344e-05, 0.00204931, -0.000535872, -0.00049902, -0.000935515, 0.000866394, -0.00310699, -0.011112, -0.444721, 0.635038, -3.13187, -0.0555627, -0.107532, -0.0101678, -0.442989, 0.635099, -3.13198, -0.0560429, -0.107244, 1.73063e-06, -1.42215e-06, -3.96181e-06, -0.00198819, -0.000604738, -0.000645878
0.0130083, 0.107724, -0.774095, -0.916048, -1.4564, -0.625301, 1.07019, -0.256728, -0.00181544, -7.56343e-05, -0.0024604, 0.000606648, -0.00131912, -0.000456707, -0.00150773, -0.317619, 15.6442, 19.1135, 15.6146, 1.18396, 3.34598, -0.147328, 0.00100648, -0.001697, 1.87015e-05, -0.000104469, -0.000187831, -3.83367e-05, 0.00205351, -0.000531365, -0.000486878, -0.000911351, 0.000882922, -0.00306347, -0.011112, -0.444721, 0.635038, -3.13187, -0.0555628, -0.107532, -0.0101678, -0.442989, 0.635099, -3.13198, -0.0560429, -0.107244, 6.91577e-06, -5.6745e-06, -1.58141e-05, -0.00198819, -0.000604738, -0.000645878
0.0140083, 0.107724, -0.774095, -0.916048, -1.4564, -0.625301, 1.07019, -0.256728, -0.00181544, -7.56343e-05, -0.0024604, 0.000606648, -0.00131912, -0.000456707, -0.00150773, -0.317619, 15.6442, 19.1135, 15.6146, 1.18396, 3.34598, -0.147328, 0.00100647, -0.00169701, 1.8676e-05, -0.000104524, -0.000187889, -3.83171e-05, 0.00206052, -0.000523878, -0.000466702, -0.00087122, 0.000910383, -0.00299115, -0.011112, -0.444721, 0.635038, -3.13187, -0.0555628, -0.107532, -0.0101678, -0.442989, 0.635099, -3.13198, -0.0560429, -0.107244, 1.55453e-05, -1.2736e-05, -3.55071e-05, -0.00198819, -0.000604738, -0.000645878
0.0150083, 0.107724, -0.774095, -0.916048, -1.4564, -0.625301, 1.07019, -0.256728, -0.00181544, -7.56343e-05, -0.0024604, 0.000606648, -0.00131912, -0.000456707, -0.00150773, -0.317619, 15.6442, 19.1135, 15.6146, 1.18396, 3.34598, -0.147328, 0.00100645, -0.00169703, 1.86265e-05, -0.000104629, -0.000188003, -3.82791e-05, 0.00207031, -0.000513436, -0.000438542, -0.000815243, 0.000948705, -0.00289023, -0.011112, -0.444721, 0.635038, -3.13187, -0.0555628, -0.107532, -0.0101678, -0.442989, 0.635099, -3.13198, -0.0560429, -0.107244, 2.7609e-05, -2.25855e-05, -6.29913e-05, -0.00198819, -0.000604738, -0.000645878
0.0160083, 0.107724, -0.774095, -0.916048, -1.4564, -0.625301, 1.07019, -0.256728, -0.00181544, -7.56343e-05, -0.0024604, 0.000606648, -0.00131912, -0.000456707, -0.00150773, -0.317619, 15.6442, 19.1135, 15.6146, 1.18396, 3.34598, -0.147328, 0.00100642, -0.00169706, 1.85451e-05, -0.000104803, -0.00018819, -3.82165e-05, 0.00208289, -0.000500057, -0.000402448, -0.000743536, 0.000997817, -0.00276089, -0.0111119, -0.444721, 0.635038, -3.13187, -0.0555629, -0.107532, -0.0101678, -0.442989, 0.635099, -3.13198, -0.0560429, -0.107244, 4.30968e-05, -3.5202e-05, -9.82172e-05, -0.00198819, -0.000604738, -0.000645878
0.0170083, 0.107724, -0.774095, -0.916048, -1.4564, -0.625301, 1.07019, -0.256728, -0.00181544, -7.56343e-05, -0.0024604, 0.000606648, -0.00131912, -0.000456707, -0.00150773, -0.317619, 15.6442, 19.1135, 15.6146, 1.18396, 3.34598, -0.147328, 0.00100638, -0.0016971, 1.84238e-05, -0.000105062, -0.000188469, -3.81233e-05, 0.00209824, -0.000483766, -0.000358469, -0.000656216, 0.00105765, -0.0026033, -0.0111119, -0.444721, 0.635038, -3.13187, -0.0555631, -0.107533, -0.0101678, -0.442989, 0.635099, -3.13198, -0.0560429, -0.107244, 6.19987e-05, -5.05647e-05, -0.000141136, -0.00198819, -0.000604738, -0.000645878
0.0180083, 0.107724, -0.774095, -0.916048, -1.4564, -0.625301, 1.07019, -0.256728, -0.00181544, -7.56343e-05, -0.0024604, 0.000606648, -0.00131912, -0.000456707, -0.00150773, -0.317619, 15.6442, 19.1135, 15.6146, 1.18396, 3.34598, -0.147328, 0.00100632, -0.00169717, 1.8255e-05, -0.000105422, -0.000188856, -3.79936e-05, 0.00211637, -0.000464582, -0.000306656, -0.000553401, 0.00112813, -0.00241765, -0.0111118, -0.444721, 0.635037, -3.13187, -0.0555633, -0.107533, -0.0101678, -0.442989, 0.635099, -3.13198, -0.0560429, -0.107244, 8.43044e-05, -6.86525e-05, -0.000191697, -0.00198819, -0.000604738, -0.000645878
0.0190093, 0.107724, -0.774095, -0.916048, -1.4564, -0.625301, 1.07019, -0.256728, -0.00181544, -7.56343e-05, -0.0024604, 0.000606648, -0.00131912, -0.000456707, -0.00150773, -0.317619, 15.6442, 19.1135, 15.6146, 1.18396, 3.34598, -0.147328, 0.00100624, -0.00169725, 1.80307e-05, -0.0001059, -0.000189371, -3.78213e-05, 0.00213727, -0.000442527, -0.000247058, -0.000435207, 0.00120919, -0.00220412, -0.0111117, -0.444721, 0.635037, -3.13187, -0.0555636, -0.107534, -0.0101678, -0.442989, 0.635099, -3.13198, -0.0560429, -0.107244, 0.000110004, -8.94448e-05, -0.000249853, -0.00198819, -0.000604738, -0.000645878
0.0200093, 0.107724, -0.774095, -0.916048, -1.4564, -0.625301, 1.07019, -0.256728, -0.00181544, -7.56343e-05, -0.0024604, 0.000606648, -0.00131912, -0.000456707, -0.00150773, -0.317619, 15.6442, 19.1135, 15.6146, 1.18396, 3.34598, -0.147328, 0.00100614, -0.00169736, 1.77434e-05, -0.000106512, -0.000190031, -3.76005e-05, 0.00216093, -0.000417624, -0.000179724, -0.000301751, 0.00130076, -0.00196289, -0.0111116, -0.444721, 0.635037, -3.13187, -0.055564, -0.107535, -0.0101678, -0.442989, 0.635099, -3.13198, -0.0560429, -0.107244, 0.000139087, -0.000112921, -0.000315553, -0.00198819, -0.000604738, -0.000645878
0.0210093, 0.107713, -0.774118, -0.916071, -1.45639, -0.625306, 1.07019, -0.256725, -0.0015187, -0.00675949, -0.00163451, 0.000470436, -0.00454627, -0.000134431, 0.00217969, -0.206535, 15.8624, 19.3, 15.6543, 1.19037, 3.34598, -0.21233, 0.000984299, -0.00169192, 2.26343e-05, -9.65169e-05, -0.000170019, -9.52784e-08, 0.00439609, -0.0008043, -0.000137599, 0.00150845, -0.00292918, -0.00592781, -0.0111114, -0.444721, 0.635037, -3.13186, -0.0555644, -0.107536, -0.0101889, -0.442996, 0.635092, -3.13197, -0.0559853, -0.107276, 0.000171544, -0.000139059, -0.00038875, -0.00417331, -0.00109629, -0.000832993
0.0220095, 0.107713, -0.774118, -0.91607, -1.45639, -0.625309, 1.07019, -0.256727, -0.00102354, -0.00412292, -0.000262367, 0.00138912, -0.0043367, 0.000452914, 0.00097841, -0.206535, 15.8267, 19.2643, 15.6146, 1.21509, 3.33133, -0.199513, 0.000982925, -0.00169117, 2.00858e-05, -0.000104269, -0.000168441, 1.71213e-06, 0.0030503, -0.000602021, 0.000749299, 0.00364298, -0.00130063, -0.00326568, -0.0111112, -0.444721, 0.635036, -3.13186, -0.055565, -0.107538, -0.0101902, -0.442997, 0.635094, -3.13197, -0.0559827, -0.10728, 0.000207364, -0.00016784, -0.000469394, -0.00286364, -0.000883211, 6.48473e-05
0.0230095, 0.107713, -0.774115, -0.916072, -1.45639, -0.625313, 1.07019, -0.256726, -0.00069066, -0.00448597, -0.00235358, -0.00363879, -0.00250571, 0.000301942, 0.000177555, -0.206535, 15.7513, 19.2246, 15.5432, 1.19678, 3.33133, -0.186696, 0.000981257, -0.00169095, 1.98319e-05, -0.000104503, -0.000175815, 8.18821e-06, 0.00233038, -0.000441848, -0.00132543, -0.00132806, 0.000523235, 5.8811e-05, -0.011111, -0.444722, 0.635036, -3.13186, -0.0555656, -0.10754, -0.0101917, -0.442997, 0.635094, -3.13197, -0.0559733, -0.107271, 0.000246538, -0.000199242, -0.000557437, -0.00197041, -0.000711374, -0.00204253
0.0240095, 0.107713, -0.774118, -0.916075, -1.45639, -0.625315, 1.07019, -0.256727, -0.000466667, -0.00495942, -0.00332818, -0.0042554, -0.00522882, 0.00125246, -0.00157705, -0.206535, 15.6799, 19.1532, 15.4678, 1.16015, 3.30295, -0.140919, 0.000979788, -0.00169014, 2.06374e-05, -0.000104896, -0.000176285, 9.52404e-06, 0.00302789, -0.00105698, -0.00163339, -0.000133078, 0.00221525, 0.00065524, -0.0111107, -0.444722, 0.635035, -3.13186, -0.0555664, -0.107542, -0.0101928, -0.442998, 0.635092, -3.13197, -0.055972, -0.107272, 0.000289055, -0.000233245, -0.00065283, -0.00258029, -0.00138199, -0.00249688
0.0250095, 0.107715, -0.774121, -0.916086, -1.45639, -0.625318, 1.07019, -0.256729, 0.000519436, -0.00219139, -0.00584031, -0.00476519, -0.00824747, -0.000216191, -0.00325541, -0.242241, 15.6046, 19.1532, 15.3925, 1.14734, 3.33133, -0.0814099, 0.000975982, -0.00168796, 2.44561e-05, -9.80042e-05, -0.0001801, 1.39178e-05, 0.00323561, -0.00151668, -0.00245546, -0.00163421, 0.00860019, 0.000591097, -0.0111104, -0.444722, 0.635034, -3.13186, -0.0555673, -0.107544, -0.0101959, -0.443001, 0.635087, -3.13196, -0.0559664, -0.107268, 0.000334905, -0.000269828, -0.000755525, -0.00266887, -0.0018782, -0.0034368
0.0260095, 0.107717, -0.774128, -0.916089, -1.45639, -0.625325, 1.07019, -0.256733, -0.00049243, -0.00509655, -0.00273945, -0.00211895, -0.00586449, -0.000686662, -0.00410306, -0.206535, 15.6046, 19.0778, 15.3171, 1.13544, 3.34598, -0.0292249, 0.000972423, -0.00168702, 2.53449e-05, -9.87267e-05, -0.000181616, 1.27989e-05, 0.00374361, -0.000717849, -0.000771338, 0.000469732, 0.0024152, 0.00298256, -0.0111101, -0.444722, 0.635033, -3.13186, -0.0555684, -0.107547, -0.010199, -0.443002, 0.635085, -3.13196, -0.0559691, -0.107269, 0.000384079, -0.000308971, -0.000865474, -0.00326995, -0.0011514, -0.00189662
0.0270095, 0.107714, -0.77413, -0.916094, -1.4564, -0.625331, 1.07019, -0.256726, -0.00125893, -0.00631245, -0.00144794, -0.00194167, -0.00946468, -0.00123767, -0.00151467, -0.166862, 15.5688, 19.0421, 15.3171, 1.14093, 3.36703, -0.0621838, 0.000967855, -0.00168575, 2.62644e-05, -0.000100475, -0.000187802, 2.96089e-05, 0.00488034, -0.000752791, -0.000299575, 0.00272323, 0.00419109, -0.000774505, -0.0111097, -0.444723, 0.635033, -3.13186, -0.0555696, -0.10755, -0.010203, -0.443004, 0.635083, -3.13196, -0.0559441, -0.107262, 0.000436566, -0.000350653, -0.000982628, -0.00438184, -0.00127206, -0.00162146
0.0280095, 0.107713, -0.774141, -0.916098, -1.4564, -0.625342, 1.07019, -0.256726, -0.00084126, -0.00670213, -0.00130794, -0.00345447, -0.00787132, -0.00191018, -0.000297702, -0.166862, 15.6442, 19.0421, 15.3925, 1.16015, 3.39633, -0.0814099, 0.000961238, -0.00168519, 2.91774e-05, -9.57858e-05, -0.000193986, 3.61097e-05, 0.00426005, -0.000299762, -0.000679826, 0.000877828, 0.00408952, 0.000530103, -0.0111092, -0.444723, 0.635032, -3.13185, -0.0555709, -0.107554, -0.010209, -0.443005, 0.635079, -3.13195, -0.0559356, -0.107256, 0.000492356, -0.000394854, -0.00110694, -0.00369775, -0.000838434, -0.00207971
0.0290095, 0.107716, -0.774141, -0.916102, -1.4564, -0.625352, 1.07019, -0.256721, 0.000365702, -0.0072059, -0.00112894, -0.00176534, -0.011083, -0.00100219, 0.00149695, -0.206535, 15.6046, 19.0421, 15.3568, 1.17206, 3.38901, -0.127186, 0.000958146, -0.00168337, 2.77126e-05, -0.000103096, -0.000202827, 4.88334e-05, 0.00475527, -0.00089522, 4.59447e-05, 0.0042887, 0.00464351, -0.00184977, -0.0111087, -0.444723, 0.63503, -3.13185, -0.0555724, -0.107558, -0.0102116, -0.443007, 0.635079, -3.13196, -0.0559171, -0.107246, 0.000551439, -0.000441554, -0.00123836, -0.00416084, -0.00150388, -0.00152481
0.0300095, 0.107718, -0.774151, -0.916108, -1.4564, -0.625363, 1.07019, -0.256721, 0.000242693, -0.0112461, -0.0026158, -0.00483376, -0.0134137, -0.000396858, 0.00123533, -0.206535, 15.7156, 19.1135, 15.5035, 1.18396, 3.38168, -0.133595, 0.000952485, -0.00168137, 3.02145e-05, -0.000103215, -0.000207075, 5.5331e-05, 0.00632324, -0.00140345, -0.0012624, 0.00316425, 0.00433373, -0.00187295, -0.0111081, -0.444724, 0.635029, -3.13185, -0.0555741, -0.107563, -0.0102164, -0.44301, 0.635075, -3.13196, -0.0559087, -0.107244, 0.000613805, -0.000490732, -0.00137684, -0.00555406, -0.00210484, -0.00307943
0.0310095, 0.107714, -0.774157, -0.916108, -1.45641, -0.625373, 1.07019, -0.256717, -0.000767056, -0.00910014, -0.00188842, -0.00515314, -0.014689, 6.69566e-06, 0.00109482, -0.166862, 15.7513, 19.1135, 15.5789, 1.18396, 3.37436, -0.140919, 0.00094725, -0.00168083, 2.99852e-05, -0.000108783, -0.000214154, 6.75799e-05, 0.00607572, -0.00133318, -0.000858504, 0.00488707, 0.00760766, -0.00210228, -0.0111074, -0.444724, 0.635028, -3.13184, -0.055576, -0.107568, -0.010221, -0.443011, 0.635073, -3.13196, -0.0558913, -0.107239, 0.000679445, -0.000542368, -0.00152234, -0.00527179, -0.00208104, -0.00280457
0.0320095, 0.107713, -0.774163, -0.916106, -1.4564, -0.625385, 1.07019, -0.256723, -0.000511994, -0.00840562, -0.00136736, -0.000288556, -0.0166248, 0.000275731, -0.00171153, -0.166862, 15.8267, 19.1135, 15.5789, 1.20868, 3.36703, -0.0750012, 0.000942281, -0.00167997, 2.70893e-05, -0.000120792, -0.00021864, 6.88116e-05, 0.00700222, -0.00173831, 0.000971081, 0.00936931, 0.00665155, -0.00151273, -0.0111067, -0.444725, 0.635026, -3.13184, -0.055578, -0.107574, -0.0102254, -0.443013, 0.635074, -3.13197, -0.0558911, -0.107238, 0.000748347, -0.000596442, -0.0016748, -0.00623741, -0.00258835, -0.00119802
0.0330095, 0.107711, -0.774166, -0.916108, -1.4564, -0.625396, 1.07019, -0.256724, -0.00117701, -0.0100461, -0.000992886, 0.00082139, -0.0163783, -0.000358714, -0.00161574, -0.131157, 15.8624, 19.1135, 15.5432, 1.19037, 3.38168, -0.0621838, 0.000936138, -0.00167921, 2.48439e-05, -0.000128856, -0.000226679, 7.97951e-05, 0.00798376, -0.00154999, 0.00148342, 0.00982282, 0.00462601, -0.00185158, -0.0111059, -0.444726, 0.635024, -3.13184, -0.0555803, -0.10758, -0.0102308, -0.443014, 0.635074, -3.13197, -0.055876, -0.107232, 0.000820503, -0.000652933, -0.00183418, -0.00718566, -0.00249562, -0.000912608
0.0340095, 0.107713, -0.774169, -0.916113, -1.4564, -0.625404, 1.07019, -0.25672, 5.01907e-05, -0.00821386, -0.00248615, 0.000681501, -0.0162876, -0.000781677, 0.000143546, -0.166862, 15.9021, 19.1889, 15.5432, 1.17206, 3.39633, -0.0951428, 0.000932658, -0.00167754, 2.51641e-05, -0.000132961, -0.00023555, 9.0176e-05, 0.00742381, -0.00167253, 0.00117951, 0.00875724, 0.00699669, -0.0028001, -0.0111051, -0.444726, 0.635022, -3.13183, -0.0555828, -0.107587, -0.0102334, -0.443017, 0.635072, -3.13197, -0.0558622, -0.107225, 0.000895902, -0.000711822, -0.00200043, -0.0065268, -0.00265466, -0.00134436
0.0350095, 0.107711, -0.774166, -0.916114, -1.4564, -0.625412, 1.07019, -0.25672, -0.00080202, -0.0049892, -0.00496223, 0.00148278, -0.0151812, -0.000792386, 9.56972e-05, -0.131157, 15.8624, 19.1889, 15.5035, 1.12262, 3.40365, -0.0951428, 0.000929653, -0.00167737, 2.22303e-05, -0.000142519, -0.000247422, 9.92577e-05, 0.00762911, -0.00191534, 0.00104037, 0.00774496, 0.00920762, -0.00473676, -0.0111041, -0.444727, 0.63502, -3.13183, -0.0555855, -0.107594, -0.0102356, -0.443018, 0.635072, -3.13198, -0.0558505, -0.107214, 0.000974534, -0.000773089, -0.00217351, -0.00663466, -0.00296462, -0.0016719
0.0360095, 0.107713, -0.774168, -0.916113, -1.4564, -0.625423, 1.07019, -0.256719, -0.000534878, -0.00365711, -0.00277883, 0.000135826, -0.0153725, -0.00130815, 0.000538516, -0.131157, 15.8624, 19.1532, 15.5432, 1.0979, 3.42471, -0.10796, 0.000927416, -0.00167744, 2.10683e-05, -0.000148886, -0.000262034, 0.000103969, 0.00628297, -0.0012464, 0.00143105, 0.00848392, 0.0119704, -0.0019921, -0.0111031, -0.444728, 0.635018, -3.13182, -0.0555884, -0.107602, -0.0102369, -0.443019, 0.635071, -3.13198, -0.0558459, -0.1072, 0.00105639, -0.000836713, -0.00235336, -0.00526132, -0.00231576, -0.00136537
0.0370095, 0.107706, -0.774167, -0.916119, -1.4564, -0.625436, 1.07019, -0.256723, -0.00211997, -0.00268631, -0.00291719, 0.00107506, -0.0158687, -0.000872101, -0.00109905, -0.0557783, 15.8624, 19.1889, 15.5035, 1.086, 3.42471, -0.0685925, 0.00091964, -0.00167599, 1.96556e-05, -0.000157406, -0.000278738, 0.000118773, 0.0070472, -0.00133454, 0.00199164, 0.0100691, 0.0127391, -0.00207783, -0.011102, -0.444729, 0.635016, -3.13182, -0.0555915, -0.107611, -0.0102436, -0.443021, 0.63507, -3.13198, -0.0558258, -0.107183, 0.00114146, -0.000902674, -0.00253994, -0.00597344, -0.00250157, -0.00104583
0.0380095, 0.10771, -0.774171, -0.916116, -1.45641, -0.625447, 1.07019, -0.256723, -0.000578207, -0.00290507, -0.000353619, -0.000168942, -0.0157075, -0.000852668, -0.00171605, -0.0914839, 15.9021, 19.1135, 15.5432, 1.05578, 3.43204, -0.0420422, 0.000918365, -0.00167631, 1.77742e-05, -0.000166121, -0.000291377, 0.000118709, 0.00538944, -0.000717708, 0.00248706, 0.0112444, 0.0133602, 0.00345514, -0.0111008, -0.44473, 0.635013, -3.13181, -0.0555949, -0.10762, -0.0102439, -0.443022, 0.635069, -3.13199, -0.0558291, -0.107173, 0.00122973, -0.000970953, -0.00273321, -0.00428833, -0.00189939, -0.000627095
0.0390095, 0.107711, -0.77417, -0.916118, -1.45641, -0.625463, 1.07019, -0.256723, -0.000385555, -0.00207635, -0.000364794, -8.08514e-05, -0.0173692, -0.000568445, -0.00138139, -0.0914839, 15.9021, 19.1135, 15.5432, 1.0741, 3.43204, -0.0356336, 0.000914121, -0.0016752, 1.45559e-05, -0.000179962, -0.000310804, 0.000130355, 0.00544423, -0.000878665, 0.00276574, 0.0127157, 0.0155245, 0.00319419, -0.0110996, -0.444731, 0.63501, -3.1318, -0.0555986, -0.10763, -0.010247, -0.443024, 0.635069, -3.132, -0.0558142, -0.107153, 0.00132119, -0.00104153, -0.00293311, -0.00426484, -0.00213519, -0.000553794
0.0400095, 0.107706, -0.774167, -0.916117, -1.45641, -0.625476, 1.07019, -0.256723, -0.00202034, -0.00148896, 0.000495236, -0.000865286, -0.0173944, -0.000921498, 6.24182e-05, -0.0161054, 15.9021, 19.0778, 15.5789, 1.06128, 3.44668, -0.0621838, 0.000909708, -0.00167561, 1.25585e-05, -0.000189182, -0.000333803, 0.000142056, 0.00566734, -0.000468828, 0.00302323, 0.0131097, 0.0170562, 0.00192223, -0.0110982, -0.444732, 0.635007, -3.1318, -0.0556025, -0.107641, -0.0102502, -0.443025, 0.635067, -3.132, -0.0557997, -0.107128, 0.00141584, -0.00111438, -0.0031396, -0.00442492, -0.00180859, -0.000516243
0.0410095, 0.107711, -0.774171, -0.91612, -1.45641, -0.625497, 1.07019, -0.256718, -0.000418918, -0.0019064, 0.000257568, -0.000558983, -0.0189415, -0.000851691, 0.000753689, -0.0557783, 15.9378, 19.0778, 15.5789, 1.09241, 3.45309, -0.0814099, 0.000904426, -0.00167308, 9.65401e-06, -0.000206063, -0.000351373, 0.000157203, 0.00560361, -0.00069457, 0.00321012, 0.0141598, 0.0178939, 0.00253021, -0.0110967, -0.444733, 0.635004, -3.13179, -0.0556067, -0.107652, -0.0102541, -0.443029, 0.635067, -3.13201, -0.0557798, -0.107113, 0.00151366, -0.0011895, -0.00335263, -0.00426832, -0.00210871, -0.000539902
0.0420095, 0.107714, -0.774164, -0.916128, -1.4564, -0.625515, 1.07019, -0.256718, 0.000555904, 0.000433398, -0.00403349, 0.000475968, -0.0185164, -0.000567794, 0.00124844, -0.0914839, 15.8624, 19.1135, 15.5432, 1.086, 3.45309, -0.101552, 0.000900196, -0.00167051, 7.13854e-06, -0.000219376, -0.000377892, 0.000172555, 0.00602477, -0.00148518, 0.00261178, 0.012563, 0.0195966, 0.000216198, -0.0110952, -0.444734, 0.635, -3.13178, -0.0556111, -0.107664, -0.0102568, -0.443033, 0.635066, -3.13202, -0.0557601, -0.107085, 0.00161465, -0.00126685, -0.00357216, -0.00451802, -0.00298582, -0.0013903
0.0430095, 0.107714, -0.774166, -0.916132, -1.45641, -0.625532, 1.07019, -0.256719, 0.000370576, -0.000683269, -0.00539246, -0.00134307, -0.017896, -0.000378529, -0.000151048, -0.0914839, 15.9021, 19.0778, 15.6146, 1.06769, 3.45309, -0.0750012, 0.000895309, -0.00166958, 6.56776e-06, -0.000228762, -0.00040166, 0.000181863, 0.00644927, -0.00153434, 0.00188352, 0.0109424, 0.0194785, 0.00245865, -0.0110935, -0.444735, 0.634997, -3.13177, -0.0556159, -0.107677, -0.0102601, -0.443035, 0.635062, -3.13202, -0.0557501, -0.107061, 0.00171879, -0.00134642, -0.00379814, -0.00478546, -0.00312318, -0.00237238
0.0440095, 0.107712, -0.774164, -0.916133, -1.45641, -0.625556, 1.07019, -0.256716, -0.000588187, 0.00260361, -0.00233804, 0.000782597, -0.0185759, -0.00052362, 0.000645287, -0.0557783, 15.9021, 19.0024, 15.5432, 1.07959, 3.46042, -0.0951428, 0.000887581, -0.00166814, 1.414e-06, -0.000249219, -0.000428565, 0.000204684, 0.00556809, -0.000940668, 0.00377676, 0.0150492, 0.0221367, 0.00246272, -0.0110917, -0.444737, 0.634993, -3.13176, -0.0556209, -0.107691, -0.0102663, -0.443038, 0.635063, -3.13203, -0.0557191, -0.107034, 0.00182607, -0.00142819, -0.00403052, -0.00395061, -0.00259714, -0.000651775
0.0450095, 0.107716, -0.77417, -0.916139, -1.45641, -0.625577, 1.07019, -0.256715, 0.00357548, 0.000298137, -0.00509874, -0.000307831, -0.0188623, -0.000891615, 0.00440496, -0.0914839, 15.9735, 19.0024, 15.5789, 1.086, 3.47507, -0.0750012, 0.000880764, -0.00166569, 5.64995e-08, -0.000262359, -0.000449068, 0.000217982, 0.0052792, -0.00144433, 0.00266056, 0.0124911, 0.0214342, 0.00205607, -0.0110899, -0.444738, 0.634989, -3.13175, -0.0556263, -0.107706, -0.0102712, -0.443043, 0.63506, -3.13204, -0.0557034, -0.107017, 0.00193648, -0.00151214, -0.00426926, -0.00345769, -0.00316458, -0.00198739
0.0460095, 0.107717, -0.774165, -0.916143, -1.45641, -0.625594, 1.07019, -0.256719, 0.00180946, 0.00204382, -0.00625654, 0.000634239, -0.0226268, -0.000323143, 0.00139726, -0.0557783, 15.9021, 18.9667, 15.5432, 1.06128, 3.46774, -0.0228162, 0.000875508, -0.00166485, -4.10994e-06, -0.000277277, -0.000475848, 0.000228686, 0.0068654, -0.00208465, 0.00303835, 0.0151625, 0.0255099, 0.00102723, -0.0110879, -0.44474, 0.634984, -3.13174, -0.0556319, -0.107721, -0.0102747, -0.443045, 0.635059, -3.13205, -0.055692, -0.106992, 0.00205002, -0.00159825, -0.00451432, -0.00492864, -0.00394979, -0.00196881
0.0470095, 0.107725, -0.774166, -0.916152, -1.4564, -0.625618, 1.07019, -0.256719, 0.00316531, 0.0006583, -0.0056794, 0.00218925, -0.0259678, -0.000757963, 0.00122655, -0.131157, 15.9378, 19.0024, 15.4678, 1.04938, 3.48239, -0.0228162, 0.000868677, -0.00166136, -7.71387e-06, -0.000295314, -0.00050119, 0.000245528, 0.00762306, -0.00234419, 0.00380491, 0.0178165, 0.0261962, 0.00151187, -0.0110858, -0.444741, 0.63498, -3.13173, -0.0556379, -0.107738, -0.0102796, -0.443051, 0.635057, -3.13205, -0.0556712, -0.106969, 0.00216668, -0.00168649, -0.00476563, -0.00561068, -0.00433084, -0.00150928
0.0480095, 0.107725, -0.77416, -0.91615, -1.45641, -0.625636, 1.07019, -0.256716, 0.00447869, 0.00230033, -0.00409173, -0.00113657, -0.023163, -0.000505309, 0.00198842, -0.0914839, 15.8624, 18.8556, 15.5789, 1.01825, 3.48239, -0.0484509, 0.000867601, -0.00166195, -1.11114e-05, -0.000311668, -0.00053673, 0.000255223, 0.00486394, -0.00145695, 0.00354959, 0.0165071, 0.0280418, 0.00726648, -0.0110835, -0.444743, 0.634975, -3.13172, -0.0556442, -0.107755, -0.0102787, -0.443052, 0.635056, -3.13206, -0.0556621, -0.106932, 0.00228643, -0.00177687, -0.00502317, -0.00275429, -0.0034352, -0.00182611
0.0490095, 0.107729, -0.774168, -0.916159, -1.4564, -0.625661, 1.07019, -0.256711, 0.00428641, -0.00099123, -0.00654645, 0.00277055, -0.0264624, 0.000205662, 0.00322091, -0.131157, 15.9735, 18.8556, 15.4282, 1.00635, 3.46774, -0.0951428, 0.000854782, -0.00165784, -1.74067e-05, -0.000335774, -0.000551329, 0.00028617, 0.00822434, -0.00265072, 0.00426106, 0.0194779, 0.0248318, 0.00135504, -0.0110812, -0.444745, 0.634969, -3.13171, -0.0556509, -0.107773, -0.0102894, -0.443058, 0.635056, -3.13207, -0.0556198, -0.106929, 0.00240928, -0.00186934, -0.00528689, -0.00598793, -0.00484533, -0.00161905
0.0500095, 0.107732, -0.774165, -0.916169, -1.4564, -0.625685, 1.07019, -0.256712, 0.0062584, 0.00106487, -0.00834621, 0.000920355, -0.0244293, -0.000134159, 0.00176312, -0.131157, 15.9021, 18.8556, 15.4678, 0.999938, 3.47507, -0.0814099, 0.000847032, -0.00165613, -1.93087e-05, -0.000347448, -0.000588939, 0.000304108, 0.00666334, -0.00249593, 0.00344787, 0.01664, 0.0271896, 0.00632334, -0.0110787, -0.444747, 0.634964, -3.1317, -0.0556578, -0.107792, -0.0102947, -0.443062, 0.635052, -3.13208, -0.0555986, -0.106889, 0.00253522, -0.00196389, -0.00555673, -0.00425545, -0.00472315, -0.00259179
0.0510095, 0.107734, -0.774163, -0.91617, -1.4564, -0.625708, 1.07019, -0.256715, 0.00687109, 0.000751352, -0.00703191, 0.0015426, -0.0227434, 0.000453095, 0.00150613, -0.0914839, 15.9021, 18.7446, 15.4282, 0.988036, 3.46042, -0.0878186, 0.000841088, -0.00165441, -2.58589e-05, -0.000373562, -0.000617243, 0.000317659, 0.0059088, -0.00211351, 0.00431629, 0.0180843, 0.0252251, 0.00969516, -0.0110761, -0.444749, 0.634958, -3.13168, -0.0556652, -0.107812, -0.0102985, -0.443066, 0.635053, -3.13209, -0.0555841, -0.106867, 0.00266423, -0.00206051, -0.00583265, -0.00344745, -0.0044187, -0.00194709
0.0520095, 0.107743, -0.77417, -0.916185, -1.45639, -0.625734, 1.0702, -0.256718, 0.00695933, -0.00113845, -0.0124871, 0.00186437, -0.0216712, 0.00081069, -0.00085868, -0.166862, 15.9735, 18.7803, 15.3925, 0.981627, 3.44668, -0.0356336, 0.000830335, -0.00164977, -2.90632e-05, -0.00039247, -0.000641145, 0.000335585, 0.00812691, -0.00307224, 0.00311101, 0.0149897, 0.0227819, 0.00938074, -0.0110734, -0.444751, 0.634952, -3.13167, -0.0556729, -0.107834, -0.0103065, -0.443073, 0.635049, -3.1321, -0.0555633, -0.106852, 0.0027963, -0.00215917, -0.00611461, -0.00540987, -0.00554312, -0.00359046
0.0530095, 0.107741, -0.774163, -0.91619, -1.4564, -0.625758, 1.0702, -0.256717, 0.00333784, 0.000934776, -0.0108493, -0.00135498, -0.0253474, 0.000811727, -0.00123202, -0.0914839, 15.9021, 18.7049, 15.5035, 0.969725, 3.43936, -0.0164075, 0.000825282, -0.00164843, -3.18801e-05, -0.000412258, -0.000684431, 0.000354593, 0.00872974, -0.00272768, 0.00307816, 0.0168514, 0.0300341, 0.0083314, -0.0110705, -0.444753, 0.634946, -3.13166, -0.0556809, -0.107856, -0.0103089, -0.443077, 0.635045, -3.13211, -0.0555413, -0.106807, 0.00293143, -0.00225986, -0.00640257, -0.00588585, -0.00532052, -0.00395071
0.0540095, 0.107747, -0.77417, -0.916199, -1.45639, -0.625782, 1.0702, -0.25671, 0.00571743, -0.00186499, -0.0115297, 0.00253078, -0.0282216, 3.25252e-05, 0.00091346, -0.0914839, 16.0092, 18.7049, 15.3568, 0.963317, 3.45309, -0.0621838, 0.000813214, -0.00164544, -3.83093e-05, -0.000434671, -0.000704938, 0.000384577, 0.010318, -0.00330195, 0.00412807, 0.0194005, 0.0277338, 0.00574835, -0.0110675, -0.444756, 0.63494, -3.13164, -0.0556894, -0.107879, -0.0103182, -0.443083, 0.635044, -3.13211, -0.0555024, -0.106799, 0.00306961, -0.00236255, -0.00669647, -0.00738273, -0.00606243, -0.00331052
0.0550095, 0.107756, -0.774165, -0.916204, -1.45639, -0.625808, 1.0702, -0.256712, 0.00526142, 0.000440223, -0.0102189, 0.00168751, -0.0254481, 0.00053031, 0.00576623, -0.131157, 15.9378, 18.6295, 15.3568, 0.951415, 3.43936, -0.0750012, 0.00080987, -0.00164374, -4.4095e-05, -0.000459332, -0.000745197, 0.000395501, 0.00874082, -0.0025943, 0.0046941, 0.0197767, 0.0285828, 0.00430059, -0.0110644, -0.444758, 0.634933, -3.13162, -0.0556982, -0.107903, -0.0103188, -0.443087, 0.635043, -3.13213, -0.0554936, -0.106762, 0.00321082, -0.00246723, -0.00699628, -0.00573329, -0.00540944, -0.00293263
0.0560095, 0.107752, -0.77416, -0.916218, -1.45639, -0.625837, 1.07021, -0.256709, 0.00120769, 0.00524202, -0.00884459, 0.00112524, -0.0241279, 0.000624807, 0.00449142, -0.0161054, 15.8624, 18.6692, 15.3568, 0.956908, 3.43204, -0.0814099, 0.000797202, -0.00163977, -4.79194e-05, -0.000482198, -0.000787713, 0.000432903, 0.00835947, -0.00183307, 0.00553588, 0.0210823, 0.0330273, 0.00461611, -0.0110611, -0.444761, 0.634926, -3.13161, -0.0557074, -0.107928, -0.0103283, -0.443094, 0.635039, -3.13214, -0.055444, -0.106722, 0.00335505, -0.00257388, -0.00730195, -0.00529396, -0.00474949, -0.00236756
0.0570095, 0.107755, -0.774158, -0.916226, -1.45639, -0.625867, 1.07021, -0.256711, 0.00109863, 0.00376668, -0.00898565, 0.000750341, -0.0233663, 0.00547824, 0.00235227, -0.0161054, 15.8624, 18.6295, 15.3568, 0.969725, 3.43204, -0.0557752, 0.000788323, -0.0016367, -5.44349e-05, -0.000511529, -0.00082679, 0.000454398, 0.00828162, -0.00254555, 0.00607751, 0.0251555, 0.029215, 0.00824419, -0.0110577, -0.444763, 0.634918, -3.13159, -0.055717, -0.107955, -0.010334, -0.4431, 0.635037, -3.13215, -0.0554193, -0.106688, 0.0035023, -0.00268248, -0.00761342, -0.00508087, -0.00557229, -0.00213808
0.0580095, 0.107763, -0.774149, -0.916231, -1.45639, -0.625891, 1.07021, -0.256718, 0.00188057, 0.00531357, -0.008362, 0.00142838, -0.0217434, 0.00407397, 0.000340688, -0.0557783, 15.7513, 18.5581, 15.3171, 0.956908, 3.43204, -0.0164075, 0.000784775, -0.00163542, -6.22701e-05, -0.000538988, -0.000868949, 0.000462007, 0.00736081, -0.00189423, 0.00669719, 0.0246946, 0.0302121, 0.013103, -0.0110541, -0.444766, 0.63491, -3.13157, -0.055727, -0.107982, -0.0103345, -0.443104, 0.635037, -3.13216, -0.0554167, -0.106652, 0.00365255, -0.002793, -0.00793067, -0.00407856, -0.0050051, -0.00176962
0.0590095, 0.107766, -0.774152, -0.916243, -1.45639, -0.625922, 1.07022, -0.256713, -0.000344433, 0.00588156, -0.00650267, 0.000952355, -0.0258844, 0.00303234, 0.00233283, 0.0196001, 15.791, 18.5581, 15.3171, 0.963317, 3.43204, -0.0685925, 0.000773071, -0.00163188, -6.67237e-05, -0.000564329, -0.000909231, 0.000493337, 0.00852144, -0.00159734, 0.00741077, 0.0274003, 0.0350994, 0.0097479, -0.0110504, -0.444769, 0.634902, -3.13155, -0.0557374, -0.108011, -0.0103426, -0.443111, 0.635033, -3.13217, -0.0553777, -0.106618, 0.0038058, -0.00290544, -0.00825364, -0.00514222, -0.00486831, -0.00145909
0.0600095, 0.107774, -0.774149, -0.91625, -1.45639, -0.625952, 1.07022, -0.256714, 0.00376064, 0.00429531, -0.00723706, 0.000634979, -0.024164, 0.00280136, 0.00144756, -0.0161054, 15.791, 18.5184, 15.3171, 0.963317, 3.41739, -0.0621838, 0.000766047, -0.00162957, -7.30861e-05, -0.000592268, -0.000952834, 0.000511102, 0.00717911, -0.0015018, 0.00723909, 0.0260433, 0.0330533, 0.0163657, -0.0110465, -0.444772, 0.634894, -3.13154, -0.0557483, -0.10804, -0.0103461, -0.443117, 0.63503, -3.13218, -0.0553601, -0.106582, 0.00396204, -0.00301977, -0.00858229, -0.00363943, -0.00483845, -0.00186593
0.0610095, 0.107777, -0.774149, -0.916257, -1.45639, -0.625984, 1.07022, -0.25671, 0.00517325, 0.00314424, -0.00712897, 0.000423376, -0.0228692, 0.00177426, 0.00153703, 0.0196001, 15.791, 18.443, 15.3171, 0.963317, 3.42471, -0.0750012, 0.000755542, -0.00162775, -8.06224e-05, -0.000621479, -0.00099761, 0.000540656, 0.00681414, -0.00107131, 0.00737292, 0.0250182, 0.0320479, 0.0197253, -0.0110424, -0.444775, 0.634885, -3.13152, -0.0557596, -0.108071, -0.010353, -0.443122, 0.635028, -3.1322, -0.0553246, -0.106544, 0.00412125, -0.00313597, -0.00891658, -0.00314109, -0.00451295, -0.0020389
0.0620095, 0.10778, -0.774143, -0.91627, -1.45639, -0.626013, 1.07022, -0.256712, 0.0030429, 0.0032347, -0.00972096, 0.000282293, -0.0262907, 0.00158757, 0.00109764, 0.059273, 15.7513, 18.4827, 15.3171, 0.956908, 3.41739, -0.0750012, 0.000745203, -0.00162507, -8.65333e-05, -0.00064664, -0.00104585, 0.000566563, 0.00935542, -0.00173796, 0.00699475, 0.0254427, 0.0354943, 0.0157428, -0.0110382, -0.444778, 0.634876, -3.13149, -0.0557713, -0.108103, -0.0103595, -0.443128, 0.635024, -3.1322, -0.0552953, -0.106502, 0.00428343, -0.00325403, -0.00925645, -0.00546276, -0.00538373, -0.00293609
0.0630095, 0.107789, -0.774141, -0.916277, -1.45638, -0.626043, 1.07022, -0.256709, 0.00555012, 0.00231436, -0.00890509, 0.00102345, -0.0294137, 0.00115848, 0.000786476, 0.059273, 15.7513, 18.4073, 15.2814, 0.963317, 3.41739, -0.0750012, 0.000738038, -0.00162297, -9.52372e-05, -0.000679637, -0.00109042, 0.000588801, 0.00921435, -0.00186249, 0.00766109, 0.0278414, 0.037133, 0.0185653, -0.0110339, -0.444781, 0.634867, -3.13147, -0.0557834, -0.108137, -0.0103628, -0.443134, 0.635023, -3.13222, -0.0552719, -0.106467, 0.00444857, -0.00337392, -0.00960188, -0.00519849, -0.00562929, -0.0026081
0.0640095, 0.107791, -0.774142, -0.916289, -1.45638, -0.626071, 1.07023, -0.256711, 0.00658388, 0.00385243, -0.0108799, -0.000152897, -0.0310068, 0.000576123, -0.000146723, 0.0949785, 15.791, 18.443, 15.3171, 0.951415, 3.42471, -0.0557752, 0.000726187, -0.0016204, -0.000100983, -0.000705695, -0.00113281, 0.000614487, 0.00919325, -0.00211158, 0.00707609, 0.0268446, 0.0415189, 0.0201509, -0.0110293, -0.444785, 0.634857, -3.13145, -0.055796, -0.108171, -0.0103704, -0.443141, 0.635018, -3.13222, -0.0552438, -0.106437, 0.00461665, -0.00349563, -0.0099528, -0.00496031, -0.00599414, -0.00354304
0.0650095, 0.107802, -0.774142, -0.916301, -1.45638, -0.626098, 1.07023, -0.256712, 0.00904516, 0.00291703, -0.0114122, 0.00166132, -0.027488, -0.000102148, -0.000575664, 0.059273, 15.791, 18.443, 15.2417, 0.938597, 3.43936, -0.0420422, 0.00071675, -0.00161817, -0.000109216, -0.000733757, -0.0011748, 0.000635638, 0.00846371, -0.00175471, 0.00767442, 0.0258386, 0.0376151, 0.0246953, -0.0110246, -0.444788, 0.634847, -3.13143, -0.055809, -0.108207, -0.0103756, -0.443147, 0.635016, -3.13223, -0.0552231, -0.106409, 0.00478767, -0.00361914, -0.0103092, -0.00411608, -0.00574088, -0.00325003
0.0660095, 0.107806, -0.774139, -0.916314, -1.45638, -0.626125, 1.07023, -0.256714, 0.00503832, 0.00313426, -0.00860792, 0.00194278, -0.0249372, -2.58704e-05, -0.00107277, 0.134651, 15.7513, 18.443, 15.206, 0.926695, 3.43936, -0.0228162, 0.000705438, -0.00161625, -0.000117181, -0.000761978, -0.00122174, 0.000662024, 0.00895881, -0.000706657, 0.00906579, 0.0277516, 0.0360263, 0.0257372, -0.0110198, -0.444792, 0.634836, -3.1314, -0.0558225, -0.108244, -0.0103825, -0.443153, 0.635013, -3.13224, -0.0551948, -0.106374, 0.00496161, -0.00374443, -0.010671, -0.00456933, -0.00484914, -0.00225143
0.0670095, 0.107815, -0.774142, -0.916322, -1.45638, -0.626159, 1.07023, -0.256715, 0.00393747, 0.00359903, -0.00793834, 0.000459979, -0.0241208, -0.000256843, -0.000935226, 0.134651, 15.8267, 18.3716, 15.2417, 0.945006, 3.44668, -0.0164075, 0.000696174, -0.0016143, -0.000125163, -0.000795209, -0.00127046, 0.000681301, 0.00879057, -0.000174574, 0.0092117, 0.0276306, 0.0374259, 0.0275108, -0.0110147, -0.444796, 0.634825, -3.13138, -0.0558365, -0.108282, -0.0103872, -0.443159, 0.635009, -3.13225, -0.0551778, -0.106338, 0.00513848, -0.00387148, -0.0110382, -0.00425408, -0.00444013, -0.00245815
0.0680095, 0.107825, -0.774142, -0.916339, -1.45638, -0.626185, 1.07023, -0.256706, 0.00305892, 0.00280286, -0.0110219, -0.00145658, -0.022538, -0.000147475, 0.00132228, 0.134651, 15.8267, 18.443, 15.3171, 0.938597, 3.44668, -0.0685925, 0.000686743, -0.00161197, -0.000129804, -0.000816559, -0.0013208, 0.000712842, 0.00984158, -0.000349113, 0.0081399, 0.0247005, 0.0372794, 0.0251403, -0.0110095, -0.4448, 0.634814, -3.13135, -0.055851, -0.108322, -0.0103916, -0.443166, 0.635002, -3.13225, -0.0551427, -0.1063, 0.00531825, -0.00400028, -0.0114107, -0.0050422, -0.00477105, -0.00397403
0.0690095, 0.107834, -0.774134, -0.916348, -1.45638, -0.626215, 1.07023, -0.256706, 0.00236473, 0.00393444, -0.0104879, 0.00162741, -0.0270622, -0.000317861, 0.00160333, 0.134651, 15.7513, 18.4073, 15.206, 0.956908, 3.45309, -0.0878186, 0.000679025, -0.0016102, -0.000141965, -0.000856054, -0.00137225, 0.000737046, 0.0113281, -0.000739187, 0.00967067, 0.0294984, 0.0404066, 0.0222027, -0.0110041, -0.444804, 0.634803, -3.13133, -0.0558659, -0.108363, -0.0103947, -0.443172, 0.635002, -3.13227, -0.0551188, -0.106262, 0.00550092, -0.0041308, -0.0117885, -0.00643331, -0.0053582, -0.00293058
0.0700095, 0.107834, -0.774131, -0.916359, -1.45638, -0.626243, 1.07023, -0.256709, -0.000777874, 0.00368515, -0.010193, 0.00108494, -0.0245642, -0.000469813, 0.000364117, 0.245735, 15.7156, 18.3716, 15.206, 0.945006, 3.46042, -0.0685925, 0.000666247, -0.00160932, -0.000151052, -0.000886638, -0.00142449, 0.000765871, 0.0122641, -0.000116384, 0.0100555, 0.0291013, 0.0391948, 0.023414, -0.0109985, -0.444808, 0.634791, -3.1313, -0.0558813, -0.108405, -0.0104025, -0.443178, 0.634998, -3.13227, -0.0550885, -0.106225, 0.00568647, -0.00426302, -0.0121715, -0.00723009, -0.00490502, -0.00299074
0.0710095, 0.107847, -0.774138, -0.916367, -1.45638, -0.626273, 1.07024, -0.256709, 0.00365312, 2.85434e-05, -0.0090975, -0.00103994, -0.0285455, 0.00523746, 0.000248222, 0.21003, 15.8267, 18.2963, 15.2814, 0.963317, 3.43936, -0.0685925, 0.000657902, -0.00160748, -0.000160285, -0.000923278, -0.00146873, 0.000780964, 0.010958, -0.00131818, 0.0103522, 0.0355102, 0.0375876, 0.0293988, -0.0109927, -0.444812, 0.634778, -3.13127, -0.0558972, -0.108449, -0.0104056, -0.443184, 0.634994, -3.13228, -0.0550798, -0.106201, 0.00587491, -0.00439694, -0.0125597, -0.00571703, -0.00619683, -0.00300088
0.0720095, 0.107853, -0.774133, -0.916385, -1.45637, -0.626301, 1.07024, -0.256709, 0.00514015, 0.00190994, -0.0110896, 0.00190517, -0.0302839, 0.00362462, -0.00105111, 0.245735, 15.7513, 18.332, 15.1703, 0.951415, 3.44668, -0.0356336, 0.000644717, -0.00160521, -0.000170346, -0.000955112, -0.00152114, 0.000814855, 0.0116516, -0.00164393, 0.0109718, 0.0360512, 0.0403226, 0.0297573, -0.0109867, -0.444817, 0.634765, -3.13124, -0.0559137, -0.108494, -0.0104134, -0.443191, 0.634991, -3.13229, -0.0550426, -0.106166, 0.00606621, -0.00453252, -0.0129531, -0.0062486, -0.0066886, -0.00282686
0.0730095, 0.107861, -0.77413, -0.916398, -1.45637, -0.626327, 1.07024, -0.256708, 0.00618673, 0.00543344, -0.00755561, 0.00219813, -0.0274962, 0.0027196, -0.000460302, 0.285408, 15.7156, 18.2963, 15.1306, 0.956908, 3.44668, -0.0420422, 0.000634337, -0.00160419, -0.000180631, -0.000987417, -0.00157318, 0.000842318, 0.00875108, -0.000296574, 0.0124934, 0.0374529, 0.0423872, 0.0355456, -0.0109806, -0.444821, 0.634752, -3.13121, -0.0559306, -0.108541, -0.0104183, -0.443197, 0.634987, -3.1323, -0.0550159, -0.106133, 0.00626038, -0.00466976, -0.0133516, -0.0033165, -0.0053912, -0.00149763
0.0740095, 0.107874, -0.774133, -0.916414, -1.45637, -0.626354, 1.07024, -0.256706, 0.00881361, 0.00219997, -0.0119869, -0.000297815, -0.0250706, 0.00204045, -6.71982e-05, 0.245735, 15.791, 18.2963, 15.206, 0.951415, 3.44668, -0.0484509, 0.000624527, -0.00160228, -0.000188743, -0.00101788, -0.00162364, 0.000864442, 0.00924319, -0.000592165, 0.0106272, 0.0319132, 0.0400743, 0.0383287, -0.0109742, -0.444826, 0.634739, -3.13118, -0.055948, -0.108588, -0.0104222, -0.443205, 0.634981, -3.1323, -0.0549981, -0.106103, 0.00645739, -0.00480863, -0.0137552, -0.00347085, -0.00582607, -0.00379932
0.0750095, 0.107881, -0.774127, -0.916424, -1.45637, -0.626385, 1.07025, -0.256704, 0.00571569, 0.00348557, -0.0135882, 0.000636676, -0.0244393, 0.00627644, 0.00070292, 0.285408, 15.7156, 18.2209, 15.1703, 0.975218, 3.44668, -0.0685925, 0.000614796, -0.00160099, -0.000200712, -0.00105869, -0.00168347, 0.000894309, 0.0105213, -0.00139673, 0.0113922, 0.0358884, 0.0387551, 0.0345731, -0.0109676, -0.444831, 0.634725, -3.13115, -0.055966, -0.108638, -0.0104262, -0.443211, 0.634979, -3.13231, -0.0549684, -0.106061, 0.00665724, -0.00494912, -0.0141638, -0.00456945, -0.00682338, -0.00353935
0.0760095, 0.107891, -0.77413, -0.916448, -1.45637, -0.626408, 1.07025, -0.2567, 0.00752129, 0.00168026, -0.0144779, 0.00218769, -0.0220664, 0.00470766, 0.00192798, 0.285408, 15.7513, 18.2606, 15.0949, 0.951415, 3.44668, -0.10796, 0.000600094, -0.00159841, -0.000210076, -0.00108755, -0.00172937, 0.000931309, 0.0107518, -0.00104365, 0.0117771, 0.0343322, 0.0355633, 0.0363323, -0.0109609, -0.444836, 0.63471, -3.13111, -0.0559845, -0.108688, -0.0104347, -0.443219, 0.634973, -3.13231, -0.0549285, -0.106042, 0.00685993, -0.0050912, -0.0145774, -0.00463625, -0.00662485, -0.00358293
0.0770095, 0.107905, -0.774125, -0.91646, -1.45637, -0.626435, 1.07025, -0.256702, 0.0097876, 0.00521341, -0.0153841, 0.00145846, -0.0257186, 0.00353097, 0.000540306, 0.245735, 15.7156, 18.1852, 15.0949, 0.945006, 3.44668, -0.0878186, 0.000592708, -0.00159801, -0.000222112, -0.00112389, -0.00178819, 0.000949305, 0.00982642, -0.00120493, 0.0116872, 0.0348605, 0.0435597, 0.0394417, -0.0109539, -0.444841, 0.634696, -3.13108, -0.0560035, -0.108741, -0.0104359, -0.443225, 0.634969, -3.13232, -0.0549185, -0.106004, 0.00706543, -0.00523486, -0.0149959, -0.0034965, -0.00689655, -0.00402843
0.0780095, 0.107918, -0.774122, -0.916478, -1.45637, -0.626458, 1.07025, -0.2567, 0.0135725, 0.00467821, -0.0148487, 0.000137089, -0.0233403, 0.00291964, 0.00110692, 0.245735, 15.6799, 18.1852, 15.1306, 0.926695, 3.43936, -0.10796, 0.000583627, -0.00159655, -0.000231927, -0.00115637, -0.00184457, 0.000975325, 0.00764311, -0.00059239, 0.0116817, 0.0334205, 0.0429805, 0.0464318, -0.0109468, -0.444846, 0.63468, -3.13105, -0.0560231, -0.108794, -0.0104385, -0.443232, 0.634963, -3.13232, -0.0548967, -0.105971, 0.00727374, -0.00538009, -0.0154193, -0.00113357, -0.00635271, -0.00430173
0.0790095, 0.107928, -0.774121, -0.916497, -1.45637, -0.626485, 1.07026, -0.256706, 0.00922935, 0.00339435, -0.0175877, 9.13931e-05, -0.0223297, 0.00189596, -0.00146555, 0.285408, 15.6799, 18.1852, 15.1306, 0.926695, 3.44668, -0.0484509, 0.000571244, -0.00159476, -0.000241962, -0.00119078, -0.00190266, 0.000997858, 0.0109093, -0.00057479, 0.011325, 0.031334, 0.042175, 0.0446657, -0.0109394, -0.444852, 0.634665, -3.13101, -0.0560432, -0.10885, -0.0104441, -0.44324, 0.634957, -3.13232, -0.0548808, -0.105938, 0.00748486, -0.00552686, -0.0158476, -0.00415502, -0.00659484, -0.00531322
0.0800095, 0.10794, -0.774119, -0.916511, -1.45637, -0.626507, 1.07026, -0.256706, 0.0132667, 0.00330477, -0.0170301, 0.00182417, -0.0259396, 0.00640337, -0.00192606, 0.285408, 15.6442, 18.0741, 15.0552, 0.920287, 3.43936, -0.0228162, 0.000562552, -0.00159416, -0.000256181, -0.0012322, -0.00195381, 0.00102087, 0.00974101, -0.00175391, 0.0127298, 0.0387167, 0.0420211, 0.0485503, -0.0109318, -0.444858, 0.634649, -3.13097, -0.0560639, -0.108906, -0.0104462, -0.443247, 0.634955, -3.13233, -0.0548644, -0.105917, 0.00769877, -0.00567515, -0.0162807, -0.00283159, -0.00789384, -0.00427237
0.0810095, 0.107956, -0.774117, -0.916538, -1.45637, -0.626531, 1.07027, -0.256699, 0.0140485, 0.00235817, -0.0220122, -0.000547126, -0.0247036, 0.00940914, 0.000649049, 0.245735, 15.6442, 18.1852, 15.1306, 0.932189, 3.44668, -0.0750012, 0.000551519, -0.00159139, -0.000263487, -0.00125972, -0.00201617, 0.00105518, 0.0104138, -0.0028582, 0.0112463, 0.0369579, 0.0410122, 0.0463829, -0.010924, -0.444863, 0.634632, -3.13094, -0.0560851, -0.108965, -0.0104498, -0.443256, 0.634945, -3.13232, -0.0548316, -0.105879, 0.00791545, -0.00582496, -0.0167186, -0.00314339, -0.00915756, -0.00624519
0.0820095, 0.107968, -0.774116, -0.916552, -1.45637, -0.626558, 1.07027, -0.256703, 0.0127173, 0.00168836, -0.020108, 0.00139849, -0.0230182, 0.00655914, -4.17871e-05, 0.285408, 15.6442, 18.0741, 15.0552, 0.926695, 3.46042, -0.0621838, 0.000539852, -0.00159138, -0.000278165, -0.0013006, -0.00207372, 0.00107788, 0.0111509, -0.00171569, 0.0126013, 0.0369749, 0.0397549, 0.0486267, -0.010916, -0.444869, 0.634615, -3.1309, -0.0561069, -0.109025, -0.0104545, -0.443262, 0.634942, -3.13233, -0.0548168, -0.105851, 0.00813491, -0.00597625, -0.0171612, -0.00379437, -0.00820676, -0.00538002
0.0830095, 0.107986, -0.774111, -0.916574, -1.45636, -0.626584, 1.07027, -0.256701, 0.0136624, 0.00121275, -0.0216447, 0.00353078, -0.0262479, 0.00524028, 0.00119302, 0.245735, 15.6442, 18.0741, 14.9442, 0.913878, 3.45309, -0.0951428, 0.000529102, -0.00158883, -0.000292051, -0.00134233, -0.00213289, 0.00110949, 0.0127733, -0.00214511, 0.0131151, 0.0382381, 0.0416992, 0.0461594, -0.0109077, -0.444875, 0.634598, -3.13086, -0.0561293, -0.109086, -0.0104578, -0.443271, 0.634937, -3.13234, -0.0547888, -0.105822, 0.00835714, -0.00612902, -0.0176085, -0.00521011, -0.0088518, -0.00543145
0.0840095, 0.107999, -0.774105, -0.916596, -1.45636, -0.626609, 1.07028, -0.256699, 0.0124294, 0.00580759, -0.0218839, 0.000590616, -0.0251104, 0.00417807, 0.000524208, 0.285408, 15.5688, 18.0344, 15.0195, 0.932189, 3.44668, -0.0878186, 0.000519941, -0.00158772, -0.000302841, -0.00137791, -0.00220162, 0.00113781, 0.0114619, -0.00138677, 0.0127288, 0.0363214, 0.0485026, 0.0491209, -0.0108992, -0.444881, 0.63458, -3.13082, -0.0561522, -0.109149, -0.0104593, -0.443279, 0.63493, -3.13234, -0.0547667, -0.10578, 0.00858211, -0.00628324, -0.0180604, -0.00367874, -0.00819859, -0.00617253
0.0850095, 0.108018, -0.774105, -0.916616, -1.45636, -0.626633, 1.07028, -0.256706, 0.0156521, 0.00242173, -0.0220179, 0.000393744, -0.0286492, 0.00339204, -0.00134585, 0.285408, 15.6442, 17.9987, 15.0195, 0.945006, 3.43936, -0.0420422, 0.00050974, -0.00158621, -0.000315638, -0.00141786, -0.00226092, 0.00115433, 0.0120381, -0.00165413, 0.0128101, 0.0374328, 0.0489933, 0.0541851, -0.0108905, -0.444888, 0.634562, -3.13078, -0.0561758, -0.109214, -0.0104616, -0.443288, 0.634924, -3.13234, -0.0547634, -0.105754, 0.00880983, -0.00643891, -0.018517, -0.00402191, -0.00864337, -0.00659069
0.0860095, 0.108036, -0.774099, -0.916641, -1.45636, -0.626654, 1.07029, -0.256698, 0.0180195, 0.005999, -0.0238728, 0.000262496, -0.0261239, 0.00278418, 0.00079826, 0.285408, 15.6046, 18.0344, 15.0195, 0.945006, 3.43204, -0.0878186, 0.00050117, -0.00158461, -0.000327835, -0.00145441, -0.00232525, 0.00118676, 0.0102346, -0.00142082, 0.0127222, 0.0355165, 0.0517798, 0.0559543, -0.0108816, -0.444894, 0.634543, -3.13073, -0.0561999, -0.10928, -0.0104621, -0.443296, 0.634916, -3.13234, -0.054736, -0.105721, 0.00904028, -0.00659599, -0.0189781, -0.00199634, -0.00850303, -0.00701245
0.0870095, 0.108045, -0.774093, -0.916666, -1.45636, -0.626676, 1.07029, -0.256702, 0.0131555, 0.00755452, -0.0244404, 0.000174997, -0.0240674, 0.00177351, -0.000925834, 0.436165, 15.6046, 18.0344, 15.0195, 0.938597, 3.43936, -0.0484509, 0.000486813, -0.00158351, -0.000341434, -0.00149336, -0.00239031, 0.00122021, 0.0119714, -0.000772706, 0.0131307, 0.0346696, 0.0529823, 0.0551293, -0.0108725, -0.444901, 0.634524, -3.13069, -0.0562246, -0.109348, -0.0104682, -0.443305, 0.63491, -3.13234, -0.0547076, -0.10569, 0.00927346, -0.00675447, -0.0194438, -0.00354699, -0.00808027, -0.00718793
0.0880095, 0.108072, -0.774095, -0.916691, -1.45636, -0.626697, 1.0703, -0.256703, 0.0190546, 0.0030306, -0.0267014, 0.000116665, -0.0274914, 0.0015951, -0.0010919, 0.325081, 15.7156, 17.9987, 15.0195, 0.938597, 3.43204, -0.0356336, 0.00047938, -0.00158201, -0.0003537, -0.00153003, -0.00244951, 0.00123558, 0.0123458, -0.00164943, 0.0125933, 0.0347167, 0.051988, 0.0595759, -0.0108631, -0.444908, 0.634504, -3.13064, -0.0562499, -0.109417, -0.010467, -0.443313, 0.634902, -3.13233, -0.0547079, -0.105669, 0.00950935, -0.00691434, -0.0199139, -0.00361567, -0.00912508, -0.00822733
0.0890095, 0.108087, -0.774086, -0.916716, -1.45636, -0.626719, 1.0703, -0.256699, 0.0179679, 0.00641804, -0.0255279, 0.00184101, -0.0253712, 0.000898254, 0.00073016, 0.436165, 15.6799, 17.959, 14.9442, 0.938597, 3.43936, -0.0750012, 0.000467785, -0.0015807, -0.000368748, -0.00157199, -0.00251873, 0.0012731, 0.0116312, -0.000881702, 0.0140375, 0.0361444, 0.0535848, 0.0594295, -0.0108534, -0.444915, 0.634484, -3.1306, -0.0562758, -0.109488, -0.01047, -0.443322, 0.634896, -3.13233, -0.0546743, -0.105634, 0.00974794, -0.00707558, -0.0203885, -0.00279364, -0.0085086, -0.00720627
0.0900095, 0.108115, -0.774084, -0.916748, -1.45636, -0.626739, 1.0703, -0.2567, 0.0208268, 0.00719719, -0.0296353, 0.00122734, -0.0234984, 0.000169801, 1.20787e-05, 0.400459, 15.7156, 17.9987, 14.9442, 0.932189, 3.45309, -0.0621838, 0.000459183, -0.00157891, -0.000379736, -0.00160374, -0.00258509, 0.00129266, 0.0112377, -0.00117649, 0.0130524, 0.0324781, 0.0545846, 0.062839, -0.0108436, -0.444922, 0.634463, -3.13055, -0.0563023, -0.109561, -0.0104695, -0.443332, 0.634886, -3.13232, -0.0546696, -0.105605, 0.00998923, -0.00723817, -0.0208674, -0.00208131, -0.00894285, -0.00864316
0.0910095, 0.108135, -0.774079, -0.916777, -1.45636, -0.626762, 1.07031, -0.256697, 0.0201692, 0.00550642, -0.0293761, 0.00165345, -0.0176423, 0.00491471, 0.000957506, 0.475838, 15.7156, 18.0344, 14.9084, 0.932189, 3.45309, -0.0878186, 0.000448122, -0.00157657, -0.000393902, -0.00164648, -0.00265368, 0.001326, 0.0105994, -0.00118868, 0.0141257, 0.0352516, 0.0464489, 0.0658087, -0.0108335, -0.444929, 0.634442, -3.1305, -0.0563295, -0.109636, -0.0104713, -0.443342, 0.634878, -3.13232, -0.0546436, -0.105574, 0.0102332, -0.00740209, -0.0213508, -0.00127595, -0.00910764, -0.00801188
0.0920095, 0.108161, -0.77407, -0.916804, -1.45636, -0.626782, 1.07032, -0.256695, 0.0225576, 0.00503738, -0.0264716, 0.0011023, -0.0179262, 0.00826713, 0.000400991, 0.436165, 15.6799, 17.959, 14.9084, 0.932189, 3.46042, -0.0814099, 0.000441709, -0.00157563, -0.000408219, -0.00168672, -0.00272723, 0.00134953, 0.00854251, -0.0011283, 0.0154893, 0.0405896, 0.0454272, 0.0729008, -0.0108231, -0.444937, 0.634421, -3.13045, -0.0563573, -0.109712, -0.0104684, -0.443351, 0.634871, -3.13232, -0.0546337, -0.105538, 0.0104799, -0.00756732, -0.0218384, 0.000923165, -0.00915365, -0.00699527
0.0930095, 0.108183, -0.774066, -0.916836, -1.45636, -0.6268, 1.07032, -0.256703, 0.0215108, 0.00600164, -0.0294397, 0.00166289, -0.0139276, 0.00597193, -0.00166544, 0.511544, 15.7156, 17.959, 14.8688, 0.945006, 3.46774, -0.0292249, 0.000429823, -0.00157414, -0.0004224, -0.00172453, -0.00279388, 0.00137163, 0.00945072, -0.000635221, 0.0151873, 0.0363239, 0.0449668, 0.0750919, -0.0108125, -0.444944, 0.634399, -3.1304, -0.0563857, -0.10979, -0.0104706, -0.44336, 0.634862, -3.13231, -0.0546267, -0.105514, 0.0107292, -0.00773386, -0.0223304, 0.000269596, -0.0088577, -0.00784906
0.0940095, 0.108205, -0.77406, -0.916868, -1.45636, -0.62682, 1.07033, -0.256703, 0.0208087, 0.0077258, -0.0317284, 0.00018057, -0.0146228, 0.00453012, -0.000872929, 0.586922, 15.7156, 17.959, 14.9084, 0.932189, 3.46774, -0.0356336, 0.000419816, -0.00157286, -0.000435525, -0.00176188, -0.00286918, 0.00139906, 0.0101645, -0.000566354, 0.0145552, 0.034215, 0.0496952, 0.0740967, -0.0108016, -0.444952, 0.634376, -3.13035, -0.0564147, -0.10987, -0.0104707, -0.44337, 0.634852, -3.1323, -0.0546121, -0.105478, 0.0109812, -0.00790168, -0.0228265, -0.000149016, -0.00897672, -0.00902602
0.0950095, 0.108234, -0.774059, -0.916905, -1.45636, -0.626837, 1.07033, -0.256704, 0.0221638, 0.00718222, -0.030954, 0.00012038, -0.0158925, 0.00764612, -0.00105666, 0.586922, 15.791, 17.9987, 14.9084, 0.938597, 3.48239, -0.0228162, 0.000408692, -0.00157098, -0.000448122, -0.00179529, -0.00293772, 0.00142341, 0.00959958, -0.000988365, 0.0154857, 0.0387703, 0.0492544, 0.0774843, -0.0107905, -0.44496, 0.634353, -3.1303, -0.0564444, -0.109952, -0.0104715, -0.44338, 0.634841, -3.13229, -0.054603, -0.105454, 0.0112358, -0.00807076, -0.0233269, 0.000618293, -0.00955768, -0.0085623
0.0960095, 0.108257, -0.774052, -0.916934, -1.45636, -0.626854, 1.07033, -0.256702, 0.0244353, 0.0118503, -0.0307822, -0.000754965, -0.0161541, 0.00529392, 7.63763e-06, 0.6623, 15.791, 17.9233, 14.9442, 0.926695, 3.49612, -0.0420422, 0.000400129, -0.0015713, -0.000462277, -0.00183257, -0.00301507, 0.00144883, 0.00745342, -0.000276137, 0.0156822, 0.0376373, 0.0565722, 0.0809781, -0.0107792, -0.444968, 0.634329, -3.13025, -0.0564747, -0.110035, -0.0104698, -0.443389, 0.634831, -3.13228, -0.0545928, -0.105418, 0.011493, -0.00824109, -0.0238314, 0.00297462, -0.00894259, -0.00871507
0.0970095, 0.108286, -0.774051, -0.916968, -1.45636, -0.626876, 1.07033, -0.256699, 0.0280341, 0.00733167, -0.0312042, 0.00125993, -0.0177535, 0.00405813, 0.0012258, 0.6623, 15.8624, 17.848, 14.8688, 0.951415, 3.49612, -0.0750012, 0.000387713, -0.00156987, -0.000477983, -0.00187297, -0.00308716, 0.00148132, 0.00845439, -0.000449503, 0.0163165, 0.0385374, 0.0533373, 0.0830973, -0.0107676, -0.444977, 0.634305, -3.13019, -0.0565057, -0.11012, -0.0104716, -0.443399, 0.634821, -3.13227, -0.0545721, -0.105393, 0.0117529, -0.00841265, -0.0243401, 0.0021977, -0.00933061, -0.00866331
0.0980095, 0.108312, -0.774042, -0.91701, -1.45636, -0.626893, 1.07034, -0.256699, 0.0297239, 0.00969263, -0.037174, -0.0031399, -0.0171824, 0.00255952, 0.000817201, 0.701973, 15.8267, 17.8876, 14.9084, 0.932189, 3.51077, -0.0750012, 0.000376732, -0.00156848, -0.000489562, -0.00190332, -0.00317074, 0.00151178, 0.008266, -0.000803402, 0.0137094, 0.0317194, 0.0598815, 0.0850484, -0.0107557, -0.444985, 0.634281, -3.13014, -0.0565373, -0.110207, -0.0104715, -0.443409, 0.634808, -3.13225, -0.0545557, -0.105351, 0.0120154, -0.00858543, -0.0248528, 0.0028429, -0.00982457, -0.0117666
0.0990095, 0.108341, -0.774038, -0.917053, -1.45636, -0.626908, 1.07034, -0.256695, 0.0287483, 0.0104614, -0.0423533, -0.000584349, -0.0183089, 0.00227509, 0.000544802, 0.701973, 15.8267, 17.959, 14.8331, 0.951415, 3.50345, -0.0750012, 0.000363124, -0.00156636, -0.000503774, -0.00193734, -0.00324322, 0.00154852, 0.0111339, -0.00180911, 0.0135869, 0.0311722, 0.0609306, 0.0804421, -0.0107435, -0.444994, 0.634256, -3.13008, -0.0565696, -0.110296, -0.0104739, -0.443421, 0.634796, -3.13223, -0.05453, -0.105328, 0.0122806, -0.0087594, -0.0253696, 0.000293639, -0.0111058, -0.0126163
0.10001, 0.108372, -0.77403, -0.917091, -1.45636, -0.626926, 1.07034, -0.256701, 0.0311631, 0.0111271, -0.0394155, -0.000580305, -0.0186407, 0.0011973, -0.0008575, 0.701973, 15.8267, 17.8876, 14.8331, 0.956908, 3.5181, -0.0420422, 0.000353298, -0.00156615, -0.000518489, -0.00197198, -0.00332704, 0.001569, 0.00932127, -0.00094133, 0.0148141, 0.0331721, 0.062995, 0.0882348, -0.0107311, -0.445003, 0.63423, -3.13002, -0.0566025, -0.110386, -0.0104724, -0.44343, 0.634784, -3.13221, -0.0545303, -0.105289, 0.0125483, -0.00893455, -0.0258904, 0.00224973, -0.0103626, -0.011779
0.10101, 0.108398, -0.774023, -0.917128, -1.45636, -0.626941, 1.07034, -0.256705, 0.031145, 0.00837823, -0.0413353, -0.000529925, -0.0222379, 0.0012368, -0.0015211, 0.777352, 15.8267, 17.848, 14.8331, 0.926695, 3.51077, -0.0164075, 0.000342146, -0.00156567, -0.000534543, -0.00201195, -0.00340631, 0.00159509, 0.0117213, -0.00160277, 0.014732, 0.0343956, 0.063745, 0.087594, -0.0107184, -0.445012, 0.634204, -3.12996, -0.0566361, -0.110479, -0.010472, -0.44344, 0.634773, -3.1322, -0.0545222, -0.10526, 0.0128186, -0.00911087, -0.0264151, 0.000156646, -0.011286, -0.0125611
0.10201, 0.108435, -0.774019, -0.917171, -1.45636, -0.626958, 1.07034, -0.256706, 0.0370532, 0.00547039, -0.0431232, -0.000460574, -0.0221083, 0.000678762, -0.00125143, 0.737679, 15.8624, 17.8122, 14.8331, 0.945006, 3.5181, -0.00999879, 0.000331771, -0.00156432, -0.00054878, -0.0020463, -0.0034883, 0.00161943, 0.0108486, -0.00186603, 0.0144512, 0.0331367, 0.0618428, 0.0938244, -0.0107055, -0.445021, 0.634177, -3.1299, -0.0566704, -0.110573, -0.0104704, -0.443452, 0.63476, -3.13218, -0.0545179, -0.105228, 0.0130915, -0.00928833, -0.0269437, 0.00132808, -0.0116934, -0.013311
0.10301, 0.108463, -0.774013, -0.917215, -1.45636, -0.626974, 1.07034, -0.2567, 0.0363851, 0.00418702, -0.0419811, 0.000540502, -0.0168035, 0.000546632, -0.000122207, 0.777352, 15.8624, 17.8122, 14.7934, 0.951415, 3.5181, -0.0292249, 0.000316716, -0.00156369, -0.000563889, -0.00207902, -0.00357198, 0.00166147, 0.0105772, -0.000893224, 0.0155874, 0.0329486, 0.0566433, 0.0968839, -0.0106922, -0.44503, 0.63415, -3.12984, -0.0567054, -0.110669, -0.0104733, -0.443462, 0.634747, -3.13215, -0.0544867, -0.105195, 0.0133669, -0.00946692, -0.0274763, 0.00175772, -0.0109032, -0.0126842
0.10401, 0.108504, -0.774011, -0.917255, -1.45636, -0.62699, 1.07034, -0.2567, 0.0353922, 0.00226839, -0.0424647, 0.0011352, -0.0118608, 0.000706281, 0.000901874, 0.701973, 15.9021, 17.7369, 14.7577, 0.932189, 3.51077, -0.0557752, 0.00030789, -0.00156336, -0.000580646, -0.00211726, -0.00365072, 0.00168193, 0.0111243, -0.000309006, 0.0161547, 0.0318766, 0.0512804, 0.0985371, -0.0106787, -0.44504, 0.634122, -3.12978, -0.056741, -0.110767, -0.0104699, -0.443473, 0.634736, -3.13213, -0.0544896, -0.105172, 0.0136449, -0.00964662, -0.0280126, 0.00142815, -0.0105259, -0.0126895
0.10501, 0.108537, -0.774003, -0.917304, -1.45636, -0.627003, 1.07034, -0.256703, 0.0390564, 0.00274408, -0.0482147, 0.000711538, -0.014092, 0.000523799, -0.000382095, 0.701973, 15.8624, 17.7369, 14.7577, 0.945006, 3.51077, -0.0292249, 0.000295741, -0.00156227, -0.000594312, -0.0021479, -0.00373976, 0.00171014, 0.0118176, -0.00150864, 0.0148408, 0.0295706, 0.0548576, 0.10022, -0.0106649, -0.44505, 0.634094, -3.12971, -0.0567774, -0.110867, -0.0104692, -0.443484, 0.63472, -3.13211, -0.0544814, -0.105134, 0.0139255, -0.00982742, -0.0285528, 0.00115319, -0.0119176, -0.0146
0.10601, 0.108568, -0.773999, -0.917351, -1.45636, -0.627016, 1.07034, -0.256697, 0.0369171, 0.00112922, -0.0503017, -0.000394807, -0.010081, 0.00011764, 0.000965973, 0.777352, 15.9021, 17.6615, 14.7934, 0.932189, 3.5181, -0.0621838, 0.000282009, -0.00156202, -0.000608528, -0.00217879, -0.0038248, 0.00174831, 0.0131903, -0.0010942, 0.0144398, 0.0265512, 0.0519726, 0.099635, -0.0106509, -0.44506, 0.634065, -3.12965, -0.0568144, -0.110969, -0.0104699, -0.443495, 0.634705, -3.13208, -0.0544585, -0.105105, 0.0142086, -0.0100093, -0.0290967, 8.03118e-05, -0.0117315, -0.0156388
0.10701, 0.108609, -0.773995, -0.9174, -1.45636, -0.62703, 1.07034, -0.256696, 0.0358568, 0.0009237, -0.0529153, 0.00138177, -0.00782883, 0.000379475, 0.000643982, 0.701973, 15.9021, 17.6258, 14.722, 0.938597, 3.51077, -0.0621838, 0.000269908, -0.00156025, -0.000625092, -0.00221605, -0.00390797, 0.00177852, 0.0147009, -0.00127699, 0.0148527, 0.0261898, 0.0496492, 0.0990846, -0.0106365, -0.44507, 0.634036, -3.12958, -0.0568522, -0.111073, -0.0104688, -0.443508, 0.634691, -3.13206, -0.0544483, -0.105081, 0.0144943, -0.0101922, -0.0296444, -0.00116319, -0.0121571, -0.0158846
0.10801, 0.108642, -0.773996, -0.917453, -1.45636, -0.627045, 1.07034, -0.2567, 0.0385867, 0.00301316, -0.0516417, -0.00226962, -0.0107627, 0.00027532, -0.00102874, 0.737679, 15.9378, 17.5901, 14.722, 0.945006, 3.51077, -0.0228162, 0.000252469, -0.0015586, -0.000638976, -0.00224756, -0.00399234, 0.00181164, 0.0125182, -0.000947575, 0.0146529, 0.0271961, 0.0571202, 0.106932, -0.0106219, -0.44508, 0.634006, -3.12951, -0.0568906, -0.111178, -0.0104725, -0.44352, 0.634674, -3.13203, -0.0544346, -0.105056, 0.0147825, -0.0103762, -0.0301957, 0.00130193, -0.0119325, -0.0164785
0.10901, 0.10868, -0.773986, -0.917503, -1.45636, -0.627059, 1.07034, -0.256701, 0.0391517, 0.00496205, -0.0507292, -0.00179171, -0.0124398, 0.000200298, -0.00116054, 0.701973, 15.8267, 17.5504, 14.722, 0.938597, 3.51077, -0.00999879, 0.000241432, -0.00155795, -0.000655047, -0.00228297, -0.00408732, 0.00184076, 0.0120595, -0.000747391, 0.0156797, 0.0298945, 0.0607983, 0.109301, -0.010607, -0.44509, 0.633975, -3.12945, -0.0569298, -0.111286, -0.0104698, -0.443532, 0.634659, -3.132, -0.0544277, -0.105017, 0.0150731, -0.0105613, -0.0307507, 0.00196886, -0.0119135, -0.015976
0.11001, 0.108712, -0.773985, -0.917551, -1.45635, -0.62707, 1.07034, -0.256696, 0.0347814, 0.00273894, -0.0473944, 0.000359789, -0.00909941, 0.000146096, 0.000921725, 0.737679, 15.8624, 17.4036, 14.6466, 0.932189, 3.51077, -0.0557752, 0.000225377, -0.00155727, -0.000674142, -0.00232514, -0.00416586, 0.00188157, 0.0136319, 0.0004284, 0.0179058, 0.0329339, 0.0552691, 0.10795, -0.0105917, -0.445101, 0.633944, -3.12938, -0.0569696, -0.111396, -0.010472, -0.443544, 0.634646, -3.13198, -0.054403, -0.105006, 0.0153663, -0.0107473, -0.0313093, 0.000492701, -0.011007, -0.0144173
0.11101, 0.108759, -0.773978, -0.917613, -1.45636, -0.627083, 1.07034, -0.2567, 0.0413118, 0.00286076, -0.0525656, -0.000752088, -0.0115183, 0.000378088, -0.000843579, 0.626595, 15.8267, 17.4393, 14.6823, 0.932189, 3.50345, -0.0164075, 0.000213547, -0.00155469, -0.000686755, -0.00235161, -0.00426312, 0.00190744, 0.0128437, -0.000790501, 0.0165032, 0.0308693, 0.0589037, 0.113759, -0.0105762, -0.445112, 0.633913, -3.1293, -0.0570102, -0.111507, -0.0104692, -0.443558, 0.634626, -3.13194, -0.054403, -0.104967, 0.015662, -0.0109343, -0.0318714, 0.00171717, -0.0123697, -0.0163337
0.11201, 0.108794, -0.773966, -0.917671, -1.45636, -0.627095, 1.07034, -0.256703, 0.0393517, 0.00465532, -0.0544994, -0.00154696, -0.00797683, 0.000259126, -0.000325027, 0.6623, 15.7156, 17.4036, 14.722, 0.913878, 3.50345, -0.0228162, 0.000198648, -0.00155366, -0.000701738, -0.00238309, -0.00436416, 0.00194466, 0.0131898, -0.000392708, 0.0164094, 0.0288513, 0.059453, 0.113985, -0.0105604, -0.445123, 0.63388, -3.12923, -0.0570515, -0.111621, -0.0104694, -0.443571, 0.634608, -3.1319, -0.0543859, -0.104925, 0.0159602, -0.0111224, -0.0324371, 0.00166125, -0.0121731, -0.0170154
0.11301, 0.108831, -0.773967, -0.917727, -1.45636, -0.627105, 1.07034, -0.256702, 0.0420577, 0.0023806, -0.0518194, 0.000643771, -0.0105287, 0.000449318, 0.000495392, 0.6623, 15.7513, 17.3282, 14.6466, 0.908385, 3.49612, -0.0420422, 0.000181242, -0.00155254, -0.000719412, -0.00242003, -0.00444785, 0.00198253, 0.0130063, -0.00024923, 0.018277, 0.033831, 0.0582865, 0.117649, -0.0105443, -0.445134, 0.633848, -3.12916, -0.0570936, -0.111737, -0.0104719, -0.443584, 0.634592, -3.13187, -0.0543682, -0.104911, 0.0162609, -0.0113113, -0.0330063, 0.00200562, -0.0122346, -0.0157086
0.11401, 0.108872, -0.773962, -0.917789, -1.45636, -0.627121, 1.07034, -0.256698, 0.0417431, 0.00250649, -0.055679, -0.000472158, -0.0134054, -0.000239014, 0.00056762, 0.626595, 15.7156, 17.3282, 14.6823, 0.926695, 3.51077, -0.0484509, 0.00016448, -0.00155049, -0.000733536, -0.00245015, -0.00454849, 0.00202522, 0.015011, -0.000911944, 0.0173909, 0.032514, 0.06264, 0.115609, -0.0105279, -0.445146, 0.633814, -3.12908, -0.0571363, -0.111854, -0.0104733, -0.443598, 0.634571, -3.13184, -0.0543441, -0.104873, 0.016564, -0.0115013, -0.033579, 0.000396706, -0.0131508, -0.0173154
0.11501, 0.108915, -0.773959, -0.91785, -1.45635, -0.627131, 1.07034, -0.256695, 0.0406343, 0.00407063, -0.0573855, -0.000935117, -0.0145515, 0.000114906, 0.0011244, 0.626595, 15.7513, 17.2925, 14.5712, 0.920287, 3.50345, -0.0685925, 0.000147198, -0.00154837, -0.000752109, -0.00248814, -0.00463579, 0.00206777, 0.0159218, -0.00113525, 0.0174857, 0.0332529, 0.0660663, 0.11444, -0.0105112, -0.445157, 0.633781, -3.12901, -0.0571798, -0.111974, -0.0104751, -0.443613, 0.634555, -3.1318, -0.0543206, -0.104858, 0.0168696, -0.0116921, -0.034155, -0.000205345, -0.0136004, -0.0178654
0.11601, 0.108954, -0.773948, -0.917909, -1.45636, -0.627142, 1.07034, -0.256697, 0.0429954, 0.00469586, -0.061297, -0.00268794, -0.011364, 0.000350108, 3.61403e-06, 0.626595, 15.6799, 17.2529, 14.6466, 0.932189, 3.49612, -0.0484509, 0.000134565, -0.00154793, -0.000767677, -0.00252159, -0.0047434, 0.00209968, 0.015195, -0.0013037, 0.016406, 0.0295183, 0.0663085, 0.119483, -0.0104942, -0.445169, 0.633746, -3.12893, -0.0572241, -0.112096, -0.0104719, -0.443626, 0.634535, -3.13177, -0.0543147, -0.104814, 0.0171776, -0.0118839, -0.0347344, 0.000909195, -0.0139236, -0.0194726
0.11701, 0.109, -0.773945, -0.91797, -1.45635, -0.627151, 1.07034, -0.2567, 0.045615, 0.00557251, -0.0646874, 0.000580524, -0.00828924, 0.000472441, -0.000947026, 0.586922, 15.7156, 17.2172, 14.5355, 0.926695, 3.48971, -0.0228162, 0.00011897, -0.0015464, -0.000787312, -0.00256118, -0.00483411, 0.00213292, 0.0151851, -0.00167139, 0.0170031, 0.0288843, 0.0636545, 0.122394, -0.0104768, -0.445181, 0.633711, -3.12885, -0.0572691, -0.112219, -0.0104716, -0.44364, 0.634519, -3.13173, -0.0543071, -0.104798, 0.017488, -0.0120766, -0.0353172, 0.00119931, -0.0144919, -0.0194639
0.11801, 0.109037, -0.773943, -0.918033, -1.45636, -0.627161, 1.07034, -0.256697, 0.0418024, 0.00648043, -0.0634582, -0.0014529, -0.0109125, 0.000587486, 8.07259e-05, 0.6623, 15.7513, 17.1775, 14.6069, 0.926695, 3.48239, -0.0420422, 0.000100643, -0.00154564, -0.000802694, -0.00259319, -0.004934, 0.00217521, 0.0165391, -0.00129315, 0.0175027, 0.0312461, 0.068548, 0.120428, -0.0104592, -0.445193, 0.633676, -3.12877, -0.0573148, -0.112345, -0.0104734, -0.443654, 0.634497, -3.13169, -0.0542866, -0.104769, 0.0178009, -0.0122702, -0.0359033, 0.000111712, -0.014364, -0.0196471
0.11901, 0.109081, -0.773938, -0.918098, -1.45635, -0.627172, 1.07034, -0.256702, 0.044022, 0.00397828, -0.0667674, 0.00233797, -0.00770747, -0.000116026, -0.00140424, 0.6623, 15.791, 17.1775, 14.4601, 0.913878, 3.49612, -0.00267457, 8.2047e-05, -0.001544, -0.00082245, -0.00263211, -0.00503157, 0.00221397, 0.0178817, -0.00157417, 0.0181053, 0.0299741, 0.0625047, 0.123361, -0.0104412, -0.445205, 0.633639, -3.12869, -0.0573613, -0.112473, -0.0104754, -0.443669, 0.634479, -3.13166, -0.054272, -0.104747, 0.0181163, -0.0124646, -0.0364926, -0.00094527, -0.0148968, -0.0197361
0.12001, 0.109122, -0.773926, -0.918166, -1.45635, -0.627184, 1.07034, -0.256698, 0.0447208, 0.00719517, -0.0695077, 0.00239133, -0.00629342, 0.000160716, 0.00028454, 0.701973, 15.7513, 17.1775, 14.4205, 0.926695, 3.48971, -0.0356336, 6.43103e-05, -0.00154191, -0.00084057, -0.00266962, -0.00514045, 0.00226379, 0.0174491, -0.00172921, 0.0180769, 0.0291609, 0.0654261, 0.123092, -0.0104229, -0.445218, 0.633603, -3.12861, -0.0574085, -0.112603, -0.0104762, -0.443685, 0.63446, -3.13162, -0.0542411, -0.104708, 0.018434, -0.0126599, -0.0370852, -0.000189861, -0.0152329, -0.0203291
0.12101, 0.109162, -0.77392, -0.918238, -1.45636, -0.627195, 1.07034, -0.256697, 0.045413, 0.00766819, -0.0689587, 0.000594704, -0.00514672, 0.000650209, 0.00164776, 0.737679, 15.791, 17.2172, 14.4601, 0.938597, 3.47507, -0.0750012, 4.43991e-05, -0.00153953, -0.000855922, -0.00270188, -0.00524928, 0.00231235, 0.0164409, -0.00126281, 0.0183361, 0.0295416, 0.0667674, 0.12649, -0.0104044, -0.445231, 0.633565, -3.12852, -0.0574565, -0.112735, -0.0104786, -0.443701, 0.634436, -3.13157, -0.0542132, -0.104672, 0.0187541, -0.012856, -0.0376809, 0.00109799, -0.0149314, -0.020591
0.12201, 0.109206, -0.773907, -0.918309, -1.45636, -0.627204, 1.07034, -0.256694, 0.0426178, 0.0130889, -0.0683598, -0.000492372, -0.00822953, 0.000162604, 0.00133586, 0.777352, 15.7513, 17.2529, 14.4958, 0.932189, 3.48239, -0.0814099, 2.82891e-05, -0.00153851, -0.00087227, -0.00273358, -0.00536473, 0.00235703, 0.0165352, -0.000929471, 0.0190419, 0.0319885, 0.0762531, 0.125723, -0.0103854, -0.445244, 0.633527, -3.12844, -0.0575053, -0.11287, -0.010477, -0.443716, 0.634413, -3.13153, -0.0541922, -0.104627, 0.0190766, -0.013053, -0.0382798, 0.00126202, -0.0148091, -0.0204915
0.12301, 0.109248, -0.773901, -0.918376, -1.45636, -0.627215, 1.07034, -0.256696, 0.0407319, 0.0103642, -0.0691801, 0.00222999, -0.00639851, 0.000108701, 0.000178498, 0.813057, 15.8624, 17.2172, 14.3848, 0.938597, 3.48239, -0.0621838, 8.55357e-06, -0.00153733, -0.000893199, -0.0027753, -0.00546919, 0.00240181, 0.0189432, -0.000827527, 0.0202175, 0.0331856, 0.07127, 0.126067, -0.0103662, -0.445257, 0.633489, -3.12835, -0.0575548, -0.113006, -0.010479, -0.443731, 0.634394, -3.13149, -0.0541713, -0.104602, 0.0194015, -0.0132507, -0.0388819, -0.000902999, -0.0150087, -0.0200959
0.12401, 0.10929, -0.773888, -0.918446, -1.45636, -0.627225, 1.07034, -0.256698, 0.0415671, 0.01119, -0.070793, 0.0014565, -0.00500913, 7.26911e-05, -0.000626986, 0.888436, 15.8624, 17.2172, 14.3848, 0.945006, 3.48239, -0.0420422, -9.06905e-06, -0.00153645, -0.000911768, -0.00281242, -0.00558738, 0.00244573, 0.0186888, -0.000712081, 0.0201494, 0.0322061, 0.0724933, 0.129751, -0.0103466, -0.44527, 0.633449, -3.12826, -0.0576051, -0.113144, -0.0104784, -0.443746, 0.634373, -3.13145, -0.0541528, -0.104558, 0.0197288, -0.0134493, -0.039487, -0.000323229, -0.0150841, -0.0207514
0.12501, 0.109336, -0.773875, -0.918526, -1.45636, -0.627236, 1.07034, -0.2567, 0.0408947, 0.0116998, -0.0719783, 0.000948375, -0.0088457, -0.000222639, 0.00356666, 0.888436, 15.8624, 17.3282, 14.3848, 0.956908, 3.48971, -0.0228162, -2.9151e-05, -0.0015344, -0.000927623, -0.00284076, -0.00570969, 0.00249426, 0.0201682, -0.00104343, 0.0203078, 0.0338427, 0.0772839, 0.124625, -0.0103267, -0.445284, 0.63341, -3.12817, -0.0576562, -0.113285, -0.0104798, -0.443763, 0.634347, -3.1314, -0.0541283, -0.104509, 0.0200585, -0.0136486, -0.0400951, -0.00146881, -0.0156726, -0.0213139
0.12601, 0.109378, -0.77386, -0.918597, -1.45637, -0.627244, 1.07034, -0.256699, 0.0416993, 0.0160214, -0.0717339, 0.000615283, -0.0108408, 0.000394235, 0.00300652, 0.963814, 15.8267, 17.2925, 14.3848, 0.945006, 3.47507, -0.0292249, -4.5974e-05, -0.00153346, -0.000947714, -0.0028825, -0.00582949, 0.00254122, 0.0189544, -0.00101855, 0.021098, 0.0366421, 0.0838651, 0.127612, -0.0103065, -0.445298, 0.633369, -3.12808, -0.0577081, -0.113428, -0.0104779, -0.443778, 0.634326, -3.13136, -0.0541065, -0.104467, 0.0203905, -0.0138487, -0.0407063, 1.33265e-05, -0.0158156, -0.0210508
0.12701, 0.109428, -0.77385, -0.91867, -1.45637, -0.627251, 1.07034, -0.256699, 0.0448818, 0.0102418, -0.0705659, 0.00123268, -0.00836337, -8.3497e-06, 0.00229789, 0.928108, 15.9021, 17.2925, 14.3491, 0.951415, 3.48239, -0.0292249, -6.26935e-05, -0.00153255, -0.000967565, -0.00292015, -0.00594471, 0.00258236, 0.0188912, -0.000466399, 0.0219005, 0.0367984, 0.0768622, 0.135521, -0.010286, -0.445311, 0.633328, -3.12799, -0.0577607, -0.113573, -0.0104755, -0.443794, 0.634303, -3.13131, -0.0540947, -0.104433, 0.0207248, -0.0140495, -0.0413204, 0.000330319, -0.0154748, -0.0208567
0.12801, 0.109468, -0.773837, -0.918749, -1.45637, -0.62726, 1.07034, -0.256695, 0.044319, 0.013268, -0.0750369, -0.000408193, -0.0109904, -5.49564e-06, 0.00297279, 1.00349, 15.9378, 17.4036, 14.2737, 0.951415, 3.48239, -0.0621838, -8.51928e-05, -0.00153082, -0.000987124, -0.00295763, -0.00606554, 0.00264289, 0.0201223, -0.00122521, 0.020906, 0.0355843, 0.0840015, 0.132703, -0.0102651, -0.445326, 0.633287, -3.1279, -0.0578142, -0.11372, -0.0104785, -0.443811, 0.63428, -3.13126, -0.0540536, -0.104394, 0.0210615, -0.0142511, -0.0419374, -0.000461559, -0.0164697, -0.0225646
0.12901, 0.109513, -0.773819, -0.91883, -1.45637, -0.627268, 1.07034, -0.256693, 0.0420723, 0.0140315, -0.077534, -0.00136314, -0.00890578, -3.61063e-06, 0.00285906, 1.03919, 15.9021, 17.5147, 14.3094, 0.969725, 3.48239, -0.0814099, -0.000103556, -0.00152951, -0.001005, -0.00299157, -0.00619701, 0.00269571, 0.0213675, -0.00111046, 0.0206469, 0.0338929, 0.0847711, 0.132425, -0.0102438, -0.44534, 0.633244, -3.1278, -0.0578684, -0.113869, -0.010477, -0.443828, 0.634254, -3.13121, -0.0540255, -0.104339, 0.0214005, -0.0144534, -0.0425574, -0.00135091, -0.0166021, -0.0235349
0.13001, 0.109561, -0.773803, -0.918903, -1.45637, -0.627278, 1.07034, -0.256691, 0.0451373, 0.012889, -0.0761669, 0.000662627, -0.00729084, -2.36725e-06, 0.00155516, 1.00349, 15.9378, 17.479, 14.234, 0.988036, 3.48239, -0.0685925, -0.000120814, -0.00152913, -0.00102739, -0.00303577, -0.00632463, 0.00274372, 0.0203053, -0.0006679, 0.0221561, 0.0360584, 0.0819291, 0.139847, -0.0102223, -0.445355, 0.633201, -3.12771, -0.0579234, -0.114021, -0.0104744, -0.443844, 0.634232, -3.13117, -0.0540053, -0.104293, 0.0217418, -0.0146563, -0.0431802, -7.88037e-05, -0.0163456, -0.022573
0.13101, 0.109603, -0.773789, -0.918981, -1.45637, -0.627286, 1.07034, -0.256693, 0.0479373, 0.0121625, -0.0765258, -0.00204992, -0.00957652, 0.000269719, 0.00112965, 1.07887, 15.9735, 17.5147, 14.1983, 0.975218, 3.47507, -0.0685925, -0.000142577, -0.00152821, -0.00104857, -0.00307648, -0.00645089, 0.00279711, 0.019551, -0.000746826, 0.0217841, 0.0364763, 0.0854869, 0.145376, -0.0102004, -0.445369, 0.633158, -3.12761, -0.0579792, -0.114174, -0.0104759, -0.443861, 0.634209, -3.13112, -0.0539776, -0.104252, 0.0220854, -0.01486, -0.0438058, 0.00104469, -0.0165986, -0.0235177
0.13201, 0.109648, -0.773771, -0.91906, -1.45638, -0.627292, 1.07034, -0.256697, 0.0487085, 0.0155523, -0.0770657, -0.00173978, -0.00715464, 0.000179835, -0.000160583, 1.07887, 15.9735, 17.5147, 14.1983, 0.975218, 3.47507, -0.0420422, -0.000160183, -0.00152825, -0.00106848, -0.00311372, -0.00658619, 0.00284177, 0.0182424, -0.000295404, 0.0224651, 0.0365183, 0.0877937, 0.150312, -0.0101781, -0.445384, 0.633114, -3.12751, -0.0580358, -0.11433, -0.0104728, -0.443877, 0.634183, -3.13107, -0.0539645, -0.104198, 0.0224314, -0.0150643, -0.0444342, 0.00262636, -0.0163153, -0.0233689
0.13301, 0.109692, -0.773757, -0.919142, -1.45638, -0.627302, 1.07034, -0.256697, 0.0475177, 0.016277, -0.0813046, -0.00273676, -0.0105779, 0.000119907, -0.00100425, 1.15424, 16.0489, 17.5504, 14.1229, 0.988036, 3.47507, -0.0164075, -0.000183289, -0.00152701, -0.00108989, -0.00315493, -0.00671708, 0.00289976, 0.0206827, -0.00115694, 0.0216813, 0.0360028, 0.0928602, 0.147908, -0.0101555, -0.445399, 0.633069, -3.12741, -0.0580933, -0.114488, -0.0104749, -0.443894, 0.634158, -3.13102, -0.0539314, -0.104154, 0.0227796, -0.0152693, -0.0450654, 0.000629853, -0.0174633, -0.0249715
0.13401, 0.109741, -0.773738, -0.919229, -1.45639, -0.627307, 1.07034, -0.256698, 0.0493993, 0.0178651, -0.0814479, -0.00547369, -0.00740681, -0.000191317, -0.000392955, 1.11457, 16.0846, 17.6258, 14.1229, 0.975218, 3.48239, -0.0228162, -0.000202565, -0.00152603, -0.00110889, -0.0031882, -0.00685452, 0.00295043, 0.018554, -0.000386074, 0.0214252, 0.0338752, 0.0948972, 0.154296, -0.0101325, -0.445415, 0.633024, -3.12731, -0.0581515, -0.114649, -0.0104726, -0.443912, 0.63413, -3.13096, -0.0539108, -0.104101, 0.0231301, -0.0154749, -0.0456993, 0.00308966, -0.01682, -0.0256991
0.13501, 0.109783, -0.773726, -0.919309, -1.45639, -0.627314, 1.07034, -0.256697, 0.047836, 0.0172234, -0.0799472, -0.00564684, -0.00603479, 0.000415, 0.000479495, 1.18995, 16.1957, 17.5901, 14.0475, 0.988036, 3.46774, -0.0420422, -0.000225785, -0.00152581, -0.00113171, -0.00323204, -0.00698466, 0.00300875, 0.0188804, 0.000219789, 0.0225339, 0.0359124, 0.093839, 0.156087, -0.0101092, -0.44543, 0.632978, -3.12721, -0.0582105, -0.114811, -0.0104743, -0.443929, 0.634105, -3.13091, -0.0538787, -0.104063, 0.0234829, -0.0156811, -0.0463358, 0.00301123, -0.0164501, -0.0252499
0.13601, 0.109831, -0.773707, -0.919397, -1.4564, -0.627316, 1.07034, -0.2567, 0.0455554, 0.0164414, -0.0825774, -0.00682759, -0.00827871, 0.000276674, -0.000607732, 1.18995, 16.1957, 17.6258, 14.0118, 0.963317, 3.46774, -0.0164075, -0.000245549, -0.00152542, -0.00115201, -0.00326726, -0.00712361, 0.00305919, 0.0214856, -0.000171522, 0.0221292, 0.0357169, 0.0965992, 0.154759, -0.0100856, -0.445446, 0.632931, -3.1271, -0.0582704, -0.114976, -0.010472, -0.443946, 0.634078, -3.13085, -0.0538601, -0.104012, 0.0238379, -0.015888, -0.046975, 0.000812057, -0.0171413, -0.0264909
0.13701, 0.109881, -0.773691, -0.919477, -1.45641, -0.627319, 1.07034, -0.256691, 0.0500593, 0.0172304, -0.0838344, -0.00852889, -0.00670197, -8.6813e-05, 0.00154416, 1.18995, 16.2671, 17.5147, 14.0118, 0.975218, 3.47507, -0.0685925, -0.000262368, -0.00152692, -0.00117328, -0.00330505, -0.00726493, 0.00311213, 0.0193389, 6.18782e-05, 0.0217673, 0.0338845, 0.098482, 0.160108, -0.0100616, -0.445462, 0.632884, -3.127, -0.0583311, -0.115144, -0.0104666, -0.443962, 0.634051, -3.13079, -0.0538383, -0.10396, 0.0241952, -0.0160954, -0.0476168, 0.00332435, -0.0170347, -0.0273354
0.13801, 0.10993, -0.773671, -0.919574, -1.45642, -0.627323, 1.07034, -0.256695, 0.0502295, 0.018655, -0.0872944, -0.00881393, -0.0050245, 0.000213396, 0.000567117, 1.18995, 16.3068, 17.5901, 13.9722, 0.975218, 3.46774, -0.0557752, -0.000285741, -0.00152485, -0.00119289, -0.00333924, -0.00740708, 0.00317046, 0.0198321, -0.000193382, 0.0214411, 0.0322964, 0.0997355, 0.161915, -0.0100372, -0.445478, 0.632836, -3.12689, -0.0583926, -0.115313, -0.010467, -0.443981, 0.63402, -3.13073, -0.0538092, -0.103909, 0.0245547, -0.0163034, -0.0482612, 0.00322373, -0.0175145, -0.0283466
0.13901, 0.10998, -0.773648, -0.919665, -1.45642, -0.627321, 1.07034, -0.256693, 0.0466861, 0.0183525, -0.0865061, -0.00829472, -0.00288543, 0.000142267, 0.00109945, 1.18995, 16.2671, 17.5504, 13.9008, 0.951415, 3.46774, -0.0750012, -0.000304887, -0.00152479, -0.00121428, -0.00337456, -0.00755121, 0.00322602, 0.0212336, 0.000508242, 0.0225877, 0.0335145, 0.0983556, 0.161573, -0.0100124, -0.445495, 0.632787, -3.12678, -0.0584549, -0.115485, -0.0104631, -0.443999, 0.633992, -3.13067, -0.0537852, -0.103857, 0.0249165, -0.016512, -0.0489081, 0.00207589, -0.0170921, -0.0279487
0.14001, 0.110028, -0.773625, -0.91976, -1.45643, -0.627321, 1.07034, -0.256694, 0.0465969, 0.016981, -0.0884632, -0.00869253, -0.0019993, 9.48469e-05, 0.000502584, 1.22962, 16.2671, 17.479, 13.8611, 0.945006, 3.46774, -0.0685925, -0.000326, -0.0015244, -0.00123522, -0.00340923, -0.00769948, 0.0032842, 0.0223774, 0.000470326, 0.0225345, 0.0327018, 0.097605, 0.163592, -0.00998734, -0.445511, 0.632738, -3.12667, -0.058518, -0.115659, -0.0104608, -0.444017, 0.633962, -3.1306, -0.053758, -0.103801, 0.0252805, -0.0167211, -0.0495576, 0.001303, -0.0173838, -0.0287389
0.14101, 0.110084, -0.773605, -0.919865, -1.45644, -0.627325, 1.07034, -0.256696, 0.0494107, 0.0181706, -0.0978198, -0.00593565, -0.00180501, 0.0003345, -0.00111778, 1.15424, 16.3068, 17.479, 13.8254, 0.951415, 3.46042, -0.0292249, -0.000348858, -0.00152129, -0.0012528, -0.00343874, -0.0078502, 0.00334387, 0.0246138, -0.00134303, 0.0213871, 0.0294253, 0.0980991, 0.161939, -0.00996188, -0.445528, 0.632688, -3.12656, -0.058582, -0.115835, -0.0104595, -0.444038, 0.633928, -3.13053, -0.0537297, -0.103744, 0.0256467, -0.0169307, -0.0502094, -0.000408572, -0.0194756, -0.0307235
0.14201, 0.11014, -0.773579, -0.91997, -1.45646, -0.627323, 1.07035, -0.256699, 0.0505344, 0.0209743, -0.100892, -0.00950526, -0.00137942, 0.000731628, -0.00097862, 1.11457, 16.2671, 17.4393, 13.9008, 0.951415, 3.44668, -0.0228162, -0.000367727, -0.00151964, -0.00126958, -0.00346479, -0.00800685, 0.00339602, 0.0237083, -0.00147511, 0.0202063, 0.0269405, 0.103773, 0.164984, -0.00993605, -0.445545, 0.632638, -3.12645, -0.0586468, -0.116014, -0.0104539, -0.444058, 0.633893, -3.13046, -0.053714, -0.103679, 0.0260151, -0.0171409, -0.0508638, 0.000952365, -0.0197711, -0.0324928
0.14301, 0.1102, -0.773562, -0.920077, -1.45646, -0.627321, 1.07034, -0.256699, 0.0583884, 0.0203191, -0.102537, -0.00854989, -0.000576961, 0.000250394, -0.00163282, 1.03919, 16.3425, 17.3282, 13.8254, 0.938597, 3.45309, 0.00373412, -0.000391131, -0.0015173, -0.00128928, -0.00349427, -0.00815088, 0.0034551, 0.021369, -0.00166351, 0.0203925, 0.026252, 0.103211, 0.17451, -0.00990985, -0.445562, 0.632586, -3.12633, -0.0587125, -0.116195, -0.0104526, -0.444079, 0.63386, -3.13038, -0.0536882, -0.103636, 0.0263857, -0.0173516, -0.0515205, 0.00364553, -0.0200892, -0.032795
0.14401, 0.110253, -0.773535, -0.920192, -1.45647, -0.627318, 1.07035, -0.256694, 0.0583848, 0.0203312, -0.104631, -0.00881554, 0.00019448, 0.00121809, 0.000371725, 1.07887, 16.2671, 17.2925, 13.7857, 0.920287, 3.42471, -0.0356336, -0.000415265, -0.00151371, -0.00130703, -0.00352206, -0.00830812, 0.00352953, 0.0220495, -0.00190097, 0.0204892, 0.0264749, 0.103349, 0.173818, -0.00988328, -0.44558, 0.632535, -3.12622, -0.058779, -0.116378, -0.0104515, -0.444101, 0.633824, -3.13031, -0.0536396, -0.103575, 0.0267585, -0.0175627, -0.0521796, 0.00333998, -0.0205673, -0.0334141
0.14501, 0.110315, -0.773512, -0.920304, -1.45648, -0.627318, 1.07035, -0.256689, 0.0571241, 0.0254973, -0.103823, -0.00992536, 0.000292726, 0.00108333, 0.00170753, 1.03919, 16.2314, 17.2172, 13.7857, 0.913878, 3.41739, -0.0750012, -0.000436631, -0.00151086, -0.00132433, -0.00354821, -0.00846656, 0.00359293, 0.0208579, -0.00125135, 0.0212819, 0.0279134, 0.110105, 0.174846, -0.00985633, -0.445598, 0.632482, -3.1261, -0.0588463, -0.116563, -0.0104472, -0.444123, 0.633787, -3.13023, -0.0536091, -0.103514, 0.0271335, -0.0177744, -0.052841, 0.00481674, -0.0201, -0.0331918
0.14601, 0.110379, -0.773483, -0.920419, -1.45649, -0.627314, 1.07035, -0.256691, 0.0570483, 0.023812, -0.105863, -0.0121981, 0.00125841, 0.000722219, 0.00042752, 0.963814, 16.16, 17.1418, 13.7143, 0.883666, 3.41739, -0.0557752, -0.000457216, -0.00150806, -0.00134319, -0.00357527, -0.00862801, 0.00365185, 0.0217618, -0.00112768, 0.0206073, 0.0256815, 0.110389, 0.178544, -0.00982901, -0.445615, 0.632429, -3.12598, -0.0589145, -0.116751, -0.0104419, -0.444145, 0.633751, -3.13015, -0.0535864, -0.103451, 0.0275107, -0.0179865, -0.0535047, 0.0043363, -0.0202157, -0.0345973
0.14701, 0.110434, -0.773465, -0.92054, -1.4565, -0.627314, 1.07035, -0.256689, 0.0573351, 0.0231113, -0.113572, -0.0156012, 0.00103452, 0.000752747, 0.000998021, 1.00349, 16.1957, 17.1061, 13.7143, 0.877257, 3.41006, -0.0750012, -0.000486345, -0.00150424, -0.0013596, -0.00359888, -0.00878543, 0.00372701, 0.024005, -0.00222581, 0.0180514, 0.0200863, 0.113354, 0.17644, -0.00980131, -0.445634, 0.632375, -3.12586, -0.0589835, -0.116942, -0.0104446, -0.444168, 0.633712, -3.13006, -0.0535395, -0.103396, 0.02789, -0.018199, -0.0541706, 0.00271027, -0.0215754, -0.0379957
0.14801, 0.110495, -0.773445, -0.920661, -1.45652, -0.627311, 1.07035, -0.256697, 0.058573, 0.0227076, -0.116061, -0.0150189, 0.00133651, 0.00101046, -0.00102938, 1.00349, 16.2314, 17.0664, 13.7143, 0.858946, 3.39633, -0.0292249, -0.000512244, -0.0015004, -0.00137633, -0.00362285, -0.00894443, 0.0037852, 0.0247415, -0.00255554, 0.0181894, 0.0199974, 0.11329, 0.180088, -0.00977323, -0.445652, 0.63232, -3.12574, -0.0590534, -0.117134, -0.0104436, -0.444192, 0.633672, -3.12998, -0.0535198, -0.103341, 0.0282715, -0.018412, -0.0548388, 0.00235832, -0.0221503, -0.0385889
0.14901, 0.110561, -0.773421, -0.920786, -1.45653, -0.627311, 1.07035, -0.256698, 0.0637189, 0.0241675, -0.118604, -0.0145346, 0.0008675, 0.00121617, -0.00166907, 0.963814, 16.1957, 17.0664, 13.7143, 0.858946, 3.38168, -0.00267457, -0.0005364, -0.00149596, -0.00139297, -0.00364729, -0.00911198, 0.00385065, 0.0233399, -0.00303218, 0.018221, 0.0199899, 0.115802, 0.185884, -0.00974476, -0.44567, 0.632265, -3.12562, -0.0591241, -0.117329, -0.0104405, -0.444216, 0.633632, -3.12989, -0.0534898, -0.103275, 0.0286551, -0.0186253, -0.0555092, 0.00415261, -0.0227913, -0.0391317
0.15001, 0.110624, -0.773401, -0.9209, -1.45654, -0.627311, 1.07035, -0.256697, 0.0616375, 0.021254, -0.115489, -0.0131873, 0.000798064, 0.00135332, -0.00111232, 1.03919, 16.1957, 16.9196, 13.6746, 0.852538, 3.36703, -0.00267457, -0.000560409, -0.00149378, -0.00141333, -0.00367956, -0.00927517, 0.00391371, 0.024735, -0.00230825, 0.0201861, 0.024065, 0.112798, 0.187374, -0.00971592, -0.445689, 0.632209, -3.12549, -0.0591957, -0.117527, -0.0104373, -0.444238, 0.633594, -3.12981, -0.053464, -0.103219, 0.0290408, -0.0188391, -0.0561817, 0.00297153, -0.0223659, -0.0379449
0.15101, 0.110692, -0.773374, -0.92103, -1.45655, -0.627311, 1.07035, -0.256696, 0.0651985, 0.0271246, -0.117172, -0.0123451, 0.000518821, 0.000630944, -0.000469986, 1.03919, 16.1203, 16.995, 13.6389, 0.852538, 3.37436, -0.00999879, -0.000585866, -0.00148926, -0.00142956, -0.0037009, -0.00944981, 0.00398474, 0.022556, -0.00230598, 0.0207053, 0.0243794, 0.119749, 0.19086, -0.00968668, -0.445708, 0.632153, -3.12537, -0.0592682, -0.117726, -0.0104347, -0.444263, 0.633552, -3.12972, -0.0534274, -0.103147, 0.0294287, -0.0190533, -0.0568564, 0.00548954, -0.0225076, -0.0379412
0.15201, 0.110759, -0.773354, -0.921157, -1.45657, -0.627307, 1.07035, -0.256691, 0.0646459, 0.0223431, -0.117168, -0.0116601, 0.000573324, 0.000929256, 0.00138232, 1.03919, 16.16, 17.0307, 13.5992, 0.846129, 3.36062, -0.0557752, -0.000611698, -0.00148551, -0.00144658, -0.00372397, -0.0096155, 0.00405555, 0.0246759, -0.00224095, 0.0214909, 0.0259263, 0.115299, 0.190627, -0.00965706, -0.445727, 0.632096, -3.12524, -0.0593415, -0.117929, -0.0104322, -0.444287, 0.63351, -3.12963, -0.0533918, -0.103091, 0.0298187, -0.0192678, -0.0575331, 0.00370339, -0.0227517, -0.0379977
0.15301, 0.11082, -0.773337, -0.921277, -1.45659, -0.627308, 1.07035, -0.256688, 0.0614079, 0.0220346, -0.118576, -0.0152162, -0.000337298, 0.000890771, 0.00187115, 1.15424, 16.1957, 16.995, 13.5992, 0.865355, 3.3533, -0.0814099, -0.000639764, -0.00148375, -0.00146565, -0.00375122, -0.0097875, 0.00412675, 0.0264397, -0.00206641, 0.0208052, 0.0248425, 0.119012, 0.189689, -0.00962704, -0.445747, 0.632038, -3.12511, -0.0594156, -0.118133, -0.0104318, -0.44431, 0.633469, -3.12954, -0.0533564, -0.103028, 0.0302108, -0.0194827, -0.0582119, 0.00238045, -0.0228516, -0.0394954
0.15401, 0.11089, -0.773312, -0.921403, -1.4566, -0.627307, 1.07035, -0.25669, 0.065222, 0.0215675, -0.120224, -0.0145822, 6.91593e-06, 0.000593848, 0.000772838, 1.15424, 16.1203, 16.995, 13.5992, 0.858946, 3.3533, -0.0685925, -0.000663277, -0.00148039, -0.00148423, -0.00377898, -0.00996445, 0.00418936, 0.0258548, -0.00219856, 0.0210738, 0.0246584, 0.119108, 0.195655, -0.00959664, -0.445766, 0.631979, -3.12498, -0.0594907, -0.11834, -0.0104264, -0.444334, 0.633427, -3.12945, -0.0533352, -0.10296, 0.0306049, -0.019698, -0.0588927, 0.00333992, -0.0231848, -0.0398698
0.15501, 0.110958, -0.773288, -0.921528, -1.45661, -0.627307, 1.07036, -0.256693, 0.0670691, 0.0208923, -0.123168, -0.0165212, -0.000236932, 0.000395898, -0.000705385, 1.18995, 16.0489, 16.9553, 13.5635, 0.865355, 3.3533, -0.0356336, -0.000688794, -0.00147756, -0.00150474, -0.00381024, -0.0101426, 0.00425348, 0.0262015, -0.00246063, 0.0202586, 0.0226661, 0.12111, 0.200091, -0.00956583, -0.445786, 0.63192, -3.12485, -0.0595666, -0.11855, -0.0104227, -0.444359, 0.633386, -3.12936, -0.0533125, -0.102893, 0.0310012, -0.0199136, -0.0595756, 0.00346, -0.0236665, -0.0413991
0.15601, 0.111027, -0.773273, -0.921665, -1.45664, -0.627307, 1.07036, -0.256698, 0.065301, 0.0201453, -0.129703, -0.0165212, -0.000161092, 0.000263932, -0.00216561, 1.22962, 16.1203, 17.0307, 13.5992, 0.865355, 3.3533, 0.0101428, -0.000719457, -0.00147282, -0.00151971, -0.00382902, -0.0103173, 0.00432059, 0.0296658, -0.00341065, 0.0191531, 0.019616, 0.121626, 0.197331, -0.00953463, -0.445806, 0.63186, -3.12472, -0.0596434, -0.118761, -0.0104233, -0.444385, 0.633339, -3.12926, -0.0532865, -0.102832, 0.0313996, -0.0201295, -0.0602603, 0.000524567, -0.0249484, -0.0434661
0.15701, 0.111086, -0.773252, -0.9218, -1.45665, -0.627309, 1.07035, -0.256696, 0.0645588, 0.0182042, -0.131696, -0.0179185, -0.000787916, -9.53125e-05, -0.000697701, 1.38038, 16.1203, 17.0307, 13.5635, 0.883666, 3.36062, -0.00999879, -0.00075374, -0.00146892, -0.0015371, -0.0038529, -0.010501, 0.0044078, 0.0314415, -0.00349098, 0.0188038, 0.0186783, 0.122314, 0.196523, -0.00950303, -0.445826, 0.6318, -3.12458, -0.059721, -0.118976, -0.0104273, -0.444411, 0.633293, -3.12916, -0.0532302, -0.10276, 0.0318, -0.0203457, -0.060947, -0.000816772, -0.02531, -0.0446424
0.15801, 0.11116, -0.773232, -0.921935, -1.45667, -0.627308, 1.07035, -0.256695, 0.065385, 0.0208231, -0.130241, -0.0188415, -5.23243e-05, -0.000572168, 9.62335e-06, 1.34071, 16.0846, 17.0307, 13.5278, 0.870848, 3.37436, -0.0228162, -0.000781169, -0.00146532, -0.0015558, -0.00387705, -0.0106811, 0.00447765, 0.0298646, -0.00269742, 0.0196717, 0.0197502, 0.126137, 0.201065, -0.00947103, -0.445847, 0.631738, -3.12445, -0.0597996, -0.119192, -0.0104242, -0.444437, 0.633249, -3.12906, -0.0532016, -0.102696, 0.0322025, -0.0205621, -0.0616356, 0.00105835, -0.0246918, -0.0443401
0.15901, 0.111226, -0.773208, -0.922074, -1.45669, -0.627311, 1.07035, -0.256696, 0.0667426, 0.0236106, -0.132988, -0.0197776, -0.000951734, -0.000110178, -0.000468273, 1.38038, 16.0092, 17.0664, 13.4882, 0.895568, 3.36703, -0.00999879, -0.000813545, -0.0014606, -0.00157441, -0.00390409, -0.0108691, 0.00455898, 0.0295877, -0.00308195, 0.0194301, 0.0196169, 0.1311, 0.203345, -0.00943863, -0.445867, 0.631676, -3.12431, -0.059879, -0.119411, -0.0104256, -0.444464, 0.633203, -3.12897, -0.0531561, -0.102623, 0.032607, -0.0207789, -0.062326, 0.00176981, -0.0252824, -0.0452601
0.16001, 0.111291, -0.773196, -0.922216, -1.45671, -0.627311, 1.07036, -0.256689, 0.0674065, 0.0188396, -0.135314, -0.0208816, -0.000872841, 0.000435174, 0.00209534, 1.45576, 16.0846, 17.1061, 13.5992, 0.901976, 3.3533, -0.0750012, -0.000848459, -0.00145622, -0.00158856, -0.00392212, -0.0110532, 0.00464554, 0.031538, -0.00342898, 0.0190109, 0.0187954, 0.127824, 0.202819, -0.00940582, -0.445888, 0.631614, -3.12417, -0.0599593, -0.119633, -0.0104288, -0.444491, 0.633151, -3.12886, -0.0531038, -0.102557, 0.0330136, -0.0209959, -0.0630183, 0.000276501, -0.0259171, -0.0465295
0.16101, 0.111366, -0.773172, -0.922359, -1.45674, -0.627309, 1.07035, -0.25669, 0.0706042, 0.0190204, -0.137686, -0.0177644, -0.000819997, 1.88489e-05, 0.00115955, 1.41608, 16.0092, 17.1775, 13.5635, 0.908385, 3.36062, -0.0685925, -0.000876865, -0.00145221, -0.00160529, -0.00394168, -0.011245, 0.00471735, 0.0318569, -0.00382546, 0.0198876, 0.019671, 0.127281, 0.206088, -0.0093726, -0.445909, 0.63155, -3.12403, -0.0600404, -0.119857, -0.0104253, -0.444517, 0.633102, -3.12875, -0.0530753, -0.102482, 0.0334222, -0.0212132, -0.0637123, 0.000313777, -0.0265607, -0.0463846
0.16201, 0.111435, -0.773151, -0.922496, -1.45676, -0.627309, 1.07035, -0.256691, 0.0720347, 0.0213209, -0.139743, -0.0189496, -0.000750674, -0.000224793, 0.000298328, 1.41608, 15.9735, 17.1418, 13.5278, 0.913878, 3.36703, -0.0557752, -0.000907756, -0.0014494, -0.00162487, -0.00396821, -0.0114366, 0.00479226, 0.0313104, -0.00383438, 0.0196855, 0.0187629, 0.131523, 0.209959, -0.00933897, -0.445931, 0.631486, -3.12389, -0.0601225, -0.120083, -0.0104241, -0.444543, 0.633056, -3.12865, -0.0530426, -0.102411, 0.0338328, -0.0214307, -0.0644081, 0.00128248, -0.0267674, -0.0472454
0.16301, 0.111504, -0.773137, -0.922637, -1.45678, -0.627308, 1.07035, -0.256691, 0.072861, 0.0181584, -0.139018, -0.0204344, -0.000500868, -0.000149862, 0.000198894, 1.41608, 16.0092, 17.1775, 13.5278, 0.913878, 3.36703, -0.0557752, -0.000940882, -0.00144611, -0.00164269, -0.00399154, -0.0116256, 0.00486872, 0.0316528, -0.00343084, 0.0200241, 0.0193068, 0.130089, 0.214872, -0.00930493, -0.445952, 0.631421, -3.12375, -0.0602054, -0.120312, -0.0104246, -0.44457, 0.633006, -3.12855, -0.0530086, -0.102345, 0.0342455, -0.0216484, -0.0651057, 0.00131007, -0.0266046, -0.0476319
0.16401, 0.111572, -0.773118, -0.922772, -1.45681, -0.627309, 1.07035, -0.25669, 0.0726824, 0.0199301, -0.137943, -0.0246906, -0.000571585, 0.000137451, -0.000613382, 1.45576, 16.0092, 17.1418, 13.5278, 0.920287, 3.36062, -0.0356336, -0.000972416, -0.0014441, -0.00166292, -0.00402098, -0.0118206, 0.00494511, 0.0303048, -0.00272831, 0.0198444, 0.0192878, 0.135492, 0.221002, -0.00927048, -0.445974, 0.631356, -3.1236, -0.0602893, -0.120544, -0.0104234, -0.444596, 0.632958, -3.12845, -0.0529754, -0.102273, 0.0346601, -0.0218663, -0.0658049, 0.00305177, -0.0260708, -0.0484021
0.16501, 0.11164, -0.773099, -0.922912, -1.45683, -0.627308, 1.07035, -0.256694, 0.0734697, 0.018071, -0.138011, -0.0231278, -0.000143933, -0.000145725, -0.00112099, 1.45576, 16.0092, 17.1418, 13.4525, 0.913878, 3.36703, -0.0164075, -0.00100575, -0.00144171, -0.00168336, -0.00404861, -0.0120158, 0.00502037, 0.0311588, -0.00254472, 0.0209168, 0.0207458, 0.133459, 0.22421, -0.00923561, -0.445996, 0.63129, -3.12346, -0.060374, -0.120777, -0.0104235, -0.444622, 0.63291, -3.12834, -0.052945, -0.102204, 0.0350768, -0.0220844, -0.0665058, 0.00252559, -0.0261601, -0.0481029
0.16601, 0.111712, -0.773088, -0.92306, -1.45686, -0.627309, 1.07035, -0.256693, 0.0748624, 0.018137, -0.140792, -0.0277232, -0.00057085, -0.000368417, -0.000984684, 1.41608, 16.0846, 17.2529, 13.4882, 0.926695, 3.37436, -0.00999879, -0.00104118, -0.00143796, -0.00169915, -0.00406743, -0.012213, 0.0051011, 0.0309446, -0.00259521, 0.0193941, 0.0175369, 0.138102, 0.228031, -0.00920033, -0.446018, 0.631223, -3.12331, -0.0604596, -0.121014, -0.0104249, -0.44465, 0.632856, -3.12823, -0.0529075, -0.102133, 0.0354954, -0.0223027, -0.0672083, 0.00327434, -0.0263996, -0.050313
0.16701, 0.111782, -0.773066, -0.9232, -1.45689, -0.627311, 1.07035, -0.25669, 0.0772389, 0.0186824, -0.138851, -0.030239, -0.000821509, 0.000263015, -0.000181735, 1.45576, 16.0092, 17.2172, 13.4882, 0.938597, 3.36062, -0.0228162, -0.00107244, -0.00143589, -0.00171865, -0.00409579, -0.0124201, 0.00517984, 0.0289171, -0.00201062, 0.0198954, 0.0191665, 0.141112, 0.234806, -0.00916462, -0.446041, 0.631155, -3.12316, -0.0605461, -0.121253, -0.0104221, -0.444676, 0.632805, -3.12812, -0.0528737, -0.102049, 0.0359161, -0.0225212, -0.0679124, 0.00565081, -0.0259695, -0.050357
0.16801, 0.111856, -0.77305, -0.923348, -1.45693, -0.627309, 1.07035, -0.256685, 0.0754625, 0.0170673, -0.142706, -0.0299287, -0.000106962, 0.000175343, 0.00157427, 1.38038, 16.0092, 17.2529, 13.5278, 0.926695, 3.36062, -0.0685925, -0.00110468, -0.00143322, -0.00173435, -0.00411385, -0.0126262, 0.00525942, 0.0317352, -0.00240697, 0.019638, 0.0177456, 0.139963, 0.231091, -0.00912849, -0.446063, 0.631087, -3.12301, -0.0606336, -0.121494, -0.0104196, -0.444703, 0.63275, -3.128, -0.05284, -0.101969, 0.0363387, -0.0227398, -0.068618, 0.00329898, -0.0266916, -0.0515497
0.16901, 0.111926, -0.773042, -0.923497, -1.45695, -0.627308, 1.07035, -0.256684, 0.0753577, 0.0132824, -0.144838, -0.0260423, -0.000512192, 0.000116895, 0.00152423, 1.38038, 16.1203, 17.2529, 13.4128, 0.938597, 3.36062, -0.0814099, -0.00114367, -0.00143012, -0.00175356, -0.00413794, -0.0128192, 0.00534523, 0.0348598, -0.00291297, 0.0208355, 0.0196685, 0.135106, 0.229829, -0.00909194, -0.446086, 0.631018, -3.12286, -0.0607219, -0.121738, -0.0104236, -0.444731, 0.632697, -3.12789, -0.0527971, -0.101912, 0.0367632, -0.0229586, -0.0693252, 0.000535386, -0.0275604, -0.0513203
0.17001, 0.111996, -0.773021, -0.923642, -1.45699, -0.62731, 1.07035, -0.256683, 0.0722271, 0.0140808, -0.1401, -0.0283892, -0.000341517, 7.79303e-05, 0.00101615, 1.38038, 16.0846, 17.2529, 13.3771, 0.938597, 3.36062, -0.0814099, -0.00117762, -0.00142807, -0.00177304, -0.00416479, -0.0130331, 0.00542628, 0.0343104, -0.00146756, 0.0223161, 0.0228333, 0.138097, 0.234686, -0.00905497, -0.446109, 0.630949, -3.12271, -0.0608111, -0.121984, -0.0104222, -0.444758, 0.632644, -3.12778, -0.0527627, -0.101826, 0.0371897, -0.0231774, -0.0700339, 0.00133462, -0.0263448, -0.0504957
0.17101, 0.112063, -0.773005, -0.923792, -1.45703, -0.627307, 1.07036, -0.256686, 0.0720082, 0.0160656, -0.142438, -0.0316333, -0.00022772, 0.000323221, -0.000271998, 1.41608, 16.1203, 17.3639, 13.4128, 0.938597, 3.3533, -0.0557752, -0.00121332, -0.00142618, -0.00178975, -0.00418445, -0.0132453, 0.00550508, 0.0342159, -0.00144642, 0.0215058, 0.0210897, 0.143106, 0.238247, -0.00901756, -0.446132, 0.630878, -3.12255, -0.0609012, -0.122233, -0.010422, -0.444785, 0.632588, -3.12766, -0.0527331, -0.101744, 0.0376182, -0.0233964, -0.0707441, 0.0019165, -0.0265299, -0.052012
0.17201, 0.11214, -0.772985, -0.923942, -1.45706, -0.627307, 1.07036, -0.256688, 0.0706213, 0.0192725, -0.144887, -0.0323464, -0.000389204, 0.00130055, -0.00163939, 1.38038, 16.0846, 17.4036, 13.3771, 0.945006, 3.324, -0.0164075, -0.00124547, -0.00142335, -0.00180844, -0.00421042, -0.0134603, 0.00558034, 0.0348017, -0.00170236, 0.0215934, 0.0216298, 0.147519, 0.239214, -0.00897973, -0.446156, 0.630807, -3.12239, -0.0609922, -0.122484, -0.0104179, -0.444814, 0.632533, -3.12755, -0.0527097, -0.101661, 0.0380486, -0.0236155, -0.0714557, 0.00176374, -0.0270337, -0.0526924
0.17301, 0.112214, -0.772969, -0.924087, -1.4571, -0.627306, 1.07036, -0.256689, 0.0718644, 0.0167164, -0.147531, -0.0362204, -2.21339e-05, 0.000595766, -0.00085557, 1.38038, 16.1203, 17.3639, 13.3414, 0.938597, 3.33133, -0.0228162, -0.00127789, -0.00142303, -0.00182778, -0.00423506, -0.0136774, 0.00565196, 0.03546, -0.00164365, 0.020209, 0.0179657, 0.148728, 0.242404, -0.00894147, -0.44618, 0.630735, -3.12224, -0.0610841, -0.122738, -0.0104138, -0.44484, 0.632477, -3.12743, -0.0526929, -0.101577, 0.0384809, -0.0238347, -0.0721687, 0.00164333, -0.0271999, -0.0548428
0.17401, 0.112282, -0.772955, -0.924236, -1.45714, -0.627305, 1.07036, -0.256686, 0.0701534, 0.014801, -0.149727, -0.0400044, 0.00491586, 0.000905804, -0.00033302, 1.49146, 16.16, 17.3639, 13.3414, 0.932189, 3.31759, -0.0292249, -0.00131448, -0.00142127, -0.00184656, -0.00426205, -0.013893, 0.00573739, 0.0361014, -0.00107299, 0.0191783, 0.0137484, 0.146488, 0.245398, -0.00890277, -0.446204, 0.630663, -3.12208, -0.061177, -0.122995, -0.0104133, -0.444867, 0.632421, -3.12731, -0.0526556, -0.101498, 0.0389151, -0.0240539, -0.0728831, 0.00149401, -0.0268601, -0.0566333
0.17501, 0.112361, -0.772937, -0.924385, -1.45719, -0.627303, 1.07036, -0.256684, 0.0757297, 0.0143288, -0.150769, -0.0395106, 0.00319362, 0.000603869, 0.00099869, 1.45576, 16.16, 17.4036, 13.3414, 0.945006, 3.31759, -0.0621838, -0.00134514, -0.00142119, -0.00186492, -0.00428305, -0.0141187, 0.00580866, 0.034954, -0.00135088, 0.0195557, 0.0146971, 0.148305, 0.250356, -0.00886363, -0.446228, 0.630589, -3.12192, -0.0612707, -0.123253, -0.0104065, -0.444894, 0.632363, -3.12719, -0.0526417, -0.101405, 0.0393512, -0.0242732, -0.0735988, 0.00305201, -0.0273246, -0.0568929
0.17601, 0.11244, -0.772923, -0.924531, -1.45722, -0.627306, 1.07036, -0.256681, 0.0787, 0.0123349, -0.151622, -0.0394468, 0.0024224, 0.000673847, 0.00114051, 1.45576, 16.2314, 17.4393, 13.2263, 0.945006, 3.31027, -0.0750012, -0.00137874, -0.00142041, -0.00188612, -0.00431267, -0.0143399, 0.00588661, 0.0350454, -0.0014875, 0.01992, 0.0154882, 0.14794, 0.254743, -0.00882406, -0.446252, 0.630515, -3.12175, -0.0613653, -0.123515, -0.0104024, -0.444921, 0.632308, -3.12707, -0.0526179, -0.101323, 0.0397893, -0.0244926, -0.0743159, 0.0033732, -0.0276956, -0.0572628
0.17701, 0.112517, -0.772906, -0.924681, -1.45727, -0.627303, 1.07036, -0.256683, 0.0798369, 0.0125601, -0.150396, -0.0424011, 0.00183492, 0.000720499, -0.000223003, 1.49146, 16.2314, 17.4036, 13.2263, 0.945006, 3.30295, -0.0484509, -0.00141075, -0.00142038, -0.00190465, -0.00433528, -0.0145682, 0.00595653, 0.0339513, -0.000914676, 0.0200801, 0.016106, 0.151517, 0.262009, -0.00878406, -0.446277, 0.630441, -3.12159, -0.0614609, -0.123779, -0.0103962, -0.444947, 0.632249, -3.12695, -0.0526079, -0.101232, 0.0402292, -0.0247119, -0.0750342, 0.00486472, -0.0273084, -0.0577324
0.17801, 0.112598, -0.772885, -0.924844, -1.45731, -0.627304, 1.07036, -0.256683, 0.0779522, 0.016606, -0.153311, -0.0419891, 0.000947465, 0.000209065, -0.000386028, 1.53114, 16.1957, 17.5147, 13.1152, 0.956908, 3.31027, -0.0420422, -0.00144612, -0.0014177, -0.00192181, -0.00435394, -0.0148022, 0.00603865, 0.0351991, -0.00110239, 0.0203139, 0.0161274, 0.157359, 0.260004, -0.00874361, -0.446302, 0.630365, -3.12142, -0.0615574, -0.124045, -0.0103926, -0.444977, 0.632188, -3.12682, -0.0525803, -0.101133, 0.040671, -0.0249313, -0.0757538, 0.00404991, -0.0277731, -0.0583278
0.17901, 0.112683, -0.772871, -0.925003, -1.45737, -0.627305, 1.07037, -0.256688, 0.0796739, 0.0171545, -0.152484, -0.0493001, 0.00028067, 0.00122445, -0.00195277, 1.57081, 16.2671, 17.5147, 13.1906, 0.969725, 3.28097, 0.00373412, -0.00147688, -0.0014155, -0.00193639, -0.00437375, -0.015038, 0.00610158, 0.032905, -0.000538864, 0.0190993, 0.0148898, 0.163701, 0.269945, -0.00870271, -0.446327, 0.630289, -3.12126, -0.0616548, -0.124315, -0.0103838, -0.445006, 0.632124, -3.12669, -0.0525833, -0.101035, 0.0411146, -0.0251507, -0.0764746, 0.00684928, -0.027323, -0.060074
0.18001, 0.112767, -0.77286, -0.925164, -1.45742, -0.627301, 1.07037, -0.256684, 0.0811835, 0.0144248, -0.154751, -0.0471548, 0.00524874, 0.000273763, -8.11452e-05, 1.60651, 16.3425, 17.5147, 13.0795, 0.963317, 3.29562, -0.0292249, -0.00151179, -0.00141418, -0.00195324, -0.00439013, -0.0152665, 0.00617955, 0.0337386, -0.000210523, 0.0196296, 0.0125748, 0.157461, 0.271762, -0.00866138, -0.446352, 0.630212, -3.12109, -0.0617531, -0.124586, -0.0103789, -0.445035, 0.632061, -3.12655, -0.0525641, -0.100951, 0.0415602, -0.0253701, -0.0771966, 0.00640657, -0.0272617, -0.0603353
