alisrour97/Franka_experiments/Real_Robot_scripts/servo-franka/Data4/log_dyn_INITw_ki_13.csv
Time,q1,q2,q3,q4,q5,q6,q7,dq1,dq2,dq3,dq4,dq5,dq6,dq7,t1,t2,t3,t4,t5,t6,t7,ex1,ex2,ex3,ex4,ex5,ex6,ev1,ev2,ev3,ev4,ev5,ev6,xd,yd,zd,uxd,uyd,uzd,x,y,z,ux,uy,uz,vxd,vyd,vzd,vx,vy,vz
9.76563e-07, 0.10755, -0.774106, -0.915941, -1.45624, -0.625271, 1.07026, -0.256722, 0.00301542, 0.00790335, 0.000567059, 0.00376407, -0.000952233, -0.00261918, -0.00124867, -0.131157, 15.0531, 18.6692, 15.6146, 1.00635, 3.30295, -0.160145, 0.000940168, -0.00170355, -7.10741e-05, -0.000317331, -1.08542e-05, 0.000127497, -0.00267383, 0.000339246, 0.00127783, 0.000991223, 0.00746481, 0.00229071, -0.011112, -0.444721, 0.635038, -3.13187, -0.0555627, -0.107532, -0.0102473, -0.44299, 0.635182, -3.13218, -0.0557663, -0.107569, 0, 0, 0, 0.0025663, 0.00042209, 0.00146056
0.0122339, 0.10756, -0.774065, -0.915931, -1.45624, -0.62528, 1.07025, -0.256732, 0.00129507, -0.00191312, 0.00112639, 0.0013153, -0.00099276, 0.000462098, -0.00132263, -0.317619, 15.4221, 18.6295, 15.5035, 1.04297, 3.28097, -0.166554, 0.00095836, -0.00170623, -7.4429e-05, -0.000325206, -6.28159e-05, 0.00010438, 6.96565e-05, -0.00013939, 0.000656955, 0.00208236, -0.00228883, 0.00233826, -0.011112, -0.444721, 0.635038, -3.13187, -0.0555627, -0.107532, -0.0102225, -0.442983, 0.635188, -3.13219, -0.0558124, -0.107452, 1.73063e-06, 3.0097e-06, -3.96181e-06, -0.000107703, -0.000144387, 0.000645784
0.0132339, 0.10756, -0.774065, -0.915931, -1.45624, -0.62528, 1.07025, -0.256732, 0.00129507, -0.00191312, 0.00112639, 0.0013153, -0.00099276, 0.000462098, -0.00132263, -0.317619, 15.4221, 18.6295, 15.5035, 1.04297, 3.28097, -0.166554, 0.000958357, -0.00170622, -7.44385e-05, -0.000325226, -6.2839e-05, 0.000104381, 7.43283e-05, -0.000148118, 0.000669211, 0.00210699, -0.00228551, 0.00238494, -0.011112, -0.444721, 0.635038, -3.13187, -0.0555627, -0.107532, -0.0102225, -0.442983, 0.635188, -3.13219, -0.0558124, -0.107452, 6.91577e-06, 1.20019e-05, -1.58141e-05, -0.000107703, -0.000144387, 0.000645784
0.0142339, 0.10756, -0.774065, -0.915931, -1.45624, -0.62528, 1.07025, -0.256732, 0.00129507, -0.00191312, 0.00112639, 0.0013153, -0.00099276, 0.000462098, -0.00132263, -0.317619, 15.4221, 18.6295, 15.5035, 1.04297, 3.28097, -0.166554, 0.000958347, -0.0017062, -7.44642e-05, -0.000325281, -6.29017e-05, 0.000104383, 8.21039e-05, -0.000162598, 0.000689576, 0.00214789, -0.00227999, 0.0024625, -0.011112, -0.444721, 0.635038, -3.13187, -0.0555627, -0.107532, -0.0102225, -0.442983, 0.635188, -3.13219, -0.0558124, -0.107452, 1.55453e-05, 2.69215e-05, -3.55071e-05, -0.000107703, -0.000144387, 0.000645784
0.0152341, 0.10756, -0.774065, -0.915931, -1.45624, -0.62528, 1.07025, -0.256732, 0.00129507, -0.00191312, 0.00112639, 0.0013153, -0.00099276, 0.000462098, -0.00132263, -0.317619, 15.4221, 18.6295, 15.5035, 1.04297, 3.28097, -0.166554, 0.000958328, -0.00170616, -7.45141e-05, -0.000325386, -6.30235e-05, 0.000104386, 9.29749e-05, -0.000182777, 0.000717999, 0.00220495, -0.00227224, 0.00257072, -0.011112, -0.444721, 0.635038, -3.13187, -0.0555628, -0.107532, -0.0102225, -0.442983, 0.635188, -3.13219, -0.0558124, -0.107452, 2.7609e-05, 4.77135e-05, -6.29913e-05, -0.000107703, -0.000144387, 0.000645784
0.0162341, 0.10756, -0.774065, -0.915931, -1.45624, -0.62528, 1.07025, -0.256732, 0.00129507, -0.00191312, 0.00112639, 0.0013153, -0.00099276, 0.000462098, -0.00132263, -0.317619, 15.4221, 18.6295, 15.5035, 1.04297, 3.28097, -0.166554, 0.000958296, -0.00170611, -7.45963e-05, -0.00032556, -6.32238e-05, 0.000104392, 0.000106932, -0.000208599, 0.00075443, 0.00227804, -0.00226227, 0.0027094, -0.0111119, -0.444721, 0.635038, -3.13187, -0.0555628, -0.107532, -0.0102225, -0.442983, 0.635188, -3.13219, -0.0558124, -0.107452, 4.30968e-05, 7.4323e-05, -9.82172e-05, -0.000107703, -0.000144387, 0.000645784
0.0172344, 0.10756, -0.774065, -0.915931, -1.45624, -0.62528, 1.07025, -0.256732, 0.00129507, -0.00191312, 0.00112639, 0.0013153, -0.00099276, 0.000462098, -0.00132263, -0.317619, 15.4221, 18.6295, 15.5035, 1.04297, 3.28097, -0.166554, 0.000958249, -0.00170602, -7.47187e-05, -0.000325819, -6.3522e-05, 0.0001044, 0.000123968, -0.000240011, 0.000798818, 0.00236704, -0.00225008, 0.00287835, -0.0111119, -0.444721, 0.635038, -3.13187, -0.0555628, -0.107533, -0.0102225, -0.442983, 0.635188, -3.13219, -0.0558124, -0.107452, 6.19987e-05, 0.000106695, -0.000141136, -0.000107703, -0.000144387, 0.000645784
0.0182346, 0.10756, -0.774065, -0.915931, -1.45624, -0.62528, 1.07025, -0.256732, 0.00129507, -0.00191312, 0.00112639, 0.0013153, -0.00099276, 0.000462098, -0.00132263, -0.317619, 15.4221, 18.6295, 15.5035, 1.04297, 3.28097, -0.166554, 0.000958183, -0.0017059, -7.48892e-05, -0.000326179, -6.39372e-05, 0.000104412, 0.000144073, -0.000276958, 0.000851113, 0.00247183, -0.00223564, 0.00307736, -0.0111118, -0.44472, 0.635037, -3.13187, -0.0555628, -0.107533, -0.0102225, -0.442983, 0.635188, -3.13219, -0.0558124, -0.107452, 8.43044e-05, 0.000144776, -0.000191697, -0.000107703, -0.000144387, 0.000645784
0.0192349, 0.10756, -0.774065, -0.915931, -1.45624, -0.62528, 1.07025, -0.256732, 0.00129507, -0.00191312, 0.00112639, 0.0013153, -0.00099276, 0.000462098, -0.00132263, -0.317619, 15.4221, 18.6295, 15.5035, 1.04297, 3.28097, -0.166554, 0.000958096, -0.00170574, -7.51155e-05, -0.000326658, -6.44886e-05, 0.000104428, 0.000167238, -0.000319389, 0.000911265, 0.00259229, -0.00221897, 0.00330622, -0.0111117, -0.44472, 0.635037, -3.13187, -0.0555629, -0.107534, -0.0102225, -0.442983, 0.635188, -3.13219, -0.0558124, -0.107452, 0.000110004, 0.000188511, -0.000249853, -0.000107703, -0.000144387, 0.000645784
0.0202354, 0.10756, -0.774065, -0.915931, -1.45624, -0.62528, 1.07025, -0.256732, 0.00129507, -0.00191312, 0.00112639, 0.0013153, -0.00099276, 0.000462098, -0.00132263, -0.317619, 15.4221, 18.6295, 15.5035, 1.04297, 3.28097, -0.166554, 0.000957984, -0.00170553, -7.54055e-05, -0.00032727, -6.5195e-05, 0.000104449, 0.000193456, -0.000367247, 0.000979224, 0.0027283, -0.00220006, 0.00356474, -0.0111116, -0.44472, 0.635037, -3.13187, -0.0555629, -0.107535, -0.0102225, -0.442983, 0.635188, -3.13219, -0.0558124, -0.107452, 0.000139087, 0.000237846, -0.000315553, -0.000107703, -0.000144387, 0.000645784
0.0212358, 0.10756, -0.774065, -0.915931, -1.45624, -0.62528, 1.07025, -0.256732, 0.00129507, -0.00191312, 0.00112639, 0.0013153, -0.00099276, 0.000462098, -0.00132263, -0.317619, 15.4221, 18.6295, 15.5035, 1.04297, 3.28097, -0.166554, 0.000957845, -0.00170527, -7.57669e-05, -0.000328033, -6.60752e-05, 0.000104475, 0.000222717, -0.000420482, 0.00105494, 0.00287975, -0.0021789, 0.00385272, -0.0111114, -0.44472, 0.635037, -3.13186, -0.055563, -0.107537, -0.0102225, -0.442983, 0.635188, -3.13219, -0.0558124, -0.107452, 0.000171544, 0.000292726, -0.00038875, -0.000107703, -0.000144387, 0.000645784
0.0222361, 0.10756, -0.774065, -0.915931, -1.45624, -0.62528, 1.07025, -0.256732, 0.00129507, -0.00191312, 0.00112639, 0.0013153, -0.00099276, 0.000462098, -0.00132263, -0.317619, 15.4221, 18.6295, 15.5035, 1.04297, 3.28097, -0.166554, 0.000957674, -0.00170496, -7.62075e-05, -0.000328963, -6.7148e-05, 0.000104506, 0.000255012, -0.000479038, 0.00113836, 0.00304652, -0.00215549, 0.00416995, -0.0111112, -0.444719, 0.635036, -3.13186, -0.055563, -0.107538, -0.0102225, -0.442983, 0.635188, -3.13219, -0.0558124, -0.107452, 0.000207364, 0.000353099, -0.000469394, -0.000107703, -0.000144387, 0.000645784
0.0232363, 0.10756, -0.774065, -0.915931, -1.45624, -0.62528, 1.07025, -0.256732, 0.00129507, -0.00191312, 0.00112639, 0.0013153, -0.00099276, 0.000462098, -0.00132263, -0.317619, 15.4221, 18.6295, 15.5035, 1.04297, 3.28097, -0.166554, 0.00095747, -0.00170459, -7.67348e-05, -0.000330076, -6.84319e-05, 0.000104545, 0.000290334, -0.000542864, 0.00122945, 0.00322847, -0.00212982, 0.00451624, -0.011111, -0.444719, 0.635036, -3.13186, -0.0555631, -0.10754, -0.0102225, -0.442983, 0.635188, -3.13219, -0.0558124, -0.107452, 0.000246538, 0.00041891, -0.000557437, -0.000107703, -0.000144387, 0.000645784
0.0242363, 0.107584, -0.77403, -0.915941, -1.45626, -0.625275, 1.07025, -0.256725, 0.0036621, 0.000559402, -0.000140407, -0.00464645, 0.000130775, -0.00136142, 0.00129427, -0.43267, 15.2753, 18.7446, 15.69, 0.999938, 3.31027, -0.218739, 0.000978379, -0.00170511, -6.94613e-05, -0.000308027, -0.000115177, 8.43345e-05, -0.00232776, -3.50883e-05, -0.000991649, -0.0027787, 0.00438936, 0.00726828, -0.0111107, -0.444719, 0.635035, -3.13186, -0.0555632, -0.107542, -0.0102009, -0.442981, 0.635182, -3.13217, -0.055845, -0.10738, 0.000289055, 0.000490107, -0.00065283, 0.00267899, 0.000545454, -0.00148241
0.0252363, 0.107587, -0.774027, -0.915944, -1.45626, -0.625275, 1.07025, -0.256733, 0.00263655, 0.00147312, -0.000927003, -0.00334914, 8.71856e-05, -0.000665505, -0.00154465, -0.43267, 15.2356, 18.7803, 15.69, 0.999938, 3.30295, -0.153737, 0.000979994, -0.0017041, -6.85678e-05, -0.000306535, -0.000122234, 7.51807e-05, -0.00165498, -0.000426919, -0.000587734, -0.00159432, 0.00419806, 0.008201, -0.0111104, -0.444718, 0.635034, -3.13186, -0.0555634, -0.107545, -0.0101989, -0.442981, 0.635181, -3.13217, -0.0558594, -0.107372, 0.000334905, 0.000566635, -0.000755525, 0.00204041, 0.000203268, -0.00123079
0.0262363, 0.107592, -0.774024, -0.915943, -1.45626, -0.625279, 1.07024, -0.256725, 0.00273927, 0.00194642, -0.00504033, -0.00560187, -0.00860004, -0.00046554, 0.000428295, -0.468376, 15.1999, 18.7049, 15.69, 1.00635, 3.30295, -0.193104, 0.000983187, -0.00170409, -6.7693e-05, -0.000304569, -0.000135064, 7.57686e-05, 0.000734118, -0.0021867, -0.00229875, -0.00124055, 0.0128393, 0.000616407, -0.0111101, -0.444717, 0.635033, -3.13186, -0.0555635, -0.107548, -0.0101952, -0.44298, 0.635179, -3.13216, -0.0558588, -0.107355, 0.000384079, 0.000648441, -0.000865474, -0.000112481, -0.00154286, -0.00322269
0.0272363, 0.107593, -0.774023, -0.915944, -1.45627, -0.62528, 1.07024, -0.256734, 0.00193595, 0.00306489, -0.00211154, -0.00555708, -0.00958828, -5.5495e-05, 0.00632506, -0.468376, 15.1285, 18.6295, 15.6146, 0.975218, 3.29562, -0.101552, 0.000983782, -0.00170346, -6.76014e-05, -0.000304739, -0.000140948, 6.49819e-05, 1.31458e-05, -0.00184768, -0.00122913, 0.00184697, 0.014362, -0.00388928, -0.0111097, -0.444717, 0.635033, -3.13186, -0.0555637, -0.107552, -0.0101942, -0.44298, 0.635178, -3.13216, -0.0558758, -0.107349, 0.000436566, 0.000735474, -0.000982628, 0.000573522, -0.00110088, -0.00222115
0.0282371, 0.107601, -0.774029, -0.91595, -1.45628, -0.625284, 1.07024, -0.256727, 0.0031362, 0.00211589, -0.000958388, -0.00895503, -0.00707388, -0.0008631, 0.00618937, -0.543754, 15.1285, 18.5938, 15.5432, 0.969725, 3.31759, -0.133595, 0.000984194, -0.00170123, -6.40671e-05, -0.00029978, -0.000146474, 6.64776e-05, -0.00166082, -0.00112038, -0.00195106, -0.00100981, 0.0141235, 0.00176285, -0.0111092, -0.444716, 0.635032, -3.13185, -0.0555639, -0.107556, -0.010193, -0.442982, 0.635174, -3.13215, -0.0558738, -0.107344, 0.000492356, 0.000827679, -0.00110694, 0.00232175, -0.000216746, -0.00294616
0.0292371, 0.107604, -0.774035, -0.915958, -1.45628, -0.625287, 1.07024, -0.256732, 0.00215254, -0.000205368, -0.0026916, -0.00902541, -0.0047016, -0.00109325, 0.00183343, -0.543754, 15.1999, 18.6692, 15.5035, 0.951415, 3.33133, -0.0557752, 0.000981064, -0.00169947, -5.98501e-05, -0.000289821, -0.000152135, 6.26728e-05, -0.000363993, -0.00125902, -0.00240553, -0.00324764, 0.010287, 0.00551125, -0.0111087, -0.444715, 0.63503, -3.13185, -0.0555641, -0.10756, -0.0101953, -0.442983, 0.635168, -3.13214, -0.0558804, -0.107339, 0.000551439, 0.000925004, -0.00123836, 0.00112394, -0.000299667, -0.00362093
0.0302371, 0.107605, -0.774037, -0.915956, -1.45629, -0.62529, 1.07024, -0.256722, 0.00064612, -0.000931275, -0.00108346, -0.0099726, -0.00431046, -0.00100702, 0.00430919, -0.508049, 15.2356, 18.6295, 15.5035, 0.969725, 3.33865, -0.127186, 0.000982541, -0.00169804, -5.96867e-05, -0.000295122, -0.000159733, 6.78275e-05, -0.000221362, -0.000935329, -0.00206713, -0.00249925, 0.00979861, 0.00397626, -0.0111081, -0.444714, 0.635029, -3.13185, -0.0555643, -0.107565, -0.0101932, -0.442983, 0.635167, -3.13215, -0.0558724, -0.107332, 0.000613805, 0.0010274, -0.00137684, 0.00100939, 0.000118282, -0.00342962
0.0312371, 0.107608, -0.774044, -0.915957, -1.4563, -0.625292, 1.07024, -0.256723, 0.000465478, -0.00318866, -0.00181313, -0.0107975, -0.00368787, -0.00121907, 0.00272961, -0.508049, 15.3467, 18.6692, 15.5035, 0.981627, 3.3533, -0.114369, 0.000981593, -0.00169731, -5.8211e-05, -0.000291405, -0.000163467, 6.18958e-05, 0.000568905, -0.00106516, -0.00247183, -0.00374146, 0.00779652, 0.00611625, -0.0111074, -0.444713, 0.635028, -3.13184, -0.0555646, -0.10757, -0.0101933, -0.442983, 0.635164, -3.13214, -0.0558821, -0.107332, 0.000679445, 0.00113481, -0.00152234, 0.000319469, 7.16391e-05, -0.00403397
0.0322371, 0.107608, -0.774049, -0.915962, -1.4563, -0.625294, 1.07024, -0.256723, 0.00254451, -0.00386603, -0.00392932, -0.00819479, -0.00317945, -2.80542e-06, 0.00206839, -0.468376, 15.4221, 18.7803, 15.5035, 0.993529, 3.33133, -0.114369, 0.000978794, -0.0016948, -5.70165e-05, -0.000291074, -0.000165644, 6.40426e-05, 0.00091247, -0.00197779, -0.00210309, -0.00270893, 0.00458262, 0.00674765, -0.0111067, -0.444712, 0.635026, -3.13184, -0.0555649, -0.107577, -0.0101952, -0.442984, 0.635161, -3.13213, -0.0558791, -0.107335, 0.000748347, 0.00124718, -0.0016748, 5.3164e-05, -0.000743273, -0.00384783
0.0332371, 0.107609, -0.774052, -0.915956, -1.45631, -0.625297, 1.07025, -0.256724, 0.00197722, -0.00423056, -0.000947886, -0.0079738, -0.00232968, 0.000775104, 0.00132806, -0.468376, 15.4935, 18.7049, 15.5789, 0.993529, 3.31027, -0.10796, 0.000981145, -0.00169442, -5.79427e-05, -0.000296984, -0.000174105, 5.47481e-05, 0.000177547, -0.00156419, -0.000950348, -2.22737e-05, 0.00294728, 0.0101134, -0.0111059, -0.444711, 0.635024, -3.13184, -0.0555653, -0.107583, -0.0101922, -0.442983, 0.63516, -3.13214, -0.0558937, -0.107328, 0.000820503, 0.00136446, -0.00183418, 0.000764373, -0.000196744, -0.00280415
0.0342371, 0.107609, -0.774058, -0.915953, -1.45632, -0.625298, 1.07025, -0.256725, 0.00152881, -0.00992994, -0.000700609, -0.00763963, -0.00171066, 0.000243279, 0.000550522, -0.468376, 15.5331, 18.7049, 15.6543, 0.993529, 3.31759, -0.0951428, 0.000980326, -0.00169309, -5.92149e-05, -0.000302217, -0.000175002, 4.95545e-05, 0.0021048, -0.00160199, -0.00084861, -0.000447947, -0.00311878, 0.0114165, -0.0111051, -0.444709, 0.635022, -3.13183, -0.0555656, -0.10759, -0.0101922, -0.442983, 0.635159, -3.13214, -0.0559019, -0.107335, 0.000895902, 0.00148661, -0.00200043, -0.00108734, -0.000181043, -0.00300162
0.0352371, 0.107607, -0.774057, -0.91595, -1.45632, -0.625298, 1.07025, -0.256723, 0.000341986, -0.00712647, 0.000316632, -0.0063487, -0.00105514, -7.68148e-05, 0.00118399, -0.43267, 15.5331, 18.6692, 15.69, 0.988036, 3.324, -0.114369, 0.00098032, -0.00169242, -6.17627e-05, -0.000308034, -0.000182061, 5.04734e-05, 0.00169243, -0.00138187, 0.000124255, 0.00100313, -0.00149971, 0.010702, -0.0111041, -0.444708, 0.63502, -3.13183, -0.055566, -0.107598, -0.0101914, -0.442982, 0.63516, -3.13214, -0.0559007, -0.107332, 0.000974534, 0.00161356, -0.00217351, -0.00067204, 0.000171986, -0.00217446
0.0362371, 0.107606, -0.774066, -0.915957, -1.45632, -0.625296, 1.07025, -0.256726, -0.000581532, -0.0068013, -0.00159079, -0.00371254, 0.000801656, -0.000866244, -0.000115341, -0.392998, 15.6046, 18.7446, 15.6543, 0.945006, 3.34598, -0.0878186, 0.000974071, -0.00168974, -6.17316e-05, -0.000305545, -0.000178695, 5.33067e-05, 0.00295593, -0.001656, 0.000541952, 0.000194466, -0.0037637, 0.00987092, -0.0111031, -0.444706, 0.635018, -3.13182, -0.0555664, -0.107607, -0.0101965, -0.442984, 0.635157, -3.13213, -0.0558968, -0.107345, 0.00105639, 0.00174526, -0.00235336, -0.00186873, -1.83165e-05, -0.00202619
0.0372371, 0.107607, -0.774067, -0.91596, -1.45633, -0.625297, 1.07025, -0.256727, -0.000298815, -0.00481911, -0.0010895, 0.000170862, 0.000705336, -0.000849687, -0.000492606, -0.392998, 15.6046, 18.7446, 15.8011, 0.938597, 3.3533, -0.0750012, 0.000973824, -0.00168804, -6.06314e-05, -0.000303527, -0.000190069, 4.90545e-05, 0.00296723, -0.00190942, 0.00212772, 0.00325026, -0.00421582, 0.0096023, -0.011102, -0.444704, 0.635016, -3.13182, -0.0555669, -0.107616, -0.0101955, -0.442983, 0.635153, -3.13212, -0.0559041, -0.107337, 0.00114146, 0.00188168, -0.00253994, -0.00189449, -0.000149265, -0.000633163
0.0382371, 0.10761, -0.774073, -0.915965, -1.45632, -0.625296, 1.07024, -0.256726, 0.000795465, -0.00435445, -0.00158328, 0.00129811, 0.00177672, -0.00107578, -0.000996226, -0.43267, 15.6442, 18.7803, 15.7654, 0.901976, 3.36703, -0.0557752, 0.000969532, -0.00168488, -6.29188e-05, -0.000306393, -0.000188585, 5.39747e-05, 0.00262961, -0.00206631, 0.00249507, 0.00324543, -0.00509487, 0.0115151, -0.0111008, -0.444702, 0.635013, -3.13181, -0.0555674, -0.107626, -0.0101987, -0.442985, 0.635153, -3.13212, -0.0558968, -0.107349, 0.00122973, 0.00202275, -0.00273321, -0.00148918, -0.000156306, -0.000437749
0.0392371, 0.107605, -0.774076, -0.915966, -1.45633, -0.625298, 1.07024, -0.256724, -0.000347719, -0.00306323, -0.00107182, -0.00147131, 0.00206262, -0.00126024, 0.000827103, -0.392998, 15.6442, 18.7803, 15.8765, 0.877257, 3.38168, -0.0951428, 0.000965944, -0.00168324, -6.33308e-05, -0.00030744, -0.000199259, 5.93252e-05, 0.00204688, -0.00181191, 0.00206872, 0.00232471, -0.00209432, 0.0112827, -0.0110996, -0.4447, 0.63501, -3.1318, -0.055568, -0.107637, -0.0102009, -0.442984, 0.63515, -3.13212, -0.055889, -0.107343, 0.00132119, 0.00216842, -0.00293311, -0.000796623, 0.000267777, -0.00102136
0.0402371, 0.107608, -0.774081, -0.915971, -1.45633, -0.625299, 1.07024, -0.256726, 0.000733701, -0.00618309, -0.00156199, -0.00171259, 0.0015844, -0.00138308, 6.76688e-05, -0.43267, 15.6799, 18.816, 15.9161, 0.870848, 3.39633, -0.0814099, 0.000962857, -0.00167971, -6.41528e-05, -0.000310521, -0.00020286, 5.81075e-05, 0.00281954, -0.00216684, 0.00191143, 0.0021017, -0.00453066, 0.0134556, -0.0110982, -0.444698, 0.635007, -3.1318, -0.0555686, -0.107648, -0.0102026, -0.442986, 0.635148, -3.13211, -0.0558914, -0.107349, 0.00141584, 0.00231864, -0.0031396, -0.0014489, 3.74782e-05, -0.00144014
0.0412371, 0.107607, -0.774087, -0.915969, -1.45633, -0.625298, 1.07024, -0.256726, 0.000517254, -0.00840393, 0.000619941, -6.64811e-05, 0.00147605, -0.00143097, 0.000301141, -0.43267, 15.7156, 18.7446, 15.8765, 0.858946, 3.41006, -0.0878186, 0.000960361, -0.00167781, -6.80454e-05, -0.000318073, -0.000204404, 5.74284e-05, 0.00334691, -0.00204254, 0.00317555, 0.00472843, -0.00774645, 0.014609, -0.0110967, -0.444695, 0.635004, -3.13179, -0.0555692, -0.107661, -0.0102038, -0.442986, 0.635148, -3.13211, -0.0558929, -0.10736, 0.00151366, 0.00247337, -0.00335263, -0.00196793, 0.000286888, -0.000427616
0.0422371, 0.107609, -0.774088, -0.91598, -1.45633, -0.6253, 1.07024, -0.256729, 0.000365926, -0.00612691, -0.00219204, 6.60996e-05, -0.00279633, -0.00149674, -0.000972031, -0.43267, 15.7156, 18.8556, 15.8765, 0.846129, 3.42471, -0.0557752, 0.000955665, -0.0016732, -6.80735e-05, -0.000317613, -0.000215079, 6.09041e-05, 0.00458646, -0.00317293, 0.0027261, 0.00544158, -0.00209449, 0.0123295, -0.0110952, -0.444693, 0.635, -3.13178, -0.0555699, -0.107674, -0.0102068, -0.442988, 0.635144, -3.1321, -0.0558882, -0.107356, 0.00161465, 0.00263255, -0.00357216, -0.00303167, -0.000723306, -0.00118789
0.0432371, 0.107602, -0.774091, -0.91598, -1.45633, -0.625302, 1.07024, -0.25672, -0.00243149, -0.00447783, -0.00282733, -0.000801138, -0.00246668, -0.00204915, 0.00153262, -0.317619, 15.7156, 18.7803, 15.9161, 0.852538, 3.45309, -0.114369, 0.000950101, -0.00167124, -7.08097e-05, -0.00032238, -0.000226673, 7.75813e-05, 0.00543069, -0.00315345, 0.00261154, 0.00469655, 0.000227743, 0.008038, -0.0110935, -0.44469, 0.634997, -3.13177, -0.0555706, -0.107688, -0.0102108, -0.442987, 0.635143, -3.1321, -0.0558629, -0.107352, 0.00171879, 0.00279613, -0.00379814, -0.00376209, -0.000568987, -0.00158619
0.0442371, 0.10761, -0.774091, -0.915984, -1.45633, -0.625304, 1.07024, -0.256724, 0.000154108, -0.00328013, -0.0021491, 0.000456039, -0.00168092, -0.00112886, -0.000665798, -0.392998, 15.7156, 18.7803, 15.8765, 0.846129, 3.44668, -0.0685925, 0.000949327, -0.00166684, -7.43549e-05, -0.000331129, -0.000235901, 7.20012e-05, 0.00381336, -0.0033805, 0.00347523, 0.00666687, -0.000397017, 0.0139742, -0.0110917, -0.444687, 0.634993, -3.13176, -0.0555714, -0.107702, -0.0102098, -0.442989, 0.635143, -3.1321, -0.0558721, -0.107353, 0.00182607, 0.00296406, -0.00403052, -0.00209343, -0.0005786, -0.000847162
0.0452371, 0.107608, -0.774091, -0.91599, -1.45633, -0.625307, 1.07024, -0.25672, 0.000111636, -0.00157272, -0.0024661, -0.00057741, -0.00604001, -0.00126129, 0.000545386, -0.392998, 15.6799, 18.816, 15.9161, 0.858946, 3.46042, -0.0951428, 0.000945061, -0.00166293, -7.5995e-05, -0.000334617, -0.000251158, 8.13253e-05, 0.00416665, -0.00398033, 0.00336988, 0.00831269, 0.00543862, 0.0118514, -0.0110899, -0.444684, 0.634989, -3.13175, -0.0555722, -0.107718, -0.0102122, -0.44299, 0.63514, -3.1321, -0.0558584, -0.107345, 0.00193648, 0.00313629, -0.00426926, -0.00230665, -0.00101735, -0.00121914
0.0462371, 0.107605, -0.774094, -0.916, -1.45633, -0.625311, 1.07024, -0.256726, -0.000754121, -0.00121437, -0.00583983, -0.00118522, -0.00792299, -0.000569665, -0.00159867, -0.357292, 15.6799, 18.8556, 15.9518, 0.834227, 3.45309, -0.0420422, 0.000937106, -0.00165722, -7.75457e-05, -0.000339725, -0.000262511, 8.85245e-05, 0.0057957, -0.00507839, 0.00257912, 0.00780725, 0.00749833, 0.010931, -0.0110879, -0.444681, 0.634984, -3.13174, -0.0555731, -0.107735, -0.010218, -0.442993, 0.635136, -3.13209, -0.055848, -0.107344, 0.00205002, 0.00331277, -0.00451432, -0.0037239, -0.00198865, -0.00237218
0.0472371, 0.107605, -0.774095, -0.916006, -1.45633, -0.625312, 1.07024, -0.256716, -0.000497743, -0.000933999, -0.00644222, 7.12743e-05, -0.00982736, -0.000651096, 0.00137895, -0.357292, 15.6799, 18.816, 15.9161, 0.822325, 3.46042, -0.10796, 0.000932391, -0.00165269, -8.07868e-05, -0.000345971, -0.000273867, 0.000105285, 0.00653892, -0.00565145, 0.00304691, 0.00940701, 0.00855273, 0.00717592, -0.0110858, -0.444678, 0.63498, -3.13173, -0.055574, -0.107752, -0.0102207, -0.442994, 0.635135, -3.13209, -0.0558227, -0.107344, 0.00216668, 0.00349346, -0.00476563, -0.00435988, -0.00241091, -0.00221172
0.0482371, 0.107608, -0.774093, -0.916011, -1.45633, -0.625315, 1.07024, -0.256722, 0.000507143, 0.000119239, -0.00627838, 0.00183041, -0.00722252, -0.000162836, -0.000536269, -0.392998, 15.6442, 18.7446, 15.8408, 0.815917, 3.45309, -0.0685925, 0.00092872, -0.0016474, -8.68037e-05, -0.000359733, -0.000285968, 0.000105266, 0.00563368, -0.00570117, 0.00394786, 0.0102952, 0.00632018, 0.0115737, -0.0110835, -0.444674, 0.634975, -3.13172, -0.055575, -0.107771, -0.0102223, -0.442996, 0.635136, -3.13209, -0.0558233, -0.107344, 0.00228643, 0.0036783, -0.00502317, -0.00339764, -0.00225182, -0.00150858
0.0492371, 0.107608, -0.77409, -0.916017, -1.45633, -0.62532, 1.07024, -0.256719, 0.000340911, 0.000937528, -0.00308508, 0.00123501, -0.00549625, 0.00458469, 0.00110242, -0.392998, 15.6046, 18.6692, 15.8408, 0.815917, 3.45309, -0.10796, 0.000924697, -0.00164145, -9.0851e-05, -0.000371945, -0.000303236, 0.000116728, 0.00357642, -0.00587006, 0.00540074, 0.0159699, 0.00376034, 0.0143687, -0.0110812, -0.44467, 0.634969, -3.13171, -0.0555761, -0.10779, -0.0102241, -0.442998, 0.635134, -3.13209, -0.0558061, -0.107337, 0.00240928, 0.00386724, -0.00528689, -0.00131737, -0.00217204, -0.00018242
0.0502371, 0.10761, -0.774091, -0.91603, -1.45632, -0.625329, 1.07024, -0.256722, 0.000229385, -0.00035549, -0.00892733, 0.00259763, -0.0046159, 0.00395617, 0.00299987, -0.392998, 15.6442, 18.6692, 15.7654, 0.827819, 3.43936, -0.0484509, 0.000916542, -0.00163327, -9.47171e-05, -0.000384742, -0.000318724, 0.000128106, 0.0061889, -0.00708519, 0.00433468, 0.0124852, 0.00158835, 0.00869224, -0.0110787, -0.444666, 0.634964, -3.1317, -0.0555772, -0.107811, -0.0102297, -0.443003, 0.635132, -3.13209, -0.0557892, -0.107334, 0.00253522, 0.00406024, -0.00555673, -0.00367962, -0.003276, -0.00170353
0.0512371, 0.107608, -0.774088, -0.916039, -1.45632, -0.625336, 1.07025, -0.25672, -0.000680711, 0.00065166, -0.00909791, 0.00174005, -0.00800236, 0.00401583, 0.00383133, -0.357292, 15.6046, 18.6295, 15.7654, 0.834227, 3.41006, -0.0878186, 0.000910384, -0.00162605, -9.82978e-05, -0.00039703, -0.000339949, 0.000143261, 0.0069339, -0.00760777, 0.00438082, 0.0141422, 0.00577946, 0.00671735, -0.0110761, -0.444662, 0.634958, -3.13168, -0.0555784, -0.107832, -0.0102333, -0.443006, 0.635129, -3.13209, -0.0557665, -0.107323, 0.00266423, 0.00425725, -0.00583265, -0.00427793, -0.0036279, -0.00198824
0.0522371, 0.107613, -0.774087, -0.916055, -1.45631, -0.625345, 1.07025, -0.256725, 0.000382598, 0.000404915, -0.0110156, 0.0037647, -0.00642182, 0.00289721, 0.00137617, -0.392998, 15.6046, 18.6692, 15.6543, 0.846129, 3.41006, -0.0484509, 0.000901979, -0.00161651, -0.000102564, -0.000410981, -0.000356404, 0.00015432, 0.00750556, -0.00794863, 0.00460521, 0.0128492, 0.0037692, 0.00959635, -0.0110734, -0.444658, 0.634952, -3.13167, -0.0555796, -0.107855, -0.0102389, -0.443011, 0.635127, -3.1321, -0.0557501, -0.107321, 0.0027963, 0.00445821, -0.00611461, -0.00471908, -0.00378972, -0.00208811
0.0532371, 0.107616, -0.774082, -0.91607, -1.45632, -0.625351, 1.07025, -0.256717, 0.000255956, 0.00191824, -0.0114163, 0.00167925, -0.00893541, 0.00209646, 0.00285678, -0.392998, 15.5331, 18.6692, 15.69, 0.846129, 3.41006, -0.0951428, 0.000896914, -0.00160851, -0.000104204, -0.000417139, -0.000383392, 0.000173057, 0.00749535, -0.00820035, 0.00414298, 0.0125491, 0.009058, 0.00867378, -0.0110705, -0.444653, 0.634946, -3.13165, -0.0555809, -0.107878, -0.0102409, -0.443015, 0.635122, -3.13209, -0.0557222, -0.107302, 0.00293143, 0.00466308, -0.00640257, -0.0045331, -0.00383204, -0.00283832
0.0542371, 0.107609, -0.774079, -0.916073, -1.45631, -0.62536, 1.07025, -0.25672, -0.00242715, 0.00219024, -0.00506599, 0.00195821, -0.0111295, 0.000978847, 0.000841326, -0.281914, 15.4935, 18.5184, 15.6543, 0.852538, 3.42471, -0.0621838, 0.000889025, -0.00160203, -0.000111371, -0.000437075, -0.000406924, 0.000185649, 0.00728602, -0.00715947, 0.00633224, 0.0176156, 0.0111633, 0.0128026, -0.0110675, -0.444648, 0.63494, -3.13164, -0.0555822, -0.107903, -0.010246, -0.443017, 0.635122, -3.1321, -0.0557034, -0.107291, 0.00306961, 0.00487181, -0.00669647, -0.00437377, -0.00259512, -0.000927388
0.0552371, 0.107619, -0.774077, -0.916085, -1.45632, -0.625368, 1.07026, -0.25672, 0.00328789, 0.0014477, -0.00962671, -0.000455138, -0.0120958, 0.00101664, 0.00162845, -0.357292, 15.4935, 18.4827, 15.7297, 0.840636, 3.41739, -0.0878186, 0.000886467, -0.00159348, -0.000113816, -0.000446494, -0.000433847, 0.000188236, 0.00626768, -0.00838259, 0.00441276, 0.0139412, 0.0130528, 0.0161929, -0.0110644, -0.444643, 0.634933, -3.13162, -0.0555837, -0.107929, -0.0102453, -0.443021, 0.635118, -3.13209, -0.0557006, -0.107276, 0.00321082, 0.00508435, -0.00699628, -0.00304185, -0.00355222, -0.00307989
0.0562371, 0.107617, -0.774072, -0.916098, -1.45631, -0.625372, 1.07026, -0.256726, 0.00152614, 0.00179101, -0.0128532, 0.00146178, -0.00816491, -0.000337706, -0.000758549, -0.317619, 15.4578, 18.443, 15.6543, 0.815917, 3.44668, -0.0356336, 0.000878526, -0.00158527, -0.000119597, -0.000459111, -0.000456181, 0.000198016, 0.00788045, -0.00858706, 0.00434313, 0.0107816, 0.010092, 0.0164632, -0.0110611, -0.444638, 0.634926, -3.13161, -0.0555852, -0.107956, -0.01025, -0.443024, 0.635116, -3.13209, -0.0556866, -0.107268, 0.00335505, 0.00530066, -0.00730195, -0.00449351, -0.00359644, -0.00356782
0.0572371, 0.107617, -0.774068, -0.916106, -1.45631, -0.625382, 1.07026, -0.256715, -0.00054914, 0.00202222, -0.0135062, 0.000975996, -0.00576487, -0.00068156, 0.00247687, -0.242241, 15.4221, 18.332, 15.6543, 0.804015, 3.46042, -0.114369, 0.000871561, -0.00157743, -0.000125176, -0.000474594, -0.000486441, 0.00022208, 0.00853439, -0.00849996, 0.0043732, 0.00951977, 0.00911581, 0.0132798, -0.0110577, -0.444633, 0.634918, -3.13159, -0.0555867, -0.107984, -0.0102537, -0.443027, 0.635113, -3.13209, -0.0556503, -0.10725, 0.0035023, 0.00552068, -0.00761342, -0.00500346, -0.00331272, -0.00389415
0.0582371, 0.107623, -0.774064, -0.91612, -1.4563, -0.625392, 1.07026, -0.25672, -0.000218589, 0.00217811, -0.0136261, 0.00241501, -0.00850384, -0.000957756, -0.000469054, -0.242241, 15.3864, 18.332, 15.5789, 0.797606, 3.47507, -0.0557752, 0.000865182, -0.00156747, -0.000131064, -0.000491192, -0.000514221, 0.000229338, 0.00938016, -0.00909658, 0.00507894, 0.0118492, 0.0106634, 0.0156517, -0.0110541, -0.444627, 0.63491, -3.13157, -0.0555884, -0.108013, -0.0102565, -0.443032, 0.635111, -3.13209, -0.0556403, -0.107237, 0.00365255, 0.00574437, -0.00793067, -0.0057237, -0.00372137, -0.00356988
0.0592371, 0.107624, -0.774053, -0.916135, -1.4563, -0.6254, 1.07026, -0.256718, 0.00228808, 0.00404659, -0.0167632, 0.00337407, -0.010261, -0.000337872, 0.000436751, -0.206535, 15.2753, 18.332, 15.5035, 0.784789, 3.46774, -0.0750012, 0.000858343, -0.00155738, -0.000137207, -0.000507751, -0.00054774, 0.000249397, 0.0093297, -0.0103215, 0.00486186, 0.012286, 0.0131895, 0.0147829, -0.0110504, -0.444621, 0.634902, -3.13155, -0.0555901, -0.108044, -0.0102597, -0.443036, 0.635108, -3.13209, -0.0556104, -0.107216, 0.0038058, 0.00597168, -0.00825364, -0.00546153, -0.0047146, -0.00411418
0.0602371, 0.107627, -0.774054, -0.916147, -1.4563, -0.625408, 1.07026, -0.256719, 0.00094354, 0.00504507, -0.0182424, 0.00225, -0.0115606, 6.80428e-05, -0.00113886, -0.166862, 15.311, 18.2963, 15.5035, 0.772887, 3.46042, -0.0356336, 0.000850215, -0.00154863, -0.000142406, -0.00052026, -0.000575038, 0.000258774, 0.0102138, -0.0109269, 0.00455286, 0.0124557, 0.0158698, 0.015128, -0.0110465, -0.444615, 0.634894, -3.13153, -0.0555919, -0.108076, -0.0102639, -0.443039, 0.635105, -3.13208, -0.0555973, -0.107206, 0.00396204, 0.00620257, -0.00858229, -0.00614388, -0.00511712, -0.00481644
0.0612371, 0.107631, -0.77405, -0.916162, -1.4563, -0.625422, 1.07026, -0.256714, 0.000888655, 0.00673348, -0.0169867, 0.00150047, -0.00900681, 6.18794e-05, 0.00146583, -0.166862, 15.311, 18.2963, 15.5035, 0.779296, 3.46042, -0.0951428, 0.000842105, -0.00153819, -0.000147069, -0.000534393, -0.000612847, 0.0002782, 0.00880849, -0.0105312, 0.00509093, 0.0125148, 0.0161668, 0.0163405, -0.0110424, -0.444609, 0.634885, -3.13151, -0.0555937, -0.108109, -0.0102679, -0.443043, 0.6351, -3.13208, -0.0555687, -0.10718, 0.00412125, 0.00643698, -0.00891658, -0.00463484, -0.00444271, -0.00451475
0.0622371, 0.107631, -0.774046, -0.916172, -1.4563, -0.625435, 1.07026, -0.256713, 0.00133839, 0.0041101, -0.0141892, 0.00100066, -0.0116608, -0.000217626, 0.000484363, -0.0557783, 15.3467, 18.2209, 15.5035, 0.797606, 3.46774, -0.0814099, 0.000833326, -0.00152866, -0.000153494, -0.000551981, -0.000649437, 0.000294165, 0.00910164, -0.0105095, 0.00595263, 0.015442, 0.0160191, 0.0202159, -0.0110382, -0.444602, 0.634876, -3.13149, -0.0555957, -0.108143, -0.0102726, -0.443047, 0.635097, -3.13208, -0.0555454, -0.107158, 0.00428343, 0.00667487, -0.00925645, -0.00482509, -0.00420126, -0.00401553
0.0632371, 0.107633, -0.774045, -0.916184, -1.45629, -0.625442, 1.07026, -0.256713, 0.000372752, 0.0021543, -0.0139746, 0.00150259, -0.0122871, 0.000135474, 9.73758e-05, -0.0161054, 15.3864, 18.2209, 15.4678, 0.779296, 3.46042, -0.0750012, 0.000824827, -0.00151792, -0.000161643, -0.000574026, -0.00067588, 0.000308271, 0.0103932, -0.0108855, 0.00651411, 0.0170643, 0.0141413, 0.0205978, -0.0110339, -0.444596, 0.634867, -3.13147, -0.0555977, -0.108178, -0.0102769, -0.443051, 0.635095, -3.13208, -0.0555249, -0.107154, 0.00444857, 0.0069162, -0.00960188, -0.00597292, -0.00438629, -0.00389299
0.0642371, 0.107639, -0.77404, -0.916196, -1.4563, -0.625453, 1.07026, -0.256716, 0.000554887, 0.00169289, -0.0169211, 0.00100192, -0.00969548, -0.00044525, -0.000909557, -0.0161054, 15.3864, 18.2209, 15.4678, 0.791197, 3.47507, -0.0484509, 0.000819083, -0.00150762, -0.000167749, -0.000590498, -0.000716001, 0.000314801, 0.0110028, -0.0112751, 0.00581387, 0.0138926, 0.0125957, 0.022415, -0.0110293, -0.444589, 0.634857, -3.13145, -0.0555998, -0.108215, -0.0102781, -0.443055, 0.635091, -3.13208, -0.0555165, -0.107129, 0.00461665, 0.00716091, -0.0099528, -0.00635056, -0.00454626, -0.00498766
0.0652371, 0.107645, -0.774038, -0.916201, -1.45629, -0.625464, 1.07026, -0.256712, 0.00374805, 0.000485892, -0.0132915, 0.00159612, -0.0116813, -0.000291607, 0.000620984, -0.0161054, 15.4221, 18.1098, 15.4282, 0.797606, 3.47507, -0.0814099, 0.000814009, -0.00149812, -0.000177422, -0.000614867, -0.000749174, 0.000323225, 0.00944425, -0.0112121, 0.00726964, 0.0179932, 0.0124089, 0.0269708, -0.0110246, -0.444581, 0.634847, -3.13142, -0.055602, -0.108254, -0.0102788, -0.443057, 0.63509, -3.13208, -0.0555049, -0.107116, 0.00478767, 0.00740896, -0.0103092, -0.00472837, -0.00419366, -0.00378411
0.0662371, 0.107646, -0.774032, -0.916219, -1.45629, -0.625473, 1.07026, -0.256713, 0.00344661, 0.000468316, -0.0120164, 0.00189941, -0.00873418, -0.000461753, 0.00018162, 0.0949785, 15.4221, 18.1852, 15.3925, 0.797606, 3.48239, -0.0750012, 0.000803364, -0.00148632, -0.000183947, -0.000630925, -0.000787836, 0.000342496, 0.00883341, -0.0108504, 0.00809326, 0.0182827, 0.0101139, 0.0307531, -0.0110198, -0.444574, 0.634836, -3.1314, -0.0556043, -0.108293, -0.0102846, -0.443062, 0.635085, -3.13208, -0.0554769, -0.107096, 0.00496161, 0.0076603, -0.010671, -0.00401525, -0.00356703, -0.00328014
0.0672371, 0.107653, -0.774033, -0.916227, -1.45629, -0.625484, 1.07026, -0.256712, 0.00614994, -0.00124993, -0.00812703, 0.00210157, -0.00677015, -3.36279e-05, 0.000362181, 0.0949785, 15.4935, 18.1455, 15.3568, 0.804015, 3.47507, -0.0814099, 0.000797008, -0.00147498, -0.000193763, -0.000657937, -0.000818444, 0.000349446, 0.00668406, -0.0103157, 0.00953374, 0.0208376, 0.00653275, 0.0385078, -0.0110147, -0.444566, 0.634825, -3.13137, -0.0556067, -0.108334, -0.0102862, -0.443066, 0.635084, -3.13208, -0.0554677, -0.107091, 0.00513848, 0.00791489, -0.0110382, -0.00181412, -0.00271569, -0.0020585
0.0682371, 0.107654, -0.774033, -0.91624, -1.45629, -0.625496, 1.07026, -0.256714, 0.00304796, 0.000666647, -0.0134089, 0.00140111, -0.00907214, -0.000562748, -0.000467817, 0.170357, 15.5688, 18.1852, 15.3568, 0.797606, 3.48971, -0.0621838, 0.000785689, -0.00146389, -0.000201981, -0.000676802, -0.000857032, 0.000363663, 0.00969227, -0.0115891, 0.00832413, 0.0186943, 0.0112659, 0.032927, -0.0110095, -0.444558, 0.634814, -3.13135, -0.0556092, -0.108376, -0.0102924, -0.443069, 0.63508, -3.13208, -0.0554476, -0.107074, 0.00531825, 0.00817268, -0.0114107, -0.00450474, -0.00382552, -0.00385492
0.0692371, 0.107663, -0.774029, -0.916244, -1.45629, -0.625504, 1.07026, -0.256712, 0.0025654, 0.000770508, -0.0105693, 0.00093412, -0.0112689, -0.000373512, 0.000639663, 0.170357, 15.5688, 18.0741, 15.3568, 0.804015, 3.48971, -0.0878186, 0.000783497, -0.00145365, -0.000212487, -0.000703668, -0.000895979, 0.000365385, 0.00943838, -0.0115315, 0.00941702, 0.022204, 0.013243, 0.0341618, -0.0110041, -0.44455, 0.634803, -3.13132, -0.0556118, -0.10842, -0.0102896, -0.443071, 0.635078, -3.13208, -0.0554467, -0.107058, 0.00550092, 0.00843363, -0.0117885, -0.0041466, -0.0035083, -0.00312509
0.0702371, 0.107669, -0.774026, -0.916259, -1.45629, -0.625516, 1.07026, -0.256712, 0.00433449, -7.69885e-05, -0.012886, 0.000622782, -0.0126109, 0.000294767, 0.000190662, 0.21003, 15.6046, 18.1455, 15.3568, 0.804015, 3.47507, -0.0814099, 0.000774885, -0.00144037, -0.000221105, -0.000727437, -0.0009365, 0.000377744, 0.00995572, -0.0125557, 0.00903558, 0.0222888, 0.0135343, 0.0356239, -0.0109985, -0.444541, 0.634791, -3.13129, -0.0556144, -0.108465, -0.0102927, -0.443076, 0.635074, -3.13208, -0.0554295, -0.107041, 0.00568647, 0.00869769, -0.0121715, -0.0044141, -0.00428279, -0.00393194
0.0712371, 0.107682, -0.774023, -0.916264, -1.45628, -0.625525, 1.07027, -0.256717, 0.00834435, -0.000795927, -0.0111642, 0.00217845, -0.0131349, 0.000468709, -0.00132977, 0.134651, 15.6442, 18.0741, 15.2814, 0.791197, 3.46774, -0.0420422, 0.000771858, -0.00142905, -0.000234098, -0.000758217, -0.000973409, 0.000373031, 0.00842829, -0.0127875, 0.0102698, 0.025102, 0.0121991, 0.0429232, -0.0109927, -0.444532, 0.634778, -3.13127, -0.0556172, -0.108512, -0.0102904, -0.443079, 0.635075, -3.13208, -0.0554387, -0.107032, 0.00587491, 0.00896481, -0.0125597, -0.00278002, -0.00420506, -0.00298525
0.0722371, 0.107683, -0.774021, -0.916276, -1.45628, -0.625531, 1.07027, -0.25671, 0.00681564, -0.00206349, -0.0125333, 0.000617103, -0.00964418, 4.19028e-05, 0.00131842, 0.245735, 15.7156, 18.1098, 15.3171, 0.784789, 3.47507, -0.101552, 0.000762661, -0.0014175, -0.000243037, -0.000778269, -0.00101349, 0.000390877, 0.0091394, -0.012728, 0.00977464, 0.022234, 0.00971722, 0.0417209, -0.0109867, -0.444523, 0.634765, -3.13124, -0.05562, -0.10856, -0.0102938, -0.443082, 0.63507, -3.13208, -0.0554134, -0.107019, 0.00606621, 0.00923495, -0.0129531, -0.00326584, -0.00389629, -0.00392215
0.0732371, 0.10769, -0.774023, -0.916286, -1.45628, -0.625542, 1.07027, -0.256718, 0.00531988, -0.00387094, -0.0125285, 0.00124663, -0.0122638, 2.84584e-05, -0.00179915, 0.245735, 15.8267, 18.1098, 15.2814, 0.804015, 3.47507, -0.0292249, 0.000754886, -0.00140452, -0.000254045, -0.000807292, -0.00105149, 0.000389743, 0.0111691, -0.0133269, 0.0103612, 0.0245046, 0.00963106, 0.0433275, -0.0109806, -0.444514, 0.634752, -3.13121, -0.055623, -0.10861, -0.0102957, -0.443086, 0.635068, -3.13208, -0.0554173, -0.107011, 0.00626038, 0.00950806, -0.0133516, -0.00511461, -0.00429884, -0.00388116
0.0742371, 0.107693, -0.774016, -0.916298, -1.45628, -0.625552, 1.07027, -0.256708, 0.00454303, -0.00166803, -0.0133705, 0.00259434, -0.0136231, -0.000760529, 0.000971204, 0.360787, 15.791, 18.1455, 15.206, 0.809508, 3.49612, -0.0878186, 0.00074513, -0.00139163, -0.000266683, -0.000835618, -0.00109631, 0.000415417, 0.0119197, -0.0137824, 0.0109881, 0.0256552, 0.0125563, 0.0393681, -0.0109742, -0.444504, 0.634739, -3.13117, -0.055626, -0.108661, -0.0102995, -0.44309, 0.635066, -3.13208, -0.0553796, -0.106993, 0.00645739, 0.00978411, -0.0137552, -0.00569322, -0.0045105, -0.00371536
0.0752371, 0.107703, -0.774015, -0.91631, -1.45627, -0.62556, 1.07027, -0.256713, 0.00372406, -0.00272442, -0.010897, 0.00256479, -0.0097378, -0.000269366, -0.00128494, 0.360787, 15.8624, 18.1852, 15.1703, 0.797606, 3.48971, -0.0356336, 0.000737784, -0.00137809, -0.000278291, -0.000862869, -0.00113613, 0.000417012, 0.011168, -0.0132161, 0.0121351, 0.0267365, 0.00836301, 0.0461676, -0.0109676, -0.444494, 0.634725, -3.13114, -0.0556292, -0.108713, -0.0103006, -0.443094, 0.635063, -3.13208, -0.0553796, -0.106985, 0.00665724, 0.010063, -0.0141638, -0.00484387, -0.0036502, -0.00292452
0.0762371, 0.10771, -0.774014, -0.916318, -1.45627, -0.62557, 1.07027, -0.256707, 0.00519032, -0.00270078, -0.0080562, 0.00170986, -0.00755163, -0.00095925, 0.00107644, 0.400459, 15.9021, 18.1852, 15.1703, 0.804015, 3.51077, -0.0878186, 0.000730462, -0.00136586, -0.000290691, -0.000890946, -0.00118233, 0.000428446, 0.00924983, -0.0125457, 0.013006, 0.027259, 0.00766551, 0.050534, -0.0109609, -0.444484, 0.63471, -3.13111, -0.0556325, -0.108767, -0.0103016, -0.443096, 0.635061, -3.13207, -0.0553643, -0.106969, 0.00685993, 0.0103448, -0.0145774, -0.00281346, -0.00263952, -0.00233215
0.0772371, 0.10772, -0.774009, -0.916326, -1.45627, -0.625578, 1.07027, -0.256717, 0.00728793, 0.00138149, -0.00907986, 0.00206793, -0.0103631, -9.67999e-05, -0.0014523, 0.400459, 15.9021, 18.1852, 15.1306, 0.815917, 3.49612, -0.0292249, 0.000725379, -0.00135253, -0.000304354, -0.000922825, -0.00122842, 0.000422751, 0.00812892, -0.0134828, 0.0134219, 0.0297711, 0.0134142, 0.0544697, -0.0109539, -0.444473, 0.634696, -3.13108, -0.0556359, -0.108823, -0.0103002, -0.443099, 0.635059, -3.13207, -0.0553757, -0.106954, 0.00706543, 0.0106294, -0.0149959, -0.00148614, -0.00325628, -0.00226514
0.0782371, 0.107729, -0.774007, -0.916336, -1.45627, -0.625584, 1.07027, -0.25671, 0.0079184, 0.000372707, -0.00986005, 0.000450606, -0.00796459, 0.00409188, 0.000490018, 0.436165, 15.9378, 18.1852, 15.1703, 0.822325, 3.51077, -0.0685925, 0.000720425, -0.00133943, -0.000315829, -0.000949889, -0.00127518, 0.000429268, 0.00734644, -0.0143359, 0.0134586, 0.0316477, 0.00972906, 0.0561992, -0.0109468, -0.444463, 0.63468, -3.13104, -0.0556394, -0.10888, -0.0102983, -0.443102, 0.635055, -3.13207, -0.0553683, -0.10694, 0.00727374, 0.0109167, -0.0154193, -0.000470175, -0.00379474, -0.00260418
0.0792371, 0.10774, -0.774009, -0.916346, -1.45627, -0.625592, 1.07027, -0.25671, 0.0100668, 0.00202241, -0.0113612, 0.00122843, -0.0101599, -0.00629291, 8.94381e-05, 0.400459, 16.0092, 18.2209, 15.1306, 0.822325, 3.51077, -0.0621838, 0.000712134, -0.00132571, -0.000329853, -0.000979957, -0.00131761, 0.00043393, 0.00826312, -0.0133385, 0.012796, 0.0239398, 0.0180087, 0.057806, -0.0109394, -0.444452, 0.634665, -3.131, -0.055643, -0.108939, -0.0102997, -0.443105, 0.635053, -3.13207, -0.0553639, -0.106934, 0.00748486, 0.0112067, -0.0158476, -0.00116311, -0.00253445, -0.00375112
0.0802371, 0.107741, -0.774008, -0.916355, -1.45627, -0.625597, 1.07027, -0.256708, 0.00815525, 0.000850746, -0.0115121, 0.000818953, -0.0115234, -0.00441464, 0.000771791, 0.511544, 16.0489, 18.2209, 15.1306, 0.815917, 3.50345, -0.0814099, 0.000702108, -0.00131239, -0.000344062, -0.00101096, -0.00136215, 0.000446189, 0.00968786, -0.0140967, 0.0132602, 0.0267484, 0.0173484, 0.0563492, -0.0109318, -0.44444, 0.634649, -3.13097, -0.0556467, -0.109, -0.0103026, -0.443107, 0.63505, -3.13206, -0.0553477, -0.106927, 0.00769877, 0.0114994, -0.0162807, -0.00237509, -0.00305452, -0.00382657
0.0812371, 0.107748, -0.774008, -0.916365, -1.45626, -0.625604, 1.07027, -0.256711, 0.00543257, -0.0007804, -0.0126207, 0.00230921, -0.00931832, -0.00303979, -0.000706109, 0.551216, 16.1203, 18.2606, 15.0552, 0.834227, 3.49612, -0.0484509, 0.000692409, -0.00129778, -0.000359775, -0.00104579, -0.00140566, 0.000451656, 0.01167, -0.0146502, 0.0139995, 0.028015, 0.0125851, 0.0562707, -0.010924, -0.444429, 0.634632, -3.13093, -0.0556505, -0.109062, -0.0103051, -0.443111, 0.635048, -3.13206, -0.055342, -0.106923, 0.00791545, 0.0117947, -0.0167186, -0.00416641, -0.00338959, -0.00366988
0.0822371, 0.107755, -0.773999, -0.916376, -1.45626, -0.625611, 1.07027, -0.25671, 0.00660681, 0.00139232, -0.0134063, 0.00153947, -0.00760882, -0.00284504, -0.000199422, 0.586922, 16.0489, 18.2963, 15.0552, 0.852538, 3.51077, -0.0557752, 0.000685811, -0.00128359, -0.000374034, -0.00107622, -0.00146341, 0.000459354, 0.0104253, -0.0148638, 0.014062, 0.0274451, 0.014071, 0.059274, -0.010916, -0.444417, 0.634615, -3.13089, -0.0556545, -0.109126, -0.0103042, -0.443113, 0.635045, -3.13206, -0.0553332, -0.106898, 0.00813491, 0.0120926, -0.0171612, -0.00270326, -0.00326248, -0.00396589
0.0832371, 0.107765, -0.773993, -0.916385, -1.45626, -0.625617, 1.07027, -0.256709, 0.00916225, 0.00203785, -0.00990612, 0.00102632, -0.0100256, -0.00237495, 0.000341807, 0.551216, 16.0092, 18.2963, 15.0552, 0.858946, 3.5181, -0.0685925, 0.000680502, -0.00126937, -0.000389194, -0.00110855, -0.00151802, 0.000462571, 0.00849161, -0.0148556, 0.0153527, 0.0316549, 0.0166684, 0.0647943, -0.0109077, -0.444404, 0.634598, -3.13085, -0.0556585, -0.109191, -0.0103018, -0.443116, 0.635043, -3.13206, -0.0553315, -0.10688, 0.00835714, 0.012393, -0.0176085, -0.000643745, -0.00289871, -0.00299175
0.0842371, 0.107771, -0.773995, -0.916395, -1.45626, -0.625624, 1.07027, -0.256708, 0.00930609, -0.000268459, -0.010501, 0.00244745, -0.00811413, -0.001196, 0.000465259, 0.586922, 16.0846, 18.2963, 14.9799, 0.877257, 3.50345, -0.0750012, 0.000669753, -0.00125383, -0.000406418, -0.00114705, -0.0015618, 0.000472141, 0.00931999, -0.0154, 0.016102, 0.0329556, 0.0115997, 0.0663153, -0.0108992, -0.444392, 0.63458, -3.13081, -0.0556627, -0.109258, -0.0103047, -0.443119, 0.635041, -3.13206, -0.0553196, -0.106881, 0.00858211, 0.0126959, -0.0180604, -0.00127779, -0.00317683, -0.00275893
0.0852371, 0.107777, -0.773997, -0.916405, -1.45626, -0.625629, 1.07027, -0.256709, 0.00931917, -0.00184005, -0.00957293, 0.00246685, -0.00597357, -0.0014563, 7.28346e-05, 0.626595, 16.16, 18.3716, 14.9442, 0.877257, 3.5181, -0.0685925, 0.000659151, -0.00123876, -0.000422651, -0.00118048, -0.00160865, 0.000478604, 0.0093116, -0.0152573, 0.016765, 0.0331829, 0.00866213, 0.0702263, -0.0108905, -0.444379, 0.634562, -3.13077, -0.055667, -0.109327, -0.0103072, -0.443122, 0.635038, -3.13205, -0.055313, -0.106879, 0.00880983, 0.0130012, -0.018517, -0.00109356, -0.00273564, -0.00255365
0.0862371, 0.10779, -0.773991, -0.916416, -1.45626, -0.625635, 1.07027, -0.256714, 0.00891347, -0.000222062, -0.0110531, -0.00011867, -0.00508366, -0.000515651, -0.00164685, 0.551216, 16.1203, 18.4073, 15.0195, 0.895568, 3.50345, -0.0228162, 0.000655046, -0.00122307, -0.000437362, -0.00121434, -0.00166964, 0.000471657, 0.00887119, -0.0157029, 0.0161895, 0.0322575, 0.0110561, 0.0739612, -0.0108816, -0.444366, 0.634543, -3.13072, -0.0556715, -0.109398, -0.0103028, -0.443125, 0.635034, -3.13205, -0.0553274, -0.106856, 0.00904028, 0.013309, -0.0189781, -0.000368678, -0.00285281, -0.00356232
0.0872371, 0.107799, -0.773988, -0.916425, -1.45626, -0.625641, 1.07027, -0.256706, 0.0066454, -9.05771e-05, -0.011212, 0.00168412, -0.0039438, -0.000680526, 0.00158088, 0.551216, 16.1203, 18.4073, 14.9442, 0.901976, 3.51077, -0.0951428, 0.000646495, -0.00120736, -0.000456018, -0.00125345, -0.00172227, 0.000485351, 0.0102618, -0.01592, 0.017239, 0.0336052, 0.00940184, 0.0697853, -0.0108725, -0.444352, 0.634524, -3.13068, -0.0556761, -0.10947, -0.010303, -0.443128, 0.635033, -3.13205, -0.0553096, -0.106848, 0.00927346, 0.0136191, -0.0194438, -0.00158778, -0.00281951, -0.00308101
0.0882371, 0.107806, -0.773984, -0.916432, -1.45626, -0.625648, 1.07027, -0.256712, 0.00726462, 0.000817931, -0.0105288, 0.000287532, -0.00794071, -0.000231535, -0.000912761, 0.586922, 16.0846, 18.3716, 14.9799, 0.926695, 3.50345, -0.0420422, 0.000639487, -0.00119192, -0.000472989, -0.00129188, -0.00178346, 0.000481424, 0.0101498, -0.0165353, 0.017552, 0.0363741, 0.0141756, 0.0740446, -0.0108631, -0.444339, 0.634504, -3.13064, -0.0556808, -0.109544, -0.0103012, -0.44313, 0.635029, -3.13204, -0.0553193, -0.106829, 0.00950935, 0.0139315, -0.0199139, -0.00124076, -0.00312185, -0.00323686
0.0892371, 0.10781, -0.773989, -0.916441, -1.45626, -0.625653, 1.07027, -0.256707, 0.00768165, 0.00109459, -0.0110504, 0.00186212, -0.0058188, -0.000191195, 0.000849561, 0.626595, 16.1957, 18.3716, 14.9084, 0.926695, 3.50345, -0.0814099, 0.000626341, -0.00117545, -0.000492095, -0.00133217, -0.00182959, 0.000495295, 0.0101709, -0.0168049, 0.0183786, 0.036942, 0.012008, 0.0743592, -0.0108534, -0.444325, 0.634484, -3.13059, -0.0556856, -0.10962, -0.0103055, -0.443133, 0.635027, -3.13204, -0.0553014, -0.106835, 0.00974794, 0.0142462, -0.0203885, -0.00107194, -0.00308623, -0.00289158
0.0902371, 0.107825, -0.773981, -0.916451, -1.45626, -0.625659, 1.07027, -0.256713, 0.0107169, 0.00277682, -0.0115114, 0.000406198, -0.0044764, -0.000155092, -0.00112904, 0.551216, 16.1203, 18.3716, 14.9442, 0.932189, 3.50345, -0.0356336, 0.000622635, -0.00115908, -0.000509721, -0.00137003, -0.00189553, 0.000487, 0.00811557, -0.0170035, 0.0182726, 0.0361231, 0.0138303, 0.082267, -0.0108436, -0.44431, 0.634463, -3.13054, -0.0556906, -0.109698, -0.0103, -0.443135, 0.635024, -3.13204, -0.0553183, -0.106812, 0.00998923, 0.0145631, -0.0208674, 0.00123207, -0.00289521, -0.003335
0.0912371, 0.107826, -0.773983, -0.916463, -1.45626, -0.625662, 1.07027, -0.256703, 0.00620217, 0.00113609, -0.00946078, 0.00110602, -0.00703333, 0.00038451, 0.00145136, 0.626595, 16.16, 18.4073, 14.9084, 0.920287, 3.48971, -0.0951428, 0.000608934, -0.00114165, -0.000528872, -0.00141081, -0.0019471, 0.000509453, 0.0107563, -0.0172628, 0.0197001, 0.0405855, 0.013466, 0.0770438, -0.0108335, -0.444295, 0.634442, -3.13049, -0.0556957, -0.109777, -0.0103043, -0.443138, 0.635021, -3.13203, -0.0552874, -0.106813, 0.0102332, 0.0148823, -0.0213508, -0.00124777, -0.0029432, -0.00258281
0.0922371, 0.107838, -0.77398, -0.916475, -1.45626, -0.625669, 1.07027, -0.256708, 0.00567839, 0.00508063, -0.0110301, 0.00166536, -0.00593808, 0.000240798, -0.00123647, 0.586922, 16.1203, 18.443, 14.8688, 0.938597, 3.48971, -0.0356336, 0.000600333, -0.00112378, -0.000547717, -0.00145139, -0.00200933, 0.000507671, 0.0104301, -0.0176571, 0.0200806, 0.0405557, 0.0165413, 0.0801428, -0.0108231, -0.44428, 0.634421, -3.13044, -0.0557009, -0.109858, -0.0103032, -0.443142, 0.635018, -3.13203, -0.0552943, -0.1068, 0.0104799, 0.0152035, -0.0218384, -0.000689312, -0.00300926, -0.00267248
0.0932371, 0.10785, -0.77398, -0.916484, -1.45626, -0.625673, 1.07027, -0.256704, 0.0113597, 0.00377647, -0.00731782, 0.000182223, -0.00414963, 0.000148876, 0.000633749, 0.551216, 16.1203, 18.4073, 14.9084, 0.932189, 3.48971, -0.0750012, 0.000593023, -0.00110665, -0.000566517, -0.00149113, -0.00207028, 0.000510364, 0.00670027, -0.017111, 0.0209618, 0.0417355, 0.0149623, 0.0903039, -0.0108125, -0.444265, 0.634399, -3.13039, -0.0557063, -0.109941, -0.0103006, -0.443144, 0.635014, -3.13202, -0.0552944, -0.10679, 0.0107292, 0.0155269, -0.0223304, 0.00319615, -0.00201857, -0.00202063
0.0942371, 0.107859, -0.773977, -0.916492, -1.45626, -0.625682, 1.07027, -0.256703, 0.00760727, 0.00280969, -0.00768528, 0.0010495, -0.00356235, 0.000361776, 0.000422501, 0.586922, 16.1203, 18.3716, 14.8688, 0.945006, 3.48239, -0.0750012, 0.00058318, -0.00108847, -0.000588312, -0.00153957, -0.00213415, 0.000515807, 0.00903817, -0.0174419, 0.0217386, 0.0430718, 0.0130697, 0.0882612, -0.0108016, -0.444249, 0.634376, -3.13034, -0.0557118, -0.110026, -0.0103005, -0.443147, 0.635012, -3.13202, -0.0552901, -0.106778, 0.0109812, 0.0158524, -0.0228265, 0.00107393, -0.00211503, -0.00191016
0.0952371, 0.10787, -0.773974, -0.916505, -1.45626, -0.625688, 1.07027, -0.256707, 0.0128656, 0.00292737, -0.00977748, 0.000699668, -0.00659525, 0.000234628, -0.000939035, 0.551216, 16.0846, 18.4073, 14.8688, 0.938597, 3.48239, -0.0420422, 0.000573929, -0.00106988, -0.000608452, -0.00158201, -0.00219937, 0.000516128, 0.00811909, -0.0185984, 0.0213919, 0.043384, 0.016109, 0.0939433, -0.0107905, -0.444233, 0.634353, -3.13029, -0.0557175, -0.110113, -0.0102994, -0.44315, 0.635008, -3.13202, -0.0552942, -0.106765, 0.0112358, 0.0161798, -0.0233269, 0.00230948, -0.00290853, -0.00270186
0.0962371, 0.107877, -0.773972, -0.916519, -1.45626, -0.625694, 1.07027, -0.256703, 0.00959165, 0.00211585, -0.0112925, -0.00129679, -0.00540363, 0.000422768, 0.000594681, 0.551216, 16.0846, 18.443, 14.9442, 0.951415, 3.47507, -0.0750012, 0.000562803, -0.00105068, -0.000627105, -0.00162281, -0.00226912, 0.000527013, 0.00986323, -0.0189148, 0.0209662, 0.0420847, 0.0158523, 0.0915482, -0.0107792, -0.444217, 0.634329, -3.13024, -0.0557233, -0.110202, -0.0102998, -0.443154, 0.635003, -3.13201, -0.055282, -0.106747, 0.011493, 0.0165093, -0.0238314, 0.000868165, -0.00295351, -0.00375789
0.0972371, 0.107878, -0.773969, -0.916531, -1.45627, -0.625697, 1.07027, -0.256708, 0.00455692, 0.00236899, -0.0116181, -0.000864528, -0.0032894, -0.000264377, -0.00106161, 0.6623, 16.0489, 18.443, 14.9442, 0.932189, 3.48971, -0.0356336, 0.000549516, -0.0010324, -0.000647766, -0.00166427, -0.00233725, 0.000534286, 0.0120955, -0.0188176, 0.0216398, 0.0419493, 0.0147556, 0.0907032, -0.0107676, -0.4442, 0.634305, -3.13018, -0.0557293, -0.110292, -0.0103022, -0.443156, 0.634998, -3.132, -0.0552756, -0.106734, 0.0117529, 0.0168407, -0.0243401, -0.00114914, -0.00261156, -0.00375292
0.0982371, 0.107897, -0.773971, -0.916547, -1.45626, -0.625702, 1.07027, -0.256705, 0.00934327, 0.00083651, -0.015838, 0.00118689, -0.00249223, -0.000179017, 3.82474e-05, 0.551216, 16.0846, 18.4827, 14.8688, 0.932189, 3.48971, -0.0557752, 0.000540222, -0.0010118, -0.000668927, -0.00170814, -0.00239905, 0.000535652, 0.0123046, -0.0201655, 0.021407, 0.0406535, 0.0116764, 0.0924894, -0.0107557, -0.444183, 0.634281, -3.13012, -0.0557354, -0.110385, -0.0103004, -0.44316, 0.634994, -3.13199, -0.0552784, -0.106732, 0.0120154, 0.017174, -0.0248528, -0.00103145, -0.00363149, -0.00452488
0.0992371, 0.107897, -0.773971, -0.916547, -1.45626, -0.625702, 1.07027, -0.256705, 0.00934327, 0.00083651, -0.015838, 0.00118689, -0.00249223, -0.000179017, 3.82474e-05, 0.551216, 16.0846, 18.4827, 14.8688, 0.932189, 3.48971, -0.0557752, 0.000529319, -0.000995136, -0.00069492, -0.00176101, -0.0024615, 0.000538693, 0.0125429, -0.0204858, 0.0219464, 0.0416647, 0.0118869, 0.0944981, -0.0107435, -0.444166, 0.634256, -3.13007, -0.0557417, -0.110479, -0.0103004, -0.44316, 0.634994, -3.13199, -0.0552784, -0.106732, 0.0122806, 0.0175091, -0.0253696, -0.00103145, -0.00363149, -0.00452488
0.100237, 0.107897, -0.773971, -0.916547, -1.45626, -0.625702, 1.07027, -0.256705, 0.00934327, 0.00083651, -0.015838, 0.00118689, -0.00249223, -0.000179017, 3.82474e-05, 0.551216, 16.0846, 18.4827, 14.8688, 0.932189, 3.48971, -0.0557752, 0.00051818, -0.000978153, -0.000721455, -0.00181495, -0.00252523, 0.000541813, 0.0127835, -0.0208076, 0.0224901, 0.0426828, 0.0121001, 0.0965221, -0.0107311, -0.444148, 0.63423, -3.13001, -0.0557481, -0.110576, -0.0103004, -0.44316, 0.634994, -3.13199, -0.0552784, -0.106732, 0.0125483, 0.0178461, -0.0258904, -0.00103145, -0.00363149, -0.00452488
0.101237, 0.107921, -0.773965, -0.916587, -1.45627, -0.625727, 1.07027, -0.256705, 0.0048674, 0.00158965, -0.0155223, -0.00281547, -0.00181515, -2.60276e-05, 0.00270405, 0.626595, 16.0489, 18.443, 14.9442, 0.963317, 3.48239, -0.0621838, 0.000504082, -0.000950286, -0.000733016, -0.00184817, -0.00262501, 0.000557756, 0.0136927, -0.0206396, 0.0220846, 0.0418775, 0.015039, 0.094045, -0.0107184, -0.44413, 0.634204, -3.12995, -0.0557547, -0.110674, -0.0103017, -0.443171, 0.634978, -3.13197, -0.0552596, -0.106676, 0.0128186, 0.0181849, -0.0264151, -0.00164616, -0.00315397, -0.00551922
0.102237, 0.107931, -0.773968, -0.916596, -1.45628, -0.625735, 1.07027, -0.256711, 0.00684647, 0.000253785, -0.0162859, -0.00441585, -0.00174561, 0.000524308, 8.9917e-05, 0.626595, 16.0846, 18.3716, 14.9084, 0.975218, 3.46774, -0.00999879, 0.000491863, -0.000930151, -0.000756838, -0.00189812, -0.00269717, 0.000555042, 0.0133134, -0.0211879, 0.0218696, 0.0417282, 0.0146898, 0.100962, -0.0107055, -0.444112, 0.634177, -3.12989, -0.0557614, -0.110774, -0.0103019, -0.443173, 0.634974, -3.13197, -0.0552692, -0.106667, 0.0130915, 0.0185254, -0.0269437, -0.000961478, -0.00334706, -0.00624197
0.103237, 0.107945, -0.773957, -0.916614, -1.45629, -0.625739, 1.07027, -0.2567, 0.009378, 0.00362479, -0.0193865, -0.00724214, -0.00504393, 7.76148e-05, 0.00361578, 0.586922, 15.9378, 18.4073, 14.9442, 0.963317, 3.47507, -0.101552, 0.000484893, -0.000908412, -0.000777467, -0.00194174, -0.00278371, 0.000565355, 0.0125239, -0.0222301, 0.0206902, 0.0403347, 0.0229943, 0.0995237, -0.0106922, -0.444093, 0.63415, -3.12983, -0.0557683, -0.110876, -0.0102964, -0.443177, 0.634967, -3.13195, -0.0552591, -0.106636, 0.0133669, 0.0188676, -0.0274763, 0.000220404, -0.00400742, -0.00790554
0.104237, 0.107961, -0.773957, -0.916629, -1.45629, -0.625746, 1.07027, -0.256709, 0.0119017, 0.00243297, -0.0200515, -0.00677976, -0.00444822, 0.000865053, -0.000381852, 0.511544, 15.9378, 18.3716, 14.8688, 0.981627, 3.45309, -0.0228162, 0.000473874, -0.000885426, -0.00080132, -0.00199418, -0.00285784, 0.000559094, 0.0121324, -0.0228831, 0.0211502, 0.041357, 0.0209327, 0.107667, -0.0106787, -0.444074, 0.634122, -3.12976, -0.0557754, -0.110981, -0.0102948, -0.443181, 0.634962, -3.13195, -0.0552745, -0.106628, 0.0136449, 0.0192114, -0.0280126, 0.000878591, -0.0043085, -0.00796278
0.105237, 0.107971, -0.77396, -0.916643, -1.45629, -0.62575, 1.07027, -0.256701, 0.0118942, -3.61197e-05, -0.0172996, -0.00661785, -0.00750134, 0.000305065, 0.00251701, 0.511544, 16.0092, 18.332, 14.7934, 0.981627, 3.46042, -0.0951428, 0.000459403, -0.000864018, -0.000825661, -0.00204208, -0.00293219, 0.000573184, 0.0129441, -0.0229898, 0.022408, 0.0449699, 0.0210576, 0.107412, -0.0106649, -0.444055, 0.634094, -3.1297, -0.0557826, -0.111087, -0.0102964, -0.443184, 0.634957, -3.13194, -0.0552585, -0.106621, 0.0139255, 0.0195569, -0.0285528, 0.0002637, -0.00411297, -0.00730922
0.106237, 0.107978, -0.773957, -0.916664, -1.4563, -0.625758, 1.07027, -0.256706, 0.0141636, 0.000820389, -0.0171834, -0.00611888, -0.0055826, 0.000474367, 1.82849e-05, 0.551216, 15.9735, 18.3716, 14.8331, 0.981627, 3.45309, -0.0484509, 0.000445095, -0.000840111, -0.000846289, -0.00208855, -0.00301993, 0.00057893, 0.0116078, -0.0231804, 0.0231354, 0.0455787, 0.020292, 0.115038, -0.0106509, -0.444035, 0.634065, -3.12963, -0.05579, -0.111195, -0.0102973, -0.443189, 0.634948, -3.13192, -0.0552559, -0.106595, 0.0142086, 0.019904, -0.0290967, 0.00183294, -0.00391852, -0.00703657
0.107237, 0.10799, -0.773959, -0.916683, -1.4563, -0.625764, 1.07027, -0.256703, 0.0115506, 0.000553864, -0.0160111, -0.00206502, -0.00415801, 4.47699e-05, 0.0012851, 0.511544, 15.9735, 18.3716, 14.722, 0.981627, 3.46042, -0.0814099, 0.000429859, -0.000816837, -0.000870201, -0.00213594, -0.00309899, 0.000590385, 0.0133271, -0.0232303, 0.0253119, 0.048828, 0.0166806, 0.11279, -0.0106365, -0.444015, 0.634036, -3.12957, -0.0557975, -0.111306, -0.010299, -0.443193, 0.634941, -3.13191, -0.0552444, -0.106584, 0.0144943, 0.0202526, -0.0296444, 0.000250885, -0.00370543, -0.00553856
0.108237, 0.108004, -0.773962, -0.916699, -1.45631, -0.625774, 1.07027, -0.256705, 0.0125557, -0.000460772, -0.0166007, -0.0049853, -0.00775386, 0.000538317, -0.00103689, 0.475838, 16.0092, 18.2963, 14.722, 0.993529, 3.44668, -0.0292249, 0.000417517, -0.00079319, -0.000892675, -0.00218557, -0.00318557, 0.000588222, 0.0136882, -0.0240481, 0.0248074, 0.0497569, 0.0203184, 0.117578, -0.0106219, -0.443995, 0.634006, -3.1295, -0.0558053, -0.111418, -0.0102975, -0.443197, 0.634932, -3.1319, -0.0552543, -0.106564, 0.0147825, 0.0206027, -0.0301957, 0.000242784, -0.00418151, -0.00662823
0.109237, 0.108022, -0.773962, -0.916714, -1.45632, -0.625778, 1.07027, -0.256698, 0.0142122, -0.000303279, -0.0180599, -0.00529389, -0.00508763, 0.000901296, 0.00127088, 0.400459, 16.0092, 18.2606, 14.6466, 0.975218, 3.43204, -0.0814099, 0.00040785, -0.000769587, -0.000917334, -0.00223729, -0.00326888, 0.000591138, 0.0130152, -0.0244483, 0.0248636, 0.0487501, 0.0187888, 0.119402, -0.010607, -0.443974, 0.633975, -3.12943, -0.0558132, -0.111532, -0.0102932, -0.4432, 0.634926, -3.13189, -0.0552564, -0.106552, 0.0150731, 0.0209542, -0.0307507, 0.00121317, -0.00420839, -0.00708523
0.110237, 0.108027, -0.77396, -0.916733, -1.45632, -0.625784, 1.07027, -0.256699, 0.00866817, 0.000635959, -0.01689, -0.00869832, -0.00431389, -0.00366351, 0.000394563, 0.475838, 15.9735, 18.2606, 14.5712, 0.988036, 3.41739, -0.0685925, 0.000391201, -0.000744907, -0.000942688, -0.00229136, -0.00335692, 0.000603584, 0.0146913, -0.0232642, 0.0245442, 0.0448522, 0.0238083, 0.11991, -0.0105917, -0.443953, 0.633944, -3.12936, -0.0558213, -0.111649, -0.0102956, -0.443205, 0.634919, -3.13188, -0.0552437, -0.106534, 0.0153663, 0.0213072, -0.0313093, -0.000185863, -0.00272946, -0.00807477
0.111237, 0.108041, -0.773957, -0.916752, -1.45634, -0.625789, 1.07027, -0.256701, 0.0127882, 0.00126139, -0.0159226, -0.0098993, -0.00297413, -0.00257171, -0.000195157, 0.475838, 15.9378, 18.2606, 14.5712, 0.981627, 3.41006, -0.0557752, 0.00038037, -0.000720554, -0.000965461, -0.00233904, -0.0034509, 0.000601533, 0.0120084, -0.0234786, 0.0250275, 0.0459995, 0.0238815, 0.128786, -0.0105762, -0.443931, 0.633913, -3.12929, -0.0558295, -0.111768, -0.0102917, -0.443208, 0.634909, -3.13186, -0.0552541, -0.106509, 0.015662, 0.0216616, -0.0318714, 0.00275598, -0.00250172, -0.0079677
0.112237, 0.10805, -0.773957, -0.916768, -1.45634, -0.625796, 1.07027, -0.256702, 0.00875264, 0.00084257, -0.017369, -0.00729935, -0.00314996, -0.00201495, -0.0097496, 0.511544, 15.9378, 18.2209, 14.4205, 1.00635, 3.41006, -0.0484509, 0.000363474, -0.000696131, -0.000992843, -0.00239425, -0.00354068, 0.000611082, 0.0151644, -0.0242819, 0.0261656, 0.048406, 0.0219142, 0.133992, -0.0105604, -0.443909, 0.63388, -3.12921, -0.055838, -0.111888, -0.0102939, -0.443212, 0.634903, -3.13185, -0.0552463, -0.106492, 0.0159602, 0.0220173, -0.0324371, -0.000145625, -0.00307453, -0.00763381
0.113237, 0.108064, -0.77396, -0.916785, -1.45635, -0.625802, 1.07027, -0.256699, 0.00977293, -0.00027227, -0.0154984, -0.00813611, -0.00272953, -0.0013313, -0.0065245, 0.511544, 15.9735, 18.1852, 14.3848, 1.01825, 3.40365, -0.0685925, 0.000350525, -0.000670628, -0.00101862, -0.00245013, -0.00363029, 0.000613585, 0.0143915, -0.0243336, 0.0270229, 0.0505017, 0.0208532, 0.136052, -0.0105443, -0.443887, 0.633848, -3.12914, -0.0558466, -0.112011, -0.0102917, -0.443216, 0.634895, -3.13184, -0.0552496, -0.106479, 0.0162609, 0.0223744, -0.0330063, 0.000864415, -0.00275345, -0.00729605
0.114237, 0.108075, -0.77396, -0.916809, -1.45636, -0.62581, 1.07027, -0.256697, 0.0105157, -0.000180587, -0.0166327, -0.00888793, -0.00196126, -0.000785282, -0.00421566, 0.511544, 15.9735, 18.2606, 14.3491, 1.01825, 3.39633, -0.0878186, 0.000334092, -0.000643574, -0.00104222, -0.00250104, -0.00372762, 0.000624996, 0.0143089, -0.0248768, 0.0270987, 0.0505439, 0.0208839, 0.136594, -0.0105279, -0.443865, 0.633814, -3.12906, -0.0558554, -0.112136, -0.0102924, -0.443221, 0.634884, -3.13182, -0.0552395, -0.106455, 0.016564, 0.0227327, -0.033579, 0.00126216, -0.00293786, -0.0077949
0.115237, 0.108088, -0.773957, -0.91683, -1.45638, -0.625814, 1.07027, -0.256704, 0.00791672, 0.000715521, -0.0187278, -0.0100295, -0.0018884, -0.000379017, -0.00565149, 0.511544, 15.9378, 18.2606, 14.3491, 1.03107, 3.38901, -0.0228162, 0.000320528, -0.000617405, -0.00106704, -0.00255256, -0.00382663, 0.000621381, 0.0158391, -0.0255323, 0.02691, 0.0502259, 0.0225941, 0.13669, -0.0105112, -0.443842, 0.633781, -3.12899, -0.0558644, -0.112263, -0.0102902, -0.443226, 0.634873, -3.1318, -0.0552529, -0.10643, 0.0168696, 0.0230922, -0.034155, 7.77208e-05, -0.00328731, -0.00867795
0.116237, 0.1081, -0.773957, -0.916848, -1.45639, -0.625817, 1.07027, -0.256698, 0.0091011, 0.000477535, -0.0171833, -0.0131521, -0.000863844, -7.64833e-05, -0.00192269, 0.511544, 15.9378, 18.2606, 14.3094, 1.01825, 3.38168, -0.0814099, 0.000306939, -0.000592244, -0.00109337, -0.00260436, -0.0039244, 0.000628367, 0.0142877, -0.0253569, 0.0269792, 0.0503061, 0.0236566, 0.139657, -0.0104942, -0.443818, 0.633746, -3.12891, -0.0558736, -0.112393, -0.0102878, -0.443228, 0.634864, -3.13178, -0.05525, -0.10641, 0.0171776, 0.0234529, -0.0347344, 0.00191902, -0.00269941, -0.00907861
0.117237, 0.10811, -0.773959, -0.916871, -1.45641, -0.625824, 1.07028, -0.256704, 0.00906081, 0.000318747, -0.0159872, -0.0125386, -0.00554257, 0.00120014, -0.00345844, 0.551216, 15.9378, 18.2606, 14.2737, 1.03656, 3.34598, -0.0292249, 0.000289985, -0.000564531, -0.00111843, -0.00265863, -0.00402394, 0.00063013, 0.0151538, -0.0262739, 0.0282291, 0.0557062, 0.0262048, 0.141766, -0.0104768, -0.443795, 0.633711, -3.12883, -0.0558829, -0.112524, -0.0102882, -0.443233, 0.634853, -3.13176, -0.0552554, -0.106389, 0.017488, 0.0238148, -0.0353172, 0.0013077, -0.00330085, -0.00848863
0.118237, 0.108123, -0.773958, -0.916892, -1.45642, -0.62583, 1.07028, -0.256699, 0.0132691, 0.00104801, -0.015928, -0.0158431, -0.00456695, 0.000746612, -0.000793113, 0.551216, 15.9021, 18.2963, 14.2737, 1.04938, 3.34598, -0.0750012, 0.000275864, -0.000537622, -0.00114411, -0.00271192, -0.00413082, 0.000637639, 0.0125088, -0.0263042, 0.0277017, 0.0539621, 0.0288662, 0.14777, -0.0104592, -0.443771, 0.633676, -3.12875, -0.0558925, -0.112658, -0.0102856, -0.443237, 0.634841, -3.13174, -0.0552521, -0.106359, 0.0178009, 0.0241778, -0.0359033, 0.00429392, -0.00287085, -0.00941379
0.119237, 0.108133, -0.773955, -0.916911, -1.45644, -0.62583, 1.07027, -0.256701, 0.0123213, 0.00162691, -0.0172705, -0.0172664, -0.00286781, 0.000457633, -0.0025987, 0.586922, 15.8624, 18.2606, 14.234, 1.03656, 3.34598, -0.0228162, 0.00026233, -0.000511486, -0.0011715, -0.00276621, -0.00423447, 0.000635929, 0.0128699, -0.0265383, 0.0275278, 0.0525323, 0.0295532, 0.151431, -0.0104412, -0.443746, 0.633639, -3.12867, -0.0559023, -0.112794, -0.0102823, -0.44324, 0.634831, -3.13172, -0.0552633, -0.106336, 0.0181163, 0.0245419, -0.0364926, 0.00426821, -0.00275367, -0.010208
0.120237, 0.108146, -0.773956, -0.91693, -1.45646, -0.625832, 1.07028, -0.256698, 0.0155893, 0.000156753, -0.0183146, -0.0193552, -0.00261001, 0.000546274, -0.00013993, 0.586922, 15.9021, 18.2209, 14.234, 1.04938, 3.33865, -0.0685925, 0.000249292, -0.000484711, -0.00119752, -0.00281934, -0.00434083, 0.000635902, 0.0120043, -0.0270641, 0.0270658, 0.0514574, 0.0295476, 0.154926, -0.0104229, -0.443722, 0.633603, -3.12858, -0.0559122, -0.112932, -0.010278, -0.443243, 0.634819, -3.1317, -0.0552722, -0.106311, 0.018434, 0.0249071, -0.0370852, 0.00549883, -0.00288019, -0.0112071
0.121237, 0.108154, -0.773955, -0.916957, -1.45648, -0.625836, 1.07028, -0.256698, 0.0100006, 0.000104626, -0.0218778, -0.0200243, -0.00214493, 0.000884156, 0.000304268, 0.6623, 15.9021, 18.2963, 14.1983, 1.05578, 3.324, -0.0814099, 0.000230283, -0.000455518, -0.00122323, -0.0028725, -0.00444917, 0.000648314, 0.0156581, -0.027925, 0.0266829, 0.0503993, 0.0297974, 0.149062, -0.0104044, -0.443697, 0.633565, -3.1285, -0.0559224, -0.113072, -0.0102793, -0.443248, 0.634806, -3.13168, -0.0552619, -0.106285, 0.0187541, 0.0252732, -0.0376809, 0.00223362, -0.003501, -0.0124604
0.122237, 0.108169, -0.773957, -0.916979, -1.4565, -0.625836, 1.07028, -0.256697, 0.0126407, 6.98432e-05, -0.0194374, -0.0214803, -0.0022338, 0.000572517, -0.000567104, 0.586922, 15.9021, 18.2963, 14.1983, 1.0741, 3.324, -0.0621838, 0.000217125, -0.000427735, -0.00124925, -0.00292386, -0.00455676, 0.00064442, 0.0137541, -0.027732, 0.0274436, 0.0518853, 0.031124, 0.157448, -0.0103854, -0.443671, 0.633527, -3.12841, -0.0559327, -0.113214, -0.0102745, -0.443251, 0.634793, -3.13165, -0.0552772, -0.106263, 0.0190766, 0.0256403, -0.0382798, 0.0043901, -0.00288514, -0.0121648
0.123237, 0.108176, -0.773953, -0.916997, -1.45651, -0.625841, 1.07028, -0.256693, 0.0108303, 0.000974652, -0.0158767, -0.0206901, -0.00134609, 0.000368987, 0.000527963, 0.6623, 15.8624, 18.2209, 14.1229, 1.06769, 3.324, -0.0878186, 0.000201247, -0.000400145, -0.00127934, -0.00298579, -0.00467237, 0.000653617, 0.0134307, -0.0272296, 0.029395, 0.0554013, 0.0310427, 0.15961, -0.0103662, -0.443645, 0.633489, -3.12833, -0.0559433, -0.113359, -0.0102724, -0.443254, 0.634783, -3.13163, -0.0552721, -0.106231, 0.0194015, 0.0260084, -0.0388819, 0.00487624, -0.00202935, -0.0107962
0.124237, 0.108187, -0.773954, -0.917024, -1.45654, -0.625844, 1.07028, -0.2567, 0.0114068, 0.00064982, -0.0199973, -0.0198192, -0.0014089, 0.0007451, -0.00208808, 0.6623, 15.8624, 18.2963, 14.1626, 1.07959, 3.31027, -0.0228162, 0.000184555, -0.000370607, -0.00130306, -0.00303491, -0.00479016, 0.000649424, 0.0150498, -0.0285304, 0.0291347, 0.0546673, 0.0304836, 0.161525, -0.0103466, -0.443619, 0.633449, -3.12824, -0.0559541, -0.113506, -0.0102702, -0.443258, 0.634766, -3.1316, -0.0552885, -0.106197, 0.0197288, 0.0263773, -0.039487, 0.00365312, -0.00301683, -0.0117946
0.125237, 0.108194, -0.77396, -0.917047, -1.45656, -0.625844, 1.07028, -0.256694, 0.0108389, -0.00132999, -0.0211318, -0.0184728, -0.000551474, 0.00103213, 0.000516314, 0.701973, 15.9378, 18.2963, 14.0475, 1.06769, 3.29562, -0.0750012, 0.000165033, -0.000342181, -0.00133146, -0.0030895, -0.00489743, 0.000660344, 0.0166436, -0.0291657, 0.029836, 0.055617, 0.0271629, 0.159571, -0.0103267, -0.443593, 0.63341, -3.12815, -0.055965, -0.113655, -0.0102709, -0.443261, 0.634753, -3.13158, -0.0552813, -0.106182, 0.0200585, 0.0267472, -0.0400951, 0.00236405, -0.00334927, -0.0118294
0.126237, 0.108206, -0.77396, -0.917069, -1.45659, -0.62584, 1.07028, -0.2567, 0.0154818, -0.000886628, -0.0181392, -0.0244472, -0.000170054, 0.000682732, -0.00160688, 0.6623, 15.9378, 18.2606, 14.0872, 1.06128, 3.29562, -0.0228162, 0.000151979, -0.000314287, -0.00135787, -0.00313948, -0.00501534, 0.000647918, 0.0125183, -0.0285729, 0.0293318, 0.054598, 0.0315828, 0.174208, -0.0103065, -0.443566, 0.633369, -3.12806, -0.0559762, -0.113807, -0.0102648, -0.443263, 0.634738, -3.13154, -0.0553109, -0.106152, 0.0203905, 0.0271178, -0.0407063, 0.00682052, -0.00223695, -0.0126415
0.127237, 0.10821, -0.77396, -0.917094, -1.45662, -0.625841, 1.07028, -0.256694, 0.0120816, -0.00370281, -0.0207531, -0.0229665, -0.000821361, -0.00319653, 0.00557599, 0.777352, 15.9378, 18.2963, 14.0118, 1.07959, 3.26724, -0.0750012, 0.000132681, -0.000284211, -0.0013852, -0.00319566, -0.00513523, 0.000662019, 0.0168655, -0.028866, 0.0293587, 0.0518994, 0.0306242, 0.16294, -0.010286, -0.443538, 0.633328, -3.12796, -0.0559876, -0.113961, -0.0102645, -0.443267, 0.634722, -3.13152, -0.0552993, -0.106122, 0.0207248, 0.0274892, -0.0413204, 0.00282815, -0.00231492, -0.0135526
0.128237, 0.108223, -0.773962, -0.917117, -1.45665, -0.625838, 1.07028, -0.2567, 0.0141761, -0.00272784, -0.0217552, -0.0300331, 0.000311678, -0.00225433, 0.00216826, 0.701973, 15.9378, 18.2963, 14.0118, 1.05578, 3.25992, -0.0228162, 0.000118979, -0.00025578, -0.00141162, -0.00324497, -0.00525742, 0.000648172, 0.0144872, -0.0290545, 0.0276104, 0.0486969, 0.0352335, 0.174215, -0.0102651, -0.443511, 0.633287, -3.12787, -0.0559992, -0.114117, -0.0102583, -0.443268, 0.634706, -3.13148, -0.0553316, -0.10609, 0.0210615, 0.0278614, -0.0419374, 0.00566664, -0.00202801, -0.0157458
0.129237, 0.10823, -0.773958, -0.917134, -1.45669, -0.625836, 1.07028, -0.2567, 0.0129655, -0.000249791, -0.0199766, -0.0297262, 0.000665728, -0.00152756, 0.0017333, 0.737679, 15.8624, 18.1852, 14.0475, 1.04297, 3.25259, -0.0228162, 0.000106342, -0.000228054, -0.00144024, -0.00330142, -0.0053891, 0.000642066, 0.0139131, -0.0290827, 0.0290492, 0.051928, 0.0370773, 0.177201, -0.0102438, -0.443483, 0.633244, -3.12777, -0.056011, -0.114275, -0.0102509, -0.443269, 0.634691, -3.13145, -0.0553519, -0.106046, 0.0214005, 0.0282343, -0.0425574, 0.00647194, -0.00168353, -0.0148935
0.130237, 0.108243, -0.773963, -0.917161, -1.45672, -0.625838, 1.07028, -0.256695, 0.0146905, -0.0012404, -0.0223086, -0.0292218, -4.34809e-05, -0.000969055, 0.00282943, 0.6623, 15.9021, 18.2209, 13.9365, 1.05578, 3.24527, -0.0621838, 8.82347e-05, -0.000196771, -0.00146714, -0.00335502, -0.00551241, 0.000646204, 0.0146946, -0.0301686, 0.029159, 0.0524925, 0.0364309, 0.177859, -0.0102223, -0.443454, 0.633201, -3.12768, -0.0560231, -0.114436, -0.0102483, -0.443273, 0.634673, -3.13142, -0.0553565, -0.106018, 0.0217418, 0.0286079, -0.0431802, 0.0060631, -0.00242678, -0.0154792
0.131237, 0.108246, -0.773966, -0.917181, -1.45675, -0.62584, 1.07028, -0.256692, 0.00915807, -0.00177154, -0.021378, -0.0348367, 0.000198935, -0.000303874, 0.00204817, 0.737679, 15.9378, 18.1455, 13.9365, 1.04938, 3.23153, -0.0621838, 6.99024e-05, -0.000166943, -0.00149559, -0.00341375, -0.00564272, 0.000650191, 0.0160279, -0.029956, 0.0285781, 0.0519512, 0.0392589, 0.179239, -0.0102004, -0.443425, 0.633158, -3.12758, -0.0560353, -0.114599, -0.0102458, -0.443275, 0.634656, -3.13139, -0.0553615, -0.105981, 0.0220854, 0.0289822, -0.0438058, 0.00510997, -0.00188267, -0.0167843
0.132237, 0.108251, -0.773966, -0.917205, -1.45679, -0.625838, 1.07028, -0.256692, 0.00695113, -0.00354944, -0.0224666, -0.035622, 0.000125547, -0.00032743, 0.00097823, 0.737679, 15.9021, 18.1455, 13.9365, 1.04938, 3.23153, -0.0484509, 5.38793e-05, -0.000137311, -0.00152195, -0.0034652, -0.00577916, 0.000646457, 0.0180589, -0.0304579, 0.0286974, 0.0520338, 0.0384016, 0.180075, -0.0101781, -0.443396, 0.633114, -3.12748, -0.0560478, -0.114764, -0.0102406, -0.443277, 0.634637, -3.13135, -0.0553791, -0.105936, 0.0224314, 0.029357, -0.0444342, 0.00343869, -0.00208546, -0.0174529
0.133237, 0.10826, -0.773967, -0.91723, -1.45683, -0.625837, 1.07028, -0.256699, 0.00610361, -0.00268796, -0.0273857, -0.0373266, 7.83898e-05, 0.000230612, -0.000443584, 0.701973, 15.9021, 18.1852, 13.8611, 1.04938, 3.21689, -0.0164075, 3.72767e-05, -0.000106142, -0.00154945, -0.00352024, -0.00591437, 0.00063756, 0.0196691, -0.031729, 0.0275585, 0.049721, 0.0406485, 0.180182, -0.0101555, -0.443367, 0.633069, -3.12738, -0.0560605, -0.114932, -0.0102355, -0.443279, 0.634618, -3.13131, -0.0554048, -0.105896, 0.0227796, 0.0297325, -0.0450654, 0.00230888, -0.00302529, -0.0193564
0.134237, 0.108261, -0.773969, -0.91725, -1.45688, -0.625835, 1.07028, -0.256693, 0.00370959, -0.00203322, -0.0250669, -0.0415959, 0.000726447, 0.00113468, 0.00218007, 0.737679, 15.9021, 18.1098, 13.9008, 1.03107, 3.18851, -0.0814099, 2.15471e-05, -7.65298e-05, -0.00157634, -0.00357549, -0.00605429, 0.000637301, 0.0189872, -0.0313825, 0.0277523, 0.0507408, 0.0433215, 0.18188, -0.0101325, -0.443337, 0.633024, -3.12728, -0.0560735, -0.115102, -0.0102293, -0.44328, 0.634598, -3.13128, -0.0554173, -0.105851, 0.0231301, 0.0301084, -0.0456993, 0.00330982, -0.00228423, -0.0197485
0.135237, 0.108267, -0.77397, -0.91727, -1.45693, -0.625837, 1.07028, -0.256696, 0.00366508, -0.00153642, -0.0266855, -0.0420599, -0.000196856, 0.000432513, -0.000428181, 0.701973, 15.9021, 18.0344, 13.8254, 1.04938, 3.19583, -0.0292249, 5.11156e-06, -4.68726e-05, -0.00160455, -0.00362987, -0.006201, 0.000628701, 0.0198541, -0.0319884, 0.0277828, 0.0504724, 0.0455619, 0.185454, -0.0101092, -0.443306, 0.632978, -3.12717, -0.0560866, -0.115274, -0.0102236, -0.44328, 0.634579, -3.13124, -0.0554431, -0.105798, 0.0234829, 0.0304849, -0.0463358, 0.00281591, -0.00254701, -0.0204303
0.136237, 0.108271, -0.773973, -0.917293, -1.45698, -0.625835, 1.07028, -0.25669, 0.00271098, -0.0019952, -0.0265464, -0.0435253, 0.000544692, 0.00106264, 0.00121102, 0.701973, 15.9378, 18.0344, 13.7857, 1.03107, 3.17386, -0.0685925, -1.19667e-05, -1.60753e-05, -0.00163121, -0.00368306, -0.00634543, 0.000628852, 0.0201727, -0.03224, 0.0281158, 0.0511997, 0.0454798, 0.186543, -0.0100856, -0.443276, 0.632931, -3.12707, -0.0561, -0.115449, -0.010218, -0.443282, 0.634557, -3.1312, -0.0554556, -0.10575, 0.0238379, 0.0308619, -0.046975, 0.00283555, -0.00243998, -0.0207694
0.137237, 0.108266, -0.773977, -0.917315, -1.45703, -0.625831, 1.07028, -0.256696, 0.000244784, -0.00143191, -0.0223854, -0.0446507, 0.000598807, 0.000950068, -0.00133398, 0.777352, 15.9378, 17.9987, 13.75, 1.02466, 3.16653, -0.00999879, -3.23076e-05, 1.42626e-05, -0.00165857, -0.00373626, -0.00648965, 0.000622821, 0.019834, -0.0316108, 0.0297113, 0.0545451, 0.0469091, 0.192876, -0.0100616, -0.443245, 0.632884, -3.12696, -0.0561137, -0.115626, -0.0102153, -0.443282, 0.634535, -3.13116, -0.0554779, -0.105706, 0.0241952, 0.0312393, -0.0476168, 0.00338752, -0.00144596, -0.0197941
0.138237, 0.108275, -0.773978, -0.917336, -1.45708, -0.625834, 1.07028, -0.256688, 0.00300497, -0.00336244, -0.0223916, -0.0485012, -4.2864e-05, 0.00139105, 0.00177715, 0.6623, 15.9021, 17.959, 13.7143, 1.03656, 3.14548, -0.0814099, -4.68728e-05, 4.52738e-05, -0.00168598, -0.003792, -0.00664658, 0.000619409, 0.0188113, -0.0319998, 0.0290911, 0.0539363, 0.0481, 0.196665, -0.0100372, -0.443213, 0.632836, -3.12686, -0.0561275, -0.115806, -0.0102065, -0.443283, 0.634513, -3.13111, -0.0554964, -0.105644, 0.0245547, 0.0316171, -0.0482612, 0.00482338, -0.0014155, -0.0209911
0.139237, 0.108275, -0.773982, -0.917364, -1.45714, -0.62583, 1.07028, -0.256695, 0.00211621, -0.00256277, -0.0250999, -0.0545827, 0.000648648, 0.00118197, -0.000969169, 0.6623, 15.9021, 18.0344, 13.6746, 1.01825, 3.13815, -0.0228162, -6.67685e-05, 7.71005e-05, -0.00171202, -0.00384126, -0.00679722, 0.000611501, 0.0187929, -0.032352, 0.0271837, 0.0496224, 0.0528896, 0.202386, -0.0100124, -0.443182, 0.632787, -3.12675, -0.0561417, -0.115988, -0.0102026, -0.443284, 0.634489, -3.13107, -0.0555224, -0.105594, 0.0249165, 0.0319953, -0.0489081, 0.00535437, -0.001366, -0.0235482
0.140237, 0.108275, -0.773992, -0.917381, -1.45719, -0.625829, 1.07028, -0.25669, 0.00233069, -0.0036198, -0.023316, -0.0528999, 0.000431723, 0.00131802, 0.000824104, 0.626595, 15.9735, 17.959, 13.6389, 1.01825, 3.1235, -0.0621838, -8.52197e-05, 0.000108469, -0.00174112, -0.00390246, -0.00694402, 0.000606489, 0.0191428, -0.0325397, 0.0288552, 0.0530585, 0.0510809, 0.203712, -0.00998734, -0.443149, 0.632738, -3.12664, -0.056156, -0.116172, -0.0101971, -0.443284, 0.634467, -3.13103, -0.0555436, -0.105553, 0.0252805, 0.0323738, -0.0495576, 0.00525031, -0.00121308, -0.0225647
0.141237, 0.108272, -0.773998, -0.917401, -1.45725, -0.625829, 1.07028, -0.256697, 0.0016173, -0.00259385, -0.0239083, -0.0578654, 0.000287284, 0.00114057, -0.00164553, 0.626595, 15.9735, 17.959, 13.5992, 1.01825, 3.11618, -0.00267457, -0.000105242, 0.00013943, -0.00176895, -0.00395712, -0.0071021, 0.000595094, 0.0186889, -0.0326491, 0.0278984, 0.051143, 0.0558984, 0.20999, -0.00996188, -0.443117, 0.632688, -3.12652, -0.0561706, -0.116359, -0.0101927, -0.443284, 0.634443, -3.13098, -0.0555754, -0.105496, 0.0256467, 0.0327526, -0.0502094, 0.00614093, -0.000917513, -0.0241441
0.142237, 0.108272, -0.774002, -0.917418, -1.45732, -0.62583, 1.07029, -0.256688, 0.00112583, -0.00414985, -0.0265916, -0.0608385, -4.62347e-05, 0.000990709, 0.00642895, 0.626595, 15.9378, 17.9233, 13.5278, 1.02466, 3.10977, -0.0814099, -0.000122112, 0.000170863, -0.0017979, -0.00401789, -0.00726417, 0.000593763, 0.0200451, -0.0333772, 0.0268702, 0.048941, 0.0570456, 0.203261, -0.00993605, -0.443084, 0.632638, -3.12641, -0.0561854, -0.116548, -0.0101849, -0.443284, 0.634419, -3.13094, -0.0555916, -0.105436, 0.0260151, 0.0331317, -0.0508638, 0.0052579, -0.0013029, -0.025939
0.143237, 0.108269, -0.774011, -0.917435, -1.45738, -0.625828, 1.07028, -0.256697, -4.89473e-05, -0.00713764, -0.0222857, -0.0616245, 0.00381123, 0.000926467, 0.00175855, 0.6623, 15.9735, 17.8876, 13.5278, 1.03656, 3.10245, -0.00267457, -0.000140228, 0.000201113, -0.00182502, -0.00407088, -0.00742761, 0.000572144, 0.0195003, -0.0324276, 0.0284562, 0.0505824, 0.0518397, 0.214838, -0.00990985, -0.44305, 0.632586, -3.1263, -0.0562005, -0.11674, -0.0101779, -0.443282, 0.634393, -3.13089, -0.0556399, -0.105376, 0.0263857, 0.0335111, -0.0515205, 0.00601637, 1.95406e-05, -0.0249692
0.144237, 0.108264, -0.774017, -0.917455, -1.45745, -0.625831, 1.07028, -0.25669, -0.000933861, -0.00765714, -0.0240494, -0.0621374, 0.00242281, 0.00061369, 0.00366795, 0.701973, 15.9378, 17.9233, 13.5278, 1.04938, 3.10245, -0.0621838, -0.000160539, 0.00023286, -0.00185212, -0.00412652, -0.00759977, 0.000572673, 0.0211519, -0.0331838, 0.0284841, 0.0507669, 0.0532703, 0.212833, -0.00988328, -0.443017, 0.632535, -3.12618, -0.0562158, -0.116934, -0.0101727, -0.443281, 0.634367, -3.13084, -0.055654, -0.105305, 0.0267585, 0.0338906, -0.0521796, 0.00476583, -0.000418662, -0.0257389
0.145237, 0.108261, -0.774024, -0.917466, -1.45752, -0.62583, 1.07028, -0.25669, -0.000602482, -0.00804105, -0.0194141, -0.0606951, 0.0025609, 0.00121996, 0.00266395, 0.701973, 15.9021, 17.848, 13.4525, 1.03107, 3.08047, -0.0621838, -0.000176906, 0.000262808, -0.00188246, -0.00418684, -0.00776839, 0.000556113, 0.0201628, -0.0328335, 0.0309592, 0.056201, 0.0516825, 0.219585, -0.00985633, -0.442983, 0.632482, -3.12606, -0.0562314, -0.11713, -0.0101634, -0.443278, 0.634343, -3.1308, -0.0556947, -0.105242, 0.0271335, 0.0342704, -0.052841, 0.00592636, 0.000307792, -0.0238608
0.146237, 0.108255, -0.774036, -0.917492, -1.4576, -0.62583, 1.07029, -0.256689, -0.00214982, -0.010106, -0.0213775, -0.065922, 0.00190791, 0.00131971, 0.00143133, 0.777352, 15.9378, 17.9987, 13.3771, 1.03107, 3.06674, -0.0484509, -0.000200409, 0.000296844, -0.0019077, -0.00423971, -0.00793662, 0.000554517, 0.0214872, -0.0333492, 0.0294936, 0.0535728, 0.053898, 0.222693, -0.00982901, -0.442948, 0.632429, -3.12594, -0.0562473, -0.117329, -0.0101604, -0.443279, 0.634313, -3.13075, -0.0557128, -0.105182, 0.0275107, 0.0346502, -0.0535047, 0.00510881, 0.000142708, -0.0260979
0.147237, 0.108252, -0.774047, -0.917501, -1.45768, -0.625828, 1.07028, -0.256694, -0.00540071, -0.0138693, -0.0203931, -0.0700033, 0.00121898, 0.00142067, 0.000127774, 0.813057, 15.9378, 17.9233, 13.3017, 1.03656, 3.05209, -0.0228162, -0.000215897, 0.000326431, -0.00193696, -0.00429788, -0.00810889, 0.00052586, 0.023371, -0.0333578, 0.0292092, 0.0535034, 0.053558, 0.225836, -0.00980131, -0.442913, 0.632375, -3.12582, -0.0562634, -0.117531, -0.0101495, -0.443275, 0.634286, -3.1307, -0.055773, -0.105118, 0.02789, 0.0350302, -0.0541706, 0.0036294, 0.000447993, -0.0271963
0.148237, 0.108247, -0.774057, -0.917514, -1.45776, -0.625826, 1.07028, -0.256687, -0.00385396, -0.0127282, -0.0184956, -0.0762953, 0.00112897, 0.00121713, 0.00163549, 0.813057, 15.9021, 17.9233, 13.2263, 1.03107, 3.04477, -0.0621838, -0.000233037, 0.000356632, -0.00196452, -0.00435119, -0.00828876, 0.000512853, 0.0208138, -0.0329469, 0.0284908, 0.0522838, 0.0592557, 0.23305, -0.00977323, -0.442878, 0.63232, -3.1257, -0.0562797, -0.117734, -0.0101397, -0.443271, 0.634257, -3.13064, -0.0558094, -0.105045, 0.0282715, 0.0354102, -0.0548388, 0.00659497, 0.00133626, -0.0283901
0.149237, 0.108241, -0.774072, -0.91753, -1.45785, -0.625828, 1.07029, -0.256687, -0.00683465, -0.0127025, -0.0156527, -0.0787148, 0.00412965, 0.00135302, 0.000922149, 0.85273, 15.9021, 17.9987, 13.1906, 1.05578, 3.03012, -0.0557752, -0.000253055, 0.000389225, -0.00199125, -0.00440903, -0.00846792, 0.000497306, 0.0204443, -0.0322009, 0.0293624, 0.0529972, 0.0587273, 0.238212, -0.00974476, -0.442843, 0.632265, -3.12558, -0.0562963, -0.117941, -0.0101323, -0.44327, 0.634227, -3.13059, -0.0558499, -0.104976, 0.0286551, 0.0357903, -0.0555092, 0.00725124, 0.0024587, -0.0281615
0.150237, 0.10823, -0.774085, -0.917542, -1.45793, -0.625824, 1.07029, -0.256689, -0.00755974, -0.0127626, -0.0147015, -0.0794329, 0.00364196, 0.00140993, -7.93328e-05, 0.963814, 15.9021, 17.9987, 13.1152, 1.04297, 3.01639, -0.0356336, -0.000273072, 0.000420331, -0.00202061, -0.00446817, -0.00864354, 0.000479375, 0.0207605, -0.0323724, 0.030149, 0.0547598, 0.0597903, 0.241934, -0.00971592, -0.442807, 0.632209, -3.12545, -0.0563132, -0.11815, -0.0101247, -0.443266, 0.634198, -3.13054, -0.0558943, -0.104914, 0.0290408, 0.0361704, -0.0561817, 0.00726575, 0.00264102, -0.0280827
0.151237, 0.108225, -0.774103, -0.917555, -1.45802, -0.625828, 1.07029, -0.256689, -0.00534347, -0.0167871, -0.0148867, -0.0797974, 0.00206041, 0.00148196, -0.000251332, 0.963814, 15.9378, 18.0344, 13.0399, 1.06128, 3.00174, -0.0292249, -0.000294081, 0.000452432, -0.00204912, -0.00452699, -0.00882665, 0.000460928, 0.0216382, -0.0330799, 0.0304954, 0.0559965, 0.0575687, 0.246214, -0.00968668, -0.44277, 0.632153, -3.12533, -0.0563304, -0.118361, -0.0101176, -0.443263, 0.634168, -3.13048, -0.0559398, -0.104844, 0.0294287, 0.0365505, -0.0568564, 0.00677551, 0.00227412, -0.0284941
0.152237, 0.108221, -0.774118, -0.917568, -1.45811, -0.625827, 1.07028, -0.256687, -0.00611697, -0.0179629, -0.0150715, -0.0830621, 0.00113184, 0.000716312, 0.000573708, 0.928108, 15.9021, 18.0741, 13.0795, 1.0741, 3.00906, -0.0484509, -0.00031061, 0.000483483, -0.00207506, -0.00457854, -0.00901721, 0.000435374, 0.0223374, -0.033242, 0.0300777, 0.055022, 0.059982, 0.248298, -0.00965706, -0.442734, 0.632096, -3.1252, -0.0563478, -0.118575, -0.0101056, -0.443259, 0.634135, -3.13042, -0.0559971, -0.104764, 0.0298187, 0.0369305, -0.0575331, 0.00650277, 0.00246988, -0.0296496
0.153237, 0.108214, -0.77414, -0.91758, -1.45822, -0.625826, 1.07029, -0.256684, -0.00848483, -0.0206919, -0.0119751, -0.0892574, 0.00092928, 0.00129105, 0.000404362, 0.963814, 15.9378, 18.1098, 13.1509, 1.0741, 2.98709, -0.0484509, -0.000329055, 0.000515261, -0.00210045, -0.00463198, -0.00920516, 0.000411157, 0.022265, -0.0327386, 0.0298008, 0.0553523, 0.061381, 0.254155, -0.00962704, -0.442696, 0.632038, -3.12507, -0.0563654, -0.118791, -0.010095, -0.443255, 0.634101, -3.13036, -0.0560525, -0.104691, 0.0302108, 0.0373105, -0.0582119, 0.00696624, 0.00335571, -0.0306003
0.154237, 0.108212, -0.774153, -0.91759, -1.45831, -0.625827, 1.07029, -0.256687, -0.00767296, -0.0200523, -0.0120266, -0.0912978, 0.000309748, 0.0013691, 4.86329e-05, 0.888436, 15.8624, 18.1098, 13.1152, 1.086, 2.97336, -0.0420422, -0.000345088, 0.000547433, -0.00213001, -0.0046937, -0.00939837, 0.000380255, 0.0217745, -0.0330674, 0.0298844, 0.0557576, 0.0641654, 0.258635, -0.00959664, -0.442659, 0.631979, -3.12494, -0.0563834, -0.11901, -0.0100819, -0.443251, 0.63407, -3.13031, -0.0561182, -0.104612, 0.0306049, 0.0376903, -0.0588927, 0.00785155, 0.00341941, -0.0311719
0.155237, 0.108195, -0.774177, -0.917592, -1.45841, -0.625822, 1.07029, -0.256689, -0.0116602, -0.0223443, -0.00713753, -0.0917097, 0.000745586, 0.00118383, -0.000429983, 1.00349, 15.9021, 18.0344, 13.0399, 1.0741, 2.96603, -0.0292249, -0.000367325, 0.000577497, -0.00216212, -0.00475815, -0.00957929, 0.000355691, 0.0228499, -0.032302, 0.0318923, 0.0596932, 0.0620391, 0.261922, -0.00956583, -0.442621, 0.63192, -3.12481, -0.0564016, -0.119232, -0.0100749, -0.443244, 0.63404, -3.13025, -0.0561742, -0.104556, 0.0310012, 0.03807, -0.0595756, 0.00699249, 0.00449103, -0.0299329
0.156237, 0.108185, -0.774197, -0.917604, -1.45851, -0.625821, 1.07029, -0.256686, -0.01251, -0.0252468, -0.00718386, -0.0950839, 0.000570766, 0.00051783, 0.000943283, 1.03919, 15.8624, 18.1098, 13.0795, 1.0741, 2.97336, -0.0621838, -0.00038706, 0.000610048, -0.00218939, -0.0048151, -0.00977509, 0.000334114, 0.0238893, -0.032397, 0.0314394, 0.0583882, 0.0621853, 0.263941, -0.00953463, -0.442583, 0.63186, -3.12467, -0.0564201, -0.119456, -0.0100645, -0.44324, 0.634006, -3.13019, -0.0562263, -0.104478, 0.0313996, 0.0384495, -0.0602603, 0.00638931, 0.00474157, -0.0311577
0.157237, 0.108179, -0.774218, -0.917613, -1.45862, -0.625823, 1.07029, -0.256682, -0.00835795, -0.0244106, -0.00612116, -0.102786, -0.000242377, 0.000616394, 0.00087314, 1.00349, 15.8267, 18.1455, 13.0795, 1.09241, 2.96603, -0.0685925, -0.000406302, 0.000641454, -0.00221684, -0.00486909, -0.00997671, 0.000307683, 0.0203848, -0.0322723, 0.0300006, 0.0562229, 0.0689949, 0.275129, -0.00950303, -0.442544, 0.6318, -3.12454, -0.0564389, -0.119682, -0.0100533, -0.443234, 0.63397, -3.13013, -0.0562865, -0.104394, 0.0318, 0.0388288, -0.060947, 0.0103832, 0.00538821, -0.0330164
0.158237, 0.10817, -0.774245, -0.917616, -1.45873, -0.625823, 1.07029, -0.256688, -0.0116535, -0.02394, -0.00278287, -0.106055, -0.000323574, 0.000953393, -0.000870774, 0.963814, 15.791, 18.0741, 13.1152, 1.0979, 2.95138, -0.0292249, -0.000425184, 0.000672596, -0.00224561, -0.00492865, -0.0101743, 0.000266595, 0.0202827, -0.0317442, 0.0308204, 0.0583885, 0.071706, 0.280403, -0.00947103, -0.442505, 0.631738, -3.1244, -0.0564579, -0.119911, -0.0100415, -0.443228, 0.633936, -3.13006, -0.0563694, -0.104319, 0.0322025, 0.0392079, -0.0616356, 0.0108019, 0.00628174, -0.0328803
0.159237, 0.108155, -0.774277, -0.917622, -1.45884, -0.625823, 1.07029, -0.256683, -0.0136742, -0.0283532, -0.00296986, -0.10866, -0.00018462, 0.00114417, 0.000406724, 1.03919, 15.8267, 18.1098, 13.1509, 1.0979, 2.93765, -0.0557752, -0.000449055, 0.000704453, -0.0022746, -0.00498896, -0.0103685, 0.000245245, 0.0223533, -0.0320339, 0.0306332, 0.0580034, 0.0691782, 0.281034, -0.00943863, -0.442466, 0.631676, -3.12426, -0.0564773, -0.120143, -0.0100343, -0.443222, 0.6339, -3.13, -0.0564219, -0.104252, 0.032607, 0.0395867, -0.062326, 0.00916457, 0.0062963, -0.0339282
0.160237, 0.108148, -0.77431, -0.917619, -1.45895, -0.625821, 1.07029, -0.256683, -0.0115203, -0.0316874, 0.000409002, -0.110715, -0.000337117, 0.00130527, -0.000234555, 0.963814, 15.8624, 17.9987, 13.1906, 1.10431, 2.923, -0.0420422, -0.000466252, 0.000734308, -0.00230448, -0.00504876, -0.0105648, 0.000199445, 0.0212736, -0.0317741, 0.0315125, 0.0600977, 0.0675059, 0.290052, -0.00940582, -0.442426, 0.631614, -3.12412, -0.0564969, -0.120377, -0.0100201, -0.443213, 0.633865, -3.12994, -0.0565128, -0.104185, 0.0330136, 0.0399652, -0.0630183, 0.0105663, 0.00695455, -0.033665
0.161237, 0.108141, -0.774335, -0.917629, -1.45907, -0.625823, 1.07028, -0.25668, -0.00694356, -0.0314473, -0.00248295, -0.111257, -0.000207253, 0.000870153, 0.000829166, 0.888436, 15.791, 18.1098, 13.1906, 1.10431, 2.923, -0.0685925, -0.000485909, 0.000767252, -0.00233186, -0.00510498, -0.0107759, 0.000169422, 0.0203916, -0.0326725, 0.0310858, 0.058456, 0.0687891, 0.294339, -0.0093726, -0.442386, 0.63155, -3.12398, -0.0565168, -0.120614, -0.0100077, -0.443207, 0.633827, -3.12987, -0.0565798, -0.104096, 0.0334222, 0.0403434, -0.0637123, 0.0119156, 0.00646889, -0.0347361
0.162237, 0.108131, -0.774367, -0.917639, -1.45919, -0.62582, 1.07028, -0.256686, -0.00680291, -0.0320954, -0.00664938, -0.111807, -0.00012505, 0.000851347, -0.00137836, 0.813057, 15.7513, 18.1852, 13.1906, 1.10431, 2.91568, -0.0164075, -0.000507882, 0.000800334, -0.00235875, -0.00515917, -0.0109785, 0.000129506, 0.0221143, -0.0338026, 0.0304581, 0.0566064, 0.0690359, 0.296495, -0.00933897, -0.442345, 0.631486, -3.12384, -0.056537, -0.120853, -0.00999716, -0.443201, 0.633787, -3.1298, -0.0566625, -0.104024, 0.0338328, 0.0407212, -0.0644081, 0.0106957, 0.00566216, -0.0362143
0.163237, 0.108116, -0.774398, -0.91763, -1.45932, -0.625818, 1.07028, -0.256682, -0.00851892, -0.0328634, -0.00218228, -0.118017, 0.000367281, 0.000296281, 0.000540389, 0.813057, 15.7156, 18.0741, 13.1906, 1.09241, 2.923, -0.0557752, -0.000524536, 0.00082916, -0.00238874, -0.00522073, -0.0111913, 8.71212e-05, 0.0207161, -0.0327138, 0.0305252, 0.0566487, 0.0724258, 0.302347, -0.00930493, -0.442304, 0.631421, -3.1237, -0.0565575, -0.121095, -0.00998131, -0.443191, 0.633751, -3.12973, -0.0567491, -0.103938, 0.0342455, 0.0410986, -0.0651057, 0.0124526, 0.00717185, -0.0367299
0.164237, 0.108102, -0.774437, -0.917633, -1.45945, -0.625818, 1.07028, -0.256682, -0.00885591, -0.0350891, -0.00255094, -0.119049, 0.000252233, 0.000740043, 8.99162e-05, 0.777352, 15.7513, 18.1098, 13.1509, 1.09241, 2.90835, -0.0484509, -0.000547368, 0.000860845, -0.0024166, -0.00527719, -0.0113984, 4.73165e-05, 0.0217918, -0.0332009, 0.0308229, 0.0573958, 0.071166, 0.305344, -0.00927048, -0.442263, 0.631356, -3.12355, -0.0565783, -0.121339, -0.00997094, -0.443183, 0.633711, -3.12966, -0.0568322, -0.103864, 0.0346601, 0.0414756, -0.0658049, 0.0117866, 0.0070146, -0.0372309
0.165237, 0.108089, -0.77447, -0.917628, -1.45958, -0.625817, 1.07028, -0.256677, -0.0122072, -0.0340609, -0.00106105, -0.12177, 0.00464166, 0.000493352, 0.000806623, 0.737679, 15.6799, 18.0741, 13.1906, 1.086, 2.90835, -0.0685925, -0.000564466, 0.000890899, -0.00244497, -0.00533568, -0.0116178, 4.04154e-06, 0.0214559, -0.03243, 0.0312636, 0.0562514, 0.0710854, 0.308588, -0.00923561, -0.442221, 0.63129, -3.1234, -0.0565994, -0.121587, -0.00995456, -0.443173, 0.633671, -3.12959, -0.0569211, -0.103773, 0.0350768, 0.0418522, -0.0665058, 0.0124716, 0.00816166, -0.0374639
0.166237, 0.108073, -0.774508, -0.91763, -1.45972, -0.625814, 1.07028, -0.256681, -0.0125077, -0.0320618, -0.00168932, -0.125008, 0.00345114, 0.000837521, -0.00115715, 0.737679, 15.6799, 18.1098, 13.1509, 1.086, 2.89462, -0.0228162, -0.000587047, 0.000922305, -0.00247289, -0.00539064, -0.0118309, -4.0635e-05, 0.0210913, -0.0328444, 0.0309501, 0.0562809, 0.0763661, 0.313529, -0.00920033, -0.442179, 0.631223, -3.12326, -0.0566208, -0.121836, -0.00994315, -0.443163, 0.633629, -3.12951, -0.0570125, -0.103695, 0.0354954, 0.0422282, -0.0672083, 0.013289, 0.00813738, -0.0384647
0.167237, 0.108058, -0.774548, -0.917622, -1.45985, -0.625811, 1.07028, -0.256676, -0.0118233, -0.0335295, 0.00136219, -0.128354, 0.00721995, 0.00110088, 0.000687017, 0.701973, 15.6799, 17.9987, 13.1509, 1.0741, 2.87997, -0.0621838, -0.000606046, 0.000952377, -0.00250265, -0.00545234, -0.0120462, -8.68263e-05, 0.0191689, -0.0320537, 0.0314636, 0.0560446, 0.0744, 0.320911, -0.00916462, -0.442137, 0.631155, -3.12311, -0.0566425, -0.122088, -0.00992795, -0.443153, 0.633589, -3.12944, -0.0571064, -0.103616, 0.0359161, 0.0426038, -0.0679124, 0.0155519, 0.00935828, -0.0385036
0.168237, 0.108041, -0.774584, -0.917622, -1.45999, -0.625812, 1.07028, -0.256682, -0.0145495, -0.0322196, -9.63019e-06, -0.132215, 0.0051614, 0.00100518, -0.00147448, 0.6623, 15.5688, 18.0344, 13.0795, 1.07959, 2.87265, -0.00999879, -0.000627601, 0.000983986, -0.00253064, -0.00550854, -0.0122723, -0.000135314, 0.0204188, -0.0325451, 0.0307773, 0.0553792, 0.0802894, 0.322974, -0.00912849, -0.442094, 0.631087, -3.12296, -0.0566645, -0.122343, -0.00991469, -0.443143, 0.633546, -3.12936, -0.0572046, -0.103523, 0.0363387, 0.0429789, -0.068618, 0.0147966, 0.00920489, -0.0400066
0.169237, 0.108028, -0.77463, -0.917618, -1.46014, -0.625808, 1.07028, -0.256679, -0.0156776, -0.0370003, 0.00486163, -0.139526, 0.0038546, -0.00336819, -3.33289e-05, 0.586922, 15.5688, 17.959, 13.0795, 1.07959, 2.85159, -0.0356336, -0.000647123, 0.00101505, -0.00255707, -0.00556351, -0.0124917, -0.000187842, 0.0203956, -0.0309231, 0.0301428, 0.0522393, 0.0837, 0.329927, -0.00909194, -0.442051, 0.631018, -3.1228, -0.0566868, -0.122601, -0.00989889, -0.443132, 0.633502, -3.12928, -0.0573094, -0.103443, 0.0367632, 0.0433533, -0.0693252, 0.0152299, 0.0112073, -0.0413295
0.170237, 0.108011, -0.774672, -0.917609, -1.4603, -0.625807, 1.07027, -0.256679, -0.0143328, -0.0378296, 0.00605701, -0.142415, 0.00308343, -0.00183317, -2.20547e-05, 0.551216, 15.4578, 17.848, 13.0795, 1.0741, 2.82962, -0.0356336, -0.000665106, 0.00104411, -0.00258431, -0.00561749, -0.012724, -0.000245776, 0.0194419, -0.0312721, 0.0304054, 0.0541745, 0.0849684, 0.335993, -0.00905497, -0.442007, 0.630949, -3.12265, -0.0567094, -0.122861, -0.00988129, -0.443119, 0.633457, -3.1292, -0.0574231, -0.103345, 0.0371897, 0.0437272, -0.0700339, 0.0165949, 0.0112574, -0.0417146
0.171237, 0.108, -0.774723, -0.917611, -1.46046, -0.625808, 1.07027, -0.256675, -0.0114942, -0.0412468, 0.00327308, -0.144604, 0.00184749, -0.000743362, 0.00120612, 0.436165, 15.4578, 17.8876, 13.0795, 1.086, 2.80856, -0.0685925, -0.000686823, 0.00107701, -0.00260788, -0.00566736, -0.0129518, -0.000297015, 0.0201876, -0.0325086, 0.0295957, 0.0534762, 0.0839568, 0.338735, -0.00901756, -0.441964, 0.630878, -3.12249, -0.0567323, -0.123123, -0.00986655, -0.44311, 0.633407, -3.12911, -0.0575268, -0.103257, 0.0376182, 0.0441005, -0.0707441, 0.0163855, 0.0103781, -0.0433172
0.172237, 0.107979, -0.774766, -0.917606, -1.46061, -0.625804, 1.07028, -0.256682, -0.0121622, -0.0443846, 0.0032324, -0.148667, 0.00140618, 9.23731e-05, -0.00136596, 0.436165, 15.3467, 17.848, 13.0399, 1.086, 2.78659, -0.00999879, -0.000708123, 0.00110829, -0.00263548, -0.00572483, -0.0131832, -0.000354831, 0.0209968, -0.03286, 0.0290847, 0.0531689, 0.0838335, 0.34521, -0.00897973, -0.441919, 0.630807, -3.12233, -0.0567555, -0.123389, -0.00985136, -0.443099, 0.633361, -3.12903, -0.0576409, -0.103166, 0.0380486, 0.0444731, -0.0714557, 0.0160588, 0.0103754, -0.0446162
0.173237, 0.107961, -0.774816, -0.9176, -1.46078, -0.625804, 1.07027, -0.256678, -0.0148388, -0.0445577, 0.00391711, -0.156464, 0.000830977, -0.00321109, -0.000673214, 0.400459, 15.2753, 17.7765, 13.0795, 1.09241, 2.74356, -0.0164075, -0.000728439, 0.00113898, -0.00265959, -0.00577475, -0.0134213, -0.000411328, 0.021269, -0.0319892, 0.0274351, 0.048101, 0.0912378, 0.348759, -0.00894147, -0.441875, 0.630735, -3.12218, -0.056779, -0.123657, -0.00983452, -0.443086, 0.633311, -3.12894, -0.0577537, -0.103067, 0.0384809, 0.044845, -0.0721687, 0.0163138, 0.0116327, -0.0469909
0.174237, 0.107938, -0.774868, -0.917596, -1.46095, -0.625805, 1.07027, -0.256674, -0.0176126, -0.0454375, 0.00572244, -0.161565, 0.000211339, -0.00265918, 0.000500678, 0.400459, 15.2356, 17.7765, 13.0795, 1.10431, 2.74356, -0.0420422, -0.000752328, 0.00116997, -0.00268308, -0.00582367, -0.0136633, -0.000461676, 0.0215813, -0.031778, 0.0272484, 0.0485771, 0.094219, 0.351231, -0.00890277, -0.44183, 0.630663, -3.12202, -0.0568029, -0.123927, -0.00982075, -0.443074, 0.633259, -3.12885, -0.0578574, -0.102965, 0.0389151, 0.0452163, -0.0728831, 0.0164402, 0.0122028, -0.0479218
0.175237, 0.10792, -0.77492, -0.917586, -1.46112, -0.625802, 1.07027, -0.256675, -0.0148471, -0.0483614, 0.00681134, -0.16109, 0.000214516, -0.00111047, -0.000140893, 0.325081, 15.1642, 17.6615, 13.0399, 1.10431, 2.71518, -0.0292249, -0.00077217, 0.00120049, -0.00271019, -0.00587877, -0.0139001, -0.000526357, 0.0212115, -0.0323429, 0.0284048, 0.051742, 0.0906524, 0.357987, -0.00886363, -0.441784, 0.630589, -3.12185, -0.0568271, -0.1242, -0.00980283, -0.44306, 0.633211, -3.12876, -0.0579833, -0.102874, 0.0393512, 0.0455868, -0.0735988, 0.0171704, 0.0119968, -0.0474732
0.176237, 0.107898, -0.774969, -0.917583, -1.4613, -0.625806, 1.07027, -0.256675, -0.0198743, -0.0466517, 0.00476974, -0.169553, -0.000479941, -0.00518824, -9.38996e-05, 0.285408, 15.0531, 17.6615, 13.1152, 1.12262, 2.70053, -0.0292249, -0.000794413, 0.00123276, -0.00273222, -0.00592775, -0.0141551, -0.00058347, 0.0228125, -0.0317315, 0.0258695, 0.0442327, 0.100945, 0.358026, -0.00882406, -0.441738, 0.630515, -3.12169, -0.0568516, -0.124476, -0.00978641, -0.443049, 0.633156, -3.12867, -0.0580984, -0.102756, 0.0397893, 0.0459565, -0.0743159, 0.016188, 0.0129623, -0.0508448
0.177237, 0.107878, -0.775026, -0.917573, -1.46149, -0.625804, 1.07027, -0.256679, -0.0196448, -0.0471949, 0.00502189, -0.173683, -0.000515906, -0.00406912, -0.00128328, 0.21003, 15.0174, 17.5901, 13.2263, 1.12903, 2.70053, 0.00373412, -0.000815313, 0.0012627, -0.00275639, -0.00597607, -0.0144016, -0.000654674, 0.022231, -0.031986, 0.0255064, 0.0442719, 0.103021, 0.364469, -0.00878406, -0.441692, 0.630441, -3.12153, -0.0568764, -0.124755, -0.00976847, -0.443034, 0.633103, -3.12857, -0.0582357, -0.102655, 0.0402292, 0.0463255, -0.0750342, 0.0172421, 0.0131002, -0.0518917
0.178237, 0.107861, -0.775091, -0.917572, -1.46166, -0.625804, 1.07027, -0.25667, -0.0217922, -0.0486652, 0.00347665, -0.174033, -0.000550237, -0.00787672, 0.00107728, 0.0949785, 15.0174, 17.5901, 13.2263, 1.13544, 2.70053, -0.0484509, -0.000841862, 0.00129587, -0.00278087, -0.00602615, -0.0146386, -0.000705121, 0.0248619, -0.0318857, 0.0254296, 0.0411547, 0.104221, 0.361674, -0.00874361, -0.441646, 0.630365, -3.12136, -0.0569015, -0.125036, -0.00975564, -0.443022, 0.633049, -3.12847, -0.0583409, -0.102571, 0.040671, 0.0466936, -0.0757538, 0.0150621, 0.0134719, -0.0529068
0.179237, 0.107839, -0.775143, -0.917556, -1.46185, -0.625801, 1.07026, -0.256672, -0.0244102, -0.0498571, 0.00911876, -0.178208, 0.000571998, -0.00625789, -0.000468598, 0.0196001, 14.9063, 17.4393, 13.3771, 1.11072, 2.70785, -0.0164075, -0.000858983, 0.00132431, -0.00280489, -0.00607374, -0.0149, -0.000782489, 0.0236974, -0.0309783, 0.0266793, 0.0447148, 0.104307, 0.370343, -0.00870271, -0.441599, 0.630289, -3.12119, -0.056927, -0.12532, -0.00973313, -0.443005, 0.632995, -3.12837, -0.0584887, -0.102452, 0.0411146, 0.0470609, -0.0764746, 0.0165289, 0.0147598, -0.052284
