alisrour97/Franka_experiments/Real_Robot_scripts/servo-franka/Data4/log_dyn_INITw_ki_6.csv
Time,q1,q2,q3,q4,q5,q6,q7,dq1,dq2,dq3,dq4,dq5,dq6,dq7,t1,t2,t3,t4,t5,t6,t7,ex1,ex2,ex3,ex4,ex5,ex6,ev1,ev2,ev3,ev4,ev5,ev6,xd,yd,zd,uxd,uyd,uzd,x,y,z,ux,uy,uz,vxd,vyd,vzd,vx,vy,vz
4.88281e-07, 0.10764, -0.773992, -0.917104, -1.45765, -0.625542, 1.06964, -0.2567, -0.00187441, 4.4596e-05, 0.00731901, 0.00693636, 0.0024467, -0.000336554, -0.000292083, -0.317619, 15.9735, 21.6843, 18.2291, 1.54651, 4.17727, -0.199513, 0.000815253, -0.00164814, 0.00074411, 0.00163832, -0.00161773, 0.000349489, -0.000543733, 0.00137273, 0.00422612, 0.00736667, -0.00650248, 0.00160308, -0.011112, -0.444721, 0.635038, -3.13187, -0.0555627, -0.107532, -0.0103032, -0.443038, 0.634359, -3.13033, -0.0555238, -0.104884, 0, 0, 0, 0.000203914, 0.00135462, 0.00426187
0.0120527, 0.107648, -0.774013, -0.917106, -1.45763, -0.625535, 1.06964, -0.2567, 0.00234808, -0.00353102, 0.000702804, 0.00174319, 0.00139237, -6.18557e-05, -0.00567471, -0.281914, 15.9378, 21.72, 18.1537, 1.50989, 4.1846, -0.245289, 0.000808187, -0.00164513, 0.000736479, 0.00162363, -0.00157016, 0.000353999, -9.23186e-05, 5.54666e-05, 0.000528637, 0.000347682, -0.00569991, 0.00834738, -0.011112, -0.444721, 0.635038, -3.13187, -0.0555627, -0.107532, -0.0103145, -0.443042, 0.634369, -3.13035, -0.0555031, -0.104972, 1.73063e-06, 3.0097e-06, -3.96181e-06, 5.56174e-05, 5.71422e-05, 0.0005301
0.0130527, 0.107648, -0.774013, -0.917106, -1.45763, -0.625535, 1.06964, -0.2567, 0.00234808, -0.00353102, 0.000702804, 0.00174319, 0.00139237, -6.18557e-05, -0.00567471, -0.281914, 15.9378, 21.72, 18.1537, 1.50989, 4.1846, -0.245289, 0.000808183, -0.00164512, 0.00073647, 0.00162361, -0.00157018, 0.000354, -8.76469e-05, 4.67384e-05, 0.000540893, 0.000372349, -0.00569655, 0.00839404, -0.011112, -0.444721, 0.635038, -3.13187, -0.0555627, -0.107532, -0.0103145, -0.443042, 0.634369, -3.13035, -0.0555031, -0.104972, 6.91577e-06, 1.20019e-05, -1.58141e-05, 5.56174e-05, 5.71422e-05, 0.0005301
0.0140527, 0.107648, -0.774013, -0.917106, -1.45763, -0.625535, 1.06964, -0.2567, 0.00234808, -0.00353102, 0.000702804, 0.00174319, 0.00139237, -6.18557e-05, -0.00567471, -0.281914, 15.9378, 21.72, 18.1537, 1.50989, 4.1846, -0.245289, 0.000808173, -0.0016451, 0.000736444, 0.00162356, -0.00157025, 0.000354002, -7.98712e-05, 3.22579e-05, 0.000561258, 0.000413312, -0.00569096, 0.00847155, -0.011112, -0.444721, 0.635038, -3.13187, -0.0555627, -0.107532, -0.0103145, -0.443042, 0.634369, -3.13035, -0.0555031, -0.104972, 1.55453e-05, 2.69215e-05, -3.55071e-05, 5.56174e-05, 5.71422e-05, 0.0005301
0.0150527, 0.107648, -0.774013, -0.917106, -1.45763, -0.625535, 1.06964, -0.2567, 0.00234808, -0.00353102, 0.000702804, 0.00174319, 0.00139237, -6.18557e-05, -0.00567471, -0.281914, 15.9378, 21.72, 18.1537, 1.50989, 4.1846, -0.245289, 0.000808154, -0.00164507, 0.000736394, 0.00162345, -0.00157037, 0.000354006, -6.90003e-05, 1.20796e-05, 0.000589681, 0.000470451, -0.00568311, 0.00857972, -0.011112, -0.444721, 0.635038, -3.13187, -0.0555628, -0.107532, -0.0103145, -0.443042, 0.634369, -3.13035, -0.0555031, -0.104972, 2.7609e-05, 4.77135e-05, -6.29913e-05, 5.56174e-05, 5.71422e-05, 0.0005301
0.0160527, 0.107648, -0.774013, -0.917106, -1.45763, -0.625535, 1.06964, -0.2567, 0.00234808, -0.00353102, 0.000702804, 0.00174319, 0.00139237, -6.18557e-05, -0.00567471, -0.281914, 15.9378, 21.72, 18.1537, 1.50989, 4.1846, -0.245289, 0.000808122, -0.00164501, 0.000736312, 0.00162328, -0.00157057, 0.000354012, -5.50427e-05, -1.37425e-05, 0.000626112, 0.000543644, -0.00567302, 0.00871834, -0.0111119, -0.444721, 0.635038, -3.13187, -0.0555628, -0.107532, -0.0103145, -0.443042, 0.634369, -3.13035, -0.0555031, -0.104972, 4.30968e-05, 7.4323e-05, -9.82172e-05, 5.56174e-05, 5.71422e-05, 0.0005301
0.0170532, 0.107648, -0.774013, -0.917106, -1.45763, -0.625535, 1.06964, -0.2567, 0.00234808, -0.00353102, 0.000702804, 0.00174319, 0.00139237, -6.18557e-05, -0.00567471, -0.281914, 15.9378, 21.72, 18.1537, 1.50989, 4.1846, -0.245289, 0.000808075, -0.00164492, 0.000736189, 0.00162302, -0.00157087, 0.000354021, -3.80071e-05, -4.51544e-05, 0.0006705, 0.000632772, -0.00566066, 0.00888721, -0.0111119, -0.444721, 0.635038, -3.13187, -0.0555628, -0.107533, -0.0103145, -0.443042, 0.634369, -3.13035, -0.0555031, -0.104972, 6.19987e-05, 0.000106695, -0.000141136, 5.56174e-05, 5.71422e-05, 0.0005301
0.0180532, 0.107648, -0.774013, -0.917106, -1.45763, -0.625535, 1.06964, -0.2567, 0.00234808, -0.00353102, 0.000702804, 0.00174319, 0.00139237, -6.18557e-05, -0.00567471, -0.281914, 15.9378, 21.72, 18.1537, 1.50989, 4.1846, -0.245289, 0.000808009, -0.0016448, 0.000736019, 0.00162266, -0.00157128, 0.000354033, -1.79021e-05, -8.21023e-05, 0.000722795, 0.000737713, -0.00564605, 0.00908613, -0.0111118, -0.44472, 0.635037, -3.13187, -0.0555628, -0.107533, -0.0103145, -0.443042, 0.634369, -3.13035, -0.0555031, -0.104972, 8.43044e-05, 0.000144776, -0.000191697, 5.56174e-05, 5.71422e-05, 0.0005301
0.0190532, 0.107648, -0.774013, -0.917106, -1.45763, -0.625535, 1.06964, -0.2567, 0.00234808, -0.00353102, 0.000702804, 0.00174319, 0.00139237, -6.18557e-05, -0.00567471, -0.281914, 15.9378, 21.72, 18.1537, 1.50989, 4.1846, -0.245289, 0.000807921, -0.00164464, 0.000735793, 0.00162218, -0.00157183, 0.00035405, 5.26347e-06, -0.000124532, 0.000782947, 0.000858348, -0.00562917, 0.00931488, -0.0111117, -0.44472, 0.635037, -3.13187, -0.0555629, -0.107534, -0.0103145, -0.443042, 0.634369, -3.13035, -0.0555031, -0.104972, 0.000110004, 0.000188511, -0.000249853, 5.56174e-05, 5.71422e-05, 0.0005301
0.0200532, 0.107648, -0.774013, -0.917106, -1.45763, -0.625535, 1.06964, -0.2567, 0.00234808, -0.00353102, 0.000702804, 0.00174319, 0.00139237, -6.18557e-05, -0.00567471, -0.281914, 15.9378, 21.72, 18.1537, 1.50989, 4.1846, -0.245289, 0.000807809, -0.00164443, 0.000735502, 0.00162157, -0.00157254, 0.000354072, 3.14811e-05, -0.000172391, 0.000850906, 0.000994558, -0.00561002, 0.00957328, -0.0111116, -0.44472, 0.635037, -3.13187, -0.0555629, -0.107535, -0.0103145, -0.443042, 0.634369, -3.13035, -0.0555031, -0.104972, 0.000139087, 0.000237846, -0.000315553, 5.56174e-05, 5.71422e-05, 0.0005301
0.0210532, 0.107647, -0.773991, -0.917114, -1.45763, -0.625543, 1.06964, -0.256706, 0.000150515, -0.000142187, -0.00188964, -0.000164373, -0.0007017, -0.000531004, -0.00208761, -0.281914, 15.4935, 21.8311, 18.2291, 1.57123, 4.19192, -0.180287, 0.000810435, -0.00164256, 0.00073829, 0.00162429, -0.00160626, 0.000357106, 0.000898704, -0.000629789, -0.000241864, -0.000677711, 0.000962162, 0.00207693, -0.0111114, -0.44472, 0.635037, -3.13186, -0.055563, -0.107537, -0.0103115, -0.443043, 0.634366, -3.13035, -0.0554987, -0.10492, 0.000171544, 0.000292726, -0.00038875, -0.000685454, -0.000366181, -0.000695664
0.0220532, 0.107642, -0.773993, -0.917114, -1.45764, -0.625544, 1.06964, -0.256703, -0.0016473, -0.00119033, -0.000566191, -0.00269954, -0.000229627, -0.000354004, 0.000733968, -0.206535, 15.5331, 21.7954, 18.3401, 1.56482, 4.19192, -0.238881, 0.00080934, -0.00164288, 0.000740007, 0.00162704, -0.00161055, 0.00036084, 0.000980123, -0.00022855, -0.000523902, -0.00107815, 0.00107432, 0.000316808, -0.0111112, -0.444719, 0.635036, -3.13186, -0.055563, -0.107538, -0.0103123, -0.443043, 0.634364, -3.13034, -0.0554931, -0.104915, 0.000207364, 0.000353099, -0.000469394, -0.000725825, 9.47288e-05, -0.00106079
0.0230532, 0.107653, -0.773987, -0.917123, -1.45764, -0.625541, 1.06964, -0.256701, 0.00243997, 0.00167926, -0.00362814, -0.00141751, -0.00860139, 0.000577799, 0.0096084, -0.357292, 15.4221, 21.7954, 18.1934, 1.5401, 4.16995, -0.232472, 0.00081275, -0.00164088, 0.000741728, 0.00163294, -0.00161563, 0.000358323, 0.00113102, -0.00213451, -0.000847988, 0.00228667, 0.00917597, -0.0111425, -0.011111, -0.444719, 0.635036, -3.13186, -0.0555631, -0.10754, -0.0103085, -0.443044, 0.634362, -3.13034, -0.0554974, -0.104909, 0.000246538, 0.00041891, -0.000557437, -0.000746909, -0.00174669, -0.00149428
0.0240532, 0.10765, -0.773984, -0.91713, -1.45764, -0.625542, 1.06965, -0.256704, 0.000707395, 0.000518102, -0.00554704, -0.00384824, -0.00823901, 0.00357259, 0.00377225, -0.317619, 15.311, 21.6446, 18.0426, 1.46045, 4.08389, -0.140919, 0.000811375, -0.00163911, 0.000745028, 0.00163783, -0.00162461, 0.000360351, 0.00201047, -0.00290624, -0.00176489, 0.0023394, 0.00791463, -0.00669493, -0.0111107, -0.444719, 0.635035, -3.13186, -0.0555632, -0.107542, -0.0103093, -0.443046, 0.634358, -3.13033, -0.0554946, -0.104897, 0.000289055, 0.000490107, -0.00065283, -0.00149092, -0.00246976, -0.00256958
0.0250532, 0.107666, -0.773988, -0.917147, -1.45765, -0.625549, 1.06964, -0.256707, 0.00493267, -0.000819292, -0.0095751, -0.00630596, -0.00919212, 6.57294e-05, 0.00257432, -0.508049, 15.3467, 21.4582, 17.7808, 1.40552, 4.0198, -0.127186, 0.000810979, -0.00163548, 0.000752049, 0.00165323, -0.00163504, 0.000354798, 0.00193761, -0.00321664, -0.00403813, -0.00441834, 0.0109139, -0.00313671, -0.0111104, -0.444718, 0.635034, -3.13186, -0.0555634, -0.107545, -0.0103087, -0.443049, 0.63435, -3.13031, -0.0555039, -0.104882, 0.000334905, 0.000566635, -0.000755525, -0.00120576, -0.0026813, -0.00493702
0.0260532, 0.107666, -0.773988, -0.917147, -1.45765, -0.625549, 1.06964, -0.256707, 0.00493267, -0.000819292, -0.0095751, -0.00630596, -0.00919212, 6.57294e-05, 0.00257432, -0.508049, 15.3467, 21.4582, 17.7808, 1.40552, 4.0198, -0.127186, 0.000810654, -0.00163489, 0.000751216, 0.00165147, -0.00163707, 0.000354863, 0.00198197, -0.00329596, -0.00392436, -0.00419115, 0.0109467, -0.00270467, -0.0111101, -0.444717, 0.635033, -3.13186, -0.0555635, -0.107548, -0.0103087, -0.443049, 0.63435, -3.13031, -0.0555039, -0.104882, 0.000384079, 0.000648441, -0.000865474, -0.00120576, -0.0026813, -0.00493702
0.0270532, 0.107677, -0.773992, -0.917163, -1.45766, -0.625555, 1.06964, -0.256699, 0.00681986, -0.00172132, -0.0135875, -0.00883983, -0.00566188, -0.00186212, 0.00265093, -0.658806, 15.3864, 21.1606, 17.5189, 1.36249, 3.93374, -0.140919, 0.000809572, -0.00163068, 0.000758352, 0.00166449, -0.00164778, 0.000362087, 0.00174803, -0.00331261, -0.00597702, -0.0113813, 0.0102249, -0.00049673, -0.0111097, -0.444717, 0.635033, -3.13186, -0.0555637, -0.107552, -0.0103088, -0.443052, 0.634342, -3.1303, -0.0554934, -0.104868, 0.000436566, 0.000735474, -0.000982628, -0.00077893, -0.00258499, -0.00708597
0.0280532, 0.107687, -0.77399, -0.917218, -1.45769, -0.625568, 1.06963, -0.256705, 0.00698197, 0.000444008, -0.0218468, -0.0100911, -0.00229021, 0.000948587, -0.000799194, -0.694511, 15.4221, 20.8274, 17.146, 1.30755, 3.84036, -0.0621838, 0.000799493, -0.00162123, 0.000784031, 0.00171875, -0.00169077, 0.00037773, 0.00250621, -0.00500206, -0.00825931, -0.01609, 0.00963737, -0.000427231, -0.0111092, -0.444716, 0.635032, -3.13185, -0.0555639, -0.107556, -0.0103163, -0.443061, 0.634314, -3.13025, -0.0554715, -0.104801, 0.000492356, 0.000827679, -0.00110694, -0.00126253, -0.00418813, -0.00954968
0.0290532, 0.107699, -0.773994, -0.917244, -1.45771, -0.625581, 1.06963, -0.256697, 0.00760719, -0.00121427, -0.0247886, -0.0122209, -0.00312145, -0.00152268, 0.00229182, -0.809562, 15.4935, 20.6052, 17.0349, 1.33777, 3.76163, -0.133595, 0.000797128, -0.00161449, 0.000796981, 0.00173818, -0.00171411, 0.000388709, 0.00371664, -0.00523011, -0.00990619, -0.020838, 0.0114269, -0.00391875, -0.0111087, -0.444715, 0.63503, -3.13185, -0.0555641, -0.10756, -0.010317, -0.443067, 0.6343, -3.13023, -0.0554555, -0.104768, 0.000551439, 0.000925004, -0.00123836, -0.00228937, -0.00434707, -0.0114087
0.0300532, 0.107712, -0.773993, -0.917273, -1.45774, -0.62559, 1.06963, -0.256698, 0.00703066, -0.000689387, -0.0256551, -0.0160733, -0.00663179, 0.000950268, 0.00142534, -0.884941, 15.4935, 20.4545, 16.8842, 1.32587, 3.69021, -0.127186, 0.000795825, -0.00160812, 0.000810505, 0.0017631, -0.00173923, 0.000390483, 0.00377236, -0.00608025, -0.0109306, -0.0194994, 0.0159491, -0.00344733, -0.0111081, -0.444714, 0.635029, -3.13185, -0.0555643, -0.107565, -0.0103165, -0.443072, 0.634285, -3.1302, -0.0554541, -0.104732, 0.000613805, 0.0010274, -0.00137684, -0.00218207, -0.00508736, -0.0125782
0.0310532, 0.107716, -0.773993, -0.9173, -1.45776, -0.625605, 1.06963, -0.256701, 0.00483408, -0.000369498, -0.0244166, -0.0158464, -0.00595661, 0.00253141, -0.000135458, -0.884941, 15.4935, 20.2323, 16.7374, 1.34967, 3.62521, -0.0951428, 0.000790092, -0.00160101, 0.000823321, 0.001782, -0.00176924, 0.00039965, 0.00405279, -0.00610472, -0.010142, -0.0170342, 0.0147828, -0.00235677, -0.0111074, -0.444713, 0.635028, -3.13184, -0.0555646, -0.10757, -0.0103205, -0.443078, 0.63427, -3.13018, -0.0554409, -0.104689, 0.000679445, 0.00113481, -0.00152234, -0.00244909, -0.00502104, -0.0119564
0.0320532, 0.107727, -0.773986, -0.917321, -1.45778, -0.625618, 1.06963, -0.256702, 0.00730919, 0.00232689, -0.0259112, -0.0180093, -0.00873804, -0.00321725, 0.000697606, -0.920646, 15.3864, 19.9705, 16.6977, 1.33777, 3.6188, -0.114369, 0.000792114, -0.00159668, 0.000836452, 0.00180607, -0.00181118, 0.000396807, 0.00339103, -0.00564462, -0.0115467, -0.0226004, 0.0240199, -0.00148933, -0.0111067, -0.444712, 0.635026, -3.13184, -0.0555649, -0.107577, -0.0103167, -0.443081, 0.634256, -3.13015, -0.0554468, -0.104628, 0.000748347, 0.00124718, -0.0016748, -0.00164061, -0.00441344, -0.0134619
0.0330532, 0.107726, -0.773978, -0.917352, -1.4578, -0.625631, 1.06963, -0.256698, 0.00574993, 0.00336518, -0.0298847, -0.0179016, -0.010903, -0.00228561, 0.00123402, -0.809562, 15.311, 19.8237, 16.5866, 1.32587, 3.60415, -0.133595, 0.000785284, -0.00158955, 0.000849573, 0.00182782, -0.00184809, 0.000420733, 0.00545459, -0.00688563, -0.012312, -0.0228389, 0.0263747, -0.00707477, -0.0111059, -0.444711, 0.635024, -3.13184, -0.0555653, -0.107583, -0.0103216, -0.443087, 0.634241, -3.13013, -0.055411, -0.104576, 0.000820503, 0.00136446, -0.00183418, -0.00352911, -0.00560229, -0.0145343
0.0340532, 0.107738, -0.773977, -0.917386, -1.45784, -0.625646, 1.06963, -0.256701, 0.0091856, 0.00228146, -0.0313225, -0.0227446, -0.00755762, -0.0023075, -0.00154216, -0.884941, 15.311, 19.7483, 16.5509, 1.30755, 3.61148, -0.0685925, 0.000782227, -0.00158171, 0.000867044, 0.00185785, -0.00188759, 0.000423236, 0.00314029, -0.00670571, -0.0141723, -0.0279464, 0.0260621, 0.00278139, -0.0111051, -0.444709, 0.635022, -3.13183, -0.0555656, -0.10759, -0.0103223, -0.443093, 0.634221, -3.1301, -0.0554088, -0.104519, 0.000895902, 0.00148661, -0.00200043, -0.0010253, -0.00520282, -0.0163964
0.0350532, 0.107736, -0.773967, -0.917419, -1.45787, -0.625661, 1.06962, -0.256702, 0.00640967, 0.00498315, -0.0320374, -0.0269355, -0.00938349, -0.00270259, -0.0017421, -0.734184, 15.1642, 19.6729, 16.5509, 1.27643, 3.63254, -0.0484509, 0.000775991, -0.00157466, 0.00088337, 0.00188638, -0.00193726, 0.000441649, 0.00337688, -0.00670894, -0.0153249, -0.0295436, 0.0331346, 0.00161868, -0.0111041, -0.444708, 0.63502, -3.13183, -0.055566, -0.107598, -0.0103262, -0.443099, 0.634202, -3.13007, -0.0553819, -0.104448, 0.000974534, 0.00161356, -0.00217351, -0.00110343, -0.0050774, -0.0177356
0.0360532, 0.10774, -0.773957, -0.917451, -1.45789, -0.625678, 1.06962, -0.256697, 0.00725887, 0.00510672, -0.0324211, -0.0290205, -0.0112218, -0.00236127, 0.000591925, -0.694511, 15.0888, 19.5975, 16.5112, 1.25812, 3.63986, -0.0951428, 0.000772433, -0.00156714, 0.000898437, 0.00191038, -0.00198587, 0.000460242, 0.00305377, -0.00707133, -0.0158747, -0.0295247, 0.0359183, 0.000735554, -0.0111031, -0.444706, 0.635018, -3.13182, -0.0555664, -0.107607, -0.0103274, -0.443105, 0.634185, -3.13004, -0.0553546, -0.104379, 0.00105639, 0.00174526, -0.00235336, -0.000648766, -0.00529165, -0.018444
0.0370532, 0.107743, -0.773954, -0.917476, -1.45793, -0.625693, 1.06962, -0.256699, 0.00566398, 0.00342051, -0.0278175, -0.03229, -0.011933, -0.00179039, -0.000570732, -0.694511, 15.0888, 19.4507, 16.5509, 1.2215, 3.63986, -0.0685925, 0.000769239, -0.00156083, 0.00091291, 0.00193278, -0.00202921, 0.000465041, 0.00226717, -0.00628974, -0.0153329, -0.0271966, 0.036454, 0.00588578, -0.011102, -0.444704, 0.635016, -3.13182, -0.0555669, -0.107616, -0.0103283, -0.443109, 0.634167, -3.13002, -0.0553487, -0.104319, 0.00114146, 0.00188168, -0.00253994, 0.000155655, -0.00435108, -0.0180312
0.0380532, 0.10774, -0.773948, -0.917508, -1.45796, -0.625715, 1.06962, -0.256695, 0.00263129, 0.00540903, -0.0269747, -0.0323575, -0.0135907, -0.00189828, -0.000129632, -0.619133, 15.0888, 19.4111, 16.6223, 1.21509, 3.65451, -0.0750012, 0.000761424, -0.00155293, 0.000930366, 0.00195964, -0.00208355, 0.000488099, 0.00313356, -0.00630536, -0.0147574, -0.0253016, 0.0397929, 0.00305469, -0.0111008, -0.444702, 0.635013, -3.13181, -0.0555674, -0.107626, -0.0103334, -0.443115, 0.634147, -3.12999, -0.0553147, -0.104242, 0.00122973, 0.00202275, -0.00273321, -0.000658634, -0.004261, -0.01771
0.0390532, 0.107738, -0.773942, -0.917539, -1.458, -0.625736, 1.06962, -0.256695, -0.00038035, 0.00707243, -0.0294275, -0.0321705, -0.0191305, -0.00189576, 0.000669687, -0.508049, 15.0888, 19.3754, 16.6977, 1.19678, 3.66824, -0.0951428, 0.00075403, -0.00154519, 0.000946611, 0.00198403, -0.00213777, 0.000506667, 0.00595385, -0.00744946, -0.0150372, -0.0235943, 0.0456803, -0.00458648, -0.0110996, -0.4447, 0.63501, -3.1318, -0.055568, -0.107637, -0.0103381, -0.443121, 0.634127, -3.12996, -0.0552876, -0.104166, 0.00132119, 0.00216842, -0.00293311, -0.00331893, -0.00535537, -0.0183902
0.0400532, 0.107737, -0.773938, -0.917564, -1.45803, -0.625762, 1.06962, -0.256695, -0.000833653, 0.00518298, -0.0270459, -0.0342366, -0.0189665, -0.00294875, 0.000691409, -0.468376, 15.0888, 19.3, 16.7374, 1.19037, 3.71127, -0.101552, 0.000746525, -0.00153818, 0.000960493, 0.00200349, -0.00219362, 0.000523187, 0.00569895, -0.00682457, -0.014924, -0.0238722, 0.0455022, -0.00129379, -0.0110982, -0.444698, 0.635007, -3.1318, -0.0555686, -0.107648, -0.010343, -0.443126, 0.63411, -3.12994, -0.0552636, -0.104089, 0.00141584, 0.00231864, -0.0031396, -0.00300008, -0.00457257, -0.0184624
0.0410532, 0.10773, -0.773938, -0.917596, -1.45807, -0.625787, 1.06961, -0.256697, -0.00205806, 0.00120789, -0.0279213, -0.0311244, -0.0237983, -0.00335667, -0.00122879, -0.392998, 15.1999, 19.3397, 16.8484, 1.19037, 3.74698, -0.0557752, 0.000733812, -0.00153058, 0.000977847, 0.00203234, -0.00224948, 0.000545716, 0.00945201, -0.00787083, -0.0141478, -0.0206845, 0.0434748, -0.00433067, -0.0110967, -0.444695, 0.635004, -3.13179, -0.0555692, -0.107661, -0.0103527, -0.443132, 0.634088, -3.12991, -0.0552306, -0.104012, 0.00151366, 0.00247337, -0.00335263, -0.00665982, -0.00560206, -0.0181659
0.0420532, 0.10773, -0.773931, -0.917625, -1.45811, -0.625812, 1.06961, -0.256695, -0.000248306, 0.00190374, -0.0309649, -0.0328089, -0.0228692, -0.00310289, 0.0008805, -0.43267, 15.1642, 19.3397, 16.9992, 1.19678, 3.76895, -0.101552, 0.000728245, -0.00152292, 0.000994565, 0.00205704, -0.00231301, 0.000562522, 0.0089544, -0.00847845, -0.015307, -0.0234072, 0.0446568, -0.00478039, -0.0110952, -0.444693, 0.635, -3.13178, -0.0555699, -0.107674, -0.0103553, -0.443137, 0.634068, -3.12988, -0.0552065, -0.103924, 0.00161465, 0.00263255, -0.00357216, -0.00596146, -0.00602244, -0.0195115
0.0430532, 0.107721, -0.773925, -0.917656, -1.45813, -0.625842, 1.0696, -0.256695, -0.00271001, 0.00380185, -0.0312761, -0.0303056, -0.0261762, -0.00288697, 0.000827562, -0.317619, 15.1999, 19.4111, 16.9992, 1.18396, 3.79001, -0.10796, 0.000714223, -0.00151348, 0.00100832, 0.00207413, -0.00237116, 0.000595063, 0.0108038, -0.00916361, -0.0142334, -0.0197932, 0.0473857, -0.00940912, -0.0110935, -0.44469, 0.634997, -3.13177, -0.0555706, -0.107688, -0.0103663, -0.443144, 0.634049, -3.12986, -0.0551577, -0.103846, 0.00171879, 0.00279613, -0.00379814, -0.00775021, -0.00661783, -0.0187981
0.0440532, 0.107719, -0.773916, -0.917683, -1.45817, -0.625866, 1.0696, -0.256693, -0.00169659, 0.0046173, -0.0283348, -0.0313147, -0.0236742, -0.00276731, 7.9392e-05, -0.317619, 15.1285, 19.4864, 17.1103, 1.16565, 3.81198, -0.0951428, 0.000708432, -0.00150575, 0.00102289, 0.00209425, -0.00243525, 0.00061269, 0.00854843, -0.00843882, -0.013454, -0.0189926, 0.046848, -0.00278503, -0.0110917, -0.444687, 0.634993, -3.13176, -0.0555714, -0.107702, -0.0103691, -0.443149, 0.63403, -3.12983, -0.0551322, -0.103759, 0.00182607, 0.00296406, -0.00403052, -0.0054734, -0.0056529, -0.0180934
0.0450532, 0.10771, -0.773908, -0.917703, -1.45821, -0.625891, 1.0696, -0.256699, -0.00281173, 0.00650777, -0.0233518, -0.0310923, -0.0217839, -0.00318894, -0.00214932, -0.242241, 15.1285, 19.4507, 17.1857, 1.14734, 3.84768, -0.0356336, 0.000700769, -0.00149929, 0.00103437, 0.0021079, -0.00249819, 0.000625524, 0.00668509, -0.00729333, -0.0116545, -0.0161468, 0.0472099, 0.0038455, -0.0110899, -0.444684, 0.634989, -3.13175, -0.0555722, -0.107718, -0.0103738, -0.443152, 0.634014, -3.12981, -0.055114, -0.103675, 0.00193648, 0.00313629, -0.00426926, -0.00366932, -0.00428593, -0.0164017
0.0460532, 0.107705, -0.773898, -0.917731, -1.45823, -0.625926, 1.06959, -0.256692, -0.00494496, 0.00893019, -0.0256411, -0.0300429, -0.0259139, -0.00373589, 0.00077252, -0.242241, 15.0888, 19.5261, 17.2214, 1.14734, 3.89071, -0.0951428, 0.000689415, -0.00148989, 0.00104649, 0.00212024, -0.0025679, 0.000660864, 0.0088162, -0.00823425, -0.0116239, -0.0148615, 0.0525192, -0.00451069, -0.0110879, -0.444681, 0.634984, -3.13174, -0.0555731, -0.107735, -0.0103819, -0.443159, 0.633997, -3.12979, -0.0550609, -0.103582, 0.00205002, 0.00331277, -0.00451432, -0.00564889, -0.00512487, -0.016769
0.0470532, 0.107701, -0.773889, -0.917756, -1.45826, -0.62596, 1.06959, -0.256693, -0.00747885, 0.00742194, -0.0270321, -0.0293056, -0.0289879, -0.00331657, 0.000990745, -0.206535, 15.0531, 19.5975, 17.2571, 1.14734, 3.91269, -0.10796, 0.000679341, -0.00148108, 0.00105821, 0.0021325, -0.00263813, 0.00068368, 0.0116568, -0.00911738, -0.0114756, -0.0130513, 0.0527798, -0.00917855, -0.0110858, -0.444678, 0.63498, -3.13173, -0.055574, -0.107752, -0.0103887, -0.443164, 0.63398, -3.12978, -0.0550273, -0.103488, 0.00216668, 0.00349346, -0.00476563, -0.00834281, -0.00592783, -0.0170736
0.0480532, 0.107691, -0.773883, -0.917783, -1.4583, -0.625999, 1.06958, -0.256699, -0.00717111, 0.00776692, -0.0289853, -0.0283588, -0.0316127, -0.00327134, -0.00178015, -0.131157, 15.0888, 19.7086, 17.4078, 1.16015, 3.94107, -0.0420422, 0.000666403, -0.00147098, 0.00107244, 0.00214435, -0.00271262, 0.00070814, 0.0128594, -0.0100401, -0.0114671, -0.0120592, 0.0546457, -0.00832259, -0.0110835, -0.444674, 0.634975, -3.13172, -0.055575, -0.107771, -0.0103981, -0.443171, 0.63396, -3.12976, -0.0549912, -0.103389, 0.00228643, 0.0036783, -0.00502317, -0.00938955, -0.00670739, -0.0174115
0.0490532, 0.107681, -0.773879, -0.917805, -1.45834, -0.626034, 1.06958, -0.256694, -0.00778848, 0.00403586, -0.0285211, -0.0288695, -0.0333181, -0.00296764, 3.45067e-05, -0.0161054, 15.1642, 19.7483, 17.4832, 1.16565, 3.96213, -0.0750012, 0.000653268, -0.00146224, 0.00108307, 0.00215291, -0.00278022, 0.000740023, 0.0144225, -0.0104166, -0.0113094, -0.0107151, 0.0524597, -0.00991213, -0.0110812, -0.44467, 0.634969, -3.13171, -0.0555761, -0.10779, -0.0104078, -0.443176, 0.633943, -3.12974, -0.0549435, -0.103302, 0.00240928, 0.00386724, -0.00528689, -0.0108223, -0.00695094, -0.0176282
0.0500532, 0.107681, -0.773867, -0.917828, -1.45837, -0.626075, 1.06957, -0.256693, -0.00763775, 0.00399165, -0.0260056, -0.0299474, -0.0357612, -0.00730659, 0.000260791, -0.0557783, 15.1285, 19.8237, 17.5943, 1.20318, 3.97677, -0.0814099, 0.000646226, -0.00145289, 0.00109482, 0.00216154, -0.00286418, 0.000759846, 0.0143909, -0.00954437, -0.0110267, -0.0118172, 0.0571335, -0.00763647, -0.0110787, -0.444666, 0.634964, -3.1317, -0.0555772, -0.107811, -0.0104112, -0.443182, 0.633926, -3.12973, -0.0549147, -0.103191, 0.00253522, 0.00406024, -0.00555673, -0.0107152, -0.0058875, -0.0176086
0.0510532, 0.107668, -0.773857, -0.917852, -1.4584, -0.626113, 1.06957, -0.256696, -0.00822245, 0.00611857, -0.0249043, -0.0291786, -0.0314024, -0.00632445, -0.000775255, 0.059273, 15.1285, 19.9347, 17.634, 1.20318, 4.00516, -0.0557752, 0.000631292, -0.00144306, 0.00110436, 0.00216676, -0.00293897, 0.000792406, 0.0129678, -0.00918825, -0.0100115, -0.0110023, 0.0549916, -0.00357725, -0.0110761, -0.444662, 0.634958, -3.13168, -0.0555784, -0.107832, -0.0104224, -0.443188, 0.633909, -3.12971, -0.054866, -0.103095, 0.00266423, 0.00425725, -0.00583265, -0.00924959, -0.00529332, -0.0167718
0.0520532, 0.107662, -0.773853, -0.917876, -1.45843, -0.626155, 1.06957, -0.256696, -0.00888689, 0.00607165, -0.0208127, -0.0293441, -0.0282178, -0.00920019, -0.000516596, 0.059273, 15.1999, 20.0458, 17.7054, 1.20868, 4.00516, -0.0557752, 0.000618109, -0.0014324, 0.001115, 0.00217158, -0.00301467, 0.000820342, 0.0117262, -0.00767863, -0.00883898, -0.011724, 0.053993, 0.00132686, -0.0110734, -0.444658, 0.634952, -3.13167, -0.0555796, -0.107855, -0.0104317, -0.443195, 0.633892, -3.1297, -0.0548245, -0.102998, 0.0027963, 0.00445821, -0.00611461, -0.00801386, -0.00355022, -0.0157892
0.0530532, 0.107655, -0.773841, -0.917896, -1.45847, -0.626193, 1.06956, -0.256691, -0.0104701, 0.0086975, -0.0182578, -0.0295574, -0.0348568, -0.00888613, 0.0013512, 0.0949785, 15.1642, 20.0458, 17.7808, 1.19678, 4.06283, -0.101552, 0.000608015, -0.00142352, 0.00112396, 0.00217735, -0.0030965, 0.000850119, 0.0121526, -0.00808617, -0.00770321, -0.00609196, 0.0615959, -0.00212698, -0.0110705, -0.444653, 0.634946, -3.13165, -0.0555809, -0.107878, -0.010438, -0.443199, 0.633876, -3.12968, -0.0547803, -0.102894, 0.00293143, 0.00466308, -0.00640257, -0.00836711, -0.0037775, -0.0149764
0.0540532, 0.107648, -0.773826, -0.917919, -1.45849, -0.626238, 1.06955, -0.256695, -0.00762487, 0.010557, -0.0190347, -0.0258354, -0.0353527, -0.00743757, -0.00154047, 0.0949785, 15.1285, 20.1569, 17.8204, 1.19037, 4.09122, -0.0356336, 0.000595283, -0.0014129, 0.00113232, 0.00217886, -0.00318366, 0.000878507, 0.0114226, -0.00902406, -0.00637428, -0.00250793, 0.0608249, 0.00200815, -0.0110675, -0.444648, 0.63494, -3.13164, -0.0555822, -0.107903, -0.0104467, -0.443206, 0.63386, -3.12967, -0.0547382, -0.102782, 0.00306961, 0.00487181, -0.00669647, -0.00755877, -0.00449198, -0.0139005
0.0550532, 0.107638, -0.773821, -0.917937, -1.45852, -0.626281, 1.06955, -0.256694, -0.00963837, 0.00929115, -0.0146609, -0.0260154, -0.0404773, -0.0055764, -0.00102688, 0.134651, 15.1999, 20.1926, 17.8561, 1.18396, 4.09854, -0.0356336, 0.000580721, -0.00140269, 0.00113899, 0.00217609, -0.00326031, 0.000909981, 0.0121854, -0.00927301, -0.00469505, 0.00475356, 0.0625152, 0.00162905, -0.0110644, -0.444643, 0.634933, -3.13162, -0.0555837, -0.107929, -0.0104572, -0.443211, 0.633846, -3.12967, -0.0546912, -0.102687, 0.00321082, 0.00508435, -0.00699628, -0.00828443, -0.0045698, -0.0125796
0.0560532, 0.107631, -0.773806, -0.917956, -1.45855, -0.626321, 1.06954, -0.256687, -0.0102038, 0.00874412, -0.0155722, -0.0270453, -0.0389676, -0.00397766, 0.00151954, 0.134651, 15.1285, 20.268, 17.9315, 1.16015, 4.09854, -0.0951428, 0.000570799, -0.00139317, 0.00114637, 0.00217751, -0.00334864, 0.000942392, 0.0123462, -0.00970846, -0.00481495, 0.0049251, 0.0608334, 0.000275501, -0.0110611, -0.444638, 0.634926, -3.13161, -0.0555852, -0.107956, -0.010463, -0.443216, 0.63383, -3.12965, -0.054643, -0.102576, 0.00335505, 0.00530066, -0.00730195, -0.00827663, -0.00479318, -0.0130191
0.0570532, 0.107628, -0.773794, -0.917974, -1.45857, -0.626365, 1.06953, -0.25669, -0.0066058, 0.00958256, -0.0153279, -0.0252159, -0.0433817, -0.00699202, -0.00020762, 0.0949785, 15.1285, 20.3077, 17.8918, 1.16015, 4.08389, -0.0621838, 0.000559214, -0.00138191, 0.00114991, 0.0021681, -0.00342809, 0.000967078, 0.0121227, -0.0100197, -0.00420301, 0.00590517, 0.065464, 0.00393682, -0.0110577, -0.444633, 0.634918, -3.13159, -0.0555867, -0.107984, -0.0104705, -0.443222, 0.633818, -3.12965, -0.0546065, -0.10248, 0.0035023, 0.00552068, -0.00761342, -0.00793732, -0.0048817, -0.0127071
0.0580532, 0.107624, -0.773785, -0.917995, -1.4586, -0.626405, 1.06953, -0.256691, -0.00411712, 0.00630571, -0.0160173, -0.0258911, -0.0411159, -0.00519828, -0.00037573, 0.059273, 15.1642, 20.3791, 17.9315, 1.13544, 4.08389, -0.0557752, 0.000547423, -0.00137068, 0.00115552, 0.00216468, -0.00350814, 0.00099312, 0.0116017, -0.0105311, -0.00431677, 0.0058665, 0.0601724, 0.00874587, -0.0110541, -0.444627, 0.63491, -3.13157, -0.0555884, -0.108013, -0.0104778, -0.443228, 0.633804, -3.12964, -0.0545681, -0.102384, 0.00365255, 0.00574437, -0.00793067, -0.00724141, -0.00514967, -0.0131055
0.0590532, 0.107618, -0.773772, -0.918009, -1.45863, -0.626446, 1.06952, -0.256689, -0.00222808, 0.00476822, -0.0148475, -0.0273259, -0.0397509, -0.00832414, 0.000461622, 0.0196001, 15.1642, 20.3791, 18.0069, 1.11713, 4.07748, -0.0750012, 0.000537831, -0.00136116, 0.00115956, 0.00215868, -0.00359455, 0.00101773, 0.010764, -0.00979376, -0.00447372, 0.00293659, 0.0601874, 0.0133373, -0.0110504, -0.444621, 0.634902, -3.13155, -0.0555901, -0.108044, -0.010483, -0.443232, 0.633791, -3.12963, -0.054532, -0.10228, 0.0038058, 0.00597168, -0.00825364, -0.00626839, -0.00415453, -0.0135229
0.0600532, 0.107611, -0.773766, -0.918027, -1.45865, -0.626496, 1.06951, -0.256685, -0.0017939, 0.00502879, -0.0149207, -0.0263852, -0.0405082, -0.00675118, 0.000545131, 0.0196001, 15.2356, 20.4188, 18.0069, 1.14734, 4.09122, -0.0814099, 0.000521157, -0.00134915, 0.00116304, 0.00214833, -0.00367789, 0.00105568, 0.0108347, -0.0104676, -0.00373188, 0.00576554, 0.0597362, 0.0140702, -0.0110465, -0.444615, 0.634894, -3.13153, -0.0555919, -0.108076, -0.0104951, -0.443238, 0.633778, -3.12963, -0.0544751, -0.102182, 0.00396204, 0.00620257, -0.00858229, -0.00620947, -0.0046061, -0.0131211
0.0610532, 0.107614, -0.773762, -0.918048, -1.45867, -0.626541, 1.06951, -0.256692, -0.00201243, 0.00132965, -0.0158196, -0.026685, -0.0447702, -0.00502063, -0.00109462, -0.0914839, 15.3467, 20.4941, 18.0426, 1.15375, 4.09122, -0.0420422, 0.000508942, -0.00133692, 0.00116824, 0.00214443, -0.00375943, 0.00107151, 0.0130759, -0.0117252, -0.00370885, 0.00881909, 0.0587538, 0.0142388, -0.0110424, -0.444609, 0.634885, -3.13151, -0.0555937, -0.108109, -0.0105024, -0.443245, 0.633764, -3.12962, -0.0544528, -0.102087, 0.00412125, 0.00643698, -0.00891658, -0.00824127, -0.00570745, -0.0135959
0.0620532, 0.107608, -0.773749, -0.918063, -1.45869, -0.626588, 1.0695, -0.256689, -0.00178046, 0.00447861, -0.0106298, -0.0260356, -0.0431753, -0.00815899, 0.000490968, -0.0914839, 15.3467, 20.4545, 18.0426, 1.16015, 4.08389, -0.0750012, 0.000495041, -0.00132528, 0.00116879, 0.00212988, -0.00384718, 0.00110621, 0.0106505, -0.0101783, -0.00184635, 0.0100296, 0.0617321, 0.0185788, -0.0110382, -0.444602, 0.634876, -3.13149, -0.0555957, -0.108143, -0.0105116, -0.44325, 0.633753, -3.12962, -0.054401, -0.101985, 0.00428343, 0.00667487, -0.00925645, -0.00584432, -0.00385488, -0.0119006
0.0630532, 0.107607, -0.773741, -0.918083, -1.45871, -0.626632, 1.06949, -0.256687, -0.00058808, 0.00357288, -0.0159518, -0.0215837, -0.041822, -0.0107795, 0.00552651, -0.131157, 15.3467, 20.5298, 18.0069, 1.16015, 4.08389, -0.0878186, 0.000480381, -0.00131277, 0.00117011, 0.00211949, -0.00392897, 0.00113763, 0.0131969, -0.0111351, -0.00194131, 0.00677225, 0.0586003, 0.0103921, -0.0110339, -0.444596, 0.634867, -3.13147, -0.0555977, -0.108178, -0.0105213, -0.443256, 0.633741, -3.12961, -0.0543545, -0.101893, 0.00444857, 0.0069162, -0.00960188, -0.00817719, -0.00465845, -0.0125234
0.0640532, 0.107612, -0.77374, -0.9181, -1.45873, -0.62668, 1.06948, -0.256689, 0.00195956, 0.00340179, -0.0148268, -0.0224967, -0.0410033, -0.00757837, 0.00261999, -0.242241, 15.4578, 20.5298, 18.0069, 1.16565, 4.07016, -0.0484509, 0.000467103, -0.00129913, 0.00117133, 0.00210403, -0.00400637, 0.00115936, 0.0112243, -0.0116569, -0.00134023, 0.00991407, 0.0568795, 0.018932, -0.0110293, -0.444589, 0.634857, -3.13145, -0.0555998, -0.108215, -0.0105294, -0.443263, 0.633729, -3.12961, -0.0543229, -0.10181, 0.00461665, 0.00716091, -0.0099528, -0.00606506, -0.00487115, -0.0121423
0.0650532, 0.10761, -0.77373, -0.918124, -1.45874, -0.626725, 1.06948, -0.256692, 0.00112124, 0.00594075, -0.0190873, -0.0200282, -0.043924, -0.0102728, 0.00180459, -0.242241, 15.4578, 20.6052, 18.0069, 1.14093, 4.06283, -0.0420422, 0.000451382, -0.00128503, 0.00117315, 0.00209351, -0.00409103, 0.00118971, 0.0137212, -0.0126365, -0.00154154, 0.00846114, 0.0616868, 0.014383, -0.0110246, -0.444581, 0.634847, -3.13142, -0.055602, -0.108254, -0.0105397, -0.443271, 0.633716, -3.1296, -0.0542782, -0.101716, 0.00478767, 0.00740896, -0.0103092, -0.00833445, -0.00568813, -0.0128792
0.0660532, 0.10761, -0.773718, -0.918144, -1.45876, -0.626772, 1.06947, -0.256683, 0.00060864, 0.00861887, -0.0202915, -0.0181902, -0.0421475, -0.00775653, 0.00339121, -0.242241, 15.4221, 20.6052, 18.0069, 1.13544, 4.06283, -0.0951428, 0.000437803, -0.00127105, 0.00117276, 0.00207593, -0.00417948, 0.00122832, 0.013446, -0.0134083, -0.00061343, 0.0110594, 0.0607268, 0.0126824, -0.0110198, -0.444574, 0.634836, -3.1314, -0.0556043, -0.108293, -0.0105479, -0.443278, 0.633705, -3.1296, -0.0542206, -0.101618, 0.00496161, 0.0076603, -0.010671, -0.00792245, -0.0062067, -0.0123018
0.0670532, 0.107615, -0.773718, -0.918156, -1.45877, -0.626818, 1.06946, -0.256683, 0.00206486, 0.00393459, -0.0172709, -0.0158807, -0.0403978, -0.0102666, 0.00215564, -0.317619, 15.5331, 20.5655, 17.9672, 1.11713, 4.05551, -0.0878186, 0.000424473, -0.001258, 0.00116984, 0.00205456, -0.00425405, 0.00124867, 0.013813, -0.0127005, 0.000894117, 0.0116627, 0.0544944, 0.0187626, -0.0110147, -0.444566, 0.634825, -3.13137, -0.0556067, -0.108334, -0.0105558, -0.443283, 0.633696, -3.1296, -0.0541911, -0.101543, 0.00513848, 0.00791489, -0.0110382, -0.0082406, -0.00527141, -0.0111865
0.0680532, 0.107619, -0.773707, -0.918173, -1.4588, -0.62686, 1.06946, -0.256689, 0.00129847, 0.00736299, -0.016041, -0.0167621, -0.0436301, -0.00720314, -0.000371115, -0.317619, 15.4935, 20.5655, 18.0426, 1.0979, 4.04086, -0.0356336, 0.000415035, -0.00124419, 0.00116983, 0.0020383, -0.0043428, 0.0012631, 0.0130041, -0.0134875, 0.00178188, 0.0170919, 0.0594635, 0.021813, -0.0110095, -0.444558, 0.634814, -3.13135, -0.0556092, -0.108376, -0.0105595, -0.443289, 0.633684, -3.1296, -0.0541713, -0.101447, 0.00531825, 0.00817268, -0.0114107, -0.0072875, -0.00577977, -0.0106233
0.0690576, 0.107621, -0.773702, -0.918202, -1.4588, -0.626905, 1.06945, -0.256686, 0.00173509, 0.00561988, -0.0177809, -0.0147971, -0.0425371, -0.00547802, 0.000829365, -0.357292, 15.4935, 20.6766, 18.0069, 1.10431, 4.04086, -0.0621838, 0.000395999, -0.00122712, 0.0011691, 0.00202179, -0.0044203, 0.00130369, 0.0140749, -0.0144357, 0.00235167, 0.0186778, 0.0549666, 0.0207189, -0.0110041, -0.44455, 0.634803, -3.13132, -0.0556118, -0.10842, -0.0105725, -0.443299, 0.633672, -3.1296, -0.0541108, -0.101371, 0.00550092, 0.00843363, -0.0117885, -0.00817775, -0.00650931, -0.0105139
0.0700576, 0.107629, -0.773691, -0.918217, -1.45882, -0.62695, 1.06945, -0.256681, 0.00287603, 0.00511523, -0.0154509, -0.0151045, -0.0409322, -0.00337907, 0.0023184, -0.43267, 15.4578, 20.6409, 18.0426, 1.0979, 4.0198, -0.10796, 0.000385965, -0.0012127, 0.00116587, 0.00199871, -0.00450884, 0.00132869, 0.0125405, -0.0144617, 0.00344729, 0.0217796, 0.0524329, 0.0245655, -0.0109985, -0.444541, 0.634791, -3.13129, -0.0556144, -0.108465, -0.0105765, -0.443305, 0.633662, -3.1296, -0.0540745, -0.101279, 0.00568647, 0.00869769, -0.0121715, -0.00653712, -0.00622733, -0.00969858
0.0710576, 0.107629, -0.773691, -0.918217, -1.45882, -0.62695, 1.06945, -0.256681, 0.00287603, 0.00511523, -0.0154509, -0.0151045, -0.0409322, -0.00337907, 0.0023184, -0.43267, 15.4578, 20.6409, 18.0426, 1.0979, 4.0198, -0.10796, 0.000380715, -0.00120413, 0.0011531, 0.00197235, -0.00453965, 0.00133005, 0.0127107, -0.0147192, 0.00385081, 0.0225604, 0.0525736, 0.0260792, -0.0109927, -0.444532, 0.634778, -3.13127, -0.0556172, -0.108512, -0.0105765, -0.443305, 0.633662, -3.1296, -0.0540745, -0.101279, 0.00587491, 0.00896481, -0.0125597, -0.00653712, -0.00622733, -0.00969858
0.0720576, 0.107635, -0.773677, -0.918265, -1.45885, -0.627038, 1.06944, -0.256689, 0.00120062, 0.00919624, -0.0191211, -0.0162646, -0.0360598, -0.00240213, 0.00214738, -0.468376, 15.4221, 20.7163, 18.1537, 1.0979, 4.03445, -0.0292249, 0.000354549, -0.0011795, 0.00116252, 0.00195984, -0.00467665, 0.00138057, 0.01227, -0.015101, 0.00314764, 0.0194244, 0.0535093, 0.026239, -0.0109867, -0.444523, 0.634765, -3.13124, -0.05562, -0.10856, -0.0105951, -0.443321, 0.633638, -3.12959, -0.0539995, -0.101113, 0.00606621, 0.00923495, -0.0129531, -0.00584423, -0.00631686, -0.0107662
0.0730576, 0.107635, -0.773677, -0.918265, -1.45885, -0.627038, 1.06944, -0.256689, 0.00120062, 0.00919624, -0.0191211, -0.0162646, -0.0360598, -0.00240213, 0.00214738, -0.468376, 15.4221, 20.7163, 18.1537, 1.0979, 4.03445, -0.0292249, 0.000348951, -0.00117042, 0.00114893, 0.00193182, -0.00470942, 0.00138204, 0.0124454, -0.0153642, 0.00356194, 0.0202248, 0.053655, 0.0277922, -0.0109806, -0.444514, 0.634752, -3.13121, -0.055623, -0.10861, -0.0105951, -0.443321, 0.633638, -3.12959, -0.0539995, -0.101113, 0.00626038, 0.00950806, -0.0133516, -0.00584423, -0.00631686, -0.0107662
0.0740576, 0.10764, -0.773666, -0.918287, -1.45886, -0.62708, 1.06944, -0.256681, 0.00254512, 0.0116751, -0.017311, -0.0119755, -0.0418063, -0.00232391, 0.00443589, -0.543754, 15.3467, 20.7163, 18.1537, 1.11072, 4.04819, -0.101552, 0.00033585, -0.00115341, 0.00114484, 0.00190763, -0.00479585, 0.00141675, 0.0127013, -0.0161998, 0.00586703, 0.0273132, 0.0577301, 0.0248324, -0.0109742, -0.444504, 0.634739, -3.13117, -0.055626, -0.108661, -0.0106014, -0.443329, 0.633628, -3.12959, -0.0539485, -0.10103, 0.00645739, 0.00978411, -0.0137552, -0.00603189, -0.00690641, -0.00889465
0.0750576, 0.10764, -0.773666, -0.918287, -1.45886, -0.62708, 1.06944, -0.256681, 0.00254512, 0.0116751, -0.017311, -0.0119755, -0.0418063, -0.00232391, 0.00443589, -0.543754, 15.3467, 20.7163, 18.1537, 1.11072, 4.04819, -0.101552, 0.000329895, -0.00114379, 0.00113041, 0.00187791, -0.00483062, 0.00141832, 0.0128818, -0.0164685, 0.00629197, 0.0281326, 0.0578807, 0.0264244, -0.0109676, -0.444494, 0.634725, -3.13114, -0.0556292, -0.108713, -0.0106014, -0.443329, 0.633628, -3.12959, -0.0539485, -0.10103, 0.00665724, 0.010063, -0.0141638, -0.00603189, -0.00690641, -0.00889465
0.0760576, 0.107652, -0.77365, -0.918354, -1.45889, -0.627206, 1.06942, -0.256682, 0.00361002, 0.0122527, -0.0188245, -0.0107676, -0.0388896, -0.0015331, 0.00206656, -0.658806, 15.2753, 20.6766, 18.2291, 1.0979, 4.07016, -0.0878186, 0.000293096, -0.0011107, 0.00114574, 0.00186294, -0.00500911, 0.00150226, 0.0125024, -0.0169319, 0.00671769, 0.0280173, 0.0552888, 0.0310913, -0.0109609, -0.444484, 0.63471, -3.13111, -0.0556325, -0.108767, -0.0106291, -0.443353, 0.633595, -3.12958, -0.0538222, -0.100805, 0.00685993, 0.0103448, -0.0145774, -0.00546393, -0.00707858, -0.00886133
0.0770576, 0.107651, -0.773644, -0.918381, -1.45891, -0.627249, 1.06942, -0.256681, 0.0014728, 0.013045, -0.0203693, -0.00878609, -0.038475, -0.00159836, 0.00100599, -0.619133, 15.2356, 20.6766, 18.2648, 1.09241, 4.08389, -0.0750012, 0.000273684, -0.00109195, 0.0011419, 0.00183898, -0.00509489, 0.00153989, 0.0142255, -0.0174933, 0.00740806, 0.0289221, 0.054715, 0.0296522, -0.0109539, -0.444473, 0.634696, -3.13108, -0.0556359, -0.108823, -0.010641, -0.443362, 0.633583, -3.12958, -0.053767, -0.100728, 0.00706543, 0.0106294, -0.0149959, -0.0070042, -0.00742242, -0.0087159
0.0780576, 0.10766, -0.773634, -0.918412, -1.45891, -0.627291, 1.06942, -0.256684, 0.00366872, 0.0112157, -0.0232855, -0.00874231, -0.0380656, -0.00138759, 0.000510556, -0.734184, 15.1642, 20.752, 18.2291, 1.086, 4.09122, -0.0685925, 0.000256847, -0.00107191, 0.00113751, 0.00181583, -0.00518367, 0.00157017, 0.0148446, -0.0184237, 0.0069169, 0.0276268, 0.0527522, 0.031948, -0.0109468, -0.444463, 0.63468, -3.13104, -0.0556394, -0.10888, -0.0106502, -0.443372, 0.633571, -3.12957, -0.0537234, -0.100647, 0.00727374, 0.0109167, -0.0154193, -0.00734597, -0.00808236, -0.00967993
0.0790576, 0.107662, -0.773625, -0.918433, -1.45892, -0.627336, 1.06942, -0.256683, 0.00476145, 0.00987681, -0.0217845, -0.00568925, -0.0384907, -0.00123439, -7.64081e-05, -0.694511, 15.0888, 20.6766, 18.1934, 1.0979, 4.09854, -0.0557752, 0.000239668, -0.00105316, 0.00112918, 0.00178132, -0.00527208, 0.00160441, 0.015174, -0.0187384, 0.008652, 0.0313104, 0.049775, 0.0346666, -0.0109394, -0.444452, 0.634665, -3.131, -0.055643, -0.108939, -0.0106598, -0.44338, 0.633562, -3.12958, -0.0536734, -0.10057, 0.00748486, 0.0112067, -0.0158476, -0.00757248, -0.00813503, -0.0084037
0.0800576, 0.107665, -0.773619, -0.918466, -1.45893, -0.627379, 1.06941, -0.256677, 0.00658713, 0.0101785, -0.0244039, -0.00736206, -0.0429083, -0.000851477, 0.00168794, -0.694511, 15.0888, 20.752, 18.1934, 1.0979, 4.09854, -0.101552, 0.000218985, -0.00103227, 0.0011257, 0.0017589, -0.00536123, 0.00164839, 0.0157929, -0.0200349, 0.00784087, 0.0317397, 0.0546179, 0.0331612, -0.0109318, -0.44444, 0.634649, -3.13097, -0.0556467, -0.109, -0.0106723, -0.44339, 0.633548, -3.12957, -0.0536087, -0.100492, 0.00769877, 0.0114994, -0.0162807, -0.00787308, -0.00915237, -0.00969939
0.0810576, 0.107674, -0.773613, -0.918494, -1.45895, -0.627423, 1.06941, -0.256683, 0.0066178, 0.0105801, -0.0236452, -0.0118548, -0.0468158, -0.000317795, -0.00104617, -0.76989, 15.0888, 20.7163, 18.1934, 1.11072, 4.09122, -0.0420422, 0.000202335, -0.00101125, 0.00112044, 0.00172971, -0.00545184, 0.00167166, 0.0153889, -0.0204267, 0.00720548, 0.0328092, 0.0607663, 0.0386451, -0.010924, -0.444429, 0.634632, -3.13093, -0.0556505, -0.109062, -0.0106807, -0.4434, 0.633536, -3.12956, -0.0535762, -0.100414, 0.00791545, 0.0117947, -0.0167186, -0.00719565, -0.00922863, -0.0107471
0.0820576, 0.107685, -0.773606, -0.918528, -1.45895, -0.627463, 1.06941, -0.256684, 0.00652246, 0.0117321, -0.0226049, -0.0111512, -0.0444657, -0.00508593, -0.000910359, -0.845268, 15.0531, 20.7917, 18.1537, 1.11072, 4.09854, -0.0356336, 0.000183911, -0.000989595, 0.00111555, 0.00170684, -0.0055398, 0.00170394, 0.0151369, -0.0193921, 0.00780546, 0.0296911, 0.0621986, 0.0416789, -0.010916, -0.444417, 0.634615, -3.13089, -0.0556545, -0.109126, -0.0106905, -0.443411, 0.633522, -3.12955, -0.0535299, -0.100341, 0.00813491, 0.0120926, -0.0171612, -0.00680389, -0.00789405, -0.0105677
0.0830576, 0.107691, -0.773596, -0.918566, -1.45896, -0.627505, 1.0694, -0.256678, 0.00553684, 0.00946223, -0.0240045, -0.0109089, -0.0424214, -0.003005, 0.00134421, -0.884941, 15.0174, 20.8274, 18.118, 1.10431, 4.07748, -0.0878186, 0.000163966, -0.000966745, 0.0011112, 0.00168292, -0.0056337, 0.00174885, 0.0163405, -0.0201341, 0.00807373, 0.0306128, 0.0574075, 0.0399817, -0.0109077, -0.444404, 0.634598, -3.13085, -0.0556585, -0.109191, -0.0107016, -0.443422, 0.633508, -3.12954, -0.0534642, -0.100261, 0.00835714, 0.012393, -0.0176085, -0.00777385, -0.00838038, -0.010838
0.0840576, 0.107696, -0.773589, -0.918594, -1.45897, -0.627546, 1.06941, -0.256679, 0.00295859, 0.0078404, -0.0255266, -0.0105636, -0.046528, -0.0017565, 0.000435169, -0.845268, 14.9777, 20.752, 18.0783, 1.12262, 4.06283, -0.0750012, 0.000145629, -0.000945098, 0.00110344, 0.00164973, -0.00572471, 0.00178079, 0.0194086, -0.021402, 0.00834977, 0.0336722, 0.0582695, 0.0367824, -0.0108992, -0.444392, 0.63458, -3.13081, -0.0556627, -0.109258, -0.0107112, -0.443432, 0.633496, -3.12954, -0.0534185, -0.100187, 0.00858211, 0.0126959, -0.0180604, -0.0105816, -0.00945557, -0.0112394
0.0850576, 0.107706, -0.77358, -0.918636, -1.45898, -0.627588, 1.0694, -0.256684, 0.00618797, 0.00651532, -0.0302987, -0.0144355, -0.0442812, -0.00112151, -0.00115764, -0.884941, 14.942, 20.8274, 18.0783, 1.12262, 4.05551, -0.0356336, 0.000124665, -0.000920928, 0.00109985, 0.00162798, -0.00582069, 0.00181556, 0.0188192, -0.0223464, 0.0061935, 0.028566, 0.057862, 0.0428128, -0.0108905, -0.444379, 0.634562, -3.13077, -0.055667, -0.109327, -0.0107227, -0.443444, 0.63348, -3.12953, -0.0533689, -0.100107, 0.00880983, 0.0130012, -0.018517, -0.00958259, -0.0100528, -0.0138143
0.0860576, 0.107722, -0.773572, -0.918676, -1.459, -0.627633, 1.0694, -0.256685, 0.0102538, 0.00784889, -0.0329625, -0.0139584, -0.0480235, -0.000134113, -1.80392e-05, -0.996025, 14.942, 20.8631, 18.0783, 1.14093, 4.03445, -0.0557752, 0.000106871, -0.000896208, 0.00109586, 0.00160346, -0.00592035, 0.00184637, 0.0184137, -0.0238692, 0.00607778, 0.0303672, 0.0615534, 0.0434573, -0.0108816, -0.444366, 0.634543, -3.13072, -0.0556715, -0.109398, -0.0107309, -0.443456, 0.633464, -3.12952, -0.0533255, -0.100023, 0.00904028, 0.013309, -0.0189781, -0.00888545, -0.0112517, -0.0143752
0.0870576, 0.107729, -0.773562, -0.918717, -1.45901, -0.627673, 1.06939, -0.256678, 0.00970977, 0.00970071, -0.0372712, -0.0138143, -0.0454111, -0.00513374, 0.00145184, -0.960319, 14.9063, 20.8631, 18.0783, 1.14093, 4.04086, -0.0951428, 8.56678e-05, -0.000872659, 0.00109154, 0.00158261, -0.00602061, 0.00189177, 0.0197422, -0.0237416, 0.0050317, 0.0232859, 0.0642164, 0.0411363, -0.0108725, -0.444352, 0.634524, -3.13068, -0.0556761, -0.10947, -0.0107423, -0.443467, 0.633447, -3.1295, -0.0532597, -0.0999395, 0.00927346, 0.0136191, -0.0194438, -0.0099085, -0.010851, -0.0159783
0.0880583, 0.107746, -0.773556, -0.918765, -1.45902, -0.627712, 1.06939, -0.25668, 0.0119814, 0.0102055, -0.038469, -0.0119069, -0.0431468, -0.00339761, 0.000226256, -1.0357, 14.9063, 20.9028, 18.0069, 1.14093, 4.02713, -0.0750012, 6.50821e-05, -0.000845811, 0.00108742, 0.00155986, -0.00611292, 0.00192706, 0.0189515, -0.0244973, 0.00586216, 0.0248894, 0.0611433, 0.0456505, -0.0108631, -0.444339, 0.634504, -3.13064, -0.0556808, -0.109544, -0.0107527, -0.44348, 0.63343, -3.12948, -0.0532097, -0.0998703, 0.00950935, 0.0139315, -0.0199139, -0.00891523, -0.0112742, -0.0155721
0.0890586, 0.107761, -0.773547, -0.918805, -1.45903, -0.627752, 1.06939, -0.25668, 0.0128095, 0.00754756, -0.0404017, -0.0130989, -0.042511, -0.00235662, 0.0001541, -1.07537, 14.9063, 20.8631, 18.0426, 1.16015, 4.0198, -0.0750012, 4.79454e-05, -0.000820511, 0.00108266, 0.00153379, -0.00621408, 0.00195676, 0.0197484, -0.0252939, 0.00541082, 0.0242841, 0.058543, 0.0478505, -0.0108534, -0.444325, 0.634484, -3.13059, -0.0556856, -0.10962, -0.0107595, -0.443492, 0.633413, -3.12947, -0.0531684, -0.0997893, 0.00974794, 0.0142462, -0.0203885, -0.00941107, -0.0117795, -0.0165606
0.0900586, 0.107776, -0.773533, -0.918853, -1.45904, -0.627794, 1.06939, -0.256682, 0.0156057, 0.0136326, -0.0396716, -0.0112687, -0.0459662, -0.00664812, 0.000342539, -1.07537, 14.8309, 20.8631, 17.9672, 1.16015, 4.0198, -0.0814099, 2.70279e-05, -0.000794118, 0.00107774, 0.00151282, -0.0063219, 0.00199508, 0.0181648, -0.0251237, 0.00644674, 0.0248136, 0.06838, 0.0502438, -0.0108436, -0.44431, 0.634463, -3.13054, -0.0556906, -0.109698, -0.0107698, -0.443505, 0.633396, -3.12945, -0.0531141, -0.0996992, 0.00998923, 0.0145631, -0.0208674, -0.00766954, -0.0112472, -0.015896
0.0910586, 0.107792, -0.773526, -0.918907, -1.45906, -0.627835, 1.06939, -0.256684, 0.018666, 0.0122004, -0.0469349, -0.0125785, -0.0444837, -0.00503657, -0.00122787, -1.11108, 14.8706, 20.9385, 18.0069, 1.17847, 4.0198, -0.0420422, 5.01275e-06, -0.000766096, 0.00107681, 0.00149674, -0.00642764, 0.00203097, 0.019077, -0.0269828, 0.00448065, 0.020761, 0.0664127, 0.0526096, -0.0108335, -0.444295, 0.634442, -3.13049, -0.0556957, -0.109777, -0.0107807, -0.443519, 0.633374, -3.12943, -0.0530639, -0.099614, 0.0102332, 0.0148823, -0.0213508, -0.00813115, -0.0127989, -0.0184205
0.0920586, 0.107805, -0.773514, -0.918957, -1.45907, -0.627872, 1.06938, -0.256684, 0.0170043, 0.0131355, -0.0508115, -0.0116425, -0.0431589, -0.00353982, -0.00105456, -1.11108, 14.8309, 20.9385, 17.9672, 1.19037, 4.01248, -0.0356336, -1.63983e-05, -0.000738855, 0.00107209, 0.00147578, -0.00653247, 0.00207101, 0.0207762, -0.0281509, 0.00439037, 0.0206291, 0.0653338, 0.0498759, -0.0108231, -0.44428, 0.634421, -3.13044, -0.0557009, -0.109858, -0.010791, -0.443532, 0.633356, -3.1294, -0.0530072, -0.0995322, 0.0104799, 0.0152035, -0.0218384, -0.00953024, -0.0137041, -0.0191285
0.0930586, 0.107817, -0.773504, -0.919011, -1.45909, -0.62791, 1.06938, -0.256682, 0.0171652, 0.0129, -0.0523227, -0.0159706, -0.0418715, -0.00242864, -0.00022729, -1.0357, 14.8309, 21.0138, 18.0069, 1.19678, 4.00516, -0.0484509, -3.89953e-05, -0.000711083, 0.00107092, 0.00146161, -0.00664326, 0.00211266, 0.0202248, -0.0285459, 0.00323556, 0.0185729, 0.0666492, 0.0528128, -0.0108125, -0.444265, 0.634399, -3.13039, -0.0557063, -0.109941, -0.0108019, -0.443545, 0.633333, -3.12938, -0.0529485, -0.0994426, 0.0107292, 0.0155269, -0.0223304, -0.00863622, -0.0137447, -0.0207391
0.0940586, 0.107835, -0.773495, -0.919063, -1.45911, -0.627948, 1.06938, -0.256678, 0.0160817, 0.0118439, -0.0524953, -0.0151146, -0.041489, -0.00160284, 0.00130731, -1.0357, 14.8706, 21.0496, 18.0069, 1.2215, 3.99783, -0.0878186, -5.89641e-05, -0.000683016, 0.00106872, 0.00144575, -0.00675333, 0.00215023, 0.0213215, -0.0290442, 0.00403241, 0.0204674, 0.0645334, 0.0517409, -0.0108016, -0.444249, 0.634376, -3.13034, -0.0557118, -0.110026, -0.0108101, -0.443558, 0.633311, -3.12935, -0.0528962, -0.099356, 0.0109812, 0.0158524, -0.0228265, -0.00951548, -0.0139641, -0.0205238
0.0950586, 0.107853, -0.773487, -0.919116, -1.45912, -0.627986, 1.06937, -0.256682, 0.0174173, 0.0111919, -0.0516337, -0.0176593, -0.0409103, -0.00594389, -0.000314674, -0.996025, 14.9063, 21.0496, 18.0069, 1.2334, 3.99783, -0.0557752, -7.98271e-05, -0.000654674, 0.00106627, 0.00142964, -0.00686487, 0.00218041, 0.0207041, -0.0282264, 0.00357911, 0.0164443, 0.0674614, 0.0588683, -0.0107905, -0.444233, 0.634353, -3.13029, -0.0557175, -0.110113, -0.0108189, -0.443571, 0.633289, -3.12932, -0.0528556, -0.0992691, 0.0112358, 0.0161798, -0.0233269, -0.00864281, -0.0127932, -0.0214293
0.0960586, 0.107871, -0.773478, -0.919178, -1.45914, -0.628025, 1.06936, -0.256684, 0.0154634, 0.010853, -0.0531527, -0.0226965, -0.0366029, -0.00868658, -0.00217604, -0.960319, 14.942, 21.1249, 18.0069, 1.27002, 3.9841, -0.00267457, -0.000103728, -0.000624757, 0.00106574, 0.00141904, -0.00698095, 0.00221892, 0.0207995, -0.0274843, 0.00194154, 0.00946569, 0.0687754, 0.0642251, -0.0107792, -0.444217, 0.634329, -3.13024, -0.0557233, -0.110202, -0.0108302, -0.443585, 0.633264, -3.12928, -0.0528024, -0.0991766, 0.011493, 0.0165093, -0.0238314, -0.00839238, -0.0117092, -0.0235709
0.0970586, 0.107887, -0.773463, -0.919234, -1.45916, -0.628061, 1.06936, -0.256679, 0.0132072, 0.0122787, -0.0546059, -0.0256072, -0.0372715, -0.00685423, 0.000991042, -0.884941, 14.9063, 21.0892, 17.9672, 1.28284, 3.99142, -0.0685925, -0.000124667, -0.000595956, 0.00106295, 0.00140522, -0.00710067, 0.00226167, 0.0214042, -0.0282168, 0.00145546, 0.0100512, 0.0719332, 0.0608488, -0.0107676, -0.4442, 0.634305, -3.13018, -0.0557293, -0.110292, -0.0108386, -0.443598, 0.633241, -3.12925, -0.0527427, -0.0990805, 0.0117529, 0.0168407, -0.0243401, -0.00867479, -0.0121262, -0.0246154
0.0980586, 0.107906, -0.773455, -0.919295, -1.45919, -0.628096, 1.06935, -0.256682, 0.015486, 0.00755446, -0.0510588, -0.0266523, -0.037785, -0.00621458, -8.50453e-05, -0.845268, 14.9777, 21.1249, 18.0069, 1.30115, 4.0198, -0.0484509, -0.00014643, -0.000566655, 0.00106387, 0.00139981, -0.00722122, 0.00229199, 0.0207383, -0.0281269, 0.00248935, 0.0130527, 0.0680403, 0.069196, -0.0107557, -0.444183, 0.634281, -3.13012, -0.0557354, -0.110385, -0.0108472, -0.443611, 0.633214, -3.12921, -0.0527027, -0.0989846, 0.0120154, 0.017174, -0.0248528, -0.00782414, -0.0116903, -0.0240519
0.0990586, 0.107923, -0.773442, -0.91936, -1.45921, -0.628129, 1.06934, -0.256685, 0.0163987, 0.00581564, -0.0525835, -0.0262489, -0.033579, -0.00896296, -0.00198929, -0.76989, 14.9777, 21.2003, 18.0069, 1.31946, 4.01248, 0.00373412, -0.000169044, -0.000536387, 0.0010646, 0.0013952, -0.00734396, 0.00232773, 0.0211449, -0.0278478, 0.00238334, 0.00887647, 0.0645281, 0.0746583, -0.0107435, -0.444166, 0.634256, -3.13007, -0.0557417, -0.110479, -0.0108564, -0.443625, 0.633186, -3.12916, -0.0526546, -0.0988871, 0.0122806, 0.0175091, -0.0253696, -0.00796671, -0.0110897, -0.0247037
0.100059, 0.107938, -0.77343, -0.919418, -1.45924, -0.628162, 1.06933, -0.256676, 0.0163107, 0.00763455, -0.0508797, -0.0282372, -0.0346671, -0.00723907, 0.00135271, -0.658806, 14.9777, 21.1606, 17.9672, 1.32587, 4.02713, -0.0685925, -0.000190836, -0.000507241, 0.0010625, 0.00138417, -0.00746819, 0.00237275, 0.0199453, -0.0281127, 0.00302587, 0.0120191, 0.0677352, 0.0750425, -0.0107311, -0.444148, 0.63423, -3.13001, -0.0557481, -0.110576, -0.0108648, -0.443637, 0.633161, -3.12912, -0.0525921, -0.0987895, 0.0125483, 0.0178461, -0.0258904, -0.00653877, -0.0109819, -0.0245037
0.101059, 0.107957, -0.77342, -0.919484, -1.45927, -0.628193, 1.06932, -0.25668, 0.017872, 0.00806839, -0.055539, -0.0306041, -0.03097, -0.0058756, 0.000427191, -0.619133, 15.0174, 21.236, 17.9672, 1.33777, 4.04086, -0.0557752, -0.00021326, -0.000476852, 0.00106374, 0.00138281, -0.00759342, 0.00240301, 0.0195141, -0.0290435, 0.0016114, 0.008178, 0.0666621, 0.0790008, -0.0107184, -0.44413, 0.634204, -3.12995, -0.0557547, -0.110674, -0.0108732, -0.44365, 0.633131, -3.12907, -0.0525529, -0.0986918, 0.0128186, 0.0181849, -0.0264151, -0.00570547, -0.0115436, -0.026419
0.102059, 0.107967, -0.773406, -0.919546, -1.4593, -0.628223, 1.06931, -0.256682, 0.0165695, 0.0102677, -0.0571711, -0.0323574, -0.0279479, -0.00874747, -0.00117319, -0.468376, 14.9777, 21.236, 17.9672, 1.34418, 4.03445, -0.0164075, -0.000237691, -0.000447718, 0.00106402, 0.00138099, -0.00772457, 0.00244117, 0.0195493, -0.0286218, 0.00103466, 0.00360446, 0.0694348, 0.0824371, -0.0107055, -0.444112, 0.634177, -3.12989, -0.0557614, -0.110774, -0.0108835, -0.443662, 0.633102, -3.12902, -0.0525018, -0.0985869, 0.0130915, 0.0185254, -0.0269437, -0.0054419, -0.010777, -0.027525
0.103059, 0.107989, -0.773394, -0.919608, -1.45933, -0.628253, 1.0693, -0.25668, 0.0160881, 0.0108763, -0.0583147, -0.0329658, -0.0305435, -0.01173, -0.000307351, -0.468376, 14.9777, 21.236, 17.9315, 1.34967, 4.04819, -0.0292249, -0.000257344, -0.000418171, 0.0010633, 0.00137763, -0.00785452, 0.00247136, 0.0208975, -0.0288559, 0.000863989, 0.00222588, 0.0741796, 0.081342, -0.0106922, -0.444093, 0.63415, -3.12983, -0.0557683, -0.110876, -0.0108888, -0.443673, 0.633074, -3.12897, -0.0524631, -0.0984859, 0.0133669, 0.0188676, -0.0274763, -0.00648976, -0.0107146, -0.0283281
0.104059, 0.108001, -0.773382, -0.919671, -1.45936, -0.628284, 1.06929, -0.256675, 0.0129671, 0.013514, -0.0594972, -0.0323452, -0.0330867, -0.00900228, 0.0012532, -0.357292, 15.0174, 21.236, 17.8561, 1.37439, 4.05551, -0.0685925, -0.000282723, -0.00038831, 0.00106223, 0.00137411, -0.00798777, 0.00251603, 0.0224493, -0.0300932, 0.0017161, 0.00675575, 0.0772148, 0.0763065, -0.0106787, -0.444074, 0.634122, -3.12976, -0.0557754, -0.110981, -0.0108995, -0.443685, 0.633046, -3.12892, -0.0524021, -0.0983817, 0.0136449, 0.0192114, -0.0280126, -0.00777408, -0.011671, -0.0281378
0.105059, 0.108017, -0.773374, -0.919732, -1.45939, -0.628314, 1.06928, -0.25668, 0.0115786, 0.00854407, -0.0603636, -0.0337569, -0.029855, -0.00668477, -0.000859918, -0.281914, 15.0888, 21.236, 17.8561, 1.38721, 4.05551, -0.0228162, -0.000305233, -0.000358193, 0.00106199, 0.00137029, -0.00812016, 0.00254208, 0.0239297, -0.0306266, 0.00166095, 0.00675498, 0.0698167, 0.0807641, -0.0106649, -0.444055, 0.634094, -3.1297, -0.0557826, -0.111087, -0.010907, -0.443696, 0.633016, -3.12887, -0.0523702, -0.0982811, 0.0139255, 0.0195569, -0.0285528, -0.008946, -0.0119103, -0.0288459
0.106059, 0.108035, -0.773359, -0.919791, -1.45943, -0.628337, 1.06926, -0.256685, 0.0122752, 0.0127869, -0.0601082, -0.0348343, -0.0271264, -0.00992427, -0.00104797, -0.281914, 15.0888, 21.2003, 17.8561, 1.3927, 4.06283, -0.00999879, -0.000322719, -0.00033001, 0.00106114, 0.00137036, -0.00825826, 0.00256009, 0.0220996, -0.0298647, 0.00182448, 0.00364169, 0.0745398, 0.0857777, -0.0106509, -0.444035, 0.634065, -3.12963, -0.05579, -0.111195, -0.0109093, -0.443705, 0.632986, -3.12881, -0.0523512, -0.0981733, 0.0142086, 0.019904, -0.0290967, -0.0068773, -0.0107392, -0.0290939
0.107059, 0.108041, -0.773343, -0.919857, -1.45946, -0.628363, 1.06924, -0.256679, 0.00995179, 0.0128873, -0.0595109, -0.0370285, -0.0256548, -0.0124296, 0.00170887, -0.166862, 15.0888, 21.2757, 17.7808, 1.41192, 4.07016, -0.0750012, -0.000349236, -0.00030063, 0.00106111, 0.00137436, -0.00840096, 0.00260868, 0.022688, -0.0292559, 0.00175427, 0.00123311, 0.0764036, 0.0850977, -0.0106365, -0.444015, 0.634036, -3.12957, -0.0557975, -0.111306, -0.0109203, -0.443715, 0.632955, -3.12875, -0.0522851, -0.09806, 0.0144943, 0.0202526, -0.0296444, -0.00719482, -0.00980237, -0.0297519
0.108059, 0.108054, -0.77333, -0.91991, -1.4595, -0.628388, 1.06923, -0.256681, 0.0133001, 0.0119957, -0.0582994, -0.0333579, -0.0243192, -0.0144777, -0.000556162, -0.131157, 15.1285, 21.2003, 17.7451, 1.42383, 4.08389, -0.0292249, -0.000369226, -0.000273074, 0.00105756, 0.00136965, -0.008542, 0.00263164, 0.0220614, -0.0291683, 0.00347966, 0.00248732, 0.0733566, 0.0925081, -0.0106219, -0.443995, 0.634006, -3.1295, -0.0558053, -0.111418, -0.0109248, -0.443723, 0.632927, -3.1287, -0.0522586, -0.097952, 0.0147825, 0.0206027, -0.0301957, -0.00640735, -0.00936155, -0.0285404
0.109059, 0.108063, -0.773312, -0.919973, -1.45954, -0.628413, 1.06921, -0.256683, 0.00939921, 0.012216, -0.0600866, -0.0335721, -0.0232571, -0.0102689, -0.000133405, -0.0914839, 15.1285, 21.236, 17.7054, 1.43573, 4.07016, -0.0356336, -0.000392026, -0.000243768, 0.00105682, 0.00137082, -0.00869198, 0.0026648, 0.0238596, -0.0303677, 0.00398428, 0.00574298, 0.0710782, 0.0896098, -0.010607, -0.443974, 0.633975, -3.12943, -0.0558132, -0.111532, -0.0109315, -0.443732, 0.632895, -3.12864, -0.0522168, -0.0978317, 0.0150731, 0.0209542, -0.0307507, -0.00790175, -0.0102778, -0.028734
0.110059, 0.10807, -0.773305, -0.920026, -1.45957, -0.628435, 1.06919, -0.256679, 0.00559828, 0.0121662, -0.0581433, -0.0349237, -0.0222759, -0.00819887, 0.00136913, -0.0161054, 15.2753, 21.1249, 17.5943, 1.44214, 4.08389, -0.0750012, -0.000416664, -0.000216713, 0.00105228, 0.00136815, -0.00882789, 0.00269752, 0.0245011, -0.0304091, 0.00500366, 0.00894784, 0.0702461, 0.0891243, -0.0105917, -0.443953, 0.633944, -3.12936, -0.0558213, -0.111649, -0.0109401, -0.443739, 0.632867, -3.12858, -0.0521756, -0.0977357, 0.0153663, 0.0213072, -0.0313093, -0.00831882, -0.0100003, -0.0283258
0.111059, 0.108079, -0.773289, -0.920082, -1.45962, -0.628455, 1.06917, -0.256676, 0.00768857, 0.00947042, -0.0563526, -0.0390784, -0.0212687, -0.0106762, 0.000912761, -0.0161054, 15.2753, 21.1249, 17.5943, 1.44214, 4.07748, -0.0750012, -0.000436951, -0.00018916, 0.00105024, 0.0013698, -0.00897821, 0.0027261, 0.0232921, -0.0296927, 0.00444895, 0.00595401, 0.0709321, 0.0978193, -0.0105762, -0.443931, 0.633913, -3.12929, -0.0558295, -0.111768, -0.0109439, -0.443746, 0.632835, -3.12852, -0.0521413, -0.097619, 0.015662, 0.0216616, -0.0318714, -0.00680427, -0.00888164, -0.0293526
0.112059, 0.108078, -0.773276, -0.920137, -1.45966, -0.628475, 1.06915, -0.256682, 0.00340464, 0.00876853, -0.0558225, -0.0420252, -0.0207816, -0.0118364, -0.00179899, 0.0949785, 15.3467, 21.1606, 17.5943, 1.44855, 4.05551, -0.00999879, -0.000462335, -0.00016189, 0.00104729, 0.00137051, -0.00912791, 0.00275404, 0.0249175, -0.0293783, 0.00429949, 0.00475729, 0.0725491, 0.10059, -0.0105604, -0.443909, 0.63388, -3.12921, -0.055838, -0.111888, -0.0109525, -0.443752, 0.632804, -3.12845, -0.0521082, -0.0975055, 0.0159602, 0.0220173, -0.0324371, -0.00812691, -0.00826783, -0.0301849
0.113059, 0.108078, -0.773276, -0.920137, -1.45966, -0.628475, 1.06915, -0.256682, 0.00340464, 0.00876853, -0.0558225, -0.0420252, -0.0207816, -0.0118364, -0.00179899, 0.0949785, 15.3467, 21.1606, 17.5943, 1.44855, 4.05551, -0.00999879, -0.000476917, -0.000140503, 0.00101323, 0.001302, -0.00920912, 0.00275867, 0.0251888, -0.029719, 0.00489666, 0.00586304, 0.0727991, 0.10279, -0.0105443, -0.443887, 0.633848, -3.12914, -0.0558466, -0.112011, -0.0109525, -0.443752, 0.632804, -3.12845, -0.0521082, -0.0975055, 0.0162609, 0.0223744, -0.0330063, -0.00812691, -0.00826783, -0.0301849
0.114059, 0.108082, -0.773262, -0.920191, -1.45971, -0.628493, 1.06913, -0.256674, 0.0029278, 0.00904445, -0.0543526, -0.0403478, -0.0162009, -0.01833, 0.00144554, 0.0949785, 15.3864, 21.1606, 17.5586, 1.46686, 4.05551, -0.0814099, -0.000499967, -0.000112863, 0.00100809, 0.00129952, -0.00935947, 0.00279526, 0.0252542, -0.0281571, 0.00588127, 0.00129189, 0.0719651, 0.103705, -0.0105279, -0.443865, 0.633814, -3.12906, -0.0558554, -0.112136, -0.0109584, -0.443758, 0.632774, -3.12839, -0.0520619, -0.0973954, 0.016564, 0.0227327, -0.033579, -0.00801553, -0.00636254, -0.0297707
0.115059, 0.108084, -0.773232, -0.920292, -1.45979, -0.628528, 1.06908, -0.25668, 0.000546512, 0.00636431, -0.0518172, -0.0443655, -0.0178382, -0.0181919, -0.00136944, 0.170357, 15.4935, 21.236, 17.5189, 1.48517, 4.04819, -0.0228162, -0.000532787, -8.29334e-05, 0.00103138, 0.00137022, -0.00958779, 0.0028419, 0.0260549, -0.027965, 0.00596775, 0.00260402, 0.0732026, 0.109587, -0.0105112, -0.443842, 0.633781, -3.12899, -0.0558644, -0.112263, -0.0109715, -0.443766, 0.632714, -3.12826, -0.0520038, -0.0971611, 0.0168696, 0.0230922, -0.034155, -0.00852118, -0.00584083, -0.0303204
0.116059, 0.108083, -0.773221, -0.920339, -1.45983, -0.628542, 1.06905, -0.25668, 0.00147717, 0.00642483, -0.049117, -0.0432379, -0.0139564, -0.0234667, -0.000912956, 0.134651, 15.5688, 21.2757, 17.4078, 1.50348, 4.05551, -0.0228162, -0.000558585, -5.78147e-05, 0.00102135, 0.00136606, -0.00973469, 0.00287171, 0.0250638, -0.026479, 0.00719454, -0.000228543, 0.0723908, 0.115608, -0.0104942, -0.443818, 0.633746, -3.12891, -0.0558736, -0.112393, -0.01098, -0.443769, 0.632688, -3.12819, -0.0519684, -0.0970609, 0.0171776, 0.0234529, -0.0347344, -0.00736659, -0.0039747, -0.0295961
0.117059, 0.108077, -0.773207, -0.920381, -1.45987, -0.628558, 1.06902, -0.256674, -0.000570251, 0.00745396, -0.0469863, -0.0420521, -0.0110219, -0.0269332, 0.0015615, 0.21003, 15.6046, 21.3114, 17.4078, 1.52179, 4.05551, -0.0814099, -0.000583677, -3.35395e-05, 0.00101214, 0.0013615, -0.00989203, 0.00290701, 0.0252875, -0.0254424, 0.00856983, -0.00112706, 0.0723161, 0.115737, -0.0104768, -0.443795, 0.633711, -3.12883, -0.0558829, -0.112524, -0.0109873, -0.44377, 0.63266, -3.12813, -0.0519248, -0.0969464, 0.017488, 0.0238148, -0.0353172, -0.00741517, -0.00260127, -0.0288182
0.118059, 0.108072, -0.773194, -0.920423, -1.45991, -0.628569, 1.06899, -0.256673, -0.00105923, 0.0104621, -0.0431865, -0.0434605, -0.00836498, -0.0293759, 0.00127836, 0.245735, 15.6799, 21.3868, 17.3721, 1.5282, 4.05551, -0.0878186, -0.000608559, -9.86462e-06, 0.0010019, 0.00135896, -0.0100473, 0.00293411, 0.0230979, -0.0241413, 0.00974065, -0.00135577, 0.0755416, 0.122653, -0.0104592, -0.443771, 0.633676, -3.12875, -0.0558925, -0.112658, -0.0109943, -0.443771, 0.632632, -3.12806, -0.0518941, -0.0968374, 0.0178009, 0.0241778, -0.0359033, -0.00505085, -0.000875072, -0.0280711
0.119059, 0.108059, -0.773184, -0.920459, -1.45996, -0.628583, 1.06896, -0.256678, -0.00635366, 0.00966641, -0.0424308, -0.0436785, -0.0120439, -0.0316754, -0.000843179, 0.360787, 15.7513, 21.4225, 17.2968, 1.55932, 4.06283, -0.0420422, -0.000637109, 1.27446e-05, 0.000989213, 0.00135168, -0.0102023, 0.0029603, 0.0266406, -0.0242017, 0.0104535, 8.24862e-05, 0.0790174, 0.120687, -0.0104412, -0.443746, 0.633639, -3.12867, -0.0559023, -0.112794, -0.0110048, -0.44377, 0.632607, -3.128, -0.051865, -0.0967312, 0.0181163, 0.0245419, -0.0364926, -0.00831623, -0.000705508, -0.0282097
0.120059, 0.108055, -0.773174, -0.92049, -1.46, -0.628594, 1.06892, -0.256676, -0.00440405, 0.00890807, -0.035532, -0.0433774, -0.0141487, -0.0333357, 0.000183866, 0.360787, 15.8267, 21.4582, 17.3325, 1.57764, 4.07016, -0.0621838, -0.000658576, 3.3667e-05, 0.000976939, 0.00134764, -0.010364, 0.00297637, 0.0247162, -0.0232465, 0.012891, 0.0051783, 0.0804845, 0.127976, -0.0104229, -0.443722, 0.633603, -3.12858, -0.0559122, -0.112932, -0.0110079, -0.443767, 0.63258, -3.12793, -0.0518519, -0.0966167, 0.018434, 0.0249071, -0.0370852, -0.0062906, 0.000652509, -0.0262278
0.121059, 0.108044, -0.77316, -0.920532, -1.46005, -0.628605, 1.06888, -0.256674, -0.00482548, 0.0102466, -0.03801, -0.0420462, -0.0117974, -0.0340664, 0.000834655, 0.436165, 15.8267, 21.6843, 17.3325, 1.61426, 4.06283, -0.0814099, -0.000686449, 5.70109e-05, 0.000966013, 0.00134774, -0.010528, 0.00300923, 0.0254789, -0.0237095, 0.0132189, 0.00392784, 0.0799189, 0.127745, -0.0104044, -0.443697, 0.633565, -3.1285, -0.0559224, -0.113072, -0.011017, -0.443766, 0.632552, -3.12786, -0.0518132, -0.0965005, 0.0187541, 0.0252732, -0.0376809, -0.00673832, 0.000524105, -0.0265601
0.122059, 0.108035, -0.77315, -0.920559, -1.46009, -0.628615, 1.06884, -0.256675, -0.00423966, 0.0102175, -0.0350615, -0.0391496, -0.00906216, -0.03488, 0.000319078, 0.475838, 15.8624, 21.72, 17.2571, 1.62616, 4.06283, -0.0750012, -0.000710984, 7.72016e-05, 0.000948801, 0.00133765, -0.0106878, 0.00302772, 0.0247122, -0.0232265, 0.0154736, 0.00665156, 0.0764944, 0.133215, -0.0103854, -0.443671, 0.633527, -3.12841, -0.0559327, -0.113214, -0.0110229, -0.443762, 0.632529, -3.12779, -0.0517966, -0.0963937, 0.0190766, 0.0256403, -0.0382798, -0.00583226, 0.00137292, -0.0248546
0.123059, 0.108024, -0.773147, -0.920587, -1.46014, -0.628622, 1.0688, -0.256675, -0.00784658, 0.00843147, -0.0315335, -0.0407267, -0.00708348, -0.0403563, -0.00100798, 0.551216, 15.9735, 21.8311, 17.3325, 1.63898, 4.06283, -0.0420422, -0.000737509, 9.71132e-05, 0.000935097, 0.00133615, -0.0108472, 0.00304438, 0.0258685, -0.0215177, 0.0161935, 0.00370501, 0.0770853, 0.137689, -0.0103662, -0.443645, 0.633489, -3.12833, -0.0559433, -0.113359, -0.0110303, -0.443757, 0.632502, -3.12772, -0.0517834, -0.0962894, 0.0194015, 0.0260084, -0.0388819, -0.00677455, 0.00339777, -0.0248109
0.124059, 0.108015, -0.773135, -0.920616, -1.46018, -0.628632, 1.06875, -0.256669, -0.00953097, 0.0128905, -0.0307182, -0.0373047, -0.00558862, -0.0440641, 0.00102343, 0.586922, 15.9735, 22.0176, 17.2214, 1.65088, 4.05551, -0.0878186, -0.000763374, 0.000117689, 0.0009174, 0.00132819, -0.0110132, 0.00307187, 0.0261021, -0.020932, 0.0180016, 0.00389925, 0.0802693, 0.135847, -0.0103466, -0.443619, 0.633449, -3.12824, -0.0559541, -0.113506, -0.011037, -0.443753, 0.632478, -3.12765, -0.0517534, -0.0961773, 0.0197288, 0.0263773, -0.039487, -0.0068329, 0.00432048, -0.0236285
0.125059, 0.108006, -0.773129, -0.920639, -1.46022, -0.628641, 1.06871, -0.25667, -0.00778322, 0.0122602, -0.0280385, -0.0398954, -0.00496039, -0.0465249, -0.00101313, 0.626595, 16.0092, 22.1287, 17.1857, 1.6756, 4.04086, -0.0420422, -0.000789005, 0.00013737, 0.000899124, 0.00131927, -0.0111762, 0.00308583, 0.0245565, -0.0201469, 0.0183135, 0.00277307, 0.0822768, 0.145629, -0.0103267, -0.443593, 0.63341, -3.12815, -0.055965, -0.113655, -0.0110431, -0.443747, 0.632454, -3.12758, -0.0517446, -0.0960723, 0.0200585, 0.0267472, -0.0400951, -0.00501493, 0.00552393, -0.0238101
0.126059, 0.107992, -0.773123, -0.920664, -1.46026, -0.628652, 1.06866, -0.256674, -0.0104567, 0.0116125, -0.0301941, -0.0425324, -0.00446179, -0.0487962, -0.00115014, 0.701973, 16.0489, 22.2794, 17.1857, 1.70032, 4.03445, -0.0292249, -0.000817275, 0.00015732, 0.000880959, 0.00131046, -0.011345, 0.00310337, 0.0265321, -0.0202187, 0.0174052, -0.0009748, 0.0844698, 0.145392, -0.0103065, -0.443566, 0.633369, -3.12806, -0.0559762, -0.113807, -0.0110516, -0.443741, 0.63243, -3.12751, -0.0517306, -0.0959606, 0.0203905, 0.0271178, -0.0407063, -0.00658507, 0.00576246, -0.0254759
0.127059, 0.10798, -0.773118, -0.920679, -1.46031, -0.628657, 1.06861, -0.256668, -0.01149, 0.00811048, -0.0258278, -0.0443491, -0.0038322, -0.0503004, 0.00140338, 0.737679, 16.0846, 22.3151, 17.1857, 1.71863, 4.0198, -0.0878186, -0.000841093, 0.000174033, 0.000861565, 0.00130496, -0.0115142, 0.00311653, 0.0265986, -0.0193211, 0.0185034, 0.000258932, 0.0825349, 0.148738, -0.010286, -0.443538, 0.633328, -3.12796, -0.0559876, -0.113961, -0.0110555, -0.443731, 0.632406, -3.12743, -0.0517237, -0.0958503, 0.0207248, 0.0274892, -0.0413204, -0.00643041, 0.0070134, -0.0249955
0.128059, 0.107968, -0.773121, -0.920704, -1.46035, -0.628668, 1.06855, -0.256668, -0.0124467, 0.00371156, -0.0273212, -0.0427759, -0.00404576, -0.0518736, 0.000935586, 0.777352, 16.1957, 22.5413, 17.0706, 1.75525, 4.0198, -0.0878186, -0.000874243, 0.000193573, 0.000841891, 0.00129988, -0.0116783, 0.00313865, 0.0296688, -0.0198646, 0.0189473, -0.000170833, 0.0784284, 0.148596, -0.0102651, -0.443511, 0.633287, -3.12787, -0.0559992, -0.114117, -0.0110683, -0.443725, 0.632381, -3.12736, -0.0517032, -0.0957501, 0.0210615, 0.0278614, -0.0419374, -0.00916782, 0.00672661, -0.025404
0.129059, 0.107956, -0.773117, -0.920715, -1.4604, -0.628677, 1.0685, -0.256672, -0.0122098, 0.00315164, -0.0228892, -0.0417432, -0.00860401, -0.052278, -0.00154641, 0.777352, 16.1957, 22.5413, 17.0706, 1.78638, 3.99783, -0.0292249, -0.000898903, 0.000210377, 0.0008199, 0.00128868, -0.0118528, 0.00314218, 0.0297531, -0.0198917, 0.0211159, 0.00606371, 0.0809638, 0.154363, -0.0102438, -0.443483, 0.633244, -3.12777, -0.056011, -0.114275, -0.0110725, -0.443714, 0.632359, -3.12728, -0.0517115, -0.0956367, 0.0214005, 0.0282343, -0.0425574, -0.00907104, 0.00704045, -0.0238727
0.130059, 0.107949, -0.773123, -0.920732, -1.46045, -0.628685, 1.06844, -0.256671, -0.0111954, 0.000938613, -0.0182885, -0.0478911, -0.0070811, -0.0523327, -4.7599e-05, 0.737679, 16.2671, 22.6127, 17.1103, 1.81018, 3.96945, -0.0557752, -0.00092585, 0.000228032, 0.000801118, 0.00128669, -0.012023, 0.00314715, 0.0272358, -0.0188717, 0.0210689, 0.00584554, 0.081751, 0.163666, -0.0102223, -0.443454, 0.633201, -3.12768, -0.0560231, -0.114436, -0.0110784, -0.443705, 0.632332, -3.1272, -0.0517182, -0.0955317, 0.0217418, 0.0286079, -0.0431802, -0.00625584, 0.0085209, -0.0243529
0.131059, 0.107936, -0.773123, -0.920748, -1.4605, -0.628692, 1.06837, -0.256663, -0.0124427, 0.00184193, -0.0172352, -0.0485275, -0.00578042, -0.0580193, 0.00166369, 0.777352, 16.2314, 22.6523, 17.1103, 1.82941, 3.96213, -0.101552, -0.00095479, 0.000244499, 0.000779398, 0.00128393, -0.0121993, 0.00316564, 0.0277023, -0.0177443, 0.0214101, 0.00203685, 0.0851912, 0.164831, -0.0102004, -0.443425, 0.633158, -3.12758, -0.0560353, -0.114599, -0.0110863, -0.443694, 0.632308, -3.12712, -0.0517043, -0.0954193, 0.0220854, 0.0289822, -0.0438058, -0.00644462, 0.00999877, -0.0246659
0.132059, 0.107928, -0.773126, -0.920761, -1.46055, -0.628699, 1.06831, -0.256668, -0.0105955, -0.00467083, -0.0166198, -0.0470443, -0.00387696, -0.0615988, -0.000586295, 0.701973, 16.2314, 22.688, 17.0349, 1.823, 3.94107, -0.0557752, -0.000983301, 0.000260653, 0.000756135, 0.0012802, -0.0123744, 0.00316805, 0.0292772, -0.0173952, 0.02209, -9.12576e-05, 0.078392, 0.171977, -0.0101781, -0.443396, 0.633114, -3.12748, -0.0560478, -0.114764, -0.0110934, -0.443682, 0.632285, -3.12703, -0.0517155, -0.0953115, 0.0224314, 0.029357, -0.0444342, -0.00773248, 0.0106559, -0.0247333
0.133059, 0.107914, -0.773132, -0.920781, -1.4606, -0.628705, 1.06824, -0.256665, -0.0112644, -0.00425019, -0.0147177, -0.0497848, -0.00846077, -0.0643667, 0.000321213, 0.701973, 16.2671, 22.7991, 17.1103, 1.84772, 3.9191, -0.0750012, -0.00101463, 0.000277909, 0.000736856, 0.00128415, -0.0125525, 0.00318112, 0.0297744, -0.0172025, 0.0222627, 0.000533799, 0.0856879, 0.17347, -0.0101555, -0.443367, 0.633069, -3.12738, -0.0560605, -0.114932, -0.0111028, -0.443671, 0.632257, -3.12694, -0.0517107, -0.0952008, 0.0227796, 0.0297325, -0.0450654, -0.00790132, 0.0112019, -0.0252319
0.134059, 0.107905, -0.773137, -0.920791, -1.46064, -0.628712, 1.06817, -0.256663, -0.0130181, -0.00305927, -0.0160746, -0.0489111, -0.00618425, -0.0673112, 0.000960127, 0.626595, 16.2671, 22.7634, 17.0706, 1.84772, 3.9191, -0.0951428, -0.00104446, 0.000292936, 0.000712348, 0.00128233, -0.0127323, 0.00318868, 0.03099, -0.0170009, 0.0226575, -0.00199118, 0.0864205, 0.1731, -0.0101325, -0.443337, 0.633024, -3.12728, -0.0560735, -0.115102, -0.0111107, -0.443657, 0.632233, -3.12685, -0.0517146, -0.0950903, 0.0231301, 0.0301084, -0.0456993, -0.00880048, 0.011729, -0.0255646
0.135059, 0.107894, -0.773141, -0.920803, -1.4607, -0.628718, 1.0681, -0.256663, -0.012155, -0.00220887, -0.0140113, -0.0501175, -0.00949728, -0.0677373, -0.000580618, 0.586922, 16.2671, 22.7237, 17.1103, 1.85321, 3.87607, -0.0621838, -0.00107287, 0.000309153, 0.000689429, 0.0012798, -0.0129161, 0.00319171, 0.0304483, -0.0171868, 0.0235172, 0.000977738, 0.0910197, 0.178541, -0.0101092, -0.443306, 0.632978, -3.12717, -0.0560866, -0.115274, -0.0111167, -0.443644, 0.632208, -3.12677, -0.0517257, -0.0949759, 0.0234829, 0.0304849, -0.0463358, -0.0079662, 0.0119252, -0.0253113
0.136059, 0.107889, -0.77315, -0.920819, -1.46074, -0.628722, 1.06802, -0.256665, -0.00988039, -0.0065358, -0.0167158, -0.0505415, -0.0065935, -0.0732789, -0.00137042, 0.475838, 16.3425, 22.7237, 16.9992, 1.84131, 3.85501, -0.0356336, -0.00110422, 0.000325471, 0.00066486, 0.00128181, -0.0130927, 0.00319459, 0.0318786, -0.016851, 0.0225837, -0.00634887, 0.0880349, 0.183598, -0.0100856, -0.443276, 0.632931, -3.12707, -0.0561, -0.115449, -0.0111254, -0.443631, 0.632183, -3.12667, -0.0517375, -0.0948749, 0.0238379, 0.0308619, -0.046975, -0.00898234, 0.0125969, -0.0269889
0.137059, 0.107881, -0.773158, -0.920837, -1.46079, -0.628727, 1.06794, -0.256663, -0.00906538, -0.0055521, -0.0134149, -0.0498192, -0.00492275, -0.0734807, -0.00016763, 0.400459, 16.3782, 22.7634, 16.9595, 1.84131, 3.84036, -0.0557752, -0.00113665, 0.000341816, 0.000642906, 0.00129038, -0.013279, 0.00320352, 0.0303149, -0.0163881, 0.0244025, -0.00348088, 0.0875781, 0.188606, -0.0100616, -0.443245, 0.632884, -3.12696, -0.0561137, -0.115626, -0.0111346, -0.443618, 0.632155, -3.12657, -0.0517405, -0.0947607, 0.0241952, 0.0312393, -0.0476168, -0.00721932, 0.0134656, -0.0257018
0.138059, 0.107871, -0.773169, -0.920848, -1.46085, -0.628732, 1.06787, -0.25666, -0.00625028, -0.00795435, -0.0146791, -0.0502547, -0.00823234, -0.073313, 0.000837682, 0.360787, 16.4178, 22.688, 16.9595, 1.84131, 3.8193, -0.0814099, -0.00116808, 0.000356769, 0.000619087, 0.00129444, -0.0134655, 0.00320747, 0.0310702, -0.0174941, 0.0244385, -0.00206457, 0.0883083, 0.190573, -0.0100372, -0.443213, 0.632836, -3.12686, -0.0561275, -0.115806, -0.0111427, -0.443603, 0.632128, -3.12647, -0.0517514, -0.0946489, 0.0245547, 0.0316171, -0.0482612, -0.0075774, 0.0127083, -0.0263837
0.139059, 0.107863, -0.773178, -0.920866, -1.4609, -0.628731, 1.06778, -0.256663, -0.00732123, -0.00898517, -0.0173083, -0.0544896, -0.00524879, -0.0781929, -0.00161168, 0.325081, 16.4178, 22.688, 16.9992, 1.81659, 3.80466, -0.0228162, -0.0011995, 0.00037188, 0.000597982, 0.00131002, -0.0136554, 0.00320471, 0.0320983, -0.0168568, 0.0226546, -0.0104717, 0.0906689, 0.196007, -0.0100124, -0.443182, 0.632787, -3.12675, -0.0561417, -0.115988, -0.0111502, -0.443587, 0.632098, -3.12636, -0.0517734, -0.0945335, 0.0249165, 0.0319953, -0.0489081, -0.00813399, 0.0137084, -0.0288847
0.140059, 0.107858, -0.773184, -0.920887, -1.46096, -0.628734, 1.06769, -0.256662, -0.00798386, -0.00567356, -0.0200142, -0.0541574, -0.00400626, -0.0823232, -0.00107446, 0.285408, 16.3782, 22.7237, 17.0349, 1.81659, 3.80466, -0.0228162, -0.00123135, 0.000387345, 0.000578216, 0.00133053, -0.0138576, 0.00320722, 0.0328596, -0.0167659, 0.0224645, -0.0146338, 0.0953394, 0.195615, -0.00998734, -0.443149, 0.632738, -3.12664, -0.056156, -0.116172, -0.0111577, -0.443572, 0.632066, -3.12624, -0.0517879, -0.0944013, 0.0252805, 0.0323738, -0.0495576, -0.00852005, 0.0141507, -0.0297851
0.141059, 0.107846, -0.773194, -0.920901, -1.46102, -0.628736, 1.0676, -0.256653, -0.0103789, -0.00736256, -0.0196341, -0.0551112, -0.00328849, -0.0846495, 0.00196246, 0.325081, 16.3782, 22.6523, 16.9992, 1.823, 3.7836, -0.0951428, -0.0012658, 0.000401295, 0.000554459, 0.00134508, -0.0140551, 0.00321977, 0.0345447, -0.016454, 0.0227855, -0.0159589, 0.095203, 0.193805, -0.00996188, -0.443117, 0.632688, -3.12652, -0.0561706, -0.116359, -0.0111677, -0.443555, 0.632036, -3.12613, -0.0517868, -0.0942789, 0.0256467, 0.0327526, -0.0502094, -0.0098704, 0.0147746, -0.0302451
0.142059, 0.10785, -0.773198, -0.920913, -1.46107, -0.628733, 1.0675, -0.256655, -0.00740402, -0.00601111, -0.0185511, -0.0593174, -0.00132467, -0.0876547, 0.000799681, 0.170357, 16.2671, 22.5413, 16.9595, 1.79187, 3.79733, -0.0814099, -0.00129026, 0.000412952, 0.000531611, 0.00136939, -0.0142632, 0.00320075, 0.031878, -0.0156208, 0.0221839, -0.0199548, 0.0996535, 0.204329, -0.00993605, -0.443084, 0.632638, -3.12641, -0.0561854, -0.116548, -0.0111674, -0.443535, 0.632007, -3.12601, -0.0518354, -0.0941421, 0.0260151, 0.0331317, -0.0508638, -0.00683227, 0.0160865, -0.0312972
0.143059, 0.10784, -0.773213, -0.920934, -1.46114, -0.628735, 1.06741, -0.256659, -0.00998977, -0.00881954, -0.0204273, -0.0593118, -0.00157175, -0.0889477, -0.00187438, 0.21003, 16.3068, 22.5413, 16.9238, 1.80469, 3.79001, -0.0164075, -0.00132684, 0.000428365, 0.00051138, 0.0013927, -0.0144643, 0.00320008, 0.0349952, -0.0161186, 0.0222269, -0.0209844, 0.098083, 0.205399, -0.00990985, -0.44305, 0.632586, -3.1263, -0.0562005, -0.11674, -0.0111786, -0.443518, 0.631972, -3.12589, -0.0518558, -0.0940187, 0.0263857, 0.0335111, -0.0515205, -0.00955541, 0.0158547, -0.0321556
0.144059, 0.107833, -0.773221, -0.920951, -1.4612, -0.628733, 1.06731, -0.256653, -0.00849705, -0.00891243, -0.0170125, -0.0626101, -0.000530102, -0.0903418, 0.000208477, 0.245735, 16.2671, 22.4659, 16.8842, 1.78638, 3.79001, -0.0557752, -0.00135857, 0.000441674, 0.000489773, 0.00141833, -0.0146751, 0.00320086, 0.0328623, -0.0152827, 0.0227026, -0.0211398, 0.100282, 0.212106, -0.00988328, -0.443017, 0.632535, -3.12618, -0.0562158, -0.116934, -0.0111846, -0.443499, 0.631939, -3.12576, -0.0518745, -0.0938824, 0.0267585, 0.0338906, -0.0521796, -0.007125, 0.0171359, -0.0321775
0.145059, 0.107832, -0.773233, -0.920973, -1.46127, -0.628733, 1.06721, -0.256649, -0.00558098, -0.00917601, -0.0224966, -0.0690104, -0.000677181, -0.0908692, 0.00132578, 0.21003, 16.2314, 22.4659, 16.8842, 1.79187, 3.77627, -0.0878186, -0.00139038, 0.000455893, 0.000471901, 0.00145271, -0.0148923, 0.00319612, 0.0325444, -0.0163014, 0.0197509, -0.0276217, 0.105194, 0.215451, -0.00985633, -0.442983, 0.632482, -3.12606, -0.0562314, -0.11713, -0.0111901, -0.443481, 0.631902, -3.12562, -0.0519024, -0.0937381, 0.0271335, 0.0342704, -0.052841, -0.00617826, 0.0165479, -0.0357761
0.146059, 0.107832, -0.773245, -0.920995, -1.46134, -0.628732, 1.06711, -0.25665, -0.00335625, -0.00938139, -0.0234282, -0.0657852, -0.000100891, -0.096807, -0.000574209, 0.170357, 16.1957, 22.4659, 16.8127, 1.77997, 3.7836, -0.0484509, -0.00142343, 0.000469793, 0.000452675, 0.00148836, -0.0151083, 0.00318701, 0.0334455, -0.0159501, 0.020589, -0.0307361, 0.105867, 0.219989, -0.00982901, -0.442948, 0.632429, -3.12594, -0.0562473, -0.117329, -0.0111966, -0.443462, 0.631865, -3.12549, -0.0514199, -0.093598, 0.0275107, 0.0346502, -0.0535047, -0.00677648, 0.0172325, -0.035674
0.147059, 0.107828, -0.773259, -0.92101, -1.46141, -0.628731, 1.067, -0.256652, -0.00358823, -0.00636981, -0.0181845, -0.0665326, 0.000102413, -0.100418, -0.00133224, 0.21003, 16.16, 22.3548, 16.7374, 1.77356, 3.76895, -0.0228162, -0.00145575, 0.000482873, 0.000430365, 0.00151566, -0.0153248, 0.00317492, 0.0314744, -0.0144956, 0.022348, -0.029492, 0.111162, 0.227488, -0.00980131, -0.442913, 0.632375, -3.12582, -0.0562634, -0.117531, -0.0112022, -0.443441, 0.631831, -3.12536, -0.0514606, -0.0934603, 0.02789, 0.0350302, -0.0541706, -0.00461951, 0.0191079, -0.0344271
0.148059, 0.107825, -0.773272, -0.921029, -1.46148, -0.62873, 1.06689, -0.256645, -0.00354441, -0.0103951, -0.0192813, -0.0647741, 0.000458321, -0.102074, 0.00128198, 0.245735, 16.1203, 22.3151, 16.6977, 1.76166, 3.73324, -0.0814099, -0.00148891, 0.000496149, 0.000410627, 0.00155156, -0.0155481, 0.00317169, 0.0338336, -0.0149144, 0.0229997, -0.0298293, 0.106985, 0.225925, -0.00977323, -0.442878, 0.63232, -3.1257, -0.0562797, -0.117734, -0.0112081, -0.443421, 0.631793, -3.12522, -0.0514883, -0.0933139, 0.0282715, 0.0354102, -0.0548388, -0.00662502, 0.0189736, -0.0346346
0.149059, 0.107822, -0.773288, -0.921047, -1.46156, -0.628731, 1.06679, -0.25665, -0.00352874, -0.0143386, -0.0193393, -0.0701086, 3.01158e-05, -0.104155, -0.00060341, 0.285408, 16.1203, 22.2437, 16.662, 1.76807, 3.72592, -0.0420422, -0.00152219, 0.00050963, 0.000390506, 0.00158498, -0.0157733, 0.00315521, 0.0345963, -0.0147063, 0.0217425, -0.033511, 0.108276, 0.23288, -0.00974476, -0.442843, 0.632265, -3.12558, -0.0562963, -0.117941, -0.0112137, -0.4434, 0.631755, -3.12508, -0.0515369, -0.0931675, 0.0286551, 0.0357903, -0.0555092, -0.00691699, 0.0195501, -0.0366201
0.150059, 0.107821, -0.773301, -0.921066, -1.46163, -0.628731, 1.06668, -0.256651, -0.00345884, -0.0155172, -0.0203682, -0.068158, -0.000211928, -0.106256, -0.000876991, 0.325081, 16.0489, 22.204, 16.5112, 1.77356, 3.7186, -0.0292249, -0.00155627, 0.000523274, 0.000369153, 0.00162005, -0.0160022, 0.00314389, 0.0362709, -0.0150485, 0.0225433, -0.0336249, 0.10749, 0.233889, -0.00971592, -0.442807, 0.632209, -3.12545, -0.0563132, -0.11815, -0.0112199, -0.443379, 0.631717, -3.12493, -0.0515778, -0.0930175, 0.0290408, 0.0361704, -0.0561817, -0.00825004, 0.0195143, -0.0366319
0.151059, 0.107828, -0.773318, -0.921088, -1.46172, -0.62873, 1.06656, -0.256646, -0.000583605, -0.015036, -0.0178506, -0.0714271, 0.000278108, -0.112405, 0.00111076, 0.245735, 16.0489, 22.1683, 16.5509, 1.76166, 3.71127, -0.0750012, -0.00158584, 0.000536467, 0.000353341, 0.00166754, -0.0162396, 0.00312463, 0.0342836, -0.013607, 0.0223601, -0.0382392, 0.113143, 0.241122, -0.00968668, -0.44277, 0.632153, -3.12533, -0.0563304, -0.118361, -0.0112208, -0.443357, 0.631674, -3.12478, -0.0516322, -0.0928562, 0.0294287, 0.0365505, -0.0568564, -0.00592306, 0.021405, -0.037328
0.152059, 0.107824, -0.773333, -0.921111, -1.4618, -0.628731, 1.06644, -0.256645, -0.00234542, -0.0198798, -0.023211, -0.0740863, 0.00931116, -0.112922, 0.000977866, 0.325081, 16.0092, 22.1683, 16.4755, 1.76807, 3.7186, -0.0814099, -0.00162239, 0.00054961, 0.000335064, 0.00171363, -0.0164794, 0.00311611, 0.0363508, -0.013761, 0.0205749, -0.0466277, 0.104052, 0.243715, -0.00965706, -0.442734, 0.632096, -3.1252, -0.0563478, -0.118575, -0.0112284, -0.443335, 0.631632, -3.12462, -0.0516701, -0.0926936, 0.0298187, 0.0369305, -0.0575331, -0.00745509, 0.0215817, -0.0399503
0.153059, 0.107823, -0.773345, -0.921124, -1.46188, -0.62873, 1.06632, -0.256651, 0.000664483, -0.0165884, -0.0181494, -0.0750502, 0.00721435, -0.117856, -0.00128087, 0.360787, 15.9378, 22.0572, 16.3644, 1.76166, 3.72592, -0.0292249, -0.00165434, 0.000560091, 0.000313405, 0.00175599, -0.0167254, 0.0030913, 0.0334846, -0.0124293, 0.0220256, -0.0459401, 0.112253, 0.254846, -0.00962704, -0.442696, 0.632038, -3.12507, -0.0563654, -0.118791, -0.0112314, -0.44331, 0.631593, -3.12447, -0.0517336, -0.0925244, 0.0302108, 0.0373105, -0.0582119, -0.00436744, 0.0233693, -0.0389551
0.154059, 0.10782, -0.77337, -0.921143, -1.46196, -0.628729, 1.0662, -0.256647, -0.000279911, -0.0207009, -0.0193229, -0.0808655, 0.00562409, -0.120839, -0.000616554, 0.400459, 16.0092, 22.0176, 16.3248, 1.75525, 3.73324, -0.0356336, -0.00169136, 0.00057225, 0.000295512, 0.00180481, -0.0169638, 0.00307777, 0.0353211, -0.0123495, 0.0202741, -0.0507901, 0.11508, 0.257163, -0.00959664, -0.442659, 0.631979, -3.12494, -0.0563834, -0.11901, -0.0112387, -0.443286, 0.631549, -3.1243, -0.0517801, -0.0923691, 0.0306049, 0.0376903, -0.0588927, -0.00567597, 0.0237874, -0.0415279
0.155059, 0.107821, -0.77339, -0.921161, -1.46206, -0.628732, 1.06608, -0.256644, 0.000895253, -0.0178168, -0.0202369, -0.0844672, 0.00326674, -0.123154, 0.00128438, 0.360787, 15.9735, 21.9819, 16.2494, 1.77997, 3.7186, -0.0814099, -0.00172473, 0.000585188, 0.000276955, 0.00184867, -0.0172131, 0.00305942, 0.0345624, -0.0124688, 0.0195155, -0.05293, 0.123709, 0.259007, -0.00956583, -0.442621, 0.63192, -3.12481, -0.0564016, -0.119232, -0.011242, -0.443263, 0.631505, -3.12415, -0.0518343, -0.0921996, 0.0310012, 0.03807, -0.0595756, -0.00446393, 0.0240837, -0.0429175
0.156059, 0.10782, -0.77341, -0.921174, -1.46215, -0.628731, 1.06595, -0.256651, 0.000712216, -0.0165857, -0.0193329, -0.0888332, 0.00273984, -0.12551, -0.00131388, 0.360787, 15.9735, 21.8708, 16.2494, 1.77356, 3.72592, -0.0228162, -0.00175692, 0.000595328, 0.0002595, 0.0019018, -0.0174695, 0.00302447, 0.0338045, -0.0119744, 0.0190126, -0.0552383, 0.129731, 0.266665, -0.00953463, -0.442583, 0.63186, -3.12467, -0.0564201, -0.119456, -0.0112438, -0.443236, 0.631459, -3.12398, -0.0519154, -0.0920213, 0.0313996, 0.0384495, -0.0602603, -0.00329238, 0.0249893, -0.0440462
0.157059, 0.107815, -0.773428, -0.921194, -1.46225, -0.628731, 1.06583, -0.25665, -0.00120189, -0.0202639, -0.0180343, -0.0911545, 0.0022735, -0.125495, -0.000401204, 0.436165, 15.9021, 21.8708, 16.2137, 1.76807, 3.68289, -0.0356336, -0.0017929, 0.000608211, 0.000241661, 0.00195013, -0.0177245, 0.00300867, 0.035314, -0.0120148, 0.0193359, -0.0543338, 0.128249, 0.268438, -0.00950303, -0.442544, 0.6318, -3.12454, -0.0564389, -0.119682, -0.0112488, -0.443212, 0.631413, -3.12381, -0.0519666, -0.0918478, 0.0318, 0.0388288, -0.060947, -0.00442131, 0.0252669, -0.0445337
0.158059, 0.107812, -0.773451, -0.921209, -1.46236, -0.628729, 1.06571, -0.256644, -0.00166438, -0.0216256, -0.0190804, -0.0966401, 0.00125748, -0.126488, 0.000715875, 0.475838, 15.9021, 21.8311, 16.2137, 1.77997, 3.66092, -0.0621838, -0.001826, 0.000618904, 0.000225034, 0.00200422, -0.0179845, 0.00298589, 0.0358193, -0.0121787, 0.0179832, -0.0572687, 0.132188, 0.270998, -0.00947103, -0.442505, 0.631738, -3.1244, -0.0564579, -0.119911, -0.0112506, -0.443185, 0.631366, -3.12364, -0.0520294, -0.0916689, 0.0322025, 0.0392079, -0.0616356, -0.00441523, 0.0254828, -0.0466189
0.159059, 0.107804, -0.773474, -0.921223, -1.46245, -0.628729, 1.06558, -0.256645, -0.00282415, -0.02268, -0.0169028, -0.0976555, 0.000534471, -0.123028, -0.000268735, 0.551216, 15.9021, 21.7954, 16.1026, 1.79187, 3.65451, -0.0420422, -0.00186347, 0.000629936, 0.000205141, 0.00205325, -0.0182443, 0.00296519, 0.035871, -0.0127489, 0.0193224, -0.0518449, 0.130913, 0.275315, -0.00943863, -0.442466, 0.631676, -3.12426, -0.0564773, -0.120143, -0.0112566, -0.443158, 0.63132, -3.12347, -0.0520891, -0.0914932, 0.032607, 0.0395867, -0.062326, -0.00414577, 0.025266, -0.0459929
0.160059, 0.107806, -0.773498, -0.921236, -1.46256, -0.628729, 1.06545, -0.25665, -0.00184626, -0.0202554, -0.0152472, -0.104948, 0.000459037, -0.125417, -0.00187458, 0.551216, 15.9021, 21.7597, 16.1026, 1.79187, 3.65451, 0.00373412, -0.0018951, 0.000641109, 0.000188335, 0.00210682, -0.0185103, 0.00292556, 0.033327, -0.0118765, 0.0181403, -0.0555127, 0.139714, 0.285431, -0.00940582, -0.442426, 0.631614, -3.12412, -0.0564969, -0.120377, -0.0112561, -0.443131, 0.631271, -3.1233, -0.052179, -0.0913104, 0.0330136, 0.0399652, -0.0630183, -0.00114795, 0.0266228, -0.0476632
0.161059, 0.107802, -0.773521, -0.921252, -1.46268, -0.628728, 1.06532, -0.256644, -0.00203868, -0.0206065, -0.0147697, -0.111059, 0.000586517, -0.130221, 0.000683061, 0.586922, 15.8624, 21.7597, 16.1383, 1.78638, 3.6188, -0.0484509, -0.00192768, 0.000651948, 0.000174479, 0.00216719, -0.0187873, 0.00289878, 0.0329799, -0.010868, 0.0167263, -0.0615391, 0.146078, 0.288824, -0.0093726, -0.442386, 0.63155, -3.12398, -0.0565168, -0.120614, -0.011256, -0.443103, 0.631219, -3.12312, -0.0522496, -0.0911124, 0.0334222, 0.0403434, -0.0637123, -0.000324003, 0.0280412, -0.0497335
0.162059, 0.107791, -0.773541, -0.921263, -1.4628, -0.628729, 1.06519, -0.256643, -0.00402984, -0.020177, -0.0134935, -0.109904, 0.000245342, -0.135296, -0.00868523, 0.701973, 15.791, 21.72, 16.0629, 1.79187, 3.61148, -0.0557752, -0.00196362, 0.000661652, 0.000156363, 0.0022221, -0.0190664, 0.00287441, 0.0345318, -0.0100888, 0.0178337, -0.0629357, 0.148902, 0.29902, -0.00933897, -0.442345, 0.631486, -3.12384, -0.056537, -0.120853, -0.0112591, -0.443074, 0.631169, -3.12294, -0.0523166, -0.0909141, 0.0338328, 0.0407212, -0.0644081, -0.0015754, 0.0291219, -0.049442
0.163059, 0.107788, -0.773571, -0.921272, -1.46292, -0.628729, 1.06506, -0.256651, -0.00350638, -0.0223573, -0.00946389, -0.113037, -3.04612e-05, -0.139194, -0.00901588, 0.737679, 15.8267, 21.6843, 16.0272, 1.79828, 3.61148, 0.0101428, -0.0019974, 0.000670226, 0.000140603, 0.00228442, -0.019346, 0.00282806, 0.0338591, -0.00884961, 0.0183225, -0.0642428, 0.151223, 0.307043, -0.00930493, -0.442304, 0.631421, -3.1237, -0.0565575, -0.121095, -0.0112596, -0.443043, 0.631117, -3.12276, -0.0524186, -0.0907175, 0.0342455, 0.0410986, -0.0651057, -0.000577811, 0.0307508, -0.0495902
0.164059, 0.107782, -0.773598, -0.921279, -1.46305, -0.62873, 1.06492, -0.256645, -0.00325405, -0.0231948, -0.00635881, -0.118032, -0.000225164, -0.136511, -0.00490341, 0.777352, 15.8267, 21.6446, 16.1026, 1.80469, 3.58951, -0.0356336, -0.00202942, 0.000677911, 0.000126115, 0.00235026, -0.0196373, 0.00279129, 0.0321041, -0.0088257, 0.0186023, -0.0613767, 0.15277, 0.310679, -0.00927048, -0.442263, 0.631356, -3.12355, -0.0565783, -0.121339, -0.0112578, -0.443011, 0.631063, -3.12257, -0.0525064, -0.090505, 0.0346601, 0.0414756, -0.0658049, 0.00156063, 0.0312067, -0.0498805
0.165059, 0.107774, -0.773623, -0.921294, -1.46317, -0.628729, 1.06477, -0.256645, -0.00392394, -0.0260297, -0.009051, -0.119028, 0.000111626, -0.13654, -0.00347276, 0.85273, 15.791, 21.6843, 16.0629, 1.79828, 3.6188, -0.0420422, -0.00206703, 0.000686873, 0.000110674, 0.0024188, -0.0199271, 0.00276241, 0.0342377, -0.0096249, 0.0182159, -0.0627055, 0.150893, 0.30988, -0.00923561, -0.442221, 0.63129, -3.1234, -0.0565994, -0.121587, -0.0112612, -0.442979, 0.631009, -3.12237, -0.0525823, -0.0902971, 0.0350768, 0.0418522, -0.0665058, -9.14725e-05, 0.0307123, -0.0511508
0.166059, 0.107768, -0.773651, -0.921292, -1.4633, -0.628725, 1.06463, -0.256644, -0.00344468, -0.0250374, -0.0075744, -0.123642, 0.000330059, -0.140519, -0.0024087, 0.888436, 15.7513, 21.5732, 16.0629, 1.79187, 3.63986, -0.0484509, -0.0020982, 0.000691565, 9.2e-05, 0.00248429, -0.020219, 0.00271468, 0.0330765, -0.00864165, 0.0176467, -0.0665274, 0.157131, 0.315491, -0.00920033, -0.442179, 0.631223, -3.12326, -0.0566208, -0.121836, -0.0112582, -0.442943, 0.630958, -3.12218, -0.0526879, -0.0900892, 0.0354954, 0.0422282, -0.0672083, 0.0014898, 0.032119, -0.0523234
0.167059, 0.10776, -0.773688, -0.921298, -1.46342, -0.628726, 1.06447, -0.256648, -0.0032196, -0.030132, -0.00817483, -0.123412, -0.000444417, -0.147817, -0.00426146, 0.928108, 15.8267, 21.5336, 16.0272, 1.81018, 3.66824, 0.0165515, -0.00213711, 0.000698192, 7.51637e-05, 0.00255406, -0.0205091, 0.00267261, 0.0360676, -0.00798847, 0.0175006, -0.0718601, 0.156636, 0.31928, -0.00916462, -0.442137, 0.631155, -3.12311, -0.0566425, -0.122088, -0.0112623, -0.442909, 0.630903, -3.12198, -0.0527853, -0.0898863, 0.0359161, 0.0426038, -0.0679124, -0.00108445, 0.0330405, -0.0534051
0.168059, 0.107755, -0.773719, -0.921303, -1.46355, -0.628727, 1.06432, -0.256646, -0.00435821, -0.0310489, -0.00637867, -0.125626, -0.000523353, -0.148334, -0.00156904, 0.888436, 15.791, 21.5336, 15.9518, 1.81659, 3.66824, -0.0228162, -0.00217324, 0.000704776, 5.74199e-05, 0.00262278, -0.0208064, 0.00263344, 0.0362671, -0.00775093, 0.0180466, -0.0710155, 0.157858, 0.320584, -0.00912849, -0.442094, 0.631087, -3.12296, -0.0566645, -0.122343, -0.0112632, -0.442875, 0.630849, -3.12178, -0.0528785, -0.0896749, 0.0363387, 0.0429789, -0.068618, -0.000914145, 0.0336336, -0.0535861
0.169059, 0.107746, -0.773754, -0.921301, -1.4637, -0.628728, 1.06417, -0.256646, -0.0063306, -0.0296151, -0.0055823, -0.130823, 9.96201e-05, -0.149139, -0.000948259, 0.888436, 15.791, 21.4225, 16.0272, 1.80469, 3.67557, -0.0292249, -0.00220738, 0.000708422, 4.29835e-05, 0.00269996, -0.0211175, 0.00258229, 0.0357436, -0.00731434, 0.0174839, -0.0728414, 0.163018, 0.324197, -0.00909194, -0.442051, 0.631018, -3.1228, -0.0566868, -0.122601, -0.0112616, -0.442837, 0.630791, -3.12158, -0.0529915, -0.0894444, 0.0367632, 0.0433533, -0.0693252, 5.75204e-05, 0.0344697, -0.0548143
0.170059, 0.107737, -0.773788, -0.921303, -1.46383, -0.628733, 1.06401, -0.256648, -0.00704356, -0.0330665, -0.00534851, -0.130962, -0.00104678, -0.153534, -0.00144894, 0.85273, 15.7156, 21.4582, 15.9518, 1.8349, 3.65451, -0.00999879, -0.00224586, 0.000714556, 2.49553e-05, 0.00276887, -0.0214242, 0.00253969, 0.0380747, -0.00698471, 0.0178048, -0.0749634, 0.163189, 0.326363, -0.00905497, -0.442007, 0.630949, -3.12265, -0.0567094, -0.122861, -0.0112641, -0.442801, 0.630736, -3.12138, -0.053091, -0.0892238, 0.0371897, 0.0437272, -0.0700339, -0.00187784, 0.0350815, -0.0553896
0.171059, 0.107722, -0.773821, -0.921298, -1.46397, -0.628729, 1.06385, -0.256649, -0.0092823, -0.0349876, -0.00248905, -0.134928, -0.000490064, -0.156965, -0.00131575, 0.888436, 15.6046, 21.3868, 15.9161, 1.82941, 3.64718, -0.00267457, -0.00228154, 0.000717642, 6.67531e-06, 0.0028412, -0.0217339, 0.00249093, 0.0385564, -0.00582066, 0.0178687, -0.0772348, 0.165493, 0.331133, -0.00901756, -0.441964, 0.630878, -3.12249, -0.0567323, -0.123123, -0.0112635, -0.442762, 0.630681, -3.12117, -0.0532008, -0.0890009, 0.0376182, 0.0441005, -0.0707441, -0.00197955, 0.0365966, -0.0560649
0.172059, 0.10771, -0.773867, -0.92129, -1.46412, -0.628728, 1.06369, -0.256645, -0.00925226, -0.040167, 0.000493729, -0.139039, -8.60966e-05, -0.154874, 0.000284645, 0.85273, 15.6442, 21.2757, 15.9161, 1.823, 3.63254, -0.0356336, -0.00231928, 0.000720368, -1.10317e-05, 0.00291538, -0.0220377, 0.00244074, 0.0383861, -0.00578017, 0.0182037, -0.0750428, 0.162018, 0.336885, -0.00897973, -0.441919, 0.630807, -3.12233, -0.0567555, -0.123389, -0.0112645, -0.442722, 0.630624, -3.12096, -0.0533131, -0.08879, 0.0380486, 0.0444731, -0.0714557, -0.00140966, 0.0370068, -0.0564364
0.173059, 0.10771, -0.773867, -0.92129, -1.46412, -0.628728, 1.06369, -0.256645, -0.00925226, -0.040167, 0.000493729, -0.139039, -8.60966e-05, -0.154874, 0.000284645, 0.85273, 15.6442, 21.2757, 15.9161, 1.823, 3.63254, -0.0356336, -0.0023533, 0.00076247, -8.69381e-05, 0.00277022, -0.0222154, 0.00245509, 0.0387703, -0.00612203, 0.0189627, -0.0737644, 0.162455, 0.339586, -0.00894147, -0.441875, 0.630735, -3.12218, -0.056779, -0.123657, -0.0112645, -0.442722, 0.630624, -3.12096, -0.0533131, -0.08879, 0.0384809, 0.044845, -0.0721687, -0.00140966, 0.0370068, -0.0564364
0.174059, 0.107702, -0.773908, -0.921288, -1.46426, -0.628726, 1.06354, -0.256651, -0.0105982, -0.0378657, -4.86843e-06, -0.141198, 0.00513642, -0.15839, -0.00178718, 0.737679, 15.5688, 21.2757, 15.8765, 1.81018, 3.62521, 0.0165515, -0.00238945, 0.000767067, -0.000104095, 0.00284558, -0.0225287, 0.00239449, 0.0381453, -0.0050963, 0.0187394, -0.0791219, 0.16446, 0.346175, -0.00890277, -0.44183, 0.630663, -3.12202, -0.0568029, -0.123927, -0.011263, -0.442683, 0.630565, -3.12075, -0.0534428, -0.0885696, 0.0389151, 0.0452163, -0.0728831, -0.000375686, 0.038426, -0.0573163
0.175059, 0.107665, -0.774003, -0.921267, -1.46457, -0.628721, 1.06322, -0.256644, -0.0152312, -0.0413381, 0.00434491, -0.147168, 0.00390474, -0.162186, 0.00109155, 0.737679, 15.4578, 21.0496, 15.8011, 1.77356, 3.58951, -0.0356336, -0.00243254, 0.000729736, -6.37088e-05, 0.00313703, -0.0229712, 0.00227882, 0.0396639, -0.00361553, 0.0186291, -0.0809603, 0.168033, 0.347129, -0.00886363, -0.441784, 0.630589, -3.12185, -0.0568271, -0.1242, -0.0112649, -0.442601, 0.630448, -3.12033, -0.0536707, -0.0881391, 0.0393512, 0.0455868, -0.0735988, -0.00150099, 0.0402207, -0.0582483
0.176059, 0.107657, -0.774051, -0.921263, -1.46474, -0.628722, 1.06306, -0.25665, -0.0142704, -0.0452478, 0.00359091, -0.154135, 0.00258792, -0.158266, -0.000986356, 0.586922, 15.3864, 21.0138, 15.8011, 1.77997, 3.56112, 0.0101428, -0.00246939, 0.000734077, -7.82515e-05, 0.00321643, -0.0232927, 0.00221237, 0.0394859, -0.0046408, 0.0172262, -0.0804483, 0.168243, 0.355287, -0.00882406, -0.441738, 0.630515, -3.12169, -0.0568516, -0.124476, -0.011263, -0.442561, 0.630385, -3.12011, -0.0538106, -0.0879114, 0.0397893, 0.0459565, -0.0743159, -0.000739117, 0.0395948, -0.0603733
0.177059, 0.107633, -0.774105, -0.921247, -1.4649, -0.628718, 1.0629, -0.256644, -0.0152653, -0.0491129, 0.00664995, -0.15666, 0.00212923, -0.160901, 0.000311798, 0.626595, 15.3467, 20.8274, 15.8408, 1.77356, 3.5538, -0.0164075, -0.00250978, 0.00073491, -9.60025e-05, 0.00329244, -0.0236101, 0.00216045, 0.0403545, -0.00385665, 0.0177613, -0.0808482, 0.16808, 0.35912, -0.00878406, -0.441692, 0.630441, -3.12153, -0.0568764, -0.124755, -0.0112646, -0.442518, 0.630324, -3.11989, -0.0539281, -0.0876928, 0.0402292, 0.0463255, -0.0750342, -0.0012384, 0.0407033, -0.0606239
0.178059, 0.107619, -0.774156, -0.921239, -1.46506, -0.628715, 1.06274, -0.256642, -0.015214, -0.0493498, 0.00611727, -0.15412, 0.00245996, -0.162724, 0.000672102, 0.511544, 15.1999, 20.752, 15.8011, 1.74884, 3.53915, -0.0292249, -0.00255012, 0.000738556, -0.000115944, 0.0033652, -0.023924, 0.00210691, 0.0416194, -0.00407995, 0.0190069, -0.0802004, 0.167375, 0.359969, -0.00874361, -0.441646, 0.630365, -3.12136, -0.0569015, -0.125036, -0.0112657, -0.442477, 0.630265, -3.11968, -0.0540482, -0.0874825, 0.040671, 0.0466936, -0.0757538, -0.00215003, 0.0407767, -0.0602155
0.179059, 0.107602, -0.774209, -0.921224, -1.46522, -0.628715, 1.06257, -0.256647, -0.0162681, -0.0475115, 0.00745241, -0.157203, 0.00149632, -0.164205, -0.00027187, 0.436165, 15.0888, 20.6052, 15.8408, 1.75525, 3.53915, -0.00999879, -0.00258856, 0.000740401, -0.000134266, 0.00343947, -0.0242505, 0.00203849, 0.0412268, -0.00373227, 0.0191929, -0.0804129, 0.173133, 0.364658, -0.00870271, -0.441599, 0.630289, -3.12119, -0.056927, -0.12532, -0.0112645, -0.442434, 0.630203, -3.11946, -0.0541923, -0.0872555, 0.0411146, 0.0470609, -0.0764746, -0.00134573, 0.0414985, -0.0607226
0.180059, 0.107583, -0.77427, -0.921209, -1.46539, -0.628713, 1.06242, -0.256651, -0.0171357, -0.0519045, 0.00845016, -0.159712, 0.001746, -0.165446, -0.00117049, 0.360787, 15.0888, 20.4545, 15.8765, 1.73694, 3.53274, 0.0165515, -0.00263011, 0.000743983, -0.000153984, 0.00350758, -0.0245646, 0.00197391, 0.0425854, -0.00352999, 0.0192569, -0.0813217, 0.171285, 0.369608, -0.00866138, -0.441552, 0.630212, -3.12102, -0.0569528, -0.125606, -0.0112659, -0.442392, 0.630142, -3.11925, -0.0543304, -0.0870508, 0.0415602, 0.0474273, -0.0771966, -0.00226888, 0.0420138, -0.0614959
0.181059, 0.107563, -0.774328, -0.921201, -1.46556, -0.628712, 1.06226, -0.256646, -0.0177543, -0.0501634, 0.0088458, -0.16452, 0.00145407, -0.166079, 0.000910675, 0.285408, 15.0174, 20.4545, 15.9161, 1.73053, 3.5181, -0.0292249, -0.0026743, 0.000747966, -0.000171613, 0.00358443, -0.0248892, 0.00192398, 0.0417682, -0.00334683, 0.0187049, -0.0826766, 0.177195, 0.372205, -0.00861959, -0.441504, 0.630135, -3.12085, -0.0569789, -0.125895, -0.0112694, -0.44235, 0.630078, -3.11902, -0.0544466, -0.0868317, 0.0420076, 0.0477929, -0.0779197, -0.000972828, 0.0425985, -0.0627092
