alisrour97/Franka_experiments/Real_Robot_scripts/servo-franka/Data4/log_dyn_PIw_ki_3.csv
Time,q1,q2,q3,q4,q5,q6,q7,dq1,dq2,dq3,dq4,dq5,dq6,dq7,t1,t2,t3,t4,t5,t6,t7,ex1,ex2,ex3,ex4,ex5,ex6,ev1,ev2,ev3,ev4,ev5,ev6,xd,yd,zd,uxd,uyd,uzd,x,y,z,ux,uy,uz,vxd,vyd,vzd,vx,vy,vz
9.76563e-07, 0.107773, -0.774261, -0.917093, -1.45786, -0.625436, 1.06995, -0.25674, 0.000299995, 0.00640067, 0.00436517, 0.00203704, 0.000170701, -0.000500484, -0.00212117, -0.619133, 16.0846, 21.6843, 18.7131, 1.34418, 3.67557, -0.120778, 0.000894002, -0.00160941, 0.000791782, 0.00155434, -0.00124986, 8.05912e-06, -0.00303755, 0.000960764, 0.00204696, 0.00389545, 0.00498287, 0.00476523, -0.011112, -0.444721, 0.635038, -3.13187, -0.0555627, -0.107532, -0.0102244, -0.443074, 0.634321, -3.1304, -0.0560498, -0.105497, 0, 0, 0, 0.00285412, 0.00104938, 0.00225668
0.0122905, 0.107757, -0.774256, -0.917096, -1.45785, -0.625449, 1.06995, -0.256743, -0.0023454, 0.00191873, -0.00319394, 0.00223174, -0.00161782, -2.27718e-06, 7.63335e-05, -0.508049, 16.0489, 21.72, 18.6417, 1.39911, 3.69021, -0.147328, 0.000881946, -0.0016065, 0.000786778, 0.00153785, -0.00125308, 3.76151e-05, 0.00226078, -0.000837058, -8.27758e-05, 0.000200647, 0.0018217, -0.00675829, -0.011112, -0.444721, 0.635038, -3.13187, -0.0555627, -0.107532, -0.0102362, -0.443078, 0.634323, -3.13041, -0.0559897, -0.105475, 1.73063e-06, -1.42215e-06, -3.96181e-06, -0.00221677, -0.000916743, -0.000247009
0.0132905, 0.107757, -0.774256, -0.917096, -1.45785, -0.625449, 1.06995, -0.256743, -0.0023454, 0.00191873, -0.00319394, 0.00223174, -0.00161782, -2.27718e-06, 7.63335e-05, -0.508049, 16.0489, 21.72, 18.6417, 1.39911, 3.69021, -0.147328, 0.000881943, -0.0016065, 0.000786769, 0.00153783, -0.00125311, 3.76224e-05, 0.00226498, -0.00083255, -7.06334e-05, 0.000224836, 0.00183826, -0.00671479, -0.011112, -0.444721, 0.635038, -3.13187, -0.0555628, -0.107532, -0.0102362, -0.443078, 0.634323, -3.13041, -0.0559897, -0.105475, 6.91577e-06, -5.6745e-06, -1.58141e-05, -0.00221677, -0.000916743, -0.000247009
0.0142905, 0.107757, -0.774256, -0.917096, -1.45785, -0.625449, 1.06995, -0.256743, -0.0023454, 0.00191873, -0.00319394, 0.00223174, -0.00161782, -2.27718e-06, 7.63335e-05, -0.508049, 16.0489, 21.72, 18.6417, 1.39911, 3.69021, -0.147328, 0.000881934, -0.00160651, 0.000786743, 0.00153778, -0.00125316, 3.7642e-05, 0.00227199, -0.000825064, -5.04573e-05, 0.000265005, 0.00186578, -0.00664253, -0.011112, -0.444721, 0.635038, -3.13187, -0.0555628, -0.107532, -0.0102362, -0.443078, 0.634323, -3.13041, -0.0559897, -0.105475, 1.55453e-05, -1.2736e-05, -3.55071e-05, -0.00221677, -0.000916743, -0.000247009
0.0152905, 0.107757, -0.774256, -0.917096, -1.45785, -0.625449, 1.06995, -0.256743, -0.0023454, 0.00191873, -0.00319394, 0.00223174, -0.00161782, -2.27718e-06, 7.63335e-05, -0.508049, 16.0489, 21.72, 18.6417, 1.39911, 3.69021, -0.147328, 0.000881916, -0.00160653, 0.000786694, 0.00153767, -0.00125328, 3.76802e-05, 0.00228178, -0.000814621, -2.22973e-05, 0.000321038, 0.00190418, -0.00654167, -0.011112, -0.444721, 0.635038, -3.13187, -0.0555628, -0.107532, -0.0102362, -0.443078, 0.634323, -3.13041, -0.0559897, -0.105475, 2.7609e-05, -2.25855e-05, -6.29913e-05, -0.00221677, -0.000916743, -0.000247009
0.0162908, 0.107757, -0.774256, -0.917096, -1.45785, -0.625449, 1.06995, -0.256743, -0.0023454, 0.00191873, -0.00319394, 0.00223174, -0.00161782, -2.27718e-06, 7.63335e-05, -0.508049, 16.0489, 21.72, 18.6417, 1.39911, 3.69021, -0.147328, 0.000881888, -0.00160656, 0.000786612, 0.0015375, -0.00125347, 3.7743e-05, 0.00229436, -0.000801243, 1.37968e-05, 0.000392817, 0.0019534, -0.0064124, -0.0111119, -0.444721, 0.635038, -3.13187, -0.0555629, -0.107532, -0.0102362, -0.443078, 0.634323, -3.13041, -0.0559897, -0.105475, 4.30968e-05, -3.5202e-05, -9.82172e-05, -0.00221677, -0.000916743, -0.000247009
0.017291, 0.107757, -0.774256, -0.917096, -1.45785, -0.625449, 1.06995, -0.256743, -0.0023454, 0.00191873, -0.00319394, 0.00223174, -0.00161782, -2.27718e-06, 7.63335e-05, -0.508049, 16.0489, 21.72, 18.6417, 1.39911, 3.69021, -0.147328, 0.000881845, -0.00160661, 0.000786491, 0.00153724, -0.00125374, 3.78366e-05, 0.00230971, -0.000784951, 5.77752e-05, 0.000480223, 0.00201336, -0.00625491, -0.0111119, -0.444721, 0.635038, -3.13187, -0.0555631, -0.107533, -0.0102362, -0.443078, 0.634323, -3.13041, -0.0559897, -0.105475, 6.19987e-05, -5.05647e-05, -0.000141136, -0.00221677, -0.000916743, -0.000247009
0.0182913, 0.107757, -0.774256, -0.917096, -1.45785, -0.625449, 1.06995, -0.256743, -0.0023454, 0.00191873, -0.00319394, 0.00223174, -0.00161782, -2.27718e-06, 7.63335e-05, -0.508049, 16.0489, 21.72, 18.6417, 1.39911, 3.69021, -0.147328, 0.000881786, -0.00160667, 0.000786322, 0.00153688, -0.00125413, 3.79669e-05, 0.00232784, -0.000765767, 0.000109588, 0.000583141, 0.00208399, -0.00606937, -0.0111118, -0.444721, 0.635037, -3.13187, -0.0555633, -0.107533, -0.0102362, -0.443078, 0.634323, -3.13041, -0.0559897, -0.105475, 8.43044e-05, -6.86525e-05, -0.000191697, -0.00221677, -0.000916743, -0.000247009
0.0192917, 0.107757, -0.774256, -0.917096, -1.45785, -0.625449, 1.06995, -0.256743, -0.0023454, 0.00191873, -0.00319394, 0.00223174, -0.00161782, -2.27718e-06, 7.63335e-05, -0.508049, 16.0489, 21.72, 18.6417, 1.39911, 3.69021, -0.147328, 0.000881707, -0.00160675, 0.000786098, 0.0015364, -0.00125465, 3.81398e-05, 0.00234874, -0.000743712, 0.000169187, 0.000701452, 0.00216522, -0.00585597, -0.0111117, -0.444721, 0.635037, -3.13187, -0.0555636, -0.107534, -0.0102362, -0.443078, 0.634323, -3.13041, -0.0559897, -0.105475, 0.000110004, -8.94448e-05, -0.000249853, -0.00221677, -0.000916743, -0.000247009
0.020292, 0.107757, -0.774256, -0.917096, -1.45785, -0.625449, 1.06995, -0.256743, -0.0023454, 0.00191873, -0.00319394, 0.00223174, -0.00161782, -2.27718e-06, 7.63335e-05, -0.508049, 16.0489, 21.72, 18.6417, 1.39911, 3.69021, -0.147328, 0.000881606, -0.00160686, 0.00078581, 0.00153579, -0.00125531, 3.83615e-05, 0.0023724, -0.000718808, 0.000236522, 0.000835041, 0.00225698, -0.00561488, -0.0111116, -0.444721, 0.635037, -3.13187, -0.055564, -0.107535, -0.0102362, -0.443078, 0.634323, -3.13041, -0.0559897, -0.105475, 0.000139087, -0.000112921, -0.000315553, -0.00221677, -0.000916743, -0.000247009
0.021292, 0.107757, -0.774256, -0.917096, -1.45785, -0.625449, 1.06995, -0.256743, -0.0023454, 0.00191873, -0.00319394, 0.00223174, -0.00161782, -2.27718e-06, 7.63335e-05, -0.508049, 16.0489, 21.72, 18.6417, 1.39911, 3.69021, -0.147328, 0.00088148, -0.00160699, 0.000785452, 0.00153503, -0.00125613, 3.86377e-05, 0.00239881, -0.000691077, 0.000311543, 0.000983792, 0.0023592, -0.00534629, -0.0111114, -0.444721, 0.635037, -3.13186, -0.0555644, -0.107536, -0.0102362, -0.443078, 0.634323, -3.13041, -0.0559897, -0.105475, 0.000171544, -0.000139059, -0.00038875, -0.00221677, -0.000916743, -0.000247009
0.0222922, 0.107757, -0.774256, -0.917096, -1.45785, -0.625449, 1.06995, -0.256743, -0.0023454, 0.00191873, -0.00319394, 0.00223174, -0.00161782, -2.27718e-06, 7.63335e-05, -0.508049, 16.0489, 21.72, 18.6417, 1.39911, 3.69021, -0.147328, 0.000881326, -0.00160715, 0.000785015, 0.0015341, -0.00125713, 3.89744e-05, 0.00242797, -0.000660538, 0.000394202, 0.00114759, 0.00247181, -0.00505038, -0.0111112, -0.444721, 0.635036, -3.13186, -0.055565, -0.107538, -0.0102362, -0.443078, 0.634323, -3.13041, -0.0559897, -0.105475, 0.000207364, -0.00016784, -0.000469394, -0.00221677, -0.000916743, -0.000247009
0.0232922, 0.107738, -0.774299, -0.917118, -1.45785, -0.62545, 1.06995, -0.256746, -0.00319893, -0.00919699, -0.00139457, -0.00207008, -0.000770792, -0.000122255, 0.000902623, -0.317619, 16.4178, 21.9065, 18.6417, 1.41192, 3.69754, -0.153737, 0.000850794, -0.00160234, 0.000790991, 0.00154775, -0.00121502, 7.61201e-05, 0.00458899, -0.000114198, -0.000710571, -0.00113564, -0.00635874, -0.00239744, -0.011111, -0.444722, 0.635036, -3.13186, -0.0555656, -0.10754, -0.0102658, -0.443084, 0.634315, -3.1304, -0.0559329, -0.105542, 0.000246538, -0.000199242, -0.000557437, -0.00427605, -0.000468679, -0.00158229
0.0242922, 0.107737, -0.77431, -0.917121, -1.45785, -0.625453, 1.06995, -0.256744, -0.00219864, -0.00847967, -0.00180677, -0.00138005, -0.0096296, -8.15821e-05, 0.000601678, -0.317619, 16.4893, 21.9422, 18.6417, 1.40552, 3.69754, -0.153737, 0.000845613, -0.0016014, 0.000791608, 0.00154785, -0.0012081, 8.31425e-05, 0.00597066, -0.0012319, -0.000519389, 0.00311688, 0.000758821, -0.00566426, -0.0111107, -0.444722, 0.635035, -3.13186, -0.0555664, -0.107542, -0.0102706, -0.443085, 0.634313, -3.13039, -0.0559227, -0.105555, 0.000289055, -0.000233245, -0.00065283, -0.00558429, -0.0016699, -0.00158879
0.0252922, 0.107734, -0.774311, -0.917125, -1.45784, -0.625452, 1.06995, -0.256746, -0.00235049, -0.00758094, -0.00179422, -0.00597827, -0.00652094, 0.000759355, -0.000582278, -0.281914, 16.4178, 21.8311, 18.4552, 1.38721, 3.67557, -0.127186, 0.00084201, -0.00160105, 0.000790378, 0.00154663, -0.00120548, 8.84612e-05, 0.00414535, -0.000676646, -0.00170154, 0.000189332, 0.00201054, -0.000394906, -0.0111104, -0.444722, 0.635034, -3.13186, -0.0555673, -0.107544, -0.010274, -0.443086, 0.634314, -3.13039, -0.0559153, -0.105562, 0.000334905, -0.000269828, -0.000755525, -0.00365747, -0.00107721, -0.002742
0.0262922, 0.107726, -0.774313, -0.917135, -1.45785, -0.625453, 1.06995, -0.256745, -0.00429539, -0.005338, -0.00741319, -0.00582922, -0.00286341, 0.00155735, -0.0011003, -0.166862, 16.2671, 21.6843, 18.2291, 1.33136, 3.64718, -0.10796, 0.000835181, -0.00160002, 0.000794303, 0.00155528, -0.00121069, 0.000103581, 0.00539861, -0.00135753, -0.00293147, -0.00377633, 0.00137067, -0.00401806, -0.0111101, -0.444722, 0.635033, -3.13186, -0.0555684, -0.107547, -0.0102801, -0.443087, 0.634308, -3.13038, -0.0558932, -0.105556, 0.000384079, -0.000308971, -0.000865474, -0.00474934, -0.0018303, -0.00416926
0.0272922, 0.107744, -0.774316, -0.91715, -1.45786, -0.625453, 1.06995, -0.256743, 0.00239827, -0.00179643, -0.0141691, -0.00841668, 0.000365335, 0.0010382, -0.000733565, -0.392998, 16.16, 21.4979, 17.9672, 1.25812, 3.64718, -0.10796, 0.000839774, -0.00159802, 0.000802894, 0.00157363, -0.0012212, 9.17251e-05, 0.0024683, -0.0020907, -0.00564074, -0.0114333, 0.00491974, 0.000450968, -0.0111097, -0.444723, 0.635033, -3.13186, -0.0555696, -0.10755, -0.0102745, -0.443089, 0.634299, -3.13036, -0.0559135, -0.105541, 0.000436566, -0.000350653, -0.000982628, -0.00156366, -0.00247825, -0.00679243
0.0282922, 0.10775, -0.774327, -0.917172, -1.45788, -0.625462, 1.06995, -0.256749, 0.00334119, -0.00390976, -0.0154532, -0.00970777, -0.00454116, 0.00174327, -0.00340519, -0.468376, 16.1203, 21.2757, 17.6697, 1.25171, 3.6188, -0.0292249, 0.000833175, -0.00159393, 0.00081337, 0.00159192, -0.00123018, 9.38247e-05, 0.00377043, -0.00297177, -0.0063172, -0.0101717, 0.00725158, 0.00185831, -0.0111092, -0.444723, 0.635032, -3.13185, -0.0555709, -0.107554, -0.0102797, -0.443094, 0.634287, -3.13034, -0.0559123, -0.10553, 0.000492356, -0.000394854, -0.00110694, -0.00272836, -0.00344292, -0.00768652
0.0292922, 0.10775, -0.774333, -0.917198, -1.45789, -0.625467, 1.06995, -0.256748, 0.00137658, -0.00472287, -0.0197665, -0.0122346, -0.00704212, 0.0017047, -0.0025075, -0.43267, 16.0489, 21.0496, 17.2968, 1.21509, 3.60415, -0.0228162, 0.000824636, -0.00158945, 0.000824668, 0.00161291, -0.00124219, 0.000109851, 0.00628885, -0.00384362, -0.00815477, -0.0129592, 0.0103667, -0.0036985, -0.0111087, -0.444723, 0.63503, -3.13185, -0.0555724, -0.107558, -0.0102868, -0.443099, 0.634274, -3.13032, -0.0558897, -0.105514, 0.000551439, -0.000441554, -0.00123836, -0.00502326, -0.00443365, -0.00982959
0.0302922, 0.107755, -0.774341, -0.917227, -1.45792, -0.625477, 1.06995, -0.25674, 0.00174119, -0.00609791, -0.0209039, -0.0141014, -0.00556747, 0.000865183, 0.00100708, -0.468376, 16.0092, 20.8631, 17.0349, 1.21509, 3.61148, -0.0951428, 0.000818404, -0.00158482, 0.000839813, 0.0016406, -0.00126375, 0.000127191, 0.00637496, -0.00361269, -0.00904141, -0.0159579, 0.00976696, -0.00553787, -0.0111081, -0.444724, 0.635029, -3.13185, -0.0555741, -0.107563, -0.0102912, -0.443104, 0.634257, -3.13029, -0.0558656, -0.105483, 0.000613805, -0.000490732, -0.00137684, -0.00499427, -0.00424742, -0.0108571
0.0312922, 0.107761, -0.774353, -0.917252, -1.45795, -0.625486, 1.06996, -0.256743, 0.00208, -0.0080032, -0.023139, -0.0164306, -0.0101766, 0.00244174, -0.000549323, -0.508049, 16.0092, 20.6052, 16.8127, 1.2453, 3.56112, -0.0621838, 0.00081362, -0.00157911, 0.000854294, 0.00165968, -0.00127829, 0.000128272, 0.00782798, -0.00470859, -0.0101813, -0.0151717, 0.0123868, -0.00581817, -0.0111074, -0.444724, 0.635028, -3.13184, -0.055576, -0.107568, -0.0102941, -0.44311, 0.634241, -3.13027, -0.0558665, -0.105464, 0.000679445, -0.000542368, -0.00152234, -0.00626012, -0.00543551, -0.0122465
0.0322922, 0.107762, -0.774366, -0.917276, -1.45798, -0.625493, 1.06997, -0.256747, 0.00450022, -0.0103153, -0.0186949, -0.0210947, -0.00814097, 0.00403532, -0.000603581, -0.508049, 16.0489, 20.3434, 16.5866, 1.25812, 3.49612, -0.0557752, 0.000807334, -0.00157429, 0.000868031, 0.00167867, -0.00128969, 0.000131269, 0.00455337, -0.00367089, -0.0102017, -0.0144505, 0.0107996, 0.00396961, -0.0111067, -0.444725, 0.635026, -3.13184, -0.055578, -0.107574, -0.0102986, -0.443116, 0.634225, -3.13025, -0.0558646, -0.105451, 0.000748347, -0.000596442, -0.0016748, -0.00296198, -0.00433715, -0.0121879
0.0332922, 0.107767, -0.774375, -0.917307, -1.45801, -0.625502, 1.06998, -0.256742, 0.00409042, -0.0108899, -0.0211929, -0.0255502, -0.011078, 0.0058776, 0.00153039, -0.543754, 16.0489, 20.1926, 16.4001, 1.26453, 3.41006, -0.10796, 0.000801776, -0.00156774, 0.000884419, 0.0017013, -0.00130783, 0.000144115, 0.00522553, -0.00448741, -0.0119558, -0.0153556, 0.0147589, 0.000994361, -0.0111059, -0.444726, 0.635024, -3.13184, -0.0555803, -0.10758, -0.010302, -0.443123, 0.634207, -3.13022, -0.0558479, -0.105427, 0.000820503, -0.000652933, -0.00183418, -0.00341069, -0.0052181, -0.0141484
0.0342922, 0.107765, -0.774385, -0.917336, -1.45804, -0.625511, 1.06998, -0.256742, 0.00208302, -0.0113253, -0.0221973, -0.0271766, -0.009159, 0.00602072, 3.69099e-05, -0.508049, 16.0489, 20.0101, 16.2891, 1.28833, 3.3533, -0.0814099, 0.000795116, -0.0015623, 0.000901379, 0.00172492, -0.00132959, 0.000154293, 0.00589977, -0.00428039, -0.0125104, -0.0172007, 0.014119, 0.00208767, -0.0111051, -0.444726, 0.635022, -3.13183, -0.0555828, -0.107587, -0.0103064, -0.443129, 0.634187, -3.13019, -0.0558355, -0.105398, 0.000895902, -0.000711822, -0.00200043, -0.00397687, -0.005089, -0.014913
0.0352922, 0.107765, -0.774385, -0.917336, -1.45804, -0.625511, 1.06998, -0.256742, 0.00208302, -0.0113253, -0.0221973, -0.0271766, -0.009159, 0.00602072, 3.69099e-05, -0.508049, 16.0489, 20.0101, 16.2891, 1.28833, 3.3533, -0.0814099, 0.000794352, -0.00156308, 0.00089925, 0.00172042, -0.00133447, 0.000155932, 0.00596419, -0.00421533, -0.0123328, -0.0168517, 0.0143605, 0.00272253, -0.0111041, -0.444727, 0.63502, -3.13183, -0.0555855, -0.107594, -0.0103064, -0.443129, 0.634187, -3.13019, -0.0558355, -0.105398, 0.000974534, -0.000773089, -0.00217351, -0.00397687, -0.005089, -0.014913
0.0362922, 0.107765, -0.774385, -0.917336, -1.45804, -0.625511, 1.06998, -0.256742, 0.00208302, -0.0113253, -0.0221973, -0.0271766, -0.009159, 0.00602072, 3.69099e-05, -0.508049, 16.0489, 20.0101, 16.2891, 1.28833, 3.3533, -0.0814099, 0.000793522, -0.00156393, 0.000896942, 0.00171554, -0.00133976, 0.00015771, 0.00603127, -0.00414776, -0.0121483, -0.0164893, 0.0146114, 0.00338223, -0.0111031, -0.444728, 0.635018, -3.13182, -0.0555884, -0.107602, -0.0103064, -0.443129, 0.634187, -3.13019, -0.0558355, -0.105398, 0.00105639, -0.000836713, -0.00235336, -0.00397687, -0.005089, -0.014913
0.0372922, 0.107758, -0.774409, -0.917427, -1.45815, -0.625548, 1.07001, -0.256739, -0.00145572, -0.00719701, -0.0293253, -0.032785, -0.0140876, 0.00528025, 1.8467e-05, -0.392998, 16.0489, 19.6372, 16.0629, 1.27002, 3.20224, -0.0685925, 0.000769768, -0.00154516, 0.000951168, 0.00179333, -0.00141122, 0.000203362, 0.00858129, -0.00534767, -0.015502, -0.0217785, 0.0270464, -0.00435568, -0.011102, -0.444729, 0.635016, -3.13182, -0.0555915, -0.107611, -0.0103246, -0.443149, 0.634129, -3.13012, -0.0557709, -0.10529, 0.00114146, -0.000902674, -0.00253994, -0.00616161, -0.00641477, -0.0186282
0.0382922, 0.107758, -0.774409, -0.917427, -1.45815, -0.625548, 1.07001, -0.256739, -0.00145572, -0.00719701, -0.0293253, -0.032785, -0.0140876, 0.00528025, 1.8467e-05, -0.392998, 16.0489, 19.6372, 16.0629, 1.27002, 3.20224, -0.0685925, 0.000768798, -0.00154615, 0.000948479, 0.00178765, -0.00141739, 0.000205434, 0.00865372, -0.00527516, -0.0153037, -0.0213895, 0.027316, -0.00364688, -0.0111008, -0.44473, 0.635013, -3.13181, -0.0555949, -0.10762, -0.0103246, -0.443149, 0.634129, -3.13012, -0.0557709, -0.10529, 0.00122973, -0.000970953, -0.00273321, -0.00616161, -0.00641477, -0.0186282
0.0392922, 0.107747, -0.774415, -0.917483, -1.45823, -0.625575, 1.07001, -0.256748, -0.00349997, -0.00469401, -0.0224883, -0.0358647, -0.0109892, 0.00505016, -0.00103165, -0.242241, 15.9735, 19.4507, 16.178, 1.25812, 3.22421, -0.0164075, 0.000755793, -0.00153762, 0.000986205, 0.00184693, -0.00149258, 0.000222665, 0.00545217, -0.0031798, -0.0139576, -0.0195344, 0.0295381, 0.00436291, -0.0110996, -0.444731, 0.63501, -3.1318, -0.0555986, -0.10763, -0.0103334, -0.443159, 0.634088, -3.13006, -0.0557503, -0.105179, 0.00132119, -0.00104153, -0.00293311, -0.00304508, -0.00429026, -0.0172521
0.0402922, 0.107746, -0.774421, -0.917514, -1.45827, -0.625595, 1.07001, -0.256739, -0.00137125, -0.00760735, -0.0269122, -0.0332116, -0.012729, 0.00287998, 0.00222836, -0.281914, 16.0092, 19.4507, 16.178, 1.25171, 3.24527, -0.0951428, 0.000745812, -0.00153291, 0.00100281, 0.00187204, -0.00153377, 0.000249383, 0.00801879, -0.00404662, -0.0145583, -0.0219574, 0.0278242, -0.00157207, -0.0110982, -0.444732, 0.635007, -3.1318, -0.0556025, -0.107641, -0.0103407, -0.443165, 0.634067, -3.13003, -0.0557139, -0.105123, 0.00141584, -0.00111438, -0.0031396, -0.00543717, -0.00531442, -0.0182398
0.0412922, 0.107738, -0.77442, -0.917538, -1.45831, -0.625612, 1.07001, -0.256741, -0.00357989, -0.0057365, -0.0259821, -0.0360391, -0.0145896, 0.00105474, 0.000976943, -0.166862, 16.0092, 19.4111, 16.2494, 1.25812, 3.27456, -0.0814099, 0.000738841, -0.00153009, 0.00101843, 0.00189472, -0.00158239, 0.000263781, 0.00817918, -0.00339105, -0.0149607, -0.022975, 0.0340992, -0.000477347, -0.0110967, -0.444733, 0.635004, -3.13179, -0.0556067, -0.107652, -0.010345, -0.443169, 0.634048, -3.13, -0.0556968, -0.105057, 0.00151366, -0.0011895, -0.00335263, -0.00549498, -0.00473646, -0.0188613
0.0422922, 0.107731, -0.774419, -0.917564, -1.45835, -0.625629, 1.07001, -0.256747, -0.00413068, -0.00432303, -0.0229651, -0.039066, -0.0150002, -0.000183133, -0.00226483, -0.0914839, 16.0092, 19.4111, 16.3644, 1.23981, 3.30295, -0.00267457, 0.000732123, -0.00152787, 0.00103612, 0.00192347, -0.00163478, 0.000272413, 0.00669045, -0.00231182, -0.0148389, -0.0230227, 0.0385773, 0.00667178, -0.0110952, -0.444734, 0.635, -3.13178, -0.0556111, -0.107664, -0.0103488, -0.443172, 0.634027, -3.12997, -0.0556891, -0.104986, 0.00161465, -0.00126685, -0.00357216, -0.00395647, -0.00368384, -0.0188503
0.0432922, 0.107725, -0.774422, -0.917593, -1.45839, -0.62565, 1.07001, -0.256742, -0.00450266, -0.00418406, -0.0254948, -0.0392694, -0.0110774, -0.000540972, 0.000694161, -0.0161054, 16.0489, 19.4864, 16.4001, 1.2334, 3.31759, -0.0621838, 0.000721697, -0.00152395, 0.00105229, 0.00194702, -0.00168371, 0.00029816, 0.0069392, -0.00217586, -0.0154046, -0.0263282, 0.0364846, 0.0042295, -0.0110935, -0.444735, 0.634997, -3.13177, -0.0556159, -0.107677, -0.0103563, -0.443178, 0.634006, -3.12994, -0.055655, -0.10492, 0.00171879, -0.00134642, -0.00379814, -0.0040663, -0.00363129, -0.0196569
0.0442922, 0.107715, -0.774425, -0.917614, -1.45843, -0.625671, 1.07, -0.256743, -0.00558946, -0.00474032, -0.0252894, -0.0444576, -0.0171231, -0.00186161, 0.000462774, 0.0949785, 16.1203, 19.4864, 16.5112, 1.21509, 3.36062, -0.0621838, 0.000712119, -0.00152261, 0.00106691, 0.00196902, -0.00173612, 0.000315427, 0.00785839, -0.00215821, -0.0167925, -0.027058, 0.0448621, 0.00415705, -0.0110917, -0.444737, 0.634993, -3.13176, -0.0556209, -0.107691, -0.010363, -0.443181, 0.633987, -3.12991, -0.0556343, -0.104851, 0.00182607, -0.00142819, -0.00403052, -0.00478081, -0.0037156, -0.0213371
0.0452922, 0.107704, -0.774429, -0.917638, -1.45848, -0.625692, 1.07001, -0.256745, -0.0103673, -0.00513384, -0.0238528, -0.0417844, -0.0167019, -0.00117152, -0.00138691, 0.245735, 16.1957, 19.5618, 16.6223, 1.19037, 3.36062, -0.0164075, 0.000701585, -0.00151933, 0.00108287, 0.00198854, -0.00178552, 0.000334126, 0.0101153, -0.00191894, -0.0151328, -0.0234525, 0.0422929, 0.00203865, -0.0110899, -0.444738, 0.634989, -3.13175, -0.0556263, -0.107706, -0.0103704, -0.443186, 0.633966, -3.12988, -0.0556116, -0.104787, 0.00193648, -0.00151214, -0.00426926, -0.00704273, -0.00365423, -0.020074
0.0462922, 0.107696, -0.774434, -0.917663, -1.45852, -0.625715, 1.07, -0.256746, -0.00809372, -0.00525079, -0.02035, -0.039902, -0.0216691, -0.00150874, -0.000449886, 0.285408, 16.2671, 19.6729, 16.7374, 1.17847, 3.38168, -0.0292249, 0.000691429, -0.0015172, 0.00109921, 0.00201345, -0.00183996, 0.000351396, 0.00951384, -0.00183669, -0.0134118, -0.0178966, 0.0450865, 0.00358835, -0.0110879, -0.44474, 0.634984, -3.13174, -0.0556319, -0.107721, -0.0103774, -0.44319, 0.633945, -3.12985, -0.0555916, -0.104716, 0.00205002, -0.00159825, -0.00451432, -0.00645025, -0.00365185, -0.0185604
0.0472922, 0.107684, -0.774429, -0.917685, -1.45856, -0.625739, 1.07, -0.256738, -0.0091129, -0.00278365, -0.0198166, -0.0395389, -0.0212541, -0.00123797, 0.0013955, 0.436165, 16.2314, 19.7483, 16.7731, 1.18396, 3.38901, -0.0750012, 0.000681708, -0.00151501, 0.00111175, 0.00202788, -0.00190043, 0.000383498, 0.00910552, -0.00158268, -0.0127453, -0.0165456, 0.0471801, 0.00206043, -0.0110858, -0.444741, 0.63498, -3.13173, -0.0556379, -0.107738, -0.010384, -0.443194, 0.633927, -3.12983, -0.0555486, -0.104636, 0.00216668, -0.00168649, -0.00476563, -0.00598112, -0.00347758, -0.0181172
0.0482922, 0.107672, -0.774431, -0.91771, -1.4586, -0.625767, 1.07, -0.256749, -0.0120629, -0.00277974, -0.0219747, -0.0435698, -0.0256204, -0.00157586, -0.00174843, 0.551216, 16.2671, 19.9347, 16.8484, 1.19037, 3.41006, -0.00267457, 0.000668668, -0.00151156, 0.00112583, 0.00204254, -0.0019583, 0.000401242, 0.0112548, -0.00200994, -0.0142641, -0.0178406, 0.0537192, 0.00154478, -0.0110835, -0.444743, 0.634975, -3.13172, -0.0556442, -0.107755, -0.0103937, -0.443199, 0.633907, -3.12981, -0.0555282, -0.104562, 0.00228643, -0.00177687, -0.00502317, -0.00788464, -0.00405726, -0.0200406
0.0492922, 0.107666, -0.774436, -0.917726, -1.45864, -0.625799, 1.07, -0.256749, -0.00841194, -0.00284775, -0.0176457, -0.0424829, -0.0300256, 0.00280335, -0.00116562, 0.551216, 16.3068, 20.0101, 16.8842, 1.22699, 3.43204, -0.00267457, 0.000659031, -0.00150945, 0.00113663, 0.00204955, -0.00201606, 0.00041833, 0.00899621, -0.00254065, -0.0121588, -0.008423, 0.0542748, 0.00619935, -0.0110812, -0.444745, 0.634969, -3.13171, -0.0556509, -0.107773, -0.0104001, -0.443203, 0.63389, -3.1298, -0.0555089, -0.104489, 0.00240928, -0.00186934, -0.00528689, -0.0056352, -0.00461883, -0.0180521
0.0502922, 0.107652, -0.774439, -0.917745, -1.45868, -0.625829, 1.07, -0.25674, -0.00764871, -0.00278364, -0.0183289, -0.0437091, -0.0322632, 0.00173002, 0.00142697, 0.626595, 16.3425, 20.1212, 16.9992, 1.23981, 3.44668, -0.0621838, 0.00064696, -0.00150688, 0.00114944, 0.00205923, -0.00207636, 0.00045292, 0.00926174, -0.00257345, -0.0125644, -0.00899114, 0.0577893, 0.00439684, -0.0110787, -0.444747, 0.634964, -3.1317, -0.0556578, -0.107792, -0.0104087, -0.443208, 0.633871, -3.12978, -0.0554629, -0.104413, 0.00253522, -0.00196389, -0.00555673, -0.00574483, -0.00475185, -0.0187451
0.0512922, 0.107645, -0.774442, -0.917764, -1.45872, -0.625865, 1.07, -0.256741, -0.00614248, -0.00365644, -0.0157646, -0.043386, -0.0345891, -0.000137615, 0.000205325, 0.6623, 16.4178, 20.2323, 17.0706, 1.27002, 3.48971, -0.0420422, 0.000636175, -0.00150489, 0.0011619, 0.00206964, -0.00214314, 0.000472516, 0.0088646, -0.00197998, -0.011693, -0.00734837, 0.059692, 0.00880635, -0.0110761, -0.444749, 0.634958, -3.13168, -0.0556652, -0.107812, -0.0104159, -0.443212, 0.633853, -3.12976, -0.0554405, -0.104328, 0.00266423, -0.00206051, -0.00583265, -0.0053007, -0.00424892, -0.0181208
0.0522922, 0.107631, -0.774449, -0.917783, -1.45876, -0.625899, 1.07, -0.256744, -0.00601432, -0.00497137, -0.0138184, -0.0415502, -0.0356888, -0.000644584, -0.000812552, 0.737679, 16.525, 20.3434, 17.0706, 1.28284, 3.51077, -0.0164075, 0.00061999, -0.00150145, 0.00117148, 0.0020718, -0.00219855, 0.000502162, 0.0093402, -0.00167938, -0.0103859, -0.00455532, 0.0585798, 0.0110005, -0.0110734, -0.444751, 0.634952, -3.13167, -0.0556729, -0.107834, -0.0104285, -0.443218, 0.633836, -3.12975, -0.0554026, -0.104262, 0.0027963, -0.00215917, -0.00611461, -0.00574307, -0.00407532, -0.0171298
0.0532922, 0.107624, -0.774444, -0.917796, -1.4588, -0.625936, 1.07, -0.25674, -0.00412662, -0.00250009, -0.0105801, -0.0418536, -0.0362161, -0.00158186, 0.000645093, 0.737679, 16.4893, 20.3791, 17.146, 1.28833, 3.54648, -0.0484509, 0.000612604, -0.00150035, 0.00118081, 0.00207419, -0.00227414, 0.000524752, 0.00696747, -0.0008127, -0.00930809, -0.00257625, 0.0623854, 0.0148431, -0.0110705, -0.444753, 0.634946, -3.13166, -0.0556809, -0.107856, -0.0104324, -0.443222, 0.63382, -3.12973, -0.0553761, -0.104166, 0.00293143, -0.00225986, -0.00640257, -0.00334714, -0.00323566, -0.0161736
0.0542922, 0.107616, -0.774446, -0.917814, -1.45884, -0.625973, 1.07, -0.256736, -0.00599479, -0.00251774, -0.0101441, -0.0430438, -0.0361025, -0.00146939, 0.00165077, 0.737679, 16.525, 20.4941, 17.2571, 1.27643, 3.56112, -0.0814099, 0.000601945, -0.00149766, 0.00119186, 0.00207725, -0.00234289, 0.000551395, 0.00749079, -0.00050273, -0.00917909, -0.00219852, 0.0633769, 0.0140498, -0.0110675, -0.444756, 0.63494, -3.13164, -0.0556894, -0.107879, -0.0104391, -0.443227, 0.633802, -3.12972, -0.0553436, -0.104081, 0.00306961, -0.00236255, -0.00669647, -0.00375051, -0.00304807, -0.0163731
0.0552922, 0.107604, -0.774449, -0.917829, -1.45888, -0.626013, 1.07, -0.256745, -0.00838948, -0.00261836, -0.00789755, -0.0430876, -0.0361635, -0.00193497, -0.00181561, 0.777352, 16.5646, 20.5298, 17.3325, 1.27002, 3.58951, -0.00267457, 0.000588882, -0.00149596, 0.00120114, 0.00207745, -0.00241496, 0.000569645, 0.00802528, 0.000184112, -0.0082164, -0.000394589, 0.0638813, 0.0179292, -0.0110644, -0.444758, 0.634933, -3.13162, -0.0556982, -0.107903, -0.0104483, -0.443232, 0.633785, -3.12971, -0.0553245, -0.103992, 0.00321082, -0.00246723, -0.00699628, -0.00423272, -0.00249361, -0.0157451
0.0562922, 0.107594, -0.774451, -0.917847, -1.45892, -0.626053, 1.07, -0.256738, -0.00925437, -0.00175446, -0.0111914, -0.0408149, -0.0400177, 0.00292155, 0.000993638, 0.777352, 16.5646, 20.6409, 17.4435, 1.2453, 3.60415, -0.0621838, 0.000575651, -0.00149343, 0.00121069, 0.00207843, -0.0024864, 0.000604292, 0.0100346, -0.00176189, -0.00766295, 0.00537767, 0.0643077, 0.00985946, -0.0110611, -0.444761, 0.634926, -3.13161, -0.0557074, -0.107928, -0.0104575, -0.443237, 0.633767, -3.1297, -0.0552804, -0.103905, 0.00335505, -0.00257388, -0.00730195, -0.00606004, -0.00462063, -0.0156498
0.0572922, 0.107585, -0.774447, -0.917861, -1.45894, -0.626093, 1.07, -0.256739, -0.00902881, -0.000248284, -0.0118677, -0.0369697, -0.043152, 0.00161187, 0.000425066, 0.737679, 16.525, 20.6766, 17.3325, 1.21509, 3.62521, -0.0557752, 0.000563245, -0.00149066, 0.0012146, 0.00206706, -0.00255504, 0.000634978, 0.0113684, -0.00210991, -0.00642674, 0.00805847, 0.0668088, 0.00779939, -0.0110577, -0.444763, 0.634918, -3.13159, -0.055717, -0.107955, -0.010466, -0.443243, 0.633755, -3.1297, -0.0552423, -0.103825, 0.0035023, -0.00268248, -0.00761342, -0.00731489, -0.00513495, -0.0148224
0.0582922, 0.107575, -0.774454, -0.917874, -1.45899, -0.626132, 1.07, -0.256738, -0.00989271, -0.00276898, -0.0125889, -0.0397265, -0.0405716, 0.000865094, 0.000758095, 0.737679, 16.636, 20.7163, 17.4435, 1.17847, 3.63986, -0.0685925, 0.000549964, -0.00148928, 0.00122271, 0.0020645, -0.00262252, 0.000660733, 0.0118729, -0.00155964, -0.00727968, 0.00477256, 0.0649779, 0.00987787, -0.0110541, -0.444766, 0.63491, -3.13157, -0.055727, -0.107982, -0.0104751, -0.443247, 0.633738, -3.12969, -0.0552126, -0.103747, 0.00365255, -0.002793, -0.00793067, -0.0076285, -0.00470573, -0.0160221
0.0592922, 0.107568, -0.774451, -0.917892, -1.45902, -0.626174, 1.06999, -0.256741, -0.00880961, -0.00101452, -0.0139403, -0.0366509, -0.0398362, -0.000495912, -0.00166474, 0.6623, 16.6003, 20.7917, 17.4832, 1.17206, 3.67557, -0.00999879, 0.000537319, -0.00148706, 0.00122936, 0.00206038, -0.0027001, 0.000687014, 0.0120627, -0.00155096, -0.0064808, 0.00480789, 0.0653707, 0.0123035, -0.0110504, -0.444769, 0.634902, -3.13155, -0.0557374, -0.108011, -0.0104834, -0.443253, 0.633723, -3.12968, -0.0551826, -0.103654, 0.0038058, -0.00290544, -0.00825364, -0.00771953, -0.00482325, -0.0155613
0.0602922, 0.107566, -0.774454, -0.917907, -1.45904, -0.626214, 1.06999, -0.256737, -0.0041523, -0.00234959, -0.0148533, -0.0324623, -0.0336135, -0.00119443, 0.00106031, 0.551216, 16.6718, 20.8631, 17.4435, 1.14093, 3.70395, -0.0685925, 0.000524534, -0.0014849, 0.00123346, 0.00205215, -0.00276637, 0.000717739, 0.0105577, -0.00118103, -0.00537857, 0.00344397, 0.0574842, 0.0155646, -0.0110465, -0.444772, 0.634894, -3.13154, -0.0557483, -0.10804, -0.0104919, -0.443258, 0.633709, -3.12967, -0.0551458, -0.10358, 0.00396204, -0.00301977, -0.00858229, -0.00615171, -0.00452457, -0.0146844
0.0612922, 0.107559, -0.774453, -0.917914, -1.45908, -0.626256, 1.06999, -0.256735, -0.00563955, -0.0015685, -0.0122405, -0.0331735, -0.0343936, -0.00174085, 0.00141895, 0.511544, 16.6718, 20.7917, 17.5586, 1.12903, 3.73324, -0.0878186, 0.000515512, -0.00148454, 0.00123753, 0.00203959, -0.00284357, 0.000739459, 0.0103323, -0.000441441, -0.00448128, 0.00543475, 0.0599304, 0.016925, -0.0110424, -0.444775, 0.634885, -3.13152, -0.0557596, -0.108071, -0.0104965, -0.443262, 0.633696, -3.12967, -0.0551233, -0.103491, 0.00412125, -0.00313597, -0.00891658, -0.00585594, -0.00390171, -0.0141034
0.0622922, 0.107549, -0.774451, -0.917929, -1.45911, -0.626298, 1.06999, -0.256741, -0.00451516, -0.000212032, -0.0129689, -0.0317727, -0.0351443, -0.00183508, -0.000986813, 0.511544, 16.636, 20.8274, 17.5943, 1.12262, 3.7543, -0.0356336, 0.000501385, -0.00148255, 0.00124113, 0.00202766, -0.00291996, 0.000766959, 0.0102409, -0.000611738, -0.00390345, 0.00669066, 0.0615004, 0.0200614, -0.0110382, -0.444778, 0.634876, -3.13149, -0.0557713, -0.108103, -0.0105061, -0.443268, 0.633682, -3.12966, -0.0550923, -0.103404, 0.00428343, -0.00325403, -0.00925645, -0.00563615, -0.00419188, -0.0138619
0.0632922, 0.107542, -0.77445, -0.917942, -1.45914, -0.626342, 1.06998, -0.256738, -0.00587504, -0.000142541, -0.0126727, -0.0348297, -0.0360426, -0.00246678, 0.000562828, 0.475838, 16.636, 20.8274, 17.6697, 1.12903, 3.79001, -0.0685925, 0.000488187, -0.00148211, 0.00124564, 0.0020203, -0.00300098, 0.000798567, 0.0104714, -0.000184856, -0.00440722, 0.00581248, 0.0650182, 0.0197871, -0.0110339, -0.444781, 0.634867, -3.13147, -0.0557834, -0.108137, -0.0105145, -0.443272, 0.633667, -3.12965, -0.0550556, -0.103311, 0.00444857, -0.00337392, -0.00960188, -0.0056813, -0.00388878, -0.0147232
0.0642922, 0.10754, -0.774453, -0.917955, -1.45917, -0.626384, 1.06998, -0.256737, -0.00283953, -0.000931135, -0.0102391, -0.0361778, -0.0360286, -0.00239905, 0.000612578, 0.400459, 16.6718, 20.8631, 17.7054, 1.11713, 3.81198, -0.0750012, 0.000475506, -0.00148072, 0.00124787, 0.00200736, -0.00307276, 0.00082537, 0.00843699, 0.000391176, -0.0038804, 0.00712227, 0.0654672, 0.0266051, -0.0110293, -0.444785, 0.634857, -3.13145, -0.055796, -0.108171, -0.0105224, -0.443277, 0.633655, -3.12965, -0.0550265, -0.103234, 0.00461665, -0.00349563, -0.0099528, -0.00354177, -0.00336773, -0.0144044
0.0652922, 0.107534, -0.774453, -0.917967, -1.4592, -0.626421, 1.06998, -0.256738, -0.00462066, 0.000213794, -0.0106409, -0.0348021, -0.0412374, -0.0023348, -0.00104968, 0.360787, 16.636, 20.8631, 17.7808, 1.11713, 3.83304, -0.0356336, 0.000464436, -0.00148065, 0.0012509, 0.00199728, -0.00314774, 0.0008483, 0.0104465, -0.000174735, -0.00310415, 0.0109004, 0.0701296, 0.0242873, -0.0110246, -0.444788, 0.634847, -3.13143, -0.055809, -0.108207, -0.0105285, -0.443281, 0.633641, -3.12964, -0.0550041, -0.103153, 0.00478767, -0.00361914, -0.0103092, -0.0054073, -0.00413473, -0.0141293
0.0662922, 0.107532, -0.774456, -0.917982, -1.45923, -0.626461, 1.06998, -0.256736, -0.00826424, -0.000693189, -0.0119269, -0.0329252, -0.0401875, -0.00260826, -0.000462426, 0.285408, 16.6718, 20.9028, 17.8204, 1.11072, 3.86233, -0.0420422, 0.000451301, -0.00147867, 0.00125277, 0.00198218, -0.00321783, 0.00087742, 0.0131009, -0.000159842, -0.00247203, 0.0113139, 0.0678799, 0.0199529, -0.0110198, -0.444792, 0.634836, -3.1314, -0.0558225, -0.108244, -0.0105366, -0.443287, 0.633627, -3.12964, -0.0549722, -0.103081, 0.00496161, -0.00374443, -0.010671, -0.00792366, -0.00434464, -0.0140443
0.0672922, 0.107528, -0.774457, -0.917997, -1.45926, -0.626505, 1.06998, -0.256731, -0.00559218, -0.00139052, -0.00964226, -0.0347568, -0.0403244, -0.00222246, 0.00138714, 0.245735, 16.7114, 20.9385, 17.8561, 1.12903, 3.87607, -0.0878186, 0.000437175, -0.00147658, 0.00125434, 0.00196478, -0.00329483, 0.000914015, 0.0111501, 0.000359955, -0.00207614, 0.0126639, 0.068717, 0.024731, -0.0110147, -0.444796, 0.634825, -3.13138, -0.0558365, -0.108282, -0.0105454, -0.443293, 0.633614, -3.12963, -0.0549292, -0.103, 0.00513848, -0.00387148, -0.0110382, -0.0058478, -0.00388695, -0.0138784
0.0682922, 0.107527, -0.774456, -0.918012, -1.45928, -0.626543, 1.06997, -0.256738, -0.00272291, -0.000927296, -0.0133885, -0.032855, -0.0388996, -0.00281922, -0.00148274, 0.170357, 16.7114, 20.9385, 17.8918, 1.11072, 3.91269, -0.0228162, 0.000424948, -0.00147648, 0.00125551, 0.00195409, -0.00337116, 0.000933081, 0.0112759, -0.000137762, -0.00230144, 0.010726, 0.067868, 0.0286814, -0.0110095, -0.4448, 0.634814, -3.13135, -0.055851, -0.108322, -0.0105523, -0.443298, 0.633601, -3.12962, -0.0549141, -0.10292, 0.00531825, -0.00400028, -0.0114107, -0.00575993, -0.00451557, -0.014488
0.0692922, 0.107522, -0.774458, -0.918025, -1.45931, -0.626586, 1.06997, -0.256737, -0.00238379, -0.000618408, -0.00909841, -0.0326277, -0.0436309, -0.00210277, -0.000751134, 0.170357, 16.7114, 20.9028, 17.9672, 1.11713, 3.9191, -0.0292249, 0.000411056, -0.0014755, 0.00125598, 0.00193583, -0.00344836, 0.000963256, 0.0107016, 0.000142201, -0.000556597, 0.017094, 0.0715911, 0.0305542, -0.0110041, -0.444804, 0.634803, -3.13133, -0.0558659, -0.108363, -0.0105606, -0.443303, 0.633588, -3.12962, -0.054882, -0.102841, 0.00550092, -0.0041308, -0.0117885, -0.005135, -0.00436196, -0.0130838
0.0702922, 0.107524, -0.774456, -0.918046, -1.45934, -0.626624, 1.06996, -0.256732, 0.00058287, 0.00051559, -0.0115964, -0.0273025, -0.0416995, -0.00274764, 0.00119466, 0.059273, 16.6718, 20.9742, 17.9672, 1.10431, 3.95572, -0.0750012, 0.00039846, -0.0014739, 0.00125751, 0.00192442, -0.00352656, 0.000997189, 0.0107995, -0.000246735, 0.000646169, 0.0176816, 0.0687872, 0.0292549, -0.0109985, -0.444808, 0.634791, -3.1313, -0.0558813, -0.108405, -0.0105674, -0.443309, 0.633574, -3.12961, -0.0548448, -0.102762, 0.00568647, -0.00426302, -0.0121715, -0.005116, -0.00489741, -0.0122767
0.0712922, 0.10752, -0.774464, -0.918064, -1.45936, -0.626665, 1.06996, -0.256735, -0.000766431, -0.00225485, -0.0148702, -0.0273925, -0.0405062, -0.00260374, -0.000186901, 0.0949785, 16.7828, 20.9742, 18.0069, 1.0979, 3.97677, -0.0484509, 0.000380525, -0.00147229, 0.00125827, 0.0019084, -0.00359761, 0.00102853, 0.0131773, -0.000643174, 3.74729e-05, 0.015762, 0.0657814, 0.0288482, -0.0109927, -0.444812, 0.634778, -3.13127, -0.0558972, -0.108449, -0.0105794, -0.443316, 0.633559, -3.1296, -0.0548119, -0.102695, 0.00587491, -0.00439694, -0.0125597, -0.00724191, -0.00550614, -0.0134399
0.0722922, 0.107522, -0.774459, -0.918083, -1.45939, -0.626703, 1.06996, -0.256735, 8.44191e-05, 0.000167115, -0.0172096, -0.0284462, -0.039427, -0.00250979, -0.0013114, 0.059273, 16.7114, 20.9742, 18.0783, 1.086, 3.99783, -0.0164075, 0.000369863, -0.00147125, 0.00125908, 0.00189376, -0.00368138, 0.00105472, 0.0125397, -0.00074593, -0.000473137, 0.0141542, 0.068676, 0.0315349, -0.0109867, -0.444817, 0.634765, -3.13124, -0.0559137, -0.108494, -0.0105839, -0.443322, 0.633545, -3.12959, -0.0547877, -0.10261, 0.00606621, -0.00453252, -0.0129531, -0.00637597, -0.00571729, -0.0142995
0.0732922, 0.107527, -0.774457, -0.918107, -1.45941, -0.626741, 1.06996, -0.256731, 0.000804416, 0.000111343, -0.017649, -0.0273669, -0.0387238, -0.00248254, 0.00129588, 0.0196001, 16.7114, 21.0496, 18.0783, 1.07959, 4.0198, -0.0750012, 0.000356575, -0.00146886, 0.00125965, 0.0018795, -0.00375996, 0.00108998, 0.0126244, -0.000695647, 0.000119541, 0.0149235, 0.067954, 0.0305538, -0.0109806, -0.444821, 0.634752, -3.13121, -0.0559306, -0.108541, -0.0105909, -0.443329, 0.63353, -3.12958, -0.0547498, -0.102534, 0.00626038, -0.00466976, -0.0133516, -0.00630891, -0.00581285, -0.0141128
0.0742922, 0.107532, -0.774461, -0.918129, -1.45943, -0.626779, 1.06995, -0.256731, 0.00756088, -0.000761039, -0.0162098, -0.0235127, -0.0381333, -0.00243158, 0.00110128, -0.0161054, 16.7471, 21.0496, 18.0783, 1.0741, 4.04086, -0.0814099, 0.000342561, -0.00146704, 0.00125915, 0.00186281, -0.00383316, 0.00111824, 0.0102828, -0.000650483, 0.00188613, 0.0180676, 0.0646521, 0.0383664, -0.0109742, -0.444826, 0.634739, -3.13118, -0.055948, -0.108588, -0.0105984, -0.443336, 0.633516, -3.12957, -0.0547232, -0.102468, 0.00645739, -0.00480863, -0.0137552, -0.00390112, -0.00584019, -0.0125916
0.0752922, 0.107527, -0.774456, -0.918158, -1.45945, -0.626818, 1.06994, -0.256736, 0.00370319, 0.00125584, -0.023148, -0.0228918, -0.0380843, -0.00348352, -0.000961237, 0.059273, 16.6718, 21.1249, 18.0426, 1.0741, 4.09122, -0.0356336, 0.000322853, -0.00146521, 0.00125975, 0.00185322, -0.00391836, 0.00115886, 0.0140058, -0.00153182, 0.000623355, 0.0141979, 0.0676009, 0.0324967, -0.0109676, -0.444831, 0.634725, -3.13115, -0.055966, -0.108638, -0.0106114, -0.443344, 0.6335, -3.12956, -0.0546783, -0.102384, 0.00665724, -0.00494912, -0.0141638, -0.00729398, -0.0069817, -0.0145248
0.0762922, 0.107531, -0.774456, -0.918181, -1.45948, -0.626854, 1.06994, -0.256732, 0.00371619, 0.000837199, -0.0225038, -0.0220943, -0.0373564, -0.00391416, -0.000166107, 0.0196001, 16.6718, 21.0892, 18.118, 1.05578, 4.13424, -0.0484509, 0.000309749, -0.00146487, 0.00126113, 0.00184308, -0.00400267, 0.00119089, 0.0141564, -0.00115271, 0.00142215, 0.0151514, 0.0668779, 0.0336586, -0.0109609, -0.444836, 0.63471, -3.13111, -0.0559845, -0.108688, -0.0106176, -0.443349, 0.633484, -3.12954, -0.0546473, -0.102304, 0.00685993, -0.0050912, -0.0145774, -0.0073103, -0.00675788, -0.0141499
0.0772922, 0.107531, -0.774456, -0.918208, -1.4595, -0.626892, 1.06993, -0.25673, 0.002717, 0.000558112, -0.0230463, -0.0168735, -0.0375575, -0.00420173, 0.00134732, 0.0196001, 16.6718, 21.0892, 18.0069, 1.05578, 4.17727, -0.0878186, 0.000289819, -0.00146241, 0.00125828, 0.00182431, -0.00407862, 0.00123721, 0.0161793, -0.00137936, 0.00328749, 0.0184312, 0.0640996, 0.0294892, -0.0109539, -0.444841, 0.634696, -3.13108, -0.0560035, -0.108741, -0.0106306, -0.443358, 0.633471, -3.12953, -0.0545942, -0.102238, 0.00706543, -0.00523486, -0.0149959, -0.00924241, -0.00721738, -0.0128503
0.0782922, 0.107533, -0.774456, -0.918241, -1.45953, -0.626927, 1.06993, -0.256734, 0.00199098, 0.000372058, -0.0275164, -0.0207414, -0.0373727, -0.0036139, -0.000288579, 0.0196001, 16.6718, 21.1249, 18.0783, 1.04938, 4.19925, -0.0557752, 0.000272876, -0.00146057, 0.00126154, 0.00181955, -0.00416359, 0.00126939, 0.0172691, -0.00191272, 0.00133837, 0.0146658, 0.0667786, 0.0306296, -0.0109468, -0.444846, 0.63468, -3.13105, -0.0560231, -0.108794, -0.01064, -0.443365, 0.633451, -3.12951, -0.0545642, -0.102159, 0.00727374, -0.00538009, -0.0154193, -0.00996644, -0.00791623, -0.0152982
0.0792922, 0.107531, -0.774446, -0.91827, -1.45955, -0.626963, 1.06992, -0.256734, 0.00053404, 0.0036817, -0.0250806, -0.0208897, -0.0372358, -0.00345963, -0.00117573, 0.059273, 16.525, 21.0496, 18.0426, 1.04297, 4.22763, -0.0292249, 0.000256465, -0.00145905, 0.00125972, 0.00180271, -0.00425478, 0.00131237, 0.0162274, -0.00117712, 0.00260797, 0.0174112, 0.07047, 0.0336163, -0.0109394, -0.444852, 0.634665, -3.13101, -0.0560432, -0.10885, -0.010649, -0.443373, 0.633436, -3.12949, -0.0545175, -0.102072, 0.00748486, -0.00552686, -0.0158476, -0.00883125, -0.00730317, -0.0143831
0.0802922, 0.107538, -0.774446, -0.918304, -1.45957, -0.626996, 1.06992, -0.256728, 0.00222032, 0.00245446, -0.0282355, -0.0195834, -0.0376487, -0.00203456, 0.000911601, -0.0161054, 16.525, 21.0496, 18.0783, 1.04938, 4.2203, -0.0750012, 0.00024142, -0.00145662, 0.0012619, 0.00179481, -0.00433753, 0.00135131, 0.0172486, -0.00208482, 0.00258311, 0.0181641, 0.0687509, 0.0315346, -0.0109318, -0.444858, 0.634649, -3.13097, -0.0560639, -0.108906, -0.0106561, -0.443381, 0.633417, -3.12947, -0.054478, -0.102, 0.00769877, -0.00567515, -0.0162807, -0.00960103, -0.00839484, -0.0149191
0.0812922, 0.107535, -0.774441, -0.918346, -1.45959, -0.62703, 1.06992, -0.256726, 0.000720785, 0.00247152, -0.031578, -0.0232316, -0.0371703, -0.0016272, 0.00108245, 0.0196001, 16.4893, 21.0892, 18.0426, 1.03656, 4.22763, -0.0878186, 0.000218403, -0.00145252, 0.00126312, 0.00178432, -0.0044233, 0.00140784, 0.0182703, -0.00231781, 0.00105219, 0.0150631, 0.0713224, 0.0310337, -0.010924, -0.444863, 0.634632, -3.13094, -0.0560851, -0.108965, -0.010671, -0.443392, 0.633398, -3.12945, -0.0544116, -0.101924, 0.00791545, -0.00582496, -0.0167186, -0.0102884, -0.0087995, -0.0169577
0.0822922, 0.107546, -0.774433, -0.91838, -1.45962, -0.627067, 1.06992, -0.256735, 0.00313582, 0.00738199, -0.0313218, -0.0237019, -0.0380648, -0.000541929, -0.00243185, -0.0914839, 16.3782, 21.0138, 18.0426, 1.05578, 4.21298, -0.00267457, 0.000207242, -0.00144951, 0.0012634, 0.00176801, -0.00451749, 0.00142937, 0.0157793, -0.00233233, 0.00164092, 0.0173532, 0.0772794, 0.0385734, -0.010916, -0.444869, 0.634615, -3.1309, -0.0561069, -0.109025, -0.010674, -0.443401, 0.63338, -3.12943, -0.0544, -0.101837, 0.00813491, -0.00597625, -0.0171612, -0.00762579, -0.00888276, -0.0166403
0.0832922, 0.107547, -0.77443, -0.918425, -1.45965, -0.627095, 1.06992, -0.256729, 0.00529394, 0.00601786, -0.0330432, -0.0248002, -0.0372312, 0.000147591, 0.000582815, -0.0914839, 16.3425, 21.0138, 18.0783, 1.03656, 4.19925, -0.0621838, 0.000187373, -0.00144546, 0.00126619, 0.00176095, -0.00460092, 0.00148269, 0.0155152, -0.00254773, 0.00121999, 0.0164901, 0.0763748, 0.0390093, -0.0109077, -0.444875, 0.634598, -3.13086, -0.0561293, -0.109086, -0.0106852, -0.443412, 0.633358, -3.12941, -0.0543399, -0.101768, 0.00835714, -0.00612902, -0.0176085, -0.00710329, -0.00923765, -0.0174913
0.0842922, 0.10755, -0.774417, -0.918466, -1.45967, -0.627129, 1.06992, -0.25673, 0.00382467, 0.00764157, -0.0357208, -0.0232216, -0.0331251, -0.000172685, -0.000120083, -0.0914839, 16.1957, 20.9385, 18.0069, 1.04938, 4.20657, -0.0484509, 0.000169269, -0.00144176, 0.00126554, 0.00174624, -0.0046962, 0.00153037, 0.0162789, -0.00239382, 0.00148084, 0.0146429, 0.0747522, 0.039012, -0.0108992, -0.444881, 0.63458, -3.13082, -0.0561522, -0.109149, -0.0106946, -0.443422, 0.63334, -3.12939, -0.054289, -0.101683, 0.00858211, -0.00628324, -0.0180604, -0.00766322, -0.00926795, -0.017736
0.0852922, 0.107558, -0.774412, -0.918516, -1.4597, -0.627165, 1.06992, -0.256735, 0.00453454, 0.00924455, -0.0402813, -0.0247055, -0.0349637, 0.000427552, -0.00150421, -0.166862, 16.16, 20.9742, 18.0426, 1.06769, 4.19192, -0.00999879, 0.000150263, -0.00143619, 0.00126947, 0.00173872, -0.00479072, 0.00157291, 0.0171287, -0.00331366, 0.000293088, 0.0131516, 0.0792533, 0.0391861, -0.0108905, -0.444888, 0.634562, -3.13078, -0.0561758, -0.109214, -0.0107044, -0.443435, 0.633316, -3.12936, -0.0542468, -0.1016, 0.00880983, -0.00643891, -0.018517, -0.00816693, -0.0103619, -0.0194441
0.0862922, 0.107568, -0.774404, -0.918566, -1.45972, -0.627197, 1.06992, -0.25673, 0.00723862, 0.0114123, -0.0428535, -0.0200465, -0.0352821, 0.000285141, 0.000421348, -0.206535, 16.0846, 20.9742, 17.9672, 1.06128, 4.19192, -0.0484509, 0.000132007, -0.00143106, 0.00127128, 0.00172945, -0.00488454, 0.00162404, 0.0173413, -0.00396524, 0.00144457, 0.0149888, 0.0794777, 0.0371357, -0.0108816, -0.444894, 0.634543, -3.13073, -0.0561999, -0.10928, -0.0107133, -0.443447, 0.633294, -3.12933, -0.0541919, -0.101519, 0.00904028, -0.00659599, -0.0189781, -0.00820482, -0.011189, -0.018777
0.0872922, 0.107581, -0.774398, -0.918617, -1.45974, -0.62723, 1.06992, -0.256729, 0.0108811, 0.00898339, -0.0470387, -0.0176378, -0.0307462, 0.000190173, 0.000552166, -0.317619, 16.0489, 20.9385, 17.9315, 1.04938, 4.19192, -0.0557752, 0.000114004, -0.00142606, 0.00127333, 0.00172086, -0.00497733, 0.00166915, 0.0176308, -0.00436552, 0.00125653, 0.0120218, 0.0729626, 0.0401001, -0.0108725, -0.444901, 0.634524, -3.13069, -0.0562246, -0.109348, -0.0107218, -0.443459, 0.633272, -3.1293, -0.0541469, -0.101442, 0.00927346, -0.00675447, -0.0194438, -0.00823267, -0.0117563, -0.0194543
0.0882922, 0.107586, -0.774393, -0.918668, -1.45976, -0.627265, 1.06992, -0.256735, 0.00696342, 0.00954609, -0.0470468, -0.0219231, -0.033212, 0.000398109, -0.00132731, -0.281914, 16.0489, 20.9028, 17.8918, 1.06769, 4.1846, -0.00999879, 9.15607e-05, -0.00142063, 0.00127466, 0.00170887, -0.00507251, 0.00171847, 0.0189654, -0.00412781, 0.000592419, 0.0121123, 0.0787, 0.0408069, -0.0108631, -0.444908, 0.634504, -3.13064, -0.0562499, -0.109417, -0.0107344, -0.443472, 0.633249, -3.12928, -0.0540959, -0.101363, 0.00950935, -0.00691434, -0.0199139, -0.00928946, -0.0117199, -0.0206795
0.0892922, 0.1076, -0.774384, -0.918729, -1.45979, -0.627298, 1.06992, -0.256734, 0.00901832, 0.0109654, -0.0496349, -0.0260325, -0.0340673, 0.000536718, -0.000647515, -0.317619, 16.0092, 20.9742, 17.8918, 1.06128, 4.17727, -0.0164075, 7.19135e-05, -0.00141392, 0.00127992, 0.00170651, -0.00517374, 0.00176956, 0.0179643, -0.00434086, -0.000906211, 0.00953103, 0.0841639, 0.0436441, -0.0108534, -0.444915, 0.634484, -3.1306, -0.0562758, -0.109488, -0.0107437, -0.443487, 0.633223, -3.12924, -0.0540431, -0.101276, 0.00974794, -0.00707558, -0.0203885, -0.00794065, -0.012044, -0.0225815
0.0902922, 0.107618, -0.774373, -0.91878, -1.45982, -0.627326, 1.06992, -0.25673, 0.00927082, 0.0119324, -0.0461753, -0.0259961, -0.034028, 0.000629113, 0.000755118, -0.43267, 15.9735, 20.8274, 17.8918, 1.03656, 4.16995, -0.0484509, 5.84021e-05, -0.00141038, 0.00128169, 0.00170095, -0.00527449, 0.00180982, 0.0166372, -0.00349871, 0.000618539, 0.0128458, 0.0855461, 0.0468745, -0.0108436, -0.444922, 0.634463, -3.13055, -0.0563023, -0.109561, -0.0107471, -0.443498, 0.633199, -3.1292, -0.0540077, -0.101191, 0.00998923, -0.00723817, -0.0208674, -0.00651298, -0.0113331, -0.0214414
0.0912922, 0.10763, -0.774366, -0.918846, -1.45984, -0.627354, 1.06992, -0.256733, 0.0128832, 0.0118856, -0.0514672, -0.0281102, -0.0345005, 0.00119933, 0.00077468, -0.43267, 15.9735, 20.8631, 17.8561, 1.02466, 4.14889, -0.0557752, 3.62067e-05, -0.00140354, 0.00128643, 0.00169983, -0.00537102, 0.00186243, 0.0165604, -0.00446244, -0.0010955, 0.00963408, 0.0878869, 0.0490642, -0.0108335, -0.444929, 0.634442, -3.1305, -0.0563295, -0.109636, -0.0107585, -0.443513, 0.633172, -3.12916, -0.0539538, -0.101114, 0.0102332, -0.00740209, -0.0213508, -0.00603777, -0.0124406, -0.0236373
0.0922922, 0.10764, -0.774357, -0.918913, -1.45987, -0.627386, 1.06992, -0.256734, 0.0116601, 0.0118602, -0.0562164, -0.0282571, -0.035431, 0.00107084, -0.00070425, -0.392998, 15.9735, 20.9385, 17.8918, 1.03107, 4.14157, -0.0228162, 1.30321e-05, -0.00139667, 0.00129265, 0.00169987, -0.00547806, 0.00191892, 0.019012, -0.00523766, -0.0019605, 0.00780403, 0.0896083, 0.047125, -0.0108231, -0.444937, 0.634421, -3.13045, -0.0563573, -0.109712, -0.0107705, -0.443528, 0.633143, -3.12912, -0.0538947, -0.101023, 0.0104799, -0.00756732, -0.0218384, -0.00814639, -0.0134595, -0.0251665
0.0932922, 0.107652, -0.774354, -0.918976, -1.4599, -0.627418, 1.06993, -0.256735, 0.0141274, 0.00931425, -0.0577577, -0.0290068, -0.0308187, 0.00125644, 5.21781e-06, -0.357292, 16.0846, 20.9385, 17.8204, 1.01825, 4.12692, -0.0356336, -1.0385e-05, -0.00138942, 0.00129502, 0.0016899, -0.00557325, 0.00197401, 0.0183196, -0.00493588, -0.00227835, 0.00511166, 0.0847429, 0.0521056, -0.0108125, -0.444944, 0.634399, -3.1304, -0.0563857, -0.10979, -0.0107828, -0.443543, 0.633116, -3.12909, -0.053838, -0.100952, 0.0107292, -0.00773386, -0.0223304, -0.00719534, -0.0132968, -0.0259259
0.0942922, 0.10767, -0.774338, -0.919041, -1.45993, -0.627446, 1.06993, -0.256731, 0.0145802, 0.012005, -0.0621474, -0.0314376, -0.0280954, 0.00134626, 0.000478196, -0.392998, 16.0092, 20.9385, 17.8204, 1.02466, 4.11319, -0.0484509, -2.7457e-05, -0.00138369, 0.00129935, 0.00168926, -0.00568456, 0.00202614, 0.0178858, -0.00510512, -0.00366486, 0.000913195, 0.0877908, 0.0531025, -0.0108016, -0.444952, 0.634376, -3.13035, -0.0564147, -0.10987, -0.0107884, -0.443557, 0.633088, -3.12905, -0.0537869, -0.100857, 0.0109812, -0.00790168, -0.0228265, -0.00640747, -0.0136045, -0.0277771
0.0952922, 0.10768, -0.774331, -0.919111, -1.45996, -0.627477, 1.06993, -0.256734, 0.0145663, 0.0102753, -0.0630062, -0.0339287, -0.026692, 0.00171132, -0.000867997, -0.281914, 16.0846, 20.9742, 17.8561, 1.04938, 4.09122, -0.0164075, -5.14414e-05, -0.00137699, 0.00130545, 0.00168911, -0.00579256, 0.00208173, 0.0180773, -0.00487413, -0.00418647, -0.000498146, 0.0871743, 0.0575704, -0.0107905, -0.44496, 0.634353, -3.1303, -0.0564444, -0.109952, -0.0108005, -0.443573, 0.633058, -3.129, -0.0537311, -0.10077, 0.0112358, -0.00807076, -0.0233269, -0.00631523, -0.0135445, -0.0288107
0.0962922, 0.107704, -0.774317, -0.91918, -1.45999, -0.627507, 1.06994, -0.256736, 0.0160134, 0.0109207, -0.0659406, -0.0340448, -0.0299638, 0.00246331, -0.00132465, -0.357292, 16.0846, 20.9742, 17.8204, 1.06769, 4.05551, 0.00373412, -6.73235e-05, -0.00136912, 0.00130936, 0.00168144, -0.00590422, 0.00212666, 0.0189429, -0.00578024, -0.0044872, 0.000563938, 0.0908432, 0.0575782, -0.0107792, -0.444968, 0.634329, -3.13025, -0.0564747, -0.110035, -0.0108043, -0.443589, 0.633029, -3.12896, -0.0536923, -0.100678, 0.011493, -0.00824109, -0.0238314, -0.00686653, -0.0146483, -0.0296842
0.0972922, 0.107723, -0.774301, -0.919255, -1.46002, -0.627538, 1.06994, -0.25673, 0.0173534, 0.0122672, -0.0660622, -0.0351347, -0.0278094, 0.00242211, 0.00104968, -0.317619, 16.0489, 21.0138, 17.8204, 1.086, 4.03445, -0.0484509, -8.72629e-05, -0.00136132, 0.00131532, 0.00168054, -0.0060222, 0.00218857, 0.0175581, -0.0053017, -0.0043268, -0.000111606, 0.0920122, 0.0598937, -0.0107676, -0.444977, 0.634305, -3.13019, -0.0565057, -0.11012, -0.0108119, -0.443606, 0.632998, -3.12892, -0.053628, -0.100579, 0.0117529, -0.00841265, -0.0243401, -0.00525435, -0.0142939, -0.029933
0.0982922, 0.107735, -0.774291, -0.919328, -1.46006, -0.627562, 1.06994, -0.256735, 0.013631, 0.0106686, -0.0681484, -0.0384143, -0.0249771, 0.00269981, -0.000724367, -0.206535, 16.1203, 21.0138, 17.9315, 1.0741, 4.00516, -0.00999879, -0.000108001, -0.00135542, 0.00132329, 0.0016857, -0.00613686, 0.00223738, 0.0193176, -0.00497161, -0.00531447, -0.00318784, 0.0910396, 0.061288, -0.0107557, -0.444985, 0.634281, -3.13014, -0.0565373, -0.110207, -0.0108198, -0.443621, 0.632964, -3.12886, -0.053585, -0.100485, 0.0120154, -0.00858543, -0.0248528, -0.00668809, -0.0141896, -0.0315536
0.0992922, 0.107751, -0.774277, -0.919401, -1.46009, -0.62759, 1.06994, -0.256731, 0.0149657, 0.0144083, -0.0698631, -0.0363947, -0.0244678, 0.00207114, 0.000703883, -0.131157, 16.1203, 21.0138, 17.8561, 1.10431, 3.99783, -0.0420422, -0.00012973, -0.00134891, 0.00132728, 0.00168378, -0.0062523, 0.0022986, 0.0187575, -0.00501894, -0.00460914, -0.00274985, 0.0941965, 0.0609663, -0.0107435, -0.444994, 0.634256, -3.13008, -0.0565696, -0.110296, -0.0108288, -0.443637, 0.632933, -3.12882, -0.0535232, -0.100393, 0.0122806, -0.0087594, -0.0253696, -0.00591193, -0.0143982, -0.0313291
0.100292, 0.107775, -0.774262, -0.919482, -1.46013, -0.627618, 1.06994, -0.256735, 0.0178237, 0.010891, -0.0728952, -0.0335519, -0.0193811, 0.00243193, -0.000988806, -0.131157, 16.1203, 21.0892, 17.8561, 1.13544, 3.96945, -0.00267457, -0.000148562, -0.00134164, 0.00133546, 0.00169126, -0.00637618, 0.00234602, 0.0193144, -0.00522732, -0.00425718, -0.00451128, 0.0856861, 0.0660928, -0.0107311, -0.445003, 0.63423, -3.13002, -0.0566025, -0.110386, -0.0108343, -0.443653, 0.632898, -3.12876, -0.0534838, -0.100289, 0.0125483, -0.00893455, -0.0258904, -0.00621597, -0.0148053, -0.0315411
0.101292, 0.107788, -0.774242, -0.919557, -1.46017, -0.627647, 1.06995, -0.256732, 0.0163423, 0.0122025, -0.0746806, -0.0353456, -0.0197257, 0.00212991, 0.000561499, 0.0196001, 16.0846, 21.0138, 17.8918, 1.15375, 3.95572, -0.0356336, -0.000168286, -0.00133555, 0.00134232, 0.00169205, -0.00650912, 0.00240743, 0.0201056, -0.00518099, -0.00470154, -0.00556218, 0.0893752, 0.064375, -0.0107184, -0.445012, 0.634204, -3.12996, -0.0566361, -0.110479, -0.0108405, -0.443669, 0.632863, -3.12871, -0.0534232, -0.100173, 0.0128186, -0.00911087, -0.0264151, -0.00670436, -0.0149591, -0.032566
0.102292, 0.107805, -0.774233, -0.919632, -1.46021, -0.627674, 1.06995, -0.256736, 0.0172031, 0.00968942, -0.073888, -0.0397665, -0.0200437, 0.00223374, -0.00108373, 0.0949785, 16.1957, 20.9742, 17.9315, 1.17206, 3.93374, 0.00373412, -0.000189358, -0.00132956, 0.00134897, 0.00169382, -0.00662983, 0.00245566, 0.0195974, -0.00469148, -0.00539175, -0.00651532, 0.0906444, 0.071544, -0.0107055, -0.445021, 0.634177, -3.1299, -0.0566704, -0.110573, -0.0108478, -0.443685, 0.632829, -3.12865, -0.0533838, -0.100078, 0.0130915, -0.00928833, -0.0269437, -0.00589368, -0.0146221, -0.0337448
0.103292, 0.107824, -0.774209, -0.919709, -1.46025, -0.627699, 1.06995, -0.25673, 0.0210102, 0.0123263, -0.0733814, -0.0373423, -0.0150969, 0.00176043, 0.00121029, 0.170357, 16.1203, 20.9385, 17.8561, 1.17847, 3.92642, -0.0484509, -0.000206938, -0.00132397, 0.00135326, 0.00169367, -0.006762, 0.00251603, 0.0167678, -0.0039452, -0.00402465, -0.00645969, 0.0889418, 0.0764865, -0.0106922, -0.44503, 0.63415, -3.12984, -0.0567054, -0.110669, -0.0108515, -0.4437, 0.632796, -3.1286, -0.0533262, -0.0999673, 0.0133669, -0.00946692, -0.0274763, -0.00292053, -0.013968, -0.0327089
0.104292, 0.107839, -0.774193, -0.919789, -1.46029, -0.627725, 1.06995, -0.25673, 0.0197425, 0.0146359, -0.0766854, -0.0374695, -0.0165785, 0.00168225, 0.000806862, 0.285408, 16.16, 20.9385, 17.8561, 1.19678, 3.91269, -0.0484509, -0.000228354, -0.00131822, 0.00136038, 0.00169814, -0.00689376, 0.0025739, 0.0182034, -0.00444471, -0.00432776, -0.00679326, 0.0933758, 0.0744185, -0.0106787, -0.44504, 0.634122, -3.12978, -0.056741, -0.110767, -0.0108586, -0.443716, 0.63276, -3.12854, -0.0532733, -0.0998586, 0.0136449, -0.00964662, -0.0280126, -0.00403355, -0.0146952, -0.0336547
0.105292, 0.107864, -0.774172, -0.919863, -1.46033, -0.627748, 1.06996, -0.256736, 0.0216103, 0.013288, -0.0737914, -0.0349473, -0.0164965, 0.0019353, -0.00139487, 0.285408, 16.1957, 20.8274, 17.7451, 1.18396, 3.89071, 0.00373412, -0.000242784, -0.00131282, 0.00136306, 0.00169251, -0.00702218, 0.00261431, 0.0175664, -0.00396432, -0.00226371, -0.00251633, 0.0908442, 0.081408, -0.0106649, -0.44505, 0.634094, -3.12971, -0.0567774, -0.110867, -0.0108588, -0.443732, 0.632728, -3.12849, -0.0532479, -0.0997577, 0.0139255, -0.00982742, -0.0285528, -0.00328063, -0.0143953, -0.0320884
0.106292, 0.107877, -0.774157, -0.919943, -1.46037, -0.627768, 1.06996, -0.256731, 0.0201527, 0.0145919, -0.0766972, -0.0390748, -0.0168077, 0.00101893, 0.000765507, 0.400459, 16.2671, 20.7917, 17.7451, 1.17847, 3.89804, -0.0420422, -0.000265, -0.001309, 0.00136994, 0.0017022, -0.00715446, 0.00267712, 0.0182995, -0.0038659, -0.0037735, -0.00611093, 0.0964053, 0.079533, -0.0106509, -0.44506, 0.634065, -3.12965, -0.0568144, -0.110969, -0.0108662, -0.443746, 0.63269, -3.12843, -0.053189, -0.0996516, 0.0142086, -0.0100093, -0.0290967, -0.00362495, -0.0144892, -0.0341909
0.107292, 0.107902, -0.774143, -0.920021, -1.46042, -0.627792, 1.06996, -0.256731, 0.022766, 0.0116612, -0.0779867, -0.0372228, -0.022415, 0.000950557, 0.000510338, 0.360787, 16.3782, 20.7163, 17.6697, 1.19037, 3.89071, -0.0420422, -0.000283026, -0.0013043, 0.00137475, 0.00170394, -0.00728598, 0.00272513, 0.0201776, -0.00478882, -0.00319688, -0.00282048, 0.0974125, 0.0797955, -0.0106365, -0.44507, 0.634036, -3.12958, -0.0568522, -0.111073, -0.0108692, -0.443762, 0.632655, -3.12837, -0.0531535, -0.0995493, 0.0144943, -0.0101922, -0.0296444, -0.00521796, -0.0156683, -0.0343059
0.108292, 0.107913, -0.774123, -0.920111, -1.46046, -0.627817, 1.06996, -0.25673, 0.0169205, 0.012316, -0.0783546, -0.0368463, -0.0219922, 0.0014136, 0.000577584, 0.511544, 16.3782, 20.752, 17.634, 1.20318, 3.86966, -0.0484509, -0.000308781, -0.0012976, 0.00138207, 0.00170981, -0.00742588, 0.00279621, 0.0228715, -0.00454338, -0.0023695, -0.00113189, 0.0980011, 0.0756368, -0.0106219, -0.44508, 0.634006, -3.12951, -0.0568906, -0.111178, -0.0108794, -0.443779, 0.632616, -3.1283, -0.0530831, -0.0994353, 0.0147825, -0.0103762, -0.0301957, -0.0076822, -0.0157131, -0.0342232
0.109292, 0.107936, -0.774106, -0.920189, -1.4605, -0.627837, 1.06996, -0.256737, 0.0171131, 0.0108729, -0.0782545, -0.0386078, -0.016183, 0.00148493, -0.00178508, 0.475838, 16.4536, 20.6409, 17.5586, 1.19678, 3.85501, 0.0101428, -0.000326907, -0.00129272, 0.00138497, 0.00170664, -0.00755559, 0.00284039, 0.021925, -0.00359903, -0.00236643, -0.00362606, 0.0940384, 0.0839818, -0.010607, -0.44509, 0.633975, -3.12945, -0.0569298, -0.111286, -0.0108821, -0.443795, 0.632581, -3.12825, -0.0530548, -0.09934, 0.0150731, -0.0105613, -0.0307507, -0.00648242, -0.0149208, -0.0347018
0.110292, 0.107952, -0.774082, -0.920268, -1.46053, -0.627861, 1.06997, -0.25673, 0.0144514, 0.0147751, -0.0791688, -0.035966, -0.0215689, 0.00204112, 0.000980084, 0.551216, 16.4536, 20.5655, 17.4435, 1.20318, 3.82663, -0.0484509, -0.00034755, -0.00128773, 0.00138531, 0.00169737, -0.00769417, 0.00290887, 0.0240083, -0.00429131, -0.000957336, 0.00167626, 0.100816, 0.0759588, -0.0105917, -0.445101, 0.633944, -3.12938, -0.0569696, -0.111396, -0.0108872, -0.443811, 0.632549, -3.12819, -0.0529893, -0.099233, 0.0153663, -0.0107473, -0.0313093, -0.00833998, -0.0158895, -0.034011
0.111292, 0.107968, -0.774065, -0.920356, -1.46058, -0.627881, 1.06997, -0.25673, 0.0134484, 0.0118604, -0.0784587, -0.0368162, -0.0255492, 0.00190328, 0.000653389, 0.586922, 16.5646, 20.5655, 17.4435, 1.20318, 3.81198, -0.0484509, -0.000371891, -0.00128236, 0.00139024, 0.00170053, -0.00783106, 0.0029736, 0.0259732, -0.00435961, -0.000517362, 0.00423758, 0.102297, 0.0764252, -0.0105762, -0.445112, 0.633913, -3.1293, -0.0570102, -0.111507, -0.0108954, -0.443828, 0.63251, -3.12813, -0.0529309, -0.0991299, 0.015662, -0.0109343, -0.0318714, -0.0100313, -0.0162209, -0.0342771
0.112292, 0.107986, -0.774044, -0.920434, -1.46061, -0.627904, 1.06997, -0.256735, 0.013488, 0.014739, -0.0763074, -0.0365858, -0.0202546, 0.00208266, -0.000988561, 0.586922, 16.6003, 20.4941, 17.4078, 1.2334, 3.79001, -0.00999879, -0.000391743, -0.00127785, 0.00138983, 0.00168877, -0.00796905, 0.00302709, 0.0236329, -0.00312194, 0.000862402, 0.00485371, 0.101608, 0.0842077, -0.0105604, -0.445123, 0.63388, -3.12923, -0.0570515, -0.111621, -0.0108991, -0.443845, 0.632477, -3.12808, -0.0528901, -0.099028, 0.0159602, -0.0111224, -0.0324371, -0.00754348, -0.0151037, -0.0332911
0.113292, 0.108001, -0.774022, -0.920509, -1.46065, -0.627922, 1.06998, -0.256732, 0.0125214, 0.0168104, -0.0753717, -0.0362658, -0.0205066, 0.00138844, 5.30362e-05, 0.626595, 16.636, 20.4545, 17.3721, 1.25171, 3.79001, -0.0292249, -0.000413077, -0.00127525, 0.00138765, 0.00167877, -0.00810659, 0.00309007, 0.0235755, -0.00258453, 0.00186172, 0.00646163, 0.104754, 0.0846949, -0.0105443, -0.445134, 0.633848, -3.12916, -0.0570936, -0.111737, -0.0109043, -0.443859, 0.632445, -3.12802, -0.0528354, -0.0989287, 0.0162609, -0.0113113, -0.0330063, -0.00727626, -0.0147654, -0.0328569
0.114292, 0.108016, -0.773992, -0.920592, -1.46068, -0.62794, 1.06998, -0.256726, 0.0118996, 0.0200543, -0.0774352, -0.0368612, -0.0199208, 0.00143425, 0.0010187, 0.6623, 16.6003, 20.5298, 17.3721, 1.25171, 3.77627, -0.0557752, -0.000433336, -0.00127162, 0.00138701, 0.00167184, -0.00825404, 0.00316006, 0.0235514, -0.00258765, 0.00182996, 0.00595326, 0.108797, 0.0841985, -0.0105279, -0.445146, 0.633814, -3.12908, -0.0571363, -0.111854, -0.0109079, -0.443875, 0.632411, -3.12796, -0.0527707, -0.0988157, 0.016564, -0.0115013, -0.033579, -0.00694662, -0.014958, -0.0334615
0.115292, 0.108025, -0.773973, -0.920665, -1.46072, -0.627962, 1.06998, -0.256734, 0.00959607, 0.0197598, -0.074581, -0.0380372, -0.0251885, 0.000956167, -0.00128755, 0.777352, 16.6718, 20.5655, 17.4078, 1.27643, 3.77627, -0.00267457, -0.000458193, -0.00126923, 0.00138246, 0.00165395, -0.00839197, 0.00321893, 0.0248365, -0.00221174, 0.00290373, 0.0102896, 0.114161, 0.0865685, -0.0105112, -0.445157, 0.633781, -3.12901, -0.0571798, -0.111974, -0.0109161, -0.44389, 0.63238, -3.12792, -0.0527236, -0.0987203, 0.0168696, -0.0116921, -0.034155, -0.00801233, -0.0148326, -0.0330574
0.116292, 0.108047, -0.773951, -0.920736, -1.46074, -0.62798, 1.06998, -0.256733, 0.012463, 0.0195381, -0.0713992, -0.0340821, -0.0194353, 0.000366177, -0.000349743, 0.701973, 16.7471, 20.5655, 17.3721, 1.29474, 3.7836, -0.0164075, -0.000476427, -0.00126796, 0.00137577, 0.00163557, -0.00852999, 0.00327283, 0.0226172, -0.000956715, 0.00545708, 0.0124044, 0.108002, 0.0937428, -0.0104942, -0.445169, 0.633746, -3.12893, -0.0572241, -0.112096, -0.0109176, -0.443903, 0.632351, -3.12787, -0.0526849, -0.0986269, 0.0171776, -0.0118839, -0.0347344, -0.00572067, -0.0137201, -0.0309221
0.117292, 0.108061, -0.773922, -0.920802, -1.46077, -0.627995, 1.06998, -0.256728, 0.0156769, 0.0189489, -0.0692417, -0.0320128, -0.0193281, 6.75941e-06, 0.00169962, 0.701973, 16.7114, 20.5655, 17.3721, 1.30115, 3.79001, -0.0685925, -0.000494365, -0.00126849, 0.001367, 0.00161409, -0.00867472, 0.00333491, 0.0213829, -0.00048171, 0.00715038, 0.0154632, 0.106923, 0.0976582, -0.0104768, -0.445181, 0.633711, -3.12885, -0.0572691, -0.112219, -0.0109188, -0.443915, 0.632323, -3.12782, -0.0526342, -0.0985252, 0.017488, -0.0120766, -0.0353172, -0.00431859, -0.0134139, -0.0297252
0.118292, 0.108066, -0.773897, -0.920872, -1.4608, -0.628012, 1.06998, -0.256734, 0.0123032, 0.0197962, -0.0702783, -0.0302941, -0.0150571, 4.50628e-06, -0.000799701, 0.813057, 16.7471, 20.6766, 17.3721, 1.31946, 3.79001, -0.0164075, -0.000519073, -0.00126764, 0.00135748, 0.00158867, -0.00881482, 0.00339964, 0.0227343, 2.31292e-05, 0.00812014, 0.0152555, 0.104243, 0.0992944, -0.0104592, -0.445193, 0.633676, -3.12877, -0.0573148, -0.112345, -0.0109263, -0.443929, 0.632296, -3.12777, -0.05258, -0.098433, 0.0178009, -0.0122702, -0.0359033, -0.00544106, -0.0131643, -0.0294385
0.119292, 0.108076, -0.773876, -0.920939, -1.46082, -0.628027, 1.06998, -0.256732, 0.0116954, 0.0215741, -0.0699613, -0.0249843, -0.020826, -0.000810798, 0.000178943, 0.85273, 16.8582, 20.752, 17.3325, 1.32587, 3.81198, -0.0356336, -0.000543159, -0.00126826, 0.00134591, 0.0015629, -0.00895027, 0.0034665, 0.0249425, -0.000483566, 0.0104679, 0.0215841, 0.108155, 0.0946081, -0.0104412, -0.445205, 0.633639, -3.12869, -0.0573613, -0.112473, -0.0109332, -0.443942, 0.632269, -3.12773, -0.0525232, -0.0983501, 0.0181163, -0.0124646, -0.0364926, -0.0074767, -0.0139737, -0.0278518
0.120292, 0.108086, -0.773845, -0.921, -1.46085, -0.628042, 1.06998, -0.256729, 0.011325, 0.0236109, -0.0696071, -0.0266985, -0.020392, -0.000811799, 0.00110264, 0.888436, 16.8225, 20.8274, 17.4078, 1.33136, 3.8193, -0.0621838, -0.000561435, -0.00127043, 0.00133369, 0.00153462, -0.00910053, 0.00352797, 0.0242065, 1.1066e-05, 0.010744, 0.0219677, 0.111785, 0.0968229, -0.0104229, -0.445218, 0.633603, -3.12861, -0.0574085, -0.112603, -0.010934, -0.443953, 0.632243, -3.12768, -0.0524756, -0.0982464, 0.018434, -0.0126599, -0.0370852, -0.00646412, -0.0136528, -0.0281137
0.121292, 0.108096, -0.773827, -0.921069, -1.46087, -0.628058, 1.06998, -0.256725, 0.010967, 0.020699, -0.0686472, -0.0221615, -0.0156787, -0.00132109, 0.000972452, 0.928108, 16.9693, 21.0138, 17.3721, 1.34418, 3.84036, -0.0685925, -0.000588117, -0.00127103, 0.00132061, 0.00150648, -0.00923563, 0.00360067, 0.0252671, 0.000705493, 0.0128734, 0.0235431, 0.1034, 0.0994349, -0.0104044, -0.445231, 0.633565, -3.12852, -0.0574565, -0.112735, -0.0109429, -0.443966, 0.632217, -3.12764, -0.0524112, -0.0981684, 0.0187541, -0.012856, -0.0376809, -0.00738037, -0.0132203, -0.026658
0.122292, 0.108115, -0.773795, -0.921127, -1.46089, -0.628073, 1.06998, -0.256732, 0.0133454, 0.0262198, -0.0657632, -0.0196772, -0.011863, -0.000880729, -0.00104712, 0.85273, 16.9296, 21.1249, 17.3721, 1.34967, 3.84036, -0.0228162, -0.000604317, -0.00127341, 0.001303, 0.00146749, -0.00938176, 0.00364779, 0.0216034, 0.0017309, 0.0152311, 0.0268622, 0.104912, 0.108727, -0.0103854, -0.445244, 0.633527, -3.12844, -0.0575053, -0.11287, -0.0109414, -0.443978, 0.632196, -3.1276, -0.052387, -0.0980762, 0.0190766, -0.013053, -0.0382798, -0.00361452, -0.0122894, -0.0246336
0.123292, 0.108115, -0.773774, -0.921185, -1.46092, -0.628087, 1.06998, -0.256724, 0.0105683, 0.0266182, -0.063056, -0.0194985, -0.0133919, -0.00112969, 0.0012347, 0.963814, 17.0407, 21.2003, 17.4435, 1.34967, 3.85501, -0.0750012, -0.000630575, -0.00127694, 0.00128652, 0.00143178, -0.00952264, 0.00372504, 0.0224718, 0.00241451, 0.01676, 0.030547, 0.107177, 0.107107, -0.0103662, -0.445257, 0.633489, -3.12835, -0.0575548, -0.113006, -0.0109496, -0.443988, 0.632172, -3.12756, -0.0523169, -0.0979938, 0.0194015, -0.0132507, -0.0388819, -0.00429166, -0.0118558, -0.0237691
0.124292, 0.108127, -0.773753, -0.921245, -1.46093, -0.628099, 1.06998, -0.256725, 0.0121228, 0.0247054, -0.0626704, -0.0207794, -0.0147328, -0.00153302, 0.00106049, 0.928108, 17.1161, 21.3471, 17.4435, 1.34967, 3.87607, -0.0814099, -0.00065276, -0.0012797, 0.00126854, 0.00139328, -0.0096587, 0.00378406, 0.0225545, 0.00262487, 0.0169514, 0.0312258, 0.108171, 0.111359, -0.0103466, -0.44527, 0.633449, -3.12826, -0.0576051, -0.113144, -0.0109534, -0.444, 0.632149, -3.12752, -0.0522757, -0.0979214, 0.0197288, -0.0134493, -0.039487, -0.00406984, -0.0118516, -0.0241894
0.125292, 0.108137, -0.773725, -0.921301, -1.46095, -0.628114, 1.06998, -0.256723, 0.01324, 0.0250931, -0.0607028, -0.0186702, -0.0164235, -0.00156455, 0.000706995, 0.888436, 17.1161, 21.4225, 17.4435, 1.3689, 3.89071, -0.0814099, -0.000674479, -0.00128315, 0.00124733, 0.00134734, -0.00980385, 0.00385043, 0.0223532, 0.00288369, 0.0187631, 0.035506, 0.109263, 0.114652, -0.0103267, -0.445284, 0.63341, -3.12817, -0.0576562, -0.113285, -0.0109568, -0.444011, 0.632129, -3.12748, -0.0522237, -0.0978373, 0.0200585, -0.0136486, -0.0400951, -0.0036813, -0.0118091, -0.0229756
0.126292, 0.108143, -0.773701, -0.921365, -1.46097, -0.628128, 1.06998, -0.256729, 0.00814202, 0.0236996, -0.0617849, -0.0171212, -0.0131152, -0.00158557, -0.00193617, 0.963814, 17.1875, 21.6089, 17.4435, 1.3927, 3.90536, -0.0164075, -0.000701956, -0.00128569, 0.00122813, 0.00130746, -0.00994568, 0.00391775, 0.0253289, 0.00329196, 0.019668, 0.0355744, 0.105217, 0.114407, -0.0103065, -0.445298, 0.633369, -3.12808, -0.0577081, -0.113428, -0.0109653, -0.444023, 0.632106, -3.12744, -0.0521713, -0.0977602, 0.0203905, -0.0138487, -0.0407063, -0.00639734, -0.0117231, -0.0228985
0.127292, 0.108153, -0.773675, -0.921419, -1.46098, -0.628136, 1.06998, -0.256723, 0.00936696, 0.0243481, -0.0589992, -0.0168782, -0.00926612, -0.00105704, 0.000642001, 0.963814, 17.1875, 21.6446, 17.4832, 1.3808, 3.90536, -0.0685925, -0.000721791, -0.00129088, 0.00120613, 0.0012621, -0.010089, 0.00398191, 0.0232087, 0.00435566, 0.0211909, 0.0374015, 0.103276, 0.119123, -0.010286, -0.445311, 0.633328, -3.12799, -0.0577607, -0.113573, -0.0109663, -0.444033, 0.632085, -3.12741, -0.0521243, -0.0976833, 0.0207248, -0.0140495, -0.0413204, -0.00410128, -0.010805, -0.0218317
0.128292, 0.108168, -0.773649, -0.92148, -1.461, -0.62815, 1.06998, -0.256722, 0.0120263, 0.0247745, -0.059729, -0.0165649, -0.00734081, -0.00121332, 0.000902719, 0.888436, 17.1875, 21.7954, 17.5189, 1.3927, 3.9191, -0.0814099, -0.000744247, -0.00129411, 0.00118541, 0.00121885, -0.0102372, 0.00404704, 0.0221262, 0.00460382, 0.0216332, 0.0371344, 0.103042, 0.123966, -0.0102651, -0.445326, 0.633287, -3.1279, -0.0578142, -0.11372, -0.0109693, -0.444045, 0.632063, -3.12737, -0.0520768, -0.0976009, 0.0210615, -0.0142511, -0.0419374, -0.00272889, -0.0107272, -0.0219284
0.129292, 0.108175, -0.773618, -0.921537, -1.46102, -0.628161, 1.06998, -0.256728, 0.00800278, 0.026661, -0.0583268, -0.0154607, -0.00543582, -0.000808882, -0.00156833, 0.928108, 17.1161, 21.8708, 17.5189, 1.3927, 3.9191, -0.0228162, -0.000766802, -0.00129897, 0.00116165, 0.00116972, -0.0103871, 0.00410767, 0.0229767, 0.00532388, 0.0232402, 0.0397324, 0.103323, 0.126086, -0.0102438, -0.44534, 0.633244, -3.1278, -0.0578684, -0.113869, -0.0109724, -0.444055, 0.632043, -3.12733, -0.0520368, -0.0975184, 0.0214005, -0.0144534, -0.0425574, -0.00338297, -0.0102638, -0.0210026
0.130292, 0.108192, -0.773598, -0.921592, -1.46103, -0.628173, 1.06997, -0.256725, 0.00778335, 0.0213866, -0.0556928, -0.0177391, -0.00474241, -0.00108179, 0.000175152, 0.85273, 17.1875, 21.8708, 17.5189, 1.41192, 3.93374, -0.0557752, -0.000788248, -0.00130392, 0.00113794, 0.00112111, -0.0105305, 0.00416851, 0.0235224, 0.00621595, 0.0237214, 0.0404263, 0.0999156, 0.12993, -0.0102223, -0.445355, 0.633201, -3.12771, -0.0579234, -0.114021, -0.010974, -0.444066, 0.632022, -3.12729, -0.0519973, -0.097448, 0.0217418, -0.0146563, -0.0431802, -0.00365615, -0.00960431, -0.0211786
0.131292, 0.108197, -0.773569, -0.921659, -1.46104, -0.628184, 1.06997, -0.256726, 0.00709526, 0.0208946, -0.0565048, -0.0155793, -0.0036699, 0.00870845, -0.000154499, 0.928108, 17.1161, 21.9819, 17.4832, 1.41742, 3.93374, -0.0484509, -0.000816516, -0.00130719, 0.00111528, 0.00107534, -0.0106801, 0.00424628, 0.0237196, 0.00449993, 0.0256522, 0.0502866, 0.0931931, 0.130686, -0.0102004, -0.445369, 0.633158, -3.12761, -0.0579792, -0.114174, -0.010982, -0.444079, 0.631999, -3.12725, -0.0519326, -0.0973701, 0.0220854, -0.01486, -0.0438058, -0.00358744, -0.0115574, -0.0199123
0.132292, 0.108217, -0.773548, -0.921723, -1.46106, -0.628193, 1.06997, -0.256723, 0.00806969, 0.02187, -0.0575421, -0.0188151, -0.00735194, 0.0060489, -0.000340358, 0.813057, 17.1161, 21.9819, 17.5189, 1.41742, 3.94839, -0.0420422, -0.000839049, -0.00131124, 0.00109377, 0.00103296, -0.0108269, 0.00430816, 0.0239604, 0.00479027, 0.0248005, 0.0483212, 0.10134, 0.133232, -0.0101781, -0.445384, 0.633114, -3.12751, -0.0580358, -0.11433, -0.0109839, -0.444091, 0.631975, -3.1272, -0.0518934, -0.0972987, 0.0224314, -0.0150643, -0.0444342, -0.00343297, -0.0114728, -0.0214071
0.133292, 0.108232, -0.773521, -0.921792, -1.46108, -0.628203, 1.06997, -0.256727, 0.00982876, 0.0189554, -0.0625461, -0.0162846, -0.00569985, 0.00462195, -0.000938982, 0.777352, 17.005, 22.0176, 17.4832, 1.42383, 3.94839, -0.0228162, -0.000864429, -0.0013143, 0.0010707, 0.000986694, -0.0109785, 0.00437503, 0.026323, 0.00423937, 0.0245249, 0.0453866, 0.097374, 0.133578, -0.0101555, -0.445399, 0.633069, -3.12741, -0.0580933, -0.114488, -0.0109883, -0.444104, 0.631951, -3.12716, -0.0518472, -0.0972221, 0.0227796, -0.0152693, -0.0450654, -0.00540116, -0.0123145, -0.0224941
0.134292, 0.108249, -0.773504, -0.921863, -1.4611, -0.628217, 1.06997, -0.256723, 0.011258, 0.0139697, -0.0643953, -0.0162576, -0.00919704, 0.00325205, 0.00106943, 0.737679, 17.005, 21.9819, 17.5189, 1.43024, 3.95572, -0.0685925, -0.000891911, -0.00131713, 0.0010503, 0.000944735, -0.0111291, 0.00444777, 0.0289261, 0.00381831, 0.0243278, 0.04531, 0.0967143, 0.13224, -0.0101325, -0.445415, 0.633024, -3.12731, -0.0581515, -0.114649, -0.0109942, -0.444118, 0.631924, -3.12711, -0.0517929, -0.097149, 0.0231301, -0.0154749, -0.0456993, -0.0076172, -0.0130372, -0.0235226
0.135292, 0.108268, -0.773478, -0.921937, -1.46111, -0.628228, 1.06997, -0.256728, 0.0153149, 0.0191175, -0.0692054, -0.0134482, -0.0117602, 0.00171965, -0.000982466, 0.701973, 16.8939, 21.9422, 17.4435, 1.43573, 3.97677, -0.0228162, -0.000918822, -0.00131982, 0.00102868, 0.000903072, -0.0112862, 0.00451553, 0.0286777, 0.00294184, 0.0244202, 0.044871, 0.103883, 0.134296, -0.0101092, -0.44543, 0.632978, -3.12721, -0.0582105, -0.114811, -0.0109994, -0.444132, 0.631898, -3.12706, -0.0517473, -0.0970681, 0.0234829, -0.0156811, -0.0463358, -0.00699309, -0.0141147, -0.0240609
0.136292, 0.108286, -0.773458, -0.922021, -1.46114, -0.628237, 1.06997, -0.25673, 0.015279, 0.0179793, -0.0738152, -0.0205469, -0.00832517, 0.0019376, -0.0011297, 0.6623, 16.8582, 21.9422, 17.4832, 1.42383, 3.96213, -0.00999879, -0.000947425, -0.0013212, 0.0010122, 0.000870281, -0.0114415, 0.00458658, 0.0286733, 0.00305592, 0.0215771, 0.0376903, 0.105747, 0.138513, -0.0100856, -0.445446, 0.632931, -3.1271, -0.0582704, -0.114976, -0.0110054, -0.444147, 0.631866, -3.127, -0.0516977, -0.0969916, 0.0238379, -0.015888, -0.046975, -0.00643233, -0.0141733, -0.0275368
0.137292, 0.108312, -0.773442, -0.922105, -1.46115, -0.628244, 1.06997, -0.256722, 0.0193015, 0.0162792, -0.0746834, -0.0180612, -0.00532897, 0.00120694, 0.000671024, 0.586922, 16.8582, 21.8311, 17.3325, 1.39911, 3.96945, -0.0484509, -0.000976505, -0.00132175, 0.000991637, 0.000830203, -0.0115856, 0.00466613, 0.0279886, 0.00329388, 0.0224975, 0.0373744, 0.101517, 0.142567, -0.0100616, -0.445462, 0.632884, -3.127, -0.0583311, -0.115144, -0.0110119, -0.444164, 0.631837, -3.12695, -0.0516354, -0.0969353, 0.0241952, -0.0160954, -0.0476168, -0.00547126, -0.0141332, -0.0272109
0.138292, 0.108336, -0.773423, -0.922204, -1.46118, -0.628257, 1.06997, -0.256724, 0.0244216, 0.0168881, -0.0823238, -0.0208619, -0.00431079, 0.000944484, 0.000718616, 0.551216, 16.7828, 21.8708, 17.3721, 1.40552, 3.96945, -0.0557752, -0.0010096, -0.00132059, 0.000979224, 0.000807377, -0.0117511, 0.00474678, 0.0275734, 0.00227179, 0.0199813, 0.0310877, 0.1046, 0.146072, -0.0100372, -0.445478, 0.632836, -3.12689, -0.0583926, -0.115313, -0.0110213, -0.444183, 0.631799, -3.12687, -0.0515731, -0.0968469, 0.0245547, -0.0163034, -0.0482612, -0.00447695, -0.0153169, -0.0303478
0.139292, 0.108363, -0.773404, -0.922291, -1.4612, -0.628269, 1.06997, -0.256728, 0.0252754, 0.0181592, -0.0823311, -0.0194023, -0.00825001, 0.00100582, -0.000741626, 0.511544, 16.6718, 21.6843, 17.2571, 1.41192, 3.96213, -0.0228162, -0.00103855, -0.00132135, 0.000960667, 0.000771089, -0.0119102, 0.004815, 0.0281857, 0.00196101, 0.0211313, 0.0349352, 0.1088, 0.148101, -0.0100124, -0.445495, 0.632787, -3.12678, -0.0584549, -0.115485, -0.0110267, -0.4442, 0.631767, -3.12681, -0.0515304, -0.0967715, 0.0249165, -0.016512, -0.0489081, -0.00480026, -0.0158772, -0.0298996
0.140292, 0.108395, -0.773389, -0.922387, -1.46123, -0.628278, 1.06997, -0.256727, 0.0267219, 0.017233, -0.0902768, -0.023494, -0.0106006, 0.000749213, -1.96991e-05, 0.436165, 16.636, 21.5732, 17.2214, 1.40552, 3.96213, -0.0356336, -0.0010676, -0.00132118, 0.000946398, 0.000744966, -0.0120703, 0.00488581, 0.0303579, 0.000647055, 0.0182103, 0.0293727, 0.113725, 0.146115, -0.00998734, -0.445511, 0.632738, -3.12667, -0.058518, -0.115659, -0.0110316, -0.444218, 0.631729, -3.12674, -0.051485, -0.0966964, 0.0252805, -0.0167211, -0.0495576, -0.00633839, -0.017443, -0.0336403
0.141292, 0.108426, -0.773372, -0.922491, -1.46127, -0.628286, 1.06997, -0.256725, 0.0292011, 0.017343, -0.0968725, -0.027316, -0.0119333, 0.000558477, 0.000732852, 0.436165, 16.5646, 21.4582, 17.2214, 1.38721, 3.96213, -0.0557752, -0.00109805, -0.00132042, 0.00093486, 0.000725257, -0.012237, 0.00496251, 0.0311744, -0.00032641, 0.0157638, 0.0244497, 0.11866, 0.146506, -0.00996188, -0.445528, 0.632688, -3.12656, -0.058582, -0.115835, -0.0110372, -0.444237, 0.631689, -3.12666, -0.0514316, -0.0966127, 0.0256467, -0.0169307, -0.0502094, -0.00657046, -0.018625, -0.0368067
0.142292, 0.108451, -0.773356, -0.922598, -1.46129, -0.628293, 1.06997, -0.256729, 0.0252787, 0.017569, -0.0978705, -0.0234356, -0.00922365, 0.000653928, -0.000969494, 0.551216, 16.4893, 21.3114, 17.0706, 1.3927, 3.95572, -0.0164075, -0.00113504, -0.00131907, 0.000921086, 0.000703998, -0.0123982, 0.00504609, 0.0337299, -0.000114299, 0.0174905, 0.0263525, 0.115181, 0.145222, -0.00993605, -0.445545, 0.632638, -3.12645, -0.0586468, -0.116014, -0.0110492, -0.444256, 0.631649, -3.12658, -0.0513683, -0.09654, 0.0260151, -0.0171409, -0.0508638, -0.00888567, -0.0187445, -0.0359307
0.143292, 0.108498, -0.773339, -0.922714, -1.46133, -0.628301, 1.06997, -0.256731, 0.0342175, 0.0144582, -0.101475, -0.0283394, -0.00694758, 0.000740408, -0.00115496, 0.436165, 16.4178, 21.2757, 17.1103, 1.3927, 3.94839, -0.00267457, -0.0011619, -0.00131627, 0.000914122, 0.000694095, -0.0125729, 0.00511037, 0.0307339, -0.000337468, 0.0152488, 0.0207181, 0.114686, 0.157588, -0.00990985, -0.445562, 0.632586, -3.12633, -0.0587125, -0.116195, -0.0110501, -0.444278, 0.631603, -3.12649, -0.0513364, -0.096448, 0.0263857, -0.0173516, -0.0515205, -0.00535683, -0.0190392, -0.0386065
0.144292, 0.108533, -0.773325, -0.922828, -1.46136, -0.628311, 1.06997, -0.256728, 0.0354173, 0.0145833, -0.104367, -0.0282381, -0.00546794, 0.000789764, 0.000213374, 0.551216, 16.3782, 21.1249, 16.9992, 1.39911, 3.94107, -0.0292249, -0.00119655, -0.00131293, 0.000903094, 0.000673032, -0.0127393, 0.00519518, 0.0311435, -0.000529451, 0.0151151, 0.0194516, 0.114669, 0.158267, -0.00988328, -0.44558, 0.632535, -3.12622, -0.058779, -0.116378, -0.0110587, -0.4443, 0.63156, -3.1264, -0.051273, -0.0963718, 0.0267585, -0.0175627, -0.0521796, -0.00537646, -0.0194584, -0.0394355
0.145292, 0.108579, -0.773313, -0.922942, -1.4614, -0.628321, 1.06997, -0.256727, 0.0361091, 0.0145951, -0.106001, -0.0301721, -0.00898659, 0.000816445, 0.000379608, 0.551216, 16.3425, 20.9385, 16.9595, 1.40552, 3.93374, -0.0356336, -0.00122517, -0.00131037, 0.000894325, 0.000657363, -0.0129129, 0.00526252, 0.0319725, -0.000905294, 0.0147372, 0.0200741, 0.119612, 0.159266, -0.00985633, -0.445598, 0.632482, -3.1261, -0.0588463, -0.116563, -0.0110607, -0.444321, 0.631514, -3.12631, -0.0512379, -0.0962866, 0.0271335, -0.0177744, -0.052841, -0.00578663, -0.0200739, -0.040544
0.146292, 0.108623, -0.773297, -0.923061, -1.46144, -0.62833, 1.06998, -0.256733, 0.0379994, 0.0177531, -0.108268, -0.0322275, -0.00739399, 0.000829566, -0.00167971, 0.626595, 16.3068, 20.7917, 16.8127, 1.42383, 3.92642, 0.0165515, -0.00125619, -0.00130718, 0.000884965, 0.000642552, -0.0130884, 0.00533161, 0.0305036, -0.000777136, 0.0142079, 0.0180794, 0.123944, 0.16569, -0.00982901, -0.445615, 0.632429, -3.12598, -0.0589145, -0.116751, -0.0110649, -0.444343, 0.631467, -3.12622, -0.051201, -0.0962007, 0.0275107, -0.0179865, -0.0535047, -0.00391268, -0.0200988, -0.0416283
0.147292, 0.108669, -0.773281, -0.92319, -1.46148, -0.628338, 1.06998, -0.256724, 0.0395219, 0.0171871, -0.113063, -0.0332357, -0.00992144, 0.00107217, 0.000575616, 0.701973, 16.2671, 20.7917, 16.7731, 1.41742, 3.91269, -0.0292249, -0.00128864, -0.00130282, 0.000879474, 0.000635784, -0.013269, 0.00541754, 0.0321429, -0.00177566, 0.0131956, 0.0168474, 0.127001, 0.163038, -0.00980131, -0.445634, 0.632375, -3.12586, -0.0589835, -0.116942, -0.0110697, -0.444367, 0.631417, -3.12612, -0.0511393, -0.0961085, 0.02789, -0.018199, -0.0541706, -0.00505478, -0.0213583, -0.0434421
0.148292, 0.108669, -0.773281, -0.92319, -1.46148, -0.628338, 1.06998, -0.256724, 0.0395219, 0.0171871, -0.113063, -0.0332357, -0.00992144, 0.00107217, 0.000575616, 0.701973, 16.2671, 20.7917, 16.7731, 1.41742, 3.91269, -0.0292249, -0.00131191, -0.00132278, 0.000823279, 0.00052387, -0.0133964, 0.00546102, 0.0324633, -0.00153764, 0.0138916, 0.0180742, 0.127942, 0.165474, -0.00977323, -0.445652, 0.63232, -3.12574, -0.0590534, -0.117134, -0.0110697, -0.444367, 0.631417, -3.12612, -0.0511393, -0.0961085, 0.0282715, -0.018412, -0.0548388, -0.00505478, -0.0213583, -0.0434421
0.149292, 0.108763, -0.773245, -0.923441, -1.46157, -0.628353, 1.06998, -0.256732, 0.040932, 0.0184749, -0.121689, -0.0387447, -0.0105297, 0.00166317, -0.00136047, 0.928108, 16.1957, 20.4545, 16.5866, 1.43024, 3.87607, 0.0101428, -0.00134923, -0.00129594, 0.000866086, 0.000616481, -0.0136409, 0.00555777, 0.0335092, -0.00278752, 0.0105199, 0.0114195, 0.134319, 0.167199, -0.00974476, -0.44567, 0.632265, -3.12562, -0.0591241, -0.117329, -0.0110741, -0.444413, 0.631316, -3.12592, -0.0510674, -0.0959152, 0.0286551, -0.0186253, -0.0555092, -0.00541499, -0.0228132, -0.0475723
0.150292, 0.108813, -0.773227, -0.923586, -1.46162, -0.62836, 1.06998, -0.256728, 0.0433884, 0.016793, -0.129636, -0.0393918, -0.00806727, 0.00216437, 0.000551081, 1.07887, 16.1957, 20.4545, 16.4755, 1.43573, 3.84768, -0.0292249, -0.00138378, -0.00128924, 0.000864671, 0.000618739, -0.0138306, 0.00564569, 0.035169, -0.00393991, 0.00867638, 0.00622563, 0.132268, 0.165647, -0.00971592, -0.445689, 0.632209, -3.12549, -0.0591957, -0.117527, -0.0110795, -0.44444, 0.631258, -3.12581, -0.0510058, -0.0958154, 0.0290408, -0.0188391, -0.0561817, -0.00650193, -0.0242159, -0.0502264
0.151292, 0.108868, -0.773213, -0.92372, -1.46167, -0.628369, 1.06999, -0.256728, 0.0471474, 0.0178835, -0.128865, -0.0409812, -0.00624856, 0.00222613, 0.000367387, 1.15424, 16.2314, 20.3077, 16.4001, 1.44214, 3.82663, -0.0292249, -0.00141378, -0.00128406, 0.000860072, 0.000610976, -0.0140195, 0.00571655, 0.0325665, -0.00333557, 0.00902378, 0.00614113, 0.133954, 0.174294, -0.00968668, -0.445708, 0.632153, -3.12537, -0.0592682, -0.117726, -0.0110802, -0.444465, 0.631204, -3.12571, -0.0509711, -0.0957201, 0.0294287, -0.0190533, -0.0568564, -0.00357046, -0.0237367, -0.0503563
0.152292, 0.108928, -0.773195, -0.923861, -1.46172, -0.628376, 1.06999, -0.256727, 0.0499124, 0.0156517, -0.130536, -0.0460323, -0.00977826, 0.00230038, -0.000467152, 1.22962, 16.2671, 20.268, 16.3644, 1.45404, 3.80466, -0.00999879, -0.00144271, -0.00127915, 0.000858704, 0.000614611, -0.0142184, 0.00578725, 0.0325404, -0.00363676, 0.00755015, 0.00473954, 0.138725, 0.179992, -0.00965706, -0.445727, 0.632096, -3.12524, -0.0593415, -0.117929, -0.0110793, -0.44449, 0.631146, -3.12559, -0.0509382, -0.0956107, 0.0298187, -0.0192678, -0.0575331, -0.00303296, -0.0242316, -0.0525089
0.153292, 0.108982, -0.773178, -0.923999, -1.46177, -0.628384, 1.06999, -0.256731, 0.0510069, 0.0171846, -0.13353, -0.0471286, -0.00797841, 0.00231535, -0.00105742, 1.34071, 16.3068, 20.1569, 16.2137, 1.47327, 3.7836, 0.0101428, -0.0014751, -0.00127449, 0.000853265, 0.000609441, -0.0144121, 0.00585996, 0.0323215, -0.00369066, 0.00709292, 0.00268439, 0.140703, 0.183265, -0.00962704, -0.445747, 0.632038, -3.12511, -0.0594156, -0.118133, -0.0110817, -0.444515, 0.631091, -3.12549, -0.0503742, -0.0955122, 0.0302108, -0.0194827, -0.0582119, -0.00238667, -0.0244876, -0.0536326
0.154292, 0.109038, -0.773159, -0.924138, -1.46182, -0.628391, 1.06999, -0.256727, 0.0515721, 0.0152983, -0.136724, -0.0468329, -0.0103373, 0.00181624, 0.000753115, 1.45576, 16.3425, 20.0815, 16.1383, 1.46686, 3.77627, -0.0292249, -0.00150616, -0.0012704, 0.000849131, 0.000607407, -0.0146137, 0.00593846, 0.0345897, -0.00430379, 0.00686971, 0.00248706, 0.141786, 0.180793, -0.00959664, -0.445766, 0.631979, -3.12498, -0.0594907, -0.11834, -0.0110824, -0.44454, 0.631034, -3.12537, -0.0503311, -0.0954038, 0.0306049, -0.019698, -0.0588927, -0.00421241, -0.0253994, -0.0547205
0.155292, 0.109093, -0.773139, -0.924275, -1.46188, -0.628402, 1.06999, -0.25673, 0.0546436, 0.0169134, -0.134926, -0.0496332, -0.0128886, 0.00175441, -0.0014307, 1.60651, 16.3782, 19.9705, 16.0629, 1.47876, 3.76163, 0.0229602, -0.00153599, -0.00126689, 0.000844685, 0.000602411, -0.014822, 0.00600795, 0.0324316, -0.00386776, 0.00718554, 0.0042969, 0.148125, 0.190095, -0.00956583, -0.445786, 0.63192, -3.12485, -0.0595666, -0.11855, -0.0110814, -0.444565, 0.630977, -3.12526, -0.0503029, -0.0952875, 0.0310012, -0.0199136, -0.0595756, -0.00170673, -0.0251055, -0.0549244
0.156292, 0.109154, -0.77312, -0.924416, -1.46193, -0.628407, 1.07, -0.256732, 0.0555878, 0.018189, -0.138534, -0.0517946, -0.00915573, 0.00171293, -0.000716443, 1.68189, 16.4178, 19.9347, 15.9915, 1.46686, 3.74698, 0.0165515, -0.00156378, -0.00126248, 0.000840758, 0.000599155, -0.015026, 0.00607471, 0.0319711, -0.00374337, 0.00622018, 0.000347869, 0.149134, 0.192932, -0.00953463, -0.445806, 0.63186, -3.12472, -0.0596434, -0.118761, -0.011078, -0.44459, 0.630919, -3.12515, -0.0502799, -0.0951804, 0.0313996, -0.0201295, -0.0602603, -0.000781742, -0.0251672, -0.0565401
0.157292, 0.109214, -0.773101, -0.924552, -1.46199, -0.628407, 1.07, -0.25673, 0.0562846, 0.0183963, -0.136853, -0.0532544, -0.00638223, 0.00192244, 0.000234448, 1.75727, 16.4893, 19.8594, 15.9161, 1.45404, 3.72592, -0.00267457, -0.00159054, -0.00126004, 0.000834612, 0.000594019, -0.0152285, 0.00614122, 0.0305279, -0.00282129, 0.0069545, 0.000791725, 0.149003, 0.198519, -0.00950303, -0.445826, 0.6318, -3.12458, -0.059721, -0.118976, -0.0110733, -0.444614, 0.630862, -3.12503, -0.0502581, -0.0950782, 0.0318, -0.0203457, -0.060947, 0.000965112, -0.0244215, -0.056378
0.158292, 0.109277, -0.773078, -0.924689, -1.46205, -0.628415, 1.07001, -0.256729, 0.0566717, 0.0195743, -0.140075, -0.0542169, -0.00597255, 0.00155334, 0.000664925, 1.83265, 16.525, 19.8594, 15.8408, 1.48517, 3.7186, -0.0164075, -0.00161595, -0.00125694, 0.000828385, 0.00058517, -0.0154419, 0.00620699, 0.0311551, -0.00299837, 0.00646664, -0.00100929, 0.151806, 0.199193, -0.00947103, -0.445847, 0.631738, -3.12445, -0.0597996, -0.119192, -0.011067, -0.444639, 0.630805, -3.12492, -0.0502384, -0.0949616, 0.0322025, -0.0205621, -0.0616356, 0.00078615, -0.0248332, -0.057608
0.159292, 0.109344, -0.773053, -0.924826, -1.46211, -0.628423, 1.07001, -0.256731, 0.0609674, 0.0203044, -0.138992, -0.0578343, -0.00464269, 0.00157842, -6.53429e-05, 1.87232, 16.5646, 19.8237, 15.8765, 1.49158, 3.70395, -0.00267457, -0.00163816, -0.00125402, 0.000823322, 0.00057688, -0.0156632, 0.00626398, 0.0280227, -0.00227701, 0.0062596, -0.00190003, 0.154867, 0.210017, -0.00943863, -0.445867, 0.631676, -3.12431, -0.059879, -0.119411, -0.0110569, -0.444663, 0.630746, -3.12481, -0.0502335, -0.0948353, 0.032607, -0.0207789, -0.062326, 0.00429905, -0.0242101, -0.0582606
0.160292, 0.109405, -0.773034, -0.924971, -1.46217, -0.628422, 1.07002, -0.256733, 0.0600886, 0.0192434, -0.139714, -0.0575302, -0.00341285, 0.00635478, -0.000755639, 1.9477, 16.6718, 19.8594, 15.8011, 1.49158, 3.69021, 0.0165515, -0.00166789, -0.00125032, 0.000817246, 0.000571558, -0.0158679, 0.00633338, 0.028624, -0.00291136, 0.00727003, 0.00262488, 0.151294, 0.212262, -0.00940582, -0.445888, 0.631614, -3.12417, -0.0599593, -0.119633, -0.011054, -0.444689, 0.630687, -3.12469, -0.0502101, -0.0947371, 0.0330136, -0.0209959, -0.0630183, 0.00405393, -0.0251019, -0.0580044
0.161292, 0.109464, -0.773012, -0.925105, -1.46223, -0.628432, 1.07003, -0.256725, 0.0593624, 0.0223996, -0.137729, -0.058405, -0.0036325, 0.00517871, 0.00190374, 2.02308, 16.7471, 19.784, 15.7654, 1.52179, 3.67557, -0.0484509, -0.00169477, -0.00124823, 0.000808571, 0.000555376, -0.0160883, 0.00640804, 0.0276874, -0.00194663, 0.00832063, 0.00406237, 0.156672, 0.213218, -0.0093726, -0.445909, 0.63155, -3.12403, -0.0600404, -0.119857, -0.011048, -0.444713, 0.63063, -3.12458, -0.050179, -0.0946172, 0.0334222, -0.0212132, -0.0637123, 0.00527746, -0.0243391, -0.057571
0.162292, 0.109521, -0.772991, -0.92525, -1.46229, -0.628428, 1.07003, -0.256731, 0.0558143, 0.0239696, -0.142017, -0.0589928, -0.00168486, 0.00402349, -0.000426262, 2.09846, 16.8582, 19.8237, 15.7297, 1.49707, 3.66824, -0.00267457, -0.00172468, -0.00124598, 0.000802647, 0.000552228, -0.0162996, 0.00647535, 0.0301526, -0.00191003, 0.00773076, 0.000703668, 0.15885, 0.212468, -0.00933897, -0.445931, 0.631486, -3.12389, -0.0601225, -0.120083, -0.0110445, -0.444738, 0.63057, -3.12446, -0.050161, -0.0945135, 0.0338328, -0.0214307, -0.0644081, 0.00327489, -0.0246062, -0.0590488
0.163292, 0.109579, -0.77297, -0.925389, -1.46235, -0.628433, 1.07004, -0.256728, 0.0562673, 0.0253064, -0.139684, -0.0590742, -0.00196936, 0.0031784, -0.000521534, 2.17384, 16.9693, 19.8951, 15.69, 1.5163, 3.66092, 0.00373412, -0.00175481, -0.00124383, 0.000793793, 0.000539105, -0.0165176, 0.00655091, 0.0292707, -0.0010669, 0.00904971, 0.00289034, 0.161788, 0.217212, -0.00930493, -0.445952, 0.631421, -3.12375, -0.0602054, -0.120312, -0.011041, -0.444763, 0.630511, -3.12434, -0.0501306, -0.0944021, 0.0342455, -0.0216484, -0.0651057, 0.00443162, -0.0239723, -0.058357
0.164292, 0.10964, -0.772951, -0.925517, -1.46241, -0.628434, 1.07004, -0.256728, 0.0575569, 0.0263548, -0.136003, -0.0612313, -0.00141344, 0.00719611, 0.000398296, 2.20954, 17.0804, 19.8951, 15.7297, 1.5163, 3.65451, -0.0164075, -0.00177809, -0.00124436, 0.00078306, 0.000520648, -0.0167349, 0.00660693, 0.0265611, -0.00066104, 0.0104877, 0.00854175, 0.162671, 0.224308, -0.00927048, -0.445974, 0.631356, -3.1236, -0.0602893, -0.120544, -0.0110305, -0.444785, 0.630455, -3.12423, -0.0501314, -0.094295, 0.0346601, -0.0218663, -0.0658049, 0.00741874, -0.0237083, -0.0574123
0.165292, 0.109691, -0.772931, -0.92565, -1.46248, -0.628433, 1.07005, -0.256725, 0.0565784, 0.0241725, -0.134827, -0.0626474, -0.000780329, 0.00531312, 0.00145233, 2.32459, 17.1875, 19.9705, 15.7654, 1.50989, 3.65451, -0.0484509, -0.00180726, -0.00124445, 0.000772013, 0.000502529, -0.0169532, 0.00668023, 0.0274078, 0.000300819, 0.0109028, 0.00777291, 0.162825, 0.226748, -0.00923561, -0.445996, 0.63129, -3.12346, -0.060374, -0.120777, -0.0110255, -0.444808, 0.630397, -3.12412, -0.0501062, -0.0941886, 0.0350768, -0.0220844, -0.0665058, 0.00692112, -0.0230073, -0.0577562
0.166292, 0.109752, -0.772905, -0.925777, -1.46254, -0.628434, 1.07007, -0.256733, 0.0553672, 0.0272304, -0.130181, -0.0636604, -0.000576767, 0.00342025, -0.00143928, 2.32459, 17.2272, 20.0101, 15.8011, 1.50989, 3.66824, 0.0165515, -0.00182865, -0.00124561, 0.000758736, 0.000477848, -0.0171785, 0.00672928, 0.0258217, 0.0019748, 0.0126161, 0.0100253, 0.16813, 0.235094, -0.00920033, -0.446018, 0.631223, -3.12331, -0.0604596, -0.121014, -0.0110125, -0.44483, 0.630342, -3.12402, -0.0501196, -0.0940745, 0.0354954, -0.0223027, -0.0672083, 0.00872097, -0.0215245, -0.0566089
0.167292, 0.109805, -0.772879, -0.925902, -1.4626, -0.628437, 1.07007, -0.256728, 0.0535938, 0.0254472, -0.127314, -0.0642127, -0.000664282, 0.00148519, 0.0007359, 2.3603, 17.2986, 20.0815, 15.8408, 1.5163, 3.69754, -0.0292249, -0.00185503, -0.0012481, 0.000743641, 0.000452762, -0.0174096, 0.00680056, 0.0266751, 0.0031667, 0.0138149, 0.0112061, 0.168619, 0.236132, -0.00916462, -0.446041, 0.631155, -3.12316, -0.0605461, -0.121253, -0.0110043, -0.444852, 0.630287, -3.12391, -0.0500993, -0.0939536, 0.0359161, -0.0225212, -0.0679124, 0.00815034, -0.020608, -0.0561717
0.168292, 0.109858, -0.772857, -0.926028, -1.46267, -0.628434, 1.07008, -0.256728, 0.0520879, 0.0280487, -0.129192, -0.0622547, 5.51431e-08, 0.00616118, 0.0004906, 2.39997, 17.3383, 20.1926, 15.9161, 1.50348, 3.69021, -0.0292249, -0.00188082, -0.00125069, 0.0007296, 0.000429231, -0.0176341, 0.0068637, 0.0273032, 0.00226604, 0.015171, 0.0164107, 0.168165, 0.235325, -0.00912849, -0.446063, 0.631087, -3.12301, -0.0606336, -0.121494, -0.010995, -0.444873, 0.630231, -3.1238, -0.0500927, -0.0938455, 0.0363387, -0.0227398, -0.068618, 0.00787583, -0.0217771, -0.0555912
0.169292, 0.109905, -0.77284, -0.926145, -1.46274, -0.628435, 1.07009, -0.256732, 0.0542282, 0.021087, -0.125689, -0.0631704, -0.000701988, 0.00884178, -0.001131, 2.43568, 17.485, 20.2323, 15.9518, 1.52179, 3.70395, 0.0101428, -0.00190859, -0.00125378, 0.000710539, 0.000389974, -0.0178536, 0.00692437, 0.0273283, 0.00246625, 0.0165178, 0.0213713, 0.161912, 0.24454, -0.00909194, -0.446086, 0.631018, -3.12286, -0.0607219, -0.121738, -0.0109877, -0.444894, 0.630179, -3.1237, -0.0500901, -0.0937488, 0.0367632, -0.0229586, -0.0693252, 0.00816095, -0.0218236, -0.0549593
0.170292, 0.109956, -0.772815, -0.926266, -1.4628, -0.628434, 1.0701, -0.256728, 0.0535065, 0.0225829, -0.121347, -0.0606452, -0.000282434, 0.0106281, 0.000704065, 2.43568, 17.485, 20.3434, 15.9915, 1.5163, 3.72592, -0.0292249, -0.00193415, -0.0012578, 0.000692584, 0.000357574, -0.0180838, 0.00699207, 0.0263849, 0.00317229, 0.0194827, 0.0284009, 0.161384, 0.246777, -0.00905497, -0.446109, 0.630949, -3.12271, -0.0608111, -0.121984, -0.0109776, -0.444914, 0.630125, -3.1236, -0.050078, -0.0936372, 0.0371897, -0.0231774, -0.0700339, 0.00926672, -0.0213565, -0.052633
0.171292, 0.110003, -0.772793, -0.926376, -1.46287, -0.628434, 1.07011, -0.256727, 0.0527659, 0.0196232, -0.116577, -0.0596138, 3.56508e-05, 0.0124977, 0.000706736, 2.43568, 17.5208, 20.3791, 16.0629, 1.50989, 3.73324, -0.0356336, -0.00195887, -0.0012641, 0.000671192, 0.000317431, -0.0183142, 0.00705268, 0.026355, 0.00392831, 0.0219565, 0.0346342, 0.157403, 0.251918, -0.00901756, -0.446132, 0.630878, -3.12255, -0.0609012, -0.122233, -0.0109667, -0.444933, 0.630074, -3.1235, -0.0500775, -0.0935286, 0.0376182, -0.0233964, -0.0707441, 0.00949968, -0.0208667, -0.0508681
0.172292, 0.110054, -0.77277, -0.926487, -1.46293, -0.628435, 1.07012, -0.256727, 0.053775, 0.0181081, -0.115335, -0.0609897, -0.000427107, 0.00920047, -0.000749546, 2.3603, 17.5208, 20.3791, 16.1026, 1.52179, 3.74057, -0.00267457, -0.00198265, -0.00127034, 0.000649052, 0.00027542, -0.0185484, 0.00711027, 0.0264824, 0.00499462, 0.0222517, 0.0330868, 0.159784, 0.258381, -0.00897973, -0.446156, 0.630807, -3.12239, -0.0609922, -0.122484, -0.0109545, -0.444951, 0.630023, -3.1234, -0.0500827, -0.0934167, 0.0380486, -0.0236155, -0.0714557, 0.00973449, -0.0200353, -0.051284
0.173292, 0.110101, -0.772749, -0.926608, -1.463, -0.628434, 1.07013, -0.256729, 0.0536658, 0.0168236, -0.117225, -0.063012, -8.88355e-05, 0.0108836, -0.00022843, 2.32459, 17.5208, 20.4941, 16.178, 1.5163, 3.76163, -0.00999879, -0.00201195, -0.00127476, 0.000629409, 0.000239255, -0.0187802, 0.00717788, 0.027241, 0.00472216, 0.0219435, 0.0332217, 0.159823, 0.260114, -0.00894147, -0.44618, 0.630735, -3.12224, -0.0610841, -0.122738, -0.0109471, -0.444972, 0.629968, -3.1233, -0.0500735, -0.0933105, 0.0384809, -0.0238347, -0.0721687, 0.00944249, -0.0205551, -0.0523722
0.174292, 0.110152, -0.772734, -0.926713, -1.46306, -0.628434, 1.07014, -0.256722, 0.0561689, 0.0181312, -0.113968, -0.0640565, -6.48849e-05, 0.0085578, 0.00127187, 2.17384, 17.5565, 20.4188, 16.2494, 1.5163, 3.7543, -0.0484509, -0.0020368, -0.00128196, 0.000603692, 0.000188778, -0.0190058, 0.00723951, 0.0250726, 0.00604967, 0.0230395, 0.0339183, 0.163893, 0.266702, -0.00890277, -0.446204, 0.630663, -3.12208, -0.061177, -0.122995, -0.0109354, -0.44499, 0.629919, -3.1232, -0.0500738, -0.0932176, 0.0389151, -0.0240539, -0.0728831, 0.0118946, -0.0193892, -0.0518074
0.175292, 0.110194, -0.772713, -0.926831, -1.46314, -0.628434, 1.07015, -0.256721, 0.0489881, 0.0154301, -0.114216, -0.0669027, -4.75025e-05, 0.0102958, 0.000847911, 2.13416, 17.485, 20.4545, 16.4001, 1.5163, 3.77627, -0.0484509, -0.00206673, -0.00128801, 0.000583162, 0.000150042, -0.019246, 0.00731061, 0.0287448, 0.00626713, 0.0231409, 0.0352151, 0.1631, 0.263871, -0.00886363, -0.446228, 0.630589, -3.12192, -0.0612707, -0.123253, -0.0109279, -0.44501, 0.629864, -3.1231, -0.050061, -0.0931035, 0.0393512, -0.0242732, -0.0735988, 0.00865239, -0.0195395, -0.0527132
0.176292, 0.110236, -0.772691, -0.926949, -1.4632, -0.628433, 1.07017, -0.256729, 0.0475605, 0.0164146, -0.11799, -0.0622917, 0.000439865, 0.0120278, -0.00113015, 2.05878, 17.4097, 20.4941, 16.4001, 1.50348, 3.79001, -0.00267457, -0.00209853, -0.0012936, 0.000558829, 0.000103851, -0.0194798, 0.00737765, 0.0313414, 0.00532612, 0.0244843, 0.0380871, 0.161016, 0.262027, -0.00882406, -0.446252, 0.630515, -3.12175, -0.0613653, -0.123515, -0.0109221, -0.44503, 0.629812, -3.123, -0.0500552, -0.0930026, 0.0397893, -0.0244926, -0.0743159, 0.00643195, -0.020829, -0.0523159
0.177292, 0.110285, -0.772674, -0.927062, -1.46327, -0.628432, 1.07018, -0.256725, 0.0459719, 0.0169602, -0.115591, -0.0628412, 0.000528214, 0.00913511, -7.44594e-06, 1.87232, 17.3383, 20.4545, 16.4359, 1.49707, 3.79001, -0.0228162, -0.00212732, -0.00130048, 0.000532852, 5.46114e-05, -0.0197122, 0.00744651, 0.0316466, 0.00667264, 0.0255628, 0.0382154, 0.164219, 0.264049, -0.00878406, -0.446277, 0.630441, -3.12159, -0.0614609, -0.123779, -0.010913, -0.44505, 0.629761, -3.1229, -0.0500473, -0.0929065, 0.0402292, -0.0247119, -0.0750342, 0.00642505, -0.0197404, -0.051968
0.178292, 0.110331, -0.772661, -0.92718, -1.46333, -0.628432, 1.07019, -0.25672, 0.0468516, 0.0142321, -0.118819, -0.0616811, 0.000350351, 0.00638496, 0.0014531, 1.72157, 17.2629, 20.4941, 16.4001, 1.49707, 3.80466, -0.0621838, -0.00216116, -0.00130688, 0.000507532, 8.83979e-06, -0.0199442, 0.00752456, 0.0340653, 0.00664356, 0.0254045, 0.0355086, 0.163445, 0.262939, -0.00874361, -0.446302, 0.630365, -3.12142, -0.0615574, -0.124045, -0.0109085, -0.44507, 0.629708, -3.1228, -0.0500263, -0.0928133, 0.040671, -0.0249313, -0.0757538, 0.004467, -0.0200853, -0.0530435
0.179292, 0.110371, -0.772654, -0.927289, -1.4634, -0.62843, 1.0702, -0.256728, 0.0478444, 0.0103597, -0.118573, -0.0645156, 0.000910393, 0.0101205, -0.00194739, 1.68189, 17.2629, 20.4188, 16.5112, 1.47876, 3.79001, 0.0165515, -0.00219385, -0.00131495, 0.00048225, -4.11231e-05, -0.0201739, 0.00758222, 0.0339956, 0.00639299, 0.0254979, 0.0379283, 0.160179, 0.271918, -0.00870271, -0.446327, 0.630289, -3.12126, -0.0616548, -0.124315, -0.0109025, -0.445089, 0.629654, -3.1227, -0.0500378, -0.0927269, 0.0411146, -0.0251507, -0.0764746, 0.00497853, -0.0205601, -0.0536751
0.180292, 0.110412, -0.772642, -0.927409, -1.46346, -0.628431, 1.07021, -0.256727, 0.0442432, 0.0124641, -0.117943, -0.0629739, 0.00980635, 0.0124995, -0.000823543, 1.57081, 17.1875, 20.4545, 16.4755, 1.48517, 3.7836, 0.00373412, -0.00223181, -0.00132086, 0.000454747, -9.28869e-05, -0.0204051, 0.00766529, 0.0334384, 0.00739994, 0.0272737, 0.0389991, 0.154294, 0.273743, -0.00866138, -0.446352, 0.630212, -3.12109, -0.0617531, -0.124586, -0.0109013, -0.44511, 0.629602, -3.1226, -0.0500106, -0.0926404, 0.0415602, -0.0253701, -0.0771966, 0.00579334, -0.0197917, -0.0525723
0.181292, 0.110455, -0.772635, -0.927519, -1.46353, -0.628429, 1.07022, -0.256721, 0.0447443, 0.0107318, -0.114236, -0.0635735, 0.00776411, 0.0143135, 0.00138375, 1.45576, 17.1161, 20.3434, 16.5112, 1.47327, 3.77627, -0.0484509, -0.00226506, -0.00132982, 0.00042784, -0.000143431, -0.0206396, 0.00773751, 0.0329853, 0.00779154, 0.0289655, 0.0446554, 0.154507, 0.27686, -0.00861959, -0.446377, 0.630135, -3.12092, -0.0618523, -0.12486, -0.0108952, -0.445129, 0.629548, -3.1225, -0.0500014, -0.0925514, 0.0420076, -0.0255895, -0.0779197, 0.00653706, -0.019641, -0.0515722
