alisrour97/Franka_experiments/Real_Robot_scripts/servo-franka/Data4/log_dyn_PIw_ki_9.csv
Time,q1,q2,q3,q4,q5,q6,q7,dq1,dq2,dq3,dq4,dq5,dq6,dq7,t1,t2,t3,t4,t5,t6,t7,ex1,ex2,ex3,ex4,ex5,ex6,ev1,ev2,ev3,ev4,ev5,ev6,xd,yd,zd,uxd,uyd,uzd,x,y,z,ux,uy,uz,vxd,vyd,vzd,vx,vy,vz
9.76563e-07, 0.107637, -0.774289, -0.917332, -1.45795, -0.625384, 1.06979, -0.256733, -0.00235406, 0.00280904, 0.00432188, -0.00362977, 0.000884568, -0.000174737, -0.000187475, -0.281914, 16.6003, 22.0572, 18.9392, 1.2334, 3.99142, -0.186696, 0.000759402, -0.00160618, 0.000896458, 0.00190831, -0.00132732, 0.000264291, -0.00211138, 0.00131861, 0.000283037, 0.000589617, 0.0043706, 0.00341053, -0.011112, -0.444721, 0.635038, -3.13187, -0.0555627, -0.107532, -0.0103588, -0.443083, 0.634201, -3.13004, -0.0556333, -0.105342, 0, 0, 0, 0.00203866, 0.00138958, 0.000435538
0.0122549, 0.107648, -0.774314, -0.917318, -1.45795, -0.625379, 1.06979, -0.256738, 0.00157624, 0.00200397, -0.000175974, -0.000850595, 0.00123378, 0.000108287, -0.000598652, -0.242241, 16.5646, 22.0572, 18.8638, 1.20318, 3.99783, -0.153737, 0.000760889, -0.00160856, 0.000892315, 0.00190249, -0.00129587, 0.000238632, -0.00167605, 0.000144986, -0.000269514, -0.000996381, 0.0015871, 0.00307575, -0.011112, -0.444721, 0.635038, -3.13187, -0.0555627, -0.107532, -0.0103497, -0.443079, 0.63421, -3.13005, -0.0556906, -0.105385, 1.73063e-06, -1.42215e-06, -3.96181e-06, 0.00168605, 0.000204742, -0.0001568
0.0132549, 0.107648, -0.774314, -0.917318, -1.45795, -0.625379, 1.06979, -0.256738, 0.00157624, 0.00200397, -0.000175974, -0.000850595, 0.00123378, 0.000108287, -0.000598652, -0.242241, 16.5646, 22.0572, 18.8638, 1.20318, 3.99783, -0.153737, 0.000760886, -0.00160856, 0.000892306, 0.00190247, -0.00129589, 0.000238639, -0.00167184, 0.000149494, -0.000257372, -0.00097219, 0.00160367, 0.00311924, -0.011112, -0.444721, 0.635038, -3.13187, -0.0555628, -0.107532, -0.0103497, -0.443079, 0.63421, -3.13005, -0.0556906, -0.105385, 6.91577e-06, -5.6745e-06, -1.58141e-05, 0.00168605, 0.000204742, -0.0001568
0.0142549, 0.107648, -0.774314, -0.917318, -1.45795, -0.625379, 1.06979, -0.256738, 0.00157624, 0.00200397, -0.000175974, -0.000850595, 0.00123378, 0.000108287, -0.000598652, -0.242241, 16.5646, 22.0572, 18.8638, 1.20318, 3.99783, -0.153737, 0.000760877, -0.00160857, 0.00089228, 0.00190241, -0.00129595, 0.000238659, -0.00166484, 0.00015698, -0.000237196, -0.000932016, 0.00163119, 0.0031915, -0.011112, -0.444721, 0.635038, -3.13187, -0.0555628, -0.107532, -0.0103497, -0.443079, 0.63421, -3.13005, -0.0556906, -0.105385, 1.55453e-05, -1.2736e-05, -3.55071e-05, 0.00168605, 0.000204742, -0.0001568
0.0152549, 0.107648, -0.774314, -0.917318, -1.45795, -0.625379, 1.06979, -0.256738, 0.00157624, 0.00200397, -0.000175974, -0.000850595, 0.00123378, 0.000108287, -0.000598652, -0.242241, 16.5646, 22.0572, 18.8638, 1.20318, 3.99783, -0.153737, 0.000760859, -0.00160859, 0.00089223, 0.00190231, -0.00129606, 0.000238697, -0.00165505, 0.000167423, -0.000209036, -0.000875978, 0.00166961, 0.00329235, -0.011112, -0.444721, 0.635038, -3.13187, -0.0555628, -0.107532, -0.0103497, -0.443079, 0.63421, -3.13005, -0.0556906, -0.105385, 2.7609e-05, -2.25855e-05, -6.29913e-05, 0.00168605, 0.000204742, -0.0001568
0.0162549, 0.107648, -0.774314, -0.917318, -1.45795, -0.625379, 1.06979, -0.256738, 0.00157624, 0.00200397, -0.000175974, -0.000850595, 0.00123378, 0.000108287, -0.000598652, -0.242241, 16.5646, 22.0572, 18.8638, 1.20318, 3.99783, -0.153737, 0.000760831, -0.00160862, 0.000892149, 0.00190214, -0.00129625, 0.00023876, -0.00164247, 0.000180801, -0.000172943, -0.000804193, 0.00171884, 0.00342161, -0.0111119, -0.444721, 0.635038, -3.13187, -0.0555629, -0.107532, -0.0103497, -0.443079, 0.63421, -3.13005, -0.0556906, -0.105385, 4.30968e-05, -3.5202e-05, -9.82172e-05, 0.00168605, 0.000204742, -0.0001568
0.0172549, 0.107648, -0.774314, -0.917318, -1.45795, -0.625379, 1.06979, -0.256738, 0.00157624, 0.00200397, -0.000175974, -0.000850595, 0.00123378, 0.000108287, -0.000598652, -0.242241, 16.5646, 22.0572, 18.8638, 1.20318, 3.99783, -0.153737, 0.000760788, -0.00160866, 0.000892028, 0.00190188, -0.00129652, 0.000238853, -0.00162711, 0.000197092, -0.000128966, -0.000716778, 0.00177882, 0.00357909, -0.0111119, -0.444721, 0.635038, -3.13187, -0.0555631, -0.107533, -0.0103497, -0.443079, 0.63421, -3.13005, -0.0556906, -0.105385, 6.19987e-05, -5.05647e-05, -0.000141136, 0.00168605, 0.000204742, -0.0001568
0.0182549, 0.107648, -0.774314, -0.917318, -1.45795, -0.625379, 1.06979, -0.256738, 0.00157624, 0.00200397, -0.000175974, -0.000850595, 0.00123378, 0.000108287, -0.000598652, -0.242241, 16.5646, 22.0572, 18.8638, 1.20318, 3.99783, -0.153737, 0.000760729, -0.00160872, 0.000891859, 0.00190152, -0.00129691, 0.000238984, -0.00160899, 0.000216276, -7.71548e-05, -0.000613852, 0.00184948, 0.00376461, -0.0111118, -0.444721, 0.635037, -3.13187, -0.0555633, -0.107533, -0.0103497, -0.443079, 0.63421, -3.13005, -0.0556906, -0.105385, 8.43044e-05, -6.86525e-05, -0.000191697, 0.00168605, 0.000204742, -0.0001568
0.0192549, 0.107648, -0.774314, -0.917318, -1.45795, -0.625379, 1.06979, -0.256738, 0.00157624, 0.00200397, -0.000175974, -0.000850595, 0.00123378, 0.000108287, -0.000598652, -0.242241, 16.5646, 22.0572, 18.8638, 1.20318, 3.99783, -0.153737, 0.00076065, -0.00160881, 0.000891634, 0.00190104, -0.00129743, 0.000239157, -0.00158809, 0.000238329, -1.75587e-05, -0.00049553, 0.00193074, 0.00397799, -0.0111117, -0.444721, 0.635037, -3.13187, -0.0555636, -0.107534, -0.0103497, -0.443079, 0.63421, -3.13005, -0.0556906, -0.105385, 0.000110004, -8.94448e-05, -0.000249853, 0.00168605, 0.000204742, -0.0001568
0.0202549, 0.107648, -0.774314, -0.917318, -1.45795, -0.625379, 1.06979, -0.256738, 0.00157624, 0.00200397, -0.000175974, -0.000850595, 0.00123378, 0.000108287, -0.000598652, -0.242241, 16.5646, 22.0572, 18.8638, 1.20318, 3.99783, -0.153737, 0.000760549, -0.00160891, 0.000891347, 0.00190043, -0.00129809, 0.000239378, -0.00156443, 0.000263232, 4.97727e-05, -0.00036193, 0.00202253, 0.00421906, -0.0111116, -0.444721, 0.635037, -3.13187, -0.055564, -0.107535, -0.0103497, -0.443079, 0.63421, -3.13005, -0.0556906, -0.105385, 0.000139087, -0.000112921, -0.000315553, 0.00168605, 0.000204742, -0.0001568
0.0212551, 0.107648, -0.774314, -0.917318, -1.45795, -0.625379, 1.06979, -0.256738, 0.00157624, 0.00200397, -0.000175974, -0.000850595, 0.00123378, 0.000108287, -0.000598652, -0.242241, 16.5646, 22.0572, 18.8638, 1.20318, 3.99783, -0.153737, 0.000760423, -0.00160905, 0.000890988, 0.00189966, -0.00129891, 0.000239655, -0.00153802, 0.000290963, 0.00012479, -0.000213167, 0.00212479, 0.00448763, -0.0111114, -0.444721, 0.635037, -3.13186, -0.0555644, -0.107536, -0.0103497, -0.443079, 0.63421, -3.13005, -0.0556906, -0.105385, 0.000171544, -0.000139059, -0.00038875, 0.00168605, 0.000204742, -0.0001568
0.0222554, 0.107648, -0.774314, -0.917318, -1.45795, -0.625379, 1.06979, -0.256738, 0.00157624, 0.00200397, -0.000175974, -0.000850595, 0.00123378, 0.000108287, -0.000598652, -0.242241, 16.5646, 22.0572, 18.8638, 1.20318, 3.99783, -0.153737, 0.000760269, -0.00160921, 0.000890552, 0.00189873, -0.00129991, 0.000239992, -0.00150886, 0.0003215, 0.000207444, -4.93582e-05, 0.00223745, 0.00478351, -0.0111112, -0.444721, 0.635036, -3.13186, -0.055565, -0.107538, -0.0103497, -0.443079, 0.63421, -3.13005, -0.0556906, -0.105385, 0.000207364, -0.00016784, -0.000469394, 0.00168605, 0.000204742, -0.0001568
0.0232556, 0.107643, -0.774245, -0.917315, -1.45796, -0.625392, 1.06979, -0.256741, -0.00207041, 0.00656803, 3.38185e-05, -0.000745656, -0.000292382, -7.57323e-05, -0.00163547, -0.206535, 15.8624, 22.0572, 19.0146, 1.27643, 4.00516, -0.127186, 0.000779383, -0.00161106, 0.000890333, 0.00189286, -0.00138725, 0.000240374, -0.000980574, 0.000443539, 0.000652253, 0.00141755, 0.00805719, 0.00186942, -0.011111, -0.444722, 0.635036, -3.13186, -0.0555656, -0.10754, -0.0103305, -0.443076, 0.634211, -3.13006, -0.055691, -0.10525, 0.000246538, -0.000199242, -0.000557437, 0.00116372, 0.000272888, 0.000163367
0.0242556, 0.10765, -0.774244, -0.917315, -1.45796, -0.625394, 1.06979, -0.25674, 0.00112934, 0.00385485, 2.31391e-05, -0.000503514, -0.00063549, -5.05018e-05, -0.000852954, -0.317619, 15.9021, 22.0572, 19.0146, 1.28833, 4.00516, -0.133595, 0.000782598, -0.0016111, 0.000890181, 0.00189232, -0.00139173, 0.000234542, -0.0014161, 0.000275263, 0.000626036, 0.00150004, 0.005598, 0.00433815, -0.0111107, -0.444722, 0.635035, -3.13186, -0.0555664, -0.107542, -0.010327, -0.443077, 0.634211, -3.13006, -0.0557008, -0.105246, 0.000289055, -0.000233245, -0.00065283, 0.00164827, 8.62662e-05, 7.0705e-05
0.0252559, 0.107647, -0.774242, -0.917319, -1.45795, -0.625391, 1.06979, -0.256736, -0.00107698, 0.00463627, -0.00453197, -0.00325206, 0.000458139, -0.00321488, 0.000652067, -0.242241, 15.8267, 21.9819, 18.8638, 1.26453, 3.96213, -0.166554, 0.000780721, -0.00161008, 0.000888603, 0.00188752, -0.00138897, 0.000245362, 0.000373689, 0.000381099, -0.00158471, -0.0057839, 0.00926905, -0.00052402, -0.0111104, -0.444722, 0.635034, -3.13186, -0.0555673, -0.107544, -0.0103287, -0.443078, 0.634211, -3.13006, -0.0556848, -0.105253, 0.000334905, -0.000269828, -0.000755525, 5.7194e-05, 0.000111513, -0.00235978
0.0262559, 0.107651, -0.774242, -0.91732, -1.45796, -0.62539, 1.06979, -0.256741, 0.000160062, 0.00508144, -0.00583179, -0.000961205, 0.00281478, 0.000103691, 0.00715047, -0.281914, 15.7513, 21.6843, 18.5266, 1.19678, 3.89071, -0.0951428, 0.000782483, -0.00161078, 0.000889616, 0.00189106, -0.00139368, 0.000236034, -0.000188185, -0.000328441, -0.00087402, -0.00334716, 0.00498912, -0.00642204, -0.0111101, -0.444722, 0.635033, -3.13186, -0.0555684, -0.107547, -0.0103265, -0.443077, 0.63421, -3.13006, -0.0557004, -0.105248, 0.000384079, -0.000308971, -0.000865474, 0.000643245, -0.000623053, -0.00172651
0.0272559, 0.107661, -0.774248, -0.917338, -1.45797, -0.625393, 1.06979, -0.256737, 0.0035957, 0.00439336, -0.0109564, -0.00724943, -0.000589699, -0.00205841, 0.0112228, -0.43267, 15.7156, 21.5336, 18.2291, 1.14734, 3.81198, -0.120778, 0.000781589, -0.00160791, 0.000898702, 0.00190916, -0.00140297, 0.00023794, -0.000213772, -0.000982118, -0.00444838, -0.0105796, 0.0124916, -0.00893731, -0.0111097, -0.444723, 0.635033, -3.13186, -0.0555696, -0.10755, -0.0103263, -0.443081, 0.6342, -3.13004, -0.0556994, -0.105236, 0.000436566, -0.000350653, -0.000982628, 0.000989227, -0.00128631, -0.00541179
0.0282559, 0.107661, -0.77425, -0.91735, -1.45799, -0.625397, 1.06979, -0.256742, 0.00236902, 0.00389201, -0.0113203, -0.00954125, -7.3003e-05, -0.00432963, 0.00554464, -0.43267, 15.6799, 21.236, 17.8204, 1.12903, 3.74698, -0.0420422, 0.000778718, -0.00160683, 0.0009059, 0.00192344, -0.00141757, 0.000236936, 0.000306944, -0.000368865, -0.0053036, -0.0139906, 0.0144135, -0.0028781, -0.0111092, -0.444723, 0.635032, -3.13185, -0.0555709, -0.107554, -0.0103281, -0.443082, 0.634191, -3.13002, -0.0557029, -0.105215, 0.000492356, -0.000394854, -0.00110694, 0.000562519, -0.0007286, -0.00642127
0.0292559, 0.107668, -0.774254, -0.917369, -1.45802, -0.625403, 1.06979, -0.256742, 0.00239349, 0.00269059, -0.0137938, -0.0142803, -0.00393022, -0.00671455, 0.00419324, -0.468376, 15.6799, 21.0138, 17.5189, 1.11072, 3.69754, -0.0356336, 0.000778986, -0.00160538, 0.000920427, 0.00195228, -0.00144499, 0.000232648, 0.00153001, -0.000534936, -0.00757161, -0.0184144, 0.0207211, -0.00231439, -0.0111087, -0.444723, 0.63503, -3.13185, -0.0555724, -0.107558, -0.0103263, -0.443084, 0.634176, -3.12999, -0.0557122, -0.105175, 0.000551439, -0.000441554, -0.00123836, -0.000436624, -0.000964739, -0.00890037
0.0302559, 0.107672, -0.774257, -0.9174, -1.45804, -0.62541, 1.06978, -0.256742, 0.00564773, 0.00186566, -0.0192562, -0.0160289, -0.0034165, -0.00392755, 0.00409211, -0.508049, 15.6799, 20.9385, 17.146, 1.11713, 3.65451, -0.0557752, 0.000772592, -0.00160124, 0.000936607, 0.00198601, -0.00147023, 0.000243198, 0.00139181, -0.00197979, -0.00940268, -0.0207479, 0.0197056, -0.00146883, -0.0111081, -0.444724, 0.635029, -3.13185, -0.0555741, -0.107563, -0.0103308, -0.443088, 0.634158, -3.12996, -0.0556989, -0.105138, 0.000613805, -0.000490732, -0.00137684, -5.95324e-05, -0.00243717, -0.010865
0.0312559, 0.107677, -0.774261, -0.917415, -1.45808, -0.62542, 1.06978, -0.256739, 0.00719471, -0.00037271, -0.0201596, -0.0241979, -0.00429061, -0.000214629, 0.00459911, -0.508049, 15.7513, 20.6052, 16.9238, 1.16015, 3.56845, -0.0951428, 0.00077451, -0.00159941, 0.000950829, 0.00200688, -0.00150095, 0.000239431, -0.000185269, -0.00245286, -0.0118066, -0.0222756, 0.0218379, 0.00319723, -0.0111074, -0.444724, 0.635028, -3.13184, -0.055576, -0.107568, -0.0103272, -0.443091, 0.634142, -3.12994, -0.0557075, -0.105094, 0.000679445, -0.000542368, -0.00152234, 0.00175996, -0.00288531, -0.0133032
0.0322559, 0.107676, -0.774261, -0.91744, -1.45811, -0.625426, 1.06979, -0.256736, 0.00432078, 0.00611796, -0.0214849, -0.0240548, -0.00361565, 0.00167667, 0.00432524, -0.468376, 15.7513, 20.4188, 16.5866, 1.17206, 3.50345, -0.120778, 0.000770254, -0.0015959, 0.000964719, 0.00203088, -0.00152825, 0.00025205, -0.000708061, -0.00270885, -0.0114916, -0.0207466, 0.0270046, 0.000390205, -0.0111067, -0.444725, 0.635026, -3.13184, -0.055578, -0.107574, -0.0103297, -0.443095, 0.634126, -3.12991, -0.055691, -0.105055, 0.000748347, -0.000596442, -0.0016748, 0.00233772, -0.00317949, -0.0131071
0.0332559, 0.107684, -0.774261, -0.917466, -1.45815, -0.625435, 1.06979, -0.256742, 0.00498301, 0.00463615, -0.0231544, -0.0257615, -0.00833962, 0.0027793, 0.00142037, -0.543754, 15.7513, 20.268, 16.4359, 1.20868, 3.44668, -0.0750012, 0.000772247, -0.00159283, 0.000983451, 0.0020631, -0.00156776, 0.000241967, 0.000499707, -0.00365462, -0.0123019, -0.0195698, 0.0299618, 0.00188687, -0.0111059, -0.444726, 0.635024, -3.13184, -0.0555803, -0.10758, -0.0103255, -0.443098, 0.634106, -3.12988, -0.0557103, -0.104998, 0.000820503, -0.000652933, -0.00183418, 0.001295, -0.00421659, -0.0141638
0.0342559, 0.10768, -0.774258, -0.917493, -1.45819, -0.625446, 1.06979, -0.256737, 0.0018132, 0.0035089, -0.0240437, -0.0330828, -0.00701356, 0.00179353, 0.00159585, -0.468376, 15.7513, 20.1212, 16.2891, 1.2334, 3.43936, -0.0878186, 0.000768268, -0.00158939, 0.00100155, 0.00209266, -0.00160972, 0.000256998, 0.000915251, -0.00291586, -0.0146495, -0.0252046, 0.0333456, 0.00288146, -0.0111051, -0.444726, 0.635022, -3.13183, -0.0555828, -0.107587, -0.0103273, -0.443102, 0.634086, -3.12985, -0.0556907, -0.104937, 0.000895902, -0.000711822, -0.00200043, 0.00109053, -0.00353151, -0.016696
0.0352559, 0.107682, -0.77425, -0.917511, -1.45824, -0.625457, 1.06979, -0.25674, 0.00139963, 0.00515852, -0.0223959, -0.0362411, -0.00484207, 0.00254143, -0.000263492, -0.468376, 15.6442, 19.8594, 16.178, 1.22699, 3.39633, -0.0484509, 0.000772325, -0.00158721, 0.00101639, 0.00211262, -0.00165671, 0.000250533, -0.00102778, -0.00217472, -0.0148276, -0.0257233, 0.0351862, 0.0088765, -0.0111041, -0.444727, 0.63502, -3.13183, -0.0555855, -0.107594, -0.0103212, -0.443105, 0.634069, -3.12983, -0.0557044, -0.10487, 0.000974534, -0.000773089, -0.00217351, 0.00309219, -0.00278214, -0.0169086
0.0362559, 0.10768, -0.774247, -0.917546, -1.45828, -0.625469, 1.0698, -0.256742, 0.000240986, 0.00460223, -0.0234784, -0.0408102, -0.00832087, 0.00205085, -0.000789738, -0.43267, 15.6046, 19.8237, 16.178, 1.23981, 3.38168, -0.0292249, 0.00076863, -0.00158216, 0.00103821, 0.00214754, -0.00170459, 0.000259743, -0.000146038, -0.00231969, -0.0163731, -0.02746, 0.0407806, 0.00876499, -0.0111031, -0.444728, 0.635018, -3.13182, -0.0555884, -0.107602, -0.0103222, -0.443111, 0.634045, -3.12979, -0.0556946, -0.1048, 0.00105639, -0.000836713, -0.00235336, 0.00240603, -0.00300824, -0.0186918
0.0372559, 0.107681, -0.774237, -0.917569, -1.45833, -0.62548, 1.06981, -0.256738, 0.000267997, 0.00584301, -0.0244079, -0.03917, -0.00951425, 0.0017703, 0.00100507, -0.43267, 15.4935, 19.6729, 16.1026, 1.21509, 3.36703, -0.0685925, 0.000770449, -0.00157909, 0.00105387, 0.00216968, -0.00175267, 0.000267651, 0.00043853, -0.00259006, -0.0159256, -0.0263939, 0.0423003, 0.00555693, -0.011102, -0.444729, 0.635016, -3.13182, -0.0555915, -0.107611, -0.0103181, -0.443114, 0.634027, -3.12976, -0.0556865, -0.104732, 0.00114146, -0.000902674, -0.00253994, 0.00188738, -0.00336874, -0.0184738
0.0382559, 0.107668, -0.774229, -0.917596, -1.45837, -0.625492, 1.06981, -0.256743, -0.00875125, 0.0065333, -0.0227895, -0.0402418, -0.0108044, 0.000804325, -0.000970249, -0.317619, 15.3864, 19.5618, 16.1383, 1.19678, 3.37436, -0.0228162, 0.000765535, -0.00157689, 0.00107264, 0.00220078, -0.00180793, 0.000278628, 0.00389624, -0.00185791, -0.0153796, -0.0251595, 0.0452793, 0.00040534, -0.0111008, -0.44473, 0.635013, -3.13181, -0.0555949, -0.10762, -0.0103204, -0.443118, 0.634005, -3.12973, -0.0556743, -0.104653, 0.00122973, -0.000970953, -0.00273321, -0.00153517, -0.00283168, -0.0183555
0.0392559, 0.107662, -0.774226, -0.917623, -1.45843, -0.625501, 1.06981, -0.256732, -0.0071356, 0.00445476, -0.0246757, -0.043319, -0.010778, 0.00178019, 0.00180201, -0.281914, 15.3864, 19.4507, 16.2891, 1.15375, 3.33865, -0.0878186, 0.000763487, -0.00157435, 0.00109308, 0.00223344, -0.00185778, 0.000295173, 0.00374906, -0.00221592, -0.0166905, -0.0271238, 0.0450758, 0.000141981, -0.0110996, -0.444731, 0.63501, -3.1318, -0.0555986, -0.10763, -0.0103197, -0.443121, 0.633982, -3.12969, -0.0556537, -0.104583, 0.00132119, -0.00104153, -0.00293311, -0.00119428, -0.0032434, -0.0198554
0.0402559, 0.10766, -0.774213, -0.917656, -1.45847, -0.625517, 1.06981, -0.25674, -0.00603475, 0.00965815, -0.023203, -0.0427471, -0.0129945, 0.000856686, -0.000700432, -0.242241, 15.2356, 19.4864, 16.3248, 1.16565, 3.34598, -0.0356336, 0.000760137, -0.00157025, 0.00111123, 0.00226347, -0.00191816, 0.000303702, 0.00194007, -0.00188887, -0.0158066, -0.0249534, 0.0522654, 0.00425237, -0.0110982, -0.444732, 0.635007, -3.1318, -0.0556025, -0.107641, -0.0103203, -0.443126, 0.633961, -3.12966, -0.0556458, -0.104498, 0.00141584, -0.00111438, -0.0031396, 0.00063185, -0.00293331, -0.0190537
0.0412559, 0.107656, -0.774215, -0.917676, -1.45852, -0.625531, 1.06981, -0.256737, -0.00512063, 0.00582385, -0.0245636, -0.0426293, -0.00962086, -0.000524167, 0.000777004, -0.206535, 15.2753, 19.3754, 16.5112, 1.16015, 3.37436, -0.0685925, 0.00075812, -0.00156938, 0.00112901, 0.00229136, -0.0019685, 0.000308689, 0.00272881, -0.00154964, -0.0162299, -0.0283639, 0.04687, 0.00499769, -0.0110967, -0.444733, 0.635004, -3.13179, -0.0556067, -0.107652, -0.0103196, -0.443128, 0.633939, -3.12963, -0.0556435, -0.104429, 0.00151366, -0.0011895, -0.00335263, -3.97113e-05, -0.00269339, -0.0197411
0.0422559, 0.107646, -0.774215, -0.917702, -1.45856, -0.625548, 1.06981, -0.256742, -0.00537368, 0.00562492, -0.0243668, -0.0445555, -0.011647, -0.00065381, -0.000922617, -0.131157, 15.3467, 19.3397, 16.662, 1.16015, 3.38168, -0.0292249, 0.000750223, -0.00156683, 0.00114677, 0.0023181, -0.00202087, 0.000320923, 0.00293245, -0.00151364, -0.016547, -0.028086, 0.0498196, 0.00741969, -0.0110952, -0.444734, 0.635, -3.13178, -0.0556111, -0.107664, -0.0103246, -0.443132, 0.633918, -3.1296, -0.0556302, -0.104357, 0.00161465, -0.00126685, -0.00357216, -0.000121178, -0.00273907, -0.0202908
0.0432559, 0.107637, -0.774206, -0.917723, -1.45861, -0.625571, 1.06981, -0.25674, -0.00864537, 0.00678935, -0.0231762, -0.0433931, -0.0132823, -0.0012745, 0.00011008, -0.0557783, 15.2356, 19.2643, 16.8484, 1.16565, 3.40365, -0.0484509, 0.000746768, -0.00156555, 0.00116406, 0.00234277, -0.00209071, 0.000335763, 0.00435438, -0.00123417, -0.0155336, -0.0257173, 0.0520148, 0.00347422, -0.0110935, -0.444735, 0.634997, -3.13177, -0.0556159, -0.107677, -0.0103251, -0.443134, 0.633897, -3.12957, -0.0556132, -0.104259, 0.00171879, -0.00134642, -0.00379814, -0.001514, -0.00259809, -0.0196019
0.0442559, 0.107633, -0.774213, -0.917751, -1.45866, -0.625594, 1.06981, -0.256738, -0.00706492, 0.00225849, -0.0249848, -0.0447132, -0.0183115, 0.00277938, 0.000829183, -0.0161054, 15.3467, 19.3, 16.9992, 1.16565, 3.43204, -0.0685925, 0.000737309, -0.00156171, 0.00118247, 0.00236856, -0.0021417, 0.000353874, 0.00598231, -0.00286601, -0.016073, -0.0218656, 0.050541, 0.00209104, -0.0110917, -0.444737, 0.634993, -3.13176, -0.0556209, -0.107691, -0.0103314, -0.44314, 0.633874, -3.12954, -0.0555914, -0.104192, 0.00182607, -0.00142819, -0.00403052, -0.00293437, -0.00436313, -0.0204947
0.0452559, 0.107633, -0.77421, -0.91777, -1.45871, -0.625618, 1.06981, -0.256743, -0.00406191, -0.00368771, -0.0243788, -0.0464862, -0.0180971, 0.0025018, -0.00137263, -0.0557783, 15.311, 19.2643, 17.1857, 1.16565, 3.42471, -0.0164075, 0.000736647, -0.00155978, 0.00119878, 0.00238777, -0.00220488, 0.000350856, 0.00597683, -0.00268198, -0.0165313, -0.0229553, 0.0460673, 0.00965485, -0.0110899, -0.444738, 0.634989, -3.13175, -0.0556263, -0.107706, -0.010329, -0.443143, 0.633853, -3.12952, -0.0556025, -0.104106, 0.00193648, -0.00151214, -0.00426926, -0.00279348, -0.00425885, -0.0211892
0.0462559, 0.107627, -0.774213, -0.917795, -1.45876, -0.625644, 1.06981, -0.256737, -0.00384595, -0.0027955, -0.0233286, -0.0460238, -0.0220022, 0.00113727, 0.00126057, -0.0161054, 15.311, 19.3397, 17.2968, 1.16015, 3.44668, -0.0750012, 0.000727404, -0.00155675, 0.00121492, 0.00240896, -0.00226379, 0.000375909, 0.00637284, -0.00260008, -0.015932, -0.0209222, 0.0506035, 0.0068251, -0.0110879, -0.44474, 0.634984, -3.13174, -0.0556319, -0.107721, -0.010335, -0.443148, 0.633832, -3.12949, -0.0555703, -0.104028, 0.00205002, -0.00159825, -0.00451432, -0.00311861, -0.00428215, -0.0208631
0.0472559, 0.10762, -0.774221, -0.917822, -1.4588, -0.62567, 1.06981, -0.256741, -0.00670388, -0.00471489, -0.0223256, -0.045664, -0.024424, -8.058e-05, -0.000613544, 0.0196001, 15.4221, 19.4111, 17.4078, 1.14093, 3.47507, -0.0356336, 0.000714644, -0.00155365, 0.00123126, 0.00243151, -0.00231667, 0.000393434, 0.00866884, -0.00235693, -0.015369, -0.0194952, 0.0511862, 0.00619354, -0.0110858, -0.444741, 0.63498, -3.13173, -0.0556379, -0.107738, -0.0103444, -0.443153, 0.63381, -3.12946, -0.0555502, -0.103961, 0.00216668, -0.00168649, -0.00476563, -0.00533819, -0.00421304, -0.0207094
0.0482559, 0.107618, -0.774226, -0.917843, -1.45884, -0.625699, 1.0698, -0.256739, -0.00716287, -0.00500327, -0.020648, -0.0447491, -0.027271, 0.00355991, 0.00034006, -0.0161054, 15.4935, 19.4507, 17.4832, 1.14734, 3.51077, -0.0557752, 0.000706684, -0.00155147, 0.00124563, 0.00244886, -0.00237576, 0.000408656, 0.0088789, -0.00297575, -0.0140264, -0.0129662, 0.050907, 0.00517245, -0.0110835, -0.444743, 0.634975, -3.13172, -0.0556442, -0.107755, -0.010349, -0.443157, 0.63379, -3.12943, -0.0555338, -0.103884, 0.00228643, -0.00177687, -0.00502317, -0.00549762, -0.00494082, -0.019646
0.0492559, 0.107615, -0.774223, -0.917862, -1.45889, -0.625731, 1.0698, -0.256739, -0.0053229, -0.00180726, -0.0255964, -0.0426153, -0.0244389, 0.00129712, -0.000754309, -0.0161054, 15.4221, 19.4864, 17.634, 1.14093, 3.5538, -0.0292249, 0.000701313, -0.00154947, 0.00125991, 0.00246321, -0.00244612, 0.000421993, 0.00891868, -0.00320784, -0.0146486, -0.0175522, 0.052302, 0.00555545, -0.0110812, -0.444745, 0.634969, -3.13171, -0.0556509, -0.107773, -0.0103509, -0.443161, 0.633771, -3.12941, -0.0555207, -0.103791, 0.00240928, -0.00186934, -0.00528689, -0.00536328, -0.00526106, -0.0205348
0.0502559, 0.107607, -0.774229, -0.917883, -1.45893, -0.625764, 1.0698, -0.256734, -0.00479457, -0.00298191, -0.027116, -0.0452491, -0.0272067, 0.000710367, 0.000719577, 0.0196001, 15.4935, 19.5618, 17.7054, 1.14734, 3.56845, -0.0621838, 0.000688858, -0.00154621, 0.00127283, 0.00247347, -0.00250612, 0.000450579, 0.00969323, -0.00348358, -0.0157174, -0.0188676, 0.0556891, 0.00447371, -0.0110787, -0.444747, 0.634964, -3.1317, -0.0556578, -0.107792, -0.0103599, -0.443166, 0.633752, -3.12939, -0.055484, -0.103716, 0.00253522, -0.00196389, -0.00555673, -0.00592618, -0.00564895, -0.0219261
0.0512559, 0.107608, -0.774229, -0.917902, -1.45897, -0.625793, 1.0698, -0.256733, -0.0017412, -0.00206792, -0.0239843, -0.0422117, -0.0285911, -1.5199e-05, 0.000718386, -0.0557783, 15.4935, 19.5975, 17.8204, 1.13544, 3.58951, -0.0685925, 0.000684393, -0.00154449, 0.00128573, 0.00248649, -0.00257112, 0.000460454, 0.00814548, -0.0030525, -0.0137379, -0.0147448, 0.0563062, 0.00868984, -0.0110761, -0.444749, 0.634958, -3.13168, -0.0556652, -0.107812, -0.0103608, -0.44317, 0.633733, -3.12937, -0.0554768, -0.103633, 0.00266423, -0.00206051, -0.00583265, -0.00440507, -0.00527745, -0.0201181
0.0522559, 0.1076, -0.77423, -0.917923, -1.45901, -0.625827, 1.0698, -0.256741, -0.00231986, -0.0014386, -0.0234472, -0.0389992, -0.0294142, -0.00033433, -0.00219886, -0.0161054, 15.4935, 19.7086, 17.8918, 1.11713, 3.60415, 0.00373412, 0.000672955, -0.001541, 0.001297, 0.0024921, -0.00263528, 0.000478574, 0.00900779, -0.00305171, -0.0123022, -0.011869, 0.0559885, 0.0104261, -0.0110734, -0.444751, 0.634952, -3.13167, -0.0556729, -0.107834, -0.0103685, -0.443176, 0.633715, -3.12936, -0.055457, -0.103554, 0.0027963, -0.00215917, -0.00611461, -0.00523107, -0.00541819, -0.0190273
0.0532559, 0.107586, -0.774232, -0.917945, -1.45905, -0.625865, 1.0698, -0.256736, -0.0066745, -0.00193207, -0.0230715, -0.0375805, -0.0312244, -0.00111029, 0.0012136, 0.059273, 15.5331, 19.8237, 18.0069, 1.12903, 3.63254, -0.0685925, 0.000657946, -0.00153814, 0.00130949, 0.00250009, -0.00270605, 0.000514729, 0.0118021, -0.00292253, -0.0114199, -0.00986301, 0.0566919, 0.00241661, -0.0110705, -0.444753, 0.634946, -3.13166, -0.0556809, -0.107856, -0.0103797, -0.443181, 0.633695, -3.12934, -0.0554096, -0.103464, 0.00293143, -0.00225986, -0.00640257, -0.00794689, -0.00549591, -0.018627
0.0542559, 0.107579, -0.77423, -0.917962, -1.4591, -0.625904, 1.06979, -0.25674, -0.00799526, -0.000393769, -0.0247642, -0.0396336, -0.0365583, -0.00221108, -0.00136052, 0.059273, 15.4935, 19.8951, 18.118, 1.13544, 3.67557, -0.00999879, 0.000648252, -0.00153642, 0.00132099, 0.00250748, -0.0027843, 0.000532757, 0.0133144, -0.00335095, -0.0122235, -0.00991099, 0.0646333, 0.00195984, -0.0110675, -0.444756, 0.63494, -3.13164, -0.0556894, -0.107879, -0.0103855, -0.443186, 0.633676, -3.12932, -0.0553908, -0.103365, 0.00306961, -0.00236255, -0.00669647, -0.00924573, -0.00607285, -0.0198297
0.0552559, 0.107576, -0.774218, -0.917978, -1.45914, -0.625939, 1.06979, -0.256732, -0.00496156, 0.00850252, -0.0229903, -0.0370892, -0.0348917, -0.00297564, 0.00173826, 0.0196001, 15.3864, 19.9705, 18.1934, 1.10431, 3.7186, -0.0814099, 0.000643805, -0.00153507, 0.00133044, 0.00251048, -0.00286613, 0.000558698, 0.00910679, -0.00261116, -0.0104644, -0.00769768, 0.0713377, 0.00380184, -0.0110644, -0.444758, 0.634933, -3.13162, -0.0556982, -0.107903, -0.0103861, -0.443189, 0.63366, -3.12931, -0.0553599, -0.10326, 0.00321082, -0.00246723, -0.00699628, -0.00505659, -0.0053053, -0.0180801
0.0562559, 0.107562, -0.774209, -0.917993, -1.45917, -0.62598, 1.06978, -0.256735, -0.00781368, 0.0119333, -0.0177178, -0.0343119, -0.0345867, -0.0032371, -6.15549e-05, 0.059273, 15.2753, 20.0101, 18.2291, 1.0979, 3.7543, -0.0484509, 0.000632298, -0.00153421, 0.00133859, 0.00251135, -0.00295101, 0.000585945, 0.00829317, -0.00142178, -0.00761182, -0.00204531, 0.0730179, 0.00659683, -0.0110611, -0.444761, 0.634926, -3.13161, -0.0557074, -0.107928, -0.0103937, -0.443193, 0.633644, -3.1293, -0.0553273, -0.103153, 0.00335505, -0.00257388, -0.00730195, -0.00433949, -0.00421979, -0.0154765
0.0572559, 0.107555, -0.774206, -0.918006, -1.45921, -0.626023, 1.06978, -0.256731, -0.00804253, 0.00859756, -0.0169235, -0.0322897, -0.0345654, -0.00342868, 0.0011799, 0.0196001, 15.2753, 20.0458, 18.2648, 1.10431, 3.79001, -0.0814099, 0.000622109, -0.00153242, 0.00134596, 0.00250624, -0.00302971, 0.000613924, 0.00970722, -0.001309, -0.00658147, -0.000178395, 0.0688535, 0.00585343, -0.0110577, -0.444763, 0.634918, -3.13159, -0.055717, -0.107955, -0.0103998, -0.443198, 0.633628, -3.12929, -0.0552938, -0.103056, 0.0035023, -0.00268248, -0.00761342, -0.00567672, -0.00427461, -0.0148571
0.0582559, 0.107548, -0.774198, -0.918026, -1.45925, -0.626065, 1.06978, -0.256734, -0.00835995, 0.00797647, -0.0158038, -0.0342121, -0.0384771, -0.00360327, -0.000162661, -0.0161054, 15.1999, 20.1926, 18.3044, 1.09241, 3.82663, -0.0557752, 0.000610994, -0.00153057, 0.00135535, 0.0025099, -0.00311641, 0.000640278, 0.0101869, -0.00127448, -0.0065502, 0.00166093, 0.0729269, 0.00801081, -0.0110541, -0.444766, 0.63491, -3.13157, -0.055727, -0.107982, -0.0104066, -0.443203, 0.63361, -3.12927, -0.0552635, -0.102947, 0.00365255, -0.002793, -0.00793067, -0.00600791, -0.00436778, -0.0151762
0.0592559, 0.107539, -0.774192, -0.918036, -1.45929, -0.626108, 1.06977, -0.256728, -0.00543054, 0.00872689, -0.0145544, -0.0326095, -0.0420572, -0.00315293, 0.00206183, -0.0557783, 15.1999, 20.1926, 18.3401, 1.0979, 3.84768, -0.114369, 0.000601335, -0.00153, 0.00136113, 0.00250226, -0.00320012, 0.000671092, 0.00937686, -0.00156527, -0.00539414, 0.00584401, 0.075539, 0.00830419, -0.0110504, -0.444769, 0.634902, -3.13155, -0.0557374, -0.108011, -0.0104121, -0.443206, 0.633596, -3.12927, -0.0552263, -0.102845, 0.0038058, -0.00290544, -0.00825364, -0.005116, -0.00475247, -0.014292
0.0602559, 0.107534, -0.774186, -0.918049, -1.45932, -0.62615, 1.06977, -0.256725, -0.00558092, 0.0095145, -0.014624, -0.0344812, -0.0438053, -0.00313125, 0.00113729, -0.131157, 15.1999, 20.2323, 18.3798, 1.07959, 3.87607, -0.10796, 0.000592767, -0.00152917, 0.00136688, 0.00249624, -0.00328251, 0.000695933, 0.00930908, -0.00152126, -0.00561055, 0.00626643, 0.0793162, 0.0103532, -0.0110465, -0.444772, 0.634894, -3.13154, -0.0557483, -0.10804, -0.0104163, -0.44321, 0.633581, -3.12926, -0.0551989, -0.102746, 0.00396204, -0.00301977, -0.00858229, -0.00487876, -0.00481846, -0.0148318
0.0612559, 0.107519, -0.774188, -0.918068, -1.45936, -0.626193, 1.06977, -0.25673, -0.00942322, 0.00523772, -0.0203616, -0.0359265, -0.041571, -0.00315618, -0.000225076, -0.0557783, 15.2753, 20.3791, 18.4155, 1.07959, 3.90536, -0.0814099, 0.000574862, -0.00152696, 0.00137476, 0.00249396, -0.00336106, 0.000729592, 0.0135457, -0.00214479, -0.0073841, 0.0013447, 0.0750011, 0.00656706, -0.0110424, -0.444775, 0.634885, -3.13152, -0.0557596, -0.108071, -0.0104294, -0.443216, 0.633563, -3.12925, -0.0551583, -0.102654, 0.00412125, -0.00313597, -0.00891658, -0.00879899, -0.00569139, -0.0172322
0.0622559, 0.107517, -0.77418, -0.918081, -1.45939, -0.626237, 1.06977, -0.256726, -0.0044806, 0.00398529, -0.018881, -0.0320303, -0.0400309, -0.00260045, 0.00059599, -0.166862, 15.2753, 20.4188, 18.3798, 1.09241, 3.9191, -0.101552, 0.000566302, -0.00152525, 0.001378, 0.00248035, -0.00344483, 0.000758594, 0.0118476, -0.00205989, -0.00557276, 0.00453257, 0.0702151, 0.0117881, -0.0110382, -0.444778, 0.634876, -3.13149, -0.0557713, -0.108103, -0.0104335, -0.443221, 0.63355, -3.12925, -0.055125, -0.102556, 0.00428343, -0.00325403, -0.00925645, -0.00707127, -0.00568083, -0.0156476
0.0632559, 0.107507, -0.774178, -0.918096, -1.45942, -0.626275, 1.06977, -0.25673, -0.00984219, 0.00135652, -0.0186855, -0.0299911, -0.0379857, -0.00148705, -0.00129805, -0.166862, 15.3467, 20.4941, 18.3798, 1.0741, 3.91269, -0.0557752, 0.000553541, -0.00152373, 0.00138199, 0.00246965, -0.00351869, 0.000784306, 0.014989, -0.00190695, -0.00437726, 0.00670831, 0.0645829, 0.00968703, -0.0110339, -0.444781, 0.634867, -3.13147, -0.0557834, -0.108137, -0.0104415, -0.443227, 0.633536, -3.12924, -0.0550973, -0.102474, 0.00444857, -0.00337392, -0.00960188, -0.0101257, -0.0057695, -0.0150167
0.0642559, 0.1075, -0.774179, -0.918112, -1.45946, -0.626319, 1.06977, -0.256718, -0.00974664, -0.00141653, -0.021554, -0.0296982, -0.0323525, -0.00122181, 0.00201688, -0.206535, 15.4578, 20.5655, 18.4155, 1.06128, 3.9191, -0.133595, 0.00053997, -0.00152171, 0.00138786, 0.00246095, -0.00359849, 0.000825717, 0.0157786, -0.00181545, -0.00482727, 0.00324469, 0.0578443, 0.00812554, -0.0110293, -0.444785, 0.634857, -3.13145, -0.055796, -0.108171, -0.01045, -0.443232, 0.63352, -3.12923, -0.0550457, -0.102384, 0.00461665, -0.00349563, -0.0099528, -0.010717, -0.00582362, -0.0158709
0.0652559, 0.107486, -0.774177, -0.918125, -1.45949, -0.626362, 1.06977, -0.256725, -0.00841503, -0.00157139, -0.0227189, -0.0324653, -0.0327894, -0.000571995, -0.00130025, -0.166862, 15.4935, 20.6052, 18.4552, 1.05578, 3.91269, -0.0621838, 0.000524533, -0.00152039, 0.00139082, 0.00244557, -0.00367857, 0.000854905, 0.015198, -0.0019404, -0.00562558, 0.00229908, 0.0600495, 0.0144052, -0.0110246, -0.444788, 0.634847, -3.13143, -0.055809, -0.108207, -0.0104604, -0.443238, 0.633505, -3.12923, -0.0550134, -0.102295, 0.00478767, -0.00361914, -0.0103092, -0.0099075, -0.0060443, -0.0169848
0.0662559, 0.107478, -0.774187, -0.91814, -1.45952, -0.626404, 1.06977, -0.256716, -0.00542393, -0.00525315, -0.0207454, -0.0335615, -0.0328226, -0.000886066, 0.00177804, -0.206535, 15.6799, 20.6409, 18.4552, 1.04297, 3.92642, -0.133595, 0.000508105, -0.00151835, 0.00139376, 0.00243026, -0.00374563, 0.000893928, 0.0143149, -0.00146281, -0.00528078, 0.00296401, 0.0577175, 0.0176966, -0.0110198, -0.444792, 0.634836, -3.1314, -0.0558225, -0.108244, -0.0104716, -0.443244, 0.633491, -3.12923, -0.0549662, -0.102228, 0.00496161, -0.00374443, -0.010671, -0.00889383, -0.00566422, -0.0169388
0.0672559, 0.107476, -0.774178, -0.918155, -1.45956, -0.626444, 1.06976, -0.256724, -0.00555389, -0.00162176, -0.021489, -0.036039, -0.0373468, -0.00085906, -0.00145948, -0.281914, 15.6046, 20.6409, 18.5266, 1.03656, 3.93374, -0.0621838, 0.000499948, -0.00151803, 0.00139723, 0.00242027, -0.00383404, 0.000909225, 0.014029, -0.00175319, -0.0057277, 0.00411838, 0.0669083, 0.0206815, -0.0110147, -0.444796, 0.634825, -3.13138, -0.0558365, -0.108282, -0.0104744, -0.443248, 0.633476, -3.12922, -0.0549566, -0.102129, 0.00513848, -0.00387148, -0.0110382, -0.00839045, -0.00606729, -0.0177343
0.0682559, 0.107471, -0.774188, -0.918173, -1.45958, -0.626481, 1.06976, -0.256719, -0.00665844, -0.00442702, -0.0208453, -0.0337505, -0.0362746, -0.000841786, 0.000722443, -0.317619, 15.7513, 20.7163, 18.4155, 1.02466, 3.94107, -0.10796, 0.000482253, -0.00151595, 0.00139856, 0.00240659, -0.00389642, 0.00094764, 0.0155706, -0.00154724, -0.00453184, 0.0059674, 0.0622837, 0.0185977, -0.0110095, -0.4448, 0.634814, -3.13135, -0.055851, -0.108322, -0.0104867, -0.443255, 0.633462, -3.12921, -0.0549113, -0.102071, 0.00531825, -0.00400028, -0.0114107, -0.00983731, -0.00605562, -0.0170196
0.0692559, 0.107462, -0.774185, -0.918194, -1.45961, -0.626523, 1.06977, -0.256721, -0.00604303, -0.00205026, -0.0202587, -0.0325235, -0.0359167, 0.000254253, -0.000264349, -0.281914, 15.7156, 20.7917, 18.4552, 1.02466, 3.9191, -0.0878186, 0.000466848, -0.00151348, 0.00140179, 0.00239196, -0.00397882, 0.000982464, 0.0146093, -0.00149371, -0.00343724, 0.00869715, 0.0635358, 0.0215638, -0.0110041, -0.444804, 0.634803, -3.13133, -0.0558659, -0.108363, -0.0104963, -0.443262, 0.633447, -3.1292, -0.0548722, -0.101984, 0.00550092, -0.0041308, -0.0117885, -0.00877349, -0.00610866, -0.016239
0.0702559, 0.107459, -0.774182, -0.918212, -1.45966, -0.626564, 1.06977, -0.256721, -0.00377011, 0.000353, -0.0188692, -0.0339523, -0.0394659, 0.000170733, -0.00136302, -0.317619, 15.6442, 20.8274, 18.602, 1.01276, 3.9191, -0.0557752, 0.000456007, -0.00151247, 0.00140712, 0.00238265, -0.00406895, 0.00100782, 0.0129932, -0.00139192, -0.00306956, 0.0110755, 0.0700842, 0.0264191, -0.0109985, -0.444808, 0.634791, -3.1313, -0.0558813, -0.108405, -0.0105011, -0.443268, 0.633429, -3.12919, -0.0548485, -0.101886, 0.00568647, -0.00426302, -0.0121715, -0.00700559, -0.00608542, -0.016143
0.0712559, 0.107449, -0.774182, -0.918232, -1.45968, -0.626604, 1.06976, -0.256716, -0.00470912, 0.000272385, -0.0178093, -0.0305843, -0.0382418, -0.000156522, 0.00173618, -0.242241, 15.6442, 20.8631, 18.5663, 1.01276, 3.92642, -0.127186, 0.000437471, -0.0015105, 0.00140769, 0.00236599, -0.00414479, 0.00105476, 0.0137399, -0.00103252, -0.001344, 0.0136502, 0.0675385, 0.0234663, -0.0109927, -0.444812, 0.634778, -3.13127, -0.0558972, -0.108449, -0.0105137, -0.443274, 0.633414, -3.12918, -0.0547914, -0.101811, 0.00587491, -0.00439694, -0.0125597, -0.0076935, -0.00590246, -0.0148596
0.0722559, 0.107451, -0.774185, -0.918259, -1.45971, -0.626643, 1.06977, -0.25672, -0.00170054, -0.000625839, -0.0180168, -0.0292314, -0.0416033, 0.00040497, -0.00101268, -0.317619, 15.6799, 20.9385, 18.5663, 1.01276, 3.91269, -0.0685925, 0.000422473, -0.00150714, 0.00141079, 0.00235353, -0.00422022, 0.00108296, 0.0137885, -0.00159672, -0.000659294, 0.01675, 0.068606, 0.0282001, -0.0109867, -0.444817, 0.634765, -3.13124, -0.0559137, -0.108494, -0.0105223, -0.443283, 0.633398, -3.12917, -0.054764, -0.101739, 0.00606621, -0.00453252, -0.0129531, -0.00757753, -0.00660998, -0.0145776
0.0732559, 0.107444, -0.77419, -0.918278, -1.45974, -0.626678, 1.06976, -0.256716, -0.0031402, -0.00206682, -0.0195323, -0.0307748, -0.0399283, -0.000238127, 0.000308225, -0.242241, 15.7513, 20.9385, 18.6774, 1.01276, 3.92642, -0.0951428, 0.000407062, -0.00150678, 0.00141418, 0.00234429, -0.00429799, 0.0011168, 0.0149306, -0.0013294, -0.00121725, 0.0143908, 0.0678408, 0.0273483, -0.0109806, -0.444821, 0.634752, -3.13121, -0.0559306, -0.108541, -0.0105312, -0.443288, 0.63338, -3.12916, -0.0547286, -0.101664, 0.00626038, -0.00466976, -0.0133516, -0.00849306, -0.00651546, -0.0156106
0.0742559, 0.107447, -0.774191, -0.9183, -1.45978, -0.626716, 1.06977, -0.256719, -0.0013479, -0.00229027, -0.0206763, -0.0309452, -0.0388143, 0.000112906, -0.000777859, -0.281914, 15.791, 20.9385, 18.7527, 1.01825, 3.9191, -0.0685925, 0.000395421, -0.00150522, 0.00141681, 0.00233108, -0.00438045, 0.00113948, 0.0144482, -0.00137871, -0.00121199, 0.0140217, 0.0673341, 0.0314527, -0.0109742, -0.444826, 0.634739, -3.13118, -0.055948, -0.108588, -0.0105362, -0.443295, 0.633363, -3.12914, -0.0547109, -0.101584, 0.00645739, -0.00480863, -0.0137552, -0.00781355, -0.0066867, -0.0159762
0.0752559, 0.107441, -0.774193, -0.918329, -1.4598, -0.626759, 1.06977, -0.256716, -0.00279868, -0.00235034, -0.0234039, -0.0286434, -0.0379193, -0.00073824, 0.000464773, -0.206535, 15.8267, 21.0138, 18.602, 1.03107, 3.94107, -0.0951428, 0.000373463, -0.00150107, 0.00141691, 0.00231203, -0.00445765, 0.0011914, 0.0165431, -0.00160278, -0.00089686, 0.0133111, 0.0662072, 0.0274292, -0.0109676, -0.444831, 0.634725, -3.13115, -0.055966, -0.108638, -0.0105514, -0.443305, 0.633347, -3.12914, -0.0546481, -0.101513, 0.00665724, -0.00494912, -0.0141638, -0.0097159, -0.00712834, -0.016218
0.0762559, 0.107446, -0.774187, -0.91836, -1.45983, -0.626794, 1.06977, -0.256714, 0.00619277, 0.000205137, -0.0285334, -0.0326801, -0.0325123, 0.000321861, 0.000784567, -0.281914, 15.7513, 21.0892, 18.6774, 1.02466, 3.9191, -0.10796, 0.000362687, -0.001498, 0.00142108, 0.00230182, -0.0045458, 0.0012212, 0.0116114, -0.00194279, -0.00325308, 0.00664987, 0.0676276, 0.0383487, -0.0109609, -0.444836, 0.63471, -3.13111, -0.0559845, -0.108688, -0.0105549, -0.443313, 0.633328, -3.12912, -0.0546205, -0.101426, 0.00685993, -0.0050912, -0.0145774, -0.0044212, -0.00741368, -0.0186424
0.0772559, 0.107449, -0.774182, -0.91839, -1.45986, -0.626828, 1.06977, -0.256723, 0.0045847, 0.00097857, -0.0312689, -0.0321566, -0.0286679, 0.000214739, -0.00239308, -0.281914, 15.7156, 21.1249, 18.602, 1.02466, 3.9191, -0.0292249, 0.000348269, -0.00149536, 0.00142223, 0.00228861, -0.0046291, 0.00124802, 0.0125058, -0.00182981, -0.0033742, 0.00435542, 0.0658864, 0.0409417, -0.0109539, -0.444841, 0.634696, -3.13108, -0.0560035, -0.108741, -0.0105621, -0.443321, 0.633311, -3.1291, -0.054598, -0.101349, 0.00706543, -0.00523486, -0.0149959, -0.00510286, -0.00747502, -0.0192435
0.0782559, 0.107443, -0.774184, -0.91842, -1.45989, -0.626866, 1.06977, -0.256715, 0.000707352, -0.000177892, -0.0351573, -0.0344695, -0.0301195, 0.000143282, 0.00108338, -0.166862, 15.7513, 21.1249, 18.6417, 1.02466, 3.9191, -0.101552, 0.000328761, -0.00149356, 0.00142537, 0.00228014, -0.00471485, 0.00129761, 0.0158077, -0.00235214, -0.00467913, 0.00214403, 0.0681109, 0.0326878, -0.0109468, -0.444846, 0.63468, -3.13105, -0.0560231, -0.108794, -0.0105741, -0.443329, 0.633292, -3.12908, -0.0545408, -0.101269, 0.00727374, -0.00538009, -0.0154193, -0.00807699, -0.00824705, -0.0212024
0.0792559, 0.107447, -0.774179, -0.918454, -1.45992, -0.626899, 1.06977, -0.256723, 0.00249141, 0.000720333, -0.0364536, -0.0320308, -0.030794, 9.5614e-05, -0.00195651, -0.242241, 15.7156, 21.1606, 18.6417, 1.01276, 3.9191, -0.0292249, 0.00031512, -0.00149053, 0.00142828, 0.00226965, -0.00480226, 0.00132365, 0.0159835, -0.00269223, -0.0038872, 0.0037046, 0.0686207, 0.036511, -0.0109394, -0.444852, 0.634665, -3.13101, -0.0560432, -0.10885, -0.01058, -0.443338, 0.633272, -3.12907, -0.0545208, -0.101188, 0.00748486, -0.00552686, -0.0158476, -0.00808351, -0.0087474, -0.0208559
0.0802559, 0.107447, -0.774172, -0.918486, -1.45995, -0.626933, 1.06977, -0.256715, 0.00101818, 0.00131822, -0.0357805, -0.0316302, -0.0314227, 0.000301171, 0.00039108, -0.206535, 15.6799, 21.1249, 18.5663, 1.01276, 3.91269, -0.0750012, 0.000299642, -0.00148812, 0.00142841, 0.00225381, -0.004891, 0.00137195, 0.0165991, -0.00248474, -0.00304175, 0.00581971, 0.069894, 0.034283, -0.0109318, -0.444858, 0.634649, -3.13097, -0.0560639, -0.108906, -0.0105877, -0.443346, 0.633255, -3.12905, -0.0544665, -0.101106, 0.00769877, -0.00567515, -0.0162807, -0.00854922, -0.00871823, -0.0204877
0.0812559, 0.107452, -0.774168, -0.918523, -1.45997, -0.626965, 1.06978, -0.25672, 0.00478217, 0.000880901, -0.0370136, -0.0336072, -0.0325978, 0.00101463, -0.000722624, -0.242241, 15.6799, 21.1606, 18.4552, 1.02466, 3.89071, -0.0484509, 0.000284015, -0.0014838, 0.00142895, 0.00223733, -0.00497186, 0.00140584, 0.0153928, -0.00281012, -0.00361321, 0.00562546, 0.0719708, 0.0402741, -0.010924, -0.444863, 0.634632, -3.13094, -0.0560851, -0.108965, -0.0105952, -0.443357, 0.633237, -3.12903, -0.0544351, -0.101039, 0.00791545, -0.00582496, -0.0167186, -0.00707832, -0.00914506, -0.0214147
0.0822559, 0.107456, -0.774162, -0.91856, -1.46, -0.626997, 1.06978, -0.256718, 0.00448471, 0.000588832, -0.0370194, -0.0331327, -0.032807, 0.000947729, 0.000264236, -0.281914, 15.6799, 21.1606, 18.3798, 1.01825, 3.88339, -0.0685925, 0.0002674, -0.00148104, 0.00142965, 0.00222596, -0.00505937, 0.00144801, 0.015944, -0.00268773, -0.00302126, 0.00679149, 0.0721793, 0.0402635, -0.010916, -0.444869, 0.634615, -3.1309, -0.0561069, -0.109025, -0.0106036, -0.443366, 0.633218, -3.12901, -0.0543916, -0.100962, 0.00813491, -0.00597625, -0.0171612, -0.00745368, -0.00919932, -0.021305
0.0832559, 0.107455, -0.774159, -0.918597, -1.46003, -0.627028, 1.06978, -0.256717, 0.00233822, 0.00590693, -0.0386399, -0.0347092, -0.0336967, 0.00168301, -0.000569828, -0.242241, 15.7156, 21.0892, 18.3798, 1.03107, 3.85501, -0.0484509, 0.000250868, -0.00147786, 0.00143196, 0.00221275, -0.00514793, 0.00148899, 0.0157598, -0.00279808, -0.0031754, 0.0072939, 0.0794908, 0.0397292, -0.0109077, -0.444875, 0.634598, -3.13086, -0.0561293, -0.109086, -0.0106115, -0.443376, 0.633197, -3.12899, -0.0543505, -0.100885, 0.00835714, -0.00612902, -0.0176085, -0.00703291, -0.00945444, -0.0218948
0.0842559, 0.107461, -0.774151, -0.918637, -1.46005, -0.627057, 1.06978, -0.256722, 0.00352937, 0.00363265, -0.0353481, -0.0339849, -0.0338376, 0.0013933, -0.00132932, -0.317619, 15.7513, 21.0892, 18.3044, 1.03107, 3.84768, -0.0228162, 0.000235401, -0.00147462, 0.0014317, 0.00219896, -0.00523561, 0.00152428, 0.015258, -0.00208781, -0.00169841, 0.0102816, 0.077497, 0.0454028, -0.0108992, -0.444881, 0.63458, -3.13082, -0.0561522, -0.109149, -0.0106183, -0.443386, 0.633179, -3.12897, -0.0543188, -0.100812, 0.00858211, -0.00628324, -0.0180604, -0.00643572, -0.00889533, -0.020834
0.0852559, 0.107474, -0.774141, -0.91868, -1.46008, -0.627088, 1.06978, -0.256715, 0.00519967, 0.00281921, -0.036017, -0.0301868, -0.0345671, 0.00518751, 0.000809207, -0.43267, 15.7513, 21.0892, 18.2291, 1.04938, 3.86233, -0.0685925, 0.000221931, -0.00147127, 0.00143306, 0.00218983, -0.00533088, 0.00156825, 0.0156977, -0.00312209, -8.76988e-06, 0.0163012, 0.0735389, 0.0438017, -0.0108905, -0.444888, 0.634562, -3.13078, -0.0561758, -0.109214, -0.0106228, -0.443396, 0.633158, -3.12895, -0.0542744, -0.100728, 0.00880983, -0.00643891, -0.018517, -0.00672623, -0.0101166, -0.0196439
0.0862559, 0.107478, -0.774137, -0.918729, -1.46011, -0.627112, 1.06978, -0.256722, 0.00358306, 0.00586625, -0.0398316, -0.0332371, -0.0342211, 0.00385845, -0.000918591, -0.43267, 15.8624, 21.1249, 18.2648, 1.03656, 3.86233, -0.0292249, 0.000204294, -0.00146754, 0.00143777, 0.00218712, -0.0054197, 0.00160389, 0.0163539, -0.00310419, -0.00150281, 0.0120504, 0.0797677, 0.0444233, -0.0108816, -0.444894, 0.634543, -3.13073, -0.0561999, -0.10928, -0.010631, -0.443407, 0.633134, -3.12891, -0.0542437, -0.100655, 0.00904028, -0.00659599, -0.0189781, -0.00704661, -0.0102649, -0.0216419
0.0872559, 0.107491, -0.774127, -0.918774, -1.46014, -0.627144, 1.06979, -0.256717, 0.00507463, 0.00690702, -0.0414718, -0.0288661, -0.0301856, 0.00782955, 0.00132039, -0.543754, 15.9021, 21.0892, 18.1537, 1.04297, 3.85501, -0.0814099, 0.000189899, -0.00146267, 0.00143715, 0.00216957, -0.00551201, 0.00164887, 0.0157945, -0.00380142, 0.000180615, 0.0159658, 0.0736386, 0.0438169, -0.0108725, -0.444901, 0.634524, -3.13069, -0.0562246, -0.109348, -0.010636, -0.443419, 0.633114, -3.12889, -0.0541987, -0.100579, 0.00927346, -0.00675447, -0.0194438, -0.00634751, -0.0111168, -0.0203951
0.0882559, 0.107502, -0.774117, -0.918824, -1.46016, -0.627173, 1.06979, -0.256718, 0.00752391, 0.00771147, -0.0442924, -0.0264859, -0.0307354, 0.00583525, 0.00040554, -0.583427, 15.9378, 21.1249, 18.0783, 1.03656, 3.85501, -0.0685925, 0.000173268, -0.00145812, 0.00143835, 0.00215982, -0.005607, 0.00169158, 0.0163877, -0.00406731, 0.000371922, 0.0148003, 0.0751143, 0.0452579, -0.0108631, -0.444908, 0.634504, -3.13064, -0.0562499, -0.109417, -0.0106429, -0.44343, 0.633092, -3.12886, -0.054158, -0.1005, 0.00950935, -0.00691434, -0.0199139, -0.00670661, -0.0115656, -0.0207187
0.0892559, 0.107513, -0.774109, -0.918871, -1.46019, -0.627199, 1.0698, -0.256722, 0.0092914, 0.00827311, -0.0449353, -0.0274997, -0.0319432, 0.0046231, -0.000950343, -0.619133, 15.9735, 21.0892, 18.118, 1.04297, 3.84768, -0.0356336, 0.000159381, -0.00145441, 0.00144053, 0.00215026, -0.00570281, 0.00172473, 0.016, -0.00390478, 0.000230891, 0.0141499, 0.0785652, 0.049564, -0.0108534, -0.444915, 0.634484, -3.1306, -0.0562758, -0.109488, -0.0106468, -0.443442, 0.633069, -3.12883, -0.0541328, -0.100422, 0.00974794, -0.00707558, -0.0203885, -0.00607744, -0.0115495, -0.0213066
0.0902559, 0.107526, -0.774099, -0.918929, -1.46021, -0.627226, 1.0698, -0.256718, 0.0107651, 0.00876708, -0.0505575, -0.0235721, -0.0322917, 0.00342831, 0.000587141, -0.658806, 16.0092, 21.1606, 17.9672, 1.03656, 3.84768, -0.0685925, 0.000139313, -0.00144786, 0.0014404, 0.00213751, -0.00579204, 0.00178123, 0.0182214, -0.00490649, 0.000196022, 0.0127023, 0.0783001, 0.044784, -0.0108436, -0.444922, 0.634463, -3.13055, -0.0563023, -0.109561, -0.0106567, -0.443456, 0.633047, -3.1288, -0.0540719, -0.100356, 0.00998923, -0.00723817, -0.0208674, -0.00801185, -0.0127921, -0.0219842
0.0912559, 0.107543, -0.77408, -0.918984, -1.46024, -0.627252, 1.0698, -0.256724, 0.0127352, 0.0147439, -0.0522229, -0.0260698, -0.0287691, 0.00735773, -0.00130399, -0.734184, 15.9378, 21.236, 18.0426, 1.04297, 3.84768, -0.0228162, 0.000128999, -0.00144332, 0.00144392, 0.00213127, -0.00590253, 0.00181297, 0.0146595, -0.00512845, -4.27022e-05, 0.0132997, 0.0820004, 0.0520962, -0.0108335, -0.444929, 0.634442, -3.1305, -0.0563295, -0.109636, -0.0106564, -0.443468, 0.633022, -3.12877, -0.0540504, -0.100258, 0.0102332, -0.00740209, -0.0213508, -0.0041921, -0.0130489, -0.0224588
0.0922559, 0.107555, -0.774069, -0.919039, -1.46026, -0.627279, 1.0698, -0.256715, 0.0123695, 0.0133963, -0.0511135, -0.0258836, -0.0256176, 0.00495843, 0.00106345, -0.734184, 15.9735, 21.236, 18.0426, 1.03656, 3.86233, -0.0750012, 0.000111233, -0.00143908, 0.00144474, 0.0021229, -0.0060026, 0.00186885, 0.0147537, -0.00397062, 0.0005823, 0.0115376, 0.0799852, 0.0534028, -0.0108231, -0.444937, 0.634421, -3.13045, -0.0563573, -0.109712, -0.0106635, -0.44348, 0.632998, -3.12874, -0.0539919, -0.100177, 0.0104799, -0.00756732, -0.0218384, -0.00412485, -0.0120669, -0.022322
0.0932566, 0.10757, -0.774057, -0.919096, -1.46029, -0.627307, 1.06981, -0.25672, 0.0122699, 0.0115357, -0.050757, -0.0279614, -0.0242939, 0.00348121, -0.00146117, -0.734184, 16.0489, 21.236, 18.0069, 1.06128, 3.86966, -0.0164075, 9.38224e-05, -0.00143387, 0.00144488, 0.00211095, -0.00610319, 0.00191098, 0.0149228, -0.00320914, 0.00036105, 0.0095659, 0.0798897, 0.0596031, -0.0108125, -0.444944, 0.634399, -3.1304, -0.0563857, -0.10979, -0.01067, -0.443494, 0.632975, -3.1287, -0.0539552, -0.100099, 0.0107292, -0.00773386, -0.0223304, -0.00405616, -0.0114766, -0.0230417
0.0942566, 0.107585, -0.774043, -0.919164, -1.46032, -0.62733, 1.06981, -0.256716, 0.0153042, 0.0111469, -0.0571844, -0.0298975, -0.0219997, 0.00187605, 0.00119602, -0.734184, 16.0846, 21.3868, 18.118, 1.04938, 3.89071, -0.0750012, 7.6604e-05, -0.0014281, 0.00145091, 0.0021138, -0.00621096, 0.00196253, 0.0153051, -0.00367723, -0.00179414, 0.00265957, 0.0808372, 0.058988, -0.0108016, -0.444952, 0.634376, -3.13035, -0.0564147, -0.10987, -0.0106757, -0.443508, 0.632945, -3.12866, -0.0539052, -0.100009, 0.0109812, -0.00790168, -0.0228265, -0.00401741, -0.0121044, -0.025719
0.0952566, 0.107604, -0.774027, -0.919225, -1.46035, -0.627358, 1.06981, -0.256724, 0.0153551, 0.0116536, -0.0580885, -0.0294454, -0.0210754, 0.00448805, -0.00137279, -0.76989, 16.0846, 21.3868, 18.1537, 1.05578, 3.93374, -0.0164075, 6.11953e-05, -0.00142329, 0.00145395, 0.00210972, -0.00632478, 0.00199994, 0.0152693, -0.00405575, -0.00115325, 0.00517224, 0.0797696, 0.0629626, -0.0107905, -0.44496, 0.634353, -3.1303, -0.0564444, -0.109952, -0.0106795, -0.443521, 0.632918, -3.12862, -0.0538776, -0.0999128, 0.0112358, -0.00807076, -0.0233269, -0.00375803, -0.0126571, -0.0255814
0.0962566, 0.107622, -0.774011, -0.919291, -1.46038, -0.627386, 1.0698, -0.256723, 0.0176798, 0.0151588, -0.0621394, -0.0283658, -0.0209624, 0.00223976, -0.000440475, -0.76989, 16.0846, 21.4225, 18.1537, 1.07959, 3.96945, -0.0292249, 4.28191e-05, -0.00141871, 0.00145692, 0.0021099, -0.00643989, 0.00205142, 0.0151448, -0.00428012, -0.00159131, 0.00224218, 0.0845152, 0.0625932, -0.0107792, -0.444968, 0.634329, -3.13025, -0.0564747, -0.110035, -0.010686, -0.443534, 0.63289, -3.12857, -0.0538289, -0.0998157, 0.011493, -0.00824109, -0.0238314, -0.00333757, -0.013043, -0.0265169
0.0972566, 0.107633, -0.773993, -0.91936, -1.46041, -0.627412, 1.0698, -0.256716, 0.0137246, 0.0137849, -0.0670074, -0.0332596, -0.0247478, 0.00137826, 0.000927053, -0.658806, 16.1203, 21.4979, 18.2648, 1.09241, 3.9841, -0.0621838, 2.36084e-05, -0.00141351, 0.00146231, 0.00211094, -0.00655931, 0.00211272, 0.0189197, -0.00492129, -0.00394288, -0.00155473, 0.0905262, 0.0561435, -0.0107676, -0.444977, 0.634305, -3.13019, -0.0565057, -0.11012, -0.0106929, -0.443548, 0.632859, -3.12852, -0.0537658, -0.0997135, 0.0117529, -0.00841265, -0.0243401, -0.00665236, -0.0139663, -0.029643
0.0982566, 0.107649, -0.773979, -0.91943, -1.46044, -0.627436, 1.06981, -0.256719, 0.0126736, 0.0118788, -0.069756, -0.0348698, -0.0227606, 0.00178209, -0.000840027, -0.619133, 16.1957, 21.5336, 18.3044, 1.09241, 3.96945, -0.0228162, 4.01862e-06, -0.00140747, 0.00146578, 0.00210838, -0.0066702, 0.00216294, 0.0203031, -0.00502061, -0.00469069, -0.00384592, 0.0887893, 0.0584306, -0.0107557, -0.444985, 0.634281, -3.13014, -0.0565373, -0.110207, -0.0107001, -0.443564, 0.63283, -3.12848, -0.0537203, -0.0996268, 0.0120154, -0.00858543, -0.0248528, -0.00771254, -0.0142802, -0.0310012
0.0992566, 0.10767, -0.773964, -0.919501, -1.46047, -0.62746, 1.06981, -0.256718, 0.0150852, 0.0114723, -0.0718958, -0.0350465, -0.0256584, 0.000614792, 0.000898044, -0.583427, 16.2314, 21.5732, 18.3044, 1.09241, 3.99142, -0.0621838, -1.37972e-05, -0.00140249, 0.00146944, 0.00210936, -0.00678565, 0.00221303, 0.0209302, -0.00542192, -0.00500657, -0.00423819, 0.0921245, 0.0580638, -0.0107435, -0.444994, 0.634256, -3.13008, -0.0565696, -0.110296, -0.0107052, -0.443578, 0.6328, -3.12843, -0.0536759, -0.0995345, 0.0122806, -0.0087594, -0.0253696, -0.00803525, -0.0148745, -0.0318819
0.100257, 0.107687, -0.773946, -0.919572, -1.46051, -0.62748, 1.06981, -0.256723, 0.0160437, 0.0151089, -0.0724444, -0.0340802, -0.027826, 0.00086153, -0.000859366, -0.508049, 16.2314, 21.5732, 18.3798, 1.09241, 3.9841, -0.0228162, -3.03e-05, -0.00139785, 0.0014744, 0.00211205, -0.00690638, 0.00225619, 0.0204084, -0.00563442, -0.00420079, -0.00167637, 0.0974016, 0.0607162, -0.0107311, -0.445003, 0.63423, -3.13002, -0.0566025, -0.110386, -0.0107086, -0.443592, 0.632768, -3.12837, -0.053643, -0.0994358, 0.0125483, -0.00893455, -0.0258904, -0.00729575, -0.0152519, -0.0315652
0.101257, 0.107709, -0.773937, -0.919652, -1.46054, -0.627503, 1.0698, -0.256719, 0.0145576, 0.0143277, -0.0778755, -0.0325822, -0.0292796, 0.000438387, 0.000885151, -0.468376, 16.3782, 21.6446, 18.4155, 1.086, 3.99142, -0.0621838, -5.20595e-05, -0.00139203, 0.00148145, 0.00212242, -0.00702102, 0.00231302, 0.0239212, -0.00664399, -0.00476044, -0.00301192, 0.0979256, 0.0538123, -0.0107184, -0.445012, 0.634204, -3.12996, -0.0566361, -0.110479, -0.0107169, -0.443607, 0.632733, -3.12831, -0.0535898, -0.0993479, 0.0128186, -0.00911087, -0.0264151, -0.0104505, -0.0165571, -0.0329059
0.102257, 0.107729, -0.773917, -0.919735, -1.46058, -0.627526, 1.0698, -0.256725, 0.0148768, 0.015114, -0.0779866, -0.0353061, -0.0262967, 0.000156375, -0.00134268, -0.357292, 16.3425, 21.6843, 18.4909, 1.086, 3.99783, -0.00999879, -7.14983e-05, -0.00138524, 0.00148945, 0.00213042, -0.00714932, 0.00236318, 0.0226917, -0.00590031, -0.00508672, -0.00512233, 0.0991068, 0.061026, -0.0107055, -0.445021, 0.634177, -3.1299, -0.0566704, -0.110573, -0.0107225, -0.443624, 0.632697, -3.12825, -0.0535476, -0.0992406, 0.0130915, -0.00928833, -0.0269437, -0.00895558, -0.0159442, -0.0336689
0.103257, 0.107747, -0.773899, -0.919818, -1.46061, -0.627548, 1.0698, -0.256716, 0.0151707, 0.0146901, -0.0779619, -0.0317455, -0.0242204, 0.000180357, 0.00103766, -0.242241, 16.3425, 21.72, 18.4552, 1.09241, 3.99783, -0.0621838, -9.30186e-05, -0.00137874, 0.00149464, 0.00213451, -0.00727194, 0.00243217, 0.0232402, -0.00570674, -0.0034662, -0.00302618, 0.09553, 0.0600678, -0.0106922, -0.44503, 0.63415, -3.12984, -0.0567054, -0.110669, -0.01073, -0.44364, 0.632663, -3.1282, -0.0534768, -0.0991443, 0.0133669, -0.00946692, -0.0274763, -0.0093475, -0.0159662, -0.0326241
0.104257, 0.107763, -0.773885, -0.919894, -1.46065, -0.627565, 1.0698, -0.256716, 0.015509, 0.0157254, -0.0808466, -0.0330464, -0.0260528, -9.39493e-05, 0.000183147, -0.131157, 16.4178, 21.6089, 18.4552, 1.0741, 4.00516, -0.0484509, -0.000114067, -0.00137439, 0.0014986, 0.0021381, -0.00739032, 0.0024865, 0.0240637, -0.00612757, -0.0041219, -0.00396131, 0.0998163, 0.0608116, -0.0106787, -0.44504, 0.634122, -3.12978, -0.056741, -0.110767, -0.010737, -0.443655, 0.63263, -3.12814, -0.0534293, -0.0990566, 0.0136449, -0.00964662, -0.0280126, -0.00982837, -0.0165893, -0.033878
0.105257, 0.107788, -0.773871, -0.919984, -1.46069, -0.627585, 1.0698, -0.256721, 0.0185614, 0.0175427, -0.0825902, -0.0358334, -0.0284698, -1.98228e-05, -0.000589979, -0.131157, 16.4536, 21.6089, 18.5266, 1.07959, 4.00516, -0.0292249, -0.000134341, -0.0013675, 0.00150823, 0.00215229, -0.00751762, 0.00253533, 0.022857, -0.00642065, -0.00492881, -0.00454725, 0.106098, 0.0655449, -0.0106649, -0.44505, 0.634094, -3.12971, -0.0567774, -0.110867, -0.0107424, -0.443672, 0.632591, -3.12807, -0.0533916, -0.0989562, 0.0139255, -0.00982742, -0.0285528, -0.00827665, -0.0170113, -0.0351418
0.106257, 0.107803, -0.773847, -0.92007, -1.46073, -0.627601, 1.0698, -0.256719, 0.021076, 0.0214645, -0.0870984, -0.039126, -0.0255107, -0.000523642, 0.000590025, -0.0161054, 16.3782, 21.4979, 18.5266, 1.07959, 4.0198, -0.0557752, -0.000155439, -0.00136249, 0.0015144, 0.00216232, -0.00765021, 0.00259883, 0.0210502, -0.00643394, -0.00663297, -0.00988435, 0.111145, 0.0685151, -0.0106509, -0.44506, 0.634065, -3.12965, -0.0568144, -0.110969, -0.0107487, -0.443687, 0.632555, -3.128, -0.0533317, -0.0988497, 0.0142086, -0.0100093, -0.0290967, -0.00607102, -0.0171235, -0.0372593
0.107257, 0.107822, -0.77383, -0.92017, -1.46077, -0.627621, 1.0698, -0.256724, 0.0207825, 0.019184, -0.0906764, -0.0378104, -0.0241212, -0.000325014, -0.00106471, 0.059273, 16.3782, 21.4979, 18.4909, 1.0979, 4.0198, -0.0164075, -0.000181945, -0.00135407, 0.00152403, 0.0021775, -0.00778, 0.0026639, 0.0232445, -0.00692066, -0.00673901, -0.0110065, 0.107781, 0.0691524, -0.0106365, -0.44507, 0.634036, -3.12958, -0.0568522, -0.111073, -0.0107597, -0.443707, 0.632514, -3.12793, -0.0532703, -0.0987491, 0.0144943, -0.0101922, -0.0296444, -0.00794665, -0.0178705, -0.0380744
0.108257, 0.107842, -0.773809, -0.920268, -1.46081, -0.627638, 1.0698, -0.256723, 0.0237141, 0.0215116, -0.0936536, -0.0418055, -0.0226094, -0.000198616, -0.00023509, 0.134651, 16.3425, 21.4225, 18.5266, 1.10431, 4.0198, -0.0292249, -0.000204857, -0.00134697, 0.00153437, 0.00219535, -0.00791606, 0.00272913, 0.021318, -0.00691863, -0.00823143, -0.0146923, 0.112422, 0.0737579, -0.0106219, -0.44508, 0.634006, -3.12951, -0.0568906, -0.111178, -0.0107669, -0.443725, 0.632472, -3.12785, -0.0532095, -0.0986405, 0.0147825, -0.0103762, -0.0301957, -0.00563178, -0.0179671, -0.0399793
0.109257, 0.107863, -0.773788, -0.920367, -1.46085, -0.627656, 1.0698, -0.25672, 0.0236516, 0.0192442, -0.0971461, -0.0413051, -0.0212083, 0.00042367, 0.000826617, 0.170357, 16.3425, 21.3471, 18.4155, 1.10431, 4.00516, -0.0557752, -0.000229822, -0.00133883, 0.00154197, 0.0022064, -0.00804885, 0.00280145, 0.023168, -0.00741717, -0.00852452, -0.0158453, 0.109391, 0.0724257, -0.010607, -0.44509, 0.633975, -3.12945, -0.0569298, -0.111286, -0.0107759, -0.443744, 0.632432, -3.12778, -0.0531381, -0.0985393, 0.0150731, -0.0105613, -0.0307507, -0.00714525, -0.0187136, -0.0409644
0.110257, 0.107881, -0.773766, -0.920467, -1.46089, -0.627671, 1.0698, -0.25672, 0.0226303, 0.021546, -0.101015, -0.0396768, -0.021077, -0.000249929, -0.000669625, 0.245735, 16.3068, 21.236, 18.3798, 1.12903, 4.0198, -0.0228162, -0.00025519, -0.00133214, 0.00155034, 0.00222235, -0.00818623, 0.00287099, 0.0248051, -0.00783988, -0.00848757, -0.0167745, 0.111807, 0.0712099, -0.0105917, -0.445101, 0.633944, -3.12938, -0.0569696, -0.111396, -0.0107851, -0.443762, 0.632391, -3.1277, -0.0530721, -0.0984327, 0.0153663, -0.0107473, -0.0313093, -0.00847012, -0.0193813, -0.0416084
0.111257, 0.107901, -0.77375, -0.920565, -1.46093, -0.627685, 1.0698, -0.256717, 0.0236388, 0.0207099, -0.101077, -0.0392227, -0.0199115, 0.000112267, 0.001249, 0.245735, 16.3782, 21.0892, 18.3798, 1.12903, 4.01248, -0.0685925, -0.000278878, -0.00132589, 0.0015597, 0.00223874, -0.00832094, 0.00293625, 0.0247099, -0.0076516, -0.00781717, -0.015805, 0.110415, 0.0726293, -0.0105762, -0.445112, 0.633913, -3.1293, -0.0570102, -0.111507, -0.0107922, -0.44378, 0.632348, -3.12763, -0.0530134, -0.0983322, 0.015662, -0.0109343, -0.0318714, -0.008133, -0.0193842, -0.0414958
0.112257, 0.107917, -0.77373, -0.920664, -1.46097, -0.627701, 1.0698, -0.256723, 0.0224977, 0.01782, -0.10053, -0.0353768, -0.0198424, 8.05592e-05, -0.0018461, 0.325081, 16.4178, 21.0496, 18.2291, 1.14734, 4.01248, 0.00373412, -0.000307652, -0.00131877, 0.00156457, 0.00224648, -0.00845322, 0.00300687, 0.0269462, -0.00759655, -0.0059739, -0.0124181, 0.105749, 0.0751375, -0.0105604, -0.445123, 0.63388, -3.12923, -0.0570515, -0.111621, -0.0108044, -0.443799, 0.632309, -3.12755, -0.0529467, -0.098238, 0.0159602, -0.0111224, -0.0324371, -0.010196, -0.0196184, -0.0403845
0.113257, 0.107935, -0.773703, -0.920769, -1.46101, -0.627712, 1.0698, -0.256715, 0.0195162, 0.0213313, -0.0977079, -0.0386971, -0.0190812, 0.000329259, 0.00121068, 0.360787, 16.3425, 21.0496, 18.1934, 1.14734, 4.00516, -0.0621838, -0.000332566, -0.00131263, 0.00157303, 0.00226518, -0.00859853, 0.00308697, 0.0256874, -0.00643928, -0.00535593, -0.0110099, 0.111357, 0.0753809, -0.0105443, -0.445134, 0.633848, -3.12916, -0.0570936, -0.111737, -0.0108122, -0.443817, 0.632266, -3.12747, -0.0528667, -0.0981247, 0.0162609, -0.0113113, -0.0330063, -0.00872633, -0.0186127, -0.04024
0.114257, 0.107951, -0.773678, -0.920864, -1.46105, -0.627725, 1.0698, -0.256722, 0.0171359, 0.0190421, -0.0958123, -0.0378869, -0.0153964, -4.85467e-05, -0.000650945, 0.400459, 16.3425, 20.9742, 18.1537, 1.17847, 4.01248, -0.0228162, -0.000356236, -0.00130741, 0.00157821, 0.00227307, -0.00874188, 0.00314729, 0.02656, -0.0054126, -0.00402534, -0.0102076, 0.106636, 0.0797517, -0.0105279, -0.445146, 0.633814, -3.12908, -0.0571363, -0.111854, -0.0108188, -0.443834, 0.632226, -3.1274, -0.0528177, -0.0980172, 0.016564, -0.0115013, -0.033579, -0.00942469, -0.0178235, -0.0395414
0.115257, 0.107965, -0.773658, -0.920962, -1.46109, -0.627739, 1.0698, -0.256719, 0.017646, 0.0218881, -0.0942029, -0.0363057, -0.0159515, 0.000512581, 0.0010241, 0.475838, 16.4178, 20.9742, 18.0783, 1.18396, 3.99783, -0.0621838, -0.000384236, -0.0013015, 0.00158195, 0.00227774, -0.00887862, 0.00322534, 0.0255897, -0.005108, -0.00235068, -0.00626572, 0.109329, 0.0808217, -0.0105112, -0.445157, 0.633781, -3.12901, -0.0571798, -0.111974, -0.0108294, -0.443852, 0.632187, -3.12733, -0.0527417, -0.0979222, 0.0168696, -0.0116921, -0.034155, -0.00828191, -0.0176943, -0.0383774
0.116257, 0.107977, -0.773631, -0.921056, -1.46112, -0.627751, 1.0698, -0.256718, 0.0149444, 0.0228859, -0.0922545, -0.0359893, -0.0123274, 7.22614e-05, 0.000920092, 0.551216, 16.4178, 20.9742, 18.0426, 1.19678, 4.00516, -0.0685925, -0.000410122, -0.00129736, 0.00158408, 0.00228158, -0.00902454, 0.00329989, 0.0255156, -0.00395352, -0.00102304, -0.00545177, 0.108291, 0.0833865, -0.0104942, -0.445169, 0.633746, -3.12893, -0.0572241, -0.112096, -0.0108378, -0.443869, 0.632148, -3.12725, -0.052672, -0.097815, 0.0171776, -0.0118839, -0.0347344, -0.00803676, -0.0167454, -0.0376196
0.117257, 0.107989, -0.773605, -0.92114, -1.46115, -0.62776, 1.0698, -0.256725, 0.0138729, 0.0226051, -0.0897281, -0.0339671, -0.00981016, 4.95303e-05, -0.00155674, 0.586922, 16.4536, 20.9028, 17.9315, 1.21509, 4.00516, -0.00999879, -0.000434038, -0.00129525, 0.00158079, 0.00227517, -0.00916271, 0.0033617, 0.0254455, -0.00306824, 0.000932902, -0.00266647, 0.105491, 0.0890063, -0.0104768, -0.445181, 0.633711, -3.12885, -0.0572691, -0.112219, -0.0108444, -0.443884, 0.632115, -3.12719, -0.0526224, -0.0977227, 0.017488, -0.0120766, -0.0353172, -0.00782844, -0.016074, -0.036241
0.118257, 0.107999, -0.773577, -0.921233, -1.4612, -0.62777, 1.0698, -0.256715, 0.012938, 0.0257086, -0.0920151, -0.0339007, -0.0120126, 0.00926292, 0.00136967, 0.626595, 16.4893, 21.0138, 18.0069, 1.22699, 4.01248, -0.0750012, -0.00045907, -0.0012924, 0.0015826, 0.00227915, -0.00931328, 0.00344418, 0.0253941, -0.00513224, 0.00185769, 0.00625387, 0.106495, 0.084472, -0.0104592, -0.445193, 0.633676, -3.12877, -0.0573148, -0.112345, -0.0108513, -0.4439, 0.632076, -3.12712, -0.052542, -0.0976122, 0.0178009, -0.0122702, -0.0359033, -0.00745403, -0.0183397, -0.0359219
0.119257, 0.10801, -0.773545, -0.921317, -1.46122, -0.627781, 1.0698, -0.256722, 0.0122942, 0.0266188, -0.0887198, -0.0275957, -0.0138998, 0.00751026, -0.00176565, 0.6623, 16.4536, 21.0496, 17.8204, 1.2453, 3.99783, -0.00267457, -0.000484358, -0.00128976, 0.00157512, 0.00226268, -0.0094559, 0.00351355, 0.0264607, -0.00453574, 0.0052365, 0.0124595, 0.106289, 0.0874733, -0.0104412, -0.445205, 0.633639, -3.12869, -0.0573613, -0.112473, -0.0108589, -0.443916, 0.632045, -3.12706, -0.0524818, -0.0975176, 0.0181163, -0.0124646, -0.0364926, -0.00846551, -0.018017, -0.0332152
0.120257, 0.10801, -0.773516, -0.921388, -1.46125, -0.627793, 1.0698, -0.25672, 0.0067896, 0.0276454, -0.0800126, -0.0281879, -0.0155408, 0.00505863, 0.00028096, 0.777352, 16.525, 20.9742, 17.8561, 1.27002, 4.01248, -0.0420422, -0.000509014, -0.00129135, 0.0015674, 0.00224577, -0.00960632, 0.00358551, 0.0264975, -0.00218074, 0.0081383, 0.0179554, 0.110574, 0.0882291, -0.0104229, -0.445218, 0.633603, -3.12861, -0.0574085, -0.112603, -0.0108658, -0.443928, 0.632014, -3.12701, -0.0524184, -0.0974129, 0.018434, -0.0126599, -0.0370852, -0.00847972, -0.0158955, -0.0308975
0.121257, 0.108014, -0.773487, -0.921468, -1.46129, -0.6278, 1.0698, -0.256723, 0.00372673, 0.0294262, -0.07931, -0.0275482, -0.0117235, 0.00381817, -0.00052477, 0.85273, 16.5646, 21.1249, 17.8561, 1.27643, 4.01248, -0.0228162, -0.000534673, -0.0012913, 0.00156077, 0.00223326, -0.00975308, 0.00365662, 0.0268725, -0.00108565, 0.00919964, 0.0174706, 0.110434, 0.0901647, -0.0104044, -0.445231, 0.633565, -3.12852, -0.0574565, -0.112735, -0.0108731, -0.443941, 0.631982, -3.12694, -0.0523573, -0.0973157, 0.0187541, -0.012856, -0.0376809, -0.00865058, -0.0150249, -0.0304543
0.122257, 0.108019, -0.773455, -0.92154, -1.46132, -0.627812, 1.0698, -0.256719, 0.00237195, 0.0277819, -0.0766481, -0.0278635, -0.0141954, -0.00657574, 0.000124871, 0.888436, 16.6003, 21.2003, 17.8918, 1.30755, 4.01248, -0.0356336, -0.000557887, -0.00129261, 0.00155016, 0.00220996, -0.00990538, 0.00373091, 0.0289043, 0.00127743, 0.00956497, 0.0122417, 0.116812, 0.091325, -0.0103854, -0.445244, 0.633527, -3.12844, -0.0575053, -0.11287, -0.0108781, -0.443954, 0.631953, -3.12689, -0.0522917, -0.0972127, 0.0190766, -0.013053, -0.0382798, -0.0104676, -0.0129402, -0.0308162
0.123257, 0.108023, -0.77342, -0.921615, -1.46135, -0.627824, 1.0698, -0.256723, 0.00426858, 0.0336129, -0.0771168, -0.0258453, -0.0113436, -0.00519232, -0.000628829, 0.928108, 16.6003, 21.3868, 17.9672, 1.33136, 4.0198, -0.0164075, -0.000581996, -0.00129367, 0.00154047, 0.00218947, -0.0100636, 0.00380043, 0.0264422, 0.00142873, 0.0109435, 0.0144408, 0.119339, 0.0961052, -0.0103662, -0.445257, 0.633489, -3.12835, -0.0575548, -0.113006, -0.0108835, -0.443967, 0.631922, -3.12684, -0.0522345, -0.0971024, 0.0194015, -0.0132507, -0.0388819, -0.00779406, -0.0129154, -0.0298665
0.124257, 0.108024, -0.77339, -0.921687, -1.46137, -0.627835, 1.0698, -0.256722, 0.00174509, 0.0331388, -0.0791416, -0.0255135, -0.00970143, -0.0035932, 5.54983e-05, 1.00349, 16.6718, 21.5336, 17.9672, 1.3689, 4.01248, -0.0292249, -0.00060852, -0.00129516, 0.0015272, 0.00216129, -0.0102125, 0.00387752, 0.0282091, 0.00119487, 0.0112979, 0.0152587, 0.11751, 0.0941885, -0.0103466, -0.44527, 0.633449, -3.12826, -0.0576051, -0.113144, -0.0108913, -0.44398, 0.631894, -3.12679, -0.0521659, -0.0970091, 0.0197288, -0.0134493, -0.039487, -0.0092456, -0.0134179, -0.0302507
0.125257, 0.108024, -0.773358, -0.921751, -1.4614, -0.627846, 1.0698, -0.256716, 0.00166036, 0.0295897, -0.0729786, -0.0252948, -0.0122999, -0.00296892, 0.0012577, 1.00349, 16.7471, 21.6089, 17.9672, 1.3927, 4.0198, -0.0621838, -0.000634039, -0.00129835, 0.00150986, 0.00212541, -0.0103628, 0.00395906, 0.0280888, 0.00209963, 0.0136708, 0.0219662, 0.116073, 0.0984803, -0.0103267, -0.445284, 0.63341, -3.12817, -0.0576562, -0.113285, -0.0108981, -0.443991, 0.63187, -3.12674, -0.0520909, -0.0969162, 0.0200585, -0.0136486, -0.0400951, -0.00900159, -0.0127395, -0.0284776
0.126257, 0.108021, -0.773317, -0.921822, -1.46141, -0.627859, 1.0698, -0.256718, -0.000283615, 0.0365359, -0.0742365, -0.0242672, -0.0144217, -0.00220592, -0.000144876, 1.07887, 16.6718, 21.7954, 17.9315, 1.42383, 4.0198, -0.0356336, -0.000661328, -0.00130026, 0.00149279, 0.00208957, -0.0105237, 0.00404276, 0.0280884, 0.00184152, 0.0146507, 0.0251203, 0.124447, 0.0976351, -0.0103065, -0.445298, 0.633369, -3.12808, -0.0577081, -0.113428, -0.0109063, -0.444004, 0.631845, -3.1267, -0.0520135, -0.096809, 0.0203905, -0.0138487, -0.0407063, -0.00873142, -0.0132115, -0.0281165
0.127257, 0.108017, -0.773293, -0.921885, -1.46144, -0.627869, 1.0698, -0.256714, -0.000744755, 0.0325438, -0.0693313, -0.0230444, -0.0107989, -0.00191186, 0.00112412, 1.11457, 16.8582, 21.8708, 18.0069, 1.43024, 4.02713, -0.0685925, -0.000690048, -0.0013044, 0.00147525, 0.00205351, -0.0106712, 0.0041232, 0.0276985, 0.00321267, 0.0169369, 0.0285342, 0.117421, 0.103005, -0.010286, -0.445311, 0.633328, -3.12799, -0.0577607, -0.113573, -0.0109157, -0.444015, 0.631819, -3.12665, -0.0519418, -0.0967249, 0.0207248, -0.0140495, -0.0413204, -0.00822607, -0.0120584, -0.0264116
0.128257, 0.108024, -0.773254, -0.921956, -1.46146, -0.627876, 1.0698, -0.256718, 0.00231161, 0.0350931, -0.0686639, -0.0202075, -0.01264, -0.00191069, 0.000512054, 1.00349, 16.8225, 22.0929, 18.0069, 1.44214, 4.04086, -0.0621838, -0.000713254, -0.00130728, 0.00145745, 0.0020196, -0.0108292, 0.0041932, 0.0265907, 0.00315094, 0.0186342, 0.0325188, 0.120386, 0.107073, -0.0102651, -0.445326, 0.633287, -3.1279, -0.0578142, -0.11372, -0.0109192, -0.444027, 0.631794, -3.1266, -0.0518873, -0.0966264, 0.0210615, -0.0142511, -0.0419374, -0.00690733, -0.0123047, -0.0252586
0.129257, 0.108019, -0.773221, -0.922021, -1.46148, -0.627887, 1.0698, -0.256722, -6.49249e-05, 0.0351401, -0.0657932, -0.0189247, -0.0143274, -0.00086078, -0.00186268, 1.07887, 16.8582, 22.204, 18.0426, 1.46045, 4.02713, -0.00267457, -0.000741757, -0.00131109, 0.00143742, 0.00197722, -0.0109849, 0.00427108, 0.0274664, 0.00352998, 0.020654, 0.0380724, 0.121069, 0.110063, -0.0102438, -0.44534, 0.633244, -3.1278, -0.0578684, -0.113869, -0.0109279, -0.444039, 0.63177, -3.12656, -0.0518211, -0.0965343, 0.0214005, -0.0144534, -0.0425574, -0.00760328, -0.012188, -0.0239268
0.130257, 0.108019, -0.773184, -0.92209, -1.4615, -0.627897, 1.0698, -0.256714, 0.00100267, 0.035952, -0.0668585, -0.0179971, -0.0151687, -0.000916831, 0.00119962, 1.03919, 16.8582, 22.3151, 18.0783, 1.46686, 4.03445, -0.0685925, -0.000768648, -0.00131451, 0.00141763, 0.00193772, -0.011146, 0.0043604, 0.0277442, 0.00339811, 0.0212757, 0.0394094, 0.122878, 0.108642, -0.0102223, -0.445355, 0.633201, -3.12771, -0.0579234, -0.114021, -0.0109346, -0.444051, 0.631745, -3.12652, -0.0517381, -0.0964356, 0.0217418, -0.0146563, -0.0431802, -0.00758092, -0.0125436, -0.0239538
0.131257, 0.108013, -0.773155, -0.922161, -1.46152, -0.627912, 1.0698, -0.25672, -0.00100634, 0.034872, -0.0676382, -0.0165003, -0.0119247, -0.0014449, -0.00113303, 1.11457, 16.9296, 22.4262, 18.0783, 1.48517, 4.05551, -0.0164075, -0.000803169, -0.00131753, 0.00139752, 0.00189683, -0.0113036, 0.00444721, 0.029227, 0.00388047, 0.0221362, 0.0390725, 0.119518, 0.11144, -0.0102004, -0.445369, 0.633158, -3.12761, -0.0579792, -0.114174, -0.0109486, -0.444064, 0.631719, -3.12647, -0.0516597, -0.0963446, 0.0220854, -0.01486, -0.0438058, -0.00879778, -0.0123333, -0.0238275
0.132257, 0.108021, -0.773116, -0.922224, -1.46154, -0.627918, 1.0698, -0.256719, 0.00829088, 0.0342808, -0.0657894, -0.0145972, -0.00856302, -0.0010036, 0.00043144, 1.00349, 16.8582, 22.4262, 18.0426, 1.47876, 4.05551, -0.0484509, -0.000824944, -0.00132238, 0.00137395, 0.00185046, -0.0114649, 0.00451878, 0.0246699, 0.00437684, 0.023605, 0.0407491, 0.115829, 0.123482, -0.0101781, -0.445384, 0.633114, -3.12751, -0.0580358, -0.11433, -0.0109498, -0.444075, 0.631697, -3.12643, -0.0516056, -0.0962506, 0.0224314, -0.0150643, -0.0444342, -0.00403759, -0.0118966, -0.0226555
0.133257, 0.108026, -0.77308, -0.922301, -1.46156, -0.627927, 1.0698, -0.256718, 0.00702978, 0.0358901, -0.0672673, -0.0142334, -0.0104343, -0.000428054, -0.000187092, 0.963814, 16.8225, 22.5413, 18.0426, 1.47327, 4.04819, -0.0356336, -0.000852828, -0.00132502, 0.0013547, 0.00181235, -0.0116277, 0.00460167, 0.0258957, 0.00405334, 0.0241069, 0.0427128, 0.119264, 0.122929, -0.0101555, -0.445399, 0.633069, -3.12741, -0.0580933, -0.114488, -0.0109564, -0.444089, 0.631669, -3.12638, -0.0515352, -0.096156, 0.0227796, -0.0152693, -0.0450654, -0.00493783, -0.0124794, -0.0228816
0.134257, 0.108029, -0.773053, -0.922372, -1.46158, -0.627937, 1.0698, -0.256714, 0.00595261, 0.0346387, -0.0687405, -0.0192338, -0.00823308, -0.000579326, 0.00109598, 0.928108, 16.8939, 22.5413, 18.0069, 1.48517, 4.05551, -0.0685925, -0.000883706, -0.00132853, 0.00133338, 0.0017699, -0.0117852, 0.00468893, 0.0260791, 0.00459176, 0.0227875, 0.0390285, 0.120616, 0.125379, -0.0101325, -0.445415, 0.633024, -3.12731, -0.0581515, -0.114649, -0.0109658, -0.444102, 0.631643, -3.12633, -0.0514586, -0.096072, 0.0231301, -0.0154749, -0.0456993, -0.00469645, -0.0121398, -0.0248418
0.135257, 0.108031, -0.773016, -0.922443, -1.4616, -0.627946, 1.0698, -0.256714, 0.00429157, 0.0371673, -0.0732287, -0.0205754, -0.0102248, -0.000131968, 0.00073065, 0.928108, 16.8225, 22.5413, 18.0069, 1.47876, 4.04819, -0.0685925, -0.000911345, -0.00133264, 0.0013108, 0.00172459, -0.011952, 0.00477158, 0.0278727, 0.00384023, 0.0219584, 0.0381355, 0.126364, 0.12271, -0.0101092, -0.44543, 0.632978, -3.12721, -0.0582105, -0.114811, -0.0109718, -0.444115, 0.631617, -3.12628, -0.0513899, -0.0959759, 0.0234829, -0.0156811, -0.0463358, -0.00604469, -0.0131552, -0.0264474
0.136257, 0.108045, -0.772981, -0.922527, -1.46162, -0.62796, 1.0698, -0.25672, 0.00662989, 0.0349657, -0.0813028, -0.0240356, -0.0124639, -0.000372009, -0.00168304, 0.777352, 16.7828, 22.6127, 17.9672, 1.49158, 4.05551, -0.00999879, -0.000940349, -0.00133385, 0.00129215, 0.00168705, -0.0121244, 0.00484905, 0.0301761, 0.00241943, 0.0191099, 0.032626, 0.129506, 0.124352, -0.0100856, -0.445446, 0.632931, -3.1271, -0.0582704, -0.114976, -0.0109784, -0.444131, 0.631587, -3.12623, -0.0513305, -0.0958731, 0.0238379, -0.015888, -0.046975, -0.00772555, -0.014832, -0.0301145
0.137257, 0.10805, -0.772949, -0.922603, -1.46164, -0.627971, 1.0698, -0.256712, 0.00775149, 0.0363933, -0.0769256, -0.0267334, -0.00949873, -0.000257578, 0.00152283, 0.777352, 16.7471, 22.5016, 17.9315, 1.49707, 4.05551, -0.0814099, -0.000970528, -0.00133724, 0.0012708, 0.00164409, -0.0122936, 0.00494155, 0.0269835, 0.00397258, 0.0202048, 0.0339777, 0.131108, 0.130724, -0.0100616, -0.445462, 0.632884, -3.127, -0.0583311, -0.115144, -0.010986, -0.444145, 0.631559, -3.12618, -0.0512484, -0.0957775, 0.0241952, -0.0160954, -0.0476168, -0.00432715, -0.0133876, -0.029416
0.138257, 0.108059, -0.772919, -0.922693, -1.46166, -0.627981, 1.0698, -0.256719, 0.00732971, 0.0342677, -0.0797367, -0.0225649, -0.0112244, 9.23695e-05, -0.00139228, 0.701973, 16.7114, 22.5016, 17.8918, 1.49158, 4.04819, -0.0164075, -0.00100407, -0.00133818, 0.00125281, 0.00160941, -0.0124603, 0.00502488, 0.0301831, 0.00311773, 0.0213292, 0.0366287, 0.128433, 0.130479, -0.0100372, -0.445478, 0.632836, -3.12689, -0.0583926, -0.115313, -0.0109963, -0.444161, 0.631527, -3.12612, -0.0511817, -0.0956878, 0.0245547, -0.0163034, -0.0482612, -0.00720865, -0.0145858, -0.0291874
0.139257, 0.10807, -0.77289, -0.922779, -1.46169, -0.627991, 1.0698, -0.256712, 0.0101097, 0.035913, -0.0824027, -0.0256975, -0.0129085, 5.61953e-05, 0.00171667, 0.626595, 16.6718, 22.3905, 17.8561, 1.49707, 4.04819, -0.0878186, -0.00103594, -0.00134019, 0.00123403, 0.00157282, -0.0126305, 0.00511855, 0.0293209, 0.00281071, 0.0202591, 0.0350257, 0.134466, 0.131258, -0.0100124, -0.445495, 0.632787, -3.12678, -0.0584549, -0.115485, -0.0110047, -0.444177, 0.631494, -3.12606, -0.0510998, -0.095595, 0.0249165, -0.016512, -0.0489081, -0.00589953, -0.0150582, -0.0308443
0.140257, 0.108086, -0.772858, -0.922871, -1.46171, -0.627997, 1.0698, -0.256714, 0.00899079, 0.0347052, -0.0885732, -0.0249706, -0.012976, 0.000542052, 0.000195012, 0.551216, 16.6003, 22.3151, 17.8204, 1.46686, 4.03445, -0.0621838, -0.00106559, -0.00134146, 0.00121642, 0.00153988, -0.0128032, 0.00519944, 0.0326011, 0.00173064, 0.0194507, 0.0330871, 0.133759, 0.12893, -0.00998734, -0.445511, 0.632738, -3.12667, -0.058518, -0.115659, -0.0110105, -0.444194, 0.631461, -3.12599, -0.0510387, -0.0955003, 0.0252805, -0.0167211, -0.0495576, -0.0087062, -0.0164599, -0.0325578
0.141257, 0.108098, -0.772823, -0.922966, -1.46174, -0.628008, 1.0698, -0.256716, 0.0103777, 0.0378165, -0.0890601, -0.0255752, -0.0143992, -0.00885561, -0.000378618, 0.511544, 16.4893, 22.204, 17.7054, 1.47327, 4.02713, -0.0484509, -0.001099, -0.001342, 0.00119785, 0.00150419, -0.0129802, 0.00529103, 0.032673, 0.00349345, 0.0190663, 0.0262856, 0.14401, 0.132449, -0.00996188, -0.445528, 0.632688, -3.12656, -0.058582, -0.115835, -0.0110196, -0.444211, 0.631427, -3.12593, -0.0509619, -0.0954015, 0.0256467, -0.0169307, -0.0502094, -0.00845198, -0.0149088, -0.0335829
0.142257, 0.10811, -0.772797, -0.923057, -1.46177, -0.628016, 1.0698, -0.256717, 0.0106025, 0.038263, -0.0874627, -0.028088, -0.014495, -0.00669645, -0.000489771, 0.511544, 16.4536, 22.0176, 17.6697, 1.46045, 4.02713, -0.0420422, -0.00113223, -0.00134423, 0.00118058, 0.00147199, -0.0131549, 0.00537664, 0.0315062, 0.00379114, 0.0196225, 0.0290529, 0.145935, 0.137631, -0.00993605, -0.445545, 0.632638, -3.12645, -0.0586468, -0.116014, -0.0110281, -0.444228, 0.631391, -3.12586, -0.0508953, -0.0953083, 0.0260151, -0.0171409, -0.0508638, -0.00697521, -0.0147894, -0.0335963
0.143257, 0.10814, -0.772767, -0.923159, -1.4618, -0.628023, 1.0698, -0.256719, 0.0175509, 0.0364215, -0.091094, -0.0290647, -0.0102523, -0.00478756, -0.00127595, 0.360787, 16.3782, 21.8708, 17.5943, 1.44214, 4.0198, -0.0164075, -0.00116013, -0.00134422, 0.00116518, 0.00144423, -0.0133337, 0.00545128, 0.0292441, 0.00329549, 0.0188425, 0.0265391, 0.141721, 0.147516, -0.00990985, -0.445562, 0.632586, -3.12633, -0.0587125, -0.116195, -0.0110308, -0.444246, 0.631353, -3.12578, -0.0508468, -0.0952108, 0.0263857, -0.0173516, -0.0515205, -0.00427589, -0.015404, -0.0348715
0.144257, 0.108161, -0.772738, -0.923262, -1.46183, -0.628033, 1.0698, -0.256712, 0.0167173, 0.0356924, -0.0935626, -0.0308285, -0.0077853, -0.00336634, 0.00179422, 0.325081, 16.2671, 21.72, 17.5586, 1.44214, 4.01248, -0.0878186, -0.00119264, -0.00134422, 0.00115043, 0.00141688, -0.0135164, 0.00554594, 0.0299528, 0.00320021, 0.0184083, 0.0253389, 0.140582, 0.146221, -0.00988328, -0.44558, 0.632535, -3.12622, -0.058779, -0.116378, -0.0110376, -0.444265, 0.631314, -3.12571, -0.0507682, -0.0951095, 0.0267585, -0.0175627, -0.0521796, -0.00457566, -0.0157338, -0.0360209
0.145257, 0.108182, -0.772719, -0.923376, -1.46186, -0.628041, 1.0698, -0.256719, 0.0176279, 0.0316463, -0.0975803, -0.0279821, -0.00522483, -0.00230738, -0.00144871, 0.360787, 16.3068, 21.6446, 17.4832, 1.42383, 4.00516, -0.0164075, -0.00123135, -0.00134262, 0.00113867, 0.00139736, -0.0136906, 0.00563205, 0.0323585, 0.00248209, 0.0187454, 0.0249688, 0.133337, 0.149514, -0.00985633, -0.445598, 0.632482, -3.1261, -0.0588463, -0.116563, -0.01105, -0.444286, 0.63127, -3.12562, -0.0507041, -0.0950232, 0.0271335, -0.0177744, -0.052841, -0.00659764, -0.0167603, -0.0365375
0.146257, 0.108207, -0.772689, -0.923487, -1.46189, -0.628045, 1.0698, -0.256715, 0.0224931, 0.029264, -0.103078, -0.02413, -0.00768762, -0.0015178, 0.000492257, 0.360787, 16.1957, 21.4582, 17.3325, 1.40552, 3.99783, -0.0557752, -0.00126534, -0.00134173, 0.00112364, 0.00137285, -0.0138711, 0.00572725, 0.0342181, 0.000825325, 0.0188975, 0.0260976, 0.131162, 0.147525, -0.00982901, -0.445615, 0.632429, -3.12598, -0.0589145, -0.116751, -0.0110575, -0.444306, 0.631229, -3.12555, -0.0500958, -0.0949296, 0.0275107, -0.0179865, -0.0535047, -0.00802383, -0.0187025, -0.0372116
0.147257, 0.108234, -0.772661, -0.923606, -1.46193, -0.628053, 1.0698, -0.256713, 0.0263934, 0.0272926, -0.105325, -0.0262573, -0.00588836, -0.00119998, 0.00104025, 0.360787, 16.0846, 21.2757, 17.2571, 1.40552, 3.99783, -0.0750012, -0.00130021, -0.00133998, 0.00111284, 0.00135574, -0.0140609, 0.00582027, 0.0333151, 0.000764222, 0.018128, 0.0237577, 0.130141, 0.153539, -0.00980131, -0.445634, 0.632375, -3.12586, -0.0589835, -0.116942, -0.0110652, -0.444327, 0.631183, -3.12546, -0.0500228, -0.0948235, 0.02789, -0.018199, -0.0541706, -0.00668697, -0.018935, -0.0385824
0.148257, 0.108269, -0.772636, -0.92373, -1.46197, -0.62806, 1.06981, -0.256719, 0.0290859, 0.0248614, -0.111022, -0.0288559, -0.00473539, -0.000161179, -0.00123928, 0.360787, 16.0092, 21.1249, 17.2214, 1.41192, 3.97677, -0.0228162, -0.0013338, -0.00133701, 0.00110457, 0.00134329, -0.0142497, 0.00590059, 0.0341622, -0.000107184, 0.0163309, 0.0198644, 0.129229, 0.158494, -0.00977323, -0.445652, 0.63232, -3.12574, -0.0590534, -0.117134, -0.0110711, -0.44435, 0.631135, -3.12536, -0.0499707, -0.0947214, 0.0282715, -0.018412, -0.0548388, -0.00698429, -0.0200276, -0.0411206
0.149257, 0.108299, -0.772619, -0.923859, -1.46201, -0.628067, 1.06981, -0.256712, 0.0294415, 0.024531, -0.119027, -0.0330021, -0.00740275, 0.00110916, 0.00134395, 0.436165, 16.0092, 21.0138, 17.146, 1.39911, 3.94107, -0.0814099, -0.0013735, -0.00133312, 0.00109671, 0.00133079, -0.0144317, 0.0060021, 0.0365736, -0.00168741, 0.0135943, 0.0158554, 0.134274, 0.153461, -0.00974476, -0.44567, 0.632265, -3.12562, -0.0591241, -0.117329, -0.0110825, -0.444373, 0.631084, -3.12527, -0.0498864, -0.0946318, 0.0286551, -0.0186253, -0.0555092, -0.00874031, -0.0218732, -0.0447242
0.150257, 0.108333, -0.772598, -0.923987, -1.46205, -0.628075, 1.06981, -0.256719, 0.0300157, 0.02209, -0.122093, -0.0312854, -0.0104296, 0.000931349, -0.00127417, 0.511544, 15.9735, 20.9028, 16.9992, 1.41192, 3.93374, -0.0228162, -0.00141119, -0.00133002, 0.00108665, 0.00131617, -0.0146184, 0.00608795, 0.0393435, -0.00251206, 0.0138445, 0.0170333, 0.1342, 0.154455, -0.00971592, -0.445689, 0.632209, -3.12549, -0.0591957, -0.117527, -0.0110918, -0.444397, 0.631036, -3.12517, -0.0498275, -0.0945377, 0.0290408, -0.0188391, -0.0561817, -0.011103, -0.0230211, -0.0453708
0.151257, 0.108368, -0.772571, -0.924117, -1.4621, -0.62808, 1.06981, -0.256716, 0.0304197, 0.0228832, -0.12348, -0.0357306, -0.00802793, 0.00134127, 9.99882e-05, 0.586922, 15.8267, 20.752, 16.9595, 1.41742, 3.91269, -0.0484509, -0.00144521, -0.0013272, 0.00107947, 0.0013067, -0.0148173, 0.00617879, 0.0382823, -0.00205378, 0.0128368, 0.014215, 0.136875, 0.158292, -0.00968668, -0.445708, 0.632153, -3.12537, -0.0592682, -0.117726, -0.0110968, -0.44442, 0.630984, -3.12507, -0.049762, -0.0944266, 0.0294287, -0.0190533, -0.0568564, -0.00960091, -0.0227261, -0.0469703
0.152257, 0.108401, -0.77255, -0.924254, -1.46215, -0.628087, 1.06982, -0.256713, 0.0321622, 0.020703, -0.125463, -0.0427833, -0.0107878, 0.00139208, -0.0001707, 0.737679, 15.791, 20.6409, 16.9595, 1.43024, 3.89804, -0.0420422, -0.0014843, -0.00132353, 0.00107483, 0.00130306, -0.015015, 0.00627612, 0.0382391, -0.00216846, 0.0106936, 0.011204, 0.14242, 0.163558, -0.00965706, -0.445727, 0.632096, -3.12524, -0.0593415, -0.117929, -0.0111062, -0.444444, 0.630928, -3.12496, -0.0496876, -0.0943193, 0.0298187, -0.0192678, -0.0575331, -0.00900369, -0.0230247, -0.0497876
0.153257, 0.108447, -0.772531, -0.924393, -1.4622, -0.628094, 1.06982, -0.256714, 0.0361843, 0.0214059, -0.127791, -0.0441133, -0.0120995, 0.000894571, 0.000394826, 0.777352, 15.791, 20.5655, 16.9238, 1.42383, 3.89804, -0.0557752, -0.00151998, -0.00131944, 0.00106991, 0.00129998, -0.0152126, 0.00636091, 0.0373776, -0.00243862, 0.0101904, 0.0101357, 0.146348, 0.167742, -0.00962704, -0.445747, 0.632038, -3.12511, -0.0594156, -0.118133, -0.0111119, -0.444469, 0.630872, -3.12485, -0.0496337, -0.0942147, 0.0302108, -0.0194827, -0.0582119, -0.00770582, -0.0234727, -0.0509117
0.154257, 0.108495, -0.772511, -0.924533, -1.46224, -0.628101, 1.06982, -0.256714, 0.0406993, 0.0230942, -0.127407, -0.0423393, -0.0137993, 0.000571271, -0.000482768, 0.777352, 15.7513, 20.4188, 16.7731, 1.43573, 3.89804, -0.0356336, -0.00155631, -0.00131426, 0.00106192, 0.00128917, -0.0154058, 0.00644965, 0.0358129, -0.00244982, 0.0114413, 0.0129169, 0.149347, 0.174156, -0.00959664, -0.445766, 0.631979, -3.12498, -0.0594907, -0.11834, -0.011118, -0.444495, 0.630819, -3.12474, -0.0495741, -0.0941198, 0.0306049, -0.019698, -0.0588927, -0.00584709, -0.0236624, -0.0502324
0.155257, 0.108544, -0.772495, -0.924667, -1.46228, -0.628106, 1.06982, -0.256717, 0.0416123, 0.0210232, -0.13061, -0.0421689, -0.0103038, -0.00018052, -0.00177991, 0.85273, 15.7156, 20.3077, 16.662, 1.43573, 3.91269, 0.00373412, -0.00159039, -0.00131237, 0.00105443, 0.00128441, -0.0156038, 0.00652493, 0.0368385, -0.00236018, 0.0111243, 0.0097702, 0.146015, 0.177991, -0.00956583, -0.445786, 0.63192, -3.12485, -0.0595666, -0.11855, -0.0111216, -0.444518, 0.630764, -3.12463, -0.0495369, -0.0940195, 0.0310012, -0.0199136, -0.0595756, -0.00645321, -0.023825, -0.0513135
0.156257, 0.108588, -0.772477, -0.924806, -1.46234, -0.628112, 1.06982, -0.256708, 0.0405833, 0.0186728, -0.130524, -0.0478326, -0.00793473, 0.000679331, 0.00172952, 1.00349, 15.7156, 20.1926, 16.662, 1.44214, 3.89071, -0.0750012, -0.00162598, -0.00130876, 0.0010496, 0.00127864, -0.0158064, 0.00661833, 0.0365972, -0.00165585, 0.0101386, 0.00751176, 0.146084, 0.180056, -0.00953463, -0.445806, 0.63186, -3.12472, -0.0596434, -0.118761, -0.011126, -0.444543, 0.630706, -3.12451, -0.0494723, -0.0939144, 0.0313996, -0.0201295, -0.0602603, -0.005768, -0.0233159, -0.0529594
0.157257, 0.108639, -0.772458, -0.924952, -1.46239, -0.628116, 1.06982, -0.256716, 0.0386386, 0.0179116, -0.133748, -0.0491507, -0.0108588, 0.000442294, -0.00152575, 1.07887, 15.6799, 20.0815, 16.5509, 1.46045, 3.89071, -0.00267457, -0.00166136, -0.00130467, 0.00104482, 0.00127776, -0.0160097, 0.00669454, 0.0394077, -0.00218759, 0.00956924, 0.00708795, 0.149607, 0.180691, -0.00950303, -0.445826, 0.6318, -3.12458, -0.059721, -0.118976, -0.0111297, -0.444569, 0.630648, -3.1244, -0.0494357, -0.0938106, 0.0318, -0.0203457, -0.060947, -0.00810508, -0.0241632, -0.0544404
0.158257, 0.108686, -0.77244, -0.925105, -1.46244, -0.628119, 1.06982, -0.256709, 0.0415462, 0.0164293, -0.141346, -0.047287, -0.00782349, 0.000829452, 0.00142424, 1.22962, 15.6799, 20.0101, 16.4359, 1.45404, 3.87607, -0.0685925, -0.00170126, -0.00129953, 0.00104123, 0.00127934, -0.0162134, 0.00679591, 0.0411265, -0.00334103, 0.00859793, 0.00319534, 0.14576, 0.177854, -0.00947103, -0.445847, 0.631738, -3.12445, -0.0597996, -0.119192, -0.0111375, -0.444596, 0.630587, -3.12427, -0.0493609, -0.0937081, 0.0322025, -0.0205621, -0.0616356, -0.00929746, -0.0255846, -0.0562496
0.159257, 0.10874, -0.772423, -0.925257, -1.4625, -0.628122, 1.06983, -0.256712, 0.0457952, 0.0185546, -0.143229, -0.050774, -0.00654398, 0.00054701, -3.38522e-05, 1.305, 15.6799, 19.9705, 16.4001, 1.47327, 3.87607, -0.0420422, -0.00173751, -0.00129446, 0.00103805, 0.0012806, -0.0164193, 0.00687769, 0.0386323, -0.00311182, 0.00762318, 0.000319992, 0.15044, 0.186991, -0.00943863, -0.445867, 0.631676, -3.12431, -0.059879, -0.119411, -0.0111411, -0.444623, 0.630525, -3.12415, -0.0493177, -0.0936049, 0.032607, -0.0207789, -0.062326, -0.0063431, -0.0254659, -0.0577244
0.160257, 0.108791, -0.772408, -0.925413, -1.46256, -0.628126, 1.06982, -0.256715, 0.0480499, 0.0153375, -0.146542, -0.0524233, -0.00482483, 0.000360204, -2.25681e-05, 1.41608, 15.7513, 20.0101, 16.3248, 1.47327, 3.87607, -0.0420422, -0.00177857, -0.00128972, 0.00103546, 0.00128722, -0.0166278, 0.00696792, 0.0393721, -0.0032936, 0.00669421, -0.00280185, 0.148252, 0.190901, -0.00940582, -0.445888, 0.631614, -3.12417, -0.0599593, -0.119633, -0.0111491, -0.44465, 0.630462, -3.12402, -0.0492625, -0.0934997, 0.0330136, -0.0209959, -0.0630183, -0.00659616, -0.0258804, -0.0594081
0.161257, 0.108847, -0.772383, -0.925563, -1.46261, -0.628129, 1.06982, -0.256711, 0.0505124, 0.0186349, -0.147835, -0.0538151, -0.00854029, 0.000236784, 0.000493581, 1.49146, 15.7156, 20.0101, 16.2494, 1.49158, 3.87607, -0.0557752, -0.0018114, -0.00128661, 0.00103064, 0.0012879, -0.0168471, 0.00705221, 0.0385212, -0.00359698, 0.00666508, -0.00153311, 0.156412, 0.193283, -0.0093726, -0.445909, 0.63155, -3.12403, -0.0600404, -0.119857, -0.0111488, -0.444676, 0.630401, -3.12389, -0.0492173, -0.0933805, 0.0334222, -0.0212132, -0.0637123, -0.00532598, -0.0263709, -0.0600761
0.162257, 0.1089, -0.772369, -0.925707, -1.46267, -0.628134, 1.06983, -0.256712, 0.0514742, 0.0175322, -0.14368, -0.0563677, -0.00675256, -0.000115925, -0.000179572, 1.60651, 15.8267, 19.9347, 16.2494, 1.50348, 3.88339, -0.0420422, -0.00184684, -0.00128407, 0.00102499, 0.00128381, -0.0170603, 0.00713131, 0.0365869, -0.00217841, 0.00766513, -0.000277268, 0.156632, 0.202772, -0.00933897, -0.445931, 0.631486, -3.12389, -0.0601225, -0.120083, -0.0111507, -0.444701, 0.630339, -3.12377, -0.049181, -0.0932735, 0.0338328, -0.0214307, -0.0644081, -0.00312018, -0.0251168, -0.0596134
0.163257, 0.108951, -0.77235, -0.925853, -1.46274, -0.628136, 1.06983, -0.256709, 0.0513439, 0.01786, -0.143804, -0.0575869, -0.00520273, -7.91688e-05, 0.000863629, 1.75727, 15.9021, 19.9347, 16.2137, 1.50989, 3.88339, -0.0685925, -0.00188209, -0.00128237, 0.00101922, 0.0012817, -0.0172792, 0.00721667, 0.0363806, -0.00169293, 0.007998, -0.00039158, 0.157562, 0.205391, -0.00930493, -0.445952, 0.631421, -3.12375, -0.0602054, -0.120312, -0.0111521, -0.444726, 0.630277, -3.12364, -0.049136, -0.09316, 0.0342455, -0.0216484, -0.0651057, -0.00254693, -0.0248499, -0.0599626
0.164257, 0.109005, -0.772327, -0.925995, -1.4628, -0.628138, 1.06982, -0.256718, 0.0520391, 0.0191234, -0.144676, -0.0609066, -0.0044944, -0.00113926, -0.00234037, 1.87232, 15.9378, 19.9347, 16.2891, 1.5282, 3.91269, 0.0101428, -0.001913, -0.00128249, 0.0010136, 0.00128204, -0.0175087, 0.00728138, 0.0356284, -0.00111907, 0.00739078, -0.00277032, 0.162021, 0.21317, -0.00927048, -0.445974, 0.631356, -3.1236, -0.0602893, -0.120544, -0.0111487, -0.444748, 0.630215, -3.12352, -0.0491244, -0.0930326, 0.0346601, -0.0218663, -0.0658049, -0.00135928, -0.0244588, -0.0612071
0.165257, 0.109059, -0.77231, -0.926136, -1.46286, -0.628144, 1.06982, -0.256713, 0.0509097, 0.0214797, -0.142345, -0.0617281, -0.00823826, -0.000997928, -0.000102185, 1.9477, 16.0489, 19.8951, 16.178, 1.54651, 3.9191, -0.0292249, -0.00194747, -0.00128189, 0.00100428, 0.00127238, -0.0177308, 0.0073645, 0.035569, -0.000734309, 0.00867208, 0.00159495, 0.168575, 0.21274, -0.00923561, -0.445996, 0.63129, -3.12346, -0.060374, -0.120777, -0.0111488, -0.444772, 0.630155, -3.1234, -0.0490845, -0.0929197, 0.0350768, -0.0220844, -0.0665058, -0.000997591, -0.0243144, -0.0606265
0.166257, 0.109107, -0.772282, -0.92628, -1.46293, -0.628144, 1.06983, -0.256713, 0.0508568, 0.0219758, -0.14199, -0.0689653, -0.00580901, -0.000937348, 0.000169235, 2.09846, 16.0846, 20.0458, 16.2137, 1.5401, 3.92642, -0.0356336, -0.00198033, -0.00128187, 0.000996691, 0.00126626, -0.0179639, 0.00744694, 0.0337273, 0.000308902, 0.00729497, -0.00196597, 0.172891, 0.220079, -0.00920033, -0.446018, 0.631223, -3.12331, -0.0604596, -0.121014, -0.0111467, -0.444796, 0.630093, -3.12327, -0.049047, -0.0927917, 0.0354954, -0.0223027, -0.0672083, 0.00132025, -0.0234001, -0.0625503
0.167257, 0.109162, -0.772266, -0.926411, -1.463, -0.628146, 1.06982, -0.256718, 0.050203, 0.0227867, -0.136655, -0.0684183, -0.00476303, -0.00116803, -0.0015826, 2.17384, 16.2314, 20.0101, 16.2494, 1.55292, 3.94107, 0.0101428, -0.00201075, -0.00128492, 0.000985817, 0.00125645, -0.0181914, 0.0075089, 0.0323202, 0.00174493, 0.00972326, 0.00247735, 0.173453, 0.228009, -0.00916462, -0.446041, 0.631155, -3.12316, -0.0605461, -0.121253, -0.0111422, -0.444817, 0.630034, -3.12315, -0.0490421, -0.0926757, 0.0359161, -0.0225212, -0.0679124, 0.00289821, -0.0221742, -0.0607096
0.168257, 0.109217, -0.772238, -0.926545, -1.46306, -0.628144, 1.06982, -0.25671, 0.0531553, 0.0229818, -0.133893, -0.0661277, -0.00728664, -0.00132167, 0.0016237, 2.20954, 16.2671, 20.0101, 16.2137, 1.5401, 3.95572, -0.0621838, -0.00203851, -0.0012871, 0.000972593, 0.00124061, -0.0184236, 0.00758673, 0.0313915, 0.00205052, 0.0118412, 0.00764939, 0.175106, 0.230037, -0.00912849, -0.446063, 0.631087, -3.12301, -0.0606336, -0.121494, -0.0111347, -0.444838, 0.629977, -3.12303, -0.0490132, -0.0925549, 0.0363387, -0.0227398, -0.068618, 0.00406901, -0.0220913, -0.0592323
0.169257, 0.10927, -0.772212, -0.926686, -1.46313, -0.628145, 1.06982, -0.256717, 0.0520355, 0.0244089, -0.133595, -0.0661968, -0.00568511, -0.000610181, -0.00135894, 2.24921, 16.3782, 20.0815, 16.2494, 1.54651, 3.94839, 0.00373412, -0.00207022, -0.00128813, 0.000962075, 0.00122938, -0.01866, 0.0076567, 0.0313186, 0.00248305, 0.0127867, 0.00913416, 0.175992, 0.235478, -0.00909194, -0.446086, 0.631018, -3.12286, -0.0607219, -0.121738, -0.0111305, -0.444862, 0.629916, -3.12291, -0.0489979, -0.0924298, 0.0367632, -0.0229586, -0.0693252, 0.0044743, -0.0218948, -0.0589901
0.170257, 0.109325, -0.772187, -0.926826, -1.4632, -0.628146, 1.06982, -0.256711, 0.0511898, 0.0256272, -0.132469, -0.0669456, -0.00446992, -0.00118693, 0.00102682, 2.28492, 16.4893, 20.1212, 16.3248, 1.55292, 3.96945, -0.0484509, -0.00210085, -0.00129061, 0.000952312, 0.0012219, -0.0189021, 0.00773527, 0.0309929, 0.00329478, 0.0136306, 0.00984431, 0.178027, 0.236616, -0.00905497, -0.446109, 0.630949, -3.12271, -0.0608111, -0.121984, -0.0111248, -0.444883, 0.629853, -3.12278, -0.0489703, -0.0922981, 0.0371897, -0.0231774, -0.0700339, 0.00512592, -0.0213085, -0.0588254
0.171257, 0.10938, -0.772163, -0.926964, -1.46326, -0.628147, 1.06982, -0.256713, 0.0482492, 0.0234921, -0.13464, -0.0672729, -0.00354918, -0.00052021, -2.75299e-05, 2.28492, 16.6003, 20.1569, 16.2494, 1.55932, 3.96213, -0.0292249, -0.00213256, -0.0012926, 0.000937953, 0.00120371, -0.0191374, 0.00780899, 0.0336898, 0.00318046, 0.0137416, 0.00973496, 0.176145, 0.236282, -0.00901756, -0.446132, 0.630878, -3.12255, -0.0609012, -0.122233, -0.0111201, -0.444906, 0.629795, -3.12266, -0.0489507, -0.0921802, 0.0376182, -0.0233964, -0.0707441, 0.0028618, -0.0217506, -0.0596431
0.172257, 0.109424, -0.772137, -0.927099, -1.46333, -0.628146, 1.06982, -0.256713, 0.046341, 0.0250436, -0.129677, -0.0709318, -0.00237766, -0.000889483, -1.83533e-05, 2.39997, 16.7114, 20.1926, 16.3248, 1.55292, 3.97677, -0.0292249, -0.00216573, -0.00129699, 0.00092515, 0.00119033, -0.0193833, 0.00788805, 0.0318793, 0.00489654, 0.014834, 0.011554, 0.180163, 0.243139, -0.00897973, -0.446156, 0.630807, -3.12239, -0.0609922, -0.122484, -0.0111164, -0.444927, 0.629734, -3.12253, -0.0489241, -0.0920479, 0.0380486, -0.0236155, -0.0714557, 0.00494061, -0.0202089, -0.0591036
0.173257, 0.109474, -0.772109, -0.927233, -1.4634, -0.628146, 1.06982, -0.256715, 0.0477466, 0.0272516, -0.135687, -0.0718337, -0.00177178, -0.000864362, 0.00422083, 2.39997, 16.7828, 20.268, 16.3248, 1.55292, 3.9841, -0.0164075, -0.00219762, -0.00130105, 0.000909971, 0.00117175, -0.0196291, 0.00796402, 0.0326224, 0.00413768, 0.0136482, 0.00830744, 0.183775, 0.239017, -0.00894147, -0.44618, 0.630735, -3.12224, -0.0610841, -0.122738, -0.0111112, -0.444948, 0.629674, -3.12241, -0.0489031, -0.0919188, 0.0384809, -0.0238347, -0.0721687, 0.00475324, -0.0211975, -0.0610734
0.174257, 0.109522, -0.772085, -0.927367, -1.46347, -0.628145, 1.06982, -0.256715, 0.0446533, 0.0269535, -0.134765, -0.0727736, -0.00108384, -0.000576321, 0.0032062, 2.43568, 16.9296, 20.3434, 16.3248, 1.54651, 3.9841, -0.0164075, -0.00223105, -0.00130545, 0.000893792, 0.00115099, -0.0198718, 0.00804224, 0.0337926, 0.00473823, 0.0144819, 0.00977221, 0.184368, 0.241047, -0.00890277, -0.446204, 0.630663, -3.12208, -0.061177, -0.122995, -0.0111071, -0.444969, 0.629615, -3.12229, -0.0488794, -0.091797, 0.0389151, -0.0240539, -0.0728831, 0.00393062, -0.0208807, -0.0610454
0.175257, 0.109566, -0.772055, -0.9275, -1.46354, -0.628146, 1.06982, -0.256712, 0.0456725, 0.0285435, -0.133924, -0.0751053, -0.00106492, -0.000384274, 0.00338114, 2.47535, 17.005, 20.4188, 16.4001, 1.55292, 3.9841, -0.0420422, -0.00226323, -0.00131086, 0.000879361, 0.00113269, -0.0201291, 0.00812365, 0.0324639, 0.00527348, 0.0147849, 0.0104846, 0.188375, 0.246301, -0.00886363, -0.446228, 0.630589, -3.12192, -0.0612707, -0.123253, -0.0111013, -0.444989, 0.629554, -3.12216, -0.0488521, -0.091655, 0.0393512, -0.0242732, -0.0735988, 0.00564294, -0.0205236, -0.0613512
0.176257, 0.109613, -0.772028, -0.927624, -1.46361, -0.628146, 1.06982, -0.256717, 0.0469715, 0.0296786, -0.129278, -0.0773428, -0.000788702, -0.00103612, 0.00077935, 2.47535, 17.0804, 20.4545, 16.3644, 1.55292, 4.00516, 0.00373412, -0.00229315, -0.00131826, 0.000859997, 0.00110626, -0.0203822, 0.00819, 0.0299628, 0.00669199, 0.0160832, 0.0127742, 0.191949, 0.257593, -0.00882406, -0.446252, 0.630515, -3.12175, -0.0613653, -0.123515, -0.0110932, -0.445008, 0.629497, -3.12205, -0.0488488, -0.0915227, 0.0397893, -0.0244926, -0.0743159, 0.00841134, -0.0192572, -0.0605594
0.177257, 0.109657, -0.771998, -0.927746, -1.46369, -0.628145, 1.06982, -0.256712, 0.044619, 0.0305808, -0.124837, -0.0753289, -0.000347508, -0.000690781, 0.0023805, 2.47535, 17.1518, 20.4545, 16.4359, 1.54651, 4.00516, -0.0420422, -0.00232181, -0.00132671, 0.000841243, 0.00107915, -0.0206421, 0.0082647, 0.0299409, 0.00774903, 0.0188386, 0.0183987, 0.191861, 0.258807, -0.00878406, -0.446277, 0.630441, -3.12159, -0.0614609, -0.123779, -0.0110835, -0.445025, 0.629438, -3.12193, -0.0488335, -0.0913822, 0.0402292, -0.0247119, -0.0750342, 0.00861094, -0.0184748, -0.058518
0.178257, 0.109696, -0.771966, -0.927866, -1.46377, -0.628145, 1.06982, -0.256719, 0.042197, 0.0328822, -0.120299, -0.0758986, -0.000275971, -0.000731813, -0.00069637, 2.51106, 17.1518, 20.5298, 16.4755, 1.54651, 4.01248, 0.0229602, -0.00235141, -0.00133588, 0.000821257, 0.00105003, -0.0209079, 0.00833112, 0.0290897, 0.00904373, 0.0208467, 0.0225185, 0.195314, 0.265832, -0.00874361, -0.446302, 0.630365, -3.12142, -0.0615574, -0.124045, -0.0110744, -0.445043, 0.62938, -3.12181, -0.0488321, -0.0912354, 0.040671, -0.0249313, -0.0757538, 0.00968694, -0.0174099, -0.0571527
0.179257, 0.109741, -0.771936, -0.927985, -1.46384, -0.628145, 1.06981, -0.256716, 0.0420081, 0.0335419, -0.117703, -0.0746706, -0.000217205, -0.0013017, 0.000578288, 2.47535, 17.1875, 20.6409, 16.4359, 1.54651, 4.03445, -0.00267457, -0.00238125, -0.00134534, 0.000798259, 0.0010163, -0.0211687, 0.00840581, 0.0288006, 0.00985445, 0.0226851, 0.0257175, 0.196357, 0.268346, -0.00870271, -0.446327, 0.630289, -3.12126, -0.0616548, -0.124315, -0.0110653, -0.44506, 0.629325, -3.1217, -0.0488186, -0.0910991, 0.0411146, -0.0251507, -0.0764746, 0.0102368, -0.0168477, -0.0560096
0.180257, 0.109786, -0.771909, -0.928093, -1.46391, -0.628144, 1.06982, -0.256713, 0.0405148, 0.0339739, -0.114206, -0.0738302, 0.000271088, -0.000325277, 0.00143869, 2.3603, 17.2272, 20.5655, 16.4001, 1.53461, 4.0198, -0.0292249, -0.00240726, -0.00135646, 0.000772085, 0.000973156, -0.0214264, 0.00847046, 0.0285353, 0.0106591, 0.0248249, 0.0304938, 0.196268, 0.271084, -0.00866138, -0.446352, 0.630212, -3.12109, -0.0617531, -0.124586, -0.0110524, -0.445075, 0.629272, -3.12159, -0.0488212, -0.0909708, 0.0415602, -0.0253701, -0.0771966, 0.0107403, -0.0162989, -0.054569
0.181257, 0.109815, -0.771882, -0.928208, -1.464, -0.628145, 1.06982, -0.256718, 0.0378443, 0.0320328, -0.117012, -0.0750742, -4.1414e-05, -0.000488129, -0.000683925, 2.43568, 17.2272, 20.5655, 16.4359, 1.5401, 4.02713, 0.0165515, -0.00244235, -0.00136784, 0.000748861, 0.000937184, -0.0216934, 0.00854648, 0.0314237, 0.0104933, 0.024425, 0.0292752, 0.196574, 0.271519, -0.00861959, -0.446377, 0.630135, -3.12092, -0.0618523, -0.12486, -0.0110478, -0.445091, 0.629215, -3.12148, -0.0488076, -0.0908302, 0.0420076, -0.0255895, -0.0779197, 0.00834461, -0.0167942, -0.0559291
