alisrour97/Franka_experiments/Real_Robot_scripts/servo-franka/Data4/log_dyn_INITw_ki_1.csv
Time,q1,q2,q3,q4,q5,q6,q7,dq1,dq2,dq3,dq4,dq5,dq6,dq7,t1,t2,t3,t4,t5,t6,t7,ex1,ex2,ex3,ex4,ex5,ex6,ev1,ev2,ev3,ev4,ev5,ev6,xd,yd,zd,uxd,uyd,uzd,x,y,z,ux,uy,uz,vxd,vyd,vzd,vx,vy,vz
1.2207e-06, 0.107646, -0.774206, -0.916353, -1.45674, -0.625327, 1.07, -0.256737, -0.00171044, 0.00428729, 0.00884444, 0.00542881, 0.00039934, -9.80486e-05, -0.00135809, -0.43267, 15.7156, 19.3754, 16.2891, 1.0979, 3.54648, -0.133595, 0.000886013, -0.00169021, 0.000228468, 0.00043946, -0.000429947, 9.96562e-05, -0.00233257, 0.00157893, 0.00437298, 0.00891647, 7.06591e-05, 0.00378358, -0.011112, -0.444721, 0.635038, -3.13187, -0.0555627, -0.107532, -0.0102802, -0.443002, 0.634874, -3.13144, -0.0558374, -0.106832, 0, 0, 0, 0.00197, 0.00162234, 0.00453254
0.0133628, 0.107637, -0.77416, -0.916292, -1.45671, -0.625328, 1.07001, -0.256735, -0.00167619, 0.00194721, 0.00796872, 0.00244297, 0.000149125, 0.000814702, 0.00106153, -0.317619, 15.7513, 19.4864, 16.2494, 1.11072, 3.53274, -0.186696, 0.000909638, -0.00170038, 0.000198882, 0.000373492, -0.000449857, 7.98729e-05, -0.00202075, 0.00134506, 0.00321038, 0.00741892, -0.000547072, 0.00216359, -0.011112, -0.444721, 0.635038, -3.13187, -0.0555627, -0.107532, -0.0102521, -0.442988, 0.634912, -3.13152, -0.0558777, -0.106804, 1.73063e-06, 3.0097e-06, -3.96181e-06, 0.00174875, 0.00139067, 0.00334588
0.0408235, 0.107637, -0.77416, -0.916292, -1.45671, -0.625328, 1.07001, -0.256735, -0.00167619, 0.00194721, 0.00796872, 0.00244297, 0.000149125, 0.000814702, 0.00106153, -0.317619, 15.7513, 19.4864, 16.2494, 1.11072, 3.53274, -0.186696, 0.000909635, -0.00170037, 0.000198873, 0.000373472, -0.000449881, 7.98735e-05, -0.00201607, 0.00133633, 0.00322264, 0.00744357, -0.000543744, 0.00221026, -0.011112, -0.444721, 0.635038, -3.13187, -0.0555627, -0.107532, -0.0102521, -0.442988, 0.634912, -3.13152, -0.0558777, -0.106804, 6.91577e-06, 1.20019e-05, -1.58141e-05, 0.00174875, 0.00139067, 0.00334588
0.041824, 0.107637, -0.77416, -0.916292, -1.45671, -0.625328, 1.07001, -0.256735, -0.00167619, 0.00194721, 0.00796872, 0.00244297, 0.000149125, 0.000814702, 0.00106153, -0.317619, 15.7513, 19.4864, 16.2494, 1.11072, 3.53274, -0.186696, 0.000909625, -0.00170035, 0.000198847, 0.000373418, -0.000449943, 7.98753e-05, -0.0020083, 0.00132185, 0.003243, 0.00748448, -0.00053819, 0.00228781, -0.011112, -0.444721, 0.635038, -3.13187, -0.0555627, -0.107532, -0.0102521, -0.442988, 0.634912, -3.13152, -0.0558777, -0.106804, 1.55453e-05, 2.69215e-05, -3.55071e-05, 0.00174875, 0.00139067, 0.00334588
0.042824, 0.107637, -0.77416, -0.916292, -1.45671, -0.625328, 1.07001, -0.256735, -0.00167619, 0.00194721, 0.00796872, 0.00244297, 0.000149125, 0.000814702, 0.00106153, -0.317619, 15.7513, 19.4864, 16.2494, 1.11072, 3.53274, -0.186696, 0.000909606, -0.00170032, 0.000198797, 0.000373312, -0.000450065, 7.98788e-05, -0.00199743, 0.00130167, 0.00327142, 0.00754156, -0.000530406, 0.00239602, -0.011112, -0.444721, 0.635038, -3.13187, -0.0555628, -0.107532, -0.0102521, -0.442988, 0.634912, -3.13152, -0.0558777, -0.106804, 2.7609e-05, 4.77135e-05, -6.29913e-05, 0.00174875, 0.00139067, 0.00334588
0.043824, 0.107637, -0.77416, -0.916292, -1.45671, -0.625328, 1.07001, -0.256735, -0.00167619, 0.00194721, 0.00796872, 0.00244297, 0.000149125, 0.000814702, 0.00106153, -0.317619, 15.7513, 19.4864, 16.2494, 1.11072, 3.53274, -0.186696, 0.000909574, -0.00170026, 0.000198715, 0.000373138, -0.000450265, 7.98846e-05, -0.00198347, 0.00127585, 0.00330785, 0.00761468, -0.000520388, 0.00253468, -0.0111119, -0.444721, 0.635038, -3.13187, -0.0555628, -0.107532, -0.0102521, -0.442988, 0.634912, -3.13152, -0.0558777, -0.106804, 4.30968e-05, 7.4323e-05, -9.82172e-05, 0.00174875, 0.00139067, 0.00334588
0.044824, 0.107637, -0.77416, -0.916292, -1.45671, -0.625328, 1.07001, -0.256735, -0.00167619, 0.00194721, 0.00796872, 0.00244297, 0.000149125, 0.000814702, 0.00106153, -0.317619, 15.7513, 19.4864, 16.2494, 1.11072, 3.53274, -0.186696, 0.000909527, -0.00170017, 0.000198592, 0.000372879, -0.000450564, 7.98932e-05, -0.00196644, 0.00124444, 0.00335224, 0.00770371, -0.00050813, 0.00270361, -0.0111119, -0.444721, 0.635038, -3.13187, -0.0555628, -0.107533, -0.0102521, -0.442988, 0.634912, -3.13152, -0.0558777, -0.106804, 6.19987e-05, 0.000106695, -0.000141136, 0.00174875, 0.00139067, 0.00334588
0.0458242, 0.107637, -0.77416, -0.916292, -1.45671, -0.625328, 1.07001, -0.256735, -0.00167619, 0.00194721, 0.00796872, 0.00244297, 0.000149125, 0.000814702, 0.00106153, -0.317619, 15.7513, 19.4864, 16.2494, 1.11072, 3.53274, -0.186696, 0.000909461, -0.00170005, 0.000198422, 0.000372519, -0.000450979, 7.99054e-05, -0.00194633, 0.00120749, 0.00340453, 0.00780854, -0.000493627, 0.00290259, -0.0111118, -0.44472, 0.635037, -3.13187, -0.0555628, -0.107533, -0.0102521, -0.442988, 0.634912, -3.13152, -0.0558777, -0.106804, 8.43044e-05, 0.000144776, -0.000191697, 0.00174875, 0.00139067, 0.00334588
0.0468242, 0.107637, -0.774147, -0.916339, -1.45668, -0.625361, 1.07001, -0.256743, 0.00081993, 0.000637915, -0.00076937, -0.00130596, 0.000340584, 4.16572e-05, -0.000802214, -0.357292, 15.6442, 20.0815, 16.5112, 1.29474, 3.57577, -0.127186, 0.000885394, -0.00168607, 0.000202905, 0.00037384, -0.000475533, 0.000139384, -0.000552061, -0.000226735, -0.000356348, -0.00083352, 0.00131957, 0.002851, -0.0111117, -0.44472, 0.635037, -3.13187, -0.0555629, -0.107534, -0.0102752, -0.443002, 0.634906, -3.13152, -0.0557855, -0.106766, 0.000110004, 0.000188511, -0.000249853, 0.000692896, -1.5592e-05, -0.000568825
0.0478242, 0.10764, -0.774148, -0.916344, -1.45668, -0.625361, 1.07001, -0.256745, 0.00147424, -0.000502725, -0.00134803, -0.000870521, 0.000227056, 2.77714e-05, -0.00151815, -0.281914, 15.5331, 19.9347, 16.5112, 1.28833, 3.56112, -0.160145, 0.000884992, -0.00168487, 0.000204983, 0.000378447, -0.000476724, 0.000136231, -0.000167238, -0.000466467, -0.000383299, -0.000917574, 4.07374e-05, 0.00376113, -0.0111116, -0.44472, 0.635037, -3.13187, -0.0555629, -0.107535, -0.0102753, -0.443003, 0.634904, -3.13151, -0.0557906, -0.106765, 0.000139087, 0.000237846, -0.000315553, 0.000348703, -0.000219137, -0.000689326
0.0488242, 0.107635, -0.774144, -0.916341, -1.45669, -0.625363, 1.07001, -0.256742, -0.000780704, -0.0011405, -0.00049665, -0.00681604, -0.00436883, 0.000561049, 0.000208601, -0.281914, 15.5331, 19.9347, 16.5112, 1.28833, 3.56112, -0.160145, 0.000885902, -0.00168528, 0.000205531, 0.000376694, -0.000487202, 0.000140343, 0.000385883, -0.000562946, -0.00178642, -0.000933023, 0.00645906, 0.00156945, -0.0111114, -0.44472, 0.635037, -3.13186, -0.055563, -0.107537, -0.0102742, -0.443003, 0.634903, -3.13151, -0.0557843, -0.10675, 0.000171544, 0.000292726, -0.00038875, -7.08416e-05, -0.00026806, -0.0022009
0.0498242, 0.107637, -0.774147, -0.916354, -1.45669, -0.625363, 1.07001, -0.256746, 0.000314527, -0.000115954, -0.00282238, -0.00386738, -0.00171532, 0.000916567, 0.00715117, -0.317619, 15.4935, 19.8951, 16.3248, 1.2453, 3.54648, -0.0951428, 0.000881954, -0.00168276, 0.000208964, 0.000385794, -0.000486577, 0.00014302, 0.00042574, -0.00102251, -0.00142994, -0.00148996, 0.00350865, -0.00597623, -0.0111112, -0.444719, 0.635036, -3.13186, -0.055563, -0.107538, -0.0102776, -0.443005, 0.634899, -3.1315, -0.0557805, -0.106752, 0.000207364, 0.000353099, -0.000469394, -8.27558e-05, -0.000671418, -0.00193149
0.0508242, 0.107648, -0.774146, -0.916359, -1.4567, -0.625361, 1.07, -0.256739, 0.00373599, 0.00221562, -0.00508091, -0.00862983, 0.000593609, 0.000339778, 0.00650185, -0.468376, 15.311, 19.5975, 16.2137, 1.17206, 3.54648, -0.0685925, 0.000887445, -0.00168297, 0.000214494, 0.00040086, -0.000499162, 0.00013663, -0.00241308, -0.000896658, -0.00350196, -0.00701388, 0.00762931, 0.000263214, -0.011111, -0.444719, 0.635036, -3.13186, -0.0555631, -0.10754, -0.0102716, -0.443004, 0.634893, -3.13149, -0.0557912, -0.106733, 0.000246538, 0.00041891, -0.000557437, 0.00292409, -0.000362151, -0.00389081
0.0518242, 0.107653, -0.774153, -0.916379, -1.45672, -0.625378, 1.07, -0.256741, 0.00166026, 0.000170947, -0.0103265, -0.00754026, -0.00339012, -0.000210678, 0.00168923, -0.468376, 15.3864, 19.5261, 16.0272, 1.17847, 3.56112, -0.0484509, 0.000879853, -0.00167779, 0.000224186, 0.000415577, -0.000516489, 0.000146181, 0.00191478, -0.00239632, -0.00462441, -0.0083199, 0.00842954, -0.0030819, -0.0111107, -0.444719, 0.635035, -3.13186, -0.0555632, -0.107542, -0.0102726, -0.443006, 0.634887, -3.13148, -0.0557868, -0.106708, 0.000289055, 0.000490107, -0.00065283, -0.001218, -0.0019322, -0.00541257
0.0528242, 0.107653, -0.774153, -0.916379, -1.45672, -0.625378, 1.07, -0.256741, 0.00166026, 0.000170947, -0.0103265, -0.00754026, -0.00339012, -0.000210678, 0.00168923, -0.468376, 15.3864, 19.5261, 16.0272, 1.17847, 3.56112, -0.0484509, 0.000879571, -0.00167728, 0.000223463, 0.000414052, -0.00051825, 0.000146236, 0.00195614, -0.00247053, -0.00451816, -0.0081078, 0.00845988, -0.00267817, -0.0111104, -0.444718, 0.635034, -3.13186, -0.0555634, -0.107545, -0.010278, -0.443009, 0.634882, -3.13147, -0.0557771, -0.106707, 0.000334905, 0.000566635, -0.000755525, -0.001218, -0.0019322, -0.00541257
0.0538242, 0.10766, -0.77416, -0.916398, -1.45674, -0.625401, 1.07, -0.256737, 0.00191329, -0.00227841, -0.00850472, -0.00915477, -0.00369755, -3.21202e-06, 0.00309618, -0.543754, 15.4935, 19.3754, 15.9518, 1.2215, 3.56112, -0.101552, 0.000874594, -0.00167075, 0.000234923, 0.000424327, -0.000544041, 0.000156945, 0.00175147, -0.00222987, -0.00445803, -0.00748301, 0.00714825, -0.00132814, -0.0111101, -0.444717, 0.635033, -3.13186, -0.0555635, -0.107548, -0.0102816, -0.443015, 0.63487, -3.13146, -0.0557611, -0.106669, 0.000384079, 0.000648441, -0.000865474, -0.00097746, -0.0016032, -0.005447
0.0548242, 0.10766, -0.77416, -0.916398, -1.45674, -0.625401, 1.07, -0.256737, 0.00191329, -0.00227841, -0.00850472, -0.00915477, -0.00369755, -3.21202e-06, 0.00309618, -0.543754, 15.4935, 19.3754, 15.9518, 1.2215, 3.56112, -0.101552, 0.000874224, -0.00167007, 0.000233973, 0.000422326, -0.000546352, 0.000157018, 0.00179882, -0.00231426, -0.00433681, -0.00724133, 0.00718316, -0.000867703, -0.0111097, -0.444717, 0.635033, -3.13186, -0.0555637, -0.107552, -0.0102816, -0.443015, 0.63487, -3.13146, -0.0557611, -0.106669, 0.000436566, 0.000735474, -0.000982628, -0.00097746, -0.0016032, -0.005447
0.0558242, 0.107662, -0.774162, -0.916417, -1.45676, -0.62542, 1.07001, -0.256739, 0.000850294, -0.00253804, -0.00933248, -0.0118636, -0.00710227, 0.00220262, 0.000340147, -0.543754, 15.5688, 19.3, 15.9915, 1.2334, 3.48971, -0.0685925, 0.000870168, -0.0016633, 0.000244554, 0.000429361, -0.000573404, 0.000164722, 0.00253334, -0.00316368, -0.00505314, -0.00556853, 0.0102236, 0.000444441, -0.0111092, -0.444716, 0.635032, -3.13185, -0.0555639, -0.107556, -0.0102842, -0.443021, 0.634858, -3.13146, -0.0557497, -0.10663, 0.000492356, 0.000827679, -0.00110694, -0.00157464, -0.00237952, -0.00634166
0.0568242, 0.107662, -0.774162, -0.916417, -1.45676, -0.62542, 1.07001, -0.256739, 0.000850294, -0.00253804, -0.00933248, -0.0118636, -0.00710227, 0.00220262, 0.000340147, -0.543754, 15.5688, 19.3, 15.9915, 1.2334, 3.48971, -0.0685925, 0.000869697, -0.00166245, 0.000243348, 0.000426823, -0.000576337, 0.000164815, 0.00258665, -0.00325803, -0.00491714, -0.00529772, 0.010263, 0.000960786, -0.0111087, -0.444715, 0.63503, -3.13185, -0.0555641, -0.10756, -0.0102842, -0.443021, 0.634858, -3.13146, -0.0557497, -0.10663, 0.000551439, 0.000925004, -0.00123836, -0.00157464, -0.00237952, -0.00634166
0.0578242, 0.107662, -0.774162, -0.916417, -1.45676, -0.62542, 1.07001, -0.256739, 0.000850294, -0.00253804, -0.00933248, -0.0118636, -0.00710227, 0.00220262, 0.000340147, -0.543754, 15.5688, 19.3, 15.9915, 1.2334, 3.48971, -0.0685925, 0.000869171, -0.0016615, 0.000242004, 0.000423994, -0.000579607, 0.00016492, 0.00264293, -0.00335729, -0.00477381, -0.00501254, 0.0103048, 0.0015048, -0.0111081, -0.444714, 0.635029, -3.13185, -0.0555643, -0.107565, -0.0102842, -0.443021, 0.634858, -3.13146, -0.0557497, -0.10663, 0.000613805, 0.0010274, -0.00137684, -0.00157464, -0.00237952, -0.00634166
0.0588242, 0.10766, -0.774164, -0.916434, -1.45678, -0.625442, 1.07001, -0.256737, -0.000457341, -0.00144665, -0.00702533, -0.0111622, -0.0149502, 0.00088852, 0.000616094, -0.508049, 15.5688, 19.2643, 16.0272, 1.21509, 3.48971, -0.0750012, 0.000861371, -0.00165577, 0.000251458, 0.000433129, -0.000611373, 0.000182248, 0.00402798, -0.00365843, -0.00378798, -0.000322661, 0.0174749, -0.00187497, -0.0111074, -0.444713, 0.635028, -3.13184, -0.0555646, -0.10757, -0.0102905, -0.443026, 0.634846, -3.13145, -0.0557236, -0.106585, 0.000679445, 0.00113481, -0.00152234, -0.00294664, -0.00263025, -0.00560074
0.0598242, 0.10766, -0.774162, -0.91645, -1.4568, -0.625471, 1.07001, -0.256741, -0.0011313, -0.00506678, -0.00554356, -0.0111857, -0.0159002, -0.000384996, -0.00102163, -0.468376, 15.5331, 19.2246, 15.9915, 1.19678, 3.51077, -0.0420422, 0.000852747, -0.00164947, 0.000258534, 0.000436783, -0.000649422, 0.000198935, 0.00532939, -0.00341815, -0.00344056, 4.08593e-05, 0.0152155, 0.000378865, -0.0111067, -0.444712, 0.635026, -3.13184, -0.0555649, -0.107577, -0.0102958, -0.44303, 0.634841, -3.13144, -0.0557002, -0.106564, 0.000748347, 0.00124718, -0.0016748, -0.00420761, -0.00232653, -0.00549459
0.0608242, 0.10766, -0.774162, -0.91645, -1.4568, -0.625471, 1.07001, -0.256741, -0.0011313, -0.00506678, -0.00554356, -0.0111857, -0.0159002, -0.000384996, -0.00102163, -0.468376, 15.5331, 19.2246, 15.9915, 1.19678, 3.51077, -0.0420422, 0.000852039, -0.0016482, 0.000256729, 0.000432991, -0.000653809, 0.000199078, 0.00539452, -0.00353181, -0.00327557, 0.000368525, 0.0152642, 0.00100468, -0.0111059, -0.444711, 0.635024, -3.13184, -0.0555653, -0.107583, -0.0102977, -0.443031, 0.634837, -3.13144, -0.0556983, -0.106531, 0.000820503, 0.00136446, -0.00183418, -0.00420761, -0.00232653, -0.00549459
0.0618252, 0.107656, -0.774162, -0.916467, -1.45681, -0.625496, 1.07001, -0.256739, -0.00105962, -0.00260441, -0.00461036, -0.00894487, -0.0156971, 0.000371425, -1.14908e-05, -0.43267, 15.5331, 19.1889, 15.9915, 1.15375, 3.49612, -0.0484509, 0.000842126, -0.00164062, 0.00026229, 0.000430158, -0.000683104, 0.000223849, 0.00472717, -0.00367039, -0.00199955, 0.00330179, 0.0157341, 0.000372745, -0.0111051, -0.444709, 0.635022, -3.13183, -0.0555656, -0.10759, -0.0103061, -0.443038, 0.634829, -3.13144, -0.0556602, -0.106493, 0.000895902, 0.00148661, -0.00200043, -0.00354926, -0.0023304, -0.00434289
0.0628252, 0.107658, -0.774164, -0.916471, -1.45682, -0.625516, 1.07001, -0.256734, 0.000128799, -0.00198679, -0.00188694, -0.0076026, -0.0163827, -0.000837453, 0.00174032, -0.468376, 15.5331, 19.1135, 16.0272, 1.14734, 3.52542, -0.0951428, 0.000837338, -0.00163739, 0.000264623, 0.00042927, -0.000710015, 0.000235134, 0.00375168, -0.00322539, -0.000755375, 0.00539178, 0.0165414, 0.00154005, -0.0111041, -0.444708, 0.63502, -3.13183, -0.055566, -0.107598, -0.0103096, -0.44304, 0.634824, -3.13144, -0.0556432, -0.106459, 0.000974534, 0.00161356, -0.00217351, -0.00259912, -0.00173516, -0.00320498
0.0638252, 0.10766, -0.774163, -0.916486, -1.45682, -0.625531, 1.07, -0.256732, 8.58634e-05, -0.00151241, -0.00345365, -0.0056715, -0.0166655, -0.00106693, 0.00188628, -0.468376, 15.5331, 19.1889, 16.0272, 1.13544, 3.53915, -0.114369, 0.000830582, -0.00163179, 0.00026801, 0.000431574, -0.000733217, 0.000251787, 0.00468478, -0.0037555, -0.000427443, 0.00579041, 0.0162137, -0.000263736, -0.0111031, -0.444706, 0.635018, -3.13182, -0.0555664, -0.107607, -0.0103149, -0.443044, 0.634818, -3.13143, -0.055618, -0.106431, 0.00105639, 0.00174526, -0.00235336, -0.00345111, -0.00216887, -0.00312516
0.0648252, 0.107658, -0.77416, -0.916498, -1.45683, -0.625554, 1.07, -0.256741, 5.724e-05, 0.00671558, -0.00576019, -0.00599656, -0.0178239, -0.000982553, -0.00141076, -0.468376, 15.4935, 19.1889, 16.1026, 1.14734, 3.54648, -0.0420422, 0.000823437, -0.00162601, 0.000271465, 0.000429317, -0.000766737, 0.000260644, 0.00316249, -0.0042796, -0.000677631, 0.00568082, 0.0256296, 0.00158001, -0.011102, -0.444704, 0.635016, -3.13182, -0.0555669, -0.107616, -0.0103205, -0.443048, 0.634811, -3.13143, -0.0556048, -0.106387, 0.00114146, 0.00188168, -0.00253994, -0.00181245, -0.00250049, -0.00345997
0.0658252, 0.107653, -0.774165, -0.916508, -1.45684, -0.62557, 1.07, -0.256741, -0.00172508, 0.0031862, -0.00666024, -0.00777062, -0.0168055, -0.00119757, -0.00117, -0.392998, 15.5688, 19.1532, 16.2494, 1.11072, 3.56112, -0.0356336, 0.00081503, -0.0016217, 0.000276537, 0.000433253, -0.00079177, 0.00027301, 0.00484695, -0.00435586, -0.00136979, 0.00373459, 0.0226921, 0.00103926, -0.0111008, -0.444702, 0.635013, -3.13181, -0.0555674, -0.107626, -0.0103272, -0.44305, 0.634803, -3.13142, -0.0555864, -0.106358, 0.00122973, 0.00202275, -0.00273321, -0.00335347, -0.0024889, -0.00446009
0.0668252, 0.107653, -0.774165, -0.916508, -1.45684, -0.62557, 1.07, -0.256741, -0.00172508, 0.0031862, -0.00666024, -0.00777062, -0.0168055, -0.00119757, -0.00117, -0.392998, 15.5688, 19.1532, 16.2494, 1.11072, 3.56112, -0.0356336, 0.000813878, -0.00161967, 0.000273621, 0.000427141, -0.000798851, 0.000273252, 0.00492953, -0.00449694, -0.00116278, 0.00414412, 0.0227547, 0.00182344, -0.0110996, -0.4447, 0.63501, -3.1318, -0.055568, -0.107637, -0.0103272, -0.44305, 0.634803, -3.13142, -0.0555864, -0.106358, 0.00132119, 0.00216842, -0.00293311, -0.00335347, -0.0024889, -0.00446009
0.0678252, 0.107652, -0.774164, -0.916533, -1.45685, -0.625619, 1.07, -0.256738, -0.000766704, 0.00216546, -0.00651863, -0.00270043, -0.0252537, -0.00159472, -0.000590759, -0.392998, 15.5331, 19.1889, 16.178, 1.09241, 3.59683, -0.0292249, 0.000795192, -0.00160799, 0.000278663, 0.000420123, -0.000848138, 0.000318365, 0.00760753, -0.00587129, 0.000536992, 0.0107466, 0.0250994, -0.0035376, -0.0110982, -0.444698, 0.635007, -3.1318, -0.0555686, -0.107648, -0.0103437, -0.44306, 0.634794, -3.13143, -0.0555169, -0.106292, 0.00141584, 0.00231864, -0.0031396, -0.0059962, -0.00382106, -0.00316367
0.0688252, 0.107654, -0.774157, -0.916545, -1.45685, -0.625639, 1.07, -0.256734, -0.000511137, 0.00340616, -0.00490393, -0.00361384, -0.022645, -0.00106314, 0.00177962, -0.392998, 15.4578, 19.1889, 16.2494, 1.06128, 3.59683, -0.0878186, 0.000790479, -0.00160148, 0.000281232, 0.000416345, -0.00088469, 0.000335467, 0.00592933, -0.00542915, 0.00102316, 0.011095, 0.024683, -0.00186917, -0.0110967, -0.444695, 0.635004, -3.13179, -0.0555692, -0.107661, -0.0103465, -0.443065, 0.634788, -3.13143, -0.0554911, -0.106248, 0.00151366, 0.00247337, -0.00335263, -0.00427429, -0.00316967, -0.00277361
0.0698252, 0.107651, -0.774162, -0.916556, -1.45685, -0.625665, 1.07, -0.256737, -0.00117598, 0.000657001, -0.00368791, -0.00084613, -0.0261263, -0.0012513, -0.000506519, -0.357292, 15.5331, 19.1889, 16.178, 1.04938, 3.61148, -0.0420422, 0.000776852, -0.00159417, 0.000280335, 0.000404761, -0.000908297, 0.000358242, 0.00803644, -0.00592674, 0.00234316, 0.0150997, 0.0228797, -0.00154738, -0.0110952, -0.444693, 0.635, -3.13178, -0.0555699, -0.107674, -0.0103583, -0.44307, 0.634784, -3.13143, -0.0554561, -0.106224, 0.00161465, 0.00263255, -0.00357216, -0.00634681, -0.00359335, -0.00182444
0.0708252, 0.107655, -0.774159, -0.91657, -1.45686, -0.625693, 1.07, -0.25674, 5.12334e-05, 0.00147812, -0.00594429, -0.00463907, -0.0244427, -0.00110547, -0.00152261, -0.392998, 15.4935, 19.1889, 16.2137, 1.04938, 3.6188, -0.00999879, 0.000769089, -0.00158602, 0.000282407, 0.000397459, -0.000946677, 0.00037302, 0.00693127, -0.00613409, 0.000784595, 0.0113401, 0.0250035, 0.00261588, -0.0110935, -0.44469, 0.634997, -3.13177, -0.0555706, -0.107688, -0.010364, -0.443076, 0.634778, -3.13143, -0.0554338, -0.106178, 0.00171879, 0.00279613, -0.00379814, -0.0050266, -0.00358458, -0.00353065
0.0718252, 0.107658, -0.774159, -0.916586, -1.45686, -0.625721, 1.06999, -0.256738, 0.000962175, 0.00106948, -0.00840594, -0.00341636, -0.0273258, -0.0012456, -0.000538953, -0.43267, 15.4935, 19.2246, 16.2137, 1.03656, 3.63254, -0.0228162, 0.000758661, -0.00157734, 0.000283411, 0.000389333, -0.000979291, 0.000396165, 0.00837558, -0.0071861, 0.000643315, 0.011969, 0.0262476, -0.000432631, -0.0110917, -0.444687, 0.634993, -3.13176, -0.0555714, -0.107702, -0.0103722, -0.443082, 0.634772, -3.13143, -0.0553985, -0.106142, 0.00182607, 0.00296406, -0.00403052, -0.00631207, -0.00451756, -0.00401006
0.0728252, 0.107658, -0.774159, -0.916586, -1.45686, -0.625721, 1.06999, -0.256738, 0.000962175, 0.00106948, -0.00840594, -0.00341636, -0.0273258, -0.0012456, -0.000538953, -0.43267, 15.4935, 19.2246, 16.2137, 1.03656, 3.63254, -0.0228162, 0.000756961, -0.00157438, 0.000279138, 0.000380399, -0.000989657, 0.000396535, 0.00847529, -0.00735277, 0.000890706, 0.0124564, 0.0263243, 0.000503048, -0.0110899, -0.444684, 0.634989, -3.13175, -0.0555722, -0.107718, -0.0103722, -0.443082, 0.634772, -3.13143, -0.0553985, -0.106142, 0.00193648, 0.00313629, -0.00426926, -0.00631207, -0.00451756, -0.00401006
0.0738252, 0.107651, -0.774159, -0.916617, -1.45686, -0.62578, 1.06999, -0.256735, -0.000160113, 0.000564654, -0.0119347, -0.00269748, -0.0290997, -0.000553602, 0.000180157, -0.357292, 15.4935, 19.1889, 16.2494, 1.05578, 3.63254, -0.0557752, 0.000730957, -0.0015588, 0.000284142, 0.000365867, -0.0010491, 0.000457502, 0.010785, -0.0085612, 0.000436481, 0.0124986, 0.026581, -0.00428082, -0.0110879, -0.444681, 0.634984, -3.13174, -0.0555731, -0.107735, -0.0103953, -0.443095, 0.634761, -3.13144, -0.0553045, -0.106067, 0.00205002, 0.00331277, -0.00451432, -0.00842709, -0.00562601, -0.00487499
0.0748252, 0.107655, -0.774154, -0.91663, -1.45687, -0.625808, 1.06999, -0.256741, 0.000728476, 0.00208234, -0.0113005, -0.00462612, -0.0309389, -0.000369068, -0.00184599, -0.392998, 15.4221, 19.1532, 16.3644, 1.04938, 3.63254, -0.00267457, 0.000724133, -0.00155017, 0.000285638, 0.000356706, -0.00109288, 0.000468465, 0.00977274, -0.00872677, 0.000335186, 0.0133657, 0.0307094, 0.000205408, -0.0110858, -0.444678, 0.63498, -3.13173, -0.055574, -0.107752, -0.0103995, -0.4431, 0.634754, -3.13144, -0.0552884, -0.106016, 0.00216668, 0.00349346, -0.00476563, -0.00728829, -0.0055743, -0.00515892
0.0758252, 0.107655, -0.774154, -0.91663, -1.45687, -0.625808, 1.06999, -0.256741, 0.000728476, 0.00208234, -0.0113005, -0.00462612, -0.0309389, -0.000369068, -0.00184599, -0.392998, 15.4221, 19.1532, 16.3644, 1.04938, 3.63254, -0.00267457, 0.000722121, -0.0015467, 0.000280597, 0.000346181, -0.00110511, 0.00046891, 0.00988091, -0.00890559, 0.000602148, 0.0138905, 0.0307931, 0.00121425, -0.0110835, -0.444674, 0.634975, -3.13172, -0.055575, -0.107771, -0.0103995, -0.4431, 0.634754, -3.13144, -0.0552884, -0.106016, 0.00228643, 0.0036783, -0.00502317, -0.00728829, -0.0055743, -0.00515892
0.0768252, 0.107653, -0.774154, -0.916651, -1.45687, -0.625841, 1.07, -0.256741, -0.000349567, 0.00141483, -0.0157348, -0.00318648, -0.028349, 0.000262581, -0.00146758, -0.357292, 15.4221, 19.1889, 16.3644, 1.06128, 3.6188, 0.00373412, 0.000706111, -0.00153501, 0.000280971, 0.000332309, -0.00114334, 0.000502609, 0.0118215, -0.00984114, 0.000116012, 0.0117883, 0.0271912, -0.00207794, -0.0110812, -0.44467, 0.634969, -3.13171, -0.0555761, -0.10779, -0.0104127, -0.443109, 0.634748, -3.13145, -0.0552368, -0.105976, 0.00240928, 0.00386724, -0.00528689, -0.00903346, -0.00638432, -0.00604738
0.0778252, 0.107656, -0.774149, -0.916684, -1.45687, -0.625907, 1.06999, -0.256732, -0.000155363, 0.00149229, -0.0179256, -0.000906339, -0.0320212, 0.000229731, 0.00145054, -0.357292, 15.3864, 19.0778, 16.3248, 1.04938, 3.62521, -0.0750012, 0.000683446, -0.00151753, 0.000284718, 0.000313602, -0.00121346, 0.000565169, 0.0137274, -0.01101, 0.000462901, 0.0137849, 0.0287727, -0.00834614, -0.0110787, -0.444666, 0.634964, -3.1317, -0.0555772, -0.107811, -0.0104319, -0.443123, 0.634737, -3.13146, -0.0551404, -0.105888, 0.00253522, 0.00406024, -0.00555673, -0.0107897, -0.00742952, -0.00611011
0.0788252, 0.107659, -0.774144, -0.916703, -1.45687, -0.625941, 1.06999, -0.256738, 0.000731642, 0.00193411, -0.0199359, -0.00157545, -0.0328305, -0.000118113, -0.000965569, -0.392998, 15.3467, 19.0778, 16.3644, 1.03107, 3.63254, -0.0228162, 0.000671398, -0.00150617, 0.000285244, 0.000300781, -0.00126232, 0.00058698, 0.0140212, -0.0115905, -6.76679e-05, 0.0127, 0.0306263, -0.00554042, -0.0110761, -0.444662, 0.634958, -3.13168, -0.0555784, -0.107832, -0.0104409, -0.443131, 0.63473, -3.13146, -0.0551075, -0.105833, 0.00266423, 0.00425725, -0.00583265, -0.0108965, -0.00781831, -0.00693958
0.0798252, 0.107659, -0.774144, -0.916703, -1.45687, -0.625941, 1.06999, -0.256738, 0.000731642, 0.00193411, -0.0199359, -0.00157545, -0.0328305, -0.000118113, -0.000965569, -0.392998, 15.3467, 19.0778, 16.3644, 1.03107, 3.63254, -0.0228162, 0.000668931, -0.00150194, 0.000279088, 0.000287954, -0.00127723, 0.000587537, 0.0141405, -0.0117848, 0.000224809, 0.0132732, 0.0307195, -0.00443663, -0.0110734, -0.444658, 0.634952, -3.13167, -0.0555796, -0.107855, -0.0104409, -0.443131, 0.63473, -3.13146, -0.0551075, -0.105833, 0.0027963, 0.00445821, -0.00611461, -0.0108965, -0.00781831, -0.00693958
0.0808252, 0.107658, -0.774138, -0.916725, -1.45687, -0.625977, 1.06999, -0.25674, -0.000347456, 0.00296826, -0.0214077, -0.00015468, -0.0333639, -0.000892544, -0.00138956, -0.357292, 15.2753, 19.0778, 16.3248, 1.01276, 3.65451, -0.00267457, 0.000653272, -0.00148971, 0.000277886, 0.000272704, -0.00132615, 0.000621016, 0.0153797, -0.0122245, 0.000541365, 0.0134152, 0.031776, -0.0060701, -0.0110705, -0.444653, 0.634946, -3.13165, -0.0555809, -0.107878, -0.0104533, -0.443139, 0.634723, -3.13146, -0.0550566, -0.105781, 0.00293143, 0.00466308, -0.00640257, -0.0120029, -0.00809925, -0.00700033
0.0818252, 0.107661, -0.774131, -0.916767, -1.45687, -0.626045, 1.06999, -0.256729, 0.0017618, 0.00574259, -0.0222546, 0.000206167, -0.0375542, -0.000215841, 0.00140577, -0.317619, 15.2356, 19.0421, 16.3248, 0.963317, 3.64718, -0.0750012, 0.00062804, -0.00146932, 0.00028342, 0.000255858, -0.00140421, 0.000692924, 0.0148266, -0.0132077, 0.000814882, 0.016164, 0.0372929, -0.00845487, -0.0110675, -0.444648, 0.63494, -3.13164, -0.0555822, -0.107903, -0.0104744, -0.443155, 0.63471, -3.13147, -0.0549461, -0.105684, 0.00306961, 0.00487181, -0.00669647, -0.0112968, -0.00885601, -0.00698992
0.0828252, 0.107667, -0.774129, -0.916784, -1.45688, -0.626082, 1.06999, -0.256733, 0.00236277, 0.00412248, -0.0181045, -0.000804245, -0.0424716, -0.000923788, -0.000758182, -0.357292, 15.2356, 18.9667, 16.3644, 0.963317, 3.66824, -0.0292249, 0.000615974, -0.00145747, 0.000282598, 0.00023998, -0.00145525, 0.000712663, 0.0146758, -0.0130315, 0.00185971, 0.0202973, 0.0403318, -0.00319669, -0.0110644, -0.444643, 0.634933, -3.13162, -0.0555837, -0.107929, -0.0104829, -0.443163, 0.634703, -3.13147, -0.0549166, -0.105631, 0.00321082, 0.00508435, -0.00699628, -0.0110834, -0.00847136, -0.00623634
0.0838252, 0.107675, -0.774124, -0.916801, -1.45688, -0.626115, 1.06999, -0.256735, 0.00260556, 0.0038041, -0.0181614, -0.000546415, -0.0407547, -0.000344591, -0.00121749, -0.392998, 15.1999, 18.8913, 16.3644, 0.945006, 3.66092, -0.00999879, 0.000606235, -0.00144516, 0.000280132, 0.000220807, -0.00150357, 0.000732367, 0.01447, -0.0131898, 0.00227087, 0.0207252, 0.0383606, -0.000650524, -0.0110611, -0.444638, 0.634926, -3.13161, -0.0555852, -0.107956, -0.0104829, -0.443163, 0.634703, -3.13147, -0.0549166, -0.105631, 0.00335505, 0.00530066, -0.00730195, -0.0107566, -0.00840961, -0.00611911
0.0848252, 0.107675, -0.774124, -0.916801, -1.45688, -0.626115, 1.06999, -0.256735, 0.00260556, 0.0038041, -0.0181614, -0.000546415, -0.0407547, -0.000344591, -0.00121749, -0.392998, 15.1999, 18.8913, 16.3644, 0.945006, 3.66092, -0.00999879, 0.000603137, -0.00143992, 0.000272443, 0.000204821, -0.00152218, 0.000733086, 0.014603, -0.0134023, 0.00259415, 0.0213563, 0.0384658, 0.000567808, -0.0110577, -0.444633, 0.634918, -3.13159, -0.0555867, -0.107984, -0.010489, -0.44317, 0.634697, -3.13148, -0.0548871, -0.105583, 0.0035023, 0.00552068, -0.00761342, -0.0107566, -0.00840961, -0.00611911
0.0858252, 0.107675, -0.774123, -0.916848, -1.45687, -0.626184, 1.06999, -0.256731, -0.000645318, 0.000440229, -0.0195779, 8.653e-05, -0.0398253, -0.000333997, 0.000408378, -0.281914, 15.2753, 18.9271, 16.3248, 0.963317, 3.66824, -0.0420422, 0.000570466, -0.00141737, 0.000277064, 0.000187006, -0.00159607, 0.000808806, 0.0176017, -0.0138151, 0.00268869, 0.021013, 0.0341406, -0.0040125, -0.0110541, -0.444627, 0.63491, -3.13157, -0.0555884, -0.108013, -0.0105169, -0.443188, 0.634682, -3.13148, -0.0547709, -0.105498, 0.00365255, 0.00574437, -0.00793067, -0.0135877, -0.0087048, -0.00655216
0.0868252, 0.10768, -0.77412, -0.916865, -1.45687, -0.626216, 1.06999, -0.256731, -0.000347876, 0.000386536, -0.0194103, 0.000888579, -0.0338869, -0.000222664, 0.00125561, -0.281914, 15.2753, 18.8556, 16.2891, 0.945006, 3.66824, -0.0685925, 0.000558583, -0.00140463, 0.000273562, 0.000166828, -0.00164388, 0.000832553, 0.0165626, -0.0134025, 0.00331343, 0.019668, 0.0291136, -0.000735584, -0.0110504, -0.444621, 0.634902, -3.13155, -0.0555901, -0.108044, -0.0105248, -0.443196, 0.634677, -3.13149, -0.0547353, -0.105454, 0.0038058, 0.00597168, -0.00825364, -0.0124562, -0.00803419, -0.00617809
0.0878252, 0.107688, -0.774117, -0.916888, -1.45688, -0.626251, 1.06999, -0.256728, 0.00611928, 0.000327479, -0.0218338, -0.0011741, -0.0352859, 0.000122824, 0.00131181, -0.281914, 15.2753, 18.8913, 16.3644, 0.956908, 3.66092, -0.0814099, 0.000546417, -0.0013903, 0.000272585, 0.000149863, -0.00169774, 0.000860793, 0.0144554, -0.0143603, 0.00216845, 0.0180859, 0.0315503, 0.00548924, -0.0110465, -0.444615, 0.634894, -3.13153, -0.0555919, -0.108076, -0.0105326, -0.443204, 0.634669, -3.13149, -0.0546929, -0.105403, 0.00396204, 0.00620257, -0.00858229, -0.0100861, -0.00867619, -0.00751025
0.0888252, 0.107688, -0.774117, -0.916888, -1.45688, -0.626251, 1.06999, -0.256728, 0.00611928, 0.000327479, -0.0218338, -0.0011741, -0.0352859, 0.000122824, 0.00131181, -0.281914, 15.2753, 18.8913, 16.3644, 0.956908, 3.66092, -0.0814099, 0.000542765, -0.00138418, 0.00026356, 0.000131136, -0.00171956, 0.000861659, 0.0145992, -0.0145866, 0.00251556, 0.0187615, 0.0316651, 0.00679594, -0.0110424, -0.444609, 0.634885, -3.13151, -0.0555937, -0.108109, -0.0105326, -0.443204, 0.634669, -3.13149, -0.0546929, -0.105403, 0.00412125, 0.00643698, -0.00891658, -0.0100861, -0.00867619, -0.00751025
0.0898252, 0.107694, -0.774108, -0.91693, -1.45687, -0.626316, 1.06999, -0.256732, 0.0033432, 0.000219695, -0.0210273, 0.00185665, -0.0283757, -0.000216679, -0.000389001, -0.131157, 15.2753, 18.9271, 16.2494, 0.969725, 3.66824, -0.0356336, 0.000516258, -0.00136205, 0.000263985, 0.000106639, -0.00179902, 0.000920061, 0.0150565, -0.0139256, 0.00407077, 0.0184914, 0.024581, 0.00942744, -0.0110382, -0.444602, 0.634876, -3.13149, -0.0555957, -0.108143, -0.0105452, -0.443215, 0.63466, -3.13149, -0.0546452, -0.105354, 0.00428343, 0.00667487, -0.00925645, -0.0105105, -0.00780779, -0.00632658
0.0908252, 0.107694, -0.774108, -0.91693, -1.45687, -0.626316, 1.06999, -0.256732, 0.0033432, 0.000219695, -0.0210273, 0.00185665, -0.0283757, -0.000216679, -0.000389001, -0.131157, 15.2753, 18.9271, 16.2494, 0.969725, 3.66824, -0.0356336, 0.000512313, -0.00135547, 0.000254257, 8.64723e-05, -0.00182253, 0.000921005, 0.0152057, -0.0141585, 0.00442953, 0.0191885, 0.0247006, 0.0107773, -0.0110339, -0.444596, 0.634867, -3.13147, -0.0555977, -0.108178, -0.010554, -0.443221, 0.634657, -3.1315, -0.0546037, -0.105314, 0.00444857, 0.0069162, -0.00960188, -0.0105105, -0.00780779, -0.00632658
0.0918252, 0.107707, -0.774106, -0.916977, -1.45687, -0.626375, 1.06999, -0.256725, 0.00707994, -0.00273751, -0.0157046, -0.00010478, -0.0326165, 8.45433e-05, 0.00146603, -0.0914839, 15.4221, 19.0421, 16.2891, 0.975218, 3.66092, -0.0951428, 0.000489189, -0.00133247, 0.000258722, 7.09501e-05, -0.00189646, 0.000976688, 0.0132867, -0.0139456, 0.00551456, 0.0239134, 0.0259933, 0.0170519, -0.0110293, -0.444589, 0.634857, -3.13145, -0.0555998, -0.108215, -0.0105714, -0.443237, 0.634641, -3.1315, -0.0545193, -0.105235, 0.00461665, 0.00716091, -0.0099528, -0.00851157, -0.00729262, -0.00546168
0.0928252, 0.107707, -0.774106, -0.916977, -1.45687, -0.626375, 1.06999, -0.256725, 0.00707994, -0.00273751, -0.0157046, -0.00010478, -0.0326165, 8.45433e-05, 0.00146603, -0.0914839, 15.4221, 19.0421, 16.2891, 0.975218, 3.66092, -0.0951428, 0.000484941, -0.00132542, 0.000248268, 4.92992e-05, -0.00192171, 0.000977715, 0.0134411, -0.0141849, 0.00588474, 0.0246316, 0.0261178, 0.0184442, -0.0110246, -0.444581, 0.634847, -3.13142, -0.055602, -0.108254, -0.0105714, -0.443237, 0.634641, -3.1315, -0.0545193, -0.105235, 0.00478767, 0.00740896, -0.0103092, -0.00851157, -0.00729262, -0.00546168
0.0938252, 0.107715, -0.774101, -0.917016, -1.45686, -0.62643, 1.06999, -0.256732, 0.0036408, -0.00351326, -0.018661, 0.00289107, -0.027115, -0.000233693, -0.00130381, 0.059273, 15.5331, 19.1135, 16.1383, 0.993529, 3.66824, -0.0292249, 0.000459356, -0.00130368, 0.000245746, 2.39514e-05, -0.00199064, 0.00102615, 0.0158819, -0.0144246, 0.00637942, 0.0225872, 0.0196246, 0.0180466, -0.0110198, -0.444574, 0.634836, -3.1314, -0.0556043, -0.108293, -0.0105914, -0.443253, 0.634631, -3.1315, -0.0544458, -0.105168, 0.00496161, 0.0076603, -0.010671, -0.0107967, -0.00737133, -0.00550117
0.0948252, 0.107717, -0.774093, -0.917031, -1.45687, -0.626459, 1.06999, -0.256728, 0.00357717, 0.00109195, -0.0201614, 0.000998927, -0.0202742, 0.000115472, 0.000588855, 0.170357, 15.5331, 19.1135, 16.178, 0.993529, 3.66092, -0.0685925, 0.00044852, -0.00129024, 0.000239218, -1.92178e-06, -0.00204987, 0.00105329, 0.0133815, -0.0140216, 0.00595792, 0.0189152, 0.0202888, 0.0206281, -0.0110147, -0.444566, 0.634825, -3.13137, -0.0556067, -0.108334, -0.0105972, -0.443259, 0.634626, -3.13151, -0.0544055, -0.105118, 0.00513848, 0.00791489, -0.0110382, -0.00811241, -0.00662244, -0.00611384
0.0958252, 0.107726, -0.774091, -0.917054, -1.45686, -0.626486, 1.06999, -0.256728, 0.00612742, -0.0015781, -0.0199112, 0.00242886, -0.0203853, -0.000736821, 0.000392571, 0.170357, 15.6442, 19.1889, 16.1026, 1.00635, 3.68289, -0.0685925, 0.000434453, -0.00127486, 0.000232981, -2.32202e-05, -0.00209856, 0.00107798, 0.0135586, -0.0142943, 0.00660075, 0.0195697, 0.0173457, 0.0242294, -0.0110095, -0.444558, 0.634814, -3.13135, -0.0556092, -0.108376, -0.0106058, -0.443266, 0.63462, -3.13151, -0.0543692, -0.105085, 0.00531825, 0.00817268, -0.0114107, -0.00814387, -0.00664936, -0.00585986
0.0968252, 0.107726, -0.774091, -0.917054, -1.45686, -0.626486, 1.06999, -0.256728, 0.00612742, -0.0015781, -0.0199112, 0.00242886, -0.0203853, -0.000736821, 0.000392571, 0.170357, 15.6442, 19.1889, 16.1026, 1.00635, 3.68289, -0.0685925, 0.000429566, -0.00126682, 0.000221005, -4.79711e-05, -0.00212747, 0.00107919, 0.0137236, -0.0145459, 0.00699336, 0.0203289, 0.01748, 0.0257044, -0.0110041, -0.44455, 0.634803, -3.13132, -0.0556118, -0.10842, -0.0106058, -0.443266, 0.63462, -3.13151, -0.0543692, -0.105085, 0.00550092, 0.00843363, -0.0117885, -0.00814387, -0.00664936, -0.00585986
0.0978252, 0.10774, -0.77408, -0.917094, -1.45686, -0.626536, 1.06999, -0.256722, 0.00474634, 0.00343669, -0.0181153, 0.00169783, -0.0282896, -0.000417898, 0.000999583, 0.245735, 15.7513, 19.3, 16.0629, 1.02466, 3.68289, -0.0951428, 0.000411425, -0.00124496, 0.000219945, -7.00443e-05, -0.00220909, 0.00112726, 0.0137615, -0.0152204, 0.00793885, 0.0260859, 0.028831, 0.0231574, -0.0109985, -0.444541, 0.634791, -3.13129, -0.0556144, -0.108465, -0.0106176, -0.44328, 0.634608, -3.13151, -0.0542969, -0.105004, 0.00568647, 0.00869769, -0.0121715, -0.00803742, -0.00706958, -0.00530763
0.0988252, 0.107742, -0.774073, -0.917116, -1.45686, -0.626561, 1.06999, -0.256727, 0.00426543, 0.00199101, -0.0190982, 0.00196697, -0.0260737, -0.000549866, -0.0013003, 0.360787, 15.791, 19.4111, 16.0272, 1.03107, 3.69021, -0.0420422, 0.000396389, -0.00122942, 0.000212652, -9.39409e-05, -0.00226537, 0.00115215, 0.0145358, -0.0154264, 0.00809364, 0.0252104, 0.0257827, 0.0266713, -0.0109927, -0.444532, 0.634778, -3.13127, -0.0556172, -0.108512, -0.0106268, -0.443288, 0.634602, -3.1315, -0.0542605, -0.104963, 0.00587491, 0.00896481, -0.0125597, -0.00862441, -0.00703724, -0.00559736
0.0998252, 0.107751, -0.774071, -0.917137, -1.45686, -0.62659, 1.06999, -0.256728, 0.00981071, -0.000800185, -0.018883, 0.00214643, -0.0246639, 0.000175957, -0.00035824, 0.360787, 15.9021, 19.4864, 15.9915, 1.04297, 3.67557, -0.0557752, 0.000383626, -0.00121282, 0.000205359, -0.000121372, -0.00232057, 0.00117225, 0.0127235, -0.0158353, 0.00840888, 0.0256618, 0.0216173, 0.03355, -0.0109867, -0.444523, 0.634765, -3.13124, -0.05562, -0.10856, -0.0106334, -0.443296, 0.634595, -3.13151, -0.0542315, -0.104927, 0.00606621, 0.00923495, -0.0129531, -0.00663364, -0.00711509, -0.0055542
0.100825, 0.107751, -0.774071, -0.917137, -1.45686, -0.62659, 1.06999, -0.256728, 0.00981071, -0.000800185, -0.018883, 0.00214643, -0.0246639, 0.000175957, -0.00035824, 0.360787, 15.9021, 19.4864, 15.9915, 1.04297, 3.67557, -0.0557752, 0.000378059, -0.00120376, 0.000191773, -0.000149392, -0.00235333, 0.00117366, 0.0128988, -0.0160984, 0.00882321, 0.0264602, 0.0217616, 0.0351048, -0.0109806, -0.444514, 0.634752, -3.13121, -0.055623, -0.10861, -0.0106334, -0.443296, 0.634595, -3.13151, -0.0542315, -0.104927, 0.00626038, 0.00950806, -0.0133516, -0.00663364, -0.00711509, -0.0055542
0.101825, 0.107758, -0.774057, -0.917168, -1.45685, -0.626633, 1.06999, -0.256724, 0.00816907, 0.00322143, -0.0207612, 0.00240776, -0.0260064, -0.000645176, -0.000317456, 0.511544, 16.0489, 19.4864, 15.9161, 1.01825, 3.69754, -0.0621838, 0.000359808, -0.00118284, 0.000184763, -0.00018189, -0.00243114, 0.00121994, 0.0135878, -0.0166149, 0.00891663, 0.0264904, 0.0272549, 0.0327842, -0.0109742, -0.444504, 0.634739, -3.13117, -0.055626, -0.108661, -0.010645, -0.443308, 0.634587, -3.13151, -0.054162, -0.104858, 0.00645739, 0.00978411, -0.0137552, -0.00711174, -0.00738062, -0.00591686
0.102825, 0.107769, -0.774049, -0.91719, -1.45686, -0.626655, 1.06999, -0.256721, 0.0104697, 0.00555664, -0.0203406, 0.00076991, -0.024853, 0.000383684, -0.000211637, 0.475838, 16.0846, 19.5618, 15.9518, 1.03656, 3.67557, -0.0621838, 0.000350838, -0.00116678, 0.000177388, -0.000205299, -0.00249371, 0.00123861, 0.0112316, -0.0167651, 0.00906768, 0.0270577, 0.0294041, 0.0382788, -0.0109676, -0.444494, 0.634725, -3.13114, -0.0556292, -0.108713, -0.0106473, -0.443314, 0.63458, -3.13151, -0.0541357, -0.104814, 0.00665724, 0.010063, -0.0141638, -0.00456812, -0.00717055, -0.00601309
0.103825, 0.107781, -0.774043, -0.917211, -1.45686, -0.626671, 1.06999, -0.256726, 0.00896663, 0.00621602, -0.0199684, 0.00134846, -0.0233564, -0.000286745, -0.00112444, 0.436165, 16.16, 19.6372, 15.9161, 1.03656, 3.69021, -0.0356336, 0.000341688, -0.00115052, 0.000167944, -0.000230759, -0.00254774, 0.00124826, 0.0116559, -0.0166528, 0.00979101, 0.0273569, 0.0290136, 0.0400067, -0.0109609, -0.444484, 0.63471, -3.13111, -0.0556325, -0.108767, -0.0106498, -0.443321, 0.634575, -3.1315, -0.0541235, -0.104785, 0.00685993, 0.0103448, -0.0145774, -0.00484283, -0.00679855, -0.00573477
0.104825, 0.107781, -0.774043, -0.917211, -1.45686, -0.626671, 1.06999, -0.256726, 0.00896663, 0.00621602, -0.0199684, 0.00134846, -0.0233564, -0.000286745, -0.00112444, 0.436165, 16.16, 19.6372, 15.9161, 1.03656, 3.69021, -0.0356336, 0.000335402, -0.00114038, 0.000152663, -0.000262209, -0.00258456, 0.00124988, 0.0118414, -0.0169266, 0.0102264, 0.0281929, 0.0291678, 0.0416385, -0.0109539, -0.444473, 0.634696, -3.13108, -0.0556359, -0.108823, -0.0106498, -0.443321, 0.634575, -3.1315, -0.0541235, -0.104785, 0.00706543, 0.0106294, -0.0149959, -0.00484283, -0.00679855, -0.00573477
0.105825, 0.107787, -0.77403, -0.917251, -1.45686, -0.626711, 1.06999, -0.256721, 0.0052638, 0.00441618, -0.0191607, 1.15344e-05, -0.0220535, 0.000143825, 0.00143303, 0.586922, 16.3068, 19.7483, 15.9161, 1.06128, 3.68289, -0.0878186, 0.000315387, -0.00111769, 0.000148403, -0.000287383, -0.00266771, 0.00129902, 0.0133737, -0.0168347, 0.0105726, 0.0287356, 0.0271336, 0.0389676, -0.0109468, -0.444463, 0.63468, -3.13104, -0.0556394, -0.10888, -0.010662, -0.443333, 0.634562, -3.1315, -0.0540503, -0.104713, 0.00727374, 0.0109167, -0.0154193, -0.00618967, -0.00647689, -0.00591982
0.106825, 0.107787, -0.77403, -0.917251, -1.45686, -0.626711, 1.06999, -0.256721, 0.0052638, 0.00441618, -0.0191607, 1.15344e-05, -0.0220535, 0.000143825, 0.00143303, 0.586922, 16.3068, 19.7483, 15.9161, 1.06128, 3.68289, -0.0878186, 0.000308725, -0.001107, 0.000132242, -0.000320607, -0.00270663, 0.00130074, 0.0135641, -0.0171136, 0.0110183, 0.0295898, 0.0272927, 0.0406369, -0.0109394, -0.444452, 0.634665, -3.131, -0.055643, -0.108939, -0.010662, -0.443333, 0.634562, -3.1315, -0.0540503, -0.104713, 0.00748486, 0.0112067, -0.0158476, -0.00618967, -0.00647689, -0.00591982
0.107825, 0.107806, -0.774015, -0.917293, -1.45685, -0.626744, 1.06999, -0.256719, 0.00800848, 0.00682734, -0.0218423, 0.000871259, -0.0165339, 6.39223e-05, 0.000162185, 0.586922, 16.4178, 19.8594, 15.8408, 1.07959, 3.68289, -0.0750012, 0.000293485, -0.00108378, 0.000126511, -0.000343097, -0.00278576, 0.00133584, 0.0117805, -0.0173414, 0.0109644, 0.0266751, 0.0252997, 0.046493, -0.0109318, -0.44444, 0.634649, -3.13097, -0.0556467, -0.109, -0.0106692, -0.443346, 0.634551, -3.13149, -0.0539992, -0.104651, 0.00769877, 0.0114994, -0.0162807, -0.004186, -0.00634893, -0.00628522
0.108825, 0.107806, -0.774015, -0.917293, -1.45685, -0.626744, 1.06999, -0.256719, 0.00695968, 0.00736241, -0.0204761, 0.00317929, -0.0129913, 4.26148e-05, -0.00182466, 0.551216, 16.4893, 19.784, 15.7297, 1.0979, 3.68289, -0.0228162, 0.000286439, -0.00107253, 0.00010945, -0.000378133, -0.00282683, 0.00133768, 0.0116234, -0.0170558, 0.0125606, 0.0282411, 0.0217516, 0.0506925, -0.010924, -0.444429, 0.634632, -3.13093, -0.0556505, -0.109062, -0.0106692, -0.443346, 0.634551, -3.13149, -0.0539992, -0.104651, 0.00791545, 0.0117947, -0.0167186, -0.00393406, -0.00577828, -0.0051189
0.109825, 0.107827, -0.773998, -0.917331, -1.45685, -0.626775, 1.06999, -0.256719, 0.00749687, 0.00591823, -0.024088, 0.00304754, -0.00986614, 0.000299677, 0.000716342, 0.586922, 16.4893, 19.8951, 15.69, 1.10431, 3.67557, -0.0750012, 0.000274155, -0.00104913, 0.000100136, -0.000409382, -0.00290639, 0.00136651, 0.0125193, -0.0177685, 0.0119054, 0.0254143, 0.0182354, 0.0492308, -0.010916, -0.444417, 0.634615, -3.13089, -0.0556545, -0.109126, -0.0106732, -0.443358, 0.634542, -3.13149, -0.0539578, -0.104592, 0.00813491, 0.0120926, -0.0171612, -0.00453717, -0.0062184, -0.00628375
0.110825, 0.107837, -0.773988, -0.917351, -1.45685, -0.626794, 1.06999, -0.256715, 0.00791877, 0.00728957, -0.0209262, 0.00026845, -0.0122445, -7.14825e-05, 0.00146091, 0.626595, 16.525, 19.8951, 15.7654, 1.11072, 3.68289, -0.101552, 0.000264856, -0.0010324, 9.06232e-05, -0.000433445, -0.002981, 0.00138305, 0.0110274, -0.0174582, 0.0124285, 0.0276018, 0.0234298, 0.0533397, -0.0109077, -0.444404, 0.634598, -3.13085, -0.0556585, -0.109191, -0.0106743, -0.443363, 0.634533, -3.13148, -0.0539359, -0.104542, 0.00835714, 0.012393, -0.0176085, -0.00287538, -0.00556091, -0.00610417
0.111825, 0.10785, -0.773986, -0.917373, -1.45685, -0.626802, 1.06999, -0.256716, 0.0101334, 0.00654081, -0.0186479, 0.0019422, -0.00886209, -0.000318922, 0.000465311, 0.586922, 16.636, 19.8951, 15.69, 1.10431, 3.69021, -0.0878186, 0.000254115, -0.00101489, 7.74676e-05, -0.000461054, -0.0030334, 0.00139342, 0.0094567, -0.0170561, 0.0139374, 0.0289895, 0.0192382, 0.0608032, -0.0108992, -0.444392, 0.63458, -3.13081, -0.0556627, -0.109258, -0.0106768, -0.443368, 0.634528, -3.13147, -0.0539233, -0.104529, 0.00858211, 0.0126959, -0.0180604, -0.00120428, -0.00481589, -0.00493954
0.112825, 0.10785, -0.773986, -0.917373, -1.45685, -0.626802, 1.06999, -0.256716, 0.0101334, 0.00654081, -0.0186479, 0.0019422, -0.00886209, -0.000318922, 0.000465311, 0.586922, 16.636, 19.8951, 15.69, 1.10431, 3.69021, -0.0878186, 0.00024627, -0.00100249, 5.85462e-05, -0.000499824, -0.00307891, 0.00139551, 0.00966197, -0.0173493, 0.0144127, 0.0298956, 0.0194127, 0.062581, -0.0108905, -0.444379, 0.634562, -3.13077, -0.055667, -0.109327, -0.0106768, -0.443368, 0.634528, -3.13147, -0.0539233, -0.104529, 0.00880983, 0.0130012, -0.018517, -0.00120428, -0.00481589, -0.00493954
0.113825, 0.10785, -0.773986, -0.917373, -1.45685, -0.626802, 1.06999, -0.256716, 0.0101334, 0.00654081, -0.0186479, 0.0019422, -0.00886209, -0.000318922, 0.000465311, 0.586922, 16.636, 19.8951, 15.69, 1.10431, 3.69021, -0.0878186, 0.00023822, -0.000989796, 3.91478e-05, -0.000539548, -0.00312556, 0.00139767, 0.00986967, -0.0176447, 0.0148929, 0.0308099, 0.0195897, 0.0643763, -0.0108816, -0.444366, 0.634543, -3.13072, -0.0556715, -0.109398, -0.0106768, -0.443368, 0.634528, -3.13147, -0.0539233, -0.104529, 0.00904028, 0.013309, -0.0189781, -0.00120428, -0.00481589, -0.00493954
0.114825, 0.107875, -0.773971, -0.917418, -1.45685, -0.626824, 1.06999, -0.256721, 0.00654642, 0.00366129, -0.0193935, -0.000236743, -0.00540839, 0.000219947, -0.000923476, 0.551216, 16.6718, 19.9347, 15.6146, 1.11713, 3.67557, -0.0420422, 0.000226655, -0.000964861, 3.10057e-05, -0.000563937, -0.00320368, 0.00141561, 0.0115937, -0.0176237, 0.01455, 0.0290041, 0.015439, 0.0662127, -0.0108725, -0.444352, 0.634524, -3.13068, -0.0556761, -0.10947, -0.0106789, -0.44338, 0.634516, -3.13145, -0.0538997, -0.10448, 0.00927346, 0.0136191, -0.0194438, -0.00266731, -0.00454289, -0.00586899
0.115825, 0.107897, -0.773958, -0.917472, -1.45685, -0.626846, 1.06999, -0.256716, 0.00621457, 0.00630656, -0.0281794, -0.000373848, -0.00312164, 0.000188176, 0.000798967, 0.551216, 16.7471, 20.0101, 15.6146, 1.11713, 3.67557, -0.0878186, 0.000211034, -0.000937969, 2.73289e-05, -0.000579387, -0.00328666, 0.00145113, 0.0135056, -0.01928, 0.012606, 0.0233582, 0.0170325, 0.0604597, -0.0108631, -0.444339, 0.634504, -3.13064, -0.0556808, -0.109544, -0.0106844, -0.443394, 0.634498, -3.13143, -0.0538493, -0.104425, 0.00950935, 0.0139315, -0.0199139, -0.0041431, -0.00593456, -0.0084256
0.116825, 0.107897, -0.773958, -0.917472, -1.45685, -0.626846, 1.06999, -0.256716, 0.00621457, 0.00630656, -0.0281794, -0.000373848, -0.00312164, 0.000188176, 0.000798967, 0.551216, 16.7471, 20.0101, 15.6146, 1.11713, 3.67557, -0.0878186, 0.000202352, -0.000924381, 6.46851e-06, -0.000622031, -0.00333679, 0.00145348, 0.0137207, -0.0195819, 0.0131006, 0.024297, 0.017217, 0.0623062, -0.0108534, -0.444325, 0.634484, -3.13059, -0.0556856, -0.10962, -0.0106844, -0.443394, 0.634498, -3.13143, -0.0538493, -0.104425, 0.00974794, 0.0142462, -0.0203885, -0.0041431, -0.00593456, -0.0084256
0.117826, 0.107921, -0.773946, -0.917525, -1.45685, -0.626859, 1.06999, -0.25672, 0.00747889, 0.00651521, -0.0287219, 0.000796365, -0.00106925, 8.3634e-05, -0.00189416, 0.586922, 16.7828, 20.0101, 15.5432, 1.0979, 3.67557, -0.0164075, 0.000187626, -0.000898187, -4.90898e-08, -0.000637502, -0.00341096, 0.00147581, 0.0133428, -0.0198383, 0.0137611, 0.0244733, 0.0153835, 0.0680933, -0.0108436, -0.44431, 0.634463, -3.13054, -0.0556906, -0.109698, -0.0106887, -0.443406, 0.634483, -3.1314, -0.0538196, -0.104387, 0.00998923, 0.0145631, -0.0208674, -0.00356252, -0.00586769, -0.00822277
0.118826, 0.107945, -0.773937, -0.917556, -1.45685, -0.626867, 1.06999, -0.256714, 0.0114476, 0.00590941, -0.0285504, -0.000364305, -0.00154991, -0.000215511, 0.000670005, 0.475838, 16.7471, 20.0458, 15.5789, 1.11713, 3.68289, -0.0685925, 0.000181007, -0.000876961, -1.12814e-05, -0.000662183, -0.00348343, 0.00148617, 0.0118243, -0.0201584, 0.0137886, 0.0245342, 0.0162608, 0.0718646, -0.0108335, -0.444295, 0.634442, -3.13049, -0.0556957, -0.109777, -0.0106852, -0.443413, 0.634473, -3.13138, -0.0538083, -0.104355, 0.0102332, 0.0148823, -0.0213508, -0.00179566, -0.00581591, -0.00857606
0.119826, 0.107956, -0.773926, -0.917587, -1.45686, -0.626876, 1.06999, -0.256714, 0.0137441, 0.0097555, -0.0307965, -0.00112309, -0.00586405, 0.00039886, 0.00044667, 0.511544, 16.6718, 20.0458, 15.6146, 1.11713, 3.66824, -0.0685925, 0.000169594, -0.000856073, -2.32257e-05, -0.000687595, -0.00356088, 0.00150242, 0.0112099, -0.0214334, 0.0135562, 0.0261861, 0.0238623, 0.0728776, -0.0108231, -0.44428, 0.634421, -3.13044, -0.0557009, -0.109858, -0.0106863, -0.443419, 0.634462, -3.13137, -0.053788, -0.104316, 0.0104799, 0.0152035, -0.0218384, -0.000875134, -0.00674548, -0.00926351
0.120826, 0.107956, -0.773926, -0.917587, -1.45686, -0.626876, 1.06999, -0.256714, 0.0137441, 0.0097555, -0.0307965, -0.00112309, -0.00586405, 0.00039886, 0.00044667, 0.511544, 16.6718, 20.0458, 15.6146, 1.11713, 3.66824, -0.0685925, 0.000160037, -0.000841265, -4.61012e-05, -0.000734247, -0.0036158, 0.00150507, 0.0114346, -0.0217433, 0.0140692, 0.0271558, 0.0240573, 0.0747903, -0.0108125, -0.444265, 0.634399, -3.13039, -0.0557063, -0.109941, -0.0106863, -0.443419, 0.634462, -3.13137, -0.053788, -0.104316, 0.0107292, 0.0155269, -0.0223304, -0.000875134, -0.00674548, -0.00926351
0.121826, 0.107969, -0.773921, -0.917619, -1.45686, -0.626884, 1.06999, -0.256713, 0.0121677, 0.00533181, -0.0269564, 0.0020515, -0.00891932, -9.3996e-05, -0.000117959, 0.551216, 16.6718, 20.0101, 15.5035, 1.14734, 3.67557, -0.0621838, 0.000146013, -0.000819171, -5.91493e-05, -0.000761672, -0.00368634, 0.00152205, 0.0137748, -0.0218227, 0.0164906, 0.0331003, 0.0201523, 0.0755493, -0.0108016, -0.444249, 0.634376, -3.13034, -0.0557118, -0.110026, -0.0106896, -0.443426, 0.634451, -3.13135, -0.0537667, -0.104292, 0.0109812, 0.0158524, -0.0228265, -0.00312346, -0.00660694, -0.00751132
0.122826, 0.107995, -0.773914, -0.917679, -1.45687, -0.626894, 1.06999, -0.256719, 0.0123186, 0.00395002, -0.02976, -0.00358252, -0.00728276, -0.000876466, -0.00177406, 0.551216, 16.6718, 20.0101, 15.5789, 1.16565, 3.69754, -0.0164075, 0.000129018, -0.000791488, -6.3346e-05, -0.000768374, -0.00376714, 0.00154013, 0.0138556, -0.0220361, 0.0143712, 0.027611, 0.0219307, 0.0808436, -0.0107905, -0.444233, 0.634353, -3.13029, -0.0557175, -0.110113, -0.0106947, -0.443438, 0.634431, -3.13131, -0.0537447, -0.104253, 0.0112358, 0.0161798, -0.0233269, -0.0027939, -0.00647499, -0.010135
0.123826, 0.108007, -0.773911, -0.917714, -1.45687, -0.626896, 1.06999, -0.256719, 0.0115429, 0.00292996, -0.0317855, -0.0048844, -0.00467079, 0.000229491, 0.00352878, 0.586922, 16.6718, 20.0101, 15.5432, 1.14734, 3.67557, -0.0164075, 0.000114797, -0.000768345, -7.68066e-05, -0.000795945, -0.00383301, 0.00155586, 0.0144937, -0.0225677, 0.0140064, 0.0263542, 0.0195142, 0.07711, -0.0107792, -0.444217, 0.634329, -3.13024, -0.0557233, -0.110202, -0.0106977, -0.443446, 0.63442, -3.13128, -0.0537256, -0.10424, 0.011493, 0.0165093, -0.0238314, -0.00312875, -0.00669626, -0.0110544
0.124826, 0.108031, -0.773903, -0.917743, -1.45687, -0.626897, 1.06999, -0.256714, 0.0134962, 0.0038462, -0.0346538, -0.00279134, -0.00348419, 0.000152994, 0.00444056, 0.511544, 16.6003, 19.9347, 15.5035, 1.14734, 3.67557, -0.0621838, 0.000107941, -0.000746179, -9.18526e-05, -0.000825135, -0.00390585, 0.00156229, 0.0147203, -0.023451, 0.0143279, 0.0260131, 0.0185557, 0.0774307, -0.0107676, -0.4442, 0.634305, -3.13018, -0.0557293, -0.110292, -0.0106932, -0.443452, 0.63441, -3.13126, -0.0537211, -0.104219, 0.0117529, 0.0168407, -0.0243401, -0.00308622, -0.00725959, -0.0112673
0.125826, 0.108031, -0.773903, -0.917743, -1.45687, -0.626897, 1.06999, -0.256714, 0.0134962, 0.0038462, -0.0346538, -0.00279134, -0.00348419, 0.000152994, 0.00444056, 0.511544, 16.6003, 19.9347, 15.5035, 1.14734, 3.67557, -0.0621838, 9.72385e-05, -0.000729805, -0.000117351, -0.000876976, -0.003967, 0.00156532, 0.0149567, -0.0237699, 0.0148633, 0.0270194, 0.0187636, 0.0794226, -0.0107557, -0.444183, 0.634281, -3.13012, -0.0557354, -0.110385, -0.0106932, -0.443452, 0.63441, -3.13126, -0.0537211, -0.104219, 0.0120154, 0.017174, -0.0248528, -0.00308622, -0.00725959, -0.0112673
0.126826, 0.10804, -0.773902, -0.917781, -1.45689, -0.626901, 1.06999, -0.256712, 0.0113236, 0.00273098, -0.0356089, -0.00313624, -0.00283791, 0.000644531, 0.00396692, 0.586922, 16.6003, 19.9347, 15.5432, 1.15375, 3.66092, -0.0814099, 8.03571e-05, -0.000705603, -0.00012927, -0.00090226, -0.00404207, 0.00158602, 0.0165518, -0.024236, 0.0150955, 0.0274283, 0.0173783, 0.0794988, -0.0107435, -0.444166, 0.634256, -3.13007, -0.0557417, -0.110479, -0.0106978, -0.443459, 0.634396, -3.13124, -0.0536949, -0.104197, 0.0122806, 0.0175091, -0.0253696, -0.00441144, -0.00744972, -0.011671
0.127826, 0.108074, -0.773897, -0.917851, -1.4569, -0.626904, 1.06999, -0.256719, 0.0128481, 0.00194785, -0.0347774, -0.00173198, -0.00171464, 0.000467303, 0.000629188, 0.551216, 16.5646, 19.8594, 15.5035, 1.16015, 3.66092, -0.0228162, 6.59777e-05, -0.000674793, -0.000129996, -0.000900544, -0.00412651, 0.00159521, 0.0161791, -0.0243807, 0.0162113, 0.0289525, 0.015112, 0.0868322, -0.0107311, -0.444148, 0.63423, -3.13001, -0.0557481, -0.110576, -0.0106987, -0.443473, 0.63437, -3.13118, -0.0536878, -0.104161, 0.0125483, 0.0178461, -0.0258904, -0.00384623, -0.00725667, -0.011056
0.128826, 0.108074, -0.773897, -0.917851, -1.4569, -0.626904, 1.06999, -0.256719, 0.0128481, 0.00194785, -0.0347774, -0.00173198, -0.00171464, 0.000467303, 0.000629188, 0.551216, 16.5646, 19.8594, 15.5035, 1.16015, 3.66092, -0.0228162, 5.45606e-05, -0.00065746, -0.000157122, -0.000955589, -0.00419151, 0.00159849, 0.0164224, -0.0247044, 0.0167597, 0.0299794, 0.0153279, 0.0888698, -0.0107184, -0.44413, 0.634204, -3.12995, -0.0557547, -0.110674, -0.0106987, -0.443473, 0.63437, -3.13118, -0.0536878, -0.104161, 0.0128186, 0.0181849, -0.0264151, -0.00384623, -0.00725667, -0.011056
0.129826, 0.108103, -0.773894, -0.917922, -1.45692, -0.626906, 1.06999, -0.256712, 0.0148053, 0.00158411, -0.0328325, -0.00454791, -0.00166275, 0.000128571, 0.00278401, 0.586922, 16.525, 19.7086, 15.3925, 1.18396, 3.66092, -0.0878186, 3.64289e-05, -0.000626034, -0.000158895, -0.00095622, -0.00427705, 0.00162756, 0.0147296, -0.0244717, 0.0168997, 0.0302253, 0.0170775, 0.0936707, -0.0107055, -0.444112, 0.634177, -3.12989, -0.0557614, -0.110774, -0.0107028, -0.443487, 0.634343, -3.13113, -0.0536501, -0.104127, 0.0130915, 0.0185254, -0.0269437, -0.00190492, -0.00662638, -0.0113258
0.130826, 0.108116, -0.773886, -0.917967, -1.45693, -0.626907, 1.06999, -0.256716, 0.013298, 0.00360132, -0.0362176, -0.00589115, -0.00141177, 0.000323073, 0.000467822, 0.626595, 16.4178, 19.784, 15.3568, 1.19037, 3.65451, -0.0484509, 2.00023e-05, -0.00059954, -0.000171993, -0.000980781, -0.00436026, 0.00164374, 0.0157738, -0.0252919, 0.016224, 0.0286316, 0.0200432, 0.0947758, -0.0106922, -0.444093, 0.63415, -3.12983, -0.0557683, -0.110876, -0.010706, -0.443495, 0.634328, -3.1311, -0.0536317, -0.104101, 0.0133669, 0.0188676, -0.0274763, -0.00259409, -0.00713453, -0.0126154
0.131826, 0.108137, -0.773891, -0.918, -1.45693, -0.626907, 1.06999, -0.256719, 0.0171689, -7.50806e-05, -0.0347949, -0.00283708, -0.000753254, 0.000215382, -0.000822505, 0.586922, 16.525, 19.7086, 15.2814, 1.18396, 3.65451, -0.0164075, 6.68826e-06, -0.000574727, -0.000187764, -0.00101042, -0.00443091, 0.00164343, 0.0154873, -0.0256228, 0.0178546, 0.0313811, 0.0141337, 0.101851, -0.0106787, -0.444074, 0.634122, -3.12976, -0.0557754, -0.110981, -0.010706, -0.443502, 0.634315, -3.13107, -0.0536388, -0.104096, 0.0136449, 0.0192114, -0.0280126, -0.00213456, -0.00712961, -0.0115103
0.132826, 0.108137, -0.773891, -0.918, -1.45693, -0.626907, 1.06999, -0.256719, 0.0171689, -7.50806e-05, -0.0347949, -0.00283708, -0.000753254, 0.000215382, -0.000822505, 0.586922, 16.525, 19.7086, 15.2814, 1.18396, 3.65451, -0.0164075, -5.71223e-06, -0.000556093, -0.000217121, -0.00106984, -0.00450118, 0.00164705, 0.0157396, -0.0259525, 0.0184195, 0.032434, 0.0143604, 0.103947, -0.0106649, -0.444055, 0.634094, -3.1297, -0.0557826, -0.111087, -0.010706, -0.443502, 0.634315, -3.13107, -0.0536388, -0.104096, 0.0139255, 0.0195569, -0.0285528, -0.00213456, -0.00712961, -0.0115103
0.133826, 0.108164, -0.773885, -0.918073, -1.45696, -0.626907, 1.06999, -0.256713, 0.0130128, 0.000833399, -0.0379608, -0.0120332, -0.00045512, 0.000819105, 0.00178115, 0.701973, 16.4536, 19.6729, 15.2417, 1.18396, 3.63254, -0.0750012, -2.17787e-05, -0.00052388, -0.000217505, -0.00106858, -0.00459954, 0.00167085, 0.0165488, -0.0262734, 0.0154975, 0.0270572, 0.0210712, 0.101754, -0.0106509, -0.444035, 0.634065, -3.12963, -0.05579, -0.111195, -0.0107068, -0.443515, 0.634285, -3.13101, -0.0536101, -0.104051, 0.0142086, 0.019904, -0.0290967, -0.0024407, -0.0071016, -0.0150317
0.134826, 0.108181, -0.773883, -0.9181, -1.45697, -0.626907, 1.06999, -0.256717, 0.00992499, 0.000568127, -0.0354238, -0.0108428, -0.000561627, 0.00054607, -1.11624e-05, 0.701973, 16.4536, 19.5618, 15.1703, 1.19037, 3.63254, -0.0420422, -3.37723e-05, -0.00050001, -0.000236057, -0.00110267, -0.00468541, 0.00167013, 0.0177284, -0.0260741, 0.0172165, 0.0304283, 0.0203446, 0.103861, -0.0106365, -0.444015, 0.634036, -3.12957, -0.0557975, -0.111306, -0.0107049, -0.443519, 0.634273, -3.13098, -0.0536183, -0.104029, 0.0144943, 0.0202526, -0.0296444, -0.00346075, -0.00661505, -0.01395
0.135826, 0.108181, -0.773883, -0.9181, -1.45697, -0.626907, 1.06999, -0.256717, 0.00992499, 0.000568127, -0.0354238, -0.0108428, -0.000561627, 0.00054607, -1.11624e-05, 0.701973, 16.4536, 19.5618, 15.1703, 1.19037, 3.63254, -0.0420422, -4.69329e-05, -0.000480387, -0.000267131, -0.00116543, -0.00475973, 0.00167402, 0.0179876, -0.0264079, 0.0177937, 0.0315, 0.0205793, 0.105999, -0.0106219, -0.443995, 0.634006, -3.1295, -0.0558053, -0.111418, -0.0107049, -0.443519, 0.634273, -3.13098, -0.0536183, -0.104029, 0.0147825, 0.0206027, -0.0301957, -0.00346075, -0.00661505, -0.01395
0.136826, 0.108197, -0.773879, -0.918139, -1.45699, -0.626907, 1.06999, -0.256717, 0.0106156, 0.00122336, -0.0380298, -0.0115493, -0.000390059, 0.000364047, 9.14091e-06, 0.701973, 16.4178, 19.6372, 15.1703, 1.19037, 3.63254, -0.0420422, -6.10553e-05, -0.000453226, -0.000282845, -0.00119663, -0.00484978, 0.00168291, 0.018425, -0.0271544, 0.0174063, 0.0302672, 0.0220178, 0.107276, -0.010607, -0.443974, 0.633975, -3.12943, -0.0558132, -0.111532, -0.0107042, -0.443526, 0.634257, -3.13095, -0.0536121, -0.104004, 0.0150731, 0.0209542, -0.0307507, -0.00355275, -0.00702187, -0.0149319
0.137826, 0.108224, -0.773871, -0.918203, -1.45702, -0.626908, 1.06999, -0.256715, 0.0122753, 0.00176013, -0.0370751, -0.0123742, -0.000269098, 0.000580002, 0.000925906, 0.813057, 16.3782, 19.5975, 15.0552, 1.19678, 3.6188, -0.0557752, -7.54663e-05, -0.00042194, -0.000287266, -0.0012013, -0.00495837, 0.0016962, 0.0172673, -0.0273118, 0.0179962, 0.0315686, 0.0231029, 0.111387, -0.0105917, -0.443953, 0.633944, -3.12936, -0.0558213, -0.111649, -0.0107026, -0.443537, 0.634229, -3.13089, -0.0536003, -0.103951, 0.0153663, 0.0213072, -0.0313093, -0.00214271, -0.0067931, -0.0148241
0.138826, 0.108235, -0.773869, -0.918236, -1.45704, -0.626908, 1.06999, -0.256714, 0.00766923, 0.00367121, -0.0381959, -0.0126891, -0.00110152, 0.000386668, 0.00109898, 0.888436, 16.4178, 19.6372, 15.0552, 1.2215, 3.6188, -0.0685925, -8.99978e-05, -0.000396123, -0.000304013, -0.00123336, -0.00505447, 0.00170487, 0.0194675, -0.0277408, 0.01837, 0.0324191, 0.0262007, 0.107699, -0.0105762, -0.443931, 0.633913, -3.12929, -0.0558295, -0.111768, -0.0107018, -0.443542, 0.634213, -3.13086, -0.0535948, -0.103921, 0.015662, 0.0216616, -0.0318714, -0.00405242, -0.00695042, -0.0151776
0.139826, 0.108235, -0.773869, -0.918236, -1.45704, -0.626908, 1.06999, -0.256714, 0.00766923, 0.00367121, -0.0381959, -0.0126891, -0.00110152, 0.000386668, 0.00109898, 0.888436, 16.4178, 19.6372, 15.0552, 1.2215, 3.6188, -0.0685925, -0.000104201, -0.000375165, -0.000337434, -0.00130068, -0.00513432, 0.00170915, 0.0197354, -0.0280794, 0.0189629, 0.0335144, 0.026446, 0.109891, -0.0105604, -0.443909, 0.63388, -3.12921, -0.055838, -0.111888, -0.0107018, -0.443542, 0.634213, -3.13086, -0.0535948, -0.103921, 0.0159602, 0.0220173, -0.0324371, -0.00405242, -0.00695042, -0.0151776
0.140826, 0.108254, -0.773865, -0.91827, -1.45706, -0.62691, 1.06999, -0.256713, 0.00988203, 0.00190038, -0.0388131, -0.0153076, -0.000739299, 0.000529046, 0.000975262, 0.85273, 16.4536, 19.6729, 15.0195, 1.2215, 3.61148, -0.0750012, -0.000117062, -0.000347601, -0.000356168, -0.00133814, -0.00523332, 0.00171363, 0.0191376, -0.0284598, 0.0184617, 0.0324331, 0.026336, 0.115478, -0.0105443, -0.443887, 0.633848, -3.12914, -0.0558466, -0.112011, -0.0106989, -0.443548, 0.634198, -3.13083, -0.053596, -0.103892, 0.0162609, 0.0223744, -0.0330063, -0.00310755, -0.00694821, -0.0162107
0.141826, 0.108281, -0.773858, -0.918331, -1.45709, -0.626912, 1.06999, -0.256722, 0.00751749, 0.00659033, -0.0309921, -0.0139835, -0.000865067, 0.000958511, -0.00183284, 0.85273, 16.4893, 19.7483, 14.9084, 1.23981, 3.58951, 0.00373412, -0.000130252, -0.000315084, -0.000362409, -0.00135031, -0.00534928, 0.00171195, 0.0167588, -0.0272922, 0.0219665, 0.0402609, 0.0299127, 0.123352, -0.0105279, -0.443865, 0.633814, -3.12906, -0.0558554, -0.112136, -0.0106949, -0.443558, 0.634169, -3.13077, -0.0536081, -0.103836, 0.016564, 0.0227327, -0.033579, -0.000726592, -0.00538011, -0.0131105
0.142826, 0.108288, -0.773855, -0.91836, -1.45712, -0.62691, 1.06999, -0.256714, 0.00710988, 0.00681179, -0.0301823, -0.0147925, -0.00101961, 9.64728e-05, 0.00145909, 0.928108, 16.5646, 19.784, 14.9442, 1.25171, 3.60415, -0.0685925, -0.000144636, -0.000289468, -0.00038073, -0.00138482, -0.00545564, 0.00172451, 0.0168394, -0.0272719, 0.0224979, 0.0408218, 0.0314254, 0.122839, -0.0105112, -0.443842, 0.633781, -3.12899, -0.0558644, -0.112263, -0.010693, -0.443562, 0.634152, -3.13074, -0.0535973, -0.103799, 0.0168696, 0.0230922, -0.034155, -0.00054146, -0.00501087, -0.0131656
0.143826, 0.108288, -0.773855, -0.91836, -1.45712, -0.62691, 1.06999, -0.256714, 0.00710988, 0.00681179, -0.0301823, -0.0147925, -0.00101961, 9.64728e-05, 0.00145909, 0.928108, 16.5646, 19.784, 14.9442, 1.25171, 3.60415, -0.0685925, -0.000159915, -0.000267158, -0.00041656, -0.0014568, -0.00554115, 0.0017292, 0.0171157, -0.0276145, 0.0231054, 0.0419388, 0.0316819, 0.125082, -0.0104942, -0.443818, 0.633746, -3.12891, -0.0558736, -0.112393, -0.010693, -0.443562, 0.634152, -3.13074, -0.0535973, -0.103799, 0.0171776, 0.0234529, -0.0347344, -0.00054146, -0.00501087, -0.0131656
0.144826, 0.108299, -0.773846, -0.918381, -1.45715, -0.626914, 1.06999, -0.256715, 0.00776963, 0.00530382, -0.027912, -0.0150771, -0.00115602, 0.00060685, 0.000499666, 0.963814, 16.5646, 19.7483, 14.9799, 1.26453, 3.58951, -0.0557752, -0.000170148, -0.000241886, -0.000438352, -0.00150096, -0.00566005, 0.00172604, 0.0167418, -0.02766, 0.0242412, 0.0447126, 0.0303747, 0.130772, -0.0104768, -0.443795, 0.633711, -3.12883, -0.0558829, -0.112524, -0.0106865, -0.443564, 0.634138, -3.13071, -0.053611, -0.103747, 0.017488, 0.0238148, -0.0353172, 6.03846e-05, -0.00469612, -0.0125927
0.145826, 0.108316, -0.773835, -0.918435, -1.45719, -0.626918, 1.06999, -0.256721, 0.00721314, 0.00760955, -0.0281691, -0.017671, -0.00157792, 0.000959182, -0.00188979, 1.00349, 16.636, 19.8594, 14.8688, 1.30115, 3.56845, 0.0101428, -0.00018308, -0.000210344, -0.000446501, -0.00151866, -0.00579377, 0.00172612, 0.0161605, -0.0279397, 0.0241234, 0.0449187, 0.034781, 0.135798, -0.0104592, -0.443771, 0.633676, -3.12875, -0.0558925, -0.112658, -0.0106813, -0.443572, 0.63411, -3.13066, -0.053621, -0.103673, 0.0178009, 0.0241778, -0.0359033, 0.000969628, -0.0045927, -0.0132606
0.146826, 0.108319, -0.773833, -0.91846, -1.45722, -0.626917, 1.06999, -0.256714, 0.00691012, 0.00761977, -0.029051, -0.0196443, -0.00128996, 0.000639455, 0.000436263, 1.07887, 16.7114, 19.9347, 14.8688, 1.30755, 3.56845, -0.0356336, -0.000199766, -0.000184121, -0.000468176, -0.00156033, -0.0059043, 0.00174059, 0.0164286, -0.0282347, 0.0238701, 0.0440039, 0.0363222, 0.135926, -0.0104412, -0.443746, 0.633639, -3.12867, -0.0559023, -0.112794, -0.0106806, -0.443575, 0.634094, -3.13063, -0.0536078, -0.103639, 0.0181163, 0.0245419, -0.0364926, 0.00104476, -0.00453177, -0.0141283
0.147826, 0.108319, -0.773833, -0.91846, -1.45722, -0.626917, 1.06999, -0.256714, 0.00691012, 0.00761977, -0.029051, -0.0196443, -0.00128996, 0.000639455, 0.000436263, 1.07887, 16.7114, 19.9347, 14.8688, 1.30755, 3.56845, -0.0356336, -0.000216153, -0.000160447, -0.000506476, -0.00163705, -0.00599561, 0.00174571, 0.0167134, -0.0285807, 0.0244919, 0.0451412, 0.0365899, 0.138218, -0.0104229, -0.443722, 0.633603, -3.12858, -0.0559122, -0.112932, -0.0106806, -0.443575, 0.634094, -3.13063, -0.0536078, -0.103639, 0.018434, 0.0249071, -0.0370852, 0.00104476, -0.00453177, -0.0141283
0.148826, 0.108325, -0.773821, -0.918485, -1.45725, -0.62692, 1.06999, -0.256711, 0.00459231, 0.0069211, -0.0295594, -0.0211925, -0.00130128, 0.000155036, 0.00103735, 1.11457, 16.6718, 20.0101, 14.8688, 1.31946, 3.57577, -0.0557752, -0.00022942, -0.000133246, -0.000529758, -0.00168405, -0.00612309, 0.00175368, 0.0181349, -0.0287974, 0.0245056, 0.0447893, 0.0374295, 0.138009, -0.0104044, -0.443697, 0.633565, -3.1285, -0.0559224, -0.113072, -0.010676, -0.443578, 0.634078, -3.1306, -0.0536051, -0.103582, 0.0187541, 0.0252732, -0.0376809, -4.69296e-05, -0.00443455, -0.0148192
0.149826, 0.108332, -0.77381, -0.918502, -1.45728, -0.626919, 1.06999, -0.256709, 0.00367713, 0.0096176, -0.029025, -0.0253955, -0.0013087, 0.00118843, 0.00116668, 1.11457, 16.636, 20.0458, 14.8688, 1.33136, 3.54648, -0.0685925, -0.000237882, -0.000107136, -0.000554747, -0.00173605, -0.00624909, 0.00174948, 0.0168604, -0.0288872, 0.0242182, 0.0450909, 0.042586, 0.141833, -0.0103854, -0.443671, 0.633527, -3.12841, -0.0559327, -0.113214, -0.0106664, -0.443579, 0.634064, -3.13057, -0.0536212, -0.103531, 0.0190766, 0.0256403, -0.0382798, 0.00156804, -0.00411074, -0.0156174
0.150826, 0.10834, -0.773798, -0.918548, -1.45735, -0.626923, 1.06999, -0.256713, 0.000525108, 0.0115915, -0.0223708, -0.0292842, -0.00157669, 0.00121766, -0.000215739, 1.18995, 16.7471, 20.2323, 14.7934, 1.36249, 3.52542, -0.0292249, -0.000249978, -7.75195e-05, -0.000561937, -0.00175109, -0.00640435, 0.00174518, 0.0150427, -0.027615, 0.0257184, 0.0488709, 0.0472323, 0.149325, -0.0103662, -0.443645, 0.633489, -3.12833, -0.0559433, -0.113359, -0.0106587, -0.443583, 0.634032, -3.13051, -0.0536394, -0.103434, 0.0194015, 0.0260084, -0.0388819, 0.00354878, -0.00242726, -0.0145835
0.151826, 0.108344, -0.773791, -0.918558, -1.45739, -0.626924, 1.06999, -0.256712, 0.000609774, 0.00805285, -0.0184829, -0.0275985, -0.00172945, 0.000811774, 0.000331058, 1.18995, 16.7828, 20.1926, 14.7577, 1.3808, 3.52542, -0.0420422, -0.000259496, -5.28201e-05, -0.000588361, -0.00180474, -0.006535, 0.00173739, 0.0155386, -0.0273388, 0.0278021, 0.0529354, 0.0430318, 0.153239, -0.0103466, -0.443619, 0.633449, -3.12824, -0.0559541, -0.113506, -0.0106497, -0.443583, 0.634018, -3.13049, -0.0536615, -0.10338, 0.0197288, 0.0263773, -0.039487, 0.00321926, -0.00182722, -0.0131478
0.152826, 0.108344, -0.773791, -0.918558, -1.45739, -0.626924, 1.06999, -0.256712, 0.000609774, 0.00805285, -0.0184829, -0.0275985, -0.00172945, 0.000811774, 0.000331058, 1.18995, 16.7828, 20.1926, 14.7577, 1.3808, 3.52542, -0.0420422, -0.00027731, -2.7426e-05, -0.000629828, -0.0018875, -0.00663373, 0.00174308, 0.0158334, -0.0276883, 0.0284407, 0.054096, 0.0433136, 0.15559, -0.0103267, -0.443593, 0.63341, -3.12815, -0.055965, -0.113655, -0.0106497, -0.443583, 0.634018, -3.13049, -0.0536615, -0.10338, 0.0200585, 0.0267472, -0.0400951, 0.00321926, -0.00182722, -0.0131478
0.153826, 0.108349, -0.773774, -0.918587, -1.45747, -0.626927, 1.06999, -0.256713, 0.000856284, 0.0056472, -0.0164622, -0.0358366, -0.0011418, -0.00226328, -0.000417827, 1.18995, 16.7471, 20.2323, 14.6823, 1.39911, 3.49612, -0.0356336, -0.000281685, -1.01856e-06, -0.000640008, -0.00191041, -0.00680595, 0.00172599, 0.0146119, -0.026575, 0.0267675, 0.0488477, 0.0475889, 0.164983, -0.0103065, -0.443566, 0.633369, -3.12806, -0.0559762, -0.113807, -0.0106337, -0.443582, 0.633987, -3.13043, -0.0537001, -0.103264, 0.0203905, 0.0271178, -0.0407063, 0.00484734, -0.000282957, -0.0153321
0.154826, 0.108345, -0.773768, -0.91861, -1.45751, -0.626927, 1.06999, -0.256715, -0.000247602, 0.00425435, -0.0186905, -0.0388331, -0.00123599, -0.00156552, -0.000990558, 1.22962, 16.7471, 20.3791, 14.6466, 1.41192, 3.48971, -0.0164075, -0.000298657, 2.6584e-05, -0.000663139, -0.00195688, -0.00694458, 0.00172973, 0.0158681, -0.0273121, 0.0259118, 0.0475209, 0.0482534, 0.166623, -0.010286, -0.443538, 0.633328, -3.12796, -0.0559876, -0.113961, -0.0106308, -0.443584, 0.633967, -3.1304, -0.0537054, -0.103204, 0.0207248, 0.0274892, -0.0413204, 0.00401617, -0.000684291, -0.0169024
0.155826, 0.108345, -0.773768, -0.91861, -1.45751, -0.626927, 1.06999, -0.256715, -0.000247602, 0.00425435, -0.0186905, -0.0388331, -0.00123599, -0.00156552, -0.000990558, 1.22962, 16.7471, 20.3791, 14.6466, 1.41192, 3.48971, -0.0164075, -0.00031735, 5.30164e-05, -0.000706549, -0.00204332, -0.00704785, 0.00173577, 0.0161692, -0.0276634, 0.0265602, 0.0486941, 0.0485439, 0.169006, -0.0102651, -0.443511, 0.633287, -3.12787, -0.0559992, -0.114117, -0.0106308, -0.443584, 0.633967, -3.1304, -0.0537054, -0.103204, 0.0210615, 0.0278614, -0.0419374, 0.00401617, -0.000684291, -0.0169024
0.156826, 0.108344, -0.773767, -0.918613, -1.45756, -0.626927, 1.06999, -0.256713, -8.28968e-05, 0.00488138, -0.0133429, -0.0419015, -0.000824041, -0.000992931, -0.000185602, 1.22962, 16.8225, 20.2323, 14.6466, 1.41192, 3.48239, -0.0292249, -0.000326746, 7.72534e-05, -0.000734829, -0.00210205, -0.00718576, 0.00172034, 0.013707, -0.026838, 0.0278506, 0.051958, 0.0506267, 0.176603, -0.0102438, -0.443483, 0.633244, -3.12777, -0.056011, -0.114275, -0.0106202, -0.443581, 0.633952, -3.13037, -0.0537403, -0.103151, 0.0214005, 0.0282343, -0.0425574, 0.00668335, 0.000581854, -0.0160515
0.157826, 0.108339, -0.773751, -0.918643, -1.45766, -0.626931, 1.06999, -0.256711, -0.00407991, 0.0059046, -0.0139471, -0.047183, -0.000954039, 0.000556403, 0.00153387, 1.26533, 16.6718, 20.3077, 14.5355, 1.43573, 3.43936, -0.0750012, -0.000333531, 0.000104278, -0.000741366, -0.00211912, -0.00737667, 0.00170818, 0.0144352, -0.0271492, 0.0270188, 0.0515552, 0.0546989, 0.17548, -0.0102223, -0.443454, 0.633201, -3.12768, -0.0560231, -0.114436, -0.0106049, -0.44358, 0.633915, -3.1303, -0.0537726, -0.103014, 0.0217418, 0.0286079, -0.0431802, 0.00636828, 0.000626622, -0.0175643
0.158826, 0.108347, -0.773748, -0.918651, -1.45771, -0.626935, 1.06999, -0.256711, 0.000592386, 0.0042526, -0.00946424, -0.0494502, -0.00131422, 0.00136297, 0.000310524, 1.11457, 16.6718, 20.268, 14.4601, 1.45404, 3.41006, -0.0557752, -0.000341442, 0.000130631, -0.000768119, -0.00217592, -0.00752568, 0.0016879, 0.0112489, -0.0268425, 0.0281095, 0.0547737, 0.0545425, 0.188192, -0.0102004, -0.443425, 0.633158, -3.12758, -0.0560353, -0.114599, -0.010592, -0.443578, 0.633898, -3.13027, -0.0538158, -0.102948, 0.0220854, 0.0289822, -0.0438058, 0.00979458, 0.00140361, -0.0168696
0.159826, 0.108341, -0.773749, -0.918663, -1.45778, -0.626935, 1.06999, -0.256712, -0.00152893, 0.00307222, -0.00941525, -0.0531024, -0.00043535, 0.0013475, -0.000301594, 1.18995, 16.6718, 20.2323, 14.4601, 1.44214, 3.39633, -0.0420422, -0.000354868, 0.000156647, -0.000791374, -0.00222424, -0.00767566, 0.00167563, 0.0119149, -0.0268281, 0.0276883, 0.0536081, 0.0553736, 0.191444, -0.0101781, -0.443396, 0.633114, -3.12748, -0.0560478, -0.114764, -0.0105839, -0.443575, 0.633875, -3.13023, -0.0538471, -0.102882, 0.0224314, 0.029357, -0.0444342, 0.00950451, 0.00177201, -0.0179708
0.160826, 0.108341, -0.773749, -0.918663, -1.45778, -0.626935, 1.06999, -0.256712, -0.00152893, 0.00307222, -0.00941525, -0.0531024, -0.00043535, 0.0013475, -0.000301594, 1.18995, 16.6718, 20.2323, 14.4601, 1.44214, 3.39633, -0.0420422, -0.000375063, 0.000184816, -0.000838089, -0.00231691, -0.00778664, 0.00168231, 0.0122259, -0.0271815, 0.0283518, 0.0548005, 0.0556789, 0.193879, -0.0101555, -0.443367, 0.633069, -3.12738, -0.0560605, -0.114932, -0.0105839, -0.443575, 0.633875, -3.13023, -0.0538471, -0.102882, 0.0227796, 0.0297325, -0.0450654, 0.00950451, 0.00177201, -0.0179708
0.161826, 0.108338, -0.773747, -0.918686, -1.45789, -0.626935, 1.07, -0.256706, -0.0042451, 0.00384465, -0.0103898, -0.0539599, -0.00109773, 0.00184718, 0.00084932, 1.18995, 16.5646, 20.2323, 14.2737, 1.47876, 3.3533, -0.0621838, -0.000378695, 0.00021125, -0.000842913, -0.00233316, -0.00797781, 0.00165435, 0.0137207, -0.0277465, 0.0286407, 0.0558698, 0.0575904, 0.191837, -0.0101325, -0.443337, 0.633024, -3.12728, -0.0560735, -0.115102, -0.0105641, -0.443572, 0.633834, -3.13016, -0.0539049, -0.102755, 0.0231301, 0.0301084, -0.0456993, 0.00836184, 0.00152395, -0.0184368
0.162826, 0.108343, -0.773753, -0.918698, -1.45796, -0.62694, 1.06999, -0.256709, -0.0013943, 0.00182793, -0.0100872, -0.0574285, -0.00141, 0.00147329, 0.000328862, 1.11457, 16.6003, 20.1926, 14.3094, 1.49707, 3.34598, -0.0557752, -0.000389882, 0.00023852, -0.000865635, -0.00238084, -0.0081374, 0.00162962, 0.0126781, -0.0279168, 0.0281363, 0.0547935, 0.0585948, 0.199517, -0.0101092, -0.443306, 0.632978, -3.12717, -0.0560866, -0.115274, -0.0105527, -0.44357, 0.63381, -3.13012, -0.0539564, -0.102681, 0.0234829, 0.0304849, -0.0463358, 0.00979427, 0.00177087, -0.0195056
0.163826, 0.108337, -0.773758, -0.918712, -1.45803, -0.626942, 1.06999, -0.256707, -0.00525656, -0.00206132, -0.00770229, -0.0621951, -0.00117736, 0.00150265, 0.000219246, 1.15424, 16.6003, 20.1926, 14.3094, 1.50348, 3.33133, -0.0557752, -0.000405223, 0.000266362, -0.000889369, -0.002431, -0.00829452, 0.00161986, 0.0140806, -0.0274785, 0.0280095, 0.0547762, 0.0578091, 0.202622, -0.0100856, -0.443276, 0.632931, -3.12707, -0.0561, -0.115449, -0.0105451, -0.443568, 0.633785, -3.13007, -0.0539847, -0.102614, 0.0238379, 0.0308619, -0.046975, 0.00874227, 0.00253508, -0.0203747
0.164826, 0.108337, -0.773758, -0.918712, -1.45803, -0.626942, 1.06999, -0.256707, -0.00525656, -0.00206132, -0.00770229, -0.0621951, -0.00117736, 0.00150265, 0.000219246, 1.07887, 16.5646, 20.1926, 14.2737, 1.50348, 3.31759, -0.00267457, -0.000426652, 0.000295926, -0.000938787, -0.00252872, -0.00841179, 0.00162707, 0.0144003, -0.0278316, 0.0286847, 0.0559823, 0.0581253, 0.205097, -0.0100616, -0.443245, 0.632884, -3.12696, -0.0561137, -0.115626, -0.0105451, -0.443568, 0.633785, -3.13007, -0.0539847, -0.102614, 0.0241952, 0.0312393, -0.0476168, 0.00874138, 0.00253638, -0.0203752
0.165826, 0.108339, -0.773765, -0.91874, -1.45818, -0.626942, 1.06999, -0.256708, -0.00179399, -0.00672573, -0.011484, -0.0661631, -0.000760636, 0.00152601, 7.02593e-06, 1.07887, 16.5646, 20.1212, 14.3094, 1.50989, 3.30295, -0.0356336, -0.000428638, 0.000322633, -0.000935196, -0.00252623, -0.00862129, 0.00157802, 0.0149305, -0.028828, 0.0268021, 0.0517881, 0.0562643, 0.210607, -0.0100372, -0.443213, 0.632836, -3.12686, -0.0561275, -0.115806, -0.0105216, -0.443563, 0.633733, -3.12998, -0.0540773, -0.102467, 0.0245547, 0.0316171, -0.0482612, 0.00874477, 0.001922, -0.0229517
0.166826, 0.108342, -0.773774, -0.918746, -1.45825, -0.626942, 1.06999, -0.256704, 0.000315816, -0.00937809, -0.00526632, -0.0666251, -0.000269734, 0.00127929, 0.00122539, 1.00349, 16.6003, 19.9705, 14.234, 1.50348, 3.29562, -0.0685925, -0.000439476, 0.000349752, -0.000962352, -0.00258182, -0.00877986, 0.00155463, 0.0129505, -0.0279621, 0.0289093, 0.05599, 0.0537462, 0.219209, -0.0100124, -0.443182, 0.632787, -3.12675, -0.0561417, -0.115988, -0.0105088, -0.44356, 0.63371, -3.12994, -0.0541274, -0.102405, 0.0249165, 0.0319953, -0.0489081, 0.0108902, 0.00320425, -0.0213458
0.167826, 0.108336, -0.77378, -0.918762, -1.45833, -0.626939, 1.07, -0.256704, -0.000813246, -0.00617495, -0.0106279, -0.0717035, -0.000417183, 0.00162577, 0.000816928, 1.03919, 16.5646, 19.9705, 14.234, 1.50989, 3.27456, -0.0685925, -0.000454907, 0.000378842, -0.000986041, -0.00263077, -0.00894386, 0.00153978, 0.0134846, -0.0290229, 0.0267067, 0.0515828, 0.0607455, 0.219415, -0.00998734, -0.443149, 0.632738, -3.12664, -0.056156, -0.116172, -0.0104999, -0.443557, 0.633683, -3.12989, -0.0541648, -0.102336, 0.0252805, 0.0323738, -0.0495576, 0.0109204, 0.00253075, -0.0242476
0.168826, 0.108336, -0.77378, -0.918762, -1.45833, -0.626939, 1.07, -0.256704, -0.000813246, -0.00617495, -0.0106279, -0.0717035, -0.000417183, 0.00162577, 0.000816928, 1.03919, 16.5646, 19.9705, 14.234, 1.50989, 3.27456, -0.0685925, -0.0004776, 0.0004098, -0.00103821, -0.0027336, -0.00906753, 0.00154755, 0.0138113, -0.0293781, 0.0273937, 0.0528017, 0.0610744, 0.221925, -0.00996188, -0.443117, 0.632688, -3.12652, -0.0561706, -0.116359, -0.0104999, -0.443557, 0.633683, -3.12989, -0.0541648, -0.102336, 0.0256467, 0.0327526, -0.0502094, 0.0109204, 0.00253075, -0.0242476
0.169826, 0.108338, -0.773795, -0.918789, -1.45849, -0.626939, 1.07, -0.256712, 0.00144891, -0.00998051, -0.0109488, -0.0772681, 0.000809231, 0.00185673, -0.0015923, 0.928108, 16.4893, 19.784, 14.234, 1.47876, 3.23886, 0.00373412, -0.000479817, 0.000437482, -0.0010341, -0.00273232, -0.00928087, 0.00148398, 0.0129918, -0.0294986, 0.0260946, 0.0499138, 0.060246, 0.232312, -0.00993605, -0.443084, 0.632638, -3.12641, -0.0561854, -0.116548, -0.0104751, -0.443552, 0.633628, -3.12979, -0.0542809, -0.102193, 0.0260151, 0.0331317, -0.0508638, 0.0122036, 0.0028334, -0.0261426
0.170826, 0.10834, -0.77381, -0.918808, -1.45857, -0.626935, 1.07, -0.256705, 0.00264962, -0.0145758, -0.0149609, -0.0800736, 0.000742937, 0.00150614, 0.00114251, 0.85273, 16.4893, 19.784, 14.234, 1.47327, 3.23153, -0.0557752, -0.000495128, 0.000467956, -0.00105639, -0.00277696, -0.00944489, 0.00146732, 0.014959, -0.0305368, 0.0245627, 0.0463004, 0.0582445, 0.231664, -0.00990985, -0.44305, 0.632586, -3.1263, -0.0562005, -0.11674, -0.0104648, -0.44355, 0.633597, -3.12973, -0.0543222, -0.102131, 0.0263857, 0.0335111, -0.0515205, 0.0107628, 0.00212417, -0.0284906
0.171826, 0.108337, -0.77382, -0.918822, -1.45865, -0.626935, 1.07, -0.256703, 0.00170675, -0.0128848, -0.0128729, -0.081194, 0.00029184, 0.00154442, 0.00147375, 0.85273, 16.4178, 19.7086, 14.1983, 1.47876, 3.21689, -0.0750012, -0.000511093, 0.000498138, -0.00108194, -0.00283031, -0.00961492, 0.00145009, 0.0143742, -0.0304124, 0.0255979, 0.0486759, 0.0612264, 0.234868, -0.00988328, -0.443017, 0.632535, -3.12618, -0.0562158, -0.116934, -0.010455, -0.443548, 0.633569, -3.12968, -0.0543642, -0.102063, 0.0267585, 0.0338906, -0.0521796, 0.0116344, 0.00263139, -0.0280777
0.172826, 0.108339, -0.773833, -0.918839, -1.45874, -0.626935, 1.07, -0.25671, 0.00285632, -0.0124983, -0.0154906, -0.083051, 0.00111009, 0.00157049, -0.00118764, 0.777352, 16.3782, 19.6729, 14.1983, 1.45404, 3.20224, -0.0164075, -0.000526218, 0.000528602, -0.00110544, -0.00287742, -0.00978917, 0.00141907, 0.0143872, -0.0310932, 0.024965, 0.0467744, 0.062668, 0.240561, -0.00985633, -0.442983, 0.632482, -3.12606, -0.0562314, -0.11713, -0.0104439, -0.443545, 0.633539, -3.12962, -0.0544283, -0.101991, 0.0271335, 0.0342704, -0.052841, 0.0120658, 0.00233644, -0.0293843
0.173826, 0.108338, -0.773853, -0.91885, -1.45883, -0.626937, 1.07, -0.25671, 0.00279867, -0.012251, -0.0148149, -0.0829967, 0.00026534, 0.00104575, -0.0017751, 0.737679, 16.3425, 19.5261, 14.2737, 1.46686, 3.20224, 0.0101428, -0.00054213, 0.000558378, -0.00112927, -0.00292721, -0.0099635, 0.00139107, 0.0146888, -0.0313124, 0.0258389, 0.0484183, 0.0641053, 0.243722, -0.00982901, -0.442948, 0.632429, -3.12594, -0.0562473, -0.117329, -0.0104333, -0.443542, 0.633508, -3.12957, -0.0544878, -0.101921, 0.0275107, 0.0346502, -0.0535047, 0.0120825, 0.00247113, -0.0292074
0.174826, 0.108338, -0.773865, -0.918869, -1.45892, -0.626938, 1.07, -0.256706, 0.00267583, -0.0137435, -0.0178876, -0.0870645, 0.000176893, 0.00120486, -0.000200057, 0.701973, 16.2314, 19.5261, 14.2737, 1.46686, 3.18851, -0.0164075, -0.000558977, 0.000589684, -0.00115172, -0.00297187, -0.0101456, 0.00137347, 0.0156947, -0.0320818, 0.0243944, 0.0454809, 0.0657406, 0.244283, -0.00980131, -0.442913, 0.632375, -3.12582, -0.0562634, -0.117531, -0.0104231, -0.443539, 0.633474, -3.12951, -0.0545318, -0.101842, 0.02789, 0.0350302, -0.0541706, 0.0115929, 0.00206448, -0.031404
0.175826, 0.108335, -0.773881, -0.918881, -1.45901, -0.626932, 1.07, -0.256707, 0.00269303, -0.0140958, -0.0173077, -0.0841941, 0.00103346, 0.00134508, 0.000341347, 0.6623, 16.0846, 19.4111, 14.2737, 1.44214, 3.17386, -0.0292249, -0.00057431, 0.000619626, -0.00117831, -0.00302418, -0.0103181, 0.00134444, 0.0163534, -0.0324333, 0.0261411, 0.0484201, 0.0631299, 0.245715, -0.00977323, -0.442878, 0.63232, -3.1257, -0.0562797, -0.117734, -0.0104113, -0.443535, 0.633445, -3.12945, -0.0545934, -0.10178, 0.0282715, 0.0354102, -0.0548388, 0.0111973, 0.00204166, -0.0303905
0.176826, 0.108335, -0.773881, -0.918881, -1.45901, -0.626932, 1.07, -0.256707, 0.00269303, -0.0140958, -0.0173077, -0.0841941, 0.00103346, 0.00134508, 0.000341347, 0.6623, 16.0846, 19.4111, 14.2737, 1.44214, 3.17386, -0.0292249, -0.000599611, 0.000653367, -0.00123613, -0.00313737, -0.0104548, 0.0013534, 0.0166952, -0.032788, 0.0268498, 0.04966, 0.0634829, 0.248292, -0.00974476, -0.442843, 0.632265, -3.12558, -0.0562963, -0.117941, -0.0104113, -0.443535, 0.633445, -3.12945, -0.0545934, -0.10178, 0.0286551, 0.0357903, -0.0555092, 0.0111973, 0.00204166, -0.0303905
0.177826, 0.108328, -0.773924, -0.918909, -1.4592, -0.626932, 1.07, -0.256705, -0.00146383, -0.020613, -0.018558, -0.089625, 0.000753187, 0.00119612, -0.00057167, 0.6623, 15.9378, 19.2643, 14.3094, 1.43024, 3.1528, -0.0228162, -0.000611896, 0.000682555, -0.00122781, -0.00312728, -0.0106737, 0.00129732, 0.020213, -0.0330881, 0.0254386, 0.0468675, 0.0611946, 0.24936, -0.00971592, -0.442807, 0.632209, -3.12545, -0.0563132, -0.11815, -0.0103931, -0.443528, 0.633379, -3.12933, -0.0547006, -0.101647, 0.0290408, 0.0361704, -0.0561817, 0.00819186, 0.00201475, -0.0327464
0.178826, 0.108333, -0.773949, -0.918926, -1.45929, -0.626932, 1.07, -0.256711, -0.000791546, -0.0245815, -0.0174626, -0.0923479, -0.000176044, 0.00188219, -0.00136446, 0.511544, 15.8624, 19.2643, 14.3094, 1.44855, 3.1235, 0.00373412, -0.000628823, 0.000715059, -0.00125146, -0.00317544, -0.0108525, 0.00125881, 0.0206605, -0.0333975, 0.0255255, 0.0479602, 0.0596991, 0.255221, -0.00968668, -0.44277, 0.632153, -3.12533, -0.0563304, -0.118361, -0.0103815, -0.443526, 0.633344, -3.12927, -0.054778, -0.101583, 0.0294287, 0.0365505, -0.0568564, 0.0081359, 0.00206533, -0.033379
0.179826, 0.108327, -0.773971, -0.918937, -1.4594, -0.626929, 1.07, -0.256706, -0.000942755, -0.0224309, -0.0148409, -0.100008, 0.000560806, -0.00339659, -0.000163653, 0.511544, 15.7156, 19.1889, 14.4205, 1.43024, 3.1235, -0.0164075, -0.000645089, 0.000744468, -0.0012735, -0.0032175, -0.0110455, 0.00122938, 0.0184235, -0.0316776, 0.0242454, 0.0418971, 0.0691966, 0.26269, -0.00965706, -0.442734, 0.632096, -3.1252, -0.0563478, -0.118575, -0.0103688, -0.443519, 0.633307, -3.1292, -0.0548421, -0.101499, 0.0298187, 0.0369305, -0.0575331, 0.0107861, 0.00425937, -0.0351481
0.180826, 0.108327, -0.773971, -0.918937, -1.4594, -0.626929, 1.07, -0.256706, -0.000942755, -0.0224309, -0.0148409, -0.100008, 0.000560806, -0.00339659, -0.000163653, 0.511544, 15.7156, 19.1889, 14.4205, 1.43024, 3.1235, -0.0164075, -0.000671733, 0.000779592, -0.00133421, -0.00333594, -0.0111889, 0.00123898, 0.0187728, -0.0320315, 0.024964, 0.0431452, 0.069562, 0.265296, -0.00962704, -0.442696, 0.632038, -3.12507, -0.0563654, -0.118791, -0.0103688, -0.443519, 0.633307, -3.1292, -0.0548421, -0.101499, 0.0302108, 0.0373105, -0.0582119, 0.0107861, 0.00425937, -0.0351481
0.181826, 0.10832, -0.774002, -0.91895, -1.4595, -0.626929, 1.07, -0.256698, -0.00186782, -0.0260433, -0.012838, -0.0983642, 0.000611229, -0.00214353, 0.0022984, 0.551216, 15.6442, 19.1135, 14.3491, 1.42383, 3.10977, -0.0814099, -0.000694769, 0.00081191, -0.00136062, -0.0033895, -0.0113677, 0.00122203, 0.0201714, -0.0323708, 0.0267664, 0.0474874, 0.0644942, 0.265265, -0.00959664, -0.442659, 0.631979, -3.12494, -0.0563834, -0.11901, -0.0103624, -0.443516, 0.633273, -3.12913, -0.0548867, -0.101443, 0.0306049, 0.0376903, -0.0588927, 0.00965984, 0.00421988, -0.0341496
0.182826, 0.108309, -0.774061, -0.918971, -1.45972, -0.626926, 1.07, -0.256704, -0.00109827, -0.029936, -0.0118086, -0.100546, 0.000949826, -0.00118383, -0.00140859, 0.436165, 15.4578, 18.9667, 14.3848, 1.40552, 3.10245, 0.00373412, -0.000707558, 0.000839547, -0.00134991, -0.00337351, -0.0115928, 0.00114243, 0.0204149, -0.0326269, 0.0270304, 0.0485076, 0.0616555, 0.274448, -0.00956583, -0.442621, 0.63192, -3.12481, -0.0564016, -0.119232, -0.0103427, -0.443506, 0.633201, -3.129, -0.0550322, -0.101313, 0.0310012, 0.03807, -0.0595756, 0.00979978, 0.00432748, -0.0345983
0.183826, 0.108312, -0.774092, -0.918986, -1.45982, -0.626926, 1.06999, -0.256705, -0.00381976, -0.0307729, -0.0101699, -0.0996856, 0.000633217, -0.000139008, -0.000430436, 0.285408, 15.3467, 19.0024, 14.3491, 1.40552, 3.08047, -0.00999879, -0.000726899, 0.000872928, -0.00137494, -0.00342375, -0.0117808, 0.00110757, 0.02182, -0.0328824, 0.028635, 0.0524849, 0.0602559, 0.274054, -0.00953463, -0.442583, 0.63186, -3.12467, -0.0564201, -0.119456, -0.0103316, -0.443502, 0.633164, -3.12893, -0.0551055, -0.101247, 0.0313996, 0.0384495, -0.0602603, 0.00868233, 0.00437341, -0.0338014
0.184826, 0.108298, -0.77413, -0.918994, -1.45994, -0.626923, 1.06999, -0.2567, -0.00731192, -0.0332039, -0.0102731, -0.107822, 0.000422145, 0.000293264, 0.00164582, 0.325081, 15.311, 18.9667, 14.4205, 1.40552, 3.06674, -0.0621838, -0.00075126, 0.000903593, -0.00139971, -0.00347186, -0.0119676, 0.00108251, 0.022817, -0.0328184, 0.0269066, 0.0496663, 0.0634301, 0.275118, -0.00950303, -0.442544, 0.6318, -3.12454, -0.0564389, -0.119682, -0.0103252, -0.443496, 0.633126, -3.12886, -0.0551639, -0.101186, 0.0318, 0.0388288, -0.060947, 0.00821542, 0.00480453, -0.0362946
0.185826, 0.108291, -0.774158, -0.919004, -1.46005, -0.626924, 1.06999, -0.256703, -0.0069948, -0.0280199, -0.0101533, -0.111644, 0.000756148, 0.000374759, 0.000113871, 0.245735, 15.1285, 18.9271, 14.4205, 1.3927, 3.05942, -0.0356336, -0.000771141, 0.000935745, -0.0014258, -0.0035254, -0.0121664, 0.00104582, 0.02057, -0.0327798, 0.0266724, 0.0491313, 0.0711908, 0.281776, -0.00947103, -0.442505, 0.631738, -3.1244, -0.0564579, -0.119911, -0.010314, -0.44349, 0.633088, -3.12879, -0.0552407, -0.101109, 0.0322025, 0.0392079, -0.0616356, 0.0108703, 0.00530207, -0.0370513
0.186826, 0.108273, -0.774197, -0.919012, -1.46017, -0.626924, 1.06999, -0.256704, -0.0104699, -0.0344036, -0.00701423, -0.115121, 0.000707549, -0.00371348, -0.00138215, 0.325081, 15.0888, 18.8913, 14.4205, 1.38721, 3.03744, 0.00373412, -0.000797125, 0.000967132, -0.00145007, -0.00357512, -0.0123625, 0.00101642, 0.0231155, -0.0316184, 0.0267571, 0.0467318, 0.069414, 0.286612, -0.00943863, -0.442466, 0.631676, -3.12426, -0.0564773, -0.120143, -0.0103084, -0.443483, 0.633048, -3.12872, -0.0553065, -0.101038, 0.032607, 0.0395867, -0.062326, 0.00868638, 0.00674599, -0.0378458
0.187826, 0.108269, -0.774231, -0.919017, -1.4603, -0.62692, 1.06999, -0.256702, -0.0105232, -0.0350546, -0.00465138, -0.117471, 0.000709058, -0.00745154, -0.000684073, 0.170357, 15.0174, 18.8556, 14.4205, 1.3808, 3.03012, -0.00267457, -0.000813563, 0.000998148, -0.0014746, -0.00362447, -0.0125634, 0.000970641, 0.0228512, -0.0306969, 0.0270861, 0.0449347, 0.0724778, 0.291496, -0.00940582, -0.442426, 0.631614, -3.12412, -0.0564969, -0.120377, -0.0102929, -0.443476, 0.633008, -3.12865, -0.0553981, -0.100963, 0.0330136, 0.0399652, -0.0630183, 0.0092942, 0.00804569, -0.0381853
0.188826, 0.108269, -0.774231, -0.919017, -1.4603, -0.62692, 1.06999, -0.256702, -0.0105232, -0.0350546, -0.00465138, -0.117471, 0.000709058, -0.00745154, -0.000684073, 0.21003, 14.8706, 18.8556, 14.4205, 1.3689, 3.02371, -0.0484509, -0.000842966, 0.00103601, -0.00154122, -0.00375348, -0.0127204, 0.000981598, 0.0232149, -0.0310428, 0.0278231, 0.0461963, 0.0728668, 0.294158, -0.0093726, -0.442386, 0.63155, -3.12398, -0.0565168, -0.120614, -0.0102929, -0.443476, 0.633008, -3.12865, -0.0553981, -0.100963, 0.0334222, 0.0403434, -0.0637123, 0.00929335, 0.00804968, -0.0381853
0.189826, 0.10824, -0.774298, -0.919025, -1.46055, -0.626918, 1.06999, -0.256699, -0.0138706, -0.0344894, -0.00614614, -0.121122, 0.00060901, -0.00310737, 0.00035153, 0.170357, 14.7952, 18.8556, 14.4205, 1.3689, 2.99441, -0.0356336, -0.000855591, 0.00106047, -0.00152602, -0.00372985, -0.0129778, 0.000898332, 0.0241797, -0.0321539, 0.0275334, 0.0485414, 0.0741376, 0.293141, -0.00933897, -0.442345, 0.631486, -3.12384, -0.056537, -0.120853, -0.01027, -0.44346, 0.632927, -3.1285, -0.0555524, -0.1008, 0.0338328, 0.0407212, -0.0644081, 0.00880242, 0.00728374, -0.0392678
0.190826, 0.108225, -0.774332, -0.919027, -1.46069, -0.626918, 1.06999, -0.256699, -0.0168811, -0.0350414, -0.00470748, -0.126356, 0.000202556, -0.00248408, -3.00544e-06, 0.170357, 14.7198, 18.8556, 14.4601, 1.37439, 2.99441, -0.0292249, -0.000875873, 0.00109069, -0.00155106, -0.00378025, -0.0131955, 0.000856991, 0.0245199, -0.0319914, 0.0272086, 0.0486956, 0.0773085, 0.296741, -0.00930493, -0.442304, 0.631421, -3.1237, -0.0565575, -0.121095, -0.0102572, -0.443451, 0.632885, -3.12842, -0.0556383, -0.100706, 0.0342455, 0.0410986, -0.0651057, 0.00889194, 0.00781295, -0.0403217
0.191826, 0.108211, -0.774373, -0.91903, -1.46082, -0.626918, 1.06999, -0.2567, -0.015091, -0.0381321, 0.00188744, -0.129317, 0.00488138, -0.00118553, -0.000476722, 0.134651, 14.7595, 18.8913, 14.4601, 1.37439, 2.97336, -0.0164075, -0.000898213, 0.00112274, -0.00157709, -0.00383519, -0.0134032, 0.000814347, 0.0212338, -0.0306895, 0.028823, 0.0512404, 0.072121, 0.310488, -0.00927048, -0.442263, 0.631356, -3.12355, -0.0565783, -0.121339, -0.010246, -0.443443, 0.632843, -3.12835, -0.0557262, -0.100631, 0.0346601, 0.0414756, -0.0658049, 0.0124048, 0.00957701, -0.0391466
0.192826, 0.108211, -0.774373, -0.91903, -1.46082, -0.626918, 1.06999, -0.2567, -0.015091, -0.0381321, 0.00188744, -0.129317, 0.00488138, -0.00118553, -0.000476722, 0.134651, 14.7595, 18.8913, 14.4601, 1.37439, 2.97336, -0.0164075, -0.00092903, 0.00116195, -0.00164674, -0.00396953, -0.013567, 0.000826027, 0.0216033, -0.0310367, 0.0295678, 0.0525049, 0.0725244, 0.313172, -0.00923561, -0.442221, 0.63129, -3.1234, -0.0565994, -0.121587, -0.010246, -0.443443, 0.632843, -3.12835, -0.0557262, -0.100631, 0.0350768, 0.0418522, -0.0665058, 0.0124048, 0.00957701, -0.0391466
0.193826, 0.108191, -0.774401, -0.919025, -1.46097, -0.626915, 1.06998, -0.256705, -0.0176909, -0.0367258, 0.0022769, -0.13522, 0.00364978, -0.000751118, -0.00177588, 0.134651, 14.6484, 18.8556, 14.4958, 1.37439, 2.96603, 0.0229602, -0.0009459, 0.00119088, -0.00167259, -0.00402104, -0.0137988, 0.000773616, 0.0215612, -0.0310621, 0.0287873, 0.0519212, 0.0788667, 0.317272, -0.00920033, -0.442179, 0.631223, -3.12326, -0.0566208, -0.121836, -0.0102287, -0.443431, 0.6328, -3.12827, -0.0558304, -0.100524, 0.0354954, 0.0422282, -0.0672083, 0.0129231, 0.00993799, -0.0406323
0.194826, 0.108156, -0.774478, -0.919022, -1.46127, -0.626916, 1.06998, -0.256697, -0.0213435, -0.0368011, 0.00464819, -0.142997, 0.0013529, -0.000942052, 0.00089484, 0.134651, 14.6841, 18.8556, 14.5712, 1.39911, 2.97336, -0.0420422, -0.00095562, 0.00121207, -0.00165183, -0.00398701, -0.0140862, 0.00067544, 0.0216855, -0.0305951, 0.0279218, 0.0515036, 0.0859891, 0.318319, -0.00916462, -0.442137, 0.631155, -3.12311, -0.0566425, -0.122088, -0.0102005, -0.44341, 0.63271, -3.12811, -0.0560104, -0.100327, 0.0359161, 0.0426038, -0.0679124, 0.0132662, 0.0107863, -0.0422106
0.195826, 0.10814, -0.774511, -0.91902, -1.46142, -0.626915, 1.06998, -0.256697, -0.0205465, -0.0372896, 0.00260453, -0.145954, 0.00130616, -0.00099719, 0.00059656, 0.059273, 14.6484, 18.8913, 14.6069, 1.3927, 2.98068, -0.0420422, -0.000972574, 0.00124227, -0.00167652, -0.00403758, -0.0143227, 0.000623207, 0.0219329, -0.0311791, 0.0271411, 0.0496824, 0.0880173, 0.322035, -0.00912849, -0.442094, 0.631087, -3.12296, -0.0566645, -0.122343, -0.0101823, -0.443399, 0.632664, -3.12803, -0.0561151, -0.100217, 0.0363387, 0.0429789, -0.068618, 0.0135212, 0.0105782, -0.0437305
0.196826, 0.108122, -0.774546, -0.919016, -1.46158, -0.626915, 1.06997, -0.256703, -0.0208639, -0.0350733, 0.00515629, -0.148947, 0.000995919, -0.000738209, -0.00153507, 0.0196001, 14.6484, 18.8913, 14.6823, 1.3927, 2.98068, 0.0101428, -0.000990459, 0.00127225, -0.00170144, -0.0040878, -0.0145615, 0.000564513, 0.0203753, -0.0308639, 0.0277972, 0.0514553, 0.0926114, 0.32986, -0.00909194, -0.442051, 0.631018, -3.1228, -0.0566868, -0.122601, -0.0101647, -0.443387, 0.632618, -3.12794, -0.0562302, -0.100107, 0.0367632, 0.0433533, -0.0693252, 0.0154311, 0.0113077, -0.0436651
0.197826, 0.108106, -0.774586, -0.919009, -1.46173, -0.626913, 1.06997, -0.256703, -0.0140679, -0.0350035, 0.00565623, -0.151895, 0.00143597, -0.00493619, -0.00102338, -0.0557783, 14.7198, 18.816, 14.6823, 1.37439, 2.97336, 0.0101428, -0.00100877, 0.00130201, -0.00172805, -0.00414056, -0.0147947, 0.000508426, 0.0173356, -0.0302914, 0.0271842, 0.0471022, 0.0968873, 0.340894, -0.00905497, -0.442007, 0.630949, -3.12265, -0.0567094, -0.122861, -0.0101471, -0.443374, 0.632573, -3.12786, -0.0563415, -0.100008, 0.0371897, 0.0437272, -0.0700339, 0.0189092, 0.0123684, -0.0447451
0.198826, 0.108084, -0.774621, -0.919002, -1.46189, -0.626911, 1.06996, -0.256698, -0.0160041, -0.036477, 0.00578286, -0.152517, 0.000790353, -0.00422907, 0.00101317, -0.0914839, 14.7198, 18.7446, 14.722, 1.3808, 2.98709, -0.0356336, -0.00102694, 0.00133075, -0.00175391, -0.00419015, -0.0150395, 0.000459, 0.0189003, -0.0307487, 0.0278643, 0.0490592, 0.0963616, 0.339756, -0.00901756, -0.441964, 0.630878, -3.12249, -0.0567323, -0.123123, -0.0101291, -0.443361, 0.632526, -3.12777, -0.0564431, -0.0998927, 0.0376182, 0.0441005, -0.0707441, 0.0177387, 0.0122129, -0.0449155
0.199826, 0.108057, -0.774654, -0.918999, -1.46205, -0.626906, 1.06996, -0.256697, -0.0193768, -0.0366417, 0.00411144, -0.153478, 0.00173259, -0.00760494, 0.00115016, -0.0557783, 14.6841, 18.7446, 14.6466, 1.34967, 2.98068, -0.0484509, -0.00104915, 0.00136095, -0.00178121, -0.00424235, -0.015283, 0.000416935, 0.0213466, -0.0305455, 0.0276718, 0.045616, 0.0982804, 0.338609, -0.00897973, -0.441919, 0.630807, -3.12233, -0.0567555, -0.123389, -0.0101146, -0.443348, 0.632479, -3.12769, -0.0565334, -0.0997827, 0.0380486, 0.0444731, -0.0714557, 0.0157359, 0.0127005, -0.0460178
0.200826, 0.108034, -0.774697, -0.918988, -1.46221, -0.626905, 1.06996, -0.256696, -0.0200587, -0.0369797, 0.00469635, -0.156072, 0.0013981, -0.00516083, -0.000182661, -0.0914839, 14.7952, 18.6692, 14.6466, 1.34418, 2.96603, -0.0228162, -0.00106841, 0.00139086, -0.00180795, -0.00429877, -0.0155253, 0.000359702, 0.0212195, -0.031079, 0.0280228, 0.0480911, 0.0990723, 0.343609, -0.00894147, -0.441875, 0.630735, -3.12218, -0.056779, -0.123657, -0.0100968, -0.443335, 0.632432, -3.1276, -0.0566475, -0.0996776, 0.0384809, 0.044845, -0.0721687, 0.0162832, 0.0125335, -0.0463875
0.201826, 0.108014, -0.774734, -0.918984, -1.46239, -0.6269, 1.06995, -0.2567, -0.0193443, -0.0344333, 0.00420303, -0.161305, 0.00163994, -0.00364434, -0.0018172, -0.166862, 14.7952, 18.6295, 14.6466, 1.32587, 2.95871, 0.0229602, -0.00108609, 0.00142034, -0.00183212, -0.0043433, -0.0157777, 0.000296191, 0.0194062, -0.0313991, 0.0272262, 0.0474367, 0.104564, 0.351072, -0.00890277, -0.44183, 0.630663, -3.12202, -0.0568029, -0.123927, -0.0100768, -0.44332, 0.632381, -3.12751, -0.0567724, -0.0995587, 0.0389151, 0.0452163, -0.0728831, 0.0185947, 0.0126594, -0.0477653
0.202826, 0.107988, -0.774772, -0.918976, -1.46256, -0.626896, 1.06995, -0.256696, -0.0178805, -0.0333839, 0.00374532, -0.164609, 0.00203109, -0.00224331, 9.23974e-06, -0.166862, 14.8309, 18.5938, 14.6466, 1.30115, 2.94406, -0.00999879, -0.0011044, 0.00144959, -0.00185584, -0.0043897, -0.0160356, 0.000240866, 0.0180814, -0.0318436, 0.0269475, 0.0475883, 0.107252, 0.354953, -0.00886363, -0.441784, 0.630589, -3.12185, -0.0568271, -0.1242, -0.010057, -0.443306, 0.632329, -3.12741, -0.0568849, -0.0994341, 0.0393512, 0.0455868, -0.0735988, 0.0203854, 0.0126339, -0.0486685
0.203826, 0.107966, -0.774813, -0.91897, -1.46274, -0.626891, 1.06995, -0.256697, -0.0212724, -0.0327432, 0.00653105, -0.169832, 0.00184548, -0.000711596, -0.000265108, -0.242241, 14.8706, 18.5581, 14.6069, 1.28833, 2.91568, -0.00267457, -0.00112185, 0.00147964, -0.00187945, -0.0044365, -0.0162929, 0.000177276, 0.0176797, -0.0315087, 0.0271548, 0.049425, 0.11097, 0.359277, -0.00882406, -0.441738, 0.630515, -3.12169, -0.0568516, -0.124476, -0.0100358, -0.443291, 0.632276, -3.12731, -0.0570105, -0.0993133, 0.0397893, 0.0459565, -0.0743159, 0.021191, 0.0133444, -0.0491501
0.204826, 0.107937, -0.774851, -0.918959, -1.46293, -0.626886, 1.06994, -0.256693, -0.0255303, -0.0348312, 0.0064379, -0.173806, 0.00619638, 0.000376351, 0.00104396, -0.242241, 14.8706, 18.4827, 14.5712, 1.28284, 2.8873, -0.0356336, -0.00113977, 0.00150883, -0.00190482, -0.00448725, -0.0165549, 0.000119855, 0.0188351, -0.0312474, 0.0268274, 0.0475788, 0.108047, 0.360512, -0.00878406, -0.441692, 0.630441, -3.12153, -0.0568764, -0.124755, -0.0100149, -0.443276, 0.632224, -3.12722, -0.0571269, -0.0991878, 0.0402292, 0.0463255, -0.0750342, 0.0204926, 0.013935, -0.0502917
0.205826, 0.107906, -0.774894, -0.918948, -1.46311, -0.62688, 1.06994, -0.256701, -0.0286543, -0.0372139, 0.00546042, -0.175716, 0.00501087, -0.00402625, -0.000762086, -0.242241, 14.9063, 18.443, 14.4958, 1.27002, 2.87265, 0.00373412, -0.00116124, 0.00153751, -0.00193121, -0.00453594, -0.0168141, 5.41783e-05, 0.0219621, -0.0309572, 0.0263847, 0.0439227, 0.110501, 0.361581, -0.00874361, -0.441646, 0.630365, -3.12136, -0.0569015, -0.125036, -0.00999715, -0.443259, 0.632173, -3.12712, -0.0572565, -0.0990696, 0.040671, 0.0466936, -0.0757538, 0.0178402, 0.0144854, -0.0517076
0.206826, 0.107882, -0.774945, -0.918944, -1.46329, -0.626877, 1.06993, -0.256702, -0.0261438, -0.0441627, 0.00601873, -0.179295, 0.00408532, -0.00773865, -0.00145749, -0.317619, 15.0174, 18.4827, 14.4958, 1.25812, 2.86532, 0.0293689, -0.0011847, 0.00156859, -0.00195512, -0.00458128, -0.0170711, -6.02295e-06, 0.0230205, -0.0306098, 0.0255688, 0.0400763, 0.108961, 0.369353, -0.00870271, -0.441599, 0.630289, -3.12119, -0.056927, -0.12532, -0.00998068, -0.443245, 0.632118, -3.12702, -0.0573781, -0.0989573, 0.0411146, 0.0470609, -0.0764746, 0.0172781, 0.015173, -0.0533304
0.207826, 0.107851, -0.774979, -0.918935, -1.46348, -0.626874, 1.06993, -0.2567, -0.0291644, -0.0432472, 0.00843825, -0.181625, 0.00271413, -0.00515759, -0.000734303, -0.317619, 14.8706, 18.443, 14.4958, 1.26453, 2.84427, 0.0229602, -0.0012029, 0.00159833, -0.00197982, -0.00463051, -0.0173505, -6.47999e-05, 0.0232055, -0.0308469, 0.0266634, 0.0447406, 0.111463, 0.370752, -0.00866138, -0.441552, 0.630212, -3.12102, -0.0569528, -0.125606, -0.00995865, -0.443229, 0.632063, -3.12692, -0.0574981, -0.0988128, 0.0415602, 0.0474273, -0.0771966, 0.0174571, 0.0152709, -0.0529897
