alisrour97/Franka_experiments/Real_Robot_scripts/servo-franka/Data4/log_dyn_INITw_ki_11.csv
Time,q1,q2,q3,q4,q5,q6,q7,dq1,dq2,dq3,dq4,dq5,dq6,dq7,t1,t2,t3,t4,t5,t6,t7,ex1,ex2,ex3,ex4,ex5,ex6,ev1,ev2,ev3,ev4,ev5,ev6,xd,yd,zd,uxd,uyd,uzd,x,y,z,ux,uy,uz,vxd,vyd,vzd,vx,vy,vz
9.76563e-07, 0.107595, -0.774218, -0.917114, -1.45763, -0.625427, 1.07008, -0.256717, -0.000675293, -0.0133658, 0.00329752, 0.00342823, 0.00310232, 0.000672124, -0.00135193, -0.0914839, 16.9693, 21.7597, 18.2648, 1.25171, 3.50345, -0.180287, 0.000788626, -0.0015743, 0.000708958, 0.00131744, -0.0010693, 0.000340166, 0.00333225, 0.000379592, 0.0015695, 0.00233545, -0.0184085, 0.00293943, -0.011112, -0.444721, 0.635038, -3.13187, -0.0555627, -0.107532, -0.0103237, -0.443113, 0.634394, -3.13062, -0.0555291, -0.105729, 0, 0, 0, -0.00344326, 0.000248636, 0.00133919
0.0122546, 0.107604, -0.774272, -0.91711, -1.4576, -0.625416, 1.07008, -0.256718, 0.00175646, -0.00873844, 0.000261079, 0.00392614, -0.00019968, 0.000260124, 0.00179588, -0.131157, 16.636, 21.7597, 18.2291, 1.27002, 3.50345, -0.218739, 0.000774011, -0.00157203, 0.000700136, 0.00130181, -0.000984749, 0.000337551, 0.00262446, -0.000506003, 0.000922517, 0.00193302, -0.0112496, -0.00192538, -0.011112, -0.444721, 0.635038, -3.13187, -0.0555627, -0.107532, -0.0103485, -0.443116, 0.634402, -3.13063, -0.0555136, -0.105908, 1.73063e-06, 3.0097e-06, -3.96181e-06, -0.00265998, -0.000602909, 0.000732946
0.0132546, 0.107604, -0.774272, -0.91711, -1.4576, -0.625416, 1.07008, -0.256718, 0.00175646, -0.00873844, 0.000261079, 0.00392614, -0.00019968, 0.000260124, 0.00179588, -0.131157, 16.636, 21.7597, 18.2291, 1.27002, 3.50345, -0.218739, 0.000774008, -0.00157203, 0.000700126, 0.00130179, -0.000984772, 0.000337551, 0.00262914, -0.000514731, 0.000934774, 0.00195767, -0.0112462, -0.00187871, -0.011112, -0.444721, 0.635038, -3.13187, -0.0555627, -0.107532, -0.0103485, -0.443116, 0.634402, -3.13063, -0.0555136, -0.105908, 6.91577e-06, 1.20019e-05, -1.58141e-05, -0.00265998, -0.000602909, 0.000732946
0.0142549, 0.107604, -0.774272, -0.91711, -1.4576, -0.625416, 1.07008, -0.256718, 0.00175646, -0.00873844, 0.000261079, 0.00392614, -0.00019968, 0.000260124, 0.00179588, -0.131157, 16.636, 21.7597, 18.2291, 1.27002, 3.50345, -0.218739, 0.000773998, -0.00157201, 0.000700101, 0.00130173, -0.000984835, 0.000337553, 0.00263691, -0.000529211, 0.000955139, 0.00199861, -0.0112406, -0.00180118, -0.011112, -0.444721, 0.635038, -3.13187, -0.0555627, -0.107532, -0.0103485, -0.443116, 0.634402, -3.13063, -0.0555136, -0.105908, 1.55453e-05, 2.69215e-05, -3.55071e-05, -0.00265998, -0.000602909, 0.000732946
0.0152551, 0.107604, -0.774272, -0.91711, -1.4576, -0.625416, 1.07008, -0.256718, 0.00175646, -0.00873844, 0.000261079, 0.00392614, -0.00019968, 0.000260124, 0.00179588, -0.131157, 16.636, 21.7597, 18.2291, 1.27002, 3.50345, -0.218739, 0.000773978, -0.00157197, 0.000700051, 0.00130163, -0.000984956, 0.000337557, 0.00264778, -0.00054939, 0.000983562, 0.00205572, -0.0112328, -0.00169299, -0.011112, -0.444721, 0.635038, -3.13187, -0.0555628, -0.107532, -0.0103485, -0.443116, 0.634402, -3.13063, -0.0555136, -0.105908, 2.7609e-05, 4.77135e-05, -6.29913e-05, -0.00265998, -0.000602909, 0.000732946
0.0162551, 0.107604, -0.774272, -0.91711, -1.4576, -0.625416, 1.07008, -0.256718, 0.00175646, -0.00873844, 0.000261079, 0.00392614, -0.00019968, 0.000260124, 0.00179588, -0.131157, 16.636, 21.7597, 18.2291, 1.27002, 3.50345, -0.218739, 0.000773947, -0.00157191, 0.000699968, 0.00130145, -0.000985157, 0.000337563, 0.00266174, -0.000575212, 0.00101999, 0.00212887, -0.0112227, -0.00155435, -0.0111119, -0.444721, 0.635038, -3.13187, -0.0555628, -0.107532, -0.0103485, -0.443116, 0.634402, -3.13063, -0.0555136, -0.105908, 4.30968e-05, 7.4323e-05, -9.82172e-05, -0.00265998, -0.000602909, 0.000732946
0.0172554, 0.107604, -0.774272, -0.91711, -1.4576, -0.625416, 1.07008, -0.256718, 0.00175646, -0.00873844, 0.000261079, 0.00392614, -0.00019968, 0.000260124, 0.00179588, -0.131157, 16.636, 21.7597, 18.2291, 1.27002, 3.50345, -0.218739, 0.000773899, -0.00157183, 0.000699846, 0.00130119, -0.000985455, 0.000337572, 0.00267878, -0.000606624, 0.00106438, 0.00221795, -0.0112104, -0.00138545, -0.0111119, -0.444721, 0.635038, -3.13187, -0.0555628, -0.107533, -0.0103485, -0.443116, 0.634402, -3.13063, -0.0555136, -0.105908, 6.19987e-05, 0.000106695, -0.000141136, -0.00265998, -0.000602909, 0.000732946
0.0182556, 0.107604, -0.774272, -0.91711, -1.4576, -0.625416, 1.07008, -0.256718, 0.00175646, -0.00873844, 0.000261079, 0.00392614, -0.00019968, 0.000260124, 0.00179588, -0.131157, 16.636, 21.7597, 18.2291, 1.27002, 3.50345, -0.218739, 0.000773833, -0.0015717, 0.000699675, 0.00130083, -0.00098587, 0.000337584, 0.00269888, -0.000643571, 0.00111668, 0.00232284, -0.0111958, -0.00118651, -0.0111118, -0.44472, 0.635037, -3.13187, -0.0555628, -0.107533, -0.0103485, -0.443116, 0.634402, -3.13063, -0.0555136, -0.105908, 8.43044e-05, 0.000144776, -0.000191697, -0.00265998, -0.000602909, 0.000732946
0.0192556, 0.107604, -0.774272, -0.91711, -1.4576, -0.625416, 1.07008, -0.256718, 0.00175646, -0.00873844, 0.000261079, 0.00392614, -0.00019968, 0.000260124, 0.00179588, -0.131157, 16.636, 21.7597, 18.2291, 1.27002, 3.50345, -0.218739, 0.000773746, -0.00157154, 0.000699449, 0.00130035, -0.000986421, 0.000337601, 0.00272205, -0.000686001, 0.00117683, 0.00244341, -0.011179, -0.000957708, -0.0111117, -0.44472, 0.635037, -3.13187, -0.0555629, -0.107534, -0.0103485, -0.443116, 0.634402, -3.13063, -0.0555136, -0.105908, 0.000110004, 0.000188511, -0.000249853, -0.00265998, -0.000602909, 0.000732946
0.0202559, 0.107604, -0.774272, -0.91711, -1.4576, -0.625416, 1.07008, -0.256718, 0.00175646, -0.00873844, 0.000261079, 0.00392614, -0.00019968, 0.000260124, 0.00179588, -0.131157, 16.636, 21.7597, 18.2291, 1.27002, 3.50345, -0.218739, 0.000773633, -0.00157134, 0.000699159, 0.00129974, -0.000987128, 0.000337622, 0.00274826, -0.00073386, 0.00124479, 0.00257955, -0.0111599, -0.000699263, -0.0111116, -0.44472, 0.635037, -3.13187, -0.0555629, -0.107535, -0.0103485, -0.443116, 0.634402, -3.13063, -0.0555136, -0.105908, 0.000139087, 0.000237846, -0.000315553, -0.00265998, -0.000602909, 0.000732946
0.0212559, 0.107604, -0.774272, -0.91711, -1.4576, -0.625416, 1.07008, -0.256718, 0.00175646, -0.00873844, 0.000261079, 0.00392614, -0.00019968, 0.000260124, 0.00179588, -0.131157, 16.636, 21.7597, 18.2291, 1.27002, 3.50345, -0.218739, 0.000773493, -0.00157108, 0.000698797, 0.00129898, -0.000988008, 0.000337649, 0.00277752, -0.000787094, 0.00132051, 0.00273113, -0.0111385, -0.00041137, -0.0111114, -0.44472, 0.635037, -3.13186, -0.055563, -0.107537, -0.0103485, -0.443116, 0.634402, -3.13063, -0.0555136, -0.105908, 0.000171544, 0.000292726, -0.00038875, -0.00265998, -0.000602909, 0.000732946
0.0222559, 0.107604, -0.774272, -0.91711, -1.4576, -0.625416, 1.07008, -0.256718, 0.00175646, -0.00873844, 0.000261079, 0.00392614, -0.00019968, 0.000260124, 0.00179588, -0.131157, 16.636, 21.7597, 18.2291, 1.27002, 3.50345, -0.218739, 0.000773322, -0.00157076, 0.000698356, 0.00129805, -0.00098908, 0.000337682, 0.00280982, -0.00084565, 0.00140394, 0.00289805, -0.0111149, -9.42301e-05, -0.0111112, -0.444719, 0.635036, -3.13186, -0.055563, -0.107538, -0.0103485, -0.443116, 0.634402, -3.13063, -0.0555136, -0.105908, 0.000207364, 0.000353099, -0.000469394, -0.00265998, -0.000602909, 0.000732946
0.0232559, 0.107604, -0.774298, -0.917112, -1.4576, -0.625433, 1.07009, -0.256728, 0.000532446, -0.00225631, 0.00130053, 0.000529772, -0.00238577, 0.00778726, -0.00124584, -0.166862, 16.3782, 21.7597, 18.1537, 1.3808, 3.42471, -0.147328, 0.000761302, -0.00156521, 0.000696846, 0.00128094, -0.000968613, 0.000339981, 5.49692e-06, -0.00194027, 0.00169162, 0.00987343, -0.00460846, 0.00354908, -0.011111, -0.444719, 0.635036, -3.13186, -0.0555631, -0.10754, -0.0103601, -0.443122, 0.634402, -3.13064, -0.0555094, -0.105943, 0.000246538, 0.00041891, -0.000557437, 0.000194516, -0.00153483, 0.00111781
0.0242559, 0.107604, -0.774303, -0.917122, -1.45759, -0.62543, 1.0701, -0.25672, 0.000358649, -0.00345587, -0.00173011, -0.00513516, -0.00190624, 0.00633465, 0.00208553, -0.166862, 16.4536, 21.8708, 18.118, 1.38721, 3.41006, -0.226063, 0.000756251, -0.00156267, 0.00069847, 0.00128541, -0.00096133, 0.000355656, 0.000343315, -0.00194461, -0.000966438, 0.00340529, -0.00158017, 0.00125479, -0.0111107, -0.444719, 0.635035, -3.13186, -0.0555632, -0.107542, -0.0103647, -0.443124, 0.6344, -3.13064, -0.0554853, -0.105956, 0.000289055, 0.000490107, -0.00065283, 8.22983e-05, -0.00145699, -0.00165255
0.0252561, 0.107604, -0.7743, -0.917126, -1.45759, -0.625428, 1.0701, -0.256727, -0.000593355, -0.00379743, -0.00248143, -0.00753306, 6.06468e-05, -0.00377403, -0.00203442, -0.131157, 16.3782, 21.7954, 18.0069, 1.34967, 3.38168, -0.133595, 0.000755915, -0.00156109, 0.000698087, 0.00128383, -0.000962523, 0.00035146, 0.00134, 6.59033e-05, -0.00267542, -0.00776991, 0.00330258, 0.00643117, -0.0111104, -0.444718, 0.635034, -3.13186, -0.0555634, -0.107545, -0.0103647, -0.443125, 0.634399, -3.13064, -0.0554919, -0.105957, 0.000334905, 0.000566635, -0.000755525, -0.000820331, 0.000608384, -0.00351623
0.0262561, 0.10761, -0.774299, -0.917133, -1.4576, -0.625428, 1.0701, -0.256722, 0.00220496, -0.00257776, -0.00595223, -0.00612508, 0.00247167, -0.00269847, 0.000101766, -0.242241, 16.2314, 21.5732, 17.7451, 1.28284, 3.37436, -0.172963, 0.000757003, -0.00155974, 0.00070041, 0.00129064, -0.000968812, 0.000353895, 0.000600243, -0.000738782, -0.00306564, -0.00924181, 0.00144374, 0.00530721, -0.0111101, -0.444717, 0.635033, -3.13186, -0.0555635, -0.107548, -0.010363, -0.443126, 0.634396, -3.13063, -0.0554885, -0.10595, 0.000384079, 0.000648441, -0.000865474, 2.18189e-05, -8.45818e-05, -0.00396962
0.0272561, 0.107615, -0.774291, -0.917143, -1.45761, -0.62543, 1.0701, -0.256728, 0.00323476, 0.0037799, -0.00827708, -0.00739299, 0.00388658, -0.00135937, -0.00308565, -0.317619, 15.9735, 21.3114, 17.5586, 1.2215, 3.3533, -0.0878186, 0.000760881, -0.00155693, 0.000705892, 0.00129777, -0.000988076, 0.000345263, -0.001674, -0.0011622, -0.00367169, -0.0102945, 0.0070085, 0.00953045, -0.0111097, -0.444717, 0.635033, -3.13186, -0.0555637, -0.107552, -0.0103583, -0.443128, 0.63439, -3.13062, -0.0555025, -0.105923, 0.000436566, 0.000735474, -0.000982628, 0.00239836, -0.000335467, -0.00453773
0.0282563, 0.107631, -0.77429, -0.917162, -1.45762, -0.625435, 1.0701, -0.256722, 0.00661217, 0.00159774, -0.0133949, -0.00668657, 0.0039565, -0.000890199, -0.00178584, -0.508049, 15.8624, 21.0496, 17.2968, 1.18396, 3.34598, -0.0951428, 0.000763314, -0.00155212, 0.000714727, 0.00131287, -0.00100426, 0.000344944, -0.000722864, -0.00249896, -0.00492618, -0.0129679, 0.00437653, 0.00786787, -0.0111092, -0.444716, 0.635032, -3.13185, -0.0555639, -0.107556, -0.0103546, -0.443132, 0.634381, -3.1306, -0.0555038, -0.1059, 0.000492356, 0.000827679, -0.00110694, 0.00163943, -0.00160179, -0.00598716
0.0292563, 0.107625, -0.774287, -0.917188, -1.45764, -0.625438, 1.0701, -0.256721, 0.00171773, 0.00393858, -0.0202887, -0.00937161, -0.000953381, -0.000513611, -0.00119057, -0.392998, 15.7156, 20.9028, 17.0349, 1.15375, 3.33865, -0.0951428, 0.000756175, -0.001547, 0.00072521, 0.00133283, -0.0010238, 0.000364545, 0.00336069, -0.0042087, -0.00730363, -0.0156555, 0.0123105, -0.00331964, -0.0111087, -0.444715, 0.63503, -3.13185, -0.0555641, -0.10756, -0.0103603, -0.443136, 0.634368, -3.13058, -0.0554744, -0.105873, 0.000551439, 0.000925004, -0.00123836, -0.00214909, -0.00333623, -0.00878153
0.0302563, 0.107641, -0.774286, -0.917209, -1.45766, -0.625442, 1.07011, -0.256723, 0.00467228, 0.00387597, -0.0194876, -0.0145214, -0.000565769, 0.000836461, -0.0015397, -0.543754, 15.6442, 20.6409, 16.8842, 1.14093, 3.30295, -0.0750012, 0.000761009, -0.0015413, 0.000737166, 0.00135044, -0.00104394, 0.000352762, 0.000585698, -0.00411101, -0.00847625, -0.0169407, 0.0146524, 0.00396259, -0.0111081, -0.444714, 0.635029, -3.13185, -0.0555643, -0.107565, -0.0103539, -0.443141, 0.634355, -3.13056, -0.0554937, -0.105845, 0.000613805, 0.0010274, -0.00137684, 0.000756806, -0.00302847, -0.00989856
0.0312563, 0.107655, -0.774285, -0.917231, -1.45768, -0.625446, 1.07012, -0.25672, 0.00894392, 0.00319686, -0.02147, -0.0121676, -0.00159638, 0.00282356, -4.31287e-05, -0.658806, 15.6046, 20.3434, 16.6223, 1.16565, 3.23886, -0.101552, 0.000763796, -0.00153479, 0.00074736, 0.00136389, -0.00106151, 0.000351351, 8.2719e-05, -0.00535106, -0.00815233, -0.0147762, 0.0123864, 0.00408851, -0.0111074, -0.444713, 0.635028, -3.13184, -0.0555646, -0.10757, -0.0103495, -0.443146, 0.634344, -3.13055, -0.0554968, -0.105823, 0.000679445, 0.00113481, -0.00152234, 0.00134603, -0.00414537, -0.00969403
0.0322563, 0.107665, -0.774288, -0.917263, -1.4577, -0.625454, 1.07013, -0.256719, 0.0111287, 0.000966865, -0.0274393, -0.0157143, -0.00152937, 0.00553155, 0.00115804, -0.734184, 15.6442, 20.2323, 16.4359, 1.17206, 3.13815, -0.133595, 0.000760778, -0.00152497, 0.000760903, 0.00137868, -0.00107696, 0.000358937, 0.000740305, -0.0069832, -0.0106869, -0.0183068, 0.0113892, 0.00298126, -0.0111067, -0.444712, 0.635026, -3.13184, -0.0555649, -0.107577, -0.0103505, -0.443155, 0.634329, -3.13053, -0.0554859, -0.105803, 0.000748347, 0.00124718, -0.0016748, 0.00099111, -0.00566531, -0.0124303
0.0332563, 0.107667, -0.774283, -0.917289, -1.45774, -0.62546, 1.07014, -0.25672, 0.0100694, 0.00223055, -0.0235796, -0.0245003, -0.00254673, 0.00603463, 0.000772024, -0.694511, 15.5688, 20.0458, 16.4001, 1.20868, 3.07315, -0.133595, 0.000761832, -0.00151809, 0.000775975, 0.00139803, -0.00110936, 0.000359949, -0.0020299, -0.00595343, -0.01198, -0.019342, 0.0187535, 0.00989816, -0.0111059, -0.444711, 0.635024, -3.13184, -0.0555653, -0.107583, -0.0103474, -0.44316, 0.634312, -3.13051, -0.0554855, -0.105758, 0.000820503, 0.00136446, -0.00183418, 0.00387704, -0.00441029, -0.013683
0.0342563, 0.107674, -0.774281, -0.917318, -1.45777, -0.625464, 1.07016, -0.256723, 0.00731652, 0.00135408, -0.0256516, -0.0264482, -0.00162248, 0.00580872, -0.00118074, -0.694511, 15.5688, 19.9347, 16.2891, 1.20318, 3.02371, -0.0878186, 0.00076147, -0.00151059, 0.000789971, 0.00141819, -0.00113333, 0.000360616, -0.000375279, -0.00615071, -0.012961, -0.0219103, 0.0186859, 0.00962567, -0.0111051, -0.444709, 0.635022, -3.13183, -0.0555656, -0.10759, -0.0103457, -0.443166, 0.634296, -3.13049, -0.0554857, -0.105727, 0.000895902, 0.00148661, -0.00200043, 0.00237703, -0.00453498, -0.0149429
0.0352563, 0.107675, -0.774281, -0.917342, -1.45781, -0.625469, 1.07017, -0.256721, 0.00356714, 0.002209, -0.0252694, -0.0270278, -0.000262214, 0.0103236, 0.00419929, -0.619133, 15.6442, 19.7483, 16.2891, 1.17847, 2.98068, -0.0951428, 0.000761238, -0.00150375, 0.000805191, 0.00143742, -0.00116111, 0.000363364, 0.000102619, -0.00671166, -0.0123095, -0.0180141, 0.0166222, 0.00242406, -0.0111041, -0.444708, 0.63502, -3.13183, -0.055566, -0.107598, -0.0103437, -0.443171, 0.634279, -3.13046, -0.0554827, -0.10569, 0.000974534, 0.00161356, -0.00217351, 0.00195466, -0.00499099, -0.0145024
0.0362563, 0.107684, -0.774274, -0.917368, -1.45784, -0.625474, 1.07018, -0.256721, 0.00674401, 0.00426044, -0.025918, -0.0285634, -0.00466977, 0.0135346, 0.00197176, -0.658806, 15.5331, 19.5975, 16.2137, 1.17206, 2.94406, -0.0621838, 0.000764809, -0.00149665, 0.00081859, 0.0014554, -0.00119404, 0.000360333, -0.00143652, -0.00799387, -0.0125153, -0.014268, 0.0214954, 0.00670676, -0.0111031, -0.444706, 0.635018, -3.13182, -0.0555664, -0.107607, -0.010338, -0.443176, 0.634263, -3.13044, -0.0554887, -0.105646, 0.00105639, 0.00174526, -0.00235336, 0.00363098, -0.00608467, -0.0147896
0.0372563, 0.107683, -0.774269, -0.917398, -1.45787, -0.625484, 1.07019, -0.256717, 0.00324561, 0.0039103, -0.0282015, -0.031486, -0.00782288, 0.0152702, 0.00255864, -0.583427, 15.4935, 19.5261, 16.2137, 1.16015, 2.923, -0.0878186, 0.000762305, -0.0014878, 0.000834768, 0.00147387, -0.00123149, 0.000374348, 0.000852637, -0.00897645, -0.0136187, -0.0138875, 0.0247016, 0.00161603, -0.011102, -0.444704, 0.635016, -3.13182, -0.0555669, -0.107616, -0.0103379, -0.443183, 0.634244, -3.13042, -0.0554683, -0.105595, 0.00114146, 0.00188168, -0.00253994, 0.00154444, -0.0070011, -0.0162405
0.0382563, 0.107683, -0.774264, -0.917415, -1.45791, -0.625491, 1.0702, -0.256721, 0.00162035, 0.00354858, -0.0260791, -0.0333922, -0.0144691, 0.0156026, 0.000468721, -0.543754, 15.4578, 19.3, 16.2137, 1.13544, 2.93033, -0.0484509, 0.000764516, -0.00148164, 0.000846005, 0.00148373, -0.00126549, 0.000369174, 0.00194863, -0.00936901, -0.0133306, -0.00987063, 0.030403, 0.00225449, -0.0111008, -0.444702, 0.635013, -3.13181, -0.0555674, -0.107626, -0.0103335, -0.443187, 0.634231, -3.13041, -0.0554774, -0.105551, 0.00122973, 0.00202275, -0.00273321, 0.000534363, -0.00729329, -0.0162242
0.0392563, 0.10769, -0.774256, -0.917445, -1.45794, -0.625498, 1.07022, -0.256714, 0.00229673, 0.00411602, -0.0299695, -0.0324731, -0.0157282, 0.0161697, 0.0026823, -0.583427, 15.3864, 19.3, 16.2494, 1.13544, 2.93033, -0.10796, 0.000766253, -0.00147267, 0.000861054, 0.0015016, -0.00130278, 0.000378232, 0.0031891, -0.0105712, -0.0139007, -0.010421, 0.0312849, -0.00253708, -0.0110996, -0.4447, 0.63501, -3.1318, -0.055568, -0.107637, -0.0103292, -0.443194, 0.634213, -3.13039, -0.0554648, -0.105503, 0.00132119, 0.00216842, -0.00293311, -0.000528874, -0.00838761, -0.0170858
0.0402563, 0.107685, -0.774252, -0.917469, -1.45798, -0.62551, 1.07023, -0.25672, -0.000943752, 0.00690866, -0.0245838, -0.0369351, -0.0168477, 0.0214078, 0.00116654, -0.468376, 15.3467, 19.2246, 16.3644, 1.14093, 2.93033, -0.0878186, 0.000763888, -0.00146529, 0.000876432, 0.00151857, -0.00134666, 0.000380296, 0.000862844, -0.0103304, -0.0128549, -0.00356566, 0.0349793, 0.00240707, -0.0110982, -0.444698, 0.635007, -3.1318, -0.0555686, -0.107648, -0.0103289, -0.443199, 0.634194, -3.13036, -0.0554631, -0.105444, 0.00141584, 0.00231864, -0.0031396, 0.00180494, -0.00792389, -0.0160875
0.0412563, 0.107686, -0.774249, -0.917496, -1.45803, -0.625526, 1.07024, -0.256714, -0.000466902, 0.00491542, -0.0253066, -0.0396418, -0.0180611, 0.0203868, 0.00185428, -0.468376, 15.3467, 19.2246, 16.4755, 1.16015, 2.94406, -0.114369, 0.000762545, -0.00145596, 0.000892345, 0.00153276, -0.00139054, 0.000390595, 0.00136327, -0.0104594, -0.0138435, -0.00563008, 0.0362921, 0.00329469, -0.0110967, -0.444695, 0.635004, -3.13179, -0.0555692, -0.107661, -0.0103273, -0.443206, 0.634175, -3.13035, -0.0554485, -0.105387, 0.00151366, 0.00247337, -0.00335263, 0.00147628, -0.007907, -0.017322
0.0422563, 0.107679, -0.774246, -0.917518, -1.45807, -0.625542, 1.07026, -0.25672, -0.00195281, 0.00350919, -0.0225894, -0.0406433, -0.0186777, 0.0191361, -0.000864019, -0.392998, 15.3467, 19.2246, 16.5509, 1.17206, 2.96603, -0.0557752, 0.000758518, -0.00144728, 0.000904902, 0.00153949, -0.00143163, 0.000396444, 0.00170998, -0.00986036, -0.0132648, -0.00479211, 0.0365737, 0.00768221, -0.0110952, -0.444693, 0.635, -3.13178, -0.0555699, -0.107674, -0.0103286, -0.443212, 0.634159, -3.13033, -0.0554406, -0.105335, 0.00161465, 0.00263255, -0.00357216, 0.00117069, -0.00716632, -0.0169845
0.0432563, 0.107681, -0.774249, -0.917535, -1.45811, -0.625557, 1.07028, -0.256713, -0.000282576, 0.00392587, -0.0186786, -0.0430188, -0.018876, 0.0178578, 0.00164658, -0.43267, 15.4221, 19.1532, 16.6977, 1.17847, 3.00174, -0.114369, 0.00075973, -0.0014396, 0.000918463, 0.00154841, -0.00147239, 0.000398567, -0.00063571, -0.0089385, -0.0127896, -0.00422439, 0.0392392, 0.0118257, -0.0110935, -0.44469, 0.634997, -3.13177, -0.0555706, -0.107688, -0.0103245, -0.443217, 0.634142, -3.13032, -0.0554386, -0.105285, 0.00171879, 0.00279613, -0.00379814, 0.00354816, -0.00600299, -0.0165693
0.0442563, 0.107678, -0.774246, -0.917558, -1.45815, -0.625576, 1.0703, -0.256719, -0.00104795, 0.00217728, -0.0212403, -0.0420474, -0.0195166, 0.0176793, -0.000558366, -0.392998, 15.4578, 19.1889, 16.7374, 1.19678, 3.01639, -0.0685925, 0.000756539, -0.00142894, 0.000930381, 0.00154886, -0.00151496, 0.000404132, 0.00150049, -0.0097156, -0.0130391, -0.00481094, 0.0376222, 0.011427, -0.0110917, -0.444687, 0.634993, -3.13176, -0.0555714, -0.107702, -0.0103247, -0.443225, 0.634126, -3.13031, -0.055431, -0.105233, 0.00182607, 0.00296406, -0.00403052, 0.00157059, -0.00668452, -0.0172025
0.0452563, 0.107673, -0.774247, -0.917578, -1.45819, -0.625598, 1.07032, -0.256716, -0.00148251, 0.000912746, -0.0200077, -0.040163, -0.0192366, 0.0177676, 0.000640603, -0.357292, 15.4935, 19.2246, 16.8484, 1.19678, 3.02371, -0.0951428, 0.00075272, -0.00141819, 0.000942089, 0.00154606, -0.0015571, 0.000416818, 0.00210684, -0.00976207, -0.0118922, -0.0025815, 0.0348964, 0.0108381, -0.0110899, -0.444684, 0.634989, -3.13175, -0.0555722, -0.107718, -0.0103254, -0.443232, 0.634109, -3.13031, -0.0554123, -0.105183, 0.00193648, 0.00313629, -0.00426926, 0.000999645, -0.00658991, -0.0163392
0.0462563, 0.107665, -0.774241, -0.917599, -1.45823, -0.625622, 1.07034, -0.256717, -0.0058211, 0.00166605, -0.0231065, -0.0415261, -0.0193304, 0.022306, -0.00100887, -0.281914, 15.4578, 19.3, 16.9595, 1.20318, 3.05209, -0.0557752, 0.000748152, -0.00140732, 0.00095439, 0.0015449, -0.0016095, 0.00043056, 0.00414734, -0.0111518, -0.0123799, -0.000538842, 0.0345058, 0.00741731, -0.0110879, -0.444681, 0.634984, -3.13174, -0.0555731, -0.107735, -0.0103267, -0.44324, 0.634092, -3.1303, -0.0553921, -0.105118, 0.00205002, 0.00331277, -0.00451432, -0.000838028, -0.00786965, -0.0172201
0.0472563, 0.107665, -0.774241, -0.917611, -1.45827, -0.625643, 1.07036, -0.256713, -0.00634664, 0.000442229, -0.0203702, -0.041738, -0.0229874, 0.0205359, 0.0012768, -0.317619, 15.4935, 19.3, 17.0349, 1.17847, 3.08047, -0.10796, 0.000748645, -0.00139738, 0.000962447, 0.00153381, -0.00165071, 0.000434794, 0.00483699, -0.0108937, -0.0115892, 0.00166594, 0.0370437, 0.00603532, -0.0110858, -0.444678, 0.63498, -3.13173, -0.055574, -0.107752, -0.0103232, -0.443246, 0.63408, -3.13031, -0.0553864, -0.105071, 0.00216668, 0.00349346, -0.00476563, -0.00147224, -0.00746207, -0.0167286
0.0482563, 0.107661, -0.77424, -0.917627, -1.45831, -0.625669, 1.07039, -0.256721, -0.00549482, 0.000419881, -0.0200484, -0.0381388, -0.0214956, 0.0185151, -0.00157776, -0.281914, 15.4935, 19.3754, 17.0706, 1.16565, 3.13083, -0.0420422, 0.000745385, -0.00138626, 0.000970989, 0.00152285, -0.00169674, 0.000435931, 0.00514196, -0.01072, -0.0103366, 0.00194287, 0.03464, 0.00985898, -0.0110835, -0.444674, 0.634975, -3.13172, -0.055575, -0.107771, -0.0103233, -0.443254, 0.634066, -3.13031, -0.0553855, -0.105018, 0.00228643, 0.0036783, -0.00502317, -0.0017485, -0.00712517, -0.0157566
0.0492563, 0.107653, -0.774242, -0.917639, -1.45834, -0.625696, 1.07041, -0.256713, -0.00574783, -0.000554303, -0.0187774, -0.0385463, -0.0253854, 0.020976, 0.000652915, -0.206535, 15.5331, 19.4111, 17.1103, 1.16015, 3.20956, -0.0878186, 0.000739195, -0.00137582, 0.00097815, 0.00150987, -0.00174174, 0.000456534, 0.00566806, -0.0115383, -0.0096382, 0.00687153, 0.0356705, 0.00772711, -0.0110812, -0.44467, 0.634969, -3.13171, -0.0555761, -0.10779, -0.0103262, -0.443261, 0.634053, -3.13031, -0.0553544, -0.104968, 0.00240928, 0.00386724, -0.00528689, -0.00216872, -0.00777857, -0.0153652
0.0502563, 0.10765, -0.774242, -0.917659, -1.45838, -0.625725, 1.07043, -0.256716, -0.00500095, -0.000299188, -0.0205156, -0.0407576, -0.02878, 0.0189421, -0.00101578, -0.166862, 15.5331, 19.5618, 17.2214, 1.16565, 3.25992, -0.0484509, 0.000734702, -0.00136268, 0.000988775, 0.00149903, -0.00179259, 0.000464963, 0.00635647, -0.011954, -0.0107189, 0.00477381, 0.0411351, 0.00938598, -0.0110787, -0.444666, 0.634964, -3.1317, -0.0555772, -0.107811, -0.010327, -0.44327, 0.634037, -3.13032, -0.0553423, -0.10491, 0.00253522, 0.00406024, -0.00555673, -0.00264, -0.00801556, -0.0167633
0.0512563, 0.107642, -0.774245, -0.917669, -1.45842, -0.625754, 1.07045, -0.256711, -0.00527798, -0.000981916, -0.0157902, -0.0403014, -0.0301116, 0.0207605, 0.00105739, -0.0914839, 15.5688, 19.5975, 17.2571, 1.14093, 3.3533, -0.0951428, 0.000728976, -0.00135162, 0.000994394, 0.00148023, -0.00183841, 0.000482144, 0.00544519, -0.0117506, -0.008806, 0.01078, 0.0401267, 0.0108447, -0.0110761, -0.444662, 0.634958, -3.13168, -0.0555784, -0.107832, -0.0103293, -0.443277, 0.634025, -3.13032, -0.0553164, -0.10486, 0.00266423, 0.00425725, -0.00583265, -0.00174081, -0.00759987, -0.0150671
0.0522563, 0.107647, -0.774244, -0.917686, -1.45846, -0.625786, 1.07048, -0.256719, -0.000962977, -0.00061504, -0.0172616, -0.0390816, -0.0269991, 0.0190916, -0.0019699, -0.206535, 15.5688, 19.7086, 17.3721, 1.12903, 3.40365, -0.0228162, 0.000727736, -0.00133832, 0.00100261, 0.00146456, -0.00189055, 0.00047789, 0.00384196, -0.0117506, -0.00882451, 0.0079942, 0.0383695, 0.0190242, -0.0110734, -0.444658, 0.634952, -3.13167, -0.0555796, -0.107855, -0.0103268, -0.443286, 0.634011, -3.13033, -0.055324, -0.104802, 0.0027963, 0.00445821, -0.00611461, -8.89445e-06, -0.00734222, -0.0152573
0.0532563, 0.107633, -0.774244, -0.917699, -1.45849, -0.625812, 1.0705, -0.256714, -0.00427015, -0.000380349, -0.0142546, -0.03535, -0.0282394, 0.0209915, 0.000385108, -0.0557783, 15.5688, 19.784, 17.3721, 1.086, 3.49612, -0.0685925, 0.000718593, -0.00132744, 0.00100721, 0.00144818, -0.00193675, 0.00050287, 0.00520169, -0.0119968, -0.00625588, 0.0150448, 0.0360953, 0.0142753, -0.0110705, -0.444653, 0.634946, -3.13165, -0.0555809, -0.107878, -0.0103323, -0.443292, 0.633999, -3.13033, -0.0552863, -0.104755, 0.00293143, 0.00466308, -0.00640257, -0.00139683, -0.00745373, -0.0130783
0.0542563, 0.107633, -0.774244, -0.917723, -1.45853, -0.625844, 1.07052, -0.256718, -0.00115979, -0.000231308, -0.017713, -0.038308, -0.0298811, 0.0188828, -0.00119911, -0.131157, 15.5688, 19.9705, 17.4832, 1.06128, 3.56112, -0.0292249, 0.000712208, -0.00131295, 0.00101745, 0.00143849, -0.00199391, 0.000512823, 0.00495276, -0.0125631, -0.00811142, 0.0104552, 0.0407535, 0.0182153, -0.0110675, -0.444648, 0.63494, -3.13164, -0.0555822, -0.107903, -0.0103345, -0.443302, 0.633982, -3.13033, -0.0552722, -0.10469, 0.00306961, 0.00487181, -0.00669647, -0.000862698, -0.00778577, -0.01521
0.0552563, 0.107624, -0.774244, -0.917731, -1.45856, -0.625877, 1.07054, -0.256712, -0.00572726, -0.000137512, -0.0126212, -0.0386884, -0.0268881, 0.0218551, 0.00113504, -0.0557783, 15.5688, 19.9705, 17.5189, 1.04938, 3.62521, -0.0814099, 0.000705326, -0.00130114, 0.00102031, 0.00141298, -0.00204632, 0.0005336, 0.00445006, -0.0118379, -0.00606568, 0.015708, 0.0371666, 0.018003, -0.0110644, -0.444643, 0.634933, -3.13162, -0.0555837, -0.107929, -0.0103375, -0.443309, 0.633972, -3.13035, -0.0552408, -0.104636, 0.00321082, 0.00508435, -0.00699628, -0.000386548, -0.00684873, -0.0134299
0.0562563, 0.107621, -0.774244, -0.917747, -1.45859, -0.625912, 1.07056, -0.25672, -0.00412221, -7.91541e-05, -0.0139287, -0.0348544, -0.0241267, 0.0236244, -0.00188692, -0.0557783, 15.5688, 20.0458, 17.5189, 1.02466, 3.70395, -0.00999879, 0.000696202, -0.00128771, 0.00102426, 0.00139341, -0.00209989, 0.000544859, 0.00434137, -0.0125861, -0.00484331, 0.0178216, 0.0319161, 0.0221805, -0.0110611, -0.444638, 0.634926, -3.13161, -0.0555852, -0.107956, -0.0103426, -0.443318, 0.63396, -3.13035, -0.0552244, -0.10458, 0.00335505, 0.00530066, -0.00730195, -0.00019109, -0.00738701, -0.0125137
0.0572563, 0.107615, -0.774244, -0.91776, -1.45862, -0.625944, 1.07058, -0.256716, -0.00610979, -4.33792e-05, -0.0139553, -0.0378088, -0.0318353, 0.0219773, 0.000167142, -0.0557783, 15.5688, 20.0815, 17.634, 1.00635, 3.73324, -0.0484509, 0.000689673, -0.00127543, 0.00102946, 0.00137543, -0.0021583, 0.000561858, 0.00642263, -0.0131473, -0.00550993, 0.0189172, 0.0406436, 0.0171705, -0.0110577, -0.444633, 0.634918, -3.13159, -0.0555867, -0.107984, -0.0103449, -0.443325, 0.633947, -3.13036, -0.0551993, -0.104518, 0.0035023, 0.00552068, -0.00761342, -0.00205288, -0.00779506, -0.0136377
0.0582563, 0.107607, -0.774247, -0.917777, -1.45865, -0.625979, 1.07059, -0.256717, -0.00543337, -0.000857095, -0.0158101, -0.0351284, -0.0328588, 0.0205947, -0.000362589, -0.0161054, 15.6046, 20.1926, 17.6697, 0.988036, 3.76163, -0.0356336, 0.000677007, -0.00126151, 0.00103361, 0.00135588, -0.0022129, 0.000585313, 0.0080072, -0.0137902, -0.00506203, 0.0190116, 0.0397573, 0.0163393, -0.0110541, -0.444627, 0.63491, -3.13157, -0.0555884, -0.108013, -0.0103531, -0.443334, 0.633934, -3.13036, -0.0551642, -0.104463, 0.00365255, 0.00574437, -0.00793067, -0.00349013, -0.0082735, -0.0136219
0.0592563, 0.107603, -0.774247, -0.917789, -1.45869, -0.626013, 1.07061, -0.256714, -0.00301834, -0.000566114, -0.0113982, -0.034932, -0.0337172, 0.0153431, 0.000742144, -0.0557783, 15.6046, 20.1926, 17.7808, 0.975218, 3.77627, -0.0621838, 0.000670717, -0.0012494, 0.00103813, 0.00133854, -0.00227476, 0.000599109, 0.00633819, -0.0123697, -0.00393321, 0.0183346, 0.0431471, 0.0217496, -0.0110504, -0.444621, 0.634902, -3.13155, -0.0555901, -0.108044, -0.0103549, -0.44334, 0.633921, -3.13037, -0.0551443, -0.104397, 0.0038058, 0.00597168, -0.00825364, -0.0018011, -0.00657783, -0.0126948
0.0602563, 0.107604, -0.774248, -0.917805, -1.45872, -0.626049, 1.07062, -0.256713, -0.000492078, -0.00130147, -0.0140992, -0.0338126, -0.0355896, 0.0115743, 0.000969875, -0.131157, 15.6442, 20.3077, 17.8561, 0.993529, 3.7836, -0.0750012, 0.000663273, -0.0012356, 0.00104258, 0.00132069, -0.00233662, 0.000613572, 0.00745561, -0.012795, -0.00445245, 0.015228, 0.0452585, 0.0218006, -0.0110465, -0.444615, 0.634894, -3.13153, -0.0555919, -0.108076, -0.0103576, -0.443348, 0.633908, -3.13037, -0.0551234, -0.104333, 0.00396204, 0.00620257, -0.00858229, -0.0027079, -0.00680657, -0.0136217
0.0612563, 0.107598, -0.774252, -0.917821, -1.45875, -0.626083, 1.07064, -0.256721, -0.000510367, -0.00253511, -0.0140734, -0.0340015, -0.036421, 0.0136007, -0.00203189, -0.131157, 15.7156, 20.3434, 17.9672, 0.999938, 3.79001, -0.00267457, 0.000652395, -0.0012221, 0.0010471, 0.00130372, -0.00239577, 0.000623319, 0.00788236, -0.0134943, -0.00402316, 0.0178422, 0.0438723, 0.0258147, -0.0110424, -0.444609, 0.634885, -3.13151, -0.0555937, -0.108109, -0.0103636, -0.443355, 0.633894, -3.13037, -0.0551099, -0.104275, 0.00412125, 0.00643698, -0.00891658, -0.00297858, -0.00728985, -0.0135621
0.0622563, 0.107589, -0.774254, -0.917834, -1.45879, -0.626121, 1.07064, -0.256712, -0.001405, -0.00252306, -0.0140785, -0.0309563, -0.0416773, 0.0145245, 0.00156175, -0.0914839, 15.7513, 20.3791, 18.0783, 1.00635, 3.81198, -0.0814099, 0.000639842, -0.00121013, 0.00105106, 0.00128974, -0.00246411, 0.000652791, 0.0099857, -0.0146604, -0.00263198, 0.0234206, 0.045536, 0.0185742, -0.0110382, -0.444602, 0.634876, -3.13149, -0.0555957, -0.108143, -0.0103712, -0.443361, 0.63388, -3.13037, -0.0550661, -0.104203, 0.00428343, 0.00667487, -0.00925645, -0.00496738, -0.0083036, -0.0126675
0.0632563, 0.107583, -0.774254, -0.917855, -1.45881, -0.626155, 1.07065, -0.256717, -0.00416554, -0.00168037, -0.0129437, -0.0290924, -0.0406813, 0.0113559, 0.00765222, -0.0914839, 15.7513, 20.4941, 18.0783, 1.00635, 3.80466, -0.00999879, 0.000625843, -0.00119623, 0.00105409, 0.0012754, -0.00252811, 0.000674105, 0.0112616, -0.0140096, -0.00154385, 0.022973, 0.046059, 0.0114581, -0.0110339, -0.444596, 0.634867, -3.13147, -0.0555977, -0.108178, -0.0103801, -0.443369, 0.633866, -3.13036, -0.0550349, -0.104139, 0.00444857, 0.0069162, -0.00960188, -0.00617238, -0.00746654, -0.0120119
0.0642563, 0.10758, -0.774264, -0.917872, -1.45884, -0.62619, 1.07066, -0.256712, -0.00218645, -0.00371745, -0.0132091, -0.0295191, -0.040309, 0.01314, 0.00828041, -0.131157, 15.8624, 20.5298, 18.1537, 1.01825, 3.81198, -0.0750012, 0.000611915, -0.0011825, 0.00105791, 0.00126128, -0.00258644, 0.000697815, 0.0108921, -0.0146485, -0.00136457, 0.0243669, 0.0432731, 0.0143779, -0.0110293, -0.444589, 0.634857, -3.13145, -0.0555998, -0.108215, -0.0103886, -0.443376, 0.633852, -3.13036, -0.0550001, -0.104085, 0.00461665, 0.00716091, -0.0099528, -0.00562529, -0.00784889, -0.0121632
0.0652563, 0.107581, -0.774265, -0.91789, -1.45888, -0.626224, 1.07066, -0.256719, 5.25241e-05, -0.00340538, -0.0135597, -0.02975, -0.0349478, 0.00994757, 0.00392871, -0.206535, 15.9021, 20.5655, 18.2291, 1.01825, 3.81198, -0.0164075, 0.000602399, -0.0011696, 0.0010625, 0.00125264, -0.00265676, 0.000703535, 0.00931693, -0.0137994, -0.00150257, 0.0194637, 0.0414344, 0.02477, -0.0110246, -0.444581, 0.634847, -3.13142, -0.055602, -0.108254, -0.0103926, -0.443382, 0.633836, -3.13035, -0.0549936, -0.104014, 0.00478767, 0.00740896, -0.0103092, -0.00390462, -0.00669557, -0.0125433
0.0662563, 0.107575, -0.774265, -0.917905, -1.4589, -0.626258, 1.07066, -0.256715, -0.00641959, -0.00226955, -0.0121837, -0.0315559, -0.0406345, 0.00725111, 0.00451114, -0.206535, 15.9021, 20.5298, 18.2291, 1.02466, 3.8193, -0.0557752, 0.000589704, -0.00115659, 0.00106359, 0.00123643, -0.00272547, 0.000729116, 0.0125718, -0.0136275, -0.00128093, 0.0207879, 0.0494326, 0.0183935, -0.0110198, -0.444574, 0.634836, -3.1314, -0.0556043, -0.108293, -0.0103999, -0.443388, 0.633824, -3.13035, -0.0549561, -0.103947, 0.00496161, 0.0076603, -0.010671, -0.00699706, -0.006389, -0.0129087
0.0672563, 0.107576, -0.774265, -0.917927, -1.45893, -0.626291, 1.07066, -0.25672, -0.00410893, -0.0015125, -0.01301, -0.029625, -0.039339, 0.0052308, 0.00163745, -0.242241, 15.9021, 20.5655, 18.2291, 1.01276, 3.82663, -0.00999879, 0.00057811, -0.00114287, 0.00106691, 0.00122789, -0.00279598, 0.000741766, 0.0121089, -0.0136817, -0.000764812, 0.0196478, 0.0491502, 0.0240017, -0.0110147, -0.444566, 0.634825, -3.13137, -0.0556067, -0.108334, -0.0104056, -0.443394, 0.633809, -3.13033, -0.054939, -0.103878, 0.00513848, 0.00791489, -0.0110382, -0.00639227, -0.0061769, -0.0127299
0.0682563, 0.107576, -0.774269, -0.917946, -1.45896, -0.62632, 1.07066, -0.256715, -0.00230959, -0.00184316, -0.0136391, -0.0286128, -0.0385196, 0.00375084, 0.00303114, -0.281914, 15.9378, 20.6052, 18.2291, 0.999938, 3.83304, -0.0557752, 0.000565068, -0.00113013, 0.00106941, 0.00122184, -0.00286111, 0.000763297, 0.0119862, -0.0138064, -0.000444544, 0.0187716, 0.0484618, 0.0252502, -0.0110095, -0.444558, 0.634814, -3.13135, -0.0556092, -0.108376, -0.0104127, -0.443399, 0.633794, -3.13032, -0.0549083, -0.103818, 0.00531825, 0.00817268, -0.0114107, -0.00610772, -0.00604239, -0.0127759
0.0692563, 0.107573, -0.774268, -0.917964, -1.45898, -0.626352, 1.07066, -0.256718, -0.00503729, -0.000393256, -0.0153532, -0.0299698, -0.0384081, 0.00311367, 0.00122048, -0.281914, 15.9021, 20.5655, 18.1934, 0.999938, 3.82663, -0.0292249, 0.00055256, -0.00111669, 0.00107014, 0.00120832, -0.002934, 0.000780532, 0.0132331, -0.0140715, -0.00087288, 0.0173522, 0.0512197, 0.0252567, -0.0110041, -0.44455, 0.634803, -3.13132, -0.0556118, -0.10842, -0.0104192, -0.443404, 0.633781, -3.13031, -0.0548841, -0.103749, 0.00550092, 0.00843363, -0.0117885, -0.00712901, -0.00608634, -0.0136699
0.0702563, 0.107574, -0.774263, -0.917987, -1.45901, -0.626381, 1.07065, -0.256714, -0.0030636, 0.000666072, -0.0187313, -0.0325752, -0.0322462, 0.00212023, 0.00217166, -0.317619, 15.8624, 20.6052, 18.2291, 0.963317, 3.83304, -0.0621838, 0.000542605, -0.00110349, 0.00107386, 0.00120513, -0.0030139, 0.000799074, 0.0116537, -0.0139585, -0.00234198, 0.0108373, 0.0501067, 0.0294826, -0.0109985, -0.444541, 0.634791, -3.13129, -0.0556144, -0.108465, -0.0104228, -0.443409, 0.633764, -3.13029, -0.0548584, -0.103669, 0.00568647, 0.00869769, -0.0121715, -0.0052714, -0.00564028, -0.015409
0.0712563, 0.107582, -0.77426, -0.918013, -1.45904, -0.62641, 1.07065, -0.256721, 0.000243392, 0.00127943, -0.0218937, -0.0300267, -0.0342083, 0.000539777, -0.000653301, -0.43267, 15.8267, 20.6766, 18.1934, 0.975218, 3.86233, -0.00267457, 0.000532157, -0.00108875, 0.00107643, 0.00120084, -0.00308846, 0.000807447, 0.0122766, -0.0149956, -0.00227575, 0.0103152, 0.0516503, 0.0324636, -0.0109927, -0.444532, 0.634778, -3.13127, -0.0556172, -0.108512, -0.0104267, -0.443416, 0.633749, -3.13027, -0.0548486, -0.103599, 0.00587491, 0.00896481, -0.0125597, -0.00567136, -0.00643209, -0.015782
0.0722563, 0.107576, -0.774254, -0.918037, -1.45907, -0.626435, 1.07065, -0.256712, -0.00190508, 0.00584549, -0.0224256, -0.0327489, -0.034228, -0.000804058, 0.00255782, -0.357292, 15.7513, 20.6766, 18.2291, 0.951415, 3.89804, -0.0814099, 0.000519085, -0.00107531, 0.00107945, 0.00119803, -0.00316819, 0.000837931, 0.0117681, -0.0147888, -0.00273252, 0.00856997, 0.0588215, 0.0296159, -0.0109867, -0.444523, 0.634765, -3.13124, -0.05562, -0.10856, -0.0104331, -0.44342, 0.633732, -3.13025, -0.0548046, -0.103522, 0.00606621, 0.00923495, -0.0129531, -0.00494877, -0.00593311, -0.0165952
0.0732563, 0.107578, -0.774257, -0.918065, -1.45909, -0.626465, 1.07064, -0.256717, -0.00149813, 0.00323817, -0.0278544, -0.0309338, -0.0365483, -0.00146831, 6.77159e-05, -0.357292, 15.791, 20.752, 18.2291, 0.988036, 3.92642, -0.0356336, 0.000503853, -0.00105954, 0.0010824, 0.0011932, -0.0032407, 0.000854191, 0.0152045, -0.016425, -0.00347393, 0.00710403, 0.057526, 0.0278981, -0.0109806, -0.444514, 0.634752, -3.13121, -0.055623, -0.10861, -0.0104413, -0.443427, 0.633715, -3.13023, -0.0547827, -0.103459, 0.00626038, 0.00950806, -0.0133516, -0.00807067, -0.00740917, -0.0179837
0.0742563, 0.107576, -0.774252, -0.918093, -1.45912, -0.626491, 1.07064, -0.256709, -0.00209783, 0.00328869, -0.0278016, -0.027705, -0.031604, -0.00170351, 0.00178401, -0.317619, 15.7513, 20.7917, 18.1537, 0.975218, 3.94839, -0.0814099, 0.000489117, -0.00104392, 0.0010831, 0.00118481, -0.00331656, 0.000887869, 0.0153411, -0.0162578, -0.00205606, 0.00740566, 0.0519869, 0.0279027, -0.0109742, -0.444504, 0.634739, -3.13117, -0.055626, -0.108661, -0.010449, -0.443434, 0.633699, -3.13021, -0.0547337, -0.103391, 0.00645739, 0.00978411, -0.0137552, -0.00811364, -0.00698381, -0.0169821
0.0752563, 0.107577, -0.774246, -0.918113, -1.45915, -0.62652, 1.07064, -0.256718, -0.00152684, 0.00712361, -0.0259286, -0.0280837, -0.028716, -0.00184869, -0.000948219, -0.317619, 15.6799, 20.752, 18.1934, 0.981627, 3.96945, -0.0228162, 0.000478985, -0.00102956, 0.00108399, 0.0011745, -0.00340156, 0.000893886, 0.0128752, -0.0157152, -0.00110391, 0.00805531, 0.0540104, 0.0357889, -0.0109676, -0.444494, 0.634725, -3.13114, -0.0556292, -0.108713, -0.0104519, -0.443438, 0.633684, -3.1302, -0.0547278, -0.103312, 0.00665724, 0.010063, -0.0141638, -0.00554051, -0.00608472, -0.0162669
0.0762563, 0.107579, -0.77425, -0.918141, -1.45917, -0.626546, 1.07063, -0.256706, 0.00609603, 0.00252329, -0.0265266, -0.0289862, -0.0265242, -0.0011823, 0.00230841, -0.357292, 15.791, 20.7917, 18.118, 0.988036, 3.96945, -0.101552, 0.000463619, -0.00101326, 0.00108461, 0.00116642, -0.00347201, 0.000925299, 0.0105916, -0.0162174, -0.00146512, 0.00675228, 0.0482509, 0.0428192, -0.0109609, -0.444484, 0.63471, -3.13111, -0.0556325, -0.108767, -0.0104598, -0.443445, 0.633668, -3.13018, -0.0546825, -0.103256, 0.00685993, 0.0103448, -0.0145774, -0.00301811, -0.00622103, -0.0168864
0.0772563, 0.107577, -0.774241, -0.918171, -1.45921, -0.62657, 1.07063, -0.256709, 0.00358734, 0.00372494, -0.0300626, -0.0348041, -0.0243487, -0.000750586, 0.000336567, -0.317619, 15.7156, 20.8274, 18.2648, 0.981627, 3.96945, -0.0685925, 0.000452121, -0.000998082, 0.00108971, 0.00116848, -0.00356461, 0.000940995, 0.010983, -0.0165466, -0.00365429, 0.00171304, 0.0516645, 0.0452564, -0.0109539, -0.444473, 0.634696, -3.13108, -0.0556359, -0.108823, -0.0104634, -0.44345, 0.633647, -3.13015, -0.0546623, -0.103166, 0.00706543, 0.0106294, -0.0149959, -0.00303929, -0.00625867, -0.0195192
0.0782563, 0.107582, -0.774237, -0.9182, -1.45923, -0.626597, 1.07063, -0.256713, 0.00365809, 0.00584229, -0.0294923, -0.0304696, -0.0229618, -0.000743445, -0.00098258, -0.357292, 15.7156, 20.8631, 18.1934, 0.981627, 3.97677, -0.0356336, 0.000438885, -0.000980818, 0.0010896, 0.00115791, -0.00364442, 0.000957138, 0.0109406, -0.0167821, -0.00165226, 0.00488939, 0.0500325, 0.04716, -0.0109468, -0.444463, 0.63468, -3.13104, -0.0556394, -0.10888, -0.0104688, -0.443457, 0.633631, -3.13013, -0.054641, -0.103099, 0.00727374, 0.0109167, -0.0154193, -0.0029188, -0.0062239, -0.0179451
0.0792563, 0.10758, -0.774234, -0.918225, -1.45926, -0.62662, 1.07063, -0.256705, 0.00269261, 0.00347931, -0.0304338, -0.0316704, -0.0269124, -0.000745738, 0.00179666, -0.357292, 15.7513, 20.8274, 18.1537, 0.988036, 3.9841, -0.101552, 0.000425508, -0.000964712, 0.00108918, 0.00114759, -0.00372342, 0.000983435, 0.0131038, -0.0176446, -0.00189636, 0.00611296, 0.0516512, 0.043103, -0.0109394, -0.444452, 0.634665, -3.131, -0.055643, -0.108939, -0.0104742, -0.443462, 0.633615, -3.13011, -0.054604, -0.103035, 0.00748486, 0.0112067, -0.0158476, -0.00481628, -0.00686956, -0.0187745
0.0802563, 0.107582, -0.774228, -0.918253, -1.45929, -0.626637, 1.07062, -0.256705, 0.0028207, 0.00346951, -0.0289851, -0.0301758, -0.0239848, -0.00594047, 0.000222162, -0.392998, 15.7156, 20.8274, 18.1537, 0.963317, 3.99783, -0.0750012, 0.000414467, -0.000949045, 0.00108994, 0.00114462, -0.00380592, 0.000998372, 0.0130655, -0.016464, -0.00103716, 0.00295452, 0.0511655, 0.0482194, -0.0109318, -0.44444, 0.634649, -3.13097, -0.0556467, -0.109, -0.0104769, -0.443467, 0.633597, -3.13008, -0.054585, -0.102967, 0.00769877, 0.0114994, -0.0162807, -0.00466585, -0.00540382, -0.0183407
0.0812563, 0.107581, -0.774228, -0.918289, -1.45932, -0.626657, 1.07062, -0.256703, 0.000260039, 0.0039613, -0.0328538, -0.0314915, -0.0229883, -0.00436095, 0.00161197, -0.317619, 15.791, 20.9028, 18.118, 0.969725, 3.99783, -0.114369, 0.000396747, -0.0009304, 0.00109126, 0.00113965, -0.003882, 0.00102718, 0.0148545, -0.0175067, -0.0018492, 0.00172329, 0.0512821, 0.0441895, -0.010924, -0.444429, 0.634632, -3.13093, -0.0556505, -0.109062, -0.010486, -0.443475, 0.633578, -3.13005, -0.0545446, -0.10291, 0.00791545, 0.0117947, -0.0167186, -0.00613893, -0.00620576, -0.0197217
0.0822563, 0.107578, -0.774224, -0.918326, -1.45934, -0.626679, 1.07062, -0.256711, -0.00594287, 0.00224732, -0.0315605, -0.0281628, -0.022639, -0.00320779, -0.00159977, -0.317619, 15.8267, 20.9385, 18.0426, 0.988036, 3.99783, -0.0420422, 0.000378262, -0.000911105, 0.00109102, 0.00113073, -0.003961, 0.00104893, 0.018395, -0.0177952, 0.000223821, 0.00643375, 0.0466209, 0.0423827, -0.010916, -0.444417, 0.634615, -3.13089, -0.0556545, -0.109126, -0.0104957, -0.443482, 0.63356, -3.13003, -0.0545151, -0.10285, 0.00813491, 0.0120926, -0.0171612, -0.00958259, -0.00634054, -0.0183466
0.0832563, 0.107579, -0.77422, -0.918354, -1.45937, -0.626693, 1.07062, -0.2567, -0.0044002, 0.000994245, -0.0289972, -0.0299334, -0.0211563, -0.00158399, 0.00161551, -0.317619, 15.8624, 20.9028, 18.0069, 0.975218, 3.97677, -0.114369, 0.000366711, -0.000893623, 0.00108935, 0.0011192, -0.00403776, 0.00107442, 0.016639, -0.0176724, 0.000925183, 0.008551, 0.0446502, 0.0460228, -0.0109077, -0.444404, 0.634598, -3.13085, -0.0556585, -0.109191, -0.0104984, -0.443488, 0.633543, -3.13, -0.0544798, -0.102796, 0.00835714, 0.012393, -0.0176085, -0.00766275, -0.00586237, -0.0179723
0.0842563, 0.107587, -0.774216, -0.918389, -1.4594, -0.626711, 1.07062, -0.256705, -0.00149894, 0.000911269, -0.0311269, -0.0291866, -0.0253468, -0.000173855, -0.000853324, -0.392998, 15.8624, 20.9028, 18.0069, 0.975218, 3.94839, -0.0621838, 0.000354782, -0.000874275, 0.00109013, 0.00111327, -0.00412101, 0.00108461, 0.0170985, -0.0192338, 0.00105235, 0.0113572, 0.0468386, 0.0491388, -0.0108992, -0.444392, 0.63458, -3.13081, -0.0556627, -0.109258, -0.010501, -0.443495, 0.633524, -3.12997, -0.0544686, -0.102734, 0.00858211, 0.0126959, -0.0180604, -0.00784871, -0.00713732, -0.018342
0.0852563, 0.107593, -0.774208, -0.918427, -1.45943, -0.626728, 1.07062, -0.256701, -0.000317806, 0.00390314, -0.0336063, -0.0267339, -0.0194927, 0.000299865, 0.000891014, -0.43267, 15.8624, 20.9385, 17.9315, 0.988036, 3.93374, -0.101552, 0.000341674, -0.000854127, 0.00108971, 0.00110527, -0.0042056, 0.0011094, 0.0159855, -0.0195413, 0.00168348, 0.00998713, 0.043847, 0.0499941, -0.0108905, -0.444379, 0.634562, -3.13077, -0.055667, -0.109327, -0.0105047, -0.443503, 0.633505, -3.12995, -0.0544349, -0.10267, 0.00880983, 0.0130012, -0.018517, -0.00654417, -0.00710623, -0.018095
0.0862563, 0.107594, -0.774204, -0.918473, -1.45945, -0.626743, 1.07062, -0.256707, -0.000396771, 0.00207293, -0.0349285, -0.0296946, -0.0202108, 0.00064737, -0.00160866, -0.43267, 15.9021, 21.0892, 17.9315, 1.01276, 3.9191, -0.0420422, 0.000323499, -0.000832469, 0.00109146, 0.00110287, -0.00428648, 0.00113176, 0.0167007, -0.0200893, 0.000849642, 0.00887834, 0.0445541, 0.0543865, -0.0108816, -0.444366, 0.634543, -3.13072, -0.0556715, -0.109398, -0.0105129, -0.443512, 0.633483, -3.12991, -0.0544052, -0.102614, 0.00904028, 0.013309, -0.0189781, -0.00694898, -0.00736329, -0.0194434
0.0872563, 0.1076, -0.774198, -0.918505, -1.45948, -0.626758, 1.07063, -0.256698, 0.00136005, 0.00168109, -0.0334674, -0.0269326, -0.021414, 0.0008689, 0.00184471, -0.508049, 15.9021, 21.0138, 17.8561, 1.05578, 3.90536, -0.120778, 0.000311752, -0.000812858, 0.00108815, 0.00108896, -0.00436936, 0.00115587, 0.0165677, -0.0205102, 0.00254569, 0.0128775, 0.0432978, 0.0536156, -0.0108725, -0.444352, 0.634524, -3.13068, -0.0556761, -0.10947, -0.010515, -0.443519, 0.633466, -3.12989, -0.0543725, -0.102558, 0.00927346, 0.0136191, -0.0194438, -0.00668628, -0.00748565, -0.0182125
0.0882563, 0.107604, -0.774192, -0.918546, -1.45951, -0.62677, 1.07063, -0.256703, 0.00163791, 0.00359487, -0.0331147, -0.0313981, -0.0212441, 0.00239075, -0.00144818, -0.543754, 15.9378, 21.0892, 17.9315, 1.0741, 3.85501, -0.0484509, 0.00029933, -0.000791394, 0.00108948, 0.00108313, -0.00445496, 0.00116787, 0.0148458, -0.0206848, 0.00196648, 0.0128947, 0.047386, 0.0616549, -0.0108631, -0.444339, 0.634504, -3.13064, -0.0556808, -0.109544, -0.010517, -0.443527, 0.633444, -3.12985, -0.0543591, -0.102498, 0.00950935, 0.0139315, -0.0199139, -0.00468702, -0.00728159, -0.0191428
0.0892563, 0.107607, -0.774185, -0.918591, -1.45953, -0.626787, 1.07064, -0.2567, 0.00101394, 0.00198672, -0.0366913, -0.0276065, -0.0220439, 0.00368995, 0.000764456, -0.543754, 15.9735, 21.2003, 17.8204, 1.11713, 3.79733, -0.0951428, 0.000280463, -0.000767105, 0.00108656, 0.00106678, -0.00453638, 0.00120366, 0.017781, -0.0222596, 0.00267703, 0.0150474, 0.0436095, 0.0556197, -0.0108534, -0.444325, 0.634484, -3.13059, -0.0556856, -0.10962, -0.0105255, -0.443537, 0.633425, -3.12983, -0.0543085, -0.102447, 0.00974794, 0.0142462, -0.0203885, -0.00736774, -0.00865106, -0.0191275
0.0902563, 0.10761, -0.77418, -0.91863, -1.45957, -0.626806, 1.07064, -0.256703, -0.000217765, 0.00398374, -0.0397376, -0.0298488, -0.0225335, 0.00429485, -0.00145662, -0.508049, 16.0092, 21.2003, 17.9315, 1.16015, 3.74698, -0.0420422, 0.000266721, -0.000745092, 0.00108707, 0.00105585, -0.00463035, 0.00121836, 0.0184883, -0.0230998, 0.00179047, 0.0137347, 0.0474419, 0.0570688, -0.0108436, -0.44431, 0.634463, -3.13054, -0.0556906, -0.109698, -0.0105285, -0.443545, 0.633403, -3.1298, -0.0542911, -0.102379, 0.00998923, 0.0145631, -0.0208674, -0.00773946, -0.00919004, -0.0205485
0.0912563, 0.107622, -0.774171, -0.918671, -1.45959, -0.62682, 1.07065, -0.256696, 0.0024094, 0.00632269, -0.0375708, -0.0291275, -0.0223757, 0.00494299, 0.0012333, -0.619133, 16.0092, 21.2757, 17.8204, 1.19037, 3.69021, -0.101552, 0.000254333, -0.000721305, 0.001083, 0.00103833, -0.00471532, 0.00124409, 0.016191, -0.0231504, 0.00319214, 0.0169855, 0.0489763, 0.0602264, -0.0108335, -0.444295, 0.634442, -3.13049, -0.0556957, -0.109777, -0.0105301, -0.443555, 0.633385, -3.12977, -0.0542564, -0.102326, 0.0102332, 0.0148823, -0.0213508, -0.00530138, -0.00885456, -0.0194748
0.0922563, 0.107622, -0.774167, -0.918708, -1.45962, -0.626833, 1.07066, -0.256702, 0.000738142, 0.00626634, -0.0363133, -0.0313706, -0.0221067, 0.00514337, -0.0013816, -0.583427, 16.0846, 21.236, 17.8204, 1.21509, 3.63986, -0.0420422, 0.000239503, -0.000698554, 0.00107972, 0.00102045, -0.00480021, 0.0012578, 0.0162265, -0.0230379, 0.00343956, 0.0176664, 0.0501983, 0.0653075, -0.0108231, -0.44428, 0.634421, -3.13044, -0.0557009, -0.109858, -0.0105339, -0.443563, 0.633366, -3.12975, -0.0542404, -0.102276, 0.0104799, 0.0152035, -0.0218384, -0.00511133, -0.00842478, -0.0197192
0.0932563, 0.107623, -0.774162, -0.918754, -1.45965, -0.626848, 1.07066, -0.256696, 0.00267056, 0.00718863, -0.0383364, -0.0298683, -0.0217435, 0.00473865, 0.0010458, -0.543754, 16.1203, 21.3114, 17.8204, 1.2334, 3.60415, -0.0951428, 0.000219908, -0.000673947, 0.00107772, 0.00100767, -0.00488865, 0.00129435, 0.0162541, -0.0237469, 0.00377552, 0.0176006, 0.0503734, 0.0645779, -0.0108125, -0.444265, 0.634399, -3.13039, -0.0557063, -0.109941, -0.010542, -0.443573, 0.633344, -3.12972, -0.0541894, -0.102221, 0.0107292, 0.0155269, -0.0223304, -0.00488766, -0.00881441, -0.0198853
0.0942563, 0.107638, -0.774153, -0.918801, -1.45967, -0.626865, 1.07067, -0.256699, 0.00471405, 0.00878668, -0.0428493, -0.0263245, -0.0217012, 0.00528581, -4.86459e-05, -0.658806, 16.1203, 21.3868, 17.7054, 1.25812, 3.54648, -0.0750012, 0.000206599, -0.000647136, 0.00107303, 0.000985958, -0.00497665, 0.00131242, 0.0172171, -0.0252634, 0.00413729, 0.0180704, 0.0497714, 0.0643997, -0.0108016, -0.444249, 0.634376, -3.13034, -0.0557118, -0.110026, -0.0105437, -0.443585, 0.633325, -3.12969, -0.0541669, -0.102169, 0.0109812, 0.0158524, -0.0228265, -0.00556664, -0.0100423, -0.0201019
0.0952563, 0.107638, -0.774151, -0.918847, -1.4597, -0.626877, 1.07068, -0.256696, 0.00467172, 0.0081454, -0.0429668, -0.0280741, -0.0164809, 0.0045679, 0.000713658, -0.583427, 16.1957, 21.4582, 17.7808, 1.27002, 3.5181, -0.0951428, 0.000186869, -0.000622662, 0.00107221, 0.000976909, -0.00506725, 0.00134209, 0.0163898, -0.024776, 0.00400201, 0.015027, 0.0468817, 0.0688439, -0.0107905, -0.444233, 0.634353, -3.13029, -0.0557175, -0.110113, -0.0105514, -0.443594, 0.633301, -3.12966, -0.054127, -0.102115, 0.0112358, 0.0161798, -0.0233269, -0.00449532, -0.00919744, -0.0206774
0.0962563, 0.107646, -0.774145, -0.918894, -1.45973, -0.626896, 1.07069, -0.256703, 0.0074045, 0.00860288, -0.0462577, -0.0255457, -0.01761, 0.00463361, -0.0017282, -0.619133, 16.2314, 21.5336, 17.7054, 1.28833, 3.47507, -0.0356336, 0.000169146, -0.00059559, 0.00106749, 0.000955237, -0.00515933, 0.00136258, 0.0170753, -0.0260864, 0.00430543, 0.0157047, 0.0468891, 0.0716266, -0.0107792, -0.444217, 0.634329, -3.13024, -0.0557233, -0.110202, -0.010557, -0.443605, 0.633281, -3.12963, -0.0541011, -0.102061, 0.011493, 0.0165093, -0.0238314, -0.00489572, -0.010205, -0.0209399
0.0972563, 0.107647, -0.774133, -0.918941, -1.45975, -0.626909, 1.07069, -0.256702, 0.00372471, 0.0106339, -0.0486469, -0.0274078, -0.0181989, 0.00440748, -0.00186415, -0.543754, 16.1957, 21.6089, 17.634, 1.30115, 3.43936, -0.0164075, 0.000150318, -0.000569699, 0.0010622, 0.000936872, -0.00525602, 0.00139566, 0.0188467, -0.0266312, 0.00375859, 0.0145828, 0.0509711, 0.0689151, -0.0107676, -0.4442, 0.634305, -3.13018, -0.0557293, -0.110292, -0.0105636, -0.443615, 0.633261, -3.1296, -0.0540559, -0.102001, 0.0117529, 0.0168407, -0.0243401, -0.00634377, -0.0104751, -0.0221254
0.0982563, 0.107655, -0.774132, -0.918982, -1.45978, -0.626917, 1.0707, -0.256698, 0.00289685, 0.00546222, -0.0479459, -0.0248855, -0.0128076, 0.00347785, 0.000690056, -0.543754, 16.3068, 21.5732, 17.6697, 1.28284, 3.42471, -0.0685925, 0.000135909, -0.000545195, 0.00105771, 0.000921455, -0.00534485, 0.00141325, 0.0203538, -0.0262792, 0.00501386, 0.0139491, 0.0407258, 0.069355, -0.0107557, -0.444183, 0.634281, -3.13012, -0.0557354, -0.110385, -0.0105654, -0.443623, 0.633239, -3.12956, -0.054035, -0.101955, 0.0120154, 0.017174, -0.0248528, -0.00768449, -0.00985629, -0.0214923
0.0992563, 0.107663, -0.774117, -0.919029, -1.45981, -0.626931, 1.0707, -0.256701, 0.00537637, 0.00923525, -0.0499703, -0.0275927, -0.0144629, 0.00231631, -0.000285915, -0.543754, 16.2314, 21.6446, 17.634, 1.28833, 3.42471, -0.0484509, 0.000120169, -0.000519339, 0.00105266, 0.000906132, -0.00545108, 0.00143547, 0.0188972, -0.0267806, 0.00411329, 0.0119763, 0.0484146, 0.0738527, -0.0107435, -0.444166, 0.634256, -3.13007, -0.0557417, -0.110479, -0.0105683, -0.443632, 0.633218, -3.12953, -0.0540072, -0.101884, 0.0122806, 0.0175091, -0.0253696, -0.00588604, -0.00996184, -0.022811
0.100256, 0.107669, -0.774115, -0.919081, -1.45983, -0.626945, 1.0707, -0.256701, 0.00636436, 0.00519852, -0.0523909, -0.0244429, -0.015794, 0.00181378, -0.000190585, -0.508049, 16.3068, 21.7597, 17.5189, 1.29474, 3.41739, -0.0484509, 9.69933e-05, -0.00049081, 0.00104624, 0.000886179, -0.00554032, 0.00146932, 0.0216717, -0.0279408, 0.00471168, 0.0129899, 0.0439333, 0.0726797, -0.0107311, -0.444148, 0.63423, -3.13001, -0.0557481, -0.110576, -0.0105784, -0.443644, 0.633197, -3.1295, -0.0539612, -0.101842, 0.0125483, 0.0178461, -0.0258904, -0.00838453, -0.0108885, -0.0229429
0.101256, 0.107668, -0.774108, -0.919124, -1.45986, -0.626958, 1.0707, -0.256705, 0.0044905, 0.00631795, -0.0483424, -0.0276918, -0.0169739, 0.000665379, -0.00131383, -0.357292, 16.3425, 21.7597, 17.634, 1.30755, 3.43204, -0.0164075, 7.81894e-05, -0.000466338, 0.00104191, 0.000873053, -0.0056467, 0.00148997, 0.0207814, -0.0271319, 0.00541713, 0.0145595, 0.0486588, 0.0781482, -0.0107184, -0.44413, 0.634204, -3.12995, -0.0557547, -0.110674, -0.0105838, -0.443651, 0.633174, -3.12946, -0.0539363, -0.101775, 0.0128186, 0.0181849, -0.0264151, -0.00730549, -0.00971768, -0.0226975
0.102256, 0.107675, -0.774101, -0.919173, -1.45988, -0.626972, 1.07071, -0.256702, 0.00686095, 0.00492172, -0.0470812, -0.0277041, -0.0128581, 0.000985168, 0.00031092, -0.357292, 16.3425, 21.8311, 17.5189, 1.31305, 3.41739, -0.0484509, 5.81626e-05, -0.000437887, 0.00103387, 0.00084936, -0.00574366, 0.00152303, 0.0191533, -0.0268946, 0.00622283, 0.0145984, 0.0441778, 0.0838772, -0.0107055, -0.444112, 0.634177, -3.12989, -0.0557614, -0.110774, -0.0105903, -0.443661, 0.633153, -3.12943, -0.0538918, -0.101724, 0.0130915, 0.0185254, -0.0269437, -0.00547502, -0.0090915, -0.0223082
0.103256, 0.107681, -0.77409, -0.919217, -1.45992, -0.626988, 1.0707, -0.256702, 0.00445815, 0.00781166, -0.0443679, -0.0282518, -0.0149672, -0.000429005, 0.00020729, -0.317619, 16.3068, 21.8311, 17.5586, 1.33136, 3.44668, -0.0484509, 4.10528e-05, -0.000411852, 0.00102781, 0.000832764, -0.00585828, 0.00154597, 0.0191648, -0.0265196, 0.0074424, 0.017179, 0.0498109, 0.0849731, -0.0106922, -0.444093, 0.63415, -3.12983, -0.0557683, -0.110876, -0.0105936, -0.443669, 0.633131, -3.12939, -0.0538636, -0.101648, 0.0133669, 0.0188676, -0.0274763, -0.00531067, -0.00838825, -0.0216249
0.104256, 0.107678, -0.774088, -0.919262, -1.45994, -0.627, 1.0707, -0.256701, 0.00412876, 0.0063656, -0.0456429, -0.0258248, -0.0160693, -0.000523899, -0.000811235, -0.206535, 16.4178, 21.8311, 17.4832, 1.33777, 3.45309, -0.0228162, 1.61754e-05, -0.000385157, 0.00101869, 0.000811153, -0.00595501, 0.00158023, 0.0211386, -0.027376, 0.00833385, 0.0190821, 0.0479527, 0.0850036, -0.0106787, -0.444074, 0.634122, -3.12976, -0.0557754, -0.110981, -0.0106045, -0.443678, 0.63311, -3.12936, -0.0538176, -0.101602, 0.0136449, 0.0192114, -0.0280126, -0.00703259, -0.00897973, -0.021422
0.105256, 0.107687, -0.774071, -0.919309, -1.45997, -0.627015, 1.0707, -0.256703, 0.00430675, 0.0107187, -0.0434694, -0.0298206, -0.0126427, -0.000112309, -0.000540817, -0.242241, 16.3068, 21.8311, 17.5189, 1.35608, 3.44668, -0.0228162, 1.09934e-06, -0.00035763, 0.00101174, 0.00079137, -0.00607623, 0.00160035, 0.0177538, -0.0266295, 0.00848034, 0.0184525, 0.0522233, 0.0923323, -0.0106649, -0.444055, 0.634094, -3.1297, -0.0557826, -0.111087, -0.0106052, -0.443687, 0.633088, -3.12932, -0.0537941, -0.10152, 0.0139255, 0.0195569, -0.0285528, -0.0034153, -0.00777102, -0.0215726
0.106256, 0.107685, -0.774064, -0.919355, -1.45999, -0.627026, 1.0707, -0.256701, 0.00394561, 0.0102303, -0.046005, -0.0271824, -0.00936722, -0.000855068, 0.000588895, -0.131157, 16.3425, 21.8708, 17.4435, 1.35608, 3.46774, -0.0484509, -2.25691e-05, -0.000330556, 0.00100196, 0.000770397, -0.00618159, 0.00163607, 0.0191175, -0.0271056, 0.00906174, 0.017249, 0.0482518, 0.0912298, -0.0106509, -0.444035, 0.634065, -3.12963, -0.05579, -0.111195, -0.0106143, -0.443695, 0.633067, -3.12928, -0.0537463, -0.101465, 0.0142086, 0.019904, -0.0290967, -0.0045159, -0.0079546, -0.0216404
0.107256, 0.107692, -0.774054, -0.919404, -1.46002, -0.627039, 1.0707, -0.256704, 0.00413121, 0.0108732, -0.0486033, -0.026234, -0.0175656, -0.00111281, -0.000319477, -0.166862, 16.3425, 21.9422, 17.4078, 1.38721, 3.48239, -0.0292249, -4.22144e-05, -0.000301673, 0.000993796, 0.000748907, -0.00629421, 0.00166033, 0.0217685, -0.0288764, 0.00919252, 0.0206132, 0.0549738, 0.0880589, -0.0106365, -0.444015, 0.634036, -3.12957, -0.0557975, -0.111306, -0.010619, -0.443704, 0.633044, -3.12924, -0.0537166, -0.1014, 0.0144943, 0.0202526, -0.0296444, -0.00681884, -0.00947119, -0.0222641
0.108256, 0.107685, -0.774048, -0.919444, -1.46006, -0.627052, 1.0707, -0.256704, 0.00282765, 0.0095763, -0.0448224, -0.0302828, -0.0130271, -0.00125067, -0.000450341, -0.0161054, 16.4178, 21.9065, 17.4435, 1.38721, 3.49612, -0.0228162, -6.54146e-05, -0.000275911, 0.000984319, 0.000727543, -0.00641047, 0.00168972, 0.020066, -0.0276791, 0.00958051, 0.0197313, 0.0530008, 0.0961541, -0.0106219, -0.443995, 0.634006, -3.1295, -0.0558053, -0.111418, -0.0106272, -0.44371, 0.633022, -3.12921, -0.0536791, -0.101332, 0.0147825, 0.0206027, -0.0301957, -0.00490438, -0.00786937, -0.0223006
0.109256, 0.107689, -0.774035, -0.919483, -1.46008, -0.627064, 1.0707, -0.256706, 0.00344591, 0.010548, -0.0389782, -0.0306347, -0.0147211, -0.00110517, -0.000774943, -0.0557783, 16.4178, 21.8708, 17.3721, 1.39911, 3.50345, -0.00999879, -8.30689e-05, -0.000249053, 0.000971815, 0.000699491, -0.00652767, 0.00171033, 0.0181187, -0.0270799, 0.0117428, 0.0253015, 0.0553963, 0.103061, -0.010607, -0.443974, 0.633975, -3.12943, -0.0558132, -0.111532, -0.0106297, -0.443717, 0.633002, -3.12917, -0.0536552, -0.101265, 0.0150731, 0.0209542, -0.0307507, -0.00284798, -0.00687468, -0.0205583
0.110256, 0.107686, -0.77403, -0.919527, -1.46012, -0.627073, 1.0707, -0.256702, 0.00100863, 0.0103553, -0.0425088, -0.0355383, -0.0151912, -0.00127941, 0.000907526, 0.0196001, 16.4536, 21.9065, 17.3721, 1.38721, 3.5181, -0.0484509, -0.000105421, -0.000221846, 0.000962342, 0.000679213, -0.00664215, 0.0017419, 0.0197573, -0.0277515, 0.00988139, 0.021577, 0.0592179, 0.100714, -0.0105917, -0.443953, 0.633944, -3.12936, -0.0558213, -0.111649, -0.0106364, -0.443724, 0.632979, -3.12913, -0.0536147, -0.101203, 0.0153663, 0.0213072, -0.0313093, -0.00403234, -0.00723091, -0.0230994
0.111256, 0.107684, -0.774018, -0.919567, -1.46015, -0.627082, 1.07069, -0.256701, 0.000100347, 0.0110181, -0.0410654, -0.0385667, -0.0158124, -0.00163291, -0.000344417, 0.059273, 16.4536, 21.9065, 17.3325, 1.3808, 3.53915, -0.0228162, -0.000125045, -0.000195246, 0.000950221, 0.000653619, -0.00676254, 0.00176644, 0.0192938, -0.0275891, 0.00997605, 0.0219859, 0.0626718, 0.105588, -0.0105762, -0.443931, 0.633913, -3.12929, -0.0558295, -0.111768, -0.0106403, -0.44373, 0.632958, -3.12909, -0.0535852, -0.101135, 0.015662, 0.0216616, -0.0318714, -0.00328757, -0.00669967, -0.0235361
0.112256, 0.107684, -0.774006, -0.919605, -1.46018, -0.627097, 1.07069, -0.256702, 0.00347372, 0.0123013, -0.0402109, -0.0377909, -0.0172445, -0.00217373, 0.000245107, 0.059273, 16.4178, 21.9065, 17.2968, 1.39911, 3.56845, -0.0356336, -0.000144893, -0.000167808, 0.00093685, 0.000623641, -0.00688939, 0.00179092, 0.0179067, -0.0279372, 0.0109439, 0.0241064, 0.065046, 0.110113, -0.0105604, -0.443909, 0.63388, -3.12921, -0.055838, -0.111888, -0.0106442, -0.443736, 0.632937, -3.12906, -0.0535559, -0.101059, 0.0159602, 0.0220173, -0.0324371, -0.00166359, -0.00665439, -0.0230435
0.113256, 0.10768, -0.773999, -0.919646, -1.46022, -0.627107, 1.07069, -0.256706, 0.00194247, 0.0106709, -0.0435595, -0.0365621, -0.0173154, -0.0120852, -0.0010573, 0.0949785, 16.4893, 21.9422, 17.3721, 1.3927, 3.58951, -0.00267457, -0.000166169, -0.000140706, 0.000927056, 0.000601959, -0.00701529, 0.00181008, 0.0217522, -0.0271981, 0.0100922, 0.0151829, 0.0680512, 0.108853, -0.0105443, -0.443887, 0.633848, -3.12914, -0.0558466, -0.112011, -0.0106489, -0.443742, 0.632912, -3.12901, -0.0535353, -0.100986, 0.0162609, 0.0223744, -0.0330063, -0.0051625, -0.00568573, -0.0247348
0.114256, 0.107676, -0.773986, -0.91968, -1.46025, -0.627117, 1.07069, -0.2567, 0.000713369, 0.0121122, -0.0380289, -0.0354713, -0.0132056, -0.00969195, 0.00149918, 0.134651, 16.4536, 21.9065, 17.2968, 1.39911, 3.61148, -0.0621838, -0.0001852, -0.00011411, 0.000911523, 0.000568471, -0.00714266, 0.00183872, 0.0195115, -0.0264425, 0.0128887, 0.0209238, 0.064456, 0.1129, -0.0105279, -0.443865, 0.633814, -3.12906, -0.0558554, -0.112136, -0.0106515, -0.443747, 0.632893, -3.12898, -0.0534998, -0.100914, 0.016564, 0.0227327, -0.033579, -0.00285303, -0.00452565, -0.0223546
0.115256, 0.107674, -0.773986, -0.919716, -1.46029, -0.627123, 1.07069, -0.256707, -9.98341e-05, 0.01196, -0.0356766, -0.039894, -0.00963476, -0.00680606, -0.00120459, 0.170357, 16.6003, 21.9422, 17.2968, 1.3927, 3.60415, -0.00267457, -0.000206445, -8.67543e-05, 0.000897994, 0.000538844, -0.00725669, 0.00185003, 0.0175131, -0.0261542, 0.0130727, 0.0220284, 0.0631664, 0.122795, -0.0105112, -0.443842, 0.633781, -3.12899, -0.0558644, -0.112263, -0.0106559, -0.443752, 0.632871, -3.12894, -0.0534914, -0.100865, 0.0168696, 0.0230922, -0.034155, -0.000579753, -0.00381055, -0.0226047
0.116256, 0.107666, -0.773974, -0.919754, -1.46033, -0.627135, 1.07068, -0.256701, -0.00163494, 0.0123922, -0.0370426, -0.0364011, -0.00837738, -0.00527066, 0.00116363, 0.245735, 16.6003, 21.9819, 17.2968, 1.42383, 3.61148, -0.0557752, -0.000228127, -5.94732e-05, 0.000884731, 0.000510308, -0.00739289, 0.00188181, 0.0190907, -0.0270625, 0.0145584, 0.0251357, 0.0599041, 0.118906, -0.0104942, -0.443818, 0.633746, -3.12891, -0.0558736, -0.112393, -0.0106604, -0.443757, 0.632848, -3.1289, -0.0534517, -0.100782, 0.0171776, 0.0234529, -0.0347344, -0.00191856, -0.0044312, -0.0218273
0.117256, 0.107665, -0.773964, -0.919784, -1.46037, -0.627145, 1.07068, -0.256704, -0.00094382, 0.012663, -0.0339354, -0.037543, -0.00642327, -0.00386029, -0.000444951, 0.245735, 16.6003, 21.9819, 17.1857, 1.43024, 3.61148, -0.0228162, -0.000246093, -3.21971e-05, 0.000866855, 0.000471378, -0.00752128, 0.00189486, 0.0172107, -0.0267819, 0.0158086, 0.0279507, 0.0588567, 0.127344, -0.0104768, -0.443795, 0.633711, -3.12883, -0.0558829, -0.112524, -0.0106612, -0.443761, 0.632829, -3.12887, -0.0534408, -0.100715, 0.017488, 0.0238148, -0.0353172, 0.000165359, -0.00373809, -0.021029
0.118256, 0.107652, -0.773962, -0.919818, -1.46041, -0.627153, 1.07068, -0.256702, -0.00725662, 0.00703184, -0.0325063, -0.0411786, -0.00987626, -0.00283341, 0.000652802, 0.400459, 16.7114, 22.0176, 17.1857, 1.44214, 3.61148, -0.0484509, -0.0002708, -4.86309e-06, 0.000852291, 0.000439333, -0.00764738, 0.00192314, 0.0213423, -0.0271601, 0.015805, 0.0304148, 0.0578512, 0.123545, -0.0104592, -0.443771, 0.633676, -3.12875, -0.0558925, -0.112658, -0.0106682, -0.443766, 0.632806, -3.12883, -0.0534067, -0.100654, 0.0178009, 0.0241778, -0.0359033, -0.00362706, -0.00390006, -0.0219235
0.119256, 0.107649, -0.773957, -0.919856, -1.46045, -0.627159, 1.07068, -0.256706, -0.00585057, 0.00474391, -0.0362424, -0.0406859, -0.00775492, -0.00235512, -0.000988952, 0.436165, 16.7471, 22.1287, 17.1857, 1.45404, 3.6188, -0.00999879, -0.000291332, 2.34176e-05, 0.000838569, 0.00041018, -0.00777817, 0.00193631, 0.0225391, -0.0281882, 0.0154268, 0.0286143, 0.0538448, 0.126793, -0.0104412, -0.443746, 0.633639, -3.12867, -0.0559023, -0.112794, -0.0106706, -0.44377, 0.632782, -3.12879, -0.0533964, -0.100587, 0.0181163, 0.0245419, -0.0364926, -0.00444143, -0.00460256, -0.0229899
0.120256, 0.107646, -0.773948, -0.919875, -1.4605, -0.627164, 1.07068, -0.256702, -0.00810139, 0.00466625, -0.0337267, -0.0436109, -0.0104274, -0.00171627, 0.000764852, 0.475838, 16.7114, 22.0176, 17.1857, 1.45404, 3.6188, -0.0484509, -0.000304324, 4.83706e-05, 0.000818892, 0.000367743, -0.00791241, 0.00194296, 0.0228837, -0.0282299, 0.0159943, 0.0316387, 0.0575151, 0.127224, -0.0104229, -0.443722, 0.633603, -3.12858, -0.0559122, -0.112932, -0.0106657, -0.443771, 0.632763, -3.12876, -0.053396, -0.100518, 0.018434, 0.0249071, -0.0370852, -0.0045074, -0.00429917, -0.023046
0.121256, 0.107636, -0.773941, -0.919911, -1.46054, -0.627174, 1.07068, -0.2567, -0.00752572, 0.00361215, -0.0342697, -0.0413856, -0.0131816, -0.000440017, 3.51836e-05, 0.551216, 16.7114, 22.1287, 17.146, 1.47327, 3.59683, -0.0356336, -0.000327714, 7.78915e-05, 0.000802853, 0.000330003, -0.0080483, 0.00196946, 0.0242747, -0.029404, 0.0172064, 0.0358866, 0.0567635, 0.127968, -0.0104044, -0.443697, 0.633565, -3.1285, -0.0559224, -0.113072, -0.0106704, -0.443777, 0.63274, -3.12872, -0.0533652, -0.100448, 0.0187541, 0.0252732, -0.0376809, -0.00561962, -0.00517109, -0.0225488
0.122256, 0.10763, -0.773942, -0.919942, -1.46059, -0.627183, 1.07068, -0.256701, -0.00612353, 0.00427043, -0.0358708, -0.0408265, -0.0106645, -0.000646842, 0.000260815, 0.586922, 16.7828, 22.1683, 17.146, 1.49707, 3.60415, -0.0420422, -0.000350225, 0.000106246, 0.000785939, 0.00029314, -0.00817956, 0.00198426, 0.0239075, -0.0297926, 0.0175109, 0.0349734, 0.0556119, 0.131146, -0.0103854, -0.443671, 0.633527, -3.12841, -0.0559327, -0.113214, -0.010674, -0.44378, 0.632717, -3.12868, -0.0533527, -0.100387, 0.0190766, 0.0256403, -0.0382798, -0.00494004, -0.00518452, -0.0228257
0.123256, 0.107624, -0.773931, -0.919969, -1.46063, -0.627189, 1.07068, -0.256705, -0.00834492, 0.00817911, -0.0360975, -0.0417637, -0.00833082, -0.0004929, -0.000775559, 0.626595, 16.7114, 22.1683, 17.0706, 1.50989, 3.60415, -0.0164075, -0.000368329, 0.000133932, 0.000765448, 0.000249275, -0.00831926, 0.00199441, 0.0234062, -0.0297427, 0.0180148, 0.0349889, 0.0585406, 0.133696, -0.0103662, -0.443645, 0.633489, -3.12833, -0.0559433, -0.113359, -0.0106733, -0.443783, 0.632697, -3.12864, -0.0533475, -0.100316, 0.0194015, 0.0260084, -0.0388819, -0.00415475, -0.00475645, -0.0228932
0.124256, 0.107621, -0.773932, -0.919999, -1.46068, -0.627194, 1.07068, -0.256698, -0.00911159, 0.00528604, -0.0332866, -0.0439106, -0.00587633, 0.000438948, 0.000669755, 0.626595, 16.7471, 22.1683, 17.0706, 1.50348, 3.58218, -0.0484509, -0.000388084, 0.000162783, 0.000747442, 0.000209772, -0.00845016, 0.0020104, 0.0229826, -0.0293486, 0.0187858, 0.0363281, 0.0548742, 0.138252, -0.0103466, -0.443619, 0.633449, -3.12824, -0.0559541, -0.113506, -0.0106736, -0.443786, 0.632674, -3.1286, -0.0533336, -0.100261, 0.0197288, 0.0263773, -0.039487, -0.0034764, -0.00398959, -0.0226997
0.125256, 0.107618, -0.773934, -0.920026, -1.46072, -0.627203, 1.07068, -0.256697, -0.00664573, 0.00319019, -0.0343226, -0.0460786, -0.00593111, -0.00466267, 0.000446503, 0.626595, 16.7828, 22.1683, 17.0706, 1.54651, 3.58951, -0.0484509, -0.000408902, 0.000191442, 0.00072829, 0.000167663, -0.00858701, 0.00202115, 0.0232655, -0.0289527, 0.0178692, 0.0309041, 0.0571598, 0.14357, -0.0103267, -0.443593, 0.63341, -3.12815, -0.055965, -0.113655, -0.0106747, -0.443789, 0.632652, -3.12857, -0.0533279, -0.100199, 0.0200585, 0.0267472, -0.0400951, -0.00337803, -0.00322469, -0.0242436
0.126256, 0.107612, -0.773928, -0.920054, -1.46077, -0.627206, 1.07069, -0.256702, -0.00485899, 0.00510129, -0.0320021, -0.0463786, -0.00359079, -0.00301329, -0.000414408, 0.626595, 16.6718, 22.1683, 17.0349, 1.5282, 3.57577, -0.0292249, -0.000427451, 0.000220107, 0.00070815, 0.000125181, -0.00872651, 0.00202596, 0.0207499, -0.0288754, 0.019228, 0.0338054, 0.0568605, 0.151606, -0.0103065, -0.443566, 0.633369, -3.12806, -0.0559762, -0.113807, -0.0106733, -0.443792, 0.63263, -3.12853, -0.0533317, -0.100135, 0.0203905, 0.0271178, -0.0407063, -0.000641174, -0.00270622, -0.0233205
0.127256, 0.107603, -0.773936, -0.920083, -1.46083, -0.627211, 1.07068, -0.256696, -0.00532394, 0.00108443, -0.0334045, -0.047654, -0.00378292, -0.00231896, 0.00118179, 0.701973, 16.7828, 22.1683, 17.0349, 1.55932, 3.57577, -0.0685925, -0.000452281, 0.000248464, 0.000689919, 8.85063e-05, -0.00886084, 0.00204488, 0.0226249, -0.0296406, 0.0190169, 0.0337895, 0.0538286, 0.151431, -0.010286, -0.443538, 0.633328, -3.12796, -0.0559876, -0.113961, -0.0106777, -0.443794, 0.632605, -3.12848, -0.053314, -0.100081, 0.0207248, 0.0274892, -0.0413204, -0.002134, -0.00316487, -0.0242941
0.128256, 0.107602, -0.773936, -0.920104, -1.46087, -0.627212, 1.07068, -0.256703, -0.0028623, 0.0017697, -0.0318056, -0.0434246, -0.00738682, -0.000964742, -0.00189091, 0.6623, 16.7471, 22.0572, 16.9595, 1.55932, 3.5538, 0.00373412, -0.000468514, 0.000276445, 0.000666458, 4.01049e-05, -0.00899507, 0.00203683, 0.0225477, -0.0306539, 0.021484, 0.0410077, 0.0540593, 0.156671, -0.0102651, -0.443511, 0.633287, -3.12787, -0.0559992, -0.114117, -0.0106736, -0.443795, 0.632585, -3.12845, -0.053338, -0.10003, 0.0210615, 0.0278614, -0.0419374, -0.00186433, -0.003835, -0.0224601
0.129256, 0.107602, -0.773937, -0.920137, -1.46093, -0.627217, 1.07068, -0.256697, -0.00346059, 0.00133844, -0.0350212, -0.0488531, -0.0061262, -0.000546324, 0.00165552, 0.586922, 16.7471, 22.1287, 16.9595, 1.57764, 3.54648, -0.0750012, -0.000488894, 0.000307256, 0.000648254, 1.40814e-06, -0.00913915, 0.00205006, 0.0228785, -0.0312136, 0.0196015, 0.0368987, 0.0564273, 0.155857, -0.0102438, -0.443483, 0.633244, -3.12777, -0.056011, -0.114275, -0.0106728, -0.443799, 0.632559, -3.1284, -0.0533296, -0.0999658, 0.0214005, 0.0282343, -0.0425574, -0.00169948, -0.00401151, -0.0249924
0.130256, 0.107596, -0.773939, -0.920169, -1.46098, -0.627221, 1.07068, -0.256704, -0.0036319, 0.00101127, -0.0334589, -0.0519575, -0.00535837, -0.00512992, -0.000829099, 0.626595, 16.7471, 22.1683, 16.9238, 1.60144, 3.54648, -0.0228162, -0.000511934, 0.000337531, 0.000628733, -3.8894e-05, -0.00928221, 0.00205476, 0.0225535, -0.0301526, 0.019341, 0.0330313, 0.0600781, 0.163702, -0.0102223, -0.443454, 0.633201, -3.12768, -0.0560231, -0.114436, -0.0106745, -0.443802, 0.632534, -3.12835, -0.0533347, -0.0999055, 0.0217418, 0.0286079, -0.0431802, -0.0010551, -0.00256474, -0.0258458
0.131256, 0.107592, -0.773948, -0.920195, -1.46104, -0.627226, 1.07068, -0.256701, -0.00583175, -0.00183504, -0.0302927, -0.0526258, -0.00434143, -0.00363304, 0.000396703, 0.626595, 16.8582, 22.1287, 16.9595, 1.61426, 3.53915, -0.0484509, -0.000533262, 0.000367368, 0.000608382, -8.26005e-05, -0.00942337, 0.00205998, 0.0231734, -0.0300127, 0.0207868, 0.0366847, 0.0562937, 0.165954, -0.0102004, -0.443425, 0.633158, -3.12758, -0.0560353, -0.114599, -0.0106742, -0.443804, 0.632508, -3.12831, -0.053339, -0.0998506, 0.0220854, 0.0289822, -0.0438058, -0.00144136, -0.00209289, -0.025079
0.132257, 0.107581, -0.773948, -0.920219, -1.46109, -0.627228, 1.07069, -0.256704, -0.00613369, -0.000321213, -0.0273976, -0.0534104, -0.00335249, -0.00254794, -0.00166831, 0.701973, 16.8225, 22.0572, 16.8842, 1.62067, 3.53274, 0.00373412, -0.000555424, 0.000396765, 0.000584329, -0.000132087, -0.00956832, 0.00206739, 0.021752, -0.0298016, 0.0221832, 0.0399301, 0.0571956, 0.173216, -0.0101781, -0.443396, 0.633114, -3.12748, -0.0560478, -0.114764, -0.0106746, -0.443805, 0.632486, -3.12827, -0.0533399, -0.0997925, 0.0224314, 0.029357, -0.0444342, 0.000209972, -0.00147676, -0.0242138
0.133257, 0.107586, -0.773961, -0.920252, -1.46115, -0.627231, 1.07068, -0.256699, -0.00175983, -0.00671428, -0.0317995, -0.0566581, -0.00716759, -0.00115727, 0.0013292, 0.586922, 16.9693, 22.1287, 16.8842, 1.62067, 3.51077, -0.0621838, -0.000576991, 0.000428428, 0.000566642, -0.000168209, -0.00971079, 0.00207113, 0.0234198, -0.0317464, 0.0203656, 0.0386073, 0.0556711, 0.173542, -0.0101555, -0.443367, 0.633069, -3.12738, -0.0560605, -0.114932, -0.0106736, -0.443808, 0.632457, -3.12822, -0.0533474, -0.0997399, 0.0227796, 0.0297325, -0.0450654, -0.000902356, -0.00308246, -0.0268055
0.134257, 0.107577, -0.773957, -0.920279, -1.46121, -0.627233, 1.07069, -0.256705, -0.00237271, -0.00293502, -0.0292701, -0.0586592, -0.00550332, -0.00124712, -0.00104665, 0.626595, 16.8939, 22.0929, 16.8842, 1.62616, 3.5181, -0.00999879, -0.000595785, 0.000458351, 0.000545438, -0.0002126, -0.00987047, 0.00206853, 0.0213166, -0.0311821, 0.0212791, 0.0398121, 0.0597238, 0.181474, -0.0101325, -0.443337, 0.633024, -3.12728, -0.0560735, -0.115102, -0.0106698, -0.443809, 0.632431, -3.12817, -0.0533647, -0.0996633, 0.0231301, 0.0301084, -0.0456993, 0.00145525, -0.0020821, -0.0263733
0.135257, 0.107576, -0.773964, -0.920303, -1.46127, -0.627235, 1.07069, -0.256696, -0.00400336, -0.00606775, -0.0274962, -0.0600471, -0.0045347, -0.000442133, 0.00147237, 0.586922, 16.9296, 22.0572, 16.8842, 1.63898, 3.50345, -0.0685925, -0.000615063, 0.000488367, 0.000523287, -0.000257443, -0.0100203, 0.00207408, 0.0221648, -0.0311682, 0.0220342, 0.0415481, 0.0565856, 0.182325, -0.0101092, -0.443306, 0.632978, -3.12717, -0.0560866, -0.115274, -0.0106661, -0.443809, 0.632405, -3.12812, -0.0533695, -0.0996044, 0.0234829, 0.0304849, -0.0463358, 0.000905052, -0.00173384, -0.0263249
0.136257, 0.10757, -0.77397, -0.920329, -1.46134, -0.627236, 1.07069, -0.256701, -0.00401179, -0.00535721, -0.0270035, -0.0598751, -0.00351991, 0.000370198, -0.000951197, 0.626595, 16.9693, 22.0572, 16.8484, 1.64447, 3.48239, -0.0164075, -0.000636536, 0.000519159, 0.000500953, -0.000303579, -0.0101712, 0.00207072, 0.0218622, -0.0314534, 0.0229942, 0.0434626, 0.0563021, 0.187973, -0.0100856, -0.443276, 0.632931, -3.12707, -0.0561, -0.115449, -0.0106643, -0.44381, 0.632379, -3.12807, -0.0533884, -0.0995464, 0.0238379, 0.0308619, -0.046975, 0.00149961, -0.00164614, -0.0259933
0.137257, 0.107566, -0.773968, -0.920355, -1.4614, -0.627236, 1.07069, -0.256697, -0.00611568, -0.00209626, -0.0274878, -0.0608684, -0.00280396, 0.000160594, 0.000552663, 0.626595, 16.8939, 22.0929, 16.8484, 1.65088, 3.48239, -0.0484509, -0.00065438, 0.000549794, 0.000478443, -0.000348865, -0.0103341, 0.00207254, 0.021962, -0.0315911, 0.0233947, 0.043697, 0.0600844, 0.187303, -0.0100616, -0.443245, 0.632884, -3.12696, -0.0561137, -0.115626, -0.0106586, -0.443811, 0.632352, -3.12802, -0.0533997, -0.099472, 0.0241952, 0.0312393, -0.0476168, 0.00173099, -0.00141764, -0.0262504
0.138257, 0.107559, -0.773969, -0.920382, -1.46147, -0.627235, 1.07069, -0.256703, -0.00540653, -0.000778302, -0.026929, -0.0601121, -0.0015935, 4.24084e-05, -0.00156434, 0.6623, 16.8582, 22.0929, 16.7731, 1.63898, 3.48239, 0.00373412, -0.000675128, 0.000580662, 0.000455683, -0.00039369, -0.0104948, 0.00206888, 0.0213223, -0.0317144, 0.0244751, 0.0450939, 0.0603575, 0.193216, -0.0100372, -0.443213, 0.632836, -3.12686, -0.0561275, -0.115806, -0.0106554, -0.443811, 0.632325, -3.12797, -0.0534197, -0.0994035, 0.0245547, 0.0316171, -0.0482612, 0.00265083, -0.00115733, -0.0257772
0.139257, 0.107555, -0.773982, -0.920406, -1.46153, -0.627239, 1.07068, -0.256697, -0.00708303, -0.00639108, -0.0265259, -0.0640724, -0.00138953, 0.000251049, 0.000889888, 0.6623, 16.9693, 22.0929, 16.7731, 1.64447, 3.47507, -0.0484509, -0.00069781, 0.000611632, 0.000433033, -0.000439294, -0.0106515, 0.00207141, 0.0230764, -0.0318378, 0.0239287, 0.0441632, 0.0573707, 0.194043, -0.0100124, -0.443182, 0.632787, -3.12675, -0.0561417, -0.115988, -0.0106537, -0.443812, 0.632297, -3.12792, -0.0534303, -0.0993436, 0.0249165, 0.0319953, -0.0489081, 0.00130712, -0.000959821, -0.0271066
0.140257, 0.107546, -0.773983, -0.920429, -1.4616, -0.627241, 1.07068, -0.256703, -0.00702225, -0.00371352, -0.0261704, -0.0697411, -0.00125652, 0.000673533, -0.00133952, 0.737679, 16.9296, 22.0929, 16.7374, 1.65088, 3.46042, 0.00373412, -0.00071803, 0.000642595, 0.000408923, -0.000488983, -0.0108195, 0.00206497, 0.0212172, -0.0317764, 0.0231051, 0.0429224, 0.0637348, 0.202054, -0.00998734, -0.443149, 0.632738, -3.12664, -0.056156, -0.116172, -0.0106493, -0.443811, 0.63227, -3.12787, -0.053455, -0.0992688, 0.0252805, 0.0323738, -0.0495576, 0.00358054, -0.000445516, -0.0284445
0.141257, 0.107541, -0.773992, -0.920456, -1.46168, -0.627243, 1.07069, -0.256695, -0.00508424, -0.00764859, -0.0298343, -0.0689022, -0.00158546, 0.000421746, 0.00178575, 0.737679, 17.005, 22.1287, 16.7731, 1.66919, 3.46042, -0.0685925, -0.000738985, 0.000674968, 0.000388039, -0.000534083, -0.0109863, 0.00206849, 0.0233274, -0.0330186, 0.0227919, 0.0417768, 0.0601515, 0.200012, -0.00996188, -0.443117, 0.632688, -3.12652, -0.0561706, -0.116359, -0.0106451, -0.443812, 0.632239, -3.12782, -0.0534647, -0.0991978, 0.0256467, 0.0327526, -0.0502094, 0.00190995, -0.00138092, -0.0295858
0.142257, 0.107534, -0.773997, -0.920474, -1.46175, -0.62724, 1.07069, -0.256702, -0.00369155, -0.00880024, -0.0246351, -0.0691631, -0.00110918, 0.00131187, -0.00125091, 0.737679, 17.005, 22.0929, 16.6977, 1.66919, 3.43204, -0.00267457, -0.000757246, 0.000705377, 0.000361986, -0.000585971, -0.0111503, 0.00205172, 0.0214632, -0.0325235, 0.0248593, 0.0465781, 0.0584958, 0.211288, -0.00993605, -0.443084, 0.632638, -3.12641, -0.0561854, -0.116548, -0.0106382, -0.44381, 0.632212, -3.12777, -0.0535059, -0.0991345, 0.0260151, 0.0331317, -0.0508638, 0.00396277, -0.000472206, -0.0280405
0.143257, 0.107523, -0.774006, -0.920504, -1.46183, -0.627239, 1.07069, -0.256695, -0.0075943, -0.00961075, -0.0242101, -0.0753786, -0.000778607, -0.00379011, 0.00137011, 0.813057, 17.005, 22.204, 16.7374, 1.66919, 3.43204, -0.0621838, -0.000781156, 0.000737487, 0.000341696, -0.000625712, -0.0113227, 0.00205862, 0.0228316, -0.031358, 0.0234203, 0.0402699, 0.0643315, 0.21094, -0.00990985, -0.44305, 0.632586, -3.1263, -0.0562005, -0.11674, -0.0106361, -0.44381, 0.632179, -3.12771, -0.0535112, -0.0990594, 0.0263857, 0.0335111, -0.0515205, 0.00303192, 0.00104056, -0.0302277
0.144257, 0.107514, -0.774013, -0.920518, -1.46191, -0.627241, 1.07069, -0.256702, -0.00549473, -0.0102511, -0.0216793, -0.0726727, -0.00122661, -0.00187453, -0.00129064, 0.813057, 17.005, 22.0929, 16.6223, 1.6875, 3.40365, -0.00267457, -0.000800467, 0.000768511, 0.000313732, -0.000685155, -0.0114924, 0.00204299, 0.0220487, -0.0318607, 0.0257364, 0.0463034, 0.0615666, 0.218572, -0.00988328, -0.443017, 0.632535, -3.12618, -0.0562158, -0.116934, -0.0106297, -0.443809, 0.632153, -3.12766, -0.0535509, -0.0989923, 0.0267585, 0.0338906, -0.0521796, 0.00402862, 0.000910304, -0.0285309
0.145257, 0.107505, -0.774021, -0.920541, -1.46199, -0.627244, 1.07069, -0.256701, -0.00798725, -0.00764009, -0.0203587, -0.0761828, -0.000839762, -0.00100637, -0.00058916, 0.85273, 17.005, 22.1287, 16.5866, 1.6875, 3.38901, -0.00999879, -0.000822913, 0.000800285, 0.000290438, -0.00073243, -0.0116714, 0.00203892, 0.0213811, -0.0317318, 0.025979, 0.0473699, 0.0659891, 0.2209, -0.00985633, -0.442983, 0.632482, -3.12606, -0.0562314, -0.11713, -0.0106256, -0.443807, 0.632121, -3.1276, -0.0535735, -0.0989125, 0.0271335, 0.0342704, -0.052841, 0.00504355, 0.00143606, -0.0289053
0.146257, 0.107491, -0.774027, -0.920556, -1.46207, -0.627242, 1.07069, -0.256704, -0.00978894, -0.00393467, -0.0197506, -0.0808352, -0.000813718, -0.00116659, -0.00137612, 0.888436, 16.9296, 22.0572, 16.5112, 1.69391, 3.39633, 0.0165515, -0.000842074, 0.000830528, 0.000264462, -0.000785781, -0.0118509, 0.00202501, 0.0202577, -0.0315184, 0.0255997, 0.0466325, 0.0730795, 0.225271, -0.00982901, -0.442948, 0.632429, -3.12594, -0.0562473, -0.117329, -0.0106182, -0.443804, 0.632092, -3.12755, -0.0536114, -0.0988347, 0.0275107, 0.0346502, -0.0535047, 0.00655828, 0.00207138, -0.0298669
0.147257, 0.107481, -0.77404, -0.92057, -1.46216, -0.627245, 1.07069, -0.256697, -0.0102898, -0.00624945, -0.017056, -0.0824137, -0.000792227, -0.000946035, 0.00149009, 0.888436, 16.9296, 22.0176, 16.4755, 1.70032, 3.39633, -0.0484509, -0.000862775, 0.000861031, 0.000239124, -0.000837339, -0.0120328, 0.002019, 0.0202922, -0.0313288, 0.026532, 0.0487954, 0.0719047, 0.227349, -0.00980131, -0.442913, 0.632375, -3.12582, -0.0562634, -0.117531, -0.0106118, -0.443801, 0.632062, -3.1275, -0.0536375, -0.0987555, 0.02789, 0.0350302, -0.0541706, 0.00682395, 0.00262315, -0.0296101
0.148257, 0.107464, -0.77405, -0.920586, -1.46225, -0.627247, 1.07069, -0.2567, -0.0124913, -0.00710724, -0.0183386, -0.0825312, -0.000740893, 5.68808e-05, -0.000193404, 0.963814, 16.8939, 21.9819, 16.4001, 1.70581, 3.37436, -0.0164075, -0.000886161, 0.000892538, 0.000212634, -0.000892932, -0.0122148, 0.00201021, 0.0221393, -0.0320582, 0.0269703, 0.0500695, 0.0709679, 0.228519, -0.00977323, -0.442878, 0.63232, -3.1257, -0.0562797, -0.117734, -0.0106078, -0.443798, 0.632031, -3.12744, -0.053668, -0.0986791, 0.0282715, 0.0354102, -0.0548388, 0.0053557, 0.00219929, -0.0299957
0.149257, 0.107451, -0.774063, -0.920603, -1.46234, -0.627245, 1.07068, -0.256708, -0.0122589, -0.00869263, -0.0170842, -0.0863727, -0.000738256, -0.000870555, -0.001587, 0.963814, 16.8939, 21.9819, 16.3644, 1.71222, 3.39633, 0.0229602, -0.000907422, 0.000922478, 0.000188949, -0.000936242, -0.0124019, 0.00198793, 0.0217632, -0.031803, 0.0267088, 0.0490299, 0.0726649, 0.235643, -0.00974476, -0.442843, 0.632265, -3.12558, -0.0562963, -0.117941, -0.0106012, -0.443794, 0.631997, -3.12738, -0.0537203, -0.0985964, 0.0286551, 0.0357903, -0.0555092, 0.00612166, 0.00284831, -0.0309023
0.150257, 0.107437, -0.774073, -0.920616, -1.46243, -0.627239, 1.07068, -0.256699, -0.0151847, -0.00807707, -0.012004, -0.0855205, 0.0010963, -0.0019738, 0.0013495, 0.963814, 16.8225, 21.9422, 16.2494, 1.66919, 3.43204, -0.0420422, -0.000928104, 0.000951979, 0.000162147, -0.000984852, -0.0125878, 0.00198284, 0.0215001, -0.0307259, 0.0291309, 0.0525358, 0.0720046, 0.23667, -0.00971592, -0.442807, 0.632209, -3.12545, -0.0563132, -0.11815, -0.0105938, -0.443788, 0.631966, -3.12732, -0.053746, -0.0985184, 0.0290408, 0.0361704, -0.0561817, 0.00654529, 0.00427513, -0.0291339
0.151257, 0.107424, -0.774086, -0.920628, -1.46253, -0.627241, 1.07067, -0.256704, -0.0135909, -0.0093657, -0.011424, -0.0890182, 4.87772e-05, -0.00191166, -0.00103311, 0.928108, 16.8225, 21.9065, 16.178, 1.6875, 3.44668, 0.0101428, -0.000949091, 0.000982043, 0.00013598, -0.00103567, -0.0127811, 0.00196077, 0.0208257, -0.0309511, 0.0288433, 0.0525009, 0.0741229, 0.24497, -0.00968668, -0.44277, 0.632153, -3.12533, -0.0563304, -0.118361, -0.0105864, -0.443783, 0.631933, -3.12725, -0.0537983, -0.0984317, 0.0294287, 0.0365505, -0.0568564, 0.00763189, 0.00445477, -0.0300538
0.152257, 0.107407, -0.774106, -0.920641, -1.46262, -0.62724, 1.07068, -0.2567, -0.0172613, -0.00798944, -0.0119125, -0.0930021, 0.000233029, 0.000821852, 0.000531961, 0.963814, 16.8582, 21.9065, 16.0629, 1.68201, 3.38901, -0.0228162, -0.000972696, 0.00101447, 0.000108799, -0.00109441, -0.0129626, 0.00195109, 0.0213952, -0.0314981, 0.0286051, 0.053848, 0.0769195, 0.244097, -0.00965706, -0.442734, 0.632096, -3.1252, -0.0563478, -0.118575, -0.0105811, -0.44378, 0.631901, -3.1272, -0.0538312, -0.0983661, 0.0298187, 0.0369305, -0.0575331, 0.00748923, 0.00426795, -0.0310249
0.153257, 0.10739, -0.774117, -0.920651, -1.46273, -0.627241, 1.07068, -0.256705, -0.0191723, -0.0105157, -0.0113244, -0.0997059, -5.0303e-05, 0.00265418, -0.00157814, 0.963814, 16.7828, 21.8708, 16.1026, 1.6875, 3.33133, 0.0293689, -0.000991722, 0.00104547, 8.35894e-05, -0.00114881, -0.0131642, 0.00192562, 0.0216497, -0.0316908, 0.0275642, 0.0533678, 0.078385, 0.25067, -0.00962704, -0.442696, 0.632038, -3.12507, -0.0563654, -0.118791, -0.0105707, -0.443775, 0.631866, -3.12714, -0.0538893, -0.0982717, 0.0302108, 0.0373105, -0.0582119, 0.00771032, 0.00445844, -0.0327704
0.154257, 0.107369, -0.774133, -0.920657, -1.46284, -0.627244, 1.07068, -0.256698, -0.0215168, -0.0104467, -0.00771225, -0.100018, -0.00118808, 0.00279815, 0.0060836, 1.00349, 16.7471, 21.8311, 16.1026, 1.71863, 3.30295, -0.0356336, -0.00101304, 0.00107597, 5.70407e-05, -0.00120697, -0.0133665, 0.00191416, 0.0219886, -0.0314162, 0.0293017, 0.0576347, 0.0796404, 0.24565, -0.00959664, -0.442659, 0.631979, -3.12494, -0.0563834, -0.11901, -0.0105624, -0.443769, 0.631832, -3.12708, -0.0539259, -0.0981788, 0.0306049, 0.0376903, -0.0588927, 0.00762209, 0.00507061, -0.0317486
0.155257, 0.107345, -0.774154, -0.920666, -1.46295, -0.627248, 1.07069, -0.256705, -0.0231769, -0.0110952, -0.00823234, -0.100374, -0.00214963, 0.00289974, 0.00227961, 1.03919, 16.7471, 21.7954, 16.1026, 1.75525, 3.27456, 0.0229602, -0.00103844, 0.00110772, 3.04496e-05, -0.0012655, -0.0135651, 0.0018943, 0.0235446, -0.0319424, 0.0298138, 0.0589189, 0.080286, 0.249746, -0.00956583, -0.442621, 0.63192, -3.12481, -0.0564016, -0.119232, -0.0105578, -0.443764, 0.631796, -3.12702, -0.0539757, -0.0980945, 0.0310012, 0.03807, -0.0595756, 0.0064449, 0.00485758, -0.0320537
0.156257, 0.107333, -0.774173, -0.920672, -1.46306, -0.627253, 1.07069, -0.256697, -0.02092, -0.0146714, -0.0086348, -0.103583, -0.00302771, 0.00351422, 0.00327332, 0.928108, 16.7471, 21.7597, 16.0629, 1.79828, 3.23153, -0.0164075, -0.00105774, 0.00113994, 2.10543e-06, -0.00132931, -0.0137655, 0.00187537, 0.0235622, -0.0325218, 0.0292953, 0.0586335, 0.0795915, 0.25457, -0.00953463, -0.442583, 0.63186, -3.12467, -0.0564201, -0.119456, -0.0105467, -0.443759, 0.631763, -3.12697, -0.0540242, -0.0980101, 0.0313996, 0.0384495, -0.0602603, 0.00688292, 0.00466162, -0.0332719
0.157257, 0.107309, -0.774195, -0.920673, -1.46317, -0.62726, 1.07069, -0.256704, -0.022055, -0.0174298, -0.00397876, -0.1085, -0.00337551, 0.0026046, 0.000945782, 0.928108, 16.7471, 21.6446, 16.0272, 1.8349, 3.22421, 0.0229602, -0.00108231, 0.00117088, -2.79674e-05, -0.00139518, -0.0139699, 0.0018514, 0.0229022, -0.0315724, 0.029685, 0.0593775, 0.0809456, 0.264305, -0.00950303, -0.442544, 0.6318, -3.12454, -0.0564389, -0.119682, -0.0105407, -0.443753, 0.631729, -3.12691, -0.0540808, -0.0979221, 0.0318, 0.0388288, -0.060947, 0.00787325, 0.00600314, -0.0335151
0.158257, 0.10729, -0.774214, -0.92068, -1.46328, -0.627262, 1.07069, -0.256699, -0.0211367, -0.0176647, -0.00333761, -0.106906, -0.00248822, 0.00145803, 0.00272953, 0.85273, 16.6718, 21.6446, 16.0272, 1.84131, 3.23153, -0.0292249, -0.00110524, 0.00120234, -5.59452e-05, -0.0014529, -0.0141774, 0.001836, 0.022992, -0.0316153, 0.0309445, 0.060499, 0.0799518, 0.266167, -0.00947103, -0.442505, 0.631738, -3.1244, -0.0564579, -0.119911, -0.0105325, -0.443747, 0.631693, -3.12685, -0.0541248, -0.0978313, 0.0322025, 0.0392079, -0.0616356, 0.00808813, 0.00631232, -0.0329633
0.159257, 0.107272, -0.774229, -0.920682, -1.46339, -0.627261, 1.07069, -0.256705, -0.023721, -0.020392, -0.00416072, -0.111659, -0.0012184, 0.00150922, -0.000225785, 0.777352, 16.5646, 21.5732, 16.0272, 1.82941, 3.21689, 0.0293689, -0.00112365, 0.00123302, -8.58619e-05, -0.00151533, -0.014388, 0.00180052, 0.0243588, -0.0316835, 0.0299772, 0.0580081, 0.0797374, 0.271612, -0.00943863, -0.442466, 0.631676, -3.12426, -0.0564773, -0.120143, -0.0105196, -0.443739, 0.631659, -3.12679, -0.0542001, -0.0977389, 0.032607, 0.0395867, -0.062326, 0.00720364, 0.00658557, -0.0347321
0.160257, 0.107253, -0.774256, -0.92068, -1.46351, -0.627258, 1.07069, -0.256699, -0.0216478, -0.021818, -0.000725621, -0.113408, -0.00101601, 0.00154468, 0.00211312, 0.6623, 16.5646, 21.4582, 16.0629, 1.8349, 3.20224, -0.0292249, -0.00114381, 0.00126315, -0.000115404, -0.00157682, -0.0145912, 0.00177333, 0.0227189, -0.0313288, 0.0310219, 0.0602225, 0.0795641, 0.277611, -0.00940582, -0.442426, 0.631614, -3.12412, -0.0564969, -0.120377, -0.010508, -0.443731, 0.631624, -3.12673, -0.0542628, -0.0976605, 0.0330136, 0.0399652, -0.0630183, 0.00914749, 0.00735596, -0.0342598
0.161257, 0.107225, -0.774279, -0.920682, -1.46363, -0.62726, 1.0707, -0.256706, -0.0229419, -0.0243027, -0.000130826, -0.114713, -0.00047411, -0.00283181, -0.000928626, 0.6623, 16.4893, 21.4225, 15.9518, 1.82941, 3.18118, 0.0357776, -0.00117008, 0.00129483, -0.000146861, -0.00164361, -0.0147995, 0.00174903, 0.024306, -0.0306422, 0.0311012, 0.0570107, 0.0800909, 0.283385, -0.0093726, -0.442386, 0.63155, -3.12398, -0.0565168, -0.120614, -0.0105022, -0.443724, 0.631589, -3.12667, -0.0543212, -0.097577, 0.0334222, 0.0403434, -0.0637123, 0.00793969, 0.00835819, -0.0349964
0.162257, 0.107198, -0.774307, -0.920683, -1.46375, -0.627261, 1.0707, -0.256699, -0.0237212, -0.0270793, 0.000386279, -0.117597, -0.000316239, -0.0020054, 0.00184101, 0.6623, 16.4536, 21.3868, 15.9518, 1.82941, 3.17386, -0.0292249, -0.00119537, 0.00132591, -0.000175936, -0.0017047, -0.0150105, 0.00173179, 0.0249765, -0.0308817, 0.0311, 0.0575158, 0.0790351, 0.284468, -0.00933897, -0.442345, 0.631486, -3.12384, -0.056537, -0.120853, -0.0104949, -0.443715, 0.631551, -3.12661, -0.0543692, -0.0974915, 0.0338328, 0.0407212, -0.0644081, 0.00768735, 0.0084686, -0.0357568
0.163257, 0.107176, -0.774328, -0.920686, -1.46387, -0.627254, 1.0707, -0.256703, -0.025406, -0.0265235, -0.00318798, -0.119711, 0.000941936, -0.00084863, -0.000191277, 0.586922, 16.3068, 21.3868, 15.9518, 1.79828, 3.1528, 0.0101428, -0.00121636, 0.00135716, -0.000205186, -0.00176366, -0.0152244, 0.00169755, 0.0262796, -0.0317961, 0.0303598, 0.0558751, 0.0799642, 0.286444, -0.00930493, -0.442304, 0.631421, -3.1237, -0.0565575, -0.121095, -0.0104828, -0.443707, 0.631513, -3.12654, -0.0544441, -0.097404, 0.0342455, 0.0410986, -0.0651057, 0.00688845, 0.00789373, -0.0373143
0.164257, 0.10715, -0.774365, -0.920677, -1.464, -0.627259, 1.07071, -0.2567, -0.021623, -0.0275468, 5.14639e-06, -0.121387, -5.0304e-05, 0.00162305, 0.000885411, 0.551216, 16.3425, 21.2757, 15.9518, 1.81659, 3.0878, -0.0164075, -0.00124044, 0.00138845, -0.000237253, -0.0018374, -0.0154329, 0.00166744, 0.0238362, -0.0321054, 0.0315371, 0.0605168, 0.0798699, 0.294658, -0.00927048, -0.442263, 0.631356, -3.12355, -0.0565783, -0.121339, -0.0104737, -0.443698, 0.631477, -3.12648, -0.0545122, -0.0973284, 0.0346601, 0.0414756, -0.0658049, 0.00965424, 0.00802473, -0.0366629
0.165257, 0.107126, -0.77439, -0.920679, -1.46413, -0.627254, 1.07071, -0.256701, -0.0240671, -0.0277795, -0.00118278, -0.123928, 0.000644563, 0.00278298, 0.000375103, 0.475838, 16.2314, 21.3114, 15.8765, 1.79828, 3.03744, -0.00999879, -0.0012622, 0.00142072, -0.00026702, -0.00190051, -0.0156497, 0.0016354, 0.0249636, -0.0325924, 0.0313401, 0.0604404, 0.080614, 0.296142, -0.00923561, -0.442221, 0.63129, -3.1234, -0.0565994, -0.121587, -0.0104616, -0.44369, 0.631438, -3.12641, -0.0545842, -0.097242, 0.0350768, 0.0418522, -0.0665058, 0.00897674, 0.00787331, -0.0376635
0.166257, 0.1071, -0.774424, -0.920676, -1.46427, -0.627254, 1.07071, -0.256706, -0.0237073, -0.0298504, 0.000711478, -0.128146, 0.00110782, 0.0025122, -0.00142871, 0.436165, 16.1957, 21.236, 15.8765, 1.77997, 3.01639, 0.0357776, -0.00128668, 0.00145204, -0.000297005, -0.00196441, -0.0158675, 0.00159724, 0.0242641, -0.032261, 0.0312121, 0.0599414, 0.0814298, 0.304821, -0.00920033, -0.442179, 0.631223, -3.12326, -0.0566208, -0.121836, -0.0104519, -0.443681, 0.631398, -3.12635, -0.054666, -0.0971568, 0.0354954, 0.0422282, -0.0672083, 0.0100861, 0.00860302, -0.0384433
0.167257, 0.107082, -0.774456, -0.920669, -1.4644, -0.627249, 1.07071, -0.2567, -0.0207608, -0.033539, 0.00204012, -0.132206, 0.00165404, 0.00131127, 0.000992787, 0.285408, 16.1203, 21.1606, 15.8011, 1.75525, 3.02371, -0.0164075, -0.00130512, 0.00148181, -0.000327254, -0.00202461, -0.016088, 0.00155557, 0.023211, -0.0319736, 0.030751, 0.0580624, 0.0809934, 0.311393, -0.00916462, -0.442137, 0.631155, -3.12311, -0.0566425, -0.122088, -0.0104358, -0.44367, 0.631358, -3.12627, -0.0547538, -0.0970698, 0.0359161, 0.0426038, -0.0679124, 0.0115772, 0.0093065, -0.0395293
0.168257, 0.107054, -0.774489, -0.920669, -1.46454, -0.627247, 1.07071, -0.256706, -0.0243188, -0.0292075, 0.00121201, -0.131953, 0.00154347, 0.000804982, -0.00126156, 0.245735, 16.0092, 21.1606, 15.6543, 1.74335, 3.02371, 0.0357776, -0.00133132, 0.0015135, -0.000357604, -0.00208599, -0.0163108, 0.00151973, 0.0242496, -0.0322207, 0.0315735, 0.0591023, 0.0859015, 0.311942, -0.00912849, -0.442094, 0.631087, -3.12296, -0.0566645, -0.122343, -0.010427, -0.44366, 0.631318, -3.1262, -0.0548328, -0.0969819, 0.0363387, 0.0429789, -0.068618, 0.0109061, 0.00937904, -0.039509
0.169257, 0.107022, -0.77453, -0.920661, -1.46468, -0.627249, 1.07072, -0.256696, -0.0249164, -0.0356697, 0.00329541, -0.136466, 0.000350791, 0.00129856, 0.00133612, 0.245735, 16.0489, 21.0496, 15.5789, 1.76166, 3.00174, -0.0228162, -0.00135912, 0.0015447, -0.000389009, -0.00215372, -0.0165312, 0.00149613, 0.0254215, -0.0322294, 0.0313687, 0.0597491, 0.0833855, 0.314828, -0.00909194, -0.442051, 0.631018, -3.1228, -0.0566868, -0.122601, -0.0104194, -0.44365, 0.631277, -3.12613, -0.054893, -0.0969005, 0.0367632, 0.0433533, -0.0693252, 0.0101752, 0.00970194, -0.0405217
0.170257, 0.106997, -0.774563, -0.920664, -1.46482, -0.627247, 1.07071, -0.256704, -0.0243642, -0.0338225, 0.00118563, -0.139692, 0.000708562, -0.00801724, -0.00103677, 0.21003, 15.9378, 21.0892, 15.5432, 1.74884, 2.98709, 0.0293689, -0.00138436, 0.00157699, -0.000416951, -0.00220928, -0.0167643, 0.00145369, 0.0259595, -0.0310185, 0.0297737, 0.0497214, 0.0922796, 0.320575, -0.00905497, -0.442007, 0.630949, -3.12265, -0.0567094, -0.122861, -0.0104086, -0.44364, 0.631232, -3.12605, -0.0549833, -0.0968015, 0.0371897, 0.0437272, -0.0700339, 0.0101418, 0.0112896, -0.0428543
0.171257, 0.106967, -0.774609, -0.920653, -1.46497, -0.627246, 1.07072, -0.256701, -0.027929, -0.0383332, 0.00425442, -0.140897, 0.0103658, -0.00564761, 0.000499565, 0.21003, 15.9378, 20.9385, 15.5789, 1.73694, 2.97336, -0.00267457, -0.00141026, 0.00160781, -0.000448032, -0.00227602, -0.0169869, 0.0014148, 0.0258822, -0.0300185, 0.0311611, 0.0499855, 0.08032, 0.325807, -0.00901756, -0.441964, 0.630878, -3.12249, -0.0567323, -0.123123, -0.0103983, -0.443628, 0.63119, -3.12598, -0.055068, -0.0967224, 0.0376182, 0.0441005, -0.0707441, 0.0104977, 0.0126358, -0.0421702
0.172257, 0.106943, -0.774646, -0.920653, -1.46512, -0.627246, 1.07072, -0.256706, -0.0256059, -0.0421904, 0.00278943, -0.1417, 0.00769827, -0.00464489, -0.00108815, 0.134651, 15.8267, 20.9385, 15.5035, 1.73694, 2.98068, 0.0357776, -0.00143643, 0.00164082, -0.000478361, -0.00233781, -0.0172192, 0.00137396, 0.0271275, -0.031221, 0.0311481, 0.0514724, 0.0790434, 0.330489, -0.00897973, -0.441919, 0.630807, -3.12233, -0.0567555, -0.123389, -0.0103877, -0.443618, 0.631146, -3.1259, -0.0551563, -0.0966302, 0.0380486, 0.0444731, -0.0714557, 0.00972865, 0.011758, -0.0430205
0.173257, 0.106909, -0.77469, -0.920646, -1.46528, -0.627248, 1.07072, -0.2567, -0.0275042, -0.0427551, 0.00358772, -0.145963, 0.0050448, -0.00273921, 0.00144693, 0.21003, 15.7513, 20.8631, 15.5789, 1.75525, 2.95871, -0.0228162, -0.00146399, 0.00167237, -0.000507159, -0.00240071, -0.0174566, 0.0013418, 0.0277083, -0.0317491, 0.0310398, 0.0538201, 0.0826906, 0.330317, -0.00894147, -0.441875, 0.630735, -3.12218, -0.056779, -0.123657, -0.010378, -0.443607, 0.631099, -3.12582, -0.0552315, -0.0965329, 0.0384809, 0.044845, -0.0721687, 0.00960616, 0.0115786, -0.0439053
0.174257, 0.106887, -0.774727, -0.92065, -1.46543, -0.627248, 1.07072, -0.256705, -0.0283012, -0.0408458, 0.00143744, -0.148226, 0.00380629, -0.00162592, -0.000966495, 0.134651, 15.5688, 20.9028, 15.5789, 1.75525, 2.94406, 0.0293689, -0.00148898, 0.00170596, -0.000533968, -0.00245436, -0.0177007, 0.00129461, 0.0282335, -0.0326402, 0.0306955, 0.0541288, 0.0869715, 0.333574, -0.00890277, -0.44183, 0.630663, -3.12202, -0.0568029, -0.123927, -0.0103651, -0.443597, 0.631051, -3.12574, -0.055331, -0.0964274, 0.0389151, 0.0452163, -0.0728831, 0.00957308, 0.011042, -0.0450283
0.175257, 0.106862, -0.774776, -0.920643, -1.4656, -0.627246, 1.07072, -0.256701, -0.0266844, -0.0438313, 0.00270177, -0.153049, 0.00263248, -0.000832051, 0.000814981, 0.0949785, 15.5688, 20.8274, 15.6146, 1.76166, 2.93033, -0.00999879, -0.00151324, 0.00173804, -0.000562608, -0.00251532, -0.0179353, 0.00124809, 0.0275589, -0.0328171, 0.0302436, 0.0544149, 0.0880477, 0.339029, -0.00886363, -0.441784, 0.630589, -3.12185, -0.0568271, -0.1242, -0.0103513, -0.443585, 0.631003, -3.12565, -0.0554293, -0.0963399, 0.0393512, 0.0455868, -0.0735988, 0.0107193, 0.0112631, -0.0461537
0.176257, 0.106833, -0.774826, -0.92064, -1.46575, -0.627248, 1.07072, -0.256705, -0.0264765, -0.0449293, 0.00262157, -0.155513, 0.00176687, -0.0100605, -0.000913804, 0.0949785, 15.5331, 20.7917, 15.6146, 1.76807, 2.93033, 0.0293689, -0.00154339, 0.00177154, -0.000592396, -0.00257796, -0.0181727, 0.00120449, 0.028873, -0.0314648, 0.0293884, 0.0465676, 0.0943263, 0.344411, -0.00882406, -0.441738, 0.630515, -3.12169, -0.0568516, -0.124476, -0.0103429, -0.443574, 0.630955, -3.12557, -0.0555234, -0.0962508, 0.0397893, 0.0459565, -0.0743159, 0.00986195, 0.012948, -0.0478176
0.177257, 0.106805, -0.774872, -0.920637, -1.46592, -0.627248, 1.07072, -0.256701, -0.026266, -0.0449381, 0.00266462, -0.158468, 0.00183956, -0.0076275, 0.000849562, 0.0949785, 15.4578, 20.752, 15.6146, 1.75525, 2.93033, -0.00999879, -0.00157028, 0.00180421, -0.000620012, -0.00263476, -0.0184195, 0.00116347, 0.0282834, -0.0320438, 0.0294591, 0.0482872, 0.0954207, 0.347187, -0.00878406, -0.441692, 0.630441, -3.12153, -0.0568764, -0.124755, -0.0103307, -0.443562, 0.630905, -3.12548, -0.0556143, -0.0961494, 0.0402292, 0.0463255, -0.0750342, 0.0109011, 0.0127534, -0.0484378
0.178257, 0.106784, -0.774926, -0.920635, -1.4661, -0.627249, 1.07073, -0.256705, -0.0234585, -0.0498411, 0.00481264, -0.164404, 0.00112921, -0.00469032, -0.0018745, -0.0161054, 15.4578, 20.752, 15.6543, 1.76166, 2.90103, 0.0559192, -0.00159486, 0.00183796, -0.000645407, -0.00269001, -0.0186661, 0.00110356, 0.026831, -0.0323867, 0.0289935, 0.0499008, 0.0938812, 0.359845, -0.00874361, -0.441646, 0.630365, -3.12136, -0.0569015, -0.125036, -0.0103156, -0.443551, 0.630852, -3.1254, -0.0552467, -0.0960508, 0.040671, 0.0466936, -0.0757538, 0.0128354, 0.0128346, -0.0495208
0.179257, 0.106755, -0.774974, -0.920631, -1.46627, -0.627249, 1.07073, -0.256696, -0.0281348, -0.0467585, 0.00521913, -0.169579, 0.000620594, -0.00259351, 0.00142949, 0.0196001, 15.311, 20.6766, 15.5789, 1.76807, 2.87265, -0.0164075, -0.00162207, 0.00187157, -0.00067382, -0.00275097, -0.018917, 0.00106604, 0.0270543, -0.0325639, 0.0287308, 0.0511575, 0.100035, 0.357312, -0.00870271, -0.441599, 0.630289, -3.12119, -0.056927, -0.12532, -0.0103028, -0.443539, 0.630801, -3.12531, -0.0553339, -0.0959485, 0.0411146, 0.0470609, -0.0764746, 0.0130801, 0.013017, -0.0505347
0.180257, 0.106729, -0.775032, -0.920621, -1.46645, -0.627247, 1.07073, -0.256702, -0.0274432, -0.0512549, 0.00626347, -0.171735, 0.000289139, -0.00238861, -0.00125076, 0.0196001, 15.311, 20.5655, 15.5789, 1.77356, 2.87997, 0.0431018, -0.00164741, 0.00190308, -0.000701074, -0.0028059, -0.0191649, 0.000999854, 0.0277619, -0.0327454, 0.0289759, 0.0518335, 0.0975494, 0.365212, -0.00866138, -0.441552, 0.630212, -3.12102, -0.0569528, -0.125606, -0.0102878, -0.443525, 0.630748, -3.12522, -0.0554666, -0.0958538, 0.0415602, 0.0474273, -0.0771966, 0.0128039, 0.0131674, -0.051083
0.181257, 0.106698, -0.775087, -0.920619, -1.46663, -0.627247, 1.07073, -0.256702, -0.0277386, -0.0536033, 0.00748655, -0.172406, 1.45454e-05, -0.0016124, 0.000149729, 0.059273, 15.2753, 20.5655, 15.5432, 1.77997, 2.87265, 0.0165515, -0.00167755, 0.00193679, -0.000728692, -0.00286273, -0.019416, 0.000952646, 0.0284305, -0.0330067, 0.029886, 0.05419, 0.0958816, 0.367443, -0.00861959, -0.441504, 0.630135, -3.12085, -0.0569789, -0.125895, -0.0102771, -0.443513, 0.630694, -3.12512, -0.0555699, -0.0957565, 0.0420076, 0.0477929, -0.0779197, 0.012518, 0.0132257, -0.0509684
