alisrour97/Franka_experiments/Real_Robot_scripts/servo-franka/Data4/log_dyn_INITw_ki_7.csv
Time,q1,q2,q3,q4,q5,q6,q7,dq1,dq2,dq3,dq4,dq5,dq6,dq7,t1,t2,t3,t4,t5,t6,t7,ex1,ex2,ex3,ex4,ex5,ex6,ev1,ev2,ev3,ev4,ev5,ev6,xd,yd,zd,uxd,uyd,uzd,x,y,z,ux,uy,uz,vxd,vyd,vzd,vx,vy,vz
2.44141e-07, 0.10779, -0.774168, -0.917189, -1.45802, -0.625462, 1.06932, -0.256719, -0.000704269, -0.00164428, -0.000380735, -0.00122606, -0.00119924, 7.67549e-05, -0.00129332, -0.43267, 15.9021, 22.0176, 19.086, 1.46686, 4.72201, -0.166554, 0.000858463, -0.001714, 0.00091837, 0.00223066, -0.00178496, 1.89422e-05, 0.000904871, -0.000165893, -0.000514788, -0.000406279, 3.9162e-05, 0.00035957, -0.011112, -0.444721, 0.635038, -3.13187, -0.0555627, -0.107532, -0.0102491, -0.44297, 0.634189, -3.12975, -0.0560663, -0.1046, 0, 0, 0, -0.000861023, -0.000193187, -0.000576746
0.012156, 0.107789, -0.774195, -0.917222, -1.45802, -0.625476, 1.06932, -0.256717, -0.000279197, -0.00235785, -0.00594114, 0.00046047, -0.00135236, -0.000109876, 0.000469353, -0.392998, 16.0092, 22.204, 19.0146, 1.50989, 4.72201, -0.21233, 0.000836748, -0.00170512, 0.000928878, 0.00224699, -0.00176942, 5.33059e-05, 0.00312224, -0.00135939, -0.00163422, -0.00322709, -0.00130382, -0.00613274, -0.011112, -0.444721, 0.635038, -3.13187, -0.0555627, -0.107532, -0.010275, -0.442979, 0.634179, -3.12974, -0.0559937, -0.104624, 1.73063e-06, 3.0097e-06, -3.96181e-06, -0.00295085, -0.00145126, -0.00185715
0.013156, 0.107789, -0.774195, -0.917222, -1.45802, -0.625476, 1.06932, -0.256717, -0.000279197, -0.00235785, -0.00594114, 0.00046047, -0.00135236, -0.000109876, 0.000469353, -0.392998, 16.0092, 22.204, 19.0146, 1.50989, 4.72201, -0.21233, 0.000836744, -0.00170512, 0.000928869, 0.00224697, -0.00176944, 5.33066e-05, 0.00312691, -0.00136811, -0.00162196, -0.00320242, -0.00130045, -0.00608608, -0.011112, -0.444721, 0.635038, -3.13187, -0.0555627, -0.107532, -0.010275, -0.442979, 0.634179, -3.12974, -0.0559937, -0.104624, 6.91577e-06, 1.20019e-05, -1.58141e-05, -0.00295085, -0.00145126, -0.00185715
0.014156, 0.107789, -0.774195, -0.917222, -1.45802, -0.625476, 1.06932, -0.256717, -0.000279197, -0.00235785, -0.00594114, 0.00046047, -0.00135236, -0.000109876, 0.000469353, -0.392998, 16.0092, 22.204, 19.0146, 1.50989, 4.72201, -0.21233, 0.000836734, -0.0017051, 0.000928843, 0.00224691, -0.0017695, 5.33084e-05, 0.00313468, -0.0013826, -0.00160159, -0.00316145, -0.00129482, -0.00600857, -0.011112, -0.444721, 0.635038, -3.13187, -0.0555627, -0.107532, -0.010275, -0.442979, 0.634179, -3.12974, -0.0559937, -0.104624, 1.55453e-05, 2.69215e-05, -3.55071e-05, -0.00295085, -0.00145126, -0.00185715
0.015156, 0.107789, -0.774195, -0.917222, -1.45802, -0.625476, 1.06932, -0.256717, -0.000279197, -0.00235785, -0.00594114, 0.00046047, -0.00135236, -0.000109876, 0.000469353, -0.392998, 16.0092, 22.204, 19.0146, 1.50989, 4.72201, -0.21233, 0.000836715, -0.00170506, 0.000928793, 0.00224681, -0.00176962, 5.33121e-05, 0.00314555, -0.00140277, -0.00157317, -0.0031043, -0.00128693, -0.00590041, -0.011112, -0.444721, 0.635038, -3.13187, -0.0555628, -0.107532, -0.010275, -0.442979, 0.634179, -3.12974, -0.0559937, -0.104624, 2.7609e-05, 4.77135e-05, -6.29913e-05, -0.00295085, -0.00145126, -0.00185715
0.016156, 0.107789, -0.774195, -0.917222, -1.45802, -0.625476, 1.06932, -0.256717, -0.000279197, -0.00235785, -0.00594114, 0.00046047, -0.00135236, -0.000109876, 0.000469353, -0.392998, 16.0092, 22.204, 19.0146, 1.50989, 4.72201, -0.21233, 0.000836683, -0.001705, 0.000928711, 0.00224663, -0.00176982, 5.33182e-05, 0.00315951, -0.0014286, -0.00153674, -0.00303109, -0.00127679, -0.0057618, -0.0111119, -0.444721, 0.635038, -3.13187, -0.0555628, -0.107532, -0.010275, -0.442979, 0.634179, -3.12974, -0.0559937, -0.104624, 4.30968e-05, 7.4323e-05, -9.82172e-05, -0.00295085, -0.00145126, -0.00185715
0.017156, 0.107789, -0.774195, -0.917222, -1.45802, -0.625476, 1.06932, -0.256717, -0.000279197, -0.00235785, -0.00594114, 0.00046047, -0.00135236, -0.000109876, 0.000469353, -0.392998, 16.0092, 22.204, 19.0146, 1.50989, 4.72201, -0.21233, 0.000836636, -0.00170492, 0.000928588, 0.00224638, -0.00177012, 5.33273e-05, 0.00317655, -0.00146001, -0.00149235, -0.00294195, -0.00126437, -0.00559294, -0.0111119, -0.444721, 0.635038, -3.13187, -0.0555628, -0.107533, -0.010275, -0.442979, 0.634179, -3.12974, -0.0559937, -0.104624, 6.19987e-05, 0.000106695, -0.000141136, -0.00295085, -0.00145126, -0.00185715
0.018156, 0.107789, -0.774195, -0.917222, -1.45802, -0.625476, 1.06932, -0.256717, -0.000279197, -0.00235785, -0.00594114, 0.00046047, -0.00135236, -0.000109876, 0.000469353, -0.392998, 16.0092, 22.204, 19.0146, 1.50989, 4.72201, -0.21233, 0.00083657, -0.00170479, 0.000928418, 0.00224602, -0.00177054, 5.33401e-05, 0.00319665, -0.00149696, -0.00144005, -0.00283699, -0.00124968, -0.00539405, -0.0111118, -0.44472, 0.635037, -3.13187, -0.0555628, -0.107533, -0.010275, -0.442979, 0.634179, -3.12974, -0.0559937, -0.104624, 8.43044e-05, 0.000144776, -0.000191697, -0.00295085, -0.00145126, -0.00185715
0.019156, 0.107789, -0.774195, -0.917222, -1.45802, -0.625476, 1.06932, -0.256717, -0.000279197, -0.00235785, -0.00594114, 0.00046047, -0.00135236, -0.000109876, 0.000469353, -0.392998, 16.0092, 22.204, 19.0146, 1.50989, 4.72201, -0.21233, 0.000836482, -0.00170463, 0.000928191, 0.00224554, -0.00177109, 5.33571e-05, 0.00321982, -0.00153939, -0.0013799, -0.00271633, -0.00123271, -0.00516531, -0.0111117, -0.44472, 0.635037, -3.13187, -0.0555629, -0.107534, -0.010275, -0.442979, 0.634179, -3.12974, -0.0559937, -0.104624, 0.000110004, 0.000188511, -0.000249853, -0.00295085, -0.00145126, -0.00185715
0.020156, 0.107789, -0.774195, -0.917222, -1.45802, -0.625476, 1.06932, -0.256717, -0.000279197, -0.00235785, -0.00594114, 0.00046047, -0.00135236, -0.000109876, 0.000469353, -0.392998, 16.0092, 22.204, 19.0146, 1.50989, 4.72201, -0.21233, 0.000836369, -0.00170442, 0.000927901, 0.00224492, -0.00177179, 5.33792e-05, 0.00324604, -0.00158725, -0.00131194, -0.00258009, -0.00121347, -0.00490693, -0.0111116, -0.44472, 0.635037, -3.13187, -0.0555629, -0.107535, -0.010275, -0.442979, 0.634179, -3.12974, -0.0559937, -0.104624, 0.000139087, 0.000237846, -0.000315553, -0.00295085, -0.00145126, -0.00185715
0.021156, 0.107789, -0.774195, -0.917222, -1.45802, -0.625476, 1.06932, -0.256717, -0.000279197, -0.00235785, -0.00594114, 0.00046047, -0.00135236, -0.000109876, 0.000469353, -0.392998, 16.0092, 22.204, 19.0146, 1.50989, 4.72201, -0.21233, 0.000836229, -0.00170417, 0.00092754, 0.00224416, -0.00177267, 5.34068e-05, 0.0032753, -0.00164048, -0.00123622, -0.00242839, -0.00119194, -0.00461911, -0.0111114, -0.44472, 0.635037, -3.13186, -0.055563, -0.107537, -0.010275, -0.442979, 0.634179, -3.12974, -0.0559937, -0.104624, 0.000171544, 0.000292726, -0.00038875, -0.00295085, -0.00145126, -0.00185715
0.022156, 0.107789, -0.774195, -0.917222, -1.45802, -0.625476, 1.06932, -0.256717, -0.000279197, -0.00235785, -0.00594114, 0.00046047, -0.00135236, -0.000109876, 0.000469353, -0.392998, 16.0092, 22.204, 19.0146, 1.50989, 4.72201, -0.21233, 0.000836057, -0.00170385, 0.000927099, 0.00224323, -0.00177375, 5.34407e-05, 0.0033076, -0.00169904, -0.00115279, -0.00226135, -0.00116811, -0.00430206, -0.0111112, -0.444719, 0.635036, -3.13186, -0.055563, -0.107538, -0.010275, -0.442979, 0.634179, -3.12974, -0.0559937, -0.104624, 0.000207364, 0.000353099, -0.000469394, -0.00295085, -0.00145126, -0.00185715
0.023156, 0.107789, -0.774195, -0.917222, -1.45802, -0.625476, 1.06932, -0.256717, -0.000279197, -0.00235785, -0.00594114, 0.00046047, -0.00135236, -0.000109876, 0.000469353, -0.392998, 16.0092, 22.204, 19.0146, 1.50989, 4.72201, -0.21233, 0.000835852, -0.00170348, 0.000926572, 0.00224212, -0.00177503, 5.34816e-05, 0.00334293, -0.00176287, -0.0010617, -0.00207909, -0.001142, -0.00395596, -0.011111, -0.444719, 0.635036, -3.13186, -0.0555631, -0.10754, -0.010275, -0.442979, 0.634179, -3.12974, -0.0559937, -0.104624, 0.000246538, 0.00041891, -0.000557437, -0.00295085, -0.00145126, -0.00185715
0.024156, 0.107789, -0.774195, -0.917222, -1.45802, -0.625476, 1.06932, -0.256717, -0.000279197, -0.00235785, -0.00594114, 0.00046047, -0.00135236, -0.000109876, 0.000469353, -0.392998, 16.0092, 22.204, 19.0146, 1.50989, 4.72201, -0.21233, 0.000835609, -0.00170304, 0.00092595, 0.00224081, -0.00177654, 5.35302e-05, 0.00338127, -0.00183192, -0.000963006, -0.00188173, -0.00111358, -0.00358103, -0.0111107, -0.444719, 0.635035, -3.13186, -0.0555632, -0.107542, -0.010275, -0.442979, 0.634179, -3.12974, -0.0559937, -0.104624, 0.000289055, 0.000490107, -0.00065283, -0.00295085, -0.00145126, -0.00185715
0.025156, 0.107789, -0.774195, -0.917222, -1.45802, -0.625476, 1.06932, -0.256717, -0.000279197, -0.00235785, -0.00594114, 0.00046047, -0.00135236, -0.000109876, 0.000469353, -0.392998, 16.0092, 22.204, 19.0146, 1.50989, 4.72201, -0.21233, 0.000835327, -0.00170252, 0.000925226, 0.00223928, -0.00177831, 5.35871e-05, 0.00342262, -0.00190613, -0.00085675, -0.00166938, -0.00108287, -0.00317745, -0.0111104, -0.444718, 0.635034, -3.13186, -0.0555634, -0.107545, -0.010275, -0.442979, 0.634179, -3.12974, -0.0559937, -0.104624, 0.000334905, 0.000566635, -0.000755525, -0.00295085, -0.00145126, -0.00185715
0.026156, 0.107789, -0.774195, -0.917222, -1.45802, -0.625476, 1.06932, -0.256717, -0.000279197, -0.00235785, -0.00594114, 0.00046047, -0.00135236, -0.000109876, 0.000469353, -0.392998, 16.0092, 22.204, 19.0146, 1.50989, 4.72201, -0.21233, 0.000835001, -0.00170193, 0.000924393, 0.00223753, -0.00178033, 5.3653e-05, 0.00346697, -0.00198545, -0.000742983, -0.00144217, -0.00104984, -0.00274543, -0.0111101, -0.444717, 0.635033, -3.13186, -0.0555635, -0.107548, -0.010275, -0.442979, 0.634179, -3.12974, -0.0559937, -0.104624, 0.000384079, 0.000648441, -0.000865474, -0.00295085, -0.00145126, -0.00185715
0.027156, 0.107789, -0.774195, -0.917222, -1.45802, -0.625476, 1.06932, -0.256717, -0.000279197, -0.00235785, -0.00594114, 0.00046047, -0.00135236, -0.000109876, 0.000469353, -0.392998, 16.0092, 22.204, 19.0146, 1.50989, 4.72201, -0.21233, 0.00083463, -0.00170126, 0.000923443, 0.00223553, -0.00178264, 5.37287e-05, 0.00351432, -0.00206983, -0.000621754, -0.0012002, -0.00101451, -0.00228516, -0.0111097, -0.444717, 0.635033, -3.13186, -0.0555637, -0.107552, -0.010275, -0.442979, 0.634179, -3.12974, -0.0559937, -0.104624, 0.000436566, 0.000735474, -0.000982628, -0.00295085, -0.00145126, -0.00185715
0.028156, 0.107789, -0.774195, -0.917222, -1.45802, -0.625476, 1.06932, -0.256717, -0.000279197, -0.00235785, -0.00594114, 0.00046047, -0.00135236, -0.000109876, 0.000469353, -0.392998, 16.0092, 22.204, 19.0146, 1.50989, 4.72201, -0.21233, 0.000834209, -0.0017005, 0.000922369, 0.00223327, -0.00178526, 5.38149e-05, 0.00356464, -0.00215921, -0.000493112, -0.000943599, -0.000976857, -0.00179685, -0.0111092, -0.444716, 0.635032, -3.13185, -0.0555639, -0.107556, -0.010275, -0.442979, 0.634179, -3.12974, -0.0559937, -0.104624, 0.000492356, 0.000827679, -0.00110694, -0.00295085, -0.00145126, -0.00185715
0.029156, 0.107789, -0.774195, -0.917222, -1.45802, -0.625476, 1.06932, -0.256717, -0.000279197, -0.00235785, -0.00594114, 0.00046047, -0.00135236, -0.000109876, 0.000469353, -0.392998, 16.0092, 22.204, 19.0146, 1.50989, 4.72201, -0.21233, 0.000833736, -0.00169965, 0.000921163, 0.00223073, -0.00178819, 5.39123e-05, 0.00361794, -0.00225356, -0.000357106, -0.000672482, -0.000936887, -0.00128068, -0.0111087, -0.444715, 0.63503, -3.13185, -0.0555641, -0.10756, -0.010275, -0.442979, 0.634179, -3.12974, -0.0559937, -0.104624, 0.000551439, 0.000925004, -0.00123836, -0.00295085, -0.00145126, -0.00185715
0.030156, 0.107789, -0.774195, -0.917222, -1.45802, -0.625476, 1.06932, -0.256717, -0.000279197, -0.00235785, -0.00594114, 0.00046047, -0.00135236, -0.000109876, 0.000469353, -0.392998, 16.0092, 22.204, 19.0146, 1.50989, 4.72201, -0.21233, 0.000833208, -0.0016987, 0.000919819, 0.0022279, -0.00179146, 5.40216e-05, 0.00367421, -0.0023528, -0.000213785, -0.000386964, -0.000894593, -0.000736859, -0.0111081, -0.444714, 0.635029, -3.13185, -0.0555643, -0.107565, -0.010275, -0.442979, 0.634179, -3.12974, -0.0559937, -0.104624, 0.000613805, 0.0010274, -0.00137684, -0.00295085, -0.00145126, -0.00185715
0.031156, 0.107789, -0.774195, -0.917222, -1.45802, -0.625476, 1.06932, -0.256717, -0.000279197, -0.00235785, -0.00594114, 0.00046047, -0.00135236, -0.000109876, 0.000469353, -0.392998, 16.0092, 22.204, 19.0146, 1.50989, 4.72201, -0.21233, 0.000832622, -0.00169765, 0.000918328, 0.00222476, -0.00179508, 5.41436e-05, 0.00373344, -0.0024569, -6.31954e-05, -8.71619e-05, -0.00084997, -0.000165577, -0.0111074, -0.444713, 0.635028, -3.13184, -0.0555646, -0.10757, -0.010275, -0.442979, 0.634179, -3.12974, -0.0559937, -0.104624, 0.000679445, 0.00113481, -0.00152234, -0.00295085, -0.00145126, -0.00185715
0.032156, 0.107789, -0.774195, -0.917222, -1.45802, -0.625476, 1.06932, -0.256717, -0.000279197, -0.00235785, -0.00594114, 0.00046047, -0.00135236, -0.000109876, 0.000469353, -0.392998, 16.0092, 22.204, 19.0146, 1.50989, 4.72201, -0.21233, 0.000831975, -0.00169649, 0.000916684, 0.00222131, -0.00179908, 5.42791e-05, 0.00379561, -0.00256579, 9.46128e-05, 0.000226808, -0.000803016, 0.00043297, -0.0111067, -0.444712, 0.635026, -3.13184, -0.0555649, -0.107577, -0.010275, -0.442979, 0.634179, -3.12974, -0.0559937, -0.104624, 0.000748347, 0.00124718, -0.0016748, -0.00295085, -0.00145126, -0.00185715
0.033156, 0.107789, -0.774195, -0.917222, -1.45802, -0.625476, 1.06932, -0.256717, -0.000279197, -0.00235785, -0.00594114, 0.00046047, -0.00135236, -0.000109876, 0.000469353, -0.392998, 16.0092, 22.204, 19.0146, 1.50989, 4.72201, -0.21233, 0.000831264, -0.00169522, 0.000914879, 0.00221752, -0.00180347, 5.44288e-05, 0.00386072, -0.00267944, 0.000259592, 0.000554831, -0.000753725, 0.00105859, -0.0111059, -0.444711, 0.635024, -3.13184, -0.0555653, -0.107583, -0.010275, -0.442979, 0.634179, -3.12974, -0.0559937, -0.104624, 0.000820503, 0.00136446, -0.00183418, -0.00295085, -0.00145126, -0.00185715
0.034156, 0.107789, -0.774195, -0.917222, -1.45802, -0.625476, 1.06932, -0.256717, -0.000279197, -0.00235785, -0.00594114, 0.00046047, -0.00135236, -0.000109876, 0.000469353, -0.392998, 16.0092, 22.204, 19.0146, 1.50989, 4.72201, -0.21233, 0.000830486, -0.00169384, 0.000912907, 0.00221337, -0.00180826, 5.45934e-05, 0.00392876, -0.00279778, 0.000431694, 0.00089679, -0.000702093, 0.00171108, -0.0111051, -0.444709, 0.635022, -3.13183, -0.0555656, -0.10759, -0.010275, -0.442979, 0.634179, -3.12974, -0.0559937, -0.104624, 0.000895902, 0.00148661, -0.00200043, -0.00295085, -0.00145126, -0.00185715
0.035156, 0.107789, -0.774195, -0.917222, -1.45802, -0.625476, 1.06932, -0.256717, -0.000279197, -0.00235785, -0.00594114, 0.00046047, -0.00135236, -0.000109876, 0.000469353, -0.392998, 16.0092, 22.204, 19.0146, 1.50989, 4.72201, -0.21233, 0.000829638, -0.00169233, 0.00091076, 0.00220887, -0.00181348, 5.47738e-05, 0.00399972, -0.00292076, 0.000610871, 0.00125257, -0.000648117, 0.00239026, -0.0111041, -0.444708, 0.63502, -3.13183, -0.055566, -0.107598, -0.010275, -0.442979, 0.634179, -3.12974, -0.0559937, -0.104624, 0.000974534, 0.00161356, -0.00217351, -0.00295085, -0.00145126, -0.00185715
0.036156, 0.107789, -0.774195, -0.917222, -1.45802, -0.625476, 1.06932, -0.256717, -0.000279197, -0.00235785, -0.00594114, 0.00046047, -0.00135236, -0.000109876, 0.000469353, -0.392998, 16.0092, 22.204, 19.0146, 1.50989, 4.72201, -0.21233, 0.000828718, -0.0016907, 0.000908431, 0.00220398, -0.00181914, 5.49707e-05, 0.0040736, -0.00304834, 0.000797075, 0.00162206, -0.000591793, 0.00309593, -0.0111031, -0.444706, 0.635018, -3.13182, -0.0555664, -0.107607, -0.010275, -0.442979, 0.634179, -3.12974, -0.0559937, -0.104624, 0.00105639, 0.00174526, -0.00235336, -0.00295085, -0.00145126, -0.00185715
0.037156, 0.107789, -0.774195, -0.917222, -1.45802, -0.625476, 1.06932, -0.256717, -0.000279197, -0.00235785, -0.00594114, 0.00046047, -0.00135236, -0.000109876, 0.000469353, -0.392998, 16.0092, 22.204, 19.0146, 1.50989, 4.72201, -0.21233, 0.000827722, -0.00168893, 0.000905914, 0.0021987, -0.00182526, 5.5185e-05, 0.00415038, -0.00318047, 0.000990259, 0.00200514, -0.000533115, 0.00382789, -0.011102, -0.444704, 0.635016, -3.13182, -0.0555669, -0.107616, -0.010275, -0.442979, 0.634179, -3.12974, -0.0559937, -0.104624, 0.00114146, 0.00188168, -0.00253994, -0.00295085, -0.00145126, -0.00185715
0.038156, 0.107789, -0.774195, -0.917222, -1.45802, -0.625476, 1.06932, -0.256717, -0.000279197, -0.00235785, -0.00594114, 0.00046047, -0.00135236, -0.000109876, 0.000469353, -0.392998, 16.0092, 22.204, 19.0146, 1.50989, 4.72201, -0.21233, 0.000826647, -0.00168704, 0.000903202, 0.00219301, -0.00183185, 5.54174e-05, 0.00423006, -0.00331708, 0.00119038, 0.0024017, -0.00047208, 0.00458596, -0.0111008, -0.444702, 0.635013, -3.13181, -0.0555674, -0.107626, -0.010275, -0.442979, 0.634179, -3.12974, -0.0559937, -0.104624, 0.00122973, 0.00202275, -0.00273321, -0.00295085, -0.00145126, -0.00185715
0.039156, 0.107789, -0.774195, -0.917222, -1.45802, -0.625476, 1.06932, -0.256717, -0.000279197, -0.00235785, -0.00594114, 0.00046047, -0.00135236, -0.000109876, 0.000469353, -0.392998, 16.0092, 22.204, 19.0146, 1.50989, 4.72201, -0.21233, 0.000825491, -0.001685, 0.000900286, 0.0021869, -0.00183893, 5.56687e-05, 0.00431262, -0.00345814, 0.00139738, 0.00281162, -0.000408684, 0.00536994, -0.0110996, -0.4447, 0.63501, -3.1318, -0.055568, -0.107637, -0.010275, -0.442979, 0.634179, -3.12974, -0.0559937, -0.104624, 0.00132119, 0.00216842, -0.00293311, -0.00295085, -0.00145126, -0.00185715
0.040156, 0.107789, -0.774195, -0.917222, -1.45802, -0.625476, 1.06932, -0.256717, -0.000279197, -0.00235785, -0.00594114, 0.00046047, -0.00135236, -0.000109876, 0.000469353, -0.392998, 16.0092, 22.204, 19.0146, 1.50989, 4.72201, -0.21233, 0.00082425, -0.00168282, 0.000897162, 0.00218035, -0.00184652, 5.59399e-05, 0.00439806, -0.00360359, 0.00161122, 0.0032348, -0.000342923, 0.00617965, -0.0110982, -0.444698, 0.635007, -3.1318, -0.0555686, -0.107648, -0.010275, -0.442979, 0.634179, -3.12974, -0.0559937, -0.104624, 0.00141584, 0.00231864, -0.0031396, -0.00295085, -0.00145126, -0.00185715
0.041156, 0.107789, -0.774195, -0.917222, -1.45802, -0.625476, 1.06932, -0.256717, -0.000279197, -0.00235785, -0.00594114, 0.00046047, -0.00135236, -0.000109876, 0.000469353, -0.392998, 16.0092, 22.204, 19.0146, 1.50989, 4.72201, -0.21233, 0.000822922, -0.00168049, 0.000893821, 0.00217336, -0.00185463, 5.62316e-05, 0.00448636, -0.00375338, 0.00183185, 0.00367111, -0.000274792, 0.00701489, -0.0110967, -0.444695, 0.635004, -3.13179, -0.0555692, -0.107661, -0.010275, -0.442979, 0.634179, -3.12974, -0.0559937, -0.104624, 0.00151366, 0.00247337, -0.00335263, -0.00295085, -0.00145126, -0.00185715
0.042156, 0.107789, -0.774195, -0.917222, -1.45802, -0.625476, 1.06932, -0.256717, -0.000279197, -0.00235785, -0.00594114, 0.00046047, -0.00135236, -0.000109876, 0.000469353, -0.392998, 16.0092, 22.204, 19.0146, 1.50989, 4.72201, -0.21233, 0.000821504, -0.00167801, 0.000890258, 0.0021659, -0.00186328, 5.65447e-05, 0.00457753, -0.00390747, 0.00205922, 0.00412044, -0.000204288, 0.00787547, -0.0110952, -0.444693, 0.635, -3.13178, -0.0555699, -0.107674, -0.010275, -0.442979, 0.634179, -3.12974, -0.0559937, -0.104624, 0.00161465, 0.00263255, -0.00357216, -0.00295085, -0.00145126, -0.00185715
0.043156, 0.107789, -0.774195, -0.917222, -1.45802, -0.625476, 1.06932, -0.256717, -0.000279197, -0.00235785, -0.00594114, 0.00046047, -0.00135236, -0.000109876, 0.000469353, -0.392998, 16.0092, 22.204, 19.0146, 1.50989, 4.72201, -0.21233, 0.000819993, -0.00167537, 0.000886465, 0.00215796, -0.00187249, 5.68801e-05, 0.00467155, -0.00406579, 0.00229329, 0.00458268, -0.000131406, 0.0087612, -0.0110935, -0.44469, 0.634997, -3.13177, -0.0555706, -0.107688, -0.010275, -0.442979, 0.634179, -3.12974, -0.0559937, -0.104624, 0.00171879, 0.00279613, -0.00379814, -0.00295085, -0.00145126, -0.00185715
0.044156, 0.107742, -0.774208, -0.917404, -1.45803, -0.625538, 1.06932, -0.25672, -0.00129322, 0.00194674, -0.00285983, 0.00130983, -0.00132739, -0.000120776, 0.00677008, -0.242241, 15.9021, 22.688, 19.086, 1.78638, 4.70096, -0.172963, 0.000724868, -0.00163128, 0.000935138, 0.00223899, -0.00192874, 0.000265886, 0.00309106, -0.00355919, 0.00385834, 0.00789243, 0.00353119, 0.0042695, -0.0110917, -0.444687, 0.634993, -3.13176, -0.0555714, -0.107702, -0.0103632, -0.443023, 0.63412, -3.12965, -0.055673, -0.104545, 0.00182607, 0.00296406, -0.00403052, -0.00139318, -0.000735095, -0.000416382
0.045156, 0.107736, -0.77421, -0.917407, -1.45802, -0.625539, 1.06933, -0.256715, -0.00578048, -0.00176342, -0.00497471, -0.00112864, 0.000504929, 0.00202309, 0.00584854, -0.166862, 15.9021, 22.5413, 18.8995, 1.74884, 4.64328, -0.193104, 0.000718801, -0.00162715, 0.000930513, 0.00222735, -0.00193445, 0.000280713, 0.00588506, -0.00412664, 0.00294616, 0.00672468, -0.000911966, 0.00218102, -0.0110899, -0.444684, 0.634989, -3.13175, -0.0555722, -0.107718, -0.0103675, -0.443025, 0.63412, -3.12966, -0.0556505, -0.104552, 0.00193648, 0.00313629, -0.00426926, -0.00398565, -0.00122032, -0.00176103
0.046156, 0.107736, -0.774211, -0.91742, -1.45804, -0.625541, 1.06933, -0.256723, -0.00413412, 0.00116764, -0.010002, -0.00629863, -0.00138302, 0.00174172, 0.00142478, -0.166862, 15.791, 22.3905, 18.7131, 1.66919, 4.50686, -0.114369, 0.000714476, -0.00162175, 0.000933208, 0.00223089, -0.00195344, 0.000278332, 0.00531478, -0.00508837, 0.000227624, 0.00177241, 0.0072649, 0.00712455, -0.0110879, -0.444681, 0.634984, -3.13174, -0.0555731, -0.107735, -0.0103694, -0.443027, 0.634113, -3.12964, -0.0556553, -0.104539, 0.00205002, 0.00331277, -0.00451432, -0.00308283, -0.0019612, -0.00468501
0.047156, 0.107744, -0.774208, -0.917437, -1.45805, -0.625549, 1.06933, -0.256717, -0.00027517, 0.00402069, -0.0111868, -0.0101325, -0.00805134, 0.000848057, 0.0010439, -0.281914, 15.6442, 22.1287, 18.3798, 1.59595, 4.37778, -0.10796, 0.000712558, -0.00161549, 0.000938169, 0.00223941, -0.00198621, 0.000286302, 0.00383782, -0.00589018, -0.00110658, 0.00150139, 0.0182751, 0.0102029, -0.0110858, -0.444678, 0.63498, -3.13173, -0.055574, -0.107752, -0.0103687, -0.44303, 0.634103, -3.12963, -0.0556444, -0.104504, 0.00216668, 0.00349346, -0.00476563, -0.00137352, -0.0025182, -0.00617082
0.048156, 0.107749, -0.774211, -0.91746, -1.45807, -0.625561, 1.06932, -0.256718, 0.00142203, 0.00115078, -0.0148656, -0.0107779, -0.0135542, -0.00068771, 0.00118185, -0.357292, 15.5688, 21.8311, 17.9315, 1.53461, 4.26333, -0.114369, 0.000704379, -0.00160867, 0.000945437, 0.00225575, -0.00201928, 0.000296308, 0.00635818, -0.0071966, -0.00237416, 7.22079e-05, 0.0210409, 0.00766724, -0.0110835, -0.444674, 0.634975, -3.13172, -0.055575, -0.107771, -0.0103738, -0.443033, 0.63409, -3.1296, -0.0556306, -0.10447, 0.00228643, 0.0036783, -0.00502317, -0.00363298, -0.0037165, -0.00787478
0.049156, 0.107764, -0.774213, -0.917489, -1.45809, -0.625574, 1.0693, -0.25672, 0.0106308, -0.00100765, -0.0173983, -0.0127066, -0.0170933, -0.0028756, -0.000721107, -0.508049, 15.4935, 21.4979, 17.5189, 1.45404, 4.17727, -0.0685925, 0.000698673, -0.00160174, 0.00095685, 0.0022853, -0.00206363, 0.000297865, 0.00440018, -0.00804301, -0.00395898, -0.00321225, 0.0241976, 0.0171615, -0.0110812, -0.44467, 0.634969, -3.13171, -0.0555761, -0.10779, -0.0103761, -0.443037, 0.634073, -3.12956, -0.0556306, -0.104418, 0.00240928, 0.00386724, -0.00528689, -0.00141901, -0.00429063, -0.00959019
0.050156, 0.107775, -0.774218, -0.917522, -1.45812, -0.625595, 1.06928, -0.256716, 0.00928459, -0.00431045, -0.022303, -0.0161834, -0.0221288, -0.00945712, 0.000642418, -0.583427, 15.4935, 21.1606, 17.1857, 1.43573, 4.09854, -0.0951428, 0.000689718, -0.00159358, 0.000971305, 0.00231644, -0.00211757, 0.000311084, 0.00865229, -0.00837517, -0.00679035, -0.0113796, 0.030605, 0.0111572, -0.0110787, -0.444666, 0.634964, -3.1317, -0.0555772, -0.107811, -0.0103813, -0.443041, 0.634053, -3.12952, -0.0556127, -0.104352, 0.00253522, 0.00406024, -0.00555673, -0.00532626, -0.0045543, -0.0129798
0.051156, 0.107781, -0.774219, -0.91756, -1.45814, -0.625621, 1.06927, -0.256718, 0.00735055, -0.00353791, -0.0272019, -0.0177714, -0.0270884, -0.00801982, -0.000212848, -0.619133, 15.4935, 20.8631, 16.8127, 1.45404, 3.97677, -0.0750012, 0.000676241, -0.00158312, 0.000985564, 0.00234435, -0.00217522, 0.000331591, 0.0114526, -0.0101727, -0.00816851, -0.0112526, 0.0357407, 0.00587202, -0.0110761, -0.444662, 0.634958, -3.13168, -0.0555784, -0.107832, -0.0103908, -0.443048, 0.634032, -3.12949, -0.0555834, -0.104282, 0.00266423, 0.00425725, -0.00583265, -0.00783029, -0.00623996, -0.0148351
0.052156, 0.107795, -0.774225, -0.917601, -1.45817, -0.625647, 1.06926, -0.256719, 0.00783583, -0.00462005, -0.0343417, -0.0208906, -0.0295307, -0.0113189, -0.000300613, -0.734184, 15.5688, 20.5655, 16.5112, 1.44214, 3.84768, -0.0685925, 0.000664763, -0.00157129, 0.00100197, 0.00237444, -0.00223094, 0.000346346, 0.0141641, -0.0112655, -0.0112008, -0.0189216, 0.0406271, 0.00254807, -0.0110734, -0.444658, 0.634952, -3.13167, -0.0555796, -0.107855, -0.0103979, -0.443055, 0.634009, -3.12945, -0.0555632, -0.104215, 0.0027963, 0.00445821, -0.00611461, -0.0101543, -0.00719977, -0.0183362
0.053156, 0.107804, -0.774233, -0.917639, -1.45821, -0.625679, 1.06925, -0.256711, 0.0103186, -0.00605215, -0.0342115, -0.0248576, -0.0322482, -0.0100542, -0.00718659, -0.809562, 15.6799, 20.1926, 16.2891, 1.45404, 3.73324, -0.133595, 0.000651593, -0.00155986, 0.00101853, 0.00240176, -0.00229422, 0.00037069, 0.0131588, -0.0118268, -0.0120921, -0.0184524, 0.043306, 0.0138769, -0.0110705, -0.444653, 0.634946, -3.13165, -0.0555809, -0.107878, -0.0104066, -0.443062, 0.633985, -3.12941, -0.0555281, -0.104138, 0.00293143, 0.00466308, -0.00640257, -0.00893547, -0.00751241, -0.0194479
0.054156, 0.107809, -0.774228, -0.917679, -1.45825, -0.625716, 1.06923, -0.256716, 0.00948687, -0.00255177, -0.0366496, -0.0298628, -0.0339618, -0.0100484, -0.00722997, -0.76989, 15.6046, 19.8951, 16.178, 1.46045, 3.64718, -0.0878186, 0.000639792, -0.0015485, 0.0010378, 0.00243449, -0.00238101, 0.000387695, 0.0126705, -0.0122829, -0.0138509, -0.0211553, 0.0515554, 0.0141261, -0.0110675, -0.444648, 0.63494, -3.13164, -0.0555822, -0.107903, -0.0104137, -0.443069, 0.633958, -3.12937, -0.0555048, -0.104025, 0.00306961, 0.00487181, -0.00669647, -0.00817314, -0.00772664, -0.021466
0.055156, 0.107811, -0.774231, -0.917717, -1.45829, -0.625752, 1.06922, -0.256713, 0.00916095, -0.0036746, -0.0371544, -0.028808, -0.0342195, -0.0107575, -0.00439425, -0.734184, 15.6799, 19.5618, 15.9915, 1.44214, 3.58218, -0.114369, 0.000623891, -0.00153693, 0.00105376, 0.00246058, -0.00245377, 0.000416326, 0.01379, -0.0125674, -0.0134551, -0.020838, 0.0504271, 0.011092, -0.0110644, -0.444643, 0.634933, -3.13162, -0.0555837, -0.107929, -0.0104249, -0.443076, 0.633934, -3.12933, -0.0554631, -0.103935, 0.00321082, 0.00508435, -0.00699628, -0.00916484, -0.0078411, -0.0214504
0.056156, 0.107814, -0.774232, -0.917763, -1.45832, -0.625787, 1.0692, -0.256713, 0.00899666, -0.00260737, -0.0388937, -0.029402, -0.0294887, -0.0133021, -0.00334771, -0.694511, 15.6799, 19.4111, 15.8765, 1.41742, 3.57577, -0.114369, 0.000606018, -0.00152472, 0.00107289, 0.0024974, -0.00253349, 0.00044631, 0.0134495, -0.0120422, -0.0139921, -0.0258773, 0.0497592, 0.012323, -0.0110611, -0.444638, 0.634926, -3.13161, -0.0555852, -0.107956, -0.0104376, -0.443084, 0.633907, -3.12928, -0.0554199, -0.103835, 0.00335505, 0.00530066, -0.00730195, -0.00866274, -0.00708295, -0.0222653
0.057156, 0.107818, -0.774228, -0.917807, -1.45837, -0.625826, 1.06918, -0.25672, 0.00676926, -0.00102126, -0.041917, -0.0334281, -0.0355271, -0.0147041, -0.0047156, -0.694511, 15.6442, 19.2246, 15.9161, 1.3927, 3.56112, -0.0557752, 0.000591383, -0.00151248, 0.00109261, 0.00253259, -0.00262503, 0.000466129, 0.0155549, -0.0129265, -0.0157507, -0.0277248, 0.0594697, 0.00955567, -0.0110577, -0.444633, 0.634918, -3.13159, -0.0555867, -0.107984, -0.010447, -0.443091, 0.633879, -3.12923, -0.0553926, -0.103718, 0.0035023, 0.00552068, -0.00761342, -0.0104618, -0.00780499, -0.0244825
0.058156, 0.107816, -0.77422, -0.91785, -1.45841, -0.625865, 1.06917, -0.256712, 0.002493, 0.000993731, -0.0390929, -0.0343013, -0.044441, -0.0122365, -0.00192092, -0.583427, 15.5688, 19.0778, 15.8765, 1.36249, 3.58218, -0.0951428, 0.000574514, -0.00149968, 0.00110952, 0.00256031, -0.00271686, 0.000508263, 0.0173628, -0.0138526, -0.0144618, -0.0192242, 0.0675117, 0.00205605, -0.0110541, -0.444627, 0.63491, -3.13157, -0.0555884, -0.108013, -0.0104586, -0.443098, 0.633853, -3.1292, -0.0553304, -0.103602, 0.00365255, 0.00574437, -0.00793067, -0.0121692, -0.0085815, -0.0236452
0.059156, 0.107815, -0.774217, -0.917895, -1.45846, -0.625908, 1.06915, -0.256713, 0.00033272, 0.0014312, -0.0424843, -0.0360424, -0.0420044, -0.00994063, -0.00220303, -0.508049, 15.5331, 19.0421, 16.0272, 1.33777, 3.59683, -0.0750012, 0.000556853, -0.00148625, 0.00112972, 0.00259262, -0.00281423, 0.00053977, 0.0183318, -0.0146888, -0.01534, -0.0206561, 0.0663247, 0.000928006, -0.0110504, -0.444621, 0.634902, -3.13155, -0.0555901, -0.108044, -0.0104706, -0.443106, 0.633823, -3.12915, -0.0552851, -0.103478, 0.0038058, 0.00597168, -0.00825364, -0.0128915, -0.00921588, -0.0249171
0.060156, 0.107813, -0.774214, -0.91793, -1.45849, -0.625956, 1.06914, -0.256716, -0.00121595, 0.00399893, -0.0395713, -0.0379421, -0.0402005, -0.0132981, -0.00258435, -0.43267, 15.5331, 18.9271, 16.1026, 1.31305, 3.62521, -0.0484509, 0.00053904, -0.00147313, 0.00114411, 0.0026101, -0.00290793, 0.000569783, 0.0170519, -0.013315, -0.0148999, -0.0225734, 0.0704189, 0.00509674, -0.0110465, -0.444615, 0.634894, -3.13153, -0.0555919, -0.108076, -0.010483, -0.443114, 0.633799, -3.12912, -0.0552415, -0.103362, 0.00396204, 0.00620257, -0.00858229, -0.0115381, -0.00757072, -0.02471
0.061156, 0.107806, -0.774214, -0.917966, -1.45854, -0.626003, 1.06912, -0.256712, -0.00325779, 0.00520676, -0.0359432, -0.042202, -0.0437229, -0.0115477, -0.000364084, -0.317619, 15.5688, 18.8913, 16.2891, 1.29474, 3.66824, -0.0878186, 0.000519781, -0.00146058, 0.00116015, 0.00263148, -0.00300443, 0.000607986, 0.0161864, -0.013214, -0.0145586, -0.018627, 0.0761249, 0.00540438, -0.0110424, -0.444609, 0.634885, -3.13151, -0.0555937, -0.108109, -0.0104966, -0.443121, 0.633773, -3.12909, -0.0551855, -0.103242, 0.00412125, 0.00643698, -0.00891658, -0.0105428, -0.00720768, -0.024644
0.062156, 0.107804, -0.774206, -0.918003, -1.45858, -0.62605, 1.0691, -0.256714, -0.002824, 0.00473471, -0.0358761, -0.0420955, -0.04225, -0.0156193, -0.00126659, -0.281914, 15.5331, 18.9667, 16.3644, 1.28833, 3.73324, -0.0621838, 0.00050217, -0.00144798, 0.00117478, 0.00265378, -0.00310837, 0.000639, 0.0164307, -0.0125486, -0.0145395, -0.0220695, 0.0766391, 0.00876842, -0.0110382, -0.444602, 0.634876, -3.13149, -0.0555957, -0.108143, -0.0105084, -0.443127, 0.633748, -3.12905, -0.0551408, -0.103112, 0.00428343, 0.00667487, -0.00925645, -0.0106489, -0.00631332, -0.0249779
0.063156, 0.107789, -0.7742, -0.918033, -1.45863, -0.6261, 1.06909, -0.256712, -0.00619986, 0.00347772, -0.0342145, -0.0458448, -0.045263, -0.0143327, -0.000188141, -0.0914839, 15.5331, 19.0024, 16.5866, 1.27002, 3.81198, -0.0814099, 0.000482218, -0.00143649, 0.00118909, 0.00267098, -0.00321614, 0.000679128, 0.0175951, -0.0127421, -0.0146815, -0.0198058, 0.0794829, 0.0074223, -0.0110339, -0.444596, 0.634867, -3.13147, -0.0555977, -0.108178, -0.0105225, -0.443132, 0.633723, -3.12902, -0.055082, -0.102978, 0.00444857, 0.0069162, -0.00960188, -0.0116276, -0.00630477, -0.0255474
0.064156, 0.10778, -0.774204, -0.918066, -1.45868, -0.626148, 1.06907, -0.25671, -0.00662871, 0.00299967, -0.032518, -0.0442475, -0.0527267, -0.0173381, 0.000578689, 0.0196001, 15.6442, 19.1532, 16.7731, 1.26453, 3.87607, -0.101552, 0.000461042, -0.00142442, 0.00120426, 0.00269247, -0.00331548, 0.000714541, 0.0196493, -0.0130547, -0.0136107, -0.0164013, 0.0851826, 0.00449116, -0.0110293, -0.444589, 0.634857, -3.13145, -0.0555998, -0.108215, -0.0105376, -0.443138, 0.633697, -3.12898, -0.0550306, -0.102858, 0.00461665, 0.00716091, -0.0099528, -0.0135697, -0.00645409, -0.0249749
0.065156, 0.107767, -0.774206, -0.918091, -1.45872, -0.626203, 1.06905, -0.25671, -0.0109995, -7.19499e-05, -0.0258336, -0.0441405, -0.0540855, -0.0185536, -0.000628952, 0.170357, 15.7513, 19.2246, 16.8842, 1.27002, 3.91269, -0.0750012, 0.000438098, -0.00141225, 0.00121451, 0.00269978, -0.00341715, 0.000753567, 0.0209331, -0.0118969, -0.0113922, -0.0116719, 0.0834818, 0.00711729, -0.0110246, -0.444581, 0.634847, -3.13142, -0.055602, -0.108254, -0.0105546, -0.443144, 0.633675, -3.12896, -0.0549732, -0.102736, 0.00478767, 0.00740896, -0.0103092, -0.0148724, -0.00511391, -0.0232001
0.066156, 0.107756, -0.774199, -0.918114, -1.45877, -0.626251, 1.06903, -0.256707, -0.0102272, 0.00194791, -0.0257227, -0.047963, -0.054012, -0.019213, 3.18654e-05, 0.285408, 15.6799, 19.3754, 17.146, 1.25171, 3.94107, -0.0878186, 0.000422955, -0.00140177, 0.00122742, 0.00271459, -0.00353076, 0.000782137, 0.0193667, -0.0117251, -0.0121554, -0.0135103, 0.0883928, 0.0107157, -0.0110198, -0.444574, 0.634836, -3.1314, -0.0556043, -0.108293, -0.0105636, -0.443147, 0.63365, -3.12892, -0.0549325, -0.102597, 0.00496161, 0.0076603, -0.010671, -0.0130899, -0.00462856, -0.0242144
0.067156, 0.107741, -0.774199, -0.918133, -1.45881, -0.626302, 1.06901, -0.256714, -0.00966167, 0.00303151, -0.0246101, -0.0460495, -0.05067, -0.0208126, -0.00118321, 0.400459, 15.7513, 19.4864, 17.2214, 1.27002, 3.99783, -0.0557752, 0.000401722, -0.0013915, 0.00123504, 0.00272014, -0.00363328, 0.000810117, 0.0185031, -0.0111931, -0.0109905, -0.0138033, 0.0865848, 0.0153875, -0.0110147, -0.444566, 0.634825, -3.13137, -0.0556067, -0.108334, -0.0105788, -0.44315, 0.63363, -3.1289, -0.0548924, -0.102477, 0.00513848, 0.00791489, -0.0110382, -0.0121511, -0.00382224, -0.0233571
0.068156, 0.107726, -0.774193, -0.918161, -1.45885, -0.626356, 1.06899, -0.256718, -0.0131995, 0.00562288, -0.0240414, -0.0449993, -0.0529891, -0.0226691, -0.0017854, 0.551216, 15.7513, 19.7483, 17.2968, 1.29474, 4.07016, -0.0292249, 0.00037831, -0.00137917, 0.00124508, 0.00273103, -0.00374689, 0.000849389, 0.0201294, -0.0111731, -0.010077, -0.0122485, 0.0912574, 0.0126849, -0.0110095, -0.444558, 0.634814, -3.13135, -0.0556092, -0.108376, -0.0105957, -0.443155, 0.633607, -3.12887, -0.0548351, -0.102341, 0.00531825, 0.00817268, -0.0114107, -0.013656, -0.00360971, -0.0229315
0.069156, 0.10771, -0.774197, -0.918178, -1.4589, -0.626411, 1.06896, -0.256713, -0.0117436, 0.00485225, -0.0215216, -0.0458293, -0.0499776, -0.0231264, -0.000488126, 0.6623, 15.8624, 19.9347, 17.4435, 1.31946, 4.12051, -0.0484509, 0.000356319, -0.00136977, 0.00125418, 0.00274105, -0.00385864, 0.000885801, 0.0183625, -0.0105142, -0.00933381, -0.0121986, 0.0890141, 0.0181014, -0.0110041, -0.44455, 0.634803, -3.13132, -0.0556118, -0.10842, -0.0106112, -0.443157, 0.633585, -3.12884, -0.0547823, -0.102209, 0.00550092, 0.00843363, -0.0117885, -0.0117863, -0.00263465, -0.022442
0.070156, 0.107702, -0.774189, -0.918199, -1.45894, -0.626461, 1.06894, -0.256703, -0.00901616, 0.00787901, -0.0203939, -0.0447703, -0.0517894, -0.0238241, 0.00139646, 0.701973, 15.8267, 20.1569, 17.5189, 1.32587, 4.1846, -0.0951428, 0.000340693, -0.00135923, 0.00126312, 0.00275154, -0.00397694, 0.00092064, 0.0166958, -0.0107023, -0.00832156, -0.0098645, 0.093181, 0.019866, -0.0109985, -0.444541, 0.634791, -3.13129, -0.0556144, -0.108465, -0.0106202, -0.443159, 0.633563, -3.12881, -0.0547321, -0.102068, 0.00568647, 0.00869769, -0.0121715, -0.0100018, -0.00250894, -0.0217017
0.071156, 0.107681, -0.774188, -0.918216, -1.45898, -0.626515, 1.06891, -0.256709, -0.0105668, 0.00735117, -0.0194298, -0.0432715, -0.0535049, -0.0183913, -0.00151602, 0.888436, 15.9021, 20.3791, 17.5586, 1.34418, 4.21298, -0.0292249, 0.00031588, -0.00134873, 0.00126881, 0.00275459, -0.00408809, 0.000955691, 0.0174704, -0.0120221, -0.00668403, -0.00210952, 0.0903217, 0.0218931, -0.0109927, -0.444532, 0.634778, -3.13127, -0.0556172, -0.108512, -0.0106384, -0.443162, 0.633543, -3.12879, -0.0546814, -0.101941, 0.00587491, 0.00896481, -0.0125597, -0.0106512, -0.00360288, -0.0205198
0.072156, 0.107667, -0.774182, -0.918237, -1.45902, -0.626571, 1.06889, -0.256708, -0.0120933, 0.00889778, -0.0219483, -0.041088, -0.0496532, -0.0230807, 0.000205831, 0.963814, 15.9021, 20.6052, 17.5586, 1.34967, 4.2203, -0.0621838, 0.000293732, -0.00133744, 0.00127538, 0.00276029, -0.00420922, 0.000994578, 0.018856, -0.0115356, -0.00662999, -0.00726629, 0.0901326, 0.0189784, -0.0109867, -0.444523, 0.634765, -3.13124, -0.05562, -0.10856, -0.0106536, -0.443164, 0.633523, -3.12876, -0.054625, -0.101799, 0.00606621, 0.00923495, -0.0129531, -0.0118622, -0.00289558, -0.0209529
0.073156, 0.107653, -0.77418, -0.918246, -1.45906, -0.626623, 1.06886, -0.256703, -0.0155845, 0.00599481, -0.0178579, -0.0408333, -0.0470749, -0.021174, 0.00108351, 1.00349, 15.9378, 20.7163, 17.5943, 1.36249, 4.20657, -0.0878186, 0.000275253, -0.00132785, 0.00127862, 0.00275752, -0.00432207, 0.00102623, 0.019482, -0.0110497, -0.00481048, -0.00314213, 0.0840926, 0.020397, -0.0109806, -0.444514, 0.634752, -3.13121, -0.055623, -0.10861, -0.0106652, -0.443165, 0.633505, -3.12874, -0.0545796, -0.101672, 0.00626038, 0.00950806, -0.0133516, -0.0124349, -0.0021756, -0.0195774
0.074156, 0.107643, -0.774172, -0.918262, -1.45911, -0.62668, 1.06884, -0.256707, -0.0143349, 0.00550539, -0.0167374, -0.0454763, -0.0496471, -0.0207173, -0.000738078, 1.00349, 15.9021, 20.9028, 17.7054, 1.37439, 4.21298, -0.0484509, 0.000258315, -0.00131762, 0.00128568, 0.002764, -0.00445317, 0.0010486, 0.0183918, -0.0112291, -0.00550226, -0.00278809, 0.0884537, 0.0270441, -0.0109742, -0.444504, 0.634739, -3.13117, -0.055626, -0.108661, -0.0106749, -0.443166, 0.633483, -3.12871, -0.0545492, -0.101517, 0.00645739, 0.00978411, -0.0137552, -0.0110966, -0.00203389, -0.0205976
0.075156, 0.107622, -0.774168, -0.918275, -1.45915, -0.626737, 1.0688, -0.256701, -0.0170877, 0.00250505, -0.0149448, -0.046297, -0.0562706, -0.0247632, 0.00123551, 1.15424, 15.9735, 21.0496, 17.7054, 1.3808, 4.21298, -0.0951428, 0.000233999, -0.00130778, 0.00128956, 0.00276599, -0.00457784, 0.00109249, 0.0216791, -0.0111128, -0.00519219, -0.0018542, 0.0931052, 0.0225311, -0.0109676, -0.444494, 0.634725, -3.13114, -0.0556292, -0.108713, -0.0106919, -0.443167, 0.633464, -3.12869, -0.0544853, -0.101374, 0.00665724, 0.010063, -0.0141638, -0.0141994, -0.00175717, -0.0209254
0.076156, 0.10761, -0.774159, -0.918286, -1.45919, -0.626796, 1.06877, -0.256705, -0.0154461, 0.00204895, -0.0128262, -0.0429174, -0.0613172, -0.0231594, -0.000398357, 1.15424, 15.9735, 21.1606, 17.6697, 1.3927, 4.21298, -0.0621838, 0.000215009, -0.00129803, 0.00129182, 0.00276525, -0.00470949, 0.00111873, 0.0221128, -0.0121084, -0.00305191, 0.00570951, 0.0935363, 0.0248727, -0.0109609, -0.444484, 0.63471, -3.13111, -0.0556325, -0.108767, -0.0107035, -0.443167, 0.633446, -3.12866, -0.0544488, -0.101223, 0.00685993, 0.0103448, -0.0145774, -0.0145413, -0.00250541, -0.019242
0.077156, 0.107601, -0.774149, -0.918294, -1.45923, -0.626854, 1.06874, -0.256707, -0.0134579, 0.00551825, -0.00967731, -0.0414921, -0.0593006, -0.0266424, -0.00101255, 1.11457, 15.9378, 21.2003, 17.6697, 1.37439, 4.21298, -0.0420422, 0.000198335, -0.00128876, 0.00129373, 0.0027638, -0.00484461, 0.00114083, 0.0196274, -0.0109766, -0.0015214, 0.00560121, 0.0963269, 0.0317107, -0.0109539, -0.444473, 0.634696, -3.13108, -0.0556359, -0.108823, -0.0107127, -0.443166, 0.633428, -3.12864, -0.0544189, -0.101067, 0.00706543, 0.0106294, -0.0149959, -0.0120043, -0.00101658, -0.0179543
0.078156, 0.107601, -0.774149, -0.918294, -1.45923, -0.626854, 1.06874, -0.256707, -0.0134579, 0.00551825, -0.00967731, -0.0414921, -0.0593006, -0.0266424, -0.00101255, 1.11457, 15.9378, 21.2003, 17.6697, 1.37439, 4.21298, -0.0420422, 0.00019182, -0.00127831, 0.00127801, 0.00273147, -0.00488247, 0.00114259, 0.0198158, -0.0112533, -0.00108078, 0.00644829, 0.0964859, 0.0333586, -0.0109468, -0.444463, 0.63468, -3.13104, -0.0556394, -0.10888, -0.0107127, -0.443166, 0.633428, -3.12864, -0.0544189, -0.101067, 0.00727374, 0.0109167, -0.0154193, -0.0120043, -0.00101658, -0.0179543
0.079156, 0.107601, -0.774149, -0.918294, -1.45923, -0.626854, 1.06874, -0.256707, -0.0134579, 0.00551825, -0.00967731, -0.0414921, -0.0593006, -0.0266424, -0.00101255, 1.11457, 15.9378, 21.2003, 17.6697, 1.37439, 4.21298, -0.0420422, 0.000185114, -0.00126759, 0.00126185, 0.00269825, -0.0049214, 0.00114441, 0.0200067, -0.0115326, -0.000635024, 0.00730441, 0.0966475, 0.0350251, -0.0109394, -0.444452, 0.634665, -3.131, -0.055643, -0.108939, -0.0107127, -0.443166, 0.633428, -3.12864, -0.0544189, -0.101067, 0.00748486, 0.0112067, -0.0158476, -0.0120043, -0.00101658, -0.0179543
0.080156, 0.107601, -0.774149, -0.918294, -1.45923, -0.626854, 1.06874, -0.256707, -0.0134579, 0.00551825, -0.00967731, -0.0414921, -0.0593006, -0.0266424, -0.00101255, 1.11457, 15.9378, 21.2003, 17.6697, 1.37439, 4.21298, -0.0420422, 0.000178217, -0.00125658, 0.00124524, 0.00266413, -0.00496139, 0.00114629, 0.0202001, -0.0118144, -0.000184182, 0.00816946, 0.0968116, 0.03671, -0.0109318, -0.44444, 0.634649, -3.13097, -0.0556467, -0.109, -0.0107127, -0.443166, 0.633428, -3.12864, -0.0544189, -0.101067, 0.00769877, 0.0114994, -0.0162807, -0.0120043, -0.00101658, -0.0179543
0.081156, 0.10756, -0.774128, -0.91833, -1.45939, -0.627086, 1.06859, -0.256697, -0.00609945, 0.00158285, -0.00947172, -0.0374895, -0.0652473, -0.0348239, 0.00628966, 0.928108, 16.0846, 21.3471, 17.634, 1.37439, 4.19925, -0.101552, 0.000119301, -0.00125045, 0.0012964, 0.00276062, -0.00537718, 0.00125692, 0.0211403, -0.0117772, 0.00047899, 0.00623203, 0.0991384, 0.0336972, -0.010924, -0.444429, 0.634632, -3.13093, -0.0556505, -0.109062, -0.0107598, -0.443163, 0.633356, -3.12853, -0.0542575, -0.100472, 0.00791545, 0.0117947, -0.0167186, -0.0127721, -0.000723492, -0.0177971
0.082156, 0.107555, -0.774128, -0.918339, -1.45943, -0.627145, 1.06855, -0.256707, -0.00438695, 0.00282176, -0.0110565, -0.0382103, -0.0626051, -0.0349043, 0.00215317, 0.777352, 16.16, 21.3868, 17.6697, 1.36249, 4.1846, -0.0356336, 9.89019e-05, -0.00124016, 0.00129665, 0.00276037, -0.00550952, 0.00126965, 0.0200601, -0.0120252, 0.000256, 0.00441339, 0.0991306, 0.0416877, -0.010916, -0.444417, 0.634615, -3.13089, -0.0556545, -0.109126, -0.0107717, -0.443162, 0.633337, -3.1285, -0.0542428, -0.100329, 0.00813491, 0.0120926, -0.0171612, -0.0114513, -0.00063339, -0.0183899
0.083156, 0.107552, -0.774128, -0.918345, -1.45947, -0.627208, 1.06851, -0.256701, -0.00332028, 0.000701883, -0.0102444, -0.0415721, -0.0661793, -0.0393895, 0.00394059, 0.626595, 16.2314, 21.3471, 17.7054, 1.3689, 4.15622, -0.0951428, 8.06676e-05, -0.00122928, 0.00129552, 0.00275303, -0.00564563, 0.00129437, 0.020654, -0.0116133, -0.00056957, 0.00144634, 0.104322, 0.0433335, -0.0109077, -0.444404, 0.634598, -3.13085, -0.0556585, -0.109191, -0.0107813, -0.443161, 0.63332, -3.12848, -0.0542094, -0.100182, 0.00835714, 0.012393, -0.0176085, -0.0117784, 6.56264e-05, -0.0197006
0.084156, 0.10755, -0.774129, -0.918353, -1.4595, -0.62727, 1.06848, -0.256703, -0.00652086, -0.000926957, -0.00987918, -0.0420893, -0.0683273, -0.0371986, 0.0021069, 0.511544, 16.3068, 21.3114, 17.634, 1.3689, 4.10586, -0.0750012, 5.88498e-05, -0.00121693, 0.00129214, 0.00274211, -0.00577475, 0.00131753, 0.0227274, -0.0123957, 7.89542e-05, 0.00523263, 0.103686, 0.0432526, -0.0108992, -0.444392, 0.63458, -3.13081, -0.0556627, -0.109258, -0.0107943, -0.443161, 0.633304, -3.12846, -0.0541784, -0.100048, 0.00858211, 0.0126959, -0.0180604, -0.0136375, -0.000492588, -0.0196573
0.085156, 0.107545, -0.774123, -0.918366, -1.45954, -0.627333, 1.06844, -0.256706, -0.00373828, 0.000586318, -0.00826931, -0.0426532, -0.0645291, -0.0365796, 0.000590626, 0.436165, 16.2671, 21.3471, 17.7054, 1.34418, 4.07748, -0.0484509, 3.85209e-05, -0.00120488, 0.00129215, 0.00273975, -0.00592084, 0.00134049, 0.0198025, -0.0120634, 0.000863046, 0.00564474, 0.102501, 0.0526464, -0.0108905, -0.444379, 0.634562, -3.13077, -0.055667, -0.109327, -0.0108054, -0.443161, 0.633284, -3.12843, -0.0541482, -0.099888, 0.00880983, 0.0130012, -0.018517, -0.0105601, 0.000240249, -0.0191265
0.086156, 0.107548, -0.774126, -0.918369, -1.45957, -0.627395, 1.0684, -0.256697, -0.00295769, -0.000329939, -0.00765013, -0.0405748, -0.0670226, -0.0354956, 0.00248747, 0.285408, 16.3068, 21.2757, 17.6697, 1.33777, 4.03445, -0.101552, 2.01644e-05, -0.00119332, 0.00128701, 0.00272581, -0.00605199, 0.00136411, 0.0205478, -0.0128922, 0.00219344, 0.0100563, 0.101738, 0.0515317, -0.0108816, -0.444366, 0.634543, -3.13072, -0.0556715, -0.109398, -0.0108146, -0.44316, 0.633269, -3.12841, -0.0541166, -0.0997542, 0.00904028, 0.013309, -0.0189781, -0.0111356, -0.000319424, -0.01832
0.087156, 0.107544, -0.774127, -0.918375, -1.45961, -0.627456, 1.06836, -0.256701, -0.00195358, -6.45577e-05, -0.00491336, -0.0405699, -0.0628845, -0.0399275, 0.000295518, 0.245735, 16.3068, 21.236, 17.7054, 1.29474, 4.00516, -0.0621838, -8.85635e-07, -0.0011817, 0.00128301, 0.00271608, -0.00618918, 0.00138295, 0.019016, -0.0114048, 0.00304947, 0.0070451, 0.101164, 0.0605837, -0.0108725, -0.444352, 0.634524, -3.13068, -0.0556761, -0.10947, -0.0108263, -0.443159, 0.633252, -3.12838, -0.0540928, -0.0996125, 0.00927346, 0.0136191, -0.0194438, -0.00948815, 0.00152256, -0.0178153
0.088156, 0.107548, -0.774137, -0.918382, -1.45965, -0.627519, 1.06832, -0.256703, 0.00154174, -0.00252494, -0.00614692, -0.0413486, -0.0610329, -0.0436285, -0.00071488, 0.0949785, 16.4178, 21.2003, 17.7808, 1.28284, 3.99142, -0.0356336, -2.12565e-05, -0.00116968, 0.00128075, 0.00271046, -0.00632243, 0.00139336, 0.0186991, -0.0111553, 0.00243134, 0.00231578, 0.0999488, 0.0672561, -0.0108631, -0.444339, 0.634504, -3.13064, -0.0556808, -0.109544, -0.0108369, -0.443158, 0.633234, -3.12835, -0.0540823, -0.0994785, 0.00950935, 0.0139315, -0.0199139, -0.00890226, 0.00210133, -0.0188794
0.089156, 0.107546, -0.77414, -0.918391, -1.45968, -0.627579, 1.06827, -0.256696, 0.00135128, -0.00159588, -0.00802208, -0.0371696, -0.0593305, -0.0421784, 0.00178105, 0.059273, 16.4178, 21.2003, 17.7808, 1.26453, 3.9841, -0.0951428, -4.39025e-05, -0.00115716, 0.00127691, 0.00270323, -0.0064602, 0.00142284, 0.0196975, -0.0121231, 0.00383475, 0.00496714, 0.0964057, 0.0636528, -0.0108534, -0.444325, 0.634484, -3.13059, -0.0556856, -0.10962, -0.0108496, -0.443157, 0.633216, -3.12832, -0.0540424, -0.0993391, 0.00974794, 0.0142462, -0.0203885, -0.00972214, 0.00139984, -0.0180325
0.090156, 0.107553, -0.774145, -0.918398, -1.45971, -0.627643, 1.06823, -0.256702, 0.00320829, -0.00183358, -0.00837052, -0.0313396, -0.0580951, -0.046182, -0.000501771, -0.0557783, 16.4536, 21.1606, 17.6697, 1.2453, 3.99142, -0.0484509, -6.57579e-05, -0.00114393, 0.00126932, 0.00268874, -0.00659289, 0.0014364, 0.0206688, -0.0120429, 0.00560056, 0.00479564, 0.0936713, 0.0669698, -0.0108436, -0.44431, 0.634463, -3.13054, -0.0556906, -0.109698, -0.0108615, -0.443157, 0.633201, -3.1283, -0.054027, -0.0992101, 0.00998923, 0.0145631, -0.0208674, -0.0105755, 0.00174506, -0.0168192
0.091156, 0.107557, -0.774148, -0.918407, -1.45974, -0.6277, 1.06819, -0.256704, 0.00268621, -0.00117322, -0.00559436, -0.0316346, -0.0617188, -0.0443208, -0.00101645, -0.0914839, 16.4536, 21.1249, 17.7451, 1.2215, 3.99783, -0.0292249, -8.53062e-05, -0.00113077, 0.00126459, 0.00267993, -0.00672985, 0.00144925, 0.0204771, -0.0125196, 0.00701012, 0.0106858, 0.0963955, 0.0693646, -0.0108335, -0.444295, 0.634442, -3.13049, -0.0556957, -0.109777, -0.0108707, -0.443156, 0.633183, -3.12827, -0.0540131, -0.0990758, 0.0102332, 0.0148823, -0.0213508, -0.0102219, 0.00158025, -0.0158882
0.092156, 0.107564, -0.774154, -0.918415, -1.45977, -0.627764, 1.06815, -0.256696, 0.00563047, -0.0039719, -0.00773047, -0.0322085, -0.0600037, -0.0415404, 0.00178638, -0.131157, 16.4536, 21.1249, 17.7054, 1.20868, 3.96945, -0.0951428, -0.000106264, -0.00111595, 0.00125703, 0.00266198, -0.00686495, 0.0014737, 0.0201852, -0.0136533, 0.00678375, 0.0112024, 0.0915983, 0.070899, -0.0108231, -0.44428, 0.634421, -3.13044, -0.0557009, -0.109858, -0.0108811, -0.443156, 0.633168, -3.12825, -0.053981, -0.0989467, 0.0104799, 0.0152035, -0.0218384, -0.00962798, 0.000780782, -0.0165913
0.093156, 0.107569, -0.774155, -0.918427, -1.4598, -0.627825, 1.06811, -0.2567, 0.00781874, -0.00515957, -0.00674688, -0.0305524, -0.0640519, -0.0402644, -0.00123353, -0.166862, 16.4178, 21.1606, 17.7054, 1.2215, 3.95572, -0.0292249, -0.000128089, -0.0011012, 0.00125083, 0.00264943, -0.00700703, 0.00149029, 0.020487, -0.0146556, 0.00808641, 0.0163947, 0.0919299, 0.0759734, -0.0108125, -0.444265, 0.634399, -3.13039, -0.0557063, -0.109941, -0.0108921, -0.443157, 0.63315, -3.12822, -0.0539615, -0.0988083, 0.0107292, 0.0155269, -0.0223304, -0.00973499, 7.84164e-05, -0.0158143
0.094156, 0.107568, -0.774161, -0.918436, -1.45984, -0.627883, 1.06807, -0.256692, 0.00378421, -0.00471465, -0.00506644, -0.0300571, -0.0621361, -0.0400231, 0.00163177, -0.0914839, 16.4536, 21.1606, 17.7451, 1.2215, 3.96213, -0.0951428, -0.000151592, -0.00108698, 0.00124432, 0.00263675, -0.00714486, 0.00151949, 0.0215208, -0.0143821, 0.00939381, 0.0184168, 0.0905731, 0.0729455, -0.0108016, -0.444249, 0.634376, -3.13034, -0.0557118, -0.110026, -0.0109046, -0.443156, 0.633132, -3.12819, -0.0539226, -0.0986783, 0.0109812, 0.0158524, -0.0228265, -0.0106152, 0.000627244, -0.0150789
0.095156, 0.107579, -0.774167, -0.918449, -1.45987, -0.627945, 1.06803, -0.256696, 0.00767335, -0.00430811, -0.0110628, -0.0296087, -0.0609402, -0.0393659, 0.000588759, -0.166862, 16.4893, 21.2003, 17.7808, 1.22699, 3.96213, -0.0814099, -0.000172341, -0.00107133, 0.0012379, 0.00262422, -0.00728601, 0.00152934, 0.0216309, -0.0159558, 0.00830313, 0.0155782, 0.0899522, 0.0755904, -0.0107905, -0.444233, 0.634353, -3.13029, -0.0557175, -0.110113, -0.010914, -0.443156, 0.633114, -3.12816, -0.0539138, -0.0985451, 0.0112358, 0.0161798, -0.0233269, -0.0103378, -0.000611304, -0.0166889
0.096156, 0.107583, -0.774162, -0.918461, -1.4599, -0.628003, 1.06799, -0.2567, 0.00556532, -0.00361564, -0.0114093, -0.028415, -0.0596903, -0.0428538, -0.00153312, -0.166862, 16.3782, 21.2003, 17.7808, 1.2215, 3.94107, -0.0292249, -0.000192569, -0.00105523, 0.00122881, 0.00260476, -0.00743148, 0.00154665, 0.0230688, -0.0155626, 0.00888427, 0.0136365, 0.0908755, 0.0772736, -0.0107792, -0.444217, 0.634329, -3.13024, -0.0557233, -0.110202, -0.0109228, -0.443157, 0.633098, -3.12813, -0.0538935, -0.0984074, 0.011493, 0.0165093, -0.0238314, -0.0115692, 5.40038e-05, -0.0167142
0.097156, 0.107587, -0.774165, -0.918473, -1.45993, -0.628058, 1.06795, -0.256691, 0.00497555, -0.00285383, -0.0124728, -0.0285118, -0.0587782, -0.0416041, 0.00166205, -0.206535, 16.3782, 21.236, 17.8204, 1.2215, 3.94107, -0.101552, -0.000214262, -0.00103939, 0.00122132, 0.00259086, -0.00757174, 0.00157316, 0.0233442, -0.0161689, 0.00923948, 0.0146829, 0.0906332, 0.0751379, -0.0107676, -0.4442, 0.634305, -3.13018, -0.0557293, -0.110292, -0.0109327, -0.443157, 0.63308, -3.1281, -0.0538592, -0.0982794, 0.0117529, 0.0168407, -0.0243401, -0.0115873, -0.000234275, -0.0168948
0.098156, 0.107595, -0.774169, -0.918488, -1.45996, -0.628109, 1.06792, -0.256698, 0.00440524, -0.0022351, -0.0165825, -0.0306001, -0.0584512, -0.0354152, -0.00132935, -0.242241, 16.3782, 21.2757, 17.8204, 1.22699, 3.92642, -0.0356336, -0.000235026, -0.00102201, 0.00121218, 0.0025723, -0.007705, 0.00158259, 0.0238155, -0.0182086, 0.0085502, 0.0171407, 0.0896301, 0.0776639, -0.0107557, -0.444183, 0.634281, -3.13012, -0.0557354, -0.110385, -0.0109415, -0.443158, 0.633063, -3.12807, -0.0538513, -0.0981646, 0.0120154, 0.017174, -0.0248528, -0.0116733, -0.00194938, -0.0181465
0.099156, 0.107601, -0.774169, -0.918505, -1.45999, -0.62816, 1.06788, -0.256696, 0.00405459, -6.90412e-05, -0.0163578, -0.0305953, -0.0485534, -0.0410769, -0.00013723, -0.281914, 16.3068, 21.3114, 17.7451, 1.22699, 3.93374, -0.0557752, -0.000257706, -0.00100443, 0.00120237, 0.00255545, -0.00784333, 0.00160645, 0.0221461, -0.0162689, 0.00874462, 0.00921782, 0.0873448, 0.0830099, -0.0107435, -0.444166, 0.634256, -3.13007, -0.0557417, -0.110479, -0.0109519, -0.443159, 0.633046, -3.12804, -0.0538214, -0.0980436, 0.0122806, 0.0175091, -0.0253696, -0.00982764, 0.000380463, -0.0183387
0.100156, 0.107594, -0.774165, -0.918526, -1.46002, -0.628209, 1.06784, -0.256689, 0.000154105, -0.000726884, -0.0138648, -0.0323035, -0.0502614, -0.0396965, 0.0105131, -0.166862, 16.1957, 21.3868, 17.7451, 1.2215, 3.9191, -0.0878186, -0.000283952, -0.000986782, 0.00119476, 0.00254296, -0.00798903, 0.00164539, 0.0233408, -0.01636, 0.00969467, 0.0131122, 0.0884855, 0.0724442, -0.0107311, -0.444148, 0.63423, -3.13001, -0.0557481, -0.110576, -0.0109655, -0.44316, 0.633026, -3.12801, -0.0537684, -0.0979127, 0.0125483, 0.0178461, -0.0258904, -0.0108148, 0.000573885, -0.0179994
0.101156, 0.107605, -0.774165, -0.918537, -1.46005, -0.628258, 1.0678, -0.256698, 0.00290072, 0.000880667, -0.0115216, -0.0342792, -0.0473704, -0.0393335, 0.00562495, -0.281914, 16.1203, 21.3114, 17.7808, 1.22699, 3.9191, -0.0292249, -0.000301114, -0.000970493, 0.00118425, 0.00252522, -0.00813215, 0.00164432, 0.0201184, -0.0158843, 0.0103078, 0.0135096, 0.0891406, 0.0862788, -0.0107184, -0.44413, 0.634204, -3.12995, -0.0557547, -0.110674, -0.01097, -0.443159, 0.633009, -3.12798, -0.0537774, -0.0977884, 0.0128186, 0.0181849, -0.0264151, -0.00739276, 0.00149459, -0.0176831
0.102156, 0.107608, -0.774164, -0.91856, -1.46008, -0.628303, 1.06777, -0.256691, 0.00201386, 0.00195906, -0.014371, -0.0331201, -0.0496234, -0.0389028, 0.00678112, -0.281914, 16.0489, 21.4225, 17.7054, 1.22699, 3.9191, -0.0951428, -0.000325917, -0.000951752, 0.00117524, 0.00251351, -0.00827225, 0.00167668, 0.0219829, -0.0171174, 0.010515, 0.0148658, 0.0912922, 0.0824378, -0.0107055, -0.444112, 0.634177, -3.12989, -0.0557614, -0.110774, -0.0109817, -0.44316, 0.632989, -3.12794, -0.053735, -0.0976701, 0.0130915, 0.0185254, -0.0269437, -0.00894937, 0.000534297, -0.0181493
0.103156, 0.107611, -0.774168, -0.918573, -1.46011, -0.628347, 1.06773, -0.25669, 0.00140261, 0.00108218, -0.0152999, -0.029628, -0.0516669, -0.0392427, 0.00421707, -0.281914, 16.0489, 21.3471, 17.634, 1.2334, 3.93374, -0.0750012, -0.000348658, -0.000934417, 0.00116238, 0.0024925, -0.0084071, 0.00169498, 0.024223, -0.018014, 0.0118353, 0.0178407, 0.0901189, 0.0829758, -0.0106922, -0.444093, 0.63415, -3.12983, -0.0557683, -0.110876, -0.0109913, -0.443159, 0.632973, -3.1279, -0.0537142, -0.0975627, 0.0133669, 0.0188676, -0.0274763, -0.0109684, -0.000113108, -0.0175335
0.104156, 0.107619, -0.774163, -0.918597, -1.46015, -0.628389, 1.0677, -0.256695, 0.00181532, -6.00919e-06, -0.0195325, -0.0327027, -0.0485615, -0.0383461, 0.00121033, -0.317619, 15.9378, 21.4225, 17.6697, 1.2453, 3.9191, -0.0228162, -0.000367858, -0.000914768, 0.00115446, 0.00248023, -0.00855341, 0.00170557, 0.0246471, -0.0188087, 0.0102796, 0.0137151, 0.0886486, 0.088325, -0.0106787, -0.444074, 0.634122, -3.12976, -0.0557754, -0.110981, -0.0109967, -0.443161, 0.632952, -3.12786, -0.053706, -0.097439, 0.0136449, 0.0192114, -0.0280126, -0.0109752, -0.000562528, -0.0196609
0.105156, 0.107631, -0.774167, -0.918621, -1.46018, -0.628431, 1.06766, -0.256689, 0.00707256, -0.00122832, -0.0219615, -0.0299537, -0.0465905, -0.037973, 0.00298847, -0.43267, 15.9735, 21.4582, 17.634, 1.27002, 3.91269, -0.0750012, -0.00038915, -0.00089494, 0.00114528, 0.00246806, -0.00869212, 0.00172511, 0.0238733, -0.0197878, 0.0108166, 0.0137542, 0.0843479, 0.0915743, -0.0106649, -0.444055, 0.634094, -3.1297, -0.0557826, -0.111087, -0.011004, -0.443162, 0.632931, -3.12782, -0.053684, -0.0973291, 0.0139255, 0.0195569, -0.0285528, -0.00992657, -0.00117467, -0.0196213
0.106156, 0.107634, -0.77416, -0.918645, -1.46021, -0.628471, 1.06762, -0.256693, 0.00407379, 0.00055974, -0.0225652, -0.0302374, -0.0447407, -0.0377996, 0.000958208, -0.392998, 15.9021, 21.4582, 17.5586, 1.28284, 3.91269, -0.0420422, -0.000411674, -0.000875664, 0.00113498, 0.00245567, -0.00884175, 0.00174399, 0.0246667, -0.0199173, 0.0113015, 0.0139241, 0.0850577, 0.0932806, -0.0106509, -0.444035, 0.634065, -3.12963, -0.05579, -0.111195, -0.0110124, -0.443162, 0.632911, -3.12778, -0.0536632, -0.0972042, 0.0142086, 0.019904, -0.0290967, -0.0104645, -0.00099095, -0.019742
0.107156, 0.107643, -0.774162, -0.918673, -1.46024, -0.628508, 1.06759, -0.256697, 0.00469417, 0.000154295, -0.0240698, -0.0344111, -0.0434696, -0.0325227, -0.000679307, -0.468376, 15.9021, 21.4979, 17.5189, 1.30115, 3.89804, -0.00267457, -0.000434103, -0.000854512, 0.00112563, 0.00244355, -0.00898097, 0.00175671, 0.0235864, -0.0211202, 0.0105963, 0.0156097, 0.0840604, 0.0992812, -0.0106365, -0.444015, 0.634036, -3.12957, -0.0557975, -0.111306, -0.0110202, -0.443164, 0.632889, -3.12773, -0.0536522, -0.0970976, 0.0144943, 0.0202526, -0.0296444, -0.00900927, -0.00179949, -0.0209292
0.108156, 0.10765, -0.774162, -0.918703, -1.46027, -0.628544, 1.06756, -0.25669, 0.00560027, -6.12846e-05, -0.0251067, -0.0334641, -0.0425711, -0.0333674, 0.0020935, -0.43267, 15.9021, 21.5336, 17.4435, 1.31946, 3.88339, -0.0685925, -0.000457939, -0.000831885, 0.00111498, 0.00242676, -0.00911789, 0.00178565, 0.0239552, -0.0214846, 0.0110589, 0.0153551, 0.0832708, 0.0986982, -0.0106219, -0.443995, 0.634006, -3.1295, -0.0558053, -0.111418, -0.0110292, -0.443167, 0.632868, -3.12769, -0.053616, -0.0969968, 0.0147825, 0.0206027, -0.0301957, -0.00910881, -0.00183229, -0.0210515
0.109156, 0.107673, -0.774162, -0.918731, -1.46031, -0.628581, 1.06753, -0.256697, 0.0146847, -0.000163968, -0.0242422, -0.0379975, -0.0422929, -0.0382139, -0.00096702, -0.619133, 15.9021, 21.4979, 17.4435, 1.34967, 3.85501, -0.00267457, -0.000473215, -0.000809311, 0.00110587, 0.0024125, -0.0092621, 0.00177988, 0.0194883, -0.0207037, 0.00979376, 0.00953312, 0.0886436, 0.116069, -0.010607, -0.443974, 0.633975, -3.12943, -0.0558132, -0.111532, -0.0110293, -0.44317, 0.632845, -3.12764, -0.053634, -0.0968868, 0.0150731, 0.0209542, -0.0307507, -0.00430417, -0.000529751, -0.0225464
0.110156, 0.107682, -0.774165, -0.91877, -1.46035, -0.628611, 1.0675, -0.256688, 0.0129013, -0.000201645, -0.0293265, -0.0382209, -0.0360285, -0.0378442, 0.00138105, -0.583427, 15.9021, 21.5732, 17.4435, 1.34418, 3.84768, -0.0557752, -0.00049759, -0.000786016, 0.00109938, 0.00240941, -0.00940252, 0.00180861, 0.0208776, -0.0213091, 0.00894777, 0.00487475, 0.0842759, 0.113353, -0.0105917, -0.443953, 0.633944, -3.12936, -0.0558213, -0.111649, -0.0110379, -0.443173, 0.632819, -3.12759, -0.0535991, -0.0967839, 0.0153663, 0.0213072, -0.0313093, -0.00531439, -0.000822169, -0.0240561
0.111156, 0.107697, -0.774163, -0.918812, -1.46039, -0.628642, 1.06747, -0.256688, 0.0134252, -0.00020368, -0.0364354, -0.0365263, -0.0368351, -0.0330459, 0.00167706, -0.619133, 15.9021, 21.6446, 17.3721, 1.36249, 3.84036, -0.0750012, -0.000520441, -0.000761467, 0.00109235, 0.00240525, -0.00954753, 0.00182695, 0.0232016, -0.0240985, 0.00844133, 0.00678214, 0.0819297, 0.109106, -0.0105762, -0.443931, 0.633913, -3.12929, -0.0558295, -0.111768, -0.0110447, -0.443176, 0.632792, -3.12753, -0.0535804, -0.0966761, 0.015662, 0.0216616, -0.0318714, -0.00719937, -0.0033323, -0.0253164
0.112156, 0.107712, -0.77416, -0.918847, -1.46043, -0.628675, 1.06743, -0.256693, 0.0129942, 0.000740296, -0.0358845, -0.0374212, -0.0332543, -0.029963, -0.00152752, -0.619133, 15.8624, 21.6089, 17.4078, 1.3927, 3.84768, -0.00267457, -0.000539722, -0.000737883, 0.00108459, 0.00239742, -0.00969952, 0.00183233, 0.0219832, -0.0243953, 0.00922735, 0.00890154, 0.0794106, 0.116666, -0.0105604, -0.443909, 0.63388, -3.12921, -0.055838, -0.111888, -0.0110477, -0.443179, 0.632766, -3.12747, -0.053582, -0.0965599, 0.0159602, 0.0220173, -0.0324371, -0.00573227, -0.0032396, -0.025017
0.113156, 0.10773, -0.774155, -0.91889, -1.46047, -0.628705, 1.0674, -0.256687, 0.013664, 0.00212501, -0.0404464, -0.0377019, -0.0299034, -0.0266174, 0.000973252, -0.658806, 15.791, 21.6446, 17.4078, 1.40552, 3.83304, -0.0557752, -0.00055926, -0.000712561, 0.00107813, 0.00239341, -0.00985293, 0.0018517, 0.0219402, -0.0258088, 0.00876126, 0.00837228, 0.0772164, 0.115317, -0.0105443, -0.443887, 0.633848, -3.12914, -0.0558466, -0.112011, -0.0110506, -0.443183, 0.632739, -3.12741, -0.0535623, -0.0964431, 0.0162609, 0.0223744, -0.0330063, -0.00530503, -0.00428912, -0.0260637
0.114156, 0.107743, -0.774157, -0.918938, -1.46051, -0.628731, 1.06738, -0.256694, 0.0153777, 0.00138746, -0.0445193, -0.042527, -0.0319508, -0.0301039, -0.000790546, -0.619133, 15.791, 21.72, 17.4832, 1.41192, 3.84768, -0.0164075, -0.000583259, -0.000686166, 0.00107434, 0.00239518, -0.0100003, 0.00186195, 0.022774, -0.026293, 0.00635665, 0.00187297, 0.0833835, 0.119391, -0.0105279, -0.443865, 0.633814, -3.12906, -0.0558554, -0.112136, -0.0110573, -0.443187, 0.632707, -3.12735, -0.0535571, -0.0963377, 0.016564, 0.0227327, -0.033579, -0.00564429, -0.00441762, -0.0291023
0.115156, 0.107769, -0.774155, -0.918982, -1.46056, -0.62876, 1.06735, -0.256693, 0.0132602, 0.00183108, -0.0426185, -0.0411937, -0.0289909, -0.0319549, -0.00102165, -0.694511, 15.7513, 21.72, 17.4832, 1.42383, 3.84768, -0.00267457, -0.000600495, -0.000659455, 0.00106806, 0.00239035, -0.0101532, 0.00186745, 0.0231294, -0.0256096, 0.00782496, 0.00223131, 0.0818055, 0.121903, -0.0105112, -0.443842, 0.633781, -3.12899, -0.0558644, -0.112263, -0.0110572, -0.443192, 0.632678, -3.12729, -0.0535593, -0.0962263, 0.0168696, 0.0230922, -0.034155, -0.00582257, -0.00340493, -0.0282372
0.116156, 0.10779, -0.774152, -0.919031, -1.4606, -0.628788, 1.06731, -0.256688, 0.0160412, 0.00203951, -0.0447256, -0.0441138, -0.0320168, -0.0346823, 0.00177082, -0.694511, 15.7156, 21.72, 17.5189, 1.44855, 3.88339, -0.0685925, -0.000620703, -0.000632759, 0.0010637, 0.00239308, -0.0103114, 0.00188236, 0.02308, -0.0260939, 0.006635, -0.000807369, 0.0879702, 0.122555, -0.0104942, -0.443818, 0.633746, -3.12891, -0.0558736, -0.112393, -0.0110596, -0.443196, 0.632646, -3.12722, -0.0535474, -0.0961082, 0.0171776, 0.0234529, -0.0347344, -0.00536304, -0.00351343, -0.0300081
0.117156, 0.107812, -0.77415, -0.919087, -1.46065, -0.628813, 1.06729, -0.256696, 0.0173514, 0.00134735, -0.0480369, -0.0473391, -0.0334344, -0.0305842, -0.000981713, -0.658806, 15.7156, 21.7954, 17.5943, 1.45404, 3.88339, -0.00999879, -0.00064146, -0.000603651, 0.00106102, 0.00239616, -0.0104673, 0.00188724, 0.0232369, -0.0278311, 0.0056152, 0.000394846, 0.088814, 0.12734, -0.0104768, -0.443795, 0.633711, -3.12883, -0.0558829, -0.112524, -0.011062, -0.443202, 0.632612, -3.12714, -0.0535513, -0.095996, 0.017488, 0.0238148, -0.0353172, -0.00507342, -0.00488193, -0.0316388
0.118156, 0.10783, -0.774145, -0.919142, -1.4607, -0.628838, 1.06726, -0.256692, 0.0237807, 0.00255942, -0.0495066, -0.0477591, -0.0298465, -0.0280709, 0.000775589, -0.583427, 15.6442, 21.8311, 17.5943, 1.46045, 3.89804, -0.0484509, -0.000663736, -0.000575073, 0.00105744, 0.00240022, -0.0106294, 0.001908, 0.0197321, -0.0286267, 0.00573913, 0.000594301, 0.0867168, 0.135078, -0.0104592, -0.443771, 0.633676, -3.12875, -0.0558925, -0.112658, -0.0110657, -0.443207, 0.632578, -3.12707, -0.0535309, -0.095876, 0.0178009, 0.0241778, -0.0359033, -0.00124734, -0.00519212, -0.0318599
0.119156, 0.107852, -0.774152, -0.919199, -1.46076, -0.628859, 1.06723, -0.256691, 0.0255864, 2.89131e-05, -0.0494593, -0.0508365, -0.0272847, -0.0269812, 0.00079276, -0.508049, 15.7156, 21.8311, 17.7054, 1.46686, 3.93374, -0.0557752, -0.000686754, -0.000547045, 0.00105644, 0.00241269, -0.0107842, 0.00191681, 0.0187182, -0.0287813, 0.00537104, -0.0004523, 0.0840024, 0.141996, -0.0104412, -0.443746, 0.633639, -3.12867, -0.0559023, -0.112794, -0.0110696, -0.443212, 0.632541, -3.12699, -0.0535295, -0.0957693, 0.0181163, 0.0245419, -0.0364926, 0.000110486, -0.00494296, -0.0327486
0.120156, 0.107873, -0.774142, -0.919258, -1.46082, -0.628881, 1.0672, -0.256695, 0.021651, 0.00261253, -0.0507376, -0.0551911, -0.0256968, -0.0303664, -0.00167222, -0.468376, 15.6046, 21.8708, 17.7808, 1.48517, 3.95572, 0.00373412, -0.000706196, -0.000518151, 0.00105558, 0.00242479, -0.0109572, 0.00192435, 0.0195294, -0.0281405, 0.00422672, -0.00575489, 0.0902096, 0.144813, -0.0104229, -0.443722, 0.633603, -3.12858, -0.0559122, -0.112932, -0.0110697, -0.443216, 0.632503, -3.1269, -0.0535305, -0.0956365, 0.018434, 0.0249071, -0.0370852, -0.000321204, -0.00395316, -0.0345391
0.121156, 0.107894, -0.774147, -0.919322, -1.46088, -0.628906, 1.06716, -0.256689, 0.0178498, 0.000809768, -0.0549309, -0.0593313, -0.0292852, -0.0289399, 0.00132909, -0.392998, 15.6442, 21.9065, 17.8918, 1.50348, 3.99783, -0.0621838, -0.000730724, -0.000488223, 0.00105792, 0.00244371, -0.0111255, 0.00194144, 0.0230948, -0.0296407, 0.00258689, -0.0066679, 0.0935361, 0.137546, -0.0104044, -0.443697, 0.633565, -3.1285, -0.0559224, -0.113072, -0.0110742, -0.443222, 0.632462, -3.12681, -0.0535171, -0.0955126, 0.0187541, 0.0252732, -0.0376809, -0.0033827, -0.00519298, -0.0370462
0.122156, 0.107913, -0.774137, -0.919383, -1.46094, -0.62893, 1.06713, -0.256693, 0.0173328, 0.00313538, -0.0527278, -0.056359, -0.027668, -0.026676, -0.00131612, -0.281914, 15.5331, 21.8708, 17.8918, 1.53461, 4.01248, -0.00267457, -0.00075293, -0.00045944, 0.0010569, 0.00245863, -0.0113069, 0.00195221, 0.022254, -0.0299105, 0.0050428, -0.000993422, 0.0917329, 0.142904, -0.0103854, -0.443671, 0.633527, -3.12841, -0.0559327, -0.113214, -0.0110763, -0.443226, 0.632423, -3.12672, -0.0535137, -0.095371, 0.0190766, 0.0256403, -0.0382798, -0.00238916, -0.00509533, -0.0351419
0.123156, 0.107928, -0.774137, -0.919444, -1.46101, -0.628948, 1.06709, -0.256695, 0.0169938, 0.00208806, -0.0574845, -0.0595438, -0.0294595, -0.0346611, -0.000604742, -0.166862, 15.5331, 21.8311, 17.9672, 1.52179, 4.03445, -0.00999879, -0.000776081, -0.000431418, 0.00105879, 0.00248123, -0.0114835, 0.0019604, 0.0250989, -0.0297379, 0.00264508, -0.0108449, 0.0986318, 0.141301, -0.0103662, -0.443645, 0.633489, -3.12833, -0.0559433, -0.113359, -0.0110789, -0.443229, 0.63238, -3.12663, -0.0535148, -0.0952385, 0.0194015, 0.0260084, -0.0388819, -0.00473307, -0.00462703, -0.0383445
0.124156, 0.107943, -0.774137, -0.919508, -1.46107, -0.628969, 1.06705, -0.256686, 0.0169041, 0.000555175, -0.0556554, -0.0590857, -0.0283092, -0.0356885, 0.00176803, -0.0557783, 15.5688, 21.8311, 17.9315, 1.56482, 4.04819, -0.0685925, -0.000802925, -0.000402138, 0.00105923, 0.0025016, -0.0116601, 0.0019864, 0.025286, -0.0294751, 0.00379541, -0.00972649, 0.0966636, 0.14288, -0.0103466, -0.443619, 0.633449, -3.12824, -0.0559541, -0.113506, -0.0110849, -0.443233, 0.632339, -3.12653, -0.0534884, -0.0951082, 0.0197288, 0.0263773, -0.039487, -0.00468456, -0.00401624, -0.0378183
0.125156, 0.107963, -0.774134, -0.919569, -1.46115, -0.628986, 1.06701, -0.256688, 0.0185949, 0.0012041, -0.0557781, -0.0648794, -0.0255437, -0.0368831, 0.00043349, -0.0161054, 15.5331, 21.7597, 18.0069, 1.55932, 4.07016, -0.0484509, -0.000823038, -0.000373791, 0.00106133, 0.00252517, -0.0118453, 0.00198829, 0.0230777, -0.0289853, 0.00249254, -0.0142022, 0.0999109, 0.152435, -0.0103267, -0.443593, 0.63341, -3.12815, -0.055965, -0.113655, -0.0110838, -0.443235, 0.632295, -3.12643, -0.0534999, -0.094967, 0.0200585, 0.0267472, -0.0400951, -0.00207717, -0.00306349, -0.0395654
0.126156, 0.107978, -0.774131, -0.919636, -1.46122, -0.629002, 1.06697, -0.256687, 0.0157626, 0.00172983, -0.0620056, -0.0641259, -0.023944, -0.0374371, 0.000289585, 0.059273, 15.4935, 21.7954, 18.0069, 1.56482, 4.08389, -0.0484509, -0.000848199, -0.000345629, 0.00106504, 0.00255857, -0.0120349, 0.00200085, 0.0263813, -0.030206, 0.00166585, -0.0176003, 0.0995448, 0.147742, -0.0103065, -0.443566, 0.633369, -3.12806, -0.0559762, -0.113807, -0.0110873, -0.443237, 0.632249, -3.12632, -0.0534955, -0.0948204, 0.0203905, 0.0271178, -0.0407063, -0.00493361, -0.00401953, -0.0412582
0.127156, 0.107995, -0.774128, -0.919692, -1.4613, -0.629017, 1.06692, -0.256683, 0.0145282, 0.00198774, -0.0596237, -0.0707609, -0.02256, -0.0378236, 0.00165156, 0.0949785, 15.4578, 21.6843, 18.0426, 1.56482, 4.09854, -0.0878186, -0.000867857, -0.000319643, 0.00106705, 0.00258794, -0.0122281, 0.00200365, 0.0247907, -0.0294174, 0.000972004, -0.0194199, 0.10346, 0.153382, -0.010286, -0.443538, 0.633328, -3.12796, -0.0559876, -0.113961, -0.0110851, -0.443236, 0.632204, -3.12621, -0.0535064, -0.0946709, 0.0207248, 0.0274892, -0.0413204, -0.00299169, -0.00279558, -0.0424458
0.128156, 0.108005, -0.774126, -0.919751, -1.46139, -0.629032, 1.06688, -0.256688, 0.0157562, 0.00215986, -0.0591074, -0.0748507, -0.0218034, -0.0379405, -0.000594046, 0.170357, 15.4221, 21.6089, 18.0426, 1.57123, 4.10586, -0.0420422, -0.000891494, -0.000293617, 0.00106999, 0.00262072, -0.0124263, 0.00200472, 0.0233608, -0.0293353, 0.000474238, -0.0207044, 0.106076, 0.162074, -0.0102651, -0.443511, 0.633287, -3.12787, -0.0559992, -0.114117, -0.0110865, -0.443235, 0.632157, -3.1261, -0.0535203, -0.0945157, 0.0210615, 0.0278614, -0.0419374, -0.00119623, -0.00228474, -0.0434591
0.129156, 0.108013, -0.77412, -0.919802, -1.46147, -0.629048, 1.06683, -0.256685, 0.0104447, 0.00320275, -0.0568399, -0.077213, -0.0165303, -0.0425417, 0.000587563, 0.245735, 15.3467, 21.4582, 18.0069, 1.57764, 4.10586, -0.0685925, -0.000912999, -0.000268786, 0.00106983, 0.00264693, -0.012628, 0.00201009, 0.0239399, -0.0274967, 0.000847662, -0.0252414, 0.107131, 0.163407, -0.0102438, -0.443483, 0.633244, -3.12777, -0.056011, -0.114275, -0.0110857, -0.443233, 0.632113, -3.12599, -0.0535277, -0.0943577, 0.0214005, 0.0282343, -0.0425574, -0.00152754, -9.97932e-05, -0.0437358
0.130156, 0.108022, -0.774121, -0.919863, -1.46155, -0.629057, 1.06678, -0.256686, 0.00824097, 0.00120686, -0.0589166, -0.0798649, -0.0127791, -0.0462505, 0.000154537, 0.245735, 15.3864, 21.4582, 18.0069, 1.58954, 4.11319, -0.0621838, -0.000938276, -0.000243224, 0.00107334, 0.00268685, -0.0128255, 0.00201454, 0.0256132, -0.0269623, -0.00022194, -0.031746, 0.106269, 0.165605, -0.0102223, -0.443454, 0.633201, -3.12768, -0.0560231, -0.114436, -0.011088, -0.443231, 0.632065, -3.12587, -0.0535372, -0.0942077, 0.0217418, 0.0286079, -0.0431802, -0.00279488, 0.000761964, -0.0455475
0.131156, 0.108026, -0.774115, -0.919909, -1.46164, -0.629068, 1.06672, -0.256689, 0.00552435, 0.00256759, -0.0529657, -0.0798632, -0.0139345, -0.0486728, -0.000880179, 0.285408, 15.311, 21.2757, 17.9315, 1.58313, 4.11319, -0.0356336, -0.000960283, -0.000220693, 0.00107093, 0.00271539, -0.013032, 0.00201232, 0.0252777, -0.0257564, 0.00205099, -0.0279958, 0.109746, 0.17028, -0.0102004, -0.443425, 0.633158, -3.12758, -0.0560353, -0.114599, -0.0110873, -0.443225, 0.632022, -3.12575, -0.053557, -0.0940468, 0.0220854, 0.0289822, -0.0438058, -0.00232579, 0.00232417, -0.0438748
0.132156, 0.108031, -0.774115, -0.919967, -1.46172, -0.62908, 1.06667, -0.25668, 0.00754147, 0.00171156, -0.0563141, -0.079399, -0.0153412, -0.0500001, 0.00110874, 0.285408, 15.311, 21.2757, 17.8204, 1.58954, 4.09854, -0.0814099, -0.000988885, -0.000195132, 0.00107025, 0.00274859, -0.013232, 0.00203232, 0.0265543, -0.026772, 0.00170431, -0.0294093, 0.110807, 0.169255, -0.0101781, -0.443396, 0.633114, -3.12748, -0.0560478, -0.114764, -0.0110926, -0.443222, 0.631976, -3.12564, -0.0535428, -0.0938979, 0.0224314, 0.029357, -0.0444342, -0.00318977, 0.00164322, -0.0449582
0.133156, 0.108032, -0.774115, -0.920015, -1.46181, -0.629087, 1.06661, -0.256682, 0.00582839, 0.00114092, -0.0534654, -0.0810254, -0.0163502, -0.0609026, -0.000210197, 0.285408, 15.311, 21.2003, 17.7808, 1.59595, 4.09122, -0.0557752, -0.0010135, -0.000173142, 0.00106981, 0.00278591, -0.0134396, 0.0020305, 0.0279089, -0.0245703, 0.001777, -0.036173, 0.117728, 0.17375, -0.0101555, -0.443367, 0.633069, -3.12738, -0.0560605, -0.114932, -0.0110936, -0.443216, 0.631929, -3.12552, -0.0530588, -0.0937394, 0.0227796, 0.0297325, -0.0450654, -0.00427633, 0.0041697, -0.0455993
0.134156, 0.108027, -0.77411, -0.920064, -1.46189, -0.629098, 1.06655, -0.25668, 0.00272291, 0.00159574, -0.0525663, -0.0852487, -0.017889, -0.063538, 0.000334646, 0.360787, 15.2753, 21.1606, 17.7451, 1.62067, 4.06283, -0.0685925, -0.00104156, -0.000150662, 0.00106812, 0.00282057, -0.0136559, 0.00204241, 0.0288887, -0.0240878, 0.00130409, -0.0380883, 0.123675, 0.174629, -0.0101325, -0.443337, 0.633024, -3.12728, -0.0560735, -0.115102, -0.0110978, -0.443209, 0.631883, -3.1254, -0.0530585, -0.0935697, 0.0231301, 0.0301084, -0.0456993, -0.00488482, 0.00499901, -0.0467775
0.135156, 0.108031, -0.774114, -0.920104, -1.46198, -0.6291, 1.06649, -0.256678, 0.00402893, -0.000606681, -0.0497519, -0.0835905, -0.0128345, -0.0611328, 0.000935219, 0.285408, 15.3467, 21.0496, 17.634, 1.60785, 4.04086, -0.0878186, -0.00106465, -0.000130001, 0.00106236, 0.00285029, -0.013854, 0.0020366, 0.0274793, -0.0239483, 0.0033513, -0.034536, 0.115583, 0.181511, -0.0101092, -0.443306, 0.632978, -3.12717, -0.0560866, -0.115274, -0.011097, -0.4432, 0.631841, -3.12528, -0.0530858, -0.0934314, 0.0234829, 0.0304849, -0.0463358, -0.00328224, 0.00553772, -0.0452726
0.136156, 0.108028, -0.774107, -0.920152, -1.46207, -0.629109, 1.06642, -0.256685, 0.00302377, 0.00126593, -0.0523499, -0.083313, -0.0100685, -0.0640921, -0.00154663, 0.285408, 15.2753, 21.1249, 17.5943, 1.62067, 4.02713, -0.0292249, -0.00109086, -0.000108469, 0.00106081, 0.00289038, -0.0140795, 0.00203521, 0.028352, -0.0238938, 0.00321993, -0.0384433, 0.117088, 0.184615, -0.0100856, -0.443276, 0.632931, -3.12707, -0.0561, -0.115449, -0.0110987, -0.443192, 0.631794, -3.12515, -0.0531072, -0.093252, 0.0238379, 0.0308619, -0.046975, -0.003789, 0.00593948, -0.0461122
0.137156, 0.108021, -0.774113, -0.920193, -1.46216, -0.629113, 1.06635, -0.256674, 0.0022692, -0.000826522, -0.0464214, -0.0809442, -0.00816857, -0.0662735, 0.00141035, 0.285408, 15.3467, 21.1606, 17.5586, 1.63898, 4.00516, -0.0951428, -0.00112113, -8.90713e-05, 0.00105602, 0.00292831, -0.0142894, 0.00204865, 0.0280699, -0.0226659, 0.00605255, -0.0348671, 0.113195, 0.187572, -0.0100616, -0.443245, 0.632884, -3.12696, -0.0561137, -0.115626, -0.0111044, -0.443181, 0.631749, -3.12502, -0.0531055, -0.0930994, 0.0241952, 0.0312393, -0.0476168, -0.00340346, 0.00751577, -0.0439011
0.138156, 0.108014, -0.774109, -0.920224, -1.46225, -0.629115, 1.06627, -0.256677, -0.00142958, 0.00111939, -0.0436703, -0.0827635, -0.00647008, -0.0684303, -0.000517812, 0.285408, 15.2753, 21.1249, 17.5586, 1.65088, 3.99783, -0.0557752, -0.00114364, -7.19096e-05, 0.00104939, 0.00296279, -0.0145133, 0.00203703, 0.0280784, -0.0216473, 0.00695589, -0.0351179, 0.116295, 0.192087, -0.0100372, -0.443213, 0.632836, -3.12686, -0.0561275, -0.115806, -0.0111022, -0.443168, 0.631705, -3.12489, -0.0531432, -0.0929278, 0.0245547, 0.0316171, -0.0482612, -0.00315609, 0.00889834, -0.0436399
0.139156, 0.108005, -0.774112, -0.920256, -1.46234, -0.629118, 1.0662, -0.256679, -0.00733152, -0.000924196, -0.037851, -0.0822752, -0.00566658, -0.0703188, -0.00109118, 0.285408, 15.3467, 21.2003, 17.4832, 1.6756, 3.99783, -0.0356336, -0.00117153, -5.43868e-05, 0.00104061, 0.00299545, -0.0147294, 0.00203273, 0.0298901, -0.0203615, 0.00938501, -0.0315941, 0.114303, 0.193813, -0.0100124, -0.443182, 0.632787, -3.12675, -0.0561417, -0.115988, -0.0111051, -0.443155, 0.631663, -3.12477, -0.0531696, -0.0927708, 0.0249165, 0.0319953, -0.0489081, -0.00482615, 0.0104636, -0.0419908
0.140156, 0.107993, -0.774113, -0.920285, -1.46243, -0.629121, 1.06612, -0.256677, -0.00726147, -0.000616147, -0.0363686, -0.0828003, -0.00410597, -0.0723822, 1.8543e-05, 0.360787, 15.3467, 21.2757, 17.4435, 1.6756, 4.01248, -0.0557752, -0.00119999, -3.77319e-05, 0.00103113, 0.00302813, -0.0149515, 0.00203364, 0.0294244, -0.0198384, 0.0101585, -0.0321448, 0.115093, 0.197386, -0.00998734, -0.443149, 0.632738, -3.12664, -0.056156, -0.116172, -0.0111084, -0.44314, 0.631621, -3.12464, -0.0531882, -0.0926069, 0.0252805, 0.0323738, -0.0495576, -0.00407476, 0.0113696, -0.0418344
0.141156, 0.107987, -0.774119, -0.920303, -1.46252, -0.629121, 1.06604, -0.256678, -0.00758755, -0.00217402, -0.0334252, -0.0835772, -0.00366167, -0.0776158, -0.000258897, 0.325081, 15.4221, 21.2757, 17.4078, 1.69391, 4.01248, -0.0484509, -0.00122394, -2.30462e-05, 0.00101795, 0.00305548, -0.0151676, 0.00201692, 0.0297321, -0.0185996, 0.0109453, -0.0342502, 0.116565, 0.202662, -0.00996188, -0.443117, 0.632688, -3.12652, -0.0561706, -0.116359, -0.0111071, -0.443123, 0.631582, -3.12452, -0.0532344, -0.0924553, 0.0256467, 0.0327526, -0.0502094, -0.00411914, 0.0129635, -0.0417167
0.142156, 0.107967, -0.774124, -0.920329, -1.46262, -0.629123, 1.06596, -0.256679, -0.00826058, -0.00311979, -0.0301293, -0.0873354, -0.00330392, -0.0821529, 0.00403292, 0.436165, 15.4935, 21.4979, 17.5189, 1.71222, 4.03445, -0.0356336, -0.00125447, -8.16491e-06, 0.0010096, 0.00309453, -0.0153966, 0.00201312, 0.0292298, -0.0172213, 0.0110156, -0.0370477, 0.120298, 0.204781, -0.00993605, -0.443084, 0.632638, -3.12641, -0.0561854, -0.116548, -0.0111116, -0.443106, 0.631537, -3.12438, -0.0532613, -0.0922852, 0.0260151, 0.0331317, -0.0508638, -0.00330615, 0.0147354, -0.0422537
0.143156, 0.107957, -0.774134, -0.920342, -1.4627, -0.629125, 1.06587, -0.25667, -0.00910574, -0.0038431, -0.0260285, -0.0849602, -0.00301927, -0.0849447, 0.00501142, 0.436165, 15.5688, 21.5336, 17.4078, 1.73053, 4.03445, -0.0878186, -0.00128244, 5.84886e-06, 0.000991284, 0.00311413, -0.0156105, 0.00201063, 0.029558, -0.0163862, 0.0133554, -0.0343479, 0.119392, 0.207498, -0.00990985, -0.44305, 0.632586, -3.1263, -0.0562005, -0.11674, -0.011114, -0.443088, 0.631502, -3.12426, -0.0532855, -0.0921422, 0.0263857, 0.0335111, -0.0515205, -0.00346768, 0.0159036, -0.0405981
0.144156, 0.107946, -0.77414, -0.920352, -1.46279, -0.629128, 1.06578, -0.25667, -0.00897313, -0.00432531, -0.0208657, -0.0931303, -0.0021167, -0.0830804, 0.00315875, 0.400459, 15.6442, 21.6089, 17.4832, 1.73053, 4.05551, -0.0750012, -0.00130807, 1.78561e-05, 0.000976543, 0.00314429, -0.0158424, 0.00199259, 0.0262674, -0.0154917, 0.013144, -0.0331753, 0.122763, 0.220554, -0.00988328, -0.443017, 0.632535, -3.12618, -0.0562158, -0.116934, -0.0111135, -0.443067, 0.631463, -3.12413, -0.0533349, -0.0919732, 0.0267585, 0.0338906, -0.0521796, 0.00016646, 0.0172949, -0.041217
0.145156, 0.107932, -0.77414, -0.92037, -1.46288, -0.629127, 1.06569, -0.256671, -0.00980886, -0.00511726, -0.0204199, -0.0919146, -0.00196375, -0.0867258, 0.0018505, 0.400459, 15.6046, 21.8311, 17.4832, 1.74335, 4.08389, -0.0621838, -0.00133502, 3.13332e-05, 0.000961077, 0.00317501, -0.0160764, 0.00198152, 0.0276787, -0.0151478, 0.0140295, -0.0341877, 0.123231, 0.223327, -0.00985633, -0.442983, 0.632482, -3.12606, -0.0562314, -0.11713, -0.0111139, -0.443048, 0.631423, -3.124, -0.0533738, -0.0918032, 0.0271335, 0.0342704, -0.052841, -0.000944708, 0.0179542, -0.0411026
0.146156, 0.107912, -0.774149, -0.920389, -1.46298, -0.629133, 1.0656, -0.256671, -0.0153589, -0.00543823, -0.0207226, -0.0925226, -0.00248657, -0.0878157, 0.00163557, 0.475838, 15.6799, 22.0929, 17.5586, 1.77356, 4.07016, -0.0685925, -0.0013688, 4.56641e-05, 0.000947139, 0.00320664, -0.0163127, 0.00198115, 0.0307574, -0.0152379, 0.0145425, -0.0338347, 0.124556, 0.220363, -0.00982901, -0.442948, 0.632429, -3.12594, -0.0562473, -0.117329, -0.0111207, -0.443029, 0.631381, -3.12387, -0.0533963, -0.091632, 0.0275107, 0.0346502, -0.0535047, -0.00367194, 0.0181258, -0.0414927
0.147156, 0.107897, -0.774162, -0.920389, -1.46307, -0.62913, 1.0655, -0.256671, -0.0158631, -0.010421, -0.0145534, -0.0922316, -0.00170153, -0.0894628, -6.91885e-06, 0.400459, 15.8267, 22.0929, 17.5943, 1.77356, 4.07016, -0.0356336, -0.00139603, 5.51605e-05, 0.000926652, 0.00323224, -0.0165387, 0.00195836, 0.0309095, -0.0141299, 0.0167691, -0.0305373, 0.119739, 0.228995, -0.00980131, -0.442913, 0.632375, -3.12582, -0.0562634, -0.117531, -0.0111211, -0.443005, 0.631345, -3.12374, -0.0534538, -0.09148, 0.02789, 0.0350302, -0.0541706, -0.00365247, 0.0195736, -0.039943
0.148156, 0.107876, -0.77417, -0.9204, -1.46316, -0.62913, 1.0654, -0.256662, -0.0182105, -0.0112734, -0.00740133, -0.0919107, -0.00140457, -0.0908768, 0.001546, 0.400459, 15.8624, 22.2437, 17.634, 1.77997, 4.07748, -0.0750012, -0.00142954, 6.66505e-05, 0.000907421, 0.00326216, -0.0167737, 0.00196209, 0.0303908, -0.0127915, 0.0195142, -0.0257133, 0.119218, 0.233066, -0.00977323, -0.442878, 0.63232, -3.1257, -0.0562797, -0.117734, -0.0111273, -0.442982, 0.631307, -3.1236, -0.0534705, -0.0913158, 0.0282715, 0.0354102, -0.0548388, -0.00301023, 0.0212676, -0.0378251
0.149156, 0.10786, -0.774179, -0.920407, -1.46325, -0.629131, 1.0653, -0.256665, -0.0141212, -0.00900915, -0.00741621, -0.0932319, -0.00140184, -0.0904057, 0.00436278, 0.285408, 15.9021, 22.3548, 17.7451, 1.79187, 4.04819, -0.0356336, -0.00145978, 7.80694e-05, 0.000888086, 0.00329089, -0.0170126, 0.00194533, 0.0279356, -0.013212, 0.0198044, -0.0248814, 0.122537, 0.237533, -0.00974476, -0.442843, 0.632265, -3.12558, -0.0562963, -0.117941, -0.0111299, -0.442959, 0.631269, -3.12347, -0.0535195, -0.0911484, 0.0286551, 0.0357903, -0.0555092, -0.000188556, 0.0213078, -0.0380314
0.150156, 0.107842, -0.774184, -0.920412, -1.46333, -0.629132, 1.06519, -0.256662, -0.0130099, -0.00872756, -0.00652723, -0.092004, -0.0011904, -0.096257, 0.00433732, 0.245735, 15.8624, 22.4262, 17.7808, 1.79828, 4.04819, -0.0621838, -0.00149123, 8.80522e-05, 0.000866014, 0.00331989, -0.0172561, 0.00193767, 0.0282574, -0.0124035, 0.0206174, -0.0275587, 0.125163, 0.241338, -0.00971592, -0.442807, 0.632209, -3.12545, -0.0563132, -0.11815, -0.0111336, -0.442935, 0.631232, -3.12333, -0.0535546, -0.0909762, 0.0290408, 0.0361704, -0.0561817, -0.000216227, 0.0224699, -0.0379136
0.151156, 0.107818, -0.774198, -0.92042, -1.46342, -0.629134, 1.06508, -0.25666, -0.0153, -0.0104655, -0.00604922, -0.0916585, -0.00148563, -0.0991529, 0.00393772, 0.21003, 15.9021, 22.5016, 17.8204, 1.81659, 4.01248, -0.0814099, -0.00152901, 9.82118e-05, 0.000845004, 0.00335326, -0.0174973, 0.00193589, 0.0304238, -0.0121664, 0.0213426, -0.0281375, 0.125219, 0.242065, -0.00968668, -0.44277, 0.632153, -3.12533, -0.0563304, -0.118361, -0.0111431, -0.44291, 0.631193, -3.12319, -0.0535812, -0.0908099, 0.0294287, 0.0365505, -0.0568564, -0.00205275, 0.0229966, -0.0380323
0.152156, 0.107798, -0.774213, -0.920423, -1.46351, -0.629134, 1.06496, -0.256663, -0.0161952, -0.0140166, -0.0049117, -0.0904901, -0.00100082, -0.102568, 0.00541741, 0.134651, 15.9021, 22.5413, 17.8204, 1.81659, 4.00516, -0.0228162, -0.00156522, 0.000106883, 0.000822187, 0.00338794, -0.0177399, 0.00192268, 0.0323796, -0.0117475, 0.0223503, -0.0288309, 0.1226, 0.242779, -0.00965706, -0.442734, 0.632096, -3.1252, -0.0563478, -0.118575, -0.0111508, -0.442884, 0.631156, -3.12304, -0.0536259, -0.090644, 0.0298187, 0.0369305, -0.0575331, -0.00370545, 0.0237079, -0.0378537
0.153156, 0.107782, -0.774228, -0.920429, -1.4636, -0.629135, 1.06485, -0.256661, -0.0151595, -0.013498, -0.00490805, -0.087438, -0.000912371, -0.109502, 0.00565025, -0.0161054, 15.9021, 22.6127, 17.8561, 1.823, 3.99142, -0.0621838, -0.0015999, 0.000116294, 0.000800167, 0.00342415, -0.0179856, 0.00191016, 0.0334665, -0.0110301, 0.0234008, -0.0319089, 0.124958, 0.244597, -0.00962704, -0.442696, 0.632038, -3.12507, -0.0563654, -0.118791, -0.0111565, -0.442857, 0.631117, -3.12289, -0.05367, -0.0904757, 0.0302108, 0.0373105, -0.0582119, -0.00450458, 0.0247474, -0.0375653
0.154156, 0.107763, -0.774241, -0.920431, -1.46369, -0.629139, 1.06472, -0.256661, -0.018558, -0.0114535, -0.0032444, -0.0913089, -0.000851455, -0.118882, 0.00321892, -0.131157, 15.8267, 22.6127, 17.8918, 1.82941, 3.97677, -0.0356336, -0.00163599, 0.000124329, 0.000777546, 0.00346205, -0.0182427, 0.00189782, 0.0343733, -0.00896764, 0.0227936, -0.0394993, 0.134478, 0.249415, -0.00959664, -0.442659, 0.631979, -3.12494, -0.0563834, -0.11901, -0.0111634, -0.442829, 0.631078, -3.12274, -0.0537144, -0.090292, 0.0306049, 0.0376903, -0.0588927, -0.00504599, 0.027162, -0.0389014
0.155156, 0.10775, -0.774254, -0.920439, -1.46378, -0.629136, 1.06459, -0.256663, -0.0163503, -0.0132666, -0.00390544, -0.0895109, -0.000334664, -0.125214, 0.00152309, -0.317619, 15.7513, 22.688, 17.8561, 1.823, 3.94839, -0.00999879, -0.00167131, 0.000132696, 0.000755779, 0.00350813, -0.0184965, 0.00188012, 0.0354606, -0.00844311, 0.0232074, -0.0436425, 0.134751, 0.254708, -0.00956583, -0.442621, 0.63192, -3.12481, -0.0564016, -0.119232, -0.011169, -0.442801, 0.631037, -3.12258, -0.0537678, -0.0901157, 0.0310012, 0.03807, -0.0595756, -0.00578649, 0.0280178, -0.0392545
0.156156, 0.107723, -0.77427, -0.920439, -1.46387, -0.629135, 1.06446, -0.256656, -0.0169762, -0.0146342, -0.00502651, -0.0920127, -0.000226399, -0.125889, 0.00366782, -0.281914, 15.6799, 22.6523, 17.8561, 1.823, 3.9191, -0.0750012, -0.00171051, 0.000139241, 0.000732689, 0.00355093, -0.018755, 0.00187747, 0.0364116, -0.00873068, 0.022773, -0.0451585, 0.135721, 0.255025, -0.00953463, -0.442583, 0.63186, -3.12467, -0.0564201, -0.119456, -0.0111782, -0.442771, 0.630997, -3.12243, -0.053798, -0.0899346, 0.0313996, 0.0384495, -0.0602603, -0.00629491, 0.0280797, -0.0404554
0.157156, 0.107714, -0.774295, -0.920445, -1.46397, -0.629134, 1.06433, -0.256663, -0.0150686, -0.0175206, -0.00763189, -0.0916977, 8.39585e-05, -0.130945, 0.000221416, -0.468376, 15.6799, 22.688, 17.8918, 1.81659, 3.88339, -0.00999879, -0.00174686, 0.000147067, 0.000711791, 0.00360105, -0.01901, 0.001847, 0.0381891, -0.00875807, 0.0222747, -0.0502679, 0.135484, 0.260981, -0.00950303, -0.442544, 0.6318, -3.12454, -0.0564389, -0.119682, -0.011184, -0.442742, 0.630954, -3.12226, -0.0538723, -0.0897616, 0.0318, 0.0388288, -0.060947, -0.00762936, 0.0283731, -0.0417825
0.158156, 0.107692, -0.774312, -0.920448, -1.46406, -0.629133, 1.0642, -0.256656, -0.014147, -0.0209868, -0.00868563, -0.0960132, 0.000291481, -0.130761, 0.00245552, -0.508049, 15.6046, 22.688, 17.8561, 1.81018, 3.86966, -0.0685925, -0.00178694, 0.000154405, 0.000687853, 0.00364536, -0.019271, 0.00184241, 0.0385913, -0.00915309, 0.0212558, -0.0523089, 0.135066, 0.263817, -0.00947103, -0.442505, 0.631738, -3.1244, -0.0564579, -0.119911, -0.0111934, -0.442712, 0.630913, -3.1221, -0.0539063, -0.0895817, 0.0322025, 0.0392079, -0.0616356, -0.00753796, 0.0283561, -0.04353
0.159156, 0.107679, -0.774336, -0.920456, -1.46416, -0.629133, 1.06406, -0.256657, -0.0116548, -0.020672, -0.0103869, -0.0962686, 0.000396383, -0.130074, 0.00150299, -0.619133, 15.5331, 22.7237, 17.8204, 1.80469, 3.84768, -0.0621838, -0.00182608, 0.000162058, 0.000667561, 0.00370057, -0.019535, 0.00182219, 0.0381667, -0.0099859, 0.0214262, -0.0518778, 0.135642, 0.268765, -0.00943863, -0.442466, 0.631676, -3.12426, -0.0564773, -0.120143, -0.0112011, -0.442682, 0.630868, -3.12192, -0.0539656, -0.0893994, 0.032607, 0.0395867, -0.062326, -0.00669543, 0.027912, -0.0440362
0.160156, 0.107659, -0.77436, -0.920457, -1.46426, -0.629135, 1.06391, -0.256659, -0.0124285, -0.0234326, -0.00825719, -0.0964651, -0.000414954, -0.135721, 0.000333505, -0.619133, 15.4578, 22.6127, 17.7808, 1.823, 3.84768, -0.0420422, -0.00186652, 0.000167829, 0.000645151, 0.00375279, -0.0198061, 0.00180183, 0.0397403, -0.00901398, 0.0221555, -0.0539994, 0.136798, 0.273107, -0.00940582, -0.442426, 0.631614, -3.12412, -0.0564969, -0.120377, -0.01121, -0.44265, 0.630824, -3.12175, -0.0540255, -0.0892086, 0.0330136, 0.0399652, -0.0630183, -0.0079508, 0.0291909, -0.0441174
0.161156, 0.107642, -0.774378, -0.920466, -1.46436, -0.629132, 1.06377, -0.256655, -0.0150421, -0.0230337, -0.0094993, -0.0982537, 0.000638111, -0.138569, 0.00173852, -0.658806, 15.2753, 22.6127, 17.6697, 1.79828, 3.8193, -0.0814099, -0.00190711, 0.000175181, 0.000623133, 0.00380942, -0.0200788, 0.00179165, 0.0412785, -0.00876876, 0.0218607, -0.0572272, 0.139437, 0.272173, -0.0093726, -0.442386, 0.63155, -3.12398, -0.0565168, -0.120614, -0.0112185, -0.442619, 0.630779, -3.12157, -0.05407, -0.0890178, 0.0334222, 0.0403434, -0.0637123, -0.0090639, 0.029761, -0.0452287
0.162156, 0.107626, -0.774409, -0.920478, -1.46446, -0.629132, 1.06363, -0.256658, -0.0170518, -0.0240013, -0.0113411, -0.099683, 0.000424822, -0.135837, 0.000253172, -0.694511, 15.2753, 22.6523, 17.5943, 1.79828, 3.79001, -0.0557752, -0.00195164, 0.000183864, 0.000604354, 0.00387005, -0.0203469, 0.00177345, 0.042878, -0.00986719, 0.0219219, -0.0554269, 0.138657, 0.27355, -0.00933897, -0.442345, 0.631486, -3.12384, -0.056537, -0.120853, -0.0112302, -0.442588, 0.63073, -3.12139, -0.0541276, -0.0888365, 0.0338328, 0.0407212, -0.0644081, -0.0102139, 0.02898, -0.0460103
0.163156, 0.107613, -0.774436, -0.920482, -1.46457, -0.629133, 1.06349, -0.256658, -0.0152626, -0.0252117, -0.00588261, -0.101601, 4.54163e-05, -0.138867, -0.00101923, -0.734184, 15.1642, 22.5413, 17.5189, 1.80469, 3.76895, -0.0228162, -0.00199037, 0.000191335, 0.000582435, 0.00392366, -0.0206225, 0.00174736, 0.0410685, -0.00861093, 0.0232523, -0.0543445, 0.140762, 0.28419, -0.00930493, -0.442304, 0.631421, -3.1237, -0.0565575, -0.121095, -0.0112361, -0.442557, 0.630684, -3.12121, -0.0541976, -0.0886466, 0.0342455, 0.0410986, -0.0651057, -0.00814979, 0.0306519, -0.0452324
0.164156, 0.107602, -0.774465, -0.920493, -1.46468, -0.629131, 1.06334, -0.256653, -0.0139526, -0.0270351, -0.00690619, -0.104066, 0.000504666, -0.140907, 0.000565739, -0.76989, 15.0888, 22.5016, 17.4832, 1.79187, 3.74057, -0.0557752, -0.00203087, 0.000199681, 0.000564501, 0.00398818, -0.0209011, 0.00172687, 0.0413737, -0.00865056, 0.0226786, -0.0572654, 0.141735, 0.287263, -0.00927048, -0.442263, 0.631356, -3.12355, -0.0565783, -0.121339, -0.0112429, -0.442525, 0.630632, -3.12102, -0.0542598, -0.0884542, 0.0346601, 0.0414756, -0.0658049, -0.00799641, 0.0309844, -0.0465359
0.165156, 0.107592, -0.774492, -0.920506, -1.4648, -0.629133, 1.06319, -0.256655, -0.0138472, -0.0267446, -0.00783812, -0.107948, -0.000138521, -0.14331, -0.000350435, -0.76989, 14.942, 22.4659, 17.4078, 1.80469, 3.73324, -0.0356336, -0.00207242, 0.000207658, 0.000546859, 0.00405683, -0.02119, 0.0017019, 0.0415148, -0.00856451, 0.0217872, -0.0605332, 0.146736, 0.291877, -0.00923561, -0.442221, 0.63129, -3.1234, -0.0565994, -0.121587, -0.0112504, -0.442493, 0.63058, -3.12083, -0.0543297, -0.088248, 0.0350768, 0.0418522, -0.0665058, -0.00765731, 0.0314533, -0.0481435
0.166156, 0.107582, -0.774527, -0.920517, -1.46492, -0.629135, 1.06306, -0.256656, -0.0136795, -0.0314764, -0.00748826, -0.112675, -0.000770701, -0.144776, -0.000457189, -0.76989, 14.8706, 22.3905, 17.4078, 1.823, 3.7186, -0.0292249, -0.00211353, 0.00021771, 0.000528354, 0.00411481, -0.0214695, 0.00167354, 0.0424501, -0.00846052, 0.0208986, -0.0629974, 0.146756, 0.297224, -0.00920033, -0.442179, 0.631223, -3.12326, -0.0566208, -0.121836, -0.011257, -0.442463, 0.630528, -3.12064, -0.0544047, -0.0880598, 0.0354954, 0.0422282, -0.0672083, -0.00810813, 0.0319116, -0.0498117
0.167156, 0.107572, -0.774563, -0.920533, -1.46503, -0.629135, 1.06291, -0.256651, -0.0103698, -0.0317354, -0.0122903, -0.106095, -0.00051394, -0.14506, 0.00116361, -0.76989, 14.7952, 22.3905, 17.2571, 1.823, 3.69021, -0.0685925, -0.0021587, 0.000228686, 0.000508319, 0.0041747, -0.0217452, 0.00165777, 0.0443154, -0.0101455, 0.0221841, -0.0617128, 0.142836, 0.294689, -0.00916462, -0.442137, 0.631155, -3.12311, -0.0566425, -0.122088, -0.0112674, -0.442434, 0.630476, -3.12045, -0.0544604, -0.08788, 0.0359161, 0.0426038, -0.0679124, -0.00958638, 0.030512, -0.0494129
0.168156, 0.107562, -0.774604, -0.920541, -1.46514, -0.629132, 1.06277, -0.256656, -0.0109649, -0.0337263, -0.0099016, -0.111823, -0.00058009, -0.146051, -0.00091192, -0.76989, 14.7952, 22.2794, 17.1857, 1.82941, 3.67557, -0.0228162, -0.00220168, 0.000237943, 0.000487452, 0.00423349, -0.022019, 0.00162241, 0.0437416, -0.00952735, 0.0217235, -0.0630303, 0.145491, 0.303562, -0.00912849, -0.442094, 0.631087, -3.12296, -0.0566645, -0.122343, -0.0112752, -0.442402, 0.630425, -3.12026, -0.0545471, -0.0877062, 0.0363387, 0.0429789, -0.068618, -0.00858189, 0.0315294, -0.0505331
0.169156, 0.107562, -0.774604, -0.920541, -1.46514, -0.629132, 1.06277, -0.256656, -0.0109649, -0.0337263, -0.0099016, -0.111823, -0.00058009, -0.146051, -0.00091192, -0.76989, 14.7952, 22.2794, 17.1857, 1.82941, 3.67557, -0.0228162, -0.00223429, 0.000278775, 0.000414692, 0.00409377, -0.0221897, 0.00163609, 0.0441187, -0.00987213, 0.0224768, -0.0617509, 0.145916, 0.306245, -0.00909194, -0.442051, 0.631018, -3.1228, -0.0566868, -0.122601, -0.0112752, -0.442402, 0.630425, -3.12026, -0.0545471, -0.0877062, 0.0367632, 0.0433533, -0.0693252, -0.00858189, 0.0315294, -0.0505331
0.170156, 0.107562, -0.774604, -0.920541, -1.46514, -0.629132, 1.06277, -0.256656, -0.0109649, -0.0337263, -0.0099016, -0.111823, -0.00058009, -0.146051, -0.00091192, -0.76989, 14.7952, 22.2794, 17.1857, 1.82941, 3.67557, -0.0228162, -0.00226726, 0.000319933, 0.00034116, 0.00395272, -0.0223621, 0.00164996, 0.0444973, -0.010216, 0.0232321, -0.0604708, 0.146343, 0.308934, -0.00905497, -0.442007, 0.630949, -3.12265, -0.0567094, -0.122861, -0.0112752, -0.442402, 0.630425, -3.12026, -0.0545471, -0.0877062, 0.0371897, 0.0437272, -0.0700339, -0.00858189, 0.0315294, -0.0505331
0.171156, 0.107541, -0.774721, -0.920582, -1.46552, -0.62913, 1.06234, -0.256654, -0.00775763, -0.0342219, -0.0145916, -0.120636, -0.000171996, -0.14761, -0.000973507, -0.694511, 14.6127, 22.1287, 17.0706, 1.823, 3.63254, -0.0164075, -0.00232735, 0.00026965, 0.000433719, 0.00442601, -0.0228825, 0.00152713, 0.0434541, -0.0106675, 0.0197444, -0.0688887, 0.152853, 0.315972, -0.00901756, -0.441964, 0.630878, -3.12249, -0.0567323, -0.123123, -0.0112922, -0.442308, 0.630258, -3.11967, -0.0547938, -0.0871337, 0.0376182, 0.0441005, -0.0707441, -0.00682701, 0.0315462, -0.0546535
0.172156, 0.107538, -0.774767, -0.920592, -1.46565, -0.62913, 1.06219, -0.256648, -0.00577344, -0.0344428, -0.0118126, -0.123656, -0.000114697, -0.148818, 0.00104887, -0.694511, 14.5731, 22.0176, 17.0349, 1.823, 3.64718, -0.0621838, -0.00236945, 0.000279443, 0.000415403, 0.00449255, -0.023172, 0.00149351, 0.0416428, -0.0101162, 0.0201844, -0.0686739, 0.155578, 0.322291, -0.00897973, -0.441919, 0.630807, -3.12233, -0.0567555, -0.123389, -0.0112973, -0.442276, 0.630201, -3.11947, -0.0548798, -0.0869456, 0.0380486, 0.0444731, -0.0714557, -0.00464957, 0.0325231, -0.0547844
0.173156, 0.107532, -0.774808, -0.920603, -1.46579, -0.629127, 1.06205, -0.25665, -0.00826907, -0.0370349, -0.0105663, -0.128507, 0.000839038, -0.148546, -0.000282255, -0.658806, 14.5016, 21.9422, 17.0706, 1.79828, 3.64718, -0.0356336, -0.00240925, 0.00028936, 0.000398619, 0.00456103, -0.0234701, 0.001449, 0.0423094, -0.00984079, 0.0198308, -0.0695056, 0.155691, 0.327734, -0.00894147, -0.441875, 0.630735, -3.12218, -0.056779, -0.123657, -0.0112995, -0.442242, 0.630142, -3.11926, -0.0549835, -0.0867468, 0.0384809, 0.044845, -0.0721687, -0.00486637, 0.0331493, -0.0559078
0.174156, 0.107528, -0.774853, -0.920617, -1.46592, -0.629127, 1.0619, -0.25665, -0.00704032, -0.0395849, -0.0114501, -0.130096, 0.00055934, -0.143896, -0.000186789, -0.619133, 14.462, 21.9422, 17.0349, 1.79828, 3.63254, -0.0356336, -0.00245198, 0.00030062, 0.000380854, 0.00462775, -0.0237668, 0.00141094, 0.0424429, -0.0112151, 0.020133, -0.0657906, 0.15259, 0.331639, -0.00890277, -0.44183, 0.630663, -3.12202, -0.0568029, -0.123927, -0.0113042, -0.44221, 0.630084, -3.11906, -0.0550775, -0.0865529, 0.0389151, 0.0452163, -0.0728831, -0.00454071, 0.0321337, -0.0563617
0.175156, 0.107522, -0.774903, -0.920627, -1.46607, -0.629129, 1.06176, -0.256647, -0.00690647, -0.0434416, -0.00949053, -0.134316, -0.000305289, -0.144865, 0.000859854, -0.543754, 14.5016, 21.8311, 16.9992, 1.81659, 3.61148, -0.0621838, -0.00249484, 0.000311089, 0.000363987, 0.00469486, -0.0240666, 0.00137075, 0.0427209, -0.0109209, 0.0199432, -0.0663065, 0.153062, 0.336691, -0.00886363, -0.441784, 0.630589, -3.12185, -0.0568271, -0.1242, -0.0113086, -0.442177, 0.630023, -3.11885, -0.0551752, -0.0863568, 0.0393512, 0.0455868, -0.0735988, -0.00437999, 0.0327883, -0.057294
0.176156, 0.107524, -0.774958, -0.920641, -1.46621, -0.629127, 1.06161, -0.256647, -0.00494158, -0.0469462, -0.0138388, -0.138467, 0.000474632, -0.145781, 0.000811371, -0.543754, 14.5731, 21.8311, 16.9992, 1.79828, 3.59683, -0.0685925, -0.00253544, 0.000322698, 0.000349539, 0.00476741, -0.0243634, 0.00131965, 0.0438198, -0.0117068, 0.0179636, -0.0716703, 0.152841, 0.340622, -0.00882406, -0.441738, 0.630515, -3.12169, -0.0568516, -0.124476, -0.0113101, -0.442145, 0.62996, -3.11864, -0.0552906, -0.086168, 0.0397893, 0.0459565, -0.0743159, -0.00485319, 0.0323664, -0.0600937
0.177156, 0.107517, -0.775002, -0.920645, -1.46636, -0.629128, 1.06146, -0.256649, -0.00614579, -0.046027, -0.0111859, -0.140714, -0.000124396, -0.143364, -0.000204488, -0.43267, 14.5016, 21.72, 16.9595, 1.81018, 3.62521, -0.0484509, -0.00257484, 0.000331102, 0.000331183, 0.00483483, -0.0246791, 0.00126829, 0.0430138, -0.011844, 0.0190725, -0.0674141, 0.154835, 0.34603, -0.00878406, -0.441692, 0.630441, -3.12153, -0.0568764, -0.124755, -0.0113104, -0.442109, 0.629899, -3.11843, -0.0554068, -0.0859528, 0.0402292, 0.0463255, -0.0750342, -0.00369575, 0.0326033, -0.0596546
0.178156, 0.107515, -0.77506, -0.920652, -1.46651, -0.629127, 1.06131, -0.256647, -0.00428691, -0.0467056, -0.00701773, -0.142805, 0.000357873, -0.14671, -0.000610607, -0.43267, 14.6127, 21.6446, 16.8127, 1.79828, 3.66092, -0.0356336, -0.00261872, 0.000340108, 0.00031283, 0.00490746, -0.0249799, 0.00121955, 0.0412918, -0.0106445, 0.0199994, -0.0678646, 0.157228, 0.355449, -0.00874361, -0.441646, 0.630365, -3.12136, -0.0569015, -0.125036, -0.0113147, -0.442073, 0.629838, -3.11821, -0.0555194, -0.0857633, 0.040671, 0.0466936, -0.0757538, -0.00165932, 0.0342107, -0.0593034
0.179156, 0.10751, -0.775116, -0.920665, -1.46667, -0.629129, 1.06116, -0.256648, -0.00476346, -0.0458254, -0.0065993, -0.146138, -0.000439591, -0.147823, -0.00111882, -0.357292, 14.6841, 21.6843, 16.8484, 1.81659, 3.66824, -0.0164075, -0.00266312, 0.000351509, 0.00029873, 0.00498152, -0.0252922, 0.00117151, 0.0411064, -0.0105416, 0.019831, -0.068672, 0.161928, 0.359807, -0.00870271, -0.441599, 0.630289, -3.12119, -0.056927, -0.12532, -0.0113186, -0.44204, 0.629772, -3.11799, -0.0556316, -0.0855584, 0.0411146, 0.0470609, -0.0764746, -0.00102409, 0.034687, -0.0601852
0.180156, 0.107509, -0.775164, -0.92067, -1.46682, -0.629126, 1.06101, -0.256642, -0.00328235, -0.0458583, -0.0105836, -0.148621, -0.000293064, -0.152994, 0.00118715, -0.357292, 14.6484, 21.6446, 16.7731, 1.81659, 3.66824, -0.0685925, -0.00270089, 0.000359932, 0.000281163, 0.00505547, -0.0256112, 0.00111824, 0.0421887, -0.0105634, 0.0182529, -0.0759426, 0.166704, 0.359948, -0.00866138, -0.441552, 0.630212, -3.12102, -0.0569528, -0.125606, -0.0113159, -0.442002, 0.629709, -3.11777, -0.0557525, -0.0853459, 0.0415602, 0.0474273, -0.0771966, -0.00153232, 0.0350193, -0.0625773
0.181156, 0.107506, -0.775222, -0.920672, -1.46698, -0.629124, 1.06086, -0.256642, -0.00319629, -0.0484987, -0.00961333, -0.154834, 0.00116096, -0.151982, 0.000791615, -0.317619, 14.7198, 21.5732, 16.7374, 1.77997, 3.65451, -0.0685925, -0.00274047, 0.000368923, 0.000263658, 0.005125, -0.0259245, 0.00105654, 0.0413875, -0.0103979, 0.0173869, -0.0774629, 0.167007, 0.367793, -0.00861959, -0.441504, 0.630135, -3.12085, -0.0569789, -0.125895, -0.0113145, -0.441965, 0.629645, -3.11756, -0.0558866, -0.0851453, 0.0420076, 0.0477929, -0.0779197, -0.00022592, 0.0355921, -0.0641061
