alisrour97/Franka_experiments/Real_Robot_scripts/servo-franka/Data4/log_dyn_INITw_ki_9.csv
Time,q1,q2,q3,q4,q5,q6,q7,dq1,dq2,dq3,dq4,dq5,dq6,dq7,t1,t2,t3,t4,t5,t6,t7,ex1,ex2,ex3,ex4,ex5,ex6,ev1,ev2,ev3,ev4,ev5,ev6,xd,yd,zd,uxd,uyd,uzd,x,y,z,ux,uy,uz,vxd,vyd,vzd,vx,vy,vz
7.32422e-07, 0.107584, -0.774452, -0.91741, -1.45797, -0.625464, 1.06957, -0.256732, -0.00287862, -0.00336299, 0.00295463, 0.00352862, 1.11251e-05, 4.61585e-05, -0.00152982, 0.285408, 17.0804, 22.2437, 18.7131, 1.42383, 4.29904, -0.180287, 0.000627131, -0.00162178, 0.000949851, 0.00213802, -0.00135679, 0.000403147, 0.00206734, 0.00034467, 0.00188316, 0.00387027, -0.00583935, -0.000893649, -0.011112, -0.444721, 0.635038, -3.13187, -0.0555627, -0.107532, -0.0104705, -0.443068, 0.63414, -3.12981, -0.0554812, -0.105246, 0, 0, 0, -0.00220235, 0.000255534, 0.00173878
0.0122551, 0.107545, -0.77449, -0.917405, -1.45794, -0.625464, 1.06957, -0.256738, 3.61544e-05, -0.00193666, 0.000972287, 0.0020058, -0.00206219, 0.00114609, 0.000978444, 0.245735, 16.9296, 22.2794, 18.7527, 1.44214, 4.30636, -0.186696, 0.000592465, -0.00162031, 0.000936946, 0.00211194, -0.00129166, 0.000451037, 0.000959804, -0.000428267, 0.000919693, 0.00351846, -0.00229408, -0.00220163, -0.011112, -0.444721, 0.635038, -3.13187, -0.0555627, -0.107532, -0.010515, -0.443073, 0.634154, -3.12984, -0.0553681, -0.105377, 1.73063e-06, 3.0097e-06, -3.96181e-06, -0.00100287, -0.000466645, 0.000844965
0.0132551, 0.107545, -0.77449, -0.917405, -1.45794, -0.625464, 1.06957, -0.256738, 3.61544e-05, -0.00193666, 0.000972287, 0.0020058, -0.00206219, 0.00114609, 0.000978444, 0.245735, 16.9296, 22.2794, 18.7527, 1.44214, 4.30636, -0.186696, 0.000592461, -0.00162031, 0.000936937, 0.00211192, -0.00129168, 0.000451037, 0.000964476, -0.000436995, 0.000931949, 0.00354312, -0.00229072, -0.00215496, -0.011112, -0.444721, 0.635038, -3.13187, -0.0555627, -0.107532, -0.010515, -0.443073, 0.634154, -3.12984, -0.0553681, -0.105377, 6.91577e-06, 1.20019e-05, -1.58141e-05, -0.00100287, -0.000466645, 0.000844965
0.0142551, 0.107545, -0.77449, -0.917405, -1.45794, -0.625464, 1.06957, -0.256738, 3.61544e-05, -0.00193666, 0.000972287, 0.0020058, -0.00206219, 0.00114609, 0.000978444, 0.245735, 16.9296, 22.2794, 18.7527, 1.44214, 4.30636, -0.186696, 0.000592451, -0.00162029, 0.000936911, 0.00211187, -0.00129174, 0.000451039, 0.000972252, -0.000451476, 0.000952314, 0.00358407, -0.0022851, -0.00207744, -0.011112, -0.444721, 0.635038, -3.13187, -0.0555627, -0.107532, -0.010515, -0.443073, 0.634154, -3.12984, -0.0553681, -0.105377, 1.55453e-05, 2.69215e-05, -3.55071e-05, -0.00100287, -0.000466645, 0.000844965
0.0152551, 0.107545, -0.77449, -0.917405, -1.45794, -0.625464, 1.06957, -0.256738, 3.61544e-05, -0.00193666, 0.000972287, 0.0020058, -0.00206219, 0.00114609, 0.000978444, 0.245735, 16.9296, 22.2794, 18.7527, 1.44214, 4.30636, -0.186696, 0.000592432, -0.00162025, 0.000936861, 0.00211176, -0.00129187, 0.000451043, 0.000983123, -0.000471654, 0.000980737, 0.0036412, -0.00227724, -0.00196927, -0.011112, -0.444721, 0.635038, -3.13187, -0.0555628, -0.107532, -0.010515, -0.443073, 0.634154, -3.12984, -0.0553681, -0.105377, 2.7609e-05, 4.77135e-05, -6.29913e-05, -0.00100287, -0.000466645, 0.000844965
0.0162551, 0.107545, -0.77449, -0.917405, -1.45794, -0.625464, 1.06957, -0.256738, 3.61544e-05, -0.00193666, 0.000972287, 0.0020058, -0.00206219, 0.00114609, 0.000978444, 0.245735, 16.9296, 22.2794, 18.7527, 1.44214, 4.30636, -0.186696, 0.0005924, -0.00162019, 0.000936778, 0.00211159, -0.00129207, 0.000451049, 0.00099708, -0.000497476, 0.00101717, 0.00371437, -0.00226711, -0.00183064, -0.0111119, -0.444721, 0.635038, -3.13187, -0.0555628, -0.107532, -0.010515, -0.443073, 0.634154, -3.12984, -0.0553681, -0.105377, 4.30968e-05, 7.4323e-05, -9.82172e-05, -0.00100287, -0.000466645, 0.000844965
0.0172551, 0.107545, -0.77449, -0.917405, -1.45794, -0.625464, 1.06957, -0.256738, 3.61544e-05, -0.00193666, 0.000972287, 0.0020058, -0.00206219, 0.00114609, 0.000978444, 0.245735, 16.9296, 22.2794, 18.7527, 1.44214, 4.30636, -0.186696, 0.000592353, -0.00162011, 0.000936656, 0.00211133, -0.00129236, 0.000451058, 0.00101412, -0.000528888, 0.00106156, 0.00380348, -0.00225472, -0.00166176, -0.0111119, -0.444721, 0.635038, -3.13187, -0.0555628, -0.107533, -0.010515, -0.443073, 0.634154, -3.12984, -0.0553681, -0.105377, 6.19987e-05, 0.000106695, -0.000141136, -0.00100287, -0.000466645, 0.000844965
0.0182551, 0.107545, -0.77449, -0.917405, -1.45794, -0.625464, 1.06957, -0.256738, 3.61544e-05, -0.00193666, 0.000972287, 0.0020058, -0.00206219, 0.00114609, 0.000978444, 0.245735, 16.9296, 22.2794, 18.7527, 1.44214, 4.30636, -0.186696, 0.000592287, -0.00161998, 0.000936485, 0.00211097, -0.00129278, 0.000451071, 0.00103422, -0.000565836, 0.00111385, 0.00390839, -0.00224007, -0.00146284, -0.0111118, -0.44472, 0.635037, -3.13187, -0.0555628, -0.107533, -0.010515, -0.443073, 0.634154, -3.12984, -0.0553681, -0.105377, 8.43044e-05, 0.000144776, -0.000191697, -0.00100287, -0.000466645, 0.000844965
0.0192551, 0.107545, -0.77449, -0.917405, -1.45794, -0.625464, 1.06957, -0.256738, 3.61544e-05, -0.00193666, 0.000972287, 0.0020058, -0.00206219, 0.00114609, 0.000978444, 0.245735, 16.9296, 22.2794, 18.7527, 1.44214, 4.30636, -0.186696, 0.000592199, -0.00161982, 0.000936259, 0.00211049, -0.00129333, 0.000451087, 0.00105739, -0.000608266, 0.00117401, 0.004029, -0.00222314, -0.00123407, -0.0111117, -0.44472, 0.635037, -3.13187, -0.0555629, -0.107534, -0.010515, -0.443073, 0.634154, -3.12984, -0.0553681, -0.105377, 0.000110004, 0.000188511, -0.000249853, -0.00100287, -0.000466645, 0.000844965
0.0202556, 0.107545, -0.77449, -0.917405, -1.45794, -0.625464, 1.06957, -0.256738, 3.61544e-05, -0.00193666, 0.000972287, 0.0020058, -0.00206219, 0.00114609, 0.000978444, 0.245735, 16.9296, 22.2794, 18.7527, 1.44214, 4.30636, -0.186696, 0.000592086, -0.00161961, 0.000935968, 0.00210988, -0.00129404, 0.000451109, 0.0010836, -0.000656124, 0.00124196, 0.00416518, -0.00220394, -0.000975652, -0.0111116, -0.44472, 0.635037, -3.13187, -0.0555629, -0.107535, -0.010515, -0.443073, 0.634154, -3.12984, -0.0553681, -0.105377, 0.000139087, 0.000237846, -0.000315553, -0.00100287, -0.000466645, 0.000844965
0.0212556, 0.107545, -0.77449, -0.917405, -1.45794, -0.625464, 1.06957, -0.256738, 3.61544e-05, -0.00193666, 0.000972287, 0.0020058, -0.00206219, 0.00114609, 0.000978444, 0.245735, 16.9296, 22.2794, 18.7527, 1.44214, 4.30636, -0.186696, 0.000591946, -0.00161936, 0.000935607, 0.00210911, -0.00129492, 0.000451137, 0.00111286, -0.000709358, 0.00131768, 0.00431681, -0.00218245, -0.000687794, -0.0111114, -0.44472, 0.635037, -3.13186, -0.055563, -0.107537, -0.010515, -0.443073, 0.634154, -3.12984, -0.0553681, -0.105377, 0.000171544, 0.000292726, -0.00038875, -0.00100287, -0.000466645, 0.000844965
0.0222556, 0.107545, -0.77449, -0.917405, -1.45794, -0.625464, 1.06957, -0.256738, 3.61544e-05, -0.00193666, 0.000972287, 0.0020058, -0.00206219, 0.00114609, 0.000978444, 0.245735, 16.9296, 22.2794, 18.7527, 1.44214, 4.30636, -0.186696, 0.000591774, -0.00161904, 0.000935166, 0.00210818, -0.00129599, 0.00045117, 0.00114516, -0.000767915, 0.00140111, 0.00448378, -0.00215868, -0.000370692, -0.0111112, -0.444719, 0.635036, -3.13186, -0.055563, -0.107538, -0.010515, -0.443073, 0.634154, -3.12984, -0.0553681, -0.105377, 0.000207364, 0.000353099, -0.000469394, -0.00100287, -0.000466645, 0.000844965
0.0232556, 0.107495, -0.774519, -0.917423, -1.4579, -0.625471, 1.06958, -0.256737, -0.00263737, -0.000785308, -0.00206538, 0.00187366, -0.0004459, -4.10614e-05, 0.000659707, 0.285408, 16.9296, 22.5016, 18.6417, 1.49707, 4.27066, -0.193104, 0.00054601, -0.00161156, 0.0009273, 0.00208825, -0.0012473, 0.000540385, 0.00276937, -0.000913601, 0.000606733, 0.00115055, -0.00140722, -0.00384447, -0.011111, -0.444719, 0.635036, -3.13186, -0.0555631, -0.10754, -0.0105607, -0.443081, 0.634158, -3.12985, -0.0552286, -0.105456, 0.000246538, 0.00041891, -0.000557437, -0.0025235, -0.000596725, -0.000148049
0.0242556, 0.107489, -0.774526, -0.917423, -1.45789, -0.625473, 1.06958, -0.256737, -0.00296696, -0.00545245, -0.000540691, 0.00309902, -9.92574e-05, 0.000249835, -0.00030618, 0.325081, 17.005, 22.4659, 18.5663, 1.49158, 4.26333, -0.172963, 0.000539295, -0.00161046, 0.000924723, 0.00208189, -0.00123812, 0.000550232, 0.00403591, -0.000871855, 0.00137515, 0.00280163, -0.00731326, -0.0021249, -0.0111107, -0.444719, 0.635035, -3.13186, -0.0555632, -0.107542, -0.0105672, -0.443082, 0.634159, -3.12986, -0.0552131, -0.105473, 0.000289055, 0.000490107, -0.00065283, -0.00379782, -0.000534973, 0.000436379
0.0252559, 0.107478, -0.774524, -0.917419, -1.45789, -0.625474, 1.06958, -0.256734, -0.00395174, -0.00540224, -0.00630082, -0.00232434, 0.000845275, -0.00827798, 0.000304506, 0.400459, 16.9296, 22.3151, 18.4909, 1.46686, 4.23495, -0.186696, 0.000535703, -0.00161146, 0.000923125, 0.00207995, -0.00124512, 0.00056074, 0.00594229, -3.30978e-05, -0.00252622, -0.0114556, 0.000135559, -0.00445836, -0.0111104, -0.444718, 0.635034, -3.13186, -0.0555634, -0.107545, -0.0105706, -0.443081, 0.63416, -3.12986, -0.0551969, -0.105465, 0.000334905, 0.000566635, -0.000755525, -0.00541558, 0.000346276, -0.0036842
0.0262559, 0.107477, -0.774521, -0.917433, -1.45789, -0.625473, 1.06958, -0.256737, -0.00186436, -0.00614024, -0.00787875, -0.00445653, -0.000947398, -0.00674148, -0.00176368, 0.360787, 16.7471, 22.1683, 18.1934, 1.3927, 4.12051, -0.133595, 0.000531754, -0.00160756, 0.000925042, 0.00208215, -0.0012474, 0.000570355, 0.00554209, -0.000839488, -0.00346777, -0.0115176, 0.00148888, -0.000838548, -0.0111101, -0.444717, 0.635033, -3.13186, -0.0555635, -0.107548, -0.0105739, -0.443084, 0.634157, -3.12986, -0.0551822, -0.105464, 0.000384079, 0.000648441, -0.000865474, -0.00487417, -0.000355593, -0.00471095
0.0272559, 0.107482, -0.774516, -0.917448, -1.4579, -0.625481, 1.06958, -0.256736, 0.00216515, -0.00216422, -0.0104935, -0.00726192, 0.000605265, -0.00698273, -0.00141315, 0.21003, 16.4893, 21.9422, 17.9315, 1.34967, 4.03445, -0.127186, 0.000530099, -0.00160413, 0.000931566, 0.00209461, -0.00126777, 0.000576383, 0.0025831, -0.00105106, -0.00494147, -0.0154175, 0.00640875, 0.00347826, -0.0111097, -0.444717, 0.635033, -3.13186, -0.0555637, -0.107552, -0.0105746, -0.443087, 0.63415, -3.12984, -0.0551736, -0.105435, 0.000436566, 0.000735474, -0.000982628, -0.00176309, -0.00036321, -0.00609631
0.0282559, 0.107491, -0.774524, -0.917465, -1.45791, -0.625486, 1.06957, -0.256742, 0.00580911, -0.00288113, -0.0102427, -0.00983384, -0.00241806, -0.00750068, -0.00385822, 0.0196001, 16.3782, 21.6089, 17.6697, 1.30115, 3.95572, -0.0484509, 0.00052791, -0.00160035, 0.000940377, 0.00211179, -0.00127787, 0.000569869, 0.00127535, -0.00129429, -0.00570755, -0.0158466, 0.00997087, 0.0101118, -0.0111092, -0.444716, 0.635032, -3.13185, -0.0555639, -0.107556, -0.0105756, -0.44309, 0.63414, -3.12982, -0.0551846, -0.105422, 0.000492356, 0.000827679, -0.00110694, -0.00034232, -0.000461466, -0.00689652
0.0292559, 0.10749, -0.774529, -0.91749, -1.45792, -0.625495, 1.06957, -0.256733, 0.00464135, -0.00263634, -0.0121696, -0.00829701, -0.00537356, -0.00841631, 0.00461992, -0.0161054, 16.2314, 21.3471, 17.2571, 1.27002, 3.89071, -0.114369, 0.00051675, -0.00159445, 0.000948933, 0.0021279, -0.00128998, 0.000599138, 0.00338437, -0.00199163, -0.00568737, -0.015345, 0.0120433, -0.00268831, -0.0111087, -0.444715, 0.63503, -3.13185, -0.0555641, -0.10756, -0.0105854, -0.443095, 0.634129, -3.12981, -0.05514, -0.105406, 0.000551439, 0.000925004, -0.00123836, -0.00236245, -0.00113537, -0.00715704
0.0302559, 0.107492, -0.774538, -0.917521, -1.45795, -0.625508, 1.06957, -0.256739, 0.0039723, -0.00432511, -0.0178346, -0.0128306, -0.00935231, -0.0100111, 0.00154306, -0.0557783, 16.16, 21.1249, 17.0706, 1.28833, 3.84768, -0.0621838, 0.000506923, -0.00158842, 0.000965317, 0.00215926, -0.00131548, 0.000607986, 0.00607727, -0.00308494, -0.00872092, -0.0209548, 0.01742, -0.00361931, -0.0111081, -0.444714, 0.635029, -3.13185, -0.0555643, -0.107565, -0.0105933, -0.443101, 0.634111, -3.12977, -0.0551278, -0.105369, 0.000613805, 0.0010274, -0.00137684, -0.00473824, -0.00219413, -0.0105137
0.0312559, 0.107492, -0.774538, -0.917521, -1.45795, -0.625508, 1.06957, -0.256739, 0.0039723, -0.00432511, -0.0178346, -0.0128306, -0.00935231, -0.0100111, 0.00154306, -0.0557783, 16.16, 21.1249, 17.0706, 1.28833, 3.84768, -0.0621838, 0.000506337, -0.00158737, 0.000963824, 0.00215612, -0.00131911, 0.000608107, 0.00613653, -0.00318906, -0.00857032, -0.0206551, 0.0174645, -0.00304802, -0.0111074, -0.444713, 0.635028, -3.13184, -0.0555646, -0.10757, -0.0105933, -0.443101, 0.634111, -3.12977, -0.0551278, -0.105369, 0.000679445, 0.00113481, -0.00152234, -0.00473824, -0.00219413, -0.0105137
0.0322559, 0.107492, -0.774538, -0.917521, -1.45795, -0.625508, 1.06957, -0.256739, 0.0039723, -0.00432511, -0.0178346, -0.0128306, -0.00935231, -0.0100111, 0.00154306, -0.0557783, 16.16, 21.1249, 17.0706, 1.28833, 3.84768, -0.0621838, 0.00050569, -0.00158622, 0.000962178, 0.00215266, -0.0013231, 0.000608242, 0.00619873, -0.00329798, -0.0084125, -0.0203413, 0.0175113, -0.00244947, -0.0111067, -0.444712, 0.635026, -3.13184, -0.0555649, -0.107577, -0.0105933, -0.443101, 0.634111, -3.12977, -0.0551278, -0.105369, 0.000748347, 0.00124718, -0.0016748, -0.00473824, -0.00219413, -0.0105137
0.0332559, 0.107509, -0.774567, -0.917606, -1.45802, -0.625554, 1.06957, -0.256738, 0.00403862, -0.00850194, -0.0231493, -0.0240565, -0.012835, 0.000835004, -0.00474856, -0.242241, 16.0489, 20.268, 16.4755, 1.3689, 3.60415, -0.0814099, 0.000483607, -0.0015658, 0.00100824, 0.00222336, -0.00138264, 0.000640374, 0.00641175, -0.00619927, -0.0123919, -0.0191282, 0.018109, 0.00460115, -0.0111059, -0.444711, 0.635024, -3.13184, -0.0555653, -0.107583, -0.0106106, -0.44312, 0.634061, -3.1297, -0.0550811, -0.105278, 0.000820503, 0.00136446, -0.00183418, -0.00450244, -0.00494936, -0.0146756
0.0342559, 0.107508, -0.774581, -0.917644, -1.45806, -0.625568, 1.06957, -0.256732, 0.00499107, -0.0139785, -0.0279829, -0.0277199, -0.0138159, -0.00287014, -0.00177939, -0.206535, 16.0846, 20.1212, 16.4359, 1.3689, 3.5538, -0.127186, 0.000469623, -0.00155709, 0.00102782, 0.00225684, -0.0014068, 0.000666863, 0.0091004, -0.0066042, -0.0152695, -0.0271871, 0.0179228, 0.000983476, -0.0111051, -0.444709, 0.635022, -3.13183, -0.0555656, -0.10759, -0.010622, -0.443128, 0.634039, -3.12967, -0.0550417, -0.105245, 0.000895902, 0.00148661, -0.00200043, -0.00689611, -0.00530156, -0.0179
0.0352559, 0.107513, -0.77459, -0.917677, -1.45809, -0.625582, 1.06958, -0.25674, 0.00441322, -0.0138474, -0.0274036, -0.030362, -0.0177495, -0.00087483, -0.00433421, -0.242241, 16.0846, 19.9347, 16.4001, 1.33777, 3.50345, -0.0484509, 0.0004628, -0.00154878, 0.00104589, 0.00228463, -0.0014368, 0.000667404, 0.00921086, -0.00724379, -0.0155342, -0.0244224, 0.0217697, 0.003555, -0.0111041, -0.444708, 0.63502, -3.13183, -0.055566, -0.107598, -0.0106264, -0.443135, 0.634018, -3.12964, -0.0550424, -0.105205, 0.000974534, 0.00161356, -0.00217351, -0.00688657, -0.0058153, -0.0183488
0.0362559, 0.107513, -0.774599, -0.917711, -1.45811, -0.6256, 1.06958, -0.256734, 0.00229489, -0.013636, -0.0267995, -0.0292949, -0.0173751, -0.001203, -0.00109666, -0.206535, 16.0846, 19.7483, 16.2494, 1.33136, 3.50345, -0.101552, 0.000449107, -0.00153971, 0.00106015, 0.00230693, -0.00146248, 0.000696908, 0.0101444, -0.00715773, -0.0148077, -0.0233536, 0.0211844, -0.00099891, -0.0111031, -0.444706, 0.635018, -3.13182, -0.0555664, -0.107607, -0.0106377, -0.443142, 0.634001, -3.12961, -0.054998, -0.105171, 0.00105639, 0.00174526, -0.00235336, -0.00778823, -0.00563663, -0.0178675
0.0372559, 0.107509, -0.774604, -0.917744, -1.45814, -0.625614, 1.06958, -0.256739, 0.00074288, -0.0127286, -0.0300401, -0.0305071, -0.0199475, -0.000995561, -0.00255693, -0.166862, 16.0489, 19.5975, 16.178, 1.28284, 3.49612, -0.0557752, 0.000438114, -0.00153116, 0.00107555, 0.0023299, -0.00149257, 0.000712622, 0.0119032, -0.00810934, -0.015808, -0.0242588, 0.0249151, -0.00343176, -0.011102, -0.444704, 0.635016, -3.13182, -0.0555669, -0.107616, -0.0106462, -0.443149, 0.633982, -3.12958, -0.0549751, -0.105132, 0.00114146, 0.00188168, -0.00253994, -0.00935413, -0.00650435, -0.019179
0.0382559, 0.107512, -0.774608, -0.917776, -1.45818, -0.625631, 1.06958, -0.25674, 0.001529, -0.0119197, -0.030438, -0.0313944, -0.0176606, -0.00101233, -0.00207369, -0.206535, 16.0092, 19.4864, 16.2494, 1.2334, 3.49612, -0.0484509, 0.000431611, -0.00152328, 0.00109428, 0.00235946, -0.00153486, 0.000721787, 0.010888, -0.00800511, -0.015987, -0.0256368, 0.0246596, -0.00112411, -0.0111008, -0.444702, 0.635013, -3.13181, -0.0555674, -0.107626, -0.0106499, -0.443155, 0.63396, -3.12955, -0.0549627, -0.105074, 0.00122973, 0.00202275, -0.00273321, -0.00824502, -0.00622176, -0.0194805
0.0392559, 0.107504, -0.774609, -0.91781, -1.45821, -0.625649, 1.06958, -0.256734, -0.000664605, -0.00825969, -0.0314266, -0.0332127, -0.0162002, -0.000156462, 0.000510878, -0.131157, 15.9735, 19.4111, 16.2494, 1.19037, 3.47507, -0.101552, 0.00041919, -0.00151435, 0.00111055, 0.00238253, -0.00157571, 0.000753131, 0.0103921, -0.00807275, -0.0163386, -0.026374, 0.0280495, -0.00423893, -0.0110996, -0.4447, 0.63501, -3.1318, -0.055568, -0.107637, -0.0106596, -0.443162, 0.63394, -3.12952, -0.0549157, -0.105019, 0.00132119, 0.00216842, -0.00293311, -0.00763251, -0.0061231, -0.0199975
0.0402559, 0.107503, -0.774608, -0.917839, -1.45825, -0.625661, 1.06959, -0.256734, -0.00131162, -0.00553258, -0.0289443, -0.0341656, -0.0149884, 0.000242126, -0.000935132, -0.0914839, 15.9378, 19.3397, 16.3644, 1.14093, 3.46042, -0.0685925, 0.00041447, -0.00150743, 0.00112783, 0.00241054, -0.00162012, 0.00076157, 0.00866055, -0.00753597, -0.0155526, -0.0248282, 0.0302171, 0.000324297, -0.0110982, -0.444698, 0.635007, -3.1318, -0.0555686, -0.107648, -0.0106615, -0.443167, 0.63392, -3.12949, -0.0549045, -0.104959, 0.00141584, 0.00231864, -0.0031396, -0.00588437, -0.00538224, -0.0192976
0.0412559, 0.107496, -0.774609, -0.917877, -1.45829, -0.625682, 1.06959, -0.256733, -0.00259304, -0.00433439, -0.0326059, -0.0334103, -0.0199758, 1.43419e-05, -0.000427323, -0.0161054, 15.9378, 19.3754, 16.4359, 1.13544, 3.46042, -0.0750012, 0.000401019, -0.00149783, 0.00114559, 0.00243743, -0.00166812, 0.000791191, 0.0112868, -0.00890654, -0.0160806, -0.0241567, 0.0350395, -0.00619263, -0.0110967, -0.444695, 0.635004, -3.13179, -0.0555692, -0.107661, -0.0106719, -0.443175, 0.633898, -3.12946, -0.0548604, -0.104895, 0.00151366, 0.00247337, -0.00335263, -0.00831978, -0.00668488, -0.0202267
0.0422559, 0.107489, -0.774609, -0.91791, -1.45833, -0.625707, 1.06959, -0.256733, -0.0042937, -0.00420931, -0.0351088, -0.0337459, -0.0243181, -0.000372013, -0.000553186, 0.0949785, 15.9735, 19.4111, 16.5509, 1.14734, 3.46774, -0.0685925, 0.000389678, -0.00148901, 0.00116406, 0.00246416, -0.00172371, 0.000813159, 0.0137183, -0.00989935, -0.0166456, -0.0238037, 0.0390389, -0.0107146, -0.0110952, -0.444693, 0.635, -3.13178, -0.0555699, -0.107674, -0.01068, -0.443181, 0.633875, -3.12943, -0.0548283, -0.104819, 0.00161465, 0.00263255, -0.00357216, -0.0105687, -0.00759836, -0.0211836
0.0432559, 0.107485, -0.774612, -0.917935, -1.45837, -0.625733, 1.06958, -0.256738, -0.00460061, -0.00493282, -0.0318922, -0.0339803, -0.0233884, -0.000602006, -0.00208742, 0.170357, 16.0489, 19.3754, 16.662, 1.16565, 3.47507, -0.0228162, 0.0003801, -0.00148125, 0.00117898, 0.00248277, -0.00177625, 0.000824881, 0.0129273, -0.00928144, -0.0156048, -0.022033, 0.0378043, -0.00558482, -0.0110935, -0.44469, 0.634997, -3.13177, -0.0555706, -0.107688, -0.0106866, -0.443186, 0.633856, -3.1294, -0.0548118, -0.10475, 0.00171879, 0.00279613, -0.00379814, -0.00976908, -0.00679836, -0.0203131
0.0442559, 0.107475, -0.774612, -0.917969, -1.45841, -0.625758, 1.06959, -0.256731, -0.00889281, -0.00209505, -0.0307774, -0.0370243, -0.022361, -0.00100592, 0.000998477, 0.285408, 16.1203, 19.5261, 16.7731, 1.17847, 3.48971, -0.0878186, 0.000366775, -0.00147146, 0.00119693, 0.00250656, -0.00183299, 0.000859729, 0.0129103, -0.00867044, -0.0157743, -0.0228408, 0.0420369, -0.00914358, -0.0110917, -0.444687, 0.634993, -3.13176, -0.0555714, -0.107702, -0.0106965, -0.443193, 0.633833, -3.12938, -0.0547597, -0.104674, 0.00182607, 0.00296406, -0.00403052, -0.00965496, -0.00601762, -0.0207098
0.0452559, 0.107461, -0.774616, -0.917993, -1.45845, -0.625785, 1.06958, -0.256739, -0.00970368, -0.000792977, -0.0268614, -0.0383054, -0.0221611, -0.00176831, -0.00199226, 0.436165, 16.2314, 19.5618, 16.8484, 1.20868, 3.5181, -0.0164075, 0.000352749, -0.0014639, 0.00121071, 0.00252289, -0.00188666, 0.000876889, 0.0114904, -0.00778924, -0.0147959, -0.0211342, 0.044293, -0.00229573, -0.0110899, -0.444684, 0.634989, -3.13175, -0.0555722, -0.107718, -0.0107074, -0.443198, 0.633814, -3.12935, -0.0547348, -0.104605, 0.00193648, 0.00313629, -0.00426926, -0.00822723, -0.0049232, -0.0198694
0.0462559, 0.107463, -0.77461, -0.91802, -1.45849, -0.62581, 1.06958, -0.256731, -0.00665562, 0.000611397, -0.028807, -0.0372787, -0.0210435, -0.00175631, 0.00130689, 0.436165, 16.1957, 19.6729, 16.9595, 1.21509, 3.53274, -0.0878186, 0.000348184, -0.00145561, 0.00122676, 0.00254458, -0.00195152, 0.000895176, 0.0104404, -0.00832324, -0.014822, -0.0219059, 0.0443666, -0.00306926, -0.0110879, -0.444681, 0.634984, -3.13174, -0.0555731, -0.107735, -0.0107086, -0.443203, 0.633793, -3.12933, -0.0547085, -0.104518, 0.00205002, 0.00331277, -0.00451432, -0.00704581, -0.00524305, -0.0200717
0.0472559, 0.10745, -0.774606, -0.918045, -1.45853, -0.625838, 1.06958, -0.256732, -0.0112783, 0.000636221, -0.0270395, -0.0345473, -0.0245759, -0.00197694, 0.0003892, 0.586922, 16.1957, 19.784, 16.9992, 1.2215, 3.5538, -0.0750012, 0.000335797, -0.00144672, 0.00123934, 0.00255633, -0.00201115, 0.000920625, 0.0132939, -0.00856766, -0.0131033, -0.0170358, 0.0453687, -0.00753021, -0.0110858, -0.444678, 0.63498, -3.13173, -0.055574, -0.107752, -0.0107176, -0.443209, 0.633775, -3.12931, -0.0546707, -0.104442, 0.00216668, 0.00349346, -0.00476563, -0.00988304, -0.00542186, -0.0188067
0.0482559, 0.107439, -0.774608, -0.91807, -1.45856, -0.625868, 1.06958, -0.256735, -0.0105796, 0.00214383, -0.0273159, -0.0366434, -0.0276949, -0.00238876, -0.000729385, 0.701973, 16.2671, 19.9705, 17.0706, 1.23981, 3.58218, -0.0484509, 0.000322397, -0.00143801, 0.00125341, 0.00257194, -0.00207223, 0.000942291, 0.0129459, -0.00893436, -0.0135546, -0.0167758, 0.0509093, -0.00533629, -0.0110835, -0.444674, 0.634975, -3.13172, -0.055575, -0.107771, -0.0107275, -0.443215, 0.633755, -3.12928, -0.0546391, -0.104363, 0.00228643, 0.0036783, -0.00502317, -0.00937208, -0.00558715, -0.019493
0.0492559, 0.107434, -0.774605, -0.918086, -1.45861, -0.625899, 1.06958, -0.256732, -0.0081654, 0.00182604, -0.0247314, -0.0382026, -0.030124, -0.0018785, 0.000492957, 0.737679, 16.2671, 20.0458, 17.146, 1.26453, 3.58951, -0.0750012, 0.00031587, -0.00143054, 0.00126456, 0.00257936, -0.00213908, 0.000957621, 0.0113553, -0.00896202, -0.0130607, -0.0141053, 0.0531823, -0.00151208, -0.0110812, -0.44467, 0.634969, -3.13171, -0.0555761, -0.10779, -0.0107306, -0.443218, 0.633739, -3.12927, -0.054617, -0.104278, 0.00240928, 0.00386724, -0.00528689, -0.00769611, -0.00537406, -0.0191549
0.0502559, 0.107422, -0.774612, -0.918106, -1.45864, -0.625931, 1.06958, -0.256736, -0.0091779, 0.00121729, -0.0245181, -0.0376272, -0.0267319, -0.00207718, -0.00113252, 0.888436, 16.4178, 20.1926, 17.146, 1.26453, 3.61148, -0.0356336, 0.000301017, -0.00142206, 0.00127616, 0.00258917, -0.00219565, 0.000976791, 0.0115084, -0.00870573, -0.0125544, -0.014746, 0.049799, 0.00165363, -0.0110787, -0.444666, 0.634964, -3.1317, -0.0555772, -0.107811, -0.0107418, -0.443223, 0.633721, -3.12925, -0.0545891, -0.104209, 0.00253522, 0.00406024, -0.00555673, -0.00776649, -0.00493461, -0.0189288
0.0512559, 0.107415, -0.77461, -0.91812, -1.45869, -0.625966, 1.06958, -0.256734, -0.0072025, 0.00374623, -0.0235211, -0.0421156, -0.0333268, -0.00139307, 0.000226006, 0.928108, 16.4536, 20.3077, 17.2214, 1.27643, 3.61148, -0.0621838, 0.00029448, -0.00141386, 0.0012867, 0.00259117, -0.00226572, 0.00099218, 0.00995458, -0.00929711, -0.0132578, -0.0124858, 0.0599615, 0.00324646, -0.0110761, -0.444662, 0.634958, -3.13168, -0.0555784, -0.107832, -0.0107447, -0.443228, 0.633704, -3.12924, -0.0545669, -0.104121, 0.00266423, 0.00425725, -0.00583265, -0.00601876, -0.00526761, -0.0198034
0.0522559, 0.107406, -0.774611, -0.918144, -1.45872, -0.625998, 1.06958, -0.256738, -0.010668, 0.0014694, -0.0253864, -0.0399184, -0.0330274, -0.00225735, -0.00130913, 1.03919, 16.525, 20.5298, 17.1857, 1.26453, 3.64718, -0.0228162, 0.000280275, -0.00140424, 0.00129759, 0.00260034, -0.00232815, 0.00101385, 0.0133839, -0.00975412, -0.0128816, -0.0127034, 0.0566184, 2.94209e-05, -0.0110734, -0.444658, 0.634952, -3.13167, -0.0555796, -0.107855, -0.010755, -0.443233, 0.633686, -3.12922, -0.0545353, -0.104045, 0.0027963, 0.00445821, -0.00611461, -0.00931497, -0.00564713, -0.0199495
0.0532559, 0.107396, -0.774605, -0.918156, -1.45877, -0.626034, 1.06958, -0.256734, -0.00839024, 0.00464588, -0.020755, -0.041693, -0.0333746, -0.00201819, 0.000583999, 1.07887, 16.525, 20.6409, 17.2968, 1.26453, 3.66092, -0.0621838, 0.000273544, -0.00139674, 0.00130879, 0.00260529, -0.00240913, 0.00103133, 0.00972302, -0.00902198, -0.0117349, -0.00967119, 0.0609929, 0.00579626, -0.0110705, -0.444653, 0.634946, -3.13165, -0.0555809, -0.107878, -0.0107578, -0.443236, 0.633668, -3.12921, -0.0545101, -0.103941, 0.00293143, 0.00466308, -0.00640257, -0.00563464, -0.00459172, -0.0188369
0.0542559, 0.107388, -0.774609, -0.918171, -1.4588, -0.626067, 1.06958, -0.256736, -0.00761942, 0.000290276, -0.0214293, -0.0395091, -0.0340217, 0.0027452, -0.000594992, 1.15424, 16.6718, 20.7917, 17.2571, 1.27643, 3.67557, -0.0356336, 0.000262397, -0.00138754, 0.00131623, 0.00260331, -0.00246796, 0.0010457, 0.0111196, -0.0105468, -0.0107259, -0.00425851, 0.0534512, 0.00696341, -0.0110675, -0.444648, 0.63494, -3.13164, -0.0555822, -0.107903, -0.0107651, -0.443241, 0.633653, -3.1292, -0.0544895, -0.103874, 0.00306961, 0.00487181, -0.00669647, -0.00690353, -0.00596465, -0.0182305
0.0552559, 0.107379, -0.774605, -0.918189, -1.45884, -0.626104, 1.06958, -0.256737, -0.00927651, 0.00066354, -0.01951, -0.0388153, -0.0345391, 0.0014001, -0.000634755, 1.18995, 16.6718, 20.9742, 17.2571, 1.28284, 3.69754, -0.0292249, 0.000251131, -0.00137793, 0.00132556, 0.00260554, -0.00254306, 0.00106747, 0.0116372, -0.0101872, -0.0097098, -0.00281231, 0.0544446, 0.00737716, -0.0110644, -0.444643, 0.634933, -3.13162, -0.0555837, -0.107929, -0.0107721, -0.443246, 0.633637, -3.12919, -0.0544578, -0.103782, 0.00321082, 0.00508435, -0.00699628, -0.00736077, -0.00541984, -0.0175504
0.0562559, 0.107367, -0.774612, -0.918203, -1.45888, -0.626141, 1.06957, -0.256733, -0.00752384, 0.000520878, -0.0195921, -0.0393569, -0.0344928, -0.000372465, 0.00103434, 1.22962, 16.8225, 21.0892, 17.2968, 1.28284, 3.74057, -0.0685925, 0.000236559, -0.00136926, 0.00133434, 0.00260798, -0.00261035, 0.00109288, 0.0111306, -0.0100994, -0.00979418, -0.00422544, 0.0556363, 0.00889053, -0.0110611, -0.444638, 0.634926, -3.13161, -0.0555852, -0.107956, -0.0107825, -0.44325, 0.63362, -3.12917, -0.0544204, -0.103704, 0.00335505, 0.00530066, -0.00730195, -0.00670861, -0.00509702, -0.017905
0.0572559, 0.107361, -0.774602, -0.91821, -1.45891, -0.626181, 1.06957, -0.256738, -0.00758768, 0.00499244, -0.0178018, -0.0387697, -0.039344, -0.000541066, -0.00100627, 1.18995, 16.7828, 21.1249, 17.2968, 1.30115, 3.7543, -0.0228162, 0.0002309, -0.00136101, 0.00133887, 0.00259838, -0.00269371, 0.00110113, 0.0104516, -0.0104271, -0.00862701, 0.000221453, 0.0634997, 0.0108095, -0.0110577, -0.444633, 0.634918, -3.13159, -0.0555867, -0.107984, -0.010784, -0.443253, 0.633607, -3.12917, -0.0544094, -0.103602, 0.0035023, 0.00552068, -0.00761342, -0.00595267, -0.00519081, -0.0170078
0.0582559, 0.107351, -0.7746, -0.918219, -1.45895, -0.626221, 1.06957, -0.256731, -0.0118677, 0.00550201, -0.0176116, -0.040167, -0.0416648, -0.000741342, 0.00173634, 1.18995, 16.8582, 21.2003, 17.3721, 1.28284, 3.76895, -0.0878186, 0.000221569, -0.00135245, 0.00134552, 0.00259328, -0.00277199, 0.00112339, 0.0124486, -0.0106221, -0.00853733, 0.0013926, 0.0668485, 0.00478752, -0.0110541, -0.444627, 0.63491, -3.13157, -0.0555884, -0.108013, -0.010789, -0.443256, 0.633592, -3.12916, -0.0543768, -0.103509, 0.00365255, 0.00574437, -0.00793067, -0.00779237, -0.00523288, -0.017375
0.0592559, 0.107344, -0.774599, -0.918232, -1.45899, -0.626262, 1.06957, -0.25673, -0.0111352, 0.0060069, -0.0152446, -0.0361379, -0.0447737, -0.00142396, 0.00142859, 1.15424, 16.9296, 21.3114, 17.3721, 1.30115, 3.79733, -0.0951428, 0.000209685, -0.00134235, 0.001351, 0.00258674, -0.00284876, 0.00114496, 0.012867, -0.0108767, -0.00636146, 0.00660468, 0.0674411, 0.00532728, -0.0110504, -0.444621, 0.634902, -3.13155, -0.0555901, -0.108044, -0.0107963, -0.44326, 0.633578, -3.12915, -0.0543453, -0.10342, 0.0038058, 0.00597168, -0.00825364, -0.00819667, -0.00529393, -0.0155583
0.0602559, 0.107342, -0.774595, -0.918243, -1.45903, -0.626301, 1.06957, -0.256736, -0.00884451, 0.00708225, -0.0126051, -0.0367266, -0.0421648, -0.00140077, -0.00101447, 1.03919, 16.9693, 21.3868, 17.5189, 1.30115, 3.81198, -0.0420422, 0.000203995, -0.0013329, 0.00135849, 0.0025838, -0.00293176, 0.00114673, 0.0101866, -0.0102977, -0.00547638, 0.00743661, 0.0669176, 0.014897, -0.0110465, -0.444615, 0.634894, -3.13153, -0.0555919, -0.108076, -0.0107973, -0.443264, 0.633561, -3.12914, -0.0543449, -0.103322, 0.00396204, 0.00620257, -0.00858229, -0.00544945, -0.00439795, -0.0148156
0.0612559, 0.107335, -0.774589, -0.918255, -1.45906, -0.626344, 1.06956, -0.256729, -0.00915636, 0.0056214, -0.014624, -0.0344327, -0.0406579, -0.00140808, 0.00152761, 1.00349, 16.9693, 21.4979, 17.5586, 1.31305, 3.82663, -0.101552, 0.000193954, -0.00132237, 0.00136319, 0.00257375, -0.0030166, 0.00117302, 0.0117422, -0.0109066, -0.00505008, 0.0073341, 0.0630363, 0.0113614, -0.0110424, -0.444609, 0.634885, -3.13151, -0.0555937, -0.108109, -0.0108025, -0.443268, 0.633547, -3.12914, -0.0543062, -0.103222, 0.00412125, 0.00643698, -0.00891658, -0.00684857, -0.00483041, -0.0148364
0.0622559, 0.107331, -0.774587, -0.918263, -1.4591, -0.626387, 1.06956, -0.256731, -0.00860771, 0.0027521, -0.0112258, -0.036626, -0.0392779, -0.00193865, -0.000677116, 0.928108, 17.0407, 21.5336, 17.634, 1.31946, 3.85501, -0.0557752, 0.000184921, -0.00131253, 0.00136755, 0.00256351, -0.00309965, 0.00118418, 0.0107545, -0.0101672, -0.00456869, 0.00768095, 0.0607913, 0.0198225, -0.0110382, -0.444602, 0.634876, -3.13149, -0.0555957, -0.108143, -0.0108066, -0.443272, 0.633533, -3.12913, -0.054291, -0.103127, 0.00428343, 0.00667487, -0.00925645, -0.00576109, -0.00382311, -0.0146235
0.0632559, 0.107326, -0.774589, -0.918275, -1.45914, -0.626425, 1.06956, -0.256731, -0.0089758, 0.00294702, -0.0128985, -0.0340791, -0.0416517, -0.00179655, -0.000722751, 0.888436, 17.1518, 21.6089, 17.6697, 1.30115, 3.86966, -0.0484509, 0.000174358, -0.00130197, 0.00137162, 0.0025545, -0.00317412, 0.00119916, 0.012524, -0.0111643, -0.00387752, 0.00993174, 0.0612493, 0.0171317, -0.0110339, -0.444596, 0.634867, -3.13147, -0.0555977, -0.108178, -0.0108121, -0.443276, 0.633519, -3.12913, -0.05427, -0.103047, 0.00444857, 0.0069162, -0.00960188, -0.00737192, -0.00464661, -0.0144087
0.0642559, 0.107315, -0.77458, -0.918283, -1.45918, -0.626467, 1.06956, -0.256725, -0.00700643, 0.00261137, -0.0132233, -0.0341746, -0.0441683, -0.00116888, 0.00124744, 0.888436, 17.1518, 21.6446, 17.7808, 1.30115, 3.86966, -0.0951428, 0.000165147, -0.00129161, 0.00137551, 0.00254158, -0.0032651, 0.00122309, 0.01242, -0.0119181, -0.00365108, 0.0118802, 0.0627244, 0.0170955, -0.0110293, -0.444589, 0.634857, -3.13145, -0.0555998, -0.108215, -0.0108161, -0.44328, 0.633505, -3.12912, -0.0542352, -0.102942, 0.00461665, 0.00716091, -0.0099528, -0.00708864, -0.00515345, -0.014532
0.0652559, 0.107315, -0.774583, -0.918293, -1.45921, -0.626508, 1.06956, -0.256732, -0.00915123, 0.00276519, -0.0135816, -0.0323442, -0.0410793, -0.000757645, -0.00160982, 0.777352, 17.2629, 21.6843, 17.8204, 1.28284, 3.86966, -0.0292249, 0.000156566, -0.00127966, 0.00137806, 0.00252469, -0.00333983, 0.00122567, 0.013321, -0.0120025, -0.00271859, 0.01253, 0.0592593, 0.0194704, -0.0110246, -0.444581, 0.634847, -3.13142, -0.055602, -0.108254, -0.0108193, -0.443285, 0.633491, -3.12912, -0.0542333, -0.102864, 0.00478767, 0.00740896, -0.0103092, -0.00787705, -0.0050298, -0.0140216
0.0662559, 0.107314, -0.774577, -0.918301, -1.45924, -0.626546, 1.06956, -0.256723, -0.00856748, 0.00330392, -0.0129804, -0.0302079, -0.0388498, -0.000997514, 0.00208024, 0.701973, 17.2272, 21.6843, 17.8204, 1.26453, 3.88339, -0.114369, 0.0001493, -0.00126853, 0.00137848, 0.00250755, -0.00342088, 0.00124716, 0.0128955, -0.0119683, -0.00153923, 0.0136558, 0.0569476, 0.0182001, -0.0110198, -0.444574, 0.634836, -3.1314, -0.0556043, -0.108293, -0.0108212, -0.443288, 0.63348, -3.12912, -0.0542022, -0.102778, 0.00496161, 0.0076603, -0.010671, -0.00736129, -0.00473996, -0.0131778
0.0672559, 0.107312, -0.774579, -0.918313, -1.45927, -0.626585, 1.06956, -0.256729, -0.00587024, 0.00414924, -0.013493, -0.0327542, -0.0411556, -0.000924121, 0.000403458, 0.6623, 17.2986, 21.72, 17.8561, 1.23981, 3.89071, -0.0878186, 0.000138957, -0.00125642, 0.00138094, 0.00249384, -0.00349881, 0.00125422, 0.01169, -0.0124828, -0.00212338, 0.0136029, 0.0613325, 0.0238139, -0.0110147, -0.444566, 0.634825, -3.13137, -0.0556067, -0.108334, -0.0108259, -0.443293, 0.633466, -3.12911, -0.0541938, -0.102698, 0.00513848, 0.00791489, -0.0110382, -0.00592377, -0.00495176, -0.0140483
0.0682559, 0.107312, -0.77458, -0.91832, -1.45931, -0.626625, 1.06956, -0.256731, -0.00610994, 0.0033802, -0.0121767, -0.0353757, -0.0386759, -0.000606963, -0.00091784, 0.586922, 17.2986, 21.6843, 17.9315, 1.21509, 3.89071, -0.0557752, 0.0001313, -0.00124499, 0.00138259, 0.00247726, -0.00358045, 0.00125987, 0.0107052, -0.0120986, -0.00215574, 0.012877, 0.0603033, 0.0298886, -0.0110095, -0.444558, 0.634814, -3.13135, -0.0556092, -0.108376, -0.0108277, -0.443297, 0.633452, -3.12911, -0.0541875, -0.102613, 0.00531825, 0.00817268, -0.0114107, -0.00477359, -0.004275, -0.0143829
0.0692559, 0.107308, -0.77458, -0.918335, -1.45934, -0.626663, 1.06956, -0.256727, -0.00725237, 0.002714, -0.0139372, -0.0362436, -0.0370823, -0.000669071, 0.000337529, 0.551216, 17.2986, 21.7597, 17.9672, 1.19678, 3.89804, -0.0814099, 0.000119521, -0.00123215, 0.00138527, 0.00246503, -0.00366106, 0.00128005, 0.0116581, -0.0124254, -0.00252474, 0.0112853, 0.0592343, 0.0288399, -0.0110041, -0.44455, 0.634803, -3.13132, -0.0556118, -0.10842, -0.0108334, -0.443301, 0.633437, -3.1291, -0.0541589, -0.102532, 0.00550092, 0.00843363, -0.0117885, -0.00550369, -0.00437079, -0.0151976
0.0702559, 0.107309, -0.774575, -0.918349, -1.45938, -0.626703, 1.06956, -0.256732, -0.0048236, 0.00382517, -0.0142619, -0.0381464, -0.0361405, -0.000712186, -0.00147041, 0.511544, 17.2272, 21.7954, 18.0426, 1.18396, 3.90536, -0.0356336, 0.000111341, -0.00121902, 0.0013882, 0.00245194, -0.0037519, 0.0012869, 0.00994754, -0.0125481, -0.00283616, 0.0102429, 0.0610592, 0.0357441, -0.0109985, -0.444541, 0.634791, -3.13129, -0.0556144, -0.108465, -0.0108352, -0.443306, 0.633422, -3.12909, -0.0541511, -0.102436, 0.00568647, 0.00869769, -0.0121715, -0.00358669, -0.00416626, -0.0157742
0.0712559, 0.107306, -0.774585, -0.918359, -1.45941, -0.626742, 1.06956, -0.256727, -0.00390327, -0.00307997, -0.0159411, -0.0376035, -0.0356665, -0.000199677, 0.000715139, 0.511544, 17.3383, 21.7597, 18.0426, 1.17847, 3.89804, -0.0814099, 9.76934e-05, -0.0012058, 0.00138816, 0.00243235, -0.00382313, 0.00130601, 0.0123093, -0.0133774, -0.00298516, 0.00991467, 0.0534275, 0.0346839, -0.0109927, -0.444532, 0.634778, -3.13127, -0.0556172, -0.108512, -0.0108425, -0.443311, 0.633408, -3.12909, -0.0541241, -0.102372, 0.00587491, 0.00896481, -0.0125597, -0.00571274, -0.00480954, -0.0164811
0.0722559, 0.107312, -0.774582, -0.918374, -1.45945, -0.62678, 1.06956, -0.256732, -0.00135459, -0.00037001, -0.015804, -0.0382139, -0.0392108, -0.000130233, -0.00121867, 0.436165, 17.2629, 21.7954, 18.0783, 1.16565, 3.89804, -0.0356336, 9.11529e-05, -0.00119125, 0.0013896, 0.0024152, -0.0039072, 0.00130759, 0.0110529, -0.0139987, -0.00269249, 0.012104, 0.0593355, 0.039408, -0.0109867, -0.444523, 0.634765, -3.13124, -0.05562, -0.10856, -0.0108424, -0.443317, 0.633394, -3.12908, -0.0541245, -0.102289, 0.00606621, 0.00923495, -0.0129531, -0.0042667, -0.00511872, -0.0165003
0.0732559, 0.107313, -0.774584, -0.918391, -1.45948, -0.626819, 1.06957, -0.256729, -0.0012898, -0.00114184, -0.018737, -0.0370658, -0.038416, -8.46587e-05, 0.000170895, 0.436165, 17.2986, 21.8311, 18.0426, 1.17206, 3.89804, -0.0621838, 7.8254e-05, -0.00117594, 0.00138991, 0.00239678, -0.00398782, 0.00132845, 0.0124553, -0.0148344, -0.0027894, 0.0112764, 0.0574724, 0.0371993, -0.0109806, -0.444514, 0.634752, -3.13121, -0.055623, -0.10861, -0.0108485, -0.443323, 0.633379, -3.12908, -0.0540951, -0.102214, 0.00626038, 0.00950806, -0.0133516, -0.00543395, -0.0057291, -0.0170992
0.0742559, 0.107315, -0.774585, -0.918404, -1.45951, -0.626855, 1.06957, -0.256729, -0.00114992, -0.000806193, -0.019348, -0.0362513, -0.0377481, -5.48164e-05, -0.000123432, 0.436165, 17.2986, 21.7954, 18.0069, 1.17847, 3.89804, -0.0557752, 6.82672e-05, -0.00116177, 0.00138933, 0.00237811, -0.00406802, 0.00133794, 0.0127016, -0.0151942, -0.00228445, 0.0118906, 0.0569325, 0.038642, -0.0109742, -0.444504, 0.634739, -3.13117, -0.055626, -0.108661, -0.0108516, -0.443328, 0.633365, -3.12907, -0.0540834, -0.102141, 0.00645739, 0.00978411, -0.0137552, -0.00550443, -0.00582595, -0.0170194
0.0752559, 0.107318, -0.774589, -0.918423, -1.45954, -0.62689, 1.06957, -0.256732, -0.000148933, -0.0014992, -0.0184876, -0.0334349, -0.0373142, -0.000306595, -0.000828275, 0.400459, 17.3383, 21.8311, 18.0069, 1.19037, 3.90536, -0.0356336, 5.70241e-05, -0.00114672, 0.00139103, 0.00236516, -0.00415018, 0.001347, 0.0128986, -0.0154197, -0.000833902, 0.0143126, 0.0543264, 0.0413545, -0.0109676, -0.444494, 0.634725, -3.13114, -0.0556292, -0.108713, -0.0108556, -0.443333, 0.633349, -3.12906, -0.0540727, -0.102065, 0.00665724, 0.010063, -0.0141638, -0.00559313, -0.00579266, -0.0159971
0.0762559, 0.107324, -0.774586, -0.918449, -1.45957, -0.626923, 1.06957, -0.256726, 0.00150079, -9.67421e-05, -0.0226739, -0.0325856, -0.0363484, 0.000339051, 0.000431159, 0.325081, 17.2986, 21.9422, 17.9315, 1.18396, 3.89071, -0.0621838, 4.56287e-05, -0.00112952, 0.0013925, 0.00235202, -0.00423331, 0.00136948, 0.0131946, -0.0165704, -0.001278, 0.0130279, 0.0544707, 0.0401913, -0.0109609, -0.444484, 0.63471, -3.13111, -0.0556325, -0.108767, -0.0108594, -0.443341, 0.633332, -3.12904, -0.0540413, -0.10199, 0.00685993, 0.0103448, -0.0145774, -0.0056135, -0.00666715, -0.0168831
0.0772559, 0.107323, -0.774596, -0.918467, -1.45961, -0.626956, 1.06957, -0.256724, 4.29457e-05, -0.00268192, -0.0190485, -0.0316393, -0.0356271, 0.000769253, 0.000524797, 0.360787, 17.4097, 21.9065, 17.9672, 1.17847, 3.87607, -0.0685925, 3.16959e-05, -0.00111389, 0.00139412, 0.0023382, -0.0043096, 0.00138365, 0.0136492, -0.0162188, 0.000463097, 0.0167071, 0.0504958, 0.042899, -0.0109539, -0.444473, 0.634696, -3.13108, -0.0556359, -0.108823, -0.0108656, -0.443346, 0.633315, -3.12903, -0.0540228, -0.101927, 0.00706543, 0.0106294, -0.0149959, -0.00599422, -0.00606342, -0.015595
0.0782559, 0.107329, -0.774592, -0.918484, -1.45964, -0.626988, 1.06957, -0.256723, 0.000772074, -0.000131737, -0.0195709, -0.0306469, -0.0349014, 0.00129324, 0.000587223, 0.325081, 17.3383, 21.8708, 17.8561, 1.16565, 3.85501, -0.0750012, 2.24637e-05, -0.00109755, 0.00139076, 0.0023149, -0.00439212, 0.00139664, 0.0129192, -0.016634, 0.00117567, 0.0180382, 0.0517675, 0.0446461, -0.0109468, -0.444463, 0.63468, -3.13104, -0.0556394, -0.10888, -0.0108672, -0.443352, 0.633302, -3.12902, -0.054006, -0.101857, 0.00727374, 0.0109167, -0.0154193, -0.00509259, -0.00617206, -0.0152607
0.0792559, 0.107333, -0.774592, -0.918506, -1.45968, -0.627017, 1.06958, -0.256727, 0.00230192, 0.000829525, -0.0209742, -0.0351766, -0.0344053, 0.00167635, -8.32369e-05, 0.245735, 17.2986, 21.8708, 17.9672, 1.15375, 3.83304, -0.0621838, 1.45444e-05, -0.00108088, 0.00139321, 0.00230176, -0.00447915, 0.00139813, 0.0115195, -0.0169322, -0.000137861, 0.0155322, 0.0553417, 0.0500076, -0.0109394, -0.444452, 0.634665, -3.131, -0.055643, -0.108939, -0.0108669, -0.443358, 0.633284, -3.129, -0.0540075, -0.10178, 0.00748486, 0.0112067, -0.0158476, -0.00338428, -0.00611844, -0.016905
0.0802559, 0.107338, -0.774594, -0.91853, -1.45971, -0.627049, 1.06958, -0.25673, 0.00324623, -0.00258772, -0.0219645, -0.0340587, -0.0341975, 0.00216902, -0.000801477, 0.170357, 17.2986, 21.8708, 17.8918, 1.14734, 3.80466, -0.0420422, 1.05706e-06, -0.00106234, 0.00139176, 0.00228155, -0.0045573, 0.0014113, 0.0127882, -0.0176399, 0.000259191, 0.0164013, 0.0510154, 0.0521384, -0.0109318, -0.44444, 0.634649, -3.13097, -0.0556467, -0.109, -0.0108722, -0.443365, 0.633268, -3.12899, -0.0539908, -0.10172, 0.00769877, 0.0114994, -0.0162807, -0.0044373, -0.00658148, -0.0170364
0.0812559, 0.107343, -0.774588, -0.91856, -1.45974, -0.627079, 1.06959, -0.256724, 0.00388867, 0.000606248, -0.0244945, -0.0317967, -0.0343612, 0.00171749, 0.000686385, 0.0949785, 17.1875, 21.9422, 17.8918, 1.14734, 3.79733, -0.0750012, -1.01634e-05, -0.00104305, 0.00139259, 0.00226684, -0.00464806, 0.00143535, 0.0130967, -0.0184359, 0.000745447, 0.0167754, 0.0533668, 0.0498202, -0.010924, -0.444429, 0.634632, -3.13093, -0.0556505, -0.109062, -0.0108748, -0.443373, 0.63325, -3.12898, -0.0539575, -0.101641, 0.00791545, 0.0117947, -0.0167186, -0.0045333, -0.00709712, -0.0170174
0.0822559, 0.107348, -0.774591, -0.918585, -1.45977, -0.627108, 1.06959, -0.256731, 0.00654956, -0.000724152, -0.0268325, -0.0314409, -0.0344583, 0.00114516, -0.00100047, 0.059273, 17.2272, 21.9065, 17.8204, 1.14734, 3.79733, -0.0356336, -2.44366e-05, -0.00102461, 0.00139055, 0.00224879, -0.00472739, 0.00144526, 0.0134293, -0.0192014, 0.000469151, 0.0156117, 0.0524639, 0.0538813, -0.010916, -0.444417, 0.634615, -3.13089, -0.0556545, -0.109126, -0.0108804, -0.44338, 0.633234, -3.12896, -0.0539461, -0.101581, 0.00813491, 0.0120926, -0.0171612, -0.00459882, -0.00757335, -0.0177655
0.0832559, 0.107356, -0.774588, -0.918611, -1.4598, -0.627137, 1.06959, -0.25673, 0.00875755, 0.000295029, -0.0255346, -0.0349427, -0.0342631, 0.00127219, -0.0011417, 0.0196001, 17.1875, 21.8708, 17.8918, 1.14093, 3.7836, -0.0228162, -3.33381e-05, -0.0010058, 0.00139089, 0.00223277, -0.00481749, 0.0014547, 0.0111523, -0.0190583, 0.000216451, 0.0153369, 0.0556803, 0.0608438, -0.0109077, -0.444404, 0.634598, -3.13085, -0.0556585, -0.109191, -0.0108803, -0.443387, 0.633215, -3.12894, -0.0539357, -0.101507, 0.00835714, 0.012393, -0.0176085, -0.00209394, -0.00704737, -0.0183062
0.0842559, 0.107362, -0.774579, -0.91864, -1.45983, -0.627162, 1.0696, -0.256727, 0.00712271, 0.00258967, -0.0255377, -0.032499, -0.0300299, 0.00111948, 0.000934288, -0.0161054, 17.0804, 21.8708, 17.8918, 1.14093, 3.77627, -0.0685925, -4.28582e-05, -0.000986157, 0.00138903, 0.00221402, -0.00490892, 0.00147197, 0.0110767, -0.0188977, 0.0015511, 0.0158758, 0.0534096, 0.0596547, -0.0108992, -0.444392, 0.63458, -3.13081, -0.0556627, -0.109258, -0.0108807, -0.443395, 0.633198, -3.12893, -0.0539132, -0.101432, 0.00858211, 0.0126959, -0.0180604, -0.00189207, -0.00659419, -0.0174216
0.0852559, 0.107373, -0.774573, -0.918671, -1.45986, -0.627191, 1.0696, -0.256733, 0.00777658, 0.00340519, -0.0262645, -0.0369293, -0.0313271, 0.00101766, -0.00130992, -0.131157, 17.005, 21.9065, 17.8918, 1.14734, 3.76895, -0.0164075, -5.24606e-05, -0.000965238, 0.00138814, 0.00219595, -0.005001, 0.00147742, 0.0103295, -0.0191824, 0.000470135, 0.0143355, 0.0583541, 0.0654284, -0.0108905, -0.444379, 0.634562, -3.13077, -0.055667, -0.109327, -0.0108808, -0.443403, 0.63318, -3.12891, -0.0539093, -0.101358, 0.00880983, 0.0130012, -0.018517, -0.00083398, -0.00653665, -0.0189075
0.0862559, 0.107379, -0.774575, -0.918702, -1.45989, -0.627217, 1.06961, -0.256726, 0.00627224, 0.00137153, -0.0291238, -0.0369894, -0.0282468, 0.00067849, 0.00153422, -0.166862, 17.0407, 21.9065, 17.8918, 1.16015, 3.76895, -0.0814099, -6.77115e-05, -0.000944153, 0.00138571, 0.00217621, -0.00508247, 0.00150302, 0.012159, -0.0196152, 5.8082e-05, 0.0116706, 0.0544982, 0.062214, -0.0108816, -0.444366, 0.634543, -3.13072, -0.0556715, -0.109398, -0.0108864, -0.443411, 0.633163, -3.12889, -0.053874, -0.101302, 0.00904028, 0.013309, -0.0189781, -0.00238314, -0.00672192, -0.019912
0.0872559, 0.10739, -0.774562, -0.918738, -1.45992, -0.627243, 1.06961, -0.256729, 0.00928886, 0.00513571, -0.0321551, -0.0348869, -0.0259282, 0.000452365, 7.33752e-05, -0.242241, 16.8582, 21.9422, 17.9315, 1.17206, 3.76895, -0.0557752, -7.6771e-05, -0.00092239, 0.00138567, 0.00216178, -0.00518352, 0.00151465, 0.0108797, -0.0203201, 0.000348487, 0.0106517, 0.0555814, 0.0662051, -0.0108725, -0.444352, 0.634524, -3.13068, -0.0556761, -0.10947, -0.0108855, -0.44342, 0.633143, -3.12887, -0.0538609, -0.101217, 0.00927346, 0.0136191, -0.0194438, -0.000869402, -0.00707401, -0.0200049
0.0882559, 0.10739, -0.774562, -0.918738, -1.45992, -0.627243, 1.06961, -0.256729, 0.00928886, 0.00513571, -0.0321551, -0.0348869, -0.0259282, 0.000452365, 7.33752e-05, -0.242241, 16.8582, 21.9422, 17.9315, 1.17206, 3.76895, -0.0557752, -8.53062e-05, -0.000909047, 0.00136529, 0.00212012, -0.00523247, 0.00151704, 0.0110929, -0.0206204, 0.000838332, 0.0115841, 0.0557659, 0.0680324, -0.0108631, -0.444339, 0.634504, -3.13064, -0.0556808, -0.109544, -0.0108855, -0.44342, 0.633143, -3.12887, -0.0538609, -0.101217, 0.00950935, 0.0139315, -0.0199139, -0.000869402, -0.00707401, -0.0200049
0.0892559, 0.107411, -0.774557, -0.91881, -1.45998, -0.627294, 1.06962, -0.25673, 0.00767842, 0.00399528, -0.0342206, -0.0286719, -0.0226772, 0.000291515, -0.000148234, -0.281914, 16.7828, 21.9422, 17.8561, 1.19678, 3.76163, -0.0484509, -0.000104285, -0.000876768, 0.00138051, 0.00212313, -0.00535912, 0.0015496, 0.013697, -0.0212891, 0.00263359, 0.0131081, 0.048466, 0.0652867, -0.0108534, -0.444325, 0.634484, -3.13059, -0.0556856, -0.10962, -0.0108925, -0.443439, 0.633106, -3.12883, -0.0538165, -0.101094, 0.00974794, 0.0142462, -0.0203885, -0.00332804, -0.00753697, -0.0188775
0.0902559, 0.107425, -0.774557, -0.918848, -1.46001, -0.627322, 1.06963, -0.256728, 0.00730647, 0.00264346, -0.0359507, -0.0279511, -0.0216796, 0.000465627, -0.000336181, -0.357292, 16.7828, 21.9819, 17.8561, 1.20868, 3.7543, -0.0420422, -0.000117973, -0.000852683, 0.00137947, 0.00210528, -0.0054512, 0.00156743, 0.0149813, -0.0219082, 0.00283683, 0.0129751, 0.0460688, 0.0657615, -0.0108436, -0.44431, 0.634463, -3.13054, -0.0556906, -0.109698, -0.0108954, -0.443449, 0.633085, -3.1288, -0.053794, -0.101029, 0.00998923, 0.0145631, -0.0208674, -0.00435902, -0.00788606, -0.01925
0.0912559, 0.107439, -0.774549, -0.918893, -1.46004, -0.627345, 1.06964, -0.256723, 0.0101033, 0.00434573, -0.0409802, -0.0313506, -0.0207955, 0.00109032, 0.000996582, -0.43267, 16.6718, 22.0572, 17.8918, 1.21509, 3.73324, -0.0750012, -0.00012938, -0.000827818, 0.00138032, 0.00209306, -0.00554934, 0.00158753, 0.0141293, -0.0230193, 0.000903973, 0.00886275, 0.0494363, 0.0674373, -0.0108335, -0.444295, 0.634442, -3.13049, -0.0556957, -0.109777, -0.0108957, -0.443459, 0.633062, -3.12878, -0.0537684, -0.100956, 0.0102332, 0.0148823, -0.0213508, -0.00309082, -0.00862831, -0.0216116
0.0922559, 0.107452, -0.774552, -0.918934, -1.46008, -0.627372, 1.06964, -0.256732, 0.0112094, 0.00112263, -0.0399391, -0.0308614, -0.0243782, 0.000998159, -0.00126839, -0.468376, 16.7471, 22.0572, 17.9315, 1.2215, 3.72592, -0.0228162, -0.000145217, -0.000803022, 0.0013801, 0.00207743, -0.00564207, 0.00159596, 0.0153173, -0.0236491, 0.00169912, 0.0119686, 0.0488228, 0.0715385, -0.0108231, -0.44428, 0.634421, -3.13044, -0.0557009, -0.109858, -0.0109002, -0.443469, 0.63304, -3.12875, -0.0537608, -0.100893, 0.0104799, 0.0152035, -0.0218384, -0.00406134, -0.00898623, -0.021396
0.0932559, 0.107463, -0.774546, -0.918981, -1.46012, -0.627394, 1.06965, -0.256724, 0.0113906, 0.0025032, -0.0418171, -0.0318626, -0.0226714, 0.000665446, 0.00108719, -0.468376, 16.6718, 22.1683, 18.0426, 1.22699, 3.72592, -0.0750012, -0.000158651, -0.000778005, 0.00138238, 0.00206977, -0.00574541, 0.00162107, 0.0151443, -0.0239764, 0.00138807, 0.0102177, 0.0500111, 0.0711715, -0.0108125, -0.444265, 0.634399, -3.13039, -0.0557063, -0.109941, -0.0109018, -0.443479, 0.633014, -3.12871, -0.053728, -0.100814, 0.0107292, 0.0155269, -0.0223304, -0.00360595, -0.00898076, -0.0221905
0.0942559, 0.107478, -0.774536, -0.919021, -1.46015, -0.627419, 1.06965, -0.256729, 0.00927313, 0.00416811, -0.0428491, -0.0289283, -0.0260693, -9.88988e-05, -0.00144535, -0.508049, 16.5646, 22.1287, 18.0069, 1.23981, 3.74057, -0.0164075, -0.000170123, -0.000753371, 0.00137916, 0.00205123, -0.00584958, 0.00163017, 0.0174908, -0.0248251, 0.00257236, 0.0132722, 0.0529491, 0.069592, -0.0108016, -0.444249, 0.634376, -3.13034, -0.0557118, -0.110026, -0.0109017, -0.443489, 0.632994, -3.12869, -0.0537197, -0.100738, 0.0109812, 0.0158524, -0.0228265, -0.00574563, -0.00959811, -0.0216788
0.0952559, 0.107496, -0.774532, -0.919074, -1.46018, -0.627444, 1.06965, -0.256732, 0.0116673, 0.003702, -0.047274, -0.0301495, -0.0241799, -0.000845822, -0.000726207, -0.583427, 16.525, 22.2437, 17.9672, 1.25171, 3.76163, -0.0228162, -0.000186608, -0.000725947, 0.00137916, 0.00204036, -0.00594974, 0.00164961, 0.0176875, -0.0256359, 0.00130646, 0.0090365, 0.052645, 0.0713704, -0.0107905, -0.444233, 0.634353, -3.13029, -0.0557175, -0.110113, -0.0109059, -0.443501, 0.63297, -3.12865, -0.0536958, -0.100668, 0.0112358, 0.0161798, -0.0233269, -0.00556923, -0.0100752, -0.0234641
0.0962559, 0.107509, -0.774532, -0.919118, -1.46022, -0.627465, 1.06965, -0.256724, 0.0147985, 0.00246443, -0.0478141, -0.0305824, -0.0266782, -0.000563879, 0.00144864, -0.583427, 16.525, 22.2437, 18.0426, 1.25171, 3.76163, -0.0750012, -0.000201331, -0.000701031, 0.0013796, 0.0020317, -0.00605119, 0.00167147, 0.0174561, -0.0264748, 0.00143164, 0.010497, 0.0537048, 0.0729, -0.0107792, -0.444217, 0.634329, -3.13024, -0.0557233, -0.110202, -0.0109083, -0.44351, 0.632944, -3.12861, -0.0536684, -0.100599, 0.011493, 0.0165093, -0.0238314, -0.00505979, -0.0105773, -0.0238362
0.0972559, 0.107522, -0.774527, -0.919167, -1.46026, -0.627488, 1.06965, -0.256731, 0.0171313, 0.0024755, -0.0490978, -0.0348739, -0.0244846, -0.00142708, -0.00072966, -0.583427, 16.4893, 22.2794, 18.1537, 1.25812, 3.79001, -0.0292249, -0.000216476, -0.000675044, 0.00138177, 0.00202625, -0.00616336, 0.0016812, 0.0158462, -0.0264246, 0.000138533, 0.00638976, 0.0555658, 0.0816559, -0.0107676, -0.4442, 0.634305, -3.13018, -0.0557293, -0.110292, -0.0109106, -0.443519, 0.632917, -3.12857, -0.0536602, -0.100514, 0.0117529, 0.0168407, -0.0243401, -0.00310593, -0.0101259, -0.0255232
0.0982559, 0.107537, -0.77452, -0.919217, -1.4603, -0.627512, 1.06965, -0.256724, 0.0190007, 0.00331876, -0.0490581, -0.036178, -0.0228753, -0.000951384, 0.000971622, -0.583427, 16.4178, 22.2794, 18.1934, 1.26453, 3.79001, -0.0685925, -0.00023113, -0.000648179, 0.00138194, 0.00201628, -0.00627709, 0.00170622, 0.0143549, -0.0265881, 0.000300028, 0.0063361, 0.0560249, 0.0852767, -0.0107557, -0.444183, 0.634281, -3.13012, -0.0557354, -0.110385, -0.0109122, -0.44353, 0.632891, -3.12853, -0.0536282, -0.100429, 0.0120154, 0.017174, -0.0248528, -0.00136195, -0.00990512, -0.0257732
0.0992559, 0.107547, -0.774513, -0.91927, -1.46034, -0.627535, 1.06965, -0.256724, 0.0163873, 0.00397424, -0.0532504, -0.0369517, -0.0220684, -0.00117679, 0.000647748, -0.543754, 16.3425, 22.3151, 18.2291, 1.28284, 3.80466, -0.0685925, -0.000248597, -0.000621286, 0.00138397, 0.00201248, -0.00639327, 0.00172936, 0.016609, -0.0274484, -0.000502186, 0.00387691, 0.0570615, 0.0825892, -0.0107435, -0.444166, 0.634256, -3.13007, -0.0557417, -0.110479, -0.0109163, -0.44354, 0.632862, -3.12849, -0.0535996, -0.100342, 0.0122806, 0.0175091, -0.0253696, -0.00325645, -0.0105009, -0.0272584
0.100256, 0.107563, -0.774508, -0.919321, -1.46039, -0.627556, 1.06965, -0.256732, 0.0155217, 0.00348358, -0.0515244, -0.0406819, -0.0212401, -0.00132706, -0.00126359, -0.543754, 16.3068, 22.2794, 18.2648, 1.29474, 3.8193, -0.0228162, -0.000262436, -0.000595009, 0.00138667, 0.00201056, -0.00651194, 0.0017337, 0.015909, -0.02707, -0.000612322, 0.00345433, 0.0585799, 0.0892833, -0.0107311, -0.444148, 0.63423, -3.13001, -0.0557481, -0.110576, -0.0109165, -0.443549, 0.632833, -3.12844, -0.0536004, -0.100253, 0.0125483, 0.0178461, -0.0258904, -0.00229647, -0.00975988, -0.0278391
0.101256, 0.107576, -0.774503, -0.919383, -1.46044, -0.627576, 1.06965, -0.256733, 0.0139795, 0.00324956, -0.0538466, -0.0415313, -0.0201658, -0.00115597, -0.000842393, -0.508049, 16.2671, 22.3905, 18.3401, 1.29474, 3.82663, -0.0228162, -0.0002798, -0.000566559, 0.00139259, 0.00201605, -0.00663319, 0.00175346, 0.0172509, -0.0276585, -0.000929878, 0.00226708, 0.058309, 0.088543, -0.0107184, -0.44413, 0.634204, -3.12995, -0.0557547, -0.110674, -0.0109196, -0.443559, 0.632799, -3.12838, -0.0535778, -0.100161, 0.0128186, 0.0181849, -0.0264151, -0.00332005, -0.0100532, -0.0287827
0.102256, 0.107586, -0.77449, -0.919432, -1.46049, -0.627599, 1.06965, -0.256731, 0.0119787, 0.00467139, -0.0510679, -0.0412376, -0.0198749, -0.00100801, 0.000150482, -0.43267, 16.16, 22.3151, 18.3798, 1.30755, 3.83304, -0.0420422, -0.000292498, -0.000539475, 0.00139422, 0.00200765, -0.006765, 0.00177024, 0.0170445, -0.0273754, 0.000629023, 0.00551113, 0.0593241, 0.0896989, -0.0107055, -0.444112, 0.634177, -3.12989, -0.0557614, -0.110774, -0.0109181, -0.443568, 0.63277, -3.12834, -0.0535595, -0.100056, 0.0130915, 0.0185254, -0.0269437, -0.00296115, -0.00943892, -0.0277422
0.103256, 0.107597, -0.774479, -0.919483, -1.46054, -0.627622, 1.06966, -0.256726, 0.0074203, 0.0040418, -0.0531706, -0.046497, -0.0197587, -0.000434646, 0.000846306, -0.357292, 16.1203, 22.2794, 18.3798, 1.32587, 3.82663, -0.0621838, -0.00030653, -0.000511811, 0.00139649, 0.00200185, -0.00689615, 0.00179164, 0.0190071, -0.0277594, -0.000849297, 0.0029633, 0.0620205, 0.0876806, -0.0106922, -0.444093, 0.63415, -3.12983, -0.0557683, -0.110876, -0.0109176, -0.443578, 0.632739, -3.12829, -0.0535344, -0.0999533, 0.0133669, 0.0188676, -0.0274763, -0.00452372, -0.00953404, -0.0298942
0.104256, 0.107608, -0.774467, -0.919543, -1.4606, -0.627639, 1.06965, -0.256727, 0.0103739, 0.0035294, -0.0543492, -0.0487678, -0.0194412, -0.000527122, -0.000181781, -0.281914, 16.0846, 22.3548, 18.4552, 1.33777, 3.83304, -0.0420422, -0.000321435, -0.00048424, 0.00140279, 0.00201022, -0.00703292, 0.001807, 0.0179686, -0.0282084, -0.00143615, 0.00152218, 0.0631002, 0.0941567, -0.0106787, -0.444074, 0.634122, -3.12976, -0.0557754, -0.110981, -0.0109175, -0.443587, 0.632704, -3.12823, -0.0535193, -0.0998431, 0.0136449, 0.0192114, -0.0280126, -0.00315258, -0.00959609, -0.0309488
0.105256, 0.107614, -0.77446, -0.919594, -1.46066, -0.627657, 1.06965, -0.256725, 0.00856139, 0.0048409, -0.0555205, -0.0536649, -0.018529, -0.00116522, 0.000387439, -0.166862, 16.1203, 22.3151, 18.5266, 1.33136, 3.85501, -0.0557752, -0.000337073, -0.000458043, 0.00140697, 0.00201349, -0.0071673, 0.00182306, 0.0178838, -0.0281583, -0.00265129, -0.00165126, 0.0674923, 0.0959244, -0.0106649, -0.444055, 0.634094, -3.1297, -0.0557826, -0.111087, -0.0109179, -0.443594, 0.63267, -3.12817, -0.0535032, -0.0997391, 0.0139255, 0.0195569, -0.0285528, -0.00270292, -0.00918451, -0.0326974
0.106256, 0.107627, -0.774449, -0.919646, -1.46072, -0.627675, 1.06965, -0.256721, 0.0102013, 0.0067201, -0.0565275, -0.0555204, -0.0233593, -0.000505544, 0.00144509, -0.166862, 16.1203, 22.2794, 18.5266, 1.35608, 3.84768, -0.0878186, -0.000348567, -0.000430431, 0.00140972, 0.00201103, -0.00730519, 0.00183539, 0.0176674, -0.0292396, -0.0028538, 0.000466871, 0.0741993, 0.09648, -0.0106509, -0.444035, 0.634065, -3.12963, -0.05579, -0.111195, -0.010914, -0.443602, 0.632638, -3.12812, -0.0534928, -0.0996319, 0.0142086, 0.019904, -0.0290967, -0.00215035, -0.00990806, -0.0334398
0.107256, 0.107634, -0.77444, -0.919703, -1.46078, -0.627691, 1.06965, -0.256731, 0.00929234, 0.0031924, -0.0558788, -0.0585709, -0.0222277, -0.000608296, -0.00242745, -0.0914839, 16.1957, 22.3151, 18.4552, 1.3689, 3.85501, 0.00373412, -0.000365209, -0.000402008, 0.00141283, 0.00201177, -0.00744005, 0.00184322, 0.0183453, -0.0291605, -0.00314086, -0.000548419, 0.0720563, 0.104182, -0.0106365, -0.444015, 0.634036, -3.12957, -0.0557975, -0.111306, -0.0109149, -0.443611, 0.632604, -3.12806, -0.0534898, -0.0995314, 0.0144943, 0.0202526, -0.0296444, -0.00252243, -0.009501, -0.0343245
0.108256, 0.107645, -0.774431, -0.919752, -1.46084, -0.627706, 1.06965, -0.256723, 0.0126381, 0.00705004, -0.0526746, -0.0604824, -0.016556, -0.000948066, 0.00106046, -0.0557783, 16.2671, 22.2437, 18.4909, 1.3689, 3.86966, -0.0685925, -0.000376747, -0.000375475, 0.001416, 0.00201284, -0.00757969, 0.00185571, 0.0134593, -0.0280538, -0.00223795, -0.00120415, 0.0731529, 0.112277, -0.0106219, -0.443995, 0.634006, -3.1295, -0.0558053, -0.111418, -0.0109105, -0.443617, 0.63257, -3.128, -0.0534797, -0.0994254, 0.0147825, 0.0206027, -0.0301957, 0.00253299, -0.00788227, -0.033621
0.109256, 0.107648, -0.774414, -0.919802, -1.4609, -0.627722, 1.06964, -0.256731, 0.0111674, 0.00950177, -0.0519294, -0.0582292, -0.0127812, -0.00946868, -0.00173443, 0.0196001, 16.2314, 22.2437, 18.3798, 1.3808, 3.85501, -0.00267457, -0.000390522, -0.000348338, 0.00141649, 0.00200835, -0.00772709, 0.00186412, 0.0140243, -0.0263103, -0.00136525, -0.00714603, 0.0757538, 0.11693, -0.010607, -0.443974, 0.633975, -3.12943, -0.0558132, -0.111532, -0.0109082, -0.443624, 0.632537, -3.12795, -0.053476, -0.0993097, 0.0150731, 0.0209542, -0.0307507, 0.0021363, -0.00581777, -0.0333339
0.110256, 0.107652, -0.774398, -0.919848, -1.46097, -0.627737, 1.06965, -0.256728, 0.0101076, 0.0135333, -0.0467388, -0.0624961, -0.0140221, -0.00736532, -0.000172942, 0.0949785, 16.2314, 22.1683, 18.3798, 1.38721, 3.86233, -0.0292249, -0.000401001, -0.000321822, 0.00141777, 0.00200293, -0.00787785, 0.00187362, 0.0110056, -0.0257878, -0.000246598, -0.00234116, 0.0824426, 0.122004, -0.0105917, -0.443953, 0.633944, -3.12936, -0.0558213, -0.111649, -0.0109023, -0.44363, 0.632504, -3.12789, -0.0534708, -0.0991908, 0.0153663, 0.0213072, -0.0313093, 0.00534074, -0.00484847, -0.0325595
0.111256, 0.107654, -0.774388, -0.919894, -1.46104, -0.627753, 1.06965, -0.256723, 0.010183, 0.0107453, -0.0438029, -0.0657872, -0.0151852, -0.00576768, 0.00134277, 0.134651, 16.3425, 22.1287, 18.3798, 1.39911, 3.86966, -0.0685925, -0.000414446, -0.000294989, 0.00141909, 0.00199829, -0.00802608, 0.00188664, 0.0105153, -0.0258404, 0.000203288, 0.000509249, 0.0820036, 0.126121, -0.0105762, -0.443931, 0.633913, -3.12929, -0.0558295, -0.111768, -0.010899, -0.443635, 0.63247, -3.12783, -0.0534603, -0.099078, 0.015662, 0.0216616, -0.0318714, 0.00609536, -0.00453431, -0.0326409
0.112256, 0.10766, -0.774369, -0.919938, -1.46111, -0.627768, 1.06964, -0.256727, 0.0110723, 0.0115304, -0.0425173, -0.0652564, -0.0158362, -0.00479339, -0.000325525, 0.134651, 16.3425, 22.1287, 18.2648, 1.40552, 3.88339, -0.0356336, -0.000424511, -0.000268238, 0.00141733, 0.00198885, -0.00818053, 0.00188928, 0.00987491, -0.0262222, 0.00140827, 0.00386146, 0.0826465, 0.131256, -0.0105604, -0.443909, 0.63388, -3.12921, -0.055838, -0.111888, -0.0108923, -0.44364, 0.632439, -3.12778, -0.053466, -0.0989579, 0.0159602, 0.0220173, -0.0324371, 0.00696005, -0.00455097, -0.0319648
0.113256, 0.107657, -0.774365, -0.919983, -1.46117, -0.627781, 1.06964, -0.256724, 0.00592544, 0.0108243, -0.0413978, -0.0654134, -0.0124763, -0.00406787, 0.0056032, 0.245735, 16.525, 22.1287, 18.1537, 1.42383, 3.89804, -0.0621838, -0.000443483, -0.000241901, 0.001416, 0.00198336, -0.00832272, 0.00190714, 0.0115057, -0.025962, 0.00246774, 0.0050619, 0.0792929, 0.124935, -0.0105443, -0.443887, 0.633848, -3.12914, -0.0558466, -0.112011, -0.0108941, -0.443645, 0.632406, -3.12772, -0.0534484, -0.0988588, 0.0162609, 0.0223744, -0.0330063, 0.00555045, -0.00400346, -0.0315944
0.114256, 0.107655, -0.774339, -0.920023, -1.46125, -0.627796, 1.06964, -0.256728, 0.00387902, 0.014278, -0.0397416, -0.0715091, -0.0096888, -0.00214541, 0.00291783, 0.285408, 16.4178, 22.0929, 18.1537, 1.43573, 3.87607, -0.0292249, -0.000450785, -0.000215987, 0.00141532, 0.00197344, -0.00849393, 0.00190729, 0.00910064, -0.0255035, 0.00202663, 0.00464208, 0.0837854, 0.1335, -0.0105279, -0.443865, 0.633814, -3.12906, -0.0558554, -0.112136, -0.010884, -0.443649, 0.632372, -3.12767, -0.0534585, -0.0987169, 0.016564, 0.0227327, -0.033579, 0.00826598, -0.0030973, -0.0324333
0.115256, 0.107656, -0.774327, -0.920065, -1.46132, -0.627806, 1.06964, -0.256724, 0.0041566, 0.0115077, -0.0402304, -0.0719088, -0.00715705, -0.00161575, 0.00346823, 0.245735, 16.525, 22.1287, 18.118, 1.43573, 3.87607, -0.0621838, -0.000462464, -0.000189473, 0.00141445, 0.00196638, -0.00864809, 0.0019138, 0.0096153, -0.0257891, 0.00230022, 0.00433615, 0.0793811, 0.136508, -0.0105112, -0.443842, 0.633781, -3.12899, -0.0558644, -0.112263, -0.0108779, -0.443653, 0.632338, -3.12761, -0.0534589, -0.0986035, 0.0168696, 0.0230922, -0.034155, 0.00804941, -0.0030446, -0.0327785
0.116256, 0.107651, -0.774311, -0.920096, -1.46139, -0.62782, 1.06964, -0.25673, 0.00232497, 0.00797877, -0.0347904, -0.0690967, -0.0107097, -0.000978916, 0.000606102, 0.285408, 16.5646, 22.0572, 18.0783, 1.46686, 3.86966, -0.00999879, -0.000473823, -0.000164166, 0.00140806, 0.00194592, -0.00880649, 0.00191321, 0.0112215, -0.0258101, 0.00529743, 0.0125355, 0.0764088, 0.140797, -0.0104942, -0.443818, 0.633746, -3.12891, -0.0558736, -0.112393, -0.0108716, -0.443655, 0.632309, -3.12756, -0.0534701, -0.0984866, 0.0171776, 0.0234529, -0.0347344, 0.00654287, -0.00279604, -0.0304869
0.117256, 0.107645, -0.774297, -0.920133, -1.46146, -0.627828, 1.06964, -0.25672, -0.00216256, 0.0117198, -0.0334232, -0.0668229, -0.012618, -0.000756942, 0.00274425, 0.325081, 16.6003, 22.0929, 18.0426, 1.47876, 3.86966, -0.0685925, -0.000486372, -0.000138447, 0.00140269, 0.00193068, -0.00896138, 0.0019288, 0.0127337, -0.0260876, 0.00729169, 0.0174459, 0.0801584, 0.135374, -0.0104768, -0.443795, 0.633711, -3.12883, -0.0558829, -0.112524, -0.0108661, -0.443657, 0.632278, -3.12751, -0.0534566, -0.0983768, 0.017488, 0.0238148, -0.0353172, 0.00521301, -0.00278823, -0.029195
0.118256, 0.107634, -0.774282, -0.92017, -1.46154, -0.627843, 1.06964, -0.256724, -0.00634447, 0.00903369, -0.036245, -0.0727245, -0.0147728, -0.000311608, 0.00148232, 0.400459, 16.6003, 22.1683, 18.0783, 1.50989, 3.86233, -0.0557752, -0.000502196, -0.000111528, 0.00139857, 0.00191409, -0.00912595, 0.00193801, 0.0157477, -0.0268784, 0.00537684, 0.0148738, 0.0830773, 0.134593, -0.0104592, -0.443771, 0.633676, -3.12875, -0.0558925, -0.112658, -0.0108635, -0.443661, 0.632245, -3.12746, -0.0534532, -0.0982543, 0.0178009, 0.0241778, -0.0359033, 0.00268716, -0.00330017, -0.0319183
0.119256, 0.107639, -0.774267, -0.920203, -1.46161, -0.627854, 1.06964, -0.256727, -0.00179407, 0.010078, -0.0350811, -0.0726755, -0.0154263, -0.000266425, 0.000337878, 0.285408, 16.6003, 22.2437, 18.0426, 1.5163, 3.86233, -0.0356336, -0.000510659, -8.49572e-05, 0.00139086, 0.00189284, -0.0092858, 0.0019314, 0.0134655, -0.0271843, 0.00623799, 0.0168873, 0.0848255, 0.143094, -0.0104412, -0.443746, 0.633639, -3.12867, -0.0559023, -0.112794, -0.0108534, -0.443663, 0.632216, -3.12741, -0.0534743, -0.0981417, 0.0181163, 0.0245419, -0.0364926, 0.00522645, -0.00317171, -0.0314903
0.120256, 0.107624, -0.774256, -0.920227, -1.46168, -0.627861, 1.06964, -0.256724, -0.00628829, 0.0100594, -0.0283926, -0.0710857, -0.0114267, 4.96362e-05, 0.00128033, 0.360787, 16.636, 22.204, 18.0783, 1.5163, 3.85501, -0.0621838, -0.000524739, -6.07889e-05, 0.00137998, 0.00186564, -0.00943998, 0.00193932, 0.0130936, -0.0258246, 0.00940274, 0.0220556, 0.0805192, 0.146138, -0.0104229, -0.443722, 0.633603, -3.12858, -0.0559122, -0.112932, -0.010849, -0.443663, 0.632189, -3.12736, -0.0534729, -0.0980405, 0.018434, 0.0249071, -0.0370852, 0.00563817, -0.00147238, -0.0288905
0.121256, 0.107615, -0.774242, -0.920258, -1.46175, -0.627873, 1.06964, -0.256728, -0.00552547, 0.0085216, -0.0323489, -0.0698433, -0.00959362, -0.000271187, -0.000313343, 0.400459, 16.6003, 22.2794, 18.118, 1.54651, 3.86233, -0.0292249, -0.000539482, -3.49377e-05, 0.00137093, 0.00184392, -0.00960436, 0.00194262, 0.0147194, -0.0267959, 0.00917566, 0.0200767, 0.0774033, 0.148025, -0.0104044, -0.443697, 0.633565, -3.1285, -0.0559224, -0.113072, -0.0108447, -0.443665, 0.632159, -3.12731, -0.0534791, -0.0979252, 0.0187541, 0.0252732, -0.0376809, 0.00438862, -0.00213245, -0.0298427
0.122256, 0.107605, -0.77423, -0.920282, -1.46182, -0.627882, 1.06964, -0.256729, -0.00797125, 0.0127998, -0.0280644, -0.064776, -0.0115778, -0.00020555, -0.000643261, 0.436165, 16.6003, 22.3151, 18.118, 1.55292, 3.86233, -0.0164075, -0.000553735, -8.9174e-06, 0.00135702, 0.00180876, -0.00976045, 0.00194712, 0.0148408, -0.0267147, 0.0128104, 0.0282531, 0.0799115, 0.147914, -0.0103854, -0.443671, 0.633527, -3.12841, -0.0559327, -0.113214, -0.0108399, -0.443666, 0.632134, -3.12727, -0.0534831, -0.097826, 0.0190766, 0.0256403, -0.0382798, 0.00432486, -0.00173255, -0.0268281
0.123256, 0.107591, -0.774216, -0.920307, -1.46188, -0.627894, 1.06964, -0.256721, -0.00988344, 0.0154111, -0.0289659, -0.0673901, -0.0135315, -0.000155602, 0.00129685, 0.475838, 16.4893, 22.3905, 18.118, 1.57123, 3.86233, -0.0621838, -0.000570579, 1.69321e-05, 0.00134288, 0.00177586, -0.0099229, 0.0019669, 0.0153228, -0.027196, 0.0125504, 0.0286058, 0.0859759, 0.146095, -0.0103662, -0.443645, 0.633489, -3.12833, -0.0559433, -0.113359, -0.0108374, -0.443666, 0.632108, -3.12723, -0.0534638, -0.0977187, 0.0194015, 0.0260084, -0.0388819, 0.00420465, -0.00186044, -0.0277326
0.124256, 0.107586, -0.774212, -0.920327, -1.46195, -0.627906, 1.06963, -0.256729, -0.00860077, 0.013761, -0.0253912, -0.0678809, -0.0149678, -0.000626287, -0.00104552, 0.400459, 16.525, 22.4262, 18.1934, 1.58954, 3.87607, -0.00999879, -0.000584707, 4.18339e-05, 0.00132833, 0.00174379, -0.01008, 0.00195583, 0.0146253, -0.0269752, 0.0139077, 0.0318212, 0.0861184, 0.154342, -0.0103466, -0.443619, 0.633449, -3.12824, -0.0559541, -0.113506, -0.0108319, -0.443666, 0.632082, -3.12718, -0.0534925, -0.0976223, 0.0197288, 0.0263773, -0.039487, 0.00512032, -0.00126374, -0.026935
0.125256, 0.107576, -0.774208, -0.920351, -1.46201, -0.627915, 1.06963, -0.256723, -0.0127017, 0.0110886, -0.0237175, -0.0623542, -0.0165174, -0.00515287, 0.00149015, 0.400459, 16.4893, 22.5016, 18.1537, 1.62067, 3.87607, -0.0685925, -0.000603423, 6.88476e-05, 0.00131107, 0.00170492, -0.0102304, 0.00197035, 0.0189229, -0.0266489, 0.0163563, 0.0340386, 0.0834847, 0.147755, -0.0103267, -0.443593, 0.63341, -3.12815, -0.055965, -0.113655, -0.0108308, -0.443667, 0.632058, -3.12714, -0.0534815, -0.0975388, 0.0200585, 0.0267472, -0.0400951, 0.000976612, -0.000750648, -0.0254145
0.126256, 0.107564, -0.77421, -0.920373, -1.46207, -0.627928, 1.06963, -0.25673, -0.0126188, 0.00736672, -0.0231496, -0.0632586, -0.0166563, -0.00410809, -0.00116394, 0.400459, 16.525, 22.6127, 18.1934, 1.62616, 3.88339, -0.00999879, -0.000624569, 9.5426e-05, 0.00129479, 0.00166879, -0.0103826, 0.0019719, 0.0198547, -0.0271227, 0.0168351, 0.0357462, 0.0802058, 0.153702, -0.0103065, -0.443566, 0.633369, -3.12806, -0.0559762, -0.113807, -0.0108318, -0.443667, 0.632032, -3.1271, -0.053491, -0.0974548, 0.0203905, 0.0271178, -0.0407063, 0.000361167, -0.00089373, -0.0256248
0.127256, 0.107557, -0.774204, -0.920387, -1.46213, -0.627937, 1.06963, -0.256724, -0.01085, 0.00802395, -0.0169334, -0.0629864, -0.013023, -0.00723753, 0.0011664, 0.325081, 16.4178, 22.6127, 18.1934, 1.64447, 3.86966, -0.0621838, -0.000637899, 0.000121824, 0.00127364, 0.00161827, -0.0105352, 0.00197443, 0.0168438, -0.025344, 0.0190116, 0.0367225, 0.0795525, 0.161812, -0.010286, -0.443538, 0.633328, -3.12796, -0.0559876, -0.113961, -0.010825, -0.443667, 0.63201, -3.12707, -0.0534985, -0.0973734, 0.0207248, 0.0274892, -0.0413204, 0.00347314, 0.00133314, -0.0238358
0.128256, 0.107543, -0.774199, -0.920405, -1.4622, -0.627947, 1.06963, -0.256728, -0.0104954, 0.00433633, -0.016454, -0.0644303, -0.0143907, -0.00517183, -0.000673282, 0.285408, 16.3425, 22.6523, 18.2648, 1.65729, 3.86233, -0.0228162, -0.000656099, 0.000148129, 0.00125488, 0.00157589, -0.0106951, 0.00197533, 0.0176988, -0.0261347, 0.0193897, 0.0394957, 0.0770901, 0.166864, -0.0102651, -0.443511, 0.633287, -3.12787, -0.0559992, -0.114117, -0.0108225, -0.443666, 0.631986, -3.12703, -0.0535093, -0.0972824, 0.0210615, 0.0278614, -0.0419374, 0.00295734, 0.000878486, -0.0241501
0.129256, 0.107532, -0.774206, -0.920421, -1.46226, -0.627958, 1.06963, -0.256721, -0.0126341, -0.000964358, -0.0160012, -0.0656558, -0.0144786, -0.00418271, 0.000777235, 0.21003, 16.3782, 22.688, 18.3401, 1.64447, 3.86966, -0.0557752, -0.000676674, 0.000174998, 0.0012349, 0.0015306, -0.0108443, 0.00198439, 0.0200609, -0.0265711, 0.0197567, 0.0409482, 0.0724284, 0.166634, -0.0102438, -0.443483, 0.633244, -3.12777, -0.056011, -0.114275, -0.0108221, -0.443666, 0.631962, -3.12699, -0.0535074, -0.0972103, 0.0214005, 0.0282343, -0.0425574, 0.000929603, 0.000725407, -0.0245854
0.130256, 0.107521, -0.774207, -0.920434, -1.46232, -0.627967, 1.06963, -0.256719, -0.0111344, -0.00249555, -0.0148645, -0.0653536, -0.0156386, -0.0025936, 0.000996914, 0.134651, 16.3068, 22.688, 18.3798, 1.65729, 3.85501, -0.0685925, -0.000694858, 0.00020142, 0.00121222, 0.00148106, -0.0109973, 0.00198734, 0.0199191, -0.0272184, 0.0208619, 0.044719, 0.0710541, 0.170482, -0.0102223, -0.443454, 0.633201, -3.12768, -0.0560231, -0.114436, -0.0108192, -0.443665, 0.63194, -3.12695, -0.0535151, -0.097135, 0.0217418, 0.0286079, -0.0431802, 0.00135361, 0.000441336, -0.0241068
0.131256, 0.107506, -0.774211, -0.920449, -1.46237, -0.627978, 1.06962, -0.256726, -0.0140466, -0.00532176, -0.0149225, -0.0628286, -0.0157504, -0.00198982, -0.00177377, 0.0949785, 16.3068, 22.7237, 18.3044, 1.65088, 3.85501, -0.00267457, -0.000719209, 0.000229512, 0.00118693, 0.00142545, -0.011145, 0.00199267, 0.0228612, -0.0278455, 0.0223214, 0.0478354, 0.0666463, 0.171385, -0.0102004, -0.443425, 0.633158, -3.12758, -0.0560353, -0.114599, -0.0108223, -0.443665, 0.631919, -3.12692, -0.0535191, -0.0970708, 0.0220854, 0.0289822, -0.0438058, -0.00132054, 6.43554e-05, -0.0235038
0.132256, 0.107495, -0.774219, -0.920469, -1.46244, -0.627986, 1.06963, -0.256722, -0.00823012, -0.0082655, -0.0191161, -0.0655291, -0.0151649, -0.00125084, 0.00126117, -0.0161054, 16.3425, 22.7991, 18.4155, 1.62616, 3.84768, -0.0685925, -0.000740813, 0.000258035, 0.00116709, 0.00138095, -0.0112965, 0.0019993, 0.022098, -0.0291244, 0.0207392, 0.0445931, 0.0652057, 0.175066, -0.0101781, -0.443396, 0.633114, -3.12748, -0.0560478, -0.114764, -0.0108218, -0.443665, 0.631893, -3.12688, -0.0535218, -0.0970023, 0.0224314, 0.029357, -0.0444342, -5.38183e-05, -0.000793793, -0.0256722
0.133256, 0.107483, -0.77422, -0.92048, -1.4625, -0.627996, 1.06962, -0.256726, -0.00794422, -0.00446464, -0.0163529, -0.0615561, -0.0114291, -0.000980566, -0.00132766, -0.0914839, 16.2671, 22.7634, 18.4155, 1.62616, 3.84768, -0.00999879, -0.000759714, 0.000285539, 0.00114158, 0.00132423, -0.0114538, 0.00199572, 0.020298, -0.0287412, 0.0235454, 0.048623, 0.0636371, 0.182199, -0.0101555, -0.443367, 0.633069, -3.12738, -0.0560605, -0.114932, -0.0108188, -0.443664, 0.631872, -3.12684, -0.0535401, -0.0969278, 0.0227796, 0.0297325, -0.0450654, 0.00186754, -1.0043e-05, -0.0233739
0.134256, 0.107471, -0.774229, -0.920496, -1.46256, -0.628005, 1.06962, -0.256721, -0.00998558, -0.00351459, -0.0152353, -0.0593967, -0.0127268, 1.61794e-05, 0.000540328, -0.206535, 16.2671, 22.7634, 18.4552, 1.62067, 3.82663, -0.0484509, -0.000782285, 0.000313913, 0.0011178, 0.00127213, -0.011607, 0.00200369, 0.0214568, -0.0292674, 0.0253796, 0.0534162, 0.0639063, 0.179859, -0.0101325, -0.443337, 0.633024, -3.12728, -0.0560735, -0.115102, -0.0108189, -0.443664, 0.631848, -3.1268, -0.0535409, -0.0968617, 0.0231301, 0.0301084, -0.0456993, 0.000945738, -0.000227097, -0.0222747
0.135256, 0.107458, -0.774228, -0.920508, -1.46263, -0.628012, 1.06962, -0.256721, -0.00938731, -0.00107624, -0.0135368, -0.0607591, -0.0132273, -7.17166e-05, 0.000361177, -0.281914, 16.1957, 22.7237, 18.4909, 1.60144, 3.82663, -0.0484509, -0.000801043, 0.000341698, 0.00109305, 0.00121869, -0.0117704, 0.00200334, 0.0200516, -0.0292128, 0.0261743, 0.0552434, 0.0679008, 0.184822, -0.0101092, -0.443306, 0.632978, -3.12717, -0.0560866, -0.115274, -0.010815, -0.443662, 0.631825, -3.12677, -0.053555, -0.0967823, 0.0234829, 0.0304849, -0.0463358, 0.00263648, 0.000240719, -0.02202
0.136256, 0.10745, -0.774233, -0.920521, -1.46269, -0.628019, 1.06962, -0.256721, -0.00811311, -0.00566737, -0.0148109, -0.0597714, -0.0145866, 0.000161579, 4.14482e-06, -0.392998, 16.1203, 22.6523, 18.4552, 1.60785, 3.8193, -0.0420422, -0.000820747, 0.00037057, 0.00106646, 0.00116102, -0.0119265, 0.00200087, 0.0220472, -0.0302049, 0.0266075, 0.0565671, 0.0639805, 0.186815, -0.0100856, -0.443276, 0.632931, -3.12707, -0.0561, -0.115449, -0.0108117, -0.443661, 0.631803, -3.12673, -0.0535723, -0.0967169, 0.0238379, 0.0308619, -0.046975, 0.00100438, -0.000452758, -0.0223906
0.137256, 0.107437, -0.774243, -0.92054, -1.46276, -0.628026, 1.06962, -0.256718, -0.00801166, -0.0077176, -0.0176153, -0.06531, -0.0103, 0.000875114, 0.000986647, -0.468376, 16.1203, 22.6523, 18.5266, 1.58954, 3.79733, -0.0685925, -0.000844867, 0.000400236, 0.00104272, 0.00111048, -0.0120834, 0.00200758, 0.0217954, -0.0304417, 0.0247699, 0.0514267, 0.0623773, 0.19117, -0.0100616, -0.443245, 0.632884, -3.12696, -0.0561137, -0.115626, -0.0108123, -0.443661, 0.631777, -3.12668, -0.0535759, -0.0966522, 0.0241952, 0.0312393, -0.0476168, 0.00175409, -0.000281413, -0.0248545
0.138256, 0.107425, -0.774242, -0.920559, -1.46282, -0.628036, 1.06962, -0.256726, -0.0111266, -0.00254716, -0.0164376, -0.0627772, -0.0125974, 0.000819871, 0.00291901, -0.543754, 15.9735, 22.6523, 18.4552, 1.60144, 3.79001, -0.00267457, -0.000867169, 0.000430943, 0.00101668, 0.00105353, -0.0122524, 0.00200697, 0.0225289, -0.0307815, 0.0268454, 0.0563995, 0.0678965, 0.187078, -0.0100372, -0.443213, 0.632836, -3.12686, -0.0561275, -0.115806, -0.0108108, -0.443661, 0.631753, -3.12665, -0.0535911, -0.0965715, 0.0245547, 0.0316171, -0.0482612, 0.00123969, -0.000299586, -0.023493
0.139256, 0.107411, -0.77425, -0.920573, -1.46289, -0.628042, 1.06962, -0.256721, -0.0151388, -0.00148972, -0.0137217, -0.0667925, -0.00926254, 0.0010291, 0.00379623, -0.543754, 15.9378, 22.577, 18.4909, 1.59595, 3.77627, -0.0420422, -0.000888571, 0.00046022, 0.000991451, 0.000998491, -0.0124166, 0.00200967, 0.0219279, -0.0298895, 0.0272425, 0.0561837, 0.0691018, 0.190396, -0.0100124, -0.443182, 0.632787, -3.12675, -0.0561417, -0.115988, -0.0108081, -0.443659, 0.631728, -3.1266, -0.0536014, -0.0965004, 0.0249165, 0.0319953, -0.0489081, 0.00213629, 0.000982983, -0.0236957
0.140256, 0.107401, -0.774259, -0.920594, -1.46296, -0.628049, 1.06962, -0.256725, -0.0138975, -0.00392875, -0.0168437, -0.0679245, -0.00741663, 0.000937757, 0.00163814, -0.583427, 15.9021, 22.577, 18.4552, 1.60785, 3.76895, -0.00999879, -0.000912795, 0.000491024, 0.000967446, 0.000948884, -0.0125818, 0.00200827, 0.0228669, -0.0306331, 0.0265595, 0.0535801, 0.0665309, 0.195389, -0.00998734, -0.443149, 0.632738, -3.12664, -0.056156, -0.116172, -0.0108076, -0.443659, 0.6317, -3.12655, -0.0536185, -0.09643, 0.0252805, 0.0323738, -0.0495576, 0.00163938, 0.00059153, -0.0251102
0.141256, 0.107392, -0.774263, -0.920609, -1.46303, -0.628057, 1.06962, -0.256721, -0.0130192, -0.00064836, -0.0141192, -0.0689457, -0.00554502, 0.000881755, 0.00273684, -0.619133, 15.791, 22.5016, 18.4155, 1.60785, 3.76163, -0.0484509, -0.000932658, 0.000520663, 0.000941678, 0.000895104, -0.0127563, 0.00200692, 0.0203653, -0.0301275, 0.0277821, 0.0553046, 0.0693094, 0.201141, -0.00996188, -0.443117, 0.632688, -3.12652, -0.0561706, -0.116359, -0.0108027, -0.443657, 0.631674, -3.12651, -0.0536357, -0.0963476, 0.0256467, 0.0327526, -0.0502094, 0.00438722, 0.00154454, -0.0243571
0.142256, 0.107375, -0.774273, -0.920635, -1.46311, -0.628059, 1.06962, -0.256719, -0.0158328, -0.00636878, -0.0180179, -0.0716417, -0.00390977, 0.000576824, 0.00249863, -0.508049, 15.7513, 22.5413, 18.4552, 1.60144, 3.76163, -0.0621838, -0.00095969, 0.000552055, 0.000920323, 0.000852187, -0.0129263, 0.00201511, 0.0240842, -0.0308709, 0.0264037, 0.0512875, 0.0647438, 0.200316, -0.00993605, -0.443084, 0.632638, -3.12641, -0.0561854, -0.116548, -0.0108041, -0.443657, 0.631642, -3.12645, -0.0536389, -0.0962742, 0.0260151, 0.0331317, -0.0508638, 0.00117605, 0.00106502, -0.0266777
0.143256, 0.107367, -0.774282, -0.920653, -1.46319, -0.628064, 1.06962, -0.256726, -0.0141134, -0.00513172, -0.0180567, -0.0745276, -0.006406, 0.000918824, -0.000414216, -0.543754, 15.7513, 22.4659, 18.4155, 1.57764, 3.74698, -0.00267457, -0.000979914, 0.000583291, 0.00089487, 0.00079774, -0.0130978, 0.00200077, 0.0231577, -0.0314187, 0.0262245, 0.0522387, 0.0699395, 0.207717, -0.00990985, -0.44305, 0.632586, -3.1263, -0.0562005, -0.11674, -0.0107987, -0.443656, 0.631614, -3.1264, -0.0536768, -0.0962017, 0.0263857, 0.0335111, -0.0515205, 0.00250072, 0.000929321, -0.0274565
0.144256, 0.107358, -0.774288, -0.920675, -1.46326, -0.628067, 1.06961, -0.256718, -0.0137962, -0.0055781, -0.019032, -0.0761914, -0.00532679, 0.000606355, 0.00249568, -0.543754, 15.6799, 22.4262, 18.3401, 1.58954, 3.74698, -0.0750012, -0.00100342, 0.000614915, 0.000868993, 0.000746576, -0.0132722, 0.00200857, 0.0232826, -0.031695, 0.0260794, 0.0511281, 0.0703079, 0.208281, -0.00988328, -0.443017, 0.632535, -3.12618, -0.0562158, -0.116934, -0.0107962, -0.443655, 0.631586, -3.12635, -0.0536808, -0.0961266, 0.0267585, 0.0338906, -0.0521796, 0.00276737, 0.00102738, -0.0282794
0.145256, 0.107348, -0.774305, -0.920696, -1.46333, -0.628065, 1.06961, -0.256727, -0.0135218, -0.00927882, -0.0176068, -0.0759271, -0.00309715, 0.00063695, -0.00118254, -0.543754, 15.7513, 22.4262, 18.1934, 1.56482, 3.74057, 0.00373412, -0.001029, 0.000646228, 0.000842861, 0.000697666, -0.0134337, 0.00199583, 0.0237635, -0.0316301, 0.0271178, 0.0521594, 0.0650313, 0.216813, -0.00985633, -0.442983, 0.632482, -3.12606, -0.0562314, -0.11713, -0.0107954, -0.443653, 0.631557, -3.12629, -0.0537169, -0.0960744, 0.0271335, 0.0342704, -0.052841, 0.00258082, 0.00143721, -0.0279475
0.146256, 0.107333, -0.774316, -0.920714, -1.46342, -0.628066, 1.06961, -0.256723, -0.0119237, -0.00941827, -0.0169775, -0.0792842, -0.00241088, 0.000963683, 0.000484689, -0.468376, 15.7156, 22.3151, 18.1934, 1.56482, 3.72592, -0.0292249, -0.00105164, 0.000676548, 0.000819233, 0.000651395, -0.0136145, 0.00199258, 0.0223763, -0.0316807, 0.0269354, 0.0517966, 0.0667396, 0.221816, -0.00982901, -0.442948, 0.632429, -3.12594, -0.0562473, -0.117329, -0.0107912, -0.44365, 0.631525, -3.12623, -0.0537389, -0.0959942, 0.0275107, 0.0346502, -0.0535047, 0.00435313, 0.00181504, -0.0286962
0.147256, 0.107323, -0.774324, -0.92074, -1.4635, -0.628068, 1.06961, -0.256722, -0.00964375, -0.00950402, -0.0161973, -0.0782806, -0.00254501, 0.001691, 0.000599745, -0.43267, 15.6799, 22.3151, 18.0426, 1.58313, 3.69754, -0.0356336, -0.00107677, 0.000709899, 0.000793482, 0.000600507, -0.0137928, 0.001994, 0.0216348, -0.0321568, 0.0281521, 0.0546353, 0.0660862, 0.226553, -0.00980131, -0.442913, 0.632375, -3.12582, -0.0562634, -0.117531, -0.0107891, -0.44365, 0.631494, -3.12618, -0.0537537, -0.0959206, 0.02789, 0.0350302, -0.0541706, 0.00539496, 0.00172485, -0.0281055
0.148256, 0.107317, -0.774333, -0.920766, -1.46358, -0.628068, 1.0696, -0.256718, -0.010189, -0.00869497, -0.01955, -0.0790432, -0.00189136, 0.00139664, 0.000903993, -0.43267, 15.6046, 22.3548, 17.9672, 1.58313, 3.69021, -0.0484509, -0.00109959, 0.000742696, 0.000769673, 0.000555799, -0.0139762, 0.00199203, 0.0228064, -0.0329471, 0.0276994, 0.0528397, 0.0675346, 0.22641, -0.00977323, -0.442878, 0.63232, -3.1257, -0.0562797, -0.117734, -0.0107842, -0.443648, 0.631461, -3.12611, -0.0537744, -0.0958413, 0.0282715, 0.0354102, -0.0548388, 0.00466873, 0.00127685, -0.0293295
0.149256, 0.107305, -0.774349, -0.920781, -1.46366, -0.628067, 1.0696, -0.256718, -0.00929895, -0.0110375, -0.0206379, -0.0816007, 0.00765129, 0.00147216, 0.000150028, -0.357292, 15.6442, 22.204, 17.8204, 1.57123, 3.67557, -0.0356336, -0.00112328, 0.00077298, 0.000742029, 0.000504814, -0.0141536, 0.00198054, 0.021412, -0.0323512, 0.0271857, 0.0475346, 0.0600122, 0.235675, -0.00974476, -0.442843, 0.632265, -3.12558, -0.0562963, -0.117941, -0.0107802, -0.443644, 0.631431, -3.12605, -0.0538098, -0.0957742, 0.0286551, 0.0357903, -0.0555092, 0.00645582, 0.00230602, -0.0304068
0.150256, 0.107298, -0.774358, -0.920806, -1.46376, -0.628067, 1.06959, -0.256722, -0.00675657, -0.00659867, -0.0213158, -0.0860065, 0.00547211, -0.00305682, -0.00134148, -0.357292, 15.5688, 22.1683, 17.7808, 1.57764, 3.66092, 0.00373412, -0.00114402, 0.000806174, 0.000719633, 0.00046022, -0.0143457, 0.00196353, 0.0195279, -0.0319564, 0.0260403, 0.0430717, 0.0716659, 0.242919, -0.00971592, -0.442807, 0.632209, -3.12545, -0.0563132, -0.11815, -0.0107724, -0.443642, 0.631396, -3.12599, -0.0538545, -0.0956865, 0.0290408, 0.0361704, -0.0561817, 0.00878801, 0.00316105, -0.0320809
0.151256, 0.107287, -0.774377, -0.920827, -1.46385, -0.628067, 1.06959, -0.256718, -0.00668557, -0.00918962, -0.0217021, -0.0865373, 0.00410453, -0.00136918, 0.00155951, -0.281914, 15.6046, 22.1287, 17.634, 1.57764, 3.63254, -0.0621838, -0.00116943, 0.000839234, 0.000694346, 0.000410068, -0.0145276, 0.00195905, 0.0207274, -0.032871, 0.0265382, 0.0456729, 0.0700003, 0.24203, -0.00968668, -0.44277, 0.632153, -3.12533, -0.0563304, -0.118361, -0.0107691, -0.44364, 0.631362, -3.12593, -0.0538797, -0.0956173, 0.0294287, 0.0365505, -0.0568564, 0.00797363, 0.00257402, -0.032368
0.152256, 0.107273, -0.77439, -0.920847, -1.46394, -0.628067, 1.06959, -0.256724, -0.00967238, -0.0125012, -0.0211599, -0.0911362, 0.00331605, -0.00589292, -0.00162978, -0.206535, 15.5688, 22.0572, 17.5189, 1.57123, 3.63254, 0.0101428, -0.00119431, 0.000871434, 0.000668424, 0.000361499, -0.0147179, 0.00194494, 0.0229159, -0.0320914, 0.0255895, 0.0410856, 0.0728802, 0.247218, -0.00965706, -0.442734, 0.632096, -3.1252, -0.0563478, -0.118575, -0.0107649, -0.443637, 0.631328, -3.12586, -0.0539204, -0.0955376, 0.0298187, 0.0369305, -0.0575331, 0.0062232, 0.00366636, -0.0341544
0.153256, 0.10726, -0.774404, -0.920872, -1.46404, -0.628068, 1.06958, -0.256719, -0.0118578, -0.0127554, -0.022524, -0.0951947, 0.00202664, -0.00402623, 0.00136188, -0.131157, 15.5688, 22.0572, 17.4435, 1.58313, 3.6188, -0.0557752, -0.00121955, 0.000904418, 0.000646188, 0.000320709, -0.0149179, 0.00194086, 0.0239746, -0.0328864, 0.024907, 0.0415274, 0.0757121, 0.245081, -0.00962704, -0.442696, 0.632038, -3.12507, -0.0563654, -0.118791, -0.0107604, -0.443634, 0.63129, -3.12579, -0.0539462, -0.0954447, 0.0302108, 0.0373105, -0.0582119, 0.00563829, 0.00322141, -0.0356114
0.154256, 0.107256, -0.774419, -0.92089, -1.46414, -0.628066, 1.06958, -0.256718, -0.00770496, -0.0120017, -0.0175285, -0.0985004, 0.00222183, -0.007526, 0.000404532, -0.166862, 15.5331, 21.9422, 17.3721, 1.56482, 3.61148, -0.0420422, -0.00123795, 0.000936159, 0.000621909, 0.000275821, -0.0151166, 0.00191579, 0.0203075, -0.0315063, 0.0256033, 0.0408166, 0.0804593, 0.258348, -0.00959664, -0.442659, 0.631979, -3.12494, -0.0563834, -0.11901, -0.0107489, -0.443629, 0.631253, -3.12572, -0.0540047, -0.0953569, 0.0306049, 0.0376903, -0.0588927, 0.00958074, 0.00509665, -0.0353088
0.155256, 0.10724, -0.774432, -0.920913, -1.46425, -0.628065, 1.06957, -0.256723, -0.00821132, -0.0114222, -0.0157861, -0.103974, 0.000947477, -0.00493275, -0.00165916, -0.0557783, 15.4935, 21.9065, 17.2968, 1.58313, 3.58951, 0.0101428, -0.00126333, 0.00096877, 0.000598858, 0.000234084, -0.015321, 0.00190072, 0.0190009, -0.0317719, 0.0253999, 0.0430049, 0.0845674, 0.26605, -0.00956583, -0.442621, 0.63192, -3.12481, -0.0564016, -0.119232, -0.0107438, -0.443625, 0.631214, -3.12564, -0.0540481, -0.0952625, 0.0310012, 0.03807, -0.0595756, 0.0113014, 0.0052571, -0.0361049
0.156256, 0.10723, -0.774453, -0.920928, -1.46435, -0.628064, 1.06956, -0.256717, -0.00988323, -0.0129399, -0.01583, -0.102979, 0.00073997, -0.00889279, 0.00082962, -0.0161054, 15.5331, 21.7954, 17.146, 1.58313, 3.59683, -0.0420422, -0.00128694, 0.00100004, 0.000573146, 0.000189438, -0.0155202, 0.00188598, 0.0212341, -0.0314829, 0.0260806, 0.0414946, 0.084925, 0.263859, -0.00953463, -0.442583, 0.63186, -3.12467, -0.0564201, -0.119456, -0.0107368, -0.443619, 0.631177, -3.12557, -0.0540912, -0.0951789, 0.0313996, 0.0384495, -0.0602603, 0.00940927, 0.00583222, -0.0362854
0.157256, 0.107219, -0.774465, -0.920954, -1.46447, -0.628065, 1.06956, -0.256722, -0.0143474, -0.0142779, -0.0203531, -0.109275, 9.98343e-05, -0.0105998, 0.00362374, 0.0196001, 15.4578, 21.8708, 17.146, 1.59595, 3.57577, 0.00373412, -0.0013085, 0.00103376, 0.000553523, 0.000152034, -0.0157399, 0.0018625, 0.0244581, -0.0319838, 0.02356, 0.0353486, 0.0895538, 0.258703, -0.00950303, -0.442544, 0.6318, -3.12454, -0.0564389, -0.119682, -0.0107268, -0.443615, 0.631134, -3.12549, -0.0536485, -0.0950653, 0.0318, 0.0388288, -0.060947, 0.00680475, 0.00563249, -0.0397462
0.158256, 0.107199, -0.774481, -0.920966, -1.46458, -0.628067, 1.06955, -0.256717, -0.0131853, -0.0140959, -0.0189452, -0.110173, -0.000550683, -0.00724632, 0.0045099, 0.134651, 15.4578, 21.7597, 16.9992, 1.61426, 3.5538, -0.0420422, -0.00133293, 0.00106451, 0.000527629, 0.000104642, -0.0159551, 0.00185042, 0.0233784, -0.0327169, 0.024669, 0.0401522, 0.0894746, 0.262851, -0.00947103, -0.442505, 0.631738, -3.1244, -0.0564579, -0.119911, -0.0107199, -0.443608, 0.631096, -3.12542, -0.053689, -0.094962, 0.0322025, 0.0392079, -0.0616356, 0.00822266, 0.00529668, -0.0392636
0.159256, 0.107191, -0.774499, -0.92099, -1.4647, -0.628065, 1.06954, -0.256716, -0.00948698, -0.0171766, -0.0184638, -0.11291, 0.000153293, -0.00972314, 0.00354294, 0.134651, 15.4578, 21.7954, 16.9238, 1.60144, 3.53915, -0.0484509, -0.0013552, 0.00109763, 0.000506716, 6.91702e-05, -0.0161718, 0.00182715, 0.022447, -0.0324378, 0.0242475, 0.0372599, 0.0893267, 0.272256, -0.00943863, -0.442466, 0.631676, -3.12426, -0.0564773, -0.120143, -0.01071, -0.443603, 0.631052, -3.12534, -0.0537478, -0.0948584, 0.032607, 0.0395867, -0.062326, 0.0095745, 0.00599076, -0.0403069
0.160256, 0.107175, -0.77452, -0.921002, -1.46482, -0.628068, 1.06953, -0.256723, -0.0117614, -0.0161443, -0.0144785, -0.112626, -0.00077906, -0.00692317, 0.000178704, 0.21003, 15.4578, 21.6843, 16.8842, 1.62616, 3.52542, 0.0165515, -0.00137883, 0.00112972, 0.000481495, 2.00179e-05, -0.0163889, 0.00179707, 0.0221512, -0.0325663, 0.0265464, 0.0443062, 0.0896765, 0.278454, -0.00940582, -0.442426, 0.631614, -3.12412, -0.0564969, -0.120377, -0.0107013, -0.443596, 0.631012, -3.12526, -0.053817, -0.0947576, 0.0330136, 0.0399652, -0.0630183, 0.0101016, 0.00621122, -0.0386941
0.161256, 0.10716, -0.774542, -0.92102, -1.46495, -0.628068, 1.06952, -0.256716, -0.0149218, -0.0153314, -0.017409, -0.115936, -0.000493669, -0.00532773, 0.00269481, 0.21003, 15.4578, 21.6843, 16.8842, 1.62616, 3.52542, -0.0484509, -0.00140271, 0.00116131, 0.000459638, -1.64879e-05, -0.0166124, 0.0017789, 0.0237171, -0.0334267, 0.0257142, 0.0433769, 0.0921048, 0.275036, -0.0093726, -0.442386, 0.63155, -3.12398, -0.0565168, -0.120614, -0.0106923, -0.443589, 0.630968, -3.12517, -0.0538686, -0.0946485, 0.0334222, 0.0403434, -0.0637123, 0.00904243, 0.00568381, -0.0403584
0.162256, 0.107144, -0.774567, -0.921028, -1.46507, -0.62807, 1.06951, -0.25672, -0.0149616, -0.0186393, -0.013742, -0.114589, -0.000988002, -0.00900121, 0.000498523, 0.245735, 15.4935, 21.5732, 16.8484, 1.64447, 3.53274, -0.00999879, -0.00142664, 0.00119216, 0.000433522, -6.31469e-05, -0.0168335, 0.00174693, 0.024671, -0.0326082, 0.0274695, 0.0445721, 0.090412, 0.281722, -0.00933897, -0.442345, 0.631486, -3.12384, -0.056537, -0.120853, -0.0106833, -0.44358, 0.630927, -3.12509, -0.0539416, -0.0945467, 0.0338328, 0.0407212, -0.0644081, 0.00833447, 0.00681334, -0.0393757
0.163256, 0.107129, -0.774589, -0.921039, -1.4652, -0.628069, 1.0695, -0.256719, -0.017289, -0.0202876, -0.0128383, -0.117503, -0.0002034, -0.0108309, 0.000901668, 0.245735, 15.4935, 21.5336, 16.8484, 1.63257, 3.5181, -0.0228162, -0.00144842, 0.00122355, 0.000409097, -0.000106994, -0.017059, 0.00171713, 0.0257185, -0.032149, 0.0274302, 0.0429128, 0.0913376, 0.284212, -0.00930493, -0.442304, 0.631421, -3.1237, -0.0565575, -0.121095, -0.0106716, -0.443572, 0.630884, -3.12501, -0.0540117, -0.0944403, 0.0342455, 0.0410986, -0.0651057, 0.00768635, 0.00760913, -0.0401961
0.164256, 0.107108, -0.774609, -0.921047, -1.46533, -0.628071, 1.06949, -0.256717, -0.0178002, -0.0197931, -0.0145116, -0.122831, -0.00104028, -0.0126154, 0.000197345, 0.325081, 15.4221, 21.4582, 16.8484, 1.65729, 3.51077, -0.00999879, -0.00147157, 0.00125456, 0.000383778, -0.000154209, -0.0172945, 0.00169182, 0.0259804, -0.032232, 0.0259486, 0.0390161, 0.0973091, 0.288104, -0.00927048, -0.442263, 0.631356, -3.12355, -0.0565783, -0.121339, -0.0106609, -0.443563, 0.630842, -3.12493, -0.0540752, -0.0943211, 0.0346601, 0.0414756, -0.0658049, 0.00795434, 0.00791453, -0.0424025
0.165256, 0.107088, -0.774644, -0.921061, -1.46546, -0.628067, 1.06948, -0.256717, -0.0162963, -0.0269183, -0.0121671, -0.126043, -0.000210671, -0.014204, -0.00032385, 0.325081, 15.5331, 21.4979, 16.8127, 1.64447, 3.51077, 0.00373412, -0.00150079, 0.00128601, 0.000359177, -0.000193108, -0.0175106, 0.00166576, 0.0264233, -0.031736, 0.025928, 0.0376431, 0.092813, 0.296673, -0.00923561, -0.442221, 0.63129, -3.1234, -0.0565994, -0.121587, -0.0106558, -0.443554, 0.630797, -3.12484, -0.0541403, -0.0942344, 0.0350768, 0.0418522, -0.0665058, 0.00791005, 0.00876752, -0.0431605
0.166256, 0.107068, -0.774672, -0.921063, -1.46559, -0.628066, 1.06947, -0.256716, -0.0152016, -0.0272723, -0.0106996, -0.129776, -0.000371707, -0.0147281, 0.00128207, 0.325081, 15.5688, 21.4225, 16.8484, 1.65088, 3.48971, -0.0356336, -0.00152394, 0.00131587, 0.000332481, -0.000240106, -0.0177413, 0.00163154, 0.025272, -0.0315245, 0.0258446, 0.0373087, 0.0956576, 0.301784, -0.00920033, -0.442179, 0.631223, -3.12326, -0.0566208, -0.121836, -0.0106444, -0.443543, 0.630754, -3.12476, -0.0542183, -0.0941279, 0.0354954, 0.0422282, -0.0672083, 0.00947132, 0.00939351, -0.0438622
0.167256, 0.107042, -0.774705, -0.92107, -1.46573, -0.62807, 1.06945, -0.256723, -0.0184222, -0.0301537, -0.0113922, -0.135232, -0.000480589, -0.0162837, -0.00128549, 0.360787, 15.5688, 21.4225, 16.8842, 1.65729, 3.50345, 0.0229602, -0.00155342, 0.00134631, 0.00030731, -0.000282409, -0.0179773, 0.00159873, 0.0272395, -0.0313669, 0.0245992, 0.0337774, 0.0976135, 0.306043, -0.00916462, -0.442137, 0.631155, -3.12311, -0.0566425, -0.122088, -0.0106388, -0.443532, 0.630708, -3.12467, -0.0542947, -0.0940158, 0.0359161, 0.0426038, -0.0679124, 0.00801965, 0.00987384, -0.0459686
0.168256, 0.10702, -0.774736, -0.921072, -1.46587, -0.628071, 1.06944, -0.256718, -0.0159912, -0.0312282, -0.00787783, -0.135069, -0.000316961, -0.0165462, 0.00109823, 0.325081, 15.5331, 21.3868, 16.8484, 1.65729, 3.49612, -0.0292249, -0.0015791, 0.00137631, 0.000279999, -0.000329704, -0.0182125, 0.00157035, 0.0257535, -0.0310622, 0.026243, 0.0368994, 0.0967688, 0.311455, -0.00912849, -0.442094, 0.631087, -3.12296, -0.0566645, -0.122343, -0.0106292, -0.443521, 0.630664, -3.12458, -0.0543643, -0.0939077, 0.0363387, 0.0429789, -0.068618, 0.00978039, 0.0105744, -0.044924
0.169256, 0.106995, -0.774773, -0.921071, -1.46602, -0.628069, 1.06942, -0.256722, -0.0176224, -0.0330365, -0.00432733, -0.138911, -0.000446093, -0.017127, -0.000709069, 0.325081, 15.5331, 21.3114, 16.8484, 1.66369, 3.49612, 0.0101428, -0.00160502, 0.00140438, 0.000253914, -0.000370909, -0.018449, 0.00152661, 0.0255493, -0.0303834, 0.026754, 0.0378435, 0.0981316, 0.318946, -0.00909194, -0.442051, 0.631018, -3.1228, -0.0566868, -0.122601, -0.0106194, -0.443507, 0.630619, -3.12449, -0.0544586, -0.0938, 0.0367632, 0.0433533, -0.0693252, 0.0103402, 0.0116216, -0.045105
0.170256, 0.106969, -0.774814, -0.921072, -1.46618, -0.628066, 1.06941, -0.256723, -0.0198417, -0.035012, -0.00351389, -0.143664, 0.000179253, -0.0170124, -0.000697444, 0.325081, 15.5688, 21.3114, 16.9238, 1.65088, 3.48239, 0.0165515, -0.00163098, 0.00143345, 0.000230616, -0.000409001, -0.0186882, 0.00148413, 0.0261385, -0.0302028, 0.026291, 0.0368174, 0.0991022, 0.322783, -0.00905497, -0.442007, 0.630949, -3.12265, -0.0567094, -0.122861, -0.0106089, -0.443494, 0.630569, -3.12439, -0.0545515, -0.0936906, 0.0371897, 0.0437272, -0.0700339, 0.0102059, 0.012159, -0.0463281
0.171256, 0.106939, -0.774849, -0.921072, -1.46633, -0.628067, 1.06939, -0.256714, -0.0211788, -0.0338965, -0.00281435, -0.143266, -0.000353769, -0.0172643, 0.00147729, 0.325081, 15.4935, 21.3114, 16.8484, 1.66369, 3.47507, -0.0356336, -0.00165982, 0.00146273, 0.000204048, -0.000452534, -0.018934, 0.00146068, 0.0267601, -0.0303844, 0.0274311, 0.0389922, 0.10088, 0.322043, -0.00901756, -0.441964, 0.630878, -3.12249, -0.0567323, -0.123123, -0.0106012, -0.443481, 0.630522, -3.12429, -0.0546149, -0.0935736, 0.0376182, 0.0441005, -0.0707441, 0.00992901, 0.0123045, -0.0459628
0.172256, 0.106919, -0.774892, -0.92107, -1.46649, -0.628067, 1.06938, -0.256723, -0.0186756, -0.0375505, -0.00223005, -0.150525, 2.59878e-06, -0.0168656, -0.00141554, 0.170357, 15.4578, 21.3114, 16.8484, 1.65729, 3.45309, 0.0293689, -0.00168385, 0.00149157, 0.000179876, -0.00049135, -0.0191789, 0.00140143, 0.0253608, -0.0303369, 0.0259408, 0.0363009, 0.101958, 0.334497, -0.00897973, -0.441919, 0.630807, -3.12233, -0.0567555, -0.123389, -0.010588, -0.443466, 0.630472, -3.1242, -0.0547347, -0.093461, 0.0380486, 0.0444731, -0.0714557, 0.0118652, 0.0127967, -0.0480579
0.173256, 0.106879, -0.774934, -0.921062, -1.46664, -0.628066, 1.06936, -0.256718, -0.0295858, -0.0401219, 1.11764e-05, -0.153047, 0.00455986, -0.0164059, 0.000994417, 0.285408, 15.4221, 21.236, 16.8127, 1.65088, 3.42471, -0.0228162, -0.00171523, 0.00151928, 0.000151606, -0.000539009, -0.0194234, 0.001373, 0.0291512, -0.0294086, 0.0268661, 0.0365814, 0.097553, 0.329113, -0.00894147, -0.441875, 0.630735, -3.12218, -0.056779, -0.123657, -0.0105821, -0.443451, 0.630425, -3.1241, -0.0548064, -0.0933517, 0.0384809, 0.044845, -0.0721687, 0.00841098, 0.0139404, -0.0481447
0.174256, 0.106853, -0.774986, -0.921051, -1.4668, -0.628067, 1.06934, -0.256719, -0.028832, -0.047637, 0.00240689, -0.157708, 0.00292579, -0.0164784, -0.000553763, 0.170357, 15.4578, 21.1249, 16.7731, 1.66369, 3.40365, 0.0101428, -0.0017428, 0.00154663, 0.00012413, -0.000583337, -0.019667, 0.00132209, 0.0300655, -0.0293479, 0.0265845, 0.0368619, 0.0947424, 0.337629, -0.00890277, -0.44183, 0.630663, -3.12202, -0.0568029, -0.123927, -0.010572, -0.443435, 0.630377, -3.12401, -0.0549137, -0.0932467, 0.0389151, 0.0452163, -0.0728831, 0.00795079, 0.0143405, -0.0492215
0.175256, 0.106823, -0.77504, -0.921048, -1.46697, -0.628064, 1.06932, -0.256721, -0.0302689, -0.0482312, 0.00145532, -0.162509, 0.00337387, -0.0164787, -0.00131561, 0.134651, 15.4578, 21.1249, 16.7731, 1.63257, 3.38168, 0.0357776, -0.00177393, 0.00157462, 0.00010005, -0.000617484, -0.0199103, 0.00127475, 0.0305143, -0.0294896, 0.0256328, 0.034687, 0.0974129, 0.341623, -0.00886363, -0.441784, 0.630589, -3.12185, -0.0568271, -0.1242, -0.0105646, -0.443419, 0.630324, -3.1239, -0.0550162, -0.0931441, 0.0393512, 0.0455868, -0.0735988, 0.00801686, 0.0145664, -0.050934
0.176256, 0.106789, -0.77509, -0.921042, -1.46714, -0.628061, 1.0693, -0.25672, -0.0314115, -0.0472261, 0.00572711, -0.164105, 0.00221473, -0.0206968, 0.000549325, 0.0949785, 15.3864, 21.0496, 16.6977, 1.63898, 3.34598, -0.00267457, -0.00180364, 0.00160287, 7.43323e-05, -0.000658562, -0.0201606, 0.00123126, 0.0300752, -0.0282107, 0.0268185, 0.034884, 0.102737, 0.344815, -0.00882406, -0.441738, 0.630515, -3.12169, -0.0568516, -0.124476, -0.0105555, -0.443403, 0.630273, -3.12379, -0.055113, -0.0930337, 0.0397893, 0.0459565, -0.0743159, 0.00874767, 0.0162038, -0.0504248
0.177256, 0.106754, -0.775143, -0.921034, -1.46732, -0.628057, 1.06928, -0.256719, -0.0323841, -0.0507437, 0.00575615, -0.168199, 0.00162862, -0.0194002, -0.000106816, 0.059273, 15.3467, 20.9742, 16.7374, 1.63898, 3.31759, 0.0101428, -0.00183265, 0.00162968, 5.16678e-05, -0.00069122, -0.0204167, 0.00118057, 0.0310882, -0.0286336, 0.0263635, 0.0350844, 0.102139, 0.349109, -0.00878406, -0.441692, 0.630441, -3.12153, -0.0568764, -0.124755, -0.0105452, -0.443385, 0.630217, -3.12368, -0.0552218, -0.0929166, 0.0402292, 0.0463255, -0.0750342, 0.00822664, 0.016118, -0.0516945
0.178256, 0.106719, -0.775202, -0.921026, -1.4675, -0.628057, 1.06926, -0.256718, -0.0330449, -0.0530061, 0.00879825, -0.167502, 0.000759033, -0.0182446, 0.00115076, 0.0196001, 15.311, 20.9028, 16.6223, 1.65088, 3.28097, -0.0228162, -0.00186672, 0.0016581, 2.48054e-05, -0.000733362, -0.020665, 0.00113819, 0.0316481, -0.0287581, 0.0282497, 0.0400153, 0.0998456, 0.351513, -0.00874361, -0.441646, 0.630365, -3.12136, -0.0569015, -0.125036, -0.0105397, -0.443369, 0.630165, -3.12358, -0.0553175, -0.0928147, 0.040671, 0.0466936, -0.0757538, 0.00796153, 0.0163022, -0.0505917
0.179256, 0.106686, -0.775261, -0.921015, -1.46768, -0.628053, 1.06924, -0.256722, -0.0357745, -0.0557047, 0.0120023, -0.171693, 0.00171057, -0.0184009, -0.00140202, -0.0557783, 15.311, 20.7917, 16.5866, 1.62067, 3.27456, 0.0357776, -0.0018964, 0.00168451, 3.62478e-07, -0.000767144, -0.0209219, 0.00107837, 0.0319965, -0.0280548, 0.0286144, 0.040434, 0.0995555, 0.359139, -0.00870271, -0.441599, 0.630289, -3.12119, -0.056927, -0.12532, -0.0105292, -0.44335, 0.63011, -3.12346, -0.0554413, -0.092702, 0.0411146, 0.0470609, -0.0764746, 0.00799909, 0.0173482, -0.0509767
0.180256, 0.106645, -0.775318, -0.921001, -1.46786, -0.628053, 1.06922, -0.256724, -0.0365472, -0.0550324, 0.0120639, -0.174402, 0.00120456, -0.0175623, -0.000933969, -0.0557783, 15.1999, 20.6409, 16.5112, 1.62067, 3.24527, 0.0357776, -0.00192835, 0.00171124, -2.57747e-05, -0.000807735, -0.021185, 0.00102684, 0.0319716, -0.0283758, 0.0286937, 0.0412985, 0.102415, 0.36183, -0.00866138, -0.441552, 0.630212, -3.12102, -0.0569528, -0.125606, -0.0105207, -0.443331, 0.630055, -3.12335, -0.0555523, -0.0925825, 0.0415602, 0.0474273, -0.0771966, 0.008471, 0.0173884, -0.0516337
0.181256, 0.10661, -0.775384, -0.920996, -1.46806, -0.628047, 1.0692, -0.256715, -0.0352917, -0.0605181, 0.0147755, -0.179122, 0.0017667, -0.0222642, 0.00154803, -0.131157, 15.1999, 20.6409, 16.5509, 1.59595, 3.23153, -0.0228162, -0.00196102, 0.00173854, -4.61407e-05, -0.000832732, -0.0214447, 0.000979941, 0.0320201, -0.0271174, 0.0281385, 0.0369259, 0.102364, 0.3681, -0.00861959, -0.441504, 0.630135, -3.12085, -0.0569789, -0.125895, -0.010512, -0.443312, 0.629994, -3.12323, -0.0556572, -0.0924703, 0.0420076, 0.0477929, -0.0779197, 0.00886378, 0.0190153, -0.0529047
