alisrour97/Franka_experiments/Real_Robot_scripts/servo-franka/Data4/log_dyn_PIw_ki_7.csv
Time,q1,q2,q3,q4,q5,q6,q7,dq1,dq2,dq3,dq4,dq5,dq6,dq7,t1,t2,t3,t4,t5,t6,t7,ex1,ex2,ex3,ex4,ex5,ex6,ev1,ev2,ev3,ev4,ev5,ev6,xd,yd,zd,uxd,uyd,uzd,x,y,z,ux,uy,uz,vxd,vyd,vzd,vx,vy,vz
1.2207e-06, 0.107649, -0.774304, -0.917226, -1.45794, -0.625442, 1.06937, -0.256733, -0.00407755, -0.00589813, 0.00620765, 0.00435595, -2.14429e-05, -0.0010378, -0.000195602, 0.0949785, 16.4178, 21.8708, 18.7527, 1.35608, 4.7156, -0.153737, 0.000735788, -0.00169661, 0.000902087, 0.00218072, -0.00156094, 0.000204141, 0.00261369, 0.00109044, 0.00290877, 0.0054149, -0.00848974, -0.00138271, -0.011112, -0.444721, 0.635038, -3.13187, -0.0555627, -0.107532, -0.0103633, -0.442991, 0.634193, -3.12978, -0.0558048, -0.104928, 0, 0, 0, -0.00284387, 0.000972776, 0.00272902
0.0122217, 0.107604, -0.774325, -0.917226, -1.45788, -0.625448, 1.06936, -0.256734, -0.00591886, -0.00156503, -0.000563326, 0.00840229, -0.000589742, -0.000102549, 0.00124618, 0.0196001, 16.3425, 21.9819, 18.7131, 1.38721, 4.70828, -0.186696, 0.000695751, -0.00169302, 0.00088327, 0.00214401, -0.00150646, 0.000281917, 0.00513966, -0.000560641, 0.00251721, 0.00479916, -0.00654512, -0.0121605, -0.011112, -0.444721, 0.635038, -3.13187, -0.0555627, -0.107532, -0.0104183, -0.442997, 0.634215, -3.12982, -0.0556333, -0.10504, 1.73063e-06, -1.42215e-06, -3.96181e-06, -0.00527486, -0.000764127, 0.00215072
0.0132217, 0.107604, -0.774325, -0.917226, -1.45788, -0.625448, 1.06936, -0.256734, -0.00591886, -0.00156503, -0.000563326, 0.00840229, -0.000589742, -0.000102549, 0.00124618, 0.0196001, 16.3425, 21.9819, 18.7131, 1.38721, 4.70828, -0.186696, 0.000695747, -0.00169302, 0.00088326, 0.00214399, -0.00150648, 0.000281925, 0.00514387, -0.000556133, 0.00252935, 0.00482335, -0.00652855, -0.012117, -0.011112, -0.444721, 0.635038, -3.13187, -0.0555628, -0.107532, -0.0104183, -0.442997, 0.634215, -3.12982, -0.0556333, -0.10504, 6.91577e-06, -5.6745e-06, -1.58141e-05, -0.00527486, -0.000764127, 0.00215072
0.0142217, 0.107604, -0.774325, -0.917226, -1.45788, -0.625448, 1.06936, -0.256734, -0.00591886, -0.00156503, -0.000563326, 0.00840229, -0.000589742, -0.000102549, 0.00124618, 0.0196001, 16.3425, 21.9819, 18.7131, 1.38721, 4.70828, -0.186696, 0.000695739, -0.00169303, 0.000883235, 0.00214394, -0.00150654, 0.000281944, 0.00515087, -0.000548646, 0.00254953, 0.00486354, -0.00650101, -0.0120448, -0.011112, -0.444721, 0.635038, -3.13187, -0.0555628, -0.107532, -0.0104183, -0.442997, 0.634215, -3.12982, -0.0556333, -0.10504, 1.55453e-05, -1.2736e-05, -3.55071e-05, -0.00527486, -0.000764127, 0.00215072
0.0152219, 0.107604, -0.774325, -0.917226, -1.45788, -0.625448, 1.06936, -0.256734, -0.00591886, -0.00156503, -0.000563326, 0.00840229, -0.000589742, -0.000102549, 0.00124618, 0.0196001, 16.3425, 21.9819, 18.7131, 1.38721, 4.70828, -0.186696, 0.000695721, -0.00169305, 0.000883185, 0.00214383, -0.00150665, 0.000281982, 0.00516066, -0.000538203, 0.00257769, 0.00491959, -0.00646258, -0.0119439, -0.011112, -0.444721, 0.635038, -3.13187, -0.0555628, -0.107532, -0.0104183, -0.442997, 0.634215, -3.12982, -0.0556333, -0.10504, 2.7609e-05, -2.25855e-05, -6.29913e-05, -0.00527486, -0.000764127, 0.00215072
0.0162219, 0.107604, -0.774325, -0.917226, -1.45788, -0.625448, 1.06936, -0.256734, -0.00591886, -0.00156503, -0.000563326, 0.00840229, -0.000589742, -0.000102549, 0.00124618, 0.0196001, 16.3425, 21.9819, 18.7131, 1.38721, 4.70828, -0.186696, 0.000695693, -0.00169308, 0.000883104, 0.00214366, -0.00150684, 0.000282045, 0.00517324, -0.000524824, 0.00261379, 0.00499139, -0.00641334, -0.0118147, -0.0111119, -0.444721, 0.635038, -3.13187, -0.0555629, -0.107532, -0.0104183, -0.442997, 0.634215, -3.12982, -0.0556333, -0.10504, 4.30968e-05, -3.5202e-05, -9.82172e-05, -0.00527486, -0.000764127, 0.00215072
0.0172222, 0.107604, -0.774325, -0.917226, -1.45788, -0.625448, 1.06936, -0.256734, -0.00591886, -0.00156503, -0.000563326, 0.00840229, -0.000589742, -0.000102549, 0.00124618, 0.0196001, 16.3425, 21.9819, 18.7131, 1.38721, 4.70828, -0.186696, 0.00069565, -0.00169313, 0.000882983, 0.0021434, -0.00150712, 0.000282139, 0.0051886, -0.000508531, 0.00265776, 0.00507882, -0.00635334, -0.0116572, -0.0111119, -0.444721, 0.635038, -3.13187, -0.0555631, -0.107533, -0.0104183, -0.442997, 0.634215, -3.12982, -0.0556333, -0.10504, 6.19987e-05, -5.05647e-05, -0.000141136, -0.00527486, -0.000764127, 0.00215072
0.0182222, 0.107604, -0.774325, -0.917226, -1.45788, -0.625448, 1.06936, -0.256734, -0.00591886, -0.00156503, -0.000563326, 0.00840229, -0.000589742, -0.000102549, 0.00124618, 0.0196001, 16.3425, 21.9819, 18.7131, 1.38721, 4.70828, -0.186696, 0.000695591, -0.00169319, 0.000882814, 0.00214304, -0.0015075, 0.000282269, 0.00520673, -0.000489346, 0.00270958, 0.00518177, -0.00628267, -0.0114717, -0.0111118, -0.444721, 0.635037, -3.13187, -0.0555633, -0.107533, -0.0104183, -0.442997, 0.634215, -3.12982, -0.0556333, -0.10504, 8.43044e-05, -6.86525e-05, -0.000191697, -0.00527486, -0.000764127, 0.00215072
0.0192227, 0.107604, -0.774325, -0.917226, -1.45788, -0.625448, 1.06936, -0.256734, -0.00591886, -0.00156503, -0.000563326, 0.00840229, -0.000589742, -0.000102549, 0.00124618, 0.0196001, 16.3425, 21.9819, 18.7131, 1.38721, 4.70828, -0.186696, 0.000695512, -0.00169327, 0.000882589, 0.00214256, -0.00150802, 0.000282443, 0.00522762, -0.00046729, 0.00276918, 0.00530012, -0.00620139, -0.0112583, -0.0111117, -0.444721, 0.635037, -3.13187, -0.0555636, -0.107534, -0.0104183, -0.442997, 0.634215, -3.12982, -0.0556333, -0.10504, 0.000110004, -8.94448e-05, -0.000249853, -0.00527486, -0.000764127, 0.00215072
0.0202229, 0.107604, -0.774325, -0.917226, -1.45788, -0.625448, 1.06936, -0.256734, -0.00591886, -0.00156503, -0.000563326, 0.00840229, -0.000589742, -0.000102549, 0.00124618, 0.0196001, 16.3425, 21.9819, 18.7131, 1.38721, 4.70828, -0.186696, 0.000695411, -0.00169338, 0.000882302, 0.00214195, -0.00150868, 0.000282665, 0.00525128, -0.000442383, 0.00283652, 0.00543376, -0.00610957, -0.0110173, -0.0111116, -0.444721, 0.635037, -3.13187, -0.055564, -0.107535, -0.0104183, -0.442997, 0.634215, -3.12982, -0.0556333, -0.10504, 0.000139087, -0.000112921, -0.000315553, -0.00527486, -0.000764127, 0.00215072
0.0212231, 0.107604, -0.774325, -0.917226, -1.45788, -0.625448, 1.06936, -0.256734, -0.00591886, -0.00156503, -0.000563326, 0.00840229, -0.000589742, -0.000102549, 0.00124618, 0.0196001, 16.3425, 21.9819, 18.7131, 1.38721, 4.70828, -0.186696, 0.000695285, -0.00169351, 0.000881943, 0.00214119, -0.0015095, 0.000282941, 0.00527769, -0.000414649, 0.00291154, 0.00558256, -0.00600729, -0.0107487, -0.0111114, -0.444721, 0.635037, -3.13186, -0.0555644, -0.107536, -0.0104183, -0.442997, 0.634215, -3.12982, -0.0556333, -0.10504, 0.000171544, -0.000139059, -0.00038875, -0.00527486, -0.000764127, 0.00215072
0.0222231, 0.107604, -0.774325, -0.917226, -1.45788, -0.625448, 1.06936, -0.256734, -0.00591886, -0.00156503, -0.000563326, 0.00840229, -0.000589742, -0.000102549, 0.00124618, 0.0196001, 16.3425, 21.9819, 18.7131, 1.38721, 4.70828, -0.186696, 0.000695131, -0.00169367, 0.000881506, 0.00214026, -0.0015105, 0.000283278, 0.00530684, -0.000384107, 0.0029942, 0.00574641, -0.00589461, -0.0104529, -0.0111112, -0.444721, 0.635036, -3.13186, -0.055565, -0.107538, -0.0104183, -0.442997, 0.634215, -3.12982, -0.0556333, -0.10504, 0.000207364, -0.00016784, -0.000469394, -0.00527486, -0.000764127, 0.00215072
0.0232234, 0.107604, -0.774325, -0.917226, -1.45788, -0.625448, 1.06936, -0.256734, -0.00591886, -0.00156503, -0.000563326, 0.00840229, -0.000589742, -0.000102549, 0.00124618, 0.0196001, 16.3425, 21.9819, 18.7131, 1.38721, 4.70828, -0.186696, 0.000694946, -0.00169387, 0.000880984, 0.00213915, -0.0015117, 0.000283682, 0.00533874, -0.000350779, 0.00308445, 0.0059252, -0.0057716, -0.0101299, -0.011111, -0.444722, 0.635036, -3.13186, -0.0555656, -0.10754, -0.0104183, -0.442997, 0.634215, -3.12982, -0.0556333, -0.10504, 0.000246538, -0.000199242, -0.000557437, -0.00527486, -0.000764127, 0.00215072
0.0242234, 0.107547, -0.774323, -0.917259, -1.45782, -0.625466, 1.06937, -0.256744, -0.00379872, 0.000905031, -0.00521961, 0.00309091, -0.00159656, 0.000322642, -0.00107026, 0.170357, 16.3068, 22.3151, 18.6417, 1.50348, 4.67257, -0.133595, 0.000645125, -0.00168279, 0.000870063, 0.0021107, -0.00148952, 0.000393481, 0.00423434, -0.0010756, 0.000302498, 0.000983959, 0.00105599, -0.00665192, -0.0111107, -0.444722, 0.635035, -3.13186, -0.0555664, -0.107542, -0.010468, -0.44301, 0.634222, -3.12985, -0.0554623, -0.105078, 0.000289055, -0.000233245, -0.00065283, -0.00391498, -0.00145969, -0.000648605
0.0252234, 0.107543, -0.774322, -0.917259, -1.45782, -0.625471, 1.06937, -0.256738, -0.00357925, 0.000598003, -0.00373809, 0.00237179, -0.00174254, 0.000214964, 0.000507199, 0.21003, 16.3068, 22.3151, 18.6417, 1.52179, 4.67257, -0.166554, 0.000641118, -0.00168281, 0.000868722, 0.00210804, -0.00149539, 0.000408679, 0.00368271, -0.000715199, 0.00058277, 0.0016851, 0.00146285, -0.00620618, -0.0111104, -0.444722, 0.635034, -3.13186, -0.0555673, -0.107544, -0.0104718, -0.44301, 0.634222, -3.12985, -0.0554396, -0.105071, 0.000334905, -0.000269828, -0.000755525, -0.00335118, -0.00111912, -0.00043158
0.0262234, 0.107546, -0.774316, -0.917265, -1.45783, -0.625474, 1.06937, -0.256739, -0.00154721, -0.00254524, -0.00636889, -0.00348089, -0.000720883, -0.00243053, -0.000373944, 0.170357, 16.16, 22.204, 18.602, 1.50989, 4.6149, -0.147328, 0.000642725, -0.00168173, 0.000870497, 0.0021089, -0.00150801, 0.000408591, 0.00349254, -0.000340661, -0.00224667, -0.0061664, 0.00298505, -0.00139313, -0.0111101, -0.444722, 0.635033, -3.13186, -0.0555684, -0.107547, -0.0104697, -0.443012, 0.63422, -3.12985, -0.0554408, -0.105055, 0.000384079, -0.000308971, -0.000865474, -0.00293211, -0.000752933, -0.00334886
0.0272234, 0.107546, -0.774311, -0.917283, -1.45782, -0.625473, 1.06937, -0.25674, -0.00109827, -0.00103724, -0.0117727, -0.00185482, -0.00249908, 0.00276817, -0.00194472, 0.170357, 15.9735, 22.0929, 18.3044, 1.43573, 4.48581, -0.101552, 0.00063804, -0.00167868, 0.000874008, 0.00211737, -0.00151507, 0.000421929, 0.00475002, -0.00256945, -0.00267167, -0.00316439, 0.00256543, -0.00474777, -0.0111097, -0.444723, 0.635033, -3.13186, -0.0555696, -0.10755, -0.0104736, -0.443015, 0.634215, -3.12984, -0.0554216, -0.105046, 0.000436566, -0.000350653, -0.000982628, -0.00402471, -0.00306252, -0.00399017
0.0282234, 0.107559, -0.774315, -0.917301, -1.45783, -0.625481, 1.06936, -0.256736, 0.00357942, 0.000314343, -0.0134125, -0.00244279, -0.00540564, -0.00306555, 0.00335833, -0.0161054, 15.9021, 21.8708, 17.9315, 1.39911, 4.35672, -0.101552, 0.000634793, -0.00167554, 0.000880461, 0.0021323, -0.00152629, 0.000430101, 0.00391453, -0.00216672, -0.00379151, -0.00827038, 0.00972748, -0.00727149, -0.0111092, -0.444723, 0.635032, -3.13185, -0.0555709, -0.107554, -0.0104758, -0.443019, 0.634207, -3.12982, -0.0554109, -0.105031, 0.000492356, -0.000394854, -0.00110694, -0.00307364, -0.00266521, -0.00517177
0.0292234, 0.107567, -0.774311, -0.917324, -1.45784, -0.625488, 1.06935, -0.256735, 0.00503997, 0.0040728, -0.0172213, -0.0086812, -0.00763378, -0.0075798, 0.00262679, -0.131157, 15.7156, 21.6089, 17.634, 1.36249, 4.22763, -0.101552, 0.000632601, -0.00167318, 0.000891096, 0.00215758, -0.00155251, 0.00043733, 0.00302243, -0.00185211, -0.00694189, -0.0166948, 0.0218685, -0.0053724, -0.0111087, -0.444723, 0.63503, -3.13185, -0.0555724, -0.107558, -0.0104767, -0.443021, 0.634195, -3.1298, -0.0554022, -0.104993, 0.000551439, -0.000441554, -0.00123836, -0.00192069, -0.00233898, -0.00838284
0.0302234, 0.107574, -0.774315, -0.917351, -1.45786, -0.625495, 1.06934, -0.256735, 0.00509504, 0.00089391, -0.0171651, -0.0126129, -0.00868534, -0.0122984, 0.00180476, -0.206535, 15.6442, 21.3471, 17.2968, 1.30755, 4.12692, -0.0951428, 0.000625541, -0.00167114, 0.000904134, 0.0021925, -0.00157588, 0.000446646, 0.0038876, -0.000876166, -0.00851439, -0.0224184, 0.0246247, -0.00242226, -0.0111081, -0.444724, 0.635029, -3.13185, -0.0555741, -0.107563, -0.0104822, -0.443024, 0.63418, -3.12976, -0.0553908, -0.104959, 0.000613805, -0.000490732, -0.00137684, -0.00264807, -0.00142972, -0.0101435
0.0312234, 0.10758, -0.774321, -0.91738, -1.45788, -0.62551, 1.06932, -0.256734, 0.00513879, 5.57363e-05, -0.020486, -0.0134246, -0.0129959, -0.0116406, 0.00165872, -0.281914, 15.6442, 21.0892, 16.9992, 1.34418, 4.04086, -0.101552, 0.000615949, -0.00166872, 0.000919006, 0.0022296, -0.00160893, 0.000461707, 0.00585017, -0.00204355, -0.00953221, -0.0223154, 0.0276053, -0.00587381, -0.0111074, -0.444724, 0.635028, -3.13184, -0.055576, -0.107568, -0.01049, -0.443027, 0.634163, -3.12972, -0.0553708, -0.10491, 0.000679445, -0.000542368, -0.00152234, -0.00442776, -0.00270823, -0.0114465
0.0322234, 0.107588, -0.774324, -0.917412, -1.4579, -0.625522, 1.0693, -0.256739, 0.00600847, -0.00258688, -0.0230829, -0.0179887, -0.0153131, -0.0103824, -0.000425959, -0.392998, 15.6046, 20.8274, 16.7374, 1.36249, 3.93374, -0.0557752, 0.000608565, -0.00166677, 0.000936074, 0.00227312, -0.00164629, 0.0004667, 0.00653325, -0.00277658, -0.0115202, -0.0243776, 0.0293974, -0.00309806, -0.0111067, -0.444725, 0.635026, -3.13184, -0.055578, -0.107574, -0.0104954, -0.44303, 0.634144, -3.12968, -0.0553669, -0.104854, 0.000748347, -0.000596442, -0.0016748, -0.0048776, -0.00350172, -0.0136338
0.0332234, 0.107598, -0.774331, -0.917444, -1.45793, -0.625537, 1.06928, -0.256734, 0.005757, -0.00405393, -0.0251312, -0.0219659, -0.0169335, -0.00916621, 0.00153418, -0.468376, 15.6799, 20.5655, 16.5112, 1.3808, 3.8193, -0.101552, 0.000600377, -0.00166452, 0.000954483, 0.0023182, -0.0016847, 0.000480736, 0.00717027, -0.003295, -0.0130924, -0.0259233, 0.0314543, -0.00501278, -0.0111059, -0.444726, 0.635024, -3.13184, -0.0555803, -0.10758, -0.0105014, -0.443033, 0.634124, -3.12963, -0.0553492, -0.104798, 0.000820503, -0.000652933, -0.00183418, -0.00531436, -0.00408509, -0.0154086
0.0342234, 0.107606, -0.774334, -0.91748, -1.45796, -0.625554, 1.06926, -0.256738, 0.0047571, -0.0031272, -0.0308153, -0.0271559, -0.0138126, -0.00957436, -0.000105864, -0.508049, 15.6799, 20.3434, 16.3644, 1.41192, 3.74057, -0.0685925, 0.000592213, -0.00166205, 0.000974648, 0.00236655, -0.00173297, 0.000488823, 0.0075744, -0.00352704, -0.0160927, -0.0337661, 0.034078, -0.00392473, -0.0111051, -0.444726, 0.635022, -3.13183, -0.0555828, -0.107587, -0.0105072, -0.443036, 0.634101, -3.12958, -0.0553411, -0.104726, 0.000895902, -0.000711822, -0.00200043, -0.00542811, -0.00436415, -0.0185973
0.0352234, 0.107614, -0.774335, -0.917507, -1.458, -0.625571, 1.06924, -0.256735, 0.00492795, -0.00240323, -0.0292885, -0.0283717, -0.0146521, -0.0147723, 0.000981806, -0.583427, 15.6799, 20.0101, 16.2494, 1.40552, 3.66824, -0.0951428, 0.000586954, -0.00166134, 0.000992806, 0.0024103, -0.00178356, 0.000497908, 0.00731726, -0.00222917, -0.0162835, -0.0371837, 0.0390239, -0.0028255, -0.0111041, -0.444727, 0.63502, -3.13183, -0.0555855, -0.107594, -0.0105103, -0.443038, 0.63408, -3.12954, -0.0553316, -0.104651, 0.000974534, -0.000773089, -0.00217351, -0.00512629, -0.00311764, -0.0189349
0.0362234, 0.107611, -0.774331, -0.917548, -1.45803, -0.625588, 1.06921, -0.256732, 0.00151705, -0.00100576, -0.0293584, -0.0300757, -0.0154032, -0.015281, 0.00165575, -0.508049, 15.6442, 19.8594, 16.178, 1.39911, 3.63254, -0.120778, 0.000574273, -0.00165916, 0.00101449, 0.00246406, -0.00184351, 0.000526813, 0.00833611, -0.00194016, -0.0165272, -0.0375923, 0.0425822, -0.00578397, -0.0111031, -0.444728, 0.635018, -3.13182, -0.0555884, -0.107602, -0.0105203, -0.443041, 0.634056, -3.12948, -0.0552919, -0.104562, 0.00105639, -0.000836713, -0.00235336, -0.00605377, -0.00292612, -0.0194263
0.0372234, 0.107622, -0.77433, -0.917589, -1.45807, -0.625607, 1.06918, -0.256739, 0.00591062, -0.00168485, -0.0333668, -0.0311088, -0.0195609, -0.0218914, 0.00344295, -0.583427, 15.6799, 19.7483, 16.1026, 1.36249, 3.63986, -0.0557752, 0.000565067, -0.00165728, 0.00103682, 0.00252246, -0.00190186, 0.000533916, 0.00926392, -0.00198108, -0.0185262, -0.0446028, 0.0495368, -0.00701531, -0.011102, -0.444729, 0.635016, -3.13182, -0.0555915, -0.107611, -0.0105268, -0.443044, 0.63403, -3.12942, -0.0552864, -0.104476, 0.00114146, -0.000902674, -0.00253994, -0.00675529, -0.00304826, -0.0216711
0.0382234, 0.107623, -0.774332, -0.917622, -1.4581, -0.625625, 1.06916, -0.256739, 0.00327122, -0.00209279, -0.0312241, -0.030263, -0.0176659, -0.0221644, 0.00271674, -0.543754, 15.7156, 19.5618, 16.1026, 1.31305, 3.65451, -0.0557752, 0.000554606, -0.001657, 0.00105708, 0.00257425, -0.0019589, 0.000549975, 0.00976986, -0.00121997, -0.0174191, -0.0432798, 0.0474329, -0.00610791, -0.0111008, -0.44473, 0.635013, -3.13181, -0.0555949, -0.10762, -0.0105347, -0.443045, 0.634007, -3.12937, -0.0552671, -0.104393, 0.00122973, -0.000970953, -0.00273321, -0.00727433, -0.00238322, -0.02079
0.0392234, 0.107619, -0.774327, -0.91766, -1.45814, -0.625642, 1.06913, -0.256731, 0.000611699, -0.000660729, -0.0322237, -0.0344183, -0.0123488, -0.0215148, 0.00358531, -0.468376, 15.6799, 19.4864, 16.178, 1.28284, 3.65451, -0.0951428, 0.000543197, -0.00165589, 0.00107859, 0.00262717, -0.00202274, 0.000580931, 0.0089335, -0.000485653, -0.0185747, -0.0473528, 0.0475147, -0.0049766, -0.0110996, -0.444731, 0.63501, -3.1318, -0.0555986, -0.10763, -0.0105432, -0.443047, 0.633982, -3.12931, -0.0552249, -0.104299, 0.00132119, -0.00104153, -0.00293311, -0.00629595, -0.00168043, -0.0220807
0.0402234, 0.107617, -0.774324, -0.917694, -1.45818, -0.625663, 1.06911, -0.256735, -0.000281828, 0.000319166, -0.0327501, -0.0330962, -0.0125981, -0.0167976, 0.0011692, -0.43267, 15.6442, 19.4111, 16.2137, 1.23981, 3.66824, -0.0557752, 0.000532172, -0.00165446, 0.00109843, 0.0026734, -0.00208629, 0.00059959, 0.00910011, -0.00143313, -0.0176338, -0.0422268, 0.0457433, -0.00389543, -0.0110982, -0.444732, 0.635007, -3.1318, -0.0556025, -0.107641, -0.0105515, -0.44305, 0.633958, -3.12926, -0.0552019, -0.104208, 0.00141584, -0.00111438, -0.0031396, -0.0063979, -0.00271406, -0.0213661
0.0412234, 0.107617, -0.774318, -0.917731, -1.45822, -0.625688, 1.06908, -0.25673, -7.86925e-05, 0.00191934, -0.0338666, -0.0336826, -0.0135826, -0.0173455, 0.00241533, -0.43267, 15.5688, 19.3754, 16.3248, 1.21509, 3.66824, -0.0951428, 0.000522198, -0.00165334, 0.00112055, 0.00272486, -0.00216105, 0.000624509, 0.00909433, -0.00151373, -0.0179056, -0.042783, 0.0490938, -0.00518227, -0.0110967, -0.444733, 0.635004, -3.13179, -0.0556067, -0.107652, -0.0105584, -0.443053, 0.633932, -3.12921, -0.0551697, -0.104099, 0.00151366, -0.0011895, -0.00335263, -0.00627268, -0.00286705, -0.0218504
0.0422234, 0.107614, -0.774321, -0.917767, -1.45827, -0.625711, 1.06906, -0.256734, -0.000898587, -0.000526183, -0.0345992, -0.0366966, -0.0189988, -0.0190315, 0.000285501, -0.392998, 15.6442, 19.3397, 16.5509, 1.19037, 3.70395, -0.0557752, 0.000510211, -0.00165281, 0.00114441, 0.00278008, -0.0022294, 0.000638793, 0.0111324, -0.00172698, -0.0190196, -0.0436835, 0.0539013, -0.00466435, -0.0110952, -0.444734, 0.635, -3.13178, -0.0556111, -0.107664, -0.0105671, -0.443054, 0.633904, -3.12915, -0.0551544, -0.104001, 0.00161465, -0.00126685, -0.00357216, -0.00811954, -0.00321947, -0.0233229
0.0432244, 0.107609, -0.774313, -0.917799, -1.45831, -0.625736, 1.06903, -0.256727, -0.00230087, 0.00138057, -0.0327404, -0.0379851, -0.0232103, -0.02075, 0.00174841, -0.317619, 15.5688, 19.3397, 16.6223, 1.17206, 3.7543, -0.0951428, 0.000498366, -0.00165298, 0.00116318, 0.00282629, -0.00230567, 0.000672045, 0.0114019, -0.00129144, -0.0186869, -0.0421319, 0.0609229, -0.00664628, -0.0110935, -0.444735, 0.634997, -3.13177, -0.0556159, -0.107677, -0.010576, -0.443056, 0.633881, -3.1291, -0.0551096, -0.103891, 0.00171879, -0.00134642, -0.00379814, -0.00832235, -0.00287604, -0.0232328
0.0442244, 0.107601, -0.774318, -0.917834, -1.45835, -0.625765, 1.069, -0.256728, -0.00325109, 0.00153612, -0.0296106, -0.0368805, -0.0225828, -0.0233588, 0.000494626, -0.242241, 15.6799, 19.4111, 16.7374, 1.17847, 3.84036, -0.0750012, 0.000480904, -0.00165261, 0.00118456, 0.00287699, -0.00237639, 0.000700077, 0.0112399, -9.3559e-05, -0.0174134, -0.0414791, 0.0613723, -0.00337507, -0.0110917, -0.444737, 0.634993, -3.13176, -0.0556209, -0.107691, -0.0105901, -0.443058, 0.633854, -3.12905, -0.0550733, -0.103791, 0.00182607, -0.00142819, -0.00403052, -0.0081834, -0.00176596, -0.0221763
0.0452244, 0.107593, -0.774316, -0.917869, -1.4584, -0.625792, 1.06897, -0.256733, -0.0047313, 0.00211121, -0.031234, -0.0407202, -0.0212915, -0.0244847, -0.00130941, -0.131157, 15.6442, 19.5261, 16.9238, 1.16565, 3.91269, -0.0292249, 0.000466076, -0.00165316, 0.00120729, 0.00293148, -0.00245633, 0.000722214, 0.0114028, 0.000328712, -0.0188321, -0.0456008, 0.0644258, -0.000817769, -0.0110899, -0.444738, 0.634989, -3.13175, -0.0556263, -0.107706, -0.0106015, -0.443059, 0.633827, -3.12899, -0.0550467, -0.103678, 0.00193648, -0.00151214, -0.00426926, -0.00815309, -0.00142117, -0.023839
0.0462244, 0.107585, -0.77431, -0.917893, -1.45844, -0.625823, 1.06894, -0.256724, -0.00489153, 0.00252442, -0.0295292, -0.0447473, -0.0213191, -0.0244029, 0.00208537, -0.0557783, 15.6046, 19.5261, 17.0349, 1.17847, 3.96213, -0.10796, 0.00045562, -0.00165448, 0.00122445, 0.00296947, -0.00253812, 0.000752863, 0.0100563, 0.00099759, -0.0192949, -0.0461271, 0.0677088, -0.000122775, -0.0110879, -0.44474, 0.634984, -3.13174, -0.0556319, -0.107721, -0.0106088, -0.44306, 0.633804, -3.12894, -0.0550067, -0.103563, 0.00205002, -0.00159825, -0.00451432, -0.006689, -0.000787242, -0.0244489
0.0472244, 0.107574, -0.774314, -0.917924, -1.45849, -0.62585, 1.06892, -0.256729, -0.00908128, -0.000773808, -0.0285659, -0.0475238, -0.0202627, -0.0183627, -0.000273529, 0.059273, 15.7156, 19.6729, 17.2571, 1.16565, 3.97677, -0.0621838, 0.000439851, -0.00165477, 0.00124531, 0.00301526, -0.00261047, 0.000774212, 0.0112687, 0.000512084, -0.0190779, -0.0417608, 0.0626522, 0.00165505, -0.0110858, -0.444741, 0.63498, -3.13173, -0.0556379, -0.107738, -0.010621, -0.443061, 0.633778, -3.12889, -0.0549816, -0.103463, 0.00216668, -0.00168649, -0.00476563, -0.00777853, -0.00140511, -0.0245704
0.0482244, 0.107563, -0.774315, -0.917951, -1.45853, -0.625881, 1.06889, -0.256729, -0.00890044, -0.00124482, -0.0299289, -0.0450097, -0.0195391, -0.0194528, 0.000790816, 0.170357, 15.7513, 19.784, 17.2968, 1.15375, 4.01248, -0.0878186, 0.00042317, -0.00165553, 0.00126223, 0.0030541, -0.00268441, 0.000804024, 0.0123645, 0.000455313, -0.0185525, -0.04203, 0.060969, -0.000265606, -0.0110835, -0.444743, 0.634975, -3.13172, -0.0556442, -0.107755, -0.0106342, -0.443063, 0.633755, -3.12885, -0.0549434, -0.103362, 0.00228643, -0.00177687, -0.00502317, -0.00878501, -0.00159524, -0.0243796
0.0492244, 0.107552, -0.774318, -0.917976, -1.45857, -0.625912, 1.06886, -0.256726, -0.00881073, -0.00251341, -0.0278005, -0.0464401, -0.0201847, -0.0199905, 0.000816278, 0.285408, 15.8267, 19.8951, 17.3325, 1.17206, 4.04086, -0.0951428, 0.000406637, -0.00165666, 0.00127848, 0.00309039, -0.00275874, 0.00083589, 0.0120141, 0.00104874, -0.0182082, -0.0411997, 0.0616683, 0.00281327, -0.0110812, -0.444745, 0.634969, -3.13171, -0.0556509, -0.107773, -0.0106473, -0.443064, 0.633733, -3.1288, -0.0549024, -0.103262, 0.00240928, -0.00186934, -0.00528689, -0.00835748, -0.00108518, -0.0242721
0.0502244, 0.107543, -0.774317, -0.918003, -1.45861, -0.625943, 1.06883, -0.256731, -0.00777644, -0.00161583, -0.0330971, -0.0462825, -0.024113, -0.0210063, -0.00140915, 0.360787, 15.8267, 20.0458, 17.4435, 1.16015, 4.08389, -0.0420422, 0.000392538, -0.00165888, 0.0012971, 0.00313509, -0.00284284, 0.000855158, 0.0140034, -0.000151421, -0.019475, -0.0431489, 0.0665674, 0.00106334, -0.0110787, -0.444747, 0.634964, -3.1317, -0.0556578, -0.107792, -0.0106577, -0.443064, 0.633708, -3.12875, -0.0548816, -0.103146, 0.00253522, -0.00196389, -0.00555673, -0.0100847, -0.00243792, -0.0259505
0.0512244, 0.107528, -0.774317, -0.918028, -1.45866, -0.625979, 1.0688, -0.256725, -0.0119526, -0.0018676, -0.0307319, -0.0412752, -0.0282219, -0.0214685, 0.00103726, 0.511544, 15.8624, 20.1926, 17.4832, 1.17847, 4.12051, -0.0951428, 0.000374156, -0.0016613, 0.00131368, 0.00317393, -0.00292804, 0.000894846, 0.0171614, -0.000184894, -0.0169137, -0.0365824, 0.0666524, -0.00728117, -0.0110761, -0.444749, 0.634958, -3.13168, -0.0556652, -0.107812, -0.0106723, -0.443064, 0.633684, -3.12871, -0.0548292, -0.103031, 0.00266423, -0.00206051, -0.00583265, -0.0132785, -0.00270155, -0.0238892
0.0522244, 0.107519, -0.774319, -0.918056, -1.4587, -0.626013, 1.06877, -0.256729, -0.00923629, -0.00213946, -0.0297948, -0.0447948, -0.0307678, -0.0212033, -0.000759043, 0.551216, 15.9021, 20.3791, 17.5586, 1.18396, 4.14157, -0.0557752, 0.000357514, -0.00166277, 0.00133167, 0.00321551, -0.00301149, 0.000919202, 0.0155945, -9.44382e-05, -0.0174983, -0.0362282, 0.0708382, -0.000439646, -0.0110734, -0.444751, 0.634952, -3.13167, -0.0556729, -0.107834, -0.010685, -0.443065, 0.633659, -3.12866, -0.0548011, -0.102918, 0.0027963, -0.00215917, -0.00611461, -0.0115472, -0.00264932, -0.024646
0.0532244, 0.107509, -0.77432, -0.918081, -1.45875, -0.626048, 1.06874, -0.256729, -0.00901086, 0.000877895, -0.0290404, -0.0433998, -0.0282268, -0.0197634, -0.000500397, 0.6623, 15.9378, 20.5655, 17.5943, 1.19678, 4.12692, -0.0557752, 0.000342137, -0.00166426, 0.00134752, 0.00324944, -0.00309532, 0.000947186, 0.0140882, 0.00016028, -0.0163316, -0.0340623, 0.0706575, 0.00164805, -0.0110705, -0.444753, 0.634946, -3.13166, -0.0556809, -0.107856, -0.0106964, -0.443066, 0.633636, -3.12861, -0.0547674, -0.102807, 0.00293143, -0.00225986, -0.00640257, -0.00999916, -0.00245246, -0.0236648
0.0542244, 0.107501, -0.774319, -0.918101, -1.45879, -0.626086, 1.06871, -0.256727, -0.0102761, -0.000806741, -0.0234551, -0.0424947, -0.0312469, -0.0193883, 0.000620062, 0.701973, 16.0092, 20.6766, 17.634, 1.21509, 4.12692, -0.0814099, 0.000327924, -0.00166716, 0.00136248, 0.00328286, -0.00318557, 0.000974237, 0.0142153, 0.000873593, -0.0141548, -0.0277268, 0.07064, 0.00268312, -0.0110675, -0.444756, 0.63494, -3.13164, -0.0556894, -0.107879, -0.0107067, -0.443066, 0.633614, -3.12857, -0.0547356, -0.102687, 0.00306961, -0.00236255, -0.00669647, -0.0101625, -0.00186582, -0.0217916
0.0552244, 0.10749, -0.774315, -0.918121, -1.45884, -0.626122, 1.06868, -0.256729, -0.00901982, 0.000506214, -0.022562, -0.0417212, -0.0330214, -0.0233069, -0.00127888, 0.777352, 15.9735, 20.7917, 17.6697, 1.2215, 4.11319, -0.0356336, 0.000314294, -0.00167071, 0.00137767, 0.00331788, -0.00327925, 0.000997919, 0.0140172, 0.00161607, -0.0136859, -0.0287098, 0.0751507, 0.00635827, -0.0110644, -0.444758, 0.634933, -3.13162, -0.0556982, -0.107903, -0.0107162, -0.443065, 0.633591, -3.12853, -0.0547095, -0.102562, 0.00321082, -0.00246723, -0.00699628, -0.00988232, -0.00122554, -0.0216054
0.0562244, 0.107479, -0.77432, -0.918144, -1.45888, -0.626159, 1.06864, -0.256725, -0.00715282, -0.00210436, -0.0226804, -0.0422279, -0.0342728, -0.0226571, -0.000104224, 0.813057, 16.0846, 20.9385, 17.7451, 1.22699, 4.12692, -0.0557752, 0.00029615, -0.00167399, 0.00139365, 0.00335591, -0.00336756, 0.00102999, 0.0142135, 0.00137187, -0.013656, -0.0276573, 0.0739463, 0.00774504, -0.0110611, -0.444761, 0.634926, -3.13161, -0.0557074, -0.107928, -0.01073, -0.443065, 0.633566, -3.12848, -0.0546709, -0.102447, 0.00335505, -0.00257388, -0.00730195, -0.00992684, -0.00158326, -0.0218966
0.0572244, 0.107465, -0.77431, -0.918162, -1.45892, -0.626199, 1.06861, -0.25672, -0.00676007, 0.00131301, -0.0210578, -0.0407166, -0.0355574, -0.026928, 0.00162772, 0.888436, 15.9735, 21.0138, 17.7451, 1.23981, 4.14157, -0.101552, 0.000281484, -0.00167839, 0.0014059, 0.00338577, -0.00347076, 0.00106726, 0.0136237, 0.00240187, -0.0126685, -0.0280371, 0.0798647, 0.00737298, -0.0110577, -0.444763, 0.634918, -3.13159, -0.055717, -0.107955, -0.0107405, -0.443063, 0.633546, -3.12844, -0.0546244, -0.10231, 0.0035023, -0.00268248, -0.00761342, -0.009296, -0.000650347, -0.0211758
0.0582244, 0.10746, -0.774307, -0.918178, -1.45896, -0.626238, 1.06857, -0.256726, -0.0101519, 0.00012822, -0.0159446, -0.0378119, -0.0364573, -0.0309438, -0.00111756, 0.85273, 16.0092, 21.0496, 17.6697, 1.25171, 4.16995, -0.0420422, 0.0002677, -0.00168282, 0.0014156, 0.00341176, -0.00356288, 0.00108492, 0.0151646, 0.00401598, -0.0102918, -0.0254031, 0.0796799, 0.00986136, -0.0110541, -0.444766, 0.63491, -3.13157, -0.055727, -0.107982, -0.0107502, -0.443062, 0.633527, -3.1284, -0.0546085, -0.102192, 0.00365255, -0.002793, -0.00793067, -0.010903, 0.000776838, -0.0192182
0.0592244, 0.107449, -0.774311, -0.918198, -1.459, -0.626276, 1.06854, -0.256723, -0.0105594, -0.0024469, -0.0163005, -0.0404471, -0.0412514, -0.0328652, 0.000239304, 0.85273, 16.1203, 21.1249, 17.7808, 1.2453, 4.17727, -0.0685925, 0.000250714, -0.00168701, 0.00143002, 0.00344602, -0.00365474, 0.00111475, 0.0169643, 0.00399057, -0.0111125, -0.0261568, 0.0838943, 0.00807281, -0.0110504, -0.444769, 0.634902, -3.13155, -0.0557374, -0.108011, -0.0107625, -0.443061, 0.633504, -3.12836, -0.0545744, -0.102074, 0.0038058, -0.00290544, -0.00825364, -0.0124865, 0.000582915, -0.0204845
0.0602244, 0.107449, -0.774311, -0.918198, -1.459, -0.626276, 1.06854, -0.256723, -0.0105594, -0.0024469, -0.0163005, -0.0404471, -0.0412514, -0.0328652, 0.000239304, 0.85273, 16.1203, 21.1249, 17.7808, 1.2453, 4.17727, -0.0685925, 0.00024751, -0.00169014, 0.00142142, 0.00342801, -0.0036744, 0.0011214, 0.0170935, 0.00411245, -0.0107747, -0.0255031, 0.0843529, 0.00927593, -0.0110465, -0.444772, 0.634894, -3.13154, -0.0557483, -0.10804, -0.0107625, -0.443061, 0.633504, -3.12836, -0.0545744, -0.102074, 0.00396204, -0.00301977, -0.00858229, -0.0124865, 0.000582915, -0.0204845
0.0612244, 0.107443, -0.774294, -0.918228, -1.45908, -0.626352, 1.06846, -0.256725, -0.0073371, 0.00264391, -0.0147517, -0.0394257, -0.042621, -0.0295858, -0.000695077, 0.6623, 16.0846, 21.1606, 17.7808, 1.23981, 4.16354, -0.0557752, 0.000229389, -0.00169744, 0.00144901, 0.00349769, -0.00385496, 0.00115445, 0.0138953, 0.00374435, -0.00929938, -0.0196734, 0.0885732, 0.014629, -0.0110424, -0.444775, 0.634885, -3.13152, -0.0557596, -0.108071, -0.0107749, -0.443057, 0.633466, -3.12828, -0.0545381, -0.101818, 0.00412125, -0.00313597, -0.00891658, -0.00922673, 0.000198631, -0.0191288
0.0622244, 0.107431, -0.77429, -0.918243, -1.45912, -0.626391, 1.06843, -0.256723, -0.0120602, 0.00438318, -0.0148517, -0.0406626, -0.0416277, -0.0273958, 0.000249115, 0.6623, 16.1203, 21.2003, 17.8561, 1.2453, 4.17727, -0.0750012, 0.000214224, -0.00170309, 0.00145925, 0.00352433, -0.00395604, 0.00118459, 0.0149366, 0.00380794, -0.008956, -0.017856, 0.0896981, 0.011247, -0.0110382, -0.444778, 0.634876, -3.13149, -0.0557713, -0.108103, -0.0107853, -0.443055, 0.633446, -3.12824, -0.0545046, -0.10169, 0.00428343, -0.00325403, -0.00925645, -0.0101284, 0.000104381, -0.0191979
0.0632244, 0.10742, -0.774289, -0.91826, -1.45915, -0.626429, 1.06839, -0.256722, -0.0123743, 0.00402805, -0.0179069, -0.039699, -0.0407153, -0.0297691, 0.000403753, 0.6623, 16.2314, 21.236, 17.8561, 1.2453, 4.16995, -0.0814099, 0.000196326, -0.00170791, 0.0014675, 0.00354773, -0.00404889, 0.00121746, 0.0165757, 0.00382551, -0.00938526, -0.0210685, 0.0898358, 0.00966052, -0.0110339, -0.444781, 0.634867, -3.13147, -0.0557834, -0.108137, -0.0107984, -0.443054, 0.633427, -3.1282, -0.0544672, -0.101577, 0.00444857, -0.00337392, -0.00960188, -0.0115684, -5.18978e-05, -0.0200849
0.0642244, 0.107418, -0.774292, -0.918276, -1.45919, -0.62647, 1.06835, -0.256725, -0.00994865, 0.00299395, -0.0172758, -0.0435487, -0.0397894, -0.0357484, -0.00190073, 0.551216, 16.3782, 21.2757, 17.9315, 1.23981, 4.14889, -0.0228162, 0.000181939, -0.0017127, 0.00147738, 0.00357232, -0.00414411, 0.00123545, 0.0154122, 0.00542622, -0.0106496, -0.0279296, 0.0940998, 0.0185688, -0.0110293, -0.444785, 0.634857, -3.13145, -0.055796, -0.108171, -0.0108076, -0.443053, 0.633407, -3.12816, -0.0544533, -0.101461, 0.00461665, -0.00349563, -0.0099528, -0.0102105, 0.00147859, -0.0216065
0.0652244, 0.107419, -0.774283, -0.918294, -1.45922, -0.62651, 1.06832, -0.256719, -0.00822006, 0.00272652, -0.0135479, -0.0418073, -0.0393791, -0.0315319, 0.000428444, 0.436165, 16.3782, 21.3114, 17.9315, 1.23981, 4.14889, -0.0685925, 0.000169819, -0.00171761, 0.00148439, 0.00359423, -0.00424643, 0.00126574, 0.0135057, 0.0053942, -0.00838727, -0.0205032, 0.0906146, 0.0214088, -0.0110246, -0.444788, 0.634847, -3.13143, -0.055809, -0.108207, -0.0108147, -0.443052, 0.633389, -3.12812, -0.0544208, -0.101335, 0.00478767, -0.00361914, -0.0103092, -0.00829308, 0.00137012, -0.0195746
0.0662244, 0.107417, -0.774277, -0.91831, -1.45926, -0.62655, 1.06828, -0.25672, -0.00482286, 0.00143758, -0.0107637, -0.0382318, -0.0384517, -0.032344, 0.000760481, 0.360787, 16.4178, 21.3471, 17.9672, 1.22699, 4.12692, -0.0814099, 0.000157613, -0.00172205, 0.00149116, 0.00361101, -0.00434745, 0.00128824, 0.0122907, 0.00597544, -0.00635485, -0.017416, 0.087118, 0.0265175, -0.0110198, -0.444792, 0.634836, -3.1314, -0.0558225, -0.108244, -0.0108217, -0.443052, 0.633371, -3.12809, -0.0544007, -0.101213, 0.00496161, -0.00374443, -0.010671, -0.00706848, 0.00185031, -0.0178213
0.0672244, 0.107411, -0.774277, -0.918323, -1.45929, -0.626591, 1.06825, -0.256728, -0.00404479, -0.00113633, -0.00784822, -0.0380081, -0.0379078, -0.0329741, -0.00166305, 0.360787, 16.525, 21.3471, 17.9672, 1.21509, 4.10586, -0.0228162, 0.000140642, -0.00172724, 0.00149564, 0.00362433, -0.00444147, 0.0013104, 0.0119427, 0.00675858, -0.0052537, -0.0157028, 0.084696, 0.0334313, -0.0110147, -0.444796, 0.634825, -3.13138, -0.0558365, -0.108282, -0.0108334, -0.443051, 0.633354, -3.12805, -0.0543814, -0.101103, 0.00513848, -0.00387148, -0.0110382, -0.00664854, 0.00250823, -0.0170609
0.0682244, 0.107415, -0.77427, -0.918333, -1.45932, -0.626632, 1.06821, -0.256718, -0.00295937, 0.00347933, -0.00710826, -0.035479, -0.0372765, -0.033329, 0.00129887, 0.21003, 16.4893, 21.2757, 18.0069, 1.19678, 4.07748, -0.0878186, 0.000131933, -0.00173318, 0.00149957, 0.00363636, -0.00454457, 0.00133618, 0.0104146, 0.00708926, -0.00378048, -0.013389, 0.0878553, 0.0324626, -0.0110095, -0.4448, 0.634814, -3.13135, -0.055851, -0.108322, -0.0108368, -0.443049, 0.633339, -3.12802, -0.054357, -0.100981, 0.00531825, -0.00400028, -0.0114107, -0.00505868, 0.00275054, -0.0158559
0.0700364, 0.107413, -0.774266, -0.918368, -1.45938, -0.626715, 1.06815, -0.256726, -0.000896321, 0.00339828, -0.011259, -0.0354408, -0.0378066, -0.0301055, -0.00143454, 0.134651, 16.5646, 21.3471, 18.118, 1.20318, 4.05551, -0.0292249, 0.000106686, -0.00173781, 0.00152296, 0.00369102, -0.00471581, 0.00137175, 0.0107858, 0.00572473, -0.00434408, -0.0124379, 0.0872515, 0.0352083, -0.0110041, -0.444804, 0.634803, -3.13133, -0.0558659, -0.108363, -0.0108551, -0.443049, 0.633302, -3.12795, -0.0543198, -0.100751, 0.00550092, -0.0041308, -0.0117885, -0.00515815, 0.00124841, -0.0168308
0.0710364, 0.107419, -0.774262, -0.918381, -1.4594, -0.626758, 1.06811, -0.256716, 0.000754757, 0.00596555, -0.0146735, -0.0315655, -0.0376717, -0.0368063, 0.00172243, 0.059273, 16.5646, 21.3471, 18.0783, 1.20318, 4.06283, -0.101552, 9.42497e-05, -0.0017424, 0.00152409, 0.00369711, -0.00481241, 0.00140465, 0.0120202, 0.0062151, -0.00427501, -0.0174915, 0.0912681, 0.0305587, -0.0109985, -0.444808, 0.634791, -3.1313, -0.0558813, -0.108405, -0.0108619, -0.443049, 0.633288, -3.12793, -0.0542851, -0.100641, 0.00568647, -0.00426302, -0.0121715, -0.00622558, 0.00156196, -0.0172273
0.0720364, 0.107422, -0.774255, -0.918393, -1.45943, -0.626797, 1.06809, -0.256725, 0.00112299, 0.00636167, -0.013169, -0.0267448, -0.037442, -0.0365509, -0.00224253, 0.0196001, 16.4893, 21.3114, 18.0783, 1.19678, 4.04819, -0.00999879, 8.32299e-05, -0.00174628, 0.00152408, 0.00369631, -0.00490603, 0.00141833, 0.0123357, 0.00632496, -0.00195195, -0.0129426, 0.0886927, 0.0350859, -0.0109927, -0.444812, 0.634778, -3.13127, -0.0558972, -0.108449, -0.0108673, -0.44305, 0.633275, -3.1279, -0.0542804, -0.100539, 0.00587491, -0.00439694, -0.0125597, -0.00651588, 0.00150536, -0.0153194
0.0730364, 0.107423, -0.774252, -0.918411, -1.45946, -0.626834, 1.06806, -0.256723, -0.00041051, 0.00554238, -0.0138527, -0.0248088, -0.0369057, -0.0364846, -0.000782924, 0.059273, 16.4536, 21.3471, 18.1537, 1.17847, 4.03445, -0.0292249, 6.98477e-05, -0.00175067, 0.00152786, 0.00370713, -0.00500212, 0.00144532, 0.0139281, 0.00629035, -0.00112885, -0.0116595, 0.0867443, 0.0322797, -0.0109867, -0.444817, 0.634765, -3.13124, -0.0559137, -0.108494, -0.0108745, -0.443051, 0.633258, -3.12787, -0.054256, -0.100433, 0.00606621, -0.00453252, -0.0129531, -0.00796772, 0.0012712, -0.0150026
0.0740364, 0.107425, -0.77425, -0.918435, -1.45948, -0.626878, 1.06803, -0.256718, -0.000447036, 0.00487967, -0.0160967, -0.0237949, -0.0378428, -0.0310859, 0.00117348, 0.059273, 16.4178, 21.4582, 18.118, 1.19678, 4.00516, -0.0750012, 5.22464e-05, -0.00175166, 0.00153003, 0.00370782, -0.00509627, 0.00148676, 0.0148479, 0.00483925, -0.000601247, -0.00672167, 0.0840723, 0.0290766, -0.0109806, -0.444821, 0.634752, -3.13121, -0.0559306, -0.108541, -0.0108857, -0.443055, 0.633241, -3.12785, -0.0542093, -0.100331, 0.00626038, -0.00466976, -0.0133516, -0.00867486, -0.000353703, -0.0149486
0.0750364, 0.107436, -0.774252, -0.918451, -1.45951, -0.626916, 1.068, -0.256722, 0.00226321, 0.00268005, -0.0149745, -0.0267209, -0.037355, -0.0334716, -0.000675729, -0.0557783, 16.4536, 21.4582, 18.2291, 1.18396, 4.0198, -0.0356336, 4.12309e-05, -0.00175613, 0.00153252, 0.00371518, -0.0051889, 0.00149795, 0.0136733, 0.00575698, -0.00113013, -0.00945348, 0.0851505, 0.0377011, -0.0109742, -0.444826, 0.634739, -3.13118, -0.055948, -0.108588, -0.0108903, -0.443055, 0.633225, -3.12781, -0.0542103, -0.100234, 0.00645739, -0.00480863, -0.0137552, -0.0073033, 0.000470885, -0.0157924
0.0760364, 0.107439, -0.774247, -0.918464, -1.45953, -0.62696, 1.06798, -0.256718, 0.00457219, 0.00374655, -0.0125003, -0.0241712, -0.0429338, -0.0305511, 0.00100758, -0.0557783, 16.3782, 21.3868, 18.1537, 1.20318, 4.03445, -0.0750012, 2.64675e-05, -0.00175973, 0.00152924, 0.00370685, -0.0052852, 0.00153297, 0.0130117, 0.00501709, 0.000997732, -0.000699266, 0.0877949, 0.0377119, -0.0109676, -0.444831, 0.634725, -3.13115, -0.055966, -0.108638, -0.0108988, -0.443057, 0.633213, -3.1278, -0.0541743, -0.100133, 0.00665724, -0.00494912, -0.0141638, -0.00656429, -0.000405446, -0.0140377
0.0770364, 0.107446, -0.774244, -0.918495, -1.45955, -0.627, 1.06796, -0.256718, 0.00407361, 0.00348038, -0.0190627, -0.0243241, -0.0418662, -0.0273437, 0.000434369, -0.0914839, 16.3425, 21.5336, 18.1537, 1.20868, 4.02713, -0.0685925, 9.58868e-06, -0.00175942, 0.00153208, 0.00370916, -0.0053779, 0.00156746, 0.0150109, 0.00346307, -0.000204632, -0.00191084, 0.0860662, 0.034906, -0.0109609, -0.444836, 0.63471, -3.13111, -0.0559845, -0.108688, -0.0109087, -0.443063, 0.633195, -3.12777, -0.05414, -0.100038, 0.00685993, -0.0050912, -0.0145774, -0.00821573, -0.0021603, -0.0158005
0.0780364, 0.107451, -0.774247, -0.918512, -1.45957, -0.627042, 1.06794, -0.256724, 0.00378647, 0.00243085, -0.0185592, -0.0230405, -0.0408193, -0.025193, -0.00140584, -0.131157, 16.3425, 21.4582, 18.2291, 1.20868, 4.02713, -0.0228162, -5.23991e-06, -0.00176195, 0.00153137, 0.00370183, -0.00546943, 0.00158921, 0.0152959, 0.00334663, 0.000916852, 0.00128982, 0.0828634, 0.0382223, -0.0109539, -0.444841, 0.634696, -3.13108, -0.0560035, -0.108741, -0.0109166, -0.443066, 0.63318, -3.12775, -0.0541257, -0.0999477, 0.00706543, -0.00523486, -0.0149959, -0.00836779, -0.00244108, -0.0151213
0.0790364, 0.107456, -0.774247, -0.918539, -1.4596, -0.627081, 1.06792, -0.256718, 0.00346656, 0.00170351, -0.0179303, -0.0220508, -0.0399884, -0.0233521, 0.000758199, -0.166862, 16.3425, 21.4979, 18.3044, 1.20868, 4.0198, -0.0685925, -2.20707e-05, -0.00176203, 0.00153258, 0.00369713, -0.00555932, 0.00162798, 0.0154743, 0.00331426, 0.00197562, 0.00428147, 0.0805014, 0.0376611, -0.0109468, -0.444846, 0.63468, -3.13105, -0.0560231, -0.108794, -0.0109261, -0.443072, 0.633162, -3.12772, -0.0540856, -0.0998608, 0.00727374, -0.00538009, -0.0154193, -0.00840947, -0.00263514, -0.0145016
0.0800364, 0.107462, -0.77424, -0.918561, -1.45962, -0.627124, 1.0679, -0.256721, 0.00331933, 0.00296112, -0.0186489, -0.0184078, -0.0396596, -0.0178166, -0.000240517, -0.206535, 16.2671, 21.4582, 18.2648, 1.21509, 4.02713, -0.0484509, -3.71462e-05, -0.00176327, 0.00153016, 0.00368627, -0.00565813, 0.00166025, 0.0156658, 0.00216694, 0.00385497, 0.0114284, 0.0769728, 0.0378216, -0.0109394, -0.444852, 0.634665, -3.13101, -0.0560432, -0.10885, -0.0109339, -0.443077, 0.633148, -3.12771, -0.054056, -0.099762, 0.00748486, -0.00552686, -0.0158476, -0.00847826, -0.00395321, -0.0130769
0.0810364, 0.107468, -0.774239, -0.918589, -1.45964, -0.627163, 1.06789, -0.256726, 0.00310831, 0.00202074, -0.0203314, -0.0216415, -0.0380314, -0.0178982, -0.00185576, -0.242241, 16.2671, 21.4582, 18.3401, 1.18396, 4.0198, -0.00267457, -5.33643e-05, -0.00176298, 0.00153036, 0.00367715, -0.0057496, 0.00168915, 0.0157842, 0.00239135, 0.00280072, 0.0085338, 0.0776222, 0.0419766, -0.0109318, -0.444858, 0.634649, -3.13097, -0.0560639, -0.108906, -0.0109425, -0.443083, 0.633131, -3.12768, -0.0540322, -0.099676, 0.00769877, -0.00567515, -0.0162807, -0.00831748, -0.0038718, -0.0145689
0.0820364, 0.107476, -0.774232, -0.918615, -1.45966, -0.627204, 1.06788, -0.256718, 0.00617415, 0.00388781, -0.0206957, -0.0203287, -0.0373544, -0.0178819, 0.00120423, -0.281914, 16.16, 21.4225, 18.2648, 1.16565, 4.01248, -0.0685925, -6.83829e-05, -0.00176203, 0.0015259, 0.00365699, -0.00584222, 0.00173356, 0.0143006, 0.00243323, 0.00352555, 0.00954609, 0.0787686, 0.0429424, -0.010924, -0.444863, 0.634632, -3.13094, -0.0560851, -0.108965, -0.0109499, -0.44309, 0.633118, -3.12767, -0.0539844, -0.0995904, 0.00791545, -0.00582496, -0.0167186, -0.00667358, -0.00393429, -0.0141806
0.0830364, 0.10749, -0.774229, -0.91865, -1.45968, -0.627247, 1.06787, -0.256722, 0.00700915, 0.00354614, -0.025958, -0.0193451, -0.0420628, -0.0183817, -0.000417881, -0.392998, 16.1203, 21.4582, 18.3044, 1.16015, 4.0198, -0.0356336, -8.47054e-05, -0.00176025, 0.00152683, 0.0036503, -0.00593986, 0.0017655, 0.0170916, 0.00104789, 0.00270865, 0.00912212, 0.0824621, 0.0402536, -0.010916, -0.444869, 0.634615, -3.1309, -0.0561069, -0.109025, -0.010958, -0.443099, 0.633099, -3.12765, -0.0539572, -0.0994977, 0.00813491, -0.00597625, -0.0171612, -0.00913005, -0.00556159, -0.0156428
0.0840364, 0.107501, -0.774221, -0.918682, -1.4597, -0.627292, 1.06786, -0.256719, 0.012999, 0.00498223, -0.0280587, -0.0174724, -0.0405318, -0.0140595, 0.000704758, -0.468376, 16.0092, 21.4225, 18.3044, 1.14734, 4.02713, -0.0621838, -9.96021e-05, -0.00175813, 0.00152536, 0.00363358, -0.00604194, 0.00180552, 0.0145022, -5.07642e-05, 0.00338774, 0.0124496, 0.0801109, 0.0449189, -0.0109077, -0.444875, 0.634598, -3.13086, -0.0561293, -0.109086, -0.0109646, -0.443107, 0.633082, -3.12763, -0.0539176, -0.0994002, 0.00835714, -0.00612902, -0.0176085, -0.00633395, -0.00672715, -0.0152406
0.0850364, 0.107512, -0.774219, -0.918716, -1.45971, -0.627337, 1.06785, -0.256718, 0.0134718, 0.00727954, -0.0286504, -0.0152966, -0.0436683, -0.0102521, 0.000944557, -0.508049, 15.9735, 21.3471, 18.2648, 1.12903, 4.0198, -0.0750012, -0.000118125, -0.00175462, 0.00152195, 0.00361091, -0.00613433, 0.00184968, 0.0146358, -0.00114778, 0.00475282, 0.0189821, 0.082107, 0.04373, -0.0108992, -0.444881, 0.63458, -3.13082, -0.0561522, -0.109149, -0.0109746, -0.443118, 0.633066, -3.12762, -0.053872, -0.0993197, 0.00858211, -0.00628324, -0.0180604, -0.00629753, -0.00799585, -0.0143486
0.0860364, 0.107527, -0.774216, -0.918754, -1.45974, -0.627381, 1.06785, -0.256724, 0.0146592, 0.00595832, -0.033202, -0.0186016, -0.0467632, -0.0116463, -0.00154043, -0.583427, 15.9378, 21.3114, 18.3044, 1.12262, 3.99783, -0.0164075, -0.000134834, -0.00175121, 0.0015221, 0.00359658, -0.00623287, 0.00188121, 0.0162388, -0.00180727, 0.00271899, 0.0150642, 0.0868341, 0.0458266, -0.0108905, -0.444888, 0.634562, -3.13078, -0.0561758, -0.109214, -0.0109824, -0.443128, 0.633047, -3.1276, -0.0538468, -0.0992309, 0.00880983, -0.00643891, -0.018517, -0.00750277, -0.00884827, -0.0169513
0.0870364, 0.107544, -0.774209, -0.918795, -1.45976, -0.627423, 1.06785, -0.256718, 0.0155736, 0.00593801, -0.036858, -0.0191924, -0.0442003, -0.00857083, 0.000905824, -0.658806, 15.8624, 21.2757, 18.2648, 1.11072, 3.99142, -0.0685925, -0.000150712, -0.00174658, 0.00152007, 0.00357647, -0.00633012, 0.00192771, 0.0162594, -0.00259617, 0.00221174, 0.0147365, 0.0845258, 0.0447371, -0.0108816, -0.444894, 0.634543, -3.13073, -0.0561999, -0.10928, -0.0109893, -0.44314, 0.633029, -3.12758, -0.0537988, -0.0991459, 0.00904028, -0.00659599, -0.0189781, -0.00722909, -0.00978988, -0.0179263
0.0880364, 0.107564, -0.7742, -0.918844, -1.45977, -0.627471, 1.06785, -0.25672, 0.0161924, 0.00670905, -0.0435888, -0.0167619, -0.047856, -0.00622559, -0.00109154, -0.734184, 15.7513, 21.2757, 18.2291, 1.12262, 3.9841, -0.0228162, -0.000168523, -0.00173961, 0.00151959, 0.00355635, -0.00643304, 0.0019725, 0.0190846, -0.00471331, 0.00173782, 0.0162973, 0.0862509, 0.0409381, -0.0108725, -0.444901, 0.634524, -3.13069, -0.0562246, -0.109348, -0.0109976, -0.443154, 0.633009, -3.12757, -0.0537541, -0.0990537, 0.00927346, -0.00675447, -0.0194438, -0.0097029, -0.0121603, -0.0190783
0.0890364, 0.107579, -0.774198, -0.918892, -1.45979, -0.627514, 1.06784, -0.256724, 0.0180065, 0.00769716, -0.0422912, -0.0181229, -0.0448736, -0.00524625, -0.00120241, -0.734184, 15.7513, 21.2757, 18.1934, 1.11072, 3.99783, -0.00999879, -0.000188974, -0.00173386, 0.00151938, 0.00353992, -0.00652936, 0.00201657, 0.0167941, -0.00407165, 0.00223979, 0.0167738, 0.0859863, 0.0476915, -0.0108631, -0.444908, 0.634504, -3.13064, -0.0562499, -0.109417, -0.0110084, -0.443167, 0.632988, -3.12754, -0.0537112, -0.0989733, 0.00950935, -0.00691434, -0.0199139, -0.00724161, -0.0116027, -0.0188839
0.0900364, 0.107602, -0.774192, -0.918947, -1.45981, -0.627562, 1.06784, -0.256717, 0.0181482, 0.00631132, -0.0482624, -0.0192513, -0.0483098, -0.00370056, 0.00160589, -0.809562, 15.7156, 21.3114, 18.1537, 1.12262, 3.99142, -0.0750012, -0.000208499, -0.00172574, 0.00151993, 0.00352172, -0.00663172, 0.00207174, 0.0195495, -0.00568056, 0.000770611, 0.0159583, 0.0880977, 0.0411626, -0.0108534, -0.444915, 0.634484, -3.1306, -0.0562758, -0.109488, -0.0110178, -0.443183, 0.632966, -3.12752, -0.0536517, -0.0988851, 0.00974794, -0.00707558, -0.0203885, -0.00958928, -0.0134557, -0.0210296
0.0910364, 0.107623, -0.774194, -0.918993, -1.45983, -0.627604, 1.06784, -0.256722, 0.0194406, 0.00677282, -0.0502662, -0.0188072, -0.046107, -0.00303471, -0.000387468, -0.809562, 15.7513, 21.236, 18.1934, 1.13544, 3.99783, -0.0356336, -0.000226651, -0.00172053, 0.00151944, 0.00350386, -0.00672767, 0.00210678, 0.0192755, -0.00581197, 0.000864466, 0.015384, 0.087031, 0.0455009, -0.0108436, -0.444922, 0.634463, -3.13055, -0.0563023, -0.109561, -0.0110259, -0.443196, 0.632944, -3.1275, -0.053624, -0.0988087, 0.00998923, -0.00723817, -0.0208674, -0.00907649, -0.0137411, -0.0213979
0.0920364, 0.107648, -0.774184, -0.919053, -1.45985, -0.62765, 1.06784, -0.256721, 0.0214341, 0.00664135, -0.0576801, -0.0195358, -0.0438846, -0.00203352, -2.09527e-05, -0.845268, 15.6799, 21.2757, 18.1537, 1.13544, 3.99142, -0.0420422, -0.000245885, -0.00171207, 0.00152094, 0.00348891, -0.00683582, 0.0021582, 0.0203351, -0.00699816, -0.000945587, 0.0108566, 0.0862076, 0.044696, -0.0108335, -0.444929, 0.634442, -3.1305, -0.0563295, -0.109636, -0.0110345, -0.443212, 0.632921, -3.12747, -0.0535718, -0.0987147, 0.0102332, -0.00740209, -0.0213508, -0.0097194, -0.0151106, -0.0237711
0.0930364, 0.107675, -0.774181, -0.919113, -1.45987, -0.627694, 1.06785, -0.256715, 0.0262145, 0.00787987, -0.0589828, -0.0161584, -0.0422858, -0.000998948, 0.000969376, -0.884941, 15.6799, 21.2757, 18.0783, 1.13544, 3.97677, -0.0685925, -0.000265626, -0.00170364, 0.00152136, 0.00347197, -0.00693614, 0.00221228, 0.0187504, -0.0073883, 0.000204907, 0.0128116, 0.0842971, 0.0482961, -0.0108231, -0.444937, 0.634421, -3.13045, -0.0563573, -0.109712, -0.0110434, -0.443229, 0.632897, -3.12745, -0.0535159, -0.0986347, 0.0104799, -0.00756732, -0.0218384, -0.00795886, -0.015621, -0.0230042
0.0940364, 0.107704, -0.774173, -0.919173, -1.45989, -0.627742, 1.06785, -0.25672, 0.0257413, 0.00576879, -0.0590173, -0.0184908, -0.0415322, -0.00107658, -0.00128653, -0.884941, 15.6799, 21.236, 18.0783, 1.14734, 3.9841, -0.0164075, -0.000283703, -0.00169561, 0.00152247, 0.00345619, -0.00704806, 0.00225378, 0.0191965, -0.00700145, -8.00587e-05, 0.0119151, 0.0838609, 0.0534212, -0.0108125, -0.444944, 0.634399, -3.1304, -0.0563857, -0.10979, -0.0110504, -0.443245, 0.632873, -3.12742, -0.0534802, -0.0985383, 0.0107292, -0.00773386, -0.0223304, -0.00814814, -0.0154143, -0.0238101
0.0950364, 0.107732, -0.774164, -0.919236, -1.4599, -0.627786, 1.06784, -0.256718, 0.0245373, 0.00506774, -0.0624324, -0.0185418, -0.0355645, 0.00808535, 0.000837735, -0.845268, 15.6442, 21.2003, 18.0069, 1.14093, 3.99783, -0.0621838, -0.000303438, -0.00168746, 0.00152229, 0.00344079, -0.00715632, 0.00230713, 0.0190967, -0.00844351, 0.000245702, 0.0159514, 0.0748978, 0.0522224, -0.0108016, -0.444952, 0.634376, -3.13035, -0.0564147, -0.10987, -0.0110589, -0.443261, 0.632849, -3.12739, -0.0534269, -0.0984493, 0.0109812, -0.00790168, -0.0228265, -0.00776691, -0.0170232, -0.0239865
0.0960364, 0.107768, -0.77416, -0.919307, -1.45992, -0.627827, 1.06785, -0.256723, 0.02782, 0.00592794, -0.0658331, -0.0194239, -0.0401073, 0.00660516, 4.98636e-05, -0.845268, 15.6799, 21.2003, 17.9672, 1.12262, 3.9841, -0.0484509, -0.000322534, -0.00167761, 0.00152523, 0.00343091, -0.00726048, 0.00234811, 0.0195622, -0.00917528, -0.000665262, 0.0148023, 0.0813989, 0.0537994, -0.0107905, -0.44496, 0.634353, -3.1303, -0.0564444, -0.109952, -0.0110663, -0.44328, 0.632822, -3.12736, -0.0533935, -0.0983683, 0.0112358, -0.00807076, -0.0233269, -0.00788577, -0.0179313, -0.0254353
0.0970364, 0.107803, -0.774154, -0.919382, -1.45995, -0.62787, 1.06785, -0.256724, 0.0293653, 0.00359213, -0.073239, -0.0197227, -0.0392168, 0.00493316, -0.000916193, -0.809562, 15.7156, 21.2757, 18.0426, 1.11713, 3.9841, -0.0228162, -0.000341453, -0.00166719, 0.00153146, 0.00342587, -0.00737382, 0.00239484, 0.0221301, -0.0100793, -0.00261864, 0.00870215, 0.0804769, 0.0531083, -0.0107792, -0.444968, 0.634329, -3.13025, -0.0564747, -0.110035, -0.0110729, -0.443299, 0.63279, -3.12732, -0.0533522, -0.0982743, 0.011493, -0.00824109, -0.0238314, -0.0100185, -0.0190771, -0.0280774
0.0980364, 0.107844, -0.774142, -0.919452, -1.45997, -0.627914, 1.06784, -0.256726, 0.0313579, 0.00674949, -0.0726751, -0.0171261, -0.0390703, 0.00290618, -0.00135678, -0.809562, 15.6799, 21.236, 18.0069, 1.12262, 4.00516, -0.00267457, -0.000357242, -0.00165888, 0.00153375, 0.00341767, -0.00749358, 0.00243611, 0.0210548, -0.00954484, -0.00126033, 0.00978737, 0.0835517, 0.0565423, -0.0107676, -0.444977, 0.634305, -3.13019, -0.0565057, -0.11012, -0.0110765, -0.443316, 0.632763, -3.12728, -0.0533199, -0.0981724, 0.0117529, -0.00841265, -0.0243401, -0.00880069, -0.0186903, -0.027153
0.0990364, 0.107876, -0.774133, -0.91953, -1.45999, -0.627957, 1.06784, -0.256721, 0.029238, 0.00741572, -0.0711673, -0.0190636, -0.0390273, 0.00196415, 0.0007909, -0.658806, 15.7156, 21.2757, 18.0069, 1.12903, 4.01248, -0.0484509, -0.000378815, -0.00164906, 0.0015389, 0.0034135, -0.0076138, 0.00249622, 0.0212154, -0.0086968, -0.000884901, 0.0100439, 0.0865562, 0.0563111, -0.0107557, -0.444985, 0.634281, -3.13014, -0.0565373, -0.110207, -0.0110854, -0.443335, 0.632732, -3.12723, -0.0532592, -0.0980711, 0.0120154, -0.00858543, -0.0248528, -0.00875516, -0.0180256, -0.0272977
0.100036, 0.10792, -0.774123, -0.919609, -1.46001, -0.628, 1.06784, -0.256722, 0.0338977, 0.011915, -0.0785067, -0.0196049, -0.0396444, 0.00126165, 5.25491e-05, -0.619133, 15.7156, 21.2757, 17.9672, 1.15375, 4.0198, -0.0356336, -0.00039579, -0.00163829, 0.00154233, 0.00340419, -0.00773104, 0.002541, 0.02047, -0.00985197, -0.00263553, 0.00567079, 0.0933084, 0.0579666, -0.0107435, -0.444994, 0.634256, -3.13008, -0.0565696, -0.110296, -0.0110894, -0.443355, 0.632702, -3.1272, -0.0532227, -0.0979767, 0.0122806, -0.0087594, -0.0253696, -0.00758165, -0.0193095, -0.0295188
0.101036, 0.107959, -0.774111, -0.919689, -1.46004, -0.62804, 1.06784, -0.256718, 0.0325502, 0.014447, -0.0767538, -0.0227842, -0.0442776, 0.00127997, 0.00125574, -0.508049, 15.7513, 21.236, 18.0426, 1.16565, 4.01248, -0.0685925, -0.000413002, -0.00162892, 0.00154901, 0.00340459, -0.0078571, 0.00259089, 0.0202101, -0.00956426, -0.00242654, 0.00838909, 0.10205, 0.0580568, -0.0107311, -0.445003, 0.63423, -3.13002, -0.0566025, -0.110386, -0.0110933, -0.443374, 0.632668, -3.12714, -0.0531795, -0.0978698, 0.0125483, -0.00893455, -0.0258904, -0.00707947, -0.0191903, -0.0298122
0.102036, 0.107999, -0.774095, -0.91977, -1.46007, -0.628081, 1.06784, -0.256721, 0.0369098, 0.0117617, -0.0757207, -0.0223523, -0.0431588, 0.000436486, 9.1172e-05, -0.357292, 15.7156, 21.2003, 18.0069, 1.18396, 4.02713, -0.0484509, -0.000430533, -0.00161967, 0.00155348, 0.0034014, -0.00798588, 0.00263834, 0.0189504, -0.00909612, -0.00176923, 0.0086023, 0.0993994, 0.0665984, -0.0107184, -0.445012, 0.634204, -3.12996, -0.0566361, -0.110479, -0.0110974, -0.443392, 0.632637, -3.1271, -0.0531405, -0.0977607, 0.0128186, -0.00911087, -0.0264151, -0.00561623, -0.0188608, -0.0295904
0.103036, 0.108041, -0.77408, -0.919855, -1.4601, -0.628123, 1.06784, -0.256724, 0.0381303, 0.0151046, -0.0756863, -0.0278458, -0.0369689, 0.000114003, -0.00112601, -0.242241, 15.7156, 21.2003, 18.0783, 1.18396, 4.03445, -0.0164075, -0.000446479, -0.00160922, 0.00156101, 0.00340069, -0.0081195, 0.00268118, 0.0153064, -0.00774886, -0.00283767, 0.00371861, 0.102532, 0.0767606, -0.0107055, -0.445021, 0.634177, -3.1299, -0.0566704, -0.110573, -0.0110994, -0.443412, 0.632601, -3.12705, -0.0531096, -0.0976458, 0.0130915, -0.00928833, -0.0269437, -0.00168439, -0.0175504, -0.0309181
0.104036, 0.108079, -0.774065, -0.919951, -1.46013, -0.628161, 1.06784, -0.256719, 0.0375527, 0.0136318, -0.0841127, -0.0269509, -0.037787, -0.00117572, 0.000944745, -0.0557783, 15.7513, 21.3114, 18.0783, 1.20318, 4.07016, -0.0621838, -0.000468508, -0.00159822, 0.00157052, 0.00340984, -0.00825355, 0.00274561, 0.0194384, -0.00909921, -0.00455261, -0.00102225, 0.102866, 0.068803, -0.0106922, -0.44503, 0.63415, -3.12984, -0.0567054, -0.110669, -0.011107, -0.443433, 0.632563, -3.12698, -0.0530463, -0.0975313, 0.0133669, -0.00946692, -0.0274763, -0.00535738, -0.0192086, -0.0334658
0.105036, 0.108125, -0.774048, -0.920036, -1.46016, -0.628196, 1.06784, -0.256718, 0.0396692, 0.0165841, -0.0845544, -0.0264731, -0.0378587, -0.00178194, 0.000867189, 0.0196001, 15.7513, 21.1606, 18.0783, 1.20868, 4.09854, -0.0685925, -0.000482527, -0.00158973, 0.00157677, 0.00341296, -0.00838761, 0.00278787, 0.0181654, -0.00890704, -0.00398532, -0.000419868, 0.106654, 0.0723189, -0.0106787, -0.44504, 0.634122, -3.12978, -0.056741, -0.110767, -0.0111066, -0.443452, 0.632528, -3.12693, -0.0530178, -0.0974192, 0.0136449, -0.00964662, -0.0280126, -0.00385671, -0.0191567, -0.0333463
0.106036, 0.108166, -0.774031, -0.920139, -1.46019, -0.628235, 1.06784, -0.256724, 0.0367113, 0.0179098, -0.0927227, -0.0291783, -0.0384372, -0.00196199, -0.0103659, 0.170357, 15.791, 21.2003, 18.0783, 1.22699, 4.12051, -0.0228162, -0.000505244, -0.00157764, 0.00158736, 0.00342408, -0.00852769, 0.00284543, 0.0215177, -0.0100286, -0.00644233, -0.00583177, 0.111336, 0.0774666, -0.0106649, -0.44505, 0.634094, -3.12971, -0.0567774, -0.110867, -0.0111143, -0.443474, 0.632487, -3.12686, -0.0529666, -0.0972991, 0.0139255, -0.00982742, -0.0285528, -0.00670291, -0.0205525, -0.0365857
0.107036, 0.108208, -0.774012, -0.920228, -1.46023, -0.628268, 1.06783, -0.256718, 0.03689, 0.0181334, -0.0891053, -0.031225, -0.038564, -0.00260059, -0.00598589, 0.325081, 15.8624, 21.0892, 18.0783, 1.23981, 4.15622, -0.0685925, -0.000521557, -0.00157, 0.00159473, 0.00343356, -0.00866887, 0.00289754, 0.0201143, -0.00890492, -0.00553041, -0.00405261, 0.113925, 0.0789884, -0.0106509, -0.44506, 0.634065, -3.12965, -0.0568144, -0.110969, -0.0111156, -0.443492, 0.63245, -3.1268, -0.0529246, -0.0971793, 0.0142086, -0.0100093, -0.0290967, -0.00512553, -0.0195709, -0.0361133
0.108036, 0.108252, -0.773989, -0.920326, -1.46026, -0.628301, 1.06782, -0.256718, 0.0392457, 0.0201074, -0.0881608, -0.0311101, -0.0384949, -0.00276251, -0.00531462, 0.400459, 15.8624, 21.0496, 18.0069, 1.2453, 4.1846, -0.0484509, -0.000539421, -0.0015601, 0.00160226, 0.00344205, -0.00881182, 0.00295285, 0.0184417, -0.00851288, -0.00467459, -0.00249791, 0.116603, 0.0833474, -0.0106365, -0.44507, 0.634036, -3.12958, -0.0568522, -0.111073, -0.0111181, -0.443513, 0.632412, -3.12673, -0.0528783, -0.0970586, 0.0144943, -0.0101922, -0.0296444, -0.00324678, -0.0193113, -0.0356872
0.109036, 0.1083, -0.773975, -0.920435, -1.46029, -0.628335, 1.06782, -0.256719, 0.044099, 0.017945, -0.0892389, -0.0311997, -0.038232, -0.00209616, -0.00492604, 0.475838, 16.0092, 21.0892, 17.9315, 1.2453, 4.19192, -0.0228162, -0.000561431, -0.00154766, 0.00161314, 0.00345601, -0.00894792, 0.00300979, 0.0174016, -0.00878233, -0.00461291, -0.00220396, 0.114844, 0.0891783, -0.0106219, -0.44508, 0.634006, -3.12951, -0.0568906, -0.111178, -0.0111241, -0.443536, 0.63237, -3.12666, -0.0528303, -0.0969503, 0.0147825, -0.0103762, -0.0301957, -0.00191557, -0.019728, -0.036107
0.110036, 0.108342, -0.773947, -0.920533, -1.46033, -0.628367, 1.06782, -0.25672, 0.0404984, 0.023291, -0.0903481, -0.0320429, -0.0338073, -0.00243602, -0.0028971, 0.586922, 16.0092, 21.0138, 17.8918, 1.25812, 4.2203, -0.0420422, -0.000577726, -0.00153877, 0.00162158, 0.00346615, -0.00910103, 0.00306259, 0.0169761, -0.00795671, -0.00433321, -0.00393438, 0.118338, 0.0872599, -0.010607, -0.44509, 0.633975, -3.12945, -0.0569298, -0.111286, -0.0111244, -0.443556, 0.63233, -3.12659, -0.0527895, -0.0968177, 0.0150731, -0.0105613, -0.0307507, -0.00125017, -0.0190758, -0.0363476
0.111036, 0.108385, -0.773922, -0.920628, -1.46037, -0.628398, 1.06782, -0.256719, 0.036339, 0.022294, -0.0848557, -0.0366943, -0.0354043, -0.00215711, -0.00142927, 0.626595, 16.0846, 20.9385, 17.8918, 1.27643, 4.23495, -0.0621838, -0.000592235, -0.00152983, 0.00162886, 0.00347052, -0.00925151, 0.00311267, 0.0169151, -0.00654912, -0.00349888, -0.000740004, 0.121949, 0.0894872, -0.0105917, -0.445101, 0.633944, -3.12938, -0.0569696, -0.111396, -0.0111227, -0.443576, 0.63229, -3.12653, -0.0527535, -0.0966914, 0.0153663, -0.0107473, -0.0313093, -0.00100638, -0.0178623, -0.0360595
0.112036, 0.108425, -0.773895, -0.920728, -1.46041, -0.628429, 1.06782, -0.256725, 0.0377238, 0.0288001, -0.0899562, -0.0349874, -0.0308998, -0.00170226, -0.00306852, 0.737679, 16.1203, 20.9742, 17.9315, 1.27002, 4.24228, -0.00999879, -0.000609312, -0.00152144, 0.00163848, 0.00348278, -0.00941039, 0.00316102, 0.015656, -0.00689153, -0.00360891, -0.00323063, 0.124709, 0.0919243, -0.0105762, -0.445112, 0.633913, -3.1293, -0.0570102, -0.111507, -0.0111232, -0.443595, 0.632248, -3.12645, -0.0527212, -0.0965536, 0.015662, -0.0109343, -0.0318714, 0.000565343, -0.0183451, -0.0366462
0.113036, 0.108465, -0.773872, -0.920819, -1.46044, -0.628458, 1.06782, -0.256717, 0.0333575, 0.0255564, -0.0870715, -0.0330276, -0.0333038, -0.00163816, -0.000758699, 0.813057, 16.2314, 20.8631, 17.8204, 1.28833, 4.25601, -0.0484509, -0.000626332, -0.00151433, 0.00164128, 0.00348195, -0.0095564, 0.00322058, 0.018754, -0.00648976, -0.00158277, 0.00200601, 0.122618, 0.0873752, -0.0105604, -0.445123, 0.63388, -3.12923, -0.0570515, -0.111621, -0.0111238, -0.443614, 0.632212, -3.12639, -0.0526716, -0.0964386, 0.0159602, -0.0111224, -0.0324371, -0.00238271, -0.018266, -0.0354104
0.114036, 0.108498, -0.773843, -0.920919, -1.46048, -0.628488, 1.06781, -0.256719, 0.0322685, 0.0281251, -0.0917434, -0.0343536, -0.0350424, -0.00135939, -0.000337411, 0.928108, 16.2671, 20.9028, 17.8204, 1.30755, 4.26333, -0.0557752, -0.000646268, -0.00150628, 0.00164833, 0.0034884, -0.00971653, 0.00328207, 0.0202617, -0.007255, -0.00256526, 0.000608316, 0.128216, 0.0842244, -0.0105443, -0.445134, 0.633848, -3.12916, -0.0570936, -0.111737, -0.0111267, -0.443634, 0.63217, -3.12632, -0.0526203, -0.0963031, 0.0162609, -0.0113113, -0.0330063, -0.00348651, -0.0192634, -0.0370757
0.115036, 0.10853, -0.773811, -0.921005, -1.46052, -0.628519, 1.06781, -0.256723, 0.0291451, 0.0275693, -0.0891984, -0.034474, -0.036399, -0.00117454, -0.0015228, 1.00349, 16.2671, 20.8274, 17.7808, 1.33136, 4.27066, -0.0228162, -0.00066252, -0.00150073, 0.00165028, 0.0034832, -0.00987934, 0.0033337, 0.0214667, -0.00666412, -0.00119209, 0.00421248, 0.129335, 0.0857326, -0.0105279, -0.445146, 0.633814, -3.12908, -0.0571363, -0.111854, -0.011126, -0.443651, 0.632134, -3.12626, -0.0525845, -0.0961661, 0.016564, -0.0115013, -0.033579, -0.00450342, -0.0189222, -0.0363619
0.116036, 0.108565, -0.773782, -0.921091, -1.46055, -0.628545, 1.06781, -0.256717, 0.0338795, 0.0285149, -0.0857954, -0.0319599, -0.0318439, -0.00159459, 0.00109707, 1.03919, 16.3425, 20.8274, 17.634, 1.33136, 4.29263, -0.0814099, -0.000679188, -0.00149567, 0.00164893, 0.00347544, -0.0100307, 0.00339454, 0.0179182, -0.00547239, 0.000979697, 0.00631502, 0.126117, 0.093406, -0.0105112, -0.445157, 0.633781, -3.12901, -0.0571798, -0.111974, -0.0111258, -0.443668, 0.6321, -3.1262, -0.052535, -0.0960493, 0.0168696, -0.0116921, -0.034155, -0.000859103, -0.0178191, -0.0345094
0.117036, 0.108594, -0.773753, -0.921175, -1.46059, -0.628569, 1.0678, -0.256721, 0.0311886, 0.0293137, -0.0865647, -0.032435, -0.0285546, -0.00211254, -0.000532726, 1.07887, 16.4178, 20.8274, 17.7054, 1.33136, 4.32101, -0.0484509, -0.000695723, -0.00149298, 0.00165038, 0.00347564, -0.0101933, 0.00344384, 0.0186878, -0.00481778, 0.00128158, 0.00498727, 0.125808, 0.0956882, -0.0104942, -0.445169, 0.633746, -3.12893, -0.0572241, -0.112096, -0.0111249, -0.443683, 0.632063, -3.12614, -0.0525046, -0.0959164, 0.0171776, -0.0118839, -0.0347344, -0.00136364, -0.0173885, -0.034839
0.118036, 0.108622, -0.773722, -0.921259, -1.46062, -0.628596, 1.0678, -0.256719, 0.0268771, 0.0317943, -0.084721, -0.0327683, -0.031723, -0.00194964, -0.00086242, 1.07887, 16.4178, 20.8631, 17.6697, 1.35608, 4.33566, -0.0356336, -0.000714876, -0.00148905, 0.00164749, 0.00346411, -0.0103516, 0.00350676, 0.0200477, -0.00444753, 0.00255379, 0.00912532, 0.131512, 0.0938833, -0.0104768, -0.445181, 0.633711, -3.12885, -0.0572691, -0.112219, -0.0111267, -0.4437, 0.63203, -3.12608, -0.0524534, -0.0957929, 0.017488, -0.0120766, -0.0353172, -0.00251297, -0.0172757, -0.0342491
0.119036, 0.108651, -0.773691, -0.921338, -1.46065, -0.628621, 1.0678, -0.256713, 0.0244347, 0.0326673, -0.080195, -0.0324744, -0.0286671, -0.00153617, 0.00109606, 1.03919, 16.4536, 20.9028, 17.5943, 1.36249, 4.34207, -0.0814099, -0.000732167, -0.00148593, 0.00164137, 0.00344573, -0.0105067, 0.00357038, 0.0190832, -0.00302656, 0.00467302, 0.0125841, 0.130272, 0.0963736, -0.0104592, -0.445193, 0.633676, -3.12877, -0.0573148, -0.112345, -0.0111265, -0.443716, 0.631999, -3.12603, -0.0524016, -0.0956769, 0.0178009, -0.0122702, -0.0359033, -0.00144265, -0.0160396, -0.0326414
0.120036, 0.108674, -0.773661, -0.92141, -1.46068, -0.628642, 1.0678, -0.25672, 0.0247638, 0.0333746, -0.075765, -0.0309189, -0.0263004, -0.00156594, -0.00193246, 1.03919, 16.4893, 20.9028, 17.5943, 1.3689, 4.35672, -0.00999879, -0.0007495, -0.00148568, 0.00163381, 0.00342796, -0.0106629, 0.00361807, 0.0174186, -0.00177914, 0.00702265, 0.0163892, 0.128821, 0.105576, -0.0104412, -0.445205, 0.633639, -3.12869, -0.0573613, -0.112473, -0.0111263, -0.443729, 0.631969, -3.12598, -0.0523752, -0.0955614, 0.0181163, -0.0124646, -0.0364926, 0.000317332, -0.0149555, -0.0307581
0.121036, 0.108693, -0.773634, -0.921485, -1.46071, -0.628665, 1.06779, -0.256715, 0.021799, 0.0289206, -0.0749787, -0.0321547, -0.0286637, -0.0013147, 0.000393382, 1.03919, 16.6003, 21.0138, 17.7054, 1.36249, 4.36404, -0.0557752, -0.000770009, -0.00148494, 0.00162746, 0.00341008, -0.0108192, 0.00368373, 0.0202696, -0.0016659, 0.00743459, 0.0184842, 0.12762, 0.102581, -0.0104229, -0.445218, 0.633603, -3.12861, -0.0574085, -0.112603, -0.0111288, -0.443743, 0.631937, -3.12592, -0.0523218, -0.0954478, 0.018434, -0.0126599, -0.0370852, -0.00224077, -0.0151469, -0.0311459
0.122036, 0.10871, -0.773599, -0.921557, -1.46075, -0.628686, 1.0678, -0.256715, 0.0195201, 0.0291717, -0.0770567, -0.0329843, -0.0266559, -0.000333531, 0.00143875, 1.03919, 16.5646, 21.1249, 17.8204, 1.37439, 4.34939, -0.0878186, -0.000787553, -0.00148458, 0.00161976, 0.00338738, -0.0109844, 0.00374438, 0.0214747, -0.00167705, 0.0073729, 0.0179462, 0.1273, 0.10124, -0.0104044, -0.445231, 0.633565, -3.12852, -0.0574565, -0.112735, -0.0111281, -0.443757, 0.631906, -3.12587, -0.0522769, -0.0953224, 0.0187541, -0.012856, -0.0376809, -0.00311741, -0.0153984, -0.0318922
0.123036, 0.108729, -0.773571, -0.921617, -1.46077, -0.628711, 1.06779, -0.256721, 0.0195932, 0.0306643, -0.0691763, -0.0288996, -0.0251451, -0.00573654, -0.00169341, 0.963814, 16.6003, 21.0892, 17.7451, 1.38721, 4.37137, -0.0164075, -0.000807128, -0.00148661, 0.00160343, 0.00335105, -0.011137, 0.0037969, 0.0198353, 0.000983002, 0.0110572, 0.0212231, 0.128198, 0.111218, -0.0103854, -0.445244, 0.633527, -3.12844, -0.0575053, -0.11287, -0.0111299, -0.443768, 0.631883, -3.12583, -0.0522447, -0.0952199, 0.0190766, -0.013053, -0.0382798, -0.00152456, -0.0129228, -0.0286757
0.124036, 0.108746, -0.773537, -0.921686, -1.4608, -0.628731, 1.06778, -0.256713, 0.0163271, 0.0303485, -0.0708856, -0.032184, -0.0235409, -0.00445322, 0.00127276, 0.888436, 16.5646, 21.236, 17.9315, 1.38721, 4.37778, -0.0814099, -0.000825202, -0.00148858, 0.00159409, 0.00332974, -0.0113056, 0.00386347, 0.0210745, 0.0011109, 0.0103932, 0.0200351, 0.129049, 0.108345, -0.0103662, -0.445257, 0.633489, -3.12835, -0.0575548, -0.113006, -0.0111293, -0.44378, 0.631853, -3.12578, -0.0521922, -0.0950936, 0.0194015, -0.0132507, -0.0388819, -0.00239268, -0.0130313, -0.0300301
0.125036, 0.108754, -0.773512, -0.92175, -1.46082, -0.628753, 1.06778, -0.256714, 0.015157, 0.0251522, -0.0703479, -0.025223, -0.0182798, -0.0035337, 0.000132086, 0.888436, 16.6003, 21.3114, 17.8561, 1.40552, 4.3851, -0.0621838, -0.000852957, -0.00149118, 0.0015764, 0.00329439, -0.0114555, 0.00393585, 0.0235615, 0.0013498, 0.0132131, 0.0235787, 0.115698, 0.109912, -0.0103466, -0.44527, 0.633449, -3.12826, -0.0576051, -0.113144, -0.0111387, -0.443792, 0.631829, -3.12574, -0.0521308, -0.0949993, 0.0197288, -0.0134493, -0.039487, -0.0047569, -0.0131172, -0.0280026
0.126036, 0.108764, -0.773484, -0.921815, -1.46085, -0.628772, 1.06777, -0.256717, 0.0129749, 0.0260181, -0.0698013, -0.024559, -0.0183087, -0.00338982, -0.000898546, 0.813057, 16.5646, 21.3868, 17.9672, 1.40552, 4.40707, -0.0356336, -0.000876505, -0.00149464, 0.00156219, 0.00326629, -0.0116165, 0.00399964, 0.0244928, 0.0016844, 0.0143155, 0.0258001, 0.116885, 0.111037, -0.0103267, -0.445284, 0.63341, -3.12817, -0.0576562, -0.113285, -0.0111433, -0.443803, 0.631802, -3.12569, -0.0520839, -0.0948894, 0.0200585, -0.0136486, -0.0400951, -0.00544847, -0.0130313, -0.0275778
0.127036, 0.108767, -0.773461, -0.921873, -1.46087, -0.628792, 1.06776, -0.256712, 0.00948009, 0.0248585, -0.0622264, -0.0243383, -0.0186097, -0.00750692, 0.00133131, 0.813057, 16.6003, 21.4225, 17.9672, 1.41192, 4.4144, -0.0878186, -0.000904561, -0.00149921, 0.00154314, 0.00322874, -0.011769, 0.00407845, 0.0247586, 0.00413035, 0.0168732, 0.0287218, 0.118379, 0.113043, -0.0103065, -0.445298, 0.633369, -3.12808, -0.0577081, -0.113428, -0.0111525, -0.443813, 0.631779, -3.12564, -0.0520142, -0.0947955, 0.0203905, -0.0138487, -0.0407063, -0.00565831, -0.0108303, -0.0256363
0.128036, 0.108779, -0.773434, -0.921936, -1.46089, -0.628809, 1.06775, -0.25671, 0.00954115, 0.0267567, -0.0646887, -0.0238138, -0.0189975, -0.006038, 0.000410986, 0.701973, 16.525, 21.5336, 18.0783, 1.42383, 4.42813, -0.0750012, -0.000928058, -0.00150342, 0.00152631, 0.00319573, -0.0119274, 0.00414529, 0.0252648, 0.00357809, 0.0171702, 0.0301578, 0.120457, 0.113927, -0.010286, -0.445311, 0.633328, -3.12799, -0.0577607, -0.113573, -0.0111566, -0.443824, 0.631753, -3.1256, -0.051964, -0.0946943, 0.0207248, -0.0140495, -0.0413204, -0.00583095, -0.0116073, -0.0259985
0.129036, 0.10879, -0.773409, -0.922, -1.46091, -0.628827, 1.06774, -0.256717, 0.0103542, 0.0247555, -0.0623175, -0.0225601, -0.018691, -0.00948756, -0.00142281, 0.551216, 16.4536, 21.6089, 18.1537, 1.41742, 4.43545, -0.0292249, -0.000953782, -0.00150824, 0.00150872, 0.00316498, -0.0120859, 0.00420585, 0.0255892, 0.00477609, 0.0184658, 0.0302308, 0.11992, 0.120125, -0.0102651, -0.445326, 0.633287, -3.1279, -0.0578142, -0.11372, -0.0111627, -0.443835, 0.631727, -3.12555, -0.0514056, -0.0945948, 0.0210615, -0.0142511, -0.0419374, -0.00595761, -0.0106421, -0.0253378
0.130036, 0.108788, -0.773386, -0.922061, -1.46092, -0.628842, 1.06773, -0.256713, 0.00641783, 0.0263936, -0.0628656, -0.0177956, -0.0186964, -0.0114531, 0.000508494, 0.586922, 16.3782, 21.6446, 18.0783, 1.41742, 4.42813, -0.0685925, -0.000987315, -0.00151387, 0.00148577, 0.00312461, -0.0122349, 0.00429353, 0.0284861, 0.00510421, 0.0204287, 0.0324138, 0.120298, 0.113641, -0.0102438, -0.44534, 0.633244, -3.1278, -0.0578684, -0.113869, -0.0111767, -0.443845, 0.631705, -3.12551, -0.051324, -0.094513, 0.0214005, -0.0144534, -0.0425574, -0.0086621, -0.0106494, -0.0242103
0.131036, 0.108801, -0.773367, -0.922123, -1.46094, -0.628858, 1.06772, -0.256713, 0.0112236, 0.024353, -0.0666435, -0.0180958, -0.0144758, -0.0132456, 0.000575582, 0.436165, 16.3068, 21.6843, 18.1537, 1.43024, 4.42813, -0.0750012, -0.00101398, -0.00151911, 0.0014665, 0.00308989, -0.0123888, 0.0043601, 0.0277875, 0.00525478, 0.0195224, 0.0270844, 0.117255, 0.11994, -0.0102223, -0.445355, 0.633201, -3.12771, -0.0579234, -0.114021, -0.0111832, -0.443855, 0.63168, -3.12546, -0.0512764, -0.0944254, 0.0217418, -0.0146563, -0.0431802, -0.00756627, -0.0106678, -0.0256871
0.132036, 0.10881, -0.773348, -0.92219, -1.46096, -0.628873, 1.0677, -0.256713, 0.0105409, 0.0229032, -0.0662544, -0.0158059, -0.0143603, -0.0188032, -0.000837562, 0.325081, 16.2314, 21.72, 18.118, 1.39911, 4.4144, -0.0420422, -0.00104539, -0.00152381, 0.00144608, 0.00305496, -0.0125388, 0.00443587, 0.0297277, 0.00642909, 0.0204713, 0.0248715, 0.117878, 0.122111, -0.0102004, -0.445369, 0.633158, -3.12761, -0.0579792, -0.114174, -0.0111942, -0.443866, 0.631655, -3.1254, -0.0512153, -0.0943463, 0.0220854, -0.01486, -0.0438058, -0.00927114, -0.0097838, -0.025499
0.133036, 0.108813, -0.773327, -0.922262, -1.46098, -0.62889, 1.06769, -0.256712, 0.00830026, 0.0233374, -0.0669038, -0.0165799, -0.0115087, -0.0181347, 0.000661893, 0.285408, 16.0846, 21.7954, 18.1934, 1.41742, 4.39242, -0.0750012, -0.00107989, -0.00152868, 0.00142816, 0.00302582, -0.012701, 0.00452149, 0.0302983, 0.00685533, 0.0208432, 0.024708, 0.117206, 0.121931, -0.0101781, -0.445384, 0.633114, -3.12751, -0.0580358, -0.11433, -0.0112077, -0.443878, 0.631626, -3.12535, -0.05114, -0.0942497, 0.0224314, -0.0150643, -0.0444342, -0.00953896, -0.00959081, -0.0257966
0.134036, 0.108826, -0.773305, -0.922326, -1.461, -0.628901, 1.06768, -0.256715, 0.0102468, 0.0243449, -0.0677195, -0.0184442, -0.00841171, -0.0177404, -0.000271141, 0.0949785, 15.9021, 21.7597, 18.1934, 1.41192, 4.37137, -0.0557752, -0.00110734, -0.00153487, 0.00140528, 0.00298835, -0.0128552, 0.00458817, 0.0286583, 0.00729152, 0.0206999, 0.0232306, 0.117824, 0.128914, -0.0101555, -0.445399, 0.633069, -3.12741, -0.0580933, -0.114488, -0.0112143, -0.443888, 0.631602, -3.12529, -0.0510948, -0.0941686, 0.0227796, -0.0152693, -0.0450654, -0.00756435, -0.00930099, -0.0264488
0.135036, 0.108833, -0.773297, -0.922396, -1.46102, -0.628915, 1.06766, -0.256716, 0.0110028, 0.0206429, -0.0704499, -0.0168475, -0.00631486, -0.0171688, -0.000689631, 0.059273, 15.9021, 21.7954, 18.1934, 1.41192, 4.34207, -0.0420422, -0.00114413, -0.0015411, 0.00138566, 0.00295985, -0.0130038, 0.00466529, 0.0304734, 0.00693281, 0.0209581, 0.0227856, 0.112235, 0.130529, -0.0101325, -0.445415, 0.633024, -3.12731, -0.0581515, -0.114649, -0.0112295, -0.443899, 0.631574, -3.12523, -0.0510344, -0.0940978, 0.0231301, -0.0154749, -0.0456993, -0.0090303, -0.00993802, -0.0269647
0.136036, 0.108844, -0.773285, -0.922467, -1.46103, -0.62893, 1.06764, -0.256709, 0.0126407, 0.0167726, -0.0706907, -0.0170746, -0.0099292, -0.0217866, 0.000998124, -0.0161054, 15.8267, 21.7597, 18.118, 1.42383, 4.32101, -0.0814099, -0.00117964, -0.00154605, 0.00136374, 0.00292384, -0.0131546, 0.00475298, 0.032444, 0.00743434, 0.0208958, 0.0209218, 0.114514, 0.131003, -0.0101092, -0.44543, 0.632978, -3.12721, -0.0582105, -0.114811, -0.0112433, -0.443911, 0.631547, -3.12517, -0.050958, -0.0940262, 0.0234829, -0.0156811, -0.0463358, -0.010658, -0.00971782, -0.0278059
0.137036, 0.108853, -0.773264, -0.922544, -1.46105, -0.628941, 1.06763, -0.256711, 0.0130791, 0.0187127, -0.070987, -0.0200656, -0.00741287, -0.0250476, -0.000284157, -0.0557783, 15.6799, 21.72, 18.1537, 1.42383, 4.29904, -0.0557752, -0.00121339, -0.00155155, 0.00134495, 0.00289727, -0.0133185, 0.00483269, 0.0312993, 0.00870582, 0.0203326, 0.0164249, 0.119043, 0.137529, -0.0100856, -0.445446, 0.632931, -3.1271, -0.0582704, -0.114976, -0.0112548, -0.443923, 0.631517, -3.12511, -0.0508955, -0.093936, 0.0238379, -0.015888, -0.046975, -0.00917099, -0.00860788, -0.0289122
0.138036, 0.108871, -0.773248, -0.922627, -1.46107, -0.628955, 1.06761, -0.256708, 0.0150641, 0.0160388, -0.0762909, -0.0212135, -0.0104255, -0.0231575, 0.0042396, -0.166862, 15.5688, 21.7597, 18.1537, 1.43024, 4.28531, -0.0484509, -0.00124754, -0.00155576, 0.00132757, 0.00287387, -0.0134815, 0.00491389, 0.0334012, 0.00719595, 0.0191573, 0.0162218, 0.119622, 0.13246, -0.0100616, -0.445462, 0.632884, -3.127, -0.0583311, -0.115144, -0.0112662, -0.443936, 0.631484, -3.12504, -0.0508317, -0.0938492, 0.0241952, -0.0160954, -0.0476168, -0.0107677, -0.010389, -0.0308998
0.139036, 0.108888, -0.773239, -0.922708, -1.46109, -0.628966, 1.0676, -0.256706, 0.0157404, 0.0145844, -0.0803607, -0.0195256, -0.0124516, -0.0215359, 0.00443872, -0.242241, 15.5688, 21.6843, 18.0426, 1.43024, 4.26333, -0.0814099, -0.00128385, -0.00155977, 0.00130743, 0.0028438, -0.0136318, 0.00499516, 0.0357325, 0.00597182, 0.0192634, 0.017888, 0.118888, 0.130368, -0.0100372, -0.445478, 0.632836, -3.12689, -0.0583926, -0.115313, -0.0112795, -0.44395, 0.631454, -3.12497, -0.0507682, -0.0937849, 0.0245547, -0.0163034, -0.0482612, -0.0126952, -0.0119107, -0.0316268
0.140036, 0.108906, -0.773224, -0.922793, -1.46111, -0.62898, 1.06758, -0.256713, 0.0154108, 0.0154957, -0.0842172, -0.0192846, -0.0142159, -0.0209068, 0.00132009, -0.281914, 15.4935, 21.6446, 17.9672, 1.43573, 4.25601, -0.0292249, -0.00132084, -0.00156439, 0.00128936, 0.00282176, -0.0137974, 0.00507205, 0.0374866, 0.00516989, 0.0190249, 0.0181319, 0.121732, 0.131605, -0.0100124, -0.445495, 0.632787, -3.12678, -0.0584549, -0.115485, -0.0112931, -0.443963, 0.631421, -3.12489, -0.0507129, -0.0936985, 0.0249165, -0.016512, -0.0489081, -0.0140357, -0.0129853, -0.0326536
0.141036, 0.108931, -0.773205, -0.922886, -1.46113, -0.628991, 1.06756, -0.256711, 0.0222986, 0.0178565, -0.0875127, -0.0201252, -0.0155509, -0.0144998, 0.00181242, -0.357292, 15.3467, 21.6089, 17.9315, 1.44214, 4.2203, -0.0484509, -0.00135446, -0.00156723, 0.00127268, 0.00280093, -0.0139667, 0.00515424, 0.0345136, 0.00336649, 0.0189316, 0.0225916, 0.123573, 0.137647, -0.00998734, -0.445511, 0.632738, -3.12667, -0.058518, -0.115659, -0.0113027, -0.443978, 0.631386, -3.12482, -0.0506504, -0.0936085, 0.0252805, -0.0167211, -0.0495576, -0.0106358, -0.0148889, -0.0331993
0.142036, 0.108955, -0.773198, -0.922979, -1.46115, -0.629, 1.06754, -0.256708, 0.0233946, 0.0181785, -0.0859748, -0.020038, -0.0160887, -0.0150117, 0.00235684, -0.392998, 15.3864, 21.5336, 17.8561, 1.43573, 4.19925, -0.0750012, -0.00139172, -0.00157077, 0.00125668, 0.00278308, -0.0141253, 0.00523596, 0.0339192, 0.00390101, 0.0200038, 0.0246007, 0.125376, 0.141432, -0.00996188, -0.445528, 0.632688, -3.12656, -0.058582, -0.115835, -0.0113156, -0.443993, 0.631349, -3.12473, -0.0505894, -0.0935373, 0.0256467, -0.0169307, -0.0502094, -0.00977852, -0.0145605, -0.0327361
0.143036, 0.108974, -0.773181, -0.92307, -1.46118, -0.629009, 1.06753, -0.256713, 0.0186251, 0.0181969, -0.0913045, -0.0198414, -0.0116179, -0.0155064, -2.81121e-07, -0.317619, 15.311, 21.4582, 17.7808, 1.42383, 4.1846, -0.0292249, -0.00142754, -0.0015755, 0.00123968, 0.00276397, -0.0142963, 0.00531303, 0.0372753, 0.0038405, 0.0193447, 0.0203781, 0.123214, 0.139386, -0.00993605, -0.445545, 0.632638, -3.12645, -0.0586468, -0.116014, -0.0113268, -0.444007, 0.631313, -3.12465, -0.0505367, -0.0934493, 0.0260151, -0.0171409, -0.0508638, -0.0127058, -0.0149496, -0.0343015
0.144036, 0.109006, -0.773168, -0.923163, -1.4612, -0.629018, 1.06751, -0.256705, 0.0245178, 0.0141361, -0.0912417, -0.021184, -0.00850759, -0.0107582, 0.00178817, -0.357292, 15.2753, 21.3471, 17.634, 1.41742, 4.15622, -0.0750012, -0.00146035, -0.00157914, 0.0012215, 0.00274148, -0.0144618, 0.00539429, 0.0347934, 0.0034056, 0.0196925, 0.0229318, 0.116302, 0.148145, -0.00990985, -0.445562, 0.632586, -3.12633, -0.0587125, -0.116195, -0.0113347, -0.444022, 0.631277, -3.12457, -0.0504782, -0.0933725, 0.0263857, -0.0173516, -0.0515205, -0.00987305, -0.0155113, -0.0344358
0.145036, 0.109034, -0.773151, -0.923273, -1.46123, -0.629027, 1.06749, -0.256705, 0.0267748, 0.0174697, -0.098193, -0.0259002, -0.00621802, -0.0127017, 0.000787094, -0.317619, 15.2356, 21.3868, 17.634, 1.41192, 4.14889, -0.0621838, -0.00149716, -0.00158036, 0.00121131, 0.00273536, -0.0146414, 0.00547868, 0.0341523, 0.00323202, 0.0168514, 0.0144111, 0.123192, 0.151974, -0.00988328, -0.44558, 0.632535, -3.12622, -0.058779, -0.116378, -0.0113456, -0.444039, 0.631233, -3.12447, -0.0504165, -0.0932747, 0.0267585, -0.0175627, -0.0521796, -0.00864646, -0.0158358, -0.0378861
0.146036, 0.109062, -0.773138, -0.923374, -1.46126, -0.629034, 1.06748, -0.256708, 0.0257293, 0.0190332, -0.0996255, -0.0287847, -0.00956046, -0.0189602, -0.000406339, -0.166862, 15.2356, 21.2757, 17.4832, 1.41742, 4.14157, -0.0356336, -0.0015343, -0.00158372, 0.00119482, 0.00271876, -0.0148117, 0.00555859, 0.0356564, 0.00420394, 0.0158159, 0.00934197, 0.133289, 0.15327, -0.00985633, -0.445598, 0.632482, -3.1261, -0.0588463, -0.116563, -0.0113569, -0.444055, 0.631194, -3.12439, -0.0503622, -0.0931947, 0.0271335, -0.0177744, -0.052841, -0.00973227, -0.0151207, -0.0396855
0.147036, 0.109103, -0.77312, -0.923485, -1.4613, -0.629038, 1.06746, -0.256703, 0.0330937, 0.0212195, -0.10362, -0.0338455, -0.00674201, -0.0182505, 0.00122638, -0.206535, 15.1999, 21.1606, 17.4435, 1.40552, 4.12051, -0.0750012, -0.00156435, -0.00158537, 0.00118434, 0.00271295, -0.0149921, 0.00563287, 0.0316924, 0.00402384, 0.013724, 0.00419596, 0.13748, 0.162278, -0.00982901, -0.445615, 0.632429, -3.12598, -0.0589145, -0.116751, -0.0113603, -0.444073, 0.631149, -3.12429, -0.0503181, -0.0931005, 0.0275107, -0.0179865, -0.0535047, -0.00524427, -0.0153389, -0.0421447
0.148036, 0.109137, -0.773105, -0.923601, -1.46133, -0.629049, 1.06745, -0.256711, 0.0371812, 0.0219865, -0.107973, -0.0349576, -0.0107122, -0.0195187, 0.00313277, -0.0557783, 15.1999, 21.0892, 17.2968, 1.43024, 4.14157, -0.00999879, -0.00160278, -0.00158612, 0.00117276, 0.00270549, -0.0151756, 0.00571271, 0.0320749, 0.00318665, 0.012646, 0.00245089, 0.143802, 0.162211, -0.00980131, -0.445634, 0.632375, -3.12586, -0.0589835, -0.116942, -0.0113717, -0.444091, 0.631104, -3.12419, -0.0502662, -0.093004, 0.02789, -0.018199, -0.0541706, -0.00513546, -0.0163895, -0.0439276
0.149036, 0.109178, -0.773089, -0.923729, -1.46136, -0.629054, 1.06743, -0.256711, 0.0381558, 0.0155259, -0.112934, -0.0374695, -0.00775054, -0.0193739, 0.00250167, 0.059273, 15.2356, 21.0892, 17.2214, 1.42383, 4.14157, -0.00999879, -0.00163994, -0.00158514, 0.00116549, 0.00270804, -0.0153589, 0.0057971, 0.0344102, 0.00277835, 0.0109086, -0.00266775, 0.137849, 0.165217, -0.00977323, -0.445652, 0.63232, -3.12574, -0.0590534, -0.117134, -0.0113811, -0.444112, 0.631054, -3.12408, -0.0502086, -0.0929095, 0.0282715, -0.018412, -0.0548388, -0.00693731, -0.017075, -0.0465121
0.150036, 0.109223, -0.773066, -0.923858, -1.46139, -0.629062, 1.06742, -0.256703, 0.0426736, 0.0186431, -0.113312, -0.0376094, -0.00692083, -0.019781, 0.00438515, 0.134651, 15.1999, 21.0892, 17.0706, 1.45404, 4.15622, -0.0750012, -0.00167579, -0.00158362, 0.00115661, 0.00270751, -0.015552, 0.00589109, 0.0317738, 0.0030677, 0.0113867, -0.00252725, 0.141659, 0.170426, -0.00974476, -0.44567, 0.632265, -3.12562, -0.0591241, -0.117329, -0.0113888, -0.444134, 0.631005, -3.12397, -0.0501369, -0.0928022, 0.0286551, -0.0186253, -0.0555092, -0.00397454, -0.0169107, -0.0465084
0.151036, 0.10927, -0.773054, -0.923974, -1.46143, -0.62907, 1.0674, -0.256705, 0.0458545, 0.0176319, -0.11538, -0.03654, -0.0106749, -0.0195035, 0.00268112, 0.245735, 15.311, 20.9028, 16.9992, 1.47876, 4.15622, -0.0621838, -0.00170738, -0.0015852, 0.00114635, 0.00270191, -0.0157394, 0.00595817, 0.0325956, 0.00226412, 0.0117244, -0.0004217, 0.14375, 0.173839, -0.00971592, -0.445689, 0.632209, -3.12549, -0.0591957, -0.117527, -0.0113922, -0.444152, 0.630957, -3.12386, -0.0501079, -0.0927066, 0.0290408, -0.0188391, -0.0561817, -0.00440333, -0.0179658, -0.0469196
0.152036, 0.109316, -0.773033, -0.924109, -1.46148, -0.629074, 1.06739, -0.256707, 0.0440755, 0.0187751, -0.119065, -0.0355946, -0.00854097, -0.0193406, 0.00121573, 0.400459, 15.3467, 20.9385, 16.9238, 1.49707, 4.15622, -0.0420422, -0.00174247, -0.00158409, 0.00114081, 0.00270916, -0.0159361, 0.00603883, 0.0343204, 0.00203652, 0.0117889, -0.0016406, 0.143669, 0.173696, -0.00968668, -0.445708, 0.632153, -3.12537, -0.0592682, -0.117726, -0.0113982, -0.444173, 0.630903, -3.12374, -0.0500592, -0.0925982, 0.0294287, -0.0190533, -0.0568564, -0.00573149, -0.0184755, -0.0476671
0.153036, 0.109365, -0.773016, -0.92424, -1.46151, -0.629076, 1.06738, -0.256703, 0.0419567, 0.0139194, -0.125647, -0.039388, -0.00581282, -0.0191895, 0.00216192, 0.586922, 15.4935, 20.9028, 16.7731, 1.48517, 4.15622, -0.0750012, -0.00177721, -0.00158304, 0.00113201, 0.00270817, -0.0161243, 0.00612229, 0.0378587, 0.00149607, 0.00937548, -0.00806794, 0.140365, 0.171365, -0.00965706, -0.445727, 0.632096, -3.12524, -0.0593415, -0.117929, -0.0114038, -0.444195, 0.630852, -3.12363, -0.0500066, -0.0925057, 0.0298187, -0.0192678, -0.0575331, -0.00866647, -0.0193292, -0.0510287
0.154036, 0.109422, -0.772993, -0.924375, -1.46155, -0.629078, 1.06736, -0.256708, 0.0419816, 0.0225695, -0.128201, -0.0398714, -0.00453231, -0.0193591, 8.12599e-05, 0.701973, 15.5331, 20.8631, 16.662, 1.49158, 4.16354, -0.0356336, -0.00180712, -0.00158216, 0.00112558, 0.00271441, -0.0163252, 0.00619029, 0.0360762, 0.00165078, 0.00951739, -0.00882785, 0.149495, 0.174769, -0.00962704, -0.445747, 0.632038, -3.12511, -0.0594156, -0.118133, -0.0114039, -0.444216, 0.630798, -3.12351, -0.0499796, -0.0923957, 0.0302108, -0.0194827, -0.0582119, -0.00651572, -0.0193277, -0.0514342
0.155036, 0.109478, -0.77297, -0.924514, -1.4616, -0.629081, 1.06735, -0.256703, 0.047711, 0.0209311, -0.126193, -0.0420203, -0.00309899, -0.0149996, 0.000602425, 0.85273, 15.6442, 20.7917, 16.6223, 1.48517, 4.17727, -0.0484509, -0.00183898, -0.00158127, 0.00112068, 0.0027245, -0.0165306, 0.00627037, 0.0325327, 0.00158199, 0.0102523, -0.004853, 0.146958, 0.185788, -0.00959664, -0.445766, 0.631979, -3.12498, -0.0594907, -0.11834, -0.0114055, -0.444238, 0.630742, -3.12338, -0.0499349, -0.0922807, 0.0306049, -0.019698, -0.0588927, -0.00264445, -0.0194928, -0.0511192
0.156036, 0.109542, -0.772944, -0.924649, -1.46165, -0.629084, 1.06734, -0.256701, 0.0535975, 0.0247304, -0.128724, -0.0450432, -0.00298026, -0.0106798, 0.000965393, 0.928108, 15.6799, 20.752, 16.5112, 1.50348, 4.16354, -0.0621838, -0.00186462, -0.00158011, 0.00111309, 0.00272466, -0.0167384, 0.0063386, 0.0288461, 0.000673768, 0.00963943, -0.00335807, 0.151625, 0.193441, -0.00956583, -0.445786, 0.63192, -3.12485, -0.0595666, -0.11855, -0.0114007, -0.44426, 0.630688, -3.12327, -0.0499092, -0.092165, 0.0310012, -0.0199136, -0.0595756, 0.00150547, -0.0204709, -0.0521487
0.157036, 0.109596, -0.77292, -0.924788, -1.46169, -0.629081, 1.06732, -0.256705, 0.0514156, 0.0234375, -0.13247, -0.0430066, -0.00104494, -0.0134938, -0.00101046, 1.15424, 15.7513, 20.6766, 16.4755, 1.47327, 4.1846, -0.0164075, -0.00189552, -0.00158078, 0.00110751, 0.00273607, -0.0169463, 0.00640753, 0.0320905, 0.000851388, 0.00970298, -0.00663782, 0.150061, 0.192743, -0.00953463, -0.445806, 0.63186, -3.12472, -0.0596434, -0.118761, -0.0114007, -0.444281, 0.630632, -3.12314, -0.0498839, -0.092051, 0.0313996, -0.0201295, -0.0602603, -0.00134155, -0.0206347, -0.053019
0.158036, 0.109658, -0.772894, -0.924931, -1.46174, -0.629083, 1.06731, -0.256701, 0.0525802, 0.0286221, -0.135795, -0.0417363, -0.0015076, -0.0108701, 0.000815442, 1.26533, 15.8267, 20.6052, 16.3248, 1.49158, 4.20657, -0.0557752, -0.00192646, -0.00157913, 0.00109991, 0.00274044, -0.0171552, 0.00648811, 0.0315095, -6.11299e-05, 0.0102526, -0.004015, 0.154583, 0.191131, -0.00950303, -0.445826, 0.6318, -3.12458, -0.059721, -0.118976, -0.0114003, -0.444304, 0.630576, -3.12301, -0.049841, -0.0919381, 0.0318, -0.0203457, -0.060947, -0.000369501, -0.0217521, -0.0531296
0.159036, 0.109728, -0.772866, -0.925077, -1.46179, -0.62908, 1.06729, -0.256702, 0.0580622, 0.0295297, -0.139001, -0.0435988, -0.00110467, -0.0136364, 0.000295627, 1.305, 15.9021, 20.5655, 16.2891, 1.49158, 4.22763, -0.0484509, -0.00195204, -0.00157852, 0.00109605, 0.00275611, -0.0173724, 0.00655194, 0.0300323, 0.000107787, 0.00911057, -0.00875046, 0.158986, 0.198287, -0.00947103, -0.445847, 0.631738, -3.12445, -0.0597996, -0.119192, -0.011394, -0.444326, 0.630517, -3.12288, -0.0498258, -0.0918142, 0.0322025, -0.0205621, -0.0616356, 0.00158389, -0.0217289, -0.0548463
0.160036, 0.10979, -0.772844, -0.925232, -1.46184, -0.629082, 1.06728, -0.256704, 0.0595072, 0.0285747, -0.142186, -0.0458121, -0.000573795, -0.0106312, -0.000734901, 1.45576, 16.0489, 20.5655, 16.2891, 1.48517, 4.24228, -0.0228162, -0.00198606, -0.00157634, 0.00109388, 0.0027739, -0.0175894, 0.00662861, 0.0301847, -0.000661728, 0.00842905, -0.00860324, 0.15871, 0.202246, -0.00943863, -0.445867, 0.631676, -3.12431, -0.059879, -0.119411, -0.0113955, -0.44435, 0.630454, -3.12274, -0.0497916, -0.0916929, 0.032607, -0.0207789, -0.062326, 0.00191732, -0.0227121, -0.0562423
0.161036, 0.109858, -0.772815, -0.925383, -1.46189, -0.62908, 1.06726, -0.256702, 0.0584313, 0.0288011, -0.14387, -0.0461851, -0.000675917, -0.00834441, 0.00121857, 1.57081, 16.16, 20.5298, 16.2494, 1.49158, 4.25601, -0.0685925, -0.00201467, -0.00157473, 0.00108945, 0.00278631, -0.0178096, 0.00670256, 0.0311874, -0.00109989, 0.00880464, -0.00650521, 0.159164, 0.200596, -0.00940582, -0.445888, 0.631614, -3.12417, -0.0599593, -0.119633, -0.0113913, -0.444373, 0.630394, -3.1226, -0.0497624, -0.0915694, 0.0330136, -0.0209959, -0.0630183, 0.00131254, -0.0234133, -0.0566474
0.162036, 0.109921, -0.772782, -0.925532, -1.46194, -0.629076, 1.06725, -0.256705, 0.0602624, 0.0276006, -0.144971, -0.0498946, 0.000422895, -0.0120236, -0.000635864, 1.72157, 16.1957, 20.4941, 16.2137, 1.46686, 4.28531, -0.0292249, -0.00204308, -0.00157503, 0.00108397, 0.00280012, -0.018037, 0.00677369, 0.0308641, -0.000110726, 0.00765802, -0.0119343, 0.162463, 0.208355, -0.0093726, -0.445909, 0.63155, -3.12403, -0.0600404, -0.119857, -0.0113868, -0.444395, 0.630333, -3.12246, -0.0497388, -0.0914371, 0.0334222, -0.0212132, -0.0637123, 0.00209154, -0.0226142, -0.0584516
0.163036, 0.109987, -0.772754, -0.925682, -1.46199, -0.629077, 1.06723, -0.256702, 0.0589737, 0.030984, -0.146912, -0.0525351, 1.3055e-05, -0.00883787, 0.000295529, 1.83265, 16.3068, 20.4941, 16.178, 1.47327, 4.28531, -0.0484509, -0.00207314, -0.00157429, 0.00107901, 0.00281159, -0.0182638, 0.00685025, 0.0306035, -0.000581321, 0.00747106, -0.0101162, 0.167334, 0.208318, -0.00933897, -0.445931, 0.631486, -3.12389, -0.0601225, -0.120083, -0.0113834, -0.444419, 0.630272, -3.12233, -0.0497075, -0.0913082, 0.0338328, -0.0214307, -0.0644081, 0.00279376, -0.0232915, -0.0593247
0.164036, 0.110053, -0.772727, -0.925825, -1.46205, -0.629076, 1.06722, -0.256702, 0.0609304, 0.0325717, -0.149516, -0.0560831, 0.000222425, -0.0120549, -3.48181e-05, 1.9477, 16.4536, 20.4188, 16.2137, 1.46686, 4.30636, -0.0420422, -0.00210067, -0.00157609, 0.00107248, 0.00282152, -0.018494, 0.00691622, 0.0300394, -1.50522e-05, 0.00609622, -0.0154154, 0.173824, 0.213012, -0.00930493, -0.445952, 0.631421, -3.12375, -0.0602054, -0.120312, -0.0113772, -0.444439, 0.630211, -3.12219, -0.0496937, -0.0911767, 0.0342455, -0.0216484, -0.0651057, 0.00385092, -0.022902, -0.0613466
0.165036, 0.110124, -0.772689, -0.925977, -1.46211, -0.629075, 1.0672, -0.256706, 0.06134, 0.034522, -0.147608, -0.0556359, 0.00980571, -0.0143941, -0.00120587, 1.98341, 16.4536, 20.4545, 16.2494, 1.46045, 4.32834, -0.00999879, -0.00212546, -0.00157663, 0.00106815, 0.00283684, -0.0187387, 0.00698047, 0.027463, 0.00211832, 0.0073251, -0.0188276, 0.17032, 0.22288, -0.00927048, -0.445974, 0.631356, -3.1236, -0.0602893, -0.120544, -0.0113677, -0.444462, 0.630148, -3.12205, -0.049684, -0.0910248, 0.0346601, -0.0218663, -0.0658049, 0.00665422, -0.0209132, -0.0605972
0.166036, 0.110184, -0.772666, -0.926125, -1.46216, -0.629076, 1.06718, -0.256696, 0.0578015, 0.0292334, -0.148623, -0.0564583, 0.00707297, -0.0168153, 0.00136933, 2.17384, 16.6003, 20.4545, 16.2137, 1.46686, 4.36404, -0.0685925, -0.00216049, -0.00157853, 0.00106041, 0.00284799, -0.0189696, 0.00707016, 0.0319286, 0.00235112, 0.00724837, -0.0196882, 0.169873, 0.217686, -0.00923561, -0.445996, 0.63129, -3.12346, -0.060374, -0.120777, -0.0113683, -0.444483, 0.630087, -3.12191, -0.0496351, -0.090897, 0.0350768, -0.0220844, -0.0665058, 0.00261788, -0.0210695, -0.0617215
0.167036, 0.110253, -0.772633, -0.926268, -1.46223, -0.629073, 1.06716, -0.256701, 0.0566118, 0.0341594, -0.145369, -0.0624825, 0.00621073, -0.0225655, -0.00101756, 2.17384, 16.636, 20.4188, 16.2891, 1.44214, 4.3851, -0.0164075, -0.00218492, -0.00158245, 0.00105328, 0.00286079, -0.0192137, 0.00712658, 0.0298305, 0.0046916, 0.0067786, -0.023865, 0.183103, 0.226475, -0.00920033, -0.446018, 0.631223, -3.12331, -0.0604596, -0.121014, -0.011358, -0.444502, 0.630025, -3.12176, -0.0496394, -0.0907513, 0.0354954, -0.0223027, -0.0672083, 0.00507032, -0.0188643, -0.0627018
0.168036, 0.110316, -0.772604, -0.926407, -1.46228, -0.629071, 1.06714, -0.256699, 0.0600068, 0.0305678, -0.141959, -0.0624367, 0.00525357, -0.0219428, 0.000781435, 2.24921, 16.7114, 20.3434, 16.2891, 1.42383, 4.39975, -0.0557752, -0.00221298, -0.00158647, 0.00104252, 0.00286361, -0.0194524, 0.00719646, 0.028785, 0.00519667, 0.00829349, -0.0198848, 0.180842, 0.232767, -0.00916462, -0.446041, 0.631155, -3.12316, -0.0605461, -0.121253, -0.0113511, -0.444522, 0.629966, -3.12163, -0.0496232, -0.0906169, 0.0359161, -0.0225212, -0.0679124, 0.00639485, -0.0185665, -0.0618116
0.169036, 0.110384, -0.772576, -0.926551, -1.46234, -0.629067, 1.06712, -0.2567, 0.0621534, 0.0279155, -0.144485, -0.0631006, 0.00406593, -0.0212373, 0.000522267, 2.20954, 16.7828, 20.3434, 16.3248, 1.41742, 4.40707, -0.0557752, -0.00224027, -0.00159095, 0.00103454, 0.00287637, -0.0196952, 0.0072595, 0.0298376, 0.00463109, 0.00801261, -0.0198263, 0.180337, 0.235595, -0.00912849, -0.446063, 0.631087, -3.12301, -0.0606336, -0.121494, -0.0113429, -0.444541, 0.629904, -3.12148, -0.0496191, -0.0904781, 0.0363387, -0.0227398, -0.068618, 0.00581152, -0.0193882, -0.0628913
0.170036, 0.110443, -0.772546, -0.926694, -1.46241, -0.629066, 1.0671, -0.256702, 0.0605021, 0.0266541, -0.145176, -0.0647138, 0.00315871, -0.0206435, -0.000159466, 2.28492, 16.8225, 20.3077, 16.4001, 1.41192, 4.40707, -0.0420422, -0.00227107, -0.00159624, 0.00102651, 0.00288871, -0.0199458, 0.00733005, 0.0313211, 0.00466578, 0.00812713, -0.018977, 0.181547, 0.237064, -0.00909194, -0.446086, 0.631018, -3.12286, -0.0607219, -0.121738, -0.0113378, -0.44456, 0.62984, -3.12134, -0.0496044, -0.0903297, 0.0367632, -0.0229586, -0.0693252, 0.00474693, -0.0196336, -0.0636041
0.171036, 0.110504, -0.772521, -0.926843, -1.46248, -0.629063, 1.06707, -0.256697, 0.0573375, 0.0289137, -0.149897, -0.0646054, 0.00300136, -0.0200799, 0.00158985, 2.32459, 16.8582, 20.3434, 16.4359, 1.3927, 4.40707, -0.0878186, -0.00230469, -0.00160128, 0.00101974, 0.00290705, -0.020195, 0.00740997, 0.0339397, 0.00403999, 0.00781908, -0.019726, 0.184739, 0.230964, -0.00905497, -0.446109, 0.630949, -3.12271, -0.0608111, -0.121984, -0.0113349, -0.44458, 0.629775, -3.12118, -0.0495763, -0.0901854, 0.0371897, -0.0231774, -0.0700339, 0.00261228, -0.0205754, -0.0648385
0.172036, 0.110569, -0.772502, -0.926987, -1.46254, -0.629062, 1.06705, -0.256698, 0.0574406, 0.0256818, -0.147514, -0.0666682, 0.00234197, -0.0247699, -0.000397611, 2.24921, 16.9693, 20.2323, 16.4359, 1.38721, 4.4144, -0.0484509, -0.00233744, -0.00160635, 0.00101007, 0.00291572, -0.020437, 0.00747781, 0.0346611, 0.00558761, 0.00807616, -0.02211, 0.186643, 0.238172, -0.00901756, -0.446132, 0.630878, -3.12255, -0.0609012, -0.122233, -0.011331, -0.444599, 0.629711, -3.12104, -0.0495676, -0.0900558, 0.0376182, -0.0233964, -0.0707441, 0.00223983, -0.0192832, -0.0653317
0.173036, 0.110569, -0.772502, -0.926987, -1.46254, -0.629062, 1.06705, -0.256698, 0.0574406, 0.0256818, -0.147514, -0.0666682, 0.00234197, -0.0247699, -0.000397611, 2.24921, 16.9693, 20.2323, 16.4359, 1.38721, 4.4144, -0.0484509, -0.00236871, -0.00163237, 0.000936505, 0.00277189, -0.0206033, 0.00753531, 0.0350239, 0.00583707, 0.00882015, -0.020846, 0.187659, 0.240753, -0.00897973, -0.446156, 0.630807, -3.12239, -0.0609922, -0.122484, -0.011331, -0.444599, 0.629711, -3.12104, -0.0495676, -0.0900558, 0.0380486, -0.0236155, -0.0714557, 0.00223983, -0.0192832, -0.0653317
0.174036, 0.11068, -0.772461, -0.927273, -1.46268, -0.629054, 1.06699, -0.256694, 0.0549442, 0.0202913, -0.141246, -0.065022, 0.00227216, -0.0270426, 0.00120281, 2.24921, 17.0804, 20.1926, 16.5866, 1.34967, 4.40707, -0.0750012, -0.00240828, -0.00162127, 0.000991517, 0.00294413, -0.0209364, 0.00763182, 0.0366608, 0.00756186, 0.0115243, -0.0167401, 0.183171, 0.243172, -0.00894147, -0.44618, 0.630735, -3.12224, -0.0610841, -0.122738, -0.0113273, -0.444635, 0.629581, -3.12073, -0.0495251, -0.0897789, 0.0384809, -0.0238347, -0.0721687, 0.000760455, -0.0178936, -0.0634579
0.175036, 0.11073, -0.772437, -0.927413, -1.46275, -0.629051, 1.06696, -0.2567, 0.0529382, 0.0204814, -0.139713, -0.0660597, 0.00245444, -0.0249757, -0.00136803, 2.28492, 17.005, 20.1569, 16.662, 1.32587, 4.40707, -0.0164075, -0.00244518, -0.00163047, 0.000981448, 0.00295871, -0.0211962, 0.00770431, 0.0368941, 0.00788299, 0.0126344, -0.0132257, 0.183802, 0.24812, -0.00890277, -0.446204, 0.630663, -3.12208, -0.061177, -0.122995, -0.0113265, -0.444651, 0.629516, -3.12057, -0.0495126, -0.0896288, 0.0389151, -0.0240539, -0.0728831, 0.000860683, -0.0178247, -0.0630849
0.176036, 0.11079, -0.772423, -0.927543, -1.46282, -0.629043, 1.06693, -0.256693, 0.0555724, 0.0178015, -0.133879, -0.0689598, 0.00307008, -0.0231424, 0.00149565, 2.13416, 17.0407, 20.0458, 16.6977, 1.28833, 4.39975, -0.0814099, -0.00247643, -0.00164154, 0.000967269, 0.00296468, -0.0214419, 0.00777121, 0.0340923, 0.00902959, 0.014089, -0.00885661, 0.18249, 0.256739, -0.00886363, -0.446228, 0.630589, -3.12192, -0.0612707, -0.123253, -0.0113199, -0.444665, 0.629454, -3.12043, -0.0495092, -0.0895036, 0.0393512, -0.0242732, -0.0735988, 0.00392595, -0.016821, -0.0621171
0.177036, 0.110841, -0.772409, -0.927676, -1.46289, -0.629042, 1.0669, -0.256694, 0.054773, 0.0166458, -0.131439, -0.070305, 0.00319836, -0.0309048, 0.000759874, 2.09846, 17.0407, 20.0101, 16.6977, 1.25812, 4.3851, -0.0750012, -0.00251423, -0.00165226, 0.000953613, 0.00297068, -0.0216959, 0.00784437, 0.034896, 0.0112679, 0.0144324, -0.0135782, 0.186938, 0.261821, -0.00882406, -0.446252, 0.630515, -3.12175, -0.0613653, -0.123515, -0.0113194, -0.444681, 0.629391, -3.12028, -0.0494971, -0.0893679, 0.0397893, -0.0244926, -0.0743159, 0.00344465, -0.0148455, -0.0625264
0.178036, 0.110887, -0.772398, -0.927804, -1.46296, -0.629042, 1.06687, -0.256702, 0.0534321, 0.0157538, -0.130137, -0.0701158, 0.00617554, -0.0280473, -0.00217208, 2.09846, 17.0407, 20.0101, 16.7731, 1.27643, 4.3851, -0.00267457, -0.00255393, -0.00166475, 0.000938835, 0.00297564, -0.0219518, 0.00791132, 0.0348523, 0.0115983, 0.0158521, -0.0102132, 0.183205, 0.26836, -0.00878406, -0.446277, 0.630441, -3.12159, -0.0614609, -0.123779, -0.0113205, -0.444695, 0.629328, -3.12013, -0.0494958, -0.0892321, 0.0402292, -0.0247119, -0.0750342, 0.00380035, -0.0147635, -0.0618258
0.179036, 0.110937, -0.77238, -0.927923, -1.46303, -0.629034, 1.06683, -0.256691, 0.0512754, 0.0144814, -0.125246, -0.0709888, 0.00567969, -0.0306332, 0.00123078, 2.02308, 16.9296, 19.9705, 16.7731, 1.2453, 4.3851, -0.0750012, -0.00258641, -0.00167989, 0.000919389, 0.00297387, -0.022208, 0.00798538, 0.0351602, 0.0132945, 0.0175153, -0.00820062, 0.185001, 0.269336, -0.00874361, -0.446302, 0.630365, -3.12142, -0.0615574, -0.124045, -0.0113145, -0.444706, 0.629269, -3.11998, -0.049484, -0.0890986, 0.040671, -0.0249313, -0.0757538, 0.00373323, -0.0133358, -0.0608906
0.180036, 0.110985, -0.772372, -0.928047, -1.46311, -0.629032, 1.0668, -0.256699, 0.0525931, 0.0115248, -0.12331, -0.0705203, 0.00429725, -0.032486, -0.00134956, 1.9477, 16.8939, 20.0101, 16.8484, 1.23981, 4.37778, -0.0164075, -0.00262526, -0.00169427, 0.000902934, 0.00297794, -0.0224654, 0.00804643, 0.0357687, 0.0139755, 0.0186493, -0.0067461, 0.184722, 0.276431, -0.00870271, -0.446327, 0.630289, -3.12126, -0.0616548, -0.124315, -0.0113141, -0.444719, 0.629206, -3.11983, -0.0494938, -0.0889657, 0.0411146, -0.0251507, -0.0764746, 0.00345034, -0.0129246, -0.0605238
0.181036, 0.111025, -0.772365, -0.928169, -1.46318, -0.62903, 1.06677, -0.256699, 0.0485434, 0.00929494, -0.121735, -0.067554, 0.00735521, -0.033358, -0.000424948, 1.9477, 16.8582, 20.0458, 16.8127, 1.25171, 4.36404, -0.0292249, -0.00266856, -0.00170879, 0.000882875, 0.00297323, -0.0227174, 0.0081264, 0.0381811, 0.0149297, 0.0207322, -0.00477729, 0.17961, 0.275241, -0.00866138, -0.446352, 0.630212, -3.12109, -0.0617531, -0.124586, -0.011318, -0.444731, 0.629146, -3.11968, -0.0494747, -0.088844, 0.0415602, -0.0253701, -0.0771966, 0.00128578, -0.0123288, -0.0593524
0.182036, 0.111069, -0.772359, -0.928285, -1.46325, -0.629025, 1.06673, -0.256692, 0.0473714, 0.00761422, -0.122039, -0.0694142, 0.00682441, -0.0336857, 0.00188687, 1.87232, 16.8225, 20.0101, 16.8127, 1.21509, 4.34207, -0.0878186, -0.00270751, -0.00172534, 0.000861739, 0.00296816, -0.0229711, 0.00820084, 0.0394415, 0.0152453, 0.0207871, -0.00481458, 0.180764, 0.274852, -0.00861959, -0.446377, 0.630135, -3.12092, -0.0618523, -0.12486, -0.0113173, -0.444742, 0.629086, -3.11954, -0.0494652, -0.0887224, 0.0420076, -0.0255895, -0.0779197, 0.000456602, -0.0122887, -0.060122
