alisrour97/Franka_experiments/Real_Robot_scripts/servo-franka/Data4/log_dyn_PIw_ki_6.csv
Time,q1,q2,q3,q4,q5,q6,q7,dq1,dq2,dq3,dq4,dq5,dq6,dq7,t1,t2,t3,t4,t5,t6,t7,ex1,ex2,ex3,ex4,ex5,ex6,ev1,ev2,ev3,ev4,ev5,ev6,xd,yd,zd,uxd,uyd,uzd,x,y,z,ux,uy,uz,vxd,vyd,vzd,vx,vy,vz
9.76563e-07, 0.107545, -0.77424, -0.917051, -1.45766, -0.625505, 1.06951, -0.256689, 0.000233008, -0.0024146, -0.00494719, 0.00561699, -0.000363484, -0.000311566, 0.000105755, 0.0949785, 16.1203, 21.6446, 18.2648, 1.48517, 4.49313, -0.226063, 0.000709555, -0.0016845, 0.00074905, 0.00175114, -0.00141076, 0.000393406, 0.00349116, -0.00135101, 0.000180968, -0.000362549, -0.00540855, -0.00669273, -0.011112, -0.444721, 0.635038, -3.13187, -0.0555627, -0.107532, -0.0104094, -0.443005, 0.634348, -3.1302, -0.0554642, -0.105203, 0, 0, 0, -0.00344493, -0.00147448, -6.76241e-05
0.0123467, 0.107551, -0.774264, -0.917071, -1.45763, -0.625511, 1.0695, -0.256695, 0.0017413, -0.00139198, -0.00329319, 0.00104694, -0.00108119, 0.000722314, -0.000944628, 0.0196001, 16.2314, 21.7597, 18.1934, 1.52179, 4.47116, -0.193104, 0.000690441, -0.0016776, 0.000746092, 0.00174674, -0.00137293, 0.000415923, 0.00106682, -0.00103166, -0.000654796, -0.000655668, -0.00144913, -0.00086312, -0.011112, -0.444721, 0.635038, -3.13187, -0.0555627, -0.107532, -0.0104324, -0.443014, 0.634351, -3.13021, -0.0554101, -0.105273, 1.73063e-06, -1.42215e-06, -3.96181e-06, -0.000980283, -0.0010643, -0.000736846
0.0133469, 0.107551, -0.774264, -0.917071, -1.45763, -0.625511, 1.0695, -0.256695, 0.0017413, -0.00139198, -0.00329319, 0.00104694, -0.00108119, 0.000722314, -0.000944628, 0.0196001, 16.2314, 21.7597, 18.1934, 1.52179, 4.47116, -0.193104, 0.000690438, -0.0016776, 0.000746083, 0.00174672, -0.00137295, 0.00041593, 0.00107102, -0.00102715, -0.000642654, -0.000631474, -0.00143257, -0.000819628, -0.011112, -0.444721, 0.635038, -3.13187, -0.0555628, -0.107532, -0.0104324, -0.443014, 0.634351, -3.13021, -0.0554101, -0.105273, 6.91577e-06, -5.6745e-06, -1.58141e-05, -0.000980283, -0.0010643, -0.000736846
0.0143469, 0.107551, -0.774264, -0.917071, -1.45763, -0.625511, 1.0695, -0.256695, 0.0017413, -0.00139198, -0.00329319, 0.00104694, -0.00108119, 0.000722314, -0.000944628, 0.0196001, 16.2314, 21.7597, 18.1934, 1.52179, 4.47116, -0.193104, 0.000690429, -0.00167761, 0.000746057, 0.00174667, -0.00137301, 0.00041595, 0.00107803, -0.00101966, -0.000622478, -0.000591294, -0.00140505, -0.000747365, -0.011112, -0.444721, 0.635038, -3.13187, -0.0555628, -0.107532, -0.0104324, -0.443014, 0.634351, -3.13021, -0.0554101, -0.105273, 1.55453e-05, -1.2736e-05, -3.55071e-05, -0.000980283, -0.0010643, -0.000736846
0.0153469, 0.107551, -0.774264, -0.917071, -1.45763, -0.625511, 1.0695, -0.256695, 0.0017413, -0.00139198, -0.00329319, 0.00104694, -0.00108119, 0.000722314, -0.000944628, 0.0196001, 16.2314, 21.7597, 18.1934, 1.52179, 4.47116, -0.193104, 0.000690412, -0.00167763, 0.000746008, 0.00174656, -0.00137312, 0.000415988, 0.00108782, -0.00100922, -0.000594318, -0.000535249, -0.00136664, -0.000646513, -0.011112, -0.444721, 0.635038, -3.13187, -0.0555628, -0.107532, -0.0104324, -0.443014, 0.634351, -3.13021, -0.0554101, -0.105273, 2.7609e-05, -2.25855e-05, -6.29913e-05, -0.000980283, -0.0010643, -0.000736846
0.0163469, 0.107551, -0.774264, -0.917071, -1.45763, -0.625511, 1.0695, -0.256695, 0.0017413, -0.00139198, -0.00329319, 0.00104694, -0.00108119, 0.000722314, -0.000944628, 0.0196001, 16.2314, 21.7597, 18.1934, 1.52179, 4.47116, -0.193104, 0.000690384, -0.00167766, 0.000745926, 0.00174639, -0.00137331, 0.000416051, 0.0011004, -0.000995842, -0.000558224, -0.000463454, -0.00131743, -0.000517256, -0.0111119, -0.444721, 0.635038, -3.13187, -0.0555629, -0.107532, -0.0104324, -0.443014, 0.634351, -3.13021, -0.0554101, -0.105273, 4.30968e-05, -3.5202e-05, -9.82172e-05, -0.000980283, -0.0010643, -0.000736846
0.0173469, 0.107551, -0.774264, -0.917071, -1.45763, -0.625511, 1.0695, -0.256695, 0.0017413, -0.00139198, -0.00329319, 0.00104694, -0.00108119, 0.000722314, -0.000944628, 0.0196001, 16.2314, 21.7597, 18.1934, 1.52179, 4.47116, -0.193104, 0.000690341, -0.0016777, 0.000745805, 0.00174613, -0.00137359, 0.000416144, 0.00111576, -0.00097955, -0.000514246, -0.000376027, -0.00125747, -0.000359774, -0.0111119, -0.444721, 0.635038, -3.13187, -0.0555631, -0.107533, -0.0104324, -0.443014, 0.634351, -3.13021, -0.0554101, -0.105273, 6.19987e-05, -5.05647e-05, -0.000141136, -0.000980283, -0.0010643, -0.000736846
0.0183472, 0.107551, -0.774264, -0.917071, -1.45763, -0.625511, 1.0695, -0.256695, 0.0017413, -0.00139198, -0.00329319, 0.00104694, -0.00108119, 0.000722314, -0.000944628, 0.0196001, 16.2314, 21.7597, 18.1934, 1.52179, 4.47116, -0.193104, 0.000690282, -0.00167777, 0.000745636, 0.00174577, -0.00137397, 0.000416275, 0.00113388, -0.000960367, -0.000462433, -0.000273086, -0.00118684, -0.000174249, -0.0111118, -0.444721, 0.635037, -3.13187, -0.0555633, -0.107533, -0.0104324, -0.443014, 0.634351, -3.13021, -0.0554101, -0.105273, 8.43044e-05, -6.86525e-05, -0.000191697, -0.000980283, -0.0010643, -0.000736846
0.0193472, 0.107551, -0.774264, -0.917071, -1.45763, -0.625511, 1.0695, -0.256695, 0.0017413, -0.00139198, -0.00329319, 0.00104694, -0.00108119, 0.000722314, -0.000944628, 0.0196001, 16.2314, 21.7597, 18.1934, 1.52179, 4.47116, -0.193104, 0.000690203, -0.00167785, 0.000745412, 0.00174529, -0.00137449, 0.000416448, 0.00115478, -0.000938313, -0.000402835, -0.000154748, -0.00110561, 3.91372e-05, -0.0111117, -0.444721, 0.635037, -3.13187, -0.0555636, -0.107534, -0.0104324, -0.443014, 0.634351, -3.13021, -0.0554101, -0.105273, 0.000110004, -8.94448e-05, -0.000249853, -0.000980283, -0.0010643, -0.000736846
0.0203472, 0.107551, -0.774264, -0.917071, -1.45763, -0.625511, 1.0695, -0.256695, 0.0017413, -0.00139198, -0.00329319, 0.00104694, -0.00108119, 0.000722314, -0.000944628, 0.0196001, 16.2314, 21.7597, 18.1934, 1.52179, 4.47116, -0.193104, 0.000690102, -0.00167796, 0.000745124, 0.00174468, -0.00137515, 0.000416669, 0.00117844, -0.000913409, -0.000335501, -2.11283e-05, -0.00101384, 0.000280205, -0.0111116, -0.444721, 0.635037, -3.13187, -0.055564, -0.107535, -0.0104324, -0.443014, 0.634351, -3.13021, -0.0554101, -0.105273, 0.000139087, -0.000112921, -0.000315553, -0.000980283, -0.0010643, -0.000736846
0.0213474, 0.107551, -0.774264, -0.917071, -1.45763, -0.625511, 1.0695, -0.256695, 0.0017413, -0.00139198, -0.00329319, 0.00104694, -0.00108119, 0.000722314, -0.000944628, 0.0196001, 16.2314, 21.7597, 18.1934, 1.52179, 4.47116, -0.193104, 0.000689976, -0.00167809, 0.000744766, 0.00174392, -0.00137597, 0.000416946, 0.00120485, -0.000885678, -0.000260481, 0.000127656, -0.00091162, 0.000548775, -0.0111114, -0.444721, 0.635037, -3.13186, -0.0555644, -0.107536, -0.0104324, -0.443014, 0.634351, -3.13021, -0.0554101, -0.105273, 0.000171544, -0.000139059, -0.00038875, -0.000980283, -0.0010643, -0.000736846
0.0223501, 0.107551, -0.774264, -0.917071, -1.45763, -0.625511, 1.0695, -0.256695, 0.0017413, -0.00139198, -0.00329319, 0.00104694, -0.00108119, 0.000722314, -0.000944628, 0.0196001, 16.2314, 21.7597, 18.1934, 1.52179, 4.47116, -0.193104, 0.000689822, -0.00167825, 0.000744329, 0.00174299, -0.00137697, 0.000417283, 0.00123401, -0.000855141, -0.000177823, 0.000291488, -0.000799004, 0.000844666, -0.0111112, -0.444721, 0.635036, -3.13186, -0.055565, -0.107538, -0.0104324, -0.443014, 0.634351, -3.13021, -0.0554101, -0.105273, 0.000207364, -0.00016784, -0.000469394, -0.000980283, -0.0010643, -0.000736846
0.0233501, 0.107551, -0.774264, -0.917071, -1.45763, -0.625511, 1.0695, -0.256695, 0.0017413, -0.00139198, -0.00329319, 0.00104694, -0.00108119, 0.000722314, -0.000944628, 0.0196001, 16.2314, 21.7597, 18.1934, 1.52179, 4.47116, -0.193104, 0.000689637, -0.00167844, 0.000743806, 0.00174188, -0.00137817, 0.000417686, 0.00126592, -0.000821818, -8.7576e-05, 0.000470254, -0.000676066, 0.0011677, -0.011111, -0.444722, 0.635036, -3.13186, -0.0555656, -0.10754, -0.0104324, -0.443014, 0.634351, -3.13021, -0.0554101, -0.105273, 0.000246538, -0.000199242, -0.000557437, -0.000980283, -0.0010643, -0.000736846
0.0243501, 0.107551, -0.774264, -0.917071, -1.45763, -0.625511, 1.0695, -0.256695, 0.0017413, -0.00139198, -0.00329319, 0.00104694, -0.00108119, 0.000722314, -0.000944628, 0.0196001, 16.2314, 21.7597, 18.1934, 1.52179, 4.47116, -0.193104, 0.000689419, -0.00167867, 0.00074319, 0.00174057, -0.00137958, 0.000418161, 0.00130056, -0.000785731, 1.02102e-05, 0.000663838, -0.000542875, 0.0015177, -0.0111107, -0.444722, 0.635035, -3.13186, -0.0555664, -0.107542, -0.0104324, -0.443014, 0.634351, -3.13021, -0.0554101, -0.105273, 0.000289055, -0.000233245, -0.00065283, -0.000980283, -0.0010643, -0.000736846
0.0253501, 0.107547, -0.774271, -0.917115, -1.45763, -0.62553, 1.06951, -0.256696, -0.00140757, -0.000248227, -0.00410944, 0.000307211, -0.000196801, -0.00016016, -0.000943497, 0.0949785, 16.2314, 22.0929, 18.3044, 1.63898, 4.47116, -0.186696, 0.000667552, -0.00166732, 0.000754157, 0.00175487, -0.00138685, 0.000465155, 0.00240944, -0.000489017, -0.000282153, -0.000925885, 0.00101262, -0.0010678, -0.0111104, -0.444722, 0.635034, -3.13186, -0.0555673, -0.107544, -0.0104527, -0.443026, 0.634338, -3.13019, -0.0553385, -0.105262, 0.000334905, -0.000269828, -0.000755525, -0.00203058, -0.000840856, -0.00120557
0.0263501, 0.107555, -0.774272, -0.917121, -1.45762, -0.625534, 1.06951, -0.256692, 0.00166, -0.000176533, -0.0038178, 0.00125174, -0.000809369, -0.000106788, 0.0017785, -0.0161054, 16.2314, 22.1287, 18.2648, 1.65729, 4.47116, -0.251698, 0.00066759, -0.00166561, 0.000754364, 0.00175383, -0.00139019, 0.000469471, 0.00129055, -0.000608748, 0.000116139, 0.000128882, 0.00107059, -0.000883167, -0.0111101, -0.444722, 0.635033, -3.13186, -0.0555684, -0.107547, -0.0104523, -0.443028, 0.634337, -3.13019, -0.0553328, -0.10526, 0.000384079, -0.000308971, -0.000865474, -0.000888843, -0.000963719, -0.00084204
0.0273501, 0.107553, -0.774273, -0.917124, -1.45763, -0.625535, 1.06951, -0.256695, 0.000271396, 0.000709244, -0.00298317, -0.000577591, 0.000375948, -0.00316525, -0.000747113, 0.0196001, 16.1957, 22.0176, 18.1934, 1.63257, 4.42813, -0.199513, 0.000665187, -0.00166572, 0.000756406, 0.0017583, -0.00139606, 0.000469499, 0.00112161, 0.0004587, -0.00027694, -0.00312446, 0.00390312, 0.00282784, -0.0111097, -0.444723, 0.635033, -3.13186, -0.0555696, -0.10755, -0.0104541, -0.443028, 0.634334, -3.13019, -0.0553342, -0.105254, 0.000436566, -0.000350653, -0.000982628, -0.000679113, 7.06726e-05, -0.00133314
0.0283501, 0.107551, -0.774273, -0.91714, -1.45764, -0.625534, 1.06951, -0.256698, 0.000180888, 0.00066857, -0.00840086, -0.0042147, -0.00125895, -0.00827885, 0.00680311, 0.0196001, 16.0489, 21.9065, 18.0783, 1.54651, 4.32834, -0.140919, 0.000661536, -0.00166417, 0.000762861, 0.00177292, -0.0014052, 0.000475221, 0.00306922, 0.00043031, -0.00324633, -0.0120942, 0.0104732, -0.00739622, -0.0111092, -0.444723, 0.635032, -3.13185, -0.0555709, -0.107554, -0.0104568, -0.44303, 0.634326, -3.13017, -0.0553272, -0.105242, 0.000492356, -0.000394854, -0.00110694, -0.00236085, -4.48448e-05, -0.00455377
0.0293501, 0.107565, -0.774273, -0.917162, -1.45765, -0.62554, 1.0695, -0.256694, 0.00448225, 0.0027702, -0.0137019, -0.00368601, -0.00405992, -0.00209191, 0.00532468, -0.166862, 15.9378, 21.72, 17.8204, 1.49707, 4.20657, -0.140919, 0.00066115, -0.00166046, 0.000772202, 0.00179193, -0.00142332, 0.00048041, 0.00228625, -0.00208964, -0.00396948, -0.0085225, 0.0116806, -0.00679699, -0.0111087, -0.444723, 0.63503, -3.13185, -0.0555724, -0.107558, -0.0104559, -0.443034, 0.634316, -3.13015, -0.0553215, -0.105217, 0.000551439, -0.000441554, -0.00123836, -0.00138169, -0.00257606, -0.00536839
0.0303501, 0.107571, -0.774276, -0.917188, -1.45767, -0.625549, 1.06949, -0.256692, 0.00475138, 0.00106431, -0.0170975, -0.00763404, -0.00636399, -0.00289118, 0.00782952, -0.242241, 15.8267, 21.4979, 17.5943, 1.44855, 4.09854, -0.114369, 0.000654418, -0.00165746, 0.000784096, 0.00181981, -0.00144545, 0.000493299, 0.00354503, -0.00260952, -0.00613852, -0.0124554, 0.0150507, -0.0101827, -0.0111081, -0.444724, 0.635029, -3.13185, -0.0555741, -0.107563, -0.0104611, -0.443038, 0.634302, -3.13012, -0.0553042, -0.105185, 0.000613805, -0.000490732, -0.00137684, -0.00240729, -0.00317036, -0.00776048
0.0313501, 0.107579, -0.774278, -0.917216, -1.45768, -0.62556, 1.06948, -0.256696, 0.00805098, -0.000228623, -0.0217063, -0.00794127, -0.00789167, -0.00547652, 0.00506957, -0.317619, 15.7156, 21.236, 17.2571, 1.39911, 4.04086, -0.0878186, 0.000646172, -0.00165491, 0.000795944, 0.00185121, -0.0014733, 0.000502569, 0.00452673, -0.0032453, -0.00776836, -0.017192, 0.016855, -0.00767687, -0.0111074, -0.444724, 0.635028, -3.13184, -0.055576, -0.107568, -0.0104678, -0.443041, 0.634288, -3.13009, -0.055293, -0.105145, 0.000679445, -0.000542368, -0.00152234, -0.00318614, -0.00387783, -0.00960334
0.0323501, 0.107587, -0.774284, -0.917244, -1.4577, -0.625576, 1.06946, -0.25669, 0.00739056, -0.000726288, -0.0255696, -0.0115335, -0.0113207, -0.0108889, 0.00522533, -0.392998, 15.7156, 20.9742, 17.0349, 1.40552, 3.94839, -0.120778, 0.000637884, -0.00165215, 0.000811138, 0.0018869, -0.00150775, 0.000520371, 0.00676846, -0.0031107, -0.0102783, -0.0245382, 0.0244087, -0.0106709, -0.0111067, -0.444725, 0.635026, -3.13184, -0.055578, -0.107574, -0.0104742, -0.443044, 0.634271, -3.13005, -0.0552689, -0.105094, 0.000748347, -0.000596442, -0.0016748, -0.00518521, -0.0038546, -0.012413
0.0333501, 0.107608, -0.774293, -0.917271, -1.45773, -0.625594, 1.06944, -0.256689, 0.0104118, -0.00174981, -0.0269449, -0.0149404, -0.00965635, -0.0108821, 0.00493559, -0.619133, 15.7513, 20.6409, 16.8484, 1.43024, 3.87607, -0.147328, 0.000635089, -0.00165018, 0.000827184, 0.00192582, -0.00154424, 0.000516981, 0.00521322, -0.00301616, -0.0116736, -0.0280194, 0.0246483, -0.00527807, -0.0111059, -0.444726, 0.635024, -3.13184, -0.0555803, -0.10758, -0.010475, -0.443047, 0.634253, -3.13001, -0.055278, -0.105041, 0.000820503, -0.000652933, -0.00183418, -0.00347026, -0.00374982, -0.0138569
0.0343501, 0.107617, -0.774297, -0.917311, -1.45775, -0.625613, 1.06943, -0.256697, 0.011988, -0.00148935, -0.0288194, -0.0206447, -0.0172412, -0.0144118, 0.00143787, -0.694511, 15.7513, 20.4545, 16.662, 1.44214, 3.76895, -0.0878186, 0.000624452, -0.00164474, 0.000845833, 0.00196567, -0.00158405, 0.000528395, 0.00577955, -0.00321939, -0.0141216, -0.0318661, 0.0364751, -0.001732, -0.0111051, -0.444726, 0.635022, -3.13183, -0.0555828, -0.107587, -0.0104833, -0.443053, 0.634232, -3.12997, -0.0552644, -0.104983, 0.000895902, -0.000711822, -0.00200043, -0.00378457, -0.00401056, -0.0165055
0.0353501, 0.107626, -0.7743, -0.917345, -1.45778, -0.625632, 1.06941, -0.25669, 0.0132809, -0.001235, -0.0329524, -0.0247433, -0.022667, -0.0136587, 0.00366362, -0.76989, 15.7513, 20.268, 16.4755, 1.44855, 3.69754, -0.153737, 0.000614784, -0.00164151, 0.000863285, 0.00200669, -0.00162807, 0.000550856, 0.00665719, -0.00448147, -0.0163328, -0.0334973, 0.0435701, -0.00567434, -0.0111041, -0.444727, 0.63502, -3.13183, -0.0555855, -0.107594, -0.0104907, -0.443058, 0.634211, -3.12993, -0.0552339, -0.104919, 0.000974534, -0.000773089, -0.00217351, -0.00438441, -0.0053448, -0.0189528
0.0363501, 0.107626, -0.774304, -0.917377, -1.45781, -0.62565, 1.06939, -0.256691, 0.00763191, -0.00100491, -0.0321633, -0.02817, -0.0212327, -0.00886743, 0.00240278, -0.694511, 15.7513, 20.0458, 16.4359, 1.43573, 3.63986, -0.147328, 0.000605032, -0.00163984, 0.000883378, 0.00205237, -0.00167889, 0.000565296, 0.00739349, -0.00460044, -0.0163698, -0.0306357, 0.0427016, -0.00633976, -0.0111031, -0.444728, 0.635018, -3.13182, -0.0555884, -0.107602, -0.010498, -0.44306, 0.634188, -3.12988, -0.0552164, -0.104844, 0.00105639, -0.000836713, -0.00235336, -0.00502978, -0.00555283, -0.019221
0.0373501, 0.107632, -0.774305, -0.917414, -1.45784, -0.625668, 1.06937, -0.256694, 0.00856133, -0.000806122, -0.0354099, -0.0270965, -0.0192095, -0.0111039, -0.000453894, -0.694511, 15.7513, 19.8594, 16.2494, 1.39911, 3.61148, -0.0878186, 0.000593719, -0.00163671, 0.000900749, 0.0020951, -0.00172525, 0.000582346, 0.00810051, -0.00460553, -0.0169914, -0.0346396, 0.042206, -0.00392383, -0.011102, -0.444729, 0.635016, -3.13182, -0.0555915, -0.107611, -0.0105068, -0.443064, 0.634168, -3.12983, -0.0551948, -0.104778, 0.00114146, -0.000902674, -0.00253994, -0.00560676, -0.00564332, -0.0200763
0.0383501, 0.107631, -0.774313, -0.91745, -1.45787, -0.625693, 1.06935, -0.256688, 0.00450438, -0.00323801, -0.0328979, -0.0297178, -0.023294, -0.0180376, 0.00150405, -0.619133, 15.8624, 19.7086, 16.2137, 1.3808, 3.60415, -0.133595, 0.000578618, -0.00163367, 0.000921091, 0.00213942, -0.00177671, 0.000612612, 0.0108871, -0.00303509, -0.0174504, -0.0381684, 0.0482068, -0.00791573, -0.0111008, -0.44473, 0.635013, -3.13181, -0.0555949, -0.10762, -0.0105192, -0.443069, 0.634144, -3.12979, -0.0551531, -0.104704, 0.00122973, -0.000970953, -0.00273321, -0.00832125, -0.0042362, -0.0209093
0.0393501, 0.107632, -0.774308, -0.917485, -1.4579, -0.62571, 1.06933, -0.256686, 0.00571652, 0.00577987, -0.0346415, -0.0299023, -0.0245103, -0.0233617, 0.000611397, -0.583427, 15.791, 19.5975, 16.1026, 1.31305, 3.61148, -0.120778, 0.000568409, -0.00163149, 0.000938546, 0.0021818, -0.0018317, 0.00063672, 0.00901537, -0.0022881, -0.0179643, -0.0424875, 0.0612923, -0.0069184, -0.0110996, -0.444731, 0.63501, -3.1318, -0.0555986, -0.10763, -0.0105268, -0.443072, 0.634123, -3.12974, -0.0551212, -0.104625, 0.00132119, -0.00104153, -0.00293311, -0.00635502, -0.00348986, -0.0214887
0.0403501, 0.10763, -0.774298, -0.917522, -1.45794, -0.625739, 1.06931, -0.25669, 0.00262354, 0.00692297, -0.0357949, -0.0319079, -0.0274951, -0.0180267, -0.00122526, -0.508049, 15.6799, 19.4864, 16.2137, 1.29474, 3.6188, -0.0750012, 0.000558921, -0.00162897, 0.000960299, 0.00222684, -0.00191023, 0.000656435, 0.0100851, -0.00351176, -0.0180887, -0.03772, 0.0636256, -0.0086899, -0.0110982, -0.444732, 0.635007, -3.1318, -0.0556025, -0.107641, -0.0105333, -0.443076, 0.634098, -3.1297, -0.0550965, -0.10451, 0.00141584, -0.00111438, -0.0031396, -0.00727457, -0.00482205, -0.0219005
0.0413501, 0.107633, -0.774297, -0.917552, -1.45798, -0.625762, 1.06929, -0.256687, 0.00530098, 0.00496877, -0.0357949, -0.0344878, -0.0282421, -0.0193704, -2.39329e-05, -0.508049, 15.6799, 19.3397, 16.2494, 1.23981, 3.64718, -0.0951428, 0.000550937, -0.00162751, 0.00097882, 0.00226688, -0.00197188, 0.000673009, 0.00933134, -0.00322398, -0.0189269, -0.0398844, 0.0649181, -0.00546666, -0.0110967, -0.444733, 0.635004, -3.13179, -0.0556067, -0.107652, -0.0105385, -0.443079, 0.634075, -3.12965, -0.0550768, -0.104422, 0.00151366, -0.0011895, -0.00335263, -0.00637792, -0.00457565, -0.0228963
0.0423501, 0.107632, -0.77429, -0.917599, -1.45802, -0.625792, 1.06927, -0.256686, 0.00318985, 0.00534084, -0.0418257, -0.0412219, -0.0303076, -0.0200117, 0.00120603, -0.468376, 15.6046, 19.4507, 16.3644, 1.2215, 3.66824, -0.127186, 0.000536639, -0.00162284, 0.0010026, 0.00231639, -0.00204968, 0.000706872, 0.0112489, -0.00393874, -0.0224481, -0.0465771, 0.0721266, -0.0101177, -0.0110952, -0.444734, 0.635, -3.13178, -0.0556111, -0.107664, -0.0105494, -0.443085, 0.634047, -3.1296, -0.0550309, -0.10431, 0.00161465, -0.00126685, -0.00357216, -0.0079218, -0.00540411, -0.026765
0.0433501, 0.107627, -0.774286, -0.91763, -1.45806, -0.625817, 1.06924, -0.256692, 0.000801238, 0.0045946, -0.0422638, -0.0387012, -0.0319648, -0.0170809, -0.00157708, -0.392998, 15.5688, 19.4111, 16.4359, 1.20868, 3.72592, -0.0621838, 0.000524411, -0.00162181, 0.0010208, 0.00235695, -0.00211749, 0.000726586, 0.0132935, -0.00477089, -0.0212709, -0.04163, 0.0698325, -0.0113089, -0.0110935, -0.444735, 0.634997, -3.13177, -0.0556159, -0.107677, -0.0105586, -0.443087, 0.634024, -3.12956, -0.0550069, -0.104214, 0.00171879, -0.00134642, -0.00379814, -0.00990684, -0.00639734, -0.0259626
0.0443501, 0.107622, -0.774289, -0.917661, -1.45809, -0.625853, 1.06922, -0.256689, 2.73727e-05, 0.00144894, -0.0377697, -0.0391922, -0.033999, -0.0194084, -0.000319517, -0.357292, 15.6442, 19.4111, 16.4755, 1.2215, 3.7836, -0.0814099, 0.000507415, -0.00161979, 0.00103761, 0.00239172, -0.00218592, 0.000760728, 0.0137775, -0.0036422, -0.0201989, -0.039813, 0.0698464, -0.00978228, -0.0110917, -0.444737, 0.634993, -3.13176, -0.0556209, -0.107691, -0.0105726, -0.443091, 0.634003, -3.12952, -0.0549606, -0.104118, 0.00182607, -0.00142819, -0.00403052, -0.0103957, -0.00537738, -0.0251519
0.0453501, 0.107611, -0.774289, -0.917695, -1.45814, -0.625886, 1.0692, -0.256684, -0.0032619, 0.0010778, -0.0360649, -0.0437591, -0.0404328, -0.0208615, 0.0012599, -0.206535, 15.6442, 19.4864, 16.6977, 1.23981, 3.83304, -0.120778, 0.000491082, -0.001618, 0.00105899, 0.00243433, -0.00226385, 0.00079781, 0.0153531, -0.00332873, -0.0209002, -0.0389918, 0.0782911, -0.0132077, -0.0110899, -0.444738, 0.634989, -3.13175, -0.0556263, -0.107706, -0.0105855, -0.443095, 0.633976, -3.12947, -0.0549103, -0.104008, 0.00193648, -0.00151214, -0.00426926, -0.0118192, -0.0051973, -0.0261969
0.0463501, 0.107606, -0.774286, -0.917728, -1.45819, -0.625922, 1.06918, -0.256684, -0.00291788, 0.000802407, -0.0353763, -0.0428109, -0.0397744, -0.020749, 0.000851066, -0.166862, 15.6442, 19.5975, 16.8842, 1.23981, 3.85501, -0.120778, 0.000477914, -0.0016154, 0.00107867, 0.00246943, -0.00234285, 0.00082533, 0.0152135, -0.0031224, -0.0201738, -0.037763, 0.0771556, -0.0112033, -0.0110879, -0.44474, 0.634984, -3.13174, -0.0556319, -0.107721, -0.0105952, -0.443099, 0.633951, -3.12943, -0.054875, -0.103898, 0.00205002, -0.00159825, -0.00451432, -0.0116233, -0.00507848, -0.0257065
0.0473501, 0.107594, -0.77428, -0.917751, -1.45822, -0.625957, 1.06917, -0.256686, -0.00533317, 0.00236108, -0.0292098, -0.0393292, -0.0350383, -0.015519, -0.000136348, -0.0161054, 15.5688, 19.5975, 16.9595, 1.25171, 3.86233, -0.101552, 0.000464217, -0.00161401, 0.00109196, 0.0024903, -0.00241824, 0.000854946, 0.0131595, -0.00236815, -0.0165121, -0.0286263, 0.0702701, -0.00653308, -0.0110858, -0.444741, 0.63498, -3.13173, -0.0556379, -0.107738, -0.0106057, -0.443103, 0.633932, -3.1294, -0.0548362, -0.103795, 0.00216668, -0.00168649, -0.00476563, -0.0097366, -0.00437244, -0.0221589
0.0483501, 0.107587, -0.774274, -0.917782, -1.45826, -0.625997, 1.06915, -0.25669, -0.00428675, 0.00338447, -0.030153, -0.0407653, -0.0354959, -0.016357, -0.0015427, 0.0196001, 15.4935, 19.7086, 17.0706, 1.2453, 3.86966, -0.0621838, 0.000450028, -0.0016117, 0.00110935, 0.00252005, -0.00250255, 0.000882396, 0.0126707, -0.00226775, -0.0170198, -0.0300431, 0.0734023, -0.00334026, -0.0110835, -0.444743, 0.634975, -3.13172, -0.0556442, -0.107755, -0.0106164, -0.443107, 0.633909, -3.12937, -0.0548014, -0.103678, 0.00228643, -0.00177687, -0.00502317, -0.00909805, -0.00434069, -0.0228888
0.0493501, 0.107578, -0.774285, -0.917803, -1.45831, -0.626036, 1.06913, -0.256685, -0.00454313, -0.00123477, -0.0289259, -0.0434813, -0.0358105, -0.0172777, 0.000909012, 0.0949785, 15.6442, 19.7483, 17.2571, 1.2453, 3.88339, -0.114369, 0.000434228, -0.00161108, 0.00112552, 0.00254559, -0.00257274, 0.000912393, 0.0134887, -0.00172475, -0.0174716, -0.0312078, 0.0715796, -0.00289013, -0.0110812, -0.444745, 0.634969, -3.13171, -0.0556509, -0.107773, -0.0106286, -0.44311, 0.633887, -3.12934, -0.0547628, -0.103585, 0.00240928, -0.00186934, -0.00528689, -0.00977898, -0.00391524, -0.0236563
0.0503501, 0.107565, -0.77428, -0.917832, -1.45835, -0.626075, 1.06911, -0.256692, -0.00880752, 0.000966594, -0.0306296, -0.0430833, -0.0365748, -0.0240603, -0.00183187, 0.21003, 15.5688, 19.8951, 17.3325, 1.25171, 3.93374, -0.0484509, 0.000416478, -0.00161022, 0.00114179, 0.00257655, -0.00265932, 0.000943541, 0.0163082, -0.000667783, -0.0179375, -0.036625, 0.0779297, -0.00529075, -0.0110787, -0.444747, 0.634964, -3.1317, -0.0556578, -0.107792, -0.0106427, -0.443113, 0.633864, -3.1293, -0.0547231, -0.103467, 0.00253522, -0.00196389, -0.00555673, -0.0124697, -0.00304862, -0.0245787
0.0513501, 0.107556, -0.77429, -0.917855, -1.45838, -0.626118, 1.06908, -0.256685, -0.00785324, -0.00276937, -0.0280173, -0.0419182, -0.0372178, -0.0245702, 2.09557e-06, 0.285408, 15.7156, 20.0101, 17.3721, 1.26453, 3.99142, -0.0814099, 0.000396812, -0.00160939, 0.00115595, 0.00260018, -0.00273151, 0.000982804, 0.0167088, -0.000220696, -0.0167672, -0.0342197, 0.0744658, -0.00407056, -0.0110761, -0.444749, 0.634958, -3.13168, -0.0556652, -0.107812, -0.0106587, -0.443116, 0.633843, -3.12927, -0.0546707, -0.103372, 0.00266423, -0.00206051, -0.00583265, -0.0128361, -0.00272267, -0.023712
0.0523501, 0.107549, -0.774285, -0.917881, -1.45842, -0.626162, 1.06906, -0.256682, -0.00632726, -0.000996103, -0.0276325, -0.0413877, -0.0425157, -0.0199057, 0.000749364, 0.325081, 15.6799, 20.1926, 17.4078, 1.27643, 4.04086, -0.101552, 0.000381457, -0.00160842, 0.00117048, 0.00262546, -0.00282087, 0.00101879, 0.016136, -0.00152888, -0.0157775, -0.0267105, 0.0779413, -0.00478366, -0.0110734, -0.444751, 0.634952, -3.13167, -0.0556729, -0.107834, -0.0106703, -0.44312, 0.633821, -3.12923, -0.054624, -0.103252, 0.0027963, -0.00215917, -0.00611461, -0.0121538, -0.00411702, -0.0229757
0.0533501, 0.107538, -0.774282, -0.917904, -1.45846, -0.626206, 1.06904, -0.256681, -0.0100866, -0.000652872, -0.0263751, -0.0425512, -0.041362, -0.0253867, -0.000482282, 0.436165, 15.6799, 20.3434, 17.5189, 1.28284, 4.07748, -0.0750012, 0.000365405, -0.00160842, 0.0011854, 0.00265069, -0.00291189, 0.00105225, 0.017514, 0.000131382, -0.0158292, -0.0309386, 0.0812431, -0.00414408, -0.0110705, -0.444753, 0.634946, -3.13166, -0.0556809, -0.107856, -0.0106824, -0.443123, 0.633799, -3.1292, -0.0545816, -0.103129, 0.00293143, -0.00225986, -0.00640257, -0.0134482, -0.00260651, -0.0233999
0.0543501, 0.10753, -0.774284, -0.917918, -1.4585, -0.626249, 1.06902, -0.256685, -0.00800682, 0.00184112, -0.022716, -0.0401098, -0.044982, -0.0235916, -0.000795124, 0.475838, 15.7156, 20.3791, 17.4832, 1.28284, 4.08389, -0.0621838, 0.000350847, -0.00160921, 0.00119394, 0.00266103, -0.00299003, 0.00107604, 0.0158021, 5.37652e-05, -0.0135536, -0.0234261, 0.0842403, -0.000891631, -0.0110675, -0.444756, 0.63494, -3.13164, -0.0556894, -0.107879, -0.0106933, -0.443125, 0.633783, -3.12918, -0.0545539, -0.10303, 0.00306961, -0.00236255, -0.00669647, -0.0117564, -0.00274634, -0.0213064
0.0553501, 0.107522, -0.774284, -0.917938, -1.45854, -0.626298, 1.06899, -0.256682, -0.00957257, 0.000657092, -0.0228725, -0.0409399, -0.0488434, -0.0226601, 0.000691456, 0.511544, 15.7513, 20.5298, 17.5586, 1.30755, 4.09854, -0.0951428, 0.000333641, -0.00160916, 0.00120628, 0.00267938, -0.00308097, 0.00111245, 0.0175056, -0.000406641, -0.0134563, -0.0208569, 0.0864714, -0.00438119, -0.0110644, -0.444758, 0.634933, -3.13162, -0.0556982, -0.107903, -0.0107065, -0.443127, 0.633763, -3.12915, -0.0545074, -0.10291, 0.00321082, -0.00246723, -0.00699628, -0.0133036, -0.00337192, -0.0216298
0.0563501, 0.107512, -0.774276, -0.917958, -1.45857, -0.626341, 1.06897, -0.25668, -0.00777021, 0.00230717, -0.0190693, -0.0383016, -0.0457527, -0.0219689, -4.70284e-05, 0.551216, 15.6799, 20.6409, 17.634, 1.30115, 4.11319, -0.0814099, 0.000319975, -0.00160981, 0.00121736, 0.00269623, -0.00317482, 0.00114509, 0.0149741, 0.000491364, -0.0111888, -0.0170841, 0.0839766, 0.00228931, -0.0110611, -0.444761, 0.634926, -3.13161, -0.0557074, -0.107928, -0.0107161, -0.44313, 0.633744, -3.12912, -0.0544671, -0.102787, 0.00335505, -0.00257388, -0.00730195, -0.0108231, -0.00251184, -0.0194933
0.0573501, 0.107506, -0.774281, -0.917976, -1.45861, -0.626387, 1.06895, -0.256687, -0.00866397, 0.00228684, -0.0191185, -0.0404856, -0.0478201, -0.0212551, -0.00148894, 0.551216, 15.791, 20.752, 17.7451, 1.28833, 4.12051, -0.0420422, 0.000303998, -0.00161078, 0.00122909, 0.00271456, -0.00326055, 0.00116569, 0.0153895, 0.000392513, -0.0114583, -0.0161268, 0.0870128, 0.00407513, -0.0110577, -0.444763, 0.634918, -3.13159, -0.055717, -0.107955, -0.0107278, -0.443132, 0.633723, -3.12909, -0.054446, -0.102678, 0.0035023, -0.00268248, -0.00761342, -0.0110677, -0.00273138, -0.0201032
0.0583501, 0.107497, -0.774275, -0.917996, -1.45864, -0.626435, 1.06892, -0.256678, -0.0111971, 0.00283085, -0.0172007, -0.0352045, -0.0456231, -0.0209874, 0.00121177, 0.626595, 15.7513, 20.9028, 17.7054, 1.29474, 4.13424, -0.101552, 0.000286456, -0.00161114, 0.00123815, 0.00272786, -0.00335509, 0.00121301, 0.0164862, 0.000832061, -0.00885584, -0.0118292, 0.0826564, -0.000194824, -0.0110541, -0.444766, 0.63491, -3.13157, -0.055727, -0.107982, -0.0107411, -0.443135, 0.633705, -3.12907, -0.0543836, -0.102557, 0.00365255, -0.002793, -0.00793067, -0.0122053, -0.00246434, -0.0178973
0.0593501, 0.107491, -0.774267, -0.918011, -1.45867, -0.626478, 1.0689, -0.256684, -0.011221, 0.00300615, -0.0187094, -0.0315663, -0.047783, -0.0246973, -0.00064995, 0.626595, 15.7156, 20.9385, 17.6697, 1.28284, 4.12692, -0.0621838, 0.000273876, -0.00161213, 0.00124373, 0.00273241, -0.00344338, 0.00123556, 0.0186275, 0.000867874, -0.00815827, -0.0123685, 0.0844835, -0.00123041, -0.0110504, -0.444769, 0.634902, -3.13155, -0.0557374, -0.108011, -0.0107495, -0.443137, 0.633691, -3.12905, -0.0543597, -0.102447, 0.0038058, -0.00290544, -0.00825364, -0.0142359, -0.00262268, -0.0176722
0.0603501, 0.107483, -0.774264, -0.918019, -1.45872, -0.626525, 1.06888, -0.256683, -0.00822826, 0.00138166, -0.0134711, -0.0374768, -0.0500296, -0.0279349, -0.000670461, 0.626595, 15.7513, 20.9385, 17.8561, 1.28284, 4.12692, -0.0557752, 0.000263431, -0.001615, 0.00125238, 0.00274009, -0.00354131, 0.00125794, 0.0158031, 0.00258694, -0.00856371, -0.0137433, 0.0902926, 0.00892637, -0.0110465, -0.444772, 0.634894, -3.13154, -0.0557483, -0.10804, -0.0107556, -0.443137, 0.633673, -3.12903, -0.0543367, -0.102323, 0.00396204, -0.00301977, -0.00858229, -0.0112973, -0.000915771, -0.0181996
0.0613501, 0.107476, -0.774255, -0.918033, -1.45874, -0.626574, 1.06886, -0.256678, -0.0082555, 0.00503996, -0.0114926, -0.0331356, -0.0511977, -0.0303542, 0.00101124, 0.586922, 15.7156, 21.0138, 17.8204, 1.27002, 4.12692, -0.0951428, 0.00024853, -0.0016166, 0.00125753, 0.00274527, -0.00363914, 0.00129707, 0.0155872, 0.00320934, -0.0064058, -0.0106741, 0.093598, 0.00714156, -0.0110424, -0.444775, 0.634885, -3.13152, -0.0557596, -0.108071, -0.0107661, -0.443139, 0.633658, -3.12901, -0.054288, -0.1022, 0.00412125, -0.00313597, -0.00891658, -0.0110934, -0.000421601, -0.0163625
0.0623501, 0.107469, -0.774254, -0.918045, -1.45877, -0.626622, 1.06884, -0.256678, -0.00618563, 0.00197676, -0.011095, -0.0308512, -0.0473001, -0.0272001, 0.000403002, 0.586922, 15.791, 21.0138, 17.8204, 1.25812, 4.12051, -0.0878186, 0.000232959, -0.00161812, 0.0012619, 0.0027458, -0.00372727, 0.00132765, 0.0149833, 0.00301829, -0.0051497, -0.00782754, 0.0849834, 0.0120674, -0.0110382, -0.444778, 0.634876, -3.13149, -0.0557713, -0.108103, -0.0107771, -0.443141, 0.633644, -3.129, -0.0542528, -0.102094, 0.00428343, -0.00325403, -0.00925645, -0.0104086, -0.000720492, -0.0154091
0.0633501, 0.107463, -0.77425, -0.918058, -1.45881, -0.626673, 1.06882, -0.256682, -0.00694103, 0.00307564, -0.0117414, -0.0308904, -0.049321, -0.0250767, -0.00118931, 0.551216, 15.8624, 21.0496, 17.8918, 1.25812, 4.12051, -0.0484509, 0.00021847, -0.00161999, 0.00126851, 0.00275043, -0.00382734, 0.00135298, 0.0154912, 0.00245193, -0.00473957, -0.00472502, 0.0870688, 0.0127288, -0.0110339, -0.444781, 0.634867, -3.13147, -0.0557834, -0.108137, -0.0107868, -0.443143, 0.633627, -3.12898, -0.0542264, -0.10197, 0.00444857, -0.00337392, -0.00960188, -0.0107576, -0.00142798, -0.0153844
0.0643501, 0.107468, -0.774249, -0.918075, -1.45884, -0.626726, 1.06879, -0.256683, -0.00174623, 0.00304802, -0.0140626, -0.0323481, -0.0465205, -0.0234701, -0.00103017, 0.400459, 15.9735, 21.1606, 17.8918, 1.25812, 4.12051, -0.0420422, 0.000204815, -0.00162017, 0.00127401, 0.00275382, -0.00392181, 0.00137896, 0.0130714, 0.00211463, -0.00550269, -0.00654732, 0.0856931, 0.0193645, -0.0110293, -0.444785, 0.634857, -3.13145, -0.055796, -0.108171, -0.0107955, -0.443147, 0.633611, -3.12896, -0.0541994, -0.101857, 0.00461665, -0.00349563, -0.0099528, -0.00811227, -0.00179446, -0.0163319
0.0653501, 0.107465, -0.774242, -0.91809, -1.45887, -0.626773, 1.06877, -0.256676, -0.00385132, 0.00498916, -0.0139881, -0.0352709, -0.0436115, -0.0226421, 0.00151731, 0.360787, 16.0092, 21.2003, 17.9672, 1.23981, 4.12692, -0.101552, 0.000191919, -0.00162182, 0.00127889, 0.00275603, -0.00402023, 0.0014144, 0.0122669, 0.00272412, -0.00579806, -0.00770798, 0.0873906, 0.0189688, -0.0110246, -0.444788, 0.634847, -3.13143, -0.055809, -0.108207, -0.0108034, -0.443149, 0.633595, -3.12894, -0.0541582, -0.101738, 0.00478767, -0.00361914, -0.0103092, -0.00714059, -0.00127779, -0.0169235
0.0663501, 0.107466, -0.774238, -0.918097, -1.45889, -0.626823, 1.06875, -0.256676, -0.00142826, 0.0022901, -0.0140807, -0.0323658, -0.0417939, -0.0212614, 2.82342e-05, 0.285408, 16.0846, 21.1249, 17.9672, 1.22699, 4.11319, -0.0750012, 0.000180631, -0.00162417, 0.00127976, 0.00274864, -0.00411488, 0.00143807, 0.0122886, 0.00249131, -0.00462074, -0.00540008, 0.0812596, 0.0235169, -0.0110198, -0.444792, 0.634836, -3.1314, -0.0558225, -0.108244, -0.0108098, -0.443151, 0.633583, -3.12893, -0.0541353, -0.101627, 0.00496161, -0.00374443, -0.010671, -0.00706094, -0.00164712, -0.0161141
0.0673501, 0.107465, -0.774235, -0.918105, -1.45892, -0.626874, 1.06873, -0.256675, -0.000492109, 0.00030892, -0.0124813, -0.0272096, -0.044803, -0.0245365, 0.00100219, 0.245735, 16.16, 21.0892, 17.9672, 1.20868, 4.09122, -0.101552, 0.000167664, -0.00162512, 0.00127927, 0.00273405, -0.00420366, 0.00146635, 0.0141137, 0.00279787, -0.00260143, -0.00245759, 0.0803057, 0.0219475, -0.0110147, -0.444796, 0.634825, -3.13138, -0.0558365, -0.108282, -0.0108177, -0.443154, 0.633572, -3.12893, -0.0541054, -0.101528, 0.00513848, -0.00387148, -0.0110382, -0.00885372, -0.00155062, -0.0145914
0.0683501, 0.10747, -0.774231, -0.918117, -1.45894, -0.626919, 1.06872, -0.256678, 0.0010842, -0.000220203, -0.0102167, -0.0265, -0.0429949, -0.0174383, -7.78364e-05, 0.170357, 16.1957, 21.1249, 17.9672, 1.20318, 4.06283, -0.0814099, 0.000157018, -0.00162601, 0.00128018, 0.00272509, -0.00429314, 0.00148672, 0.0120374, 0.00218796, -0.000807941, 0.00532935, 0.0747989, 0.0281975, -0.0110095, -0.4448, 0.634814, -3.13135, -0.055851, -0.108322, -0.010823, -0.443158, 0.633559, -3.12891, -0.0540885, -0.101428, 0.00531825, -0.00400028, -0.0114107, -0.00670553, -0.00223189, -0.0130354
0.0693501, 0.107474, -0.774229, -0.918127, -1.45897, -0.626969, 1.0687, -0.256675, 0.00129479, 0.00253061, -0.00966585, -0.0269182, -0.041527, -0.0175915, -5.1876e-05, 0.134651, 16.2314, 21.0892, 18.0069, 1.19678, 4.05551, -0.0814099, 0.000145344, -0.00162827, 0.0012808, 0.00271745, -0.004388, 0.00151226, 0.010727, 0.00271009, -0.00030756, 0.00560507, 0.0772835, 0.0310927, -0.0110041, -0.444804, 0.634803, -3.13133, -0.0558659, -0.108363, -0.0108293, -0.44316, 0.633546, -3.1289, -0.0540641, -0.101321, 0.00550092, -0.0041308, -0.0117885, -0.00526971, -0.00179895, -0.0128201
0.0703501, 0.10748, -0.774231, -0.918137, -1.45899, -0.627012, 1.06868, -0.256678, 0.00869872, 0.00283048, -0.00728169, -0.0232324, -0.0397656, -0.0169481, -0.00125528, 0.059273, 16.3425, 21.0892, 18.0069, 1.17206, 4.02713, -0.0484509, 0.00013462, -0.00162969, 0.00128047, 0.00270597, -0.00447003, 0.00152889, 0.00710421, 0.00297302, 0.00172924, 0.00926517, 0.0740092, 0.0418478, -0.0109985, -0.444808, 0.634791, -3.1313, -0.0558813, -0.108405, -0.0108344, -0.443163, 0.633533, -3.12889, -0.0540538, -0.101235, 0.00568647, -0.00426302, -0.0121715, -0.00162229, -0.00155904, -0.0109187
0.0713501, 0.107482, -0.774225, -0.918149, -1.45902, -0.627057, 1.06867, -0.256673, 0.00617356, 0.00646506, -0.00925869, -0.0235219, -0.0385368, -0.0126072, 0.000892487, 0.059273, 16.3068, 21.1249, 18.0069, 1.15375, 4.0198, -0.0951428, 0.000123297, -0.00163091, 0.00127946, 0.00269278, -0.00456259, 0.001561, 0.0071481, 0.00225104, 0.00206815, 0.0122354, 0.0753169, 0.0378295, -0.0109927, -0.444812, 0.634778, -3.13127, -0.0558972, -0.108449, -0.0108401, -0.443166, 0.633521, -3.12888, -0.0540201, -0.101135, 0.00587491, -0.00439694, -0.0125597, -0.00147513, -0.00241923, -0.0109769
0.0723501, 0.107492, -0.774226, -0.918159, -1.45903, -0.627103, 1.06866, -0.256672, 0.00615975, 0.00421561, -0.00605356, -0.0206357, -0.0426167, -0.0140116, 0.000832357, -0.0161054, 16.3425, 21.0892, 18.0069, 1.14093, 4.01248, -0.101552, 0.000112859, -0.00163194, 0.00127619, 0.00267413, -0.00464569, 0.00158138, 0.00850959, 0.00257457, 0.00406145, 0.0171322, 0.0753987, 0.0383198, -0.0109867, -0.444817, 0.634765, -3.13124, -0.0559137, -0.108494, -0.0108447, -0.44317, 0.633511, -3.12888, -0.0540047, -0.101051, 0.00606621, -0.00453252, -0.0129531, -0.00279052, -0.00229815, -0.0094742
0.0733501, 0.107504, -0.77422, -0.918174, -1.45906, -0.62715, 1.06864, -0.256678, 0.0100853, 0.00512924, -0.00909142, -0.0233185, -0.0412889, -0.010892, -0.00164914, -0.131157, 16.2671, 21.1606, 18.0783, 1.13544, 4.0198, -0.0420422, 0.000104247, -0.00163197, 0.00127555, 0.00265931, -0.00474035, 0.00159535, 0.00649158, 0.00180305, 0.00297516, 0.0163585, 0.0761994, 0.0458825, -0.0109806, -0.444821, 0.634752, -3.13121, -0.0559306, -0.108541, -0.0108472, -0.443175, 0.633498, -3.12887, -0.0540001, -0.10095, 0.00626038, -0.00466976, -0.0133516, -0.000481827, -0.00312514, -0.0108218
0.0743501, 0.10751, -0.774222, -0.918183, -1.45908, -0.627197, 1.06864, -0.256673, 0.0111092, 0.00383618, -0.00881194, -0.0228872, -0.0447546, -0.00740733, 0.000595999, -0.166862, 16.2671, 21.1249, 18.0426, 1.12262, 3.99783, -0.0878186, 9.14612e-05, -0.0016321, 0.00127037, 0.00263257, -0.00482054, 0.00162621, 0.00690327, 0.000893344, 0.00382771, 0.0219652, 0.0760617, 0.0444753, -0.0109742, -0.444826, 0.634739, -3.13118, -0.055948, -0.108588, -0.0108539, -0.44318, 0.633489, -3.12887, -0.0539692, -0.100874, 0.00645739, -0.00480863, -0.0137552, -0.000721551, -0.00419573, -0.0104098
0.0753501, 0.107513, -0.774223, -0.918193, -1.4591, -0.627245, 1.06863, -0.256675, 0.00797824, 0.00286998, -0.00865438, -0.021125, -0.047667, -0.00972208, -0.000314741, -0.166862, 16.2671, 21.0892, 18.0783, 1.12262, 3.9841, -0.0685925, 7.82734e-05, -0.00163262, 0.00126633, 0.0026076, -0.00490751, 0.00165133, 0.00987505, 0.00111646, 0.0046909, 0.023285, 0.0778595, 0.0415761, -0.0109676, -0.444831, 0.634725, -3.13115, -0.055966, -0.108638, -0.0108608, -0.443185, 0.633478, -3.12887, -0.0539478, -0.100788, 0.00665724, -0.00494912, -0.0141638, -0.00355226, -0.00422671, -0.0101623
0.0763501, 0.107513, -0.774223, -0.918193, -1.4591, -0.627245, 1.06863, -0.256675, 0.00797824, 0.00286998, -0.00865438, -0.021125, -0.047667, -0.00972208, -0.000314741, -0.166862, 16.2671, 21.0892, 18.0783, 1.12262, 3.9841, -0.0685925, 7.26874e-05, -0.00163794, 0.00125163, 0.00257705, -0.00494108, 0.00166269, 0.0100432, 0.00126883, 0.00511647, 0.0240988, 0.0784362, 0.0430901, -0.0109609, -0.444836, 0.63471, -3.13111, -0.0559845, -0.108688, -0.0108608, -0.443185, 0.633478, -3.12887, -0.0539478, -0.100788, 0.00685993, -0.0050912, -0.0145774, -0.00355226, -0.00422671, -0.0101623
0.0773501, 0.107536, -0.774226, -0.918224, -1.45913, -0.627336, 1.06862, -0.256673, 0.0119654, 0.000401171, -0.0109014, -0.0168645, -0.0467596, -0.0101255, 0.000899976, -0.317619, 16.3068, 21.1249, 18.0783, 1.12262, 3.97677, -0.0878186, 5.42219e-05, -0.0016304, 0.00125682, 0.00255351, -0.00507023, 0.00170352, 0.010672, 0.000741132, 0.00595903, 0.0246557, 0.0734332, 0.0439296, -0.0109539, -0.444841, 0.634696, -3.13108, -0.0560035, -0.108741, -0.0108716, -0.443198, 0.633457, -3.12887, -0.0539035, -0.10064, 0.00706543, -0.00523486, -0.0149959, -0.00401318, -0.00492816, -0.00978799
0.0783501, 0.107543, -0.774223, -0.918229, -1.45915, -0.627384, 1.06861, -0.256675, 0.00960137, 0.00132731, -0.0103499, -0.0181271, -0.0446247, -0.0123574, -0.000112092, -0.357292, 16.2671, 20.9742, 18.0426, 1.12262, 3.97677, -0.0685925, 4.40329e-05, -0.00163096, 0.00124776, 0.00251458, -0.00515634, 0.0017255, 0.0109879, 0.00181568, 0.00607823, 0.0224918, 0.0752302, 0.0462177, -0.0109468, -0.444846, 0.63468, -3.13105, -0.0560231, -0.108794, -0.0108752, -0.443203, 0.63345, -3.12888, -0.0538881, -0.100561, 0.00727374, -0.00538009, -0.0154193, -0.00416686, -0.0040122, -0.0101074
0.0793501, 0.107548, -0.774221, -0.918258, -1.45917, -0.627428, 1.06861, -0.256673, 0.00692323, 0.00181898, -0.0153428, -0.0203233, -0.047401, -0.00931591, -0.000312086, -0.357292, 16.2314, 21.1606, 18.1934, 1.11713, 3.97677, -0.0621838, 2.87163e-05, -0.00162791, 0.00124844, 0.00249683, -0.00524825, 0.00176398, 0.0135705, 0.000362099, 0.00479758, 0.0229451, 0.0785208, 0.0413181, -0.0109394, -0.444852, 0.634665, -3.13101, -0.0560432, -0.10885, -0.0108829, -0.443212, 0.633433, -3.12887, -0.0538485, -0.100473, 0.00748486, -0.00552686, -0.0158476, -0.00638965, -0.00569142, -0.0120033
0.0803501, 0.107557, -0.774225, -0.91827, -1.45919, -0.627474, 1.06861, -0.256673, 0.0099004, 0.000451595, -0.0115434, -0.0202829, -0.0494064, -0.00701886, 0.00050402, -0.43267, 16.2671, 21.0496, 18.1537, 1.11072, 3.97677, -0.0814099, 1.48445e-05, -0.00162675, 0.00124006, 0.00245903, -0.00532559, 0.00179203, 0.0117823, 0.000493524, 0.00639539, 0.0288566, 0.0779533, 0.0469738, -0.0109318, -0.444858, 0.634649, -3.13097, -0.0560639, -0.108906, -0.0108897, -0.44322, 0.633424, -3.12887, -0.0538248, -0.100411, 0.00769877, -0.00567515, -0.0162807, -0.00450856, -0.0056604, -0.0107177
0.0813501, 0.107562, -0.774221, -0.918292, -1.4592, -0.627519, 1.06861, -0.25667, 0.00936666, 0.00202712, -0.0153395, -0.01841, -0.0465559, -0.00555669, 0.000573373, -0.392998, 16.1957, 21.0892, 18.1537, 1.11072, 3.9841, -0.0878186, -7.70433e-07, -0.00162463, 0.00123446, 0.00242863, -0.00541405, 0.0018333, 0.0126164, -8.4816e-05, 0.00653901, 0.0284552, 0.0761839, 0.0454887, -0.010924, -0.444863, 0.634632, -3.13094, -0.0560851, -0.108965, -0.0108977, -0.443228, 0.633412, -3.12887, -0.0537815, -0.100332, 0.00791545, -0.00582496, -0.0167186, -0.0051128, -0.0064195, -0.0110749
0.0823501, 0.107577, -0.774221, -0.918313, -1.45922, -0.627565, 1.06861, -0.256675, 0.0127542, 0.00139313, -0.0163088, -0.017838, -0.0443846, -0.00443037, -0.00155053, -0.508049, 16.1957, 21.0496, 18.1934, 1.11072, 3.99142, -0.0356336, -1.29624e-05, -0.00162248, 0.00122924, 0.00239769, -0.00550248, 0.00185542, 0.0113805, -0.000206408, 0.00686303, 0.0287489, 0.0736526, 0.0526264, -0.010916, -0.444869, 0.634615, -3.1309, -0.0561069, -0.109025, -0.0109021, -0.443237, 0.6334, -3.12887, -0.0537685, -0.100256, 0.00813491, -0.00597625, -0.0171612, -0.00367948, -0.00665193, -0.0111095
0.0833501, 0.107583, -0.774219, -0.91834, -1.45923, -0.627611, 1.06861, -0.256669, 0.00834477, 0.00179526, -0.0180215, -0.0167897, -0.0422751, -0.00407446, 0.000899093, -0.468376, 16.16, 21.0496, 18.0783, 1.0979, 4.01248, -0.0878186, -3.28206e-05, -0.00161925, 0.00122179, 0.00236457, -0.00558806, 0.001908, 0.0137073, -0.000133488, 0.00733646, 0.0288071, 0.0722593, 0.0465837, -0.0109077, -0.444875, 0.634598, -3.13086, -0.0561293, -0.109086, -0.010914, -0.443247, 0.633388, -3.12887, -0.0537086, -0.100185, 0.00835714, -0.00612902, -0.0176085, -0.0058127, -0.0068194, -0.0112468
0.0843501, 0.107598, -0.774211, -0.918366, -1.45925, -0.627654, 1.06861, -0.256669, 0.0110449, 0.00298354, -0.022203, -0.0199495, -0.0417052, -0.00297204, 0.000362037, -0.543754, 16.0846, 21.0496, 18.118, 1.11072, 4.01248, -0.0814099, -4.36163e-05, -0.00161701, 0.00121745, 0.00233682, -0.00568446, 0.00193658, 0.0128064, -0.000757118, 0.00570733, 0.0258245, 0.075354, 0.0501842, -0.0108992, -0.444881, 0.63458, -3.13082, -0.0561522, -0.109149, -0.0109165, -0.443255, 0.633374, -3.12886, -0.0536869, -0.100098, 0.00858211, -0.00628324, -0.0180604, -0.00455408, -0.00754963, -0.013266
0.0853501, 0.10761, -0.774213, -0.918396, -1.45926, -0.627701, 1.06861, -0.256675, 0.00898614, 0.00200663, -0.0251909, -0.0185801, -0.0408833, -0.00139327, -0.00169142, -0.583427, 16.0846, 21.0496, 18.0069, 1.11713, 3.99142, -0.0292249, -6.25053e-05, -0.00161247, 0.00121014, 0.00230083, -0.005767, 0.00197351, 0.0151175, -0.00140905, 0.00591006, 0.0266085, 0.0728204, 0.0492793, -0.0108905, -0.444888, 0.634562, -3.13078, -0.0561758, -0.109214, -0.010927, -0.443267, 0.633362, -3.12886, -0.0536524, -0.100036, 0.00880983, -0.00643891, -0.018517, -0.00662112, -0.00844128, -0.0136869
0.0863501, 0.107621, -0.774206, -0.918424, -1.45929, -0.627745, 1.06861, -0.256671, 0.00964922, 0.00394941, -0.0257827, -0.0230965, -0.0449929, -0.0010727, 9.30885e-05, -0.583427, 15.9735, 20.9742, 18.118, 1.12262, 3.99142, -0.0621838, -7.49095e-05, -0.00161037, 0.00120695, 0.00227444, -0.0058703, 0.0020097, 0.0144561, -0.001574, 0.00492349, 0.0268056, 0.0813295, 0.0497397, -0.0108816, -0.444894, 0.634543, -3.13073, -0.0561999, -0.10928, -0.0109306, -0.443276, 0.633345, -3.12885, -0.0536201, -0.0999419, 0.00904028, -0.00659599, -0.0189781, -0.00565691, -0.00873058, -0.0150879
0.0873501, 0.107634, -0.774195, -0.918458, -1.45929, -0.627788, 1.06861, -0.256668, 0.0133523, 0.00607651, -0.027266, -0.0160601, -0.042866, -0.000551752, 0.00101149, -0.583427, 15.8267, 20.9385, 17.9315, 1.11713, 3.9841, -0.0878186, -9.25034e-05, -0.00160597, 0.00119802, 0.00223843, -0.00596137, 0.00206004, 0.0138322, -0.00203219, 0.00713735, 0.030103, 0.0777422, 0.0504889, -0.0108725, -0.444901, 0.634524, -3.13069, -0.0562246, -0.109348, -0.0109394, -0.443288, 0.633334, -3.12885, -0.0535661, -0.0998691, 0.00927346, -0.00675447, -0.0194438, -0.00493935, -0.00934673, -0.0133056
0.0883501, 0.107651, -0.774196, -0.918491, -1.45932, -0.627835, 1.06861, -0.256667, 0.0138794, 0.00322321, -0.0266386, -0.0221508, -0.0464316, -0.000177484, 0.00118296, -0.619133, 15.8624, 20.8274, 18.0783, 1.12262, 3.97677, -0.101552, -0.000106321, -0.00160285, 0.00119618, 0.0022133, -0.00606243, 0.00209212, 0.0138576, -0.0019104, 0.00585594, 0.0296881, 0.0820097, 0.0544737, -0.0108631, -0.444908, 0.634504, -3.13064, -0.0562499, -0.109417, -0.0109438, -0.443298, 0.633315, -3.12884, -0.0535414, -0.0997818, 0.00950935, -0.00691434, -0.0199139, -0.00464418, -0.00937377, -0.0150556
0.0893501, 0.107667, -0.774185, -0.918534, -1.45932, -0.627882, 1.06861, -0.256675, 0.0165521, 0.00558805, -0.0318086, -0.019421, -0.0447988, -0.00017901, -0.00189013, -0.619133, 15.7156, 20.8274, 17.9315, 1.14093, 3.97677, -0.0292249, -0.000125716, -0.00159693, 0.0011898, 0.00218204, -0.0061618, 0.00213618, 0.0140704, -0.00273443, 0.00571377, 0.0280499, 0.0822658, 0.0573896, -0.0108534, -0.444915, 0.634484, -3.1306, -0.0562758, -0.109488, -0.0109537, -0.443312, 0.6333, -3.12883, -0.0534986, -0.0996991, 0.00974794, -0.00707558, -0.0203885, -0.0045782, -0.0103651, -0.0156937
0.0903501, 0.107691, -0.774182, -0.918582, -1.45934, -0.627929, 1.06861, -0.25667, 0.0181232, 0.00539998, -0.0354802, -0.01704, -0.0384907, -0.00070739, 0.000435336, -0.734184, 15.6442, 20.8274, 17.8918, 1.14734, 3.99142, -0.0750012, -0.000144246, -0.0015905, 0.00118792, 0.00216035, -0.00626236, 0.0021853, 0.0141296, -0.00264414, 0.00578374, 0.0245751, 0.0768618, 0.057391, -0.0108436, -0.444922, 0.634463, -3.13055, -0.0563023, -0.109561, -0.0109621, -0.443326, 0.63328, -3.12881, -0.0534489, -0.0996156, 0.00998923, -0.00723817, -0.0208674, -0.00440421, -0.0104408, -0.0161071
0.0913501, 0.107713, -0.774177, -0.91863, -1.45935, -0.627974, 1.06861, -0.256671, 0.0202773, 0.00453114, -0.0382417, -0.0176766, -0.0423487, -0.00050573, 5.28651e-05, -0.76989, 15.6046, 20.8274, 17.8204, 1.12903, 3.99142, -0.0685925, -0.000163284, -0.00158406, 0.00118404, 0.00213455, -0.00636044, 0.002231, 0.0151381, -0.0035116, 0.00522634, 0.0250478, 0.0800482, 0.0580737, -0.0108335, -0.444929, 0.634442, -3.1305, -0.0563295, -0.109636, -0.010971, -0.44334, 0.633261, -3.12879, -0.0534049, -0.099538, 0.0102332, -0.00740209, -0.0213508, -0.00509551, -0.0115024, -0.0172244
0.0923501, 0.107735, -0.774177, -0.918674, -1.45937, -0.628023, 1.06862, -0.256675, 0.0180831, 0.00302311, -0.0387322, -0.0156493, -0.047319, -9.14883e-05, 0.00328127, -0.76989, 15.6046, 20.6409, 17.7808, 1.16565, 3.9841, -0.0292249, -0.000182044, -0.00157778, 0.00117923, 0.00210213, -0.00645843, 0.00227048, 0.0182773, -0.00416848, 0.00626117, 0.0294191, 0.0814698, 0.0506512, -0.0108231, -0.444937, 0.634421, -3.13045, -0.0563573, -0.109712, -0.0109794, -0.443355, 0.633243, -3.12878, -0.053371, -0.0994627, 0.0104799, -0.00756732, -0.0218384, -0.00802688, -0.0124468, -0.0169059
0.0933501, 0.107759, -0.774169, -0.918733, -1.45938, -0.628069, 1.06862, -0.256671, 0.0196811, 0.00461562, -0.0446912, -0.014346, -0.0444761, 0.000462341, 0.00380023, -0.76989, 15.4935, 20.6766, 17.7451, 1.16015, 3.96945, -0.0621838, -0.000203116, -0.00156968, 0.00117835, 0.00208317, -0.00656542, 0.00232767, 0.0188712, -0.00499982, 0.00552944, 0.026476, 0.0807433, 0.0496827, -0.0108125, -0.444944, 0.634399, -3.1304, -0.0563857, -0.10979, -0.0109896, -0.443371, 0.633221, -3.12876, -0.0533108, -0.0993741, 0.0107292, -0.00773386, -0.0223304, -0.00828844, -0.0134586, -0.0181768
0.0943501, 0.107795, -0.774164, -0.91879, -1.4594, -0.628111, 1.06862, -0.256668, 0.0236015, 0.00391362, -0.0492995, -0.0150094, -0.0429752, 0.000565093, 0.00377693, -0.884941, 15.4578, 20.6052, 17.7808, 1.16565, 3.96213, -0.0878186, -0.000217291, -0.00156206, 0.00117763, 0.00206337, -0.00666788, 0.00236657, 0.0186056, -0.00563151, 0.00439056, 0.0231971, 0.080219, 0.0529915, -0.0108016, -0.444952, 0.634376, -3.13035, -0.0564147, -0.10987, -0.0109926, -0.443387, 0.633198, -3.12874, -0.0532795, -0.0992945, 0.0109812, -0.00790168, -0.0228265, -0.00766925, -0.0142373, -0.0197963
0.0953501, 0.107825, -0.774159, -0.918858, -1.45941, -0.628155, 1.06862, -0.256675, 0.0244536, 0.00428051, -0.0553554, -0.0127621, -0.045838, 0.000874554, 0.000568316, -0.920646, 15.3864, 20.6409, 17.7054, 1.15375, 3.94839, -0.0292249, -0.000239252, -0.001552, 0.00117698, 0.0020446, -0.00677018, 0.00241494, 0.021276, -0.0071492, 0.00389043, 0.0229966, 0.0821092, 0.0517488, -0.0107905, -0.44496, 0.634353, -3.1303, -0.0564444, -0.109952, -0.011003, -0.443406, 0.633174, -3.12871, -0.0532343, -0.0992168, 0.0112358, -0.00807076, -0.0233269, -0.00998662, -0.0160138, -0.0209961
0.0963501, 0.107855, -0.774151, -0.918924, -1.45942, -0.628201, 1.06862, -0.256673, 0.0257705, 0.00461765, -0.0588112, -0.0112858, -0.0445374, 0.000846203, 0.00101897, -0.845268, 15.311, 20.6409, 17.634, 1.17206, 3.94107, -0.0420422, -0.000261301, -0.00154251, 0.00117556, 0.00202426, -0.00687763, 0.00247238, 0.0219747, -0.00759477, 0.00384863, 0.0219013, 0.0813843, 0.0516929, -0.0107792, -0.444968, 0.634329, -3.13025, -0.0564747, -0.110035, -0.0110134, -0.443424, 0.63315, -3.12868, -0.0531756, -0.0991329, 0.011493, -0.00824109, -0.0238314, -0.0104067, -0.0166545, -0.0215964
0.0973501, 0.107883, -0.77415, -0.918991, -1.45944, -0.628246, 1.06862, -0.256669, 0.030093, 0.00307899, -0.0606498, -0.012604, -0.0384617, 1.55248e-05, 0.00226141, -0.76989, 15.311, 20.6052, 17.6697, 1.18396, 3.95572, -0.0814099, -0.000284701, -0.00153361, 0.00117604, 0.0020075, -0.00698302, 0.00253074, 0.019966, -0.00698676, 0.00317926, 0.0171564, 0.0773543, 0.0588176, -0.0107676, -0.444977, 0.634305, -3.13019, -0.0565057, -0.11012, -0.0110247, -0.443442, 0.633124, -3.12865, -0.0531163, -0.0990537, 0.0117529, -0.00841265, -0.0243401, -0.00811947, -0.0161405, -0.0226283
0.0983501, 0.107921, -0.77414, -0.919063, -1.45946, -0.628288, 1.06862, -0.256675, 0.0312491, 0.00381632, -0.0656242, -0.0125511, -0.0385425, 0.000548328, -0.000332147, -0.734184, 15.2356, 20.6052, 17.6697, 1.19678, 3.94107, -0.0292249, -0.000302754, -0.00152435, 0.00117694, 0.00199515, -0.00709584, 0.00257268, 0.0210257, -0.00787918, 0.00235073, 0.0154228, 0.0787956, 0.0605894, -0.0107557, -0.444985, 0.634281, -3.13014, -0.0565373, -0.110207, -0.0110304, -0.443461, 0.633097, -3.12862, -0.0530833, -0.0989646, 0.0120154, -0.00858543, -0.0248528, -0.00882272, -0.017235, -0.0240505
0.0993501, 0.10796, -0.774136, -0.919133, -1.45947, -0.62833, 1.06862, -0.256669, 0.0320736, 0.00647321, -0.0677198, -0.0157007, -0.0382196, 9.08671e-05, 0.000831682, -0.694511, 15.1999, 20.5298, 17.6697, 1.19678, 3.94839, -0.0557752, -0.000321783, -0.00151582, 0.00117766, 0.00198254, -0.00720642, 0.00262428, 0.0200893, -0.00774035, 0.00136183, 0.0129138, 0.0843076, 0.062306, -0.0107435, -0.444994, 0.634256, -3.13008, -0.0565696, -0.110296, -0.0110368, -0.443478, 0.63307, -3.12858, -0.053036, -0.0988807, 0.0122806, -0.0087594, -0.0253696, -0.00755961, -0.017227, -0.0254882
0.10035, 0.107998, -0.774134, -0.919214, -1.45949, -0.628375, 1.06863, -0.256669, 0.0381258, 0.00373828, -0.074863, -0.016271, -0.0389188, 0.00060055, 0.00131886, -0.619133, 15.2356, 20.5655, 17.5943, 1.2215, 3.93374, -0.0750012, -0.000346612, -0.00150343, 0.00117847, 0.00196566, -0.00731217, 0.00268376, 0.0207365, -0.00928315, -0.000547115, 0.00912396, 0.0833268, 0.0643, -0.0107311, -0.445003, 0.63423, -3.13002, -0.0566025, -0.110386, -0.0110486, -0.443501, 0.633042, -3.12854, -0.0529769, -0.0988065, 0.0125483, -0.00893455, -0.0258904, -0.00774652, -0.0189477, -0.0279725
0.10135, 0.108037, -0.774129, -0.91929, -1.45951, -0.628418, 1.06862, -0.256674, 0.0388042, 0.00175768, -0.0755744, -0.0173251, -0.0432622, 0.000127177, -0.000539578, -0.508049, 15.2753, 20.5298, 17.6697, 1.2215, 3.94107, -0.0356336, -0.000366699, -0.00149459, 0.00118254, 0.00196061, -0.0074331, 0.00272668, 0.0221766, -0.00963159, -0.00065955, 0.0104082, 0.08634, 0.0666811, -0.0107184, -0.445012, 0.634204, -3.12996, -0.0566361, -0.110479, -0.0110553, -0.443519, 0.63301, -3.1285, -0.0529448, -0.0987097, 0.0128186, -0.00911087, -0.0264151, -0.00889081, -0.019523, -0.0287156
0.10235, 0.108081, -0.774117, -0.91937, -1.45953, -0.628462, 1.06862, -0.256673, 0.0410989, 0.00541416, -0.076826, -0.0170642, -0.0465248, -0.000459192, 0.000144433, -0.468376, 15.2356, 20.5298, 17.7054, 1.2215, 3.95572, -0.0484509, -0.000383937, -0.00148504, 0.00118566, 0.0019536, -0.0075595, 0.00277432, 0.021445, -0.0099409, -0.000370376, 0.0118225, 0.0934037, 0.0675544, -0.0107055, -0.445021, 0.634177, -3.1299, -0.0566704, -0.110573, -0.0110589, -0.443538, 0.632979, -3.12845, -0.0529061, -0.0986064, 0.0130915, -0.00928833, -0.0269437, -0.00789738, -0.0199868, -0.0289085
0.10335, 0.108121, -0.774108, -0.919456, -1.45955, -0.628505, 1.06862, -0.256669, 0.0400674, 0.00305437, -0.0835562, -0.0150479, -0.0444244, -0.000544568, 0.00133907, -0.317619, 15.2753, 20.5298, 17.6697, 1.22699, 3.96213, -0.0814099, -0.000407142, -0.00147339, 0.00118865, 0.00194354, -0.00768034, 0.00283708, 0.0250304, -0.0109323, -0.00118083, 0.00851626, 0.089227, 0.0621386, -0.0106922, -0.44503, 0.63415, -3.12984, -0.0567054, -0.110669, -0.0110682, -0.44356, 0.632947, -3.12841, -0.0528444, -0.0985137, 0.0133669, -0.00946692, -0.0274763, -0.0111023, -0.0212764, -0.030513
0.10435, 0.108166, -0.774101, -0.919535, -1.45958, -0.628546, 1.06862, -0.25667, 0.041377, 0.00383864, -0.082549, -0.0151788, -0.0429982, -0.00117766, -0.000548794, -0.242241, 15.3467, 20.4188, 17.7054, 1.2334, 3.9841, -0.0420422, -0.000424869, -0.00146447, 0.00119049, 0.00193438, -0.00780251, 0.00288024, 0.0238835, -0.0102744, -0.00044869, 0.00891622, 0.0900503, 0.0688049, -0.0106787, -0.44504, 0.634122, -3.12978, -0.056741, -0.110767, -0.0110718, -0.443579, 0.632916, -3.12836, -0.0528138, -0.0984209, 0.0136449, -0.00964662, -0.0280126, -0.00975618, -0.0207658, -0.0302348
0.10535, 0.108211, -0.774084, -0.919626, -1.4596, -0.628588, 1.06862, -0.256675, 0.041522, 0.00706243, -0.0831263, -0.0176137, -0.0464031, -0.000514447, -0.00130288, -0.131157, 15.311, 20.4545, 17.7054, 1.2334, 3.97677, -0.0164075, -0.00044395, -0.00145362, 0.00119538, 0.00193203, -0.00793858, 0.00292961, 0.0233607, -0.0104768, -0.000618947, 0.0105316, 0.097883, 0.0708477, -0.0106649, -0.44505, 0.634094, -3.12971, -0.0567774, -0.110867, -0.0110763, -0.4436, 0.632882, -3.12831, -0.0527747, -0.0983078, 0.0139255, -0.00982742, -0.0285528, -0.00893462, -0.0211287, -0.0309115
0.10635, 0.108252, -0.774076, -0.919715, -1.45962, -0.628629, 1.06862, -0.256666, 0.0397699, 0.00591088, -0.0824846, -0.0226767, -0.0446264, -0.000614688, 0.00131086, 0.059273, 15.4221, 20.4545, 17.7054, 1.2453, 3.9841, -0.0750012, -0.000467146, -0.00144338, 0.00119979, 0.00192876, -0.0080662, 0.00299556, 0.0231307, -0.00959587, -0.00141948, 0.00833875, 0.0994567, 0.0724189, -0.0106509, -0.44506, 0.634065, -3.12965, -0.0568144, -0.110969, -0.0110846, -0.443621, 0.632847, -3.12826, -0.0527105, -0.0982098, 0.0142086, -0.0100093, -0.0290967, -0.00839748, -0.0204139, -0.0322326
0.10735, 0.108296, -0.774055, -0.919804, -1.45964, -0.628669, 1.06862, -0.256673, 0.0405012, 0.00859647, -0.0878012, -0.0217452, -0.0464163, -0.00091876, -0.00179787, 0.170357, 15.3864, 20.4545, 17.634, 1.22699, 3.99783, -0.00267457, -0.000485615, -0.00143273, 0.00120168, 0.00191909, -0.00820247, 0.00304416, 0.0245272, -0.0105827, -0.00202305, 0.0071384, 0.104047, 0.0728661, -0.0106365, -0.44507, 0.634036, -3.12958, -0.0568522, -0.111073, -0.0110881, -0.443642, 0.632814, -3.12821, -0.0526737, -0.0981007, 0.0144943, -0.0101922, -0.0296444, -0.0094246, -0.021627, -0.0334918
0.10835, 0.108339, -0.774042, -0.919895, -1.45968, -0.628708, 1.06862, -0.256672, 0.0367873, 0.0103041, -0.0878607, -0.0274942, -0.0451299, -0.000375405, -0.000684716, 0.325081, 15.4935, 20.4188, 17.7054, 1.25171, 3.99142, -0.0164075, -0.000504597, -0.00142274, 0.00120807, 0.00191795, -0.00834159, 0.0030974, 0.0244168, -0.00984767, -0.0029993, 0.00522969, 0.108989, 0.0735806, -0.0106219, -0.44508, 0.634006, -3.12951, -0.0568906, -0.111178, -0.0110915, -0.443663, 0.632777, -3.12815, -0.0526309, -0.0979886, 0.0147825, -0.0103762, -0.0301957, -0.00898368, -0.0210624, -0.0350053
0.10935, 0.108393, -0.77402, -0.919985, -1.4597, -0.628745, 1.06862, -0.25667, 0.0437346, 0.0142766, -0.0862506, -0.0273538, -0.0427676, -0.000759088, 0.00124287, 0.325081, 15.4935, 20.3077, 17.5943, 1.2453, 4.00516, -0.0621838, -0.00051835, -0.0014131, 0.00120958, 0.00191061, -0.00848153, 0.00314454, 0.0194775, -0.00910743, -0.00203075, 0.00587852, 0.112038, 0.0828758, -0.010607, -0.44509, 0.633975, -3.12945, -0.0569298, -0.111286, -0.0110898, -0.443684, 0.632744, -3.1281, -0.0525979, -0.0978775, 0.0150731, -0.0105613, -0.0307507, -0.00386447, -0.0203409, -0.0342387
0.11035, 0.108439, -0.773999, -0.920078, -1.45973, -0.628786, 1.06862, -0.256668, 0.0464278, 0.0162458, -0.0898593, -0.02916, -0.0424162, -0.000777471, 0.00178096, 0.436165, 15.5331, 20.268, 17.5586, 1.27002, 4.01248, -0.0878186, -0.00053669, -0.00140356, 0.00121388, 0.00190888, -0.00863161, 0.00320084, 0.0186646, -0.00946976, -0.00304037, 0.00340443, 0.115892, 0.0854065, -0.0105917, -0.445101, 0.633944, -3.12938, -0.0569696, -0.111396, -0.0110922, -0.443704, 0.632707, -3.12804, -0.0525518, -0.0977522, 0.0153663, -0.0107473, -0.0313093, -0.0026756, -0.0208489, -0.0357514
0.11135, 0.108481, -0.773977, -0.920174, -1.45976, -0.628822, 1.06862, -0.256677, 0.0412258, 0.0161563, -0.0896391, -0.03066, -0.0461988, -0.00106096, -0.0016927, 0.586922, 15.6442, 20.2323, 17.5189, 1.28284, 4.02713, -0.00999879, -0.000556681, -0.00139368, 0.0012178, 0.00190549, -0.00877784, 0.00325092, 0.0216318, -0.00936589, -0.00271327, 0.0055478, 0.120517, 0.0848693, -0.0105762, -0.445112, 0.633913, -3.1293, -0.0570102, -0.111507, -0.0110959, -0.443726, 0.63267, -3.12799, -0.052516, -0.097635, 0.015662, -0.0109343, -0.0318714, -0.0053641, -0.0210429, -0.0362001
0.11235, 0.108524, -0.773953, -0.920262, -1.45978, -0.628854, 1.06861, -0.256669, 0.0414619, 0.0169694, -0.0899111, -0.0277828, -0.0394559, -0.00175855, 0.000297347, 0.701973, 15.7156, 20.0815, 17.4435, 1.28833, 4.05551, -0.0484509, -0.000572795, -0.00138642, 0.00121853, 0.00189946, -0.00892358, 0.0033091, 0.0209664, -0.00848355, -0.00137364, 0.00453053, 0.115506, 0.0867158, -0.0105604, -0.445123, 0.63388, -3.12923, -0.0570515, -0.111621, -0.0110958, -0.443745, 0.632636, -3.12793, -0.0524683, -0.0975206, 0.0159602, -0.0111224, -0.0324371, -0.00452965, -0.0203405, -0.0353768
0.11335, 0.108576, -0.77393, -0.920359, -1.45982, -0.628887, 1.06861, -0.256668, 0.0442829, 0.0168884, -0.0929831, -0.0296742, -0.0390183, -0.000392532, 0.00142018, 0.701973, 15.8267, 20.0458, 17.4078, 1.29474, 4.03445, -0.0814099, -0.000587765, -0.0013773, 0.00122266, 0.00189859, -0.00907405, 0.00335868, 0.0203691, -0.00902476, -0.00220681, 0.00337532, 0.116604, 0.0893338, -0.0105443, -0.445134, 0.633848, -3.12916, -0.0570936, -0.111737, -0.0110939, -0.443765, 0.632598, -3.12787, -0.0524349, -0.0974007, 0.0162609, -0.0113113, -0.0330063, -0.00355387, -0.0210398, -0.0367411
0.11435, 0.108621, -0.773901, -0.920458, -1.45984, -0.628922, 1.06861, -0.256677, 0.0405089, 0.0176979, -0.0939343, -0.0302689, -0.039341, -0.00077036, -0.00169714, 0.813057, 15.9021, 20.0815, 17.3325, 1.31305, 4.04819, -0.00999879, -0.000606325, -0.00136796, 0.00122552, 0.00189616, -0.00923092, 0.00340966, 0.0223369, -0.00880648, -0.00194814, 0.00364134, 0.119042, 0.0901972, -0.0105279, -0.445146, 0.633814, -3.12908, -0.0571363, -0.111854, -0.0110954, -0.443787, 0.632561, -3.1278, -0.0524001, -0.0972728, 0.016564, -0.0115013, -0.033579, -0.00523812, -0.0210859, -0.0371969
0.11535, 0.108659, -0.773872, -0.920546, -1.45987, -0.628952, 1.06861, -0.25667, 0.0407266, 0.0176484, -0.0928573, -0.0288745, -0.0386702, -0.000784875, 0.00103941, 0.928108, 16.0092, 20.0458, 17.1857, 1.30755, 4.05551, -0.0685925, -0.000624033, -0.00136157, 0.00122293, 0.00188351, -0.00938212, 0.00347399, 0.0223239, -0.00840331, -0.00063104, 0.00590858, 0.11835, 0.0902035, -0.0105112, -0.445157, 0.633781, -3.12901, -0.0571798, -0.111974, -0.0110962, -0.443805, 0.632528, -3.12775, -0.0523449, -0.0971564, 0.0168696, -0.0116921, -0.034155, -0.00502773, -0.0208888, -0.0364571
0.11635, 0.108704, -0.773845, -0.920635, -1.4599, -0.628984, 1.06861, -0.256665, 0.0404395, 0.0196754, -0.0935642, -0.0307303, -0.0335975, -0.000252008, 0.00140554, 0.928108, 16.16, 20.0815, 17.146, 1.30755, 4.04819, -0.0878186, -0.000639315, -0.00135366, 0.00122156, 0.00186866, -0.00953495, 0.00353147, 0.0208926, -0.00767918, -0.000675291, 0.00390843, 0.11831, 0.0944997, -0.0104942, -0.445169, 0.633746, -3.12893, -0.0572241, -0.112096, -0.0110942, -0.443825, 0.632494, -3.1277, -0.0523009, -0.0970396, 0.0171776, -0.0118839, -0.0347344, -0.00331609, -0.0203052, -0.0369741
0.11735, 0.108743, -0.773815, -0.92072, -1.45992, -0.629009, 1.06861, -0.256672, 0.0383527, 0.0213011, -0.0895027, -0.0302604, -0.0336522, -0.000168025, -0.00170744, 1.00349, 16.3068, 20.0458, 17.0349, 1.28833, 4.04819, -0.0164075, -0.000653768, -0.00134854, 0.00121733, 0.00185319, -0.00968588, 0.00357571, 0.0203729, -0.00664437, 0.00135704, 0.00825837, 0.120241, 0.10047, -0.0104768, -0.445181, 0.633711, -3.12885, -0.0572691, -0.112219, -0.0110913, -0.443843, 0.632462, -3.12765, -0.0522783, -0.096928, 0.017488, -0.0120766, -0.0353172, -0.00267054, -0.0194689, -0.0354856
0.11835, 0.108776, -0.773781, -0.920807, -1.45994, -0.629041, 1.06861, -0.256667, 0.0391167, 0.0242676, -0.08912, -0.0290156, -0.0358985, -0.000654566, 0.000320067, 1.11457, 16.3782, 20.1212, 16.8842, 1.31946, 4.06283, -0.0557752, -0.000674097, -0.00134327, 0.00121228, 0.00183725, -0.00984756, 0.00364665, 0.0200293, -0.00655602, 0.00250179, 0.0110775, 0.125153, 0.0999023, -0.0104592, -0.445193, 0.633676, -3.12877, -0.0573148, -0.112345, -0.011094, -0.443861, 0.63243, -3.12759, -0.0522151, -0.0968015, 0.0178009, -0.0122702, -0.0359033, -0.00210005, -0.0195757, -0.0349066
0.11935, 0.108812, -0.773748, -0.920888, -1.45997, -0.629067, 1.06861, -0.256666, 0.0374798, 0.0258112, -0.0877541, -0.0295507, -0.0367933, 0.000377414, 0.000688317, 1.18995, 16.4893, 20.1569, 16.9238, 1.33136, 4.04086, -0.0685925, -0.00068815, -0.00133933, 0.00120715, 0.00181825, -0.0100084, 0.00369999, 0.0200676, -0.00625612, 0.00353648, 0.0143042, 0.127953, 0.100932, -0.0104412, -0.445205, 0.633639, -3.12869, -0.0573613, -0.112473, -0.0110902, -0.443878, 0.632398, -3.12754, -0.0521799, -0.0966788, 0.0181163, -0.0124646, -0.0364926, -0.00190794, -0.0194846, -0.0344662
0.12035, 0.108841, -0.773719, -0.920964, -1.46, -0.629095, 1.06861, -0.256669, 0.0362458, 0.0259689, -0.0808529, -0.0269133, -0.0286627, -0.000290933, -0.0005243, 1.26533, 16.636, 20.1926, 16.8484, 1.36249, 4.05551, -0.0420422, -0.000706767, -0.00133677, 0.00119781, 0.00179268, -0.010164, 0.00375568, 0.0176224, -0.00379646, 0.00688393, 0.0172854, 0.121081, 0.110856, -0.0104229, -0.445218, 0.633603, -3.12861, -0.0574085, -0.112603, -0.011091, -0.443894, 0.632369, -3.12749, -0.0521414, -0.0965666, 0.018434, -0.0126599, -0.0370852, 0.000516128, -0.0171735, -0.0315238
0.12135, 0.108877, -0.773684, -0.921041, -1.46002, -0.629117, 1.06861, -0.256669, 0.0377848, 0.027854, -0.0811104, -0.0228913, -0.0215815, 7.73056e-05, -0.000586768, 1.22962, 16.7114, 20.3434, 16.8127, 1.3689, 4.04819, -0.0356336, -0.000720563, -0.00133418, 0.00118774, 0.0017668, -0.0103207, 0.00380763, 0.016126, -0.0031409, 0.0086981, 0.0177205, 0.115654, 0.115744, -0.0104044, -0.445231, 0.633565, -3.12852, -0.0574565, -0.112735, -0.0110868, -0.44391, 0.632341, -3.12745, -0.0521096, -0.0964548, 0.0187541, -0.012856, -0.0376809, 0.00217296, -0.0166827, -0.0301981
0.12235, 0.108899, -0.773647, -0.921111, -1.46004, -0.629143, 1.06861, -0.256664, 0.0353962, 0.0323653, -0.076578, -0.0227638, -0.0216598, 5.15325e-05, 0.00154169, 1.34071, 16.7828, 20.4188, 16.7731, 1.3927, 4.04819, -0.0878186, -0.000738653, -0.00133259, 0.00117379, 0.00172922, -0.0104799, 0.00387678, 0.0146706, -0.00190067, 0.010883, 0.0223858, 0.120762, 0.116738, -0.0103854, -0.445244, 0.633527, -3.12844, -0.0575053, -0.11287, -0.0110868, -0.443925, 0.632315, -3.12741, -0.0520515, -0.0963419, 0.0190766, -0.013053, -0.0382798, 0.00374264, -0.0156147, -0.028503
0.12335, 0.108921, -0.773609, -0.921171, -1.46006, -0.629168, 1.06861, -0.256662, 0.0283104, 0.0326031, -0.0733208, -0.0213246, -0.0212362, 3.43516e-05, 0.00153649, 1.41608, 16.8582, 20.3791, 16.8127, 1.40552, 4.04819, -0.101552, -0.000752955, -0.00133459, 0.00115742, 0.00168968, -0.0106463, 0.00393265, 0.0171672, -0.000894551, 0.0131006, 0.0267356, 0.120379, 0.113808, -0.0103662, -0.445257, 0.633489, -3.12835, -0.0575548, -0.113006, -0.011083, -0.443937, 0.632292, -3.12737, -0.0520147, -0.0962201, 0.0194015, -0.0132507, -0.0388819, 0.00138156, -0.0149257, -0.0270661
0.12435, 0.108945, -0.773569, -0.921246, -1.46008, -0.629192, 1.06861, -0.256667, 0.0256055, 0.0375937, -0.0743627, -0.0215215, -0.0216005, -0.000248369, -0.00067104, 1.38038, 16.8582, 20.6052, 16.7731, 1.43573, 4.05551, -0.0557752, -0.000771634, -0.00133281, 0.0011426, 0.00165278, -0.0108097, 0.00399451, 0.0175301, -0.000667068, 0.0136211, 0.0275593, 0.126769, 0.114628, -0.0103466, -0.44527, 0.633449, -3.12826, -0.0576051, -0.113144, -0.011083, -0.443953, 0.632267, -3.12733, -0.0519695, -0.0961048, 0.0197288, -0.0134493, -0.039487, 0.00130014, -0.0149181, -0.0271779
0.12535, 0.108961, -0.773533, -0.921304, -1.4601, -0.629212, 1.06861, -0.256662, 0.0217194, 0.0364711, -0.0704271, -0.0243794, -0.0171649, -0.000708116, 0.0012481, 1.41608, 16.9296, 20.6409, 16.8484, 1.46686, 4.07016, -0.101552, -0.000789137, -0.00133571, 0.00112362, 0.00160943, -0.0109702, 0.00405962, 0.0171823, 0.00115553, 0.0145248, 0.0274877, 0.12502, 0.117636, -0.0103267, -0.445284, 0.63341, -3.12817, -0.0576562, -0.113285, -0.0110819, -0.443964, 0.632244, -3.1273, -0.0519198, -0.0959966, 0.0200585, -0.0136486, -0.0400951, 0.00184247, -0.0132962, -0.026844
0.12635, 0.108983, -0.773496, -0.921365, -1.46012, -0.629231, 1.06861, -0.25667, 0.0213566, 0.036249, -0.0673835, -0.0231691, -0.0175497, -0.000472079, -0.00184667, 1.34071, 16.9693, 20.7917, 16.9238, 1.47327, 4.07016, -0.0292249, -0.000804729, -0.00133866, 0.00110534, 0.00156972, -0.0111334, 0.00410694, 0.0170045, 0.00180461, 0.0164138, 0.0316591, 0.124903, 0.124108, -0.0103065, -0.445298, 0.633369, -3.12808, -0.0577081, -0.113428, -0.0110786, -0.443976, 0.632221, -3.12726, -0.0518986, -0.0958864, 0.0203905, -0.0138487, -0.0407063, 0.00218994, -0.0128661, -0.0255538
0.12735, 0.108997, -0.77346, -0.921419, -1.46013, -0.629251, 1.06861, -0.256667, 0.0168386, 0.0361301, -0.0631177, -0.0202522, -0.018195, -0.00031472, -0.000247746, 1.305, 17.005, 20.8631, 16.9238, 1.48517, 4.07016, -0.0557752, -0.000823158, -0.0013425, 0.00108174, 0.00151722, -0.0112925, 0.00417192, 0.018649, 0.00268497, 0.0193037, 0.0379405, 0.123924, 0.121682, -0.010286, -0.445311, 0.633328, -3.12799, -0.0577607, -0.113573, -0.0110782, -0.443987, 0.632202, -3.12723, -0.0518504, -0.0957852, 0.0207248, -0.0140495, -0.0413204, 0.000642037, -0.0122848, -0.0233985
0.12835, 0.109008, -0.773424, -0.92148, -1.46015, -0.629268, 1.06861, -0.256662, 0.0156813, 0.0337229, -0.0626437, -0.0189336, -0.0186449, -0.000209814, 0.000546929, 1.305, 17.005, 21.0496, 16.9595, 1.49707, 4.07016, -0.0750012, -0.000844995, -0.00134559, 0.00106, 0.00146982, -0.0114522, 0.00424716, 0.0203658, 0.00282729, 0.020438, 0.0403472, 0.121788, 0.121465, -0.0102651, -0.445326, 0.633287, -3.1279, -0.0578142, -0.11372, -0.0110807, -0.443999, 0.632181, -3.12719, -0.0517872, -0.095685, 0.0210615, -0.0142511, -0.0419374, -0.000821598, -0.0124233, -0.0230096
0.12935, 0.109021, -0.77339, -0.921531, -1.46017, -0.629285, 1.06861, -0.25666, 0.0166052, 0.0358959, -0.0586077, -0.0166506, -0.0183778, -0.000648503, 0.000601991, 1.22962, 16.9693, 21.0892, 17.0706, 1.49158, 4.08389, -0.0814099, -0.000862901, -0.00135118, 0.00103587, 0.00141752, -0.0116131, 0.00430732, 0.0187436, 0.00381733, 0.0229329, 0.0450104, 0.123191, 0.126605, -0.0102438, -0.44534, 0.633244, -3.1278, -0.0578684, -0.113869, -0.0110792, -0.444008, 0.632162, -3.12716, -0.0517481, -0.0955854, 0.0214005, -0.0144534, -0.0425574, 0.000914564, -0.0116107, -0.0210154
0.13035, 0.109028, -0.773355, -0.92158, -1.46018, -0.629303, 1.0686, -0.256665, 0.0131999, 0.0349678, -0.0557702, -0.0153357, -0.0190813, -0.000974871, -0.00153144, 1.18995, 16.8939, 21.1249, 17.0706, 1.50989, 4.09854, -0.0292249, -0.000884199, -0.00135709, 0.00100754, 0.00135708, -0.0117709, 0.0043689, 0.0203404, 0.00455926, 0.0248309, 0.0489347, 0.12282, 0.128764, -0.0102223, -0.445355, 0.633201, -3.12771, -0.0579234, -0.114021, -0.0110811, -0.444018, 0.632146, -3.12714, -0.0517072, -0.0954933, 0.0217418, -0.0146563, -0.0431802, -0.000503314, -0.0111574, -0.0198563
0.13135, 0.109039, -0.773336, -0.921637, -1.4602, -0.629322, 1.0686, -0.256663, 0.0114645, 0.0299172, -0.0583706, -0.0171596, -0.0146463, -0.000921181, -0.000308878, 1.11457, 17.005, 21.236, 17.1857, 1.52179, 4.10586, -0.0484509, -0.000910416, -0.00136125, 0.000984048, 0.00130532, -0.0119209, 0.00443844, 0.0225112, 0.0048313, 0.0240494, 0.0452395, 0.116557, 0.129198, -0.0102004, -0.445369, 0.633158, -3.12761, -0.0579792, -0.114174, -0.0110872, -0.44403, 0.632124, -3.1271, -0.0516551, -0.0954152, 0.0220854, -0.01486, -0.0438058, -0.00227907, -0.0111617, -0.0214191
0.13235, 0.109054, -0.773304, -0.921693, -1.46021, -0.629336, 1.0686, -0.256658, 0.0118454, 0.0315261, -0.0594544, -0.0165098, -0.0160623, -0.000342854, 0.00152342, 0.963814, 16.8939, 21.3114, 17.2214, 1.53461, 4.09854, -0.0951428, -0.000931044, -0.00136604, 0.000957357, 0.00124868, -0.0120762, 0.00450728, 0.0228484, 0.00457015, 0.0246942, 0.0473189, 0.119457, 0.128194, -0.0101781, -0.445384, 0.633114, -3.12751, -0.0580358, -0.11433, -0.0110875, -0.444041, 0.632105, -3.12707, -0.0516047, -0.0953312, 0.0224314, -0.0150643, -0.0444342, -0.00230868, -0.0116507, -0.0214339
0.13335, 0.109056, -0.773279, -0.921751, -1.46022, -0.629353, 1.0686, -0.256665, 0.00923917, 0.0283673, -0.0631449, -0.0152143, -0.016671, -0.000771104, -0.00142579, 0.928108, 16.8225, 21.3868, 17.2214, 1.53461, 4.11319, -0.0292249, -0.000961681, -0.00137074, 0.000929929, 0.00119131, -0.0122289, 0.00458166, 0.0268731, 0.00402394, 0.0246336, 0.0466658, 0.117158, 0.127096, -0.0101555, -0.445399, 0.633069, -3.12741, -0.0580933, -0.114488, -0.0110976, -0.444053, 0.632085, -3.12704, -0.0515466, -0.0952535, 0.0227796, -0.0152693, -0.0450654, -0.00594919, -0.0125514, -0.0224283
0.13435, 0.109068, -0.773256, -0.92181, -1.46023, -0.629368, 1.0686, -0.256659, 0.0100662, 0.0251469, -0.0591558, -0.0112024, -0.0121919, 2.84651e-05, 0.00121961, 0.777352, 16.7828, 21.4225, 17.2214, 1.5282, 4.09854, -0.0878186, -0.000988425, -0.00137555, 0.000902382, 0.00113478, -0.0123782, 0.00465863, 0.026341, 0.00504003, 0.027559, 0.0511102, 0.108266, 0.130731, -0.0101325, -0.445415, 0.633024, -3.12731, -0.0581515, -0.114649, -0.0111034, -0.444065, 0.632065, -3.127, -0.0514853, -0.0951833, 0.0231301, -0.0154749, -0.0456993, -0.00532255, -0.0117635, -0.020098
0.13535, 0.109074, -0.773233, -0.921871, -1.46024, -0.629384, 1.0686, -0.256658, 0.00875919, 0.0251745, -0.0620713, -0.0131953, -0.00979256, 1.89767e-05, 0.00108435, 0.701973, 16.636, 21.4582, 17.2968, 1.54651, 4.09854, -0.0951428, -0.00101764, -0.00137971, 0.000876743, 0.00107843, -0.0125343, 0.00473657, 0.0272714, 0.00514628, 0.026823, 0.0483209, 0.108784, 0.131833, -0.0101092, -0.44543, 0.632978, -3.12721, -0.0582105, -0.114811, -0.0111112, -0.444078, 0.632043, -3.12697, -0.0514233, -0.0951047, 0.0234829, -0.0156811, -0.0463358, -0.00585, -0.0118917, -0.0215385
0.13635, 0.10909, -0.773209, -0.921931, -1.46026, -0.629398, 1.0686, -0.256665, 0.0105078, 0.0258176, -0.0617571, -0.0146875, -0.011739, -0.000258616, -0.00148115, 0.511544, 16.4536, 21.3868, 17.3721, 1.5401, 4.10586, -0.0356336, -0.00104196, -0.00138493, 0.00084989, 0.00102252, -0.0126902, 0.00479543, 0.0266049, 0.00532555, 0.0270664, 0.0494237, 0.112916, 0.138542, -0.0100856, -0.445446, 0.632931, -3.1271, -0.0582704, -0.114976, -0.0111139, -0.444089, 0.632021, -3.12693, -0.0513918, -0.0950288, 0.0238379, -0.015888, -0.046975, -0.00485814, -0.0119018, -0.0218868
0.13735, 0.109096, -0.773194, -0.921999, -1.46027, -0.629415, 1.06861, -0.256661, 0.00892888, 0.0245241, -0.066394, -0.0121225, -0.0142541, 0.000370124, 0.000233272, 0.436165, 16.3425, 21.3868, 17.2968, 1.55932, 4.09122, -0.0685925, -0.00107831, -0.00138753, 0.000821956, 0.000963035, -0.0128354, 0.0048874, 0.0304495, 0.00412795, 0.0272722, 0.0507425, 0.112635, 0.131555, -0.0100616, -0.445462, 0.632884, -3.127, -0.0583311, -0.115144, -0.0111282, -0.444104, 0.631999, -3.12689, -0.0513096, -0.0949719, 0.0241952, -0.0160954, -0.0476168, -0.00830515, -0.0134539, -0.0226221
0.13835, 0.109112, -0.773179, -0.922072, -1.46028, -0.62943, 1.0686, -0.25666, 0.0105274, 0.0211796, -0.0688943, -0.0130165, -0.0155753, 0.000518016, 0.000392875, 0.245735, 16.1957, 21.3471, 17.3325, 1.56482, 4.08389, -0.0750012, -0.00111044, -0.00139074, 0.000798654, 0.000916396, -0.0129895, 0.00496493, 0.031924, 0.00364341, 0.0268025, 0.0501888, 0.111844, 0.133284, -0.0100372, -0.445478, 0.632836, -3.12689, -0.0583926, -0.115313, -0.0111377, -0.444119, 0.631972, -3.12684, -0.0512513, -0.0949027, 0.0245547, -0.0163034, -0.0482612, -0.00936514, -0.014198, -0.0238523
0.13935, 0.109124, -0.773163, -0.922143, -1.4603, -0.629444, 1.06861, -0.256666, 0.0159279, 0.0186008, -0.0654775, -0.0150037, -0.0162371, 0.00112524, -0.00167086, 0.134651, 16.0489, 21.2003, 17.2968, 1.56482, 4.06283, -0.0228162, -0.0011429, -0.00139339, 0.00077186, 0.000858359, -0.0131394, 0.00503902, 0.0291669, 0.00426208, 0.0276139, 0.0527427, 0.111586, 0.146418, -0.0100124, -0.445495, 0.632787, -3.12678, -0.0584549, -0.115485, -0.0111473, -0.444134, 0.631948, -3.1268, -0.0511986, -0.094843, 0.0249165, -0.016512, -0.0489081, -0.00634157, -0.0137016, -0.023483
0.14035, 0.109138, -0.77315, -0.922227, -1.46032, -0.629458, 1.06861, -0.256659, 0.0161299, 0.0166197, -0.0715311, -0.0184291, -0.0165913, 0.000750159, 0.000106795, 0.059273, 15.9021, 21.1606, 17.3325, 1.55932, 4.06283, -0.0557752, -0.0011801, -0.00139472, 0.000750307, 0.000814492, -0.0132925, 0.00513285, 0.0313498, 0.00352816, 0.02542, 0.047805, 0.113478, 0.144197, -0.00998734, -0.445511, 0.632738, -3.12667, -0.058518, -0.115659, -0.0111609, -0.444151, 0.631917, -3.12675, -0.0511168, -0.0947795, 0.0252805, -0.0167211, -0.0495576, -0.00796664, -0.0146988, -0.0264931
0.14135, 0.109155, -0.773139, -0.922315, -1.46033, -0.629474, 1.06861, -0.256658, 0.0141476, 0.0151954, -0.0760746, -0.0151417, -0.0177567, 0.000500106, 0.00102063, -0.0557783, 15.7513, 21.1249, 17.2571, 1.57764, 4.06283, -0.0814099, -0.0012198, -0.00139465, 0.000727133, 0.000767477, -0.0134436, 0.00522583, 0.0353669, 0.00263065, 0.0258155, 0.0482578, 0.112022, 0.137987, -0.00996188, -0.445528, 0.632688, -3.12656, -0.058582, -0.115835, -0.0111767, -0.44417, 0.631888, -3.12669, -0.051037, -0.0947218, 0.0256467, -0.0169307, -0.0502094, -0.0116016, -0.015963, -0.027062
0.14235, 0.109179, -0.773126, -0.9224, -1.46034, -0.629485, 1.06861, -0.256662, 0.0197577, 0.0148411, -0.0794692, -0.0139059, -0.0216137, 0.00114721, -0.00148972, -0.206535, 15.5688, 20.9742, 17.2214, 1.54651, 4.04086, -0.0228162, -0.001253, -0.00139563, 0.00070408, 0.00072117, -0.0135959, 0.00530047, 0.0353452, 0.0014224, 0.0257867, 0.0498207, 0.114598, 0.143423, -0.00993605, -0.445545, 0.632638, -3.12645, -0.0586468, -0.116014, -0.0111856, -0.444187, 0.631858, -3.12664, -0.0509866, -0.0946646, 0.0260151, -0.0171409, -0.0508638, -0.0111664, -0.0173835, -0.027761
0.14335, 0.109202, -0.773118, -0.922495, -1.46036, -0.6295, 1.06861, -0.256661, 0.022123, 0.0128239, -0.0834074, -0.0168863, -0.0164997, 0.000764804, -0.000755785, -0.281914, 15.4578, 20.8631, 17.2214, 1.55292, 4.04086, -0.0292249, -0.00129166, -0.0013954, 0.000684841, 0.000682874, -0.0137528, 0.00538887, 0.0349211, 0.00162901, 0.0242479, 0.0439224, 0.111968, 0.148426, -0.00990985, -0.445562, 0.632586, -3.12633, -0.0587125, -0.116195, -0.0111993, -0.444206, 0.631823, -3.12657, -0.0509161, -0.0946018, 0.0263857, -0.0173516, -0.0515205, -0.0102698, -0.0173547, -0.0299227
0.14435, 0.109227, -0.77311, -0.922588, -1.46038, -0.629511, 1.06861, -0.256656, 0.0229893, 0.0113963, -0.0845005, -0.0164928, -0.015919, 0.0010185, 0.00119156, -0.317619, 15.3467, 20.6766, 17.1103, 1.52179, 4.02713, -0.0750012, -0.00132907, -0.00139546, 0.00066311, 0.000640629, -0.0139042, 0.0054785, 0.0355756, 0.00159907, 0.024685, 0.0444701, 0.11071, 0.149, -0.00988328, -0.44558, 0.632535, -3.12622, -0.058779, -0.116378, -0.0112116, -0.444226, 0.63179, -3.12651, -0.0508443, -0.0945504, 0.0267585, -0.0175627, -0.0521796, -0.0105831, -0.0176303, -0.0301993
0.14535, 0.109257, -0.7731, -0.922696, -1.4604, -0.629524, 1.06862, -0.25666, 0.0216575, 0.0112176, -0.0912668, -0.0164988, -0.0163677, 0.0014928, -0.000663686, -0.392998, 15.1999, 20.6052, 16.9992, 1.50989, 4.00516, -0.0356336, -0.00136859, -0.0013927, 0.000644875, 0.000605022, -0.0140622, 0.00556541, 0.0387658, 0.000440998, 0.0235428, 0.0419924, 0.11185, 0.146575, -0.00985633, -0.445598, 0.632482, -3.1261, -0.0588463, -0.116563, -0.0112253, -0.444248, 0.631753, -3.12644, -0.050778, -0.0944906, 0.0271335, -0.0177744, -0.052841, -0.0132609, -0.0191054, -0.0322555
0.14635, 0.109287, -0.77309, -0.922806, -1.46042, -0.629537, 1.06862, -0.256663, 0.0220359, 0.0102167, -0.0981384, -0.0172789, -0.0119085, 0.00126647, -0.00139189, -0.392998, 15.0888, 20.4941, 16.9238, 1.49707, 3.99783, -0.00999879, -0.00140852, -0.00139029, 0.000629168, 0.000575639, -0.0142267, 0.00565363, 0.040436, -7.0781e-05, 0.0219768, 0.036065, 0.109332, 0.1474, -0.00982901, -0.445615, 0.632429, -3.12598, -0.0589145, -0.116751, -0.0112388, -0.44427, 0.631712, -3.12636, -0.0507108, -0.0944225, 0.0275107, -0.0179865, -0.0535047, -0.0144146, -0.0198728, -0.0346166
0.14735, 0.109322, -0.773084, -0.922923, -1.46045, -0.62955, 1.06862, -0.256658, 0.0286573, 0.0085864, -0.103892, -0.0218395, -0.0086017, 0.00189547, 0.000767493, -0.392998, 15.0174, 20.4188, 16.8842, 1.48517, 3.96945, -0.0557752, -0.00144853, -0.00138641, 0.000616045, 0.000550148, -0.0143905, 0.00574746, 0.0385345, -0.000612255, 0.0194182, 0.0295457, 0.109123, 0.153821, -0.00980131, -0.445634, 0.632375, -3.12586, -0.0589835, -0.116942, -0.0112518, -0.444293, 0.631668, -3.12628, -0.0506361, -0.0943576, 0.02789, -0.018199, -0.0541706, -0.0119316, -0.020523, -0.0377029
0.14835, 0.109359, -0.773074, -0.923035, -1.46047, -0.629565, 1.06862, -0.256655, 0.0338884, 0.011609, -0.107488, -0.0228335, -0.0113291, 0.00153492, 0.0014611, -0.392998, 14.9063, 20.3077, 16.7374, 1.48517, 3.96213, -0.0814099, -0.00148641, -0.00138382, 0.00059935, 0.000518449, -0.0145592, 0.00583668, 0.0371684, -0.00132085, 0.0187118, 0.0286738, 0.116199, 0.157222, -0.00977323, -0.445652, 0.63232, -3.12574, -0.0590534, -0.117134, -0.0112626, -0.444316, 0.631627, -3.1262, -0.0505691, -0.0942878, 0.0282715, -0.018412, -0.0548388, -0.010111, -0.0213868, -0.0389864
0.14935, 0.109398, -0.773069, -0.923157, -1.4605, -0.629571, 1.06862, -0.256662, 0.0359713, 0.00806566, -0.111265, -0.0252518, -0.0081299, 0.00102328, -0.00143343, -0.317619, 14.9063, 20.2323, 16.662, 1.47327, 3.96213, -0.0164075, -0.00152601, -0.00138077, 0.00058689, 0.000499881, -0.0147231, 0.0059156, 0.0377953, -0.00133234, 0.0173516, 0.023825, 0.11321, 0.164547, -0.00974476, -0.44567, 0.632265, -3.12562, -0.0591241, -0.117329, -0.0112744, -0.444339, 0.631582, -3.12611, -0.0505195, -0.0942272, 0.0286551, -0.0186253, -0.0555092, -0.010252, -0.0216189, -0.0410655
0.15035, 0.109444, -0.773056, -0.923279, -1.46053, -0.629584, 1.06862, -0.256657, 0.0440629, 0.00738506, -0.115038, -0.0271894, -0.0109372, 0.00173335, 0.000739799, -0.242241, 14.8309, 20.0815, 16.5866, 1.47327, 3.93374, -0.0621838, -0.00156057, -0.00137702, 0.000573931, 0.000475501, -0.0149012, 0.00600176, 0.0360506, -0.00238183, 0.0161721, 0.0228169, 0.116783, 0.169679, -0.00971592, -0.445689, 0.632209, -3.12549, -0.0591957, -0.117527, -0.0112808, -0.444363, 0.631536, -3.12602, -0.0504595, -0.0941471, 0.0290408, -0.0188391, -0.0561817, -0.00800091, -0.0228024, -0.0428004
0.15135, 0.109488, -0.773047, -0.923412, -1.46057, -0.629597, 1.06862, -0.256655, 0.0463189, 0.011604, -0.120639, -0.0285279, -0.0138463, 0.00115556, 0.000967917, -0.131157, 14.8309, 20.0458, 16.5112, 1.49707, 3.93374, -0.0750012, -0.00160151, -0.00137192, 0.000564829, 0.000461599, -0.0150813, 0.00609505, 0.0362867, -0.00332077, 0.0149263, 0.0206441, 0.125586, 0.169149, -0.00968668, -0.445708, 0.632153, -3.12537, -0.0592682, -0.117726, -0.0112928, -0.444389, 0.631485, -3.12592, -0.0503898, -0.0940657, 0.0294287, -0.0190533, -0.0568564, -0.00772044, -0.0239486, -0.0447516
0.15235, 0.109539, -0.773033, -0.923547, -1.4606, -0.629604, 1.06862, -0.25666, 0.0479565, 0.00925028, -0.125507, -0.0305913, -0.0143261, 0.0107981, -0.000812784, -0.0161054, 14.7952, 19.9347, 16.3644, 1.47876, 3.9191, -0.0356336, -0.0016376, -0.00136667, 0.000555012, 0.000447893, -0.015262, 0.00617518, 0.0368291, -0.00578973, 0.0143204, 0.0258392, 0.121301, 0.172222, -0.00965706, -0.445727, 0.632096, -3.12524, -0.0593415, -0.117929, -0.0112997, -0.444415, 0.631435, -3.12582, -0.0503414, -0.0939858, 0.0298187, -0.0192678, -0.0575331, -0.00773186, -0.0266446, -0.0461088
0.15335, 0.109591, -0.77302, -0.923693, -1.46064, -0.629618, 1.06862, -0.256657, 0.0509535, 0.00983294, -0.132139, -0.0302422, -0.0119305, 0.00771792, -0.000779215, 0.170357, 14.7952, 19.9347, 16.2494, 1.50989, 3.92642, -0.0292249, -0.00167808, -0.00135983, 0.000549354, 0.0004425, -0.0154518, 0.00627038, 0.0377427, -0.00607078, 0.0129166, 0.0191121, 0.122674, 0.173535, -0.00962704, -0.445747, 0.632038, -3.12511, -0.0594156, -0.118133, -0.0113101, -0.444442, 0.63138, -3.12571, -0.0502711, -0.0938933, 0.0302108, -0.0194827, -0.0582119, -0.00813487, -0.0271567, -0.0482656
0.15435, 0.109649, -0.773006, -0.923832, -1.46068, -0.629628, 1.06862, -0.256654, 0.0549889, 0.0125141, -0.134222, -0.0341676, -0.0138668, 0.00573811, 0.00117594, 0.285408, 14.8309, 19.8237, 16.178, 1.5163, 3.92642, -0.0750012, -0.00171162, -0.00135484, 0.000542366, 0.000434432, -0.0156451, 0.00635126, 0.0359476, -0.00589447, 0.0116358, 0.0159029, 0.131478, 0.177544, -0.00959664, -0.445766, 0.631979, -3.12498, -0.0594907, -0.11834, -0.0113135, -0.444468, 0.631325, -3.12561, -0.0496899, -0.0937979, 0.0306049, -0.019698, -0.0588927, -0.00586327, -0.0271122, -0.0500912
0.15535, 0.109704, -0.772985, -0.923981, -1.46072, -0.629638, 1.06862, -0.256654, 0.0586589, 0.0101741, -0.138516, -0.0359351, -0.010331, 0.00345622, 7.18862e-05, 0.511544, 14.7952, 19.8237, 16.0629, 1.5163, 3.94839, -0.0557752, -0.00174839, -0.00134888, 0.000537188, 0.000432989, -0.0158472, 0.00644086, 0.0359468, -0.00569728, 0.010181, 0.00941515, 0.129965, 0.184114, -0.00956583, -0.445786, 0.63192, -3.12485, -0.0595666, -0.11855, -0.0113194, -0.444496, 0.631268, -3.12549, -0.0496305, -0.0936909, 0.0310012, -0.0199136, -0.0595756, -0.00536482, -0.0271115, -0.0522278
0.15635, 0.109768, -0.772974, -0.924122, -1.46077, -0.629645, 1.06862, -0.256663, 0.0603257, 0.0104222, -0.141774, -0.0397595, -0.00814293, 0.00263761, -0.00215612, 0.6623, 14.942, 19.7086, 15.9161, 1.5282, 3.94839, 0.00373412, -0.00178139, -0.0013439, 0.000530001, 0.000426236, -0.0160385, 0.00650575, 0.0354055, -0.00548171, 0.00868123, 0.00462624, 0.132593, 0.191005, -0.00953463, -0.445806, 0.63186, -3.12472, -0.0596434, -0.118761, -0.0113214, -0.444522, 0.631213, -3.12538, -0.0496102, -0.0936039, 0.0313996, -0.0201295, -0.0602603, -0.00432261, -0.0270713, -0.0543698
0.15735, 0.109833, -0.772955, -0.924277, -1.46081, -0.629655, 1.06862, -0.256651, 0.0603219, 0.0125546, -0.147727, -0.042747, -0.00648054, 0.0120288, 0.00171607, 0.85273, 15.0174, 19.7483, 15.7654, 1.5401, 3.93374, -0.0814099, -0.00181606, -0.00133643, 0.000526231, 0.000425143, -0.0162426, 0.00660121, 0.0351046, -0.00766399, 0.00768907, 0.00794059, 0.13193, 0.187456, -0.00950303, -0.445826, 0.6318, -3.12458, -0.059721, -0.118976, -0.0113244, -0.444551, 0.631153, -3.12526, -0.0495435, -0.0934987, 0.0318, -0.0203457, -0.060947, -0.00346327, -0.0294438, -0.0560563
0.15835, 0.109897, -0.772939, -0.924436, -1.46087, -0.629662, 1.06862, -0.256658, 0.0623773, 0.0125476, -0.154997, -0.0476588, -0.00501605, 0.00872533, -0.000314017, 1.07887, 15.1642, 19.8237, 15.7297, 1.54651, 3.94107, -0.0420422, -0.00185108, -0.00132994, 0.000525715, 0.000433673, -0.0164513, 0.00667633, 0.0359638, -0.00779181, 0.00449675, -0.00191809, 0.136989, 0.191684, -0.00947103, -0.445847, 0.631738, -3.12445, -0.0597996, -0.119192, -0.011327, -0.444579, 0.63109, -3.12513, -0.0495101, -0.0933883, 0.0322025, -0.0205621, -0.0616356, -0.00366983, -0.0297727, -0.0600009
0.15935, 0.109965, -0.772913, -0.924581, -1.46092, -0.629672, 1.06862, -0.25666, 0.0655082, 0.0179228, -0.14804, -0.0501429, -0.00884656, 0.00627866, -0.00166741, 1.26533, 15.2356, 19.7086, 15.6543, 1.55932, 3.94839, -0.00267457, -0.00187843, -0.00132573, 0.000519889, 0.000429344, -0.0166703, 0.00674441, 0.0315459, -0.00601648, 0.00630536, 0.00220395, 0.148835, 0.20335, -0.00943863, -0.445867, 0.631676, -3.12431, -0.059879, -0.119411, -0.0113221, -0.444605, 0.631031, -3.12502, -0.0494881, -0.0932652, 0.032607, -0.0207789, -0.062326, 0.000930357, -0.02808, -0.0585332
0.16035, 0.110035, -0.772888, -0.924736, -1.46097, -0.629676, 1.06862, -0.256653, 0.0677407, 0.0198173, -0.148475, -0.0519997, -0.011961, 0.00422693, 0.000855084, 1.45576, 15.3864, 19.7086, 15.5789, 1.57764, 3.96213, -0.0557752, -0.00190749, -0.00132076, 0.000517702, 0.000435642, -0.0168906, 0.00682436, 0.0309267, -0.00573295, 0.00616299, 0.00176174, 0.156369, 0.204665, -0.00940582, -0.445888, 0.631614, -3.12417, -0.0599593, -0.119633, -0.0113182, -0.444632, 0.630968, -3.12489, -0.0494491, -0.0931417, 0.0330136, -0.0209959, -0.0630183, 0.00195363, -0.0279903, -0.0593216
0.16135, 0.110104, -0.772863, -0.924892, -1.46104, -0.629682, 1.06862, -0.256654, 0.0655378, 0.0215804, -0.147961, -0.0583952, -0.0137891, 0.00323029, 6.14296e-05, 1.68189, 15.5331, 19.6729, 15.5789, 1.58954, 3.96213, -0.0420422, -0.00193611, -0.0013159, 0.000516155, 0.000441863, -0.0171152, 0.00689529, 0.0307107, -0.00491319, 0.00512781, -7.07474e-06, 0.165121, 0.208546, -0.0093726, -0.445909, 0.63155, -3.12403, -0.0600404, -0.119857, -0.0113134, -0.444659, 0.630904, -3.12476, -0.0494251, -0.0930142, 0.0334222, -0.0212132, -0.0637123, 0.00262438, -0.0273659, -0.0610257
0.16235, 0.110179, -0.772834, -0.925056, -1.46109, -0.629689, 1.06861, -0.25666, 0.0685617, 0.0260813, -0.152213, -0.0586494, -0.010906, -0.00754267, -0.000908483, 1.83265, 15.6799, 19.7086, 15.3925, 1.60785, 3.97677, -0.0164075, -0.00196636, -0.00130988, 0.000513853, 0.000450786, -0.0173433, 0.00696746, 0.0302805, -0.00315107, 0.0037075, -0.0121043, 0.174214, 0.213199, -0.00933897, -0.445931, 0.631486, -3.12389, -0.0601225, -0.120083, -0.0113099, -0.444688, 0.63084, -3.12462, -0.0494004, -0.0928833, 0.0338328, -0.0214307, -0.0644081, 0.00350347, -0.0257855, -0.0630861
0.16335, 0.110255, -0.772801, -0.925219, -1.46115, -0.629692, 1.06862, -0.256655, 0.0704421, 0.0298945, -0.154533, -0.0635869, -0.0085217, -0.00558508, 0.00058114, 1.98341, 15.8267, 19.7086, 15.3925, 1.62067, 3.97677, -0.0484509, -0.00199088, -0.00130448, 0.000514109, 0.000460665, -0.0175796, 0.00704133, 0.027725, -0.00309459, 0.00250461, -0.0142983, 0.179569, 0.217985, -0.00930493, -0.445952, 0.631421, -3.12375, -0.0602054, -0.120312, -0.0113, -0.444716, 0.630773, -3.12449, -0.0493741, -0.0927421, 0.0342455, -0.0216484, -0.0651057, 0.00655213, -0.0258322, -0.06479
0.16435, 0.110328, -0.772768, -0.925384, -1.46122, -0.629693, 1.06861, -0.256651, 0.0692205, 0.0305903, -0.157081, -0.0619286, -0.00646682, -0.00519203, 0.00137077, 2.13416, 16.0489, 19.7483, 15.3171, 1.62616, 4.00516, -0.0750012, -0.0020188, -0.00129954, 0.000513336, 0.000473141, -0.0178155, 0.00711986, 0.0291344, -0.00321477, 0.00312176, -0.0141699, 0.178528, 0.216692, -0.00927048, -0.445974, 0.631356, -3.1236, -0.0602893, -0.120544, -0.0112932, -0.444744, 0.630706, -3.12435, -0.0493416, -0.0926038, 0.0346601, -0.0218663, -0.0658049, 0.0055202, -0.0262356, -0.0649892
0.16535, 0.110404, -0.772738, -0.925545, -1.46129, -0.629695, 1.06861, -0.25666, 0.072041, 0.0314422, -0.1558, -0.0643265, -0.00454445, -0.00404573, -0.00200228, 2.24921, 16.2671, 19.784, 15.3925, 1.62067, 4.01248, 0.00373412, -0.00204381, -0.00129562, 0.000513229, 0.000484352, -0.0180568, 0.00717791, 0.02658, -0.00262079, 0.00350374, -0.0134398, 0.179903, 0.228535, -0.00923561, -0.445996, 0.63129, -3.12346, -0.060374, -0.120777, -0.0112831, -0.444771, 0.630638, -3.12421, -0.049342, -0.0924601, 0.0350768, -0.0220844, -0.0665058, 0.00842918, -0.0257714, -0.0651083
0.16635, 0.110474, -0.772702, -0.925698, -1.46135, -0.629695, 1.06861, -0.256656, 0.0693251, 0.0350798, -0.156957, -0.0591852, -0.00379795, -0.00374578, 0.000869196, 2.43568, 16.4893, 19.784, 15.3171, 1.63257, 4.03445, -0.0557752, -0.00206859, -0.00129395, 0.000507073, 0.000486058, -0.0182968, 0.00725059, 0.028294, -0.00271023, 0.00574107, -0.0096094, 0.180495, 0.222308, -0.00920033, -0.446018, 0.631223, -3.12331, -0.0604596, -0.121014, -0.0112729, -0.444795, 0.630575, -3.12407, -0.0493202, -0.0923211, 0.0354954, -0.0223027, -0.0672083, 0.00697138, -0.0261838, -0.0637193
0.16735, 0.110544, -0.772654, -0.925854, -1.46141, -0.629694, 1.06861, -0.256657, 0.0681458, 0.0386949, -0.156081, -0.0604647, -0.0027776, -0.00345321, 0.000579464, 2.58643, 16.5646, 19.8237, 15.3171, 1.63257, 4.05551, -0.0557752, -0.00208978, -0.00129255, 0.000502374, 0.000490721, -0.0185545, 0.00731858, 0.0273127, -0.00203148, 0.00652388, -0.00833457, 0.184975, 0.225742, -0.00916462, -0.446041, 0.631155, -3.12316, -0.0605461, -0.121253, -0.0112586, -0.44482, 0.63051, -3.12394, -0.049307, -0.0921569, 0.0359161, -0.0225212, -0.0679124, 0.00828226, -0.0257022, -0.0635621
0.16835, 0.110616, -0.772615, -0.926008, -1.46149, -0.629694, 1.06861, -0.256654, 0.0681572, 0.0382929, -0.15509, -0.0660529, -0.00203596, -0.00324803, 0.000386309, 2.70148, 16.7471, 19.8594, 15.3925, 1.63257, 4.07748, -0.0557752, -0.00211153, -0.0012919, 0.000498343, 0.000496246, -0.0188086, 0.00738495, 0.0261614, -0.00120598, 0.00582157, -0.00974402, 0.188523, 0.232467, -0.00912849, -0.446063, 0.631087, -3.12301, -0.0606336, -0.121494, -0.0112444, -0.444844, 0.630444, -3.1238, -0.0492973, -0.0920008, 0.0363387, -0.0227398, -0.068618, 0.00987315, -0.0250424, -0.0648712
0.16935, 0.110679, -0.772572, -0.926154, -1.46155, -0.629694, 1.0686, -0.256659, 0.0641481, 0.038145, -0.147744, -0.0642349, -0.00149547, -0.00304432, -0.00170915, 2.85224, 16.9296, 19.8594, 15.3568, 1.63257, 4.09854, -0.00267457, -0.00213567, -0.00129278, 0.000488667, 0.000490316, -0.0190629, 0.00745151, 0.0261914, 0.000479491, 0.00932683, -0.0025248, 0.187338, 0.238053, -0.00909194, -0.446086, 0.631018, -3.12286, -0.0607219, -0.121738, -0.0112326, -0.444868, 0.630383, -3.12367, -0.0492877, -0.0918477, 0.0367632, -0.0229586, -0.0693252, 0.00992927, -0.023641, -0.0620671
0.17035, 0.110748, -0.772527, -0.926304, -1.46162, -0.629692, 1.0686, -0.256652, 0.063619, 0.0395908, -0.146688, -0.0675056, -0.000422441, -0.00369754, 0.00130197, 2.89191, 17.0407, 19.9347, 15.3925, 1.61426, 4.14157, -0.0685925, -0.00215751, -0.00129469, 0.000481423, 0.000494136, -0.0193256, 0.00752507, 0.025205, 0.00142693, 0.00936875, -0.00327034, 0.191396, 0.240042, -0.00905497, -0.446109, 0.630949, -3.12271, -0.0608111, -0.121984, -0.011218, -0.44489, 0.630318, -3.12353, -0.0492688, -0.0916831, 0.0371897, -0.0231774, -0.0700339, 0.0112966, -0.022879, -0.0626475
0.17135, 0.110814, -0.772486, -0.926444, -1.4617, -0.629693, 1.06859, -0.256653, 0.0632045, 0.0396112, -0.144292, -0.0688885, -0.000800157, -0.00333456, 0.000393265, 2.92762, 17.1875, 19.9347, 15.5035, 1.62616, 4.16354, -0.0557752, -0.00217727, -0.00129803, 0.000472519, 0.000489028, -0.0195912, 0.00758288, 0.0247216, 0.00213133, 0.0104044, -0.00072036, 0.193343, 0.245458, -0.00901756, -0.446132, 0.630878, -3.12255, -0.0609012, -0.122233, -0.0112011, -0.444911, 0.630255, -3.1234, -0.049275, -0.0915175, 0.0376182, -0.0233964, -0.0707441, 0.012097, -0.0223966, -0.0622813
0.17235, 0.110877, -0.772442, -0.926586, -1.46177, -0.629691, 1.06859, -0.256658, 0.0604827, 0.0411643, -0.141638, -0.0680222, 8.64407e-05, -0.00331599, -0.00143324, 2.92762, 17.2629, 19.8951, 15.5432, 1.60785, 4.19192, -0.00999879, -0.00219947, -0.00130195, 0.000461546, 0.000484126, -0.019856, 0.00764356, 0.0249628, 0.00305395, 0.0123064, 0.00266641, 0.194526, 0.249128, -0.00897973, -0.446156, 0.630807, -3.12239, -0.0609922, -0.122484, -0.0111864, -0.444931, 0.630193, -3.12327, -0.0492778, -0.0913557, 0.0380486, -0.0236155, -0.0714557, 0.0121008, -0.0217397, -0.0611064
0.17335, 0.110937, -0.772406, -0.926733, -1.46185, -0.629692, 1.06858, -0.256651, 0.0582351, 0.0369821, -0.144565, -0.0723469, -0.000223449, -0.0030219, 0.001452, 2.92762, 17.4454, 19.9347, 15.6543, 1.61426, 4.21298, -0.0750012, -0.00222676, -0.00130461, 0.000453184, 0.000481178, -0.020119, 0.00772265, 0.027689, 0.00290334, 0.0108522, -0.000116994, 0.194377, 0.246447, -0.00894147, -0.44618, 0.630735, -3.12224, -0.0610841, -0.122738, -0.011176, -0.444954, 0.630127, -3.12314, -0.0492529, -0.0911987, 0.0384809, -0.0238347, -0.0721687, 0.00993511, -0.0221913, -0.06349
0.17435, 0.111001, -0.77236, -0.926877, -1.46192, -0.629689, 1.06858, -0.256654, 0.0622135, 0.0379281, -0.145775, -0.0735346, 0.000733773, -0.00258065, -0.000252702, 2.81654, 17.4454, 19.9347, 15.69, 1.58954, 4.22763, -0.0420422, -0.00224853, -0.00130803, 0.000441445, 0.000472175, -0.0203875, 0.0077857, 0.0259336, 0.00293938, 0.0108254, -0.000547603, 0.196293, 0.254831, -0.00890277, -0.446204, 0.630663, -3.12208, -0.061177, -0.122995, -0.0111601, -0.444975, 0.630065, -3.123, -0.0492538, -0.0910362, 0.0389151, -0.0240539, -0.0728831, 0.0121171, -0.0223097, -0.0640965
0.17535, 0.111051, -0.77232, -0.927021, -1.46199, -0.629687, 1.06858, -0.256658, 0.0581863, 0.0375806, -0.143491, -0.0746633, 0.0009054, -0.00173806, -0.00135526, 2.85224, 17.485, 19.9347, 15.7297, 1.57764, 4.22763, -0.00999879, -0.00227794, -0.00131164, 0.000429285, 0.000460442, -0.0206536, 0.00786228, 0.0270961, 0.00367875, 0.0120637, 0.00246165, 0.197008, 0.256912, -0.00886363, -0.446228, 0.630589, -3.12192, -0.0612707, -0.123253, -0.0111513, -0.444997, 0.630001, -3.12287, -0.0492344, -0.0908801, 0.0393512, -0.0242732, -0.0735988, 0.0112671, -0.0218607, -0.0636629
0.17635, 0.111051, -0.77232, -0.927021, -1.46199, -0.629687, 1.06858, -0.256658, 0.0581863, 0.0375806, -0.143491, -0.0746633, 0.0009054, -0.00173806, -0.00135526, 2.85224, 17.485, 19.9347, 15.7297, 1.57764, 4.22763, -0.00999879, -0.00231055, -0.00133877, 0.000352705, 0.000311197, -0.0208267, 0.00792192, 0.0274648, 0.00392966, 0.012813, 0.00372545, 0.198032, 0.259514, -0.00882406, -0.446252, 0.630515, -3.12175, -0.0613653, -0.123515, -0.0111513, -0.444997, 0.630001, -3.12287, -0.0492344, -0.0908801, 0.0397893, -0.0244926, -0.0743159, 0.0112671, -0.0218607, -0.0636629
0.17735, 0.111153, -0.772245, -0.9273, -1.46215, -0.62968, 1.06858, -0.25665, 0.0572711, 0.0376285, -0.142053, -0.0768296, 0.00121268, -0.000519939, 0.000527942, 2.66181, 17.5208, 19.9347, 15.8765, 1.55292, 4.2203, -0.0557752, -0.00233496, -0.00132231, 0.000402212, 0.000435068, -0.0211858, 0.008021, 0.0271382, 0.00444754, 0.0134358, 0.00573285, 0.19963, 0.261655, -0.00878406, -0.446277, 0.630441, -3.12159, -0.0614609, -0.123779, -0.011131, -0.445038, 0.629875, -3.12261, -0.0491898, -0.0905756, 0.0402292, -0.0247119, -0.0750342, 0.0119604, -0.0215651, -0.063731
0.17835, 0.1112, -0.772215, -0.927431, -1.46223, -0.629676, 1.06858, -0.256658, 0.0546449, 0.0371277, -0.138977, -0.0756925, 0.00215442, -8.27975e-05, -0.00161473, 2.55073, 17.5565, 19.8594, 15.9915, 1.5163, 4.21298, -0.00267457, -0.00236403, -0.00132954, 0.000385615, 0.00041467, -0.0214468, 0.00808458, 0.0278224, 0.00531784, 0.015505, 0.00971304, 0.198334, 0.266002, -0.00874361, -0.446302, 0.630365, -3.12142, -0.0615574, -0.124045, -0.0111211, -0.445057, 0.629813, -3.12249, -0.0491933, -0.0904359, 0.040671, -0.0249313, -0.0757538, 0.0115204, -0.0209837, -0.0624336
0.17935, 0.11124, -0.772181, -0.927562, -1.4623, -0.629675, 1.06858, -0.256649, 0.0486072, 0.0362059, -0.13887, -0.0767449, 0.00190321, -6.07773e-05, 0.000890204, 2.47535, 17.485, 19.8594, 16.0629, 1.50348, 4.21298, -0.0557752, -0.00239684, -0.00133707, 0.000367434, 0.00039029, -0.0217133, 0.00817451, 0.03095, 0.00578637, 0.016145, 0.0109729, 0.199223, 0.260585, -0.00870271, -0.446327, 0.630289, -3.12126, -0.0616548, -0.124315, -0.0111147, -0.445077, 0.629753, -3.12236, -0.0491565, -0.0902899, 0.0411146, -0.0251507, -0.0764746, 0.00877669, -0.0208723, -0.0627633
0.18035, 0.111289, -0.772154, -0.927691, -1.46238, -0.629673, 1.06858, -0.256647, 0.0475477, 0.0344707, -0.135822, -0.0769432, 0.00170378, 0.000735191, 0.00106819, 2.24921, 17.4454, 19.8594, 16.1026, 1.49158, 4.19192, -0.0685925, -0.00242731, -0.00134497, 0.000348689, 0.000365304, -0.0219764, 0.00824841, 0.0312365, 0.00646643, 0.0177342, 0.0148249, 0.198282, 0.264317, -0.00866138, -0.446352, 0.630212, -3.12109, -0.0617531, -0.124586, -0.0111055, -0.445096, 0.629692, -3.12224, -0.0491456, -0.0901522, 0.0415602, -0.0253701, -0.0771966, 0.00878079, -0.020458, -0.0619186
0.18135, 0.111322, -0.772131, -0.927811, -1.46246, -0.629672, 1.06857, -0.256654, 0.041997, 0.0329803, -0.128936, -0.0780044, 0.0016062, -5.55454e-05, -0.00172928, 2.20954, 17.4097, 19.784, 16.178, 1.47876, 4.20657, -0.00267457, -0.00246352, -0.00135547, 0.000327072, 0.000335424, -0.0222386, 0.00832249, 0.0321584, 0.00836683, 0.0201618, 0.0195395, 0.198633, 0.269951, -0.00861959, -0.446377, 0.630135, -3.12092, -0.0618523, -0.12486, -0.0111019, -0.445113, 0.629633, -3.12212, -0.0491352, -0.0900188, 0.0420076, -0.0255895, -0.0779197, 0.00803739, -0.0188657, -0.0602709
