alisrour97/Franka_experiments/Real_Robot_scripts/servo-franka/Data4/log_dyn_PIw_ki_1.csv
Time,q1,q2,q3,q4,q5,q6,q7,dq1,dq2,dq3,dq4,dq5,dq6,dq7,t1,t2,t3,t4,t5,t6,t7,ex1,ex2,ex3,ex4,ex5,ex6,ev1,ev2,ev3,ev4,ev5,ev6,xd,yd,zd,uxd,uyd,uzd,x,y,z,ux,uy,uz,vxd,vyd,vzd,vx,vy,vz
4.88281e-07, 0.107721, -0.774163, -0.916367, -1.45675, -0.625325, 1.07006, -0.256739, -0.00708087, 0.00110199, 0.00143735, 0.000717499, -0.000740274, -0.000159454, 0.000278996, -0.317619, 15.9021, 19.9347, 16.4359, 1.15375, 3.51077, -0.186696, 0.000936118, -0.00167801, 0.00023205, 0.000412831, -0.000453786, 2.6201e-05, 0.00263863, 0.000386872, 0.000868465, 0.00208463, 0.00116211, -0.00697396, -0.011112, -0.444721, 0.635038, -3.13187, -0.0555627, -0.107532, -0.0102189, -0.443008, 0.634879, -3.13148, -0.0559586, -0.106781, 0, 0, 0, -0.002704, 0.000286336, 0.000687516
0.0129832, 0.107705, -0.774194, -0.916385, -1.45675, -0.625332, 1.07005, -0.256737, -0.00161128, -0.00512365, -0.00237265, 0.00144927, -0.000216305, 0.000461705, -0.00129851, -0.317619, 16.0489, 20.0101, 16.4001, 1.16015, 3.5181, -0.153737, 0.000911217, -0.00167318, 0.000236329, 0.000420598, -0.00042525, 6.39082e-05, 0.00332894, -0.000728184, -0.000328757, -0.000482574, -0.00601985, -0.0029416, -0.011112, -0.444721, 0.635038, -3.13187, -0.0555627, -0.107532, -0.010247, -0.443015, 0.634875, -3.13147, -0.0559041, -0.106839, 1.73063e-06, -1.42215e-06, -3.96181e-06, -0.0032688, -0.000843399, -0.000565114
0.0139832, 0.107705, -0.774194, -0.916385, -1.45675, -0.625332, 1.07005, -0.256737, -0.00161128, -0.00512365, -0.00237265, 0.00144927, -0.000216305, 0.000461705, -0.00129851, -0.317619, 16.0489, 20.0101, 16.4001, 1.16015, 3.5181, -0.153737, 0.000911214, -0.00167319, 0.00023632, 0.000420578, -0.000425272, 6.39154e-05, 0.00333315, -0.000723677, -0.000316615, -0.000458404, -0.00600331, -0.00289808, -0.011112, -0.444721, 0.635038, -3.13187, -0.0555628, -0.107532, -0.010247, -0.443015, 0.634875, -3.13147, -0.0559041, -0.106839, 6.91577e-06, -5.6745e-06, -1.58141e-05, -0.0032688, -0.000843399, -0.000565114
0.0149832, 0.107705, -0.774194, -0.916385, -1.45675, -0.625332, 1.07005, -0.256737, -0.00161128, -0.00512365, -0.00237265, 0.00144927, -0.000216305, 0.000461705, -0.00129851, -0.317619, 16.0489, 20.0101, 16.4001, 1.16015, 3.5181, -0.153737, 0.000911205, -0.0016732, 0.000236294, 0.000420523, -0.00042533, 6.3935e-05, 0.00334015, -0.00071619, -0.000296439, -0.000418263, -0.00597584, -0.00282578, -0.011112, -0.444721, 0.635038, -3.13187, -0.0555628, -0.107532, -0.010247, -0.443015, 0.634875, -3.13147, -0.0559041, -0.106839, 1.55453e-05, -1.2736e-05, -3.55071e-05, -0.0032688, -0.000843399, -0.000565114
0.0159832, 0.107705, -0.774194, -0.916385, -1.45675, -0.625332, 1.07005, -0.256737, -0.00161128, -0.00512365, -0.00237265, 0.00144927, -0.000216305, 0.000461705, -0.00129851, -0.317619, 16.0489, 20.0101, 16.4001, 1.16015, 3.5181, -0.153737, 0.000911188, -0.00167322, 0.000236245, 0.000420418, -0.000425444, 6.39731e-05, 0.00334994, -0.000705747, -0.000268279, -0.000362272, -0.00593749, -0.00272488, -0.011112, -0.444721, 0.635038, -3.13187, -0.0555628, -0.107532, -0.010247, -0.443015, 0.634875, -3.13147, -0.0559041, -0.106839, 2.7609e-05, -2.25855e-05, -6.29913e-05, -0.0032688, -0.000843399, -0.000565114
0.0169832, 0.107705, -0.774194, -0.916385, -1.45675, -0.625332, 1.07005, -0.256737, -0.00161128, -0.00512365, -0.00237265, 0.00144927, -0.000216305, 0.000461705, -0.00129851, -0.317619, 16.0489, 20.0101, 16.4001, 1.16015, 3.5181, -0.153737, 0.000911159, -0.00167325, 0.000236163, 0.000420244, -0.000425631, 6.40358e-05, 0.00336252, -0.000692369, -0.000232184, -0.000290546, -0.00588835, -0.00259555, -0.0111119, -0.444721, 0.635038, -3.13187, -0.0555629, -0.107532, -0.010247, -0.443015, 0.634875, -3.13147, -0.0559041, -0.106839, 4.30968e-05, -3.5202e-05, -9.82172e-05, -0.0032688, -0.000843399, -0.000565114
0.0179832, 0.107705, -0.774194, -0.916385, -1.45675, -0.625332, 1.07005, -0.256737, -0.00161128, -0.00512365, -0.00237265, 0.00144927, -0.000216305, 0.000461705, -0.00129851, -0.317619, 16.0489, 20.0101, 16.4001, 1.16015, 3.5181, -0.153737, 0.000911117, -0.00167329, 0.000236042, 0.000419985, -0.000425909, 6.4129e-05, 0.00337788, -0.000676077, -0.000188206, -0.000203205, -0.00582848, -0.00243799, -0.0111119, -0.444721, 0.635038, -3.13187, -0.0555631, -0.107533, -0.010247, -0.443015, 0.634875, -3.13147, -0.0559041, -0.106839, 6.19987e-05, -5.05647e-05, -0.000141136, -0.0032688, -0.000843399, -0.000565114
0.0189832, 0.107705, -0.774194, -0.916385, -1.45675, -0.625332, 1.07005, -0.256737, -0.00161128, -0.00512365, -0.00237265, 0.00144927, -0.000216305, 0.000461705, -0.00129851, -0.317619, 16.0489, 20.0101, 16.4001, 1.16015, 3.5181, -0.153737, 0.000911058, -0.00167335, 0.000235873, 0.000419625, -0.000426297, 6.42589e-05, 0.00339601, -0.000656893, -0.000136392, -0.000100363, -0.00575795, -0.00225237, -0.0111118, -0.444721, 0.635037, -3.13187, -0.0555633, -0.107533, -0.010247, -0.443015, 0.634875, -3.13147, -0.0559041, -0.106839, 8.43044e-05, -6.86525e-05, -0.000191697, -0.0032688, -0.000843399, -0.000565114
0.0199832, 0.107705, -0.774194, -0.916385, -1.45675, -0.625332, 1.07005, -0.256737, -0.00161128, -0.00512365, -0.00237265, 0.00144927, -0.000216305, 0.000461705, -0.00129851, -0.317619, 16.0489, 20.0101, 16.4001, 1.16015, 3.5181, -0.153737, 0.000910979, -0.00167344, 0.000235649, 0.000419148, -0.000426812, 6.44314e-05, 0.0034169, -0.000634838, -7.6793e-05, 1.78606e-05, -0.00567684, -0.00203887, -0.0111117, -0.444721, 0.635037, -3.13187, -0.0555636, -0.107534, -0.010247, -0.443015, 0.634875, -3.13147, -0.0559041, -0.106839, 0.000110004, -8.94448e-05, -0.000249853, -0.0032688, -0.000843399, -0.000565114
0.0209832, 0.107705, -0.774194, -0.916385, -1.45675, -0.625332, 1.07005, -0.256737, -0.00161128, -0.00512365, -0.00237265, 0.00144927, -0.000216305, 0.000461705, -0.00129851, -0.317619, 16.0489, 20.0101, 16.4001, 1.16015, 3.5181, -0.153737, 0.000910879, -0.00167354, 0.000235361, 0.000418535, -0.000427471, 6.46525e-05, 0.00344056, -0.000609934, -9.45772e-06, 0.000151351, -0.00558522, -0.00179768, -0.0111116, -0.444721, 0.635037, -3.13187, -0.055564, -0.107535, -0.010247, -0.443015, 0.634875, -3.13147, -0.0559041, -0.106839, 0.000139087, -0.000112921, -0.000315553, -0.0032688, -0.000843399, -0.000565114
0.0219832, 0.107705, -0.774194, -0.916385, -1.45675, -0.625332, 1.07005, -0.256737, -0.00161128, -0.00512365, -0.00237265, 0.00144927, -0.000216305, 0.000461705, -0.00129851, -0.317619, 16.0489, 20.0101, 16.4001, 1.16015, 3.5181, -0.153737, 0.000910753, -0.00167368, 0.000235003, 0.000417773, -0.000428293, 6.49279e-05, 0.00346697, -0.000582202, 6.55645e-05, 0.000299991, -0.00548315, -0.00152897, -0.0111114, -0.444721, 0.635037, -3.13186, -0.0555644, -0.107536, -0.010247, -0.443015, 0.634875, -3.13147, -0.0559041, -0.106839, 0.000171544, -0.000139059, -0.00038875, -0.0032688, -0.000843399, -0.000565114
0.0229832, 0.107696, -0.774209, -0.916419, -1.45675, -0.625346, 1.07006, -0.256741, -0.00291465, -0.0014187, -0.00448886, 0.00026351, -0.000912968, 0.000312322, -0.000622881, -0.242241, 16.1203, 20.2323, 16.4001, 1.25171, 3.5181, -0.127186, 0.000888476, -0.00166473, 0.000243875, 0.000428525, -0.000424133, 0.000103951, 0.00352991, -0.000824608, -0.000652767, -0.00103081, -0.000211171, -0.00455063, -0.0111112, -0.444721, 0.635036, -3.13186, -0.055565, -0.107538, -0.0102681, -0.443024, 0.634864, -3.13146, -0.0558443, -0.106846, 0.000207364, -0.00016784, -0.000469394, -0.00323792, -0.00111046, -0.0013682
0.0239832, 0.107691, -0.774209, -0.916427, -1.45675, -0.625346, 1.07006, -0.256737, -0.00390456, -0.000121075, -0.00723967, -0.00065368, -0.000371268, 0.000208215, 0.000800174, -0.166862, 16.0846, 20.268, 16.4359, 1.2453, 3.5181, -0.160145, 0.000883906, -0.00166366, 0.000245572, 0.000432392, -0.000425703, 0.000118305, 0.00420234, -0.00113183, -0.00155639, -0.00331119, 0.00156526, -0.00800336, -0.011111, -0.444722, 0.635036, -3.13186, -0.0555656, -0.10754, -0.0102723, -0.443026, 0.634862, -3.13145, -0.0558228, -0.106845, 0.000246538, -0.000199242, -0.000557437, -0.00379636, -0.00146477, -0.00240582
0.0249832, 0.107696, -0.77421, -0.916437, -1.45674, -0.625348, 1.07006, -0.256736, -0.00182369, 0.000746631, -0.00935102, -0.000161941, -0.00478666, 0.000410077, 0.00100421, -0.206535, 16.0489, 20.3077, 16.2891, 1.23981, 3.51077, -0.172963, 0.000880117, -0.00166134, 0.000246411, 0.000435591, -0.000426081, 0.000128205, 0.00467875, -0.00211217, -0.00192254, -0.00216019, 0.00559664, -0.00976111, -0.0111107, -0.444722, 0.635035, -3.13186, -0.0555664, -0.107542, -0.0102757, -0.443028, 0.63486, -3.13145, -0.0558083, -0.106847, 0.000289055, -0.000233245, -0.00065283, -0.00416878, -0.00249207, -0.00290527
0.0259832, 0.107691, -0.774207, -0.91644, -1.45675, -0.62535, 1.07006, -0.25674, -0.00225531, 0.00392553, -0.00877267, -0.00259834, -0.00267078, 0.00132455, -0.00174099, -0.166862, 15.9021, 20.1212, 16.2494, 1.21509, 3.48239, -0.10796, 0.000879948, -0.00166133, 0.000248734, 0.000437701, -0.000436735, 0.000126808, 0.00273558, -0.00165248, -0.00218499, -0.00282678, 0.0084035, -0.00436727, -0.0111104, -0.444722, 0.635034, -3.13186, -0.0555673, -0.107544, -0.0102754, -0.443029, 0.634857, -3.13145, -0.0558115, -0.106832, 0.000334905, -0.000269828, -0.000755525, -0.002184, -0.00199866, -0.00313346
0.0269832, 0.107696, -0.774212, -0.916447, -1.45675, -0.625352, 1.07005, -0.25674, 0.000176073, 0.00126285, -0.00951515, -0.00405249, -0.00479063, 0.000611763, -0.00262095, -0.242241, 15.8267, 19.9705, 16.0629, 1.16015, 3.48971, -0.0685925, 0.000877211, -0.00166064, 0.0002512, 0.000445253, -0.000437849, 0.000128165, 0.00294027, -0.0018994, -0.00296122, -0.00393298, 0.00886315, -0.00148999, -0.0111101, -0.444722, 0.635033, -3.13186, -0.0555684, -0.107547, -0.0102775, -0.44303, 0.634853, -3.13144, -0.0558107, -0.106833, 0.000384079, -0.000308971, -0.000865474, -0.00227695, -0.00228507, -0.00403339
0.0279832, 0.107698, -0.774217, -0.916458, -1.45676, -0.62536, 1.07005, -0.256737, 5.46629e-05, -0.000740192, -0.00811645, -0.00577834, -0.00357438, -0.000372052, -0.00222369, -0.242241, 15.7513, 19.8594, 16.0272, 1.15375, 3.51077, -0.0557752, 0.000872931, -0.00165836, 0.000256305, 0.000452332, -0.000447888, 0.000137949, 0.00270427, -0.0011999, -0.00312602, -0.00527926, 0.00766295, 0.000959318, -0.0111097, -0.444723, 0.635033, -3.13186, -0.0555696, -0.10755, -0.010281, -0.443032, 0.634847, -3.13143, -0.055797, -0.10682, 0.000436566, -0.000350653, -0.000982628, -0.00200284, -0.00161799, -0.00429442
0.0289832, 0.107706, -0.77422, -0.916479, -1.45676, -0.625365, 1.07006, -0.256731, 0.00490979, -0.00243622, -0.00971138, -0.0045224, -0.00726028, 2.32329e-05, -0.000296915, -0.317619, 15.6799, 19.8594, 15.8765, 1.14734, 3.50345, -0.0878186, 0.000867527, -0.00165347, 0.000261386, 0.000460648, -0.000451909, 0.000154726, 0.00257671, -0.00219751, -0.00324404, -0.00384014, 0.00802419, 0.000707231, -0.0111092, -0.444723, 0.635032, -3.13185, -0.0555709, -0.107554, -0.0102854, -0.443038, 0.634841, -3.13142, -0.0557726, -0.106817, 0.000492356, -0.000394854, -0.00110694, -0.00177619, -0.00265363, -0.00453387
0.0299832, 0.107709, -0.774232, -0.916492, -1.45677, -0.625377, 1.07006, -0.256731, 0.00350101, -0.0038983, -0.00903495, -0.00807004, -0.0111787, 1.54886e-05, -0.000198882, -0.317619, 15.7513, 19.784, 15.9161, 1.17206, 3.50345, -0.0878186, 0.000861198, -0.00164991, 0.000267133, 0.000465134, -0.000457014, 0.000162573, 0.00350533, -0.00223839, -0.00401044, -0.00340029, 0.0119927, 0.000145311, -0.0111087, -0.444723, 0.63503, -3.13185, -0.0555724, -0.107558, -0.0102906, -0.443042, 0.634833, -3.13141, -0.0557621, -0.106813, 0.000551439, -0.000441554, -0.00123836, -0.00258903, -0.00276725, -0.00549395
0.0309832, 0.107708, -0.774238, -0.916498, -1.45678, -0.625386, 1.07006, -0.256735, 0.00250487, -0.00305166, -0.00680374, -0.00719274, -0.0142789, 0.00106149, -0.000370651, -0.317619, 15.7513, 19.6372, 15.9518, 1.20318, 3.47507, -0.0814099, 0.000856435, -0.00164838, 0.000270502, 0.000466735, -0.000466514, 0.000165486, 0.00369962, -0.00230843, -0.00281259, 0.0012169, 0.0141714, -0.000408685, -0.0111081, -0.444724, 0.635029, -3.13185, -0.0555741, -0.107563, -0.0102945, -0.443044, 0.634828, -3.13141, -0.0557593, -0.106802, 0.000613805, -0.000490732, -0.00137684, -0.00279985, -0.00290357, -0.00445124
0.0319832, 0.107713, -0.77424, -0.916514, -1.45679, -0.625397, 1.07007, -0.256735, 0.0035613, -0.00153882, -0.0108599, -0.00645631, -0.0160427, 0.00230135, -0.000959706, -0.392998, 15.7156, 19.5975, 15.9915, 1.2215, 3.43204, -0.0621838, 0.000852761, -0.00164368, 0.000275206, 0.000467209, -0.000477756, 0.000174899, 0.00449734, -0.00350631, -0.00346032, 0.00118677, 0.0163067, -0.00254621, -0.0111074, -0.444724, 0.635028, -3.13184, -0.055576, -0.107568, -0.010297, -0.443049, 0.634822, -3.1314, -0.0557467, -0.10679, 0.000679445, -0.000542368, -0.00152234, -0.00344244, -0.00417478, -0.00530516
0.0329832, 0.107715, -0.774246, -0.916526, -1.45679, -0.625408, 1.07007, -0.256733, 0.00247031, -0.00520804, -0.0140861, -0.00485405, -0.0175089, 0.00234804, 0.000817862, -0.392998, 15.7513, 19.5618, 15.9915, 1.2453, 3.41006, -0.101552, 0.000845764, -0.00164059, 0.000278407, 0.000468873, -0.000487305, 0.000189114, 0.00780388, -0.00440207, -0.00383187, 0.00080174, 0.0130441, -0.0088296, -0.0111067, -0.444725, 0.635026, -3.13184, -0.055578, -0.107574, -0.010303, -0.443053, 0.634817, -3.1314, -0.0557267, -0.10678, 0.000748347, -0.000596442, -0.0016748, -0.00661278, -0.00523715, -0.0060611
0.0339832, 0.107719, -0.774252, -0.916539, -1.45679, -0.625415, 1.07007, -0.256733, 0.00264697, -0.0087262, -0.0140209, -0.00364842, -0.0167908, 0.00180272, 0.000782303, -0.43267, 15.8267, 19.5618, 15.9915, 1.2215, 3.40365, -0.10796, 0.000839739, -0.00163788, 0.000281798, 0.000473375, -0.00049294, 0.000198645, 0.00900217, -0.00430535, -0.00346546, 0.000783495, 0.00870102, -0.00825249, -0.0111059, -0.444726, 0.635024, -3.13184, -0.0555803, -0.10758, -0.0103079, -0.443057, 0.634811, -3.13139, -0.0557143, -0.106777, 0.000820503, -0.000652933, -0.00183418, -0.00776385, -0.0052423, -0.00593675
0.0349832, 0.107719, -0.77425, -0.916547, -1.4568, -0.625423, 1.07007, -0.256731, 0.00181871, -0.00464428, -0.00899346, -0.004412, -0.0120913, 0.000964453, 4.65948e-05, -0.43267, 15.7513, 19.4864, 16.0629, 1.20868, 3.41006, -0.0951428, 0.000837872, -0.00163634, 0.000284272, 0.000473163, -0.000510984, 0.000206947, 0.00558121, -0.00241988, -0.00199506, 0.00149205, 0.010128, -0.00126454, -0.0111051, -0.444726, 0.635022, -3.13183, -0.0555828, -0.107587, -0.0103087, -0.443059, 0.634806, -3.13139, -0.055704, -0.106756, 0.000895902, -0.000711822, -0.00200043, -0.00444566, -0.00330928, -0.00438934
0.0359832, 0.107716, -0.774256, -0.916555, -1.45681, -0.625436, 1.07007, -0.256736, 0.000325001, -0.00530196, -0.00936934, -0.00586456, -0.0137938, 0.000100434, -0.00193579, -0.392998, 15.8267, 19.4507, 16.178, 1.20868, 3.42471, -0.0420422, 0.00083118, -0.00163483, 0.000288134, 0.000475455, -0.000527504, 0.000212946, 0.00674914, -0.0023503, -0.00242233, 0.000847873, 0.0123921, -0.000493062, -0.0111041, -0.444727, 0.63502, -3.13183, -0.0555855, -0.107594, -0.0103141, -0.443062, 0.6348, -3.13138, -0.0556975, -0.106737, 0.000974534, -0.000773089, -0.00217351, -0.00550468, -0.00333842, -0.00506856
0.0369832, 0.107711, -0.774253, -0.916565, -1.45681, -0.625443, 1.07007, -0.256734, -0.00151616, -0.00303133, -0.0073017, -0.00315566, -0.00808788, 6.69558e-05, -0.000782027, -0.317619, 15.791, 19.4507, 16.1383, 1.14734, 3.42471, -0.0557752, 0.000823805, -0.00163297, 0.000287875, 0.000472158, -0.000539488, 0.000233667, 0.00572209, -0.00129379, -0.000687108, 0.00179692, 0.00873027, 9.35208e-05, -0.0111031, -0.444728, 0.635018, -3.13182, -0.0555884, -0.107602, -0.0103204, -0.443064, 0.634798, -3.13138, -0.0556682, -0.106726, 0.00105639, -0.000836713, -0.00235336, -0.00455537, -0.00232508, -0.00344021
0.0379832, 0.107716, -0.774256, -0.916575, -1.45682, -0.625453, 1.07007, -0.256731, -5.99465e-05, -0.00310503, -0.00565941, -0.00223425, -0.0104989, -0.000497898, 0.000665349, -0.357292, 15.8267, 19.4507, 16.1383, 1.13544, 3.43936, -0.0878186, 0.000819617, -0.00163114, 0.000289264, 0.000472089, -0.00055275, 0.000245128, 0.00536719, -0.00117559, 0.000156358, 0.00422365, 0.0103625, 0.000404144, -0.011102, -0.444729, 0.635016, -3.13182, -0.0555915, -0.107611, -0.0103233, -0.443067, 0.634793, -3.13137, -0.0556536, -0.106714, 0.00114146, -0.000902674, -0.00253994, -0.00417844, -0.00226773, -0.00276025
0.0389832, 0.107712, -0.774254, -0.916584, -1.45682, -0.625463, 1.07007, -0.256731, -0.000950879, -0.0014215, -0.00750495, -0.00158736, -0.0068906, -0.000331932, 0.000443496, -0.317619, 15.791, 19.4507, 16.1383, 1.10431, 3.43936, -0.0878186, 0.000813161, -0.0016295, 0.000289986, 0.000469421, -0.000571136, 0.000261921, 0.0053238, -0.0010577, 0.000130191, 0.00250945, 0.00915058, 0.000437791, -0.0111008, -0.44473, 0.635013, -3.13181, -0.0555949, -0.10762, -0.0103284, -0.44307, 0.63479, -3.13137, -0.0556309, -0.106695, 0.00122973, -0.000970953, -0.00273321, -0.00404932, -0.00221646, -0.00297594
0.0399832, 0.107711, -0.774252, -0.916589, -1.45682, -0.625474, 1.07007, -0.256731, -0.00145631, -0.00108769, -0.00705739, -0.00205966, -0.00916764, -0.000221288, 0.000295611, -0.281914, 15.791, 19.3754, 16.178, 1.07959, 3.43936, -0.0878186, 0.000809578, -0.00162874, 0.000289367, 0.000463004, -0.000591016, 0.000271748, 0.00571259, -0.00112646, 0.000356169, 0.00409891, 0.0117151, 0.000305455, -0.0110996, -0.444731, 0.63501, -3.1318, -0.0555986, -0.10763, -0.0103308, -0.443072, 0.634787, -3.13137, -0.0556191, -0.106674, 0.00132119, -0.00104153, -0.00293311, -0.0043585, -0.00237139, -0.00297761
0.0409832, 0.107714, -0.774251, -0.916598, -1.45683, -0.625487, 1.07007, -0.256735, -0.000126032, -0.000830141, -0.00858528, -0.00142815, -0.0115174, -0.000656151, -0.00126103, -0.317619, 15.791, 19.3754, 16.178, 1.0741, 3.45309, -0.0484509, 0.000805388, -0.00162638, 0.000290306, 0.000457899, -0.00061172, 0.000278222, 0.00625349, -0.00160284, 0.000257025, 0.00446963, 0.0139259, 0.00133174, -0.0110982, -0.444732, 0.635007, -3.1318, -0.0556025, -0.107641, -0.0103334, -0.443076, 0.634783, -3.13137, -0.0556129, -0.106653, 0.00141584, -0.00111438, -0.0031396, -0.00477933, -0.00293852, -0.00332322
0.0419832, 0.107712, -0.774248, -0.916608, -1.45684, -0.625504, 1.07007, -0.256737, -7.6805e-05, 0.00029583, -0.00657309, -0.00266382, -0.0143137, -0.000708702, -0.00155279, -0.317619, 15.7513, 19.3754, 16.2494, 1.0979, 3.46042, -0.0292249, 0.000799328, -0.00162499, 0.000292457, 0.00045661, -0.000642756, 0.000291585, 0.00561919, -0.00134294, 0.000707238, 0.00677876, 0.0182038, 0.00327769, -0.0110967, -0.444733, 0.635004, -3.13179, -0.0556067, -0.107652, -0.0103378, -0.443078, 0.634777, -3.13137, -0.0555964, -0.106615, 0.00151366, -0.0011895, -0.00335263, -0.00408923, -0.00273549, -0.00304192
0.0429832, 0.107711, -0.774246, -0.916625, -1.45684, -0.62552, 1.07007, -0.256733, -0.000881009, 0.000138148, -0.0107819, -0.00180684, -0.0112437, -0.000743735, 0.000422845, -0.281914, 15.7513, 19.4864, 16.2494, 1.11072, 3.46774, -0.0685925, 0.000790472, -0.0016211, 0.000294666, 0.000453677, -0.000667187, 0.000318746, 0.0070385, -0.00175391, 1.13402e-05, 0.00363146, 0.0156733, -0.000865926, -0.0110952, -0.444734, 0.635, -3.13178, -0.0556111, -0.107664, -0.0103448, -0.443084, 0.634771, -3.13137, -0.0555587, -0.106589, 0.00161465, -0.00126685, -0.00357216, -0.00534094, -0.00326749, -0.00405594
0.0439832, 0.107709, -0.774248, -0.916627, -1.45684, -0.625541, 1.07007, -0.256727, -0.0015113, -0.000880225, -0.0083981, -0.00437592, -0.0131415, -0.00103836, 0.00126522, -0.242241, 15.791, 19.3754, 16.2494, 1.11072, 3.48239, -0.0951428, 0.000783424, -0.00162013, 0.000292464, 0.000440174, -0.000692047, 0.000339715, 0.00681496, -0.00121719, 9.40831e-05, 0.00474695, 0.0181191, 0.000717487, -0.0110935, -0.444735, 0.634997, -3.13177, -0.0556159, -0.107677, -0.0103503, -0.443086, 0.634769, -3.13137, -0.0555305, -0.106564, 0.00171879, -0.00134642, -0.00379814, -0.00503877, -0.00280356, -0.00418071
0.0449832, 0.107708, -0.774243, -0.916639, -1.45684, -0.625557, 1.07007, -0.256729, -0.00183971, 0.000307976, -0.00724571, -0.00469457, -0.0145362, -0.000692239, -0.000377233, -0.206535, 15.7513, 19.4111, 16.178, 1.11072, 3.48239, -0.0621838, 0.000776443, -0.00161746, 0.000291795, 0.000431841, -0.000719497, 0.000357341, 0.00648636, -0.00107463, 0.000647812, 0.00680409, 0.0206621, 0.00325523, -0.0110917, -0.444737, 0.634993, -3.13176, -0.0556209, -0.107691, -0.0103554, -0.443091, 0.634765, -3.13137, -0.055508, -0.106536, 0.00182607, -0.00142819, -0.00403052, -0.0046469, -0.00273613, -0.00383726
0.0459832, 0.107706, -0.774244, -0.916648, -1.45685, -0.62558, 1.07007, -0.256732, -0.00215221, 0.000180396, -0.00771093, -0.00527397, -0.0159883, -0.000970119, -0.00123484, -0.166862, 15.7513, 19.3754, 16.2494, 1.12262, 3.49612, -0.0356336, 0.000767861, -0.00161546, 0.000293005, 0.000424947, -0.00075203, 0.000373421, 0.00709701, -0.00114935, 0.000564371, 0.00707242, 0.022504, 0.00392404, -0.0110899, -0.444738, 0.634989, -3.13175, -0.0556263, -0.107706, -0.0103619, -0.443094, 0.634759, -3.13137, -0.0554882, -0.1065, 0.00193648, -0.00151214, -0.00426926, -0.00513691, -0.00291555, -0.00420181
0.0469832, 0.107707, -0.77424, -0.916663, -1.45685, -0.6256, 1.07007, -0.25673, -0.00143309, 0.000101573, -0.0129563, -0.00127289, -0.0163345, -0.000918013, -0.000348517, -0.166862, 15.7513, 19.4111, 16.1383, 1.11713, 3.50345, -0.0484509, 0.000758385, -0.00161209, 0.000292026, 0.00041577, -0.000780417, 0.000399935, 0.00947692, -0.00239157, 0.000523307, 0.00654876, 0.020641, -0.00155997, -0.0110879, -0.44474, 0.634984, -3.13174, -0.0556319, -0.107721, -0.0103693, -0.4431, 0.634755, -3.13137, -0.0554525, -0.106471, 0.00205002, -0.00159825, -0.00451432, -0.00734896, -0.00432654, -0.0046595
0.0479832, 0.107707, -0.77424, -0.916663, -1.45685, -0.6256, 1.07007, -0.25673, -0.00143309, 0.000101573, -0.0129563, -0.00127289, -0.0163345, -0.000918013, -0.000348517, -0.166862, 15.7513, 19.4111, 16.1383, 1.11713, 3.50345, -0.0484509, 0.000756663, -0.00161383, 0.000287292, 0.000405795, -0.000791263, 0.000403571, 0.00957282, -0.00229759, 0.000781379, 0.00705164, 0.0209907, -0.000637841, -0.0110858, -0.444741, 0.63498, -3.13173, -0.0556379, -0.107738, -0.0103693, -0.4431, 0.634755, -3.13137, -0.0554525, -0.106471, 0.00216668, -0.00168649, -0.00476563, -0.00734896, -0.00432654, -0.0046595
0.0489832, 0.107707, -0.77424, -0.916663, -1.45685, -0.6256, 1.07007, -0.25673, -0.00143309, 0.000101573, -0.0129563, -0.00127289, -0.0163345, -0.000918013, -0.000348517, -0.166862, 15.7513, 19.4111, 16.1383, 1.11713, 3.50345, -0.0484509, 0.000754844, -0.00161567, 0.000282298, 0.000395277, -0.000802704, 0.000407405, 0.00967131, -0.00220133, 0.00104586, 0.00756665, 0.0213491, 0.000307092, -0.0110835, -0.444743, 0.634975, -3.13172, -0.0556442, -0.107755, -0.0103693, -0.4431, 0.634755, -3.13137, -0.0554525, -0.106471, 0.00228643, -0.00177687, -0.00502317, -0.00734896, -0.00432654, -0.0046595
0.0499832, 0.107707, -0.77424, -0.916663, -1.45685, -0.6256, 1.07007, -0.25673, -0.00143309, 0.000101573, -0.0129563, -0.00127289, -0.0163345, -0.000918013, -0.000348517, -0.166862, 15.7513, 19.4111, 16.1383, 1.11713, 3.50345, -0.0484509, 0.000752926, -0.0016176, 0.000277037, 0.000384203, -0.000814754, 0.000411444, 0.00977237, -0.00210282, 0.0013167, 0.00809367, 0.021716, 0.00127466, -0.0110812, -0.444745, 0.634969, -3.13171, -0.0556509, -0.107773, -0.0103693, -0.4431, 0.634755, -3.13137, -0.0554525, -0.106471, 0.00240928, -0.00186934, -0.00528689, -0.00734896, -0.00432654, -0.0046595
0.0509832, 0.107707, -0.774241, -0.916703, -1.45685, -0.625695, 1.07007, -0.256732, 0.000185799, 0.00219891, -0.00789717, -0.00118988, -0.0201496, 0.00283497, -0.000626456, -0.0914839, 15.791, 19.3754, 16.0272, 1.0979, 3.50345, -0.0356336, 0.000719374, -0.00160105, 0.0002832, 0.00035701, -0.000900908, 0.000489839, 0.00726339, -0.0021415, 0.00341755, 0.0169217, 0.0249066, 0.00613438, -0.0110787, -0.444747, 0.634964, -3.1317, -0.0556578, -0.107792, -0.0103993, -0.443119, 0.634741, -3.13139, -0.0553371, -0.106356, 0.00253522, -0.00196389, -0.00555673, -0.00486429, -0.00438983, -0.00266112
0.0519832, 0.107707, -0.774244, -0.916721, -1.45685, -0.625724, 1.07006, -0.256726, 0.000321586, -1.45227e-05, -0.0109541, -0.0010255, -0.0203698, 0.00183742, 0.00151514, -0.0914839, 15.8624, 19.4507, 16.0272, 1.11072, 3.51077, -0.0878186, 0.00070533, -0.00159653, 0.000282613, 0.000344007, -0.000935238, 0.000526531, 0.0091492, -0.00253659, 0.00270772, 0.0146547, 0.0237866, 0.0026265, -0.0110761, -0.444749, 0.634958, -3.13168, -0.0556652, -0.107812, -0.0104106, -0.443126, 0.634735, -3.1314, -0.0552872, -0.106323, 0.00266423, -0.00206051, -0.00583265, -0.00655263, -0.00494157, -0.0037777
0.0529832, 0.10771, -0.774241, -0.916728, -1.45685, -0.625748, 1.07007, -0.256727, 0.000362681, 0.000968015, -0.010391, -0.000857852, -0.0194697, 0.000846438, 0.000535375, -0.0914839, 15.8267, 19.4111, 16.0272, 1.0979, 3.52542, -0.0750012, 0.000698177, -0.00159429, 0.000278532, 0.000324168, -0.000970216, 0.000544639, 0.00872355, -0.0020291, 0.0031567, 0.0144891, 0.0248415, 0.00545433, -0.0110734, -0.444751, 0.634952, -3.13167, -0.0556729, -0.107834, -0.0104152, -0.443131, 0.634733, -3.1314, -0.0552662, -0.106291, 0.0027963, -0.00215917, -0.00611461, -0.00604515, -0.0045221, -0.00357937
0.0539832, 0.107711, -0.774243, -0.916748, -1.45685, -0.625777, 1.07007, -0.256733, 0.000353005, -8.3015e-05, -0.0136555, -0.000702539, -0.019751, 0.000687314, -0.00157586, -0.0914839, 15.8624, 19.5261, 16.0272, 1.11072, 3.52542, -0.0228162, 0.000683482, -0.00158917, 0.000277869, 0.000310186, -0.001005, 0.000572115, 0.010313, -0.00258924, 0.00251851, 0.0129491, 0.0245351, 0.00591409, -0.0110705, -0.444753, 0.634946, -3.13166, -0.0556809, -0.107856, -0.0104269, -0.443139, 0.634726, -3.13141, -0.0552312, -0.106259, 0.00293143, -0.00225986, -0.00640257, -0.00743086, -0.00523304, -0.00461724
0.0549832, 0.107711, -0.774238, -0.916753, -1.45685, -0.625806, 1.07007, -0.256732, -0.000516468, 0.000860019, -0.0105669, -0.00140156, -0.0197712, 0.000821743, -0.000813218, -0.0557783, 15.8267, 19.4111, 16.0629, 1.11713, 3.5181, -0.0292249, 0.000675926, -0.00158748, 0.000272934, 0.000286193, -0.00104833, 0.000594146, 0.00937513, -0.00182136, 0.00355934, 0.0153955, 0.0261402, 0.00806156, -0.0110675, -0.444756, 0.63494, -3.13164, -0.0556894, -0.107879, -0.0104317, -0.443143, 0.634724, -3.13142, -0.0552047, -0.106216, 0.00306961, -0.00236255, -0.00669647, -0.0064566, -0.00454457, -0.00380348
0.0559832, 0.107714, -0.774237, -0.916768, -1.45685, -0.625839, 1.07007, -0.256728, 0.000553466, 0.000633454, -0.0121054, -0.000172637, -0.0291273, 0.000888296, 0.000915916, -0.0914839, 15.8267, 19.4507, 16.0272, 1.12262, 3.51077, -0.0685925, 0.000663289, -0.00158295, 0.000269567, 0.00026513, -0.00108829, 0.000629215, 0.0116643, -0.00319805, 0.00377114, 0.0197928, 0.0326636, 0.00220932, -0.0110644, -0.444758, 0.634933, -3.13162, -0.0556982, -0.107903, -0.0104412, -0.44315, 0.63472, -3.13143, -0.0551585, -0.106178, 0.00321082, -0.00246723, -0.00699628, -0.008563, -0.00610771, -0.00405878
0.0569832, 0.107714, -0.774233, -0.916778, -1.45685, -0.625875, 1.07007, -0.256726, -0.000419321, 0.0013026, -0.0112703, 0.000665014, -0.0265349, 0.000101563, 0.00132269, -0.0557783, 15.791, 19.4111, 15.9915, 1.12262, 3.52542, -0.0878186, 0.000651039, -0.0015798, 0.000264295, 0.000239863, -0.00113691, 0.000663326, 0.0114903, -0.00249477, 0.0045632, 0.0196981, 0.0315981, 0.0034011, -0.0110611, -0.444761, 0.634926, -3.13161, -0.0557074, -0.107928, -0.0104504, -0.443156, 0.634717, -3.13144, -0.055114, -0.106129, 0.00335505, -0.00257388, -0.00730195, -0.00832486, -0.00551253, -0.00355803
0.0579832, 0.107714, -0.774227, -0.916796, -1.45684, -0.625909, 1.07007, -0.256725, -0.00117238, 0.00183023, -0.0133834, 0.00133003, -0.0246295, 0.000106633, 0.00115306, -0.0161054, 15.7513, 19.4864, 15.9518, 1.12262, 3.52542, -0.0951428, 0.000636913, -0.00157511, 0.000260752, 0.000218372, -0.00118511, 0.00070152, 0.0122277, -0.00258055, 0.0045275, 0.0185736, 0.0307698, 0.00292507, -0.0110577, -0.444763, 0.634918, -3.13159, -0.055717, -0.107955, -0.0104611, -0.443164, 0.634712, -3.13145, -0.0550638, -0.106081, 0.0035023, -0.00268248, -0.00761342, -0.00890734, -0.00573269, -0.00395678
0.0589832, 0.10772, -0.774226, -0.916806, -1.45684, -0.625943, 1.07007, -0.25673, 0.000172828, 0.000317493, -0.0113328, 0.000855684, -0.0275866, -0.000170985, -0.00191006, -0.0557783, 15.791, 19.4111, 15.9518, 1.11713, 3.53274, -0.0228162, 0.000627, -0.00157235, 0.00025578, 0.000194325, -0.00122968, 0.000720135, 0.0120689, -0.00239218, 0.00517193, 0.0211311, 0.0323061, 0.00888244, -0.0110541, -0.444766, 0.63491, -3.13157, -0.055727, -0.107982, -0.0104677, -0.44317, 0.634709, -3.13145, -0.0550442, -0.10604, 0.00365255, -0.002793, -0.00793067, -0.0086498, -0.00565523, -0.00361924
0.0599832, 0.107725, -0.774223, -0.916821, -1.45685, -0.625977, 1.07007, -0.256729, 0.000135013, 0.000230681, -0.0117954, -0.000380815, -0.0337384, -0.000600721, -0.00127337, -0.0557783, 15.791, 19.4111, 15.9915, 1.0979, 3.54648, -0.0228162, 0.000615824, -0.00156876, 0.00025299, 0.000174784, -0.00128135, 0.000749393, 0.0133814, -0.0029103, 0.004957, 0.0231309, 0.0383726, 0.0067245, -0.0110504, -0.444769, 0.634902, -3.13155, -0.0557374, -0.108011, -0.0104752, -0.443177, 0.634703, -3.13146, -0.0550087, -0.105989, 0.0038058, -0.00290544, -0.00825364, -0.00977191, -0.00633001, -0.00425083
0.0609832, 0.107729, -0.774213, -0.916833, -1.45684, -0.626015, 1.07007, -0.256726, 0.00326064, 0.00515919, -0.0143308, 0.00149192, -0.0345975, -0.000926594, 0.00108386, -0.0557783, 15.7156, 19.3754, 15.9161, 1.09241, 3.56112, -0.0750012, 0.000605756, -0.001565, 0.00024555, 0.000142741, -0.00133617, 0.000784217, 0.0120388, -0.0034074, 0.00520406, 0.0234338, 0.043477, 0.00537875, -0.0110465, -0.444772, 0.634894, -3.13154, -0.0557483, -0.10804, -0.0104817, -0.443184, 0.634701, -3.13148, -0.0549645, -0.105934, 0.00396204, -0.00301977, -0.00858229, -0.00827635, -0.00689612, -0.00424387
0.0619832, 0.107727, -0.774214, -0.91685, -1.45684, -0.62605, 1.07007, -0.256725, 0.000684636, 0.00422388, -0.0139956, 0.00190956, -0.0356262, -0.000605413, 0.00146856, 0.0196001, 15.8267, 19.3754, 15.8765, 1.0979, 3.56112, -0.0951428, 0.00058806, -0.00156049, 0.000240603, 0.000117014, -0.00138023, 0.000825923, 0.0137387, -0.0033725, 0.00584278, 0.0253884, 0.0433219, 0.0031992, -0.0110424, -0.444775, 0.634885, -3.13152, -0.0557596, -0.108071, -0.0104955, -0.443192, 0.634696, -3.13148, -0.0549103, -0.105898, 0.00412125, -0.00313597, -0.00891658, -0.00985715, -0.00704332, -0.00405845
0.0629832, 0.10773, -0.774208, -0.916864, -1.45684, -0.626086, 1.07007, -0.256727, 0.00381045, 0.00328429, -0.0136658, -0.000500009, -0.0357279, -0.000394372, 0.000233056, 0.0196001, 15.8267, 19.3754, 15.9518, 1.086, 3.56112, -0.0750012, 0.000577485, -0.00155734, 0.000236823, 9.33598e-05, -0.00143888, 0.000852608, 0.0121696, -0.00318579, 0.00544035, 0.0248752, 0.0444027, 0.0102415, -0.0110382, -0.444778, 0.634876, -3.13149, -0.0557713, -0.108103, -0.010502, -0.443199, 0.63469, -3.13149, -0.05488, -0.105839, 0.00428343, -0.00325403, -0.00925645, -0.00810963, -0.00691601, -0.00469055
0.0639832, 0.10774, -0.774207, -0.91688, -1.45684, -0.626121, 1.07007, -0.256729, 0.00379208, 0.000777562, -0.0166142, 0.000494522, -0.0350854, -0.000255987, -0.00154005, -0.0161054, 15.9021, 19.3754, 15.9161, 1.05578, 3.56112, -0.0292249, 0.000566373, -0.0015535, 0.000231065, 6.6979e-05, -0.0014873, 0.00087769, 0.0140913, -0.00369618, 0.00518, 0.0238616, 0.0413133, 0.0108201, -0.0110339, -0.444781, 0.634867, -3.13147, -0.0557834, -0.108137, -0.010509, -0.443207, 0.634685, -3.1315, -0.0548524, -0.105798, 0.00444857, -0.00337392, -0.00960188, -0.00982422, -0.00761166, -0.00543215
0.0649832, 0.107745, -0.774196, -0.916895, -1.45684, -0.626158, 1.07007, -0.256726, 0.00515122, 0.00474623, -0.0178603, 0.00125218, -0.0354197, -0.000165462, 0.000668721, 0.0196001, 15.8624, 19.3397, 15.8765, 1.04297, 3.56112, -0.0750012, 0.000555233, -0.00154992, 0.000224304, 3.76508e-05, -0.0015482, 0.000914867, 0.0130372, -0.00385681, 0.00553153, 0.0245973, 0.0455393, 0.0097498, -0.0110293, -0.444785, 0.634857, -3.13145, -0.055796, -0.108171, -0.0105159, -0.443214, 0.634682, -3.13151, -0.0548065, -0.105739, 0.00461665, -0.00349563, -0.0099528, -0.0086238, -0.00786006, -0.00536099
0.0659832, 0.107753, -0.774199, -0.916917, -1.45684, -0.626195, 1.07007, -0.256722, 0.0102177, 0.000181101, -0.0182688, 0.000830651, -0.0358018, -0.000106411, 0.0011918, 0.0196001, 16.0092, 19.4111, 15.8765, 1.03656, 3.56112, -0.0951428, 0.000539909, -0.00154492, 0.000220473, 1.4183e-05, -0.00159823, 0.000953368, 0.012443, -0.0040661, 0.00533553, 0.0243463, 0.0420681, 0.0153181, -0.0110246, -0.444788, 0.634847, -3.13143, -0.055809, -0.108207, -0.0105266, -0.443223, 0.634674, -3.13151, -0.0547591, -0.105697, 0.00478767, -0.00361914, -0.0103092, -0.00783943, -0.00817018, -0.0058736
0.0669832, 0.107758, -0.774188, -0.916933, -1.45684, -0.62623, 1.07007, -0.256724, 0.00990388, 0.00361796, -0.0220715, -0.000377356, -0.0316562, -0.000610553, -0.000426171, 0.059273, 16.0092, 19.3754, 15.9161, 1.03656, 3.57577, -0.0621838, 0.000529913, -0.00154176, 0.000214681, -1.38847e-05, -0.001662, 0.000981909, 0.0118939, -0.00394346, 0.00434913, 0.0199282, 0.0440707, 0.0176581, -0.0110198, -0.444792, 0.634836, -3.1314, -0.0558225, -0.108244, -0.010532, -0.443231, 0.634669, -3.13152, -0.0547276, -0.105636, 0.00496161, -0.00374443, -0.010671, -0.00705448, -0.00814481, -0.00718103
0.0679832, 0.107766, -0.774185, -0.916948, -1.45684, -0.626268, 1.07007, -0.25673, 0.0130142, 0.00516617, -0.0209899, 0.000674121, -0.028802, -0.000133576, -0.00221689, 0.0949785, 16.0489, 19.3, 15.8765, 1.04297, 3.56845, -0.00999879, 0.000517139, -0.00153834, 0.000207476, -4.36801e-05, -0.00171874, 0.00100817, 0.00945655, -0.00347196, 0.00535895, 0.0209884, 0.0430082, 0.0255487, -0.0110147, -0.444796, 0.634825, -3.13138, -0.0558365, -0.108282, -0.01054, -0.443238, 0.634664, -3.13153, -0.0546999, -0.105587, 0.00513848, -0.00387148, -0.0110382, -0.00453423, -0.0077239, -0.00636946
0.0689832, 0.107776, -0.774175, -0.916968, -1.45684, -0.626302, 1.07007, -0.256725, 0.0130576, 0.00409546, -0.0190062, -0.000480351, -0.0308056, 0.000183861, 0.000217492, 0.0949785, 16.0489, 19.3, 15.9161, 1.03656, 3.56112, -0.0557752, 0.000507992, -0.00153492, 0.000202387, -6.84926e-05, -0.00178397, 0.00104216, 0.00939295, -0.00318975, 0.00594205, 0.0234456, 0.0444776, 0.0256677, -0.0110095, -0.4448, 0.634814, -3.13135, -0.055851, -0.108322, -0.0105442, -0.443246, 0.634658, -3.13153, -0.054661, -0.105526, 0.00531825, -0.00400028, -0.0114107, -0.00434145, -0.00757395, -0.00615434
0.0699832, 0.107777, -0.774165, -0.91699, -1.45684, -0.62634, 1.07007, -0.256719, 0.00636079, 0.00321882, -0.0175095, -0.000321544, -0.0281269, -0.000418728, 0.00109443, 0.245735, 16.0489, 19.3, 15.9161, 1.04297, 3.57577, -0.0814099, 0.000492601, -0.00153129, 0.00019646, -9.51179e-05, -0.00185156, 0.00109058, 0.0118583, -0.00219665, 0.00692274, 0.0239379, 0.0421855, 0.0218389, -0.0110041, -0.444804, 0.634803, -3.13133, -0.0558659, -0.108363, -0.0105544, -0.443254, 0.634651, -3.13154, -0.0546001, -0.105463, 0.00550092, -0.0041308, -0.0117885, -0.00672001, -0.00680836, -0.00571827
0.0709832, 0.10779, -0.774157, -0.917014, -1.45684, -0.626375, 1.07007, -0.256721, 0.00908993, 0.00251226, -0.0204201, 0.000712676, -0.0304682, -0.000515586, 0.000492261, 0.21003, 16.0489, 19.3397, 15.8765, 1.04297, 3.58218, -0.0750012, 0.000480835, -0.00152618, 0.000190326, -0.000123289, -0.00191155, 0.00112136, 0.0126424, -0.00301943, 0.00668767, 0.0241031, 0.0433139, 0.0226993, -0.0109985, -0.444808, 0.634791, -3.1313, -0.0558813, -0.108405, -0.0105608, -0.443264, 0.634644, -3.13154, -0.054567, -0.105413, 0.00568647, -0.00426302, -0.0121715, -0.0072706, -0.00778869, -0.00639602
0.0719832, 0.1078, -0.774153, -0.917035, -1.45684, -0.626409, 1.07007, -0.256729, 0.00927051, 0.00342364, -0.0246781, 0.0013096, -0.0322657, 0.000708131, -0.00184196, 0.245735, 16.1203, 19.3397, 15.8408, 1.04297, 3.5538, -0.0164075, 0.000467897, -0.00152251, 0.0001827, -0.000153495, -0.001969, 0.00114734, 0.0141583, -0.00414871, 0.00619491, 0.0243522, 0.0453155, 0.0222265, -0.0109927, -0.444812, 0.634778, -3.13127, -0.0558972, -0.108449, -0.0105683, -0.443273, 0.634639, -3.13155, -0.0545417, -0.105368, 0.00587491, -0.00439694, -0.0125597, -0.00851904, -0.00910054, -0.0073889
0.0729832, 0.107807, -0.774144, -0.917058, -1.45684, -0.626444, 1.07007, -0.256726, 0.00922533, 0.00591229, -0.0248068, 0.000872513, -0.0294132, -0.000341195, -0.000278541, 0.285408, 16.1203, 19.3397, 15.8408, 1.05578, 3.57577, -0.0420422, 0.000454688, -0.00151865, 0.000176281, -0.000181056, -0.00203585, 0.00118732, 0.013083, -0.00342829, 0.00643042, 0.0228176, 0.0470017, 0.0235501, -0.0109867, -0.444817, 0.634765, -3.13124, -0.0559137, -0.108494, -0.0105758, -0.443281, 0.634631, -3.13155, -0.0544953, -0.10531, 0.00606621, -0.00453252, -0.0129531, -0.00729793, -0.00848061, -0.00746849
0.0739832, 0.107816, -0.77414, -0.917078, -1.45683, -0.626476, 1.07007, -0.256719, 0.00933292, 0.00279286, -0.0262735, 0.00150928, -0.0309664, 0.000315462, 0.00127237, 0.325081, 16.1957, 19.2643, 15.8011, 1.04297, 3.56112, -0.0814099, 0.000442035, -0.0015153, 0.000167463, -0.000213964, -0.00209309, 0.00122777, 0.0149844, -0.00397231, 0.00655731, 0.0240317, 0.0449431, 0.0213849, -0.0109806, -0.444821, 0.634752, -3.13121, -0.0559306, -0.108541, -0.0105828, -0.44329, 0.634626, -3.13156, -0.0544485, -0.105269, 0.00626038, -0.00466976, -0.0133516, -0.00898871, -0.00923029, -0.00787649
0.0749832, 0.107826, -0.774133, -0.917101, -1.45684, -0.62651, 1.07007, -0.256716, 0.00951645, 0.00471934, -0.0261197, 7.78568e-05, -0.0328407, -6.0667e-05, 0.00135687, 0.360787, 16.2314, 19.2643, 15.8408, 1.04938, 3.56845, -0.0951428, 0.000429704, -0.0015121, 0.000161141, -0.000240756, -0.00216101, 0.0012637, 0.0145415, -0.00381256, 0.00661374, 0.0247587, 0.0499615, 0.0229129, -0.0109742, -0.444826, 0.634739, -3.13118, -0.055948, -0.108588, -0.010589, -0.443298, 0.634618, -3.13156, -0.0544095, -0.105211, 0.00645739, -0.00480863, -0.0137552, -0.00835988, -0.0091947, -0.00819255
0.0759832, 0.107836, -0.77412, -0.917129, -1.45683, -0.626543, 1.07007, -0.25672, 0.00954128, 0.00543167, -0.0236201, 0.00181491, -0.0291292, -4.02252e-05, 0.000395955, 0.400459, 16.16, 19.3, 15.7654, 1.04297, 3.56845, -0.0814099, 0.000416158, -0.00150793, 0.000152836, -0.000270586, -0.00222873, 0.00129966, 0.0133064, -0.00285042, 0.00830099, 0.0265739, 0.0471715, 0.0281864, -0.0109676, -0.444831, 0.634725, -3.13115, -0.055966, -0.108638, -0.0105964, -0.443308, 0.634611, -3.13156, -0.0543709, -0.105156, 0.00665724, -0.00494912, -0.0141638, -0.00708003, -0.00834599, -0.0068263
0.0769832, 0.107847, -0.774116, -0.917149, -1.45683, -0.626573, 1.07007, -0.256723, 0.00737287, 0.00549453, -0.0230633, 0.00120976, -0.0309574, -0.000806546, -0.00143145, 0.400459, 16.2314, 19.2643, 15.7654, 1.03656, 3.58951, -0.0356336, 0.000403761, -0.00150612, 0.000144385, -0.000298466, -0.00229083, 0.00132746, 0.0145477, -0.00256286, 0.00870285, 0.0277066, 0.0499345, 0.0292236, -0.0109609, -0.444836, 0.63471, -3.13111, -0.0559845, -0.108688, -0.0106026, -0.443315, 0.634605, -3.13156, -0.0543455, -0.105111, 0.00685993, -0.0050912, -0.0145774, -0.0081533, -0.00824884, -0.00692381
0.0779832, 0.107856, -0.774112, -0.917179, -1.45683, -0.626605, 1.07007, -0.25672, 0.00699268, 0.00250261, -0.0244568, 0.0016416, -0.03222, -0.000266306, 2.90435e-05, 0.475838, 16.3068, 19.3, 15.7297, 1.03107, 3.58218, -0.0621838, 0.000387425, -0.00150128, 0.000136604, -0.000329539, -0.00235137, 0.00137281, 0.0165246, -0.00300255, 0.00881826, 0.0287041, 0.0479963, 0.027036, -0.0109539, -0.444841, 0.634696, -3.13108, -0.0560035, -0.108741, -0.0106123, -0.443326, 0.634597, -3.13156, -0.0542932, -0.105071, 0.00706543, -0.00523486, -0.0149959, -0.00991104, -0.00890348, -0.00736822
0.0789832, 0.107867, -0.774098, -0.917202, -1.45682, -0.626634, 1.07007, -0.256721, 0.00548785, 0.00705173, -0.0237528, 0.00378556, -0.0286457, -0.000991247, 0.00049408, 0.475838, 16.2314, 19.2643, 15.6146, 1.02466, 3.60415, -0.0750012, 0.000375474, -0.0014994, 0.000125445, -0.000360504, -0.00242204, 0.00140823, 0.0155735, -0.00216259, 0.010258, 0.0294149, 0.0493396, 0.027762, -0.0109468, -0.444846, 0.63468, -3.13105, -0.0560231, -0.108794, -0.0106177, -0.443334, 0.634592, -3.13156, -0.054257, -0.105015, 0.00727374, -0.00538009, -0.0154193, -0.00888461, -0.00818959, -0.00628416
0.0799832, 0.107879, -0.774091, -0.917225, -1.45682, -0.626662, 1.07007, -0.256722, 0.00657162, 0.00761962, -0.0262841, 0.00159561, -0.0258186, -0.000389495, 0.000329387, 0.511544, 16.2671, 19.2246, 15.6543, 1.01276, 3.59683, -0.0750012, 0.000364861, -0.00149701, 0.000116632, -0.000392173, -0.00248803, 0.00143712, 0.0148399, -0.00216162, 0.00935086, 0.0266309, 0.0496056, 0.0311313, -0.0109394, -0.444852, 0.634665, -3.13101, -0.0560432, -0.10885, -0.0106215, -0.443342, 0.634584, -3.13156, -0.0542314, -0.104969, 0.00748486, -0.00552686, -0.0158476, -0.00787963, -0.00830137, -0.00756703
0.0809832, 0.107892, -0.774084, -0.917256, -1.45682, -0.626689, 1.07007, -0.256725, 0.00826349, 0.00802833, -0.0270863, 0.00106369, -0.0281043, -0.000259611, -0.00171319, 0.511544, 16.3068, 19.2643, 15.6543, 0.993529, 3.59683, -0.0228162, 0.00035125, -0.00149425, 0.000109223, -0.000415922, -0.0025553, 0.00146959, 0.0147283, -0.00244442, 0.00938278, 0.0276993, 0.0526769, 0.0350148, -0.0109318, -0.444858, 0.634649, -3.13097, -0.0560639, -0.108906, -0.0106279, -0.443351, 0.634575, -3.13155, -0.0542011, -0.104922, 0.00769877, -0.00567515, -0.0162807, -0.00754679, -0.00872913, -0.00796315
0.0819832, 0.107907, -0.774074, -0.917279, -1.45682, -0.626718, 1.07007, -0.256721, 0.00945837, 0.00929016, -0.0288143, 0.00247232, -0.0305566, -0.000173035, -0.00019269, 0.511544, 16.3068, 19.2246, 15.5789, 0.993529, 3.59683, -0.0484509, 0.000340352, -0.0014916, 9.72919e-05, -0.000453181, -0.0026218, 0.00150574, 0.0153173, -0.00300377, 0.00979178, 0.0293988, 0.0555277, 0.0330739, -0.010924, -0.444863, 0.634632, -3.13094, -0.0560851, -0.108965, -0.0106317, -0.44336, 0.634569, -3.13156, -0.0541651, -0.104878, 0.00791545, -0.00582496, -0.0167186, -0.00792571, -0.00946321, -0.00803865
0.0829832, 0.107923, -0.774062, -0.917309, -1.45682, -0.626745, 1.07007, -0.256719, 0.0103163, 0.0141582, -0.0279241, 0.00164818, -0.0282148, -0.000929129, 0.000380166, 0.511544, 16.2671, 19.2246, 15.5789, 1.00635, 3.6188, -0.0621838, 0.000329299, -0.00148916, 8.86559e-05, -0.000480035, -0.00269651, 0.00154109, 0.012804, -0.00212824, 0.010336, 0.0289884, 0.0601062, 0.0371933, -0.010916, -0.444869, 0.634615, -3.1309, -0.0561069, -0.109025, -0.0106352, -0.443368, 0.63456, -3.13155, -0.0541314, -0.104822, 0.00813491, -0.00597625, -0.0171612, -0.00527028, -0.00865611, -0.00775777
0.0839832, 0.107939, -0.774055, -0.917341, -1.45682, -0.626771, 1.07007, -0.256718, 0.010947, 0.0119991, -0.0282599, 0.00193398, -0.0301305, 0.000194404, 0.000728162, 0.511544, 16.3425, 19.2643, 15.5432, 0.993529, 3.59683, -0.0750012, 0.000315805, -0.00148551, 7.91822e-05, -0.000510989, -0.00276204, 0.00157866, 0.0137906, -0.00253321, 0.0107892, 0.0314244, 0.0592937, 0.0377983, -0.0109077, -0.444875, 0.634598, -3.13086, -0.0561293, -0.109086, -0.010641, -0.443379, 0.634551, -3.13155, -0.0540946, -0.104783, 0.00835714, -0.00612902, -0.0176085, -0.0060488, -0.0092535, -0.00782531
0.0849832, 0.107957, -0.774048, -0.917369, -1.45682, -0.626795, 1.07007, -0.256724, 0.0122032, 0.0114512, -0.0295617, 0.0012893, -0.028063, -0.000141648, -0.00144734, 0.475838, 16.3782, 19.2246, 15.5432, 1.01276, 3.60415, -0.0228162, 0.000305448, -0.00148373, 6.92957e-05, -0.000539852, -0.00283158, 0.0016016, 0.0135053, -0.00232724, 0.0105987, 0.0297718, 0.0584673, 0.0432155, -0.0108992, -0.444881, 0.63458, -3.13082, -0.0561522, -0.109149, -0.0106435, -0.443387, 0.634543, -3.13154, -0.0540812, -0.104738, 0.00858211, -0.00628324, -0.0180604, -0.00553396, -0.00919054, -0.00844658
0.0859832, 0.107968, -0.774038, -0.917409, -1.45681, -0.626822, 1.07008, -0.256721, 0.0128022, 0.0118616, -0.0340877, 0.00178754, -0.0304623, 0.000448115, -0.00925693, 0.586922, 16.3782, 19.3397, 15.5035, 1.01276, 3.58951, -0.0484509, 0.000287444, -0.00147929, 6.07998e-05, -0.000567671, -0.00290343, 0.00165291, 0.0152745, -0.00345277, 0.00998535, 0.0295643, 0.0609214, 0.0484431, -0.0108905, -0.444888, 0.634562, -3.13078, -0.0561758, -0.109214, -0.0106532, -0.443399, 0.634532, -3.13153, -0.0540244, -0.104692, 0.00880983, -0.00643891, -0.018517, -0.00698705, -0.0105285, -0.00964727
0.0869832, 0.107984, -0.774026, -0.917438, -1.45681, -0.626846, 1.07007, -0.256719, 0.0120164, 0.00983742, -0.0307031, 0.00119169, -0.0286168, 2.74853e-05, -0.00643278, 0.626595, 16.3425, 19.3, 15.5035, 1.04297, 3.59683, -0.0621838, 0.000276541, -0.00147777, 4.99755e-05, -0.000598701, -0.00298014, 0.00168729, 0.0148979, -0.0023285, 0.0111518, 0.0310504, 0.0585841, 0.0502963, -0.0108816, -0.444894, 0.634543, -3.13073, -0.0561999, -0.10928, -0.0106559, -0.443407, 0.634523, -3.13152, -0.0539944, -0.10464, 0.00904028, -0.00659599, -0.0189781, -0.00650324, -0.00956064, -0.00891127
0.0879832, 0.108002, -0.774019, -0.917471, -1.45681, -0.626868, 1.07007, -0.256716, 0.0115192, 0.00878884, -0.0305847, 0.00255769, -0.0256559, -0.000252937, -0.00391668, 0.6623, 16.4178, 19.2246, 15.4282, 1.03107, 3.60415, -0.0878186, 0.000262763, -0.00147605, 3.87652e-05, -0.000626375, -0.00304829, 0.001725, 0.0153249, -0.0018398, 0.0120322, 0.0312065, 0.0551843, 0.0498011, -0.0108725, -0.444901, 0.634524, -3.13069, -0.0562246, -0.109348, -0.0106612, -0.443416, 0.634514, -3.13151, -0.0539599, -0.104602, 0.00927346, -0.00675447, -0.0194438, -0.00677505, -0.0092552, -0.00852584
0.0889832, 0.108025, -0.774007, -0.91751, -1.45681, -0.626889, 1.07007, -0.256721, 0.015926, 0.00673927, -0.0333588, 0.0007771, -0.0239009, 0.000102648, -0.00450238, 0.626595, 16.4178, 19.2643, 15.4678, 1.03107, 3.59683, -0.0484509, 0.000253019, -0.00147281, 3.04893e-05, -0.000652256, -0.00312448, 0.00175184, 0.0143405, -0.00212061, 0.0110038, 0.028413, 0.0536033, 0.0561543, -0.0108631, -0.444908, 0.634504, -3.13064, -0.0562499, -0.109417, -0.010662, -0.443427, 0.634502, -3.1315, -0.0539429, -0.104554, 0.00950935, -0.00691434, -0.0199139, -0.00547647, -0.00965136, -0.00995578
0.0899832, 0.108046, -0.773996, -0.917543, -1.45681, -0.626911, 1.07007, -0.256723, 0.0173843, 0.0082391, -0.0326254, 0.000518062, -0.0232266, -0.000745366, -0.00403856, 0.6623, 16.4178, 19.1889, 15.4678, 1.04938, 3.6188, -0.0292249, 0.000242784, -0.00147154, 1.94608e-05, -0.000681336, -0.00320101, 0.00177948, 0.0131066, -0.00156323, 0.0115582, 0.028646, 0.055821, 0.0598948, -0.0108534, -0.444915, 0.634484, -3.1306, -0.0562758, -0.109488, -0.0106633, -0.443435, 0.634492, -3.13149, -0.0539253, -0.104507, 0.00974794, -0.00707558, -0.0203885, -0.00406706, -0.00921782, -0.00978768
0.0909832, 0.108071, -0.773986, -0.91759, -1.45681, -0.626932, 1.07007, -0.256718, 0.0201386, 0.00934813, -0.0358306, 0.00127339, -0.0218534, -0.00022564, -0.00222397, 0.626595, 16.4178, 19.2643, 15.4282, 1.04297, 3.61148, -0.0484509, 0.000228764, -0.00146668, 1.13343e-05, -0.000705245, -0.00327565, 0.00182395, 0.0126188, -0.00204048, 0.0113729, 0.0276644, 0.0559652, 0.0604115, -0.0108436, -0.444922, 0.634463, -3.13055, -0.0563023, -0.109561, -0.0106678, -0.443448, 0.634479, -3.13147, -0.0538823, -0.104464, 0.00998923, -0.00723817, -0.0208674, -0.00330969, -0.00983887, -0.0104216
0.0919832, 0.10809, -0.773977, -0.917632, -1.45681, -0.626949, 1.07007, -0.256715, 0.0164916, 0.00938261, -0.0393529, 0.000848925, -0.0208032, -0.000421692, 0.0090484, 0.701973, 16.4536, 19.2643, 15.4282, 1.03656, 3.6188, -0.0878186, 0.000215077, -0.00146438, 1.90299e-06, -0.000728784, -0.00334913, 0.00186316, 0.0152842, -0.00226409, 0.0108369, 0.0257262, 0.056383, 0.0453107, -0.0108335, -0.444929, 0.634442, -3.1305, -0.0563295, -0.109636, -0.010672, -0.443458, 0.634466, -3.13145, -0.053848, -0.104425, 0.0102332, -0.00740209, -0.0213508, -0.00567782, -0.0103166, -0.0116288
0.0929832, 0.108116, -0.773966, -0.917666, -1.45681, -0.626967, 1.07007, -0.25672, 0.0156646, 0.00797094, -0.0393296, 0.000565949, -0.0202765, -0.000281126, 0.00520845, 0.701973, 16.4178, 19.1532, 15.4282, 1.03656, 3.6188, -0.0484509, 0.000206431, -0.0014633, -1.02292e-05, -0.000759764, -0.00342597, 0.00188448, 0.0160998, -0.00203773, 0.0112453, 0.026366, 0.0553627, 0.050531, -0.0108231, -0.444937, 0.634421, -3.13045, -0.0563573, -0.109712, -0.0106711, -0.443467, 0.634456, -3.13144, -0.053842, -0.104383, 0.0104799, -0.00756732, -0.0218384, -0.00628133, -0.0102896, -0.0117655
0.0939832, 0.108136, -0.773957, -0.917712, -1.45681, -0.626986, 1.07007, -0.256722, 0.0163729, 0.00830097, -0.0391294, 0.000377298, -0.0197547, -0.00932122, 0.00347327, 0.777352, 16.4536, 19.1532, 15.4282, 1.03107, 3.61148, -0.0356336, 0.00019145, -0.00146017, -1.89619e-05, -0.000783649, -0.00350346, 0.00192264, 0.0166474, -0.000115345, 0.0109485, 0.0192765, 0.060653, 0.0552584, -0.0108125, -0.444944, 0.634399, -3.1304, -0.0563857, -0.10979, -0.0106759, -0.443479, 0.634442, -3.13142, -0.0538106, -0.104341, 0.0107292, -0.00773386, -0.0223304, -0.0066274, -0.00855239, -0.0125785
0.0949832, 0.108164, -0.773952, -0.917761, -1.45681, -0.627, 1.07007, -0.256722, 0.0156115, 0.00462239, -0.0429449, 0.00108675, -0.0189954, -0.0077778, 0.00267228, 0.777352, 16.525, 19.1889, 15.3925, 1.01825, 3.63254, -0.0356336, 0.000176373, -0.00145684, -2.83057e-05, -0.000804213, -0.00357341, 0.00195953, 0.0193762, -0.000969475, 0.0106153, 0.0189473, 0.0560301, 0.0542221, -0.0108016, -0.444952, 0.634376, -3.13035, -0.0564147, -0.10987, -0.0106807, -0.44349, 0.634428, -3.13139, -0.053782, -0.104312, 0.0109812, -0.00790168, -0.0228265, -0.00904195, -0.00966859, -0.0136061
0.0959832, 0.108185, -0.773938, -0.917811, -1.45681, -0.627016, 1.07007, -0.256718, 0.0164151, 0.00532116, -0.0447308, -0.00011072, -0.0147725, -0.00550175, 0.00350715, 0.85273, 16.4536, 19.1889, 15.4282, 1.03107, 3.62521, -0.0750012, 0.000162689, -0.00145378, -3.64995e-05, -0.000825912, -0.0036592, 0.00200473, 0.0182791, -0.000995594, 0.0104565, 0.0181891, 0.0539448, 0.0573038, -0.0107905, -0.44496, 0.634353, -3.1303, -0.0564444, -0.109952, -0.0106837, -0.443502, 0.634412, -3.13136, -0.0537412, -0.10426, 0.0112358, -0.00807076, -0.0233269, -0.007682, -0.00982388, -0.0141891
0.0969832, 0.108212, -0.773923, -0.917852, -1.45681, -0.627033, 1.07007, -0.256715, 0.0180027, 0.00884682, -0.0426555, -0.00100183, -0.0155717, -0.00465123, 0.00230142, 0.888436, 16.3782, 19.0421, 15.4678, 1.02466, 3.63986, -0.0685925, 0.000154211, -0.00145286, -4.77315e-05, -0.000852988, -0.00374718, 0.00203549, 0.0159333, -0.000565028, 0.0114513, 0.0212458, 0.0588386, 0.0635893, -0.0107792, -0.444968, 0.634329, -3.13025, -0.0564747, -0.110035, -0.0106816, -0.443511, 0.634399, -3.13134, -0.0537232, -0.104208, 0.011493, -0.00824109, -0.0238314, -0.00517207, -0.00949114, -0.0135342
0.0979832, 0.108241, -0.773921, -0.917905, -1.45681, -0.627046, 1.07007, -0.256717, 0.0231523, 0.00703669, -0.0455623, -0.000667889, -0.0116949, -0.00370273, 0.000701446, 0.888436, 16.4893, 19.0778, 15.4678, 1.02466, 3.64718, -0.0420422, 0.000138388, -0.00144946, -5.62599e-05, -0.000871936, -0.00381782, 0.00206995, 0.0145708, -0.000869577, 0.011106, 0.0191521, 0.0542809, 0.0716695, -0.0107676, -0.444977, 0.634305, -3.13019, -0.0565057, -0.11012, -0.0106862, -0.443524, 0.634382, -3.13131, -0.0537004, -0.104183, 0.0117529, -0.00841265, -0.0243401, -0.00351916, -0.00991572, -0.0142946
0.0989832, 0.108273, -0.773909, -0.917964, -1.45681, -0.62706, 1.07007, -0.256719, 0.0277839, 0.00622395, -0.0483495, 0.00131798, -0.0137108, -0.00244521, -0.000131564, 0.85273, 16.4536, 19.1532, 15.3925, 1.03107, 3.63986, -0.0228162, 0.000123907, -0.00144471, -6.53761e-05, -0.00089351, -0.00389869, 0.00210923, 0.0145629, -0.0019434, 0.0113883, 0.0210515, 0.0539479, 0.074896, -0.0107557, -0.444985, 0.634281, -3.13014, -0.0565373, -0.110207, -0.0106893, -0.443538, 0.634366, -3.13128, -0.0536707, -0.104144, 0.0120154, -0.00858543, -0.0248528, -0.00322999, -0.0111651, -0.0145344
0.0999832, 0.108296, -0.773902, -0.918007, -1.45681, -0.627073, 1.07007, -0.256719, 0.0276845, 0.00691747, -0.0443625, 4.34338e-05, -0.014697, -0.00208739, -3.04751e-06, 0.963814, 16.4893, 18.9667, 15.4282, 1.02466, 3.64718, -0.0228162, 0.000110373, -0.00144406, -7.74025e-05, -0.000920968, -0.00397926, 0.00214353, 0.0132228, -0.00106471, 0.0127252, 0.0247176, 0.0565743, 0.0797779, -0.0107435, -0.444994, 0.634256, -3.13008, -0.0565696, -0.110296, -0.0106915, -0.443548, 0.634352, -3.13126, -0.0536491, -0.104109, 0.0122806, -0.0087594, -0.0253696, -0.00175538, -0.0104277, -0.0136173
0.100983, 0.108333, -0.773884, -0.918059, -1.45681, -0.627085, 1.07007, -0.256712, 0.0259051, 0.0108932, -0.0483632, 0.000864174, -0.0112715, -0.00153109, 0.0022316, 0.888436, 16.3782, 18.9271, 15.3925, 1.03107, 3.64718, -0.0814099, 0.000102925, -0.00144094, -8.86875e-05, -0.000948007, -0.00406645, 0.00217887, 0.0137532, -0.001273, 0.0126259, 0.022978, 0.0580241, 0.0758406, -0.0107311, -0.445003, 0.63423, -3.13002, -0.0566025, -0.110386, -0.0106872, -0.44356, 0.634337, -3.13124, -0.0536267, -0.104064, 0.0125483, -0.00893455, -0.0258904, -0.00200249, -0.0108299, -0.0142771
0.101983, 0.108357, -0.773873, -0.918111, -1.45682, -0.627097, 1.07007, -0.256717, 0.0271082, 0.0111536, -0.0513497, 0.000576116, -0.00796671, -0.00139661, 0.00106064, 0.963814, 16.3782, 18.8913, 15.3925, 1.01825, 3.65451, -0.0685925, 8.80416e-05, -0.00143953, -9.92585e-05, -0.000969674, -0.00415426, 0.00221427, 0.0136092, -0.00131478, 0.0122129, 0.0204861, 0.0567774, 0.0795904, -0.0107184, -0.445012, 0.634204, -3.12996, -0.0566361, -0.110479, -0.0106901, -0.443571, 0.63432, -3.1312, -0.0536051, -0.10402, 0.0128186, -0.00911087, -0.0264151, -0.00155868, -0.0110395, -0.0152049
0.102983, 0.108357, -0.773873, -0.918111, -1.45682, -0.627097, 1.07007, -0.256717, 0.0271082, 0.0111536, -0.0513497, 0.000576116, -0.00796671, -0.00139661, 0.00106064, 0.963814, 16.3782, 18.8913, 15.3925, 1.01825, 3.65451, -0.0685925, 7.73799e-05, -0.00144942, -0.000126599, -0.00102577, -0.00421663, 0.00223523, 0.0138367, -0.00112232, 0.0127584, 0.0215023, 0.0575127, 0.0815271, -0.0107055, -0.445021, 0.634177, -3.1299, -0.0566704, -0.110573, -0.0106901, -0.443571, 0.63432, -3.1312, -0.0536051, -0.10402, 0.0130915, -0.00928833, -0.0269437, -0.00155868, -0.0110395, -0.0152049
0.103983, 0.108357, -0.773873, -0.918111, -1.45682, -0.627097, 1.07007, -0.256717, 0.0271082, 0.0111536, -0.0513497, 0.000576116, -0.00796671, -0.00139661, 0.00106064, 0.963814, 16.3782, 18.8913, 15.3925, 1.01825, 3.65451, -0.0685925, 6.64934e-05, -0.00145949, -0.000154485, -0.00108296, -0.00428024, 0.0022566, 0.0140665, -0.000928516, 0.0133081, 0.022525, 0.0582534, 0.0834779, -0.0106922, -0.44503, 0.63415, -3.12984, -0.0567054, -0.110669, -0.0106901, -0.443571, 0.63432, -3.1312, -0.0536051, -0.10402, 0.0133669, -0.00946692, -0.0274763, -0.00155868, -0.0110395, -0.0152049
0.104983, 0.10846, -0.773838, -0.918277, -1.45682, -0.627123, 1.07007, -0.256714, 0.0310013, 0.0102686, -0.0508659, -0.00649259, -0.00586534, -0.000547122, 0.00107263, 1.00349, 16.3782, 18.7446, 15.3171, 1.01276, 3.66092, -0.0621838, 5.34205e-05, -0.00143342, -0.000132561, -0.00103697, -0.00441087, 0.00231498, 0.0107251, -0.000241476, 0.0117587, 0.019394, 0.0607165, 0.0943183, -0.0106787, -0.44504, 0.634122, -3.12978, -0.056741, -0.110767, -0.0106872, -0.443607, 0.63427, -3.1311, -0.0535527, -0.103911, 0.0136449, -0.00964662, -0.0280126, 0.00213354, -0.0103975, -0.0170455
0.105983, 0.108493, -0.773827, -0.918337, -1.45682, -0.627127, 1.07006, -0.256713, 0.028831, 0.0108079, -0.0508392, -0.00634768, -0.00394679, -0.000669117, 0.00120487, 1.03919, 16.3782, 18.7446, 15.2417, 0.999938, 3.66824, -0.0750012, 3.9001e-05, -0.0014317, -0.000143371, -0.00105439, -0.00449626, 0.00235416, 0.0114125, 0.000263101, 0.012443, 0.0197639, 0.0605045, 0.0948623, -0.0106649, -0.44505, 0.634094, -3.12971, -0.0567774, -0.110867, -0.0106885, -0.443619, 0.634251, -3.13106, -0.0535281, -0.103878, 0.0139255, -0.00982742, -0.0285528, 0.0016615, -0.010107, -0.0169486
0.106983, 0.108525, -0.773813, -0.918395, -1.45683, -0.627135, 1.07007, -0.256716, 0.0320391, 0.0120075, -0.0562188, -0.00988791, -0.00861792, -0.000199637, -0.000168796, 1.11457, 16.3425, 18.7049, 15.3171, 1.02466, 3.66092, -0.0484509, 2.80244e-05, -0.00142976, -0.000153496, -0.00107731, -0.0045917, 0.00238506, 0.0117357, -0.0010374, 0.0103873, 0.0176905, 0.0683401, 0.0969038, -0.0106509, -0.44506, 0.634065, -3.12965, -0.0568144, -0.110969, -0.0106861, -0.443631, 0.634232, -3.13103, -0.0535169, -0.103831, 0.0142086, -0.0100093, -0.0290967, 0.00181443, -0.011579, -0.0195773
0.107983, 0.108565, -0.773803, -0.918456, -1.45683, -0.627145, 1.07007, -0.25672, 0.0375857, 0.00807456, -0.058021, -0.00480117, -0.00686433, -0.000151711, -0.00152821, 1.07887, 16.3782, 18.7049, 15.206, 1.03656, 3.66092, -0.00999879, 1.48831e-05, -0.00142655, -0.000166916, -0.00110492, -0.0046774, 0.00241651, 0.0120045, -0.00154402, 0.0116786, 0.0190112, 0.0606434, 0.102669, -0.0106365, -0.44507, 0.634036, -3.12958, -0.0568522, -0.111073, -0.0106857, -0.443645, 0.634215, -3.13099, -0.0535054, -0.103803, 0.0144943, -0.0101922, -0.0296444, 0.00175876, -0.0122928, -0.0188612
0.108983, 0.108601, -0.773785, -0.918516, -1.45683, -0.627152, 1.07007, -0.256716, 0.0366436, 0.0100049, -0.0585029, -0.00708926, -0.00532226, -0.000115106, 0.000411705, 1.11457, 16.3425, 18.6692, 15.206, 1.04297, 3.66092, -0.0484509, 4.26136e-06, -0.00142492, -0.00017837, -0.00112758, -0.00477608, 0.00245507, 0.0114506, -0.00105814, 0.0115147, 0.0180374, 0.0636564, 0.103348, -0.0106219, -0.44508, 0.634006, -3.12951, -0.0568906, -0.111178, -0.0106825, -0.443658, 0.634196, -3.13096, -0.0534837, -0.103755, 0.0147825, -0.0103762, -0.0301957, 0.00259225, -0.0119705, -0.0195335
0.109983, 0.108635, -0.773767, -0.918583, -1.45683, -0.627159, 1.07007, -0.256712, 0.032989, 0.011369, -0.0615721, -0.00590984, -0.00460785, -8.72109e-05, 0.0017373, 1.15424, 16.3068, 18.7446, 15.0949, 1.06128, 3.66092, -0.0878186, -1.10458e-05, -0.00142186, -0.00019085, -0.00115156, -0.00487301, 0.00250528, 0.0139858, -0.00131624, 0.0117443, 0.0178392, 0.0645794, 0.0978022, -0.010607, -0.44509, 0.633975, -3.12945, -0.0569298, -0.111286, -0.0106836, -0.443672, 0.634177, -3.13092, -0.0534447, -0.103712, 0.0150731, -0.0105613, -0.0307507, 0.000348303, -0.0125082, -0.0200431
0.110983, 0.108672, -0.773756, -0.918648, -1.45683, -0.627166, 1.07007, -0.256715, 0.0303477, 0.0107361, -0.0617059, -0.0038123, -0.00315458, 0.000171363, -2.50193e-05, 1.18995, 16.3425, 18.7446, 15.0552, 1.05578, 3.65451, -0.0557752, -2.54093e-05, -0.00141922, -0.000202427, -0.00117468, -0.00496761, 0.00254043, 0.0157553, -0.00109157, 0.0130045, 0.0197044, 0.0621184, 0.0984945, -0.0105917, -0.445101, 0.633944, -3.12938, -0.0569696, -0.111396, -0.0106835, -0.443686, 0.634156, -3.13088, -0.0534298, -0.103675, 0.0153663, -0.0107473, -0.0313093, -0.0012207, -0.0125485, -0.0194701
0.111983, 0.108703, -0.773743, -0.918704, -1.45684, -0.627173, 1.07007, -0.256718, 0.0337504, 0.0135418, -0.0561533, -0.00620576, -0.0025211, -0.000129008, -0.000997342, 1.26533, 16.3782, 18.6295, 15.0552, 1.06128, 3.66092, -0.0292249, -3.90962e-05, -0.0014191, -0.000217022, -0.00120316, -0.00506496, 0.00257489, 0.0112665, 0.000430318, 0.0143983, 0.0224573, 0.0667074, 0.110672, -0.0105762, -0.445112, 0.633913, -3.1293, -0.0570102, -0.111507, -0.0106827, -0.443698, 0.634138, -3.13084, -0.0534164, -0.103636, 0.015662, -0.0109343, -0.0318714, 0.00339391, -0.0110697, -0.0183104
0.112983, 0.108741, -0.773725, -0.918768, -1.45683, -0.627178, 1.07007, -0.256715, 0.0325047, 0.0141942, -0.0580767, -0.00224429, -0.00184168, -0.000361692, 0.000320461, 1.22962, 16.3425, 18.6295, 14.9442, 1.06128, 3.66824, -0.0557752, -5.23674e-05, -0.00141729, -0.000232556, -0.00123177, -0.00516309, 0.00261857, 0.0132003, 0.000189219, 0.0156898, 0.0241453, 0.0652485, 0.107006, -0.0105604, -0.445123, 0.63388, -3.12923, -0.0570515, -0.111621, -0.0106812, -0.443711, 0.634121, -3.1308, -0.0533895, -0.103597, 0.0159602, -0.0111224, -0.0324371, 0.00168054, -0.011584, -0.0177289
0.113983, 0.108779, -0.773707, -0.918835, -1.45684, -0.627182, 1.07007, -0.256719, 0.03388, 0.0168047, -0.0603202, -0.00508685, -0.00114505, 0.000535452, -0.00124291, 1.22962, 16.3425, 18.6692, 14.9442, 1.05578, 3.64718, -0.0164075, -6.46224e-05, -0.0014153, -0.000245258, -0.00125676, -0.00526651, 0.00265275, 0.0119553, 7.47606e-05, 0.0149045, 0.0227524, 0.0696346, 0.112101, -0.0105443, -0.445134, 0.633848, -3.12916, -0.0570936, -0.111737, -0.0106782, -0.443725, 0.6341, -3.13076, -0.0533783, -0.103553, 0.0162609, -0.0113113, -0.0330063, 0.00328122, -0.0118351, -0.0189944
0.114983, 0.108818, -0.77369, -0.918896, -1.45684, -0.627188, 1.07007, -0.256714, 0.0327191, 0.0157493, -0.0600486, -0.00649202, -0.00105735, -0.000425411, 0.0011053, 1.18995, 16.3425, 18.6295, 14.9084, 1.06128, 3.66824, -0.0685925, -7.67099e-05, -0.00141502, -0.000260823, -0.001285, -0.00537037, 0.0026946, 0.0127486, 0.000614705, 0.0150569, 0.0223726, 0.0706926, 0.111659, -0.0105279, -0.445146, 0.633814, -3.12908, -0.0571363, -0.111854, -0.010675, -0.443737, 0.634081, -3.13072, -0.0533558, -0.103509, 0.016564, -0.0115013, -0.033579, 0.00276176, -0.0115172, -0.0194682
0.115983, 0.108847, -0.773679, -0.918962, -1.45684, -0.627192, 1.07007, -0.256716, 0.0311975, 0.0131866, -0.0607748, -0.00509068, -0.00523143, -0.000556739, -8.26827e-06, 1.305, 16.4178, 18.6295, 14.9084, 1.05578, 3.67557, -0.0484509, -9.56499e-05, -0.00141411, -0.000275196, -0.00131108, -0.00546953, 0.00274019, 0.0158122, 0.000131004, 0.0158213, 0.0254309, 0.0712808, 0.110096, -0.0105112, -0.445157, 0.633781, -3.12901, -0.0571798, -0.111974, -0.0106782, -0.443751, 0.634061, -3.13068, -0.0533282, -0.103475, 0.0168696, -0.0116921, -0.034155, -2.40831e-05, -0.0123122, -0.0195066
0.116983, 0.108888, -0.773658, -0.91903, -1.45684, -0.627198, 1.07007, -0.25672, 0.034804, 0.0171514, -0.0649925, -0.00396579, -0.00911233, 0.000169977, -0.00142903, 1.22962, 16.3782, 18.6692, 14.9084, 1.06769, 3.66092, -0.00999879, -0.000107634, -0.00141225, -0.00029071, -0.00134166, -0.00557895, 0.00277564, 0.015551, -0.00112534, 0.0156706, 0.0268245, 0.0781109, 0.111572, -0.0104942, -0.445169, 0.633746, -3.12893, -0.0572241, -0.112096, -0.0106743, -0.443765, 0.634041, -3.13064, -0.0533171, -0.103427, 0.0171776, -0.0118839, -0.0347344, 0.000600262, -0.0137498, -0.02023
0.117983, 0.108924, -0.773642, -0.919093, -1.45685, -0.627201, 1.07007, -0.25672, 0.0355119, 0.0150845, -0.0635153, -0.00307286, -0.00635903, -0.000158998, -0.000952209, 1.22962, 16.4178, 18.6295, 14.9084, 1.05578, 3.66824, -0.00999879, -0.000122137, -0.00141223, -0.000307311, -0.00137195, -0.00568472, 0.00281674, 0.015328, -0.000374336, 0.0168336, 0.027682, 0.0743022, 0.115926, -0.0104768, -0.445181, 0.633711, -3.12885, -0.0572691, -0.112219, -0.0106726, -0.443778, 0.634021, -3.1306, -0.0532979, -0.103387, 0.017488, -0.0120766, -0.0353172, 0.00102114, -0.013199, -0.0196316
0.118983, 0.108964, -0.773621, -0.91916, -1.45685, -0.627208, 1.07007, -0.256714, 0.036967, 0.0186038, -0.0664532, -0.00320555, -0.00522387, -0.000106785, 0.00153569, 1.18995, 16.3782, 18.6295, 14.9442, 1.06769, 3.66824, -0.0685925, -0.000133929, -0.00141152, -0.000322803, -0.00140161, -0.0058013, 0.00286232, 0.0145714, -0.000561888, 0.0166542, 0.0265331, 0.0779769, 0.115394, -0.0104592, -0.445193, 0.633676, -3.12877, -0.0573148, -0.112345, -0.0106679, -0.443791, 0.634, -3.13056, -0.0532727, -0.103332, 0.0178009, -0.0122702, -0.0359033, 0.00210666, -0.0135522, -0.0203454
0.119983, 0.108997, -0.773604, -0.919225, -1.45685, -0.627209, 1.07007, -0.256714, 0.0330047, 0.0193121, -0.0647987, -0.000615106, -0.00389036, -0.000343047, 0.00102406, 1.22962, 16.4178, 18.5938, 14.8688, 1.06769, 3.67557, -0.0685925, -0.000150803, -0.00141173, -0.000341819, -0.00143555, -0.00590568, 0.00290889, 0.016136, 0.000130931, 0.0186532, 0.029698, 0.0768224, 0.114677, -0.0104412, -0.445205, 0.633639, -3.12869, -0.0573613, -0.112473, -0.0106682, -0.443804, 0.633982, -3.13052, -0.0532464, -0.103299, 0.0181163, -0.0124646, -0.0364926, 0.000692473, -0.0131361, -0.0190486
0.120983, 0.109037, -0.77358, -0.919296, -1.45686, -0.62721, 1.07007, -0.25672, 0.0350757, 0.0186758, -0.0652029, -0.00318951, -0.00289941, 4.2127e-05, -0.00148723, 1.18995, 16.3782, 18.6295, 14.9799, 1.06769, 3.66824, -0.00999879, -0.000162076, -0.00141125, -0.000356254, -0.0014609, -0.00602506, 0.00294157, 0.015043, 0.000398984, 0.0183081, 0.0288165, 0.0777886, 0.122911, -0.0104229, -0.445218, 0.633603, -3.12861, -0.0574085, -0.112603, -0.0106623, -0.443818, 0.633959, -3.13047, -0.0532429, -0.103243, 0.018434, -0.0126599, -0.0370852, 0.00211306, -0.0130217, -0.0199057
0.121983, 0.109079, -0.773563, -0.919364, -1.45686, -0.62721, 1.07006, -0.256722, 0.0374345, 0.0161478, -0.0668902, -0.00226208, -0.00216232, -0.000514782, -0.00149996, 1.11457, 16.4178, 18.5938, 14.9799, 1.06769, 3.68289, 0.00373412, -0.000175903, -0.0014116, -0.000374603, -0.00149212, -0.00613408, 0.00297971, 0.0156871, 0.000298034, 0.0185123, 0.0282158, 0.0753176, 0.126053, -0.0104044, -0.445231, 0.633565, -3.12852, -0.0574565, -0.112735, -0.0106589, -0.443831, 0.633939, -3.13042, -0.0532313, -0.103206, 0.0187541, -0.012856, -0.0376809, 0.00177877, -0.0133464, -0.0203466
0.122983, 0.109116, -0.773541, -0.919434, -1.45686, -0.627214, 1.07007, -0.256714, 0.0373292, 0.0161893, -0.069012, -0.00160986, -0.00185094, -7.21694e-05, 0.0016789, 1.11457, 16.3782, 18.5938, 14.9799, 1.0741, 3.67557, -0.0685925, -0.000191069, -0.00141108, -0.000392753, -0.00152621, -0.00625257, 0.00303458, 0.0167035, 2.47754e-05, 0.0187741, 0.028609, 0.0754082, 0.123158, -0.0103854, -0.445244, 0.633527, -3.12844, -0.0575053, -0.11287, -0.0106564, -0.443845, 0.633918, -3.13038, -0.0531946, -0.103157, 0.0190766, -0.013053, -0.0382798, 0.00107807, -0.0138585, -0.0207619
0.123983, 0.109152, -0.773526, -0.919504, -1.45687, -0.627214, 1.07006, -0.256713, 0.0371163, 0.0142799, -0.0665446, -0.00207761, -0.000888266, -4.82995e-05, 0.00135671, 1.11457, 16.4178, 18.5581, 15.0195, 1.06128, 3.67557, -0.0750012, -0.000208349, -0.00141214, -0.000409956, -0.0015539, -0.00636559, 0.00308008, 0.0165635, 0.000817385, 0.0198894, 0.030544, 0.0737992, 0.128057, -0.0103662, -0.445257, 0.633489, -3.12835, -0.0575548, -0.113006, -0.0106558, -0.443858, 0.633896, -3.13033, -0.0531733, -0.103118, 0.0194015, -0.0132507, -0.0388819, 0.00143137, -0.0132745, -0.0202357
0.124983, 0.109192, -0.773501, -0.919572, -1.45687, -0.627215, 1.07006, -0.25672, 0.0348732, 0.0188078, -0.0680426, -0.00144234, -0.000926305, -0.000303607, -0.00150296, 1.07887, 16.3425, 18.5184, 15.0195, 1.06769, 3.68289, -0.00999879, -0.000220341, -0.00141276, -0.000429701, -0.00159031, -0.00648877, 0.00311475, 0.0171045, 0.000912585, 0.0205021, 0.0313517, 0.0789581, 0.129388, -0.0103466, -0.44527, 0.633449, -3.12826, -0.0576051, -0.113144, -0.0106497, -0.443872, 0.633875, -3.13029, -0.0531695, -0.103066, 0.0197288, -0.0134493, -0.039487, 0.00117018, -0.0134072, -0.0202696
0.125983, 0.10923, -0.773483, -0.919652, -1.45687, -0.627214, 1.07006, -0.256721, 0.0385029, 0.0162832, -0.0740852, -0.00414895, -0.000452754, -0.000473777, -0.00127319, 1.07887, 16.3782, 18.5581, 15.0195, 1.06128, 3.69021, -0.00267457, -0.00023967, -0.00141169, -0.000446471, -0.00161815, -0.00660453, 0.0031662, 0.017862, 6.26034e-05, 0.0183698, 0.0262884, 0.0790883, 0.132017, -0.0103267, -0.445284, 0.63341, -3.12817, -0.0576562, -0.113285, -0.0106503, -0.443887, 0.633851, -3.13023, -0.0531406, -0.103027, 0.0200585, -0.0136486, -0.0400951, 0.000928403, -0.0144598, -0.023069
0.126983, 0.109271, -0.773461, -0.919721, -1.45688, -0.627212, 1.07006, -0.256715, 0.0417876, 0.0169836, -0.071752, -0.00389543, 0.0003219, -0.000587197, 0.00111793, 1.03919, 16.3068, 18.443, 15.0552, 1.04297, 3.69754, -0.0557752, -0.000251707, -0.00141353, -0.00046557, -0.00165079, -0.00672849, 0.00321049, 0.0156334, 0.00075476, 0.0196501, 0.0284791, 0.0798724, 0.137154, -0.0103065, -0.445298, 0.633369, -3.12808, -0.0577081, -0.113428, -0.0106436, -0.4439, 0.633829, -3.13018, -0.0531235, -0.102977, 0.0203905, -0.0138487, -0.0407063, 0.00336191, -0.0139049, -0.0222367
0.127983, 0.109317, -0.773443, -0.919802, -1.45689, -0.627213, 1.07006, -0.256712, 0.0424199, 0.0189278, -0.0760739, -0.00198242, -6.35833e-05, -0.000391524, 0.00169475, 0.963814, 16.3068, 18.443, 15.0195, 1.04938, 3.69754, -0.0814099, -0.000268358, -0.00141233, -0.000482957, -0.00168039, -0.00684976, 0.00326037, 0.0168913, -2.71886e-05, 0.0197177, 0.028358, 0.081823, 0.134985, -0.010286, -0.445311, 0.633328, -3.12799, -0.0577607, -0.113573, -0.010641, -0.443916, 0.633804, -3.13013, -0.0530987, -0.102934, 0.0207248, -0.0140495, -0.0413204, 0.00246507, -0.014936, -0.022884
0.128983, 0.109363, -0.773416, -0.919883, -1.45689, -0.62721, 1.07006, -0.256721, 0.0458894, 0.0221747, -0.0804649, -0.00232235, 0.00084252, 0.000281474, -0.00178627, 0.888436, 16.2314, 18.3716, 15.0552, 1.02466, 3.68289, -0.00267457, -0.000281322, -0.00141168, -0.000500212, -0.0017093, -0.00697895, 0.00329571, 0.0157551, -0.000671529, 0.0190771, 0.0266625, 0.0853576, 0.141431, -0.0102651, -0.445326, 0.633287, -3.1279, -0.0578142, -0.11372, -0.0106343, -0.443931, 0.633779, -3.13007, -0.0530973, -0.102881, 0.0210615, -0.0142511, -0.0419374, 0.00400283, -0.0157343, -0.0240652
0.129983, 0.109407, -0.773399, -0.919967, -1.4569, -0.627214, 1.07006, -0.256722, 0.0475295, 0.0195846, -0.0848028, -0.00401136, 0.000301358, 0.000187616, -0.00166555, 0.85273, 16.2314, 18.332, 15.0195, 1.03107, 3.68289, 0.0101428, -0.000301045, -0.00141079, -0.000517315, -0.00173728, -0.00710757, 0.00334672, 0.0172709, -0.00132739, 0.0178207, 0.0239348, 0.0854146, 0.142518, -0.0102438, -0.44534, 0.633244, -3.1278, -0.0578684, -0.113869, -0.0106341, -0.443948, 0.633752, -3.13002, -0.0530724, -0.10283, 0.0214005, -0.0144534, -0.0425574, 0.00294497, -0.0166338, -0.026057
0.130983, 0.109451, -0.77338, -0.92006, -1.4569, -0.62721, 1.07006, -0.256715, 0.0479192, 0.017627, -0.0858333, -0.00126862, 0.0006584, 0.000125053, 0.00133105, 0.85273, 16.2314, 18.332, 14.9442, 1.01825, 3.68289, -0.0557752, -0.000322158, -0.00140819, -0.00053348, -0.00176293, -0.00722964, 0.00341151, 0.018815, -0.0014698, 0.0189232, 0.0256004, 0.0823618, 0.140173, -0.0102223, -0.445355, 0.633201, -3.12771, -0.0579234, -0.114021, -0.0106347, -0.443966, 0.633724, -3.12995, -0.053027, -0.102792, 0.0217418, -0.0146563, -0.0431802, 0.00167116, -0.0170517, -0.0256964
0.131983, 0.109493, -0.773356, -0.920144, -1.45691, -0.627211, 1.07006, -0.25671, 0.0451001, 0.0209295, -0.0830819, -0.00525138, -4.87015e-05, 8.33498e-05, 0.00136209, 0.85273, 16.16, 18.1852, 14.9799, 1.03107, 3.68289, -0.0685925, -0.000339161, -0.00140783, -0.000550217, -0.00179167, -0.00736748, 0.00346705, 0.0177784, -0.000390552, 0.0193401, 0.027037, 0.089537, 0.1434, -0.0102004, -0.445369, 0.633158, -3.12761, -0.0579792, -0.114174, -0.0106311, -0.443982, 0.633696, -3.1299, -0.0529968, -0.102732, 0.0220854, -0.01486, -0.0438058, 0.00297555, -0.0161466, -0.0258218
0.132983, 0.10954, -0.773335, -0.920239, -1.45691, -0.62721, 1.07007, -0.256709, 0.0440588, 0.0218165, -0.0869242, -0.00137881, 0.000195203, 0.00032682, 0.000908069, 0.813057, 16.16, 18.1455, 14.8688, 1.02466, 3.67557, -0.0685925, -0.000360426, -0.00140503, -0.00056759, -0.00181974, -0.00749642, 0.00352743, 0.0202286, -0.00110897, 0.0201778, 0.0281426, 0.0886415, 0.14031, -0.0101781, -0.445384, 0.633114, -3.12751, -0.0580358, -0.11433, -0.0106313, -0.444001, 0.633668, -3.12983, -0.0529598, -0.102687, 0.0224314, -0.0150643, -0.0444342, 0.000843733, -0.0171717, -0.0258035
0.133983, 0.109591, -0.773309, -0.920337, -1.45692, -0.627211, 1.07007, -0.256713, 0.0461971, 0.025045, -0.0904937, -0.00347515, -0.000114489, 0.000217869, -0.000615319, 0.777352, 16.0489, 18.1455, 14.8331, 1.03107, 3.67557, -0.0356336, -0.000378771, -0.00140216, -0.000582233, -0.00184237, -0.00763782, 0.00357925, 0.0193913, -0.00144236, 0.0192229, 0.0259758, 0.0945877, 0.144459, -0.0101555, -0.445399, 0.633069, -3.12741, -0.0580933, -0.114488, -0.010628, -0.44402, 0.633636, -3.12977, -0.0529373, -0.102625, 0.0227796, -0.0152693, -0.0450654, 0.00210674, -0.0176694, -0.0273313
0.134983, 0.109637, -0.773293, -0.920431, -1.45694, -0.627211, 1.07006, -0.256717, 0.0461477, 0.0239246, -0.0941611, -0.00765261, -0.000285226, -0.000126029, -0.00186827, 0.813057, 16.0846, 18.0741, 14.9084, 1.03656, 3.68289, 0.00373412, -0.000399474, -0.00140105, -0.000595961, -0.00186334, -0.00777718, 0.00362813, 0.020443, -0.00164536, 0.017496, 0.0221477, 0.0975526, 0.14724, -0.0101325, -0.445415, 0.633024, -3.12731, -0.0581515, -0.114649, -0.0106268, -0.444037, 0.633603, -3.1297, -0.0529202, -0.102569, 0.0231301, -0.0154749, -0.0456993, 0.00154103, -0.0180966, -0.0297691
0.135983, 0.109689, -0.773269, -0.920528, -1.45695, -0.627211, 1.07007, -0.25671, 0.0511598, 0.025747, -0.0951011, -0.00634586, -0.000194238, 0.000729777, 0.000958536, 0.777352, 16.0092, 18.0344, 14.7934, 1.03656, 3.66092, -0.0557752, -0.000417921, -0.00139841, -0.000614055, -0.00189412, -0.00791565, 0.00368966, 0.0184356, -0.0019169, 0.0182707, 0.0239601, 0.0990053, 0.150389, -0.0101092, -0.44543, 0.632978, -3.12721, -0.0582105, -0.114811, -0.0106232, -0.444056, 0.633574, -3.12963, -0.0528839, -0.102516, 0.0234829, -0.0156811, -0.0463358, 0.00384648, -0.018513, -0.0294908
0.136983, 0.109737, -0.773253, -0.920634, -1.45696, -0.627211, 1.07007, -0.256708, 0.0522541, 0.0234405, -0.0975836, -0.0073187, 7.08934e-05, 0.000215246, 0.0013511, 0.85273, 16.0846, 18.0741, 14.7577, 1.03107, 3.66824, -0.0750012, -0.00044366, -0.00139505, -0.000627893, -0.00191331, -0.00805256, 0.00375655, 0.0195555, -0.00206192, 0.017769, 0.0221972, 0.0984209, 0.15216, -0.0100856, -0.445446, 0.632931, -3.1271, -0.0582704, -0.114976, -0.0106262, -0.444077, 0.633539, -3.12956, -0.0528406, -0.102468, 0.0238379, -0.015888, -0.046975, 0.00312591, -0.0189018, -0.0307166
0.137983, 0.109786, -0.773223, -0.920736, -1.45697, -0.627215, 1.07007, -0.256711, 0.0510361, 0.0263671, -0.0985082, -0.00888179, -0.000395846, 0.00065212, -8.26075e-05, 0.888436, 15.9735, 18.0741, 14.7577, 1.04297, 3.65451, -0.0484509, -0.000463926, -0.00139201, -0.000643276, -0.00193978, -0.00820893, 0.00381587, 0.0195296, -0.00194571, 0.0178814, 0.0228038, 0.103429, 0.154579, -0.0100616, -0.445462, 0.632884, -3.127, -0.0583311, -0.115144, -0.0106235, -0.444097, 0.633506, -3.12949, -0.0528098, -0.102392, 0.0241952, -0.0160954, -0.0476168, 0.00349476, -0.0189961, -0.0312457
0.138983, 0.109835, -0.7732, -0.920841, -1.45698, -0.627212, 1.07007, -0.256717, 0.0459861, 0.026615, -0.098921, -0.0113278, -2.82627e-05, 0.000197385, -0.00198785, 0.963814, 15.9378, 18.0741, 14.6823, 1.03656, 3.66092, 0.00373412, -0.000487183, -0.00138976, -0.000659323, -0.00196243, -0.00835328, 0.00387341, 0.0215957, -0.0013739, 0.0178171, 0.0221723, 0.106101, 0.154907, -0.0100372, -0.445478, 0.632836, -3.12689, -0.0583926, -0.115313, -0.0106235, -0.444116, 0.633472, -3.12942, -0.0527826, -0.102336, 0.0245547, -0.0163034, -0.0482612, 0.00177672, -0.0187105, -0.0321033
0.139983, 0.109886, -0.773173, -0.920943, -1.45699, -0.627212, 1.07006, -0.256711, 0.0463717, 0.0278342, -0.101597, -0.012666, -2.0135e-05, 0.000131588, 0.000607547, 1.00349, 15.8624, 18.0344, 14.722, 1.03656, 3.66092, -0.0484509, -0.000506694, -0.00138878, -0.000674451, -0.00198297, -0.00851053, 0.00393603, 0.0219566, -0.001544, 0.0173503, 0.0209153, 0.10925, 0.153697, -0.0100124, -0.445495, 0.632787, -3.12678, -0.0584549, -0.115485, -0.0106194, -0.444135, 0.633437, -3.12934, -0.0527486, -0.102263, 0.0249165, -0.016512, -0.0489081, 0.00181786, -0.0190987, -0.033247
0.140983, 0.109945, -0.773153, -0.921051, -1.457, -0.627211, 1.07007, -0.25671, 0.0485354, 0.0236824, -0.102381, -0.0100639, -1.43932e-05, -0.000183543, 0.000913658, 0.963814, 15.8624, 18.0741, 14.6069, 1.03656, 3.66824, -0.0621838, -0.00052849, -0.00138514, -0.000691337, -0.00200926, -0.00865482, 0.00399627, 0.0233873, -0.00171176, 0.0183499, 0.0223395, 0.104545, 0.156008, -0.00998734, -0.445511, 0.632738, -3.12667, -0.058518, -0.115659, -0.0106173, -0.444156, 0.633403, -3.12926, -0.0527188, -0.102213, 0.0252805, -0.0167211, -0.0495576, 0.000687209, -0.0195445, -0.0330103
0.141983, 0.109994, -0.77313, -0.921149, -1.45702, -0.627211, 1.07006, -0.256709, 0.0495148, 0.026968, -0.103154, -0.0149912, 0.000193128, 0.000148904, 0.000846465, 1.07887, 15.8624, 17.9987, 14.6466, 1.03107, 3.66092, -0.0685925, -0.000548535, -0.00138532, -0.000708446, -0.00203513, -0.00881239, 0.00405259, 0.0214257, -0.00131451, 0.0174171, 0.0206612, 0.111672, 0.161446, -0.00996188, -0.445528, 0.632688, -3.12656, -0.058582, -0.115835, -0.0106132, -0.444174, 0.633369, -3.12919, -0.0526961, -0.102144, 0.0256467, -0.0169307, -0.0502094, 0.00306029, -0.0192748, -0.0344456
0.142983, 0.110049, -0.77311, -0.921254, -1.45704, -0.627213, 1.07006, -0.256718, 0.0494362, 0.0254963, -0.103403, -0.0146549, -0.000549962, 0.000607895, -0.00136847, 1.07887, 15.9021, 18.0344, 14.6466, 1.04938, 3.64718, -0.0164075, -0.000570341, -0.00138324, -0.00072489, -0.00206165, -0.00896741, 0.00410147, 0.0224639, -0.00134414, 0.0181193, 0.022512, 0.111258, 0.165259, -0.00993605, -0.445545, 0.632638, -3.12645, -0.0586468, -0.116014, -0.0106104, -0.444194, 0.633333, -3.12912, -0.0526857, -0.102082, 0.0260151, -0.0171409, -0.0508638, 0.00234156, -0.0195654, -0.0344799
0.143983, 0.110103, -0.773087, -0.921357, -1.45704, -0.627211, 1.07007, -0.256714, 0.050706, 0.022187, -0.102697, -0.0146704, 0.000311118, 0.000405263, -0.000437595, 1.15424, 15.9021, 18.0344, 14.5355, 1.03107, 3.64718, -0.0292249, -0.000592134, -0.00138161, -0.000745522, -0.00209608, -0.00911704, 0.00416511, 0.0228372, -0.000942652, 0.0188139, 0.0232852, 0.108327, 0.168964, -0.00990985, -0.445562, 0.632586, -3.12633, -0.0587125, -0.116195, -0.0106075, -0.444214, 0.633301, -3.12905, -0.0526529, -0.10203, 0.0263857, -0.0173516, -0.0515205, 0.00227175, -0.0194012, -0.0344704
0.144983, 0.110103, -0.773087, -0.921357, -1.45704, -0.627211, 1.07007, -0.256714, 0.050706, 0.022187, -0.102697, -0.0146704, 0.000311118, 0.000405263, -0.000437595, 1.15424, 15.9021, 18.0344, 14.5355, 1.03107, 3.64718, -0.0292249, -0.000613954, -0.00140075, -0.000798872, -0.0022028, -0.00923838, 0.00420608, 0.0231495, -0.000707142, 0.0194986, 0.0244961, 0.109252, 0.171373, -0.00988328, -0.44558, 0.632535, -3.12622, -0.058779, -0.116378, -0.0106075, -0.444214, 0.633301, -3.12905, -0.0526529, -0.10203, 0.0267585, -0.0175627, -0.0521796, 0.00227175, -0.0194012, -0.0344704
0.145983, 0.110221, -0.77304, -0.921579, -1.45708, -0.627211, 1.07006, -0.256708, 0.0548126, 0.021848, -0.102996, -0.0163334, 0.000239565, -0.000181574, 0.00101491, 1.11457, 15.8624, 18.1098, 14.5355, 1.03656, 3.65451, -0.0750012, -0.000635348, -0.00137773, -0.000777011, -0.00214012, -0.00944414, 0.00428886, 0.0215836, -0.000441371, 0.0193936, 0.0238182, 0.11135, 0.177008, -0.00985633, -0.445598, 0.632482, -3.1261, -0.0588463, -0.116563, -0.0105996, -0.444256, 0.633225, -3.12888, -0.0525967, -0.10189, 0.0271335, -0.0177744, -0.052841, 0.00420288, -0.0192908, -0.0351197
0.146983, 0.110271, -0.77302, -0.92169, -1.45709, -0.627211, 1.07006, -0.256713, 0.050994, 0.0217123, -0.104352, -0.0144741, 0.000159537, 0.000150218, -0.000781453, 1.22962, 15.9021, 18.0741, 14.4958, 1.03656, 3.64718, -0.0356336, -0.000662157, -0.00137596, -0.000794972, -0.00216799, -0.00960386, 0.00435319, 0.0244336, -0.000542511, 0.0204206, 0.0257811, 0.110862, 0.175393, -0.00982901, -0.445615, 0.632429, -3.12598, -0.0589145, -0.116751, -0.0106004, -0.444277, 0.633188, -3.1288, -0.0525659, -0.101829, 0.0275107, -0.0179865, -0.0535047, 0.00166539, -0.0197276, -0.0349767
0.147983, 0.110271, -0.77302, -0.92169, -1.45709, -0.627211, 1.07006, -0.256713, 0.050994, 0.0217123, -0.104352, -0.0144741, 0.000159537, 0.000150218, -0.000781453, 1.22962, 15.9021, 18.0741, 14.4958, 1.03656, 3.64718, -0.0356336, -0.000684894, -0.00139584, -0.000850388, -0.00227861, -0.00972986, 0.00439576, 0.0247513, -0.000304679, 0.0211129, 0.0270001, 0.111798, 0.177826, -0.00980131, -0.445634, 0.632375, -3.12586, -0.0589835, -0.116942, -0.0106004, -0.444277, 0.633188, -3.1288, -0.0525659, -0.101829, 0.02789, -0.018199, -0.0541706, 0.00166539, -0.0197276, -0.0349767
0.148983, 0.110271, -0.77302, -0.92169, -1.45709, -0.627211, 1.07006, -0.256713, 0.050994, 0.0217123, -0.104352, -0.0144741, 0.000159537, 0.000150218, -0.000781453, 1.22962, 15.9021, 18.0741, 14.4958, 1.03656, 3.64718, -0.0356336, -0.000707935, -0.00141596, -0.000906495, -0.00239054, -0.00985743, 0.00443886, 0.0250706, -6.60876e-05, 0.0218077, 0.0282215, 0.112737, 0.180268, -0.00977323, -0.445652, 0.63232, -3.12574, -0.0590534, -0.117134, -0.0106004, -0.444277, 0.633188, -3.1288, -0.0525659, -0.101829, 0.0282715, -0.018412, -0.0548388, 0.00166539, -0.0197276, -0.0349767
0.149983, 0.110271, -0.77302, -0.92169, -1.45709, -0.627211, 1.07006, -0.256713, 0.050994, 0.0217123, -0.104352, -0.0144741, 0.000159537, 0.000150218, -0.000781453, 1.22962, 15.9021, 18.0741, 14.4958, 1.03656, 3.64718, -0.0356336, -0.000731281, -0.00143634, -0.000963295, -0.00250377, -0.00998657, 0.00448249, 0.0253917, 0.000173252, 0.022505, 0.0294453, 0.113679, 0.182717, -0.00974476, -0.44567, 0.632265, -3.12562, -0.0591241, -0.117329, -0.0106004, -0.444277, 0.633188, -3.1288, -0.0525659, -0.101829, 0.0286551, -0.0186253, -0.0555092, 0.00166539, -0.0197276, -0.0349767
0.150983, 0.1105, -0.77293, -0.922169, -1.45717, -0.627213, 1.07006, -0.256709, 0.0570415, 0.0227234, -0.114989, -0.0148927, -0.000499903, 0.00030094, 0.000493667, 1.22962, 15.8624, 18.1098, 14.4601, 1.05578, 3.63986, -0.0685925, -0.000766262, -0.00136453, -0.00085847, -0.0022595, -0.0102817, 0.00462993, 0.0262187, -0.00184205, 0.0199315, 0.0236956, 0.116908, 0.181677, -0.00971592, -0.445689, 0.632209, -3.12549, -0.0591957, -0.117527, -0.010596, -0.444367, 0.633024, -3.12845, -0.0524224, -0.101549, 0.0290408, -0.0188391, -0.0561817, 0.00149424, -0.0219517, -0.038305
0.151983, 0.110559, -0.772911, -0.922289, -1.4572, -0.627211, 1.07007, -0.256711, 0.0593693, 0.0223944, -0.117459, -0.0160223, 0.000378767, 0.000200626, -0.000416874, 1.18995, 15.9021, 18.1098, 14.5355, 1.03656, 3.63986, -0.0484509, -0.000791734, -0.00136212, -0.000873975, -0.00228254, -0.010452, 0.00469201, 0.0260227, -0.00195826, 0.0194915, 0.0220373, 0.117797, 0.18648, -0.00968668, -0.445708, 0.632153, -3.12537, -0.0592682, -0.117726, -0.0105934, -0.44439, 0.632981, -3.12836, -0.0523998, -0.101483, 0.0294287, -0.0190533, -0.0568564, 0.00211276, -0.0222716, -0.0394088
0.152983, 0.110623, -0.772886, -0.922408, -1.45722, -0.627212, 1.07007, -0.256715, 0.0588765, 0.0241121, -0.118025, -0.0173182, 1.51218e-05, 0.000676286, -0.00146471, 1.11457, 15.8624, 18.0741, 14.4958, 1.04297, 3.62521, -0.0164075, -0.000814386, -0.00136041, -0.000891785, -0.00230873, -0.0106311, 0.00474982, 0.0259873, -0.00181877, 0.0197607, 0.0229151, 0.121375, 0.189549, -0.00965706, -0.445727, 0.632096, -3.12524, -0.0593415, -0.117929, -0.0105878, -0.444412, 0.63294, -3.12828, -0.0523846, -0.101407, 0.0298187, -0.0192678, -0.0575331, 0.00251026, -0.022353, -0.0398168
0.153983, 0.110681, -0.772863, -0.922534, -1.45724, -0.627211, 1.07007, -0.256711, 0.0597336, 0.0251125, -0.117698, -0.0201546, 0.000247417, 0.000450857, -0.000739115, 1.11457, 15.8267, 18.1098, 14.5355, 1.03656, 3.62521, -0.0228162, -0.000842057, -0.00135814, -0.000906934, -0.00232845, -0.0108118, 0.00482457, 0.0249251, -0.00127094, 0.0196769, 0.0224961, 0.125119, 0.193953, -0.00962704, -0.445747, 0.632038, -3.12511, -0.0594156, -0.118133, -0.0105865, -0.444435, 0.632895, -3.12818, -0.0523444, -0.10133, 0.0302108, -0.0194827, -0.0582119, 0.00394384, -0.021983, -0.0404959
0.154983, 0.110741, -0.772847, -0.92266, -1.45727, -0.627213, 1.07007, -0.256705, 0.0604367, 0.0231449, -0.116481, -0.0204397, -0.00030979, 2.9304e-05, 0.000965319, 1.11457, 15.9021, 18.1098, 14.4958, 1.04938, 3.63254, -0.0621838, -0.000872088, -0.00135558, -0.00092283, -0.00235013, -0.0109886, 0.00490172, 0.0252415, -0.000821622, 0.02051, 0.0240575, 0.124901, 0.196247, -0.00959664, -0.445766, 0.631979, -3.12498, -0.0594907, -0.11834, -0.0105873, -0.444458, 0.63285, -3.12809, -0.0523013, -0.101261, 0.0306049, -0.019698, -0.0588927, 0.00394045, -0.0217774, -0.0403685
0.155983, 0.110799, -0.772832, -0.922783, -1.4573, -0.627211, 1.07007, -0.256706, 0.0609869, 0.0220907, -0.117951, -0.0233443, 0.000471628, 0.00079943, 0.000406187, 1.11457, 15.9735, 18.0741, 14.5712, 1.03107, 3.61148, -0.0557752, -0.00089983, -0.00135423, -0.00093855, -0.00237278, -0.011166, 0.00496701, 0.0252967, -0.000771454, 0.019924, 0.0229216, 0.125808, 0.200587, -0.00956583, -0.445786, 0.63192, -3.12485, -0.0595666, -0.11855, -0.0105855, -0.444481, 0.632804, -3.12799, -0.0522774, -0.101194, 0.0310012, -0.0199136, -0.0595756, 0.00432161, -0.0219396, -0.041643
0.156983, 0.110864, -0.77281, -0.922908, -1.45732, -0.627208, 1.07007, -0.256715, 0.0620855, 0.0237515, -0.119698, -0.0217891, 0.000110959, 0.000261686, -0.0016959, 1.07887, 15.9378, 18.0741, 14.4958, 1.03656, 3.6188, -0.00267457, -0.000925719, -0.00135281, -0.000956851, -0.00239741, -0.0113474, 0.00502384, 0.025658, -0.000890128, 0.0206007, 0.0236467, 0.128066, 0.203962, -0.00953463, -0.445806, 0.63186, -3.12472, -0.0596434, -0.118761, -0.0105816, -0.444504, 0.632761, -3.12789, -0.0522675, -0.101124, 0.0313996, -0.0201295, -0.0602603, 0.00431111, -0.0223018, -0.0416859
0.157983, 0.110923, -0.772788, -0.923032, -1.45735, -0.62721, 1.07007, -0.256711, 0.0622427, 0.0249768, -0.120303, -0.0257092, 0.000277416, -6.29018e-05, -0.000621972, 1.07887, 15.9021, 18.0344, 14.4958, 1.03107, 3.62521, -0.0164075, -0.000953318, -0.00135194, -0.000973782, -0.00242167, -0.0115386, 0.00509667, 0.0249491, -0.000419044, 0.019953, 0.0220373, 0.132885, 0.207154, -0.00950303, -0.445826, 0.6318, -3.12458, -0.059721, -0.118976, -0.010579, -0.444526, 0.632715, -3.1278, -0.0522338, -0.10104, 0.0318, -0.0203457, -0.060947, 0.00544618, -0.0220144, -0.0429623
0.158983, 0.110985, -0.772769, -0.923157, -1.45738, -0.627205, 1.07007, -0.256705, 0.0623756, 0.0249024, -0.127173, -0.024816, 0.000863107, 0.000195424, 0.00128077, 1.07887, 15.9021, 17.9987, 14.4601, 1.01276, 3.6188, -0.0621838, -0.000979476, -0.00135145, -0.000990938, -0.00244454, -0.0117239, 0.00516652, 0.0275257, -0.00153276, 0.0190267, 0.0193257, 0.132941, 0.202467, -0.00947103, -0.445847, 0.631738, -3.12445, -0.0597996, -0.119192, -0.0105745, -0.444549, 0.632669, -3.1277, -0.0522057, -0.100969, 0.0322025, -0.0205621, -0.0616356, 0.0033925, -0.0234298, -0.0447895
0.159983, 0.111049, -0.77275, -0.923299, -1.45742, -0.627204, 1.07007, -0.256705, 0.0624161, 0.0218202, -0.13161, -0.0281066, 0.0005754, 0.000130283, 0.000853849, 1.07887, 15.9021, 18.0741, 14.4601, 1.01276, 3.6188, -0.0621838, -0.00101092, -0.00134792, -0.00100299, -0.00245703, -0.011917, 0.00524286, 0.0296128, -0.00202803, 0.0173701, 0.0157065, 0.133445, 0.203619, -0.00943863, -0.445867, 0.631676, -3.12431, -0.059879, -0.119411, -0.0105744, -0.444575, 0.632616, -3.12759, -0.052169, -0.100886, 0.032607, -0.0207789, -0.062326, 0.00186047, -0.0241976, -0.0473022
0.160983, 0.11111, -0.772731, -0.923431, -1.45745, -0.627205, 1.07007, -0.256711, 0.062543, 0.019575, -0.132202, -0.0256097, 0.000180147, 0.00062939, -0.00136355, 1.07887, 15.9021, 18.0344, 14.3848, 1.01825, 3.60415, -0.00999879, -0.00104107, -0.00134591, -0.00101946, -0.00248046, -0.0121096, 0.00531039, 0.0313078, -0.00223096, 0.0186507, 0.0183968, 0.130651, 0.206582, -0.00940582, -0.445888, 0.631614, -3.12417, -0.0599593, -0.119633, -0.010573, -0.444599, 0.632568, -3.12749, -0.0521464, -0.100808, 0.0330136, -0.0209959, -0.0630183, 0.000486663, -0.0247056, -0.0468553
0.161983, 0.111178, -0.772712, -0.923569, -1.45749, -0.627203, 1.07007, -0.25671, 0.063415, 0.0208669, -0.133805, -0.0306086, 0.000560905, -0.000122941, -0.000671673, 1.03919, 15.9021, 18.0344, 14.4601, 1.00635, 3.6188, -0.0164075, -0.00106806, -0.00134432, -0.00103016, -0.00248941, -0.0123133, 0.00537577, 0.0303778, -0.00179982, 0.01734, 0.0150325, 0.136358, 0.21078, -0.0093726, -0.445909, 0.63155, -3.12403, -0.0600404, -0.119857, -0.0105677, -0.444623, 0.632513, -3.12737, -0.0521288, -0.100714, 0.0334222, -0.0212132, -0.0637123, 0.00190298, -0.0244397, -0.048784
0.162983, 0.111235, -0.772687, -0.923707, -1.45753, -0.627202, 1.07007, -0.256705, 0.0611157, 0.0205768, -0.131715, -0.0324625, 0.000848653, 0.000460574, 0.00124764, 1.11457, 15.8267, 18.0344, 14.4601, 0.993529, 3.60415, -0.0621838, -0.00109898, -0.00134273, -0.00104401, -0.00250669, -0.0125191, 0.00545876, 0.0306518, -0.00104783, 0.0182008, 0.017124, 0.13764, 0.211782, -0.00933897, -0.445931, 0.631486, -3.12389, -0.0601225, -0.120083, -0.0105661, -0.444648, 0.63246, -3.12726, -0.0520845, -0.100619, 0.0338328, -0.0214307, -0.0644081, 0.00194351, -0.0239341, -0.0486378
0.163983, 0.111303, -0.772673, -0.923843, -1.45757, -0.627201, 1.07007, -0.256703, 0.062481, 0.0166791, -0.133417, -0.0333614, 0.000769218, 0.000578317, 0.00154384, 1.07887, 15.9021, 18.0344, 14.3094, 0.988036, 3.59683, -0.0814099, -0.0011297, -0.00134088, -0.00106094, -0.0025295, -0.0127119, 0.005531, 0.0319466, -0.00122386, 0.0179965, 0.0165274, 0.135432, 0.214533, -0.00930493, -0.445952, 0.631421, -3.12375, -0.0602054, -0.120312, -0.0105641, -0.444673, 0.63241, -3.12715, -0.0520574, -0.100548, 0.0342455, -0.0216484, -0.0651057, 0.00108651, -0.0243774, -0.0496463
0.164983, 0.11137, -0.772651, -0.923981, -1.45762, -0.627198, 1.07007, -0.25671, 0.0620577, 0.0167053, -0.133412, -0.0377429, 0.000512811, 0.000385544, -0.00137827, 1.07887, 15.8624, 17.9987, 14.3094, 0.988036, 3.59683, -0.0164075, -0.00115629, -0.00134031, -0.00107316, -0.00254162, -0.0129232, 0.00558902, 0.031648, -0.000685147, 0.0173806, 0.0152869, 0.139604, 0.221689, -0.00927048, -0.445974, 0.631356, -3.1236, -0.0602893, -0.120544, -0.0105573, -0.444696, 0.632355, -3.12704, -0.052054, -0.10045, 0.0346601, -0.0218663, -0.0658049, 0.00182267, -0.0240396, -0.0509344
0.165983, 0.111432, -0.772636, -0.924117, -1.45766, -0.627203, 1.07007, -0.256712, 0.060702, 0.0187524, -0.133777, -0.0392933, 0.00410489, 0.00103692, -0.00166483, 1.11457, 15.8624, 17.959, 14.234, 1.01276, 3.57577, 0.00373412, -0.00118891, -0.00133879, -0.00108879, -0.00256552, -0.01313, 0.00566158, 0.0310071, -3.47434e-05, 0.0177, 0.0146601, 0.14061, 0.225391, -0.00923561, -0.445996, 0.63129, -3.12346, -0.060374, -0.120777, -0.0105562, -0.444722, 0.632302, -3.12693, -0.0520284, -0.100361, 0.0350768, -0.0220844, -0.0665058, 0.00282571, -0.0235928, -0.0512636
0.166983, 0.111493, -0.772619, -0.924259, -1.45771, -0.627198, 1.07007, -0.256705, 0.0594896, 0.0131054, -0.134979, -0.0415852, 0.004042, 0.000691282, 0.00109416, 1.18995, 15.9021, 17.959, 14.1983, 0.988036, 3.57577, -0.0557752, -0.00122021, -0.00133853, -0.00110049, -0.00257542, -0.0133404, 0.00574017, 0.0335756, 9.09721e-05, 0.0171974, 0.0132638, 0.137736, 0.224235, -0.00920033, -0.446018, 0.631223, -3.12331, -0.0604596, -0.121014, -0.0105533, -0.444746, 0.632244, -3.12681, -0.0519951, -0.100269, 0.0354954, -0.0223027, -0.0672083, 0.000717078, -0.0237788, -0.0526699
0.167983, 0.111563, -0.772604, -0.924394, -1.45776, -0.627196, 1.07008, -0.256701, 0.0650317, 0.0121383, -0.133335, -0.0454435, 0.00322443, 0.00181719, 0.00120416, 1.11457, 15.9378, 17.848, 14.1229, 0.981627, 3.53915, -0.0685925, -0.00124686, -0.0013383, -0.00111501, -0.0025957, -0.0135502, 0.00580539, 0.030485, 0.000421843, 0.0170837, 0.0142835, 0.140351, 0.23506, -0.00916462, -0.446041, 0.631155, -3.12316, -0.0605461, -0.121253, -0.0105455, -0.44477, 0.632189, -3.12669, -0.051983, -0.100181, 0.0359161, -0.0225212, -0.0679124, 0.00421031, -0.0235512, -0.0532479
0.168983, 0.111627, -0.77258, -0.924537, -1.45782, -0.627195, 1.07008, -0.256701, 0.0645018, 0.0180208, -0.135748, -0.0470994, 0.00260629, 0.00172009, 0.000565412, 1.11457, 15.8267, 17.8876, 14.1229, 0.975218, 3.52542, -0.0621838, -0.00127494, -0.00133819, -0.00112685, -0.00260877, -0.0137769, 0.00587516, 0.0298786, 0.000408713, 0.0168589, 0.013734, 0.148927, 0.236392, -0.00912849, -0.446063, 0.631087, -3.12301, -0.0606336, -0.121494, -0.0105385, -0.444794, 0.63213, -3.12657, -0.0519653, -0.100069, 0.0363387, -0.0227398, -0.068618, 0.00525265, -0.0237599, -0.0541356
0.169983, 0.111691, -0.772567, -0.924679, -1.45787, -0.627196, 1.07008, -0.256702, 0.0630588, 0.0156241, -0.136232, -0.0525508, 0.00142729, 0.00196053, -0.000369044, 1.15424, 15.8624, 17.8876, 14.0475, 0.988036, 3.50345, -0.0420422, -0.00130796, -0.00133747, -0.00114002, -0.00262577, -0.0139941, 0.00594681, 0.030849, 0.000711078, 0.0157721, 0.0122641, 0.151881, 0.240324, -0.00909194, -0.446086, 0.631018, -3.12286, -0.0607219, -0.121738, -0.010536, -0.444819, 0.632071, -3.12646, -0.0519454, -0.0999741, 0.0367632, -0.0229586, -0.0693252, 0.00478055, -0.0236989, -0.0560028
0.170983, 0.111762, -0.772554, -0.924821, -1.45793, -0.627196, 1.07008, -0.25671, 0.0640501, 0.00992781, -0.14032, -0.0546307, 0.00107488, 0.00235818, -0.00170409, 1.11457, 15.9378, 17.8122, 14.0118, 0.988036, 3.47507, -0.00267457, -0.00133723, -0.00133688, -0.00115321, -0.0026426, -0.0142119, 0.00600377, 0.0334247, 3.9479e-05, 0.014521, 0.00971391, 0.148837, 0.243035, -0.00905497, -0.446109, 0.630949, -3.12271, -0.0608111, -0.121984, -0.0105295, -0.444845, 0.632013, -3.12633, -0.0519492, -0.0998811, 0.0371897, -0.0231774, -0.0700339, 0.00276282, -0.0246694, -0.058175
0.171983, 0.11183, -0.772535, -0.924968, -1.45799, -0.627197, 1.07009, -0.256702, 0.0634737, 0.0147063, -0.142203, -0.0577731, -0.000309868, 0.00211465, 0.000830627, 1.11457, 15.9021, 17.7765, 14.0475, 1.01825, 3.46042, -0.0557752, -0.00136621, -0.00133616, -0.00116371, -0.00265536, -0.0144428, 0.00607986, 0.0328689, 0.000136615, 0.0139445, 0.00882748, 0.157914, 0.241966, -0.00901756, -0.446132, 0.630878, -3.12255, -0.0609012, -0.122233, -0.010522, -0.44487, 0.63195, -3.12621, -0.0519247, -0.0997695, 0.0376182, -0.0233964, -0.0707441, 0.00378415, -0.0247638, -0.0594206
0.172983, 0.111896, -0.772523, -0.925123, -1.45805, -0.627194, 1.07009, -0.256699, 0.0647488, 0.0124825, -0.145128, -0.0592615, 0.000303621, 0.00168104, 0.00126583, 1.18995, 15.9735, 17.8122, 14.0475, 1.00635, 3.45309, -0.0750012, -0.00140196, -0.00133527, -0.00117302, -0.00265936, -0.0146668, 0.00615914, 0.0339151, -1.44489e-05, 0.0132458, 0.00646928, 0.157589, 0.244215, -0.00897973, -0.446156, 0.630807, -3.12239, -0.0609922, -0.122484, -0.0105207, -0.444896, 0.631886, -3.12607, -0.0518965, -0.0996709, 0.0380486, -0.0236155, -0.0714557, 0.00323109, -0.0251654, -0.0609188
0.173983, 0.111965, -0.77251, -0.925274, -1.45811, -0.627192, 1.07009, -0.256702, 0.0644355, 0.0118372, -0.147511, -0.0583883, 0.000729174, 0.00135805, -0.000376817, 1.18995, 16.0092, 17.848, 13.9722, 0.993529, 3.44668, -0.0420422, -0.0014355, -0.0013349, -0.00118456, -0.00266902, -0.0148935, 0.00622885, 0.0355205, -0.000164363, 0.0135497, 0.00618644, 0.157348, 0.246072, -0.00894147, -0.44618, 0.630735, -3.12224, -0.0610841, -0.122738, -0.010517, -0.444922, 0.631823, -3.12594, -0.0518839, -0.0995709, 0.0384809, -0.0238347, -0.0721687, 0.00204475, -0.0256053, -0.0614635
0.174983, 0.112035, -0.772499, -0.925419, -1.45817, -0.627192, 1.07009, -0.256707, 0.0640587, 0.0104214, -0.145015, -0.0568391, 0.000525148, 0.00117663, -0.00194663, 1.18995, 16.0846, 17.848, 13.8611, 0.993529, 3.43936, 0.00373412, -0.0014684, -0.00133543, -0.00119877, -0.00268534, -0.0151191, 0.00629346, 0.0360432, 0.000471118, 0.0154186, 0.009769, 0.156099, 0.250891, -0.00890277, -0.446204, 0.630663, -3.12208, -0.061177, -0.122995, -0.0105125, -0.444947, 0.631762, -3.12582, -0.0518798, -0.0994759, 0.0389151, -0.0240539, -0.0728831, 0.00178496, -0.0252474, -0.0603531
0.175983, 0.112105, -0.772488, -0.925571, -1.45824, -0.627192, 1.07009, -0.256702, 0.0635114, 0.0103441, -0.144352, -0.0579242, 0.000379372, 0.00132696, 0.000635025, 1.18995, 16.1203, 17.8876, 13.8254, 0.993529, 3.42471, -0.0484509, -0.00150243, -0.00133511, -0.00121102, -0.00269809, -0.0153491, 0.0063719, 0.0362523, 0.000894636, 0.0160482, 0.0110986, 0.157761, 0.251353, -0.00886363, -0.446228, 0.630589, -3.12192, -0.0612707, -0.123253, -0.0105084, -0.444974, 0.631698, -3.12568, -0.0518556, -0.0993759, 0.0393512, -0.0242732, -0.0735988, 0.0019446, -0.0250674, -0.0604579
0.176983, 0.112172, -0.772475, -0.925714, -1.45831, -0.627188, 1.07009, -0.256699, 0.0616024, 0.0133503, -0.145852, -0.0613523, 0.00071568, 0.000613371, 0.00116934, 1.26533, 16.16, 17.8876, 13.9008, 0.981627, 3.43204, -0.0685925, -0.00153183, -0.00133781, -0.00122297, -0.00270992, -0.0155853, 0.0064361, 0.0363606, 0.00136344, 0.0154349, 0.00907426, 0.164168, 0.252246, -0.00882406, -0.446252, 0.630515, -3.12175, -0.0613653, -0.123515, -0.0104995, -0.444997, 0.631633, -3.12555, -0.0518545, -0.0992692, 0.0397893, -0.0244926, -0.0743159, 0.00230211, -0.0248158, -0.0617941
0.177983, 0.112244, -0.772462, -0.925863, -1.45838, -0.627188, 1.07009, -0.256702, 0.0674947, 0.0125139, -0.148412, -0.0635401, 5.2777e-05, 0.000408914, 3.35715e-05, 1.305, 16.1957, 17.959, 13.9722, 0.993529, 3.43204, -0.0484509, -0.00156208, -0.00133922, -0.00123427, -0.00272093, -0.0158276, 0.00649808, 0.034917, 0.00104161, 0.0145448, 0.00708635, 0.1666, 0.260708, -0.00878406, -0.446277, 0.630441, -3.12159, -0.0614609, -0.123779, -0.0104908, -0.445022, 0.631567, -3.12543, -0.0513354, -0.099155, 0.0402292, -0.0247119, -0.0750342, 0.00426086, -0.0252889, -0.0632962
0.178983, 0.112318, -0.772451, -0.926009, -1.45844, -0.627189, 1.07009, -0.256707, 0.0688767, 0.0151153, -0.1435, -0.0607125, -0.000427183, 1.34195e-06, -0.0019104, 1.34071, 16.2314, 17.9987, 13.8611, 1.00635, 3.43936, 0.00373412, -0.00159537, -0.00134119, -0.00125044, -0.00273806, -0.0160642, 0.00656136, 0.0330042, 0.00211706, 0.0175539, 0.0130475, 0.168783, 0.268701, -0.00874361, -0.446302, 0.630365, -3.12142, -0.0615574, -0.124045, -0.0104852, -0.445047, 0.631505, -3.12529, -0.0513382, -0.0990531, 0.040671, -0.0249313, -0.0757538, 0.00632522, -0.0244202, -0.0608539
0.179983, 0.112389, -0.772443, -0.926148, -1.45852, -0.62719, 1.07009, -0.2567, 0.0719434, 0.00979559, -0.141072, -0.0622025, 0.00413646, 8.9463e-07, 0.000184463, 1.41608, 16.3068, 17.959, 13.9008, 1.01276, 3.43936, -0.0356336, -0.00162527, -0.00134535, -0.00126515, -0.00275529, -0.0163065, 0.0066274, 0.0316308, 0.00324539, 0.0182123, 0.0123996, 0.161976, 0.277122, -0.00870271, -0.446327, 0.630289, -3.12126, -0.0616548, -0.124315, -0.0104757, -0.445069, 0.631442, -3.12516, -0.0513378, -0.0989447, 0.0411146, -0.0251507, -0.0764746, 0.00803689, -0.0234762, -0.060797
0.180983, 0.112461, -0.772425, -0.926302, -1.45859, -0.627184, 1.07009, -0.256699, 0.0744777, 0.0116731, -0.147087, -0.0631748, 0.00386411, 0.000543131, 0.00110632, 1.49146, 16.2671, 18.1098, 13.9365, 0.993529, 3.42471, -0.0621838, -0.00165568, -0.00134749, -0.00127667, -0.00276374, -0.0165562, 0.00669519, 0.0320806, 0.00225178, 0.0170123, 0.00981323, 0.165758, 0.277096, -0.00866138, -0.446352, 0.630212, -3.12109, -0.0617531, -0.124586, -0.0104659, -0.445094, 0.631374, -3.12502, -0.0513362, -0.0988268, 0.0415602, -0.0253701, -0.0771966, 0.00816666, -0.0246877, -0.0627723
