alisrour97/Franka_experiments/Real_Robot_scripts/servo-franka/Data4/log_dyn_PIw_ki_14.csv
Time,q1,q2,q3,q4,q5,q6,q7,dq1,dq2,dq3,dq4,dq5,dq6,dq7,t1,t2,t3,t4,t5,t6,t7,ex1,ex2,ex3,ex4,ex5,ex6,ev1,ev2,ev3,ev4,ev5,ev6,xd,yd,zd,uxd,uyd,uzd,x,y,z,ux,uy,uz,vxd,vyd,vzd,vx,vy,vz
4.88281e-07, 0.107563, -0.774363, -0.916681, -1.45706, -0.625317, 1.06989, -0.256689, -0.000490102, -0.000943873, -0.000551172, 0.00550852, -0.00110264, -0.000343277, -0.00172891, 0.0949785, 16.4178, 20.5298, 16.9595, 1.14734, 3.84036, -0.193104, 0.000753053, -0.00166669, 0.000432914, 0.000937274, -0.000545399, 0.000310774, 0.00207741, -0.000521307, 0.0014723, 0.00287643, -0.00349982, -0.00253619, -0.011112, -0.444721, 0.635038, -3.13187, -0.0555627, -0.107532, -0.0103866, -0.443024, 0.634665, -3.13096, -0.0555625, -0.106602, 0, 0, 0, -0.00215337, -0.000606697, 0.00132287
0.012094, 0.107563, -0.774375, -0.916694, -1.457, -0.625326, 1.06989, -0.256692, 0.000650325, -0.0018624, -0.001719, 0.00614479, -0.000396738, -0.000189311, 0.000239815, 0.059273, 16.4178, 20.7163, 16.9595, 1.15375, 3.84036, -0.218739, 0.000729632, -0.00165943, 0.00041738, 0.000908499, -0.000500031, 0.000354433, 0.00220787, -0.000782793, 0.00128297, 0.00216117, -0.00537562, -0.00422827, -0.011112, -0.444721, 0.635038, -3.13187, -0.0555627, -0.107532, -0.0104152, -0.443033, 0.634682, -3.13099, -0.0554704, -0.10669, 1.73063e-06, -1.42215e-06, -3.96181e-06, -0.00225943, -0.000872395, 0.00111945
0.0131062, 0.107563, -0.774375, -0.916694, -1.457, -0.625326, 1.06989, -0.256692, 0.000650325, -0.0018624, -0.001719, 0.00614479, -0.000396738, -0.000189311, 0.000239815, 0.059273, 16.4178, 20.7163, 16.9595, 1.15375, 3.84036, -0.218739, 0.000729629, -0.00165943, 0.000417371, 0.000908479, -0.000500052, 0.00035444, 0.00221208, -0.000778285, 0.00129511, 0.00218535, -0.00535907, -0.00418476, -0.011112, -0.444721, 0.635038, -3.13187, -0.0555628, -0.107532, -0.0104152, -0.443033, 0.634682, -3.13099, -0.0554704, -0.10669, 6.91577e-06, -5.6745e-06, -1.58141e-05, -0.00225943, -0.000872395, 0.00111945
0.0141062, 0.107563, -0.774375, -0.916694, -1.457, -0.625326, 1.06989, -0.256692, 0.000650325, -0.0018624, -0.001719, 0.00614479, -0.000396738, -0.000189311, 0.000239815, 0.059273, 16.4178, 20.7163, 16.9595, 1.15375, 3.84036, -0.218739, 0.00072962, -0.00165944, 0.000417346, 0.000908425, -0.000500111, 0.000354459, 0.00221908, -0.000770799, 0.00131529, 0.00222549, -0.00533158, -0.00411247, -0.011112, -0.444721, 0.635038, -3.13187, -0.0555628, -0.107532, -0.0104152, -0.443033, 0.634682, -3.13099, -0.0554704, -0.10669, 1.55453e-05, -1.2736e-05, -3.55071e-05, -0.00225943, -0.000872395, 0.00111945
0.0151062, 0.107563, -0.774375, -0.916694, -1.457, -0.625326, 1.06989, -0.256692, 0.000650325, -0.0018624, -0.001719, 0.00614479, -0.000396738, -0.000189311, 0.000239815, 0.059273, 16.4178, 20.7163, 16.9595, 1.15375, 3.84036, -0.218739, 0.000729603, -0.00165946, 0.000417296, 0.000908319, -0.000500225, 0.000354498, 0.00222887, -0.000760355, 0.00134345, 0.00228149, -0.00529322, -0.00401158, -0.011112, -0.444721, 0.635038, -3.13187, -0.0555628, -0.107532, -0.0104152, -0.443033, 0.634682, -3.13099, -0.0554704, -0.10669, 2.7609e-05, -2.25855e-05, -6.29913e-05, -0.00225943, -0.000872395, 0.00111945
0.0161062, 0.107563, -0.774375, -0.916694, -1.457, -0.625326, 1.06989, -0.256692, 0.000650325, -0.0018624, -0.001719, 0.00614479, -0.000396738, -0.000189311, 0.000239815, 0.059273, 16.4178, 20.7163, 16.9595, 1.15375, 3.84036, -0.218739, 0.000729575, -0.00165949, 0.000417215, 0.000908145, -0.000500411, 0.00035456, 0.00224145, -0.000746977, 0.00137954, 0.00235323, -0.00524406, -0.00388227, -0.0111119, -0.444721, 0.635038, -3.13187, -0.0555629, -0.107532, -0.0104152, -0.443033, 0.634682, -3.13099, -0.0554704, -0.10669, 4.30968e-05, -3.5202e-05, -9.82172e-05, -0.00225943, -0.000872395, 0.00111945
0.0171062, 0.107563, -0.774375, -0.916694, -1.457, -0.625326, 1.06989, -0.256692, 0.000650325, -0.0018624, -0.001719, 0.00614479, -0.000396738, -0.000189311, 0.000239815, 0.059273, 16.4178, 20.7163, 16.9595, 1.15375, 3.84036, -0.218739, 0.000729532, -0.00165953, 0.000417093, 0.000907887, -0.00050069, 0.000354654, 0.00225681, -0.000730685, 0.00142352, 0.00244059, -0.00518416, -0.00372472, -0.0111119, -0.444721, 0.635038, -3.13187, -0.0555631, -0.107533, -0.0104152, -0.443033, 0.634682, -3.13099, -0.0554704, -0.10669, 6.19987e-05, -5.05647e-05, -0.000141136, -0.00225943, -0.000872395, 0.00111945
0.0181062, 0.107563, -0.774375, -0.916694, -1.457, -0.625326, 1.06989, -0.256692, 0.000650325, -0.0018624, -0.001719, 0.00614479, -0.000396738, -0.000189311, 0.000239815, 0.059273, 16.4178, 20.7163, 16.9595, 1.15375, 3.84036, -0.218739, 0.000729473, -0.0016596, 0.000416924, 0.000907527, -0.000501077, 0.000354784, 0.00227494, -0.0007115, 0.00147533, 0.00254345, -0.00511361, -0.00353912, -0.0111118, -0.444721, 0.635037, -3.13187, -0.0555633, -0.107533, -0.0104152, -0.443033, 0.634682, -3.13099, -0.0554704, -0.10669, 8.43044e-05, -6.86525e-05, -0.000191697, -0.00225943, -0.000872395, 0.00111945
0.0191062, 0.107563, -0.774375, -0.916694, -1.457, -0.625326, 1.06989, -0.256692, 0.000650325, -0.0018624, -0.001719, 0.00614479, -0.000396738, -0.000189311, 0.000239815, 0.059273, 16.4178, 20.7163, 16.9595, 1.15375, 3.84036, -0.218739, 0.000729394, -0.00165968, 0.0004167, 0.000907049, -0.000501592, 0.000354956, 0.00229583, -0.000689445, 0.00153493, 0.00266169, -0.00503246, -0.00332565, -0.0111117, -0.444721, 0.635037, -3.13187, -0.0555636, -0.107534, -0.0104152, -0.443033, 0.634682, -3.13099, -0.0554704, -0.10669, 0.000110004, -8.94448e-05, -0.000249853, -0.00225943, -0.000872395, 0.00111945
0.0201062, 0.107563, -0.774375, -0.916694, -1.457, -0.625326, 1.06989, -0.256692, 0.000650325, -0.0018624, -0.001719, 0.00614479, -0.000396738, -0.000189311, 0.000239815, 0.059273, 16.4178, 20.7163, 16.9595, 1.15375, 3.84036, -0.218739, 0.000729294, -0.00165979, 0.000416412, 0.000906436, -0.000502252, 0.000355177, 0.00231949, -0.00066454, 0.00160227, 0.0027952, -0.00494079, -0.00308448, -0.0111116, -0.444721, 0.635037, -3.13187, -0.055564, -0.107535, -0.0104152, -0.443033, 0.634682, -3.13099, -0.0554704, -0.10669, 0.000139087, -0.000112921, -0.000315553, -0.00225943, -0.000872395, 0.00111945
0.0211062, 0.107563, -0.774375, -0.916694, -1.457, -0.625326, 1.06989, -0.256692, 0.000650325, -0.0018624, -0.001719, 0.00614479, -0.000396738, -0.000189311, 0.000239815, 0.059273, 16.4178, 20.7163, 16.9595, 1.15375, 3.84036, -0.218739, 0.000729168, -0.00165992, 0.000416054, 0.000905674, -0.000503073, 0.000355453, 0.0023459, -0.000636807, 0.00167729, 0.00294387, -0.00483868, -0.0028158, -0.0111114, -0.444721, 0.635037, -3.13186, -0.0555644, -0.107536, -0.0104152, -0.443033, 0.634682, -3.13099, -0.0554704, -0.10669, 0.000171544, -0.000139059, -0.00038875, -0.00225943, -0.000872395, 0.00111945
0.0221062, 0.107555, -0.77438, -0.916721, -1.45697, -0.625332, 1.06989, -0.256694, 0.000257785, -0.00214453, -0.000674003, 0.000531658, -0.00391007, -0.000441147, 0.00139444, 0.134651, 16.4536, 20.9385, 16.9595, 1.20868, 3.86233, -0.245289, 0.000707829, -0.00165288, 0.000414767, 0.000905502, -0.000487497, 0.000400413, 0.00184695, -0.000406338, 0.000325381, 0.00199208, 0.00138785, -0.00207274, -0.0111112, -0.444721, 0.635036, -3.13186, -0.055565, -0.107538, -0.0104361, -0.443041, 0.634681, -3.13098, -0.055401, -0.106716, 0.000207364, -0.00016784, -0.000469394, -0.00164185, -0.00064168, -0.000274182
0.0231062, 0.107549, -0.774382, -0.916727, -1.45696, -0.625334, 1.06989, -0.256694, -0.00159155, -0.00153838, -0.00220671, 0.00307191, -0.00241465, -2.28309e-05, -0.000291077, 0.21003, 16.4536, 21.0138, 16.8484, 1.19678, 3.85501, -0.21233, 0.00070072, -0.00165114, 0.000413433, 0.000902206, -0.000482702, 0.000415227, 0.00319384, -0.000670956, 0.000868835, 0.00246768, -0.000826491, -0.00366404, -0.011111, -0.444722, 0.635036, -3.13186, -0.0555656, -0.10754, -0.010443, -0.443043, 0.634681, -3.13099, -0.0553784, -0.106725, 0.000246538, -0.000199242, -0.000557437, -0.00297329, -0.000989582, 8.57651e-05
0.0241062, 0.107547, -0.77438, -0.916734, -1.45697, -0.625337, 1.06989, -0.256693, -0.00189638, -0.00246175, -0.00463595, -0.000553715, -0.0024745, 0.000256047, 4.33078e-05, 0.245735, 16.3782, 21.0138, 16.8127, 1.21509, 3.84768, -0.218739, 0.000698247, -0.00164994, 0.000415645, 0.000904926, -0.000491264, 0.000424586, 0.00365346, -0.000949203, -0.0008306, -0.000713769, 0.000760688, -0.00396663, -0.0111107, -0.444722, 0.635035, -3.13186, -0.0555664, -0.107542, -0.010445, -0.443045, 0.634679, -3.13098, -0.0553648, -0.106714, 0.000289055, -0.000233245, -0.00065283, -0.00326279, -0.0013032, -0.00173831
0.0251062, 0.107552, -0.774381, -0.916733, -1.45697, -0.625336, 1.06988, -0.256692, 0.000498893, -0.00251427, -0.00335819, -0.000555975, 0.000719635, 0.00203566, 0.00852466, 0.170357, 16.2671, 20.752, 16.662, 1.14734, 3.79733, -0.193104, 0.000700409, -0.00165124, 0.0004158, 0.000908082, -0.000494091, 0.000418091, 0.00142396, -0.00068533, -0.00028043, 0.000277654, -0.00250301, -0.00717508, -0.0111104, -0.444722, 0.635034, -3.13186, -0.0555673, -0.107544, -0.0104426, -0.443044, 0.634678, -3.13098, -0.055376, -0.106712, 0.000334905, -0.000269828, -0.000755525, -0.00104115, -0.00100239, -0.00113735
0.0261062, 0.107555, -0.77438, -0.916747, -1.45697, -0.625338, 1.06988, -0.256698, -0.00105392, -0.00112958, -0.00344767, 0.000116853, 0.00149379, 0.00267954, 0.00307937, 0.0949785, 16.0846, 20.6409, 16.4755, 1.11713, 3.76163, -0.101552, 0.000696421, -0.00164948, 0.000420328, 0.000921064, -0.000503369, 0.000421206, 0.00167683, -0.000660265, 0.000166624, 0.00123684, -0.00232677, -0.00291998, -0.0111101, -0.444722, 0.635033, -3.13186, -0.0555684, -0.107547, -0.0104458, -0.443046, 0.634672, -3.13096, -0.0553727, -0.106699, 0.000384079, -0.000308971, -0.000865474, -0.00127559, -0.00102923, -0.000818534
0.0271062, 0.107562, -0.774387, -0.916762, -1.45698, -0.625344, 1.06987, -0.256689, 0.000798097, -0.00274482, -0.00598653, -0.0057256, 0.00183268, 0.00338005, 0.00881463, 0.0196001, 16.0092, 20.4941, 16.4001, 1.09241, 3.7186, -0.140919, 0.000693251, -0.00164774, 0.000428145, 0.000938001, -0.000513821, 0.000431461, 0.000854874, -0.000916443, -0.00227135, -0.00321854, -0.00044825, -0.00514418, -0.0111097, -0.444723, 0.635033, -3.13186, -0.0555696, -0.10755, -0.010448, -0.443048, 0.634663, -3.13095, -0.0553586, -0.106685, 0.000436566, -0.000350653, -0.000982628, -0.000227585, -0.00127701, -0.00331296
0.0281062, 0.107565, -0.774393, -0.916781, -1.45699, -0.625348, 1.06987, -0.256693, 0.00117039, -0.00407204, -0.00868619, -0.00482001, 0.00184093, 0.0035758, 0.00474526, -0.0161054, 15.9378, 20.3791, 16.2494, 1.0741, 3.68289, -0.0878186, 0.000686541, -0.00164457, 0.000434923, 0.000952573, -0.00051976, 0.000438406, 0.00217322, -0.00152192, -0.00267949, -0.00416466, -0.00216981, -0.00276106, -0.0111092, -0.444723, 0.635032, -3.13185, -0.0555709, -0.107554, -0.0104536, -0.443052, 0.634655, -3.13093, -0.0553497, -0.106678, 0.000492356, -0.000394854, -0.00110694, -0.00143666, -0.00196916, -0.00393877
0.0291062, 0.107572, -0.774398, -0.916794, -1.457, -0.625354, 1.06986, -0.256685, 0.00239583, -0.0017731, -0.00906544, -0.00700228, -0.00395292, 0.0029264, 0.00623155, -0.0914839, 15.8624, 20.1926, 16.2137, 1.086, 3.66824, -0.153737, 0.000684709, -0.00164354, 0.000442626, 0.000970052, -0.000535864, 0.000445639, 0.00185373, -0.00193566, -0.003327, -0.00327798, 0.00647144, -0.00449382, -0.0111087, -0.444723, 0.63503, -3.13185, -0.0555724, -0.107558, -0.0104544, -0.443053, 0.634646, -3.13091, -0.0553407, -0.106656, 0.000551439, -0.000441554, -0.00123836, -0.000999937, -0.0024125, -0.00469677
0.0301062, 0.107581, -0.774408, -0.916812, -1.45701, -0.625361, 1.06986, -0.256691, 0.00417772, -0.00581012, -0.0143643, -0.00740404, -0.00822091, -0.00581246, 0.00269157, -0.206535, 15.9021, 20.0815, 16.1383, 1.0979, 3.62521, -0.101552, 0.000678863, -0.00164059, 0.000449418, 0.000984872, -0.000540602, 0.000445551, 0.0057288, -0.00191858, -0.00578616, -0.0127236, 0.0107917, -0.00453555, -0.0111081, -0.444724, 0.635029, -3.13185, -0.0555741, -0.107563, -0.010459, -0.443057, 0.634637, -3.13089, -0.055343, -0.106653, 0.000613805, -0.000490732, -0.00137684, -0.00463333, -0.00255974, -0.00755475
0.0311062, 0.107584, -0.774415, -0.916827, -1.45702, -0.625368, 1.06986, -0.256688, 0.00270208, -0.00459257, -0.0163882, -0.00521166, -0.00598887, -0.00306103, 0.00407965, -0.206535, 15.9021, 19.8951, 16.1026, 1.09241, 3.58218, -0.153737, 0.000673518, -0.00163825, 0.000456276, 0.000996659, -0.000552182, 0.000455465, 0.00644028, -0.00257122, -0.00521354, -0.0109366, 0.00778547, -0.00845964, -0.0111074, -0.444724, 0.635028, -3.13184, -0.055576, -0.107568, -0.0104632, -0.44306, 0.634629, -3.13088, -0.05533, -0.106639, 0.000679445, -0.000542368, -0.00152234, -0.00529294, -0.00329354, -0.00718195
0.0321062, 0.10759, -0.774421, -0.916846, -1.45703, -0.625373, 1.06985, -0.256691, 0.00662367, -0.00584102, -0.0178, -0.00778796, -0.009949, -0.00238815, 0.00128871, -0.281914, 15.8624, 19.8237, 16.1026, 1.11072, 3.57577, -0.10796, 0.00066859, -0.00163585, 0.000464343, 0.00101465, -0.000564197, 0.000458798, 0.00576824, -0.00333198, -0.00635031, -0.0110075, 0.0111814, -0.00284579, -0.0111067, -0.444725, 0.635026, -3.13184, -0.055578, -0.107574, -0.0104667, -0.443063, 0.634619, -3.13086, -0.0553276, -0.106624, 0.000748347, -0.000596442, -0.0016748, -0.00444899, -0.00407441, -0.00842702
0.0331062, 0.107597, -0.774431, -0.916869, -1.45705, -0.625378, 1.06985, -0.256684, 0.00639241, -0.00632578, -0.0172219, -0.0102935, -0.00675021, -0.00175945, 0.00322755, -0.357292, 15.9378, 19.8237, 16.1383, 1.09241, 3.56845, -0.166554, 0.000662434, -0.00163272, 0.000474558, 0.00103646, -0.000574786, 0.000472105, 0.00467691, -0.00275713, -0.00674201, -0.0126025, 0.00978455, -0.00116769, -0.0111059, -0.444726, 0.635024, -3.13184, -0.0555803, -0.10758, -0.0104713, -0.443067, 0.634606, -3.13083, -0.05531, -0.106613, 0.000820503, -0.000652933, -0.00183418, -0.00328243, -0.00351464, -0.00889863
0.0341062, 0.107592, -0.774442, -0.916881, -1.45706, -0.625382, 1.06985, -0.256693, 0.00173039, -0.00638901, -0.0160902, -0.00782782, -0.0046222, -0.00201055, -0.000853078, -0.242241, 16.0092, 19.6729, 16.1383, 1.07959, 3.58218, -0.0814099, 0.000653294, -0.00163176, 0.00047972, 0.00104721, -0.000580464, 0.000475274, 0.0065738, -0.00221893, -0.00538109, -0.0110031, 0.00677624, -0.000511812, -0.0111051, -0.444726, 0.635022, -3.13183, -0.0555828, -0.107587, -0.0104791, -0.443068, 0.634599, -3.13082, -0.0553079, -0.10661, 0.000895902, -0.000711822, -0.00200043, -0.00521062, -0.00311416, -0.00783428
0.0351062, 0.107599, -0.774446, -0.916894, -1.45707, -0.625385, 1.06984, -0.256689, 0.00303686, -0.0101261, -0.0163412, -0.00932784, -0.00737333, -0.00185835, 0.00100087, -0.317619, 15.9735, 19.5618, 16.1383, 1.05578, 3.58951, -0.120778, 0.000651223, -0.00163104, 0.000484916, 0.00105992, -0.000592787, 0.000480729, 0.00748967, -0.0025677, -0.00589695, -0.0106652, 0.00629623, -0.00116086, -0.0111041, -0.444727, 0.63502, -3.13183, -0.0555855, -0.107594, -0.0104799, -0.44307, 0.634591, -3.1308, -0.0553027, -0.106597, 0.000974534, -0.000773089, -0.00217351, -0.00599731, -0.00355172, -0.00858715
0.0361062, 0.107599, -0.77445, -0.916913, -1.45708, -0.625389, 1.06984, -0.256691, 0.0021146, -0.00755995, -0.0160384, -0.00964218, -0.00449219, -0.00274637, -0.000944526, -0.317619, 15.9735, 19.5618, 16.2494, 1.02466, 3.62521, -0.0750012, 0.000645151, -0.00162951, 0.000494114, 0.0010802, -0.000612288, 0.000488434, 0.00655058, -0.00185014, -0.00567705, -0.0120761, 0.0075546, 0.0022942, -0.0111031, -0.444728, 0.635018, -3.13182, -0.0555884, -0.107602, -0.0104842, -0.443072, 0.63458, -3.13078, -0.0552944, -0.106573, 0.00105639, -0.000836713, -0.00235336, -0.00501981, -0.00286709, -0.00847866
0.0371062, 0.107593, -0.774453, -0.916927, -1.4571, -0.625392, 1.06983, -0.256684, -0.00112121, -0.00880985, -0.0138403, -0.007047, -0.00238904, -0.0027835, 0.00136583, -0.206535, 15.9735, 19.4864, 16.2494, 0.993529, 3.64718, -0.127186, 0.000637891, -0.00162876, 0.000499395, 0.00109181, -0.000626021, 0.00050857, 0.00785312, -0.00121149, -0.0040205, -0.00965976, 0.00318204, -0.00120822, -0.011102, -0.444729, 0.635016, -3.13182, -0.0555915, -0.107611, -0.01049, -0.443074, 0.634571, -3.13076, -0.0552668, -0.10656, 0.00114146, -0.000902674, -0.00253994, -0.00636961, -0.00235497, -0.00709827
0.0381062, 0.107599, -0.774456, -0.916946, -1.45711, -0.625391, 1.06983, -0.25669, 0.0010664, -0.00575677, -0.0140044, -0.0113519, -0.000205899, -0.00223102, -0.00121253, -0.281914, 15.9378, 19.4864, 16.3644, 0.945006, 3.65451, -0.0685925, 0.000636284, -0.00162716, 0.000508171, 0.00111042, -0.000642433, 0.000503513, 0.00470359, -0.000743586, -0.00508588, -0.0122001, 0.00738827, 0.00739002, -0.0111008, -0.44473, 0.635013, -3.13181, -0.0555949, -0.10762, -0.0104898, -0.443077, 0.63456, -3.13074, -0.0552788, -0.106542, 0.00122973, -0.000970953, -0.00273321, -0.00308492, -0.00183558, -0.00813497
0.0391062, 0.107594, -0.774458, -0.916968, -1.45713, -0.625396, 1.06983, -0.256681, -0.00101432, -0.00437691, -0.0179838, -0.0126159, -0.00044503, -0.00703489, 0.00115971, -0.206535, 15.9378, 19.5261, 16.4001, 0.945006, 3.67557, -0.120778, 0.000626857, -0.00162542, 0.000516339, 0.00112899, -0.000664167, 0.000531524, 0.00685048, -0.000428107, -0.0067062, -0.0188784, 0.0126378, 0.00117851, -0.0110996, -0.444731, 0.63501, -3.1318, -0.0555986, -0.10763, -0.0104973, -0.44308, 0.634548, -3.13071, -0.0552397, -0.106517, 0.00132119, -0.00104153, -0.00293311, -0.00503417, -0.00165239, -0.010097
0.0401062, 0.107594, -0.774459, -0.916985, -1.45714, -0.6254, 1.06983, -0.256685, -0.000647731, -0.00332224, -0.0199298, -0.0100234, -5.27921e-05, -0.00568181, -0.000895813, -0.206535, 15.9378, 19.5261, 16.4359, 0.932189, 3.69021, -0.0750012, 0.000622173, -0.00162357, 0.000522026, 0.00113885, -0.000682188, 0.00053783, 0.00738946, -0.00107597, -0.00611122, -0.017229, 0.0113992, 0.0017306, -0.0110982, -0.444732, 0.635007, -3.1318, -0.0556025, -0.107641, -0.0105001, -0.443083, 0.634539, -3.1307, -0.0552343, -0.106499, 0.00141584, -0.00111438, -0.0031396, -0.00549446, -0.00239679, -0.0097511
0.0411062, 0.107592, -0.774459, -0.917002, -1.45716, -0.625403, 1.06982, -0.256682, -0.00133848, -0.00335327, -0.0189623, -0.015049, 0.000232497, -0.00571858, 0.000168626, -0.166862, 15.9735, 19.5618, 16.4755, 0.920287, 3.73324, -0.0951428, 0.000616151, -0.00162287, 0.000528239, 0.00115269, -0.00070423, 0.000552584, 0.00637706, -0.000438894, -0.00713275, -0.0190949, 0.0146922, 0.00421356, -0.0110967, -0.444733, 0.635004, -3.13179, -0.0556067, -0.107652, -0.0105042, -0.443085, 0.634529, -3.13068, -0.0552161, -0.106475, 0.00151366, -0.0011895, -0.00335263, -0.00433999, -0.00179071, -0.0109097
0.0421062, 0.107592, -0.774462, -0.91702, -1.45718, -0.625407, 1.06982, -0.256684, -0.000876296, -0.00506139, -0.0173169, -0.017169, 0.00046597, -0.00538757, -0.00061868, -0.166862, 16.0846, 19.5618, 16.5866, 0.908385, 3.76895, -0.0750012, 0.000611628, -0.00162298, 0.000537254, 0.00117374, -0.000731017, 0.000556609, 0.00572515, 1.06795e-05, -0.00713367, -0.018747, 0.014259, 0.00872403, -0.0110952, -0.444734, 0.635, -3.13178, -0.0556111, -0.107664, -0.0105065, -0.443086, 0.634517, -3.13065, -0.0552152, -0.106444, 0.00161465, -0.00126685, -0.00357216, -0.00360497, -0.00139579, -0.0110825
0.0431062, 0.107584, -0.77446, -0.917039, -1.45719, -0.62541, 1.06981, -0.256686, -0.00317064, -0.000457404, -0.0178045, -0.0157688, 0.000687986, -0.00537498, -0.00111336, -0.0557783, 16.0846, 19.6372, 16.5866, 0.895568, 3.81198, -0.0557752, 0.000602962, -0.00162244, 0.000544039, 0.00119005, -0.000757678, 0.000573775, 0.00582663, 9.89176e-05, -0.00637243, -0.0174247, 0.0180851, 0.00676627, -0.0110935, -0.444735, 0.634997, -3.13177, -0.0556159, -0.107677, -0.010513, -0.443088, 0.634506, -3.13063, -0.055194, -0.106414, 0.00171879, -0.00134642, -0.00379814, -0.00365726, -0.00139732, -0.0105556
0.0441062, 0.107581, -0.774455, -0.917058, -1.45721, -0.625414, 1.06981, -0.256685, -0.00303277, 0.000659644, -0.0179698, -0.0185375, -0.00401573, -0.00372549, -0.000259151, -0.0161054, 16.0489, 19.7086, 16.5866, 0.889159, 3.81198, -0.0685925, 0.000598501, -0.00162185, 0.000550751, 0.00120418, -0.000789355, 0.000587778, 0.00573903, -0.00048994, -0.00684309, -0.0150353, 0.0240676, 0.00594005, -0.0110917, -0.444737, 0.634993, -3.13176, -0.0556209, -0.107691, -0.0105152, -0.44309, 0.634495, -3.13061, -0.055178, -0.106377, 0.00182607, -0.00142819, -0.00403052, -0.00340929, -0.00206035, -0.0112552
0.0451062, 0.107576, -0.774454, -0.917075, -1.45723, -0.625418, 1.0698, -0.256685, -0.00377832, 0.000536784, -0.0141622, -0.0205749, -0.00735623, -0.00697019, -0.000166487, 0.059273, 16.0489, 19.7483, 16.5866, 0.877257, 3.80466, -0.0685925, 0.000591553, -0.00162139, 0.000556821, 0.00121728, -0.000816003, 0.00060303, 0.00554783, 0.000688065, -0.00640184, -0.0145139, 0.0295933, 0.00832193, -0.0110899, -0.444738, 0.634989, -3.13175, -0.0556263, -0.107706, -0.0105198, -0.443092, 0.634484, -3.13058, -0.0551603, -0.106349, 0.00193648, -0.00151214, -0.00426926, -0.00318051, -0.000964131, -0.0110332
0.0461062, 0.107571, -0.774457, -0.917089, -1.45725, -0.625415, 1.0698, -0.256681, -0.00334903, -0.00123981, -0.0103822, -0.0179758, -0.00538767, -0.0056569, 0.00111442, 0.0949785, 16.1203, 19.7483, 16.5509, 0.870848, 3.8193, -0.101552, 0.000586598, -0.00162242, 0.000561881, 0.00123015, -0.000835814, 0.000614762, 0.00479154, 0.00128474, -0.00424572, -0.01002, 0.0241481, 0.0108581, -0.0110879, -0.44474, 0.634984, -3.13174, -0.0556319, -0.107721, -0.0105225, -0.443093, 0.634474, -3.13056, -0.0551482, -0.106333, 0.00205002, -0.00159825, -0.00451432, -0.00248201, -0.000446073, -0.00907159
0.0471062, 0.107569, -0.774449, -0.917108, -1.45726, -0.625417, 1.0698, -0.256684, -0.00399212, 6.32499e-05, -0.0134534, -0.0195158, -0.00862042, -0.00439321, -0.00122021, 0.170357, 16.0846, 19.8594, 16.5112, 0.865355, 3.82663, -0.0484509, 0.000583029, -0.00162239, 0.000567645, 0.00124395, -0.000869814, 0.000623999, 0.00594214, 0.000327297, -0.00515268, -0.00970557, 0.0287468, 0.0103732, -0.0110858, -0.444741, 0.63498, -3.13173, -0.0556379, -0.107738, -0.0105235, -0.443095, 0.634464, -3.13054, -0.0551405, -0.106295, 0.00216668, -0.00168649, -0.00476563, -0.00341607, -0.00152372, -0.0103129
0.0481062, 0.107566, -0.77445, -0.917117, -1.45729, -0.625423, 1.06979, -0.256678, -0.00358658, -0.00075212, -0.0110769, -0.0190554, -0.00722156, -0.00370044, 0.00186794, 0.21003, 16.1203, 19.784, 16.5509, 0.883666, 3.84036, -0.120778, 0.000579964, -0.00162388, 0.000572771, 0.0012523, -0.000902633, 0.000634795, 0.00509368, 0.000859818, -0.00405329, -0.00750161, 0.02648, 0.0108794, -0.0110835, -0.444743, 0.634975, -3.13172, -0.0556442, -0.107755, -0.0105241, -0.443095, 0.634453, -3.13052, -0.0551305, -0.10626, 0.00228643, -0.00177687, -0.00502317, -0.00254476, -0.00106161, -0.00941202
0.0491062, 0.10756, -0.774448, -0.917138, -1.4573, -0.625428, 1.06979, -0.256688, -0.00415215, -0.000470715, -0.0169796, -0.01954, -0.0110131, -0.00734828, -0.00166884, 0.285408, 16.1203, 19.8951, 16.4755, 0.908385, 3.84036, -0.0420422, 0.000571022, -0.0016229, 0.000577368, 0.00126256, -0.000931323, 0.000646553, 0.0082859, 9.85467e-05, -0.00590236, -0.0124798, 0.0324173, 0.00875578, -0.0110812, -0.444745, 0.634969, -3.13171, -0.0556509, -0.107773, -0.0105303, -0.443098, 0.634443, -3.1305, -0.0551194, -0.106233, 0.00240928, -0.00186934, -0.00528689, -0.00545048, -0.0020111, -0.011745
0.0501062, 0.107555, -0.774447, -0.917153, -1.45732, -0.625431, 1.06979, -0.256676, -0.00369452, -0.000290787, -0.0134006, -0.0165199, -0.0090622, -0.0057084, 0.00180505, 0.325081, 16.1203, 19.9347, 16.4001, 0.932189, 3.84768, -0.120778, 0.000564044, -0.00162361, 0.000581321, 0.00127253, -0.00096067, 0.000673038, 0.00705341, 0.000619988, -0.00354935, -0.00740162, 0.0285436, 0.00883662, -0.0110787, -0.444747, 0.634964, -3.1317, -0.0556578, -0.107792, -0.0105345, -0.443099, 0.634433, -3.13048, -0.0550858, -0.106205, 0.00253522, -0.00196389, -0.00555673, -0.00427573, -0.00156171, -0.00957943
0.0511062, 0.107552, -0.774445, -0.917172, -1.45734, -0.625441, 1.06978, -0.256678, -0.00329703, -0.00110461, -0.0178456, -0.0202982, -0.00782323, -0.00393804, 0.000255051, 0.360787, 16.16, 20.0101, 16.4359, 0.963317, 3.84036, -0.0951428, 0.000557789, -0.00162272, 0.000587334, 0.00128025, -0.000998976, 0.000686061, 0.0074456, -0.000109584, -0.00557008, -0.0109432, 0.0289487, 0.0109486, -0.0110761, -0.444749, 0.634958, -3.13168, -0.0556652, -0.107812, -0.0105377, -0.443102, 0.634421, -3.13046, -0.0550733, -0.106165, 0.00266423, -0.00206051, -0.00583265, -0.00437294, -0.00238349, -0.011903
0.0521062, 0.107548, -0.774448, -0.917187, -1.45736, -0.625447, 1.06978, -0.256677, -0.00396035, -0.00239389, -0.0193539, -0.0196824, -0.0059245, -0.00265688, 0.000408231, 0.436165, 16.2314, 20.0101, 16.4755, 0.969725, 3.83304, -0.101552, 0.000551636, -0.00162271, 0.000592235, 0.00128651, -0.00102899, 0.000698076, 0.00834408, -0.00036103, -0.00543746, -0.0107939, 0.0256334, 0.0106169, -0.0110734, -0.444751, 0.634952, -3.13167, -0.0556729, -0.107834, -0.0105408, -0.443105, 0.63441, -3.13045, -0.0550628, -0.106139, 0.0027963, -0.00215917, -0.00611461, -0.00513669, -0.00276623, -0.0121162
0.0531062, 0.107549, -0.774451, -0.917205, -1.45738, -0.625452, 1.06978, -0.256679, -0.00263956, -0.00334945, -0.0190633, -0.0181088, -0.0043034, -0.00199834, -0.000473202, 0.436165, 16.3068, 20.0815, 16.4755, 0.969725, 3.83304, -0.0814099, 0.000545917, -0.00162277, 0.000598042, 0.00129792, -0.0010612, 0.000705711, 0.00800882, -0.000285654, -0.00459706, -0.00946112, 0.0224916, 0.0140647, -0.0110705, -0.444753, 0.634946, -3.13166, -0.0556809, -0.107856, -0.0105432, -0.443107, 0.634397, -3.13042, -0.0550595, -0.10611, 0.00293143, -0.00225986, -0.00640257, -0.00472759, -0.00278713, -0.0115423
0.0541062, 0.107544, -0.774443, -0.917222, -1.45739, -0.625457, 1.06978, -0.256676, -0.00352244, -0.000462446, -0.0203005, -0.0154407, -0.00221871, -0.00231634, 0.000430989, 0.511544, 16.2314, 20.0815, 16.4001, 0.945006, 3.85501, -0.101552, 0.000539372, -0.00162301, 0.000599957, 0.00130185, -0.00109955, 0.000727465, 0.00821245, -0.000198524, -0.00372797, -0.00911252, 0.0226737, 0.0120391, -0.0110675, -0.444756, 0.63494, -3.13164, -0.0556894, -0.107879, -0.0105466, -0.443109, 0.634389, -3.13041, -0.0550345, -0.106072, 0.00306961, -0.00236255, -0.00669647, -0.00485514, -0.00281757, -0.0109828
0.0551062, 0.107542, -0.774445, -0.917237, -1.45742, -0.625462, 1.06978, -0.256673, -0.00234791, -0.00206607, -0.0212603, -0.0160598, -0.00144076, -0.00194323, 0.000287679, 0.511544, 16.3068, 20.0815, 16.4359, 0.938597, 3.86233, -0.101552, 0.000533899, -0.00162376, 0.000603613, 0.00130701, -0.00113235, 0.000740587, 0.00828596, -0.000278867, -0.00394429, -0.00970062, 0.0211688, 0.0144175, -0.0110644, -0.444758, 0.634933, -3.13162, -0.0556982, -0.107903, -0.0105487, -0.443111, 0.634378, -3.13039, -0.0550233, -0.106045, 0.00321082, -0.00246723, -0.00699628, -0.00476943, -0.0030032, -0.0115041
0.0561062, 0.107541, -0.774439, -0.917257, -1.45743, -0.625466, 1.06978, -0.256677, -0.00156499, 0.00263613, -0.0198752, -0.0147183, 0.000246596, -0.00139129, -0.00150337, 0.511544, 16.2671, 20.1212, 16.4001, 0.901976, 3.86233, -0.0557752, 0.000528297, -0.00162307, 0.000606253, 0.00131062, -0.00116856, 0.000753043, 0.00607472, 0.000194351, -0.00262844, -0.00743109, 0.0237953, 0.019275, -0.0110611, -0.444761, 0.634926, -3.13161, -0.0557074, -0.107928, -0.0105508, -0.443115, 0.634368, -3.13037, -0.0550135, -0.106013, 0.00335505, -0.00257388, -0.00730195, -0.00252783, -0.0025706, -0.0103417
0.0571062, 0.107544, -0.774439, -0.917271, -1.45746, -0.625471, 1.06978, -0.256673, -0.000207893, 0.00431208, -0.0169751, -0.0173011, 0.00052719, -0.00127065, 0.000456015, 0.475838, 16.3068, 20.0815, 16.5112, 0.889159, 3.86966, -0.0951428, 0.000526654, -0.00162442, 0.000610664, 0.00131702, -0.00120795, 0.000760513, 0.00355153, 0.00104297, -0.00223936, -0.00636862, 0.0271887, 0.0234767, -0.0110577, -0.444763, 0.634918, -3.13159, -0.055717, -0.107955, -0.0105488, -0.443116, 0.634356, -3.13035, -0.0550119, -0.105977, 0.0035023, -0.00268248, -0.00761342, 7.79658e-05, -0.0017456, -0.0100857
0.0581062, 0.107543, -0.774438, -0.917289, -1.45746, -0.625479, 1.06977, -0.256677, -0.000973653, 0.00477582, -0.015916, -0.0127523, -0.00442761, -0.00113835, -0.0011539, 0.511544, 16.3782, 20.0815, 16.3644, 0.889159, 3.87607, -0.0557752, 0.000517011, -0.00162396, 0.000610202, 0.00131541, -0.00123976, 0.000777466, 0.00543332, 0.000522657, -0.00017255, -0.000120103, 0.0287644, 0.0215788, -0.0110541, -0.444766, 0.63491, -3.13157, -0.055727, -0.107982, -0.0105548, -0.443119, 0.634348, -3.13034, -0.0549957, -0.105955, 0.00365255, -0.002793, -0.00793067, -0.00177128, -0.00246081, -0.00847431
0.0591062, 0.107544, -0.774432, -0.917308, -1.45749, -0.625483, 1.06977, -0.256672, 0.000186237, 0.00696469, -0.0181749, -0.0158436, -0.0074611, -0.000799313, 0.000926264, 0.475838, 16.3782, 20.0815, 16.4755, 0.870848, 3.87607, -0.101552, 0.000514298, -0.00162467, 0.000614551, 0.00132254, -0.00128479, 0.000791785, 0.00502607, 7.98832e-06, -0.0013503, -0.000951679, 0.0356502, 0.0202487, -0.0110504, -0.444769, 0.634902, -3.13155, -0.0557374, -0.108011, -0.0105535, -0.443122, 0.634335, -3.13031, -0.0549843, -0.105912, 0.0038058, -0.00290544, -0.00825364, -0.00111261, -0.00306275, -0.00994751
0.0601062, 0.107543, -0.774433, -0.917325, -1.4575, -0.625488, 1.06977, -0.256678, -0.00071097, 0.00359936, -0.0167899, -0.0127367, -0.00550572, -0.00110572, -0.00158645, 0.511544, 16.4536, 20.0815, 16.3644, 0.865355, 3.89071, -0.0420422, 0.000505556, -0.00162489, 0.000613487, 0.00131983, -0.00131395, 0.000803474, 0.00642275, 0.000433289, 0.000204486, 0.00101903, 0.02933, 0.0234749, -0.0110465, -0.444772, 0.634894, -3.13154, -0.0557483, -0.10804, -0.0105585, -0.443125, 0.634327, -3.1303, -0.054977, -0.105897, 0.00396204, -0.00301977, -0.00858229, -0.00247095, -0.00281522, -0.00881888
0.0611062, 0.107549, -0.774432, -0.917338, -1.45752, -0.625493, 1.06977, -0.256671, 0.00128933, 0.00525579, -0.01711, -0.0165477, -0.00422181, -0.000759883, 0.00138383, 0.436165, 16.4893, 20.0101, 16.5112, 0.865355, 3.89071, -0.10796, 0.000504832, -0.00162639, 0.00061589, 0.00132154, -0.00135558, 0.00081203, 0.0041918, 0.000800333, -0.000674546, -0.000938413, 0.0328129, 0.0260515, -0.0110424, -0.444775, 0.634885, -3.13152, -0.0557596, -0.108071, -0.010555, -0.443126, 0.634316, -3.13028, -0.0549753, -0.105862, 0.00412125, -0.00313597, -0.00891658, -4.01975e-05, -0.00247808, -0.00987377
0.0621062, 0.107549, -0.774427, -0.91736, -1.45754, -0.625497, 1.06977, -0.256678, 0.000859602, 0.003336, -0.0201271, -0.0166893, -0.00757918, -0.00106617, -0.0015188, 0.436165, 16.525, 20.0458, 16.5509, 0.858946, 3.90536, -0.0420422, 0.000499214, -0.00162612, 0.000617899, 0.0013226, -0.00139698, 0.000820695, 0.00673026, -6.33932e-06, -0.00131137, -0.00118628, 0.0342938, 0.0259419, -0.0110382, -0.444778, 0.634876, -3.13149, -0.0557713, -0.108103, -0.0105563, -0.44313, 0.634305, -3.13026, -0.0549738, -0.105829, 0.00428343, -0.00325403, -0.00925645, -0.0023361, -0.00348618, -0.0110296
0.0631062, 0.107551, -0.774423, -0.917376, -1.45755, -0.625503, 1.06977, -0.256668, 0.000573106, 0.00490947, -0.0174511, -0.0156927, -0.00598265, -0.000994838, 0.00119155, 0.436165, 16.5646, 20.0101, 16.5509, 0.865355, 3.91269, -0.101552, 0.000493788, -0.0016265, 0.000616369, 0.00131676, -0.00143527, 0.000845116, 0.00554125, 0.00078854, 0.000181904, 0.00127689, 0.0343281, 0.0264992, -0.0110339, -0.444781, 0.634867, -3.13147, -0.0557834, -0.108137, -0.0105574, -0.443133, 0.634296, -3.13025, -0.054948, -0.105803, 0.00444857, -0.00337392, -0.00960188, -0.00111675, -0.00278318, -0.00979815
0.0641062, 0.107555, -0.774419, -0.917393, -1.45757, -0.625505, 1.06977, -0.256676, 0.00214534, 0.0061721, -0.0154656, -0.0167941, -0.00847611, -0.000672816, -0.00090103, 0.360787, 16.6003, 19.9705, 16.6223, 0.846129, 3.91269, -0.0557752, 0.000490537, -0.00162826, 0.000616562, 0.00131744, -0.00147768, 0.000846493, 0.00419001, 0.00101381, 0.000798993, 0.00400435, 0.0384411, 0.0323253, -0.0110293, -0.444785, 0.634857, -3.13145, -0.055796, -0.108171, -0.0105562, -0.443135, 0.634286, -3.13023, -0.0549587, -0.105771, 0.00461665, -0.00349563, -0.0099528, 0.000347933, -0.00263765, -0.00943872
0.0651062, 0.107557, -0.774416, -0.91741, -1.45758, -0.625508, 1.06977, -0.256674, 0.00457869, 0.00317869, -0.0148372, -0.0168479, -0.00690502, -0.000455738, 0.00011141, 0.360787, 16.6718, 19.9705, 16.662, 0.858946, 3.91269, -0.0750012, 0.000485522, -0.00162956, 0.000615761, 0.00131477, -0.0015185, 0.000860715, 0.00362271, 0.00128069, 0.00116164, 0.00419618, 0.0346768, 0.0363131, -0.0110246, -0.444788, 0.634847, -3.13143, -0.055809, -0.108207, -0.0105566, -0.443137, 0.634277, -3.13021, -0.0549497, -0.105743, 0.00478767, -0.00361914, -0.0103092, 0.00104997, -0.00247774, -0.00939244
0.0661062, 0.107562, -0.774413, -0.917426, -1.4576, -0.625505, 1.06976, -0.256669, 0.00415006, 0.0017419, -0.0143434, -0.015813, -0.00403513, -0.000817846, 0.000820274, 0.325081, 16.7114, 19.9705, 16.662, 0.827819, 3.92642, -0.0951428, 0.000482681, -0.00163181, 0.000614459, 0.00131433, -0.00155436, 0.000872372, 0.00392448, 0.00181925, 0.00191724, 0.00415244, 0.0310567, 0.0377266, -0.0110198, -0.444792, 0.634836, -3.1314, -0.0558225, -0.108244, -0.0105547, -0.443139, 0.634267, -3.13019, -0.0549453, -0.105724, 0.00496161, -0.00374443, -0.010671, 0.000851652, -0.00208238, -0.00901785
0.0671062, 0.107563, -0.774402, -0.917444, -1.45761, -0.625508, 1.06976, -0.256673, 0.0029635, 0.0033376, -0.0139065, -0.0152159, -0.00292514, -0.00136308, -0.00118247, 0.325081, 16.636, 19.9705, 16.662, 0.822325, 3.94839, -0.0484509, 0.000478461, -0.00163354, 0.000612519, 0.00131077, -0.0016039, 0.000884076, 0.00393381, 0.00229491, 0.00264825, 0.00472726, 0.0321749, 0.0404457, -0.0110147, -0.444796, 0.634825, -3.13138, -0.0558365, -0.108282, -0.0105541, -0.443141, 0.634258, -3.13017, -0.0549412, -0.105685, 0.00513848, -0.00387148, -0.0110382, 0.000951715, -0.00174113, -0.00865336
0.0681062, 0.107566, -0.774396, -0.917455, -1.45762, -0.625508, 1.06977, -0.256669, 0.00212326, 0.00570161, -0.0141743, -0.0113099, -0.00204161, -0.000640487, 0.000669758, 0.325081, 16.636, 19.8594, 16.662, 0.815917, 3.94107, -0.0878186, 0.000476598, -0.00163569, 0.000607642, 0.00129733, -0.00164363, 0.000897168, 0.0043824, 0.00218147, 0.00432243, 0.00793532, 0.0314814, 0.0373295, -0.0110095, -0.4448, 0.634814, -3.13135, -0.055851, -0.108322, -0.0105511, -0.443143, 0.634252, -3.13016, -0.054935, -0.105663, 0.00531825, -0.00400028, -0.0114107, 0.000572825, -0.00201448, -0.00738759
0.0691062, 0.107568, -0.774392, -0.917472, -1.45764, -0.625511, 1.06976, -0.256674, 0.0015262, 0.00346212, -0.0108734, -0.0127497, -0.00137037, -0.000700535, -0.00148627, 0.325081, 16.6718, 19.8594, 16.6977, 0.809508, 3.94839, -0.0356336, 0.000471921, -0.00163804, 0.000606166, 0.00129458, -0.00169037, 0.000902917, 0.00399182, 0.00310303, 0.00514049, 0.00953964, 0.0300787, 0.0438537, -0.0110041, -0.444804, 0.634803, -3.13133, -0.0558659, -0.108363, -0.0105506, -0.443145, 0.634241, -3.13014, -0.0549412, -0.105631, 0.00550092, -0.0041308, -0.0117885, 0.00105527, -0.00121785, -0.0069162
0.0701062, 0.107574, -0.774386, -0.917496, -1.45765, -0.625513, 1.06976, -0.256671, 0.00202851, 0.00578102, -0.0131808, -0.0120636, -0.00133594, -0.00124862, 0.000229862, 0.285408, 16.6718, 19.9347, 16.662, 0.815917, 3.96945, -0.0685925, 0.000465802, -0.00163891, 0.000604217, 0.00129224, -0.00173595, 0.000923522, 0.00415553, 0.00289738, 0.00510965, 0.00883193, 0.0328375, 0.0419446, -0.0109985, -0.444808, 0.634791, -3.1313, -0.0558813, -0.108405, -0.0105513, -0.443148, 0.634231, -3.13012, -0.0549247, -0.105602, 0.00568647, -0.00426302, -0.0121715, 0.00108695, -0.00156127, -0.00734275
0.0711062, 0.107575, -0.774379, -0.91751, -1.45766, -0.625511, 1.06976, -0.256669, 0.0014146, 0.00760806, -0.0151565, -0.0114743, -0.00485645, -0.000562429, 0.000627963, 0.285408, 16.6718, 19.8951, 16.6223, 0.791197, 3.96213, -0.0814099, 0.000461615, -0.00164173, 0.000598432, 0.00128083, -0.00177651, 0.000937883, 0.00540263, 0.00215183, 0.00527369, 0.0109731, 0.0372237, 0.0388584, -0.0109927, -0.444812, 0.634778, -3.13127, -0.0558972, -0.108449, -0.0105502, -0.44315, 0.634224, -3.1301, -0.0549181, -0.105583, 0.00587491, -0.00439694, -0.0125597, 4.73678e-05, -0.00248604, -0.00765883
0.0721062, 0.107573, -0.774377, -0.917534, -1.45767, -0.625514, 1.06976, -0.256673, -0.00077347, 0.00574324, -0.0164098, -0.0121799, -0.0048898, -0.00064718, -0.000802059, 0.360787, 16.6718, 19.9705, 16.6223, 0.822325, 3.96945, -0.0484509, 0.000450355, -0.00164256, 0.000595972, 0.00127503, -0.00182105, 0.00096022, 0.00736595, 0.00212761, 0.00509694, 0.0104975, 0.0364786, 0.0389441, -0.0109867, -0.444817, 0.634765, -3.13124, -0.0559137, -0.108494, -0.0105556, -0.443154, 0.634213, -3.13008, -0.0548999, -0.105558, 0.00606621, -0.00453252, -0.0129531, -0.00170578, -0.00271386, -0.00836494
0.0731062, 0.107584, -0.774372, -0.917547, -1.45769, -0.625513, 1.06976, -0.25667, 0.00221064, 0.00433222, -0.0135993, -0.012708, -0.0031596, -0.000432173, 0.00044864, 0.245735, 16.6718, 19.8951, 16.6223, 0.809508, 3.96945, -0.0750012, 0.000450559, -0.00164502, 0.000590201, 0.0012613, -0.00186318, 0.000965596, 0.0052626, 0.00289926, 0.00602014, 0.0119194, 0.0344471, 0.0453747, -0.0109806, -0.444821, 0.634752, -3.13121, -0.0559306, -0.108541, -0.0105497, -0.443156, 0.634206, -3.13007, -0.0549082, -0.10554, 0.00626038, -0.00466976, -0.0133516, 0.000493674, -0.00201428, -0.00769155
0.0741062, 0.107589, -0.774371, -0.917566, -1.4577, -0.625516, 1.06976, -0.256671, 0.00844426, 0.0032657, -0.0134565, -0.0104913, -0.00218379, -0.00083119, -0.00115897, 0.21003, 16.6718, 19.8951, 16.662, 0.804015, 3.9841, -0.0356336, 0.000444487, -0.00164761, 0.000586967, 0.00125587, -0.00191143, 0.000977258, 0.00326314, 0.0029335, 0.00688711, 0.0127623, 0.032003, 0.0541212, -0.0109742, -0.444826, 0.634739, -3.13118, -0.055948, -0.108588, -0.0105498, -0.443158, 0.634195, -3.13005, -0.0549075, -0.105512, 0.00645739, -0.00480863, -0.0137552, 0.00262271, -0.00205641, -0.00709138
0.0751062, 0.107587, -0.774365, -0.917587, -1.45772, -0.625518, 1.06976, -0.256666, 0.00439506, 0.00329551, -0.0187317, -0.00781266, -0.0021073, -1.19973e-05, 0.0014314, 0.285408, 16.636, 19.8594, 16.662, 0.815917, 3.96945, -0.0951428, 0.000435269, -0.00164927, 0.0005822, 0.00124446, -0.0019598, 0.00100535, 0.00735841, 0.00186595, 0.00682097, 0.0126055, 0.0305958, 0.0436346, -0.0109676, -0.444831, 0.634725, -3.13115, -0.055966, -0.108638, -0.0105528, -0.443162, 0.634185, -3.13003, -0.0548817, -0.105486, 0.00665724, -0.00494912, -0.0141638, -0.00121752, -0.00340839, -0.0078576
0.0761062, 0.107596, -0.774357, -0.917618, -1.45772, -0.625517, 1.06976, -0.256674, 0.00508987, 0.00407982, -0.0230697, -0.0111641, -0.00112203, -0.000279569, -0.00124978, 0.21003, 16.5646, 19.9705, 16.5866, 0.804015, 3.97677, -0.0356336, 0.000427595, -0.00164872, 0.000577582, 0.0012352, -0.0020045, 0.0010209, 0.00751786, 0.0015489, 0.00497462, 0.00807752, 0.0337236, 0.047413, -0.0109609, -0.444836, 0.63471, -3.13111, -0.0559845, -0.108688, -0.010554, -0.443168, 0.634175, -3.13001, -0.0548759, -0.105468, 0.00685993, -0.0050912, -0.0145774, -0.0010349, -0.00385604, -0.0101265
0.0771062, 0.107602, -0.774351, -0.917637, -1.45773, -0.625518, 1.06976, -0.256669, 0.00461871, 0.00380718, -0.024802, -0.0111539, -0.00106995, 8.46599e-05, 0.000862237, 0.170357, 16.525, 19.8951, 16.5509, 0.809508, 3.96945, -0.0814099, 0.000421791, -0.00165121, 0.000570977, 0.0012225, -0.00205341, 0.00104155, 0.00849002, 0.00131407, 0.00495201, 0.00809002, 0.0338809, 0.0450665, -0.0109539, -0.444841, 0.634696, -3.13108, -0.0560035, -0.108741, -0.0105533, -0.443171, 0.634167, -3.12999, -0.0548627, -0.105444, 0.00706543, -0.00523486, -0.0149959, -0.00178874, -0.00426887, -0.010637
0.0781062, 0.107599, -0.77435, -0.91766, -1.45774, -0.625522, 1.06976, -0.256672, 0.000610961, 0.00265758, -0.02414, -0.0120628, -0.00103952, 0.000327536, -0.000374611, 0.285408, 16.525, 19.8594, 16.5509, 0.815917, 3.96213, -0.0557752, 0.000409514, -0.00165288, 0.000565591, 0.00120984, -0.00210211, 0.00106607, 0.0103481, 0.00169496, 0.00540002, 0.00922654, 0.0337097, 0.0448452, -0.0109468, -0.444846, 0.63468, -3.13105, -0.0560231, -0.108794, -0.0105589, -0.443175, 0.634156, -3.12997, -0.054844, -0.105422, 0.00727374, -0.00538009, -0.0154193, -0.00347775, -0.00410379, -0.0107403
0.0791062, 0.107613, -0.77435, -0.917685, -1.45775, -0.62552, 1.06976, -0.256667, 0.00326588, 0.00186131, -0.02435, -0.0125574, -0.000997019, -0.000595573, 0.000224978, 0.170357, 16.525, 19.8594, 16.5509, 0.822325, 3.9841, -0.0685925, 0.000404102, -0.00165412, 0.000560426, 0.00120011, -0.0021458, 0.00108215, 0.00964791, 0.00192785, 0.0054387, 0.00859811, 0.0342975, 0.0485796, -0.0109394, -0.444852, 0.634665, -3.13101, -0.0560432, -0.10885, -0.0105573, -0.443179, 0.634145, -3.12995, -0.054839, -0.105409, 0.00748486, -0.00552686, -0.0158476, -0.00257982, -0.00399368, -0.01108
0.0801062, 0.107617, -0.774345, -0.917713, -1.45776, -0.62552, 1.06976, -0.256672, 0.00230273, 0.00297851, -0.0277093, -0.011262, -0.000714663, 0.000416658, -0.000596, 0.170357, 16.4536, 19.8594, 16.4755, 0.822325, 3.96213, -0.0484509, 0.000393445, -0.00165506, 0.000553179, 0.00118649, -0.00219206, 0.00110465, 0.0110986, 0.00125598, 0.00548404, 0.00889236, 0.0345907, 0.0469373, -0.0109318, -0.444858, 0.634649, -3.13097, -0.0560639, -0.108906, -0.0105609, -0.443184, 0.634136, -3.12993, -0.0548244, -0.105395, 0.00769877, -0.00567515, -0.0162807, -0.00379134, -0.00486559, -0.0115739
0.0811062, 0.10762, -0.774342, -0.917736, -1.45777, -0.625525, 1.06976, -0.256669, 0.00385591, 0.00287129, -0.0276478, -0.0119998, -0.0011921, 0.0002777, 0.00082337, 0.21003, 16.4178, 19.7483, 16.4755, 0.840636, 3.96213, -0.0814099, 0.000383143, -0.00165707, 0.000546445, 0.00117125, -0.00224608, 0.00113131, 0.0105612, 0.00140216, 0.00566357, 0.00935488, 0.036016, 0.0488688, -0.010924, -0.444863, 0.634632, -3.13094, -0.0560851, -0.108965, -0.0105639, -0.443189, 0.634125, -3.12991, -0.054804, -0.105369, 0.00791545, -0.00582496, -0.0167186, -0.0030568, -0.00485229, -0.0117946
0.0821062, 0.107629, -0.774335, -0.91777, -1.45779, -0.625524, 1.06976, -0.256668, 0.00697065, 0.00371523, -0.0312295, -0.0108909, -0.000348131, 0.000185079, 0.000786272, 0.170357, 16.3425, 19.784, 16.5509, 0.827819, 3.96213, -0.0878186, 0.000375068, -0.00165777, 0.000543574, 0.00116654, -0.0023046, 0.00115389, 0.0103398, 0.000853306, 0.00536688, 0.00791765, 0.0363443, 0.0507408, -0.010916, -0.444869, 0.634615, -3.1309, -0.0561069, -0.109025, -0.0105641, -0.443194, 0.634111, -3.12988, -0.0547909, -0.105337, 0.00813491, -0.00597625, -0.0171612, -0.00257637, -0.00554172, -0.012522
0.0831062, 0.107632, -0.77433, -0.917801, -1.45779, -0.625531, 1.06976, -0.256673, 0.00654644, 0.00334038, -0.035285, -0.010607, -0.0011687, 0.000360704, -0.00117124, 0.245735, 16.3068, 19.7483, 16.5112, 0.852538, 3.95572, -0.0420422, 0.000361464, -0.00165778, 0.000536737, 0.00115049, -0.00236104, 0.00118257, 0.0123323, 9.42211e-05, 0.0047763, 0.00684171, 0.0371197, 0.0502883, -0.0109077, -0.444875, 0.634598, -3.13086, -0.0561293, -0.109086, -0.0105699, -0.443201, 0.634099, -3.12986, -0.0547684, -0.105311, 0.00835714, -0.00612902, -0.0176085, -0.00427237, -0.00651851, -0.0137031
0.0841062, 0.107652, -0.774319, -0.917835, -1.4578, -0.625532, 1.06976, -0.256666, 0.0146182, 0.00804681, -0.0350473, -0.00799142, -0.00079495, -0.000539454, 0.000677236, 0.0949785, 16.1957, 19.7086, 16.5112, 0.852538, 3.97677, -0.0814099, 0.000357079, -0.00165841, 0.000531538, 0.00114221, -0.00242367, 0.001206, 0.0080151, 0.000239086, 0.00595448, 0.00818699, 0.0409642, 0.0571519, -0.0108992, -0.444881, 0.63458, -3.13082, -0.0561522, -0.109149, -0.0105662, -0.443206, 0.634087, -3.12983, -0.054755, -0.105277, 0.00858211, -0.00628324, -0.0180604, 0.000169334, -0.00638628, -0.0126781
0.0851062, 0.107661, -0.774316, -0.917873, -1.45781, -0.625537, 1.06976, -0.256672, 0.0138966, 0.00875402, -0.0356999, -0.00764255, -0.00101655, 0.000420235, -0.00100657, 0.0949785, 16.1957, 19.7086, 16.4359, 0.865355, 3.95572, -0.0420422, 0.00034302, -0.00165697, 0.00052486, 0.00112654, -0.00247672, 0.00123343, 0.0085325, 9.40003e-05, 0.00647786, 0.00987584, 0.041786, 0.059005, -0.0108905, -0.444888, 0.634562, -3.13078, -0.0561758, -0.109214, -0.010572, -0.443215, 0.634074, -3.12981, -0.0547357, -0.105259, 0.00880983, -0.00643891, -0.018517, -0.000150113, -0.00671072, -0.0126501
0.0861062, 0.107673, -0.774312, -0.917909, -1.45782, -0.625536, 1.06976, -0.256664, 0.0173542, 0.00947111, -0.0323787, -0.00682295, 2.54836e-05, 0.000551407, 0.00129564, 0.059273, 16.1957, 19.6729, 16.4755, 0.846129, 3.94839, -0.0951428, 0.000333307, -0.00165751, 0.000519786, 0.00111716, -0.00253234, 0.00126487, 0.0058626, 0.000873023, 0.00807781, 0.0128504, 0.0416345, 0.064447, -0.0108816, -0.444894, 0.634543, -3.13073, -0.0561999, -0.10928, -0.0105731, -0.443221, 0.63406, -3.12978, -0.0547109, -0.105239, 0.00904028, -0.00659599, -0.0189781, 0.00260235, -0.00601028, -0.0113235
0.0871062, 0.107685, -0.774305, -0.917949, -1.45783, -0.625539, 1.06977, -0.256665, 0.0190954, 0.00776613, -0.0337188, -0.00759977, 0.000213768, 0.000367592, 0.000355134, 0.059273, 16.16, 19.6729, 16.4359, 0.840636, 3.94839, -0.0814099, 0.000321436, -0.00165617, 0.000513489, 0.00110262, -0.00259206, 0.00129638, 0.00605871, 0.000804701, 0.00780683, 0.01197, 0.0411125, 0.0683034, -0.0108725, -0.444901, 0.634524, -3.13069, -0.0562246, -0.109348, -0.0105762, -0.44323, 0.634046, -3.12976, -0.0546865, -0.105214, 0.00927346, -0.00675447, -0.0194438, 0.002661, -0.00624181, -0.0120739
0.0881062, 0.107697, -0.774301, -0.917985, -1.45784, -0.625538, 1.06976, -0.256664, 0.0173541, 0.00791291, -0.0330481, -0.00937752, -0.00386838, -2.62159e-05, 0.000236756, 0.059273, 16.1957, 19.5975, 16.4359, 0.822325, 3.95572, -0.0814099, 0.000310552, -0.0016575, 0.000506989, 0.00109305, -0.00265039, 0.00132171, 0.00723676, 0.000872451, 0.00796497, 0.0139206, 0.0463211, 0.0678721, -0.0108631, -0.444908, 0.634504, -3.13064, -0.0562499, -0.109417, -0.0105781, -0.443235, 0.634032, -3.12973, -0.0546725, -0.105192, 0.00950935, -0.00691434, -0.0199139, 0.00170867, -0.00637786, -0.0124685
0.0891062, 0.10771, -0.77429, -0.918031, -1.45785, -0.625542, 1.06976, -0.256666, 0.0160747, 0.00983313, -0.0353182, -0.00963971, -0.00297301, -0.000254843, -0.00031688, 0.059273, 16.16, 19.6372, 16.4001, 0.822325, 3.96213, -0.0685925, 0.000297652, -0.00165633, 0.000502456, 0.00108528, -0.00271997, 0.00135589, 0.00794299, 0.000844511, 0.00781859, 0.0128615, 0.0485972, 0.0677167, -0.0108534, -0.444915, 0.634484, -3.1306, -0.0562758, -0.109488, -0.0105816, -0.443244, 0.634016, -3.12969, -0.0546454, -0.105155, 0.00974794, -0.00707558, -0.0203885, 0.00125408, -0.00659119, -0.013139
0.0901062, 0.10773, -0.774284, -0.918072, -1.45786, -0.625542, 1.06976, -0.256667, 0.0190591, 0.00559919, -0.034204, -0.0109727, -0.00204022, 0.000338725, -0.000685971, 0.0196001, 16.2314, 19.5618, 16.4001, 0.815917, 3.94839, -0.0557752, 0.000289088, -0.00165598, 0.000496467, 0.00107366, -0.00278291, 0.00137727, 0.00723082, 0.00114442, 0.00802512, 0.0133545, 0.0448788, 0.0748097, -0.0108436, -0.444922, 0.634463, -3.13055, -0.0563023, -0.109561, -0.0105807, -0.443252, 0.634001, -3.12966, -0.0546387, -0.10513, 0.00998923, -0.00723817, -0.0208674, 0.00217973, -0.00643123, -0.0133603
0.0911062, 0.107749, -0.774272, -0.91812, -1.45787, -0.625542, 1.06976, -0.256662, 0.0213253, 0.00743516, -0.0393054, -0.0126649, -0.00134446, 0.000225813, 0.00123811, -0.0161054, 16.2314, 19.5975, 16.4359, 0.809508, 3.94839, -0.101552, 0.000279999, -0.00165513, 0.000492345, 0.00106748, -0.00285463, 0.00141018, 0.00704442, 0.00052146, 0.00654504, 0.0096228, 0.0482637, 0.0742277, -0.0108335, -0.444929, 0.634442, -3.1305, -0.0563295, -0.109636, -0.0105799, -0.44326, 0.633983, -3.12962, -0.0546149, -0.105092, 0.0102332, -0.00740209, -0.0213508, 0.002735, -0.00719685, -0.0153119
0.0921062, 0.107762, -0.774261, -0.918165, -1.45787, -0.625544, 1.06976, -0.25667, 0.0172048, 0.00478719, -0.0412632, -0.00780894, -0.000859115, 0.000150539, -0.00185336, 0.059273, 16.2671, 19.5618, 16.3644, 0.804015, 3.94839, -0.0292249, 0.000266285, -0.00165436, 0.000484347, 0.00105227, -0.00292237, 0.00143916, 0.0114226, 0.000141441, 0.00799647, 0.0118252, 0.0428648, 0.0712523, -0.0108231, -0.444937, 0.634421, -3.13045, -0.0563573, -0.109712, -0.0105838, -0.443269, 0.633968, -3.1296, -0.0545975, -0.105063, 0.0104799, -0.00756732, -0.0218384, -0.00147079, -0.00791279, -0.014662
0.0931062, 0.107783, -0.774252, -0.918213, -1.45788, -0.625545, 1.06976, -0.256664, 0.01899, 0.00588302, -0.0437265, -0.00955141, -0.000460077, 0.000100357, 0.000934565, 0.059273, 16.3068, 19.5618, 16.3644, 0.797606, 3.94839, -0.0878186, 0.000256832, -0.00165367, 0.000479158, 0.0010436, -0.00299417, 0.00147256, 0.0108694, -1.45611e-05, 0.00725265, 0.00995263, 0.0456282, 0.0712525, -0.0108125, -0.444944, 0.634399, -3.1304, -0.0563857, -0.10979, -0.010583, -0.443278, 0.633951, -3.12956, -0.0545742, -0.105029, 0.0107292, -0.00773386, -0.0223304, -0.000612695, -0.00820863, -0.0158589
0.0941062, 0.107805, -0.774239, -0.918265, -1.45789, -0.625546, 1.06977, -0.256669, 0.0205809, 0.00772692, -0.0485764, -0.0072478, -0.0053235, 0.00033817, -0.00107238, 0.059273, 16.3068, 19.5618, 16.3644, 0.804015, 3.94107, -0.0420422, 0.000246996, -0.00165145, 0.000473836, 0.00103205, -0.0030677, 0.00149831, 0.0127851, -0.00151241, 0.00713204, 0.0114459, 0.0504552, 0.0694514, -0.0108016, -0.444952, 0.634376, -3.13035, -0.0564147, -0.10987, -0.0105822, -0.443288, 0.633933, -3.12952, -0.0545633, -0.104995, 0.0109812, -0.00790168, -0.0228265, -0.00220807, -0.00994095, -0.0166218
0.0951062, 0.107819, -0.774221, -0.918318, -1.45791, -0.625545, 1.06976, -0.256664, 0.019802, 0.0100523, -0.0522487, -0.00982272, -0.00353491, 0.000225446, 0.000743144, 0.134651, 16.2671, 19.5618, 16.4001, 0.791197, 3.94107, -0.0814099, 0.000235518, -0.00165106, 0.000469857, 0.00102828, -0.00315137, 0.00153888, 0.0129474, -0.00158178, 0.00591816, 0.00793662, 0.0540098, 0.0680642, -0.0107905, -0.44496, 0.634353, -3.1303, -0.0564444, -0.109952, -0.0105828, -0.443297, 0.633913, -3.12948, -0.0545303, -0.104945, 0.0112358, -0.00807076, -0.0233269, -0.00202803, -0.0101735, -0.0183457
0.0961062, 0.107833, -0.774203, -0.91837, -1.45792, -0.625551, 1.06976, -0.256669, 0.018717, 0.011523, -0.0510162, -0.00733488, -0.00361761, -0.000120971, -0.000962633, 0.245735, 16.2314, 19.5261, 16.4001, 0.815917, 3.94839, -0.0420422, 0.000221936, -0.00165008, 0.000463413, 0.00101602, -0.00323898, 0.00157615, 0.0133664, -0.00119833, 0.00760561, 0.0110177, 0.0547339, 0.0701517, -0.0107792, -0.444968, 0.634329, -3.13025, -0.0564747, -0.110035, -0.0105854, -0.443307, 0.633895, -3.12945, -0.0545029, -0.104892, 0.011493, -0.00824109, -0.0238314, -0.00232078, -0.00999325, -0.0171944
0.0971062, 0.10786, -0.77419, -0.918423, -1.45793, -0.625547, 1.06976, -0.256664, 0.02061, 0.0108088, -0.0489928, -0.00794038, -0.00223003, -0.000351916, 0.000816307, 0.245735, 16.2671, 19.4507, 16.3644, 0.804015, 3.95572, -0.0814099, 0.000213424, -0.00164947, 0.000457159, 0.00100821, -0.00331526, 0.00160721, 0.0119395, -0.000449577, 0.00841397, 0.0119776, 0.0541179, 0.0746414, -0.0107676, -0.444977, 0.634305, -3.13019, -0.0565057, -0.11012, -0.0105827, -0.443316, 0.633877, -3.1294, -0.0544858, -0.104858, 0.0117529, -0.00841265, -0.0243401, -0.000722696, -0.00937449, -0.0167914
0.0981062, 0.10788, -0.774174, -0.918486, -1.45794, -0.625546, 1.06976, -0.256666, 0.0178216, 0.0112724, -0.0541105, -0.00684581, -0.00168102, -0.000234611, 6.94866e-05, 0.285408, 16.2671, 19.5261, 16.4001, 0.804015, 3.95572, -0.0685925, 0.000200581, -0.00164718, 0.000454553, 0.00100628, -0.00340093, 0.00164441, 0.0150054, -0.00119162, 0.0079378, 0.0103547, 0.0543141, 0.0702851, -0.0107557, -0.444985, 0.634281, -3.13014, -0.0565373, -0.110207, -0.0105838, -0.443327, 0.633854, -3.12936, -0.0544602, -0.10481, 0.0120154, -0.00858543, -0.0248528, -0.00345647, -0.0103942, -0.0180016
0.0991062, 0.107898, -0.774153, -0.918543, -1.45796, -0.625546, 1.06976, -0.256668, 0.0181413, 0.012403, -0.0576791, -0.00945373, -0.00126643, -0.000393767, -0.000699661, 0.360787, 16.2314, 19.4507, 16.4359, 0.804015, 3.96213, -0.0484509, 0.000189763, -0.00164604, 0.000449137, 0.000996252, -0.00349135, 0.00167968, 0.0152891, -0.00143697, 0.00667932, 0.00732435, 0.057789, 0.072078, -0.0107435, -0.444994, 0.634256, -3.13008, -0.0565696, -0.110296, -0.0105828, -0.443338, 0.633834, -3.12932, -0.0544379, -0.104758, 0.0122806, -0.0087594, -0.0253696, -0.00337723, -0.0108112, -0.0197966
0.100106, 0.107919, -0.774134, -0.918609, -1.45797, -0.625545, 1.06976, -0.256664, 0.0184193, 0.0155391, -0.0630965, -0.010384, -0.000716235, -0.000262511, 0.000754263, 0.436165, 16.2314, 19.4864, 16.4359, 0.797606, 3.96213, -0.0814099, 0.000176408, -0.00164333, 0.000445311, 0.000991473, -0.00358026, 0.00172536, 0.015871, -0.00213394, 0.00551315, 0.0043881, 0.0620115, 0.0694104, -0.0107311, -0.445003, 0.63423, -3.13002, -0.0566025, -0.110386, -0.0105838, -0.44335, 0.633811, -3.12927, -0.0544004, -0.10471, 0.0125483, -0.00893455, -0.0258904, -0.00358254, -0.0116922, -0.0215281
0.101106, 0.10794, -0.774118, -0.918677, -1.45798, -0.625549, 1.06977, -0.256668, 0.0183805, 0.0161882, -0.0648851, -0.0104793, -0.000796831, -0.000175008, -0.000717861, 0.511544, 16.3068, 19.5618, 16.4001, 0.804015, 3.96213, -0.0484509, 0.000159527, -0.00163974, 0.000441928, 0.000986276, -0.00367137, 0.00176971, 0.0164813, -0.00229069, 0.00555101, 0.00434889, 0.0635501, 0.0714087, -0.0107184, -0.445012, 0.634204, -3.12996, -0.0566361, -0.110479, -0.0105881, -0.443363, 0.633787, -3.12922, -0.0543656, -0.104659, 0.0128186, -0.00911087, -0.0264151, -0.00391776, -0.0120481, -0.0220605
0.102106, 0.107963, -0.774094, -0.918738, -1.458, -0.62555, 1.06976, -0.256666, 0.0194832, 0.0194948, -0.0615222, -0.00788844, -0.000355349, -0.000116672, 0.00125076, 0.551216, 16.2671, 19.4507, 16.4001, 0.797606, 3.96213, -0.0951428, 0.000149861, -0.00163936, 0.000436564, 0.000980194, -0.00377327, 0.00180803, 0.0145795, -0.00152571, 0.00793472, 0.00901458, 0.0653973, 0.0739061, -0.0107055, -0.445021, 0.634177, -3.1299, -0.0566704, -0.110573, -0.0105852, -0.443373, 0.633765, -3.12917, -0.0543409, -0.104594, 0.0130915, -0.00928833, -0.0269437, -0.00194487, -0.0114186, -0.0200722
0.103106, 0.107983, -0.774071, -0.918805, -1.45801, -0.625551, 1.06976, -0.256671, 0.0194838, 0.0208444, -0.0620309, -0.00860658, -0.000723824, -0.000620316, -0.00160757, 0.626595, 16.2671, 19.4507, 16.3644, 0.809508, 3.97677, -0.0292249, 0.000135067, -0.00163745, 0.000431945, 0.000975402, -0.00387346, 0.00184937, 0.014542, -0.00130505, 0.00812681, 0.00913006, 0.06851, 0.0785109, -0.0106922, -0.44503, 0.63415, -3.12984, -0.0567054, -0.110669, -0.0105869, -0.443385, 0.633742, -3.12912, -0.0543122, -0.104534, 0.0133669, -0.00946692, -0.0274763, -0.00165405, -0.0113782, -0.0204097
0.104106, 0.108009, -0.774052, -0.918875, -1.45803, -0.625551, 1.06976, -0.256663, 0.0212309, 0.0169772, -0.0631948, -0.0100558, -0.000313685, -0.000684812, 0.00608488, 0.626595, 16.3425, 19.4864, 16.3644, 0.804015, 3.9841, -0.0951428, 0.000121826, -0.00163522, 0.000428363, 0.000972671, -0.00397136, 0.0018985, 0.0151786, -0.00131655, 0.00770534, 0.00797513, 0.0661394, 0.074589, -0.0106787, -0.44504, 0.634122, -3.12978, -0.056741, -0.110767, -0.0105868, -0.443397, 0.633717, -3.12907, -0.0542722, -0.104478, 0.0136449, -0.00964662, -0.0280126, -0.00198091, -0.0115885, -0.0214127
0.105106, 0.108032, -0.774027, -0.918942, -1.45804, -0.625552, 1.06976, -0.25667, 0.0247142, 0.0191018, -0.0629013, -0.00840261, -0.000675873, 8.59936e-05, 0.00200811, 0.6623, 16.3425, 19.4864, 16.2494, 0.815917, 3.96945, -0.0292249, 0.000108592, -0.00163283, 0.00042116, 0.000960162, -0.00407258, 0.00193743, 0.0134679, -0.00139288, 0.00888874, 0.0108615, 0.0678394, 0.0833113, -0.0106649, -0.44505, 0.634094, -3.12971, -0.0567774, -0.110867, -0.0105867, -0.44341, 0.633695, -3.12903, -0.0542484, -0.10442, 0.0139255, -0.00982742, -0.0285528, -7.60971e-05, -0.0117976, -0.0206529
0.106106, 0.108047, -0.774007, -0.919004, -1.45806, -0.625551, 1.06976, -0.256663, 0.0192297, 0.0189902, -0.0611148, -0.0112013, -2.92271e-05, 5.7329e-05, 0.0030915, 0.777352, 16.4178, 19.4111, 16.2891, 0.804015, 3.96945, -0.0685925, 9.49959e-05, -0.00163247, 0.000415235, 0.000949176, -0.00417445, 0.00198793, 0.0148827, -0.00045241, 0.00926606, 0.0115549, 0.069709, 0.0818515, -0.0106509, -0.44506, 0.634065, -3.12965, -0.0568144, -0.110969, -0.0105866, -0.44342, 0.633671, -3.12898, -0.0542073, -0.104363, 0.0142086, -0.0100093, -0.0290967, -0.00126478, -0.0110954, -0.0209143
0.107106, 0.108077, -0.773981, -0.919073, -1.45808, -0.625551, 1.06976, -0.256663, 0.0220262, 0.0238931, -0.0608802, -0.0109488, -3.40759e-05, 3.82193e-05, 0.00180731, 0.737679, 16.4178, 19.3754, 16.2494, 0.804015, 3.96945, -0.0557752, 8.52866e-05, -0.00163059, 0.000409523, 0.000940434, -0.0042819, 0.00202528, 0.01238, -0.000186928, 0.0100665, 0.0130462, 0.0752285, 0.0879558, -0.0106365, -0.44507, 0.634036, -3.12958, -0.0568522, -0.111073, -0.0105823, -0.443433, 0.633647, -3.12893, -0.0541876, -0.104299, 0.0144943, -0.0101922, -0.0296444, 0.00144874, -0.0109327, -0.0204847
0.108106, 0.108103, -0.773956, -0.919148, -1.45809, -0.62555, 1.06976, -0.256669, 0.0197708, 0.0243389, -0.065535, -0.0135925, 0.000203698, 2.54795e-05, 0.000149937, 0.737679, 16.4178, 19.4111, 16.178, 0.797606, 3.96945, -0.0228162, 7.13525e-05, -0.00162856, 0.000405306, 0.000938172, -0.00439232, 0.00206517, 0.0143929, -0.000619953, 0.00859396, 0.00968369, 0.0781783, 0.0872987, -0.0106219, -0.44508, 0.634006, -3.12951, -0.0568906, -0.111178, -0.0105818, -0.443446, 0.63362, -3.12887, -0.0541649, -0.104232, 0.0147825, -0.0103762, -0.0301957, -0.000150046, -0.0116067, -0.0226524
0.109106, 0.108124, -0.773931, -0.919214, -1.45811, -0.625551, 1.06976, -0.256669, 0.0194935, 0.0238056, -0.0663961, -0.0120708, -0.000313218, 0.000288254, 0.000699002, 0.813057, 16.4536, 19.3397, 16.1026, 0.809508, 3.96213, -0.0356336, 5.70959e-05, -0.00162782, 0.000397014, 0.000924322, -0.00450236, 0.00211292, 0.0155872, -0.000788494, 0.00940081, 0.0114801, 0.0777283, 0.0868198, -0.010607, -0.44509, 0.633975, -3.12945, -0.0569298, -0.111286, -0.0105816, -0.443457, 0.633597, -3.12882, -0.0541302, -0.104168, 0.0150731, -0.0105613, -0.0307507, -0.00110137, -0.0120129, -0.0224902
0.110106, 0.108147, -0.7739, -0.919287, -1.45812, -0.625551, 1.06976, -0.256668, 0.0232884, 0.0250987, -0.0663068, -0.011813, -0.000214968, 0.000192169, 0.00103396, 0.85273, 16.4178, 19.3754, 16.0629, 0.809508, 3.96213, -0.0484509, 4.33651e-05, -0.00162617, 0.000389974, 0.000914274, -0.00461878, 0.0021641, 0.0137811, -0.000627782, 0.0100025, 0.0124591, 0.0796365, 0.092289, -0.0105917, -0.445101, 0.633944, -3.12938, -0.0569696, -0.111396, -0.0105805, -0.44347, 0.633572, -3.12877, -0.0540912, -0.104096, 0.0153663, -0.0107473, -0.0313093, 0.000943112, -0.0119809, -0.0223198
0.111106, 0.108172, -0.773879, -0.919355, -1.45814, -0.625551, 1.06976, -0.25666, 0.023978, 0.0226218, -0.0614994, -0.0153932, -0.000147929, 0.000365472, 0.00248857, 0.85273, 16.525, 19.3397, 16.0272, 0.809508, 3.95572, -0.0951428, 3.01736e-05, -0.00162551, 0.00038237, 0.000901864, -0.00472845, 0.00221424, 0.0121528, 0.000629645, 0.0107542, 0.0145306, 0.0799411, 0.0991169, -0.0105762, -0.445112, 0.633913, -3.1293, -0.0570102, -0.111507, -0.0105787, -0.443482, 0.633547, -3.12872, -0.0540543, -0.104036, 0.015662, -0.0109343, -0.0318714, 0.00276168, -0.0108621, -0.0220066
0.112106, 0.108197, -0.773845, -0.919423, -1.45816, -0.625551, 1.06976, -0.256665, 0.023614, 0.0243539, -0.0641467, -0.0178448, -0.000102082, 0.000243648, 0.000728154, 0.888436, 16.4893, 19.3, 15.9915, 0.809508, 3.95572, -0.0685925, 1.96389e-05, -0.00162531, 0.000372704, 0.000885962, -0.00484984, 0.00225329, 0.012391, 0.000552261, 0.00990332, 0.0125501, 0.0841969, 0.101835, -0.0105604, -0.445123, 0.63388, -3.12923, -0.0570515, -0.111621, -0.0105741, -0.443494, 0.633524, -3.12867, -0.0540354, -0.103961, 0.0159602, -0.0111224, -0.0324371, 0.00288501, -0.0111276, -0.0234395
0.113106, 0.108219, -0.773816, -0.919488, -1.45817, -0.62555, 1.06976, -0.256667, 0.0232574, 0.0246256, -0.0621741, -0.0162034, 0.000370158, 0.000162432, 5.00558e-05, 0.928108, 16.4893, 19.2246, 15.9518, 0.797606, 3.95572, -0.0557752, 7.69391e-06, -0.00162616, 0.00036267, 0.000869518, -0.0049695, 0.00229544, 0.0123373, 0.00112295, 0.0115659, 0.0155937, 0.0837897, 0.105123, -0.0105443, -0.445134, 0.633848, -3.12916, -0.0570936, -0.111737, -0.0105707, -0.443505, 0.633501, -3.12862, -0.0540123, -0.10389, 0.0162609, -0.0113113, -0.0330063, 0.00309927, -0.010764, -0.0223427
0.114106, 0.108241, -0.773792, -0.919558, -1.4582, -0.625553, 1.06976, -0.256667, 0.0262702, 0.0230839, -0.0657551, -0.01688, -0.000670703, 0.000108288, -0.00115783, 0.963814, 16.5646, 19.2246, 15.9915, 0.822325, 3.95572, -0.0228162, -6.94435e-06, -0.00162528, 0.000354901, 0.000853821, -0.00508943, 0.00234193, 0.0129548, 0.000459372, 0.0107811, 0.0140839, 0.0844969, 0.108554, -0.0105279, -0.445146, 0.633814, -3.12908, -0.0571363, -0.111854, -0.0105694, -0.443518, 0.633474, -3.12857, -0.0539833, -0.103821, 0.016564, -0.0115013, -0.033579, 0.00286634, -0.0116316, -0.0237489
0.115106, 0.108269, -0.773758, -0.919633, -1.45822, -0.625548, 1.06976, -0.256659, 0.0238417, 0.0245901, -0.0681038, -0.016027, 0.000229572, 0.000343459, 0.00165774, 0.928108, 16.525, 19.2246, 15.9915, 0.804015, 3.94839, -0.0878186, -1.69537e-05, -0.00162552, 0.000347645, 0.000846167, -0.00521649, 0.00239246, 0.0145612, 0.000322036, 0.0111235, 0.0142325, 0.0855341, 0.103617, -0.0105112, -0.445157, 0.633781, -3.12901, -0.0571798, -0.111974, -0.0105632, -0.443529, 0.633447, -3.12851, -0.0539492, -0.103742, 0.0168696, -0.0116921, -0.034155, 0.00155066, -0.0120227, -0.0241009
0.116106, 0.108293, -0.773732, -0.919704, -1.45823, -0.625552, 1.06976, -0.256668, 0.0240921, 0.0261497, -0.072669, -0.0137065, -0.000526216, 0.000228973, -0.000811025, 0.928108, 16.6003, 19.2246, 15.9161, 0.822325, 3.94839, -0.0356336, -3.37102e-05, -0.00162489, 0.000336954, 0.000827256, -0.00533973, 0.00243688, 0.0163508, -0.000528311, 0.0111792, 0.0140126, 0.0872249, 0.103415, -0.0104942, -0.445169, 0.633746, -3.12893, -0.0572241, -0.112096, -0.0105636, -0.443543, 0.633422, -3.12846, -0.0539248, -0.103671, 0.0171776, -0.0118839, -0.0347344, 0.00010148, -0.0131308, -0.0247618
0.117106, 0.108317, -0.7737, -0.919765, -1.45825, -0.625553, 1.06976, -0.256659, 0.0244097, 0.0300065, -0.0699123, -0.0146816, -0.000351632, -0.000118619, 0.00167581, 0.928108, 16.5646, 19.0778, 15.9518, 0.822325, 3.95572, -0.0951428, -4.2991e-05, -0.0016275, 0.000323884, 0.000804176, -0.00547054, 0.00248504, 0.014214, 0.000435116, 0.0123651, 0.0162448, 0.092449, 0.10604, -0.0104768, -0.445181, 0.633711, -3.12885, -0.0572691, -0.112219, -0.0105566, -0.443552, 0.633399, -3.12841, -0.0538953, -0.103592, 0.017488, -0.0120766, -0.0353172, 0.00242083, -0.0122984, -0.0240012
0.118106, 0.108338, -0.773673, -0.919846, -1.45827, -0.625553, 1.06976, -0.256658, 0.0269004, 0.0271834, -0.072464, -0.0162008, -0.000235038, -0.000316438, 0.00112654, 0.963814, 16.636, 19.1135, 15.8765, 0.822325, 3.96213, -0.0951428, -6.42132e-05, -0.00162584, 0.000314262, 0.000790045, -0.00559289, 0.00254883, 0.0147414, 0.000170895, 0.011585, 0.0142575, 0.0915914, 0.110114, -0.0104592, -0.445193, 0.633676, -3.12877, -0.0573148, -0.112345, -0.0105608, -0.443567, 0.633372, -3.12836, -0.0538425, -0.103526, 0.0178009, -0.0122702, -0.0359033, 0.00227263, -0.0127674, -0.0254069
0.119106, 0.108365, -0.773641, -0.919921, -1.45829, -0.625553, 1.06976, -0.256665, 0.0273024, 0.0307989, -0.0724902, -0.0140957, -0.000157154, 0.000297668, -0.00144602, 0.928108, 16.6003, 19.0778, 15.9518, 0.822325, 3.94839, -0.0356336, -7.6334e-05, -0.0016259, 0.00030534, 0.000774802, -0.00572817, 0.00258872, 0.0140963, 0.000216328, 0.0130041, 0.0172647, 0.0942909, 0.114163, -0.0104412, -0.445205, 0.633639, -3.12869, -0.0573613, -0.112473, -0.0105556, -0.44358, 0.633344, -3.1283, -0.0538277, -0.103443, 0.0181163, -0.0124646, -0.0364926, 0.00312679, -0.0129109, -0.0245353
0.120106, 0.108385, -0.773607, -0.92, -1.4583, -0.62555, 1.06976, -0.256658, 0.0217747, 0.031213, -0.0724106, -0.0156773, -0.000105116, -7.28223e-05, 0.00124529, 1.00349, 16.525, 19.0421, 15.8765, 0.822325, 3.95572, -0.0951428, -9.42098e-05, -0.00162585, 0.000293557, 0.000757639, -0.00585911, 0.00265603, 0.0163575, 0.000776779, 0.0133138, 0.0176318, 0.096657, 0.109013, -0.0104229, -0.445218, 0.633603, -3.12861, -0.0574085, -0.112603, -0.010556, -0.443593, 0.633318, -3.12824, -0.053771, -0.103369, 0.018434, -0.0126599, -0.0370852, 0.00114676, -0.0126332, -0.0249781
0.121106, 0.108414, -0.773584, -0.920077, -1.45832, -0.625551, 1.06976, -0.256665, 0.0236882, 0.0301139, -0.0748219, -0.0146997, 0.000167022, -0.000285907, -0.00160728, 0.963814, 16.636, 18.9667, 15.8408, 0.815917, 3.96213, -0.0292249, -0.000111898, -0.00162548, 0.000282278, 0.000739244, -0.00598558, 0.00270109, 0.0170648, 0.000462652, 0.0134274, 0.0172255, 0.0957857, 0.113745, -0.0104044, -0.445231, 0.633565, -3.12852, -0.0574565, -0.112735, -0.0105559, -0.443607, 0.63329, -3.12819, -0.0537495, -0.103304, 0.0187541, -0.012856, -0.0376809, 0.000764413, -0.0131718, -0.025516
0.122106, 0.108443, -0.773554, -0.920155, -1.45834, -0.625553, 1.06976, -0.256658, 0.0235029, 0.032143, -0.0743484, -0.0147163, -0.000126206, 4.67542e-05, 0.00137284, 0.85273, 16.636, 18.9271, 15.8408, 0.822325, 3.95572, -0.0951428, -0.000127637, -0.00162504, 0.000270358, 0.000718623, -0.00611929, 0.00276098, 0.0166693, 0.000728737, 0.0142856, 0.0192442, 0.0986953, 0.112987, -0.0103854, -0.445244, 0.633527, -3.12844, -0.0575053, -0.11287, -0.0105535, -0.443621, 0.633263, -3.12813, -0.0537058, -0.10323, 0.0190766, -0.013053, -0.0382798, 0.00140856, -0.0131003, -0.0252295
0.123106, 0.108464, -0.773522, -0.920237, -1.45836, -0.625552, 1.06976, -0.256663, 0.0218885, 0.0320957, -0.0761248, -0.0180328, 0.000153075, 0.000302437, -0.000811886, 0.928108, 16.5646, 18.8556, 15.8408, 0.815917, 3.94839, -0.0484509, -0.000146969, -0.00162469, 0.000258926, 0.000699974, -0.00625632, 0.00281799, 0.0174791, 0.0008381, 0.0134632, 0.0175762, 0.101373, 0.116236, -0.0103662, -0.445257, 0.633489, -3.12835, -0.0575548, -0.113006, -0.0105544, -0.443636, 0.633235, -3.12807, -0.0536674, -0.103153, 0.0194015, -0.0132507, -0.0388819, 0.000980297, -0.01321, -0.0267108
0.124106, 0.108498, -0.773494, -0.920326, -1.45837, -0.62555, 1.06976, -0.256659, 0.0254315, 0.0302102, -0.0833774, -0.0196767, -0.000135418, -6.96428e-05, 0.000681107, 0.813057, 16.5646, 18.8913, 15.8011, 0.822325, 3.95572, -0.0814099, -0.000165107, -0.00162296, 0.000248279, 0.000685755, -0.00638792, 0.00287841, 0.0188626, -0.00034017, 0.0113216, 0.0125441, 0.102172, 0.115667, -0.0103466, -0.44527, 0.633449, -3.12826, -0.0576051, -0.113144, -0.0105536, -0.443651, 0.633205, -3.12801, -0.0536246, -0.103086, 0.0197288, -0.0134493, -0.039487, 0.000125515, -0.0146121, -0.0295647
0.125106, 0.108518, -0.773465, -0.920412, -1.45839, -0.62555, 1.06976, -0.256666, 0.0242271, 0.0266444, -0.0845771, -0.0201612, 0.000384357, -4.64286e-05, -0.00171482, 0.85273, 16.525, 18.8913, 15.8765, 0.809508, 3.95572, -0.0228162, -0.000187142, -0.00162229, 0.000238048, 0.000669839, -0.00652862, 0.00293794, 0.0209367, -0.000310595, 0.0113738, 0.0122509, 0.0994202, 0.118679, -0.0103267, -0.445284, 0.63341, -3.12817, -0.0576562, -0.113285, -0.0105564, -0.443667, 0.633174, -3.12794, -0.0535841, -0.103007, 0.0200585, -0.0136486, -0.0400951, -0.00161778, -0.0148596, -0.0302727
0.126106, 0.108546, -0.773444, -0.920486, -1.45841, -0.625549, 1.06976, -0.256662, 0.0283328, 0.0252083, -0.0852387, -0.0185717, 1.88171e-05, 0.000240315, 0.000315782, 0.813057, 16.5646, 18.7446, 15.8765, 0.815917, 3.94839, -0.0621838, -0.000205413, -0.00162367, 0.000222438, 0.000643019, -0.00665621, 0.00299401, 0.0204201, -0.000550329, 0.0121486, 0.0138938, 0.0980165, 0.121489, -0.0103065, -0.445298, 0.633369, -3.12808, -0.0577081, -0.113428, -0.0105556, -0.44368, 0.633148, -3.12789, -0.0535492, -0.102952, 0.0203905, -0.0138487, -0.0407063, -0.000818802, -0.0152915, -0.0300781
0.127106, 0.108572, -0.773413, -0.920574, -1.45842, -0.62555, 1.06976, -0.256662, 0.0281782, 0.0255169, -0.0839352, -0.0173038, 0.000249857, 0.000702745, 0.000211222, 0.777352, 16.4178, 18.7803, 15.8765, 0.809508, 3.93374, -0.0621838, -0.000226963, -0.00162227, 0.000209683, 0.000621029, -0.00679798, 0.00306067, 0.0204223, -0.000200561, 0.0135979, 0.0169342, 0.0978969, 0.124135, -0.010286, -0.445311, 0.633328, -3.12799, -0.0577607, -0.113573, -0.0105575, -0.443696, 0.633118, -3.12783, -0.0534989, -0.102876, 0.0207248, -0.0140495, -0.0413204, -0.000605428, -0.0151625, -0.0292456
0.128106, 0.108599, -0.773389, -0.920657, -1.45844, -0.625549, 1.06976, -0.256661, 0.0303612, 0.0260096, -0.0840875, -0.0163835, -0.000308181, -7.40382e-05, 0.0003787, 0.777352, 16.3782, 18.7446, 15.8765, 0.822325, 3.94839, -0.0685925, -0.00024859, -0.00162269, 0.000195567, 0.000599401, -0.00693425, 0.00312265, 0.0200231, -3.25483e-05, 0.0143573, 0.0179744, 0.0995009, 0.127537, -0.0102651, -0.445326, 0.633287, -3.1279, -0.0578142, -0.11372, -0.0105592, -0.443711, 0.633089, -3.12777, -0.0534567, -0.102811, 0.0210615, -0.0142511, -0.0419374, 6.68238e-05, -0.0151929, -0.0290768
0.129106, 0.108622, -0.773368, -0.920739, -1.45845, -0.62555, 1.06976, -0.256663, 0.0289694, 0.0231189, -0.0842975, -0.0184069, 0.000269238, 0.000221909, -0.000493125, 0.777352, 16.3425, 18.7049, 15.8408, 0.809508, 3.94107, -0.0484509, -0.000273002, -0.00162294, 0.000179242, 0.00057081, -0.00706627, 0.00318565, 0.0213051, 0.000263041, 0.0142853, 0.0177502, 0.0982155, 0.13045, -0.0102438, -0.44534, 0.633244, -3.1278, -0.0578684, -0.113869, -0.0105635, -0.443726, 0.633062, -3.12771, -0.0534134, -0.102755, 0.0214005, -0.0144534, -0.0425574, -0.000878957, -0.0151477, -0.0298612
0.130106, 0.108652, -0.773345, -0.920832, -1.45847, -0.625549, 1.06977, -0.256667, 0.0288921, 0.0242554, -0.0871472, -0.013862, -0.000295245, 0.000147939, -0.00175261, 0.737679, 16.3068, 18.7803, 15.8408, 0.822325, 3.94107, -0.00999879, -0.000296328, -0.00162114, 0.000166875, 0.000550124, -0.00720364, 0.00324671, 0.0232596, -0.000362799, 0.0155554, 0.0199001, 0.0978571, 0.129129, -0.0102223, -0.445355, 0.633201, -3.12771, -0.0579234, -0.114021, -0.0105661, -0.443743, 0.633029, -3.12764, -0.0533743, -0.102692, 0.0217418, -0.0146563, -0.0431802, -0.0025556, -0.0160655, -0.0293685
0.131106, 0.108681, -0.773327, -0.920911, -1.45849, -0.625548, 1.06976, -0.256659, 0.0306444, 0.0219893, -0.0855958, -0.0158384, 4.0514e-05, -0.000172641, 0.00171403, 0.737679, 16.2671, 18.7049, 15.9161, 0.815917, 3.94839, -0.0878186, -0.000317552, -0.00162355, 0.000151877, 0.000527332, -0.00734201, 0.0033102, 0.0225195, 0.000284382, 0.0158703, 0.0202646, 0.0976237, 0.132059, -0.0102004, -0.445369, 0.633158, -3.12761, -0.0579792, -0.114174, -0.0105666, -0.443757, 0.633, -3.12758, -0.0533322, -0.10263, 0.0220854, -0.01486, -0.0438058, -0.00152274, -0.0156016, -0.029622
0.132106, 0.108705, -0.773298, -0.921002, -1.4585, -0.625551, 1.06976, -0.256667, 0.026049, 0.0236876, -0.0849352, -0.0135559, 2.69983e-05, 0.000156173, -0.001502, 0.737679, 16.0846, 18.7803, 15.8408, 0.815917, 3.94107, -0.0164075, -0.000344282, -0.00162253, 0.000135325, 0.000498984, -0.00748716, 0.0033783, 0.0245514, 0.000600581, 0.017646, 0.0238714, 0.098485, 0.132305, -0.0101781, -0.445384, 0.633114, -3.12751, -0.0580358, -0.11433, -0.0105722, -0.443774, 0.63297, -3.12752, -0.0532836, -0.102561, 0.0224314, -0.0150643, -0.0444342, -0.00334434, -0.0155894, -0.0286276
0.133106, 0.108732, -0.773279, -0.921093, -1.45852, -0.625549, 1.06976, -0.256659, 0.0257228, 0.0221109, -0.0862389, -0.0144443, -0.000219368, 0.000104115, 0.00164365, 0.737679, 16.0092, 18.816, 15.8765, 0.822325, 3.94107, -0.0878186, -0.000369962, -0.00162267, 0.000121538, 0.00047783, -0.0076275, 0.00345246, 0.0257589, 0.000589497, 0.0176095, 0.0236962, 0.0986475, 0.130487, -0.0101555, -0.445399, 0.633069, -3.12741, -0.0580933, -0.114488, -0.0105762, -0.44379, 0.632937, -3.12745, -0.0532267, -0.1025, 0.0227796, -0.0152693, -0.0450654, -0.00419807, -0.0158518, -0.0293864
0.134106, 0.108766, -0.773259, -0.92118, -1.45855, -0.625549, 1.06976, -0.256662, 0.0304907, 0.020991, -0.0870004, -0.0159678, -0.000349702, 0.000340678, -0.00107428, 0.6623, 15.9378, 18.8556, 15.9518, 0.827819, 3.93374, -0.0292249, -0.000391218, -0.00162338, 0.00010733, 0.000454256, -0.00777326, 0.00350609, 0.0242192, 0.000554701, 0.0174119, 0.0233728, 0.0994796, 0.140417, -0.0101325, -0.445415, 0.633024, -3.12731, -0.0581515, -0.114649, -0.0105756, -0.443806, 0.632905, -3.12738, -0.0532024, -0.102434, 0.0231301, -0.0154749, -0.0456993, -0.0022989, -0.0160357, -0.0301075
0.135106, 0.108789, -0.773242, -0.921266, -1.45856, -0.62555, 1.06976, -0.256658, 0.0280708, 0.0223936, -0.0839838, -0.017862, -0.000470498, 0.000227118, 0.00121666, 0.701973, 15.9021, 18.8556, 15.9161, 0.834227, 3.93374, -0.0814099, -0.000420034, -0.00162432, 8.88558e-05, 0.000422757, -0.00791061, 0.003581, 0.0238299, 0.00158689, 0.0184632, 0.0256793, 0.103002, 0.141239, -0.0101092, -0.44543, 0.632978, -3.12721, -0.0582105, -0.114811, -0.0105824, -0.443822, 0.632875, -3.12732, -0.0531455, -0.102383, 0.0234829, -0.0156811, -0.0463358, -0.00167543, -0.0152125, -0.029659
0.136106, 0.10882, -0.773227, -0.921353, -1.45858, -0.625549, 1.06976, -0.256664, 0.0282043, 0.0226466, -0.0887047, -0.016872, -0.000313669, 0.000151412, -0.000646901, 0.6623, 15.9021, 18.8913, 15.9161, 0.834227, 3.93374, -0.0420422, -0.000445549, -0.00162546, 7.14454e-05, 0.000393585, -0.00805091, 0.00363873, 0.0257028, 0.000882555, 0.0180951, 0.0242474, 0.103637, 0.141533, -0.0100856, -0.445446, 0.632931, -3.1271, -0.0582704, -0.114976, -0.0105856, -0.443837, 0.632844, -3.12726, -0.0531163, -0.10233, 0.0238379, -0.015888, -0.046975, -0.00313531, -0.0161899, -0.0308133
0.137106, 0.108849, -0.773201, -0.921439, -1.4586, -0.625551, 1.06976, -0.25666, 0.0273163, 0.0242117, -0.0892018, -0.0116995, -0.000649925, 0.000372209, 0.000789475, 0.6623, 15.7156, 18.9271, 15.8765, 0.846129, 3.92642, -0.0750012, -0.000469361, -0.00162682, 5.19249e-05, 0.000359094, -0.00820322, 0.0037092, 0.0271901, 0.000682455, 0.0203115, 0.0285496, 0.102894, 0.138357, -0.0100616, -0.445462, 0.632884, -3.127, -0.0583311, -0.115144, -0.0105868, -0.443853, 0.632815, -3.12719, -0.053068, -0.10226, 0.0241952, -0.0160954, -0.0476168, -0.00441687, -0.0166842, -0.0293595
0.138106, 0.108879, -0.773185, -0.921521, -1.45862, -0.625551, 1.06977, -0.256657, 0.0318037, 0.0207287, -0.0838866, -0.0166537, -0.000670644, 0.000756766, 0.000526347, 0.701973, 15.7156, 18.8556, 15.9161, 0.852538, 3.91269, -0.0750012, -0.000493297, -0.00162919, 3.35533e-05, 0.000326068, -0.00834971, 0.00377124, 0.023785, 0.00197259, 0.0207239, 0.0301668, 0.103197, 0.152048, -0.0100372, -0.445478, 0.632836, -3.12689, -0.0583926, -0.115313, -0.0105878, -0.443868, 0.632783, -3.12713, -0.0530336, -0.102202, 0.0245547, -0.0163034, -0.0482612, -0.000744768, -0.0154862, -0.0293306
0.139106, 0.108914, -0.77317, -0.921612, -1.45864, -0.625551, 1.06977, -0.256658, 0.0342471, 0.0215277, -0.088046, -0.0158335, -0.000447098, 0.000267151, -0.000361157, 0.6623, 15.7156, 18.8556, 15.9161, 0.852538, 3.9191, -0.0557752, -0.00051889, -0.00163029, 1.59859e-05, 0.000297505, -0.00849663, 0.00383297, 0.0242918, 0.00142151, 0.0203799, 0.0285086, 0.104658, 0.15424, -0.0100124, -0.445495, 0.632787, -3.12678, -0.0584549, -0.115485, -0.01059, -0.443885, 0.63275, -3.12706, -0.0530008, -0.102146, 0.0249165, -0.016512, -0.0489081, -0.0008441, -0.0162625, -0.0303668
0.140106, 0.108943, -0.773154, -0.92171, -1.45866, -0.625552, 1.06977, -0.256659, 0.030971, 0.0221866, -0.0875814, -0.0171577, -0.000535425, 0.00122926, -0.000512022, 0.701973, 15.7156, 18.9667, 15.8408, 0.858946, 3.89071, -0.0484509, -0.00054953, -0.00162959, -1.30656e-06, 0.000267169, -0.00864311, 0.0039079, 0.0253389, 0.00174688, 0.0209936, 0.0304167, 0.106622, 0.15448, -0.00998734, -0.445511, 0.632738, -3.12667, -0.058518, -0.115659, -0.0105967, -0.443903, 0.632716, -3.12699, -0.0529483, -0.102092, 0.0252805, -0.0167211, -0.0495576, -0.00158312, -0.0161966, -0.0304811
0.141106, 0.10898, -0.773133, -0.921804, -1.45869, -0.625552, 1.06977, -0.256662, 0.0304318, 0.0243179, -0.0872438, -0.0205351, -0.000356951, 0.000548241, -0.00152813, 0.6623, 15.6442, 18.9667, 15.8765, 0.858946, 3.89804, -0.0164075, -0.000572761, -0.00163114, -1.71974e-05, 0.000242023, -0.00880334, 0.00396492, 0.0244743, 0.00246155, 0.0207657, 0.0294685, 0.112055, 0.159389, -0.00996188, -0.445528, 0.632688, -3.12656, -0.058582, -0.115835, -0.0105957, -0.44392, 0.632681, -3.12692, -0.0529248, -0.102019, 0.0256467, -0.0169307, -0.0502094, -0.000367717, -0.0156603, -0.0312912
0.142106, 0.109012, -0.773117, -0.921896, -1.45871, -0.625555, 1.06977, -0.256655, 0.0312906, 0.0211084, -0.0886927, -0.0207825, -0.0011535, 0.000636761, 0.00115139, 0.701973, 15.6442, 18.8913, 15.8011, 0.883666, 3.89071, -0.0750012, -0.000601223, -0.00163225, -3.66551e-05, 0.000207649, -0.00895657, 0.00404095, 0.0259409, 0.00223461, 0.0208256, 0.0297518, 0.110573, 0.158612, -0.00993605, -0.445545, 0.632638, -3.12645, -0.0586468, -0.116014, -0.0105998, -0.443937, 0.632647, -3.12685, -0.0528721, -0.101959, 0.0260151, -0.0171409, -0.0508638, -0.00145892, -0.0161555, -0.0320002
0.143106, 0.109049, -0.773101, -0.921997, -1.45873, -0.625554, 1.06977, -0.256659, 0.0329793, 0.0179437, -0.0893425, -0.0226579, -0.000294279, 0.000695775, -0.0004531, 0.701973, 15.6799, 18.9271, 15.8011, 0.870848, 3.88339, -0.0420422, -0.000628835, -0.00163252, -5.24257e-05, 0.000183073, -0.00911169, 0.00410431, 0.0261135, 0.00243403, 0.0205833, 0.0288052, 0.108934, 0.165188, -0.00990985, -0.445562, 0.632586, -3.12633, -0.0587125, -0.116195, -0.0106024, -0.443955, 0.63261, -3.12677, -0.0528405, -0.101899, 0.0263857, -0.0173516, -0.0515205, -0.00125226, -0.0161732, -0.0329122
0.144106, 0.109082, -0.773077, -0.922103, -1.45876, -0.625555, 1.06977, -0.256657, 0.035459, 0.0214347, -0.0906865, -0.0231885, -0.000670904, -7.86849e-05, 0.000443924, 0.777352, 15.6046, 19.0024, 15.7654, 0.883666, 3.89804, -0.0621838, -0.000658314, -0.00163257, -6.7096e-05, 0.00016148, -0.0092816, 0.00418309, 0.0247587, 0.00255409, 0.020705, 0.0284447, 0.114456, 0.168207, -0.00988328, -0.44558, 0.632535, -3.12622, -0.058779, -0.116378, -0.0106063, -0.443974, 0.632571, -3.12669, -0.0527861, -0.101817, 0.0267585, -0.0175627, -0.0521796, 0.000454809, -0.0162192, -0.0333507
0.145106, 0.109126, -0.773056, -0.9222, -1.45878, -0.625555, 1.06977, -0.25666, 0.0379692, 0.025352, -0.0890201, -0.0230081, -0.00044727, 0.000761345, -0.000687391, 0.701973, 15.6046, 18.9667, 15.69, 0.883666, 3.87607, -0.0356336, -0.000680899, -0.00163288, -8.62282e-05, 0.000126177, -0.00944297, 0.0042405, 0.0221435, 0.00299289, 0.022049, 0.0315751, 0.11855, 0.175517, -0.00985633, -0.445598, 0.632482, -3.1261, -0.0588463, -0.116563, -0.0106034, -0.443992, 0.632536, -3.12662, -0.052765, -0.101752, 0.0271335, -0.0177744, -0.052841, 0.00331722, -0.0159176, -0.0324747
0.146106, 0.109166, -0.773039, -0.922306, -1.45882, -0.625556, 1.06977, -0.256661, 0.0401009, 0.0210521, -0.0946154, -0.0252784, -0.000501631, 0.00101619, -0.000932975, 0.737679, 15.6442, 18.9667, 15.7297, 0.889159, 3.86233, -0.0228162, -0.000708069, -0.00163348, -0.000100039, 0.000105775, -0.00961209, 0.00430508, 0.024151, 0.00209057, 0.0202623, 0.0276923, 0.11686, 0.177199, -0.00982901, -0.445615, 0.632429, -3.12598, -0.0589145, -0.116751, -0.0106043, -0.444011, 0.632494, -3.12653, -0.0527344, -0.101677, 0.0275107, -0.0179865, -0.0535047, 0.00185849, -0.0170838, -0.0350832
0.147106, 0.109207, -0.77302, -0.922411, -1.45884, -0.625556, 1.06977, -0.256659, 0.044979, 0.0233606, -0.0960812, -0.0259813, -0.00057178, 0.00121999, 0.00107344, 0.777352, 15.7156, 18.9667, 15.5789, 0.895568, 3.84768, -0.0685925, -0.000736556, -0.0016334, -0.000118005, 7.65827e-05, -0.00977678, 0.0043778, 0.0219393, 0.00196428, 0.0202665, 0.0276237, 0.120637, 0.181677, -0.00980131, -0.445634, 0.632375, -3.12586, -0.0589835, -0.116942, -0.0106064, -0.444031, 0.632456, -3.12645, -0.0526916, -0.101611, 0.02789, -0.018199, -0.0541706, 0.00444391, -0.0173437, -0.0355837
0.148106, 0.109257, -0.772997, -0.922516, -1.45887, -0.625556, 1.06978, -0.256661, 0.048189, 0.0247725, -0.0961639, -0.0295783, -0.000381186, 0.000542062, -0.000505075, 0.701973, 15.6799, 18.9271, 15.5432, 0.895568, 3.85501, -0.0356336, -0.000758292, -0.00163386, -0.00013471, 4.90996e-05, -0.00995097, 0.00443465, 0.0197379, 0.00249836, 0.0197197, 0.025978, 0.125574, 0.190744, -0.00977323, -0.445652, 0.63232, -3.12574, -0.0590534, -0.117134, -0.0106013, -0.444049, 0.632417, -3.12637, -0.0526745, -0.101533, 0.0282715, -0.018412, -0.0548388, 0.00703711, -0.0169363, -0.0366284
0.149106, 0.109298, -0.772976, -0.922627, -1.4589, -0.625558, 1.06977, -0.256656, 0.043734, 0.0240202, -0.103497, -0.0311386, -0.000728842, 0.000632642, 0.00112135, 0.777352, 15.7156, 18.9271, 15.4678, 0.908385, 3.84768, -0.0750012, -0.000786811, -0.00163422, -0.000150137, 2.64002e-05, -0.0101286, 0.00451142, 0.0243769, 0.00147655, 0.0180009, 0.0221036, 0.127271, 0.182152, -0.00974476, -0.44567, 0.632265, -3.12562, -0.0591241, -0.117329, -0.0106025, -0.444069, 0.632375, -3.12629, -0.0526277, -0.101451, 0.0286551, -0.0186253, -0.0555092, 0.00296315, -0.0183216, -0.039376
0.150106, 0.109347, -0.772958, -0.922738, -1.45894, -0.625558, 1.06977, -0.256663, 0.047797, 0.0195088, -0.106013, -0.0307445, -0.000689345, 0.000693029, -0.00165993, 0.813057, 15.791, 18.9271, 15.4678, 0.913878, 3.84036, -0.00999879, -0.000811975, -0.00163458, -0.000163706, 6.68168e-06, -0.0103071, 0.00456576, 0.0251523, 0.000995068, 0.0178208, 0.0213388, 0.12357, 0.189363, -0.00971592, -0.445689, 0.632209, -3.12549, -0.0591957, -0.117527, -0.0105999, -0.444089, 0.632331, -3.12619, -0.0526166, -0.10137, 0.0290408, -0.0188391, -0.0561817, 0.00260607, -0.019046, -0.0402955
0.151106, 0.109396, -0.772933, -0.922849, -1.45897, -0.625559, 1.06978, -0.256656, 0.0506486, 0.0180008, -0.109747, -0.0338502, -0.000696923, 0.00151318, 0.00106352, 0.85273, 15.791, 18.8913, 15.3171, 0.920287, 3.81198, -0.0685925, -0.000836649, -0.00163378, -0.000181248, -2.47654e-05, -0.0104861, 0.00463907, 0.0251644, 0.000449093, 0.0164405, 0.0188375, 0.124835, 0.190685, -0.00968668, -0.445708, 0.632153, -3.12537, -0.0592682, -0.117726, -0.0105966, -0.44411, 0.63229, -3.12611, -0.0525766, -0.101292, 0.0294287, -0.0190533, -0.0568564, 0.00310431, -0.0197888, -0.0423572
0.152106, 0.109447, -0.77291, -0.922967, -1.45901, -0.625561, 1.06978, -0.256663, 0.0498821, 0.0198599, -0.114823, -0.0398103, -0.00114278, 0.00155132, -0.00146113, 0.888436, 15.791, 18.9667, 15.3171, 0.938597, 3.79733, -0.00999879, -0.00086153, -0.00163306, -0.000193747, -4.41842e-05, -0.0106756, 0.00469742, 0.025781, 8.72587e-05, 0.0139834, 0.0138625, 0.132057, 0.193849, -0.00965706, -0.445727, 0.632096, -3.12524, -0.0593415, -0.117929, -0.0105928, -0.444131, 0.632244, -3.12602, -0.0525612, -0.101198, 0.0298187, -0.0192678, -0.0575331, 0.00307634, -0.0203542, -0.0455384
0.153133, 0.109503, -0.772895, -0.923081, -1.45905, -0.625561, 1.06978, -0.256656, 0.049893, 0.0187305, -0.117496, -0.0388369, -0.000761856, 0.00130548, 0.00119606, 0.888436, 15.9021, 18.9667, 15.2417, 0.938597, 3.79001, -0.0685925, -0.000886848, -0.00163372, -0.000208632, -6.42471e-05, -0.0108558, 0.00476285, 0.0274674, -0.000177071, 0.0141731, 0.0134758, 0.131215, 0.191323, -0.00962704, -0.445747, 0.632038, -3.12511, -0.0594156, -0.118133, -0.0105893, -0.444151, 0.632199, -3.12592, -0.0525357, -0.101122, 0.0302108, -0.0194827, -0.0582119, 0.00178247, -0.0209021, -0.0461627
0.154133, 0.10956, -0.772871, -0.923195, -1.45909, -0.625562, 1.06978, -0.256656, 0.0500332, 0.0236962, -0.11757, -0.0419143, -0.000745263, 0.00137895, 0.00079737, 0.888436, 15.9021, 18.8913, 15.1703, 0.945006, 3.77627, -0.0685925, -0.000907977, -0.00163394, -0.00022439, -9.0429e-05, -0.0110467, 0.00482009, 0.0256213, 0.000337294, 0.0140965, 0.0133518, 0.139097, 0.195825, -0.00959664, -0.445766, 0.631979, -3.12498, -0.0594907, -0.11834, -0.0105812, -0.444171, 0.632154, -3.12583, -0.0525236, -0.101032, 0.0306049, -0.019698, -0.0588927, 0.00400051, -0.020536, -0.0467774
0.155133, 0.109609, -0.772848, -0.923313, -1.45913, -0.625562, 1.06979, -0.256657, 0.050018, 0.0243027, -0.117942, -0.041621, -0.000734201, 0.00119057, 0.000294221, 1.00349, 15.9021, 18.816, 15.1306, 0.951415, 3.76895, -0.0621838, -0.000933751, -0.00163457, -0.000238253, -0.000111178, -0.0112421, 0.00488524, 0.0259792, 0.000545074, 0.0147984, 0.0143971, 0.140589, 0.198361, -0.00956583, -0.445786, 0.63192, -3.12485, -0.0595666, -0.11855, -0.0105773, -0.444191, 0.632107, -3.12574, -0.0525005, -0.100937, 0.0310012, -0.0199136, -0.0595756, 0.00397761, -0.0205711, -0.0467888
0.156133, 0.109669, -0.772825, -0.923437, -1.45917, -0.625568, 1.06979, -0.256655, 0.050272, 0.0206803, -0.116867, -0.0403319, -0.00137109, 0.00133625, -0.000312478, 1.00349, 15.9378, 18.816, 15.0552, 0.975218, 3.7543, -0.0484509, -0.000959401, -0.00163304, -0.000251801, -0.000132908, -0.01144, 0.00495235, 0.0273215, 0.00073662, 0.0160846, 0.0171808, 0.137486, 0.201598, -0.00953463, -0.445806, 0.63186, -3.12472, -0.0596434, -0.118761, -0.0105727, -0.444214, 0.632059, -3.12564, -0.0524753, -0.10084, 0.0313996, -0.0201295, -0.0602603, 0.00293219, -0.020669, -0.0462947
0.157133, 0.109734, -0.772805, -0.923567, -1.45922, -0.625566, 1.06979, -0.256656, 0.0545397, 0.0179532, -0.116154, -0.0411625, -0.000710607, 0.00139946, 0.000300307, 0.963814, 15.9735, 18.816, 15.0552, 0.969725, 3.74057, -0.0621838, -0.000982459, -0.00163171, -0.00026169, -0.000143054, -0.0116366, 0.00500955, 0.0260574, 0.00105927, 0.0165077, 0.017683, 0.135784, 0.209043, -0.00950303, -0.445826, 0.6318, -3.12458, -0.059721, -0.118976, -0.0105649, -0.444237, 0.632006, -3.12553, -0.0524667, -0.100748, 0.0318, -0.0203457, -0.060947, 0.00454568, -0.0205252, -0.0464631
0.158133, 0.109786, -0.772785, -0.923691, -1.45926, -0.625569, 1.06979, -0.25665, 0.0518751, 0.0191338, -0.116913, -0.0435297, -0.000677188, 0.00120424, 0.00142091, 1.15424, 16.0092, 18.7446, 14.9799, 0.975218, 3.73324, -0.0951428, -0.00101171, -0.00163153, -0.000276085, -0.000164534, -0.0118355, 0.00508698, 0.0269958, 0.00144694, 0.0163987, 0.0172108, 0.139558, 0.208402, -0.00947103, -0.445847, 0.631738, -3.12445, -0.0597996, -0.119192, -0.0105632, -0.444259, 0.631957, -3.12543, -0.0524273, -0.100654, 0.0322025, -0.0205621, -0.0616356, 0.0040044, -0.0203913, -0.0473309
0.159133, 0.109856, -0.772762, -0.923819, -1.45931, -0.625568, 1.06979, -0.256659, 0.0527244, 0.0208473, -0.118967, -0.0479634, -0.00112963, 0.00107409, -0.00149413, 1.11457, 16.0092, 18.7446, 15.0195, 0.993529, 3.72592, -0.0292249, -0.00103206, -0.00163123, -0.00028695, -0.000177263, -0.0120415, 0.0051295, 0.0263082, 0.00156003, 0.0152012, 0.0147821, 0.145649, 0.215137, -0.00943863, -0.445867, 0.631676, -3.12431, -0.059879, -0.119411, -0.010552, -0.444281, 0.631904, -3.12533, -0.0519253, -0.100552, 0.032607, -0.0207789, -0.062326, 0.00517868, -0.0204535, -0.049165
0.160133, 0.109912, -0.772738, -0.923949, -1.45936, -0.625569, 1.06979, -0.25665, 0.0527849, 0.018978, -0.12392, -0.0528353, -0.0012278, 0.000716062, 0.00144532, 1.22962, 16.0092, 18.7446, 14.9799, 1.00635, 3.72592, -0.0951428, -0.00105889, -0.00163117, -0.000298818, -0.000191675, -0.0122514, 0.00520726, 0.0278615, 0.00116804, 0.012934, 0.00971389, 0.14841, 0.21344, -0.00940582, -0.445888, 0.631614, -3.12417, -0.0599593, -0.119633, -0.010547, -0.444303, 0.631852, -3.12522, -0.051888, -0.100446, 0.0330136, -0.0209959, -0.0630183, 0.00422367, -0.0210878, -0.0522458
0.161133, 0.109974, -0.77272, -0.924082, -1.45941, -0.625569, 1.06979, -0.256657, 0.0565251, 0.0188365, -0.124343, -0.0537326, -0.00105589, 0.000477375, -0.00171522, 1.305, 16.0846, 18.7446, 14.9799, 1.01276, 3.72592, -0.0228162, -0.00108615, -0.00163085, -0.000308933, -0.000202242, -0.0124591, 0.00526411, 0.0265415, 0.00134966, 0.0131099, 0.00961316, 0.149907, 0.223068, -0.0093726, -0.445909, 0.63155, -3.12403, -0.0600404, -0.119857, -0.0105418, -0.444326, 0.631796, -3.12511, -0.0518845, -0.100346, 0.0334222, -0.0212132, -0.0637123, 0.00592532, -0.0210796, -0.0526648
0.162133, 0.11004, -0.772702, -0.924215, -1.45946, -0.625575, 1.06979, -0.256659, 0.060823, 0.0174331, -0.129203, -0.0553019, -0.0013821, 4.69824e-05, -0.000906121, 1.34071, 16.0846, 18.6692, 14.8688, 1.03107, 3.73324, -0.0292249, -0.00111334, -0.00162926, -0.000322101, -0.000222129, -0.0126665, 0.00532699, 0.0267816, 0.000655072, 0.0117557, 0.00622573, 0.151254, 0.226015, -0.00933897, -0.445931, 0.631486, -3.12389, -0.0601225, -0.120083, -0.0105364, -0.44435, 0.631743, -3.125, -0.0518721, -0.100249, 0.0338328, -0.0214307, -0.0644081, 0.00622576, -0.0219812, -0.0547424
0.163133, 0.110103, -0.772683, -0.924343, -1.4595, -0.625575, 1.06979, -0.256657, 0.060535, 0.0187097, -0.129036, -0.0534213, -0.00068404, -0.000239946, -0.000604081, 1.38038, 16.1203, 18.5581, 14.7577, 1.02466, 3.74057, -0.0292249, -0.00114036, -0.00163053, -0.000337021, -0.000240091, -0.0128748, 0.00539235, 0.0270966, 0.000993309, 0.0131362, 0.00820835, 0.151912, 0.227448, -0.00930493, -0.445952, 0.631421, -3.12375, -0.0602054, -0.120312, -0.0105306, -0.444372, 0.631691, -3.12489, -0.0518568, -0.100153, 0.0342455, -0.0216484, -0.0651057, 0.00620429, -0.0218985, -0.0540875
0.164133, 0.110176, -0.772669, -0.924482, -1.45957, -0.625571, 1.06979, -0.256655, 0.0622221, 0.0186563, -0.13138, -0.0572091, -0.000218667, -0.000159964, -0.000165362, 1.34071, 16.1957, 18.5581, 14.8688, 1.01825, 3.74057, -0.0356336, -0.0011633, -0.00162991, -0.000344688, -0.000245298, -0.0130856, 0.00544543, 0.0266066, 0.00101799, 0.0119886, 0.0055654, 0.155059, 0.231594, -0.00927048, -0.445974, 0.631356, -3.1236, -0.0602893, -0.120544, -0.0105197, -0.444395, 0.631632, -3.12477, -0.0518623, -0.100055, 0.0346601, -0.0218663, -0.0658049, 0.00719253, -0.0220573, -0.0558969
0.165133, 0.110244, -0.772646, -0.924618, -1.45962, -0.62557, 1.06979, -0.256659, 0.0643322, 0.0222245, -0.13655, -0.0561447, 5.76722e-05, -0.000344002, -0.0003476, 1.38038, 16.1203, 18.5938, 14.8331, 1.01276, 3.74698, -0.0292249, -0.00118863, -0.00162999, -0.000357287, -0.000259186, -0.0133021, 0.0055041, 0.0268162, 0.000299472, 0.0116353, 0.0039306, 0.159064, 0.232032, -0.00923561, -0.445996, 0.63129, -3.12346, -0.060374, -0.120777, -0.0105111, -0.444419, 0.631576, -3.12465, -0.0518597, -0.0999518, 0.0350768, -0.0220844, -0.0665058, 0.0074542, -0.0229984, -0.0569802
0.166133, 0.110315, -0.772635, -0.924753, -1.45968, -0.625571, 1.0698, -0.256655, 0.0681499, 0.0211991, -0.135317, -0.0571122, -0.000402361, 0.000550559, 0.000480343, 1.34071, 16.1957, 18.5184, 14.8688, 1.02466, 3.72592, -0.0484509, -0.00121516, -0.00162976, -0.000369073, -0.000274531, -0.0135127, 0.00556578, 0.025187, 0.000506169, 0.0123275, 0.00607484, 0.159587, 0.238791, -0.00920033, -0.446018, 0.631223, -3.12331, -0.0604596, -0.121014, -0.0105033, -0.444442, 0.631519, -3.12453, -0.0518532, -0.0998598, 0.0354954, -0.0223027, -0.0672083, 0.00943309, -0.0229628, -0.0568676
0.167133, 0.110387, -0.772614, -0.924897, -1.45973, -0.62557, 1.0698, -0.256652, 0.0668751, 0.0231388, -0.138561, -0.0578995, -3.08819e-05, 9.57722e-05, 0.00106621, 1.34071, 16.16, 18.4827, 14.9084, 1.01825, 3.73324, -0.0685925, -0.00124178, -0.00162902, -0.000378922, -0.000282026, -0.0137355, 0.00563216, 0.0263942, 0.000390713, 0.011982, 0.00448717, 0.163115, 0.237568, -0.00916462, -0.446041, 0.631155, -3.12316, -0.0605461, -0.121253, -0.010495, -0.444467, 0.631459, -3.12441, -0.0518408, -0.0997508, 0.0359161, -0.0225212, -0.0679124, 0.0086808, -0.0233398, -0.0580158
0.168133, 0.110455, -0.772597, -0.925041, -1.45978, -0.62557, 1.06979, -0.256657, 0.0681369, 0.0206175, -0.136974, -0.0539946, -2.0588e-05, -0.000207419, -0.000984612, 1.38038, 16.16, 18.4073, 14.7577, 1.01825, 3.74057, -0.0228162, -0.00127347, -0.00162804, -0.000392501, -0.000296661, -0.0139505, 0.00569963, 0.0272639, 0.000680062, 0.0142041, 0.00841139, 0.15918, 0.242685, -0.00912849, -0.446063, 0.631087, -3.12301, -0.0606336, -0.121494, -0.0104916, -0.444492, 0.631402, -3.12429, -0.0518273, -0.0996569, 0.0363387, -0.0227398, -0.068618, 0.00805221, -0.0233436, -0.0565744
0.169133, 0.11053, -0.772586, -0.925191, -1.45984, -0.625572, 1.0698, -0.25665, 0.0677378, 0.0178125, -0.137236, -0.0565883, 0.000189725, 0.00491723, 0.00151373, 1.34071, 16.1957, 18.4073, 14.8331, 1.01276, 3.73324, -0.0814099, -0.00130296, -0.00162619, -0.000400127, -0.000301839, -0.0141735, 0.00576974, 0.0276145, 8.44869e-05, 0.0144264, 0.0122202, 0.156368, 0.243634, -0.00909194, -0.446086, 0.631018, -3.12286, -0.0607219, -0.121738, -0.0104851, -0.444518, 0.631338, -3.12416, -0.0518111, -0.0995523, 0.0367632, -0.0229586, -0.0693252, 0.00813183, -0.0241781, -0.0571004
0.170133, 0.110601, -0.772567, -0.925329, -1.4599, -0.62557, 1.0698, -0.25665, 0.0696836, 0.0183221, -0.138176, -0.052895, 0.000126483, 0.00367684, 0.00100915, 1.34071, 16.1203, 18.332, 14.8331, 1.01276, 3.73324, -0.0814099, -0.00132923, -0.00162741, -0.000413743, -0.000316883, -0.0143977, 0.00583012, 0.0281646, 0.000112845, 0.015883, 0.0138127, 0.156239, 0.246008, -0.00905497, -0.446109, 0.630949, -3.12271, -0.0608111, -0.121984, -0.0104755, -0.444541, 0.63128, -3.12404, -0.0518107, -0.0994491, 0.0371897, -0.0231774, -0.0700339, 0.00789422, -0.0244186, -0.0564046
0.171133, 0.110671, -0.772557, -0.925471, -1.45996, -0.62557, 1.0698, -0.256652, 0.0733272, 0.015836, -0.137614, -0.0538667, 8.43223e-05, 0.00302151, -3.93074e-05, 1.38038, 16.16, 18.2963, 14.8331, 1.01276, 3.72592, -0.0621838, -0.00135924, -0.00162741, -0.000426745, -0.000333818, -0.0146157, 0.0058918, 0.0273598, 0.000495533, 0.0162111, 0.0138886, 0.155813, 0.254191, -0.00901756, -0.446132, 0.630878, -3.12255, -0.0609012, -0.122233, -0.0104692, -0.444566, 0.631221, -3.12391, -0.051809, -0.0993583, 0.0376182, -0.0233964, -0.0707441, 0.00908164, -0.024234, -0.0567238
0.172133, 0.110742, -0.772551, -0.925619, -1.46002, -0.625571, 1.0698, -0.25665, 0.0706828, 0.0133676, -0.138653, -0.0527172, -0.000621954, 0.00169607, -0.000263564, 1.38038, 16.2314, 18.332, 14.7577, 1.03107, 3.74057, -0.0557752, -0.0013947, -0.00162644, -0.00043936, -0.000346911, -0.0148325, 0.00596657, 0.0304888, 0.00066631, 0.0169065, 0.0143005, 0.154844, 0.252658, -0.00897973, -0.446156, 0.630807, -3.12239, -0.0609922, -0.122484, -0.0104678, -0.444592, 0.631159, -3.12379, -0.051788, -0.0992715, 0.0380486, -0.0236155, -0.0714557, 0.00633174, -0.0244187, -0.0569905
0.173133, 0.110816, -0.772537, -0.925757, -1.46008, -0.625569, 1.0698, -0.256647, 0.0728995, 0.0141274, -0.137811, -0.0546407, 0.000263533, 0.000519013, 0.000299009, 1.34071, 16.1957, 18.2963, 14.7934, 1.01276, 3.76163, -0.0685925, -0.00142064, -0.00162926, -0.00045266, -0.000359965, -0.0150638, 0.00602452, 0.0289286, 0.00147337, 0.0171405, 0.0135152, 0.157806, 0.258924, -0.00894147, -0.44618, 0.630735, -3.12224, -0.0610841, -0.122738, -0.0104567, -0.444614, 0.631099, -3.12366, -0.0517945, -0.0991648, 0.0384809, -0.0238347, -0.0721687, 0.00826566, -0.02378, -0.0573407
0.174133, 0.110883, -0.772531, -0.925902, -1.46015, -0.625571, 1.0698, -0.256644, 0.0712944, 0.0120705, -0.141962, -0.0593628, -0.000265121, 0.00101469, 0.00118268, 1.38038, 16.2671, 18.332, 14.8331, 1.02466, 3.74698, -0.0951428, -0.00145474, -0.00162986, -0.000464546, -0.000373526, -0.0152892, 0.00609631, 0.0310676, 0.00107277, 0.0152968, 0.0100776, 0.160163, 0.258033, -0.00890277, -0.446204, 0.630663, -3.12208, -0.061177, -0.122995, -0.0104531, -0.44464, 0.631035, -3.12353, -0.0517803, -0.0990696, 0.0389151, -0.0240539, -0.0728831, 0.006727, -0.0244527, -0.0600728
0.175133, 0.110954, -0.772514, -0.926045, -1.46021, -0.62557, 1.0698, -0.256651, 0.072, 0.0117184, -0.140969, -0.0620118, 6.06116e-05, 0.000499803, -0.00165295, 1.38038, 16.16, 18.332, 14.8331, 1.01825, 3.7543, -0.0292249, -0.00148421, -0.00163179, -0.000478509, -0.000388432, -0.0155264, 0.00615455, 0.0303573, 0.00178757, 0.0154238, 0.00979959, 0.162558, 0.266431, -0.00886363, -0.446228, 0.630589, -3.12192, -0.0612707, -0.123253, -0.0104446, -0.444663, 0.630974, -3.1234, -0.0517882, -0.098959, 0.0393512, -0.0242732, -0.0735988, 0.00783007, -0.0239368, -0.0606003
0.176133, 0.111024, -0.772512, -0.926181, -1.46028, -0.625569, 1.0698, -0.256647, 0.0697658, 0.00618101, -0.140326, -0.0641027, 0.000243858, -0.000138375, 0.000356095, 1.38038, 16.2671, 18.332, 14.8331, 1.01276, 3.76895, -0.0685925, -0.0015156, -0.00163551, -0.000494251, -0.000407036, -0.0157516, 0.00621751, 0.0327782, 0.00237582, 0.0155332, 0.00942358, 0.159561, 0.266489, -0.00882406, -0.446252, 0.630515, -3.12175, -0.0613653, -0.123515, -0.0104379, -0.444686, 0.630913, -3.12328, -0.0517895, -0.0988697, 0.0397893, -0.0244926, -0.0743159, 0.00582242, -0.0236679, -0.0613966
0.177133, 0.111092, -0.772504, -0.926317, -1.46036, -0.62557, 1.0698, -0.256651, 0.0677117, 0.00875365, -0.138774, -0.0690549, -4.08783e-05, -0.000310299, -0.00122067, 1.38038, 16.2314, 18.2963, 14.9799, 1.01825, 3.77627, -0.0292249, -0.00154444, -0.00163997, -0.000506712, -0.00042055, -0.0159934, 0.00626925, 0.0318445, 0.00334902, 0.015341, 0.0091974, 0.166601, 0.272166, -0.00878406, -0.446277, 0.630441, -3.12159, -0.0614609, -0.123779, -0.0104279, -0.444707, 0.630848, -3.12314, -0.0518097, -0.0987571, 0.0402292, -0.0247119, -0.0750342, 0.00716639, -0.0228796, -0.0622231
0.178133, 0.111152, -0.772503, -0.926462, -1.46042, -0.625571, 1.0698, -0.256648, 0.0647332, 0.00482619, -0.140519, -0.0647133, -0.000264611, -0.000166952, 0.000169567, 1.45576, 16.3068, 18.3716, 14.9442, 1.02466, 3.77627, -0.0557752, -0.00158553, -0.00164192, -0.000522491, -0.00043959, -0.0162191, 0.00635209, 0.036198, 0.00295825, 0.0169197, 0.0119417, 0.161032, 0.266806, -0.00874361, -0.446302, 0.630365, -3.12142, -0.0615574, -0.124045, -0.0104299, -0.444732, 0.630785, -3.12301, -0.0517819, -0.0986719, 0.040671, -0.0249313, -0.0757538, 0.00316036, -0.0236915, -0.0617273
0.179133, 0.111227, -0.772497, -0.926604, -1.46049, -0.625569, 1.0698, -0.256654, 0.0671333, 0.00700807, -0.142101, -0.0694381, 0.000264402, 0.000461168, -0.00185364, 1.34071, 16.3068, 18.332, 14.9442, 1.01276, 3.76163, -0.00267457, -0.00161647, -0.00164464, -0.000538719, -0.000459992, -0.0164521, 0.00640682, 0.0342384, 0.00312883, 0.0158209, 0.00980628, 0.166717, 0.275266, -0.00870271, -0.446327, 0.630289, -3.12126, -0.0616548, -0.124315, -0.0104214, -0.444756, 0.630723, -3.12288, -0.0517989, -0.0985784, 0.0411146, -0.0251507, -0.0764746, 0.00563354, -0.0236487, -0.0633905
0.180133, 0.111292, -0.77249, -0.926757, -1.46056, -0.625571, 1.0698, -0.256647, 0.069061, 0.00629278, -0.148327, -0.071223, -0.000264541, -0.000212638, 0.00120564, 1.34071, 16.2671, 18.3716, 15.0195, 1.02466, 3.77627, -0.0685925, -0.0016558, -0.00164625, -0.000551538, -0.000471657, -0.0166938, 0.00649342, 0.0358227, 0.00229848, 0.0141361, 0.00554837, 0.16924, 0.272643, -0.00866138, -0.446352, 0.630212, -3.12109, -0.0617531, -0.124586, -0.0104205, -0.444782, 0.630656, -3.12275, -0.0517678, -0.098473, 0.0415602, -0.0253701, -0.0771966, 0.00466568, -0.0247317, -0.0659375
