alisrour97/Franka_experiments/Real_Robot_scripts/servo-franka/Data4/log_dyn_INITw_ki_20.csv
Time,q1,q2,q3,q4,q5,q6,q7,dq1,dq2,dq3,dq4,dq5,dq6,dq7,t1,t2,t3,t4,t5,t6,t7,ex1,ex2,ex3,ex4,ex5,ex6,ev1,ev2,ev3,ev4,ev5,ev6,xd,yd,zd,uxd,uyd,uzd,x,y,z,ux,uy,uz,vxd,vyd,vzd,vx,vy,vz
1.46484e-06, 0.107612, -0.774187, -0.915982, -1.4562, -0.625332, 1.07023, -0.256734, -0.00551419, -0.00100255, 0.00121948, 0.000928975, -0.00141689, -0.000226219, -0.00115974, 0.0949785, 16.0489, 18.7049, 15.1306, 1.18396, 3.25992, -0.166554, 0.000907405, -0.00168774, -6.35512e-05, -0.000305822, 3.14234e-05, 0.000132666, 0.00284168, 0.00017967, 0.000740147, 0.0020453, -0.000506888, -0.00456883, -0.011112, -0.444721, 0.635038, -3.13187, -0.0555627, -0.107532, -0.0102662, -0.443002, 0.635173, -3.13216, -0.0557857, -0.107594, 0, 0, 0, -0.00289027, 7.32316e-05, 0.000544277
0.0174387, 0.107571, -0.774216, -0.915997, -1.4562, -0.625334, 1.07022, -0.256737, -0.000613581, -7.19155e-05, -0.000916228, -0.000989957, -0.000643874, -0.000170127, 0.000143414, 0.21003, 16.0092, 18.8913, 15.206, 1.22699, 3.29562, -0.160145, 0.000873613, -0.00168662, -5.91826e-05, -0.000290855, 5.53553e-05, 0.000184628, 0.000527054, -0.000147529, -0.000557535, -0.000962045, 0.00118631, -0.00123834, -0.011112, -0.444721, 0.635038, -3.13187, -0.0555627, -0.107532, -0.0103052, -0.443005, 0.635167, -3.13215, -0.0556881, -0.107635, 1.73063e-06, 3.0097e-06, -3.96181e-06, -0.000480332, -0.000158168, -0.000597285
0.018439, 0.107571, -0.774216, -0.915997, -1.4562, -0.625334, 1.07022, -0.256737, -0.000613581, -7.19155e-05, -0.000916228, -0.000989957, -0.000643874, -0.000170127, 0.000143414, 0.21003, 16.0092, 18.8913, 15.206, 1.22699, 3.29562, -0.160145, 0.00087361, -0.00168661, -5.9192e-05, -0.000290875, 5.53322e-05, 0.000184629, 0.000531726, -0.000156257, -0.000545279, -0.000937416, 0.00118962, -0.00119166, -0.011112, -0.444721, 0.635038, -3.13187, -0.0555627, -0.107532, -0.0103052, -0.443005, 0.635167, -3.13215, -0.0556881, -0.107635, 6.91577e-06, 1.20019e-05, -1.58141e-05, -0.000480332, -0.000158168, -0.000597285
0.019439, 0.107571, -0.774216, -0.915997, -1.4562, -0.625334, 1.07022, -0.256737, -0.000613581, -7.19155e-05, -0.000916228, -0.000989957, -0.000643874, -0.000170127, 0.000143414, 0.21003, 16.0092, 18.8913, 15.206, 1.22699, 3.29562, -0.160145, 0.0008736, -0.0016866, -5.92178e-05, -0.000290929, 5.52695e-05, 0.000184631, 0.000539502, -0.000170737, -0.000524914, -0.000896516, 0.00119515, -0.0011141, -0.011112, -0.444721, 0.635038, -3.13187, -0.0555627, -0.107532, -0.0103052, -0.443005, 0.635167, -3.13215, -0.0556881, -0.107635, 1.55453e-05, 2.69215e-05, -3.55071e-05, -0.000480332, -0.000158168, -0.000597285
0.020439, 0.107571, -0.774216, -0.915997, -1.4562, -0.625334, 1.07022, -0.256737, -0.000613581, -7.19155e-05, -0.000916228, -0.000989957, -0.000643874, -0.000170127, 0.000143414, 0.21003, 16.0092, 18.8913, 15.206, 1.22699, 3.29562, -0.160145, 0.000873581, -0.00168656, -5.92677e-05, -0.000291035, 5.51478e-05, 0.000184634, 0.000550373, -0.000190916, -0.000496491, -0.000839465, 0.00120289, -0.00100588, -0.011112, -0.444721, 0.635038, -3.13187, -0.0555628, -0.107532, -0.0103052, -0.443005, 0.635167, -3.13215, -0.0556881, -0.107635, 2.7609e-05, 4.77135e-05, -6.29913e-05, -0.000480332, -0.000158168, -0.000597285
0.0214392, 0.107571, -0.774216, -0.915997, -1.4562, -0.625334, 1.07022, -0.256737, -0.000613581, -7.19155e-05, -0.000916228, -0.000989957, -0.000643874, -0.000170127, 0.000143414, 0.21003, 16.0092, 18.8913, 15.206, 1.22699, 3.29562, -0.160145, 0.000873549, -0.0016865, -5.935e-05, -0.000291209, 5.49475e-05, 0.00018464, 0.000564331, -0.000216738, -0.00046006, -0.000766384, 0.00121286, -0.00086719, -0.0111119, -0.444721, 0.635038, -3.13187, -0.0555628, -0.107532, -0.0103052, -0.443005, 0.635167, -3.13215, -0.0556881, -0.107635, 4.30968e-05, 7.4323e-05, -9.82172e-05, -0.000480332, -0.000158168, -0.000597285
0.0224392, 0.107571, -0.774216, -0.915997, -1.4562, -0.625334, 1.07022, -0.256737, -0.000613581, -7.19155e-05, -0.000916228, -0.000989957, -0.000643874, -0.000170127, 0.000143414, 0.21003, 16.0092, 18.8913, 15.206, 1.22699, 3.29562, -0.160145, 0.000873502, -0.00168641, -5.94724e-05, -0.000291468, 5.46493e-05, 0.000184648, 0.000581366, -0.00024815, -0.000415671, -0.000677394, 0.00122506, -0.000698239, -0.0111119, -0.444721, 0.635038, -3.13187, -0.0555628, -0.107533, -0.0103052, -0.443005, 0.635167, -3.13215, -0.0556881, -0.107635, 6.19987e-05, 0.000106695, -0.000141136, -0.000480332, -0.000158168, -0.000597285
0.0234392, 0.107571, -0.774216, -0.915997, -1.4562, -0.625334, 1.07022, -0.256737, -0.000613581, -7.19155e-05, -0.000916228, -0.000989957, -0.000643874, -0.000170127, 0.000143414, 0.21003, 16.0092, 18.8913, 15.206, 1.22699, 3.29562, -0.160145, 0.000873436, -0.00168629, -5.96429e-05, -0.000291828, 5.42341e-05, 0.00018466, 0.000601472, -0.000285099, -0.000363376, -0.000572614, 0.00123949, -0.000499228, -0.0111118, -0.44472, 0.635037, -3.13187, -0.0555628, -0.107533, -0.0103052, -0.443005, 0.635167, -3.13215, -0.0556881, -0.107635, 8.43044e-05, 0.000144776, -0.000191697, -0.000480332, -0.000158168, -0.000597285
0.0244395, 0.107571, -0.774216, -0.915997, -1.4562, -0.625334, 1.07022, -0.256737, -0.000613581, -7.19155e-05, -0.000916228, -0.000989957, -0.000643874, -0.000170127, 0.000143414, 0.21003, 16.0092, 18.8913, 15.206, 1.22699, 3.29562, -0.160145, 0.000873349, -0.00168613, -5.98692e-05, -0.000292306, 5.36827e-05, 0.000184676, 0.000624638, -0.000327529, -0.000303224, -0.000452163, 0.00125616, -0.000270359, -0.0111117, -0.44472, 0.635037, -3.13187, -0.0555629, -0.107534, -0.0103052, -0.443005, 0.635167, -3.13215, -0.0556881, -0.107635, 0.000110004, 0.000188511, -0.000249853, -0.000480332, -0.000158168, -0.000597285
0.0254399, 0.107571, -0.774216, -0.915997, -1.4562, -0.625334, 1.07022, -0.256737, -0.000613581, -7.19155e-05, -0.000916228, -0.000989957, -0.000643874, -0.000170127, 0.000143414, 0.21003, 16.0092, 18.8913, 15.206, 1.22699, 3.29562, -0.160145, 0.000873237, -0.00168592, -6.01593e-05, -0.000292919, 5.29764e-05, 0.000184697, 0.000650857, -0.000375389, -0.000235264, -0.000316162, 0.00127507, -1.18323e-05, -0.0111116, -0.44472, 0.635037, -3.13187, -0.0555629, -0.107535, -0.0103052, -0.443005, 0.635167, -3.13215, -0.0556881, -0.107635, 0.000139087, 0.000237846, -0.000315553, -0.000480332, -0.000158168, -0.000597285
0.0264402, 0.107571, -0.774216, -0.915997, -1.4562, -0.625334, 1.07022, -0.256737, -0.000613581, -7.19155e-05, -0.000916228, -0.000989957, -0.000643874, -0.000170127, 0.000143414, 0.21003, 16.0092, 18.8913, 15.206, 1.22699, 3.29562, -0.160145, 0.000873097, -0.00168567, -6.05209e-05, -0.000293682, 5.20961e-05, 0.000184722, 0.000680118, -0.000428624, -0.000159548, -0.000164728, 0.00129623, 0.00027615, -0.0111114, -0.44472, 0.635037, -3.13186, -0.055563, -0.107537, -0.0103052, -0.443005, 0.635167, -3.13215, -0.0556881, -0.107635, 0.000171544, 0.000292726, -0.00038875, -0.000480332, -0.000158168, -0.000597285
0.0274407, 0.107571, -0.774216, -0.915997, -1.4562, -0.625334, 1.07022, -0.256737, -0.000613581, -7.19155e-05, -0.000916228, -0.000989957, -0.000643874, -0.000170127, 0.000143414, 0.21003, 16.0092, 18.8913, 15.206, 1.22699, 3.29562, -0.160145, 0.000872927, -0.00168536, -6.09615e-05, -0.000294612, 5.10234e-05, 0.000184754, 0.000712415, -0.000487182, -7.61235e-05, 2.01835e-06, 0.00131964, 0.000593389, -0.0111112, -0.444719, 0.635036, -3.13186, -0.055563, -0.107538, -0.0103052, -0.443005, 0.635167, -3.13215, -0.0556881, -0.107635, 0.000207364, 0.000353099, -0.000469394, -0.000480332, -0.000158168, -0.000597285
0.0284407, 0.107571, -0.774216, -0.915997, -1.4562, -0.625334, 1.07022, -0.256737, -0.000613581, -7.19155e-05, -0.000916228, -0.000989957, -0.000643874, -0.000170127, 0.000143414, 0.21003, 16.0092, 18.8913, 15.206, 1.22699, 3.29562, -0.160145, 0.000872723, -0.00168498, -6.14889e-05, -0.000295725, 4.97396e-05, 0.000184792, 0.000747739, -0.000551009, 1.49585e-05, 0.00018396, 0.0013453, 0.000939683, -0.011111, -0.444719, 0.635036, -3.13186, -0.0555631, -0.10754, -0.0103052, -0.443005, 0.635167, -3.13215, -0.0556881, -0.107635, 0.000246538, 0.00041891, -0.000557437, -0.000480332, -0.000158168, -0.000597285
0.0294407, 0.107571, -0.774216, -0.915997, -1.4562, -0.625334, 1.07022, -0.256737, -0.000613581, -7.19155e-05, -0.000916228, -0.000989957, -0.000643874, -0.000170127, 0.000143414, 0.21003, 16.0092, 18.8913, 15.206, 1.22699, 3.29562, -0.160145, 0.000872482, -0.00168454, -6.21107e-05, -0.000297036, 4.82263e-05, 0.000184838, 0.000786079, -0.000620053, 0.000113649, 0.000380979, 0.00137323, 0.00131483, -0.0111107, -0.444719, 0.635035, -3.13186, -0.0555632, -0.107542, -0.0103052, -0.443005, 0.635167, -3.13215, -0.0556881, -0.107635, 0.000289055, 0.000490107, -0.00065283, -0.000480332, -0.000158168, -0.000597285
0.0304407, 0.107571, -0.774216, -0.915997, -1.4562, -0.625334, 1.07022, -0.256737, -0.000613581, -7.19155e-05, -0.000916228, -0.000989957, -0.000643874, -0.000170127, 0.000143414, 0.21003, 16.0092, 18.8913, 15.206, 1.22699, 3.29562, -0.160145, 0.000872201, -0.00168403, -6.28344e-05, -0.000298561, 4.64652e-05, 0.000184891, 0.000827429, -0.00069426, 0.000219898, 0.000592956, 0.00140343, 0.00171864, -0.0111104, -0.444718, 0.635034, -3.13186, -0.0555634, -0.107545, -0.0103052, -0.443005, 0.635167, -3.13215, -0.0556881, -0.107635, 0.000334905, 0.000566635, -0.000755525, -0.000480332, -0.000158168, -0.000597285
0.0314407, 0.107523, -0.774218, -0.916012, -1.45621, -0.625344, 1.07022, -0.256735, -0.00112806, 0.000575579, -0.000712809, -0.00119523, -0.00169998, 0.000165974, -0.000395119, 0.21003, 16.0489, 19.0421, 15.3171, 1.27002, 3.30295, -0.147328, 0.000845149, -0.00168133, -5.82776e-05, -0.000292586, 3.22908e-05, 0.00024649, 0.00096475, -0.000875483, 0.000397985, 0.00167618, 0.00283353, 0.00192884, -0.0111101, -0.444717, 0.635033, -3.13186, -0.0555635, -0.107548, -0.0103314, -0.443008, 0.63516, -3.13214, -0.0555928, -0.107615, 0.000384079, 0.000648441, -0.000865474, -0.000573793, -0.000263829, -0.000540128
0.0324407, 0.107519, -0.774219, -0.916012, -1.45621, -0.625343, 1.07022, -0.256732, -0.00163475, 0.00130829, -0.00173551, -0.00184297, 9.95159e-05, -0.000160618, 0.000448664, 0.245735, 16.0092, 18.9667, 15.2417, 1.2334, 3.31027, -0.166554, 0.000842332, -0.00168084, -5.94476e-05, -0.000294024, 3.23178e-05, 0.00025415, 0.000888682, -0.000823519, 4.41855e-05, -9.56688e-05, 0.00286642, 0.00145696, -0.0111097, -0.444717, 0.635033, -3.13186, -0.0555637, -0.107552, -0.0103339, -0.443008, 0.63516, -3.13214, -0.055581, -0.107618, 0.000436566, 0.000735474, -0.000982628, -0.000423103, -0.000119145, -0.0010047
0.0334407, 0.107521, -0.774216, -0.916018, -1.45621, -0.625344, 1.07022, -0.256733, 0.000637784, 0.00513849, -0.00350825, -0.00146269, -0.00266482, -0.000378346, -0.000175608, 0.170357, 15.8267, 18.9271, 15.2417, 1.17847, 3.31759, -0.153737, 0.000843018, -0.00167935, -5.71364e-05, -0.000289396, 2.14035e-05, 0.00025241, -1.72414e-05, -0.00153176, -0.000162409, 0.000381807, 0.00877502, 0.00196062, -0.0111092, -0.444716, 0.635032, -3.13185, -0.0555639, -0.107556, -0.0103325, -0.443009, 0.635157, -3.13213, -0.0555841, -0.107605, 0.000492356, 0.000827679, -0.00110694, 0.000575322, -0.000701073, -0.00127724
0.0344407, 0.107526, -0.774215, -0.916019, -1.45621, -0.625349, 1.07022, -0.256733, 0.00216171, 0.00367942, -0.00333714, 0.00228302, -0.00199808, -0.00130339, -0.00110042, 0.0949785, 15.6799, 18.816, 15.0949, 1.17206, 3.34598, -0.127186, 0.000842062, -0.00167788, -5.88316e-05, -0.000292595, 1.51027e-05, 0.000254049, 0.00049936, -0.00165282, 0.000983058, 0.00155113, 0.00488152, 0.00345075, -0.0111087, -0.444715, 0.63503, -3.13185, -0.0555641, -0.10756, -0.010333, -0.443009, 0.635157, -3.13213, -0.0555817, -0.1076, 0.000551439, 0.000925004, -0.00123836, 4.52551e-05, -0.000752763, -0.000302174
0.0354407, 0.107528, -0.77421, -0.916024, -1.45621, -0.625357, 1.07022, -0.256734, 0.00225632, 0.00346455, -0.00281864, 0.000555145, -0.00143886, -0.000597661, -0.00266639, 0.059273, 15.4935, 18.816, 15.1306, 1.16565, 3.33865, -0.0750012, 0.000842109, -0.00167526, -5.75307e-05, -0.000293855, -2.31239e-06, 0.000255692, -0.000131002, -0.00161586, 0.000798441, 0.00154654, 0.00503204, 0.00720598, -0.0111081, -0.444714, 0.635029, -3.13185, -0.0555643, -0.107565, -0.0103322, -0.443011, 0.635155, -3.13213, -0.0555794, -0.107578, 0.000613805, 0.0010274, -0.00137684, 0.000747419, -0.000589672, -0.000581293
0.0364407, 0.107526, -0.774212, -0.916023, -1.45621, -0.625361, 1.07022, -0.256734, 0.00148919, 0.00268822, -0.00464855, 0.00027136, -0.000776557, -0.00121224, -0.00225231, 0.059273, 15.4578, 18.7803, 15.1306, 1.15375, 3.36062, -0.0621838, 0.000839022, -0.00167361, -5.9752e-05, -0.000301065, -5.89651e-06, 0.000260411, 0.000967899, -0.00186688, 0.000282239, -0.000322798, 0.00437409, 0.00566918, -0.0111074, -0.444713, 0.635028, -3.13184, -0.0555646, -0.10757, -0.0103347, -0.443012, 0.635155, -3.13214, -0.0555721, -0.107578, 0.000679445, 0.00113481, -0.00152234, -0.000238269, -0.000767331, -0.00131884
0.0374407, 0.107523, -0.774223, -0.916024, -1.45622, -0.625371, 1.07022, -0.256736, 0.000146305, -0.000313615, -0.00369636, -0.00341962, -0.00568197, -0.000808162, -0.00224753, 0.0949785, 15.5331, 18.7803, 15.2814, 1.16015, 3.36062, -0.0420422, 0.000833386, -0.00167145, -5.85718e-05, -0.000304052, -1.04097e-05, 0.000262688, 0.00238166, -0.00222773, -0.000448615, 0.000939769, 0.00729133, 0.00519236, -0.0111067, -0.444712, 0.635026, -3.13184, -0.0555649, -0.107577, -0.0103395, -0.443013, 0.635152, -3.13214, -0.0555688, -0.107577, 0.000748347, 0.00124718, -0.0016748, -0.00151599, -0.001059, -0.00229982
0.0384407, 0.107525, -0.774222, -0.916025, -1.45622, -0.62538, 1.07022, -0.256731, 0.000924302, 0.00129727, -0.00374746, -0.00409852, -0.00544659, -0.0010474, 0.00019707, 0.059273, 15.4578, 18.816, 15.3568, 1.19037, 3.37436, -0.0878186, 0.000832381, -0.00166932, -5.93835e-05, -0.000309237, -2.51921e-05, 0.000269574, 0.00146724, -0.00222364, -0.000490431, 0.000607201, 0.00933783, 0.00457079, -0.0111059, -0.444711, 0.635024, -3.13184, -0.0555653, -0.107583, -0.0103397, -0.443014, 0.635151, -3.13214, -0.0555583, -0.107561, 0.000820503, 0.00136446, -0.00183418, -0.000529429, -0.0009051, -0.00243806
0.0394407, 0.107528, -0.774229, -0.916027, -1.45622, -0.625389, 1.07022, -0.256727, 0.00153788, -0.00109106, -0.00459754, -0.000587987, -0.00427315, -0.000698267, 0.00135208, 0.0196001, 15.5331, 18.8913, 15.3925, 1.19678, 3.37436, -0.120778, 0.000828513, -0.00166627, -5.98678e-05, -0.000314383, -3.12992e-05, 0.000276245, 0.00272832, -0.00272238, 0.000434278, 0.00192726, 0.00369692, 0.00279679, -0.0111051, -0.444709, 0.635022, -3.13183, -0.0555656, -0.10759, -0.0103426, -0.443015, 0.635149, -3.13214, -0.0555482, -0.107559, 0.000895902, 0.00148661, -0.00200043, -0.00175686, -0.00133371, -0.00177159
0.0404407, 0.10753, -0.774232, -0.916027, -1.45622, -0.625398, 1.07022, -0.256728, 0.0010205, -0.0017071, -0.00415224, -0.000171463, -0.00781987, 4.31148e-05, 0.00066403, 0.0196001, 15.5688, 18.9271, 15.3925, 1.19678, 3.36062, -0.114369, 0.000826163, -0.00166339, -6.22324e-05, -0.00032448, -3.95118e-05, 0.000277801, 0.00377485, -0.00332514, 0.00092555, 0.00500334, 0.00515355, 0.00207162, -0.0111041, -0.444708, 0.63502, -3.13183, -0.055566, -0.107598, -0.0103441, -0.443017, 0.635149, -3.13214, -0.0555459, -0.107554, 0.000974534, 0.00161356, -0.00217351, -0.00273377, -0.00185018, -0.00153028
0.0414407, 0.107528, -0.774237, -0.91602, -1.45622, -0.625408, 1.07022, -0.25673, 0.000676767, -0.00300968, -0.000358705, 5.10881e-05, -0.00606723, 2.87432e-05, -0.00026939, 0.0196001, 15.6442, 18.816, 15.3925, 1.20318, 3.36062, -0.0951428, 0.000823099, -0.00166181, -6.63461e-05, -0.000337981, -4.70552e-05, 0.000277115, 0.00288234, -0.00254759, 0.00222015, 0.00709102, 0.00226803, 0.00698535, -0.0111031, -0.444706, 0.635018, -3.13182, -0.0555664, -0.107607, -0.0103463, -0.443017, 0.635151, -3.13215, -0.0555469, -0.107552, 0.00105639, 0.00174526, -0.00235336, -0.00187847, -0.00092123, -0.000352471
0.0424407, 0.107538, -0.774234, -0.91602, -1.45622, -0.625419, 1.07022, -0.256735, 0.00304696, -0.00115971, -0.000380886, 0.000993324, -0.00854715, -0.000489464, -0.00190892, -0.0914839, 15.6046, 18.816, 15.3568, 1.18396, 3.37436, -0.0484509, 0.000824229, -0.0016587, -6.92163e-05, -0.000347367, -6.31084e-05, 0.000269376, 0.00209332, -0.00295304, 0.00264526, 0.00860554, 0.00571251, 0.0100285, -0.011102, -0.444704, 0.635016, -3.13182, -0.0555669, -0.107616, -0.0103442, -0.443018, 0.635152, -3.13216, -0.0555592, -0.107537, 0.00114146, 0.00188168, -0.00253994, -0.0010214, -0.00116594, -6.32621e-05
0.0434407, 0.107536, -0.774237, -0.916018, -1.45622, -0.625426, 1.07022, -0.256734, 0.00119408, -0.00176213, -0.00555081, 0.00168327, -0.00532197, -0.000597577, -0.000763989, -0.0557783, 15.6442, 18.7803, 15.3171, 1.15375, 3.38168, -0.0621838, 0.000820117, -0.0016564, -7.33451e-05, -0.000358613, -7.08887e-05, 0.000276186, 0.00435919, -0.00371136, 0.00160879, 0.00460774, 0.00255975, 0.00505144, -0.0111008, -0.444702, 0.635013, -3.13181, -0.0555674, -0.107626, -0.0103473, -0.443019, 0.635153, -3.13216, -0.0555487, -0.107535, 0.00122973, 0.00202275, -0.00273321, -0.00309419, -0.00185344, -0.00145107
0.0444407, 0.107541, -0.774237, -0.916018, -1.45622, -0.625437, 1.07022, -0.256731, 0.00255779, -0.00122047, -0.0034472, -0.00057128, -0.00793033, -0.000669652, -0.000746685, -0.131157, 15.6442, 18.7446, 15.3925, 1.12903, 3.38901, -0.0557752, 0.000820456, -0.00165357, -7.45029e-05, -0.000365509, -8.97267e-05, 0.000275492, 0.00304853, -0.00361364, 0.00169946, 0.00615526, 0.00655505, 0.00868576, -0.0110996, -0.4447, 0.63501, -3.1318, -0.055568, -0.107637, -0.0103457, -0.443019, 0.635151, -3.13216, -0.0555502, -0.107517, 0.00132119, 0.00216842, -0.00293311, -0.00170568, -0.0015648, -0.00146984
0.0454407, 0.107538, -0.774237, -0.91602, -1.45622, -0.625447, 1.07022, -0.256727, 0.000776044, -0.000847939, -0.00273455, 0.000506697, -0.0105539, -0.000446435, 0.000451646, -0.0914839, 15.6442, 18.7446, 15.3568, 1.12262, 3.38901, -0.0814099, 0.000814623, -0.00164962, -7.76684e-05, -0.00037625, -0.000103393, 0.000290642, 0.00429213, -0.00397341, 0.00253222, 0.00914333, 0.00811991, 0.00524942, -0.0110982, -0.444698, 0.635007, -3.1318, -0.0555686, -0.107648, -0.0103502, -0.443021, 0.635151, -3.13217, -0.055527, -0.107507, 0.00141584, 0.00231864, -0.0031396, -0.00289514, -0.00182509, -0.000933367
0.0464407, 0.107543, -0.77424, -0.916019, -1.45622, -0.625456, 1.07022, -0.256727, 0.00144454, -0.00142623, -0.00122232, -0.000458171, -0.00691758, -0.000297623, 0.000301097, -0.131157, 15.6799, 18.7049, 15.3925, 1.09241, 3.38901, -0.0814099, 0.000813784, -0.00164579, -8.1486e-05, -0.000390842, -0.000114954, 0.000289507, 0.00284676, -0.00341162, 0.00286028, 0.00844994, 0.00534376, 0.0102958, -0.0110967, -0.444695, 0.635004, -3.13179, -0.0555692, -0.107661, -0.0103497, -0.443023, 0.635151, -3.13218, -0.0555289, -0.107502, 0.00151366, 0.00247337, -0.00335263, -0.00139881, -0.00106096, -0.000716264
0.0474407, 0.107547, -0.774237, -0.916019, -1.45622, -0.62547, 1.07022, -0.256727, 0.00179761, -0.00013489, -0.00106036, -0.00027601, -0.00986931, -0.00074095, 0.000200731, -0.166862, 15.6442, 18.7049, 15.3925, 1.086, 3.40365, -0.0814099, 0.000811641, -0.00164176, -8.51319e-05, -0.000403863, -0.000136009, 0.000293709, 0.00299977, -0.00378331, 0.00318735, 0.0100971, 0.00903656, 0.0102207, -0.0110952, -0.444693, 0.635, -3.13178, -0.0555699, -0.107674, -0.0103504, -0.443024, 0.635151, -3.13218, -0.0555227, -0.107483, 0.00161465, 0.00263255, -0.00357216, -0.00145954, -0.00128148, -0.000622411
0.0484407, 0.107544, -0.774237, -0.916019, -1.45622, -0.625483, 1.07022, -0.256727, 0.000362711, -0.000104393, -0.00089102, 0.000673289, -0.0117337, -0.000493967, 0.000133821, -0.131157, 15.6442, 18.7049, 15.3568, 1.0741, 3.40365, -0.0814099, 0.000806164, -0.00163818, -8.88768e-05, -0.000415461, -0.000156077, 0.000302881, 0.00419971, -0.00418744, 0.00382552, 0.0123372, 0.00979132, 0.00848887, -0.0110935, -0.44469, 0.634997, -3.13177, -0.0555706, -0.107688, -0.0103543, -0.443025, 0.635151, -3.13219, -0.0555089, -0.107467, 0.00171879, 0.00279613, -0.00379814, -0.00258109, -0.00156955, -0.000296886
0.0494407, 0.107549, -0.774237, -0.916019, -1.45622, -0.625498, 1.07022, -0.25673, 0.00107667, -8.04454e-05, -0.000732097, -0.00120502, -0.013941, -0.0011092, -0.00113149, -0.166862, 15.6442, 18.7049, 15.4282, 1.086, 3.42471, -0.0484509, 0.000804277, -0.0016337, -9.1695e-05, -0.000428453, -0.000180036, 0.000300635, 0.0040302, -0.00436151, 0.00346405, 0.0122633, 0.0130926, 0.0114033, -0.0110917, -0.444687, 0.634993, -3.13176, -0.0555714, -0.107702, -0.0103545, -0.443027, 0.63515, -3.13219, -0.0555128, -0.107445, 0.00182607, 0.00296406, -0.00403052, -0.00227385, -0.00156649, -0.000879378
0.0504407, 0.107555, -0.774237, -0.916019, -1.45623, -0.62551, 1.07022, -0.256731, 0.00164553, -6.17677e-05, -0.000591627, -0.000790927, -0.0143346, -0.000468203, -0.000991685, -0.206535, 15.6442, 18.7049, 15.4282, 1.06128, 3.41739, -0.0420422, 0.000803308, -0.00162908, -9.54118e-05, -0.000442538, -0.000199582, 0.000299379, 0.00392318, -0.00470251, 0.00391758, 0.0137624, 0.0128897, 0.0124724, -0.0110899, -0.444684, 0.634989, -3.13175, -0.0555722, -0.107718, -0.0103536, -0.443029, 0.635149, -3.1322, -0.0555152, -0.107431, 0.00193648, 0.00313629, -0.00426926, -0.00207568, -0.00173526, -0.000660534
0.0514407, 0.107551, -0.774237, -0.916011, -1.45623, -0.625526, 1.07022, -0.256726, 0.0001688, -4.72816e-05, 0.00212637, -0.00228121, -0.0104185, -0.00085467, 0.0010343, -0.166862, 15.6442, 18.5938, 15.5035, 1.04938, 3.43204, -0.0878186, 0.000800163, -0.00162633, -0.000100364, -0.000460017, -0.000226974, 0.000307649, 0.00276333, -0.00369686, 0.00450128, 0.0132236, 0.0110479, 0.0146485, -0.0110879, -0.444681, 0.634984, -3.13174, -0.0555731, -0.107735, -0.010355, -0.443028, 0.63515, -3.13221, -0.0555028, -0.107405, 0.00205002, 0.00331277, -0.00451432, -0.000881706, -0.000518112, -0.000237223
0.0524407, 0.107552, -0.774234, -0.916019, -1.45622, -0.625543, 1.07022, -0.256727, 0.000112383, 0.000891922, -0.000403915, 0.000249418, -0.0121414, -0.00056978, 0.000452173, -0.166862, 15.6046, 18.6692, 15.4282, 1.03656, 3.43204, -0.0814099, 0.000792598, -0.00161917, -0.000105318, -0.000477053, -0.000249923, 0.000323311, 0.00425424, -0.00474566, 0.00487497, 0.0145927, 0.0116943, 0.012105, -0.0110858, -0.444678, 0.63498, -3.13173, -0.055574, -0.107752, -0.0103605, -0.443033, 0.635149, -3.13222, -0.0554789, -0.107388, 0.00216668, 0.00349346, -0.00476563, -0.00223974, -0.00144129, -0.000225047
0.0534407, 0.107555, -0.774235, -0.916014, -1.45622, -0.625558, 1.07022, -0.256727, 7.48089e-05, -0.000336839, 0.00228549, 0.00184195, -0.0134196, -0.000108586, 0.00495988, -0.166862, 15.6442, 18.5581, 15.3568, 1.02466, 3.42471, -0.0814099, 0.000790053, -0.00161397, -0.000113067, -0.000502344, -0.000267975, 0.000326005, 0.00442124, -0.00475756, 0.00638926, 0.0186234, 0.010125, 0.0091871, -0.0110835, -0.444674, 0.634975, -3.13172, -0.055575, -0.107771, -0.0103612, -0.443034, 0.635152, -3.13223, -0.0554749, -0.10738, 0.00228643, 0.0036783, -0.00502317, -0.00238996, -0.0012875, 0.0010164
0.0544407, 0.107559, -0.774234, -0.916017, -1.45623, -0.625574, 1.07022, -0.256729, 0.000977808, 0.000700886, 0.00149089, -0.000438537, -0.00949807, -0.000614925, 0.00199937, -0.206535, 15.6046, 18.5581, 15.4282, 1.00635, 3.43936, -0.0356336, 0.000786944, -0.00160827, -0.00011571, -0.000514811, -0.000298383, 0.000328065, 0.00288433, -0.00441346, 0.00570695, 0.0152131, 0.0100592, 0.0165288, -0.0110812, -0.44467, 0.634969, -3.13171, -0.0555761, -0.10779, -0.0103619, -0.443036, 0.635149, -3.13223, -0.0554724, -0.107352, 0.00240928, 0.00386724, -0.00528689, -0.00070035, -0.000694725, 0.000179905
0.0554407, 0.107561, -0.774237, -0.916015, -1.45623, -0.625589, 1.07022, -0.256727, 0.000651808, -0.00129791, 0.00273259, -0.00121743, -0.0116883, -0.000138683, 0.00186142, -0.206535, 15.6799, 18.4827, 15.4678, 0.999938, 3.43204, -0.0420422, 0.000782405, -0.00160342, -0.000121304, -0.000531875, -0.000320989, 0.000333018, 0.0035682, -0.00468351, 0.00608082, 0.0173881, 0.0100211, 0.0176949, -0.0110787, -0.444666, 0.634964, -3.1317, -0.0555772, -0.107811, -0.0103642, -0.443037, 0.635149, -3.13224, -0.0554653, -0.107338, 0.00253522, 0.00406024, -0.00555673, -0.00127231, -0.000799001, 0.000234137
0.0564407, 0.107557, -0.774231, -0.91602, -1.45623, -0.625606, 1.07022, -0.256726, -0.00132875, 0.00173173, 0.000968076, -0.000809411, -0.0132744, 0.000178812, 0.00145931, -0.131157, 15.5688, 18.5184, 15.4678, 0.993529, 3.42471, -0.0420422, 0.000775391, -0.0015961, -0.000125703, -0.000550577, -0.000354189, 0.000350232, 0.00456498, -0.00536175, 0.00618904, 0.0183668, 0.013978, 0.0148841, -0.0110761, -0.444662, 0.634958, -3.13168, -0.0555784, -0.107832, -0.0103687, -0.443041, 0.635147, -3.13225, -0.0554393, -0.107309, 0.00266423, 0.00425725, -0.00583265, -0.00212038, -0.00131589, -6.91842e-06
0.0574407, 0.107567, -0.774232, -0.91602, -1.45623, -0.625623, 1.07023, -0.256726, 0.00171259, 0.000318185, -0.000702306, -0.000537949, -0.0140583, 0.000899102, 0.00113665, -0.242241, 15.6046, 18.443, 15.4678, 0.975218, 3.40365, -0.0420422, 0.000774319, -0.00158916, -0.000131632, -0.000572415, -0.00037972, 0.000348482, 0.00444312, -0.00622804, 0.00600818, 0.0186688, 0.0128101, 0.0175592, -0.0110734, -0.444658, 0.634952, -3.13167, -0.0555796, -0.107855, -0.0103672, -0.443044, 0.635147, -3.13226, -0.0554426, -0.107293, 0.0027963, 0.00445821, -0.00611461, -0.00182355, -0.00197485, -0.000466548
0.0584407, 0.10757, -0.774239, -0.916029, -1.45623, -0.625641, 1.07023, -0.256723, 0.0011417, -0.00155193, -0.0047465, 0.00057063, -0.0198658, 0.00476565, 0.00186394, -0.242241, 15.6799, 18.4827, 15.4282, 0.969725, 3.41739, -0.0685925, 0.000764129, -0.00158018, -0.000136188, -0.000590711, -0.000400221, 0.000366054, 0.00764488, -0.00867166, 0.00578401, 0.0230703, 0.0129493, 0.0109565, -0.0110705, -0.444653, 0.634946, -3.13165, -0.0555809, -0.107878, -0.0103744, -0.443048, 0.635145, -3.13226, -0.055416, -0.107285, 0.00293143, 0.00466308, -0.00640257, -0.00477803, -0.00432275, -0.00121452
0.0594407, 0.107573, -0.774237, -0.916031, -1.45623, -0.62566, 1.07023, -0.256722, 0.000761113, -0.00103523, -0.00269448, -0.000546667, -0.0194997, 0.00383794, 0.00180947, -0.242241, 15.6799, 18.443, 15.4678, 0.963317, 3.41006, -0.0814099, 0.000760046, -0.00157298, -0.000141827, -0.000612047, -0.000433062, 0.0003734, 0.00691494, -0.00817444, 0.00628073, 0.0234698, 0.0143841, 0.0140931, -0.0110675, -0.444648, 0.63494, -3.13164, -0.0555822, -0.107903, -0.0103757, -0.443051, 0.635144, -3.13227, -0.0554054, -0.10726, 0.00306961, 0.00487181, -0.00669647, -0.00396403, -0.00359591, -0.000959662
0.0604407, 0.107574, -0.774236, -0.916028, -1.45622, -0.625683, 1.07023, -0.256719, -0.000327825, 0.000144606, 0.000458515, 0.000564274, -0.0196992, 0.00257954, 0.0012754, -0.206535, 15.6442, 18.332, 15.4282, 0.969725, 3.41739, -0.0814099, 0.000752865, -0.00156571, -0.000150987, -0.000640743, -0.000465382, 0.000388593, 0.00655345, -0.00757669, 0.00779313, 0.025898, 0.0155708, 0.0164474, -0.0110644, -0.444643, 0.634933, -3.13162, -0.0555837, -0.107929, -0.01038, -0.443054, 0.635145, -3.13229, -0.0553823, -0.107237, 0.00321082, 0.00508435, -0.00699628, -0.00358773, -0.00278675, 0.000277803
0.0614407, 0.107587, -0.774237, -0.916042, -1.45623, -0.6257, 1.07023, -0.256722, 0.00237989, -0.000739158, -0.00171528, 0.000376707, -0.0242977, 0.00723169, 0.000427369, -0.317619, 15.6799, 18.4073, 15.4282, 0.975218, 3.40365, -0.0685925, 0.000748444, -0.00155488, -0.000154052, -0.000657564, -0.000494887, 0.000390632, 0.00682498, -0.00965686, 0.00773036, 0.0308091, 0.0161684, 0.0174293, -0.0110611, -0.444638, 0.634926, -3.13161, -0.0555852, -0.107956, -0.010381, -0.443059, 0.635141, -3.13229, -0.0553802, -0.107219, 0.00335505, 0.00530066, -0.00730195, -0.00363573, -0.00465837, -0.000122776
0.0624407, 0.107583, -0.774234, -0.916046, -1.45622, -0.625721, 1.07023, -0.256729, -0.00101187, 0.000342188, 0.000426432, 0.00108675, -0.0227618, 0.00487554, -0.001609, -0.206535, 15.6442, 18.332, 15.3925, 0.969725, 3.41739, -0.0164075, 0.000738271, -0.00154647, -0.000162129, -0.000682887, -0.000530095, 0.000403943, 0.00753365, -0.00878153, 0.0088143, 0.0308173, 0.0167951, 0.0193023, -0.0110577, -0.444633, 0.634918, -3.13159, -0.0555867, -0.107984, -0.010388, -0.443063, 0.635141, -3.1323, -0.0553604, -0.107193, 0.0035023, 0.00552068, -0.00761342, -0.00430089, -0.00359827, 0.000603519
0.0634407, 0.107591, -0.774226, -0.916055, -1.45622, -0.625744, 1.07023, -0.256724, 0.00330174, 0.00282639, -0.00596491, 0.000724795, -0.0215414, 0.00418127, -0.000331444, -0.242241, 15.5331, 18.332, 15.3925, 0.963317, 3.40365, -0.0356336, 0.000734146, -0.00153634, -0.000167168, -0.000704109, -0.000575045, 0.000418862, 0.00682305, -0.0100072, 0.00711425, 0.0258689, 0.0193613, 0.0194711, -0.0110541, -0.444627, 0.63491, -3.13157, -0.0555884, -0.108013, -0.0103885, -0.443068, 0.635138, -3.1323, -0.0553383, -0.107153, 0.00365255, 0.00574437, -0.00793067, -0.00328166, -0.00455945, -0.00136885
0.0644407, 0.10759, -0.774226, -0.91606, -1.45622, -0.625768, 1.07024, -0.256727, 0.00383453, 0.00188411, -0.00888181, 0.00224666, -0.0256095, 0.00310422, -0.00043646, -0.166862, 15.5331, 18.2606, 15.3171, 0.963317, 3.40365, -0.0292249, 0.000723485, -0.00152622, -0.000176001, -0.000734602, -0.00060872, 0.000435292, 0.00917882, -0.0111906, 0.00693891, 0.0262509, 0.0213012, 0.0164162, -0.0110504, -0.444621, 0.634902, -3.13155, -0.0555901, -0.108044, -0.0103957, -0.443072, 0.635138, -3.13232, -0.0553136, -0.107133, 0.0038058, 0.00597168, -0.00825364, -0.00542289, -0.00559624, -0.00203733
0.0654407, 0.107598, -0.774224, -0.916069, -1.45622, -0.625786, 1.07024, -0.256722, 0.00394193, 0.00125597, -0.00997546, -0.000265301, -0.0232394, 0.00206965, 0.00142084, -0.206535, 15.5331, 18.2606, 15.3925, 0.945006, 3.41006, -0.0750012, 0.000718802, -0.00151645, -0.000180158, -0.000751562, -0.000649853, 0.000445497, 0.00893886, -0.0110279, 0.00608491, 0.0228111, 0.0212003, 0.0175464, -0.0110465, -0.444615, 0.634894, -3.13153, -0.0555919, -0.108076, -0.0103964, -0.443076, 0.635133, -3.13232, -0.0552992, -0.107101, 0.00396204, 0.00620257, -0.00858229, -0.0049746, -0.00518683, -0.0032007
0.0664407, 0.107601, -0.774218, -0.916081, -1.45623, -0.625807, 1.07024, -0.256718, 0.0020431, 0.00260047, -0.0114855, -0.00101196, -0.0261544, 0.00128665, 0.00143424, -0.166862, 15.4578, 18.2963, 15.4282, 0.926695, 3.41739, -0.0878186, 0.000710976, -0.0015059, -0.000185042, -0.000770095, -0.000695954, 0.0004653, 0.0104958, -0.0116122, 0.00581366, 0.0229346, 0.0258028, 0.0147781, -0.0110424, -0.444609, 0.634885, -3.13151, -0.0555937, -0.108109, -0.0104001, -0.443081, 0.635129, -3.13232, -0.0552699, -0.107063, 0.00412125, 0.00643698, -0.00891658, -0.00632818, -0.00558885, -0.00391733
0.0674407, 0.107608, -0.774218, -0.916085, -1.45622, -0.625829, 1.07024, -0.256724, 0.00477895, 0.00173358, -0.0091468, 0.000160671, -0.0236304, 0.00126265, -0.00022141, -0.166862, 15.4578, 18.1852, 15.3925, 0.908385, 3.41006, -0.0557752, 0.000704144, -0.00149585, -0.00019395, -0.000798291, -0.000733301, 0.000468731, 0.00869851, -0.0112587, 0.00707156, 0.0243983, 0.0223009, 0.0228834, -0.0110382, -0.444602, 0.634876, -3.13149, -0.0555957, -0.108143, -0.010403, -0.443084, 0.635128, -3.13233, -0.0552657, -0.107041, 0.00428343, 0.00667487, -0.00925645, -0.00447342, -0.00494586, -0.00287632
0.0684407, 0.107612, -0.77422, -0.916096, -1.45623, -0.625851, 1.07024, -0.256722, 0.00593947, 0.000320459, -0.00709525, -0.000728034, -0.0267897, 0.000670705, -0.000411957, -0.131157, 15.4935, 18.1852, 15.4282, 0.895568, 3.41739, -0.0484509, 0.000693901, -0.00148486, -0.000199704, -0.000819209, -0.000773925, 0.000484785, 0.00860316, -0.0113539, 0.00760393, 0.0266298, 0.0241941, 0.0260853, -0.0110339, -0.444596, 0.634867, -3.13147, -0.0555977, -0.108178, -0.0104088, -0.443089, 0.635123, -3.13233, -0.0552422, -0.107014, 0.00444857, 0.0069162, -0.00960188, -0.0042466, -0.00480122, -0.00268513
0.0694407, 0.107615, -0.774213, -0.916102, -1.45623, -0.625874, 1.07024, -0.256719, 0.0036349, 0.00188404, -0.00667843, -0.000485304, -0.0293793, 0.00079356, 0.000476535, -0.0914839, 15.4221, 18.1098, 15.4282, 0.889159, 3.41006, -0.0685925, 0.000687318, -0.00147344, -0.000208405, -0.000849812, -0.000821329, 0.000501437, 0.00970657, -0.0117474, 0.00830013, 0.0292662, 0.0275828, 0.0232173, -0.0110293, -0.444589, 0.634857, -3.13145, -0.0555998, -0.108215, -0.0104111, -0.443094, 0.635122, -3.13234, -0.0552176, -0.106978, 0.00461665, 0.00716091, -0.0099528, -0.00521263, -0.00499504, -0.00242088
0.0704407, 0.107623, -0.77421, -0.916113, -1.45622, -0.625893, 1.07024, -0.256724, 0.00518153, 0.001256, -0.00835859, 0.000511722, -0.0214585, 4.28728e-05, -0.00137384, -0.0557783, 15.4221, 18.1098, 15.3925, 0.870848, 3.42471, -0.0228162, 0.000679957, -0.00146204, -0.000216477, -0.000873597, -0.000862815, 0.000507691, 0.00864506, -0.0113868, 0.00835811, 0.0251483, 0.0208974, 0.0300147, -0.0110246, -0.444581, 0.634847, -3.13142, -0.055602, -0.108254, -0.0104139, -0.443098, 0.635119, -3.13235, -0.0552095, -0.106953, 0.00478767, 0.00740896, -0.0103092, -0.00400033, -0.00434994, -0.00264414
0.0714407, 0.107631, -0.774204, -0.916123, -1.45622, -0.625914, 1.07025, -0.256721, 0.00717075, 0.00260055, -0.00947763, 0.0011764, -0.0249264, 7.08574e-05, 3.64604e-05, -0.0557783, 15.3467, 18.1098, 15.3568, 0.852538, 3.42471, -0.0484509, 0.00067352, -0.00144961, -0.000225565, -0.00090321, -0.000908056, 0.000522678, 0.00868898, -0.0123112, 0.00861076, 0.0270442, 0.0246075, 0.0291427, -0.0110198, -0.444574, 0.634836, -3.1314, -0.0556043, -0.108293, -0.0104156, -0.443103, 0.635117, -3.13236, -0.0551877, -0.106924, 0.00496161, 0.0076603, -0.010671, -0.00385473, -0.00502644, -0.00276354
0.0724407, 0.107632, -0.774206, -0.916134, -1.45623, -0.625938, 1.07025, -0.256725, 0.00586823, 0.000805667, -0.0103244, -0.00088615, -0.0282759, 7.89449e-05, -0.00139766, 0.059273, 15.3864, 18.1098, 15.4282, 0.852538, 3.42471, -0.00999879, 0.000661356, -0.0014371, -0.000231859, -0.000927169, -0.000953783, 0.000536386, 0.0104695, -0.012983, 0.00809756, 0.0275316, 0.0268549, 0.0295202, -0.0110147, -0.444566, 0.634825, -3.13137, -0.0556067, -0.108334, -0.0104227, -0.443109, 0.635112, -3.13236, -0.0551682, -0.106894, 0.00513848, 0.00791489, -0.0110382, -0.00539375, -0.00550142, -0.00377091
0.0734407, 0.107641, -0.774201, -0.916142, -1.45622, -0.625957, 1.07025, -0.256721, 0.00784655, 0.00146512, -0.0100202, 0.000244468, -0.0255525, -0.000194857, 0.000494023, 0.059273, 15.3467, 18.0741, 15.3925, 0.840636, 3.43204, -0.0484509, 0.000655446, -0.00142539, -0.00024184, -0.000955357, -0.00100037, 0.000548959, 0.00919024, -0.0129187, 0.00885503, 0.0275793, 0.0249798, 0.0320147, -0.0110095, -0.444558, 0.634814, -3.13135, -0.0556092, -0.108376, -0.0104236, -0.443113, 0.63511, -3.13236, -0.0551503, -0.106865, 0.00531825, 0.00817268, -0.0114107, -0.00399333, -0.00514145, -0.00329938
0.0744407, 0.107651, -0.774203, -0.916147, -1.45623, -0.625981, 1.07024, -0.256718, 0.00608459, 4.8719e-05, -0.0088313, -0.000672227, -0.0243497, -0.000654605, 0.00131392, 0.059273, 15.3864, 17.9987, 15.4282, 0.852538, 3.44668, -0.0750012, 0.000648763, -0.00141399, -0.000250613, -0.000983206, -0.00104964, 0.000556267, 0.00980456, -0.012647, 0.0092667, 0.0276845, 0.023553, 0.0328672, -0.0110041, -0.44455, 0.634803, -3.13132, -0.0556118, -0.10842, -0.0104251, -0.443116, 0.635107, -3.13237, -0.0551408, -0.106834, 0.00550092, 0.00843363, -0.0117885, -0.00446143, -0.00463455, -0.00330784
0.0754407, 0.107658, -0.774204, -0.916156, -1.45622, -0.626001, 1.07024, -0.256716, 0.00784749, 0.00153, -0.0090824, 0.00122229, -0.0238928, -0.000931653, 0.00135159, 0.059273, 15.4578, 17.959, 15.3568, 0.877257, 3.46042, -0.0878186, 0.000638553, -0.00140135, -0.000262003, -0.00101352, -0.00109115, 0.000571261, 0.00915698, -0.0129781, 0.0101474, 0.0288931, 0.0237481, 0.0351373, -0.0109985, -0.444541, 0.634791, -3.13129, -0.0556144, -0.108465, -0.01043, -0.443121, 0.635106, -3.13237, -0.0551193, -0.106816, 0.00568647, 0.00869769, -0.0121715, -0.00367943, -0.00468698, -0.0027703
0.0764407, 0.107665, -0.774202, -0.916164, -1.45623, -0.626018, 1.07024, -0.256721, 0.00826419, 0.00128399, -0.00620488, -2.03483e-05, -0.0174219, -0.000882337, -0.000793668, 0.0949785, 15.4578, 17.9233, 15.3925, 0.865355, 3.46774, -0.0420422, 0.000631523, -0.00138961, -0.000271071, -0.0010391, -0.00114003, 0.00057315, 0.00676124, -0.0118863, 0.0109703, 0.027969, 0.0193968, 0.0451499, -0.0109927, -0.444532, 0.634778, -3.13127, -0.0556172, -0.108512, -0.0104315, -0.443124, 0.635102, -3.13237, -0.0551185, -0.106787, 0.00587491, 0.00896481, -0.0125597, -0.00119861, -0.00325224, -0.00216482
0.0774407, 0.107674, -0.774199, -0.916182, -1.45623, -0.626037, 1.07025, -0.256724, 0.00632691, 0.00491743, -0.0115051, -1.35603e-05, -0.0177475, -0.000580701, -0.00147803, 0.0949785, 15.4221, 18.0741, 15.3925, 0.865355, 3.46774, -0.0164075, 0.000622038, -0.00137438, -0.000278973, -0.00106486, -0.00118885, 0.000585056, 0.00842044, -0.0131356, 0.0100937, 0.0261351, 0.0234844, 0.0412368, -0.0109867, -0.444523, 0.634765, -3.13124, -0.05562, -0.10856, -0.010435, -0.44313, 0.635096, -3.13237, -0.0551022, -0.10676, 0.00606621, 0.00923495, -0.0129531, -0.00255653, -0.00428122, -0.0035567
0.0784407, 0.107681, -0.774199, -0.91619, -1.45622, -0.626058, 1.07024, -0.25672, 0.00704402, 0.00367914, -0.00755482, 0.0017542, -0.0187306, -0.000110223, 0.000473099, 0.134651, 15.4221, 18.0344, 15.3171, 0.883666, 3.46042, -0.0557752, 0.000611489, -0.00136105, -0.000291429, -0.0010981, -0.00123554, 0.000603199, 0.00789547, -0.0129856, 0.0121445, 0.0311773, 0.02157, 0.0431871, -0.0109806, -0.444514, 0.634752, -3.13121, -0.055623, -0.10861, -0.0104397, -0.443135, 0.635095, -3.13238, -0.055076, -0.106739, 0.00626038, 0.00950806, -0.0133516, -0.00198637, -0.00385896, -0.00187264
0.0794407, 0.107685, -0.774205, -0.916192, -1.45621, -0.626077, 1.07024, -0.256725, 0.00365434, 0.000154938, -0.00304766, 0.00376793, -0.0186947, 0.000202017, -0.00137973, 0.21003, 15.5331, 17.9233, 15.206, 0.883666, 3.45309, -0.00999879, 0.000599844, -0.00134837, -0.0003068, -0.00113765, -0.00127324, 0.000610183, 0.00957118, -0.0125429, 0.0144608, 0.0362528, 0.0164767, 0.0456539, -0.0109742, -0.444504, 0.634739, -3.13117, -0.055626, -0.108661, -0.0104456, -0.443138, 0.635096, -3.13239, -0.055067, -0.106733, 0.00645739, 0.00978411, -0.0137552, -0.00363633, -0.00322132, -7.95439e-05
0.0804407, 0.107702, -0.774202, -0.916204, -1.45622, -0.626094, 1.07025, -0.256717, 0.00474064, 0.000328769, -0.00248895, 0.00167674, -0.0188723, 0.000646479, 0.00172526, 0.134651, 15.5331, 17.9233, 15.2417, 0.889159, 3.43936, -0.0814099, 0.0005959, -0.00133413, -0.000316769, -0.00116576, -0.00132504, 0.000618334, 0.00859235, -0.0126995, 0.0144189, 0.0366655, 0.0180514, 0.0466408, -0.0109676, -0.444494, 0.634725, -3.13114, -0.0556292, -0.108713, -0.0104432, -0.443143, 0.635091, -3.13239, -0.0550568, -0.106706, 0.00665724, 0.010063, -0.0141638, -0.00245254, -0.00306447, -0.000463764
0.0814407, 0.107712, -0.774196, -0.916215, -1.45622, -0.626111, 1.07025, -0.256718, 0.00588563, 0.00131631, -0.00508164, 0.000189805, -0.0184138, 0.000975901, 0.000912976, 0.170357, 15.4935, 17.9233, 15.2814, 0.877257, 3.42471, -0.0750012, 0.000590455, -0.00131954, -0.000328148, -0.00119934, -0.00137943, 0.000623767, 0.0083693, -0.0133972, 0.0136885, 0.0350592, 0.0197701, 0.0492168, -0.0109609, -0.444484, 0.63471, -3.13111, -0.0556325, -0.108767, -0.0104421, -0.443148, 0.635088, -3.13239, -0.0550508, -0.106678, 0.00685993, 0.0103448, -0.0145774, -0.0019524, -0.00346581, -0.001596
0.0824407, 0.107723, -0.774198, -0.916227, -1.45621, -0.626127, 1.07025, -0.256719, 0.00763329, 0.00330298, -0.00767814, 0.00188978, -0.0140562, 0.000652386, 0.000134056, 0.170357, 15.5331, 17.959, 15.206, 0.883666, 3.42471, -0.0621838, 0.00057982, -0.00130491, -0.000340959, -0.00123029, -0.00142516, 0.000633341, 0.00754708, -0.0137248, 0.0138936, 0.0329802, 0.0177912, 0.0526105, -0.0109539, -0.444473, 0.634696, -3.13108, -0.0556359, -0.108823, -0.0104462, -0.443152, 0.635085, -3.13239, -0.0550384, -0.106663, 0.00706543, 0.0106294, -0.0149959, -0.000930085, -0.00348199, -0.00175581
0.0834407, 0.10773, -0.774197, -0.916234, -1.45621, -0.626142, 1.07025, -0.25672, 0.00484816, 0.00256599, -0.00800504, 0.00209507, -0.0152213, 0.00121616, -0.000147896, 0.21003, 15.5331, 17.9233, 15.1703, 0.883666, 3.40365, -0.0557752, 0.000571402, -0.00129023, -0.000355616, -0.00126961, -0.0014709, 0.000640994, 0.00950512, -0.0142557, 0.0144119, 0.0348684, 0.0176743, 0.0508533, -0.0109468, -0.444463, 0.63468, -3.13104, -0.0556394, -0.10888, -0.0104479, -0.443157, 0.635084, -3.1324, -0.0550288, -0.106652, 0.00727374, 0.0109167, -0.0154193, -0.00269121, -0.00379954, -0.00180288
0.0844407, 0.107747, -0.774192, -0.916246, -1.45621, -0.626157, 1.07026, -0.256724, 0.00862614, 0.00291169, -0.00993405, 0.000561496, -0.0162486, 0.00108304, -0.00131923, 0.134651, 15.4935, 17.959, 15.206, 0.889159, 3.39633, -0.0228162, 0.000568008, -0.00127443, -0.000367642, -0.00130361, -0.00152615, 0.000637153, 0.00843995, -0.0149989, 0.013727, 0.0337225, 0.0201359, 0.0562878, -0.0109394, -0.444452, 0.634665, -3.131, -0.055643, -0.108939, -0.0104442, -0.443162, 0.63508, -3.1324, -0.0550375, -0.106626, 0.00748486, 0.0112067, -0.0158476, -0.00134456, -0.00420878, -0.00284623
0.0854407, 0.107747, -0.774192, -0.916246, -1.45621, -0.626157, 1.07026, -0.256724, 0.00862614, 0.00291169, -0.00993405, 0.000561496, -0.0162486, 0.00108304, -0.00131923, 0.134651, 15.4935, 17.959, 15.206, 0.889159, 3.39633, -0.0228162, 0.000561176, -0.00126348, -0.000384234, -0.00133772, -0.00156616, 0.000638897, 0.00863281, -0.0152802, 0.0141775, 0.0345843, 0.0202973, 0.0579764, -0.0109318, -0.44444, 0.634649, -3.13097, -0.0556467, -0.109, -0.0104442, -0.443162, 0.63508, -3.1324, -0.0550375, -0.106626, 0.00769877, 0.0114994, -0.0162807, -0.00134456, -0.00420878, -0.00284623
0.0864407, 0.107762, -0.774194, -0.916266, -1.45621, -0.626181, 1.07026, -0.25672, 0.00670869, 0.000408662, -0.00761763, 0.00142505, -0.016683, 0.000301575, 0.000317973, 0.21003, 15.5688, 17.959, 15.1306, 0.870848, 3.40365, -0.0557752, 0.000548797, -0.00124432, -0.0003973, -0.0013762, -0.0016191, 0.000658193, 0.010039, -0.0150805, 0.015453, 0.0369041, 0.0180048, 0.0572483, -0.010924, -0.444429, 0.634632, -3.13093, -0.0556505, -0.109062, -0.010449, -0.44317, 0.635076, -3.13241, -0.0550103, -0.106608, 0.00791545, 0.0117947, -0.0167186, -0.00262593, -0.00377603, -0.00210935
0.0874407, 0.107768, -0.774194, -0.916276, -1.45621, -0.626193, 1.07026, -0.256718, 0.00647128, -0.000447602, -0.0096172, 0.00178525, -0.0132244, -0.000307153, 0.000686729, 0.285408, 15.6046, 17.9987, 15.0949, 0.889159, 3.41739, -0.0685925, 0.000538224, -0.00122916, -0.000412436, -0.00141157, -0.0016695, 0.00066989, 0.0107077, -0.0152836, 0.0153758, 0.0345902, 0.01486, 0.0583208, -0.010916, -0.444417, 0.634615, -3.13089, -0.0556545, -0.109126, -0.010452, -0.443173, 0.635073, -3.13241, -0.054995, -0.106595, 0.00813491, 0.0120926, -0.0171612, -0.00306099, -0.00370455, -0.00267802
0.0884407, 0.107781, -0.774191, -0.916282, -1.45621, -0.626201, 1.07026, -0.256718, 0.0113214, 0.000623198, -0.0124133, 0.000354948, -0.0141937, 6.68166e-05, 0.0006952, 0.285408, 15.5688, 17.959, 15.1306, 0.877257, 3.41006, -0.0750012, 0.000534357, -0.00121489, -0.000427754, -0.00144727, -0.00172388, 0.000667504, 0.00919372, -0.0163089, 0.0145344, 0.0333681, 0.0177343, 0.0630318, -0.0109077, -0.444404, 0.634598, -3.13085, -0.0556585, -0.109191, -0.0104482, -0.443176, 0.63507, -3.13241, -0.0550019, -0.106577, 0.00835714, 0.012393, -0.0176085, -0.00123482, -0.00436797, -0.00386734
0.0894407, 0.107799, -0.774193, -0.916296, -1.45621, -0.626212, 1.07026, -0.256721, 0.0134919, -0.000354967, -0.0102698, 0.00107185, -0.0108967, -0.000497752, -0.00075722, 0.21003, 15.6046, 17.9987, 15.0949, 0.883666, 3.42471, -0.0420422, 0.000527124, -0.00119857, -0.00044151, -0.00147801, -0.00177515, 0.000663956, 0.00760919, -0.0158275, 0.0156785, 0.0338814, 0.0141676, 0.0712585, -0.0108992, -0.444392, 0.63458, -3.13081, -0.0556627, -0.109258, -0.0104473, -0.44318, 0.635066, -3.1324, -0.0550108, -0.106566, 0.00858211, 0.0126959, -0.0180604, 0.000472523, -0.0035398, -0.00306501
0.0904407, 0.107806, -0.774198, -0.916296, -1.45621, -0.626219, 1.07026, -0.256717, 0.0113692, -0.00278651, -0.00504777, 0.00164259, -0.00748404, -0.000331656, 3.8255e-06, 0.285408, 15.7156, 17.8876, 15.0552, 0.865355, 3.42471, -0.0557752, 0.000518886, -0.00118482, -0.000460546, -0.00152023, -0.00181951, 0.000668202, 0.00724356, -0.0147808, 0.0178, 0.037083, 0.00862194, 0.0754852, -0.0108905, -0.444379, 0.634562, -3.13077, -0.055667, -0.109327, -0.0104477, -0.443181, 0.635066, -3.1324, -0.0550072, -0.106568, 0.00880983, 0.0130012, -0.018517, 0.000879061, -0.00219666, -0.00137319
0.0914407, 0.107819, -0.774193, -0.916313, -1.45621, -0.626228, 1.07026, -0.256721, 0.0117624, -0.000150796, -0.00965083, 0.000167038, -0.00654427, 0.000558924, -0.000743426, 0.285408, 15.6442, 17.9987, 15.0949, 0.889159, 3.40365, -0.0356336, 0.000511911, -0.00116738, -0.000474239, -0.00155293, -0.00188041, 0.000668874, 0.00737118, -0.0158845, 0.0166847, 0.034714, 0.0114434, 0.0761203, -0.0108816, -0.444366, 0.634543, -3.13072, -0.0556715, -0.109398, -0.0104461, -0.443186, 0.63506, -3.1324, -0.0550098, -0.106545, 0.00904028, 0.013309, -0.0189781, 0.00109875, -0.00298631, -0.00296472
0.0924407, 0.107832, -0.774187, -0.916318, -1.45621, -0.626237, 1.07026, -0.256722, 0.013009, 0.000854821, -0.00621298, 0.00103938, -0.00951353, 0.000135357, -0.00171631, 0.245735, 15.6046, 17.959, 15.0552, 0.889159, 3.41006, -0.00267457, 0.000507411, -0.00115228, -0.000493354, -0.00159477, -0.00193867, 0.000665399, 0.00642584, -0.0158415, 0.0183751, 0.0392793, 0.0143703, 0.0808937, -0.0108725, -0.444352, 0.634524, -3.13068, -0.0556761, -0.10947, -0.0104422, -0.443188, 0.63506, -3.1324, -0.0550186, -0.106529, 0.00927346, 0.0136191, -0.0194438, 0.00215439, -0.00261713, -0.00167879
0.0934407, 0.107846, -0.774192, -0.916332, -1.4562, -0.626243, 1.07026, -0.256716, 0.0128698, -0.00117286, -0.00643556, 0.00152814, -0.00734558, -0.000723488, 0.000822485, 0.245735, 15.6799, 18.0344, 15.0195, 0.895568, 3.43204, -0.0557752, 0.000497226, -0.00113532, -0.000509631, -0.00162824, -0.00198859, 0.000675457, 0.00715676, -0.015852, 0.0188034, 0.0385008, 0.0110099, 0.080669, -0.0108631, -0.444339, 0.634504, -3.13064, -0.0556808, -0.109544, -0.0104436, -0.443192, 0.635056, -3.13239, -0.0550067, -0.106527, 0.00950935, 0.0139315, -0.0199139, 0.00163134, -0.00234586, -0.00177393
0.0944407, 0.107854, -0.774194, -0.916339, -1.45621, -0.626251, 1.07027, -0.256713, 0.0109072, -0.00160175, -0.0069113, 0.00101876, -0.0099823, 0.000331533, 0.00597559, 0.325081, 15.7156, 17.9987, 15.0195, 0.889159, 3.41006, -0.0750012, 0.000488623, -0.00111841, -0.000528061, -0.00167286, -0.00204129, 0.000680275, 0.00882056, -0.0166653, 0.0191463, 0.0410343, 0.0125681, 0.074041, -0.0108534, -0.444325, 0.634484, -3.13059, -0.0556856, -0.10962, -0.0104432, -0.443195, 0.635053, -3.13239, -0.0550028, -0.106523, 0.00974794, 0.0142462, -0.0203885, 0.000215679, -0.00290676, -0.00203019
0.0954407, 0.107867, -0.774189, -0.916353, -1.45621, -0.626259, 1.07026, -0.256714, 0.00832152, 0.000614133, -0.00895384, 0.000679172, -0.0128738, -5.02029e-05, 0.0041393, 0.325081, 15.6442, 18.0344, 15.0195, 0.908385, 3.41739, -0.0685925, 0.000480721, -0.00110123, -0.000544703, -0.00170749, -0.00210654, 0.000683415, 0.0106984, -0.0174884, 0.0190907, 0.0417587, 0.0176472, 0.0723885, -0.0108436, -0.44431, 0.634463, -3.13054, -0.0556906, -0.109698, -0.0104418, -0.443198, 0.635049, -3.13239, -0.055002, -0.106501, 0.00998923, 0.0145631, -0.0208674, -0.00138251, -0.00347882, -0.00270364
0.0964407, 0.10788, -0.774197, -0.916366, -1.4562, -0.626267, 1.07026, -0.256714, 0.00863979, -0.00208758, -0.00755862, 0.0013808, -0.0102706, -3.34368e-05, 0.00305424, 0.360787, 15.7513, 18.0741, 14.9799, 0.926695, 3.41739, -0.0685925, 0.000468631, -0.00108317, -0.000562892, -0.00174629, -0.00215646, 0.000688172, 0.0107849, -0.0173404, 0.0200956, 0.0426473, 0.0126441, 0.0776291, -0.0108335, -0.444295, 0.634442, -3.13049, -0.0556957, -0.109777, -0.0104444, -0.443202, 0.635045, -3.13238, -0.0549986, -0.106505, 0.0102332, 0.0148823, -0.0213508, -0.00130117, -0.00302568, -0.00219091
0.0974407, 0.107898, -0.774194, -0.916366, -1.45621, -0.626271, 1.07026, -0.256717, 0.0105566, -0.00138524, -0.00284386, -7.48567e-06, -0.00736713, -2.22673e-05, 0.00103648, 0.325081, 15.7513, 17.959, 15.0195, 0.920287, 3.41739, -0.0356336, 0.000467854, -0.00106807, -0.00058396, -0.0017911, -0.00221762, 0.000669209, 0.0075706, -0.0163525, 0.0214844, 0.0445198, 0.0120357, 0.0891535, -0.0108231, -0.44428, 0.634421, -3.13044, -0.0557009, -0.109858, -0.0104358, -0.443202, 0.635044, -3.13238, -0.0550321, -0.106493, 0.0104799, 0.0152035, -0.0218384, 0.00201645, -0.00161875, -0.00106156
0.0984407, 0.107906, -0.774191, -0.916385, -1.45621, -0.626276, 1.07026, -0.256719, 0.00930532, -8.34088e-05, -0.00894995, -0.000840208, -0.00571684, -0.000286094, 0.00014468, 0.400459, 15.7156, 18.1098, 15.0552, 0.926695, 3.42471, -0.0164075, 0.00045653, -0.00104916, -0.000599614, -0.00182383, -0.00228445, 0.000676404, 0.00944852, -0.0174976, 0.0200713, 0.0402991, 0.0132281, 0.0872763, -0.0108125, -0.444265, 0.634399, -3.13039, -0.0557063, -0.109941, -0.0104369, -0.443207, 0.635037, -3.13237, -0.0550255, -0.106474, 0.0107292, 0.0155269, -0.0223304, 0.000532574, -0.0024928, -0.00310491
0.0994407, 0.107926, -0.774189, -0.916391, -1.45621, -0.626286, 1.07026, -0.256718, 0.0111964, 0.00078326, -0.00787229, -0.0015912, -0.00467809, 8.05512e-05, 0.0101148, 0.360787, 15.6799, 18.0344, 14.9799, 0.938597, 3.41739, -0.0292249, 0.000452244, -0.00103103, -0.000621522, -0.00187245, -0.00234879, 0.000670891, 0.00783108, -0.017532, 0.02067, 0.0413524, 0.0137619, 0.0828268, -0.0108016, -0.444249, 0.634376, -3.13034, -0.0557118, -0.110026, -0.0104313, -0.443209, 0.635036, -3.13237, -0.0550382, -0.106461, 0.0109812, 0.0158524, -0.0228265, 0.00235533, -0.00215178, -0.0028918
0.100441, 0.107938, -0.774191, -0.916407, -1.45621, -0.626289, 1.07026, -0.256714, 0.0137654, 0.00052491, -0.0106911, -0.00432898, -0.00367562, -0.000217556, 0.00884206, 0.400459, 15.6799, 18.1098, 14.9799, 0.945006, 3.42471, -0.0621838, 0.000441186, -0.00101209, -0.000640221, -0.00191044, -0.00240849, 0.000678724, 0.00717949, -0.0181286, 0.0194398, 0.0380856, 0.0150278, 0.0883466, -0.0107905, -0.444233, 0.634353, -3.13029, -0.0557175, -0.110113, -0.0104319, -0.443213, 0.63503, -3.13236, -0.0550307, -0.106457, 0.0112358, 0.0161798, -0.0233269, 0.00336613, -0.00238616, -0.00457941
0.101441, 0.107953, -0.774192, -0.916419, -1.45621, -0.626295, 1.07026, -0.256712, 0.0135641, -0.000483226, -0.00871395, -0.00164314, -0.00336824, 0.000126237, 0.00726542, 0.400459, 15.7156, 18.1455, 14.9084, 0.963317, 3.41739, -0.0814099, 0.000431872, -0.000992556, -0.000661475, -0.0019559, -0.0024693, 0.000681887, 0.00763053, -0.0182695, 0.0213463, 0.041953, 0.0119778, 0.0919629, -0.0107792, -0.444217, 0.634329, -3.13024, -0.0557233, -0.110202, -0.0104306, -0.443217, 0.635027, -3.13235, -0.0550303, -0.106453, 0.011493, 0.0165093, -0.0238314, 0.00304413, -0.00223384, -0.00321651
0.102441, 0.107964, -0.774191, -0.916426, -1.45622, -0.626299, 1.07026, -0.256717, 0.0115811, -0.000320611, -0.00772019, -0.00401457, -0.00218787, -0.000458371, 0.00387953, 0.475838, 15.7156, 18.0741, 15.0195, 0.956908, 3.43204, -0.0420422, 0.000425348, -0.000975466, -0.000680758, -0.00199589, -0.00254083, 0.000671404, 0.00770902, -0.0179506, 0.0214497, 0.0413855, 0.0132371, 0.0978869, -0.0107676, -0.4442, 0.634305, -3.13018, -0.0557293, -0.110292, -0.0104263, -0.443217, 0.635022, -3.13234, -0.0550516, -0.106434, 0.0117529, 0.0168407, -0.0243401, 0.00320599, -0.00158868, -0.00362651
0.103441, 0.10798, -0.774191, -0.916446, -1.45622, -0.626302, 1.07026, -0.256715, 0.0150224, -0.000212587, -0.0115177, -0.00115366, -0.0020681, 0.000236958, 0.00346547, 0.475838, 15.7156, 18.1852, 14.9442, 0.969725, 3.41739, -0.0557752, 0.000414827, -0.000954139, -0.000700136, -0.00203625, -0.0026046, 0.000676864, 0.00811181, -0.0193832, 0.0217386, 0.0418509, 0.0114447, 0.0994251, -0.0107557, -0.444183, 0.634281, -3.13012, -0.0557354, -0.110385, -0.0104256, -0.443222, 0.635016, -3.13233, -0.0550481, -0.106429, 0.0120154, 0.017174, -0.0248528, 0.00309693, -0.0027053, -0.0038921
0.104441, 0.107996, -0.774193, -0.916451, -1.45622, -0.626307, 1.07026, -0.256714, 0.0177001, -0.000976077, -0.0120526, -0.000114277, -0.00192065, -0.000113292, 0.00282553, 0.475838, 15.7513, 18.0741, 14.9084, 0.981627, 3.42471, -0.0621838, 0.000407882, -0.00093572, -0.00072368, -0.00208543, -0.00267005, 0.000670081, 0.0077966, -0.0198781, 0.0223013, 0.0424875, 0.0103249, 0.103876, -0.0107435, -0.444166, 0.634256, -3.13007, -0.0557417, -0.110479, -0.0104214, -0.443224, 0.635014, -3.13233, -0.0550636, -0.106425, 0.0122806, 0.0175091, -0.0253696, 0.00365332, -0.00286066, -0.00383088
0.105441, 0.108012, -0.774188, -0.916467, -1.45623, -0.626308, 1.07026, -0.256716, 0.0196243, 0.00102037, -0.0139235, -0.000211476, -0.00135626, -0.000346793, 0.000634023, 0.475838, 15.6799, 18.1455, 14.9084, 0.981627, 3.43204, -0.0228162, 0.000401109, -0.000915742, -0.000743724, -0.00212529, -0.00274455, 0.000665771, 0.00707627, -0.0204566, 0.0222762, 0.0418004, 0.012385, 0.108902, -0.0107311, -0.444148, 0.63423, -3.13001, -0.0557481, -0.110576, -0.0104165, -0.443227, 0.635007, -3.13232, -0.0550757, -0.106407, 0.0125483, 0.0178461, -0.0258904, 0.00466044, -0.00307734, -0.00433191
0.106441, 0.108028, -0.774193, -0.916481, -1.45623, -0.626312, 1.07026, -0.256714, 0.0210466, -0.000989704, -0.0103607, -0.00107767, -0.000961044, 4.00739e-05, 0.00057898, 0.475838, 15.7513, 18.1455, 14.9442, 0.981627, 3.42471, -0.0228162, 0.0003914, -0.000894983, -0.000764193, -0.00216833, -0.00281191, 0.000663341, 0.00585759, -0.0201419, 0.0234861, 0.0445569, 0.0105142, 0.115768, -0.0107184, -0.44413, 0.634204, -3.12995, -0.0557547, -0.110674, -0.0104142, -0.44323, 0.635001, -3.1323, -0.0550849, -0.106403, 0.0128186, 0.0181849, -0.0264151, 0.00604787, -0.0023951, -0.00356284
0.107441, 0.108041, -0.774191, -0.916489, -1.45623, -0.626313, 1.07026, -0.256715, 0.0181111, 0.000175781, -0.00604542, -0.00110206, -0.000683349, 2.67173e-05, 0.00121529, 0.511544, 15.7156, 18.0741, 14.8331, 0.981627, 3.42471, -0.0420422, 0.000383151, -0.00087519, -0.000789835, -0.00222011, -0.00288071, 0.000660453, 0.00559557, -0.0194898, 0.0253868, 0.048517, 0.0114897, 0.117688, -0.0107055, -0.444112, 0.634177, -3.12989, -0.0557614, -0.110774, -0.0104106, -0.443232, 0.634999, -3.1323, -0.0550947, -0.106398, 0.0130915, 0.0185254, -0.0269437, 0.0064232, -0.00141506, -0.00217348
0.108441, 0.10806, -0.774193, -0.916509, -1.45624, -0.626313, 1.07026, -0.256709, 0.0176566, -0.000717757, -0.0126482, -0.00406127, -0.000487556, 0.000797706, 0.00211881, 0.475838, 15.7513, 18.1455, 14.8331, 0.981627, 3.40365, -0.0750012, 0.000373669, -0.00085271, -0.000809993, -0.00226163, -0.00295004, 0.000663611, 0.00770877, -0.0210422, 0.0232154, 0.0441836, 0.0125108, 0.114983, -0.0106922, -0.444093, 0.63415, -3.12983, -0.0557683, -0.110876, -0.0104075, -0.443236, 0.634991, -3.13228, -0.0550956, -0.106395, 0.0133669, 0.0188676, -0.0274763, 0.0047996, -0.00267724, -0.00503578
0.109441, 0.108073, -0.774193, -0.916523, -1.45624, -0.626318, 1.07026, -0.256709, 0.0155356, -0.000478299, -0.0125005, -0.00720576, -0.000789839, -0.00884737, 0.00147848, 0.511544, 15.7513, 18.1455, 14.7577, 0.993529, 3.40365, -0.0750012, 0.000362448, -0.000830988, -0.000834197, -0.00231175, -0.00302387, 0.000666398, 0.00920668, -0.0193706, 0.0220823, 0.0355348, 0.0200943, 0.117151, -0.0106787, -0.444074, 0.634122, -3.12976, -0.0557754, -0.110981, -0.0104062, -0.44324, 0.634987, -3.13228, -0.055097, -0.106387, 0.0136449, 0.0192114, -0.0280126, 0.00360306, -0.000705076, -0.00679695
0.110441, 0.108089, -0.774196, -0.91654, -1.45624, -0.626319, 1.07026, -0.256717, 0.0148298, -0.00124673, -0.0122762, -0.00682229, -0.000544554, -0.0069172, -0.000660314, 0.511544, 15.791, 18.1455, 14.6823, 0.993529, 3.41006, -0.0292249, 0.000350749, -0.000809321, -0.000856701, -0.002354, -0.00309716, 0.00065806, 0.00975828, -0.0200007, 0.022991, 0.0384928, 0.0181343, 0.12078, -0.0106649, -0.444055, 0.634094, -3.1297, -0.0557826, -0.111087, -0.010405, -0.443243, 0.63498, -3.13226, -0.0551161, -0.106381, 0.0139255, 0.0195569, -0.0285528, 0.00329085, -0.00101988, -0.00647698
0.111441, 0.108107, -0.774196, -0.916556, -1.45625, -0.626321, 1.07026, -0.256714, 0.0152854, 9.69808e-05, -0.0155191, -0.00926759, -0.000851249, -0.00519767, -0.000403119, 0.475838, 15.7513, 18.1455, 14.722, 1.00635, 3.41006, -0.0292249, 0.000343579, -0.000786885, -0.000877887, -0.00239855, -0.00317845, 0.000652656, 0.00981755, -0.0211405, 0.0220793, 0.037777, 0.0208155, 0.121724, -0.0106509, -0.444035, 0.634065, -3.12963, -0.05579, -0.111195, -0.0103988, -0.443246, 0.634972, -3.13224, -0.0551308, -0.106365, 0.0142086, 0.019904, -0.0290967, 0.00361898, -0.00180552, -0.00794589
0.112441, 0.108128, -0.774199, -0.91657, -1.45625, -0.62632, 1.07026, -0.256715, 0.0154765, -0.0016985, -0.0137895, -0.00729755, -0.000340262, -0.00339613, -0.000715646, 0.436165, 15.8267, 18.1098, 14.6069, 0.999938, 3.39633, -0.0164075, 0.000334684, -0.000764674, -0.000903186, -0.00244779, -0.00324929, 0.000644223, 0.0100957, -0.0215711, 0.0238306, 0.0422427, 0.0166011, 0.124914, -0.0106365, -0.444015, 0.634036, -3.12957, -0.0557975, -0.111306, -0.0103944, -0.443249, 0.634967, -3.13223, -0.0551501, -0.106368, 0.0144943, 0.0202526, -0.0296444, 0.00351742, -0.00191739, -0.00677227
0.113441, 0.108142, -0.774206, -0.916588, -1.45626, -0.626325, 1.07026, -0.256716, 0.0137098, -0.0028955, -0.016405, -0.00807567, -0.00545362, -0.00310245, -0.000693593, 0.475838, 15.9021, 18.1098, 14.5712, 1.01276, 3.41006, -0.00999879, 0.000320037, -0.000741366, -0.000926012, -0.0024934, -0.00332698, 0.000646147, 0.0131509, -0.0229826, 0.0234702, 0.0437432, 0.0199802, 0.121223, -0.0106219, -0.443995, 0.634006, -3.1295, -0.0558053, -0.111418, -0.0103952, -0.443252, 0.634958, -3.13222, -0.0551537, -0.106362, 0.0147825, 0.0206027, -0.0301957, 0.000834863, -0.00308322, -0.0079148
0.114441, 0.108158, -0.774207, -0.916607, -1.45627, -0.626327, 1.07026, -0.256708, 0.0125971, -0.00193029, -0.0154126, -0.0100609, -0.00424027, -0.00153571, 0.00196075, 0.511544, 15.9021, 18.1098, 14.6069, 1.01825, 3.38901, -0.0750012, 0.000309818, -0.000717539, -0.000948273, -0.00253978, -0.00341122, 0.000650507, 0.0124737, -0.0230974, 0.0239322, 0.0453185, 0.0207105, 0.121969, -0.010607, -0.443974, 0.633975, -3.12943, -0.0558132, -0.111532, -0.0103913, -0.443256, 0.634949, -3.1322, -0.0551537, -0.106347, 0.0150731, 0.0209542, -0.0307507, 0.0017705, -0.00282911, -0.0079642
0.115441, 0.108175, -0.774207, -0.916626, -1.45628, -0.626323, 1.07026, -0.256711, 0.0157508, -0.00128682, -0.0169074, -0.00901494, -0.00292419, -0.000395481, 0.000335558, 0.511544, 15.9021, 18.0741, 14.5355, 1.01276, 3.36703, -0.0484509, 0.000299841, -0.000693597, -0.000972771, -0.00258822, -0.00348971, 0.000643965, 0.0114678, -0.023913, 0.024436, 0.0462449, 0.0194331, 0.127865, -0.0105917, -0.443953, 0.633944, -3.12936, -0.0558213, -0.111649, -0.0103869, -0.44326, 0.634942, -3.13218, -0.0551707, -0.106344, 0.0153663, 0.0213072, -0.0313093, 0.0030584, -0.00326291, -0.00795794
0.116441, 0.108189, -0.774207, -0.916648, -1.45628, -0.626327, 1.07026, -0.25671, 0.0149978, -0.000857854, -0.0167698, -0.00814995, -0.00261587, -0.000402761, 0.000741133, 0.511544, 15.9021, 18.1098, 14.4601, 1.02466, 3.36703, -0.0621838, 0.000285283, -0.000668199, -0.000997243, -0.0026377, -0.00357525, 0.000651722, 0.01201, -0.0242103, 0.0253657, 0.0478462, 0.0192985, 0.128697, -0.0105762, -0.443931, 0.633913, -3.12929, -0.0558295, -0.111768, -0.0103868, -0.443264, 0.634933, -3.13217, -0.0551657, -0.106332, 0.015662, 0.0216616, -0.0318714, 0.00275663, -0.00323673, -0.00763676
0.117441, 0.108207, -0.774204, -0.916667, -1.4563, -0.626326, 1.07026, -0.256711, 0.0152492, 0.000356138, -0.0147802, -0.0100274, -0.00235392, -0.000372838, -7.93621e-06, 0.475838, 15.8624, 18.0741, 14.4958, 1.03656, 3.36703, -0.0484509, 0.000276929, -0.000644194, -0.00102038, -0.00268312, -0.00366739, 0.000643152, 0.0107121, -0.0240014, 0.0259862, 0.0491546, 0.0216794, 0.134492, -0.0105604, -0.443909, 0.63388, -3.12921, -0.055838, -0.111888, -0.0103802, -0.443267, 0.634924, -3.13215, -0.0551864, -0.106312, 0.0159602, 0.0220173, -0.0324371, 0.00429522, -0.00263521, -0.00749164
0.118441, 0.108225, -0.77421, -0.916686, -1.4563, -0.62633, 1.07026, -0.256714, 0.0176739, -0.0015258, -0.0162079, -0.00797011, -0.0021709, -0.000326807, -0.00193312, 0.475838, 15.9378, 18.0344, 14.3848, 1.04938, 3.36703, 0.00373412, 0.000262807, -0.000618453, -0.00104667, -0.00273648, -0.0037504, 0.0006411, 0.0113295, -0.0248374, 0.0266653, 0.0501293, 0.0186338, 0.138992, -0.0105443, -0.443887, 0.633848, -3.12914, -0.0558466, -0.112011, -0.0103792, -0.443272, 0.634916, -3.13213, -0.0551969, -0.106308, 0.0162609, 0.0223744, -0.0330063, 0.00396035, -0.00314482, -0.00743763
0.119441, 0.108244, -0.774212, -0.916711, -1.45632, -0.62633, 1.07026, -0.256714, 0.0172966, -0.0018524, -0.0194697, -0.00928172, -0.00154244, -3.91982e-05, -0.000539048, 0.436165, 15.9735, 18.0741, 14.3848, 1.04938, 3.36062, -0.0164075, 0.000250091, -0.000592578, -0.00106933, -0.00277948, -0.00384205, 0.000639134, 0.0124933, -0.0257087, 0.0259647, 0.0483695, 0.0189391, 0.13793, -0.0105279, -0.443865, 0.633814, -3.12906, -0.0558554, -0.112136, -0.0103763, -0.443276, 0.634904, -3.1321, -0.0552078, -0.106292, 0.016564, 0.0227327, -0.033579, 0.00318291, -0.00369239, -0.00880292
0.120441, 0.108258, -0.774204, -0.916726, -1.45633, -0.62633, 1.07026, -0.256714, 0.0150625, 0.00136353, -0.0189378, -0.00923889, -0.000862317, 0.000472388, -0.000119222, 0.475838, 15.8624, 17.9987, 14.3491, 1.04297, 3.34598, -0.0228162, 0.000241665, -0.000567703, -0.0010967, -0.00283639, -0.00394053, 0.000635082, 0.0124239, -0.0258336, 0.0269631, 0.0503788, 0.0215592, 0.138218, -0.0105112, -0.443842, 0.633781, -3.12899, -0.0558644, -0.112263, -0.0103691, -0.443278, 0.634897, -3.13209, -0.0552217, -0.106269, 0.0168696, 0.0230922, -0.034155, 0.00348897, -0.00346852, -0.00838235
0.121441, 0.108271, -0.774204, -0.916758, -1.45634, -0.626331, 1.07026, -0.256708, 0.0143831, 0.000909025, -0.0232221, -0.0121052, -0.000865773, 1.06472e-05, 0.00560584, 0.475838, 15.8624, 18.1098, 14.3094, 1.04938, 3.3533, -0.0484509, 0.000224127, -0.000540101, -0.00111952, -0.00287849, -0.00403688, 0.000650543, 0.0139761, -0.0267418, 0.0254451, 0.0467549, 0.0236496, 0.132261, -0.0104942, -0.443818, 0.633746, -3.12891, -0.0558736, -0.112393, -0.0103703, -0.443284, 0.634884, -3.13206, -0.055206, -0.10625, 0.0171776, 0.0234529, -0.0347344, 0.00238925, -0.00405472, -0.0105985
0.122441, 0.108287, -0.774207, -0.916776, -1.45635, -0.626331, 1.07026, -0.256709, 0.0107952, -0.000321998, -0.0227278, -0.0121878, -0.000617334, 0.00130477, 0.00440454, 0.475838, 15.9021, 18.0741, 14.3094, 1.04938, 3.31759, -0.0557752, 0.000211689, -0.000513719, -0.00114647, -0.00293402, -0.00412896, 0.000645785, 0.0158503, -0.0271232, 0.0263532, 0.0493143, 0.0218478, 0.132685, -0.0104768, -0.443795, 0.633711, -3.12883, -0.0558829, -0.112524, -0.0103664, -0.443287, 0.634874, -3.13205, -0.0552214, -0.106241, 0.017488, 0.0238148, -0.0353172, 0.000778414, -0.00415253, -0.0104173
0.123441, 0.1083, -0.774207, -0.916798, -1.45636, -0.626329, 1.07026, -0.256709, 0.0112279, 0.000713358, -0.0202509, -0.0114508, 3.30482e-05, 0.000342651, 0.00347076, 0.475838, 15.8624, 18.0741, 14.2737, 1.03656, 3.33133, -0.0621838, 0.000197765, -0.000487441, -0.0011729, -0.00298414, -0.00422715, 0.000646545, 0.014953, -0.0267699, 0.0278324, 0.0513753, 0.0225479, 0.138139, -0.0104592, -0.443771, 0.633676, -3.12875, -0.0558925, -0.112658, -0.0103637, -0.44329, 0.634864, -3.13202, -0.0552286, -0.106225, 0.0178009, 0.0241778, -0.0359033, 0.00186511, -0.0034241, -0.00946378
0.124441, 0.108313, -0.774213, -0.91682, -1.45638, -0.626332, 1.07026, -0.256711, 0.0115691, -0.00128766, -0.0246385, -0.0116602, -0.000916081, 0.000723134, 0.000841195, 0.475838, 15.9378, 18.0741, 14.2737, 1.06128, 3.31759, -0.0164075, 0.000181823, -0.000459894, -0.00119832, -0.00303648, -0.00432513, 0.000645331, 0.017211, -0.0281862, 0.027096, 0.0501305, 0.0216868, 0.139703, -0.0104412, -0.443746, 0.633639, -3.12867, -0.0559023, -0.112794, -0.0103626, -0.443294, 0.634852, -3.132, -0.055239, -0.106211, 0.0181163, 0.0245419, -0.0364926, 3.15957e-05, -0.00454858, -0.010967
0.125441, 0.108321, -0.774207, -0.916839, -1.4564, -0.626331, 1.07026, -0.256711, 0.00921187, 0.000904798, -0.0197226, -0.0145159, -0.000424209, 0.000471644, 0.000490521, 0.586922, 15.8624, 17.9987, 14.2737, 1.05578, 3.31759, -0.00999879, 0.00016757, -0.000433552, -0.00122604, -0.00309112, -0.00443276, 0.000649292, 0.0156228, -0.0271881, 0.0283671, 0.0527328, 0.0255184, 0.145437, -0.0104229, -0.443722, 0.633603, -3.12858, -0.0559122, -0.112932, -0.0103597, -0.443297, 0.634841, -3.13198, -0.0552416, -0.106184, 0.018434, 0.0249071, -0.0370852, 0.00180299, -0.00314713, -0.0101718
0.126441, 0.108339, -0.77421, -0.916862, -1.45642, -0.626331, 1.07026, -0.256712, 0.0120337, -0.00032482, -0.021145, -0.0139894, -0.00029551, 0.000306596, -5.62998e-05, 0.511544, 15.9021, 17.9987, 14.2737, 1.05578, 3.31759, 0.00373412, 0.000154782, -0.000405681, -0.00125207, -0.00314232, -0.00453591, 0.000642556, 0.0155978, -0.0279003, 0.0286019, 0.0527612, 0.0242936, 0.149815, -0.0104044, -0.443697, 0.633565, -3.1285, -0.0559224, -0.113072, -0.0103548, -0.443301, 0.634829, -3.13195, -0.0552611, -0.106166, 0.0187541, 0.0252732, -0.0376809, 0.00215467, -0.00349693, -0.010542
0.127441, 0.10835, -0.774215, -0.916892, -1.45644, -0.62633, 1.07027, -0.256712, 0.00902373, -0.00105176, -0.0239586, -0.0161979, 0.000268183, 0.000741057, 5.64512e-05, 0.511544, 15.9378, 18.0741, 14.2737, 1.04297, 3.30295, 0.00373412, 0.000136398, -0.000376294, -0.00127628, -0.00318993, -0.00463882, 0.000648468, 0.0177307, -0.0286107, 0.0278661, 0.0511392, 0.0247418, 0.148277, -0.0103854, -0.443671, 0.633527, -3.12841, -0.0559327, -0.113214, -0.010355, -0.443306, 0.634813, -3.13192, -0.0552613, -0.106151, 0.0190766, 0.0256403, -0.0382798, 0.000427662, -0.00390867, -0.0120397
0.128441, 0.10836, -0.774213, -0.91691, -1.45646, -0.626331, 1.07027, -0.256708, 0.00583875, 0.000134043, -0.0223927, -0.0190842, -0.000303076, 0.00103217, 0.00156618, 0.551216, 15.9021, 17.9987, 14.1983, 1.05578, 3.2883, -0.0356336, 0.000121491, -0.000348525, -0.00130618, -0.0032509, -0.00474838, 0.000654625, 0.0180456, -0.0284851, 0.0282291, 0.0525048, 0.0282709, 0.148314, -0.0103662, -0.443645, 0.633489, -3.12833, -0.0559433, -0.113359, -0.0103519, -0.443308, 0.634803, -3.1319, -0.0552609, -0.106128, 0.0194015, 0.0260084, -0.0388819, 0.000405834, -0.00343297, -0.0123055
0.129441, 0.108371, -0.774216, -0.91694, -1.45648, -0.626334, 1.07026, -0.256706, 0.00538373, -0.000745855, -0.02176, -0.0211584, -0.00108903, 0.000956073, 0.00184297, 0.511544, 15.9378, 18.0741, 14.234, 1.07959, 3.28097, -0.0557752, 0.000102755, -0.000318976, -0.00133022, -0.00329731, -0.0048637, 0.000662749, 0.0183363, -0.0286672, 0.0283864, 0.05316, 0.0296271, 0.151093, -0.0103466, -0.443619, 0.633449, -3.12824, -0.0559541, -0.113506, -0.0103518, -0.443313, 0.634787, -3.13187, -0.0552582, -0.106097, 0.0197288, 0.0263773, -0.039487, 0.000436365, -0.00326058, -0.0127809
0.130441, 0.108377, -0.774216, -0.916963, -1.45651, -0.626332, 1.07026, -0.25671, 0.00308354, -0.000497236, -0.0225016, -0.0216015, -5.18706e-05, 0.000872263, 0.000997032, 0.551216, 15.9378, 18.0741, 14.234, 1.06128, 3.27456, -0.0484509, 8.61892e-05, -0.000290886, -0.00135671, -0.00334855, -0.00497947, 0.000661003, 0.0195245, -0.0289335, 0.0287537, 0.0532387, 0.029721, 0.152155, -0.0103267, -0.443593, 0.63341, -3.12815, -0.055965, -0.113655, -0.0103495, -0.443315, 0.634772, -3.13184, -0.0552709, -0.106069, 0.0200585, 0.0267472, -0.0400951, -0.000437463, -0.00320575, -0.0131161
0.131441, 0.108384, -0.774211, -0.916988, -1.45653, -0.626335, 1.07027, -0.256707, 0.00153728, 0.00143175, -0.0231575, -0.0213146, -0.000953123, 0.00166472, 0.000694425, 0.586922, 15.8624, 18.0741, 14.1983, 1.086, 3.24527, -0.0484509, 6.94199e-05, -0.000260903, -0.00138483, -0.00340704, -0.00510202, 0.000670156, 0.0202801, -0.0295911, 0.0294883, 0.0554735, 0.0320431, 0.152195, -0.0103065, -0.443566, 0.633369, -3.12806, -0.0559762, -0.113807, -0.0103471, -0.443319, 0.634758, -3.13182, -0.0552667, -0.106033, 0.0203905, 0.0271178, -0.0407063, -0.000890339, -0.00353051, -0.0130606
0.132441, 0.108394, -0.774214, -0.917009, -1.45655, -0.626334, 1.07027, -0.256712, 0.00440718, 2.64786e-05, -0.0225843, -0.0229916, -0.000400317, 0.00110842, -0.00144753, 0.586922, 15.9021, 18.0344, 14.1229, 1.07959, 3.24527, 0.00373412, 5.31278e-05, -0.000232218, -0.00141381, -0.00346395, -0.00521767, 0.000663847, 0.0191591, -0.0296702, 0.0295909, 0.0550381, 0.0318869, 0.161137, -0.010286, -0.443538, 0.633328, -3.12796, -0.0559876, -0.113961, -0.010344, -0.443322, 0.634744, -3.13179, -0.0552867, -0.106009, 0.0207248, 0.0274892, -0.0413204, 0.000554358, -0.00320243, -0.0134963
0.133441, 0.108401, -0.774211, -0.917039, -1.45659, -0.626336, 1.07026, -0.256711, 0.00649487, 0.000945673, -0.0218494, -0.0232491, -0.000743292, 0.000466633, -0.000439664, 0.586922, 15.8624, 18.1098, 14.1229, 1.09241, 3.25259, -0.00999879, 3.46902e-05, -0.000202341, -0.00143859, -0.00351026, -0.0053487, 0.000671719, 0.0181037, -0.0298192, 0.0302787, 0.0560625, 0.0338287, 0.165119, -0.0102651, -0.443511, 0.633287, -3.12787, -0.0559992, -0.114117, -0.0103423, -0.443325, 0.634726, -3.13175, -0.0552854, -0.105963, 0.0210615, 0.0278614, -0.0419374, 0.00189587, -0.00295313, -0.0133565
0.134441, 0.108407, -0.774214, -0.917059, -1.45662, -0.626332, 1.07027, -0.256706, 0.00713167, -0.000297571, -0.0216557, -0.0254308, -0.000259441, 0.00136147, 0.00114359, 0.626595, 15.9021, 18.0741, 14.0872, 1.086, 3.22421, -0.0484509, 1.79778e-05, -0.000173241, -0.00146773, -0.00356772, -0.00546673, 0.000674919, 0.0178006, -0.0301509, 0.0303309, 0.0565704, 0.0334827, 0.168069, -0.0102438, -0.443483, 0.633244, -3.12777, -0.056011, -0.114275, -0.010339, -0.443327, 0.634711, -3.13172, -0.0552911, -0.105941, 0.0214005, 0.0282343, -0.0425574, 0.00254265, -0.0029045, -0.0139103
0.135441, 0.108412, -0.774211, -0.917087, -1.45665, -0.626333, 1.07027, -0.256706, 0.00776186, 0.000729639, -0.0241498, -0.0278897, -0.00108944, 0.00117832, 0.00574561, 0.6623, 15.8624, 18.1455, 14.0872, 1.11072, 3.21689, -0.0557752, -3.19121e-08, -0.000142671, -0.00149348, -0.0036195, -0.00560183, 0.000680573, 0.0179943, -0.0308928, 0.0295305, 0.0550212, 0.037238, 0.165455, -0.0102223, -0.443454, 0.633201, -3.12768, -0.0560231, -0.114436, -0.0103363, -0.44333, 0.634692, -3.13169, -0.0552935, -0.105894, 0.0217418, 0.0286079, -0.0431802, 0.00277347, -0.00327187, -0.0153577
0.136441, 0.108416, -0.774206, -0.917104, -1.45668, -0.626337, 1.07027, -0.256707, 0.00817225, 0.00215686, -0.0225055, -0.028201, -0.000964369, 0.000785107, 0.00372071, 0.701973, 15.791, 18.0741, 14.0118, 1.11713, 3.21689, -0.0420422, -1.64174e-05, -0.000113332, -0.0015247, -0.00368307, -0.005738, 0.00068105, 0.0171081, -0.0307991, 0.0305611, 0.0567681, 0.0392012, 0.171773, -0.0102004, -0.443425, 0.633158, -3.12758, -0.0560353, -0.114599, -0.010332, -0.443332, 0.634678, -3.13166, -0.0553038, -0.105848, 0.0220854, 0.0289822, -0.0438058, 0.00391925, -0.00278856, -0.0148946
0.137441, 0.108419, -0.77421, -0.917132, -1.45672, -0.626336, 1.07027, -0.256708, 0.00767456, 0.00060269, -0.0249196, -0.0300403, -0.000168731, 0.00106561, 0.00230496, 0.777352, 15.8267, 18.1455, 14.0118, 1.10431, 3.20224, -0.0292249, -3.66175e-05, -8.22231e-05, -0.0015507, -0.0037352, -0.0058687, 0.000683147, 0.0183238, -0.0314904, 0.0299615, 0.0551774, 0.0385177, 0.174606, -0.0101781, -0.443396, 0.633114, -3.12748, -0.0560478, -0.114764, -0.0103309, -0.443335, 0.634658, -3.13162, -0.0553122, -0.105812, 0.0224314, 0.029357, -0.0444342, 0.00311962, -0.00314281, -0.0162222
0.138441, 0.108424, -0.774214, -0.917152, -1.45676, -0.626336, 1.07027, -0.256711, 0.00601788, -0.000433424, -0.0208662, -0.0325114, -0.00102842, 0.00149005, 0.000777695, 0.777352, 15.8624, 18.1098, 13.9365, 1.12903, 3.18118, -0.00267457, -5.42003e-05, -5.25208e-05, -0.00157986, -0.00379251, -0.00600234, 0.000677512, 0.0179858, -0.0310581, 0.0310694, 0.058387, 0.0396471, 0.180865, -0.0101555, -0.443367, 0.633069, -3.12738, -0.0560605, -0.114932, -0.010327, -0.443336, 0.634641, -3.13159, -0.0553327, -0.105775, 0.0227796, 0.0297325, -0.0450654, 0.0037054, -0.0023406, -0.0157244
0.139441, 0.108428, -0.774209, -0.917172, -1.4568, -0.626338, 1.07027, -0.256705, 0.00468804, 0.00138149, -0.0211543, -0.0364349, -0.000448554, 0.00180698, 0.00265345, 0.777352, 15.791, 18.0741, 13.9365, 1.12262, 3.15921, -0.0557752, -6.89437e-05, -2.24759e-05, -0.0016082, -0.00385079, -0.00614992, 0.000679577, 0.0174697, -0.0311432, 0.0305891, 0.0574522, 0.0437255, 0.182168, -0.0101325, -0.443337, 0.633024, -3.12728, -0.0560735, -0.115102, -0.0103199, -0.443338, 0.634623, -3.13156, -0.0553415, -0.105718, 0.0231301, 0.0301084, -0.0456993, 0.00460568, -0.00202831, -0.0168053
0.140441, 0.108429, -0.774214, -0.917199, -1.45684, -0.626336, 1.07027, -0.256707, 0.00279724, -0.000749445, -0.0238897, -0.040198, -0.000536622, 0.000933249, 0.000199773, 0.813057, 15.8624, 18.1455, 13.8611, 1.12903, 3.16653, -0.00999879, -9.09039e-05, 8.85119e-06, -0.00163549, -0.00390288, -0.0062865, 0.00068241, 0.0194855, -0.0316487, 0.0292436, 0.0540368, 0.0449856, 0.184991, -0.0101092, -0.443306, 0.632978, -3.12717, -0.0560866, -0.115274, -0.0103195, -0.44334, 0.634602, -3.13152, -0.0553496, -0.10568, 0.0234829, 0.0304849, -0.0463358, 0.00306371, -0.00221366, -0.0189429
0.141441, 0.108427, -0.774214, -0.917219, -1.45688, -0.626336, 1.07027, -0.256706, 0.00131713, -0.00049963, -0.0232674, -0.0395352, -0.000798727, 0.000622061, 0.00046521, 0.85273, 15.8624, 18.1098, 13.75, 1.14093, 3.16653, -0.0164075, -0.000111001, 3.94316e-05, -0.00166645, -0.0039645, -0.00642943, 0.000687805, 0.0204002, -0.0318502, 0.0303258, 0.0559841, 0.0454312, 0.185723, -0.0100856, -0.443276, 0.632931, -3.12707, -0.0561, -0.115449, -0.0103172, -0.443341, 0.634584, -3.13148, -0.0553535, -0.105636, 0.0238379, 0.0308619, -0.046975, 0.0024322, -0.0020877, -0.0185782
0.142441, 0.108431, -0.774214, -0.917239, -1.45694, -0.626338, 1.07027, -0.256703, 0.00292656, -0.000333087, -0.0228968, -0.0444604, -0.00100733, 0.00119452, 0.00231392, 0.777352, 15.8624, 18.0741, 13.75, 1.15375, 3.14548, -0.0685925, -0.000126008, 7.013e-05, -0.00169372, -0.00402133, -0.00658268, 0.000682286, 0.0188026, -0.0319978, 0.029603, 0.0551664, 0.0489921, 0.190656, -0.0100616, -0.443245, 0.632884, -3.12696, -0.0561137, -0.115626, -0.0103093, -0.443342, 0.634563, -3.13145, -0.055375, -0.105577, 0.0241952, 0.0312393, -0.0476168, 0.00443747, -0.00179476, -0.0198299
0.143441, 0.10843, -0.774219, -0.917264, -1.45699, -0.626337, 1.07027, -0.2567, 0.00132975, -0.00115008, -0.0220288, -0.0471022, -0.00043429, -0.00305929, 0.00159587, 0.813057, 15.9021, 18.1455, 13.7143, 1.14734, 3.1235, -0.0685925, -0.000146212, 0.000102039, -0.00172021, -0.00407531, -0.00673112, 0.000683976, 0.0195933, -0.0311604, 0.0293654, 0.0515812, 0.0518819, 0.194539, -0.0100372, -0.443213, 0.632836, -3.12686, -0.0561275, -0.115806, -0.010306, -0.443344, 0.634539, -3.1314, -0.0553856, -0.105528, 0.0245547, 0.0316171, -0.0482612, 0.00399336, -0.00060812, -0.0207664
0.144441, 0.108428, -0.774217, -0.917286, -1.45704, -0.626337, 1.07027, -0.256704, 0.00104695, 0.000161301, -0.0227478, -0.0471669, -0.000289598, -0.00164879, 0.000629131, 0.813057, 15.8624, 18.1455, 13.5635, 1.14734, 3.10245, -0.0557752, -0.000165745, 0.000133365, -0.00175061, -0.00413498, -0.00688546, 0.000681761, 0.0196826, -0.0318528, 0.0300047, 0.0535617, 0.0527671, 0.197271, -0.0100124, -0.443182, 0.632787, -3.12675, -0.0561417, -0.115988, -0.0103021, -0.443344, 0.634519, -3.13137, -0.0554023, -0.105473, 0.0249165, 0.0319953, -0.0489081, 0.00424127, -0.00093672, -0.0207958
0.145441, 0.108425, -0.774222, -0.917303, -1.45709, -0.626335, 1.07027, -0.256706, 0.000818303, -0.000820486, -0.0224037, -0.049288, 0.00024769, -0.00139106, -0.00100869, 0.813057, 15.9021, 18.1098, 13.5278, 1.13544, 3.10245, -0.0164075, -0.000184601, 0.000164233, -0.00178036, -0.00419551, -0.00703698, 0.000674448, 0.0197261, -0.0320117, 0.0301313, 0.0537359, 0.0529489, 0.202792, -0.00998734, -0.443149, 0.632738, -3.12664, -0.056156, -0.116172, -0.010297, -0.443344, 0.634498, -3.13133, -0.0554272, -0.105424, 0.0252805, 0.0323738, -0.0495576, 0.00455546, -0.000723486, -0.0213298
0.146441, 0.108425, -0.774227, -0.917323, -1.45715, -0.626337, 1.07027, -0.256708, 0.000635787, -0.0046063, -0.0228329, -0.0538461, -0.000275723, -0.000875011, -0.00139598, 0.813057, 15.9378, 18.1098, 13.4882, 1.14734, 3.09512, 0.00373412, -0.000203828, 0.000195263, -0.00180861, -0.00425156, -0.0071964, 0.0006668, 0.0205323, -0.0324049, 0.02922, 0.0525415, 0.0526324, 0.207274, -0.00996188, -0.443117, 0.632688, -3.12652, -0.0561706, -0.116359, -0.0102919, -0.443344, 0.634474, -3.13128, -0.055453, -0.105366, 0.0256467, 0.0327526, -0.0502094, 0.00419706, -0.000756849, -0.0229609
0.147441, 0.108422, -0.774231, -0.917342, -1.45721, -0.626334, 1.07027, -0.256705, 0.000491547, -0.00333954, -0.0234316, -0.0572654, -0.000183845, -0.000204982, -0.000167818, 0.813057, 15.9378, 18.1098, 13.4525, 1.14734, 3.08047, -0.0164075, -0.000222209, 0.000226464, -0.0018381, -0.00430969, -0.00735484, 0.000662676, 0.0199394, -0.0327461, 0.0288024, 0.0521092, 0.0560758, 0.209754, -0.00993605, -0.443084, 0.632638, -3.12641, -0.0561854, -0.116548, -0.0102857, -0.443343, 0.634451, -3.13124, -0.0554736, -0.105311, 0.0260151, 0.0331317, -0.0508638, 0.00519689, -0.000695227, -0.0239974
0.148441, 0.108419, -0.774241, -0.917364, -1.45728, -0.626333, 1.07027, -0.256703, -0.000549555, -0.0040983, -0.0215814, -0.0595489, -0.000122586, -0.00479346, 0.000612835, 0.85273, 16.0092, 18.1455, 13.4128, 1.14734, 3.07315, -0.0356336, -0.000243641, 0.000258459, -0.00186554, -0.00436448, -0.00751342, 0.000659437, 0.0203696, -0.0317508, 0.0289208, 0.049281, 0.0593201, 0.213054, -0.00990985, -0.44305, 0.632586, -3.1263, -0.0562005, -0.11674, -0.0102819, -0.443343, 0.634425, -3.13119, -0.0554932, -0.105259, 0.0263857, 0.0335111, -0.0515205, 0.00509095, 0.000658586, -0.0245632
0.149441, 0.108416, -0.774245, -0.917381, -1.45734, -0.626334, 1.07027, -0.256704, -0.00116351, -0.00288333, -0.0161252, -0.0591026, -0.000556459, -0.00317977, -5.66835e-05, 0.888436, 16.0092, 18.1455, 13.3771, 1.16015, 3.05942, -0.0228162, -0.000261869, 0.000290166, -0.00189521, -0.00442556, -0.0076811, 0.000649295, 0.0188445, -0.0313676, 0.0314968, 0.0559937, 0.0598508, 0.219377, -0.00988328, -0.443017, 0.632535, -3.12618, -0.0562158, -0.116934, -0.0102748, -0.443343, 0.634401, -3.13115, -0.0555236, -0.105195, 0.0267585, 0.0338906, -0.0521796, 0.006775, 0.00143558, -0.0225414
0.150441, 0.108416, -0.77425, -0.917397, -1.45741, -0.626336, 1.07027, -0.256699, -0.000747119, -0.00203557, -0.0183032, -0.061, -0.00104915, -0.00248942, 0.000681396, 0.888436, 16.0092, 18.1455, 13.3414, 1.17847, 3.05942, -0.0420422, -0.000279311, 0.000321178, -0.00192391, -0.004482, -0.00785455, 0.000641088, 0.019074, -0.0322035, 0.031078, 0.0556097, 0.0624014, 0.220669, -0.00985633, -0.442983, 0.632482, -3.12606, -0.0562314, -0.11713, -0.0102665, -0.443341, 0.634376, -3.1311, -0.0555516, -0.105124, 0.0271335, 0.0342704, -0.052841, 0.00697968, 0.000974283, -0.0236534
0.151441, 0.108411, -0.774254, -0.917418, -1.45747, -0.626332, 1.07027, -0.256695, -0.00451756, -0.000606837, -0.018579, -0.0605413, -0.000699445, -0.00085172, 0.00144294, 0.928108, 15.9735, 18.2209, 13.2263, 1.17847, 3.03012, -0.0685925, -0.000299517, 0.00035399, -0.00195391, -0.00454177, -0.00802234, 0.000640012, 0.0205806, -0.0327639, 0.0321599, 0.0585573, 0.0627582, 0.218424, -0.00982901, -0.442948, 0.632429, -3.12594, -0.0562473, -0.117329, -0.0102606, -0.44334, 0.63435, -3.13105, -0.0555685, -0.105065, 0.0275107, 0.0346502, -0.0535047, 0.00579175, 0.00072165, -0.0233644
0.152441, 0.108405, -0.774268, -0.917432, -1.45755, -0.626334, 1.07027, -0.256696, -0.00409027, -0.00223155, -0.0160349, -0.0661219, -0.000228945, -0.000267071, 0.00049124, 0.963814, 16.0489, 18.1852, 13.2263, 1.17206, 3.01639, -0.0557752, -0.000319132, 0.000385402, -0.00198245, -0.00460119, -0.00819384, 0.000624042, 0.0190986, -0.0323819, 0.0318483, 0.0584527, 0.0643732, 0.22739, -0.00980131, -0.442913, 0.632375, -3.12582, -0.0562634, -0.117531, -0.0102536, -0.443338, 0.634323, -3.13101, -0.0556089, -0.105003, 0.02789, 0.0350302, -0.0541706, 0.00765398, 0.0015366, -0.0242317
0.153441, 0.108397, -0.774271, -0.917445, -1.45763, -0.626335, 1.07027, -0.256699, -0.00467259, -0.00581329, -0.0142642, -0.0719845, 0.00434703, -0.000605227, -0.000652852, 1.03919, 15.9735, 18.1455, 13.1906, 1.17847, 3.02371, -0.0292249, -0.000336924, 0.000416238, -0.00201105, -0.00465936, -0.00837982, 0.000607673, 0.018146, -0.0315138, 0.031109, 0.0550018, 0.0616083, 0.237075, -0.00977323, -0.442878, 0.63232, -3.1257, -0.0562797, -0.117734, -0.0102446, -0.443335, 0.634295, -3.13096, -0.0556504, -0.10492, 0.0282715, 0.0354102, -0.0548388, 0.00900509, 0.0028248, -0.0255615
0.154441, 0.108399, -0.774283, -0.917464, -1.45771, -0.626335, 1.07027, -0.256703, -0.00554177, -0.0106995, -0.0187866, -0.0734407, 0.00329277, 0.00056465, -0.00165369, 1.00349, 15.9735, 18.2209, 13.1152, 1.17847, 2.99441, 0.00373412, -0.000354759, 0.000449088, -0.00203843, -0.00471453, -0.0085583, 0.000585144, 0.0216024, -0.0330779, 0.030061, 0.0536932, 0.0584426, 0.236598, -0.00974476, -0.442843, 0.632265, -3.12558, -0.0562963, -0.117941, -0.010235, -0.443334, 0.634266, -3.1309, -0.0557018, -0.104852, 0.0286551, 0.0357903, -0.0555092, 0.0060767, 0.00153103, -0.027563
0.155441, 0.108391, -0.774301, -0.917479, -1.4578, -0.626334, 1.07027, -0.256699, -0.00804001, -0.0129118, -0.017081, -0.0755264, 0.00205043, 0.000288733, 0.00386478, 1.03919, 16.0489, 18.2209, 13.1152, 1.19037, 2.99441, -0.00267457, -0.000375042, 0.000481093, -0.00206541, -0.00477009, -0.00873474, 0.000570817, 0.0230136, -0.0330463, 0.0305969, 0.055223, 0.0589245, 0.232951, -0.00971592, -0.442807, 0.632209, -3.12545, -0.0563132, -0.11815, -0.0102275, -0.443331, 0.634235, -3.13084, -0.0557407, -0.104789, 0.0290408, 0.0361704, -0.0561817, 0.00501146, 0.00188105, -0.0278148
0.156441, 0.10838, -0.774311, -0.917493, -1.45789, -0.626333, 1.07027, -0.256697, -0.00858585, -0.011805, -0.0158519, -0.0769525, 0.00135164, 0.000635339, 0.00419251, 1.15424, 16.0092, 18.2209, 13.1152, 1.19678, 2.98068, -0.0356336, -0.000395218, 0.000512377, -0.00209344, -0.00482638, -0.0089238, 0.000557858, 0.0226728, -0.0331755, 0.0313082, 0.0571949, 0.0616161, 0.235999, -0.00968668, -0.44277, 0.632153, -3.12533, -0.0563304, -0.118361, -0.0102196, -0.443327, 0.634204, -3.13079, -0.0557779, -0.104709, 0.0294287, 0.0365505, -0.0568564, 0.00568669, 0.00212977, -0.0277633
0.157441, 0.108374, -0.774323, -0.917511, -1.45797, -0.626332, 1.07027, -0.256694, -0.00927203, -0.0118788, -0.0158673, -0.0770402, 0.00130499, 0.000645495, 0.00431217, 1.15424, 16.0092, 18.2606, 13.0399, 1.19037, 2.97336, -0.0685925, -0.000416025, 0.000545476, -0.00212226, -0.00488379, -0.00910768, 0.000545738, 0.0233404, -0.0335153, 0.0320148, 0.0584585, 0.0619895, 0.237805, -0.00965706, -0.442734, 0.632096, -3.1252, -0.0563478, -0.118575, -0.0102119, -0.443325, 0.634173, -3.13073, -0.055814, -0.10464, 0.0298187, 0.0369305, -0.0575331, 0.00536709, 0.0021321, -0.0277979
0.158441, 0.108373, -0.774343, -0.91752, -1.45807, -0.626333, 1.07027, -0.256693, -0.00904589, -0.0128799, -0.0108616, -0.0837888, 0.000757533, 0.000935866, 0.00235114, 1.11457, 16.0489, 18.2209, 13.0399, 1.19678, 2.95871, -0.0484509, -0.000432967, 0.000576658, -0.00215092, -0.00494144, -0.00929424, 0.000516036, 0.0209638, -0.0326243, 0.032055, 0.0595514, 0.0658237, 0.249606, -0.00962704, -0.442696, 0.632038, -3.12507, -0.0563654, -0.118791, -0.0102001, -0.44332, 0.634142, -3.13068, -0.0558777, -0.104569, 0.0302108, 0.0373105, -0.0582119, 0.0080882, 0.00348205, -0.0282523
0.159441, 0.108371, -0.774356, -0.917537, -1.45816, -0.626334, 1.07027, -0.25669, -0.00495871, -0.0140359, -0.012248, -0.0870776, 0.000157888, 0.000867429, 0.00248017, 1.03919, 15.9735, 18.2606, 13.0795, 1.20868, 2.95138, -0.0685925, -0.000450769, 0.000610477, -0.0021779, -0.00499857, -0.00948903, 0.000496063, 0.0197604, -0.0332352, 0.0311953, 0.0579004, 0.0677796, 0.256504, -0.00959664, -0.442659, 0.631979, -3.12494, -0.0563834, -0.11901, -0.0101885, -0.443318, 0.634109, -3.13062, -0.0559266, -0.104488, 0.0306049, 0.0376903, -0.0588927, 0.00976533, 0.00330318, -0.0297133
0.160441, 0.108358, -0.774378, -0.917553, -1.45826, -0.626335, 1.07028, -0.256696, -0.00558756, -0.0176773, -0.0131204, -0.0885353, -6.18434e-05, 0.000828742, -0.000154263, 1.11457, 16.0092, 18.2963, 13.0795, 1.21509, 2.94406, -0.0164075, -0.000475452, 0.00064403, -0.00220622, -0.00505709, -0.00967679, 0.000476292, 0.0215273, -0.0337497, 0.0311179, 0.0576073, 0.0656995, 0.261122, -0.00956583, -0.442621, 0.63192, -3.12481, -0.0564016, -0.119232, -0.0101835, -0.443315, 0.634075, -3.13056, -0.0559755, -0.10442, 0.0310012, 0.03807, -0.0595756, 0.00842206, 0.00310326, -0.0306222
0.161441, 0.108357, -0.774394, -0.917558, -1.45836, -0.626334, 1.07027, -0.256695, -0.00548309, -0.0177967, -0.0103463, -0.0902297, 0.000248823, 0.000774244, 0.000228319, 1.03919, 15.9378, 18.1852, 13.1152, 1.20868, 2.93765, -0.0228162, -0.000489699, 0.000674863, -0.00223614, -0.00511661, -0.0098753, 0.000440687, 0.0205712, -0.0334153, 0.0320898, 0.059503, 0.0667407, 0.266603, -0.00953463, -0.442583, 0.63186, -3.12467, -0.0564201, -0.119456, -0.010168, -0.443309, 0.634043, -3.1305, -0.0560493, -0.104339, 0.0313996, 0.0384495, -0.0602603, 0.00968343, 0.00383169, -0.0302682
0.162441, 0.108349, -0.774416, -0.917568, -1.45846, -0.62633, 1.07027, -0.256697, -0.00735158, -0.0157951, -0.0101964, -0.0907294, 0.000646211, 0.000267097, -0.000523421, 1.03919, 15.9021, 18.1455, 13.0795, 1.19678, 2.94406, -0.00267457, -0.000510334, 0.000706695, -0.00226612, -0.00517432, -0.0100659, 0.000412386, 0.0209691, -0.0334733, 0.0327929, 0.0602377, 0.0693788, 0.268672, -0.00950303, -0.442544, 0.6318, -3.12454, -0.0564389, -0.119682, -0.0101584, -0.443304, 0.634011, -3.13044, -0.056112, -0.104272, 0.0318, 0.0388288, -0.060947, 0.00963208, 0.00412374, -0.0302928
0.163441, 0.108339, -0.77444, -0.917579, -1.45856, -0.626329, 1.07027, -0.256696, -0.00557754, -0.0142481, -0.0109578, -0.0957779, 0.000223088, 0.000406644, -2.49162e-05, 1.03919, 15.8624, 18.1455, 13.0399, 1.20318, 2.93765, -0.00999879, -0.000532237, 0.000739583, -0.00229524, -0.00523363, -0.0102607, 0.000387839, 0.0193533, -0.0337499, 0.0317658, 0.0584733, 0.0749039, 0.274367, -0.00947103, -0.442505, 0.631738, -3.1244, -0.0564579, -0.119911, -0.0101495, -0.443299, 0.633976, -3.13037, -0.0561692, -0.104201, 0.0322025, 0.0392079, -0.0616356, 0.0117293, 0.00429562, -0.0318925
0.164441, 0.108332, -0.774458, -0.917584, -1.45867, -0.626329, 1.07027, -0.256695, -0.00650945, -0.0146121, -0.00970129, -0.099737, -3.24958e-05, 0.000807046, 0.00049768, 1.00349, 15.7513, 18.0741, 13.1152, 1.20868, 2.923, -0.0228162, -0.000548531, 0.000770848, -0.00232433, -0.00529249, -0.0104696, 0.000353835, 0.0190239, -0.0336977, 0.0316894, 0.0588288, 0.0774433, 0.27842, -0.00943863, -0.442466, 0.631676, -3.12426, -0.0564773, -0.120143, -0.0101348, -0.443292, 0.633941, -3.13031, -0.0562416, -0.104111, 0.032607, 0.0395867, -0.062326, 0.0124621, 0.00473523, -0.0326406
0.165441, 0.108324, -0.774488, -0.917593, -1.45878, -0.626329, 1.07027, -0.256687, -0.00719925, -0.0204328, -0.00656205, -0.10445, 0.000198459, 0.00107563, 0.00181953, 0.963814, 15.7513, 18.0344, 13.1509, 1.20318, 2.90835, -0.0621838, -0.000570646, 0.000803804, -0.00235309, -0.00535122, -0.0106663, 0.000331113, 0.0194008, -0.0332805, 0.0317034, 0.0592358, 0.0746539, 0.284006, -0.00940582, -0.442426, 0.631614, -3.12412, -0.0564969, -0.120377, -0.0101253, -0.443287, 0.633905, -3.13025, -0.0562967, -0.104043, 0.0330136, 0.0399652, -0.0630183, 0.012473, 0.00551278, -0.0333501
0.166441, 0.108316, -0.774513, -0.917606, -1.45889, -0.626329, 1.07027, -0.256689, -0.00784789, -0.020231, -0.0100032, -0.103149, 0.00014481, 0.000442113, 0.000251934, 0.928108, 15.6799, 18.1098, 13.1152, 1.20318, 2.91568, -0.0356336, -0.000593049, 0.000837762, -0.00238202, -0.00540873, -0.0108708, 0.000302832, 0.0214485, -0.0342466, 0.031847, 0.0585412, 0.0749081, 0.284266, -0.0093726, -0.442386, 0.63155, -3.12398, -0.0565168, -0.120614, -0.0101157, -0.443282, 0.633868, -3.13018, -0.0563608, -0.103965, 0.0334222, 0.0403434, -0.0637123, 0.0108618, 0.00484615, -0.03408
0.167441, 0.108311, -0.774538, -0.917608, -1.459, -0.626325, 1.07027, -0.256687, -0.00742964, -0.0228981, -0.00800688, -0.108031, 0.000343277, 0.000834499, 0.000930636, 0.85273, 15.6046, 17.9987, 13.1509, 1.19678, 2.90103, -0.0557752, -0.000608561, 0.000868769, -0.00241242, -0.00546834, -0.0110775, 0.000260713, 0.0207113, -0.0340256, 0.0315744, 0.0583872, 0.0754072, 0.290793, -0.00933897, -0.442345, 0.631486, -3.12384, -0.056537, -0.120853, -0.0100991, -0.443274, 0.633832, -3.13011, -0.0564467, -0.103886, 0.0338328, 0.0407212, -0.0644081, 0.0120159, 0.00547099, -0.0349958
0.168441, 0.108311, -0.774538, -0.917608, -1.459, -0.626325, 1.07027, -0.256687, -0.00742964, -0.0228981, -0.00800688, -0.108031, 0.000343277, 0.000834499, 0.000930636, 0.85273, 15.6046, 17.9987, 13.1509, 1.19678, 2.90103, -0.0557752, -0.000638524, 0.000907191, -0.00248048, -0.00559998, -0.011238, 0.000271763, 0.021077, -0.0343737, 0.0323156, 0.059648, 0.0758015, 0.293467, -0.00930493, -0.442304, 0.631421, -3.1237, -0.0565575, -0.121095, -0.0100991, -0.443274, 0.633832, -3.13011, -0.0564467, -0.103886, 0.0342455, 0.0410986, -0.0651057, 0.0120159, 0.00547099, -0.0349958
0.169441, 0.108311, -0.774538, -0.917608, -1.459, -0.626325, 1.07027, -0.256687, -0.00742964, -0.0228981, -0.00800688, -0.108031, 0.000343277, 0.000834499, 0.000930636, 0.85273, 15.6046, 17.9987, 13.1509, 1.19678, 2.90103, -0.0557752, -0.000668833, 0.000945943, -0.0025493, -0.00573295, -0.0114002, 0.000282982, 0.0214443, -0.034721, 0.0330589, 0.0609099, 0.0761988, 0.296147, -0.00927048, -0.442263, 0.631356, -3.12355, -0.0565783, -0.121339, -0.0100991, -0.443274, 0.633832, -3.13011, -0.0564467, -0.103886, 0.0346601, 0.0414756, -0.0658049, 0.0120159, 0.00547099, -0.0349958
0.170441, 0.108277, -0.774636, -0.917615, -1.45938, -0.626317, 1.07027, -0.256692, -0.0109656, -0.0281878, -0.00205448, -0.12036, 0.000790479, -0.00162415, -0.000696267, 0.777352, 15.4221, 17.8122, 13.2263, 1.17847, 2.86532, -0.00267457, -0.000667935, 0.000963562, -0.0024981, -0.00564033, -0.0117084, 0.000131457, 0.0207059, -0.0326761, 0.0314055, 0.0566533, 0.0800254, 0.30798, -0.00923561, -0.442221, 0.63129, -3.1234, -0.0565994, -0.121587, -0.0100591, -0.44325, 0.633715, -3.1299, -0.0567112, -0.103648, 0.0350768, 0.0418522, -0.0665058, 0.0132168, 0.0079401, -0.0372674
0.171441, 0.108269, -0.774677, -0.917624, -1.45951, -0.626314, 1.07026, -0.256685, -0.00977107, -0.0350043, -0.00272203, -0.122755, 0.00500872, -0.00106602, 0.00198251, 0.701973, 15.4578, 17.848, 13.1509, 1.18396, 2.85892, -0.0685925, -0.000692109, 0.000997086, -0.00252622, -0.00569427, -0.0119138, 9.99364e-05, 0.0214597, -0.0328053, 0.0309931, 0.0541897, 0.0717696, 0.311957, -0.00920033, -0.442179, 0.631223, -3.12326, -0.0566208, -0.121836, -0.0100492, -0.443243, 0.633673, -3.12982, -0.0567822, -0.103582, 0.0354954, 0.0422282, -0.0672083, 0.0129171, 0.00816267, -0.0384501
0.172441, 0.108259, -0.774715, -0.917624, -1.45964, -0.626312, 1.07026, -0.256685, -0.00980302, -0.0342505, -0.00454031, -0.12531, 0.00393501, -0.000333609, 0.000104932, 0.6623, 15.3864, 17.8122, 13.1906, 1.17847, 2.84427, -0.0356336, -0.000711605, 0.00102916, -0.00255546, -0.00575421, -0.012129, 5.20092e-05, 0.0218171, -0.0335843, 0.0305408, 0.0540122, 0.0751347, 0.315896, -0.00916462, -0.442137, 0.631155, -3.12311, -0.0566425, -0.122088, -0.0100344, -0.443234, 0.633632, -3.12974, -0.0568788, -0.103503, 0.0359161, 0.0426038, -0.0679124, 0.0130416, 0.00775021, -0.0396525
0.173441, 0.108252, -0.774757, -0.917624, -1.45977, -0.626311, 1.07026, -0.256688, -0.0112811, -0.037663, -0.00274697, -0.124548, 0.00315501, 0.000196032, -0.00114778, 0.551216, 15.3467, 17.7765, 13.1509, 1.17206, 2.82962, -0.00267457, -0.000732097, 0.00106157, -0.00258519, -0.00581342, -0.0123435, 6.60783e-07, 0.0235499, -0.0338425, 0.032013, 0.0575239, 0.0718916, 0.319007, -0.00912849, -0.442094, 0.631087, -3.12296, -0.0566645, -0.122343, -0.0100202, -0.443225, 0.633591, -3.12967, -0.0569812, -0.103428, 0.0363387, 0.0429789, -0.068618, 0.0116287, 0.00777589, -0.0390391
0.174441, 0.108236, -0.774799, -0.91762, -1.45991, -0.626308, 1.07026, -0.256688, -0.0159116, -0.0402273, -0.00131978, -0.130851, 0.00208671, 0.000546241, -0.00100032, 0.586922, 15.311, 17.7369, 13.1509, 1.17847, 2.81589, 0.00373412, -0.000753368, 0.00109297, -0.00261475, -0.00587386, -0.012562, -4.78169e-05, 0.0251681, -0.033642, 0.031334, 0.05711, 0.0743956, 0.320751, -0.00909194, -0.442051, 0.631018, -3.1228, -0.0566868, -0.122601, -0.0100064, -0.443215, 0.63355, -3.12959, -0.0570794, -0.10335, 0.0367632, 0.0433533, -0.0693252, 0.0104825, 0.00829999, -0.0405568
0.175441, 0.108226, -0.77484, -0.917622, -1.46005, -0.626307, 1.07026, -0.256686, -0.0135667, -0.0440203, -0.00212024, -0.135173, 0.00652736, 0.000565624, 8.07799e-05, 0.511544, 15.2356, 17.7765, 13.0795, 1.17206, 2.80856, -0.0164075, -0.000774915, 0.00112566, -0.0026431, -0.00592928, -0.0127847, -9.37705e-05, 0.0241673, -0.0335163, 0.0303144, 0.053045, 0.0705564, 0.328459, -0.00905497, -0.442007, 0.630949, -3.12265, -0.0567094, -0.122861, -0.00999228, -0.443206, 0.633506, -3.12951, -0.0571742, -0.103267, 0.0371897, 0.0437272, -0.0700339, 0.0119771, 0.00884814, -0.0422105
0.176441, 0.108207, -0.77488, -0.917619, -1.46021, -0.626303, 1.07026, -0.256688, -0.0153509, -0.040235, -0.00071975, -0.139618, 0.00487017, 0.00113853, -0.000690878, 0.586922, 15.1285, 17.7369, 13.1152, 1.17206, 2.78659, 0.00373412, -0.000795145, 0.00115711, -0.00267035, -0.00598546, -0.0130155, -0.00014676, 0.0230877, -0.0334726, 0.0303402, 0.0543589, 0.0785566, 0.332682, -0.00901756, -0.441964, 0.630878, -3.12249, -0.0567323, -0.123123, -0.00997641, -0.443195, 0.63346, -3.12943, -0.0572805, -0.103174, 0.0376182, 0.0441005, -0.0707441, 0.0134735, 0.00929848, -0.0428185
0.177441, 0.1082, -0.77493, -0.91762, -1.46036, -0.626303, 1.07026, -0.256684, -0.0120788, -0.0431108, -0.00158356, -0.142437, 0.00339838, 0.000719756, 0.000998417, 0.475838, 15.1285, 17.7765, 13.1152, 1.17847, 2.78659, -0.0356336, -0.00081613, 0.00118964, -0.00269646, -0.00603685, -0.0132428, -0.000199858, 0.0229357, -0.0340489, 0.0297477, 0.0533568, 0.0793632, 0.337061, -0.00897973, -0.441919, 0.630807, -3.12233, -0.0567555, -0.123389, -0.00996075, -0.443185, 0.633412, -3.12934, -0.0573874, -0.10309, 0.0380486, 0.0444731, -0.0714557, 0.0141191, 0.00910654, -0.0441265
0.178441, 0.108185, -0.774982, -0.917612, -1.46051, -0.626302, 1.07026, -0.256682, -0.014655, -0.0473119, 0.000575752, -0.147479, 0.0025573, 0.00123028, 0.00114103, 0.436165, 15.0888, 17.7012, 13.1152, 1.17847, 2.76553, -0.0484509, -0.000838051, 0.00122144, -0.00272621, -0.00609938, -0.0134672, -0.000255149, 0.0241098, -0.0338709, 0.029557, 0.0538959, 0.0791661, 0.340916, -0.00894147, -0.441875, 0.630735, -3.12218, -0.056779, -0.123657, -0.00994592, -0.443174, 0.633368, -3.12927, -0.0574976, -0.103013, 0.0384809, 0.044845, -0.0721687, 0.0133862, 0.0096133, -0.0451296
0.179441, 0.108165, -0.775032, -0.917608, -1.46068, -0.6263, 1.07025, -0.256682, -0.0152824, -0.0491621, 0.00121302, -0.151418, 0.00148284, 0.000526834, 0.0054764, 0.475838, 15.0174, 17.6615, 13.1509, 1.19037, 2.77286, -0.0484509, -0.000861327, 0.00125253, -0.00275245, -0.0061503, -0.0137037, -0.000309281, 0.0246081, -0.0338614, 0.0291869, 0.0531868, 0.081461, 0.340666, -0.00890277, -0.44183, 0.630663, -3.12202, -0.0568029, -0.123927, -0.00993176, -0.443161, 0.633319, -3.12917, -0.0576069, -0.102919, 0.0389151, 0.0452163, -0.0728831, 0.013349, 0.00997831, -0.0462621
0.180441, 0.108152, -0.775081, -0.917606, -1.46083, -0.626301, 1.07025, -0.256683, -0.0160613, -0.0479957, 0.000734554, -0.150761, 0.0052358, 0.00114846, 0.00380691, 0.400459, 14.942, 17.6615, 13.0795, 1.20868, 2.75088, -0.0420422, -0.000883433, 0.00128531, -0.00278008, -0.0062064, -0.0139415, -0.000366243, 0.0244721, -0.0339632, 0.0301271, 0.0535164, 0.0795098, 0.345387, -0.00886363, -0.441784, 0.630589, -3.12185, -0.0568271, -0.1242, -0.00991606, -0.44315, 0.63327, -3.12909, -0.0577208, -0.102826, 0.0393512, 0.0455868, -0.0735988, 0.013846, 0.0102302, -0.0460412
0.181441, 0.108133, -0.775135, -0.917595, -1.46101, -0.626297, 1.07025, -0.256687, -0.0153692, -0.0481267, 0.00303256, -0.160568, 0.00401038, 0.00129575, 0.00137487, 0.400459, 14.9063, 17.5504, 13.1509, 1.20868, 2.73623, -0.00267457, -0.000902092, 0.00131542, -0.00280484, -0.00625782, -0.0141845, -0.000439544, 0.0220745, -0.0334392, 0.0285036, 0.0513676, 0.0870155, 0.357402, -0.00882406, -0.441738, 0.630515, -3.12169, -0.0568516, -0.124476, -0.00989637, -0.443136, 0.633219, -3.129, -0.0578608, -0.102728, 0.0397893, 0.0459565, -0.0743159, 0.0167777, 0.011234, -0.0481867
0.182441, 0.108122, -0.775187, -0.917591, -1.46118, -0.626297, 1.07025, -0.256687, -0.0162796, -0.0472479, 0.00281523, -0.163636, 0.00282611, 0.000854516, 0.00113783, 0.325081, 14.8309, 17.5147, 13.1509, 1.21509, 2.73623, -0.00267457, -0.000922338, 0.00134756, -0.00283035, -0.00630821, -0.0144305, -0.000504292, 0.0223247, -0.0336376, 0.0282914, 0.0510586, 0.0914719, 0.360287, -0.00878406, -0.441692, 0.630441, -3.12153, -0.0568764, -0.124755, -0.00987782, -0.443124, 0.633167, -3.1289, -0.0579879, -0.102628, 0.0402292, 0.0463255, -0.0750342, 0.0169886, 0.0113951, -0.0491493
0.183441, 0.108107, -0.775244, -0.917586, -1.46136, -0.626297, 1.07025, -0.256684, -0.0168768, -0.0511337, 0.00583013, -0.172049, 0.00217648, 0.000800048, 0.000924488, 0.245735, 14.8309, 17.479, 13.266, 1.21509, 2.72983, -0.00267457, -0.000943438, 0.00137979, -0.00285446, -0.00635841, -0.0146772, -0.000568101, 0.0215987, -0.0330022, 0.0272007, 0.0495633, 0.0939445, 0.368944, -0.00874361, -0.441646, 0.630365, -3.12136, -0.0569015, -0.125036, -0.00985957, -0.443111, 0.633113, -3.1288, -0.0581139, -0.102529, 0.040671, 0.0466936, -0.0757538, 0.0182131, 0.0124398, -0.0508973
0.184441, 0.10809, -0.775301, -0.917579, -1.46154, -0.626293, 1.07025, -0.256679, -0.0152742, -0.0534967, 0.00814844, -0.171767, 0.00190766, 0.000799391, 0.00219884, 0.21003, 14.7952, 17.4393, 13.266, 1.20868, 2.7225, -0.0420422, -0.000965511, 0.00141123, -0.00288175, -0.00641157, -0.0149206, -0.0006284, 0.0213587, -0.0330176, 0.0285716, 0.0523343, 0.091996, 0.373533, -0.00870271, -0.441599, 0.630289, -3.12119, -0.056927, -0.12532, -0.00984215, -0.443098, 0.633061, -3.12871, -0.0582347, -0.102439, 0.0411146, 0.0470609, -0.0764746, 0.0187832, 0.0127701, -0.0502423
