alisrour97/Franka_experiments/Real_Robot_scripts/servo-franka/Data4/log_dyn_INITw_ki_0.csv
Time,q1,q2,q3,q4,q5,q6,q7,dq1,dq2,dq3,dq4,dq5,dq6,dq7,t1,t2,t3,t4,t5,t6,t7,ex1,ex2,ex3,ex4,ex5,ex6,ev1,ev2,ev3,ev4,ev5,ev6,xd,yd,zd,uxd,uyd,uzd,x,y,z,ux,uy,uz,vxd,vyd,vzd,vx,vy,vz
2.44141e-07, 0.107753, -0.773765, -0.915775, -1.45634, -0.625054, 1.0702, -0.25674, -0.00203212, -0.00274542, -0.00808629, 0.00179991, 0.000680216, 0.000489476, -0.00185302, -0.543754, 15.311, 19.0024, 15.69, 0.920287, 3.33865, -0.166554, 0.00124349, -0.00177875, -9.07465e-05, -0.000238547, -0.000270076, -0.000372265, 0.00452096, -0.00170096, -0.00174646, -0.00415845, -0.00431445, -0.00692757, -0.011112, -0.444721, 0.635038, -3.13187, -0.0555627, -0.107532, -0.00993266, -0.442897, 0.635227, -3.13213, -0.0565803, -0.107104, 0, 0, 0, -0.00432726, -0.00184385, -0.00206336
0.0131077, 0.10776, -0.773812, -0.915846, -1.45634, -0.625048, 1.0702, -0.256739, 0.00110577, -0.00140956, -0.00736239, 2.52766e-05, 0.0003644, 2.04137e-07, 0.000218702, -0.619133, 15.1285, 18.9667, 15.69, 0.895568, 3.33133, -0.186696, 0.00121116, -0.00176442, -6.78248e-05, -0.000185363, -0.000224291, -0.000327551, 0.00224343, -0.00145157, -0.00216699, -0.00507483, -0.00135291, -0.00454417, -0.011112, -0.444721, 0.635038, -3.13187, -0.0555627, -0.107532, -0.00997204, -0.442915, 0.6352, -3.13206, -0.0564899, -0.107194, 1.73063e-06, 3.0097e-06, -3.96181e-06, -0.00203491, -0.00150789, -0.00232885
0.0141077, 0.10776, -0.773812, -0.915846, -1.45634, -0.625048, 1.0702, -0.256739, 0.00110577, -0.00140956, -0.00736239, 2.52766e-05, 0.0003644, 2.04137e-07, 0.000218702, -0.619133, 15.1285, 18.9667, 15.69, 0.895568, 3.33133, -0.186696, 0.00121116, -0.00176442, -6.78343e-05, -0.000185383, -0.000224314, -0.00032755, 0.0022481, -0.00146029, -0.00215473, -0.0050502, -0.00134959, -0.00449749, -0.011112, -0.444721, 0.635038, -3.13187, -0.0555627, -0.107532, -0.00997204, -0.442915, 0.6352, -3.13206, -0.0564899, -0.107194, 6.91577e-06, 1.20019e-05, -1.58141e-05, -0.00203491, -0.00150789, -0.00232885
0.0151077, 0.10776, -0.773812, -0.915846, -1.45634, -0.625048, 1.0702, -0.256739, 0.00110577, -0.00140956, -0.00736239, 2.52766e-05, 0.0003644, 2.04137e-07, 0.000218702, -0.619133, 15.1285, 18.9667, 15.69, 0.895568, 3.33133, -0.186696, 0.00121115, -0.0017644, -6.786e-05, -0.000185437, -0.000224377, -0.000327549, 0.00225587, -0.00147478, -0.00213436, -0.00500929, -0.00134405, -0.00441994, -0.011112, -0.444721, 0.635038, -3.13187, -0.0555627, -0.107532, -0.00997204, -0.442915, 0.6352, -3.13206, -0.0564899, -0.107194, 1.55453e-05, 2.69215e-05, -3.55071e-05, -0.00203491, -0.00150789, -0.00232885
0.0161077, 0.10776, -0.773812, -0.915846, -1.45634, -0.625048, 1.0702, -0.256739, 0.00110577, -0.00140956, -0.00736239, 2.52766e-05, 0.0003644, 2.04137e-07, 0.000218702, -0.619133, 15.1285, 18.9667, 15.69, 0.895568, 3.33133, -0.186696, 0.00121113, -0.00176436, -6.79099e-05, -0.000185543, -0.000224499, -0.000327545, 0.00226674, -0.00149495, -0.00210594, -0.00495222, -0.00133629, -0.00431172, -0.011112, -0.444721, 0.635038, -3.13187, -0.0555628, -0.107532, -0.00997204, -0.442915, 0.6352, -3.13206, -0.0564899, -0.107194, 2.7609e-05, 4.77135e-05, -6.29913e-05, -0.00203491, -0.00150789, -0.00232885
0.0171077, 0.10776, -0.773812, -0.915846, -1.45634, -0.625048, 1.0702, -0.256739, 0.00110577, -0.00140956, -0.00736239, 2.52766e-05, 0.0003644, 2.04137e-07, 0.000218702, -0.619133, 15.1285, 18.9667, 15.69, 0.895568, 3.33133, -0.186696, 0.0012111, -0.0017643, -6.7992e-05, -0.000185717, -0.000224699, -0.00032754, 0.0022807, -0.00152078, -0.00206951, -0.00487913, -0.00132629, -0.00417305, -0.0111119, -0.444721, 0.635038, -3.13187, -0.0555628, -0.107532, -0.00997204, -0.442915, 0.6352, -3.13206, -0.0564899, -0.107194, 4.30968e-05, 7.4323e-05, -9.82172e-05, -0.00203491, -0.00150789, -0.00232885
0.0181077, 0.10776, -0.773812, -0.915846, -1.45634, -0.625048, 1.0702, -0.256739, 0.00110577, -0.00140956, -0.00736239, 2.52766e-05, 0.0003644, 2.04137e-07, 0.000218702, -0.619133, 15.1285, 18.9667, 15.69, 0.895568, 3.33133, -0.186696, 0.00121105, -0.00176422, -6.81143e-05, -0.000185976, -0.000224997, -0.000327531, 0.00229774, -0.00155219, -0.00202512, -0.00479011, -0.00131407, -0.00400411, -0.0111119, -0.444721, 0.635038, -3.13187, -0.0555628, -0.107533, -0.00997204, -0.442915, 0.6352, -3.13206, -0.0564899, -0.107194, 6.19987e-05, 0.000106695, -0.000141136, -0.00203491, -0.00150789, -0.00232885
0.0191077, 0.10776, -0.773812, -0.915846, -1.45634, -0.625048, 1.0702, -0.256739, 0.00110577, -0.00140956, -0.00736239, 2.52766e-05, 0.0003644, 2.04137e-07, 0.000218702, -0.619133, 15.1285, 18.9667, 15.69, 0.895568, 3.33133, -0.186696, 0.00121098, -0.00176409, -6.82846e-05, -0.000186336, -0.000225412, -0.000327519, 0.00231784, -0.00158914, -0.00197282, -0.00468531, -0.0012996, -0.00380511, -0.0111118, -0.44472, 0.635037, -3.13187, -0.0555628, -0.107533, -0.00997204, -0.442915, 0.6352, -3.13206, -0.0564899, -0.107194, 8.43044e-05, 0.000144776, -0.000191697, -0.00203491, -0.00150789, -0.00232885
0.0201077, 0.10776, -0.773812, -0.915846, -1.45634, -0.625048, 1.0702, -0.256739, 0.00110577, -0.00140956, -0.00736239, 2.52766e-05, 0.0003644, 2.04137e-07, 0.000218702, -0.619133, 15.1285, 18.9667, 15.69, 0.895568, 3.33133, -0.186696, 0.0012109, -0.00176393, -6.85108e-05, -0.000186814, -0.000225964, -0.000327503, 0.00234101, -0.00163157, -0.00191267, -0.00456483, -0.00128289, -0.00357626, -0.0111117, -0.44472, 0.635037, -3.13187, -0.0555629, -0.107534, -0.00997204, -0.442915, 0.6352, -3.13206, -0.0564899, -0.107194, 0.000110004, 0.000188511, -0.000249853, -0.00203491, -0.00150789, -0.00232885
0.0211077, 0.10776, -0.773812, -0.915846, -1.45634, -0.625048, 1.0702, -0.256739, 0.00110577, -0.00140956, -0.00736239, 2.52766e-05, 0.0003644, 2.04137e-07, 0.000218702, -0.619133, 15.1285, 18.9667, 15.69, 0.895568, 3.33133, -0.186696, 0.00121078, -0.00176373, -6.88006e-05, -0.000187427, -0.00022667, -0.000327482, 0.00236723, -0.00167943, -0.00184471, -0.0044288, -0.00126393, -0.00331776, -0.0111116, -0.44472, 0.635037, -3.13187, -0.0555629, -0.107535, -0.00997204, -0.442915, 0.6352, -3.13206, -0.0564899, -0.107194, 0.000139087, 0.000237846, -0.000315553, -0.00203491, -0.00150789, -0.00232885
0.0221077, 0.10776, -0.773812, -0.915846, -1.45634, -0.625048, 1.0702, -0.256739, 0.00110577, -0.00140956, -0.00736239, 2.52766e-05, 0.0003644, 2.04137e-07, 0.000218702, -0.619133, 15.1285, 18.9667, 15.69, 0.895568, 3.33133, -0.186696, 0.00121065, -0.00176347, -6.91618e-05, -0.00018819, -0.000227551, -0.000327456, 0.00239649, -0.00173267, -0.00176899, -0.00427733, -0.00124272, -0.0030298, -0.0111114, -0.44472, 0.635037, -3.13186, -0.055563, -0.107537, -0.00997204, -0.442915, 0.6352, -3.13206, -0.0564899, -0.107194, 0.000171544, 0.000292726, -0.00038875, -0.00203491, -0.00150789, -0.00232885
0.0231077, 0.10776, -0.773812, -0.915846, -1.45634, -0.625048, 1.0702, -0.256739, 0.00110577, -0.00140956, -0.00736239, 2.52766e-05, 0.0003644, 2.04137e-07, 0.000218702, -0.619133, 15.1285, 18.9667, 15.69, 0.895568, 3.33133, -0.186696, 0.00121047, -0.00176316, -6.9602e-05, -0.000189119, -0.000228624, -0.000327424, 0.00242879, -0.00179123, -0.00168556, -0.00411054, -0.00121925, -0.00271258, -0.0111112, -0.444719, 0.635036, -3.13186, -0.055563, -0.107538, -0.00997204, -0.442915, 0.6352, -3.13206, -0.0564899, -0.107194, 0.000207364, 0.000353099, -0.000469394, -0.00203491, -0.00150789, -0.00232885
0.0241077, 0.10775, -0.773829, -0.915917, -1.45634, -0.625054, 1.07021, -0.256739, -0.00162083, 0.00203946, -0.00809612, 1.07232e-05, -0.000170768, 0.00076062, 0.00124988, -0.468376, 15.1642, 19.0421, 15.7297, 0.908385, 3.30295, -0.186696, 0.00117786, -0.00174797, -4.81177e-05, -0.000145756, -0.000221679, -0.000263193, 0.00287349, -0.00204909, -0.00153213, -0.00308171, 0.00229475, -0.00692956, -0.011111, -0.444719, 0.635036, -3.13186, -0.0555631, -0.10754, -0.0100023, -0.442931, 0.635175, -3.13202, -0.0563916, -0.107204, 0.000246538, 0.00041891, -0.000557437, -0.0024404, -0.00171673, -0.00229598
0.0251077, 0.107745, -0.773834, -0.915925, -1.45635, -0.625053, 1.0702, -0.256738, -0.00284066, -0.000216954, -0.00682428, -0.000829684, 0.000123327, -0.000544081, 0.00107061, -0.392998, 15.2356, 19.0778, 15.7654, 0.901976, 3.33133, -0.193104, 0.0011719, -0.00174691, -4.56052e-05, -0.000138087, -0.000221449, -0.000253593, 0.00363499, -0.00156684, -0.00148861, -0.00386778, 0.000989486, -0.00604853, -0.0111107, -0.444719, 0.635035, -3.13186, -0.0555632, -0.107542, -0.0100078, -0.442932, 0.635172, -3.13201, -0.0563771, -0.107206, 0.000289055, 0.000490107, -0.00065283, -0.0031773, -0.00119076, -0.0023973
0.0261077, 0.10774, -0.773834, -0.915925, -1.45635, -0.62505, 1.07021, -0.25674, -0.00365467, -0.00548189, -0.00613494, -0.00286725, 8.20786e-05, 0.000417173, -0.000981682, -0.317619, 15.1999, 19.0024, 15.7297, 0.901976, 3.31027, -0.147328, 0.00117053, -0.00174647, -4.59714e-05, -0.000139245, -0.000221321, -0.000252316, 0.00490047, -0.00165543, -0.00189128, -0.00382412, -0.00339392, -0.00284744, -0.0111104, -0.444718, 0.635034, -3.13186, -0.0555634, -0.107545, -0.0100089, -0.442932, 0.635171, -3.13201, -0.0563752, -0.107209, 0.000334905, 0.000566635, -0.000755525, -0.00436243, -0.00124381, -0.00298921
0.0271077, 0.107742, -0.773829, -0.915933, -1.45635, -0.625048, 1.07021, -0.256743, -0.00150667, -0.00152359, -0.00672513, -0.00472103, 0.000529332, 0.000278115, -0.00211252, -0.357292, 15.0888, 18.9667, 15.5789, 0.889159, 3.31027, -0.10796, 0.00117075, -0.00174461, -4.48517e-05, -0.000135332, -0.000226399, -0.000253151, 0.002523, -0.00162563, -0.00244312, -0.00519423, 0.00156617, 0.00157055, -0.0111101, -0.444717, 0.635033, -3.13186, -0.0555635, -0.107548, -0.0100081, -0.442933, 0.635169, -3.132, -0.0563768, -0.107204, 0.000384079, 0.000648441, -0.000865474, -0.00190617, -0.00104384, -0.00348616
0.0281077, 0.107737, -0.773827, -0.915941, -1.45635, -0.625049, 1.07021, -0.256745, -0.00276636, -0.0005311, -0.00811565, -0.00513825, -0.000121908, 0.00018541, 0.00159848, -0.281914, 15.0531, 18.9667, 15.5035, 0.901976, 3.31027, -0.0621838, 0.00116675, -0.00174276, -4.2451e-05, -0.000130779, -0.000234316, -0.000245187, 0.00332157, -0.00195714, -0.00277833, -0.00571783, 0.00345861, -0.00409534, -0.0111097, -0.444717, 0.635033, -3.13186, -0.0555637, -0.107552, -0.0100115, -0.442934, 0.635166, -3.132, -0.0563648, -0.107194, 0.000436566, 0.000735474, -0.000982628, -0.00261509, -0.0013133, -0.00399465
0.0291077, 0.107734, -0.773831, -0.91594, -1.45636, -0.625048, 1.0702, -0.256744, -0.00277127, 0.00297389, -0.00724212, -0.00642637, 0.000156028, -0.000927554, 0.00122015, -0.242241, 15.1642, 18.8913, 15.4678, 0.895568, 3.33865, -0.0557752, 0.00116498, -0.00174308, -4.18222e-05, -0.000127435, -0.000237243, -0.000245294, 0.00182174, -0.00148543, -0.00276367, -0.00644747, 0.00814179, -0.00177768, -0.0111092, -0.444716, 0.635032, -3.13185, -0.0555639, -0.107556, -0.0100127, -0.442933, 0.635164, -3.13199, -0.0563653, -0.107194, 0.000492356, 0.000827679, -0.00110694, -0.00108177, -0.000697058, -0.00399838
0.0301077, 0.107745, -0.773833, -0.915946, -1.45636, -0.62505, 1.0702, -0.256734, 0.000844484, 0.00146595, -0.00934556, -0.00652987, -0.000370743, -0.000618369, 0.00351482, -0.357292, 15.1999, 18.9271, 15.3925, 0.908385, 3.33865, -0.120778, 0.00116668, -0.00174067, -4.04798e-05, -0.000125005, -0.000241303, -0.000239935, 0.00146387, -0.00222463, -0.00339474, -0.00745044, 0.00710614, -0.00174879, -0.0111087, -0.444715, 0.63503, -3.13185, -0.0555641, -0.10756, -0.0100103, -0.442935, 0.635162, -3.13199, -0.0563573, -0.107191, 0.000551439, 0.000925004, -0.00123836, -0.000596296, -0.00132042, -0.00473935
0.0311077, 0.107737, -0.77383, -0.915953, -1.45636, -0.62505, 1.0702, -0.256738, -0.00212771, 0.00038101, -0.00883396, -0.00608314, -0.000450646, -0.00122605, 0.00185155, -0.242241, 15.2356, 19.0024, 15.4282, 0.913878, 3.36062, -0.101552, 0.00116289, -0.00173893, -3.82371e-05, -0.000121339, -0.000251613, -0.000234911, 0.00317071, -0.00209833, -0.00297298, -0.00694906, 0.00610011, -0.00238339, -0.0111081, -0.444714, 0.635029, -3.13185, -0.0555643, -0.107565, -0.0100133, -0.442936, 0.635158, -3.13198, -0.0563499, -0.10718, 0.000613805, 0.0010274, -0.00137684, -0.00226904, -0.00115547, -0.0045736
0.0321077, 0.107735, -0.773824, -0.915956, -1.45637, -0.625049, 1.07021, -0.256742, -0.00225328, 0.00126842, -0.00744758, -0.00389122, 0.000140354, -0.000817366, 0.00017898, -0.206535, 15.1999, 19.0421, 15.3925, 0.901976, 3.36062, -0.0685925, 0.00116275, -0.00173748, -3.88949e-05, -0.000122768, -0.000260669, -0.000235585, 0.00286563, -0.00205326, -0.00168733, -0.00436561, 0.00488283, -5.09062e-05, -0.0111074, -0.444713, 0.635028, -3.13184, -0.0555646, -0.10757, -0.0100128, -0.442936, 0.635157, -3.13198, -0.0563512, -0.107171, 0.000679445, 0.00113481, -0.00152234, -0.00198885, -0.00100336, -0.00341528
0.0331077, 0.10773, -0.773831, -0.915956, -1.45637, -0.62505, 1.0702, -0.256742, -0.00242989, -0.00161844, -0.00543775, -0.00393262, -0.000347259, -0.000273643, 0.000480664, -0.166862, 15.311, 19.0421, 15.4282, 0.913878, 3.3533, -0.0750012, 0.00115779, -0.00173659, -3.9735e-05, -0.000123939, -0.000261161, -0.000230241, 0.00326818, -0.00198337, -0.00102301, -0.00228694, 0.00207854, 0.00139155, -0.0111067, -0.444712, 0.635026, -3.13184, -0.0555649, -0.107577, -0.0100171, -0.442936, 0.635156, -3.13198, -0.0563432, -0.107177, 0.000748347, 0.00124718, -0.0016748, -0.00236926, -0.000841024, -0.00293226
0.0341077, 0.107734, -0.773831, -0.915954, -1.45637, -0.62505, 1.07021, -0.256741, -0.000691672, -0.00181338, -0.00397969, -0.00392721, -0.00023152, 8.88387e-05, 0.00065079, -0.206535, 15.3467, 19.0421, 15.4678, 0.913878, 3.34598, -0.0814099, 0.00116002, -0.00173508, -4.21622e-05, -0.000131219, -0.000264212, -0.000235428, 0.00209693, -0.00191619, -0.000469534, -0.000885505, 0.00160246, 0.00474504, -0.0111059, -0.444711, 0.635024, -3.13184, -0.0555653, -0.107583, -0.0100142, -0.442936, 0.635157, -3.13198, -0.0563513, -0.107179, 0.000820503, 0.00136446, -0.00183418, -0.00116964, -0.000620186, -0.00245859
0.0351077, 0.107733, -0.77383, -0.915959, -1.45637, -0.62505, 1.07021, -0.256737, -0.000460939, -0.00113332, -0.0017729, -0.000565976, 4.90935e-05, 5.92258e-05, 0.00196166, -0.206535, 15.3467, 19.1135, 15.5035, 0.908385, 3.34598, -0.120778, 0.00115749, -0.00173283, -4.3188e-05, -0.000133368, -0.000268909, -0.000226043, 0.00179307, -0.00176845, 0.00137068, 0.00264339, -0.000156006, 0.00440682, -0.0111051, -0.444709, 0.635022, -3.13183, -0.0555656, -0.10759, -0.0100158, -0.442937, 0.635156, -3.13198, -0.056337, -0.107179, 0.000895902, 0.00148661, -0.00200043, -0.000922559, -0.000355588, -0.00076723
0.0361077, 0.107732, -0.773832, -0.915956, -1.45637, -0.62505, 1.07021, -0.256739, -0.00123518, -0.00162687, -0.000311419, -0.00208866, 3.27211e-05, -0.000231784, 0.000648005, -0.166862, 15.3864, 19.0778, 15.5789, 0.908385, 3.3533, -0.101552, 0.00115707, -0.0017322, -4.46933e-05, -0.000136652, -0.000274591, -0.000231111, 0.00160399, -0.0014532, 0.00148077, 0.00286604, 0.000484735, 0.00751491, -0.0111041, -0.444708, 0.63502, -3.13183, -0.055566, -0.107598, -0.0100154, -0.442936, 0.635155, -3.13198, -0.0563452, -0.107178, 0.000974534, 0.00161356, -0.00217351, -0.000674209, 9.21022e-05, -0.000815546
0.0371077, 0.107727, -0.773829, -0.915953, -1.45637, -0.62505, 1.0702, -0.256736, -0.00165857, -0.000114035, -0.00411398, -0.00135352, -0.000181642, -0.000934416, 0.000233874, -0.131157, 15.3467, 19.0024, 15.5789, 0.913878, 3.37436, -0.0951428, 0.00115584, -0.0017317, -4.80782e-05, -0.000142641, -0.000284333, -0.000226359, 0.00289555, -0.00221689, 0.000816143, 0.000814173, 0.00225872, 0.00483431, -0.0111031, -0.444706, 0.635018, -3.13182, -0.0555664, -0.107607, -0.0100158, -0.442935, 0.635156, -3.13198, -0.0563381, -0.107172, 0.00105639, 0.00174526, -0.00235336, -0.00180729, -0.000579075, -0.00175198
0.0381077, 0.107729, -0.773827, -0.915953, -1.45637, -0.62505, 1.0702, -0.256741, -0.000270423, 0.000791088, -0.00319748, -0.000873156, 8.23512e-05, -0.00116548, -0.00178135, -0.166862, 15.311, 19.0024, 15.5789, 0.908385, 3.38901, -0.0420422, 0.00115577, -0.00173004, -5.09569e-05, -0.000147094, -0.000291951, -0.000231614, 0.00186209, -0.00214463, 0.00138726, 0.00171076, 0.00278962, 0.00954384, -0.011102, -0.444704, 0.635016, -3.13182, -0.0555669, -0.107616, -0.0100149, -0.442935, 0.635157, -3.13198, -0.0563466, -0.10717, 0.00114146, 0.00188168, -0.00253994, -0.000733544, -0.000339041, -0.00129734
0.0391077, 0.107729, -0.773827, -0.915956, -1.45637, -0.625048, 1.07021, -0.256734, -0.000180226, 0.000551312, -0.0062963, -0.000560211, 0.000529615, -0.000776986, 5.5203e-05, -0.166862, 15.311, 19.0421, 15.5789, 0.895568, 3.38901, -0.0750012, 0.00115456, -0.00172724, -5.26886e-05, -0.000152224, -0.000296876, -0.00022308, 0.00290733, -0.00292904, 0.000824217, 0.000392894, 0.00201444, 0.0062498, -0.0111008, -0.444702, 0.635013, -3.13181, -0.0555674, -0.107626, -0.010015, -0.442936, 0.635156, -3.13198, -0.0563337, -0.107172, 0.00122973, 0.00202275, -0.00273321, -0.00162084, -0.00101378, -0.00212908
0.0401077, 0.107731, -0.773825, -0.915956, -1.45637, -0.62505, 1.0702, -0.25673, -0.000120109, 0.000385481, -0.00376664, -0.00119227, -0.000121643, -0.00129788, 0.0010367, -0.166862, 15.311, 19.0024, 15.6146, 0.908385, 3.41006, -0.101552, 0.00115534, -0.00172556, -5.47629e-05, -0.000156587, -0.000309696, -0.000222032, 0.00225223, -0.00252508, 0.00150411, 0.00190676, 0.00296388, 0.00805133, -0.0110996, -0.4447, 0.63501, -3.1318, -0.055568, -0.107637, -0.010013, -0.442935, 0.635155, -3.13198, -0.0563326, -0.107163, 0.00132119, 0.00216842, -0.00293311, -0.000937232, -0.000447258, -0.00160318
0.0411077, 0.107732, -0.773829, -0.915954, -1.45637, -0.625048, 1.0702, -0.256728, -8.00413e-05, -0.0014928, -0.00204872, -0.000782533, 0.00039362, -0.00113652, 0.00117826, -0.166862, 15.3864, 18.9667, 15.6146, 0.895568, 3.41739, -0.114369, 0.00115385, -0.00172387, -5.81119e-05, -0.000162785, -0.000311885, -0.000222754, 0.00230694, -0.00237548, 0.00227567, 0.00344152, 0.000338208, 0.0101076, -0.0110982, -0.444698, 0.635007, -3.1318, -0.0555686, -0.107648, -0.0100133, -0.442935, 0.635155, -3.13197, -0.0563341, -0.107171, 0.00141584, 0.00231864, -0.0031396, -0.000955334, -0.000156149, -0.00104282
0.0421077, 0.10773, -0.773826, -0.915952, -1.45637, -0.62505, 1.0702, -0.256731, -0.000888555, -5.70859e-05, -0.00164545, 0.000322765, -0.000212306, -0.00102895, -0.000425886, -0.131157, 15.3467, 18.9667, 15.5789, 0.908385, 3.42471, -0.0814099, 0.00115219, -0.00172185, -6.28568e-05, -0.000172783, -0.000322737, -0.000223237, 0.00252187, -0.0025519, 0.00303461, 0.0052751, 0.00149852, 0.0111883, -0.0110967, -0.444695, 0.635004, -3.13179, -0.0555692, -0.107661, -0.0100138, -0.442935, 0.635156, -3.13198, -0.0563352, -0.107167, 0.00151366, 0.00247337, -0.00335263, -0.00111751, -0.000191896, -0.000514645
0.0431077, 0.107732, -0.773826, -0.915951, -1.45638, -0.62505, 1.07021, -0.256737, 0.000242865, -3.04888e-05, -0.000378673, -0.00154113, -0.000141538, -0.000957234, -0.00197236, -0.166862, 15.3467, 18.9271, 15.6543, 0.908385, 3.43204, -0.0356336, 0.00115371, -0.00171945, -6.52961e-05, -0.000180003, -0.000333671, -0.00023425, 0.0012898, -0.00237796, 0.00302666, 0.00545596, 0.00266848, 0.0166798, -0.0110952, -0.444693, 0.635, -3.13178, -0.0555699, -0.107674, -0.0100108, -0.442935, 0.635156, -3.13198, -0.0563528, -0.107164, 0.00161465, 0.00263255, -0.00357216, 0.000206172, 0.000184499, -0.000656309
0.0441077, 0.107732, -0.773832, -0.915954, -1.45638, -0.625047, 1.0702, -0.256731, 0.000161923, -0.00177789, -0.00133776, -0.00102223, 0.000821168, -0.000366889, 0.000623108, -0.166862, 15.4221, 18.9667, 15.6543, 0.883666, 3.42471, -0.0878186, 0.00114996, -0.00171661, -6.78414e-05, -0.000183099, -0.000336356, -0.000226966, 0.00211668, -0.00278821, 0.00313666, 0.00555095, -0.00032434, 0.0143572, -0.0110935, -0.44469, 0.634997, -3.13177, -0.0555706, -0.107688, -0.0100129, -0.442935, 0.635154, -3.13197, -0.0563421, -0.107174, 0.00171879, 0.00279613, -0.00379814, -0.000507024, -9.19738e-05, -0.000832041
0.0451077, 0.107732, -0.773832, -0.915951, -1.45638, -0.625048, 1.07021, -0.25673, 0.000107959, -0.001181, -8.17932e-05, -0.000677588, 0.000106635, -0.00051586, 0.0006906, -0.166862, 15.4221, 18.9271, 15.6543, 0.895568, 3.43204, -0.0951428, 0.00114913, -0.00171388, -7.27565e-05, -0.000195237, -0.00034619, -0.000227175, 0.00187909, -0.00276849, 0.00385003, 0.00726396, 0.000679156, 0.0155832, -0.0110917, -0.444687, 0.634993, -3.13176, -0.0555714, -0.107702, -0.0100122, -0.442935, 0.635155, -3.13198, -0.0563428, -0.107174, 0.00182607, 0.00296406, -0.00403052, -0.000212489, 9.77861e-05, -0.00033633
0.0461077, 0.107732, -0.773834, -0.915949, -1.45637, -0.625047, 1.07021, -0.25673, 7.198e-05, -0.00161936, 0.00152743, -0.000448803, 0.000308449, -0.000886441, 0.000463345, -0.166862, 15.4578, 18.8556, 15.6543, 0.889159, 3.44668, -0.0951428, 0.0011472, -0.00171151, -7.8291e-05, -0.000205949, -0.000352453, -0.000228237, 0.0016582, -0.00255538, 0.00457712, 0.00848026, 0.000129663, 0.0179161, -0.0110899, -0.444684, 0.634989, -3.13175, -0.0555722, -0.107718, -0.0100125, -0.442934, 0.635156, -3.13198, -0.0563449, -0.10718, 0.00193648, 0.00313629, -0.00426926, 6.06754e-05, 0.000484397, 0.000166769
0.0471077, 0.107732, -0.773832, -0.915949, -1.45638, -0.62505, 1.07021, -0.256728, 4.79923e-05, -0.00024196, 0.000951927, -0.00206025, 0.000409083, -0.000590961, 0.00102318, -0.166862, 15.4221, 18.8556, 15.7297, 0.883666, 3.44668, -0.114369, 0.00114641, -0.00170825, -8.13116e-05, -0.000213907, -0.000370765, -0.00022628, 0.00115092, -0.00274886, 0.00425282, 0.0080194, 0.00243345, 0.0187282, -0.0110879, -0.444681, 0.634984, -3.13174, -0.0555731, -0.107735, -0.0100114, -0.442934, 0.635155, -3.13198, -0.0563426, -0.107169, 0.00205002, 0.00331277, -0.00451432, 0.000709069, 0.000488158, -0.000368148
0.0481077, 0.107743, -0.773832, -0.915946, -1.45637, -0.625049, 1.0702, -0.256734, 0.00272326, -0.000994729, 0.00234809, 0.000391383, 0.00095089, -0.0009026, -0.001249, -0.281914, 15.4578, 18.7803, 15.6543, 0.865355, 3.46042, -0.0621838, 0.00114873, -0.00170527, -8.81435e-05, -0.000226445, -0.000378317, -0.000241687, 0.000292429, -0.00277192, 0.00552198, 0.0100558, -0.000133857, 0.0247205, -0.0110858, -0.444678, 0.63498, -3.13173, -0.055574, -0.107752, -0.0100074, -0.442934, 0.635157, -3.13198, -0.0563671, -0.107175, 0.00216668, 0.00349346, -0.00476563, 0.00159539, 0.000664877, 0.00070557
0.0491077, 0.107735, -0.773831, -0.915951, -1.45637, -0.625045, 1.0702, -0.256734, -0.00087575, 0.000173413, 0.00152806, 0.000262155, 0.000871285, -0.00114427, -0.00106878, -0.166862, 15.4221, 18.7803, 15.6543, 0.858946, 3.47507, -0.0557752, 0.00114269, -0.00170173, -9.18984e-05, -0.000231409, -0.000389876, -0.000232456, 0.00191082, -0.00294831, 0.00564665, 0.0101359, 0.00139678, 0.0213611, -0.0110835, -0.444674, 0.634975, -3.13172, -0.055575, -0.107771, -0.0100113, -0.442934, 0.635156, -3.13197, -0.0563536, -0.107176, 0.00228643, 0.0036783, -0.00502317, 9.92922e-05, 0.000615354, 0.000459819
0.0501077, 0.107741, -0.773839, -0.915943, -1.45638, -0.625043, 1.07021, -0.256735, 0.00117941, -0.00248184, 0.00451719, -0.00158754, 0.00105557, 5.09566e-05, -0.000982858, -0.242241, 15.5331, 18.6295, 15.7297, 0.846129, 3.45309, -0.0484509, 0.00114518, -0.00169963, -9.78742e-05, -0.000245397, -0.000394529, -0.000248953, 0.000415535, -0.00274377, 0.00615136, 0.0121887, -0.000826748, 0.0276766, -0.0110812, -0.44467, 0.634969, -3.13171, -0.0555761, -0.10779, -0.0100068, -0.442932, 0.635157, -3.13198, -0.0563798, -0.107189, 0.00240928, 0.00386724, -0.00528689, 0.00167096, 0.00105683, 0.000803808
0.0511077, 0.107743, -0.773836, -0.915945, -1.45638, -0.625043, 1.07021, -0.256727, 0.000786273, -0.00072578, 0.00299046, -0.000129649, 0.000703716, 0.00027133, 0.00107479, -0.242241, 15.4935, 18.6295, 15.69, 0.846129, 3.44668, -0.0951428, 0.00114375, -0.0016944, -0.000103902, -0.000260162, -0.000406765, -0.000238912, 0.00100688, -0.00334852, 0.0065371, 0.013065, 0.000285704, 0.0242019, -0.0110787, -0.444666, 0.634964, -3.1317, -0.0555772, -0.107811, -0.010006, -0.442934, 0.635157, -3.13198, -0.0563648, -0.107191, 0.00253522, 0.00406024, -0.00555673, 0.00120236, 0.00062122, 0.000874189
0.0521077, 0.107744, -0.773837, -0.915945, -1.45636, -0.625041, 1.07021, -0.256726, 0.000524183, -0.000483285, 0.000799264, 0.00649713, 0.000909954, 0.000452154, 0.000717051, -0.242241, 15.4935, 18.5581, 15.5432, 0.834227, 3.43936, -0.0951428, 0.00113957, -0.00168938, -0.000113669, -0.000280226, -0.000410791, -0.000232273, 0.00318632, -0.00437264, 0.00825429, 0.0160113, -0.00384866, 0.0204083, -0.0110761, -0.444662, 0.634958, -3.13168, -0.0555784, -0.107832, -0.0100081, -0.442935, 0.635161, -3.13199, -0.056355, -0.107208, 0.00266423, 0.00425725, -0.00583265, -0.000922901, -0.000297052, 0.00215464
0.0531077, 0.107747, -0.773839, -0.915949, -1.45636, -0.625042, 1.07021, -0.256728, 0.00127748, -0.00124978, 0.00028361, 0.00459425, 0.000369277, 0.000572703, -0.000504917, -0.281914, 15.5331, 18.5581, 15.5432, 0.840636, 3.43204, -0.0685925, 0.00113619, -0.00168393, -0.000118835, -0.000291836, -0.000422564, -0.000233688, 0.00307027, -0.00466904, 0.00777923, 0.0154237, -0.00290267, 0.0238112, -0.0110734, -0.444658, 0.634952, -3.13167, -0.0555796, -0.107855, -0.0100089, -0.442936, 0.63516, -3.13198, -0.056358, -0.107213, 0.0027963, 0.00445821, -0.00611461, -0.000632049, -0.000384152, 0.00140476
0.0541077, 0.107744, -0.773844, -0.915952, -1.45637, -0.625042, 1.07022, -0.256732, -0.000911586, -0.00250331, 0.000930169, 0.00475003, 0.000246184, 0.000381802, -0.00179438, -0.206535, 15.6046, 18.5184, 15.6146, 0.840636, 3.43204, -0.0292249, 0.00113119, -0.00167865, -0.000123244, -0.000303529, -0.00043473, -0.000234682, 0.00440888, -0.0047018, 0.00831282, 0.0164622, -0.00401214, 0.0243994, -0.0110705, -0.444653, 0.634946, -3.13165, -0.0555809, -0.107878, -0.0100111, -0.442937, 0.635158, -3.13198, -0.0563605, -0.107218, 0.00293143, 0.00466308, -0.00640257, -0.00186708, -0.000263916, 0.00155652
0.0551077, 0.107747, -0.773844, -0.915956, -1.45636, -0.625045, 1.07022, -0.256728, 0.00338464, -0.00166863, 0.00131514, 0.00701158, 0.000164123, 0.000525802, 0.000262031, -0.242241, 15.6046, 18.4827, 15.4678, 0.840636, 3.42471, -0.0685925, 0.00112573, -0.00167177, -0.000132846, -0.000325068, -0.000444543, -0.000222186, 0.0027303, -0.00509707, 0.00932973, 0.0184962, -0.00455728, 0.0268722, -0.0110675, -0.444648, 0.63494, -3.13164, -0.0555822, -0.107903, -0.010014, -0.442939, 0.63516, -3.13199, -0.0563417, -0.107229, 0.00306961, 0.00487181, -0.00669647, -0.000111201, -0.000400232, 0.00239014
0.0561077, 0.107747, -0.773844, -0.915956, -1.45636, -0.625045, 1.07022, -0.256728, 0.00338464, -0.00166863, 0.00131514, 0.00701158, 0.000164123, 0.000525802, 0.000262031, -0.242241, 15.6046, 18.4827, 15.4678, 0.840636, 3.42471, -0.0685925, 0.0011229, -0.00166695, -0.000139891, -0.000339747, -0.000461635, -0.000221547, 0.00285773, -0.00530237, 0.00964052, 0.0191037, -0.00445679, 0.0280459, -0.0110644, -0.444643, 0.634933, -3.13162, -0.0555837, -0.107929, -0.010014, -0.442939, 0.63516, -3.13199, -0.0563417, -0.107229, 0.00321082, 0.00508435, -0.00699628, -0.000111201, -0.000400232, 0.00239014
0.0571077, 0.107747, -0.773844, -0.915956, -1.45636, -0.625045, 1.07022, -0.256728, 0.00338464, -0.00166863, 0.00131514, 0.00701158, 0.000164123, 0.000525802, 0.000262031, -0.242241, 15.6046, 18.4827, 15.4678, 0.840636, 3.42471, -0.0685925, 0.00111994, -0.00166192, -0.000147248, -0.000355069, -0.000479481, -0.000220875, 0.00298789, -0.00551128, 0.0099574, 0.0197226, -0.00435388, 0.0292423, -0.0110611, -0.444638, 0.634926, -3.13161, -0.0555852, -0.107956, -0.010014, -0.442939, 0.63516, -3.13199, -0.0563417, -0.107229, 0.00335505, 0.00530066, -0.00730195, -0.000111201, -0.000400232, 0.00239014
0.0581077, 0.107758, -0.773841, -0.915969, -1.45635, -0.625044, 1.07022, -0.25673, 0.00316257, 0.000433882, -0.00440084, 0.00365589, 0.000447995, 0.000246216, -0.00106369, -0.317619, 15.5331, 18.3716, 15.4282, 0.822325, 3.43204, -0.0484509, 0.00111713, -0.0016528, -0.000153956, -0.000369555, -0.000492732, -0.000219282, 0.00369337, -0.0064897, 0.00769055, 0.0145838, 0.000221866, 0.0290666, -0.0110577, -0.444633, 0.634918, -3.13159, -0.0555867, -0.107984, -0.0100135, -0.442943, 0.635159, -3.13199, -0.0563404, -0.107237, 0.0035023, 0.00552068, -0.00761342, -0.000476754, -0.00116287, -0.000237852
0.0591077, 0.107756, -0.77384, -0.915975, -1.45634, -0.625044, 1.07023, -0.256729, 0.00138415, 0.00028933, -0.00260379, 0.00340259, 0.000536022, 0.000435411, -0.000200434, -0.281914, 15.5331, 18.332, 15.3925, 0.815917, 3.42471, -0.0621838, 0.00111078, -0.00164502, -0.000162325, -0.000389168, -0.000507961, -0.000207463, 0.00399004, -0.00632268, 0.00851844, 0.0164815, 9.47345e-05, 0.0292119, -0.0110541, -0.444627, 0.63491, -3.13157, -0.0555884, -0.108013, -0.0100165, -0.442946, 0.63516, -3.13199, -0.056323, -0.107243, 0.00365255, 0.00574437, -0.00793067, -0.000685285, -0.000790204, 0.000251206
0.0601077, 0.107753, -0.77384, -0.915985, -1.45634, -0.625044, 1.07023, -0.256729, 7.79946e-05, 0.000192944, -0.0021843, 0.00153076, 0.000357348, 0.000832809, -0.00013357, -0.242241, 15.5331, 18.332, 15.4282, 0.815917, 3.41006, -0.0621838, 0.00110353, -0.00163701, -0.000168485, -0.000403444, -0.000527415, -0.000196519, 0.00420329, -0.00640562, 0.00847268, 0.0168646, 0.001236, 0.0302999, -0.0110504, -0.444621, 0.634902, -3.13155, -0.0555901, -0.108044, -0.0100202, -0.442948, 0.635157, -3.13199, -0.0563073, -0.107244, 0.0038058, 0.00597168, -0.00825364, -0.000738684, -0.000653027, -0.000132869
0.0611077, 0.107758, -0.773842, -0.915997, -1.45633, -0.625044, 1.07023, -0.256727, 0.00104245, -0.000706546, -0.00460808, 0.00276413, 0.000238232, 0.00106383, -0.000597634, -0.281914, 15.5688, 18.332, 15.3568, 0.815917, 3.39633, -0.0484509, 0.00109625, -0.00162781, -0.000176267, -0.000419679, -0.000540397, -0.000185919, 0.00522703, -0.0072759, 0.00845911, 0.0167717, -0.000261629, 0.0304766, -0.0110465, -0.444615, 0.634894, -3.13153, -0.0555919, -0.108076, -0.0100238, -0.442952, 0.635156, -3.13198, -0.0562921, -0.107257, 0.00396204, 0.00620257, -0.00858229, -0.00157124, -0.0013279, -0.000551606
0.0621077, 0.107759, -0.773839, -0.916002, -1.45632, -0.625045, 1.07024, -0.256728, -0.000186228, 0.00129224, -0.0018885, 0.00366088, -0.000281988, 0.00125176, 0.000110233, -0.242241, 15.4935, 18.2606, 15.2814, 0.827819, 3.38168, -0.0621838, 0.00109044, -0.00161915, -0.000186926, -0.000444891, -0.000558652, -0.000176718, 0.00469767, -0.00704747, 0.00997944, 0.020326, 0.00142927, 0.03121, -0.0110424, -0.444609, 0.634885, -3.13151, -0.0555937, -0.108109, -0.010026, -0.442954, 0.635157, -3.13199, -0.0562788, -0.107263, 0.00412125, 0.00643698, -0.00891658, -0.000997177, -0.000860346, 0.000668559
0.0631077, 0.107759, -0.773839, -0.916002, -1.45632, -0.625045, 1.07024, -0.256728, -0.000186228, 0.00129224, -0.0018885, 0.00366088, -0.000281988, 0.00125176, 0.000110233, -0.242241, 15.4935, 18.2606, 15.2814, 0.827819, 3.38168, -0.0621838, 0.00108665, -0.00161281, -0.000196282, -0.00046432, -0.000581323, -0.000175832, 0.00484402, -0.007277, 0.010332, 0.0210114, 0.00154667, 0.032539, -0.0110382, -0.444602, 0.634876, -3.13149, -0.0555957, -0.108143, -0.010026, -0.442954, 0.635157, -3.13199, -0.0562788, -0.107263, 0.00428343, 0.00667487, -0.00925645, -0.000997177, -0.000860346, 0.000668559
0.0641077, 0.107762, -0.77384, -0.916026, -1.45632, -0.625043, 1.07024, -0.256728, -0.000342356, 0.000234089, -0.0060444, 0.00439853, -0.00334408, 0.00607191, -0.000504814, -0.242241, 15.5331, 18.2606, 15.2814, 0.809508, 3.36703, -0.0557752, 0.00107584, -0.00160008, -0.000201391, -0.000476465, -0.000596261, -0.000157998, 0.00696167, -0.00960753, 0.0101252, 0.0248856, 0.000207456, 0.029338, -0.0110339, -0.444596, 0.634867, -3.13147, -0.0555977, -0.108178, -0.0100323, -0.442961, 0.635152, -3.13198, -0.0562528, -0.107276, 0.00444857, 0.0069162, -0.00960188, -0.00284603, -0.00302088, -4.50393e-05
0.0651077, 0.107763, -0.773839, -0.916034, -1.45631, -0.625044, 1.07024, -0.25673, -0.000208483, 0.000156073, -0.00857349, 0.0041586, -0.00277924, 0.00393489, -0.000607797, -0.242241, 15.5331, 18.1852, 15.2417, 0.815917, 3.38168, -0.0484509, 0.00106834, -0.00159145, -0.000211156, -0.000495863, -0.000617958, -0.000150359, 0.00795792, -0.00987208, 0.00950233, 0.0217139, 0.00117504, 0.0294132, -0.0110293, -0.444589, 0.634857, -3.13145, -0.0555998, -0.108215, -0.0100356, -0.442962, 0.635152, -3.13198, -0.0562425, -0.10728, 0.00461665, 0.00716091, -0.0099528, -0.00361905, -0.00307023, -0.00108838
0.0661077, 0.107765, -0.773837, -0.916047, -1.45631, -0.625045, 1.07025, -0.256731, -0.000124173, 0.00103208, -0.00952378, 0.00299607, -0.00232456, 0.00294538, -0.00182934, -0.242241, 15.4935, 18.1852, 15.2417, 0.822325, 3.38168, -0.00999879, 0.00106106, -0.00158087, -0.000219926, -0.000515655, -0.000641934, -0.00014031, 0.00788855, -0.00997476, 0.00918971, 0.0201688, 0.00313014, 0.032201, -0.0110246, -0.444581, 0.634847, -3.13142, -0.055602, -0.108254, -0.0100384, -0.442966, 0.63515, -3.13198, -0.0562284, -0.107281, 0.00478767, 0.00740896, -0.0103092, -0.00335385, -0.00291974, -0.00175294
0.0671077, 0.10776, -0.773832, -0.916062, -1.4563, -0.625047, 1.07025, -0.256728, 0.000488145, 0.0023585, -0.0109713, 0.00300036, -0.00148813, 0.00643834, 0.000713225, -0.131157, 15.4221, 18.2209, 15.206, 0.815917, 3.40365, -0.0621838, 0.00104953, -0.00156982, -0.000228854, -0.000535248, -0.000670521, -0.00011469, 0.00730302, -0.0110235, 0.00949235, 0.0226636, 0.00225123, 0.0309793, -0.0110198, -0.444574, 0.634836, -3.1314, -0.0556043, -0.108293, -0.0100453, -0.44297, 0.635147, -3.13198, -0.0561904, -0.107277, 0.00496161, 0.0076603, -0.010671, -0.00257973, -0.00369879, -0.00177968
0.0681077, 0.107761, -0.773832, -0.916074, -1.4563, -0.625053, 1.07025, -0.256722, 0.000596953, 0.00157234, -0.0103723, 0.00212605, -0.00156473, 0.00543653, 0.00142492, -0.131157, 15.4221, 18.1852, 15.206, 0.827819, 3.38901, -0.0878186, 0.00103995, -0.00155845, -0.000237773, -0.000557327, -0.00069864, -9.54048e-05, 0.00740141, -0.0109455, 0.00965683, 0.0224049, 0.00270281, 0.0326796, -0.0110147, -0.444566, 0.634825, -3.13137, -0.0556067, -0.108334, -0.01005, -0.442974, 0.635145, -3.13197, -0.0561621, -0.107275, 0.00513848, 0.00791489, -0.0110382, -0.00251528, -0.0033714, -0.00198954
0.0691077, 0.107766, -0.773832, -0.916087, -1.45629, -0.625054, 1.07025, -0.256723, 0.00143683, 0.00104823, -0.0127049, 0.00555278, -0.00093858, 0.00380441, 0.000475236, -0.166862, 15.4221, 18.1455, 15.1703, 0.822325, 3.39633, -0.0750012, 0.00103146, -0.00154753, -0.000247924, -0.000577129, -0.000722865, -8.55922e-05, 0.00886505, -0.0115243, 0.010238, 0.0217778, 0.000540378, 0.0326881, -0.0110095, -0.444558, 0.634814, -3.13135, -0.0556092, -0.108376, -0.0100535, -0.442977, 0.635143, -3.13197, -0.0561488, -0.107281, 0.00531825, 0.00817268, -0.0114107, -0.00381434, -0.0037491, -0.001888
0.0701077, 0.107766, -0.773832, -0.9161, -1.45629, -0.625054, 1.07025, -0.256726, -0.00065262, 0.000698822, -0.0116826, 0.00623728, -0.000699877, 0.00236615, -0.000903876, -0.0914839, 15.4221, 18.1098, 15.206, 0.822325, 3.41006, -0.0420422, 0.00102246, -0.00153659, -0.000256046, -0.00059466, -0.000752296, -7.75787e-05, 0.00997772, -0.0112848, 0.011054, 0.0223494, 0.000365482, 0.0340005, -0.0110041, -0.44455, 0.634803, -3.13132, -0.0556118, -0.10842, -0.0100573, -0.44298, 0.635139, -3.13196, -0.0561384, -0.10728, 0.00550092, 0.00843363, -0.0117885, -0.00480608, -0.00329566, -0.00152782
0.0711077, 0.107768, -0.773827, -0.916124, -1.45628, -0.625053, 1.07025, -0.256731, -0.000320531, 0.0013011, -0.0163866, 0.00549957, -4.74849e-05, 0.0018313, -0.002298, -0.0914839, 15.3864, 18.1852, 15.1703, 0.809508, 3.41006, 0.00373412, 0.00101136, -0.00152346, -0.000263549, -0.000608613, -0.000782991, -6.31876e-05, 0.0111042, -0.0122301, 0.00985478, 0.0189354, 0.00157729, 0.0343283, -0.0109985, -0.444541, 0.634791, -3.13129, -0.0556144, -0.108465, -0.0100628, -0.442985, 0.635134, -3.13195, -0.0561183, -0.107278, 0.00568647, 0.00869769, -0.0121715, -0.00562728, -0.00400528, -0.00319215
0.0721077, 0.107768, -0.773819, -0.916132, -1.45628, -0.625054, 1.07026, -0.256726, -0.000127776, 0.00263064, -0.0144778, 0.00404601, -0.000310729, 0.0019199, 0.00040078, -0.0914839, 15.311, 18.0344, 15.1703, 0.815917, 3.39633, -0.0484509, 0.00100598, -0.0015123, -0.00027563, -0.000636651, -0.000818315, -4.83975e-05, 0.00991067, -0.0120486, 0.0104074, 0.0204113, 0.00405769, 0.0354094, -0.0109927, -0.444532, 0.634778, -3.13127, -0.0556172, -0.108512, -0.0100629, -0.442988, 0.635133, -3.13195, -0.0560973, -0.107271, 0.00587491, 0.00896481, -0.0125597, -0.00429382, -0.00352009, -0.00294578
0.0731077, 0.107771, -0.773815, -0.916156, -1.45628, -0.625054, 1.07026, -0.256723, 0.00090727, 0.00258898, -0.0186739, 0.00131162, -0.000475797, 0.00115147, 0.00101317, -0.131157, 15.2753, 18.1098, 15.2417, 0.822325, 3.40365, -0.0685925, 0.000995411, -0.00149874, -0.000281368, -0.000647751, -0.000856253, -2.98163e-05, 0.0105355, -0.012861, 0.00868889, 0.0162957, 0.00665096, 0.0354912, -0.0109867, -0.444523, 0.634765, -3.13124, -0.05562, -0.10856, -0.0100673, -0.442993, 0.635125, -3.13194, -0.0560711, -0.10726, 0.00606621, 0.00923495, -0.0129531, -0.00457789, -0.00406829, -0.00510302
0.0741077, 0.107768, -0.77381, -0.916173, -1.45628, -0.625054, 1.07026, -0.256721, 0.00214217, 0.00265401, -0.0161317, 0.00275839, -0.000103303, 0.00602418, 0.00138753, -0.0557783, 15.2356, 18.0741, 15.1703, 0.815917, 3.40365, -0.0878186, 0.000983646, -0.00148629, -0.00029237, -0.00066901, -0.000890278, -7.75082e-06, 0.00903808, -0.0135928, 0.0106603, 0.0235061, 0.00306906, 0.0392805, -0.0109806, -0.444514, 0.634752, -3.13121, -0.055623, -0.10861, -0.0100732, -0.442997, 0.635122, -3.13193, -0.0560392, -0.107257, 0.00626038, 0.00950806, -0.0133516, -0.00300121, -0.00449228, -0.00343663
0.0751077, 0.107771, -0.773807, -0.916194, -1.45628, -0.625054, 1.07026, -0.256726, 0.00173538, 0.0049187, -0.0179205, 0.00116387, -0.000323825, 0.00428821, -0.000770403, -0.0557783, 15.2356, 18.0741, 15.206, 0.822325, 3.41006, -0.0420422, 0.000973064, -0.00147287, -0.000300251, -0.000683909, -0.000928883, 2.22177e-06, 0.00917771, -0.0137563, 0.0100272, 0.0210556, 0.00763655, 0.0419523, -0.0109742, -0.444504, 0.634739, -3.13117, -0.055626, -0.108661, -0.0100775, -0.443001, 0.635116, -3.13192, -0.0560264, -0.107249, 0.00645739, 0.00978411, -0.0137552, -0.00289405, -0.00437902, -0.00448332
0.0761077, 0.107771, -0.773802, -0.916211, -1.45627, -0.625054, 1.07026, -0.256726, 0.000459347, 0.00659086, -0.0183267, 0.00265926, 8.27697e-06, 0.00347825, -0.000276242, -0.0161054, 15.2356, 18.0344, 15.1306, 0.815917, 3.40365, -0.0484509, 0.00096311, -0.0014592, -0.000311546, -0.000708255, -0.000964527, 1.88623e-05, 0.00987395, -0.013941, 0.0108215, 0.0218078, 0.0086463, 0.0408595, -0.0109676, -0.444494, 0.634725, -3.13114, -0.0556292, -0.108713, -0.0100812, -0.443005, 0.635112, -3.13191, -0.056003, -0.107247, 0.00665724, 0.010063, -0.0141638, -0.00343695, -0.00431681, -0.00414989
0.0771077, 0.10778, -0.773799, -0.916228, -1.45627, -0.625058, 1.07026, -0.256726, 0.00537723, 0.00391683, -0.0187483, 0.00269815, -0.00024174, 0.00287666, -0.00042152, -0.0914839, 15.2753, 17.9987, 15.0949, 0.822325, 3.39633, -0.0420422, 0.000955305, -0.00144501, -0.000322225, -0.000732056, -0.00100504, 2.70824e-05, 0.00895767, -0.0144023, 0.010843, 0.0214413, 0.00664997, 0.0470668, -0.0109609, -0.444484, 0.63471, -3.13111, -0.0556325, -0.108767, -0.0100825, -0.443009, 0.635108, -3.1319, -0.0559929, -0.107239, 0.00685993, 0.0103448, -0.0145774, -0.00230607, -0.00446434, -0.00448237
0.0781077, 0.107775, -0.77379, -0.916247, -1.45627, -0.625058, 1.07026, -0.256725, 0.00450834, 0.00703918, -0.0171016, 0.00186633, 6.8775e-05, 0.00731121, 0.000227613, 0.0196001, 15.2356, 17.9987, 15.0949, 0.815917, 3.39633, -0.0557752, 0.000943559, -0.00143137, -0.000332462, -0.000752396, -0.00105193, 4.95757e-05, 0.00734137, -0.014983, 0.0120226, 0.0268529, 0.00790779, 0.0490118, -0.0109539, -0.444473, 0.634696, -3.13108, -0.0556359, -0.108823, -0.0100875, -0.443013, 0.635103, -3.13189, -0.0559608, -0.107223, 0.00706543, 0.0106294, -0.0149959, -0.000550412, -0.00471461, -0.00361656
0.0791077, 0.107778, -0.773783, -0.916266, -1.45627, -0.625054, 1.07026, -0.25672, 0.00355964, 0.00837913, -0.0148696, 0.00129489, 0.000277641, 0.00495825, 0.0016098, 0.0196001, 15.2356, 17.959, 15.0949, 0.809508, 3.41006, -0.0951428, 0.000935033, -0.00141809, -0.000342876, -0.000770163, -0.00109507, 6.48149e-05, 0.00691213, -0.0142851, 0.012793, 0.0268581, 0.0106938, 0.050425, -0.0109468, -0.444463, 0.63468, -3.13104, -0.0556394, -0.10888, -0.0100891, -0.443016, 0.635097, -3.13188, -0.0559403, -0.107213, 0.00727374, 0.0109167, -0.0154193, 7.12008e-06, -0.00372238, -0.00323753
0.0801077, 0.107784, -0.773778, -0.916289, -1.45626, -0.625053, 1.07027, -0.256723, 0.00278865, 0.00852778, -0.0151188, 0.00266451, 0.000180918, 0.00398741, 0.000327218, 0.0196001, 15.2753, 17.9987, 15.0195, 0.809508, 3.40365, -0.0750012, 0.000924682, -0.00140207, -0.00035456, -0.000794677, -0.00113463, 7.85003e-05, 0.00788403, -0.0145084, 0.0135293, 0.0275832, 0.0106788, 0.051669, -0.0109394, -0.444452, 0.634665, -3.131, -0.055643, -0.108939, -0.0100923, -0.443021, 0.635093, -3.13187, -0.0559219, -0.107212, 0.00748486, 0.0112067, -0.0158476, -0.000794174, -0.00369715, -0.00300135
0.0811077, 0.107785, -0.773769, -0.916305, -1.45626, -0.625056, 1.07027, -0.25672, 0.00124275, 0.00872374, -0.01327, 0.00180484, 0.00032093, 0.00275433, 0.000964131, 0.059273, 15.311, 17.959, 15.0195, 0.804015, 3.41006, -0.0951428, 0.000915308, -0.00138774, -0.000366739, -0.000819927, -0.00118581, 9.51179e-05, 0.00802979, -0.0140931, 0.0141883, 0.0281536, 0.0120176, 0.053094, -0.0109318, -0.44444, 0.634649, -3.13097, -0.0556467, -0.109, -0.0100944, -0.443025, 0.635088, -3.13186, -0.0558992, -0.107194, 0.00769877, 0.0114994, -0.0162807, -0.000786593, -0.00300133, -0.0027852
0.0821077, 0.10779, -0.773761, -0.916327, -1.45627, -0.625054, 1.07027, -0.256727, 0.00106225, 0.00976127, -0.0167218, -0.000538632, 8.15402e-06, 0.00737358, -0.00156129, 0.059273, 15.311, 17.9987, 15.0949, 0.809508, 3.41006, -0.0356336, 0.000907536, -0.00137271, -0.000376042, -0.00083753, -0.00123799, 9.80844e-05, 0.00818421, -0.0157491, 0.0133982, 0.0296981, 0.0128091, 0.0555689, -0.010924, -0.444429, 0.634632, -3.13093, -0.0556505, -0.109062, -0.0100944, -0.443028, 0.63508, -3.13185, -0.0558981, -0.107175, 0.00791545, 0.0117947, -0.0167186, -0.000610238, -0.00435936, -0.00403444
0.0831077, 0.107791, -0.773755, -0.916342, -1.45627, -0.625057, 1.07027, -0.25673, 0.00220671, 0.00877167, -0.0172917, 0.000584966, -0.000233685, 0.00554387, -0.0019903, 0.134651, 15.3864, 17.959, 15.0552, 0.815917, 3.41006, -0.00999879, 0.000897053, -0.00135738, -0.000390806, -0.00087047, -0.00128562, 0.000110103, 0.00883673, -0.0159623, 0.0138079, 0.0292136, 0.0123965, 0.0577384, -0.010916, -0.444417, 0.634615, -3.13089, -0.0556545, -0.109126, -0.0100974, -0.443032, 0.635077, -3.13184, -0.0558825, -0.107167, 0.00813491, 0.0120926, -0.0171612, -0.00106258, -0.00430193, -0.00411634
0.0841077, 0.107793, -0.773752, -0.916358, -1.45627, -0.625058, 1.07027, -0.256722, 0.00102461, 0.00426473, -0.0150236, 0.000402002, -0.000157111, 0.00362449, 0.00131799, 0.170357, 15.4935, 17.9233, 15.0552, 0.815917, 3.42471, -0.0814099, 0.000885812, -0.00134249, -0.000404213, -0.000897015, -0.00133313, 0.000130872, 0.0103525, -0.0155109, 0.0145648, 0.0295308, 0.00898757, 0.0568588, -0.0109077, -0.444404, 0.634598, -3.13085, -0.0556585, -0.109191, -0.0101007, -0.443036, 0.635072, -3.13183, -0.0558536, -0.107159, 0.00835714, 0.012393, -0.0176085, -0.00242071, -0.00361152, -0.00391222
0.0851077, 0.107796, -0.773735, -0.916382, -1.45627, -0.625054, 1.07027, -0.256721, 4.6573e-05, 0.00921623, -0.0159872, 0.00027702, 0.000335078, 0.00354956, 0.00111602, 0.21003, 15.3864, 17.9987, 15.0552, 0.804015, 3.40365, -0.0878186, 0.000878049, -0.001326, -0.000416529, -0.000920701, -0.00139134, 0.000147158, 0.00967473, -0.015776, 0.0149269, 0.0298785, 0.0138823, 0.0574034, -0.0108992, -0.444392, 0.63458, -3.13081, -0.0556627, -0.109258, -0.0101003, -0.44304, 0.635066, -3.13182, -0.055832, -0.107137, 0.00858211, 0.0126959, -0.0180604, -0.00153627, -0.00355382, -0.00395858
0.0861077, 0.107802, -0.773728, -0.916398, -1.45626, -0.625057, 1.07027, -0.256721, 0.00339194, 0.00926924, -0.0138823, 0.0027899, 1.91914e-05, 0.00239402, 0.000744013, 0.21003, 15.4221, 17.959, 14.9442, 0.809508, 3.41006, -0.0878186, 0.000867621, -0.00130975, -0.000433177, -0.000954095, -0.0014421, 0.000160875, 0.00841573, -0.0157276, 0.0165645, 0.0324617, 0.013221, 0.0630545, -0.0108905, -0.444379, 0.634562, -3.13077, -0.055667, -0.109327, -0.0101026, -0.443044, 0.635064, -3.13182, -0.0558141, -0.107128, 0.00880983, 0.0130012, -0.018517, -0.000169653, -0.00317213, -0.00269435
0.0871077, 0.107806, -0.773719, -0.91642, -1.45626, -0.625059, 1.07027, -0.256727, 0.00185191, 0.00536148, -0.014193, 0.00102979, -0.000462481, 0.0015235, -0.00143677, 0.245735, 15.4935, 17.9987, 14.9799, 0.822325, 3.41739, -0.0356336, 0.000857358, -0.00129308, -0.000445013, -0.000977659, -0.00150372, 0.000168823, 0.0104151, -0.0159179, 0.0162478, 0.0314743, 0.0114568, 0.065935, -0.0108816, -0.444366, 0.634543, -3.13072, -0.0556715, -0.109398, -0.0101042, -0.443048, 0.635056, -3.1318, -0.0558057, -0.107104, 0.00904028, 0.013309, -0.0189781, -0.00190421, -0.00312261, -0.00361364
0.0881077, 0.107812, -0.773708, -0.91644, -1.45627, -0.625059, 1.07027, -0.256728, 0.00463327, 0.00742006, -0.0171827, -0.000237689, -0.000308739, 0.00167335, -0.00119521, 0.245735, 15.4935, 18.0344, 15.0195, 0.822325, 3.40365, -0.0292249, 0.000849852, -0.00127631, -0.000458585, -0.00100556, -0.00156517, 0.000177151, 0.00942438, -0.0167538, 0.0154996, 0.0297746, 0.0144789, 0.0687227, -0.0108725, -0.444352, 0.634524, -3.13068, -0.0556761, -0.10947, -0.0101029, -0.443052, 0.63505, -3.13179, -0.0557967, -0.107081, 0.00927346, 0.0136191, -0.0194438, -0.000601922, -0.00360633, -0.00476362
0.0891077, 0.107813, -0.773693, -0.916456, -1.45627, -0.625059, 1.07027, -0.256727, 0.00172894, 0.00652862, -0.0156169, -0.00251159, -0.000206139, 0.000990008, -0.000559445, 0.325081, 15.4578, 18.0344, 14.9799, 0.822325, 3.41006, -0.0356336, 0.000840368, -0.00126014, -0.000475501, -0.0010385, -0.00162831, 0.000193101, 0.0102672, -0.0164173, 0.0157361, 0.0299457, 0.0154298, 0.0694289, -0.0108631, -0.444339, 0.634504, -3.13064, -0.0556808, -0.109544, -0.0101036, -0.443054, 0.635046, -3.13178, -0.0557758, -0.107059, 0.00950935, 0.0139315, -0.0199139, -0.00123541, -0.00299039, -0.0050556
0.0901077, 0.107815, -0.77369, -0.916475, -1.45627, -0.625062, 1.07027, -0.256722, 0.00391159, 0.00543309, -0.0155242, -0.00194592, -0.00101928, 0.000472586, 0.00132246, 0.360787, 15.5688, 18.0741, 14.9799, 0.846129, 3.41739, -0.0814099, 0.000826599, -0.00124276, -0.000490896, -0.00106942, -0.00168444, 0.000214416, 0.0101543, -0.0168159, 0.0162773, 0.0309436, 0.0150399, 0.0709637, -0.0108534, -0.444325, 0.634484, -3.13059, -0.0556856, -0.10962, -0.0101082, -0.443058, 0.635041, -3.13177, -0.0557467, -0.107048, 0.00974794, 0.0142462, -0.0203885, -0.000908361, -0.00307604, -0.0049866
0.0911077, 0.107818, -0.773676, -0.916498, -1.45627, -0.625059, 1.07027, -0.256721, 0.00222729, 0.00824041, -0.0189319, -0.00150092, 0.000201922, 0.000377944, 0.001119, 0.400459, 15.5331, 18.1455, 14.9799, 0.822325, 3.41739, -0.0878186, 0.000816973, -0.00122508, -0.000505391, -0.0010965, -0.00175085, 0.000229866, 0.0112205, -0.017546, 0.0160903, 0.0296348, 0.0170041, 0.0691062, -0.0108436, -0.44431, 0.634463, -3.13054, -0.0556906, -0.109698, -0.0101083, -0.443062, 0.635034, -3.13175, -0.0557271, -0.107024, 0.00998923, 0.0145631, -0.0208674, -0.00169145, -0.00352516, -0.00573356
0.0921077, 0.107824, -0.773666, -0.916512, -1.45627, -0.625061, 1.07027, -0.256727, 0.00506131, 0.00943387, -0.0160251, -0.00208137, -0.000543686, 0.000299127, -0.00118678, 0.400459, 15.5331, 18.1098, 15.0195, 0.840636, 3.41739, -0.0356336, 0.000809529, -0.00120821, -0.000522285, -0.00113119, -0.00181827, 0.00023037, 0.00892416, -0.0173695, 0.0171908, 0.0322907, 0.0192562, 0.0782728, -0.0108335, -0.444295, 0.634442, -3.13049, -0.0556957, -0.109777, -0.0101062, -0.443065, 0.635029, -3.13175, -0.0557306, -0.107, 0.0102332, 0.0148823, -0.0213508, 0.000757856, -0.00296049, -0.00495817
0.0931077, 0.107828, -0.773658, -0.916536, -1.45627, -0.625059, 1.07027, -0.256727, 0.00394604, 0.012523, -0.0194529, -0.00057411, 0.000315612, 0.000234792, -0.000791188, 0.400459, 15.5688, 18.1852, 14.9799, 0.822325, 3.41739, -0.0356336, 0.000796563, -0.00118927, -0.000538802, -0.00116228, -0.00187725, 0.000247084, 0.00995264, -0.0182285, 0.0173273, 0.0317459, 0.0210774, 0.075683, -0.0108231, -0.44428, 0.634421, -3.13044, -0.0557009, -0.109858, -0.0101093, -0.443069, 0.635023, -3.13173, -0.0557091, -0.106991, 0.0104799, 0.0152035, -0.0218384, -3.20037e-07, -0.00353604, -0.00538962
0.0941077, 0.107838, -0.773656, -0.916555, -1.45627, -0.625062, 1.07027, -0.256723, 0.00398758, 0.0100777, -0.0210164, -0.00139667, -0.000671285, 0.000691684, -0.0002901, 0.360787, 15.6799, 18.2209, 15.0195, 0.846129, 3.40365, -0.0420422, 0.000786747, -0.00117024, -0.000554542, -0.00119562, -0.00193947, 0.000256447, 0.0113813, -0.019042, 0.0170961, 0.0318971, 0.0199584, 0.0758981, -0.0108125, -0.444265, 0.634399, -3.13039, -0.0557063, -0.109941, -0.0101089, -0.443073, 0.635016, -3.13172, -0.0556991, -0.106978, 0.0107292, 0.0155269, -0.0223304, -0.00113072, -0.0040745, -0.00622012
0.0951077, 0.10784, -0.773652, -0.916573, -1.45628, -0.62506, 1.07027, -0.256722, 0.00205202, 0.00940168, -0.0204701, -0.00099555, 0.000230589, -2.76059e-05, -0.0001934, 0.400459, 15.7513, 18.1852, 15.0195, 0.827819, 3.41739, -0.0420422, 0.000774286, -0.00115238, -0.00057187, -0.00122802, -0.00200218, 0.000269539, 0.0124754, -0.0190031, 0.0178626, 0.0325147, 0.0188623, 0.0764443, -0.0108016, -0.444249, 0.634376, -3.13034, -0.0557118, -0.110026, -0.0101111, -0.443076, 0.63501, -3.1317, -0.0556835, -0.106967, 0.0109812, 0.0158524, -0.0228265, -0.00202525, -0.00375722, -0.00603002
0.0961077, 0.107842, -0.773639, -0.916593, -1.45627, -0.625057, 1.07027, -0.256717, 0.000774038, 0.00905236, -0.0190757, 0.000215994, -8.36748e-05, 0.000505146, 0.00156649, 0.436165, 15.6799, 18.2209, 14.9799, 0.834227, 3.40365, -0.0878186, 0.000762448, -0.00113322, -0.000591154, -0.00126583, -0.00206911, 0.000291575, 0.013182, -0.0192274, 0.0192241, 0.0357404, 0.0178207, 0.0756479, -0.0107905, -0.444233, 0.634353, -3.13029, -0.0557175, -0.110113, -0.0101125, -0.44308, 0.635005, -3.13169, -0.055654, -0.106951, 0.0112358, 0.0161798, -0.0233269, -0.00256326, -0.00369355, -0.00522549
0.0971077, 0.107847, -0.77363, -0.916614, -1.45628, -0.625057, 1.07027, -0.256716, 0.00153217, 0.00687051, -0.0226873, -0.000820268, -0.000293174, 0.000110597, 0.00104433, 0.400459, 15.6799, 18.2209, 15.0195, 0.840636, 3.41006, -0.0878186, 0.000751949, -0.00111402, -0.000608138, -0.0012987, -0.00214113, 0.000301598, 0.014775, -0.0202003, 0.0182727, 0.0333613, 0.0170505, 0.0765687, -0.0107792, -0.444217, 0.634329, -3.13024, -0.0557233, -0.110202, -0.0101122, -0.443083, 0.634997, -3.13168, -0.0556435, -0.106929, 0.011493, 0.0165093, -0.0238314, -0.00379334, -0.00438382, -0.00680049
0.0981077, 0.107851, -0.773628, -0.916636, -1.45628, -0.625057, 1.07027, -0.256717, 0.00426758, 0.00669215, -0.0236157, -0.00140925, -0.000398923, -0.000460409, 0.000458858, 0.400459, 15.7513, 18.2606, 15.0552, 0.846129, 3.42471, -0.0814099, 0.000736499, -0.00109465, -0.000625206, -0.00132891, -0.0022091, 0.000316135, 0.0141145, -0.0206446, 0.018219, 0.0327807, 0.0178924, 0.0814029, -0.0107676, -0.4442, 0.634305, -3.13018, -0.0557293, -0.110292, -0.0101165, -0.443087, 0.634989, -3.13166, -0.0556262, -0.106915, 0.0117529, 0.0168407, -0.0243401, -0.00285612, -0.00447353, -0.00732154
0.0991077, 0.107852, -0.773621, -0.916653, -1.45628, -0.625058, 1.07027, -0.256722, 0.00643854, 0.00519442, -0.0223997, -0.00230345, -0.000740684, 0.00047925, -0.00138952, 0.400459, 15.7513, 18.2209, 14.9799, 0.858946, 3.40365, -0.0356336, 0.000722707, -0.00107477, -0.000646512, -0.00137253, -0.00227751, 0.000326637, 0.0132388, -0.0209712, 0.0187872, 0.0347719, 0.0169363, 0.0886351, -0.0107557, -0.444183, 0.634281, -3.13012, -0.0557354, -0.110385, -0.0101192, -0.44309, 0.634985, -3.13165, -0.0556149, -0.106903, 0.0120154, 0.017174, -0.0248528, -0.00174977, -0.00444261, -0.00721028
0.100108, 0.107859, -0.77361, -0.91668, -1.45628, -0.625058, 1.07027, -0.25672, 0.00483246, 0.00568312, -0.024268, -0.00180983, -0.000256444, 8.68629e-05, -0.000180359, 0.400459, 15.6799, 18.2963, 14.9799, 0.852538, 3.41006, -0.0557752, 0.000710052, -0.00105338, -0.000664593, -0.00140646, -0.00235366, 0.000344402, 0.0146885, -0.0215054, 0.0189807, 0.0344492, 0.017217, 0.0863853, -0.0107435, -0.444166, 0.634256, -3.13007, -0.0557417, -0.110479, -0.0101202, -0.443095, 0.634977, -3.13163, -0.0555928, -0.106881, 0.0122806, 0.0175091, -0.0253696, -0.00292518, -0.00469543, -0.00764267
0.101108, 0.107861, -0.773608, -0.916699, -1.45629, -0.625058, 1.07027, -0.256721, 0.00362672, 0.00336584, -0.0257868, -0.00538127, -0.000408331, -0.000209817, 0.00433855, 0.400459, 15.7156, 18.2606, 15.0195, 0.858946, 3.41739, -0.0484509, 0.000695819, -0.00103255, -0.000683491, -0.0014459, -0.00242431, 0.000355847, 0.0159781, -0.0218857, 0.0179304, 0.0322223, 0.0177689, 0.0832899, -0.0107311, -0.444148, 0.63423, -3.13001, -0.0557481, -0.110576, -0.0101226, -0.443099, 0.634969, -3.13162, -0.0555805, -0.106869, 0.0125483, 0.0178461, -0.0258904, -0.00385645, -0.00477412, -0.00930738
0.102108, 0.107864, -0.7736, -0.916724, -1.4563, -0.625058, 1.07027, -0.256715, 0.00272163, 0.0065613, -0.0258644, -0.00728305, -0.000272228, 0.000134045, 0.00426989, 0.400459, 15.6799, 18.2963, 15.0195, 0.858946, 3.41006, -0.0750012, 0.000680852, -0.00101102, -0.000702455, -0.00148197, -0.00250181, 0.00037931, 0.0152159, -0.0220595, 0.0180493, 0.0326655, 0.0221325, 0.0854675, -0.0107184, -0.44413, 0.634204, -3.12995, -0.0557547, -0.110674, -0.0101255, -0.443103, 0.634961, -3.1316, -0.0555498, -0.106848, 0.0128186, 0.0181849, -0.0264151, -0.00282932, -0.0045845, -0.00966328
0.103108, 0.10787, -0.773593, -0.916741, -1.4563, -0.625062, 1.07027, -0.256714, 0.00380551, 0.00570575, -0.0232444, -0.00676141, -0.000181491, 0.000599982, 0.00412556, 0.325081, 15.6442, 18.2209, 14.9442, 0.858946, 3.39633, -0.101552, 0.00066799, -0.000989575, -0.000725298, -0.00152909, -0.00257762, 0.000391621, 0.01444, -0.0220291, 0.0194799, 0.0359053, 0.0207439, 0.0905226, -0.0107055, -0.444112, 0.634177, -3.12989, -0.0557614, -0.110774, -0.0101262, -0.443107, 0.634956, -3.13159, -0.0555362, -0.106833, 0.0130915, 0.0185254, -0.0269437, -0.0018859, -0.00420237, -0.00871215
0.104108, 0.107871, -0.773587, -0.916768, -1.4563, -0.62506, 1.07027, -0.256716, 0.000944664, 0.00510411, -0.0213422, -0.00753636, -0.000358357, 0.000130214, 0.00246347, 0.400459, 15.6046, 18.2606, 14.9084, 0.865355, 3.40365, -0.0878186, 0.000650329, -0.000966871, -0.000745378, -0.00156666, -0.00265316, 0.000410729, 0.0154448, -0.0218121, 0.0203647, 0.0375643, 0.0211361, 0.0931617, -0.0106922, -0.444093, 0.63415, -3.12983, -0.0557683, -0.110876, -0.0101313, -0.443112, 0.634947, -3.13157, -0.0555125, -0.106819, 0.0133669, 0.0188676, -0.0274763, -0.00268334, -0.00368919, -0.0084339
0.105108, 0.107878, -0.773584, -0.916791, -1.4563, -0.62506, 1.07027, -0.256719, 0.00483193, 0.00368193, -0.0216752, -0.00580775, -0.000442358, -0.000149429, -0.000124175, 0.360787, 15.6046, 18.2606, 14.9084, 0.870848, 3.41006, -0.0356336, 0.00063647, -0.000944629, -0.00076505, -0.00160476, -0.00273185, 0.000417837, 0.0149235, -0.0224026, 0.0211622, 0.0387803, 0.0190659, 0.100533, -0.0106787, -0.444074, 0.634122, -3.12976, -0.0557754, -0.110981, -0.0101322, -0.443116, 0.634938, -3.13155, -0.0555077, -0.106802, 0.0136449, 0.0192114, -0.0280126, -0.0019219, -0.00392678, -0.00814505
0.106108, 0.107887, -0.773581, -0.916818, -1.45631, -0.625062, 1.07027, -0.256717, 0.00849623, 0.00266401, -0.0228799, -0.00445946, 0.000145901, 0.000409847, 0.000279294, 0.285408, 15.6046, 18.2963, 14.9084, 0.858946, 3.39633, -0.0420422, 0.000621497, -0.00092054, -0.000784502, -0.00164436, -0.00281163, 0.000432279, 0.0143611, -0.0232011, 0.0216953, 0.0397027, 0.016753, 0.104558, -0.0106649, -0.444055, 0.634094, -3.1297, -0.0557826, -0.111087, -0.0101339, -0.443121, 0.634928, -3.13153, -0.0554916, -0.106786, 0.0139255, 0.0195569, -0.0285528, -0.00109084, -0.0043665, -0.00812247
0.107108, 0.107891, -0.773577, -0.916842, -1.45631, -0.625061, 1.07027, -0.256712, 0.00619565, 0.00276827, -0.022858, -0.0078715, -0.000343544, 0.000273862, 0.0017378, 0.285408, 15.5688, 18.2963, 14.8331, 0.870848, 3.39633, -0.0814099, 0.000604412, -0.00089728, -0.000807423, -0.0016888, -0.0028881, 0.000453913, 0.0149962, -0.0232866, 0.0212913, 0.0391349, 0.0197309, 0.104444, -0.0106509, -0.444035, 0.634065, -3.12963, -0.05579, -0.111195, -0.0101378, -0.443126, 0.634921, -3.13152, -0.0554643, -0.106778, 0.0142086, 0.019904, -0.0290967, -0.0014104, -0.00412436, -0.00911776
0.108108, 0.107893, -0.773572, -0.916864, -1.45632, -0.62506, 1.07027, -0.256714, 0.00681405, 0.00279851, -0.0228927, -0.00927586, -0.00022903, 0.000725582, 0.000753967, 0.325081, 15.5331, 18.2963, 14.8331, 0.870848, 3.38168, -0.0685925, 0.000589009, -0.000873983, -0.000829072, -0.00173228, -0.00297134, 0.000466284, 0.0146208, -0.0236234, 0.0214464, 0.0396879, 0.0206018, 0.108918, -0.0106365, -0.444015, 0.634036, -3.12957, -0.0557975, -0.111306, -0.0101395, -0.44313, 0.634912, -3.1315, -0.0554516, -0.10676, 0.0144943, 0.0202526, -0.0296444, -0.000750701, -0.00410209, -0.00948948
0.109108, 0.107902, -0.773574, -0.916887, -1.45633, -0.62506, 1.07027, -0.256712, 0.00603744, 0.00111879, -0.0229153, -0.0111, -0.000152688, 0.000484076, 0.00102998, 0.285408, 15.5688, 18.2963, 14.8688, 0.870848, 3.38168, -0.0814099, 0.000574184, -0.000851089, -0.000849487, -0.00177031, -0.00305422, 0.000473748, 0.0153744, -0.0238133, 0.0214015, 0.039413, 0.0204106, 0.110963, -0.0106219, -0.443995, 0.634006, -3.1295, -0.0558053, -0.111418, -0.0101404, -0.443133, 0.634901, -3.13148, -0.0554469, -0.106745, 0.0147825, 0.0206027, -0.0301957, -0.00120497, -0.00396934, -0.0101435
0.110108, 0.107908, -0.773571, -0.916916, -1.45634, -0.625059, 1.07027, -0.256718, 0.00773837, 0.000812115, -0.0236888, -0.00975592, 0.000101658, 0.000594251, -0.00120667, 0.285408, 15.5688, 18.332, 14.7934, 0.865355, 3.37436, -0.0292249, 0.000555881, -0.000825774, -0.000871409, -0.00181223, -0.00313601, 0.000485387, 0.0154441, -0.0244228, 0.0221192, 0.0405798, 0.0192687, 0.115895, -0.010607, -0.443974, 0.633975, -3.12943, -0.0558132, -0.111532, -0.0101444, -0.443139, 0.634891, -3.13145, -0.0554358, -0.106735, 0.0150731, 0.0209542, -0.0307507, -0.00101407, -0.00423861, -0.00999555
0.111108, 0.107909, -0.773571, -0.916937, -1.45634, -0.62506, 1.07027, -0.256719, 0.0104512, 0.0005911, -0.0197512, -0.00978757, -0.000373038, 0.000125099, -0.00101221, 0.360787, 15.5688, 18.2963, 14.7577, 0.877257, 3.38168, -0.0228162, 0.000537529, -0.000801299, -0.00089556, -0.00186182, -0.00321946, 0.000500839, 0.0134439, -0.0240363, 0.023675, 0.0437844, 0.0197487, 0.123364, -0.0105917, -0.443953, 0.633944, -3.12936, -0.0558213, -0.111649, -0.0101484, -0.443143, 0.634883, -3.13144, -0.0554186, -0.106724, 0.0153663, 0.0213072, -0.0313093, 0.0011471, -0.00344743, -0.00885921
0.112108, 0.107909, -0.773571, -0.916937, -1.45634, -0.62506, 1.07027, -0.256719, 0.0104512, 0.0005911, -0.0197512, -0.00978757, -0.000373038, 0.000125099, -0.00101221, 0.360787, 15.5688, 18.2963, 14.7577, 0.877257, 3.38168, -0.0228162, 0.000523639, -0.000780714, -0.000928314, -0.00192795, -0.00329795, 0.000504937, 0.0137092, -0.0243734, 0.0242633, 0.0448713, 0.0199919, 0.125545, -0.0105762, -0.443931, 0.633913, -3.12929, -0.0558295, -0.111768, -0.0101484, -0.443143, 0.634883, -3.13144, -0.0554186, -0.106724, 0.015662, 0.0216616, -0.0318714, 0.0011471, -0.00344743, -0.00885921
0.113108, 0.107909, -0.773571, -0.916937, -1.45634, -0.62506, 1.07027, -0.256719, 0.0104512, 0.0005911, -0.0197512, -0.00978757, -0.000373038, 0.000125099, -0.00101221, 0.360787, 15.5688, 18.2963, 14.7577, 0.877257, 3.38168, -0.0228162, 0.000509486, -0.000759795, -0.00096166, -0.00199523, -0.00337784, 0.00050913, 0.0139767, -0.0247115, 0.0248554, 0.0459638, 0.0202377, 0.127738, -0.0105604, -0.443909, 0.63388, -3.12921, -0.055838, -0.111888, -0.0101484, -0.443143, 0.634883, -3.13144, -0.0554186, -0.106724, 0.0159602, 0.0220173, -0.0324371, 0.0011471, -0.00344743, -0.00885921
0.114108, 0.107936, -0.773564, -0.917005, -1.45638, -0.625062, 1.07027, -0.256712, 0.00793312, 0.00177145, -0.0186929, -0.0122585, -0.00026877, 0.000768207, 0.00145533, 0.325081, 15.5688, 18.332, 14.6823, 0.889159, 3.3533, -0.0750012, 0.0004932, -0.000726389, -0.000966236, -0.00200228, -0.00348971, 0.000530076, 0.0140573, -0.0247058, 0.0251733, 0.0471391, 0.0228052, 0.127085, -0.0105443, -0.443887, 0.633848, -3.12914, -0.0558466, -0.112011, -0.0101477, -0.443155, 0.634853, -3.13138, -0.0553953, -0.106672, 0.0162609, 0.0223744, -0.0330063, 0.00134284, -0.00309283, -0.00912007
0.115108, 0.107946, -0.773561, -0.917037, -1.45639, -0.625062, 1.07027, -0.256716, 0.00689135, 0.00218346, -0.0214951, -0.0125241, -0.00017918, 0.000783468, -3.75902e-06, 0.285408, 15.5331, 18.4073, 14.6823, 0.889159, 3.34598, -0.0484509, 0.00047637, -0.000699276, -0.000987764, -0.00204397, -0.00358506, 0.000538115, 0.0154933, -0.0255303, 0.0249477, 0.046361, 0.0236859, 0.127764, -0.0105279, -0.443865, 0.633814, -3.12906, -0.0558554, -0.112136, -0.0101487, -0.44316, 0.63484, -3.13135, -0.0553908, -0.10665, 0.016564, 0.0227327, -0.033579, 0.000258662, -0.00360848, -0.010031
0.116108, 0.107944, -0.773564, -0.917063, -1.4564, -0.625064, 1.07027, -0.256717, 0.00471225, -8.93475e-05, -0.0226236, -0.011807, -0.00083153, 0.000251092, -0.000470201, 0.436165, 15.6046, 18.443, 14.6466, 0.908385, 3.3533, -0.0356336, 0.000453714, -0.000672379, -0.00101188, -0.00209363, -0.00367616, 0.000557337, 0.0181177, -0.0261062, 0.0253922, 0.0469602, 0.0220028, 0.126754, -0.0105112, -0.443842, 0.633781, -3.12899, -0.0558644, -0.112263, -0.0101554, -0.443165, 0.634828, -3.13133, -0.0553688, -0.106638, 0.0168696, 0.0230922, -0.034155, -0.00206445, -0.00392398, -0.0103605
0.117108, 0.107954, -0.773561, -0.917088, -1.45641, -0.625065, 1.07027, -0.25672, 0.0037825, 0.000869742, -0.0263017, -0.0141479, -0.000757804, 0.000438698, -0.00125764, 0.436165, 15.5688, 18.4827, 14.6069, 0.913878, 3.34598, -0.00999879, 0.000437747, -0.000645948, -0.00103619, -0.00214057, -0.00377568, 0.000562905, 0.0191806, -0.0269997, 0.0243233, 0.0446556, 0.0247515, 0.127283, -0.0104942, -0.443818, 0.633746, -3.12891, -0.0558736, -0.112393, -0.0101552, -0.443169, 0.634817, -3.13131, -0.0553683, -0.106614, 0.0171776, 0.0234529, -0.0347344, -0.00270899, -0.0044833, -0.0120939
0.118108, 0.107964, -0.773559, -0.917115, -1.45642, -0.625065, 1.07027, -0.256714, 0.00383763, 0.000650394, -0.0232713, -0.0155746, -0.000742562, 0.00134365, 0.00109831, 0.400459, 15.5688, 18.5184, 14.5355, 0.920287, 3.31759, -0.0621838, 0.000420933, -0.000618004, -0.00106151, -0.00219193, -0.00387275, 0.000579008, 0.0181296, -0.026835, 0.0254253, 0.047692, 0.0251172, 0.130291, -0.0104768, -0.443795, 0.633711, -3.12883, -0.0558829, -0.112524, -0.0101555, -0.443175, 0.634806, -3.13129, -0.0553515, -0.106597, 0.017488, 0.0238148, -0.0353172, -0.00143742, -0.00393438, -0.0115043
0.119108, 0.107973, -0.77356, -0.917136, -1.45644, -0.625066, 1.07027, -0.256713, 0.00291898, -0.000348697, -0.0201041, -0.0140405, -0.0007324, 0.000387162, 0.00120989, 0.400459, 15.6046, 18.5184, 14.4958, 0.926695, 3.33133, -0.0750012, 0.000404154, -0.000591754, -0.00108805, -0.0022434, -0.00397045, 0.00058604, 0.0185144, -0.0264808, 0.0273142, 0.0508808, 0.0237093, 0.13317, -0.0104592, -0.443771, 0.633676, -3.12875, -0.0558925, -0.112658, -0.0101557, -0.443178, 0.634795, -3.13126, -0.055349, -0.106581, 0.0178009, 0.0241778, -0.0359033, -0.00165809, -0.00325482, -0.0102348
0.120108, 0.107979, -0.77356, -0.917163, -1.45646, -0.625065, 1.07027, -0.256711, 0.0045432, -0.000192771, -0.0215933, -0.0147562, -0.00116644, -0.00488021, 0.000334095, 0.436165, 15.6046, 18.5581, 14.5355, 0.945006, 3.33133, -0.0621838, 0.000386738, -0.000565082, -0.00111118, -0.00228612, -0.00407624, 0.000595144, 0.0190104, -0.0262034, 0.0267834, 0.0461899, 0.0276629, 0.136957, -0.0104412, -0.443746, 0.633639, -3.12867, -0.0559023, -0.112794, -0.0101559, -0.443181, 0.634781, -3.13123, -0.0553439, -0.106554, 0.0181163, 0.0245419, -0.0364926, -0.00181107, -0.00262705, -0.0113905
0.121108, 0.10799, -0.773563, -0.917186, -1.45648, -0.625064, 1.07027, -0.256714, 0.008447, -0.00102676, -0.0216409, -0.0164905, -0.000777624, -0.00341039, -0.00123367, 0.360787, 15.6442, 18.5581, 14.4958, 0.945006, 3.324, -0.0228162, 0.000370769, -0.000537942, -0.00113689, -0.00233615, -0.00417721, 0.000594034, 0.0172502, -0.0267948, 0.0268363, 0.0470831, 0.0272312, 0.145756, -0.0104229, -0.443722, 0.633603, -3.12858, -0.0559122, -0.112932, -0.0101545, -0.443184, 0.634768, -3.13121, -0.0553545, -0.106538, 0.018434, 0.0249071, -0.0370852, 0.000276769, -0.00279359, -0.0118125
0.122108, 0.107995, -0.773563, -0.917208, -1.45649, -0.625063, 1.07027, -0.256716, 0.00761228, -0.000662181, -0.0180445, -0.0201592, -0.000518416, -0.00181484, -0.00129591, 0.436165, 15.6442, 18.5184, 14.4205, 0.945006, 3.30295, -0.00999879, 0.000353026, -0.000510291, -0.00116447, -0.0023918, -0.00428066, 0.000601125, 0.0156552, -0.0264473, 0.0275352, 0.0498366, 0.0290905, 0.152039, -0.0104044, -0.443697, 0.633565, -3.1285, -0.0559224, -0.113072, -0.0101547, -0.443188, 0.634757, -3.13119, -0.0553524, -0.10652, 0.0187541, 0.0252732, -0.0376809, 0.00212188, -0.00203433, -0.0115965
0.123108, 0.107997, -0.773563, -0.917234, -1.45652, -0.625063, 1.07027, -0.256714, 0.00719594, -0.000424709, -0.0201569, -0.0225002, -0.000108252, -0.00117948, 0.00056115, 0.511544, 15.6442, 18.5581, 14.4601, 0.938597, 3.29562, -0.0484509, 0.000334659, -0.000482501, -0.0011883, -0.00243903, -0.00439284, 0.00061069, 0.0161057, -0.0271139, 0.0269273, 0.0487265, 0.0305869, 0.151867, -0.0103854, -0.443671, 0.633527, -3.12841, -0.0559327, -0.113214, -0.0101549, -0.443191, 0.634741, -3.13116, -0.055347, -0.10649, 0.0190766, 0.0256403, -0.0382798, 0.00206104, -0.00234435, -0.0128443
0.124108, 0.108012, -0.773563, -0.917259, -1.45654, -0.625064, 1.07027, -0.25672, 0.0105142, -0.00027058, -0.0207977, -0.0206584, -0.000546886, -0.00069569, -0.00104935, 0.436165, 15.6442, 18.5581, 14.3491, 0.951415, 3.2883, -0.00999879, 0.000319181, -0.000453424, -0.0012157, -0.00249387, -0.00450185, 0.000607192, 0.0155067, -0.0279204, 0.0278847, 0.050881, 0.029964, 0.157476, -0.0103662, -0.443645, 0.633489, -3.12833, -0.0559433, -0.113359, -0.0101522, -0.443196, 0.634728, -3.13113, -0.0553619, -0.106468, 0.0194015, 0.0260084, -0.0388819, 0.00294101, -0.0027748, -0.0124596
0.125108, 0.108021, -0.773563, -0.917286, -1.45656, -0.625065, 1.07027, -0.256711, 0.00787578, -0.000170967, -0.0221011, -0.0251542, -0.0008054, -0.00525122, 0.00123374, 0.436165, 15.6442, 18.5938, 14.3491, 0.963317, 3.27456, -0.0621838, 0.000302045, -0.00042391, -0.00124065, -0.00254447, -0.00461723, 0.000620773, 0.0169618, -0.0273784, 0.0264628, 0.0450564, 0.0358014, 0.156069, -0.0103466, -0.443619, 0.633449, -3.12824, -0.0559541, -0.113506, -0.0101505, -0.4432, 0.634713, -3.1311, -0.0553506, -0.106437, 0.0197288, 0.0263773, -0.039487, 0.00189892, -0.00190088, -0.0145872
0.126108, 0.108023, -0.773563, -0.917317, -1.45659, -0.625066, 1.07027, -0.256715, 0.00728297, -0.000106913, -0.0268531, -0.0235036, -0.000774292, -0.0037612, 0.000314263, 0.511544, 15.6442, 18.6692, 14.2737, 0.969725, 3.26724, -0.0484509, 0.000279512, -0.000394246, -0.00126623, -0.00259296, -0.00473368, 0.000632876, 0.0192094, -0.0290026, 0.0264167, 0.0453932, 0.034506, 0.154297, -0.0103267, -0.443593, 0.63341, -3.12815, -0.055965, -0.113655, -0.010154, -0.443204, 0.634697, -3.13107, -0.0553419, -0.106407, 0.0200585, 0.0267472, -0.0400951, 4.8208e-05, -0.00323523, -0.0154246
0.127108, 0.108034, -0.773563, -0.91734, -1.45661, -0.625063, 1.07027, -0.256717, 0.00872987, -6.59771e-05, -0.0247237, -0.0234276, 0.000399333, -0.00263495, -0.00121435, 0.511544, 15.6442, 18.6295, 14.234, 0.945006, 3.25992, -0.00999879, 0.000265212, -0.000365898, -0.00129293, -0.00264442, -0.00485124, 0.000627648, 0.0178337, -0.02905, 0.0277366, 0.0483221, 0.0332474, 0.161784, -0.0103065, -0.443566, 0.633369, -3.12806, -0.0559762, -0.113807, -0.0101491, -0.443206, 0.634681, -3.13104, -0.0553603, -0.106379, 0.0203905, 0.0271178, -0.0407063, 0.00165538, -0.0028819, -0.0146242
0.128108, 0.108047, -0.773565, -0.917363, -1.45664, -0.625066, 1.07027, -0.256715, 0.00840567, -0.000875229, -0.0241441, -0.0255421, -0.000649306, -0.00205569, -0.000571984, 0.436165, 15.6799, 18.6295, 14.1626, 0.969725, 3.25992, -0.0164075, 0.000249627, -0.000335708, -0.00132063, -0.00270222, -0.00496961, 0.000627413, 0.0180423, -0.0293926, 0.0279322, 0.0496103, 0.0345812, 0.164216, -0.010286, -0.443538, 0.633328, -3.12796, -0.0559876, -0.113961, -0.0101451, -0.44321, 0.634667, -3.13101, -0.0553709, -0.106351, 0.0207248, 0.0274892, -0.0413204, 0.00177774, -0.00286512, -0.0150662
0.129108, 0.108053, -0.77357, -0.917388, -1.45667, -0.625063, 1.07027, -0.256715, 0.00529265, -0.00225094, -0.0238117, -0.0256433, -0.00043287, -0.00132348, -0.000381156, 0.475838, 15.7513, 18.6295, 14.1626, 0.969725, 3.25259, -0.0164075, 0.000231667, -0.000306911, -0.00134605, -0.00275015, -0.00508945, 0.000627497, 0.0198875, -0.0297297, 0.0287589, 0.0515962, 0.0329939, 0.163721, -0.0102651, -0.443511, 0.633287, -3.12787, -0.0559992, -0.114117, -0.010143, -0.443213, 0.634649, -3.13097, -0.0553816, -0.106323, 0.0210615, 0.0278614, -0.0419374, 0.000225178, -0.00290782, -0.0150015
0.130108, 0.108063, -0.773568, -0.917416, -1.45671, -0.625066, 1.07027, -0.256712, 0.0039911, -0.000663174, -0.023635, -0.0248516, -0.000492031, -0.000541917, 0.0016788, 0.475838, 15.7156, 18.6295, 14.1229, 0.975218, 3.23886, -0.0685925, 0.00021493, -0.000276153, -0.00137236, -0.00280361, -0.00522062, 0.000632798, 0.0203165, -0.030174, 0.0298704, 0.0542445, 0.0339857, 0.162457, -0.0102438, -0.443483, 0.633244, -3.12777, -0.056011, -0.114275, -0.0101394, -0.443216, 0.634631, -3.13094, -0.0553843, -0.10628, 0.0214005, 0.0282343, -0.0425574, 6.93437e-05, -0.00301068, -0.0145538
0.131108, 0.108065, -0.773568, -0.917442, -1.45674, -0.625068, 1.07028, -0.256715, 0.00124449, -0.00044044, -0.0233579, -0.0274309, -0.000802738, 5.50921e-05, 0.000644577, 0.551216, 15.7156, 18.6295, 14.0872, 0.988036, 3.22421, -0.0557752, 0.000194952, -0.000244845, -0.00139997, -0.00286211, -0.00534871, 0.000638795, 0.0211419, -0.0303809, 0.0299633, 0.05502, 0.0360871, 0.164538, -0.0102223, -0.443454, 0.633201, -3.12768, -0.0560231, -0.114436, -0.0101388, -0.44322, 0.634614, -3.13091, -0.055386, -0.106244, 0.0217418, 0.0286079, -0.0431802, -0.000413804, -0.00287706, -0.0151515
0.132108, 0.108077, -0.77357, -0.917471, -1.45677, -0.625066, 1.07028, -0.256712, 0.00515525, -0.000292369, -0.0241749, -0.0252438, 0.00368964, -5.78956e-05, 0.000429788, 0.511544, 15.7156, 18.6692, 14.0118, 0.999938, 3.22421, -0.0557752, 0.000178173, -0.000213616, -0.00142639, -0.00291384, -0.00547639, 0.00063988, 0.0195245, -0.0305904, 0.0309242, 0.0545469, 0.0318368, 0.171484, -0.0102004, -0.443425, 0.633158, -3.12758, -0.0560353, -0.114599, -0.0101346, -0.443224, 0.634596, -3.13088, -0.0553957, -0.10621, 0.0220854, 0.0289822, -0.0438058, 0.00147682, -0.00267008, -0.0147076
0.133108, 0.108086, -0.773576, -0.917493, -1.45681, -0.625067, 1.07028, -0.256716, 0.00472868, -0.00195721, -0.0219885, -0.0261421, 0.00308592, 0.000161703, -0.00140884, 0.475838, 15.791, 18.5938, 13.9008, 0.993529, 3.21689, -0.00999879, 0.000159845, -0.000183299, -0.00145519, -0.00297, -0.00560467, 0.000633483, 0.0197313, -0.0305971, 0.0319026, 0.0570026, 0.0313154, 0.177169, -0.0101781, -0.443396, 0.633114, -3.12748, -0.0560478, -0.114764, -0.0101317, -0.443226, 0.634579, -3.13084, -0.0554172, -0.106179, 0.0224314, 0.029357, -0.0444342, 0.00154267, -0.0023247, -0.0143808
0.134108, 0.108088, -0.773571, -0.917519, -1.45685, -0.62507, 1.07028, -0.256714, 0.00484093, 0.00045914, -0.0223992, -0.0325934, 0.00163681, 0.000597111, 0.000484965, 0.551216, 15.7156, 18.5938, 13.9008, 1.01276, 3.20224, -0.0484509, 0.000141839, -0.000152348, -0.00148128, -0.00302344, -0.0057521, 0.000639311, 0.0182981, -0.0308292, 0.0305973, 0.055509, 0.0391332, 0.180102, -0.0101555, -0.443367, 0.633069, -3.12738, -0.0560605, -0.114932, -0.010128, -0.443229, 0.634558, -3.13081, -0.0554202, -0.10612, 0.0227796, 0.0297325, -0.0450654, 0.00342042, -0.00211683, -0.0162158
0.135108, 0.108099, -0.773576, -0.917547, -1.4569, -0.625071, 1.07027, -0.25671, 0.00780728, -0.00145661, -0.0254796, -0.037102, 0.00110645, 0.000595513, 0.00106932, 0.511544, 15.791, 18.5938, 13.9008, 1.01825, 3.19583, -0.0685925, 0.000124898, -0.000121279, -0.00150567, -0.00307009, -0.00589301, 0.000637074, 0.0180549, -0.0316866, 0.0288516, 0.0520806, 0.0410376, 0.184627, -0.0101325, -0.443337, 0.633024, -3.12728, -0.0560735, -0.115102, -0.0101228, -0.443231, 0.634536, -3.13076, -0.0554362, -0.106072, 0.0231301, 0.0301084, -0.0456993, 0.00416948, -0.00256937, -0.0185867
0.136108, 0.108103, -0.773574, -0.917574, -1.45694, -0.62507, 1.07027, -0.256709, 0.0112122, -0.000970678, -0.0248705, -0.0389269, 0.00134247, 0.000909604, 0.000712905, 0.551216, 15.791, 18.5938, 13.8254, 1.00635, 3.18118, -0.0685925, 0.000107175, -8.99061e-05, -0.00153326, -0.00312433, -0.00603675, 0.000638291, 0.0160668, -0.0319181, 0.0290688, 0.0526103, 0.0426931, 0.192345, -0.0101092, -0.443306, 0.632978, -3.12717, -0.0560866, -0.115274, -0.0101182, -0.443233, 0.634516, -3.13072, -0.0554467, -0.106024, 0.0234829, 0.0304849, -0.0463358, 0.0064935, -0.00235963, -0.0188677
0.137108, 0.108111, -0.77358, -0.917599, -1.45699, -0.625073, 1.07028, -0.256714, 0.00941297, -0.00231726, -0.0264802, -0.0443316, 0.000102472, 0.00139775, -0.00122013, 0.511544, 15.8624, 18.5581, 13.7857, 1.03107, 3.15921, -0.0228162, 8.89902e-05, -5.7777e-05, -0.00155936, -0.00317872, -0.00618047, 0.000628694, 0.0171856, -0.0324679, 0.0276877, 0.0507428, 0.0459423, 0.195891, -0.0100856, -0.443276, 0.632931, -3.12707, -0.0561, -0.115449, -0.0101136, -0.443235, 0.634493, -3.13068, -0.0554743, -0.105978, 0.0238379, 0.0308619, -0.046975, 0.00585235, -0.00255643, -0.0209778
0.138108, 0.108114, -0.773584, -0.917625, -1.45704, -0.625067, 1.07028, -0.256717, 0.0101801, -0.00247263, -0.0285556, -0.0453414, 0.00107611, 0.00115235, -0.00179675, 0.511544, 15.9021, 18.5581, 13.75, 1.00635, 3.1528, 0.00373412, 7.10208e-05, -2.65298e-05, -0.00158608, -0.00322937, -0.00632281, 0.000621578, 0.0175118, -0.0330315, 0.0274159, 0.0493339, 0.0462522, 0.199106, -0.0100616, -0.443245, 0.632884, -3.12696, -0.0561137, -0.115626, -0.0101085, -0.443237, 0.634471, -3.13064, -0.0554985, -0.105936, 0.0241952, 0.0312393, -0.0476168, 0.0059224, -0.00275294, -0.0219263
0.139108, 0.108115, -0.773586, -0.917651, -1.45709, -0.625068, 1.07028, -0.256712, 0.00585399, -0.00164825, -0.0272722, -0.0506256, 0.000108434, 0.00102687, 0.000497594, 0.586922, 15.9021, 18.5581, 13.7857, 1.02466, 3.14548, -0.0420422, 5.17932e-05, 5.24722e-06, -0.00161167, -0.00328129, -0.00647736, 0.000625365, 0.018192, -0.0327692, 0.0269975, 0.049105, 0.0515396, 0.19819, -0.0100372, -0.443213, 0.632836, -3.12686, -0.0561275, -0.115806, -0.0101042, -0.443238, 0.634447, -3.13059, -0.055506, -0.105877, 0.0245547, 0.0316171, -0.0482612, 0.00562288, -0.00213435, -0.023041
0.140108, 0.108114, -0.773587, -0.917674, -1.45714, -0.625069, 1.07028, -0.25671, 0.00672622, -0.00109871, -0.0253747, -0.0521678, -0.000316621, 0.00121764, 0.00107772, 0.626595, 15.9021, 18.5184, 13.7143, 1.03656, 3.13083, -0.0621838, 3.2283e-05, 3.7173e-05, -0.00164039, -0.00333994, -0.00663139, 0.000627705, 0.0170953, -0.0327534, 0.0277499, 0.0510101, 0.0535682, 0.203003, -0.0100124, -0.443182, 0.632787, -3.12675, -0.0561417, -0.115988, -0.0101, -0.44324, 0.634425, -3.13055, -0.0555157, -0.105822, 0.0249165, 0.0319953, -0.0489081, 0.00701903, -0.00171465, -0.0228618
0.141108, 0.108122, -0.773589, -0.917699, -1.4572, -0.625068, 1.07028, -0.256708, 0.00697525, -0.000732379, -0.0239341, -0.0541571, 3.12937e-05, 0.000804657, 0.0011932, 0.551216, 15.9021, 18.4827, 13.6746, 1.03107, 3.13083, -0.0750012, 1.59532e-05, 6.94976e-05, -0.0016677, -0.00339372, -0.00678707, 0.000619787, 0.0162998, -0.0325891, 0.0281985, 0.051538, 0.0554445, 0.207917, -0.00998734, -0.443149, 0.632738, -3.12664, -0.056156, -0.116172, -0.0100923, -0.443241, 0.634401, -3.13051, -0.0555419, -0.105767, 0.0252805, 0.0323738, -0.0495576, 0.00813401, -0.00115287, -0.0230086
0.142108, 0.108125, -0.773592, -0.917726, -1.45725, -0.625068, 1.07028, -0.256706, 0.00519607, -0.000488182, -0.0246244, -0.0539336, 5.00555e-05, 0.00107364, 0.000320756, 0.551216, 15.9021, 18.5184, 13.5635, 1.03107, 3.11618, -0.0621838, -3.45537e-06, 0.000102025, -0.00169478, -0.00344619, -0.00694631, 0.000617889, 0.0175749, -0.0330855, 0.0288504, 0.0528034, 0.0557401, 0.208893, -0.00996188, -0.443117, 0.632688, -3.12652, -0.0561706, -0.116359, -0.0100872, -0.443242, 0.634377, -3.13046, -0.055559, -0.105708, 0.0256467, 0.0327526, -0.0502094, 0.00719651, -0.00132723, -0.0231165
0.143108, 0.108126, -0.773598, -0.917751, -1.45732, -0.625068, 1.07028, -0.256711, 0.00387347, -0.00420872, -0.0233911, -0.0572967, 5.52651e-05, 0.00149166, -0.00171894, 0.551216, 15.9378, 18.4827, 13.5992, 1.03107, 3.09512, -0.00999879, -2.18245e-05, 0.000134415, -0.0017201, -0.00349769, -0.00710985, 0.000604843, 0.0184825, -0.0331175, 0.0288066, 0.0531107, 0.0542814, 0.214811, -0.00993605, -0.443084, 0.632638, -3.12641, -0.0561854, -0.116548, -0.0100805, -0.443243, 0.63435, -3.13041, -0.0555938, -0.105645, 0.0260151, 0.0331317, -0.0508638, 0.00666196, -0.00101479, -0.0238886
0.144108, 0.108124, -0.773607, -0.917772, -1.45739, -0.625067, 1.07028, -0.256709, 0.00288939, -0.00565823, -0.0196028, -0.0587644, -0.000624904, 0.00126271, -0.00067124, 0.551216, 16.0489, 18.443, 13.5992, 1.04938, 3.0878, -0.0228162, -4.11187e-05, 0.000166082, -0.0017465, -0.00355058, -0.00727223, 0.000597147, 0.0183187, -0.0326867, 0.0300789, 0.0560265, 0.0545858, 0.218631, -0.00990985, -0.44305, 0.632586, -3.1263, -0.0562005, -0.11674, -0.0100746, -0.443242, 0.634323, -3.13036, -0.0556205, -0.105587, 0.0263857, 0.0335111, -0.0515205, 0.00708272, -0.000220159, -0.0232656
0.145108, 0.108118, -0.773611, -0.917794, -1.45745, -0.625066, 1.07028, -0.256709, 0.000393321, -0.00396263, -0.0168457, -0.0613475, -0.000404287, 0.00138209, -0.000210133, 0.626595, 16.0489, 18.4073, 13.5278, 1.04938, 3.07315, -0.0292249, -6.26886e-05, 0.000198004, -0.0017744, -0.00360465, -0.00743926, 0.000595657, 0.0177585, -0.0322394, 0.0309099, 0.0578904, 0.0579316, 0.221739, -0.00988328, -0.443017, 0.632535, -3.12618, -0.0562158, -0.116934, -0.0100706, -0.443242, 0.634297, -3.13031, -0.0556378, -0.105524, 0.0267585, 0.0338906, -0.0521796, 0.00793266, 0.000611143, -0.0230552
0.146108, 0.108113, -0.773615, -0.917818, -1.45752, -0.625066, 1.07028, -0.256704, -0.00656365, -0.00596008, -0.0213263, -0.0640993, -0.000497647, 0.00115707, -0.00806467, 0.6623, 16.0489, 18.4073, 13.4882, 1.05578, 3.06674, -0.0685925, -8.27445e-05, 0.000230375, -0.00180078, -0.00365741, -0.00761391, 0.000594448, 0.0226972, -0.0331298, 0.0296427, 0.0548608, 0.0584052, 0.223144, -0.00985633, -0.442983, 0.632482, -3.12606, -0.0562314, -0.11713, -0.0100647, -0.443241, 0.634269, -3.13026, -0.0556551, -0.105451, 0.0271335, 0.0342704, -0.052841, 0.00350974, -5.94368e-05, -0.025367
0.147108, 0.10811, -0.773623, -0.91784, -1.45759, -0.625068, 1.07028, -0.256705, -0.00568786, -0.00518037, -0.0217905, -0.0644756, -0.00100301, 0.00104138, -0.00639569, 0.701973, 16.0846, 18.4073, 13.3771, 1.0741, 3.05942, -0.0621838, -0.000104193, 0.00026353, -0.00182831, -0.00371356, -0.00778577, 0.000588009, 0.0225943, -0.0335929, 0.0300874, 0.0557097, 0.0602421, 0.224493, -0.00982901, -0.442948, 0.632429, -3.12594, -0.0562473, -0.117329, -0.0100598, -0.443241, 0.634241, -3.13021, -0.0556806, -0.105385, 0.0275107, 0.0346502, -0.0535047, 0.00397002, -0.00014848, -0.0255919
0.148108, 0.108105, -0.773632, -0.917858, -1.45767, -0.625067, 1.07028, -0.256705, -0.00491517, -0.00861476, -0.0213735, -0.0707042, -0.000426115, 0.000964574, -0.00485021, 0.737679, 16.16, 18.3716, 13.3771, 1.06769, 3.05209, -0.0621838, -0.000122558, 0.000295149, -0.00185454, -0.00376694, -0.00796287, 0.000573125, 0.022116, -0.0335023, 0.0288448, 0.0531013, 0.0608199, 0.230067, -0.00980131, -0.442913, 0.632375, -3.12582, -0.0562634, -0.117531, -0.0100515, -0.443239, 0.634211, -3.13016, -0.0557197, -0.105314, 0.02789, 0.0350302, -0.0541706, 0.00491256, 0.000353309, -0.0274667
0.149108, 0.108097, -0.773637, -0.917885, -1.45776, -0.625068, 1.07028, -0.256709, -0.00442084, -0.00851083, -0.0235792, -0.0745196, -0.000517539, 0.000913605, -0.00513135, 0.777352, 16.1203, 18.443, 13.3414, 1.0741, 3.04477, -0.0228162, -0.000144114, 0.00032809, -0.00187805, -0.00381273, -0.00815089, 0.000562942, 0.0221605, -0.0340642, 0.0277432, 0.0507482, 0.0639628, 0.233625, -0.00977323, -0.442878, 0.63232, -3.1257, -0.0562797, -0.117734, -0.0100457, -0.443238, 0.634178, -3.13009, -0.0557522, -0.105227, 0.0282715, 0.0354102, -0.0548388, 0.00534978, 0.0001828, -0.0292503
0.150108, 0.108093, -0.773647, -0.917908, -1.45785, -0.625067, 1.07028, -0.256706, -0.00394448, -0.0134532, -0.0242512, -0.0802033, 0.000132614, 0.000608537, -0.00375076, 0.813057, 16.16, 18.4827, 13.3017, 1.06128, 3.04477, -0.0228162, -0.000163317, 0.000361293, -0.00190302, -0.00386388, -0.00833291, 0.000551979, 0.0227503, -0.0341946, 0.0263037, 0.04743, 0.0627918, 0.238015, -0.00974476, -0.442843, 0.632265, -3.12558, -0.0562963, -0.117941, -0.0100372, -0.443237, 0.634146, -3.13004, -0.0557859, -0.105153, 0.0286551, 0.0357903, -0.0555092, 0.00525568, 0.000429467, -0.0314093
0.151108, 0.108085, -0.773652, -0.917927, -1.45793, -0.625069, 1.07028, -0.256701, -0.00367919, -0.011367, -0.0209408, -0.0815156, -0.000587567, 0.000947826, -0.00128984, 0.85273, 16.0846, 18.4827, 13.266, 1.07959, 3.03012, -0.0621838, -0.00018299, 0.000394535, -0.00193033, -0.00392149, -0.00852208, 0.000546671, 0.0211075, -0.0339266, 0.0276379, 0.050826, 0.066318, 0.241246, -0.00971592, -0.442807, 0.632209, -3.12545, -0.0563132, -0.11815, -0.0100291, -0.443236, 0.634116, -3.12998, -0.0558109, -0.10507, 0.0290408, 0.0361704, -0.0561817, 0.00716557, 0.00111272, -0.0306313
0.152108, 0.108076, -0.773662, -0.917941, -1.45802, -0.62507, 1.07028, -0.256699, -0.00430717, -0.0108578, -0.019603, -0.0846168, -0.000864785, 0.00114021, -0.000808077, 0.928108, 16.0489, 18.4073, 13.1906, 1.09241, 3.01639, -0.0685925, -0.000203164, 0.000426299, -0.00195915, -0.00397963, -0.00871071, 0.000533566, 0.0205403, -0.0338682, 0.0278318, 0.0515676, 0.0692609, 0.245197, -0.00968668, -0.44277, 0.632153, -3.12533, -0.0563304, -0.118361, -0.0100212, -0.443233, 0.634086, -3.12993, -0.0558483, -0.104991, 0.0294287, 0.0365505, -0.0568564, 0.00809903, 0.00156499, -0.0310761
0.153108, 0.108068, -0.773674, -0.917961, -1.45811, -0.625067, 1.07027, -0.256701, -0.00377502, -0.013602, -0.0184737, -0.0883356, -0.000778741, 0.000488648, -0.00115259, 0.963814, 16.0092, 18.443, 13.1906, 1.0979, 3.02371, -0.0557752, -0.000223582, 0.000457932, -0.00198403, -0.00402544, -0.00890335, 0.000515192, 0.0204113, -0.0337203, 0.0275538, 0.0506178, 0.0695399, 0.251481, -0.00965706, -0.442734, 0.632096, -3.1252, -0.0563478, -0.118575, -0.0100129, -0.443229, 0.634051, -3.12986, -0.0558947, -0.104907, 0.0298187, 0.0369305, -0.0575331, 0.00863016, 0.00209804, -0.0320256
0.154108, 0.108064, -0.773692, -0.917982, -1.45821, -0.625066, 1.07027, -0.256705, -0.00591276, -0.0144486, -0.020442, -0.0933809, -0.000518236, 0.000325596, -0.00233083, 0.963814, 16.0489, 18.4827, 13.266, 1.0979, 3.02371, -0.0164075, -0.000243634, 0.000490926, -0.00200717, -0.00407098, -0.0090949, 0.000488602, 0.0215308, -0.0340514, 0.0261973, 0.0475996, 0.0723093, 0.254328, -0.00962704, -0.442696, 0.632038, -3.12507, -0.0563654, -0.118791, -0.0100037, -0.443226, 0.634014, -3.12979, -0.0559541, -0.104828, 0.0302108, 0.0373105, -0.0582119, 0.00801842, 0.00212441, -0.0341533
0.155108, 0.108056, -0.773709, -0.917999, -1.4583, -0.625067, 1.07027, -0.256704, -0.00425902, -0.0131417, -0.0180988, -0.0933846, -0.000582156, 0.000216938, -0.00115744, 0.963814, 16.0092, 18.4827, 13.1906, 1.10431, 3.02371, -0.0292249, -0.000266199, 0.000524237, -0.00203563, -0.00412815, -0.00928292, 0.000474174, 0.02002, -0.0339472, 0.0275558, 0.0502743, 0.0740071, 0.259172, -0.00959664, -0.442659, 0.631979, -3.12494, -0.0563834, -0.11901, -0.00999699, -0.443223, 0.633982, -3.12973, -0.0559945, -0.104757, 0.0306049, 0.0376903, -0.0588927, 0.00980843, 0.00263801, -0.0333707
0.156108, 0.108047, -0.773719, -0.918025, -1.4584, -0.625069, 1.07027, -0.256702, -0.00400526, -0.0137346, -0.0218554, -0.0945233, -0.00106575, -0.00471148, -0.000355619, 1.00349, 15.9021, 18.5938, 13.1509, 1.12262, 3.01639, -0.0420422, -0.000290258, 0.000559014, -0.0020609, -0.00417759, -0.00948575, 0.000467323, 0.0220468, -0.0341415, 0.0264142, 0.0443729, 0.0775483, 0.258699, -0.00956583, -0.442621, 0.63192, -3.12481, -0.0564016, -0.119232, -0.00999108, -0.443222, 0.633946, -3.12967, -0.0560239, -0.104665, 0.0310012, 0.03807, -0.0595756, 0.00827589, 0.0027656, -0.0353564
0.157108, 0.108033, -0.773745, -0.918036, -1.4585, -0.625069, 1.07027, -0.256696, -0.00778797, -0.0154131, -0.0172689, -0.096218, -0.00094747, -0.0030258, 0.00544164, 1.07887, 15.9735, 18.5184, 13.1509, 1.12903, 3.00174, -0.0685925, -0.000314826, 0.000590877, -0.00208819, -0.0042319, -0.009678, 0.000453853, 0.0225443, -0.0337246, 0.0281241, 0.0492121, 0.0761738, 0.256197, -0.00953463, -0.442583, 0.63186, -3.12467, -0.0564201, -0.119456, -0.00998556, -0.443217, 0.63391, -3.1296, -0.0560635, -0.104593, 0.0313996, 0.0384495, -0.0602603, 0.00803034, 0.00351406, -0.0343769
0.158108, 0.108021, -0.773762, -0.918051, -1.4586, -0.62507, 1.07027, -0.256695, -0.00642569, -0.0162636, -0.0158234, -0.100564, -0.000868713, -0.00233771, 0.00398969, 1.11457, 15.9021, 18.5184, 13.1509, 1.13544, 3.00174, -0.0685925, -0.000336475, 0.000623576, -0.00211535, -0.00428651, -0.00988137, 0.000434523, 0.0211108, -0.0336982, 0.0279079, 0.0493554, 0.0780953, 0.265004, -0.00950303, -0.442544, 0.6318, -3.12454, -0.0564389, -0.119682, -0.00997669, -0.443212, 0.633875, -3.12954, -0.0561126, -0.104506, 0.0318, 0.0388288, -0.060947, 0.00987149, 0.00397026, -0.0351768
0.159108, 0.108012, -0.773788, -0.918061, -1.45871, -0.625069, 1.07027, -0.2567, -0.00374744, -0.0194667, -0.0157701, -0.100676, -0.000341564, -0.000747692, 0.000998457, 1.07887, 15.9378, 18.443, 13.1509, 1.12903, 2.97336, -0.0164075, -0.000358619, 0.000656798, -0.00214477, -0.00434787, -0.0100722, 0.000403123, 0.0209462, -0.0343988, 0.028557, 0.051285, 0.0741944, 0.273685, -0.00947103, -0.442505, 0.631738, -3.1244, -0.0564579, -0.119911, -0.00996808, -0.443208, 0.63384, -3.12948, -0.0561804, -0.104442, 0.0322025, 0.0392079, -0.0616356, 0.0104108, 0.00364123, -0.0352223
0.160108, 0.108012, -0.773788, -0.918061, -1.45871, -0.625069, 1.07027, -0.2567, -0.00374744, -0.0194667, -0.0157701, -0.100676, -0.000341564, -0.000747692, 0.000998457, 1.07887, 15.9378, 18.443, 13.1509, 1.12903, 2.97336, -0.0164075, -0.00038721, 0.000693891, -0.00220981, -0.00447419, -0.0102258, 0.000413534, 0.0213056, -0.0347496, 0.0292899, 0.0525408, 0.0745771, 0.276334, -0.00943863, -0.442466, 0.631676, -3.12426, -0.0564773, -0.120143, -0.00996808, -0.443208, 0.63384, -3.12948, -0.0561804, -0.104442, 0.032607, 0.0395867, -0.062326, 0.0104108, 0.00364123, -0.0352223
0.161108, 0.108012, -0.773788, -0.918061, -1.45871, -0.625069, 1.07027, -0.2567, -0.00374744, -0.0194667, -0.0157701, -0.100676, -0.000341564, -0.000747692, 0.000998457, 1.07887, 15.9378, 18.443, 13.1509, 1.12903, 2.97336, -0.0164075, -0.000416141, 0.000731318, -0.00227559, -0.00460185, -0.0103811, 0.000424108, 0.0216665, -0.0350998, 0.030025, 0.053798, 0.0749628, 0.278989, -0.00940582, -0.442426, 0.631614, -3.12412, -0.0564969, -0.120377, -0.00996808, -0.443208, 0.63384, -3.12948, -0.0561804, -0.104442, 0.0330136, 0.0399652, -0.0630183, 0.0104108, 0.00364123, -0.0352223
0.162108, 0.107973, -0.773864, -0.918101, -1.45904, -0.625066, 1.07026, -0.256698, -0.00763576, -0.0218875, -0.0185192, -0.108551, -0.000364688, -0.000199346, 0.00599025, 1.03919, 15.8624, 18.443, 13.266, 1.14093, 2.96603, -0.0356336, -0.000430894, 0.000755595, -0.0022265, -0.00450686, -0.0106837, 0.00033614, 0.0237079, -0.0355518, 0.0276668, 0.0494973, 0.077907, 0.274689, -0.0093726, -0.442386, 0.63155, -3.12398, -0.0565168, -0.120614, -0.00994522, -0.443192, 0.633726, -3.12926, -0.0563449, -0.104202, 0.0334222, 0.0403434, -0.0637123, 0.0089795, 0.00352916, -0.0384395
0.163108, 0.107959, -0.773887, -0.918113, -1.45915, -0.625067, 1.07025, -0.256694, -0.00810808, -0.0264388, -0.0168319, -0.107985, -0.000717774, 6.23116e-05, 0.00593084, 1.00349, 15.7513, 18.443, 13.1906, 1.15375, 2.95871, -0.0750012, -0.000456297, 0.000788672, -0.00225604, -0.00456283, -0.0108942, 0.000319599, 0.0252731, -0.0357793, 0.0289391, 0.0522568, 0.0734577, 0.277803, -0.00933897, -0.442345, 0.631486, -3.12384, -0.056537, -0.120853, -0.00993829, -0.443186, 0.633689, -3.12919, -0.0563913, -0.104117, 0.0338328, 0.0407212, -0.0644081, 0.00773793, 0.0035994, -0.0380001
0.164108, 0.107946, -0.773919, -0.918127, -1.45927, -0.625066, 1.07025, -0.256692, -0.0105952, -0.0295874, -0.0164529, -0.113485, -3.746e-06, 0.000255765, 0.00383864, 0.928108, 15.7513, 18.4827, 13.2263, 1.14093, 2.95138, -0.0621838, -0.000480936, 0.00082226, -0.00228225, -0.00461445, -0.0111023, 0.000292805, 0.0262844, -0.0356744, 0.0280885, 0.0504695, 0.0736354, 0.283538, -0.00930493, -0.442304, 0.631421, -3.1237, -0.0565575, -0.121095, -0.00992991, -0.443181, 0.633648, -3.12912, -0.0564542, -0.104038, 0.0342455, 0.0410986, -0.0651057, 0.00720125, 0.00405551, -0.0396318
0.165108, 0.107928, -0.77395, -0.918131, -1.45939, -0.625066, 1.07025, -0.256695, -0.0104071, -0.0301256, -0.0105172, -0.116937, -2.45828e-06, 0.000127727, 0.00137063, 0.888436, 15.6799, 18.4073, 13.2263, 1.14093, 2.95138, -0.0228162, -0.000505558, 0.000853988, -0.0023112, -0.00467116, -0.0113155, 0.000259819, 0.0241164, -0.0346448, 0.0293981, 0.0534435, 0.0755833, 0.295165, -0.00927048, -0.442263, 0.631356, -3.12355, -0.0565783, -0.121339, -0.00992139, -0.443173, 0.633609, -3.12904, -0.0565268, -0.103954, 0.0346601, 0.0414756, -0.0658049, 0.00963368, 0.0055127, -0.038852
0.166108, 0.107908, -0.77398, -0.918133, -1.45952, -0.625065, 1.07025, -0.256696, -0.014306, -0.0305532, -0.009076, -0.120863, 0.000201841, 0.000832958, 0.000641232, 0.888436, 15.6046, 18.332, 13.3017, 1.13544, 2.93033, -0.00999879, -0.000528652, 0.000886098, -0.00234076, -0.00473251, -0.0115311, 0.000226495, 0.0249513, -0.0344806, 0.0295194, 0.0542003, 0.0775179, 0.297893, -0.00923561, -0.442221, 0.63129, -3.1234, -0.0565994, -0.121587, -0.00991098, -0.443165, 0.63357, -3.12898, -0.0566001, -0.103869, 0.0350768, 0.0418522, -0.0665058, 0.00919948, 0.00601747, -0.0395037
0.167108, 0.107889, -0.774015, -0.918143, -1.45964, -0.625063, 1.07025, -0.256692, -0.0154741, -0.0318114, -0.0107944, -0.121996, -0.000306227, 0.00107377, 0.00200329, 0.813057, 15.5688, 18.3716, 13.3017, 1.14734, 2.91568, -0.0484509, -0.000556055, 0.000919617, -0.00236958, -0.00478871, -0.0117425, 0.000204112, 0.0266196, -0.0351883, 0.0294574, 0.0541636, 0.0777351, 0.297084, -0.00920033, -0.442179, 0.631223, -3.12326, -0.0566208, -0.121836, -0.00990435, -0.443158, 0.633529, -3.1289, -0.0566569, -0.103793, 0.0354954, 0.0422282, -0.0672083, 0.00798314, 0.00562372, -0.0404176
0.168108, 0.107874, -0.774045, -0.918145, -1.45977, -0.625061, 1.07024, -0.256689, -0.0155095, -0.030936, -0.0101286, -0.127691, 0.000236675, 0.000969068, 0.00144926, 0.701973, 15.4578, 18.332, 13.3771, 1.13544, 2.90835, -0.0484509, -0.0005768, 0.000951086, -0.00239882, -0.0048454, -0.0119656, 0.000167092, 0.0252694, -0.0349531, 0.028661, 0.0523954, 0.0823609, 0.303955, -0.00916462, -0.442137, 0.631155, -3.12311, -0.0566425, -0.122088, -0.00989078, -0.443149, 0.633488, -3.12882, -0.0567369, -0.103702, 0.0359161, 0.0426038, -0.0679124, 0.0097986, 0.0062916, -0.0418162
0.169108, 0.10785, -0.774083, -0.918145, -1.4599, -0.625063, 1.07024, -0.25669, -0.0183155, -0.0322094, -0.00604891, -0.127993, -0.000520373, 0.000903776, 0.00132274, 0.701973, 15.4221, 18.2606, 13.4128, 1.15375, 2.90103, -0.0557752, -0.000605369, 0.000983158, -0.00242971, -0.00490677, -0.0121847, 0.000137458, 0.0260386, -0.0345086, 0.0305118, 0.0565156, 0.0821137, 0.306899, -0.00912849, -0.442094, 0.631087, -3.12296, -0.0566645, -0.122343, -0.00988471, -0.44314, 0.633448, -3.12875, -0.0568056, -0.103619, 0.0363387, 0.0429789, -0.068618, 0.00929068, 0.0070474, -0.0407404
0.170108, 0.107833, -0.774119, -0.918152, -1.46004, -0.625061, 1.07024, -0.256692, -0.0207301, -0.0353763, -0.00559305, -0.129508, 0.000127812, 0.00137226, -0.000512256, 0.586922, 15.3467, 18.2963, 13.3771, 1.14093, 2.87997, -0.0164075, -0.00063075, 0.0010165, -0.00245846, -0.00496291, -0.0124072, 0.000101, 0.0278065, -0.0346846, 0.0309427, 0.0572826, 0.0796009, 0.310484, -0.00909194, -0.442051, 0.631018, -3.1228, -0.0566868, -0.122601, -0.00987483, -0.443132, 0.633404, -3.12867, -0.0568854, -0.103534, 0.0367632, 0.0433533, -0.0693252, 0.00792295, 0.007171, -0.0411693
0.171108, 0.107812, -0.77416, -0.918148, -1.46018, -0.625057, 1.07024, -0.256692, -0.0202616, -0.0355229, -0.00250938, -0.138807, 0.000288665, -0.0037265, -0.00053088, 0.511544, 15.311, 18.2209, 13.4128, 1.13544, 2.86532, -0.00999879, -0.000652774, 0.00104762, -0.00248732, -0.00502129, -0.0126309, 5.43651e-05, 0.0256402, -0.0329306, 0.0292302, 0.0507982, 0.0882846, 0.320806, -0.00905497, -0.442007, 0.630949, -3.12265, -0.0567094, -0.122861, -0.00986128, -0.443121, 0.633361, -3.12859, -0.0569813, -0.10345, 0.0371897, 0.0437272, -0.0700339, 0.0105729, 0.00939988, -0.0433988
0.172108, 0.107787, -0.774204, -0.918151, -1.46032, -0.625057, 1.07024, -0.256691, -0.021945, -0.0364395, -0.00300888, -0.137777, -0.000248361, -0.00214151, -8.05745e-05, 0.511544, 15.311, 18.2606, 13.3771, 1.14734, 2.84427, -0.0164075, -0.000683233, 0.00108103, -0.00251703, -0.00508105, -0.0128525, 2.5085e-05, 0.027348, -0.0337525, 0.0303331, 0.0539967, 0.086736, 0.320246, -0.00901756, -0.441964, 0.630878, -3.12249, -0.0567323, -0.123123, -0.00985571, -0.443112, 0.633317, -3.12852, -0.0570505, -0.103372, 0.0376182, 0.0441005, -0.0707441, 0.00924008, 0.00886712, -0.0431662
0.173108, 0.107762, -0.774239, -0.918154, -1.46047, -0.625054, 1.07023, -0.256687, -0.0214703, -0.0366037, -0.00314709, -0.137732, 0.000749957, -0.00121294, 0.00116007, 0.436165, 15.1642, 18.2963, 13.3771, 1.12262, 2.82962, -0.0484509, -0.000708193, 0.00111331, -0.00254528, -0.00513579, -0.0130894, -8.52586e-06, 0.0273293, -0.0341883, 0.0311237, 0.0555275, 0.0857649, 0.322554, -0.00897973, -0.441919, 0.630807, -3.12233, -0.0567555, -0.123389, -0.00984416, -0.443102, 0.633271, -3.12843, -0.0571272, -0.103272, 0.0380486, 0.0444731, -0.0714557, 0.00963911, 0.00878625, -0.0431049
0.174108, 0.107738, -0.774288, -0.918144, -1.46062, -0.625051, 1.07023, -0.256687, -0.0218662, -0.0410041, 0.000270931, -0.145157, 0.00532988, -0.00487703, 0.000793622, 0.400459, 15.1999, 18.1852, 13.4128, 1.12262, 2.79391, -0.0484509, -0.000732802, 0.0011439, -0.00257613, -0.00519806, -0.0133142, -5.76825e-05, 0.0260943, -0.0323052, 0.0300857, 0.0493364, 0.0849062, 0.333833, -0.00894147, -0.441875, 0.630735, -3.12218, -0.056779, -0.123657, -0.00983211, -0.44309, 0.633228, -3.12835, -0.057228, -0.103194, 0.0384809, 0.044845, -0.0721687, 0.0113098, 0.0110976, -0.0447365
0.175108, 0.10771, -0.774328, -0.918144, -1.46077, -0.625051, 1.07023, -0.256686, -0.0220598, -0.0387181, 0.00202855, -0.148007, 0.00348103, -0.00332195, 0.00105289, 0.360787, 15.1285, 18.2209, 13.3414, 1.13544, 2.77926, -0.0621838, -0.0007606, 0.00117641, -0.0026054, -0.00525615, -0.0135538, -9.27116e-05, 0.0249158, -0.0325609, 0.0306855, 0.0524884, 0.0900312, 0.338008, -0.00890277, -0.44183, 0.630663, -3.12202, -0.0568029, -0.123927, -0.00982262, -0.443079, 0.633181, -3.12827, -0.0573075, -0.103096, 0.0389151, 0.0452163, -0.0728831, 0.012876, 0.0112397, -0.0447731
0.176108, 0.107686, -0.77437, -0.918146, -1.46094, -0.625048, 1.07023, -0.256691, -0.0244084, -0.0401863, 0.000533211, -0.155969, 0.00241911, -0.00267449, -0.00121947, 0.285408, 15.0531, 18.2606, 13.3771, 1.14093, 2.77926, -0.00999879, -0.000785476, 0.0012084, -0.00263087, -0.00530424, -0.0138, -0.00014432, 0.0257865, -0.032913, 0.0286721, 0.0494114, 0.0947286, 0.343075, -0.00886363, -0.441784, 0.630589, -3.12185, -0.0568271, -0.1242, -0.00980952, -0.443067, 0.633131, -3.12817, -0.0574136, -0.10299, 0.0393512, 0.0455868, -0.0735988, 0.0126129, 0.0112592, -0.0475802
0.17711, 0.107661, -0.774415, -0.91814, -1.4611, -0.625048, 1.07022, -0.256693, -0.023409, -0.0422731, 0.00220036, -0.158815, 0.00160178, -0.00189052, -0.00131306, 0.21003, 15.0174, 18.1852, 13.4128, 1.14734, 2.77286, 0.00373412, -0.000810184, 0.0012396, -0.00265872, -0.00535918, -0.0140469, -0.000195025, 0.0253218, -0.0330539, 0.0289938, 0.0509804, 0.0951276, 0.34925, -0.00882406, -0.441738, 0.630515, -3.12169, -0.0568516, -0.124476, -0.00979604, -0.443055, 0.633082, -3.12809, -0.0575184, -0.102885, 0.0397893, 0.0459565, -0.0743159, 0.0134896, 0.0114941, -0.0479517
0.17811, 0.107634, -0.774463, -0.918143, -1.46127, -0.625044, 1.07022, -0.256692, -0.0232242, -0.0413769, -0.000235096, -0.162807, 0.00604061, -0.00097648, -0.000631613, 0.170357, 15.0174, 18.2606, 13.4128, 1.14734, 2.75821, -0.00267457, -0.000838174, 0.00127252, -0.00268429, -0.00540798, -0.0142918, -0.000238318, 0.0243706, -0.0332604, 0.0279384, 0.0473102, 0.0953661, 0.353783, -0.00878406, -0.441692, 0.630441, -3.12153, -0.0568764, -0.124755, -0.00978515, -0.443043, 0.633029, -3.12799, -0.0576123, -0.102786, 0.0402292, 0.0463255, -0.0750342, 0.0149646, 0.0117055, -0.0496591
0.17911, 0.107608, -0.774508, -0.918137, -1.46144, -0.625045, 1.07021, -0.256686, -0.0222773, -0.0428993, 0.00165243, -0.163964, 0.00407995, -0.000302452, 0.00155042, 0.0949785, 14.9777, 18.1852, 13.4525, 1.16015, 2.74356, -0.0557752, -0.000862673, 0.00130423, -0.00271254, -0.00546448, -0.0145453, -0.000283341, 0.0242696, -0.0335551, 0.0288599, 0.0504474, 0.0961365, 0.356396, -0.00874361, -0.441646, 0.630365, -3.12136, -0.0569015, -0.125036, -0.00977062, -0.44303, 0.632979, -3.1279, -0.0577091, -0.102677, 0.040671, 0.0466936, -0.0757538, 0.0154408, 0.011761, -0.0494668
0.18011, 0.107576, -0.774553, -0.918134, -1.46161, -0.62504, 1.07021, -0.256682, -0.0234818, -0.0432663, 0.00495129, -0.164727, 0.00359039, -0.000347135, 0.00127457, 0.0949785, 14.9063, 18.1455, 13.4882, 1.14734, 2.74356, -0.0621838, -0.000890231, 0.00133514, -0.00273998, -0.00551338, -0.0148001, -0.000325368, 0.0241793, -0.0332162, 0.0303437, 0.053659, 0.0969793, 0.360894, -0.00870271, -0.441599, 0.630289, -3.12119, -0.056927, -0.12532, -0.00975867, -0.443016, 0.632927, -3.1278, -0.0578019, -0.102568, 0.0411146, 0.0470609, -0.0764746, 0.0158394, 0.0124376, -0.0487063
