alisrour97/Franka_experiments/Real_Robot_scripts/servo-franka/Data4/log_dyn_PIw_ki_10.csv
Time,q1,q2,q3,q4,q5,q6,q7,dq1,dq2,dq3,dq4,dq5,dq6,dq7,t1,t2,t3,t4,t5,t6,t7,ex1,ex2,ex3,ex4,ex5,ex6,ev1,ev2,ev3,ev4,ev5,ev6,xd,yd,zd,uxd,uyd,uzd,x,y,z,ux,uy,uz,vxd,vyd,vzd,vx,vy,vz
4.88281e-07, 0.1076, -0.774152, -0.916085, -1.45627, -0.6251, 1.07037, -0.256747, -7.95039e-05, 0.000496001, 0.00173156, -0.000328677, 0.001356, 0.000577924, -0.00130885, -0.131157, 16.0092, 19.2246, 15.7297, 0.920287, 3.08047, -0.10796, 0.000952763, -0.00167465, -2.8628e-05, -0.000221912, 0.000196039, 6.58455e-05, -0.00106782, 0.000419387, 0.000464046, 0.000876229, -0.000689746, 0.00336724, -0.011112, -0.444721, 0.635038, -3.13187, -0.0555627, -0.107532, -0.0102181, -0.443013, 0.635145, -3.13207, -0.0558936, -0.107839, 0, 0, 0, 0.00101791, 0.000452683, 0.000538883
0.0137849, 0.107572, -0.774144, -0.916083, -1.45626, -0.625094, 1.07037, -0.256751, 0.00418376, 0.00168645, -0.00146597, 0.000209357, -0.000126379, 0.000709521, -0.000454784, -0.0161054, 15.9021, 19.2643, 15.69, 0.920287, 3.05209, -0.127186, 0.000943037, -0.00167555, -3.27731e-05, -0.000229678, 0.000198061, 9.12318e-05, -0.00189451, -0.000510904, -0.000351236, -0.000320188, 0.0013818, 0.00335667, -0.011112, -0.444721, 0.635038, -3.13187, -0.0555627, -0.107532, -0.0102338, -0.443013, 0.635146, -3.13207, -0.0558346, -0.107855, 1.73063e-06, -1.42215e-06, -3.96181e-06, 0.00193285, -0.000442331, -0.000227364
0.0147852, 0.107572, -0.774144, -0.916083, -1.45626, -0.625094, 1.07037, -0.256751, 0.00418376, 0.00168645, -0.00146597, 0.000209357, -0.000126379, 0.000709521, -0.000454784, -0.0161054, 15.9021, 19.2643, 15.69, 0.920287, 3.05209, -0.127186, 0.000943034, -0.00167555, -3.27825e-05, -0.000229698, 0.000198039, 9.1239e-05, -0.0018903, -0.000506396, -0.000339094, -0.000296031, 0.00139832, 0.0034002, -0.011112, -0.444721, 0.635038, -3.13187, -0.0555628, -0.107532, -0.0102338, -0.443013, 0.635146, -3.13207, -0.0558346, -0.107855, 6.91577e-06, -5.6745e-06, -1.58141e-05, 0.00193285, -0.000442331, -0.000227364
0.0157852, 0.107572, -0.774144, -0.916083, -1.45626, -0.625094, 1.07037, -0.256751, 0.00418376, 0.00168645, -0.00146597, 0.000209357, -0.000126379, 0.000709521, -0.000454784, -0.0161054, 15.9021, 19.2643, 15.69, 0.920287, 3.05209, -0.127186, 0.000943025, -0.00167556, -3.2808e-05, -0.000229752, 0.000197981, 9.12585e-05, -0.0018833, -0.00049891, -0.000318918, -0.000255913, 0.00142577, 0.00347252, -0.011112, -0.444721, 0.635038, -3.13187, -0.0555628, -0.107532, -0.0102338, -0.443013, 0.635146, -3.13207, -0.0558346, -0.107855, 1.55453e-05, -1.2736e-05, -3.55071e-05, 0.00193285, -0.000442331, -0.000227364
0.0167852, 0.107572, -0.774144, -0.916083, -1.45626, -0.625094, 1.07037, -0.256751, 0.00418376, 0.00168645, -0.00146597, 0.000209357, -0.000126379, 0.000709521, -0.000454784, -0.0161054, 15.9021, 19.2643, 15.69, 0.920287, 3.05209, -0.127186, 0.000943008, -0.00167558, -3.28575e-05, -0.000229858, 0.000197867, 9.12966e-05, -0.00187351, -0.000488467, -0.000290758, -0.000199953, 0.00146409, 0.00357345, -0.011112, -0.444721, 0.635038, -3.13187, -0.0555628, -0.107532, -0.0102338, -0.443013, 0.635146, -3.13207, -0.0558346, -0.107855, 2.7609e-05, -2.25855e-05, -6.29913e-05, 0.00193285, -0.000442331, -0.000227364
0.0177852, 0.107572, -0.774144, -0.916083, -1.45626, -0.625094, 1.07037, -0.256751, 0.00418376, 0.00168645, -0.00146597, 0.000209357, -0.000126379, 0.000709521, -0.000454784, -0.0161054, 15.9021, 19.2643, 15.69, 0.920287, 3.05209, -0.127186, 0.000942979, -0.00167561, -3.29389e-05, -0.000230031, 0.00019768, 9.13591e-05, -0.00186093, -0.000475089, -0.000254665, -0.000128268, 0.00151319, 0.00370281, -0.0111119, -0.444721, 0.635038, -3.13187, -0.0555629, -0.107532, -0.0102338, -0.443013, 0.635146, -3.13207, -0.0558346, -0.107855, 4.30968e-05, -3.5202e-05, -9.82172e-05, 0.00193285, -0.000442331, -0.000227364
0.0187852, 0.107572, -0.774144, -0.916083, -1.45626, -0.625094, 1.07037, -0.256751, 0.00418376, 0.00168645, -0.00146597, 0.000209357, -0.000126379, 0.000709521, -0.000454784, -0.0161054, 15.9021, 19.2643, 15.69, 0.920287, 3.05209, -0.127186, 0.000942937, -0.00167566, -3.30602e-05, -0.00023029, 0.000197402, 9.14522e-05, -0.00184557, -0.000458798, -0.000210688, -4.09756e-05, 0.001573, 0.00386042, -0.0111119, -0.444721, 0.635038, -3.13187, -0.0555631, -0.107533, -0.0102338, -0.443013, 0.635146, -3.13207, -0.0558346, -0.107855, 6.19987e-05, -5.05647e-05, -0.000141136, 0.00193285, -0.000442331, -0.000227364
0.0197854, 0.107572, -0.774144, -0.916083, -1.45626, -0.625094, 1.07037, -0.256751, 0.00418376, 0.00168645, -0.00146597, 0.000209357, -0.000126379, 0.000709521, -0.000454784, -0.0161054, 15.9021, 19.2643, 15.69, 0.920287, 3.05209, -0.127186, 0.000942878, -0.00167572, -3.32291e-05, -0.00023065, 0.000197014, 9.15819e-05, -0.00182744, -0.000439614, -0.000158876, 6.18071e-05, 0.00164347, 0.0040461, -0.0111118, -0.444721, 0.635037, -3.13187, -0.0555633, -0.107533, -0.0102338, -0.443013, 0.635146, -3.13207, -0.0558346, -0.107855, 8.43044e-05, -6.86525e-05, -0.000191697, 0.00193285, -0.000442331, -0.000227364
0.0207854, 0.107572, -0.774144, -0.916083, -1.45626, -0.625094, 1.07037, -0.256751, 0.00418376, 0.00168645, -0.00146597, 0.000209357, -0.000126379, 0.000709521, -0.000454784, -0.0161054, 15.9021, 19.2643, 15.69, 0.920287, 3.05209, -0.127186, 0.0009428, -0.0016758, -3.34534e-05, -0.000231128, 0.000196499, 9.17541e-05, -0.00180654, -0.00041756, -9.92801e-05, 0.000179963, 0.00172451, 0.00425966, -0.0111117, -0.444721, 0.635037, -3.13187, -0.0555636, -0.107534, -0.0102338, -0.443013, 0.635146, -3.13207, -0.0558346, -0.107855, 0.000110004, -8.94448e-05, -0.000249853, 0.00193285, -0.000442331, -0.000227364
0.0217854, 0.107572, -0.774144, -0.916083, -1.45626, -0.625094, 1.07037, -0.256751, 0.00418376, 0.00168645, -0.00146597, 0.000209357, -0.000126379, 0.000709521, -0.000454784, -0.0161054, 15.9021, 19.2643, 15.69, 0.920287, 3.05209, -0.127186, 0.000942699, -0.00167591, -3.37408e-05, -0.00023174, 0.000195839, 9.19747e-05, -0.00178289, -0.000392658, -3.19485e-05, 0.000313377, 0.00181606, 0.00450092, -0.0111116, -0.444721, 0.635037, -3.13187, -0.055564, -0.107535, -0.0102338, -0.443013, 0.635146, -3.13207, -0.0558346, -0.107855, 0.000139087, -0.000112921, -0.000315553, 0.00193285, -0.000442331, -0.000227364
0.0227854, 0.107572, -0.774144, -0.916083, -1.45626, -0.625094, 1.07037, -0.256751, 0.00418376, 0.00168645, -0.00146597, 0.000209357, -0.000126379, 0.000709521, -0.000454784, -0.0161054, 15.9021, 19.2643, 15.69, 0.920287, 3.05209, -0.127186, 0.000942574, -0.00167604, -3.40989e-05, -0.000232503, 0.000195017, 9.22496e-05, -0.00175648, -0.000364927, 4.30693e-05, 0.000461931, 0.00191804, 0.00476971, -0.0111114, -0.444721, 0.635037, -3.13186, -0.0555644, -0.107536, -0.0102338, -0.443013, 0.635146, -3.13207, -0.0558346, -0.107855, 0.000171544, -0.000139059, -0.00038875, 0.00193285, -0.000442331, -0.000227364
0.0237854, 0.107569, -0.774132, -0.916054, -1.45624, -0.625092, 1.07037, -0.256746, -0.000330063, 0.00463661, 0.00174076, 0.00362094, -0.00624608, 0.000126377, 0.000700829, 0.0196001, 15.791, 18.9667, 15.5035, 0.889159, 3.03744, -0.166554, 0.000951896, -0.00168085, -4.90046e-05, -0.000265041, 0.000198049, 8.46997e-05, 0.000305115, -0.000335538, 0.00227205, 0.00733129, 0.0075057, -0.00284223, -0.0111112, -0.444721, 0.635036, -3.13186, -0.055565, -0.107538, -0.0102255, -0.443009, 0.635161, -3.13211, -0.0558457, -0.107863, 0.000207364, -0.00016784, -0.000469394, -0.000240364, -0.000533434, 0.00177421
0.0247854, 0.107569, -0.774129, -0.916053, -1.45623, -0.625092, 1.07037, -0.256751, -0.000200754, 0.00428863, 0.0043519, 0.00441041, -0.00497901, 8.42513e-05, -0.00122824, 0.0196001, 15.7513, 18.9667, 15.4282, 0.895568, 3.03744, -0.120778, 0.000950577, -0.00168105, -5.17325e-05, -0.000268735, 0.000198322, 8.39818e-05, -0.000532953, 0.000296863, 0.00332564, 0.00900784, 0.00570945, 0.00173097, -0.011111, -0.444722, 0.635036, -3.13186, -0.0555656, -0.10754, -0.0102268, -0.443009, 0.635163, -3.13211, -0.0558474, -0.107866, 0.000246538, -0.000199242, -0.000557437, 0.0005397, 8.75639e-05, 0.00279872
0.0257854, 0.107574, -0.774134, -0.91605, -1.45624, -0.62509, 1.07037, -0.256747, 0.00164387, 0.00213323, 0.00492959, 0.00311518, -0.00331172, -0.000486367, 0.000639201, -0.0557783, 15.791, 18.8913, 15.4282, 0.883666, 3.05209, -0.160145, 0.000952489, -0.00168234, -5.22774e-05, -0.000267895, 0.00020121, 7.96877e-05, -0.0013768, 0.000724197, 0.00300758, 0.00733813, 0.00354538, 0.00396143, -0.0111107, -0.444722, 0.635035, -3.13186, -0.0555664, -0.107542, -0.0102247, -0.443007, 0.635163, -3.13211, -0.0558548, -0.107872, 0.000289055, -0.000233245, -0.00065283, 0.00143007, 0.000513032, 0.00244664
0.0267854, 0.107579, -0.774129, -0.916045, -1.45623, -0.625084, 1.07037, -0.256751, 0.00194198, 0.00176939, 0.00375714, 0.00480642, -0.00161718, -0.000324245, -0.00198139, -0.0914839, 15.6442, 18.7446, 15.3171, 0.858946, 3.05209, -0.0951428, 0.000958909, -0.00168374, -5.51272e-05, -0.000273354, 0.000201177, 6.51257e-05, -0.000980785, 0.000579296, 0.0032869, 0.00707664, 0.000914227, 0.00630904, -0.0111104, -0.444722, 0.635034, -3.13186, -0.0555673, -0.107544, -0.0102182, -0.443006, 0.635166, -3.13211, -0.0558782, -0.107875, 0.000334905, -0.000269828, -0.000755525, 0.00106713, 0.000315304, 0.0025945
0.0277854, 0.107575, -0.774133, -0.916043, -1.45624, -0.625084, 1.07038, -0.256744, 0.000467572, 0.00102347, 0.00415363, 0.0050659, -0.00155915, 0.00831353, -0.000608866, -0.0557783, 15.6442, 18.6692, 15.2417, 0.865355, 3.07315, -0.114369, 0.000956752, -0.00168416, -5.61032e-05, -0.000276712, 0.000203502, 7.40414e-05, -0.001064, -0.000858934, 0.00436947, 0.015181, -0.00427332, 0.0040666, -0.0111101, -0.444722, 0.635033, -3.13186, -0.0555684, -0.107547, -0.0102201, -0.443006, 0.635166, -3.13211, -0.0558652, -0.107882, 0.000384079, -0.000308971, -0.000865474, 0.00117649, -0.00116752, 0.00356139
0.0287854, 0.107582, -0.774131, -0.91604, -1.45624, -0.625082, 1.07037, -0.256752, 0.00208106, 0.00149324, 0.00989354, 0.00345106, -0.000747471, 0.00472446, 0.00115208, -0.131157, 15.6046, 18.6295, 15.2417, 0.852538, 3.11618, -0.0292249, 0.000961114, -0.00168589, -5.76366e-05, -0.000276995, 0.000199608, 5.61417e-05, -0.00383535, 0.00111222, 0.00528272, 0.0146907, -0.00164841, 0.00993517, -0.0111097, -0.444723, 0.635033, -3.13186, -0.0555696, -0.10755, -0.0102155, -0.443005, 0.635167, -3.13211, -0.0558942, -0.107879, 0.000436566, -0.000350653, -0.000982628, 0.0038592, 0.000850278, 0.0045579
0.0297854, 0.107583, -0.774132, -0.916048, -1.45624, -0.625084, 1.07038, -0.256743, 0.00139195, 0.000907671, 0.00667162, 0.00142803, -0.00019457, 0.00922694, 0.00407679, -0.131157, 15.6046, 18.7803, 15.2814, 0.840636, 3.09512, -0.10796, 0.000958655, -0.00168343, -5.66853e-05, -0.000279518, 0.000198471, 7.23511e-05, -0.00327826, -9.00291e-05, 0.00427234, 0.0153774, -0.00328769, 0.00563011, -0.0111092, -0.444723, 0.635032, -3.13185, -0.0555709, -0.107554, -0.0102174, -0.443007, 0.635164, -3.13211, -0.0558703, -0.107881, 0.000492356, -0.000394854, -0.00110694, 0.00347161, -0.000406288, 0.00337992
0.0307854, 0.10758, -0.774128, -0.916042, -1.45624, -0.625084, 1.07038, -0.256752, 3.37763e-06, 0.000539249, 0.00588929, 0.000158307, 4.84636e-06, 0.00779444, -0.000141164, -0.0914839, 15.6046, 18.7446, 15.3171, 0.834227, 3.07315, -0.0228162, 0.000960669, -0.00168378, -6.03636e-05, -0.000292279, 0.00019533, 6.27673e-05, -0.00240461, 0.00019765, 0.00369955, 0.0131722, -0.00204541, 0.00909756, -0.0111087, -0.444723, 0.63503, -3.13185, -0.0555724, -0.107558, -0.0102151, -0.443007, 0.635167, -3.13212, -0.0558862, -0.107881, 0.000551439, -0.000441554, -0.00123836, 0.00268858, -0.000191307, 0.00261883
0.0317854, 0.107585, -0.774131, -0.916035, -1.45624, -0.625082, 1.07039, -0.256747, 0.00176806, -0.00061792, 0.00748412, -0.00246179, -0.000514678, 0.00605567, 0.00182216, -0.166862, 15.6442, 18.7446, 15.4282, 0.846129, 3.06674, -0.0685925, 0.00096572, -0.00168499, -6.25171e-05, -0.000300519, 0.000196857, 5.4776e-05, -0.00355113, 0.000906876, 0.00324728, 0.0115425, -9.22473e-05, 0.0117148, -0.0111081, -0.444724, 0.635029, -3.13185, -0.0555741, -0.107563, -0.0102097, -0.443007, 0.635168, -3.13213, -0.0559, -0.107889, 0.000613805, -0.000490732, -0.00137684, 0.00389967, 0.000512501, 0.00211233
0.0327854, 0.107583, -0.774132, -0.916026, -1.45624, -0.625081, 1.07039, -0.256744, 0.000345422, -0.00128421, 0.00651709, -0.00254586, -0.000197493, 0.00450362, 0.00260111, -0.131157, 15.6799, 18.7049, 15.4678, 0.840636, 3.06674, -0.101552, 0.000967248, -0.00168658, -6.79365e-05, -0.000314773, 0.000199813, 5.53753e-05, -0.00227078, 0.00111991, 0.00297753, 0.00973332, 7.86417e-05, 0.0095105, -0.0111074, -0.444724, 0.635028, -3.13184, -0.055576, -0.107568, -0.0102079, -0.443005, 0.635172, -3.13214, -0.0559004, -0.1079, 0.000679445, -0.000542368, -0.00152234, 0.00269964, 0.000631034, 0.00161107
0.0337854, 0.107583, -0.774129, -0.916021, -1.45624, -0.62508, 1.0704, -0.256745, 0.00023173, -4.87113e-05, 0.00479447, -0.00251495, 6.23289e-05, 0.00782863, 0.00134967, -0.131157, 15.6442, 18.7049, 15.5035, 0.834227, 3.07315, -0.0878186, 0.000969053, -0.00168798, -7.14096e-05, -0.000322338, 0.000195254, 5.19498e-05, -0.00238419, 0.000297199, 0.00299483, 0.0117978, -0.000292156, 0.0100039, -0.0111067, -0.444725, 0.635026, -3.13184, -0.055578, -0.107574, -0.0102057, -0.443005, 0.635174, -3.13214, -0.0559076, -0.107899, 0.000748347, -0.000596442, -0.0016748, 0.00290978, -0.00024138, 0.00147858
0.0347854, 0.107591, -0.774128, -0.91602, -1.45623, -0.625079, 1.0704, -0.256747, 0.00275403, 0.000874706, 0.00353362, -0.000828283, 0.000246385, 0.0050605, 0.000518232, -0.242241, 15.6046, 18.7049, 15.4678, 0.827819, 3.09512, -0.0750012, 0.000972105, -0.00168837, -7.46753e-05, -0.000329448, 0.000194015, 4.45576e-05, -0.00270608, 0.000486671, 0.00302773, 0.0096675, 0.00108175, 0.012198, -0.0111059, -0.444726, 0.635024, -3.13184, -0.0555803, -0.10758, -0.0102021, -0.443005, 0.635176, -3.13214, -0.0559211, -0.107903, 0.000820503, -0.000652933, -0.00183418, 0.00329383, -9.74908e-05, 0.00137533
0.0357854, 0.107596, -0.774129, -0.916019, -1.45624, -0.62508, 1.0704, -0.256745, 0.00360007, -0.000360513, 0.00260873, -0.00137756, -9.74968e-05, 0.00308519, -5.93532e-05, -0.317619, 15.6442, 18.7049, 15.5035, 0.834227, 3.11618, -0.0621838, 0.000974021, -0.00168869, -7.6108e-05, -0.000334375, 0.000190011, 4.14384e-05, -0.00218147, 0.00067414, 0.00252262, 0.00739699, 0.00174341, 0.0136438, -0.0111051, -0.444726, 0.635022, -3.13183, -0.0555828, -0.107587, -0.0101995, -0.443005, 0.635176, -3.13214, -0.0559282, -0.107904, 0.000895902, -0.000711822, -0.00200043, 0.00287407, 1.68577e-05, 0.000670291
0.0367854, 0.107591, -0.774126, -0.916016, -1.45624, -0.625079, 1.0704, -0.256742, 0.000637421, 0.000675955, 0.00369212, -0.001839, 0.000154065, 0.00215409, 0.0014709, -0.242241, 15.6046, 18.6295, 15.5432, 0.827819, 3.1235, -0.101552, 0.000973748, -0.00169046, -7.87078e-05, -0.000340389, 0.000181209, 4.63698e-05, -0.00152008, 0.0012759, 0.0029133, 0.00755121, 0.00352984, 0.0109751, -0.0111041, -0.444727, 0.63502, -3.13183, -0.0555855, -0.107594, -0.010199, -0.443004, 0.635176, -3.13215, -0.055923, -0.107898, 0.000974534, -0.000773089, -0.00217351, 0.00224504, 0.000530298, 0.000845244
0.0377854, 0.107598, -0.774131, -0.916012, -1.45624, -0.625078, 1.0704, -0.256749, 0.00218864, -0.000486175, 0.00427415, -0.000292442, 0.000292439, 0.00144121, -0.000946782, -0.317619, 15.6442, 18.5581, 15.5035, 0.822325, 3.13083, -0.0484509, 0.000976419, -0.00169136, -8.23391e-05, -0.000349857, 0.000183189, 3.09098e-05, -0.00160066, 0.00143989, 0.00358265, 0.00828603, 0.00185122, 0.0153177, -0.0111031, -0.444728, 0.635018, -3.13182, -0.0555884, -0.107602, -0.0101957, -0.443004, 0.635178, -3.13215, -0.0559496, -0.10791, 0.00105639, -0.000836713, -0.00235336, 0.00235553, 0.000627592, 0.00133972
0.0387854, 0.107606, -0.774124, -0.916011, -1.45624, -0.625078, 1.07041, -0.256742, 0.00322268, 0.00143253, 0.00388418, -0.00195404, 0.000184668, 0.00171066, 0.000856353, -0.392998, 15.5688, 18.5184, 15.5789, 0.822325, 3.11618, -0.0878186, 0.000983192, -0.00169156, -8.3673e-05, -0.000357275, 0.000169907, 2.86754e-05, -0.00279945, 0.00149164, 0.0032192, 0.0078284, 0.00507665, 0.0157333, -0.011102, -0.444729, 0.635016, -3.13182, -0.0555915, -0.107611, -0.0101879, -0.443004, 0.635177, -3.13215, -0.055956, -0.107898, 0.00114146, -0.000902674, -0.00253994, 0.00365882, 0.000658671, 0.000873309
0.0397854, 0.107605, -0.774129, -0.916017, -1.45624, -0.625078, 1.07041, -0.25675, 0.00131349, -0.000813165, 0.00174148, 0.000463658, 0.000115393, 0.00572905, -0.00133977, -0.357292, 15.6442, 18.5581, 15.5035, 0.822325, 3.1235, -0.0356336, 0.000977608, -0.00169037, -8.65e-05, -0.000365213, 0.000173527, 3.12018e-05, -0.000421838, 0.000260756, 0.00387444, 0.0116525, -0.000356359, 0.0138306, -0.0111008, -0.44473, 0.635013, -3.13181, -0.0555949, -0.10762, -0.0101924, -0.443007, 0.635177, -3.13215, -0.0559552, -0.107914, 0.00122973, -0.000970953, -0.00273321, 0.00137563, -0.00072905, 0.00116262
0.0407893, 0.107607, -0.774123, -0.916015, -1.45624, -0.625078, 1.07042, -0.256747, 0.00171107, 0.00121742, 0.00214904, -0.00145179, 7.11397e-05, 0.00405675, 0.000344106, -0.392998, 15.5688, 18.5184, 15.5789, 0.822325, 3.13083, -0.0685925, 0.000981164, -0.00169133, -8.93597e-05, -0.00037424, 0.000161362, 3.04536e-05, -0.0014841, 0.000866899, 0.0035265, 0.00994194, 0.0040553, 0.0145475, -0.0110996, -0.444731, 0.63501, -3.1318, -0.0555986, -0.10763, -0.0101879, -0.443007, 0.635177, -3.13216, -0.0559597, -0.107905, 0.00132119, -0.00104153, -0.00293311, 0.00252835, -0.000153505, 0.000692419
0.0417893, 0.107615, -0.774126, -0.916013, -1.45624, -0.625077, 1.07042, -0.256745, 0.0029041, -2.63873e-05, 0.00231294, -0.000130892, 0.000517803, 0.00281472, 4.48183e-06, -0.468376, 15.6046, 18.4827, 15.5432, 0.809508, 3.13815, -0.0621838, 0.000983028, -0.00169248, -9.37922e-05, -0.000383301, 0.000160293, 2.68374e-05, -0.00128791, 0.00111252, 0.00399666, 0.00975825, 0.00252923, 0.0164979, -0.0110982, -0.444732, 0.635007, -3.1318, -0.0556025, -0.107641, -0.010185, -0.443007, 0.635179, -3.13216, -0.0559689, -0.107915, 0.00141584, -0.00111438, -0.0031396, 0.00238638, 8.10265e-06, 0.000943018
0.0427893, 0.107616, -0.774128, -0.916015, -1.45624, -0.625076, 1.07042, -0.256743, 0.00193617, -1.96779e-05, 0.000740508, -0.00175638, 0.000545396, 0.00189132, 0.000249674, -0.468376, 15.6046, 18.5184, 15.6146, 0.804015, 3.14548, -0.0685925, 0.000982458, -0.00169238, -9.53393e-05, -0.000390768, 0.000155105, 2.95631e-05, -0.000522473, 0.00118437, 0.00322029, 0.0075188, 0.00440242, 0.0157192, -0.0110967, -0.444733, 0.635004, -3.13179, -0.0556067, -0.107652, -0.0101842, -0.443008, 0.635177, -3.13216, -0.0559686, -0.107919, 0.00151366, -0.0011895, -0.00335263, 0.00177165, -1.5444e-05, -9.67081e-05
0.0437893, 0.107623, -0.774124, -0.91601, -1.45624, -0.625074, 1.07043, -0.256742, 0.0030541, 0.000820535, 0.00228224, -0.00116994, 0.00127668, 0.000424307, 0.000410804, -0.543754, 15.5688, 18.443, 15.6146, 0.779296, 3.17386, -0.0750012, 0.000988223, -0.00169447, -0.000100504, -0.000402226, 0.000146611, 2.03807e-05, -0.00155024, 0.00186908, 0.00393077, 0.00767627, 0.00528563, 0.0187025, -0.0110952, -0.444734, 0.635, -3.13178, -0.0556111, -0.107664, -0.0101773, -0.443007, 0.635179, -3.13216, -0.0559869, -0.107918, 0.00161465, -0.00126685, -0.00357216, 0.00282416, 0.000621455, 0.000467531
0.0447925, 0.107624, -0.774125, -0.91601, -1.45624, -0.62507, 1.07043, -0.256748, 0.00120091, 0.000545849, 0.0023757, -0.000779218, 0.00200218, 0.00460567, -0.00165366, -0.508049, 15.5688, 18.4073, 15.6146, 0.748168, 3.18851, -0.0228162, 0.000987709, -0.00169566, -0.000104604, -0.00041167, 0.000143983, 1.521e-05, -0.00109784, 0.00131326, 0.00472273, 0.0118052, 0.00239789, 0.0199671, -0.0110935, -0.444735, 0.634997, -3.13177, -0.0556159, -0.107677, -0.0101765, -0.443007, 0.63518, -3.13217, -0.0559993, -0.107928, 0.00171879, -0.00134642, -0.00379814, 0.00244279, -3.64115e-05, 0.000997044
0.0457925, 0.107625, -0.774128, -0.916011, -1.45624, -0.625072, 1.07043, -0.25674, 0.000800653, -0.000472198, 0.00159805, 0.000316294, 0.00177422, 0.00280329, 0.00130899, -0.508049, 15.6046, 18.4073, 15.5789, 0.736266, 3.20956, -0.0878186, 0.000985259, -0.00169548, -0.000109527, -0.000426574, 0.000140947, 2.72904e-05, 0.000190611, 0.00147071, 0.00489007, 0.0108783, 0.00210628, 0.0161953, -0.0110917, -0.444737, 0.634993, -3.13176, -0.0556209, -0.107691, -0.0101775, -0.443009, 0.63518, -3.13217, -0.055985, -0.107938, 0.00182607, -0.00142819, -0.00403052, 0.00124834, -7.69102e-06, 0.000843959
0.0467925, 0.107625, -0.774129, -0.91601, -1.45624, -0.625067, 1.07044, -0.256746, 0.000533803, -0.000315459, 0.00191127, -0.000623939, 0.00209731, 0.00171088, -0.00105717, -0.508049, 15.6046, 18.3716, 15.6146, 0.711547, 3.22421, -0.0356336, 0.000985772, -0.00169699, -0.000113377, -0.000435631, 0.000135647, 2.07254e-05, 0.000107758, 0.00192497, 0.004855, 0.0099768, 0.00349801, 0.0200477, -0.0110899, -0.444738, 0.634989, -3.13175, -0.0556263, -0.107706, -0.0101754, -0.443009, 0.63518, -3.13217, -0.0560003, -0.107945, 0.00193648, -0.00151214, -0.00426926, 0.00142748, 0.000365497, 0.000578782
0.0477925, 0.107625, -0.774126, -0.916013, -1.45625, -0.625066, 1.07045, -0.256741, -0.000572125, 0.000624417, 0.00128219, -0.00134367, 0.00163479, 0.000886465, 0.000992855, -0.468376, 15.5688, 18.3716, 15.6543, 0.705138, 3.23886, -0.0814099, 0.000985283, -0.00169726, -0.000116873, -0.000446998, 0.000125452, 2.99037e-05, 0.000633422, 0.00208556, 0.00470335, 0.00929485, 0.00603301, 0.0174613, -0.0110879, -0.44474, 0.634984, -3.13174, -0.0556319, -0.107721, -0.0101742, -0.44301, 0.635179, -3.13217, -0.0559913, -0.107945, 0.00205002, -0.00159825, -0.00451432, 0.00102153, 0.000422633, 0.000147287
0.0487925, 0.107625, -0.774129, -0.916016, -1.45624, -0.625066, 1.07045, -0.256748, -0.00121662, -0.000419311, -0.00216858, 3.24757e-05, 0.000851924, -0.000243874, -0.00150658, -0.43267, 15.6046, 18.3716, 15.6146, 0.711547, 3.26724, -0.0228162, 0.000982025, -0.00169774, -0.00012109, -0.000457803, 0.000118497, 2.95883e-05, 0.00300034, 0.0015341, 0.00428102, 0.00767514, 0.0057631, 0.016531, -0.0110858, -0.444741, 0.63498, -3.13173, -0.0556379, -0.107738, -0.0101756, -0.443011, 0.635179, -3.13217, -0.0559973, -0.107951, 0.00216668, -0.00168649, -0.00476563, -0.00117304, -0.000296439, -0.000691734
0.0497925, 0.107626, -0.774129, -0.916017, -1.45625, -0.625065, 1.07046, -0.256737, -0.000811062, -0.000279819, -0.00392614, -0.00266943, 0.00100832, 0.00469478, 0.00140436, -0.43267, 15.6046, 18.332, 15.7297, 0.699645, 3.26724, -0.0878186, 0.000983059, -0.00169854, -0.000124634, -0.000470845, 0.000107945, 3.90632e-05, 0.00232602, 0.000570241, 0.00364918, 0.0097215, 0.00549371, 0.0150936, -0.0110835, -0.444743, 0.634975, -3.13172, -0.0556442, -0.107755, -0.0101727, -0.443012, 0.635177, -3.13218, -0.0559885, -0.107953, 0.00228643, -0.00177687, -0.00502317, -0.000303254, -0.00132082, -0.00153927
0.0507925, 0.107629, -0.774126, -0.916025, -1.45625, -0.625065, 1.07046, -0.256743, 0.000294521, 0.000648463, -0.00399478, -0.00177949, 0.00067189, 0.00313416, 0.00333498, -0.468376, 15.5688, 18.3716, 15.7297, 0.699645, 3.28097, -0.0292249, 0.000980943, -0.00169804, -0.000128132, -0.000480816, 9.55995e-05, 4.12188e-05, 0.00209487, 0.00083698, 0.00403489, 0.00949269, 0.00725782, 0.0145623, -0.0110812, -0.444745, 0.634969, -3.13171, -0.0556509, -0.107773, -0.0101727, -0.443015, 0.635176, -3.13217, -0.0559914, -0.107952, 0.00240928, -0.00186934, -0.00528689, 1.40191e-05, -0.00114201, -0.00140062
0.0517925, 0.107628, -0.774126, -0.916031, -1.45625, -0.625067, 1.07047, -0.256744, -0.000638863, 0.000432152, -0.0038354, -0.00202145, -0.000230486, 0.00691843, 0.0030794, -0.43267, 15.5688, 18.4073, 15.7654, 0.717955, 3.2883, -0.0420422, 0.000977304, -0.00169795, -0.000131511, -0.00049169, 8.17698e-05, 4.89542e-05, 0.00234998, 0.000212574, 0.00463722, 0.0137147, 0.00633691, 0.0146903, -0.0110787, -0.444747, 0.634964, -3.1317, -0.0556578, -0.107792, -0.0101741, -0.443017, 0.635173, -3.13217, -0.055986, -0.10795, 0.00253522, -0.00196389, -0.00555673, -0.000133442, -0.00187489, -0.00109111
0.0527925, 0.107634, -0.774126, -0.91603, -1.45625, -0.625069, 1.07047, -0.256739, 0.00133733, 0.000287984, -0.00420446, -0.000512338, 0.000320877, 0.0091788, 0.0033223, -0.508049, 15.5688, 18.332, 15.7297, 0.705138, 3.31027, -0.0685925, 0.000978157, -0.0016989, -0.000138936, -0.000511783, 7.16596e-05, 5.33536e-05, 0.0017124, -0.000251696, 0.00540979, 0.0164305, 0.0040646, 0.0166411, -0.0110761, -0.444749, 0.634958, -3.13168, -0.0556652, -0.107812, -0.0101712, -0.443018, 0.635175, -3.13218, -0.0559858, -0.107956, 0.00266423, -0.00206051, -0.00583265, 0.000594776, -0.00241985, -0.000555367
0.0537925, 0.107629, -0.774126, -0.916037, -1.45626, -0.625068, 1.07048, -0.256739, -0.000871676, 0.000191901, -0.0032557, -0.00201194, -0.000260937, 0.00675062, 0.00195467, -0.43267, 15.5688, 18.332, 15.8011, 0.717955, 3.31759, -0.0557752, 0.000973784, -0.00169883, -0.000141624, -0.000523016, 5.75207e-05, 6.41234e-05, 0.00258016, 0.000560399, 0.00536129, 0.0150739, 0.00694652, 0.0180531, -0.0110734, -0.444751, 0.634952, -3.13167, -0.0556729, -0.107834, -0.010173, -0.44302, 0.635172, -3.13218, -0.0559764, -0.107955, 0.0027963, -0.00215917, -0.00611461, -0.000164093, -0.00173719, -0.000940385
0.0547925, 0.107634, -0.774129, -0.916044, -1.45626, -0.625068, 1.07049, -0.25674, 0.000254104, -0.00070735, -0.00561077, -0.000506033, 0.000504107, 0.00494007, 0.00119273, -0.468376, 15.6046, 18.332, 15.7654, 0.699645, 3.324, -0.0484509, 0.000970698, -0.00169851, -0.000146881, -0.000537528, 4.86567e-05, 7.00741e-05, 0.00358097, 0.000484677, 0.00521977, 0.012922, 0.00591747, 0.0187964, -0.0110705, -0.444753, 0.634946, -3.13166, -0.0556809, -0.107856, -0.0101736, -0.443023, 0.63517, -3.13218, -0.0559746, -0.107964, 0.00293143, -0.00225986, -0.00640257, -0.00101443, -0.00194766, -0.001439
0.0557925, 0.107637, -0.774126, -0.91605, -1.45626, -0.625069, 1.07049, -0.256743, 0.000169405, 0.000363602, -0.00654812, -0.00117254, 0.000335994, 0.00380114, -3.36161e-05, -0.468376, 15.5688, 18.2963, 15.8011, 0.699645, 3.324, -0.0228162, 0.000969179, -0.00169815, -0.000152361, -0.000554922, 3.3768e-05, 7.43143e-05, 0.00372252, 0.000667106, 0.00499315, 0.0117027, 0.00857295, 0.0205632, -0.0110675, -0.444756, 0.63494, -3.13164, -0.0556894, -0.107879, -0.0101725, -0.443026, 0.635169, -3.13218, -0.0559759, -0.107965, 0.00306961, -0.00236255, -0.00669647, -0.00100842, -0.00187113, -0.00196763
0.0567925, 0.107635, -0.774129, -0.916062, -1.45625, -0.625069, 1.0705, -0.256742, 0.00244629, -0.000592854, -0.00584624, 5.35465e-05, 0.000461297, 0.00291491, 0.00152615, -0.43267, 15.6046, 18.332, 15.7654, 0.693236, 3.324, -0.0621838, 0.000961467, -0.00169718, -0.000157439, -0.000568674, 2.51234e-05, 9.27524e-05, 0.00322403, 0.00093396, 0.00569249, 0.0123908, 0.00757014, 0.0223418, -0.0110644, -0.444758, 0.634933, -3.13162, -0.0556982, -0.107903, -0.0101773, -0.443029, 0.635167, -3.13218, -0.0559555, -0.107977, 0.00321082, -0.00246723, -0.00699628, -0.000427869, -0.00169783, -0.00153377
0.0577925, 0.107636, -0.774126, -0.916069, -1.45625, -0.625069, 1.07051, -0.256744, 0.00189491, 0.000439954, -0.00665577, 3.57153e-05, 7.01288e-05, 0.00704899, 0.000576682, -0.43267, 15.5688, 18.2963, 15.7654, 0.699645, 3.324, -0.0484509, 0.000958145, -0.00169692, -0.000163636, -0.000587404, 9.36587e-06, 0.000101242, 0.0031662, 0.000133271, 0.00618957, 0.0163205, 0.00728209, 0.0230674, -0.0110611, -0.444761, 0.634926, -3.13161, -0.0557074, -0.107928, -0.0101778, -0.443032, 0.635166, -3.13219, -0.0559509, -0.107978, 0.00335505, -0.00257388, -0.00730195, -0.000231562, -0.00260711, -0.00134472
0.0587925, 0.107638, -0.774124, -0.91608, -1.45626, -0.625068, 1.07052, -0.256738, 0.00459494, 0.0011285, -0.00743946, 2.38234e-05, 0.000521438, 0.00504395, 0.0014187, -0.43267, 15.5331, 18.2606, 15.7654, 0.686827, 3.33133, -0.0750012, 0.000955023, -0.00169627, -0.000168169, -0.000601557, -7.13521e-06, 0.000117587, 0.00226006, 0.00045858, 0.00604957, 0.0143583, 0.00913098, 0.0256869, -0.0110577, -0.444763, 0.634918, -3.13159, -0.055717, -0.107955, -0.0101778, -0.443036, 0.635163, -3.13218, -0.0559346, -0.10798, 0.0035023, -0.00268248, -0.00761342, 0.000816978, -0.00235754, -0.00173134
0.0597925, 0.10764, -0.774124, -0.916096, -1.45625, -0.625066, 1.07052, -0.256743, 0.00568842, 0.000752317, -0.00969123, 1.58921e-05, -0.000127117, 0.00433317, -0.000948798, -0.392998, 15.5331, 18.2963, 15.7654, 0.699645, 3.31759, -0.0228162, 0.000948941, -0.0016948, -0.000172697, -0.000614641, -1.98621e-05, 0.000128357, 0.00294084, 0.000158278, 0.00562299, 0.0130988, 0.0101624, 0.0282877, -0.0110541, -0.444766, 0.63491, -3.13157, -0.055727, -0.107982, -0.0101805, -0.44304, 0.635159, -3.13218, -0.0559274, -0.107988, 0.00365255, -0.002793, -0.00793067, 0.000328464, -0.00278851, -0.00252308
0.0607925, 0.107644, -0.774124, -0.916113, -1.45625, -0.625065, 1.07053, -0.256741, 0.00436149, 0.000501533, -0.0103435, 0.00084582, 0.000152596, 0.00763094, 0.00010818, -0.392998, 15.5331, 18.2963, 15.7297, 0.693236, 3.324, -0.0420422, 0.000943045, -0.00169315, -0.000176923, -0.000627017, -3.37569e-05, 0.000145999, 0.00370689, -0.000437621, 0.00634407, 0.0165789, 0.00796686, 0.0263047, -0.0110504, -0.444769, 0.634902, -3.13155, -0.0557374, -0.108011, -0.0101829, -0.443045, 0.635155, -3.13217, -0.0559099, -0.107995, 0.0038058, -0.00290544, -0.00825364, -0.000310356, -0.00353001, -0.00218348
0.0617925, 0.10765, -0.774124, -0.916127, -1.45625, -0.625069, 1.07054, -0.256738, 0.00426258, 0.0072606, -0.0131215, 0.000563886, -0.000339093, 0.00519068, 0.000839581, -0.43267, 15.5331, 18.2606, 15.7297, 0.705138, 3.33865, -0.0621838, 0.000937459, -0.00169208, -0.000182225, -0.000642098, -5.4086e-05, 0.00016213, 0.0030104, -0.000298397, 0.00584135, 0.0138822, 0.0170784, 0.0244653, -0.0110465, -0.444772, 0.634894, -3.13154, -0.0557483, -0.10804, -0.010185, -0.443049, 0.635151, -3.13217, -0.0558952, -0.107994, 0.00396204, -0.00301977, -0.00858229, 0.000569736, -0.00347629, -0.00296475
0.0627925, 0.107653, -0.774124, -0.91614, -1.45625, -0.625065, 1.07055, -0.256738, 0.00536873, 0.00541758, -0.0120853, 0.000375928, 0.000214737, 0.00421616, 0.000575827, -0.392998, 15.5331, 18.2209, 15.7297, 0.693236, 3.33133, -0.0621838, 0.00093303, -0.00169153, -0.000187622, -0.000657543, -6.88046e-05, 0.000174032, 0.00283772, 0.000209366, 0.00623509, 0.013813, 0.0158585, 0.0282129, -0.0110424, -0.444775, 0.634885, -3.13152, -0.0557596, -0.108071, -0.0101857, -0.443053, 0.635148, -3.13217, -0.0558874, -0.108003, 0.00412125, -0.00313597, -0.00891658, 0.000855727, -0.00308262, -0.0028911
0.0637925, 0.107654, -0.774124, -0.916156, -1.45625, -0.625069, 1.07056, -0.256737, 0.00324531, 0.00404461, -0.011454, 0.000250622, -0.000297659, 0.00368273, 0.000870683, -0.357292, 15.5331, 18.1852, 15.7297, 0.705138, 3.31759, -0.0750012, 0.000925702, -0.00168952, -0.000193193, -0.000677396, -8.8589e-05, 0.000194596, 0.00425505, 0.000529137, 0.00669285, 0.0146374, 0.015658, 0.0273479, -0.0110382, -0.444778, 0.634876, -3.13149, -0.0557713, -0.108103, -0.0101892, -0.443059, 0.635144, -3.13217, -0.0558664, -0.108005, 0.00428343, -0.00325403, -0.00925645, -0.000438227, -0.0029354, -0.00287021
0.0647925, 0.10766, -0.774119, -0.916174, -1.45625, -0.625068, 1.07057, -0.256743, 0.00253957, 0.00394909, -0.0150286, 0.00285834, 0.000242364, 0.00249029, -0.00158062, -0.357292, 15.4935, 18.1852, 15.6146, 0.693236, 3.324, -0.0164075, 0.00091975, -0.00168675, -0.000200932, -0.000699862, -0.000104857, 0.000208066, 0.00644437, 9.68402e-05, 0.0067397, 0.0132407, 0.0146963, 0.0265607, -0.0110339, -0.444781, 0.634867, -3.13147, -0.0557834, -0.108137, -0.0101912, -0.443065, 0.635142, -3.13217, -0.0558568, -0.108014, 0.00444857, -0.00337392, -0.00960188, -0.00244368, -0.00356519, -0.00332309
0.0657925, 0.107661, -0.774121, -0.916198, -1.45625, -0.625069, 1.07058, -0.256735, 0.00333443, 0.00194821, -0.0176774, 0.000142325, -7.57871e-05, 0.00707573, 0.0015979, -0.281914, 15.5331, 18.1852, 15.69, 0.699645, 3.31027, -0.0878186, 0.000909709, -0.00168428, -0.000203961, -0.000711781, -0.000125096, 0.000239373, 0.00670533, -0.00105281, 0.00582505, 0.0146067, 0.0130115, 0.0246898, -0.0110293, -0.444785, 0.634857, -3.13145, -0.055796, -0.108171, -0.0101968, -0.443071, 0.635134, -3.13216, -0.0558203, -0.108018, 0.00461665, -0.00349563, -0.0099528, -0.00243172, -0.00483696, -0.00461217
0.0667925, 0.107669, -0.774115, -0.916213, -1.45624, -0.625068, 1.07059, -0.256742, 0.0057716, 0.00324467, -0.0178865, 0.00185812, 0.00042419, 0.00959017, 0.0034997, -0.281914, 15.4578, 18.1098, 15.6146, 0.686827, 3.31759, -0.0292249, 0.000906575, -0.00168274, -0.000212713, -0.000735828, -0.000144475, 0.000246427, 0.00543523, -0.00150201, 0.00685033, 0.0180098, 0.0120593, 0.0257265, -0.0110246, -0.444788, 0.634847, -3.13143, -0.055809, -0.108207, -0.0101958, -0.443077, 0.635133, -3.13216, -0.0558215, -0.108024, 0.00478767, -0.00361914, -0.0103092, -0.00104905, -0.00537394, -0.00386107
0.0677925, 0.107681, -0.774115, -0.916234, -1.45624, -0.625067, 1.0706, -0.256743, 0.012486, 0.00882434, -0.0159351, 0.00207397, 0.00052015, 0.00799937, 0.00248289, -0.357292, 15.4578, 18.0741, 15.5789, 0.680419, 3.29562, -0.0228162, 0.000902122, -0.00167975, -0.000218932, -0.000755913, -0.000161338, 0.000258953, 0.000482943, -0.000754774, 0.00770286, 0.018628, 0.0186688, 0.0361841, -0.0110198, -0.444792, 0.634836, -3.1314, -0.0558225, -0.108244, -0.0101957, -0.443083, 0.635128, -3.13216, -0.0558148, -0.108036, 0.00496161, -0.00374443, -0.010671, 0.00397655, -0.00458545, -0.00302513
0.0687925, 0.10768, -0.774111, -0.916255, -1.45624, -0.62507, 1.07061, -0.256741, 0.00892821, 0.00652931, -0.0174445, 0.00138265, -0.000365312, 0.00565574, 0.00242031, -0.206535, 15.4578, 18.0344, 15.5789, 0.699645, 3.30295, -0.0356336, 0.000893328, -0.00167771, -0.000224983, -0.000776915, -0.0001887, 0.000285995, 0.00366272, -0.000502237, 0.0072579, 0.0164389, 0.0192398, 0.032827, -0.0110147, -0.444796, 0.634825, -3.13138, -0.0558365, -0.108282, -0.0101998, -0.44309, 0.635123, -3.13216, -0.0557861, -0.108033, 0.00513848, -0.00387148, -0.0110382, 0.00100468, -0.00456865, -0.00405458
0.0697925, 0.107692, -0.77411, -0.91628, -1.45624, -0.625068, 1.07062, -0.256736, 0.0118575, 0.00836876, -0.0205392, 0.00175698, 0.000231175, 0.00864734, 0.00352671, -0.281914, 15.4578, 18.0741, 15.5432, 0.686827, 3.31027, -0.0814099, 0.000887356, -0.00167482, -0.00023097, -0.000793811, -0.000209013, 0.000308047, 0.00259723, -0.001499, 0.00711683, 0.0176327, 0.0195476, 0.0337449, -0.0110095, -0.4448, 0.634814, -3.13135, -0.055851, -0.108322, -0.0102008, -0.443097, 0.635117, -3.13215, -0.0557656, -0.108042, 0.00531825, -0.00400028, -0.0114107, 0.00229204, -0.00565482, -0.00450079
0.0707925, 0.107691, -0.774107, -0.916299, -1.45624, -0.625069, 1.07064, -0.256741, 0.00622382, 0.00623704, -0.0200168, -0.000499114, -8.32433e-05, 0.00730475, 0.000819033, -0.166862, 15.4578, 17.9987, 15.6146, 0.693236, 3.2883, -0.0356336, 0.000879007, -0.00167345, -0.000237171, -0.000814824, -0.000236857, 0.000326136, 0.00545175, -0.000810263, 0.00694055, 0.0166686, 0.0202731, 0.0336259, -0.0110041, -0.444804, 0.634803, -3.13133, -0.0558659, -0.108363, -0.0102042, -0.443103, 0.635111, -3.13215, -0.0557517, -0.10804, 0.00550092, -0.0041308, -0.0117885, -0.000383901, -0.00519657, -0.00524764
0.0717925, 0.107697, -0.774104, -0.916332, -1.45624, -0.62507, 1.07065, -0.256738, 0.00407156, 0.00548664, -0.0264206, 0.00133769, -0.000292855, 0.00487184, 0.000668507, -0.131157, 15.4221, 18.0741, 15.5432, 0.699645, 3.30295, -0.0356336, 0.000867637, -0.00166906, -0.000242634, -0.000832051, -0.000261239, 0.000360464, 0.00952501, -0.00156706, 0.00589796, 0.012398, 0.0205256, 0.0271132, -0.0109985, -0.444808, 0.634791, -3.1313, -0.0558813, -0.108405, -0.0102101, -0.443112, 0.635104, -3.13214, -0.0557132, -0.108045, 0.00568647, -0.00426302, -0.0121715, -0.00416032, -0.00621983, -0.00695815
0.0727925, 0.107709, -0.774104, -0.91635, -1.45624, -0.625068, 1.07066, -0.256736, 0.00734345, 0.00319259, -0.0265667, 0.00181982, 0.00027948, 0.00876799, 0.0019956, -0.166862, 15.4578, 17.959, 15.5035, 0.686827, 3.2883, -0.0750012, 0.000863614, -0.00166702, -0.000252003, -0.0008603, -0.000280214, 0.00037514, 0.00855739, -0.00226004, 0.00656237, 0.0160562, 0.0160914, 0.0303949, -0.0109927, -0.444812, 0.634778, -3.13127, -0.0558972, -0.108449, -0.010209, -0.443118, 0.635101, -3.13214, -0.0557053, -0.108061, 0.00587491, -0.00439694, -0.0125597, -0.00302829, -0.00701838, -0.0066215
0.0737925, 0.107718, -0.774101, -0.916378, -1.45623, -0.62507, 1.07068, -0.256739, 0.00475536, 0.00574672, -0.0271996, 0.00204843, -0.000288398, 0.0109674, 0.000687219, -0.131157, 15.4578, 17.9987, 15.4678, 0.699645, 3.29562, -0.0557752, 0.000855076, -0.00166331, -0.000258699, -0.000882257, -0.000306975, 0.000396899, 0.00920954, -0.002592, 0.00722324, 0.0190625, 0.0183711, 0.0296905, -0.0109867, -0.444817, 0.634765, -3.13124, -0.0559137, -0.108494, -0.0102119, -0.443127, 0.635094, -3.13213, -0.0556871, -0.108065, 0.00606621, -0.00453252, -0.0129531, -0.003521, -0.00751512, -0.00640341
0.0747925, 0.107726, -0.774102, -0.916403, -1.45624, -0.625067, 1.07069, -0.256738, 0.00682514, 0.00697342, -0.0258067, 0.000530401, 0.000519811, 0.0130373, 0.000747178, -0.131157, 15.4935, 17.959, 15.5035, 0.680419, 3.29562, -0.0621838, 0.000847575, -0.00166091, -0.000265223, -0.000903499, -0.000330162, 0.000416266, 0.00694182, -0.0023912, 0.0077299, 0.0212719, 0.0194306, 0.0353848, -0.0109806, -0.444821, 0.634752, -3.13121, -0.0559306, -0.108541, -0.0102136, -0.443134, 0.635087, -3.13213, -0.0556732, -0.108077, 0.00626038, -0.00466976, -0.0133516, -0.00110838, -0.00737641, -0.00613819
0.0757925, 0.107732, -0.77409, -0.916435, -1.45623, -0.62507, 1.07071, -0.256742, 0.00657992, 0.00781043, -0.0298735, 0.00211684, -0.000365536, 0.0150169, -0.00068383, -0.0557783, 15.3864, 17.9987, 15.4282, 0.699645, 3.28097, -0.0292249, 0.000838813, -0.00165655, -0.000273468, -0.000930303, -0.000365553, 0.000444733, 0.00856031, -0.00356519, 0.00768595, 0.0225024, 0.0196506, 0.0337143, -0.0109742, -0.444826, 0.634739, -3.13118, -0.055948, -0.108588, -0.0102164, -0.443143, 0.635081, -3.13212, -0.0556455, -0.108071, 0.00645739, -0.00480863, -0.0137552, -0.00247987, -0.00874568, -0.00670619
0.0767925, 0.107742, -0.774089, -0.916461, -1.45623, -0.62507, 1.07072, -0.256737, 0.00513739, 0.00569882, -0.0309207, 0.00141123, -0.000243691, 0.010672, 0.0012686, -0.0557783, 15.3864, 17.959, 15.4282, 0.699645, 3.29562, -0.0750012, 0.0008314, -0.0016542, -0.00028123, -0.000953632, -0.000394583, 0.000470317, 0.0106335, -0.00277957, 0.00717717, 0.0183746, 0.020708, 0.0314458, -0.0109676, -0.444831, 0.634725, -3.13115, -0.055966, -0.108638, -0.0102177, -0.443151, 0.635074, -3.13212, -0.0556229, -0.108076, 0.00665724, -0.00494912, -0.0141638, -0.00434012, -0.00817009, -0.00776131
0.0777925, 0.107751, -0.774089, -0.916484, -1.45623, -0.62507, 1.07074, -0.256741, 0.00621217, 0.0033329, -0.0279472, 0.000940817, -0.000162461, 0.00801718, -0.00035317, -0.0161054, 15.4221, 17.8876, 15.4282, 0.699645, 3.29562, -0.0420422, 0.000824164, -0.00165153, -0.000290444, -0.00098342, -0.000420588, 0.000486825, 0.0102589, -0.00160976, 0.00795095, 0.0182688, 0.0203778, 0.0382054, -0.0109609, -0.444836, 0.63471, -3.13111, -0.0559845, -0.108688, -0.0102188, -0.443159, 0.635069, -3.13212, -0.0556146, -0.108088, 0.00685993, -0.0050912, -0.0145774, -0.00385985, -0.00713743, -0.00736944
0.0787925, 0.107764, -0.774081, -0.916518, -1.45623, -0.62507, 1.07075, -0.256735, 0.00886734, 0.00672045, -0.0313697, -0.000300808, -0.000311758, 0.00629292, 0.00147632, -0.0557783, 15.3864, 17.9233, 15.4678, 0.705138, 3.2883, -0.0878186, 0.000818044, -0.00164754, -0.000296526, -0.00100571, -0.00045849, 0.000514651, 0.00928137, -0.0017412, 0.00692074, 0.0148219, 0.0263019, 0.0385123, -0.0109539, -0.444841, 0.634696, -3.13108, -0.0560035, -0.108741, -0.0102182, -0.443169, 0.63506, -3.13211, -0.0555897, -0.108082, 0.00706543, -0.00523486, -0.0149959, -0.00260393, -0.00736855, -0.00874905
0.0797925, 0.107771, -0.774077, -0.916547, -1.45623, -0.625072, 1.07077, -0.25674, 0.0080785, 0.00497003, -0.0327809, 0.0015627, -0.000886007, 0.00967118, -0.000461584, 0.0196001, 15.3864, 17.9233, 15.3925, 0.723448, 3.28097, -0.0484509, 0.000807724, -0.00164355, -0.000306254, -0.00103769, -0.000489245, 0.000540578, 0.0109312, -0.0026713, 0.00778218, 0.0188801, 0.0227228, 0.038914, -0.0109468, -0.444846, 0.63468, -3.13105, -0.0560231, -0.108794, -0.0102219, -0.443178, 0.635053, -3.13211, -0.0555678, -0.108089, 0.00727374, -0.00538009, -0.0154193, -0.0040668, -0.00851016, -0.0084347
0.0807925, 0.107786, -0.774076, -0.916578, -1.45623, -0.625075, 1.07079, -0.256734, 0.0135161, 0.00538846, -0.0340364, 0.0010418, -0.000387221, 0.0113102, 0.000684819, -0.0161054, 15.4578, 17.9233, 15.3925, 0.717955, 3.29562, -0.0750012, 0.000799489, -0.00163946, -0.000314872, -0.0010665, -0.000520277, 0.00056961, 0.00860293, -0.00309866, 0.00770042, 0.0194639, 0.0229622, 0.0443136, -0.0109394, -0.444852, 0.634665, -3.13101, -0.0560432, -0.10885, -0.0102232, -0.443188, 0.635046, -3.1321, -0.0555418, -0.108097, 0.00748486, -0.00552686, -0.0158476, -0.00151363, -0.00900107, -0.00878603
0.0817925, 0.107798, -0.77408, -0.916602, -1.45623, -0.625076, 1.07081, -0.256738, 0.00934541, 0.00155084, -0.0291951, 0.00152975, -0.000461598, 0.0139418, -0.00123198, 0.0196001, 15.5688, 17.8122, 15.3568, 0.723448, 3.27456, -0.0292249, 0.000791605, -0.00163629, -0.000326134, -0.00110369, -0.000545128, 0.000585289, 0.0100691, -0.00249207, 0.00989024, 0.0260267, 0.017901, 0.047069, -0.0109318, -0.444858, 0.634649, -3.13097, -0.0560639, -0.108906, -0.0102242, -0.443197, 0.635041, -3.1321, -0.0555367, -0.108117, 0.00769877, -0.00567515, -0.0162807, -0.00293529, -0.00861628, -0.00713295
0.0827925, 0.107807, -0.774075, -0.916637, -1.45622, -0.625075, 1.07083, -0.256733, 0.00932936, 0.00145164, -0.0333423, 0.00194785, -0.00078245, 0.0152285, 0.000641917, 0.059273, 15.5688, 17.8876, 15.3171, 0.736266, 3.27456, -0.0685925, 0.000781235, -0.00163208, -0.000335347, -0.00113303, -0.00057876, 0.000621563, 0.0116347, -0.00343337, 0.00940046, 0.0256843, 0.0179212, 0.043258, -0.010924, -0.444863, 0.634632, -3.13094, -0.0560851, -0.108965, -0.0102272, -0.443208, 0.635033, -3.1321, -0.0555006, -0.108125, 0.00791545, -0.00582496, -0.0167186, -0.00421176, -0.00975813, -0.00817555
0.0837925, 0.107821, -0.774069, -0.916668, -1.45622, -0.625073, 1.07085, -0.256734, 0.0102494, 0.00128107, -0.0302528, 0.00129857, -0.000284274, 0.0201309, -4.28936e-05, 0.059273, 15.5688, 17.848, 15.3171, 0.729857, 3.29562, -0.0557752, 0.000775111, -0.00162864, -0.000346095, -0.00116632, -0.000613351, 0.00064257, 0.00971594, -0.0034924, 0.0109335, 0.0321175, 0.0158055, 0.0494139, -0.010916, -0.444869, 0.634615, -3.1309, -0.0561069, -0.109025, -0.010226, -0.443217, 0.635026, -3.13209, -0.0554885, -0.108132, 0.00813491, -0.00597625, -0.0171612, -0.00218393, -0.00991542, -0.00695622
0.0847925, 0.107834, -0.77406, -0.916705, -1.45622, -0.625077, 1.07087, -0.256733, 0.0133245, 0.00108903, -0.0339739, 0.00170093, -0.000426875, 0.0245266, 0.000449032, 0.0949785, 15.5688, 17.9233, 15.2814, 0.736266, 3.29562, -0.0685925, 0.000765661, -0.00162278, -0.000356094, -0.00120215, -0.000653111, 0.000676722, 0.00944478, -0.00497416, 0.0107457, 0.0344436, 0.0140555, 0.0505235, -0.0109077, -0.444875, 0.634598, -3.13086, -0.0561293, -0.109086, -0.0102277, -0.44323, 0.635018, -3.13209, -0.0554566, -0.108133, 0.00835714, -0.00612902, -0.0176085, -0.00162521, -0.0115381, -0.00758296
0.0857925, 0.10785, -0.774057, -0.916733, -1.45622, -0.625076, 1.07089, -0.256737, 0.0132627, -0.0016962, -0.0308064, 0.000298736, -0.000725393, 0.027561, -0.00115652, 0.0949785, 15.6799, 17.8876, 15.3171, 0.748168, 3.30295, -0.0292249, 0.000760672, -0.00162042, -0.000367192, -0.0012367, -0.000690576, 0.00068985, 0.00893293, -0.00475201, 0.0118506, 0.0391406, 0.0113717, 0.0567218, -0.0108992, -0.444881, 0.63458, -3.13082, -0.0561522, -0.109149, -0.0102249, -0.443239, 0.635011, -3.13209, -0.0554579, -0.10814, 0.00858211, -0.00628324, -0.0180604, -0.000975047, -0.0114633, -0.00689605
0.0867925, 0.107856, -0.774054, -0.916764, -1.45622, -0.625075, 1.07091, -0.256736, 0.00734453, -0.00266906, -0.0293175, 0.0019624, -0.000246236, 0.0251307, 0.000688682, 0.21003, 15.7513, 17.8876, 15.2417, 0.741759, 3.31027, -0.0685925, 0.000748845, -0.00161703, -0.000379872, -0.00127525, -0.000723484, 0.000724451, 0.0120615, -0.0037681, 0.0131836, 0.0399512, 0.0107064, 0.0511597, -0.0108905, -0.444888, 0.634562, -3.13078, -0.0561758, -0.109214, -0.0102288, -0.443249, 0.635005, -3.13209, -0.0554263, -0.108155, 0.00880983, -0.00643891, -0.018517, -0.00399484, -0.0107603, -0.00623487
0.0877925, 0.107876, -0.774047, -0.916802, -1.45622, -0.625074, 1.07094, -0.256733, 0.0129897, -0.00260826, -0.0309059, 0.00130826, 3.9293e-05, 0.0234625, 0.000697708, 0.170357, 15.791, 17.9987, 15.2417, 0.736266, 3.31759, -0.0750012, 0.000743028, -0.00161235, -0.000389824, -0.00130881, -0.000763708, 0.000749587, 0.0102386, -0.00367755, 0.0126892, 0.0375014, 0.0125684, 0.0577351, -0.0108816, -0.444894, 0.634543, -3.13073, -0.0561999, -0.10928, -0.0102263, -0.44326, 0.634995, -3.13208, -0.0554102, -0.10816, 0.00904028, -0.00659599, -0.0189781, -0.00191647, -0.010758, -0.00706194
0.0887925, 0.107889, -0.77404, -0.916835, -1.45623, -0.625077, 1.07096, -0.256735, 0.017611, -0.00249971, -0.0300156, -0.000891062, 2.61953e-05, 0.0225466, -0.000517285, 0.245735, 15.8267, 18.0344, 15.3171, 0.736266, 3.31027, -0.0484509, 0.000735817, -0.00160827, -0.000400241, -0.00134692, -0.000810659, 0.000773391, 0.00771528, -0.00315207, 0.0125312, 0.0366524, 0.0152187, 0.0670685, -0.0108725, -0.444901, 0.634524, -3.13069, -0.0562246, -0.109348, -0.0102249, -0.443272, 0.634986, -3.13208, -0.0553966, -0.108157, 0.00927346, -0.00675447, -0.0194438, 0.000823815, -0.0103008, -0.00750563
0.0897925, 0.107898, -0.774033, -0.916869, -1.45622, -0.625075, 1.07099, -0.256731, 0.017013, -0.00244593, -0.0317344, 0.0011692, -0.000185987, 0.0263582, 0.0011139, 0.360787, 15.8624, 18.0344, 15.2417, 0.741759, 3.31027, -0.0878186, 0.000725331, -0.00160388, -0.000414719, -0.00139226, -0.000847071, 0.000812338, 0.00877786, -0.00413985, 0.0135128, 0.0410391, 0.0128969, 0.0641004, -0.0108631, -0.444908, 0.634504, -3.13064, -0.0562499, -0.109417, -0.0102269, -0.443283, 0.63498, -3.13208, -0.0553598, -0.108172, 0.00950935, -0.00691434, -0.0199139, -3.26815e-05, -0.0114958, -0.00707865
0.0907925, 0.107911, -0.774029, -0.9169, -1.45622, -0.625075, 1.07101, -0.256734, 0.0184881, -0.000744109, -0.0331788, 0.000779464, -0.000123991, 0.0287704, -0.000443679, 0.400459, 15.9735, 18.0344, 15.2417, 0.741759, 3.31759, -0.0557752, 0.000717461, -0.00160088, -0.000428507, -0.00143508, -0.00088684, 0.000834032, 0.00792303, -0.0046542, 0.0137018, 0.0428846, 0.014322, 0.0679992, -0.0108534, -0.444915, 0.634484, -3.1306, -0.0562758, -0.109488, -0.010226, -0.443294, 0.634973, -3.13208, -0.0553505, -0.108184, 0.00974794, -0.00707558, -0.0203885, 0.00106305, -0.0121432, -0.00730926
0.0917925, 0.107927, -0.774022, -0.916942, -1.45621, -0.625074, 1.07104, -0.256733, 0.0196037, -0.00194102, -0.0376771, 0.0031181, -8.26609e-05, 0.0260722, 0.00017932, 0.436165, 16.0489, 18.1852, 15.1306, 0.741759, 3.324, -0.0685925, 0.000705882, -0.0015954, -0.000441901, -0.00147562, -0.000927087, 0.000871826, 0.0102081, -0.00505638, 0.0133158, 0.0397035, 0.0138123, 0.0656386, -0.0108436, -0.444922, 0.634463, -3.13055, -0.0563023, -0.109561, -0.0102285, -0.443307, 0.634965, -3.13208, -0.0553168, -0.108196, 0.00998923, -0.00723817, -0.0208674, -0.000932717, -0.012786, -0.00833689
0.0927927, 0.107943, -0.774012, -0.916973, -1.45621, -0.625076, 1.07106, -0.256736, 0.017201, -0.00189051, -0.037394, 0.00207873, -0.000529825, 0.0287458, -0.00110087, 0.475838, 16.0846, 18.1852, 15.1306, 0.754576, 3.33133, -0.0356336, 0.000700514, -0.00159205, -0.000456, -0.00152152, -0.000977227, 0.000892421, 0.0109539, -0.00523259, 0.0138887, 0.0429185, 0.0141752, 0.0668321, -0.0108335, -0.444929, 0.634442, -3.1305, -0.0563295, -0.109636, -0.0102246, -0.443318, 0.634958, -3.13208, -0.0553104, -0.108195, 0.0102332, -0.00740209, -0.0213508, -0.00146635, -0.0131591, -0.00830311
0.0937927, 0.107957, -0.774007, -0.917005, -1.45621, -0.625077, 1.07108, -0.256733, 0.0186183, 0.000480517, -0.0341338, 0.00138582, -0.000794026, 0.030467, 0.000487012, 0.511544, 16.16, 18.1852, 15.1306, 0.766478, 3.34598, -0.0685925, 0.000691333, -0.00158971, -0.000470993, -0.00156478, -0.00102444, 0.000924229, 0.00848659, -0.00470643, 0.0153002, 0.0472569, 0.0168616, 0.071159, -0.0108231, -0.444937, 0.634421, -3.13045, -0.0563573, -0.109712, -0.0102244, -0.443328, 0.634951, -3.13208, -0.0552873, -0.108199, 0.0104799, -0.00756732, -0.0218384, 0.00112185, -0.0127255, -0.00720665
0.0947927, 0.107978, -0.773995, -0.917047, -1.45622, -0.625077, 1.07111, -0.256739, 0.0173569, 0.00687838, -0.0335361, -4.13885e-06, -0.000529351, 0.0229279, -0.0018453, 0.511544, 16.1957, 18.2606, 15.1703, 0.766478, 3.34598, -0.00999879, 0.000685985, -0.00158447, -0.00048285, -0.00160719, -0.0010777, 0.00094379, 0.00756964, -0.00275058, 0.0151598, 0.0417379, 0.0283975, 0.0753165, -0.0108125, -0.444944, 0.634399, -3.1304, -0.0563857, -0.10979, -0.0102199, -0.443341, 0.63494, -3.13207, -0.0552838, -0.108197, 0.0107292, -0.00773386, -0.0223304, 0.0022235, -0.0109043, -0.00776033
0.0957927, 0.107993, -0.77399, -0.917083, -1.45622, -0.62508, 1.07114, -0.256734, 0.01864, 0.00625542, -0.0320243, -2.75923e-06, -0.00126843, 0.0221075, 0.000702702, 0.551216, 16.3068, 18.2963, 15.1703, 0.791197, 3.33865, -0.0621838, 0.00067643, -0.00157992, -0.000497965, -0.00165775, -0.00112505, 0.000980891, 0.00714752, -0.0022586, 0.0159663, 0.0431584, 0.0293762, 0.0766668, -0.0108016, -0.444952, 0.634376, -3.13035, -0.0564147, -0.10987, -0.0102195, -0.443354, 0.634932, -3.13208, -0.0552535, -0.108205, 0.0109812, -0.00790168, -0.0228265, 0.00282135, -0.0105744, -0.00741925
0.0967927, 0.108001, -0.773979, -0.917125, -1.45622, -0.625079, 1.07116, -0.256739, 0.0137493, 0.00761626, -0.0380582, -1.83949e-06, -0.00060826, 0.0246522, -0.00122686, 0.701973, 16.3425, 18.3716, 15.1703, 0.784789, 3.37436, -0.0164075, 0.000662993, -0.00157652, -0.000511631, -0.00169782, -0.00118007, 0.0010174, 0.0106504, -0.0034741, 0.015194, 0.0425736, 0.0298902, 0.0712699, -0.0107905, -0.44496, 0.634353, -3.1303, -0.0564444, -0.109952, -0.0102227, -0.443366, 0.634922, -3.13207, -0.0552251, -0.108203, 0.0112358, -0.00807076, -0.0233269, -0.000318565, -0.0120763, -0.00894596
0.0977927, 0.108019, -0.773974, -0.917163, -1.45622, -0.625079, 1.07119, -0.256734, 0.0129657, 0.00690091, -0.0414432, -1.22633e-06, -0.000405506, 0.0235755, 0.000877583, 0.737679, 16.4536, 18.4073, 15.1703, 0.784789, 3.36703, -0.0621838, 0.000654153, -0.00157231, -0.000527011, -0.00174655, -0.00122776, 0.0010514, 0.0125941, -0.00372264, 0.0146565, 0.040346, 0.0304141, 0.0677516, -0.0107792, -0.444968, 0.634329, -3.13025, -0.0564747, -0.110035, -0.0102211, -0.443379, 0.634913, -3.13207, -0.0552008, -0.108214, 0.011493, -0.00824109, -0.0238314, -0.00195292, -0.0125599, -0.0101261
0.0987927, 0.108039, -0.773964, -0.917201, -1.45622, -0.625082, 1.07122, -0.256739, 0.0163454, 0.00806384, -0.0410161, 0.000927202, -0.00118586, 0.0219983, -0.00111031, 0.737679, 16.4893, 18.443, 15.1306, 0.809508, 3.38168, -0.0164075, 0.000646161, -0.00156898, -0.000542954, -0.00179426, -0.00128596, 0.00107581, 0.0113393, -0.00337685, 0.015385, 0.040952, 0.0330684, 0.0744488, -0.0107676, -0.444977, 0.634305, -3.13019, -0.0565057, -0.11012, -0.0102185, -0.443391, 0.634904, -3.13206, -0.0551923, -0.108211, 0.0117529, -0.00841265, -0.0243401, -0.000506429, -0.0123495, -0.00981806
0.0997927, 0.108055, -0.773956, -0.91724, -1.45621, -0.625083, 1.07124, -0.256734, 0.0138682, 0.00465635, -0.0399, 0.00238137, -0.00126529, 0.02069, -0.000265452, 0.813057, 16.5646, 18.443, 15.0552, 0.822325, 3.39633, -0.0292249, 0.000634668, -0.00156504, -0.000560364, -0.00184554, -0.00133796, 0.00111655, 0.0137859, -0.00284374, 0.0165122, 0.0423047, 0.0300868, 0.073086, -0.0107557, -0.444985, 0.634281, -3.13014, -0.0565373, -0.110207, -0.0102192, -0.443404, 0.634896, -3.13206, -0.0551588, -0.10822, 0.0120154, -0.00858543, -0.0248528, -0.00278207, -0.0120896, -0.00937565
0.100793, 0.108078, -0.773944, -0.917282, -1.45621, -0.625082, 1.07127, -0.256735, 0.0178107, 0.00658134, -0.040149, 0.0024228, -0.000606171, 0.0249744, 0.000297779, 0.777352, 16.6003, 18.4827, 15.0195, 0.815917, 3.39633, -0.0420422, 0.000627721, -0.00156078, -0.000577233, -0.00189645, -0.00139483, 0.0011455, 0.011185, -0.00346994, 0.0173126, 0.0464351, 0.0300784, 0.0784575, -0.0107435, -0.444994, 0.634256, -3.13008, -0.0565696, -0.110296, -0.0102151, -0.443418, 0.634888, -3.13206, -0.0551443, -0.108222, 0.0122806, -0.0087594, -0.0253696, 4.16222e-05, -0.0128057, -0.00891643
0.101793, 0.108096, -0.773939, -0.917324, -1.45621, -0.625082, 1.0713, -0.256734, 0.0179692, 0.00844273, -0.0393012, 0.0016152, -0.000404114, 0.0279426, 0.000707167, 0.85273, 16.7471, 18.4827, 15.0195, 0.815917, 3.40365, -0.0557752, 0.000616894, -0.00155672, -0.000592744, -0.00194471, -0.00144952, 0.00117945, 0.00997619, -0.00354457, 0.0181681, 0.0501298, 0.031499, 0.0812742, -0.0107311, -0.445003, 0.63423, -3.13002, -0.0566025, -0.110386, -0.0102145, -0.443431, 0.634877, -3.13205, -0.0551229, -0.10823, 0.0125483, -0.00893455, -0.0258904, 0.00145607, -0.0130223, -0.00850012
0.102793, 0.108122, -0.77392, -0.917366, -1.45621, -0.625084, 1.07133, -0.256737, 0.020796, 0.0111906, -0.0418944, 0.00200482, -0.000710219, 0.0259052, -0.000511883, 0.813057, 16.7114, 18.4827, 14.9799, 0.827819, 3.39633, -0.0292249, 0.000611964, -0.00155295, -0.000610429, -0.00199668, -0.00151748, 0.00120484, 0.00930938, -0.00355866, 0.0179252, 0.0480589, 0.0361139, 0.0849069, -0.0107184, -0.445012, 0.634204, -3.12996, -0.0566361, -0.110479, -0.0102079, -0.443444, 0.634868, -3.13205, -0.0551153, -0.108219, 0.0128186, -0.00911087, -0.0264151, 0.00240774, -0.0131875, -0.00922093
0.103793, 0.108141, -0.773914, -0.91742, -1.45621, -0.625087, 1.07135, -0.25674, 0.0202977, 0.0126067, -0.0456199, 0.00133655, -0.00138901, 0.0244268, -0.00132459, 0.888436, 16.8225, 18.5581, 14.9799, 0.852538, 3.38901, -0.00267457, 0.000597128, -0.00154735, -0.000623697, -0.00203912, -0.00157933, 0.00124414, 0.0106785, -0.00381171, 0.0171461, 0.0454552, 0.0401241, 0.0843337, -0.0107055, -0.445021, 0.634177, -3.1299, -0.0566704, -0.110573, -0.0102106, -0.44346, 0.634854, -3.13204, -0.0550872, -0.108219, 0.0130915, -0.00928833, -0.0269437, 0.00137895, -0.0136599, -0.0106265
0.104793, 0.108162, -0.773901, -0.917468, -1.45621, -0.625085, 1.07137, -0.256732, 0.020745, 0.0166502, -0.0465848, 0.000891031, -0.000485195, 0.0274128, 0.00179572, 0.928108, 16.8225, 18.5581, 14.9799, 0.840636, 3.39633, -0.0750012, 0.000586683, -0.00154385, -0.000639587, -0.00208398, -0.00164617, 0.00128867, 0.00920488, -0.00413872, 0.0176817, 0.0480488, 0.043043, 0.0835346, -0.0106922, -0.44503, 0.63415, -3.12984, -0.0567054, -0.110669, -0.0102088, -0.443473, 0.634842, -3.13202, -0.0550515, -0.108213, 0.0133669, -0.00946692, -0.0274763, 0.00309669, -0.0141194, -0.010524
0.105793, 0.108184, -0.773891, -0.917512, -1.45621, -0.625087, 1.0714, -0.256741, 0.0220612, 0.0146352, -0.0487255, 0.00319248, -0.000764273, 0.0256722, -0.00171897, 0.928108, 16.8939, 18.4827, 14.8688, 0.852538, 3.38901, 0.00373412, 0.000575041, -0.00153995, -0.000659447, -0.00213884, -0.00170685, 0.00131764, 0.0108759, -0.00429474, 0.0180637, 0.0473614, 0.0414806, 0.0873856, -0.0106787, -0.44504, 0.634122, -3.12978, -0.056741, -0.110767, -0.0102083, -0.443487, 0.634833, -3.13202, -0.0550402, -0.10822, 0.0136449, -0.00964662, -0.0280126, 0.00168681, -0.0145202, -0.0107999
0.106793, 0.108216, -0.773878, -0.917571, -1.45621, -0.625084, 1.07143, -0.256733, 0.024702, 0.0170022, -0.0540217, 0.0012003, 0.000168653, 0.0192431, 0.00153279, 0.85273, 16.9296, 18.5581, 14.9084, 0.834227, 3.38901, -0.0685925, 0.000566973, -0.00153408, -0.000672886, -0.00218031, -0.00177564, 0.00135775, 0.011017, -0.00374574, 0.0159458, 0.0378864, 0.0486796, 0.086165, -0.0106649, -0.44505, 0.634094, -3.12971, -0.0567774, -0.110867, -0.0102033, -0.443503, 0.634818, -3.132, -0.0550129, -0.108214, 0.0139255, -0.00982742, -0.0285528, 0.00195514, -0.0141362, -0.0134591
0.107793, 0.10824, -0.77386, -0.917624, -1.45621, -0.625087, 1.07145, -0.256738, 0.0271698, 0.01735, -0.0551892, 0.00256344, -0.000565733, 0.0191924, -0.000673558, 0.888436, 16.8939, 18.5184, 14.8331, 0.852538, 3.38901, -0.0228162, 0.000555823, -0.00152925, -0.000690397, -0.00223046, -0.00185086, 0.00139498, 0.0108663, -0.00398967, 0.0165245, 0.0390688, 0.0495518, 0.0908854, -0.0106509, -0.44506, 0.634065, -3.12965, -0.0568144, -0.110969, -0.0102015, -0.443519, 0.634806, -3.13199, -0.0549906, -0.108201, 0.0142086, -0.0100093, -0.0290967, 0.00235564, -0.0145639, -0.0134182
0.108793, 0.108262, -0.773846, -0.917678, -1.4562, -0.625085, 1.07148, -0.256734, 0.0280712, 0.0157314, -0.0563238, 0.00263698, 6.36542e-05, 0.0195152, 0.000771667, 0.963814, 16.9296, 18.4827, 14.7934, 0.840636, 3.37436, -0.0557752, 0.000543103, -0.00152458, -0.000707711, -0.0022793, -0.00192021, 0.0014411, 0.0114231, -0.00406088, 0.0167316, 0.0392453, 0.0480696, 0.0917496, -0.0106365, -0.44507, 0.634036, -3.12958, -0.0568522, -0.111073, -0.010201, -0.443534, 0.634793, -3.13198, -0.054955, -0.108199, 0.0144943, -0.0101922, -0.0296444, 0.00207328, -0.0148415, -0.0138005
0.109793, 0.108293, -0.773838, -0.917735, -1.45621, -0.625084, 1.0715, -0.256735, 0.0314041, 0.0136055, -0.0560792, -0.00266444, 0.000279795, 0.0192849, -0.000943615, 0.928108, 17.005, 18.4073, 14.8331, 0.834227, 3.37436, -0.0164075, 0.000533321, -0.00151956, -0.000722516, -0.00232445, -0.00199066, 0.00147232, 0.00964245, -0.00355525, 0.015547, 0.0368026, 0.0501372, 0.101822, -0.0106219, -0.44508, 0.634006, -3.12951, -0.0568906, -0.111178, -0.0101971, -0.44355, 0.634777, -3.13196, -0.0549435, -0.108197, 0.0147825, -0.0103762, -0.0301957, 0.00420078, -0.0144447, -0.0154037
0.110793, 0.108293, -0.773838, -0.917735, -1.45621, -0.625084, 1.0715, -0.256735, 0.0314041, 0.0136055, -0.0560792, -0.00266444, 0.000279795, 0.0192849, -0.000943615, 0.928108, 17.005, 18.4073, 14.8331, 0.834227, 3.37436, -0.0164075, 0.000521075, -0.00153086, -0.000753718, -0.00238832, -0.00206195, 0.00149614, 0.00988502, -0.00335384, 0.0161201, 0.0378591, 0.0509096, 0.103857, -0.010607, -0.44509, 0.633975, -3.12945, -0.0569298, -0.111286, -0.0101971, -0.44355, 0.634777, -3.13196, -0.0549435, -0.108197, 0.0150731, -0.0105613, -0.0307507, 0.00420078, -0.0144447, -0.0154037
0.111793, 0.108293, -0.773838, -0.917735, -1.45621, -0.625084, 1.0715, -0.256735, 0.0314041, 0.0136055, -0.0560792, -0.00266444, 0.000279795, 0.0192849, -0.000943615, 0.928108, 17.005, 18.4073, 14.8331, 0.834227, 3.37436, -0.0164075, 0.00050859, -0.00154236, -0.000785492, -0.00245332, -0.00213454, 0.0015204, 0.0101297, -0.00315119, 0.0166969, 0.0389214, 0.0516871, 0.105906, -0.0105917, -0.445101, 0.633944, -3.12938, -0.0569696, -0.111396, -0.0101971, -0.44355, 0.634777, -3.13196, -0.0549435, -0.108197, 0.0153663, -0.0107473, -0.0313093, 0.00420078, -0.0144447, -0.0154037
0.112793, 0.108293, -0.773838, -0.917735, -1.45621, -0.625084, 1.0715, -0.256735, 0.0314041, 0.0136055, -0.0560792, -0.00266444, 0.000279795, 0.0192849, -0.000943615, 0.928108, 17.005, 18.4073, 14.8331, 0.834227, 3.37436, -0.0164075, 0.000495866, -0.00155407, -0.000817842, -0.00251946, -0.00220845, 0.00154509, 0.0103764, -0.00294731, 0.0172775, 0.0399894, 0.0524697, 0.107967, -0.0105762, -0.445112, 0.633913, -3.1293, -0.0570102, -0.111507, -0.0101971, -0.44355, 0.634777, -3.13196, -0.0549435, -0.108197, 0.015662, -0.0109343, -0.0318714, 0.00420078, -0.0144447, -0.0154037
0.113793, 0.108381, -0.773799, -0.917924, -1.4562, -0.625086, 1.07158, -0.25674, 0.0314754, 0.0156505, -0.0640447, 0.00156608, 4.52262e-05, 0.0284315, -0.00153797, 0.928108, 17.0407, 18.332, 14.6466, 0.840636, 3.33865, -0.00267457, 0.000478385, -0.00151295, -0.000805626, -0.00253418, -0.00228655, 0.00162768, 0.0124966, -0.00618928, 0.0177762, 0.0464484, 0.0484817, 0.102359, -0.0105604, -0.445123, 0.63388, -3.12923, -0.0570515, -0.111621, -0.0101964, -0.443603, 0.634731, -3.13191, -0.0548562, -0.108189, 0.0159602, -0.0111224, -0.0324371, 0.00246817, -0.0179558, -0.0156521
0.114793, 0.108447, -0.773772, -0.918058, -1.4562, -0.625085, 1.07164, -0.256739, 0.0323003, 0.0149758, -0.0662641, 0.00228524, -5.90191e-05, 0.0331167, -0.000830476, 0.928108, 17.0407, 18.2606, 14.5712, 0.840636, 3.30295, -0.0164075, 0.000464319, -0.00148751, -0.000806285, -0.00256423, -0.00236564, 0.00169348, 0.0129788, -0.00735524, 0.0183179, 0.050491, 0.045963, 0.102457, -0.0105443, -0.445134, 0.633848, -3.12916, -0.0570936, -0.111737, -0.0101935, -0.44364, 0.634698, -3.13187, -0.0547952, -0.108182, 0.0162609, -0.0113113, -0.0330063, 0.00229152, -0.019335, -0.015727
0.115793, 0.108477, -0.773757, -0.918123, -1.45619, -0.625085, 1.07166, -0.256732, 0.0328075, 0.0155711, -0.0654581, 0.00228961, -3.93461e-05, 0.0388967, 0.000633144, 0.963814, 17.005, 18.1455, 14.5355, 0.840636, 3.30295, -0.0484509, 0.000450318, -0.00148237, -0.000823862, -0.00261226, -0.00244904, 0.00174573, 0.0119512, -0.00803852, 0.019655, 0.0570953, 0.044393, 0.10423, -0.0105279, -0.445146, 0.633814, -3.12908, -0.0571363, -0.111854, -0.0101923, -0.443657, 0.634681, -3.13185, -0.0547553, -0.108172, 0.016564, -0.0115013, -0.033579, 0.00354785, -0.0201873, -0.0149001
0.116793, 0.108514, -0.77374, -0.918198, -1.4562, -0.625085, 1.07169, -0.256736, 0.0340414, 0.0158746, -0.0681661, 0.00147458, -2.62307e-05, 0.0346703, -0.00028998, 0.963814, 16.9693, 18.1455, 14.5355, 0.840636, 3.27456, -0.0292249, 0.000436657, -0.00147479, -0.000838834, -0.0026562, -0.00253601, 0.00178876, 0.0127205, -0.00756085, 0.0188328, 0.0522628, 0.0482837, 0.106845, -0.0105112, -0.445157, 0.633781, -3.12901, -0.0571798, -0.111974, -0.0101901, -0.443677, 0.634661, -3.13182, -0.0547307, -0.108158, 0.0168696, -0.0116921, -0.034155, 0.00312642, -0.019921, -0.0163487
0.117793, 0.108549, -0.773726, -0.918269, -1.45619, -0.625085, 1.07172, -0.256735, 0.0349747, 0.0151901, -0.0674303, 0.00270742, -1.74871e-05, 0.0306549, 0.000518757, 0.963814, 16.9693, 18.0344, 14.4601, 0.840636, 3.27456, -0.0484509, 0.000421544, -0.00146796, -0.000857429, -0.0027074, -0.0026165, 0.00183805, 0.0132159, -0.0065924, 0.0196089, 0.0509384, 0.0495963, 0.109019, -0.0104942, -0.445169, 0.633746, -3.12893, -0.0572241, -0.112096, -0.0101893, -0.443697, 0.634645, -3.1318, -0.0546968, -0.108157, 0.0171776, -0.0118839, -0.0347344, 0.00284848, -0.0191736, -0.0161827
0.118793, 0.108584, -0.773708, -0.918348, -1.45619, -0.625086, 1.07175, -0.256739, 0.0347622, 0.0165796, -0.0729342, -0.002291, -0.000215109, 0.0328149, -0.00107832, 1.00349, 16.8939, 18.0344, 14.4958, 0.846129, 3.25992, -0.00999879, 0.000406149, -0.00145969, -0.000872244, -0.00275283, -0.0027077, 0.0018859, 0.0136992, -0.00751988, 0.0173703, 0.0477609, 0.0543634, 0.110807, -0.0104768, -0.445181, 0.633711, -3.12885, -0.0572691, -0.112219, -0.0101882, -0.443718, 0.634623, -3.13178, -0.0546661, -0.10814, 0.017488, -0.0120766, -0.0353172, 0.00287003, -0.0202866, -0.0190429
0.119793, 0.108627, -0.773696, -0.918426, -1.45619, -0.625087, 1.07177, -0.256739, 0.0365877, 0.014683, -0.0760143, -0.00098328, -0.000380765, 0.0286723, -0.000718877, 0.963814, 16.9296, 17.9987, 14.4601, 0.852538, 3.27456, -0.00999879, 0.000391705, -0.00145189, -0.000889095, -0.00280026, -0.00279259, 0.00193135, 0.015469, -0.00734108, 0.0170121, 0.0438438, 0.0548051, 0.111313, -0.0104592, -0.445193, 0.633676, -3.12877, -0.0573148, -0.112345, -0.010186, -0.443738, 0.634603, -3.13175, -0.0546398, -0.108136, 0.0178009, -0.0122702, -0.0359033, 0.00143685, -0.0203632, -0.0201136
0.120793, 0.108661, -0.773687, -0.918504, -1.45619, -0.625089, 1.0718, -0.256734, 0.0359423, 0.0169798, -0.0743496, 5.41278e-05, -1.64842e-05, 0.0313005, 0.00121617, 1.00349, 16.9693, 17.9233, 14.4205, 0.846129, 3.25992, -0.0557752, 0.000371758, -0.00144348, -0.000905966, -0.00285075, -0.00287593, 0.00199238, 0.0146467, -0.00723527, 0.0187457, 0.0489373, 0.0555619, 0.111807, -0.0104412, -0.445205, 0.633639, -3.12869, -0.0573613, -0.112473, -0.0101889, -0.44376, 0.634583, -3.13172, -0.0545899, -0.108136, 0.0181163, -0.0124646, -0.0364926, 0.00244273, -0.020444, -0.0189158
0.121793, 0.108701, -0.773667, -0.91859, -1.45618, -0.62509, 1.07184, -0.256734, 0.0373682, 0.0178132, -0.0749581, 0.00154274, -1.09895e-05, 0.028388, -0.000172564, 0.963814, 16.8939, 17.9233, 14.3491, 0.846129, 3.25259, -0.0292249, 0.000355021, -0.0014334, -0.000923743, -0.00290326, -0.002966, 0.00204993, 0.0148419, -0.00671863, 0.01937, 0.0479381, 0.057756, 0.115558, -0.0104229, -0.445218, 0.633603, -3.12861, -0.0574085, -0.112603, -0.0101883, -0.443784, 0.634562, -3.1317, -0.0545462, -0.108128, 0.018434, -0.0126599, -0.0370852, 0.00250087, -0.0201393, -0.018897
0.122793, 0.108734, -0.773654, -0.918676, -1.45619, -0.625089, 1.07187, -0.256734, 0.0387213, 0.0166628, -0.0750654, 0.00090566, -0.000482044, 0.0311498, 0.000597034, 1.03919, 16.8939, 17.9233, 14.3491, 0.858946, 3.23886, -0.0484509, 0.000334172, -0.00142511, -0.00093912, -0.00294717, -0.00305676, 0.00211049, 0.0145645, -0.00710053, 0.0199202, 0.0510521, 0.0568382, 0.118348, -0.0104044, -0.445231, 0.633565, -3.12852, -0.0574565, -0.112735, -0.0101915, -0.443806, 0.634539, -3.13166, -0.0544988, -0.108121, 0.0187541, -0.012856, -0.0376809, 0.00307087, -0.0207155, -0.0189294
0.123793, 0.108775, -0.773633, -0.918758, -1.45619, -0.625089, 1.0719, -0.256737, 0.0418789, 0.018445, -0.080754, -0.00032357, -0.000762172, 0.0328146, -0.00153476, 1.03919, 16.7828, 17.8876, 14.3848, 0.870848, 3.23886, 0.00373412, 0.000320336, -0.00141722, -0.000956246, -0.00299772, -0.00315695, 0.00215743, 0.0143597, -0.00828961, 0.0186642, 0.0492918, 0.0599142, 0.121976, -0.0103854, -0.445244, 0.633527, -3.12844, -0.0575053, -0.11287, -0.0101874, -0.443827, 0.634517, -3.13164, -0.0544733, -0.108101, 0.0190766, -0.013053, -0.0382798, 0.00373048, -0.0220803, -0.0207792
0.124793, 0.108811, -0.77362, -0.918843, -1.45618, -0.625086, 1.07193, -0.256732, 0.0399463, 0.0202223, -0.0828014, 0.00147843, 0.000407413, 0.0342228, 0.00141823, 1.07887, 16.7828, 17.8876, 14.3094, 0.846129, 3.23153, -0.0621838, 0.000299944, -0.00140817, -0.000975432, -0.00305183, -0.0032416, 0.00222278, 0.015602, -0.00860974, 0.0195081, 0.0510856, 0.0598341, 0.117374, -0.0103662, -0.445257, 0.633489, -3.12835, -0.0575548, -0.113006, -0.0101897, -0.443851, 0.634496, -3.13161, -0.0544196, -0.108108, 0.0194015, -0.0132507, -0.0388819, 0.00276709, -0.0226552, -0.0206345
0.125793, 0.108852, -0.773603, -0.918931, -1.45619, -0.625091, 1.07196, -0.256742, 0.0427058, 0.0192336, -0.0810752, 0.000933799, -0.00132209, 0.0352056, -0.00197063, 1.07887, 16.7471, 17.8876, 14.3094, 0.889159, 3.22421, 0.0165515, 0.000281838, -0.00139827, -0.000992357, -0.00310529, -0.00334279, 0.00227173, 0.0145218, -0.00849276, 0.0204209, 0.0543731, 0.0608159, 0.126505, -0.0103466, -0.44527, 0.633449, -3.12826, -0.0576051, -0.113144, -0.0101891, -0.443875, 0.634473, -3.13158, -0.0543923, -0.108091, 0.0197288, -0.0134493, -0.039487, 0.00409969, -0.0227107, -0.0202521
0.126793, 0.108888, -0.773587, -0.919015, -1.45618, -0.625089, 1.072, -0.256734, 0.0406943, 0.0176194, -0.0811218, 0.00141889, -0.000440582, 0.0352223, 0.00136501, 1.11457, 16.7471, 17.8122, 14.2737, 0.877257, 3.23153, -0.0557752, 0.000262744, -0.00139024, -0.00101229, -0.00316124, -0.00343695, 0.00233827, 0.016119, -0.00819516, 0.021192, 0.0554114, 0.0590465, 0.123534, -0.0103267, -0.445284, 0.63341, -3.12817, -0.0576562, -0.113285, -0.0101896, -0.443897, 0.634451, -3.13156, -0.0543384, -0.108087, 0.0200585, -0.0136486, -0.0400951, 0.00276931, -0.0226823, -0.0202065
0.127793, 0.108931, -0.773566, -0.919112, -1.45618, -0.625089, 1.07203, -0.256738, 0.0399988, 0.0182669, -0.0854188, 0.00184479, -0.000293721, 0.0359463, -0.000310697, 1.11457, 16.6718, 17.9233, 14.234, 0.877257, 3.23153, -0.0228162, 0.000243599, -0.00137956, -0.00102872, -0.00321032, -0.00354017, 0.00239772, 0.0178804, -0.00891392, 0.0208485, 0.0546836, 0.0599877, 0.123326, -0.0103065, -0.445298, 0.633369, -3.12808, -0.0577081, -0.113428, -0.0101894, -0.443923, 0.634426, -3.13152, -0.0542966, -0.108071, 0.0203905, -0.0138487, -0.0407063, 0.00139574, -0.023663, -0.0212973
0.128793, 0.108971, -0.77355, -0.919192, -1.45618, -0.625092, 1.07207, -0.256736, 0.0395262, 0.0169207, -0.0828952, 0.00204322, -0.000195814, 0.0362637, 0.000504945, 1.11457, 16.6718, 17.8122, 14.1983, 0.877257, 3.23153, -0.0420422, 0.000226412, -0.00137148, -0.00105137, -0.00327673, -0.00363879, 0.00245521, 0.017951, -0.00827746, 0.0222536, 0.0577394, 0.0590232, 0.126166, -0.010286, -0.445311, 0.633328, -3.12799, -0.0577607, -0.113573, -0.0101874, -0.443946, 0.634406, -3.1315, -0.0542579, -0.108066, 0.0207248, -0.0140495, -0.0413204, 0.00153305, -0.0232501, -0.0205116
0.129793, 0.109009, -0.773532, -0.919283, -1.45619, -0.625091, 1.0721, -0.256736, 0.0373432, 0.0166446, -0.0843881, -0.00366996, -0.000367902, 0.0367268, -0.000850164, 1.18995, 16.636, 17.8122, 14.2737, 0.883666, 3.23153, -0.00999879, 0.000207771, -0.00136301, -0.00106854, -0.0033283, -0.00374556, 0.0025144, 0.0185684, -0.00804518, 0.0208211, 0.0553381, 0.0632808, 0.129308, -0.0102651, -0.445326, 0.633287, -3.1279, -0.0578142, -0.11372, -0.0101862, -0.443969, 0.634381, -3.13147, -0.054218, -0.108049, 0.0210615, -0.0142511, -0.0419374, 0.00134774, -0.0232268, -0.0226027
0.130793, 0.109053, -0.773516, -0.919372, -1.45619, -0.62509, 1.07213, -0.25674, 0.0384469, 0.0157226, -0.0844748, -0.00180196, -0.000245268, 0.0319931, -0.0010754, 1.15424, 16.636, 17.7765, 14.234, 0.883666, 3.23886, 0.00373412, 0.000189192, -0.00135438, -0.00108924, -0.00338572, -0.00384627, 0.00256837, 0.0195372, -0.00712709, 0.0215246, 0.053198, 0.0643181, 0.131932, -0.0102438, -0.44534, 0.633244, -3.1278, -0.0578684, -0.113869, -0.0101848, -0.443993, 0.634358, -3.13144, -0.0541867, -0.108044, 0.0214005, -0.0144534, -0.0425574, 0.000634413, -0.0225584, -0.0225853
0.131793, 0.109093, -0.773495, -0.919465, -1.45619, -0.625091, 1.07217, -0.256732, 0.037578, 0.0150768, -0.0854698, -0.00141381, -0.000604321, 0.0330126, 0.00121584, 1.18995, 16.636, 17.7765, 14.234, 0.895568, 3.25259, -0.0484509, 0.000169084, -0.00134532, -0.00110891, -0.00344339, -0.00395589, 0.002641, 0.0207688, -0.0073346, 0.0221023, 0.0549982, 0.0640877, 0.12993, -0.0102223, -0.445355, 0.633201, -3.12771, -0.0579234, -0.114021, -0.0101845, -0.444018, 0.634333, -3.13141, -0.0541274, -0.108027, 0.0217418, -0.0146563, -0.0431802, -0.000287623, -0.0230236, -0.0227267
0.132793, 0.109134, -0.773478, -0.919554, -1.45619, -0.625089, 1.07221, -0.256738, 0.0407259, 0.0178949, -0.0819305, -0.00427238, 0.000275287, 0.0341818, -0.00061359, 1.18995, 16.636, 17.7369, 14.234, 0.877257, 3.25259, -0.00999879, 0.000151219, -0.00133694, -0.00112922, -0.00350292, -0.00406215, 0.00269185, 0.0167754, -0.006381, 0.0229782, 0.0574424, 0.0682511, 0.141771, -0.0102004, -0.445369, 0.633158, -3.12761, -0.0579792, -0.114174, -0.0101817, -0.444042, 0.634309, -3.13138, -0.0541025, -0.108018, 0.0220854, -0.01486, -0.0438058, 0.00393507, -0.0221421, -0.0221803
0.133793, 0.109181, -0.773452, -0.919652, -1.4562, -0.62509, 1.07225, -0.256734, 0.0437623, 0.022851, -0.0845412, -0.00323199, 0.00109905, 0.0353197, 0.00128636, 1.15424, 16.525, 17.7765, 14.234, 0.852538, 3.24527, -0.0557752, 0.000135121, -0.00132695, -0.00114802, -0.00356072, -0.00418104, 0.00275622, 0.0149944, -0.0068067, 0.0233906, 0.0582885, 0.0723419, 0.143057, -0.0101781, -0.445384, 0.633114, -3.12751, -0.0580358, -0.11433, -0.0101767, -0.444068, 0.634282, -3.13134, -0.0540577, -0.107991, 0.0224314, -0.0150643, -0.0444342, 0.00604007, -0.0227145, -0.0222738
0.134793, 0.10922, -0.773438, -0.919744, -1.4562, -0.625091, 1.07228, -0.256738, 0.0445205, 0.0250709, -0.0867963, -0.000772027, -0.000420185, 0.0402681, -0.00134647, 1.18995, 16.6003, 17.7012, 14.1626, 0.883666, 3.25259, 0.00373412, 0.00011162, -0.00131841, -0.00117037, -0.00362282, -0.00428712, 0.00281952, 0.0152887, -0.008208, 0.024655, 0.0644445, 0.0726161, 0.145056, -0.0101555, -0.445399, 0.633069, -3.12741, -0.0580933, -0.114488, -0.010179, -0.444093, 0.634258, -3.13131, -0.054015, -0.107987, 0.0227796, -0.0152693, -0.0450654, 0.00605348, -0.0243496, -0.0216823
0.135793, 0.109269, -0.773411, -0.919844, -1.4562, -0.625086, 1.07232, -0.256734, 0.047701, 0.0274238, -0.0924047, 0.0010327, 0.000194595, 0.0390321, 8.56952e-05, 1.11457, 16.525, 17.6615, 14.0872, 0.870848, 3.26724, -0.0228162, 9.5132e-05, -0.00130922, -0.00119111, -0.00367907, -0.00440295, 0.0028836, 0.0156607, -0.00891355, 0.0241526, 0.0616357, 0.0751125, 0.144194, -0.0101325, -0.445415, 0.633024, -3.12731, -0.0581515, -0.114649, -0.0101738, -0.444119, 0.634232, -3.13128, -0.0539722, -0.107969, 0.0231301, -0.0154749, -0.0456993, 0.00609434, -0.0252703, -0.0228544
0.136793, 0.109311, -0.773392, -0.919944, -1.45621, -0.625088, 1.07236, -0.256734, 0.0441937, 0.0194795, -0.0961146, -0.00443357, 0.00012973, 0.038869, 0.000769207, 1.15424, 16.5646, 17.5901, 14.1626, 0.870848, 3.25992, -0.0420422, 7.46011e-05, -0.00129982, -0.00120882, -0.00373532, -0.00452546, 0.00294729, 0.0200246, -0.00912822, 0.0219003, 0.0569171, 0.0719087, 0.1423, -0.0101092, -0.44543, 0.632978, -3.12721, -0.0582105, -0.114811, -0.0101721, -0.444145, 0.634202, -3.13124, -0.053931, -0.107943, 0.0234829, -0.0156811, -0.0463358, 0.00226866, -0.0258247, -0.0260628
0.137793, 0.109361, -0.773367, -0.920053, -1.45622, -0.625088, 1.0724, -0.256736, 0.0465917, 0.0188441, -0.100613, -0.00560609, 8.64865e-05, 0.0383074, 0.000275446, 1.11457, 16.525, 17.5901, 14.1229, 0.870848, 3.26724, -0.0356336, 5.47707e-05, -0.00128801, -0.00122675, -0.00379148, -0.00464912, 0.00301338, 0.0207384, -0.00967779, 0.0207827, 0.053866, 0.0734769, 0.144669, -0.0100856, -0.445446, 0.632931, -3.1271, -0.0582704, -0.114976, -0.0101692, -0.444173, 0.634172, -3.1312, -0.0538868, -0.107918, 0.0238379, -0.015888, -0.046975, 0.00201303, -0.0265951, -0.027878
0.138793, 0.109408, -0.77334, -0.920161, -1.45622, -0.625085, 1.07243, -0.256735, 0.0443328, 0.0218958, -0.102172, -0.00509889, 5.76577e-05, 0.0378072, -0.000291087, 1.11457, 16.4893, 17.5147, 14.0118, 0.870848, 3.27456, -0.0228162, 3.44096e-05, -0.00127738, -0.00124717, -0.00384941, -0.00477147, 0.00308452, 0.0217798, -0.00956184, 0.0213028, 0.0543037, 0.0774183, 0.143854, -0.0100616, -0.445462, 0.632884, -3.127, -0.0583311, -0.115144, -0.0101668, -0.444201, 0.634143, -3.13116, -0.0538356, -0.107896, 0.0241952, -0.0160954, -0.0476168, 0.00128844, -0.0267347, -0.0280802
0.139793, 0.109458, -0.77332, -0.920271, -1.45624, -0.625087, 1.07247, -0.256737, 0.0460282, 0.0178994, -0.102089, -0.0081061, 3.84385e-05, 0.033758, -0.00141476, 1.11457, 16.5646, 17.5147, 14.0475, 0.870848, 3.25992, 0.0101428, 1.33069e-05, -0.00126672, -0.00126333, -0.00390055, -0.00490114, 0.00314749, 0.0223316, -0.00852955, 0.0205161, 0.0499539, 0.0783618, 0.15062, -0.0100372, -0.445478, 0.632836, -3.12689, -0.0583926, -0.115313, -0.0101644, -0.444229, 0.63411, -3.13111, -0.0537982, -0.107866, 0.0245547, -0.0163034, -0.0482612, 0.00111514, -0.025924, -0.0295423
0.140793, 0.109507, -0.773292, -0.920383, -1.45625, -0.625089, 1.07251, -0.256729, 0.0477746, 0.017899, -0.104722, -0.00841196, -0.000211733, 0.0349212, 0.00173559, 1.07887, 16.525, 17.5147, 14.0118, 0.877257, 3.25259, -0.0621838, -6.64941e-06, -0.00125536, -0.00128186, -0.00395864, -0.00503518, 0.00322571, 0.0225797, -0.00907289, 0.0203964, 0.050286, 0.0792033, 0.149608, -0.0100124, -0.445495, 0.632787, -3.12678, -0.0584549, -0.115485, -0.0101607, -0.444258, 0.634078, -3.13107, -0.0537378, -0.107831, 0.0249165, -0.016512, -0.0489081, 0.00125732, -0.0266859, -0.0303364
0.141793, 0.109556, -0.773269, -0.92049, -1.45626, -0.625087, 1.07255, -0.256737, 0.0506461, 0.0194756, -0.106067, -0.0113577, 0.000537013, 0.0363397, -0.00053836, 1.11457, 16.5646, 17.479, 14.0872, 0.858946, 3.23153, -0.0164075, -2.47704e-05, -0.00124579, -0.0012996, -0.00401446, -0.00516785, 0.00327871, 0.0206673, -0.00913342, 0.0198742, 0.0497666, 0.0824167, 0.157957, -0.00998734, -0.445511, 0.632738, -3.12667, -0.058518, -0.115659, -0.0101548, -0.444285, 0.634046, -3.13103, -0.0537174, -0.107801, 0.0252805, -0.0167211, -0.0495576, 0.00356634, -0.0268808, -0.0313693
0.142793, 0.109603, -0.773239, -0.9206, -1.45627, -0.625084, 1.07259, -0.256733, 0.0527504, 0.0212601, -0.109404, -0.0130215, 0.000358009, 0.0368334, 0.00133651, 1.15424, 16.5646, 17.4036, 14.0118, 0.858946, 3.22421, -0.0621838, -4.49201e-05, -0.00123611, -0.00131987, -0.00407268, -0.00530383, 0.00335321, 0.0202243, -0.00956954, 0.0191376, 0.048382, 0.0862496, 0.158775, -0.00996188, -0.445528, 0.632688, -3.12656, -0.058582, -0.115835, -0.0101508, -0.444313, 0.634014, -3.13098, -0.0536644, -0.107768, 0.0256467, -0.0169307, -0.0502094, 0.00444317, -0.0275026, -0.0327311
0.143793, 0.109653, -0.773213, -0.920715, -1.45629, -0.625084, 1.07263, -0.256734, 0.0547082, 0.0220374, -0.108183, -0.0153841, 1.31345e-06, 0.0418131, 0.00065365, 1.18995, 16.6003, 17.4393, 13.9722, 0.865355, 3.21689, -0.0557752, -6.64326e-05, -0.00122535, -0.00133803, -0.00412735, -0.00544271, 0.00342335, 0.0180914, -0.00993277, 0.0198398, 0.0534261, 0.0872154, 0.165787, -0.00993605, -0.445545, 0.632638, -3.12645, -0.0586468, -0.116014, -0.0101475, -0.444342, 0.63398, -3.13093, -0.0536192, -0.107732, 0.0260151, -0.0171409, -0.0508638, 0.00689753, -0.0280094, -0.0325342
0.144793, 0.109707, -0.773179, -0.92082, -1.45629, -0.625086, 1.07267, -0.256731, 0.0568797, 0.021782, -0.104597, -0.0132408, 8.75631e-07, 0.0401859, 0.000435767, 1.18995, 16.525, 17.3639, 13.9008, 0.865355, 3.22421, -0.0557752, -8.2855e-05, -0.00121724, -0.0013609, -0.00419014, -0.00559235, 0.00349, 0.016972, -0.00889884, 0.0219677, 0.0565683, 0.0871715, 0.172213, -0.00990985, -0.445562, 0.632586, -3.12633, -0.0587125, -0.116195, -0.0101393, -0.444368, 0.633951, -3.13089, -0.0535801, -0.107682, 0.0263857, -0.0173516, -0.0515205, 0.00818542, -0.027178, -0.0309776
0.145793, 0.109753, -0.773153, -0.920931, -1.45631, -0.625086, 1.07271, -0.256737, 0.0524718, 0.0221253, -0.106706, -0.0143656, -0.000440226, 0.0397691, -0.00215089, 1.305, 16.5646, 17.3639, 13.9365, 0.877257, 3.21689, 0.0101428, -0.000104539, -0.00120848, -0.00138015, -0.00424644, -0.00573682, 0.00355389, 0.0197149, -0.00884784, 0.021832, 0.0559617, 0.0897795, 0.171563, -0.00988328, -0.44558, 0.632535, -3.12622, -0.058779, -0.116378, -0.0101356, -0.444396, 0.633917, -3.13085, -0.0535463, -0.107643, 0.0267585, -0.0175627, -0.0521796, 0.00583105, -0.027441, -0.0319791
0.146793, 0.109812, -0.773126, -0.921054, -1.45633, -0.625086, 1.07274, -0.25673, 0.0563163, 0.0227387, -0.117432, -0.0123619, -0.000530843, 0.0389266, 0.000736209, 1.26533, 16.6003, 17.5147, 13.8611, 0.883666, 3.22421, -0.0484509, -0.000125549, -0.00119722, -0.00139809, -0.00429865, -0.00588142, 0.00362983, 0.022144, -0.0107548, 0.0199296, 0.0504942, 0.091025, 0.165658, -0.00985633, -0.445598, 0.632482, -3.1261, -0.0588463, -0.116563, -0.0101307, -0.444426, 0.63388, -3.13079, -0.0534948, -0.107605, 0.0271335, -0.0177744, -0.052841, 0.00399715, -0.0296245, -0.0347442
0.147793, 0.109861, -0.773093, -0.921163, -1.45635, -0.625088, 1.07278, -0.256731, 0.0553602, 0.0245319, -0.113011, -0.0178111, -0.000353895, 0.0391154, 0.000253447, 1.38038, 16.5646, 17.5147, 13.9365, 0.883666, 3.20956, -0.0420422, -0.000142939, -0.00118965, -0.00141665, -0.00435479, -0.00604542, 0.00369388, 0.0197277, -0.00927515, 0.0203052, 0.0517818, 0.0968609, 0.173854, -0.00982901, -0.445615, 0.632429, -3.12598, -0.0589145, -0.116751, -0.0101221, -0.444452, 0.633844, -3.13074, -0.0534627, -0.10754, 0.0275107, -0.0179865, -0.0535047, 0.00669622, -0.0282768, -0.0348397
0.148793, 0.109916, -0.773061, -0.921275, -1.45637, -0.625086, 1.07281, -0.256735, 0.056649, 0.0252426, -0.114679, -0.0148079, -0.00023593, 0.0421782, -0.0012891, 1.41608, 16.5646, 17.5901, 13.8611, 0.883666, 3.23886, -0.00267457, -0.000161131, -0.00118202, -0.00143827, -0.00441192, -0.00619916, 0.00375434, 0.0200743, -0.0101011, 0.0217018, 0.0561699, 0.0950189, 0.176372, -0.00980131, -0.445634, 0.632375, -3.12586, -0.0589835, -0.116942, -0.010114, -0.444479, 0.633811, -3.13069, -0.0534369, -0.107493, 0.02789, -0.018199, -0.0541706, 0.00665597, -0.0293507, -0.0341523
0.149793, 0.109958, -0.773037, -0.921379, -1.45638, -0.625083, 1.07285, -0.256735, 0.0548329, 0.0233311, -0.110023, -0.0118031, 0.000520882, 0.0416505, 0.000361305, 1.57081, 16.6718, 17.5504, 13.75, 0.865355, 3.22421, -0.0356336, -0.000184219, -0.00117613, -0.00146373, -0.00447886, -0.00634459, 0.0038258, 0.0207946, -0.00895104, 0.0245752, 0.0612795, 0.0915647, 0.177746, -0.00977323, -0.445652, 0.63232, -3.12574, -0.0590534, -0.117134, -0.0101109, -0.444505, 0.63378, -3.13064, -0.0533944, -0.107462, 0.0282715, -0.018412, -0.0548388, 0.00605951, -0.0284864, -0.032
0.150793, 0.110014, -0.773008, -0.921496, -1.4564, -0.625085, 1.07288, -0.256733, 0.0571873, 0.0266863, -0.112278, -0.0178153, -9.3555e-05, 0.0402371, 3.51097e-06, 1.57081, 16.7114, 17.6258, 13.7143, 0.877257, 3.23153, -0.0292249, -0.000204154, -0.00116813, -0.00148288, -0.00453177, -0.0065069, 0.00389368, 0.0188209, -0.00858229, 0.0227083, 0.0568063, 0.101071, 0.183935, -0.00974476, -0.44567, 0.632265, -3.12562, -0.0591241, -0.117329, -0.0101036, -0.444532, 0.633742, -3.13059, -0.0533591, -0.107406, 0.0286551, -0.0186253, -0.0555092, 0.00853277, -0.0282342, -0.034383
0.151793, 0.110069, -0.772973, -0.921616, -1.45643, -0.625087, 1.07292, -0.256731, 0.0577598, 0.0280707, -0.111834, -0.0209496, -0.000977897, 0.0398134, 0.000714417, 1.60651, 16.6718, 17.7369, 13.75, 0.901976, 3.22421, -0.0484509, -0.000223564, -0.00115987, -0.00150125, -0.00458473, -0.00667943, 0.00396575, 0.0179012, -0.00807044, 0.0225642, 0.0566508, 0.106311, 0.187762, -0.00971592, -0.445689, 0.632209, -3.12549, -0.0591957, -0.117527, -0.0100954, -0.444561, 0.633703, -3.13053, -0.0533182, -0.107336, 0.0290408, -0.0188391, -0.0561817, 0.00982396, -0.0279035, -0.0351275
0.152793, 0.110126, -0.772947, -0.92173, -1.45645, -0.625087, 1.07295, -0.256731, 0.056162, 0.0260623, -0.108673, -0.0244081, -0.000651932, 0.0390748, 0.000238919, 1.60651, 16.7471, 17.7369, 13.7143, 0.901976, 3.23153, -0.0420422, -0.000242532, -0.00115325, -0.00152176, -0.00463989, -0.00684332, 0.00402715, 0.0178197, -0.00683438, 0.0230083, 0.0571507, 0.107483, 0.193454, -0.00968668, -0.445708, 0.632153, -3.12537, -0.0592682, -0.117726, -0.0100866, -0.444587, 0.633666, -3.13047, -0.0532947, -0.107283, 0.0294287, -0.0190533, -0.0568564, 0.0102101, -0.0268897, -0.035342
0.153793, 0.110181, -0.772917, -0.921851, -1.45647, -0.625088, 1.07299, -0.256733, 0.053897, 0.026455, -0.113348, -0.0262335, -0.00067198, 0.0346711, 0.000667906, 1.64619, 16.7471, 17.7765, 13.6389, 0.908385, 3.21689, -0.0557752, -0.000265658, -0.00114467, -0.001543, -0.00469743, -0.00700786, 0.00409988, 0.0206455, -0.00651565, 0.0215348, 0.0507488, 0.112434, 0.190566, -0.00965706, -0.445727, 0.632096, -3.12524, -0.0593415, -0.117929, -0.0100816, -0.444617, 0.633628, -3.13041, -0.0532543, -0.107231, 0.0298187, -0.0192678, -0.0575331, 0.00788035, -0.0268729, -0.037701
0.154793, 0.110239, -0.772886, -0.921975, -1.45649, -0.625087, 1.07302, -0.256733, 0.0574896, 0.0295302, -0.114773, -0.0246504, -0.000210628, 0.0301676, -0.000538074, 1.60651, 16.7828, 17.848, 13.5635, 0.901976, 3.23153, -0.0292249, -0.000287172, -0.00113689, -0.00156302, -0.00474965, -0.00717796, 0.00416943, 0.0196287, -0.00579966, 0.0219183, 0.0478273, 0.11745, 0.196122, -0.00962704, -0.445747, 0.632038, -3.12511, -0.0594156, -0.118133, -0.0100745, -0.444645, 0.633588, -3.13035, -0.05322, -0.107172, 0.0302108, -0.0194827, -0.0582119, 0.00922694, -0.0263436, -0.0379155
0.155793, 0.110288, -0.772851, -0.922096, -1.45653, -0.625088, 1.07305, -0.256735, 0.0570545, 0.0322729, -0.114938, -0.0309907, -0.000377777, 0.0323092, -0.00107079, 1.68189, 16.7828, 17.8876, 13.6746, 0.908385, 3.22421, -0.00999879, -0.000308131, -0.00113039, -0.00158073, -0.0048004, -0.00736218, 0.00423933, 0.0178767, -0.00553599, 0.0209321, 0.0475536, 0.124329, 0.201733, -0.00959664, -0.445766, 0.631979, -3.12498, -0.0594907, -0.11834, -0.0100663, -0.444672, 0.633546, -3.13028, -0.0531863, -0.107094, 0.0306049, -0.019698, -0.0588927, 0.0114287, -0.0262183, -0.0394471
0.156793, 0.110341, -0.772821, -0.922213, -1.45655, -0.625088, 1.07308, -0.256729, 0.0524294, 0.0303115, -0.115695, -0.0312669, -0.000251852, 0.029161, 0.00121892, 1.68189, 16.8225, 17.8122, 13.5992, 0.908385, 3.21689, -0.0621838, -0.000331052, -0.00112461, -0.00160363, -0.00485855, -0.00753615, 0.00431753, 0.0213522, -0.00475013, 0.0211505, 0.0455708, 0.124989, 0.19694, -0.00956583, -0.445786, 0.63192, -3.12485, -0.0595666, -0.11855, -0.0100601, -0.444699, 0.633508, -3.13022, -0.0531402, -0.107035, 0.0310012, -0.0199136, -0.0595756, 0.00831288, -0.0257859, -0.0401699
0.157793, 0.110397, -0.772794, -0.92234, -1.45658, -0.625088, 1.07312, -0.256734, 0.052823, 0.0246462, -0.119941, -0.0290862, -0.000167901, 0.0268148, -0.000882809, 1.64619, 16.8939, 17.8876, 13.5635, 0.908385, 3.20956, -0.0164075, -0.000355828, -0.00111678, -0.00162354, -0.00491144, -0.00771017, 0.00438742, 0.0252943, -0.00515668, 0.0209156, 0.0427864, 0.120206, 0.197629, -0.00953463, -0.445806, 0.63186, -3.12472, -0.0596434, -0.118761, -0.0100551, -0.444729, 0.633466, -3.13015, -0.0531081, -0.106977, 0.0313996, -0.0201295, -0.0602603, 0.00481448, -0.0265561, -0.0413979
0.158793, 0.110449, -0.772762, -0.922464, -1.45661, -0.625085, 1.07315, -0.25673, 0.0521083, 0.0289692, -0.117877, -0.0274937, -0.000315385, 0.0254973, 0.000598255, 1.64619, 16.8939, 17.8876, 13.5278, 0.913878, 3.18851, -0.0484509, -0.00037905, -0.00111011, -0.00164494, -0.00496802, -0.00788874, 0.00446572, 0.024463, -0.00426604, 0.0227633, 0.0455595, 0.125128, 0.198608, -0.00950303, -0.445826, 0.6318, -3.12458, -0.059721, -0.118976, -0.0100483, -0.444757, 0.633425, -3.13009, -0.0530638, -0.106915, 0.0318, -0.0203457, -0.060947, 0.00586654, -0.0258838, -0.0401722
0.159793, 0.110511, -0.772728, -0.922586, -1.45664, -0.625087, 1.07318, -0.256735, 0.0575047, 0.0297596, -0.119714, -0.0280267, -6.80586e-06, 0.0242868, -0.00102532, 1.53114, 16.8582, 17.8876, 13.5635, 0.908385, 3.17386, -0.00999879, -0.000397122, -0.00110434, -0.00166518, -0.0050218, -0.00808013, 0.00452503, 0.0227295, -0.00421401, 0.0225389, 0.0438045, 0.127758, 0.207129, -0.00947103, -0.445847, 0.631738, -3.12445, -0.0597996, -0.119192, -0.0100359, -0.444784, 0.633382, -3.13002, -0.0530501, -0.106836, 0.0322025, -0.0205621, -0.0616356, 0.00800864, -0.0259835, -0.0409557
0.160793, 0.110567, -0.772698, -0.922712, -1.45667, -0.62509, 1.07321, -0.256728, 0.0563922, 0.0288902, -0.120193, -0.026753, -0.000682706, 0.0281659, 0.00148659, 1.49146, 16.8582, 17.848, 13.5278, 0.926695, 3.15921, -0.0685925, -0.000421833, -0.00109784, -0.00168729, -0.00507859, -0.00826542, 0.00460692, 0.0239663, -0.0049039, 0.0238641, 0.0491422, 0.125612, 0.204711, -0.00943863, -0.445867, 0.631676, -3.12431, -0.059879, -0.119411, -0.0100298, -0.444813, 0.63334, -3.12995, -0.0530021, -0.106768, 0.032607, -0.0207789, -0.062326, 0.00710437, -0.0269613, -0.0404327
0.161793, 0.110619, -0.772669, -0.922833, -1.4567, -0.625088, 1.07324, -0.256735, 0.0568668, 0.0251043, -0.120597, -0.027405, 1.95808e-05, 0.0305731, -0.00117908, 1.53114, 16.8582, 17.8122, 13.5635, 0.913878, 3.1528, -0.00999879, -0.000446137, -0.00109362, -0.00170934, -0.00513315, -0.00845336, 0.00467332, 0.0248511, -0.00514675, 0.0243302, 0.0512062, 0.121533, 0.210766, -0.00940582, -0.445888, 0.631614, -3.12417, -0.0599593, -0.119633, -0.010023, -0.44484, 0.633298, -3.12988, -0.0529791, -0.106699, 0.0330136, -0.0209959, -0.0630183, 0.00660051, -0.0274661, -0.0407358
0.162793, 0.110681, -0.772642, -0.922959, -1.45674, -0.625085, 1.07327, -0.256727, 0.0579209, 0.0257313, -0.126051, -0.0278486, 1.30539e-05, 0.0325661, 0.00162145, 1.41608, 16.8582, 17.848, 13.5992, 0.913878, 3.13815, -0.0750012, -0.000467483, -0.00108846, -0.00172929, -0.00518278, -0.00864079, 0.00474513, 0.0260133, -0.00630152, 0.0235449, 0.0504121, 0.122685, 0.207604, -0.0093726, -0.445909, 0.63155, -3.12403, -0.0600404, -0.119857, -0.0100127, -0.444867, 0.633253, -3.12981, -0.0529489, -0.106633, 0.0334222, -0.0212132, -0.0637123, 0.00595322, -0.0288728, -0.0423219
0.163793, 0.110739, -0.772613, -0.923086, -1.45677, -0.625088, 1.0733, -0.256734, 0.0573739, 0.0268609, -0.131032, -0.0303795, -0.000228656, 0.0293013, -0.00108917, 1.34071, 16.8225, 17.8122, 13.5992, 0.920287, 3.13083, -0.0164075, -0.000492614, -0.00108377, -0.00175054, -0.00523468, -0.00883698, 0.00481204, 0.0277554, -0.00625416, 0.0218629, 0.0444373, 0.128493, 0.209648, -0.00933897, -0.445931, 0.631486, -3.12389, -0.0601225, -0.120083, -0.0100059, -0.444895, 0.633208, -3.12973, -0.0529272, -0.106556, 0.0338328, -0.0214307, -0.0644081, 0.00475222, -0.029086, -0.0448331
0.164793, 0.110795, -0.772587, -0.923218, -1.45681, -0.62509, 1.07333, -0.256729, 0.0570025, 0.0245265, -0.135145, -0.0331175, -0.000593247, 0.0271028, 0.000731946, 1.26533, 16.7828, 17.8122, 13.6389, 0.932189, 3.11618, -0.0557752, -0.000519028, -0.00107812, -0.00176873, -0.00528198, -0.00903562, 0.00489161, 0.0300584, -0.00631526, 0.0203282, 0.0396294, 0.130493, 0.208075, -0.00930493, -0.445952, 0.631421, -3.12375, -0.0602054, -0.120312, -0.00999962, -0.444924, 0.633159, -3.12965, -0.052887, -0.106477, 0.0342455, -0.0216484, -0.0651057, 0.00298794, -0.0294311, -0.0472445
0.165793, 0.110859, -0.772562, -0.923351, -1.45685, -0.625088, 1.07336, -0.256735, 0.0575119, 0.0257915, -0.13511, -0.0362335, 0.000486121, 0.0302491, 0.00349879, 1.15424, 16.7471, 17.7765, 13.5992, 0.908385, 3.10245, -0.00999879, -0.000543828, -0.00107241, -0.00178909, -0.00533148, -0.00922728, 0.00495741, 0.028603, -0.00630177, 0.0204098, 0.0414635, 0.132376, 0.210506, -0.00927048, -0.445974, 0.631356, -3.1236, -0.0602893, -0.120544, -0.00999153, -0.444953, 0.633112, -3.12957, -0.0528689, -0.106411, 0.0346601, -0.0218663, -0.0658049, 0.00484355, -0.029586, -0.0477554
0.166793, 0.110916, -0.772536, -0.92349, -1.45689, -0.625086, 1.07339, -0.256731, 0.0551933, 0.0243459, -0.13588, -0.0367589, 0.000798798, 0.0275014, 0.00272472, 1.15424, 16.6718, 17.7765, 13.5992, 0.895568, 3.09512, -0.00999879, -0.000573347, -0.00106615, -0.001808, -0.00537779, -0.00942378, 0.00504213, 0.0307934, -0.00559828, 0.0205476, 0.0394718, 0.133429, 0.211343, -0.00923561, -0.445996, 0.63129, -3.12346, -0.060374, -0.120777, -0.00998761, -0.444983, 0.633062, -3.12948, -0.0528226, -0.10634, 0.0350768, -0.0220844, -0.0665058, 0.00303756, -0.029191, -0.0484845
0.167793, 0.110976, -0.772522, -0.923626, -1.45693, -0.625085, 1.07342, -0.256727, 0.0514614, 0.0196703, -0.135728, -0.0402244, -0.000145636, 0.025768, 0.00329741, 1.11457, 16.7471, 17.7369, 13.5992, 0.913878, 3.08047, -0.0420422, -0.000603484, -0.00106047, -0.00182761, -0.0054265, -0.00961153, 0.00512169, 0.033825, -0.00489917, 0.0200667, 0.0377157, 0.13356, 0.21106, -0.00920033, -0.446018, 0.631223, -3.12331, -0.0604596, -0.121014, -0.00998397, -0.445012, 0.633013, -3.1294, -0.052785, -0.106286, 0.0354954, -0.0223027, -0.0672083, 0.000443247, -0.0288224, -0.0498979
0.168793, 0.111037, -0.7725, -0.923763, -1.45697, -0.625084, 1.07345, -0.256729, 0.0538725, 0.0221329, -0.136299, -0.0436332, 0.00010636, 0.0235889, 0.00146944, 1.11457, 16.7114, 17.7369, 13.6389, 0.908385, 3.0878, -0.0164075, -0.000630783, -0.00105557, -0.00184557, -0.00546988, -0.00981306, 0.00519188, 0.0320352, -0.0041351, 0.0194037, 0.0346894, 0.140199, 0.219252, -0.00916462, -0.446041, 0.631155, -3.12316, -0.0605461, -0.121253, -0.00997699, -0.445041, 0.632961, -3.12931, -0.0527633, -0.106212, 0.0359161, -0.0225212, -0.0679124, 0.00266585, -0.0282026, -0.0511194
0.169793, 0.111097, -0.772485, -0.923905, -1.45702, -0.625085, 1.07348, -0.256726, 0.0564349, 0.0200401, -0.140011, -0.0410781, -0.000369903, 0.0275213, 0.00233188, 1.07887, 16.7114, 17.7369, 13.5992, 0.920287, 3.07315, -0.0484509, -0.000664091, -0.00104901, -0.00186459, -0.00551761, -0.0100073, 0.00527792, 0.0333021, -0.00563648, 0.02007, 0.0382766, 0.136036, 0.21918, -0.00912849, -0.446063, 0.631087, -3.12301, -0.0606336, -0.121494, -0.0099756, -0.445072, 0.632909, -3.12922, -0.0527177, -0.106152, 0.0363387, -0.0227398, -0.068618, 0.00183166, -0.0299854, -0.0512867
0.170793, 0.111154, -0.772457, -0.924041, -1.45707, -0.625082, 1.07351, -0.256731, 0.0574455, 0.0252293, -0.137799, -0.044473, 0.000431566, 0.0299808, -0.000254104, 1.11457, 16.5646, 17.6615, 13.6389, 0.901976, 3.06674, 0.00373412, -0.000690732, -0.00104522, -0.00188404, -0.00556502, -0.0102193, 0.00534744, 0.0298065, -0.00501537, 0.0207465, 0.0411174, 0.142509, 0.229138, -0.00909194, -0.446086, 0.631018, -3.12286, -0.0607219, -0.121738, -0.00996729, -0.445101, 0.632857, -3.12913, -0.0526989, -0.106068, 0.0367632, -0.0229586, -0.0693252, 0.00565939, -0.0294664, -0.0510442
0.171793, 0.111227, -0.772439, -0.92419, -1.45711, -0.625083, 1.07354, -0.256728, 0.0630475, 0.0237366, -0.141873, -0.0450338, 5.0352e-05, 0.0270876, 0.00114437, 0.928108, 16.4893, 17.7012, 13.5992, 0.908385, 3.06674, -0.0292249, -0.0007203, -0.00103769, -0.00190141, -0.0056072, -0.0104214, 0.00542626, 0.0297326, -0.00521668, 0.0196711, 0.0365993, 0.144383, 0.232884, -0.00905497, -0.446109, 0.630949, -3.12271, -0.0608111, -0.121984, -0.00996118, -0.445133, 0.632802, -3.12903, -0.0526667, -0.106, 0.0371897, -0.0231774, -0.0700339, 0.00624851, -0.0298694, -0.0528278
0.172793, 0.11129, -0.772424, -0.92433, -1.45716, -0.625081, 1.07357, -0.256728, 0.0626106, 0.0217323, -0.139299, -0.047473, 0.000745645, 0.0248751, 0.000595354, 0.928108, 16.4536, 17.6258, 13.6389, 0.889159, 3.06674, -0.0228162, -0.000749838, -0.00103351, -0.00191974, -0.00565134, -0.0106261, 0.00549783, 0.0296531, -0.00386614, 0.0201298, 0.0357906, 0.145457, 0.239129, -0.00901756, -0.446132, 0.630878, -3.12255, -0.0609012, -0.122233, -0.00995482, -0.445162, 0.632748, -3.12894, -0.0526466, -0.105932, 0.0376182, -0.0233964, -0.0707441, 0.00666465, -0.0287485, -0.0530609
0.173793, 0.111355, -0.772416, -0.924476, -1.45721, -0.625083, 1.07359, -0.256728, 0.0654758, 0.018506, -0.142269, -0.0504592, -0.00021498, 0.0231021, 0.000686613, 0.928108, 16.4893, 17.6258, 13.5992, 0.908385, 3.07315, -0.0292249, -0.000784096, -0.0010276, -0.00193722, -0.00569429, -0.0108279, 0.00557669, 0.0304577, -0.00394026, 0.0187521, 0.0318997, 0.146985, 0.243286, -0.00897973, -0.446156, 0.630807, -3.12239, -0.0609922, -0.122484, -0.00995261, -0.445194, 0.632691, -3.12884, -0.0526162, -0.10587, 0.0380486, -0.0236155, -0.0714557, 0.00640141, -0.0290527, -0.0552159
0.174793, 0.111425, -0.772399, -0.924622, -1.45726, -0.625079, 1.07363, -0.256728, 0.0720344, 0.0154124, -0.142764, -0.0499987, 0.00468608, 0.0224936, 0.000259646, 0.888436, 16.4178, 17.5504, 13.5635, 0.901976, 3.05942, -0.0228162, -0.000812118, -0.00102193, -0.00195583, -0.00574058, -0.0110341, 0.00564703, 0.0282096, -0.00338879, 0.0190956, 0.0296841, 0.141315, 0.254589, -0.00894147, -0.44618, 0.630735, -3.12224, -0.0610841, -0.122738, -0.00994386, -0.445225, 0.632636, -3.12874, -0.0525999, -0.105805, 0.0384809, -0.0238347, -0.0721687, 0.00902206, -0.0286451, -0.0554072
0.175793, 0.111494, -0.772381, -0.924768, -1.45731, -0.625082, 1.07366, -0.256732, 0.0703877, 0.0174307, -0.143424, -0.0493476, 0.00326936, 0.0261044, -0.00101816, 0.85273, 16.3068, 17.479, 13.5278, 0.908385, 3.06674, 0.0101428, -0.000840983, -0.00101622, -0.00197445, -0.005789, -0.0112503, 0.00571669, 0.0289397, -0.00402257, 0.0203057, 0.0349051, 0.143208, 0.255322, -0.00890277, -0.446204, 0.630663, -3.12208, -0.061177, -0.122995, -0.00993553, -0.445256, 0.63258, -3.12865, -0.0525856, -0.105726, 0.0389151, -0.0240539, -0.0728831, 0.00865706, -0.0295518, -0.0549881
0.176793, 0.111561, -0.772373, -0.924931, -1.45738, -0.625083, 1.07369, -0.256726, 0.0704392, 0.0118673, -0.149863, -0.0513625, 0.00226313, 0.0288994, 0.00151345, 0.888436, 16.3425, 17.5504, 13.5635, 0.913878, 3.06674, -0.0484509, -0.000878996, -0.00100807, -0.00198572, -0.00581948, -0.0114632, 0.00580906, 0.0325594, -0.00563323, 0.0186768, 0.033354, 0.139635, 0.251118, -0.00886363, -0.446228, 0.630589, -3.12192, -0.0612707, -0.123253, -0.0099352, -0.445291, 0.632514, -3.12853, -0.0525378, -0.105653, 0.0393512, -0.0242732, -0.0735988, 0.00567684, -0.0314948, -0.0576441
0.177793, 0.111626, -0.772359, -0.925091, -1.45744, -0.62508, 1.07372, -0.256731, 0.066739, 0.0130056, -0.152447, -0.0534723, 0.00192745, 0.0317279, -0.000669889, 0.963814, 16.3068, 17.5147, 13.5278, 0.908385, 3.05209, -0.00267457, -0.000913209, -0.0010012, -0.00199965, -0.00585597, -0.0116791, 0.0058864, 0.0344038, -0.00616928, 0.0184687, 0.0347066, 0.142082, 0.251167, -0.00882406, -0.446252, 0.630515, -3.12175, -0.0613653, -0.123515, -0.00993092, -0.445324, 0.632451, -3.12842, -0.052514, -0.10558, 0.0397893, -0.0244926, -0.0743159, 0.00431322, -0.0323218, -0.0587297
0.178793, 0.111703, -0.772346, -0.925253, -1.4575, -0.62508, 1.07375, -0.256728, 0.0713325, 0.0137891, -0.156273, -0.0540232, 0.0010056, 0.0287235, 0.000549175, 0.888436, 16.2671, 17.5504, 13.4525, 0.920287, 3.04477, -0.0292249, -0.000945415, -0.000993433, -0.00201348, -0.00589107, -0.0118983, 0.00596587, 0.03414, -0.0062819, 0.0175835, 0.0307428, 0.146686, 0.254028, -0.00878406, -0.446277, 0.630441, -3.12159, -0.0614609, -0.123779, -0.00992416, -0.445358, 0.632388, -3.12831, -0.052488, -0.105503, 0.0402292, -0.0247119, -0.0750342, 0.00508803, -0.0326319, -0.0603184
0.179793, 0.111768, -0.772332, -0.925411, -1.45757, -0.625079, 1.07379, -0.25673, 0.0664407, 0.0143699, -0.154018, -0.0567672, -0.00012405, 0.0269245, -0.00131999, 1.00349, 16.2314, 17.5147, 13.4525, 0.945006, 3.02371, 0.0165515, -0.00097846, -0.00098676, -0.00202778, -0.00593233, -0.012122, 0.00604411, 0.0356213, -0.00507152, 0.0181567, 0.0312392, 0.151692, 0.256207, -0.00874361, -0.446302, 0.630365, -3.12142, -0.0615574, -0.124045, -0.00991789, -0.445391, 0.632324, -3.1282, -0.0524647, -0.105422, 0.040671, -0.0249313, -0.0757538, 0.00395866, -0.0317147, -0.0605731
0.180793, 0.111838, -0.772321, -0.925571, -1.45763, -0.62508, 1.07383, -0.256724, 0.0671829, 0.0139931, -0.156458, -0.0565154, 0.000482828, 0.0343283, 0.00153449, 1.07887, 16.2314, 17.5147, 13.3771, 0.932189, 3.02371, -0.0484509, -0.00101219, -0.000980206, -0.00204144, -0.00597003, -0.0123465, 0.00612704, 0.0357255, -0.00660156, 0.0189132, 0.0371479, 0.148125, 0.255061, -0.00870271, -0.446327, 0.630289, -3.12126, -0.0616548, -0.124315, -0.00991181, -0.445425, 0.632259, -3.12809, -0.0524353, -0.105343, 0.0411146, -0.0251507, -0.0764746, 0.00429785, -0.0334858, -0.0605796
0.181793, 0.111912, -0.772306, -0.925728, -1.45771, -0.625082, 1.07386, -0.256732, 0.0685496, 0.0153872, -0.153968, -0.0618315, -8.47259e-05, 0.0357589, -0.00137926, 1.11457, 16.16, 17.479, 13.3771, 0.945006, 3.00906, 0.0165515, -0.00104122, -0.000974442, -0.00205447, -0.00600831, -0.0125823, 0.00618914, 0.0331343, -0.00586955, 0.0188516, 0.03848, 0.153646, 0.266307, -0.00866138, -0.446352, 0.630212, -3.12109, -0.0617531, -0.124586, -0.0099006, -0.445458, 0.632192, -3.12798, -0.0524392, -0.105248, 0.0415602, -0.0253701, -0.0771966, 0.0072976, -0.0328772, -0.0611518
