alisrour97/Franka_experiments/Real_Robot_scripts/servo-franka/Data4/log_dyn_INITw_ki_4.csv
Time,q1,q2,q3,q4,q5,q6,q7,dq1,dq2,dq3,dq4,dq5,dq6,dq7,t1,t2,t3,t4,t5,t6,t7,ex1,ex2,ex3,ex4,ex5,ex6,ev1,ev2,ev3,ev4,ev5,ev6,xd,yd,zd,uxd,uyd,uzd,x,y,z,ux,uy,uz,vxd,vyd,vzd,vx,vy,vz
9.76563e-07, 0.10781, -0.773945, -0.916354, -1.45709, -0.625417, 1.0698, -0.256725, -0.000832048, -0.00173332, -0.000265236, 0.00145154, -0.000611703, -0.000514497, 0.0012694, -0.357292, 15.311, 19.7483, 17.0349, 1.34967, 3.96213, -0.205922, 0.00107044, -0.00173952, 0.000346888, 0.000759413, -0.00108598, -0.000185957, 0.00145553, -0.000135074, 0.00028359, 0.000397848, -0.00194453, -0.00333754, -0.011112, -0.444721, 0.635038, -3.13187, -0.0555627, -0.107532, -0.0100822, -0.442942, 0.634775, -3.13118, -0.0563002, -0.105788, 0, 0, 0, -0.00146578, -0.000188623, 0.000182092
0.012196, 0.107779, -0.773969, -0.916365, -1.45707, -0.625427, 1.0698, -0.256722, -0.00266363, -0.00442891, -0.000974465, 0.00169357, -0.000444213, -0.000282303, -0.000897876, -0.242241, 15.4221, 19.8594, 16.9992, 1.37439, 3.97677, -0.166554, 0.00103895, -0.00173571, 0.000344201, 0.000753768, -0.00105886, -0.000127753, 0.00330615, -0.000325562, 0.000136359, 0.000137907, -0.00501409, -0.00356144, -0.011112, -0.444721, 0.635038, -3.13187, -0.0555627, -0.107532, -0.0101145, -0.442947, 0.634777, -3.13118, -0.0562177, -0.105829, 1.73063e-06, 3.0097e-06, -3.96181e-06, -0.00329228, -0.000439806, -9.70574e-05
0.0396233, 0.107779, -0.773969, -0.916365, -1.45707, -0.625427, 1.0698, -0.256722, -0.00266363, -0.00442891, -0.000974465, 0.00169357, -0.000444213, -0.000282303, -0.000897876, -0.242241, 15.4221, 19.8594, 16.9992, 1.37439, 3.97677, -0.166554, 0.00103895, -0.00173571, 0.000344191, 0.000753748, -0.00105888, -0.000127752, 0.00331083, -0.00033429, 0.000148615, 0.000162561, -0.00501075, -0.00351478, -0.011112, -0.444721, 0.635038, -3.13187, -0.0555627, -0.107532, -0.0101145, -0.442947, 0.634777, -3.13118, -0.0562177, -0.105829, 6.91577e-06, 1.20019e-05, -1.58141e-05, -0.00329228, -0.000439806, -9.70574e-05
0.0406235, 0.107779, -0.773969, -0.916365, -1.45707, -0.625427, 1.0698, -0.256722, -0.00266363, -0.00442891, -0.000974465, 0.00169357, -0.000444213, -0.000282303, -0.000897876, -0.242241, 15.4221, 19.8594, 16.9992, 1.37439, 3.97677, -0.166554, 0.00103894, -0.00173569, 0.000344166, 0.000753693, -0.00105894, -0.00012775, 0.0033186, -0.00034877, 0.00016898, 0.000203504, -0.00500518, -0.00343725, -0.011112, -0.444721, 0.635038, -3.13187, -0.0555627, -0.107532, -0.0101145, -0.442947, 0.634777, -3.13118, -0.0562177, -0.105829, 1.55453e-05, 2.69215e-05, -3.55071e-05, -0.00329228, -0.000439806, -9.70574e-05
0.0416238, 0.107779, -0.773969, -0.916365, -1.45707, -0.625427, 1.0698, -0.256722, -0.00266363, -0.00442891, -0.000974465, 0.00169357, -0.000444213, -0.000282303, -0.000897876, -0.242241, 15.4221, 19.8594, 16.9992, 1.37439, 3.97677, -0.166554, 0.00103892, -0.00173565, 0.000344116, 0.000753587, -0.00105907, -0.000127747, 0.00332947, -0.000368949, 0.000197404, 0.000260614, -0.00499737, -0.00332906, -0.011112, -0.444721, 0.635038, -3.13187, -0.0555628, -0.107532, -0.0101145, -0.442947, 0.634777, -3.13118, -0.0562177, -0.105829, 2.7609e-05, 4.77135e-05, -6.29913e-05, -0.00329228, -0.000439806, -9.70574e-05
0.042624, 0.107779, -0.773969, -0.916365, -1.45707, -0.625427, 1.0698, -0.256722, -0.00266363, -0.00442891, -0.000974465, 0.00169357, -0.000444213, -0.000282303, -0.000897876, -0.242241, 15.4221, 19.8594, 16.9992, 1.37439, 3.97677, -0.166554, 0.00103889, -0.00173559, 0.000344034, 0.000753414, -0.00105927, -0.000127741, 0.00334343, -0.000394771, 0.000233836, 0.00033377, -0.00498732, -0.00319042, -0.0111119, -0.444721, 0.635038, -3.13187, -0.0555628, -0.107532, -0.0101145, -0.442947, 0.634777, -3.13118, -0.0562177, -0.105829, 4.30968e-05, 7.4323e-05, -9.82172e-05, -0.00329228, -0.000439806, -9.70574e-05
0.043624, 0.107779, -0.773969, -0.916365, -1.45707, -0.625427, 1.0698, -0.256722, -0.00266363, -0.00442891, -0.000974465, 0.00169357, -0.000444213, -0.000282303, -0.000897876, -0.242241, 15.4221, 19.8594, 16.9992, 1.37439, 3.97677, -0.166554, 0.00103884, -0.00173551, 0.000343911, 0.000753155, -0.00105956, -0.000127732, 0.00336047, -0.000426183, 0.000278225, 0.000422853, -0.00497502, -0.00302152, -0.0111119, -0.444721, 0.635038, -3.13187, -0.0555628, -0.107533, -0.0101145, -0.442947, 0.634777, -3.13118, -0.0562177, -0.105829, 6.19987e-05, 0.000106695, -0.000141136, -0.00329228, -0.000439806, -9.70574e-05
0.044624, 0.107779, -0.773969, -0.916365, -1.45707, -0.625427, 1.0698, -0.256722, -0.00266363, -0.00442891, -0.000974465, 0.00169357, -0.000444213, -0.000282303, -0.000897876, -0.242241, 15.4221, 19.8594, 16.9992, 1.37439, 3.97677, -0.166554, 0.00103878, -0.00173538, 0.000343741, 0.000752795, -0.00105998, -0.00012772, 0.00338057, -0.000463131, 0.000330521, 0.000527742, -0.00496047, -0.00282257, -0.0111118, -0.44472, 0.635037, -3.13187, -0.0555628, -0.107533, -0.0101145, -0.442947, 0.634777, -3.13118, -0.0562177, -0.105829, 8.43044e-05, 0.000144776, -0.000191697, -0.00329228, -0.000439806, -9.70574e-05
0.045624, 0.10758, -0.774029, -0.916431, -1.45699, -0.625469, 1.06978, -0.256719, -0.00958278, 2.37804e-05, -0.000207689, 0.00449773, -0.00027854, 0.000183057, 0.000286389, 0.170357, 15.6046, 20.1569, 16.8127, 1.57764, 4.06283, -0.205922, 0.000885478, -0.00172035, 0.000336907, 0.000741138, -0.000994376, 0.00018347, 0.00535648, -0.00031783, 0.00187739, 0.00383297, -0.00276947, -0.0114646, -0.0111117, -0.44472, 0.635037, -3.13187, -0.0555629, -0.107534, -0.0102672, -0.442967, 0.634773, -3.13119, -0.0557332, -0.105931, 0.000110004, 0.000188511, -0.000249853, -0.00534764, -0.000333672, 0.00125313
0.046624, 0.107577, -0.77403, -0.916438, -1.45699, -0.625469, 1.06978, -0.256722, -0.0129171, -0.000916716, -0.00198617, 0.00236419, -0.000185693, -0.000657856, -0.00126714, 0.134651, 15.6442, 20.2323, 16.8484, 1.57764, 4.08389, -0.166554, 0.000881367, -0.00171867, 0.000338878, 0.000744992, -0.00099427, 0.000188601, 0.00734003, -0.000347611, 0.000781198, 0.00101879, -0.00188611, -0.0131918, -0.0111116, -0.44472, 0.635037, -3.13187, -0.0555629, -0.107535, -0.010271, -0.442969, 0.63477, -3.13118, -0.0557254, -0.105932, 0.000139087, 0.000237846, -0.000315553, -0.00722011, -0.000374444, -4.26144e-05
0.0476274, 0.10757, -0.774029, -0.916442, -1.45699, -0.625469, 1.06978, -0.256722, -0.00963882, 0.00114868, -0.00269484, -0.00189823, 0.000791732, -0.00350878, -0.000844758, 0.134651, 15.5688, 20.1569, 16.7374, 1.55292, 4.04086, -0.166554, 0.000876669, -0.00171765, 0.000338197, 0.000744289, -0.000994766, 0.000200488, 0.0047482, 0.000317203, -0.000917712, -0.00463722, 0.00372324, -0.00794147, -0.0111114, -0.44472, 0.635037, -3.13186, -0.055563, -0.107537, -0.0102755, -0.442969, 0.63477, -3.13118, -0.055707, -0.105932, 0.000171544, 0.000292726, -0.00038875, -0.00451101, 0.000450595, -0.00162852
0.0486274, 0.107567, -0.774029, -0.916444, -1.45699, -0.625469, 1.06978, -0.256724, -0.0095216, -0.000639004, -0.00177558, -0.00203287, 0.00303704, -0.00532435, 0.00719035, 0.0949785, 15.4935, 20.0101, 16.6223, 1.48517, 3.9841, -0.120778, 0.000875051, -0.00171775, 0.000339344, 0.000747696, -0.000999043, 0.000201293, 0.00470218, 0.000989392, -0.000842777, -0.00664543, 0.00122796, -0.0136938, -0.0111112, -0.444719, 0.635036, -3.13186, -0.055563, -0.107538, -0.0102769, -0.442969, 0.634768, -3.13118, -0.055706, -0.105927, 0.000207364, 0.000353099, -0.000469394, -0.00445841, 0.00118369, -0.00162711
0.0496274, 0.107565, -0.774025, -0.91645, -1.457, -0.625475, 1.06977, -0.256726, -0.00636152, -0.000392012, -0.00432357, -0.00374639, -0.000634078, -0.00680079, 0.00436028, 0.059273, 15.3467, 19.8594, 16.4359, 1.43024, 3.92642, -0.0878186, 0.00087237, -0.00171696, 0.000341976, 0.000754617, -0.0010147, 0.000206122, 0.00460695, 0.000310403, -0.0022146, -0.00891771, 0.00627788, -0.010187, -0.011111, -0.444719, 0.635036, -3.13186, -0.0555631, -0.10754, -0.0102791, -0.44297, 0.634765, -3.13117, -0.0556989, -0.105904, 0.000246538, 0.00041891, -0.000557437, -0.00420618, 0.00058611, -0.00308135
0.0506274, 0.107567, -0.774034, -0.916468, -1.457, -0.625485, 1.06976, -0.256718, -0.00653669, -0.00248503, -0.00693155, -0.00328955, -0.00416619, -0.00776528, 0.00519283, -0.0161054, 15.4221, 19.8594, 16.2891, 1.3927, 3.86233, -0.133595, 0.000862821, -0.00171321, 0.000349387, 0.00077086, -0.00102201, 0.000228453, 0.00708681, -0.000562055, -0.00287457, -0.00956065, 0.00720104, -0.0147308, -0.0111107, -0.444719, 0.635035, -3.13186, -0.0555632, -0.107542, -0.0102877, -0.442973, 0.634756, -3.13115, -0.0556649, -0.105894, 0.000289055, 0.000490107, -0.00065283, -0.00655981, -0.000296128, -0.00401091
0.0516274, 0.107563, -0.774038, -0.916468, -1.457, -0.625496, 1.06975, -0.256719, -0.0093288, -0.00200202, -0.00252337, -0.00195258, -0.00709897, -0.0101319, 0.00220939, 0.0196001, 15.4221, 19.5975, 16.1026, 1.36249, 3.84036, -0.0878186, 0.000856938, -0.00171369, 0.000350738, 0.000776611, -0.00103618, 0.000235515, 0.0078996, 0.000312436, -0.00121169, -0.00627254, 0.010037, -0.0128685, -0.0111104, -0.444718, 0.635034, -3.13186, -0.0555634, -0.107545, -0.0102932, -0.442972, 0.634754, -3.13115, -0.0556544, -0.105874, 0.000334905, 0.000566635, -0.000755525, -0.00746934, 0.000611421, -0.00250515
0.0526274, 0.107569, -0.774043, -0.916491, -1.45701, -0.625511, 1.06974, -0.256715, -0.00447389, -0.0024289, -0.00752204, -0.00289672, -0.00966942, -0.00716872, 0.0025511, -0.0914839, 15.4578, 19.6729, 15.9915, 1.34418, 3.8193, -0.10796, 0.000846544, -0.00170918, 0.000358875, 0.000795759, -0.00105383, 0.000256343, 0.00753111, -0.00164443, -0.00271003, -0.00647146, 0.0109718, -0.012487, -0.0111101, -0.444717, 0.635033, -3.13186, -0.0555635, -0.107548, -0.0103025, -0.442977, 0.634744, -3.13113, -0.0556229, -0.105848, 0.000384079, 0.000648441, -0.000865474, -0.00688039, -0.00123649, -0.00409664
0.0536274, 0.10757, -0.774045, -0.916496, -1.45701, -0.625532, 1.06973, -0.256713, -0.00362245, -0.00264873, -0.0078165, -0.00117991, -0.0131547, -0.00891061, 0.00242459, -0.0914839, 15.4935, 19.4864, 15.9161, 1.3689, 3.77627, -0.120778, 0.000840413, -0.00170701, 0.000361891, 0.000798958, -0.00107916, 0.000268791, 0.00858836, -0.00200151, -0.00233531, -0.00549717, 0.0132068, -0.0138289, -0.0111097, -0.444717, 0.635033, -3.13186, -0.0555637, -0.107552, -0.0103079, -0.442978, 0.63474, -3.13112, -0.055604, -0.105811, 0.000436566, 0.000735474, -0.000982628, -0.0078949, -0.00154672, -0.00391484
0.0546274, 0.107568, -0.774047, -0.916505, -1.45702, -0.625553, 1.06972, -0.256714, -0.00373008, -0.00283953, -0.00469416, -0.00154561, -0.0151683, -0.0108922, 0.00132853, -0.0557783, 15.5331, 19.4111, 15.9161, 1.3808, 3.7543, -0.10796, 0.000831667, -0.00170476, 0.000366916, 0.000808438, -0.00110619, 0.000282622, 0.00826939, -0.00133496, -0.00160721, -0.00425247, 0.0156733, -0.0107535, -0.0111092, -0.444716, 0.635032, -3.13185, -0.0555639, -0.107556, -0.0103157, -0.44298, 0.634733, -3.13111, -0.0555832, -0.105772, 0.000492356, 0.000827679, -0.00110694, -0.00759471, -0.000783443, -0.00328678
0.0556274, 0.107565, -0.774052, -0.916522, -1.45702, -0.625572, 1.0697, -0.256713, -0.00377466, -0.00367272, -0.00809666, -0.000671634, -0.0161608, -0.0126279, 0.00150055, -0.0161054, 15.6046, 19.4507, 15.8765, 1.3808, 3.74057, -0.120778, 0.000818395, -0.00170232, 0.000373351, 0.000827057, -0.00113183, 0.000306209, 0.0102498, -0.00195726, -0.00235415, -0.00681128, 0.0160943, -0.013968, -0.0111087, -0.444715, 0.63503, -3.13185, -0.0555641, -0.10756, -0.0103279, -0.442982, 0.634725, -3.1311, -0.0555476, -0.105735, 0.000551439, 0.000925004, -0.00123836, -0.00943675, -0.00137124, -0.00430332
0.0566274, 0.107573, -0.774057, -0.916527, -1.45703, -0.625597, 1.06968, -0.256714, -0.00102314, -0.00429367, -0.00692957, -0.00180271, -0.0166663, -0.0146421, 0.00185146, -0.0914839, 15.6799, 19.3397, 15.9161, 1.37439, 3.74698, -0.140919, 0.000813126, -0.00170092, 0.000378246, 0.000837531, -0.00116369, 0.00030904, 0.0089835, -0.00153735, -0.00250627, -0.00815048, 0.0176174, -0.00980287, -0.0111081, -0.444714, 0.635029, -3.13185, -0.0555643, -0.107565, -0.0103322, -0.442982, 0.634718, -3.13108, -0.055544, -0.10569, 0.000613805, 0.0010274, -0.00137684, -0.00811646, -0.000803353, -0.00450398
0.0576274, 0.107568, -0.77406, -0.916535, -1.45704, -0.625622, 1.06967, -0.256717, -0.00264779, -0.00375913, -0.00781406, -0.0055227, -0.0163835, -0.0160499, -0.000382286, -0.0161054, 15.7156, 19.3, 15.9518, 1.34967, 3.7543, -0.0951428, 0.000802402, -0.00169827, 0.000382157, 0.000843125, -0.00119487, 0.000325273, 0.0092031, -0.00123851, -0.00379607, -0.0116935, 0.0211424, -0.0072473, -0.0111074, -0.444713, 0.635028, -3.13184, -0.0555646, -0.10757, -0.0103419, -0.442984, 0.634712, -3.13108, -0.0555195, -0.105646, 0.000679445, 0.00113481, -0.00152234, -0.00819211, -0.000393897, -0.00594949
0.0586274, 0.107568, -0.774053, -0.916545, -1.45705, -0.625647, 1.06965, -0.256717, -0.00191703, -0.000881745, -0.00930379, -0.00418574, -0.0159353, -0.0170725, -0.000704361, -0.0161054, 15.6442, 19.3, 15.9518, 1.31946, 3.76163, -0.0814099, 0.000795244, -0.00169602, 0.000386353, 0.000852868, -0.00123795, 0.000341066, 0.00884491, -0.00143737, -0.00365991, -0.0125203, 0.0234363, -0.00720853, -0.0111067, -0.444712, 0.635026, -3.13184, -0.0555649, -0.107577, -0.0103479, -0.442986, 0.634706, -3.13107, -0.0554958, -0.105584, 0.000748347, 0.00124718, -0.0016748, -0.00776829, -0.000468811, -0.00594277
0.0596274, 0.107568, -0.774053, -0.916545, -1.45705, -0.625647, 1.06965, -0.256717, -0.00191703, -0.000881745, -0.00930379, -0.00418574, -0.0159353, -0.0170725, -0.000704361, -0.0161054, 15.6442, 19.3, 15.9518, 1.31946, 3.76163, -0.0814099, 0.000794535, -0.00169475, 0.000384548, 0.000849076, -0.00124234, 0.000341211, 0.00891003, -0.00155103, -0.00349492, -0.0121924, 0.0234851, -0.00658286, -0.0111059, -0.444711, 0.635024, -3.13184, -0.0555653, -0.107583, -0.0103479, -0.442986, 0.634706, -3.13107, -0.0554958, -0.105584, 0.000820503, 0.00136446, -0.00183418, -0.00776829, -0.000468811, -0.00594277
0.0606274, 0.107566, -0.774057, -0.916553, -1.45706, -0.625702, 1.06962, -0.25672, -0.00126082, -0.00242064, -0.00633584, -0.00567752, -0.0229863, -0.0189688, -0.00184393, 0.0196001, 15.7156, 19.1889, 15.9915, 1.2453, 3.79733, -0.0557752, 0.000776138, -0.00169208, 0.000391235, 0.000861037, -0.00130858, 0.000369194, 0.00947528, -0.00151422, -0.0031748, -0.00943785, 0.0291394, -0.00449249, -0.0111051, -0.444709, 0.635022, -3.13183, -0.0555656, -0.10759, -0.0103649, -0.442987, 0.634696, -3.13105, -0.0554535, -0.105486, 0.000895902, 0.00148661, -0.00200043, -0.00827967, -0.000332514, -0.00582834
0.0616274, 0.107566, -0.774057, -0.916553, -1.45706, -0.625702, 1.06962, -0.25672, -0.00126082, -0.00242064, -0.00633584, -0.00567752, -0.0229863, -0.0189688, -0.00184393, 0.0196001, 15.7156, 19.1889, 15.9915, 1.2453, 3.79733, -0.0557752, 0.000775293, -0.00169057, 0.000389088, 0.000856528, -0.0013138, 0.00036937, 0.00954626, -0.00163722, -0.0029956, -0.00908222, 0.0291929, -0.00381329, -0.0111041, -0.444708, 0.63502, -3.13183, -0.055566, -0.107598, -0.0103649, -0.442987, 0.634696, -3.13105, -0.0554535, -0.105486, 0.000974534, 0.00161356, -0.00217351, -0.00827967, -0.000332514, -0.00582834
0.0626274, 0.107566, -0.774057, -0.916553, -1.45706, -0.625702, 1.06962, -0.25672, -0.00126082, -0.00242064, -0.00633584, -0.00567752, -0.0229863, -0.0189688, -0.00184393, 0.0196001, 15.7156, 19.1889, 15.9915, 1.2453, 3.79733, -0.0557752, 0.000774376, -0.00168894, 0.000386759, 0.000851641, -0.00131946, 0.000369562, 0.00962016, -0.00176481, -0.00280937, -0.00871288, 0.0292486, -0.00310759, -0.0111031, -0.444706, 0.635018, -3.13182, -0.0555664, -0.107607, -0.0103649, -0.442987, 0.634696, -3.13105, -0.0554535, -0.105486, 0.00105639, 0.00174526, -0.00235336, -0.00827967, -0.000332514, -0.00582834
0.0636274, 0.107561, -0.774052, -0.916584, -1.45708, -0.625798, 1.06956, -0.25671, -0.000944429, 6.80631e-05, -0.00929588, -0.00865276, -0.0260483, -0.0209412, 0.0009493, 0.0949785, 15.6442, 19.2643, 16.178, 1.20318, 3.86233, -0.10796, 0.000743213, -0.00168272, 0.000405288, 0.00088733, -0.00145085, 0.000441612, 0.00994372, -0.00222886, -0.00445448, -0.0120942, 0.0371791, -0.00705363, -0.011102, -0.444704, 0.635016, -3.13182, -0.0555669, -0.107616, -0.0103933, -0.442993, 0.634673, -3.13102, -0.0553441, -0.105287, 0.00114146, 0.00188168, -0.00253994, -0.00838794, -0.000656984, -0.00768129
0.0646274, 0.107563, -0.774047, -0.916591, -1.45709, -0.625833, 1.06954, -0.256714, 0.000178574, 0.000965191, -0.00917444, -0.0078651, -0.0296392, -0.0220713, -0.000814673, 0.059273, 15.6046, 19.2246, 16.2494, 1.21509, 3.91269, -0.0685925, 0.000735332, -0.00168062, 0.00040988, 0.000897242, -0.00150916, 0.000451855, 0.010203, -0.00260546, -0.00407842, -0.0105788, 0.0409124, -0.00544898, -0.0111008, -0.444702, 0.635013, -3.13181, -0.0555674, -0.107626, -0.0103996, -0.442993, 0.634665, -3.13101, -0.0553294, -0.105205, 0.00122973, 0.00202275, -0.00273321, -0.00857047, -0.000904618, -0.00751965
0.0656274, 0.107561, -0.774049, -0.916601, -1.45709, -0.625868, 1.06951, -0.25671, -0.000736437, -0.000290712, -0.0141092, -0.00777005, -0.0308137, -0.0223781, 0.00068548, 0.0949785, 15.6442, 19.2643, 16.2137, 1.19037, 3.94839, -0.101552, 0.000720324, -0.00167701, 0.000412377, 0.000903405, -0.00155325, 0.0004818, 0.0129403, -0.00378908, -0.00529119, -0.0130813, 0.0409241, -0.011445, -0.0110996, -0.4447, 0.63501, -3.1318, -0.055568, -0.107637, -0.010413, -0.442995, 0.634659, -3.131, -0.055284, -0.105147, 0.00132119, 0.00216842, -0.00293311, -0.0110828, -0.00202755, -0.00912512
0.0666274, 0.107558, -0.774046, -0.916605, -1.4571, -0.625906, 1.06949, -0.256709, -0.00143418, 0.000729597, -0.00880561, -0.00956032, -0.0328711, -0.0172615, 0.000700264, 0.134651, 15.6046, 19.1889, 16.2494, 1.19678, 3.96945, -0.10796, 0.000709581, -0.00167499, 0.000415375, 0.000908771, -0.00161239, 0.000501572, 0.0108066, -0.00392138, -0.00360611, -0.00477596, 0.0419056, -0.00737716, -0.0110982, -0.444698, 0.635007, -3.1318, -0.0555686, -0.107648, -0.0104221, -0.442995, 0.634652, -3.13099, -0.0552544, -0.105065, 0.00141584, 0.00231864, -0.0031396, -0.00897142, -0.00194905, -0.00750475
0.0676274, 0.107555, -0.774046, -0.916614, -1.45711, -0.625947, 1.06947, -0.256714, -0.00273076, 0.000482937, -0.00983589, -0.00699779, -0.0338842, -0.0168737, -0.00098678, 0.21003, 15.6046, 19.1889, 16.2494, 1.19037, 3.95572, -0.0685925, 0.000695465, -0.00167082, 0.000419221, 0.000913425, -0.00166864, 0.000522674, 0.0125627, -0.00458724, -0.0028325, -0.00272344, 0.0406667, -0.00873472, -0.0110967, -0.444695, 0.635004, -3.13179, -0.0555692, -0.107661, -0.0104343, -0.442998, 0.634644, -3.13098, -0.0552228, -0.104989, 0.00151366, 0.00247337, -0.00335263, -0.0106537, -0.00252822, -0.00707108
0.0686274, 0.107558, -0.774048, -0.916624, -1.45712, -0.625983, 1.06944, -0.256713, -0.000901036, -0.000608658, -0.00830428, -0.00830259, -0.0337303, -0.016811, -0.00140051, 0.170357, 15.6442, 19.2246, 16.2494, 1.16015, 3.94107, -0.0484509, 0.000684118, -0.00166679, 0.000423492, 0.000921318, -0.00171962, 0.000540436, 0.0113784, -0.00442948, -0.00265706, -0.00222916, 0.040292, -0.00372365, -0.0110952, -0.444693, 0.635, -3.13178, -0.0555699, -0.107674, -0.0104436, -0.442999, 0.634635, -3.13097, -0.0551964, -0.104922, 0.00161465, 0.00263255, -0.00357216, -0.00938962, -0.00217122, -0.00703327
0.0696274, 0.107556, -0.774051, -0.916632, -1.45713, -0.626022, 1.06942, -0.256706, 0.0061333, -0.00124294, -0.00538482, -0.00447986, -0.0339086, -0.0162092, 0.000798154, 0.170357, 15.6799, 19.1889, 16.178, 1.13544, 3.91269, -0.0951428, 0.000669016, -0.00166267, 0.000425598, 0.000924766, -0.00177135, 0.000571838, 0.00838709, -0.00458895, -0.000610321, 0.00233343, 0.0369878, 0.0021553, -0.0110935, -0.44469, 0.634997, -3.13177, -0.0555706, -0.107688, -0.0104567, -0.443001, 0.634628, -3.13096, -0.0551488, -0.104854, 0.00171879, 0.00279613, -0.00379814, -0.00643762, -0.00207955, -0.00501273
0.0706274, 0.107553, -0.774051, -0.916646, -1.45714, -0.626059, 1.0694, -0.256705, 0.00371774, -0.000830085, -0.00894021, -0.00809638, -0.0388438, -0.0256637, 0.000771334, 0.21003, 15.6799, 19.2643, 16.2494, 1.11072, 3.89804, -0.101552, 0.000654989, -0.00165836, 0.000431689, 0.00093666, -0.00183085, 0.00059692, 0.0117876, -0.00398651, -0.00322187, -0.00729806, 0.048481, -0.0025404, -0.0110917, -0.444687, 0.634993, -3.13176, -0.0555714, -0.107702, -0.0104683, -0.443003, 0.634618, -3.13095, -0.0551114, -0.104775, 0.00182607, 0.00296406, -0.00403052, -0.00956317, -0.00140648, -0.00808076
0.0716274, 0.107557, -0.774046, -0.916647, -1.45715, -0.626096, 1.06937, -0.256714, 0.00382418, 0.00120875, -0.00483775, -0.00747693, -0.0429376, -0.0289412, -0.0024005, 0.170357, 15.6046, 19.1889, 16.178, 1.0979, 3.90536, -0.0228162, 0.000647103, -0.00165625, 0.000431726, 0.000939275, -0.00189218, 0.000600747, 0.0111801, -0.00322785, -0.00183207, -0.00469122, 0.0547534, 0.00250589, -0.0110899, -0.444684, 0.634989, -3.13175, -0.0555722, -0.107718, -0.0104742, -0.443003, 0.634613, -3.13094, -0.0551068, -0.104694, 0.00193648, 0.00313629, -0.00426926, -0.00896933, -0.000466783, -0.0068866
0.0726274, 0.107553, -0.774046, -0.916661, -1.45715, -0.626138, 1.06935, -0.256709, 0.00109947, -0.000123006, -0.00763934, -0.00708308, -0.0465679, -0.0303118, 9.61433e-05, 0.245735, 15.6442, 19.2246, 16.1026, 1.0979, 3.88339, -0.0685925, 0.000629078, -0.00165029, 0.000434163, 0.000941725, -0.00194886, 0.000638856, 0.0147294, -0.00408787, -0.00234021, -0.00526997, 0.0567988, -0.00582517, -0.0110879, -0.444681, 0.634984, -3.13174, -0.0555731, -0.107735, -0.0104898, -0.443006, 0.634605, -3.13093, -0.0550489, -0.104622, 0.00205002, 0.00331277, -0.00451432, -0.0123289, -0.00127017, -0.00788845
0.0736274, 0.107553, -0.774051, -0.916671, -1.45717, -0.626176, 1.06932, -0.256707, 0.000967915, -0.00175306, -0.00881475, -0.0105635, -0.0440764, -0.0223151, 0.000539603, 0.245735, 15.7156, 19.2246, 16.178, 1.086, 3.86966, -0.0814099, 0.000615591, -0.00164626, 0.000439219, 0.000952511, -0.00200839, 0.000658776, 0.013707, -0.00547501, -0.00283081, -0.00176543, 0.0516563, -0.00331951, -0.0110858, -0.444678, 0.63498, -3.13173, -0.055574, -0.107752, -0.0105007, -0.443007, 0.634594, -3.13091, -0.0550197, -0.104545, 0.00216668, 0.00349346, -0.00476563, -0.0111097, -0.00243544, -0.00856774
0.0746274, 0.107555, -0.774045, -0.916678, -1.45717, -0.62622, 1.06929, -0.25671, 0.00082148, 0.00050127, -0.0089306, -0.0101417, -0.0433317, -0.0262252, -0.000351749, 0.245735, 15.6442, 19.1889, 16.1383, 1.10431, 3.86966, -0.0621838, 0.000603961, -0.00164141, 0.00044036, 0.000952458, -0.00207654, 0.000678016, 0.0135886, -0.00485258, -0.00272243, -0.0046135, 0.0551244, -0.00152088, -0.0110835, -0.444674, 0.634975, -3.13172, -0.055575, -0.107771, -0.0105098, -0.443009, 0.634587, -3.1309, -0.0549912, -0.104457, 0.00228643, 0.0036783, -0.00502317, -0.0109015, -0.00162534, -0.00870529
0.0756274, 0.107554, -0.77404, -0.916692, -1.45718, -0.626258, 1.06927, -0.256713, 0.000679806, 0.00126185, -0.0075948, -0.0117673, -0.0415973, -0.0288955, -0.00145476, 0.245735, 15.6046, 19.2246, 16.178, 1.09241, 3.86233, -0.0292249, 0.000589927, -0.00163627, 0.000444327, 0.000962071, -0.00214414, 0.000700254, 0.0127079, -0.00397137, -0.00276596, -0.00712908, 0.0569983, 0.00315309, -0.0110812, -0.44467, 0.634969, -3.13171, -0.0555761, -0.10779, -0.010521, -0.44301, 0.634577, -3.13089, -0.0549585, -0.10437, 0.00240928, 0.00386724, -0.00528689, -0.00992905, -0.00052437, -0.00894645
0.0766274, 0.107553, -0.77404, -0.9167, -1.45719, -0.626296, 1.06924, -0.256705, 0.000552319, 0.000840976, -0.00566758, -0.0104653, -0.0403983, -0.0269435, 0.00170926, 0.245735, 15.6046, 19.2246, 16.2494, 1.086, 3.87607, -0.101552, 0.000577234, -0.00163212, 0.000446905, 0.000968352, -0.00220867, 0.000727725, 0.0122144, -0.00408984, -0.00138166, -0.00346786, 0.0538394, 0.0022927, -0.0110787, -0.444666, 0.634964, -3.1317, -0.0555772, -0.107811, -0.0105308, -0.443011, 0.634568, -3.13087, -0.0549176, -0.104289, 0.00253522, 0.00406024, -0.00555673, -0.00940183, -0.000444508, -0.00780228
0.0776274, 0.107556, -0.774042, -0.916704, -1.4572, -0.626336, 1.06921, -0.256705, 0.00127777, -0.000367564, -0.00479372, -0.0068541, -0.0435486, -0.030125, 0.00113976, 0.21003, 15.6442, 19.1135, 16.2137, 1.06769, 3.89071, -0.101552, 0.00056402, -0.00162833, 0.000445977, 0.000968635, -0.00226793, 0.000745496, 0.0138019, -0.00416269, -9.00434e-05, -0.00181524, 0.054327, 0.00196294, -0.0110761, -0.444662, 0.634958, -3.13168, -0.0555784, -0.107832, -0.0105413, -0.443011, 0.634563, -3.13086, -0.0548915, -0.104218, 0.00266423, 0.00425725, -0.00583265, -0.0109415, -0.000387473, -0.00689973
0.0786274, 0.107553, -0.774039, -0.916714, -1.45721, -0.626373, 1.06919, -0.256714, 7.23782e-05, 0.000682831, -0.00379915, -0.00510375, -0.0414497, -0.0277661, -0.0021561, 0.245735, 15.6046, 19.1135, 16.2137, 1.04938, 3.90536, -0.0228162, 0.000549525, -0.00162268, 0.000446534, 0.000969413, -0.00233055, 0.000762277, 0.0135156, -0.00440736, 0.00130065, 0.00164158, 0.0514934, 0.00602341, -0.0110734, -0.444658, 0.634952, -3.13167, -0.0555796, -0.107855, -0.0105528, -0.443013, 0.634555, -3.13085, -0.0548671, -0.104142, 0.0027963, 0.00445821, -0.00611461, -0.0106107, -0.000433173, -0.00577643
0.0796274, 0.107555, -0.774034, -0.916724, -1.45721, -0.626407, 1.06916, -0.25671, 9.00661e-05, 0.00212555, -0.00609335, -0.00463849, -0.0449046, -0.0298769, 2.08034e-05, 0.245735, 15.5331, 19.1135, 16.2494, 1.03656, 3.89804, -0.0621838, 0.000538681, -0.00161774, 0.000447678, 0.000974083, -0.00239622, 0.000784446, 0.0149267, -0.00505713, 0.000958559, 0.000814435, 0.0565116, 0.00134218, -0.0110705, -0.444653, 0.634946, -3.13165, -0.0555809, -0.107878, -0.0105605, -0.443014, 0.634547, -3.13084, -0.0548346, -0.104062, 0.00293143, 0.00466308, -0.00640257, -0.0118357, -0.000924306, -0.00650731
0.0806274, 0.107559, -0.774032, -0.916733, -1.45722, -0.626444, 1.06914, -0.256704, 0.000926622, 0.00141695, -0.00691161, -0.00760621, -0.0430342, -0.0276168, 0.00096341, 0.21003, 15.5331, 19.0778, 16.2891, 1.03107, 3.91269, -0.0878186, 0.000526501, -0.00161235, 0.000448034, 0.000976618, -0.00246099, 0.000809032, 0.0139387, -0.00546736, 0.000272296, 0.000243655, 0.055324, 0.0041854, -0.0110675, -0.444648, 0.63494, -3.13164, -0.0555822, -0.107903, -0.0105694, -0.443015, 0.634539, -3.13082, -0.0547982, -0.103986, 0.00306961, 0.00487181, -0.00669647, -0.0106508, -0.00108474, -0.00742065
0.0816274, 0.107558, -0.774032, -0.916743, -1.45723, -0.626481, 1.06911, -0.256707, 0.00301932, 0.000109353, -0.00847173, -0.00640523, -0.0413082, -0.0245439, -0.00081571, 0.245735, 15.5688, 19.0778, 16.3248, 1.01825, 3.89071, -0.0484509, 0.000512602, -0.00160583, 0.000448291, 0.000975755, -0.00252289, 0.000827747, 0.0136269, -0.0064943, 0.000662725, 0.0021651, 0.0505662, 0.0082535, -0.0110644, -0.444643, 0.634933, -3.13162, -0.0555837, -0.107929, -0.0105799, -0.443017, 0.634531, -3.13081, -0.054771, -0.103914, 0.00321082, 0.00508435, -0.00699628, -0.0101888, -0.00189095, -0.00731634
0.0826274, 0.107562, -0.774026, -0.916755, -1.45724, -0.626514, 1.06909, -0.256712, 0.00650798, 0.000908074, -0.00727569, -0.00557258, -0.035175, -0.0225881, -0.00125582, 0.21003, 15.5331, 19.1135, 16.3644, 0.999938, 3.87607, -0.0292249, 0.000501387, -0.00159917, 0.000448356, 0.000976797, -0.00258764, 0.000841939, 0.0103537, -0.0062531, 0.00166681, 0.0028208, 0.0452613, 0.016795, -0.0110611, -0.444638, 0.634926, -3.13161, -0.0555852, -0.107956, -0.0105875, -0.443019, 0.634523, -3.1308, -0.0547509, -0.10384, 0.00335505, 0.00530066, -0.00730195, -0.00685876, -0.00132734, -0.00639335
0.0836274, 0.107564, -0.774025, -0.916765, -1.45724, -0.626551, 1.06907, -0.256709, 0.00483392, 0.000605348, -0.00852274, -0.0062358, -0.0406562, -0.0167661, 0.000383532, 0.21003, 15.5331, 19.1135, 16.3248, 0.999938, 3.86966, -0.0621838, 0.000486929, -0.00159206, 0.000445689, 0.000971222, -0.00264817, 0.000867862, 0.0120366, -0.00831258, 0.00198507, 0.00982329, 0.0467603, 0.011469, -0.0110577, -0.444633, 0.634918, -3.13159, -0.0555867, -0.107984, -0.0105984, -0.443021, 0.634517, -3.13079, -0.0547124, -0.103774, 0.0035023, 0.00552068, -0.00761342, -0.00833776, -0.00322751, -0.00651697
0.0846274, 0.107572, -0.774023, -0.916774, -1.45723, -0.626587, 1.06905, -0.256711, 0.0053573, 0.000403539, -0.00554895, -0.00286856, -0.0401954, -0.0175666, -0.00120234, 0.134651, 15.5331, 19.0778, 16.2494, 1.00635, 3.87607, -0.0228162, 0.000475414, -0.00158438, 0.000441708, 0.000962655, -0.0027069, 0.000884119, 0.0117398, -0.00798282, 0.00409299, 0.0133235, 0.0443949, 0.0155706, -0.0110541, -0.444627, 0.63491, -3.13157, -0.0555884, -0.108013, -0.0106063, -0.443023, 0.634513, -3.13079, -0.0546889, -0.103711, 0.00365255, 0.00574437, -0.00793067, -0.00804826, -0.0026826, -0.00470914
0.0856274, 0.107578, -0.774024, -0.916782, -1.45725, -0.626621, 1.06903, -0.256706, 0.00477814, -0.000566211, -0.00965824, -0.00495958, -0.0398576, -0.0176631, 0.000419168, 0.0949785, 15.5688, 19.0421, 16.3644, 1.01276, 3.86966, -0.0557752, 0.000464821, -0.00157777, 0.000441191, 0.000960968, -0.00277056, 0.000900463, 0.0132605, -0.00881653, 0.00259579, 0.0098901, 0.0448772, 0.0127441, -0.0110504, -0.444621, 0.634902, -3.13155, -0.0555901, -0.108044, -0.0106129, -0.443024, 0.634504, -3.13077, -0.0546656, -0.103642, 0.0038058, 0.00597168, -0.00825364, -0.00927847, -0.00332871, -0.00663644
0.0866274, 0.107584, -0.774029, -0.916792, -1.45725, -0.626654, 1.069, -0.256713, 0.00746471, -0.00121271, -0.0105142, -0.00524379, -0.0343663, -0.0185017, -0.000941239, 0.059273, 15.6046, 19.0421, 16.4359, 1.00635, 3.88339, -0.0228162, 0.000452246, -0.00157046, 0.000440055, 0.000958963, -0.00282911, 0.000908205, 0.0116421, -0.00849264, 0.00242582, 0.00645815, 0.0408508, 0.0201996, -0.0110465, -0.444615, 0.634894, -3.13153, -0.0555919, -0.108076, -0.0106214, -0.443026, 0.634496, -3.13076, -0.0546557, -0.103582, 0.00396204, 0.00620257, -0.00858229, -0.00750855, -0.00271574, -0.00702124
0.0876274, 0.107587, -0.774024, -0.916796, -1.45726, -0.626689, 1.06898, -0.256704, 0.00540277, 0.000861954, -0.0125383, -0.00672406, -0.0354286, -0.0230928, 0.00154266, 0.059273, 15.5331, 18.9667, 16.4359, 1.01276, 3.87607, -0.0814099, 0.000441509, -0.00156378, 0.000435083, 0.000948564, -0.00289469, 0.000932892, 0.013105, -0.0082043, 0.00148474, 0.00179731, 0.0471972, 0.0156651, -0.0110424, -0.444609, 0.634885, -3.13151, -0.0555937, -0.108109, -0.0106282, -0.443027, 0.634492, -3.13076, -0.0546193, -0.103513, 0.00412125, 0.00643698, -0.00891658, -0.00875339, -0.0022363, -0.00839393
0.0886274, 0.10759, -0.774025, -0.916812, -1.45726, -0.626722, 1.06896, -0.256707, 0.00722168, -0.00026059, -0.0121991, -0.00581322, -0.0360343, -0.0219871, -0.000429611, 0.059273, 15.5688, 19.0778, 16.4755, 1.01276, 3.86966, -0.0420422, 0.0004266, -0.0015545, 0.000433727, 0.000944794, -0.00295679, 0.00095167, 0.0128712, -0.00876774, 0.00221215, 0.00422849, 0.0454998, 0.020282, -0.0110382, -0.444602, 0.634876, -3.13149, -0.0555957, -0.108143, -0.0106386, -0.44303, 0.634483, -3.13074, -0.0545924, -0.103451, 0.00428343, 0.00667487, -0.00925645, -0.00838808, -0.0025598, -0.00799613
0.0896274, 0.107598, -0.77403, -0.916821, -1.45727, -0.626754, 1.06894, -0.256709, 0.00625728, -0.00193697, -0.0122333, -0.00417736, -0.0359156, -0.0216277, -0.000761118, 0.0196001, 15.6442, 19.0778, 16.4755, 0.999938, 3.88339, -0.0292249, 0.000414102, -0.00154625, 0.000429761, 0.000937042, -0.00301316, 0.000963894, 0.0142445, -0.00917185, 0.00305854, 0.00601864, 0.0426057, 0.0201944, -0.0110339, -0.444596, 0.634867, -3.13147, -0.0555977, -0.108178, -0.0106467, -0.443032, 0.634477, -3.13073, -0.0545755, -0.103398, 0.00444857, 0.0069162, -0.00960188, -0.00963598, -0.0027783, -0.00759526
0.0906274, 0.107602, -0.774024, -0.91683, -1.45727, -0.626789, 1.06892, -0.256705, 0.00700048, 0.000471919, -0.0122799, -0.00513512, -0.0366277, -0.0215584, 0.000713297, 0.059273, 15.5688, 19.0778, 16.4359, 1.00635, 3.89804, -0.0621838, 0.000400808, -0.00153744, 0.000423525, 0.000923975, -0.00307886, 0.000989885, 0.0132847, -0.00941784, 0.00319132, 0.00666495, 0.0462673, 0.0209406, -0.0110293, -0.444589, 0.634857, -3.13145, -0.0555998, -0.108215, -0.0106555, -0.443034, 0.634472, -3.13073, -0.0545373, -0.103333, 0.00461665, 0.00716091, -0.0099528, -0.00851135, -0.0027469, -0.00774951
0.0916274, 0.107608, -0.774022, -0.916839, -1.45727, -0.626813, 1.0689, -0.256702, 0.008507, 0.00114983, -0.00917203, -0.00301232, -0.0313012, -0.0213298, 0.00142497, 0.059273, 15.5331, 19.0778, 16.4001, 0.981627, 3.91269, -0.0878186, 0.000390023, -0.00152943, 0.000417662, 0.000915866, -0.00313615, 0.0010066, 0.010941, -0.00864633, 0.00508888, 0.00836934, 0.0414053, 0.026953, -0.0110246, -0.444581, 0.634847, -3.13142, -0.055602, -0.108254, -0.0106617, -0.443035, 0.634467, -3.13072, -0.0545136, -0.103282, 0.00478767, 0.00740896, -0.0103092, -0.00616206, -0.00166259, -0.00604628
0.0926274, 0.107619, -0.774024, -0.916844, -1.45727, -0.626841, 1.06888, -0.25671, 0.0081349, -6.8669e-05, -0.00825725, -0.00316152, -0.0329972, -0.0203329, -0.00169487, -0.0161054, 15.5688, 19.0024, 16.4359, 0.981627, 3.90536, -0.0164075, 0.000382284, -0.00152142, 0.000411749, 0.000903624, -0.00319429, 0.00100214, 0.011534, -0.00909461, 0.00573362, 0.0111515, 0.0411515, 0.0310757, -0.0110198, -0.444574, 0.634836, -3.1314, -0.0556043, -0.108293, -0.0106646, -0.443036, 0.634462, -3.13071, -0.0545228, -0.103231, 0.00496161, 0.0076603, -0.010671, -0.00660781, -0.00188606, -0.00580938
0.0936274, 0.107626, -0.774019, -0.916859, -1.45727, -0.62687, 1.06886, -0.256708, 0.00511329, 0.00171746, -0.00808627, -0.00151103, -0.029498, -0.0149434, -0.000655194, 0.0196001, 15.4935, 19.0778, 16.4001, 0.981627, 3.89804, -0.0292249, 0.000370115, -0.0015105, 0.000406265, 0.000890927, -0.00325705, 0.00102345, 0.0115135, -0.00987044, 0.0072949, 0.0163657, 0.0365923, 0.0294185, -0.0110147, -0.444566, 0.634825, -3.13137, -0.0556067, -0.108334, -0.0106717, -0.44304, 0.634456, -3.1307, -0.0544921, -0.103175, 0.00513848, 0.00791489, -0.0110382, -0.00649055, -0.00242037, -0.0046233
0.0946274, 0.107629, -0.774017, -0.916869, -1.45727, -0.626899, 1.06885, -0.256702, 0.00203955, 0.00114497, -0.0129768, -0.00118628, -0.0270457, -0.0161658, 0.00173334, 0.0949785, 15.4935, 19.1135, 16.4001, 0.988036, 3.90536, -0.0878186, 0.00035701, -0.00150087, 0.000399513, 0.000877389, -0.00332013, 0.00104844, 0.0144963, -0.0105129, 0.00635515, 0.0121613, 0.0349023, 0.0227053, -0.0110095, -0.444558, 0.634814, -3.13135, -0.0556092, -0.108376, -0.0106796, -0.443042, 0.63445, -3.13069, -0.0544558, -0.103119, 0.00531825, 0.00817268, -0.0114107, -0.00919688, -0.00290119, -0.00614469
0.0956274, 0.107639, -0.774013, -0.91688, -1.45727, -0.626924, 1.06883, -0.256703, 0.00165515, 0.00159853, -0.0105509, 0.000838187, -0.0246984, -0.0123725, 0.000680847, 0.0949785, 15.4578, 19.1532, 16.3248, 0.981627, 3.91269, -0.0750012, 0.000346322, -0.00149036, 0.000391569, 0.000862147, -0.00337803, 0.00106111, 0.0134696, -0.0108226, 0.00841358, 0.0179165, 0.0303675, 0.0267846, -0.0110041, -0.44455, 0.634803, -3.13132, -0.0556118, -0.10842, -0.010685, -0.443044, 0.634446, -3.13068, -0.0544385, -0.103073, 0.00550092, 0.00843363, -0.0117885, -0.00812171, -0.00293259, -0.00440066
0.0966274, 0.107649, -0.774013, -0.916892, -1.45727, -0.626953, 1.06881, -0.256707, 0.00542844, 0.000230468, -0.0109219, 0.000458145, -0.0284025, -0.0138961, -0.000766804, 0.059273, 15.4935, 19.1532, 16.3248, 0.993529, 3.91269, -0.0420422, 0.000334825, -0.00147901, 0.000384292, 0.000845089, -0.00343833, 0.0010711, 0.0133159, -0.0114011, 0.00829352, 0.0182013, 0.0330048, 0.0316264, -0.0109985, -0.444541, 0.634791, -3.13129, -0.0556144, -0.108465, -0.010691, -0.443048, 0.63444, -3.13068, -0.0544255, -0.103025, 0.00568647, 0.00869769, -0.0121715, -0.00775417, -0.00324037, -0.00489737
0.0976274, 0.107655, -0.774013, -0.916907, -1.45727, -0.62698, 1.0688, -0.256703, 0.00648514, 0.00326539, -0.00976157, 0.000229945, -0.0264862, -0.0148262, 0.000709501, 0.0949785, 15.4935, 19.2246, 16.3248, 1.00635, 3.90536, -0.0750012, 0.000321135, -0.00146685, 0.000377275, 0.00082915, -0.00349794, 0.00109398, 0.0113999, -0.010993, 0.00895526, 0.0181057, 0.0352932, 0.0346305, -0.0109927, -0.444532, 0.634778, -3.13127, -0.0556172, -0.108512, -0.0106989, -0.443052, 0.634434, -3.13067, -0.0543926, -0.102979, 0.00587491, 0.00896481, -0.0125597, -0.005716, -0.00250435, -0.0044906
0.0986274, 0.10766, -0.774013, -0.916919, -1.45728, -0.627005, 1.06879, -0.256702, 0.00742131, 0.00150822, -0.00711509, -0.00166655, -0.0247449, -0.0111253, 0.000947719, 0.134651, 15.5331, 19.2246, 16.4001, 1.01276, 3.90536, -0.0878186, 0.000308835, -0.00145585, 0.000371191, 0.000815607, -0.00356108, 0.00110964, 0.0097146, -0.0111619, 0.0097671, 0.0217859, 0.0316221, 0.0406928, -0.0109867, -0.444523, 0.634765, -3.13124, -0.05562, -0.10856, -0.0107052, -0.443054, 0.634426, -3.13066, -0.0543711, -0.102929, 0.00606621, 0.00923495, -0.0129531, -0.00389476, -0.00235136, -0.00395902
0.0996274, 0.107668, -0.774007, -0.916932, -1.45728, -0.627029, 1.06877, -0.256707, 0.00807955, 0.00609967, -0.00612694, -0.0011535, -0.0281803, -0.0136823, -0.00106361, 0.170357, 15.4578, 19.2643, 16.4001, 1.01825, 3.9191, -0.0420422, 0.000298224, -0.00144428, 0.000362978, 0.000799485, -0.00362781, 0.00111909, 0.00893706, -0.0111091, 0.0105474, 0.0231096, 0.0398617, 0.0437394, -0.0109806, -0.444514, 0.634752, -3.13121, -0.055623, -0.10861, -0.0107098, -0.443057, 0.634421, -3.13065, -0.0543593, -0.102875, 0.00626038, 0.00950806, -0.0133516, -0.00298149, -0.0020056, -0.00352549
0.100627, 0.107681, -0.774005, -0.916944, -1.45728, -0.627056, 1.06876, -0.256703, 0.0104216, 0.00447368, -0.00752825, 3.4375e-05, -0.026714, -0.0144102, 0.000748991, 0.134651, 15.4578, 19.2643, 16.3644, 1.04297, 3.90536, -0.0814099, 0.00028826, -0.00143163, 0.000353777, 0.000778268, -0.00369127, 0.00113445, 0.00906255, -0.0115174, 0.0107345, 0.0221244, 0.036951, 0.0448666, -0.0109742, -0.444504, 0.634739, -3.13117, -0.055626, -0.108661, -0.0107135, -0.44306, 0.634416, -3.13064, -0.0543383, -0.102828, 0.00645739, 0.00978411, -0.0137552, -0.00290821, -0.00214406, -0.0037545
0.101627, 0.10769, -0.774004, -0.916954, -1.45728, -0.627081, 1.06875, -0.256701, 0.0111541, 0.00245266, -0.00860896, -9.67179e-07, -0.024839, -0.0108235, 0.00100795, 0.134651, 15.4935, 19.2643, 16.3644, 1.04938, 3.90536, -0.0951428, 0.00027758, -0.00141903, 0.000343802, 0.000755059, -0.0037519, 0.00114715, 0.0091258, -0.0124947, 0.0110567, 0.0242964, 0.0319356, 0.0470365, -0.0109676, -0.444494, 0.634725, -3.13114, -0.0556292, -0.108713, -0.0107179, -0.443063, 0.634411, -3.13064, -0.0543213, -0.102787, 0.00665724, 0.010063, -0.0141638, -0.00275906, -0.00284733, -0.00385345
0.102627, 0.107703, -0.773996, -0.916969, -1.45728, -0.627106, 1.06873, -0.256703, 0.0125546, 0.00579286, -0.0103225, -0.000853776, -0.0234376, -0.012827, -0.00105736, 0.0949785, 15.4578, 19.3, 16.4001, 1.05578, 3.90536, -0.0484509, 0.000269408, -0.00140612, 0.000335814, 0.000737473, -0.00382475, 0.00115472, 0.0079882, -0.0124831, 0.010645, 0.0213339, 0.0360112, 0.0519066, -0.0109609, -0.444484, 0.63471, -3.13111, -0.0556325, -0.108767, -0.0107193, -0.443066, 0.634404, -3.13063, -0.0543128, -0.102728, 0.00685993, 0.0103448, -0.0145774, -0.00139447, -0.00251051, -0.00459931
0.103627, 0.107714, -0.773992, -0.916986, -1.45729, -0.627127, 1.06872, -0.256704, 0.0127482, 0.00512672, -0.0117095, -0.000582618, -0.0271439, -0.009356, -0.00019628, 0.0949785, 15.4221, 19.3397, 16.4001, 1.06128, 3.89804, -0.0621838, 0.000259307, -0.00139194, 0.000327435, 0.000718573, -0.00388979, 0.00116618, 0.00915062, -0.0141158, 0.0110444, 0.0260042, 0.0364482, 0.0499017, -0.0109539, -0.444473, 0.634696, -3.13108, -0.0556359, -0.108823, -0.0107225, -0.44307, 0.634397, -3.13062, -0.0542982, -0.102683, 0.00706543, 0.0106294, -0.0149959, -0.00231743, -0.00390256, -0.00471225
0.104627, 0.107719, -0.77399, -0.917, -1.45728, -0.627154, 1.06871, -0.256699, 0.007755, 0.00290479, -0.00862501, 0.00136475, -0.0254574, -0.0117431, 0.000581223, 0.170357, 15.4578, 19.3397, 16.3248, 1.0741, 3.89804, -0.0814099, 0.000243745, -0.00137784, 0.000315421, 0.00069192, -0.00395533, 0.00119317, 0.0115519, -0.0132063, 0.0128153, 0.0273032, 0.0328697, 0.0479503, -0.0109468, -0.444463, 0.63468, -3.13104, -0.0556394, -0.10888, -0.0107312, -0.443074, 0.634392, -3.13061, -0.0542593, -0.102639, 0.00727374, 0.0109167, -0.0154193, -0.00465866, -0.00280787, -0.00353072
0.105627, 0.107734, -0.773981, -0.91702, -1.45728, -0.627179, 1.0687, -0.256705, 0.0101643, 0.00616361, -0.0111376, 0.00173749, -0.0248268, -0.00882554, -0.000833221, 0.134651, 15.4221, 19.4111, 16.2891, 1.10431, 3.89804, -0.0484509, 0.000233171, -0.00136278, 0.000306303, 0.000673178, -0.00402949, 0.00120178, 0.0101408, -0.0144443, 0.0129627, 0.0290538, 0.0342211, 0.0516323, -0.0109394, -0.444452, 0.634665, -3.131, -0.055643, -0.108939, -0.0107344, -0.443079, 0.634385, -3.1306, -0.0542494, -0.102583, 0.00748486, 0.0112067, -0.0158476, -0.00300703, -0.00370723, -0.0037232
0.106627, 0.107747, -0.773977, -0.917033, -1.45728, -0.627205, 1.06868, -0.256704, 0.0151513, 0.00455283, -0.0103832, 0.00208068, -0.0238214, -0.00690255, -0.0010302, 0.0949785, 15.4221, 19.3754, 16.2494, 1.12262, 3.90536, -0.0356336, 0.000222976, -0.00134829, 0.000294766, 0.000647362, -0.00409942, 0.00121349, 0.00804918, -0.0150041, 0.0136873, 0.0313598, 0.0308258, 0.0593788, -0.0109318, -0.44444, 0.634649, -3.13097, -0.0556467, -0.109, -0.0107373, -0.443082, 0.63438, -3.13059, -0.0542346, -0.102536, 0.00769877, 0.0114994, -0.0162807, -0.00073858, -0.00390761, -0.00329263
0.107627, 0.107756, -0.773972, -0.917049, -1.45728, -0.62723, 1.06868, -0.256697, 0.0135724, 0.00336803, -0.0109405, 0.00221809, -0.0228943, -0.00949025, 0.00151725, 0.134651, 15.4221, 19.3754, 16.2137, 1.13544, 3.89804, -0.0951428, 0.000210766, -0.0013327, 0.000283268, 0.000620033, -0.00417099, 0.00123755, 0.00960263, -0.0148117, 0.0138041, 0.0293301, 0.0303361, 0.0569101, -0.010924, -0.444429, 0.634632, -3.13093, -0.0556505, -0.109062, -0.0107419, -0.443087, 0.634374, -3.13059, -0.0542006, -0.102487, 0.00791545, 0.0117947, -0.0167186, -0.00208605, -0.00347635, -0.00372182
0.108627, 0.107777, -0.773971, -0.917069, -1.45728, -0.627256, 1.06866, -0.256698, 0.0163037, 0.00406648, -0.0152541, 0.00231076, -0.0214894, -0.0112925, 0.000502873, 0.0196001, 15.4935, 19.4111, 16.178, 1.12903, 3.88339, -0.0814099, 0.000200111, -0.00131575, 0.000273352, 0.000597149, -0.00424146, 0.00124568, 0.00970643, -0.0155062, 0.0128515, 0.0251583, 0.0312004, 0.0597119, -0.010916, -0.444417, 0.634615, -3.13089, -0.0556545, -0.109126, -0.0107446, -0.443092, 0.634366, -3.13058, -0.0541917, -0.102442, 0.00813491, 0.0120926, -0.0171612, -0.00187952, -0.0038676, -0.00512784
0.109627, 0.107789, -0.773962, -0.917083, -1.45729, -0.627286, 1.06865, -0.256704, 0.0176555, 0.00400357, -0.015988, 0.00153811, -0.0214426, -0.0130474, -0.000614187, 0.059273, 15.4578, 19.3397, 16.178, 1.14734, 3.87607, -0.0557752, 0.000189543, -0.00130025, 0.00026144, 0.000569105, -0.00432579, 0.00125317, 0.00958281, -0.0156015, 0.0126759, 0.0235089, 0.0327038, 0.063776, -0.0109077, -0.444404, 0.634598, -3.13085, -0.0556585, -0.109191, -0.0107471, -0.443096, 0.63436, -3.13057, -0.0541838, -0.102378, 0.00835714, 0.012393, -0.0176085, -0.00151889, -0.00365689, -0.00574334
0.110627, 0.107805, -0.773958, -0.917105, -1.45729, -0.627312, 1.06864, -0.256703, 0.0141108, 0.00618754, -0.0128984, 0.000188397, -0.0303836, -0.0143074, -0.000918084, 0.0196001, 15.4578, 19.3754, 16.2137, 1.15375, 3.86966, -0.0420422, 0.0001784, -0.00128289, 0.000252076, 0.000546535, -0.00440417, 0.00126566, 0.0112984, -0.0158605, 0.0136991, 0.0289235, 0.0431743, 0.0610455, -0.0108992, -0.444392, 0.63458, -3.13081, -0.0556627, -0.109258, -0.0107498, -0.443101, 0.63435, -3.13056, -0.0541684, -0.102323, 0.00858211, 0.0126959, -0.0180604, -0.00306661, -0.00368356, -0.00529735
0.111627, 0.107822, -0.773954, -0.917129, -1.45729, -0.627339, 1.06863, -0.256699, 0.0138653, 0.00464692, -0.0167108, 0.00272271, -0.0271466, -0.0153173, 0.000608647, 0.0196001, 15.4578, 19.4111, 16.1026, 1.14734, 3.86233, -0.0750012, 0.00016405, -0.00126441, 0.000239987, 0.00052037, -0.00447811, 0.00128835, 0.0133054, -0.0165213, 0.0137245, 0.0263814, 0.0383907, 0.0584035, -0.0108905, -0.444379, 0.634562, -3.13077, -0.055667, -0.109327, -0.0107556, -0.443107, 0.634343, -3.13055, -0.0541372, -0.102278, 0.00880983, 0.0130012, -0.018517, -0.00481829, -0.00411014, -0.00587473
0.112627, 0.107834, -0.773949, -0.917151, -1.4573, -0.627368, 1.06862, -0.256704, 0.0150335, 0.00664243, -0.0185958, -0.00207412, -0.0299532, -0.016518, -0.00128966, 0.0949785, 15.4578, 19.4111, 16.1383, 1.15375, 3.86966, -0.0292249, 0.000150147, -0.00124655, 0.000230345, 0.000496729, -0.00456423, 0.00130137, 0.012682, -0.0169729, 0.0121426, 0.0236692, 0.0465102, 0.062934, -0.0108816, -0.444366, 0.634543, -3.13072, -0.0556715, -0.109398, -0.0107605, -0.443113, 0.634333, -3.13053, -0.0541212, -0.102215, 0.00904028, 0.013309, -0.0189781, -0.00384055, -0.00421697, -0.00787483
0.113627, 0.107855, -0.773947, -0.917178, -1.45731, -0.627397, 1.0686, -0.256705, 0.0165295, 0.00414939, -0.0210715, -0.00256594, -0.0316555, -0.0168365, -0.00133449, 0.0196001, 15.4935, 19.4507, 16.178, 1.15375, 3.86233, -0.0164075, 0.000137921, -0.0012273, 0.000222543, 0.000477941, -0.00464851, 0.00131084, 0.0140522, -0.0179496, 0.0116103, 0.0229135, 0.046099, 0.0638387, -0.0108725, -0.444352, 0.634524, -3.13068, -0.0556761, -0.10947, -0.0107634, -0.443119, 0.63432, -3.13051, -0.0541111, -0.102157, 0.00927346, 0.0136191, -0.0194438, -0.00490173, -0.00492648, -0.00897574
0.114627, 0.107872, -0.773939, -0.917198, -1.4573, -0.62743, 1.06859, -0.256699, 0.0179732, 0.00801941, -0.0201516, -0.00341504, -0.0288076, -0.0178313, 0.00128048, 0.059273, 15.4221, 19.3754, 16.1026, 1.16565, 3.87607, -0.0750012, 0.000125264, -0.00120827, 0.000208736, 0.000444997, -0.00473756, 0.00133401, 0.0115274, -0.0174658, 0.0121123, 0.0220396, 0.0490098, 0.0669829, -0.0108631, -0.444339, 0.634504, -3.13064, -0.0556808, -0.109544, -0.0107669, -0.443125, 0.634313, -3.13051, -0.0540794, -0.102093, 0.00950935, 0.0139315, -0.0199139, -0.00220154, -0.00404704, -0.00876625
0.115627, 0.107895, -0.773933, -0.917223, -1.45731, -0.627457, 1.06858, -0.2567, 0.0176831, 0.00592299, -0.0246183, -0.00269325, -0.0252981, -0.0175539, 0.000378935, 0.0196001, 15.4221, 19.3754, 16.1026, 1.14093, 3.86233, -0.0621838, 0.000114875, -0.00118809, 0.000198042, 0.000418416, -0.0048229, 0.00134215, 0.013378, -0.0183638, 0.0115117, 0.019044, 0.044038, 0.0673606, -0.0108534, -0.444325, 0.634484, -3.13059, -0.0556856, -0.10962, -0.0107677, -0.443131, 0.634303, -3.13049, -0.0540713, -0.102037, 0.00974794, 0.0142462, -0.0203885, -0.00373418, -0.00468956, -0.00997756
0.116627, 0.107911, -0.773932, -0.917245, -1.45732, -0.627492, 1.06857, -0.256703, 0.0156616, 0.0043812, -0.0230561, -0.00210792, -0.0292135, -0.013975, -0.000730721, 0.059273, 15.4221, 19.3, 16.1026, 1.16015, 3.88339, -0.0356336, 9.9934e-05, -0.0011688, 0.000187313, 0.000392772, -0.00491628, 0.0013546, 0.0149614, -0.0194796, 0.0129548, 0.026178, 0.043383, 0.0673343, -0.0108436, -0.44431, 0.634463, -3.13054, -0.0556906, -0.109698, -0.0107727, -0.443137, 0.634292, -3.13048, -0.0540568, -0.10197, 0.00998923, 0.0145631, -0.0208674, -0.00513263, -0.00555831, -0.00913785
0.117627, 0.107928, -0.773924, -0.917277, -1.45732, -0.627525, 1.06856, -0.2567, 0.0141766, 0.00721813, -0.0246559, -0.00480009, -0.0312221, -0.010436, 0.000496197, 0.0949785, 15.3864, 19.3397, 16.1026, 1.16015, 3.88339, -0.0621838, 8.42052e-05, -0.00114689, 0.000177581, 0.000367375, -0.00501275, 0.00137954, 0.01495, -0.0206983, 0.0126462, 0.0288554, 0.0479582, 0.0657035, -0.0108335, -0.444295, 0.634442, -3.13049, -0.0556957, -0.109777, -0.0107782, -0.443145, 0.63428, -3.13046, -0.0540231, -0.1019, 0.0102332, 0.0148823, -0.0213508, -0.00481259, -0.0064542, -0.00993903
0.118627, 0.10795, -0.77392, -0.917305, -1.45733, -0.627554, 1.06854, -0.256699, 0.0183492, 0.00844092, -0.023863, -0.00363917, -0.0323904, -0.00752562, 0.000805516, 0.059273, 15.3864, 19.3, 16.1026, 1.14734, 3.87607, -0.0750012, 7.14232e-05, -0.00112597, 0.000167413, 0.000343789, -0.00510535, 0.00139262, 0.0128636, -0.0216711, 0.0139061, 0.0338212, 0.0480299, 0.0709009, -0.0108231, -0.44428, 0.634421, -3.13044, -0.0557009, -0.109858, -0.0107805, -0.443151, 0.634267, -3.13044, -0.054008, -0.101838, 0.0104799, 0.0152035, -0.0218384, -0.00253974, -0.00704476, -0.0090324
0.119627, 0.107969, -0.773916, -0.917338, -1.45735, -0.627584, 1.06853, -0.256702, 0.0171649, 0.00719423, -0.0273445, -0.00749548, -0.0295141, -0.0108459, -0.000446334, 0.059273, 15.3467, 19.3, 16.178, 1.16015, 3.89071, -0.0484509, 5.55971e-05, -0.00110433, 0.000159673, 0.000326803, -0.00520514, 0.00140728, 0.0141022, -0.021479, 0.0119529, 0.0262336, 0.0491412, 0.073589, -0.0108125, -0.444265, 0.634399, -3.13039, -0.0557063, -0.109941, -0.0107855, -0.443158, 0.634251, -3.13042, -0.0539908, -0.101766, 0.0107292, 0.0155269, -0.0223304, -0.00339594, -0.00655413, -0.0115601
0.120627, 0.107988, -0.773914, -0.917366, -1.45735, -0.627619, 1.06852, -0.256699, 0.0152778, 0.00527534, -0.0282678, -0.00700251, -0.0312721, -0.00731098, 0.000685788, 0.0949785, 15.3467, 19.2246, 16.1026, 1.15375, 3.86966, -0.0750012, 3.92368e-05, -0.00108207, 0.000147243, 0.000296002, -0.00530112, 0.00142872, 0.0161135, -0.0228348, 0.0126572, 0.0307146, 0.0466831, 0.0707142, -0.0108016, -0.444249, 0.634376, -3.13034, -0.0557118, -0.110026, -0.010791, -0.443165, 0.63424, -3.1304, -0.0539628, -0.101702, 0.0109812, 0.0158524, -0.0228265, -0.00515015, -0.0076622, -0.0115073
0.121627, 0.10801, -0.773914, -0.917399, -1.45737, -0.627648, 1.0685, -0.256698, 0.0148998, 0.00294827, -0.0268977, -0.00931688, -0.0380767, -0.0112673, 0.000694551, 0.0949785, 15.3864, 19.1889, 16.1383, 1.16565, 3.89804, -0.0814099, 2.38789e-05, -0.00105969, 0.000139335, 0.00027842, -0.00539925, 0.00144263, 0.0180509, -0.0228387, 0.0124493, 0.030749, 0.0531544, 0.0712326, -0.0107905, -0.444233, 0.634353, -3.13029, -0.0557175, -0.110113, -0.010795, -0.443172, 0.634224, -3.13037, -0.0539471, -0.101637, 0.0112358, 0.0161798, -0.0233269, -0.00681271, -0.00740539, -0.0123536
0.122627, 0.108027, -0.773903, -0.917429, -1.45738, -0.62768, 1.06849, -0.256699, 0.020104, 0.00483351, -0.0271927, -0.0111692, -0.0381839, -0.0122812, 0.000225675, 0.134651, 15.2753, 19.0778, 16.178, 1.17206, 3.87607, -0.0750012, 1.03284e-05, -0.00103774, 0.000129415, 0.000254789, -0.00551184, 0.001458, 0.0152536, -0.0230211, 0.012148, 0.0294768, 0.0570932, 0.0795187, -0.0107792, -0.444217, 0.634329, -3.13024, -0.0557233, -0.110202, -0.010797, -0.443178, 0.634209, -3.13035, -0.0539291, -0.10155, 0.011493, 0.0165093, -0.0238314, -0.00373963, -0.00715731, -0.0129652
0.123627, 0.108043, -0.773904, -0.91747, -1.45739, -0.627714, 1.06847, -0.256698, 0.0204035, 0.00258928, -0.0340988, -0.0113033, -0.0382819, -0.0142008, 0.000387809, 0.21003, 15.311, 19.1135, 16.178, 1.17847, 3.88339, -0.0814099, -1.21247e-05, -0.00101319, 0.000121742, 0.000237356, -0.00561387, 0.00148603, 0.0184575, -0.0243838, 0.0104196, 0.0241375, 0.0565067, 0.0763969, -0.0107676, -0.4442, 0.634305, -3.13018, -0.0557293, -0.110292, -0.0108074, -0.443187, 0.634191, -3.13032, -0.0538919, -0.101482, 0.0117529, 0.0168407, -0.0243401, -0.00650404, -0.00828352, -0.0154365
0.124627, 0.108063, -0.773899, -0.917506, -1.4574, -0.62775, 1.06846, -0.256697, 0.0189203, 0.00271303, -0.0342224, -0.00881773, -0.0389654, -0.0103737, 0.000495898, 0.21003, 15.2753, 19.0778, 16.0629, 1.20318, 3.87607, -0.0878186, -3.15743e-05, -0.000988156, 0.000109432, 0.000208222, -0.00571912, 0.00151206, 0.0195925, -0.0256111, 0.0120645, 0.0301739, 0.0538033, 0.0751092, -0.0107557, -0.444183, 0.634281, -3.13012, -0.0557354, -0.110385, -0.0108149, -0.443196, 0.634177, -3.1303, -0.0538574, -0.101412, 0.0120154, 0.017174, -0.0248528, -0.00744484, -0.00923422, -0.0144005
0.125627, 0.108082, -0.773896, -0.917542, -1.45741, -0.627781, 1.06844, -0.256698, 0.0167303, 0.00285042, -0.0350723, -0.00984037, -0.0386615, -0.0124924, -0.00112746, 0.245735, 15.2356, 19.0778, 16.0629, 1.20868, 3.87607, -0.0484509, -4.95411e-05, -0.000964631, 0.00010016, 0.000189626, -0.00582891, 0.00152989, 0.0209846, -0.0255507, 0.0119396, 0.0282596, 0.0556784, 0.0765706, -0.0107435, -0.444166, 0.634256, -3.13007, -0.0557417, -0.110479, -0.0108205, -0.443203, 0.63416, -3.13027, -0.0538363, -0.101335, 0.0122806, 0.0175091, -0.0253696, -0.00856133, -0.00888711, -0.0151423
0.126627, 0.108105, -0.773893, -0.91758, -1.45743, -0.627812, 1.06842, -0.2567, 0.0195005, 0.00198556, -0.0326076, -0.0098091, -0.0390564, -0.014077, -0.00170108, 0.245735, 15.2356, 19.0778, 16.0272, 1.22699, 3.87607, -0.0228162, -6.73483e-05, -0.000940562, 9.11075e-05, 0.000172137, -0.00593991, 0.00154524, 0.0197241, -0.025248, 0.0129368, 0.0294496, 0.0560196, 0.0835967, -0.0107311, -0.444148, 0.63423, -3.13001, -0.0557481, -0.110576, -0.0108256, -0.44321, 0.634142, -3.13024, -0.0538193, -0.101259, 0.0125483, 0.0178461, -0.0258904, -0.00711863, -0.00821433, -0.0145797
0.127627, 0.108129, -0.77389, -0.91761, -1.45745, -0.627846, 1.06841, -0.256694, 0.0221107, 0.00455315, -0.0321689, -0.0157209, -0.0390008, -0.0147342, 0.000798728, 0.21003, 15.2356, 19.0024, 16.1026, 1.23981, 3.86233, -0.0750012, -8.07231e-05, -0.000917402, 8.15254e-05, 0.000150881, -0.00605794, 0.00155827, 0.0167306, -0.0250086, 0.0117629, 0.0268922, 0.062944, 0.0891206, -0.0107184, -0.44413, 0.634204, -3.12995, -0.0557547, -0.110674, -0.0108261, -0.443215, 0.634124, -3.13021, -0.053806, -0.101174, 0.0128186, 0.0181849, -0.0264151, -0.00379062, -0.0075193, -0.0160643
0.128627, 0.108145, -0.773887, -0.917643, -1.45747, -0.62788, 1.06838, -0.256694, 0.0223317, 0.00334719, -0.0328883, -0.0139751, -0.0389938, -0.0200562, 0.000532485, 0.245735, 15.2356, 18.9667, 16.0629, 1.25171, 3.84768, -0.0750012, -0.000100913, -0.000893817, 7.00705e-05, 0.000128185, -0.00617561, 0.00157998, 0.0184031, -0.0246442, 0.0121285, 0.023735, 0.0635343, 0.0902059, -0.0107055, -0.444112, 0.634177, -3.12989, -0.0557614, -0.110774, -0.0108332, -0.443222, 0.634107, -3.13018, -0.0537793, -0.101092, 0.0130915, 0.0185254, -0.0269437, -0.00522428, -0.00687815, -0.0163464
0.129627, 0.108164, -0.773884, -0.917686, -1.45748, -0.627912, 1.06837, -0.256696, 0.0236335, 0.0033005, -0.0359745, -0.0160306, -0.0390656, -0.0196436, -0.00134043, 0.245735, 15.1999, 19.0421, 16.0272, 1.26453, 3.84036, -0.0292249, -0.000122081, -0.000868089, 6.1027e-05, 0.000111468, -0.00629321, 0.00160223, 0.0186305, -0.0255589, 0.0111776, 0.0219266, 0.0650489, 0.0941137, -0.0106922, -0.444093, 0.63415, -3.12983, -0.0557683, -0.110876, -0.0108408, -0.443229, 0.634087, -3.13014, -0.0537521, -0.101011, 0.0133669, 0.0188676, -0.0274763, -0.00507611, -0.00744878, -0.0178536
0.130627, 0.10818, -0.773879, -0.917711, -1.4575, -0.627946, 1.06835, -0.256695, 0.0233503, 0.00321092, -0.0326487, -0.0144561, -0.0345234, -0.0192288, 8.97237e-05, 0.285408, 15.1642, 18.8913, 15.9915, 1.28284, 3.83304, -0.0557752, -0.000138601, -0.00084518, 4.70418e-05, 8.16262e-05, -0.0064161, 0.00161675, 0.0173528, -0.024893, 0.0131984, 0.0243726, 0.0603593, 0.0983847, -0.0106787, -0.444074, 0.634122, -3.12976, -0.0557754, -0.110981, -0.0108439, -0.443234, 0.634072, -3.13011, -0.0537367, -0.100925, 0.0136449, 0.0192114, -0.0280126, -0.00369158, -0.00641661, -0.016281
0.131633, 0.108196, -0.773881, -0.917752, -1.45752, -0.627976, 1.06832, -0.256691, 0.0200903, 0.000601701, -0.033692, -0.0171389, -0.0350109, -0.0194544, 0.00151788, 0.325081, 15.2356, 19.0024, 15.9915, 1.28284, 3.84036, -0.0951428, -0.000161505, -0.000820274, 3.86159e-05, 6.9133e-05, -0.00653503, 0.00164232, 0.0197384, -0.0252435, 0.0126356, 0.0233131, 0.0602398, 0.0961528, -0.0106649, -0.444055, 0.634094, -3.1297, -0.0557826, -0.111087, -0.0108527, -0.44324, 0.634051, -3.13007, -0.0537049, -0.100845, 0.0139255, 0.0195569, -0.0285528, -0.00573724, -0.00650028, -0.0175576
0.132633, 0.10821, -0.773877, -0.917784, -1.45754, -0.628006, 1.0683, -0.256699, 0.0167541, 0.001335, -0.033794, -0.0182187, -0.0357548, -0.0232881, -0.00142949, 0.400459, 15.1999, 18.9667, 15.9518, 1.28833, 3.8193, -0.0292249, -0.000181715, -0.000797039, 2.61048e-05, 4.87293e-05, -0.00665914, 0.00165351, 0.0216071, -0.0248092, 0.0126447, 0.0209967, 0.0643788, 0.0979839, -0.0106509, -0.444035, 0.634065, -3.12963, -0.05579, -0.111195, -0.0108588, -0.443245, 0.634033, -3.13003, -0.0536954, -0.100761, 0.0142086, 0.019904, -0.0290967, -0.00733383, -0.00578607, -0.0182249
0.133633, 0.108225, -0.773872, -0.917816, -1.45755, -0.628037, 1.06827, -0.256697, 0.0185842, 0.0017992, -0.0339225, -0.0156687, -0.0367869, -0.0222468, -0.000478274, 0.436165, 15.1642, 18.9271, 15.7654, 1.30755, 3.8193, -0.0420422, -0.000203449, -0.00077292, 1.05874e-05, 2.25835e-05, -0.00678206, 0.00167791, 0.0215755, -0.0256689, 0.0140126, 0.0246779, 0.0636918, 0.0990784, -0.0106365, -0.444015, 0.634036, -3.12957, -0.0557975, -0.111306, -0.0108664, -0.44325, 0.634017, -3.13, -0.0536653, -0.10068, 0.0144943, 0.0202526, -0.0296444, -0.00708327, -0.0063111, -0.0174162
0.134633, 0.108244, -0.773872, -0.917858, -1.45759, -0.628067, 1.06825, -0.256691, 0.0184182, 0.00353516, -0.0384814, -0.0202789, -0.032439, -0.0254373, 0.0018852, 0.400459, 15.1999, 19.0778, 15.8408, 1.31305, 3.79733, -0.101552, -0.00022323, -0.000747998, 3.91014e-06, 1.46144e-05, -0.00691503, 0.00169872, 0.0213858, -0.0254793, 0.011677, 0.0156972, 0.0671873, 0.0996503, -0.0106219, -0.443995, 0.634006, -3.1295, -0.0558053, -0.111418, -0.010871, -0.443255, 0.633992, -3.12995, -0.0536418, -0.100585, 0.0147825, 0.0206027, -0.0301957, -0.00644778, -0.00574043, -0.0202853
0.135633, 0.108252, -0.773874, -0.917884, -1.45761, -0.628098, 1.06822, -0.256693, 0.0153726, 0.00400285, -0.0331536, -0.0229818, -0.0334361, -0.0278148, -0.000438622, 0.475838, 15.2753, 19.0024, 15.7654, 1.30755, 3.77627, -0.0557752, -0.000247004, -0.000724961, -1.2003e-05, -1.25614e-05, -0.00703877, 0.00171778, 0.0210229, -0.0242072, 0.0128498, 0.0173384, 0.0713432, 0.106038, -0.010607, -0.443974, 0.633975, -3.12943, -0.0558132, -0.111532, -0.0108801, -0.443258, 0.633976, -3.12992, -0.0536203, -0.100508, 0.0150731, 0.0209542, -0.0307507, -0.00592486, -0.00411851, -0.0196372
0.136633, 0.108268, -0.773871, -0.917914, -1.45763, -0.62813, 1.0682, -0.25669, 0.0117341, 0.0031535, -0.0342928, -0.0243189, -0.0351281, -0.0294256, 0.000419662, 0.475838, 15.2753, 19.0024, 15.6543, 1.32587, 3.74698, -0.0750012, -0.000267028, -0.0007009, -2.67076e-05, -3.77141e-05, -0.00717144, 0.00173679, 0.0237454, -0.024502, 0.0126494, 0.0164902, 0.073724, 0.102714, -0.0105917, -0.443953, 0.633944, -3.12936, -0.0558213, -0.111649, -0.010885, -0.443262, 0.633958, -3.12988, -0.0535993, -0.100418, 0.0153663, 0.0213072, -0.0313093, -0.00832134, -0.00415478, -0.0205959
0.137633, 0.108277, -0.773868, -0.917951, -1.45766, -0.628156, 1.06817, -0.256691, 0.00810185, 0.00563524, -0.034467, -0.0264407, -0.0358282, -0.030779, -0.00141565, 0.511544, 15.2753, 19.1135, 15.7297, 1.33136, 3.72592, -0.0292249, -0.00028889, -0.000676831, -3.61987e-05, -4.95012e-05, -0.00731054, 0.00175398, 0.0247615, -0.0244226, 0.012631, 0.0158518, 0.0790175, 0.103706, -0.0105762, -0.443931, 0.633913, -3.12929, -0.0558295, -0.111768, -0.0108911, -0.443265, 0.633934, -3.12983, -0.0535818, -0.10032, 0.015662, 0.0216616, -0.0318714, -0.00904068, -0.00375763, -0.0212519
0.138633, 0.108289, -0.773867, -0.917977, -1.45768, -0.628186, 1.06814, -0.256687, 0.0135268, 0.00654953, -0.0350423, -0.0257998, -0.0319359, -0.036806, 0.000989016, 0.475838, 15.311, 19.1135, 15.5789, 1.34418, 3.7186, -0.0814099, -0.000310737, -0.000653942, -5.27888e-05, -7.34634e-05, -0.00744342, 0.00177349, 0.0225544, -0.0234965, 0.0125894, 0.00971522, 0.0799215, 0.109979, -0.0105604, -0.443909, 0.63388, -3.12921, -0.055838, -0.111888, -0.0108975, -0.443267, 0.633917, -3.12979, -0.0535605, -0.100234, 0.0159602, 0.0220173, -0.0324371, -0.00657339, -0.00239909, -0.0216969
0.139633, 0.108294, -0.773866, -0.918001, -1.45772, -0.628216, 1.06811, -0.256691, 0.0152469, 0.0050266, -0.0324487, -0.026763, -0.0339939, -0.0414163, 0.0043938, 0.551216, 15.311, 19.1135, 15.6146, 1.36249, 3.70395, -0.0557752, -0.000332526, -0.000631688, -6.70906e-05, -9.62958e-05, -0.00758644, 0.00178533, 0.0223874, -0.0227515, 0.0131178, 0.00867584, 0.0830608, 0.11196, -0.0105443, -0.443887, 0.633848, -3.12914, -0.0558466, -0.112011, -0.0109033, -0.443268, 0.633896, -3.12975, -0.0535513, -0.100135, 0.0162609, 0.0223744, -0.0330063, -0.00617145, -0.00129856, -0.0217241
0.140633, 0.108291, -0.773861, -0.918025, -1.45775, -0.628242, 1.06808, -0.256685, 0.00808057, 0.00468146, -0.0313725, -0.0267079, -0.0256171, -0.0404825, 0.0052523, 0.701973, 15.2753, 19.1532, 15.6146, 1.3689, 3.69754, -0.10796, -0.00035663, -0.000610421, -8.29131e-05, -0.000117841, -0.0077316, 0.00181284, 0.0238521, -0.0219168, 0.0143224, 0.00807467, 0.0760124, 0.110981, -0.0105279, -0.443865, 0.633814, -3.12906, -0.0558554, -0.112136, -0.0109113, -0.443268, 0.633877, -3.12971, -0.0535182, -0.100034, 0.016564, 0.0227327, -0.033579, -0.00744506, -0.000172391, -0.0211966
0.141633, 0.108306, -0.773863, -0.918052, -1.45778, -0.628268, 1.06805, -0.256683, 0.0124499, 0.00265714, -0.0312697, -0.0309189, -0.0289322, -0.0399956, 0.00355692, 0.586922, 15.311, 19.2246, 15.5432, 1.3808, 3.69754, -0.101552, -0.000376849, -0.000587684, -9.83026e-05, -0.000136783, -0.00787047, 0.00182317, 0.0225085, -0.0226079, 0.0135058, 0.00834632, 0.0792961, 0.119916, -0.0105112, -0.443842, 0.633781, -3.12899, -0.0558644, -0.112263, -0.010915, -0.443269, 0.633857, -3.12966, -0.0535119, -0.0999452, 0.0168696, 0.0230922, -0.034155, -0.00571777, -0.000447931, -0.0225002
0.142633, 0.108302, -0.773863, -0.918072, -1.45782, -0.628291, 1.06801, -0.256684, 0.00669421, 0.00121475, -0.0294881, -0.0354861, -0.0270279, -0.0390898, 0.00184485, 0.701973, 15.3467, 19.2246, 15.6543, 1.39911, 3.69021, -0.0814099, -0.000399471, -0.000567489, -0.00011275, -0.000154273, -0.00801833, 0.0018351, 0.023778, -0.0221498, 0.0134287, 0.00828891, 0.0790685, 0.122744, -0.0104942, -0.443818, 0.633746, -3.12891, -0.0558736, -0.112393, -0.0109209, -0.443267, 0.633835, -3.12961, -0.0535035, -0.0998443, 0.0171776, 0.0234529, -0.0347344, -0.00668694, 0.000325647, -0.0232474
0.143633, 0.108308, -0.77386, -0.918097, -1.45785, -0.628315, 1.06798, -0.256687, 0.00527696, 0.00101874, -0.0307841, -0.0341585, -0.0300003, -0.0340824, 0.000173865, 0.701973, 15.3467, 19.3397, 15.5789, 1.41192, 3.69021, -0.0484509, -0.000422028, -0.000544975, -0.000129966, -0.000176042, -0.00816415, 0.00184692, 0.0254842, -0.0240407, 0.0145586, 0.0150394, 0.0780442, 0.122174, -0.0104768, -0.443795, 0.633711, -3.12883, -0.0558829, -0.112524, -0.0109264, -0.443267, 0.633815, -3.12956, -0.0534953, -0.0997491, 0.017488, 0.0238148, -0.0353172, -0.00809066, -0.00127637, -0.0228468
0.144633, 0.10831, -0.773861, -0.918116, -1.45789, -0.628336, 1.06795, -0.256677, 0.00412859, -9.21812e-05, -0.0266997, -0.0343308, -0.0271487, -0.034741, 0.00244346, 0.701973, 15.3864, 19.3754, 15.5432, 1.41192, 3.68289, -0.10796, -0.000443922, -0.000524674, -0.000147201, -0.000195418, -0.00830917, 0.00186546, 0.0247681, -0.0231338, 0.016211, 0.0168923, 0.0752951, 0.125591, -0.0104592, -0.443771, 0.633676, -3.12875, -0.0558925, -0.112658, -0.0109311, -0.443264, 0.633795, -3.12951, -0.0534769, -0.0996571, 0.0178009, 0.0241778, -0.0359033, -0.007216, -2.23861e-06, -0.0217292
0.145633, 0.10831, -0.773861, -0.918135, -1.45793, -0.628361, 1.06791, -0.256679, 0.00321035, 5.6055e-05, -0.0237844, -0.0385455, -0.0211616, -0.0307823, 0.000975613, 0.701973, 15.3864, 19.4111, 15.5432, 1.43573, 3.68289, -0.0878186, -0.000466722, -0.00050408, -0.000164485, -0.000215719, -0.00846381, 0.00187554, 0.0220073, -0.0226655, 0.0167375, 0.0183974, 0.0717976, 0.135685, -0.0104412, -0.443746, 0.633639, -3.12867, -0.0559023, -0.112794, -0.0109364, -0.443261, 0.633774, -3.12946, -0.053472, -0.0995524, 0.0181163, 0.0245419, -0.0364926, -0.00420451, 0.000919844, -0.021594
0.146633, 0.108303, -0.773861, -0.918154, -1.45797, -0.628378, 1.06787, -0.256684, -0.00580031, 0.00324093, -0.0225027, -0.0391626, -0.020224, -0.0325064, -0.0012129, 0.777352, 15.3864, 19.4864, 15.5789, 1.43024, 3.68289, -0.0356336, -0.000490911, -0.000484566, -0.000181161, -0.000230875, -0.00861581, 0.00188323, 0.0247637, -0.0219917, 0.0177855, 0.0189579, 0.0756684, 0.132893, -0.0104229, -0.443722, 0.633603, -3.12858, -0.0559122, -0.112932, -0.0109428, -0.443257, 0.633752, -3.1294, -0.0534712, -0.0994538, 0.018434, 0.0249071, -0.0370852, -0.00673501, 0.00184732, -0.0213382
0.147633, 0.108303, -0.773866, -0.91817, -1.458, -0.628396, 1.06783, -0.256677, -0.00322465, 0.000815903, -0.0174836, -0.0402662, -0.0198386, -0.029215, 0.00144755, 0.737679, 15.4578, 19.5261, 15.5035, 1.43024, 3.68289, -0.0951428, -0.000514559, -0.000464395, -0.000201107, -0.000253174, -0.00876108, 0.00189808, 0.0223771, -0.0219784, 0.0196092, 0.0250679, 0.0720955, 0.139696, -0.0104044, -0.443697, 0.633565, -3.1285, -0.0559224, -0.113072, -0.0109485, -0.443253, 0.633733, -3.12935, -0.0534591, -0.0993683, 0.0187541, 0.0252732, -0.0376809, -0.00416893, 0.00228787, -0.0199464
0.148633, 0.108305, -0.773863, -0.918196, -1.45805, -0.628417, 1.06779, -0.25668, -0.00152889, 0.00162344, -0.0212484, -0.0416, -0.0201701, -0.0357696, 2.07641e-05, 0.701973, 15.4221, 19.7483, 15.5789, 1.44855, 3.67557, -0.0685925, -0.000537831, -0.00044267, -0.000216114, -0.000264556, -0.00892447, 0.00190655, 0.023377, -0.0218443, 0.0181725, 0.017465, 0.0777849, 0.142752, -0.0103854, -0.443671, 0.633527, -3.12841, -0.0559327, -0.113214, -0.0109531, -0.44325, 0.633708, -3.12929, -0.0534577, -0.0992561, 0.0190766, 0.0256403, -0.0382798, -0.00474582, 0.0027691, -0.0220534
0.149633, 0.108302, -0.773868, -0.9182, -1.45809, -0.62844, 1.06775, -0.256681, -0.00118002, -0.000404925, -0.0158671, -0.0404383, -0.0244971, -0.040742, -0.00117755, 0.701973, 15.4935, 19.6372, 15.5789, 1.44855, 3.66824, -0.0356336, -0.000559074, -0.000424765, -0.000238268, -0.000291668, -0.00908133, 0.00190631, 0.0240114, -0.0208676, 0.020171, 0.0201979, 0.0808291, 0.148032, -0.0103662, -0.443645, 0.633489, -3.12833, -0.0559433, -0.113359, -0.010956, -0.443243, 0.63369, -3.12924, -0.0534694, -0.0991574, 0.0194015, 0.0260084, -0.0388819, -0.00523394, 0.00406527, -0.0207032
0.150633, 0.108297, -0.773868, -0.918216, -1.45814, -0.628457, 1.06771, -0.256675, -0.00174247, -0.000132538, -0.0164576, -0.041983, -0.0229861, -0.0446042, 0.000695007, 0.737679, 15.4935, 19.7086, 15.5432, 1.44855, 3.66824, -0.0750012, -0.000582901, -0.000405411, -0.000257848, -0.000309684, -0.00924221, 0.0019206, 0.024459, -0.0203394, 0.0198578, 0.0161779, 0.0832151, 0.148981, -0.0103466, -0.443619, 0.633449, -3.12824, -0.0559541, -0.113506, -0.0109609, -0.443238, 0.633668, -3.12918, -0.0534592, -0.099054, 0.0197288, 0.0263773, -0.039487, -0.00535076, 0.00494818, -0.0216523
0.151633, 0.108298, -0.773873, -0.918231, -1.45818, -0.628473, 1.06766, -0.256675, -0.00125207, -0.000913319, -0.0138327, -0.0430424, -0.0176418, -0.042903, 0.000242465, 0.737679, 15.5331, 19.784, 15.5035, 1.46045, 3.66824, -0.0685925, -0.00060607, -0.000386064, -0.000277852, -0.000325825, -0.00940025, 0.00192289, 0.0224813, -0.0198469, 0.0210098, 0.0174591, 0.0784031, 0.157384, -0.0103267, -0.443593, 0.63341, -3.12815, -0.055965, -0.113655, -0.0109649, -0.443232, 0.633646, -3.12912, -0.0534679, -0.0989573, 0.0200585, 0.0267472, -0.0400951, -0.00315251, 0.0058642, -0.0209672
0.152633, 0.108295, -0.773877, -0.918248, -1.45822, -0.62849, 1.06761, -0.256678, -0.00183056, -0.0013668, -0.0126436, -0.0417543, -0.0185459, -0.0413422, -0.000571978, 0.777352, 15.5688, 19.8951, 15.5035, 1.47876, 3.66092, -0.0484509, -0.000630439, -0.000366346, -0.000296605, -0.000339407, -0.00956477, 0.0019266, 0.0230647, -0.0204272, 0.0225221, 0.0218722, 0.0772421, 0.159795, -0.0103065, -0.443566, 0.633369, -3.12806, -0.0559762, -0.113807, -0.0109696, -0.443225, 0.633623, -3.12905, -0.0534748, -0.0988525, 0.0203905, 0.0271178, -0.0407063, -0.0034922, 0.00561397, -0.0201224
0.153633, 0.108291, -0.773879, -0.918263, -1.45827, -0.628508, 1.06757, -0.256674, -0.00210645, -0.00168845, -0.00997453, -0.0429848, -0.0149641, -0.040829, 0.000848657, 0.813057, 15.6046, 19.9347, 15.4678, 1.50989, 3.66824, -0.0814099, -0.000655462, -0.000346466, -0.000317596, -0.000358833, -0.00973025, 0.00193769, 0.0217124, -0.0198708, 0.0235813, 0.0229456, 0.0749284, 0.164851, -0.010286, -0.443538, 0.633328, -3.12796, -0.0559876, -0.113961, -0.0109748, -0.443219, 0.6336, -3.12899, -0.0534703, -0.0987489, 0.0207248, 0.0274892, -0.0413204, -0.00190877, 0.00657403, -0.0195803
0.154633, 0.10829, -0.773887, -0.918273, -1.45832, -0.628523, 1.06752, -0.256669, -0.00144245, -0.00284539, -0.0102795, -0.0455266, -0.016064, -0.0388083, 0.00108135, 0.813057, 15.6799, 19.9347, 15.5035, 1.5163, 3.63254, -0.0951428, -0.000677503, -0.000328306, -0.000337556, -0.000372998, -0.00989692, 0.00193776, 0.0216477, -0.0206609, 0.0234825, 0.0246153, 0.0755661, 0.168212, -0.0102651, -0.443511, 0.633287, -3.12787, -0.0559992, -0.114117, -0.0109767, -0.443211, 0.633577, -3.12892, -0.0534833, -0.0986455, 0.0210615, 0.0278614, -0.0419374, -0.00147378, 0.00615796, -0.0203031
0.155633, 0.10829, -0.773885, -0.918296, -1.45838, -0.628535, 1.06747, -0.256673, -0.000155028, -0.0010291, -0.0139673, -0.0495983, -0.0168407, -0.0383978, -0.00100321, 0.777352, 15.6442, 20.0815, 15.5035, 1.52179, 3.62521, -0.0484509, -0.000699742, -0.000308036, -0.000354981, -0.00037976, -0.0100726, 0.00193558, 0.0212942, -0.0216324, 0.021912, 0.0218769, 0.0808923, 0.172864, -0.0102438, -0.443483, 0.633244, -3.12777, -0.056011, -0.114275, -0.0109782, -0.443204, 0.63355, -3.12884, -0.0535004, -0.09853, 0.0214005, 0.0282343, -0.0425574, -0.000635076, 0.00559007, -0.0224773
0.156633, 0.108287, -0.77389, -0.918309, -1.45842, -0.628545, 1.06742, -0.256667, -0.000960029, -0.00149683, -0.014118, -0.0512563, -0.0218927, -0.0419125, 0.00130179, 0.813057, 15.6799, 20.1212, 15.4282, 1.52179, 3.60415, -0.101552, -0.000723939, -0.000288972, -0.000377454, -0.000396021, -0.0102374, 0.00194292, 0.0231704, -0.021837, 0.0217322, 0.0212802, 0.0874027, 0.170447, -0.0102223, -0.443454, 0.633201, -3.12768, -0.0560231, -0.114436, -0.0109818, -0.443196, 0.633528, -3.12878, -0.0535025, -0.0984342, 0.0217418, 0.0286079, -0.0431802, -0.00214505, 0.00569304, -0.0234232
0.157633, 0.108287, -0.773901, -0.918323, -1.45847, -0.628555, 1.06737, -0.256668, -0.00407535, -0.003578, -0.0142108, -0.0534371, -0.0165889, -0.0448576, 0.00532832, 0.813057, 15.791, 20.1569, 15.3925, 1.5282, 3.58218, -0.0951428, -0.000748084, -0.000269577, -0.000397828, -0.000407878, -0.0104029, 0.00193833, 0.0243409, -0.0208951, 0.0214562, 0.016379, 0.0845003, 0.169309, -0.0102004, -0.443425, 0.633158, -3.12758, -0.0560353, -0.114599, -0.0109847, -0.443188, 0.633503, -3.1287, -0.0535236, -0.0983395, 0.0220854, 0.0289822, -0.0438058, -0.00298373, 0.00696847, -0.0244051
0.158633, 0.108287, -0.773904, -0.918338, -1.45853, -0.62857, 1.06732, -0.256671, -0.0030139, -0.00237158, -0.0142609, -0.0528273, -0.0128174, -0.042404, 0.00174161, 0.813057, 15.791, 20.1926, 15.3925, 1.5401, 3.56112, -0.0356336, -0.000770735, -0.000249631, -0.000418483, -0.000421664, -0.0105816, 0.00193227, 0.0229579, -0.0213125, 0.0225062, 0.0183304, 0.0815404, 0.177838, -0.0101781, -0.443396, 0.633114, -3.12748, -0.0560478, -0.114764, -0.0109859, -0.443179, 0.633477, -3.12863, -0.0535472, -0.0982267, 0.0224314, 0.029357, -0.0444342, -0.00132286, 0.00695952, -0.0238938
0.159633, 0.108285, -0.773915, -0.918351, -1.45858, -0.628577, 1.06727, -0.25667, -0.00223202, -0.00733965, -0.0135201, -0.0545289, -0.00841398, -0.045508, 0.00145615, 0.813057, 15.9021, 20.1926, 15.3568, 1.50989, 3.54648, -0.0356336, -0.0007951, -0.000230554, -0.000440341, -0.00043442, -0.0107487, 0.00192807, 0.0233106, -0.0204829, 0.0223753, 0.014005, 0.0762174, 0.184891, -0.0101555, -0.443367, 0.633069, -3.12738, -0.0560605, -0.114932, -0.0109885, -0.44317, 0.633452, -3.12855, -0.0535682, -0.0981344, 0.0227796, 0.0297325, -0.0450654, -0.00134855, 0.00815094, -0.0246776
0.160633, 0.108286, -0.773915, -0.918359, -1.45864, -0.628584, 1.06721, -0.256663, -0.00430876, -0.00338633, -0.0114152, -0.0557313, -0.00658767, -0.0481022, 0.00339613, 0.777352, 15.8267, 20.1212, 15.3171, 1.5163, 3.53915, -0.0951428, -0.000812634, -0.000213224, -0.000462776, -0.000446148, -0.0109333, 0.00192001, 0.0223353, -0.0195315, 0.0232514, 0.0132927, 0.0810741, 0.186378, -0.0101325, -0.443337, 0.633024, -3.12728, -0.0560735, -0.115102, -0.0109841, -0.443158, 0.633428, -3.12848, -0.0535956, -0.098017, 0.0231301, 0.0301084, -0.0456993, -0.000126662, 0.00949854, -0.0243608
0.161633, 0.108286, -0.773929, -0.918379, -1.4587, -0.628592, 1.06716, -0.256664, -0.00328855, -0.00588358, -0.0163271, -0.0537993, -0.00912398, -0.0501076, 0.00192144, 0.777352, 15.9735, 20.1926, 15.2814, 1.50348, 3.53274, -0.0814099, -0.000839382, -0.00019258, -0.000482244, -0.000452119, -0.0111044, 0.00191488, 0.0256533, -0.0209597, 0.022836, 0.0115367, 0.0807978, 0.185372, -0.0101092, -0.443306, 0.632978, -3.12717, -0.0560866, -0.115274, -0.0109882, -0.44315, 0.633399, -3.12839, -0.0536188, -0.0979227, 0.0234829, 0.0304849, -0.0463358, -0.0030006, 0.00833349, -0.0256761
0.162633, 0.108289, -0.77393, -0.918392, -1.45876, -0.628599, 1.06711, -0.256668, -0.000741157, -0.00323143, -0.0144377, -0.0553171, -0.0120148, -0.0512672, 0.000184745, 0.701973, 15.9378, 20.1569, 15.2417, 1.5163, 3.5181, -0.0484509, -0.000858657, -0.000173455, -0.000504028, -0.00046227, -0.0112922, 0.00189861, 0.0238123, -0.0209835, 0.0234991, 0.0134168, 0.0874733, 0.192912, -0.0100856, -0.443276, 0.632931, -3.12707, -0.0561, -0.115449, -0.0109847, -0.443139, 0.633372, -3.12831, -0.0536596, -0.097805, 0.0238379, 0.0308619, -0.046975, -0.000860629, 0.00874062, -0.0255233
0.163633, 0.108286, -0.77394, -0.918405, -1.45882, -0.6286, 1.06705, -0.256663, -0.00156335, -0.00626941, -0.0161796, -0.0573991, -0.00852621, -0.0529781, 0.00194586, 0.737679, 15.9735, 20.1212, 15.2417, 1.50348, 3.52542, -0.0951428, -0.000882171, -0.0001555, -0.000524956, -0.000465537, -0.0114712, 0.00189269, 0.0250506, -0.0208827, 0.0228093, 0.00916054, 0.0844199, 0.194218, -0.0100616, -0.443245, 0.632884, -3.12696, -0.0561137, -0.115626, -0.010985, -0.443128, 0.633344, -3.12822, -0.0536847, -0.0977031, 0.0241952, 0.0312393, -0.0476168, -0.00169247, 0.00918168, -0.0269487
0.164633, 0.108288, -0.773949, -0.918426, -1.45889, -0.628604, 1.06699, -0.256665, -0.00038253, -0.00452506, -0.0161934, -0.0581197, -0.0113599, -0.0537303, -0.000362067, 0.701973, 15.9735, 20.1569, 15.206, 1.50989, 3.5181, -0.0484509, -0.000906651, -0.000134824, -0.00054523, -0.000469339, -0.011654, 0.00188283, 0.0248156, -0.0213742, 0.0232319, 0.010611, 0.0894971, 0.199161, -0.0100372, -0.443213, 0.632836, -3.12686, -0.0561275, -0.115806, -0.0109859, -0.443118, 0.633314, -3.12813, -0.0537163, -0.0975976, 0.0245547, 0.0316171, -0.0482612, -0.0011142, 0.00906854, -0.0271648
0.165633, 0.108286, -0.773956, -0.91844, -1.45895, -0.628606, 1.06694, -0.256664, -0.00463672, -0.00554988, -0.0174465, -0.0608909, -0.00852201, -0.0539943, -0.000426219, 0.737679, 15.9378, 20.1212, 15.1306, 1.50989, 3.50345, -0.0420422, -0.000930306, -0.000115432, -0.000568454, -0.000478495, -0.0118369, 0.00187413, 0.0266358, -0.0213367, 0.0227869, 0.00820294, 0.088613, 0.199295, -0.0100124, -0.443182, 0.632787, -3.12675, -0.0561417, -0.115988, -0.0109858, -0.443107, 0.633286, -3.12804, -0.0537461, -0.0974947, 0.0249165, 0.0319953, -0.0489081, -0.0025371, 0.00942322, -0.0283956
0.166633, 0.108288, -0.773965, -0.918463, -1.45901, -0.62861, 1.06688, -0.256656, -0.00263923, -0.00725167, -0.0234069, -0.0615201, -0.00663025, -0.0542629, 0.00243401, 0.701973, 15.9378, 20.1569, 15.1306, 1.5163, 3.48971, -0.114369, -0.000954707, -9.32556e-05, -0.00058804, -0.000483367, -0.012024, 0.00187357, 0.0280516, -0.0226314, 0.0214476, 0.00390851, 0.0866465, 0.197618, -0.00998734, -0.443149, 0.632738, -3.12664, -0.056156, -0.116172, -0.0109857, -0.443098, 0.633254, -3.12795, -0.0537638, -0.0973875, 0.0252805, 0.0323738, -0.0495576, -0.00344012, 0.00847358, -0.0305056
0.167633, 0.108286, -0.773977, -0.918475, -1.45908, -0.62861, 1.06683, -0.256662, -0.00204696, -0.00857541, -0.018857, -0.0640999, -0.00471647, -0.0488445, -0.000517926, 0.701973, 15.9378, 20.0815, 15.0949, 1.50989, 3.45309, -0.0557752, -0.000977465, -7.3364e-05, -0.000610877, -0.000494173, -0.012208, 0.00185196, 0.025566, -0.0227603, 0.0230283, 0.0103135, 0.0829851, 0.209403, -0.00996188, -0.443117, 0.632688, -3.12652, -0.0561706, -0.116359, -0.0109839, -0.443086, 0.633225, -3.12786, -0.0538142, -0.0972879, 0.0256467, 0.0327526, -0.0502094, -0.000711235, 0.00878753, -0.0294036
0.168633, 0.108291, -0.773989, -0.918491, -1.45915, -0.628612, 1.06677, -0.256657, 0.000182991, -0.00559231, -0.0188958, -0.0660578, -0.00398537, -0.0505392, 0.000388949, 0.626595, 15.9021, 20.0101, 15.0552, 1.52179, 3.44668, -0.0750012, -0.00100006, -5.3389e-05, -0.000632828, -0.000498234, -0.0123977, 0.00183938, 0.0236577, -0.0226043, 0.0229964, 0.00871054, 0.0879097, 0.214526, -0.00993605, -0.443084, 0.632638, -3.12641, -0.0561854, -0.116548, -0.0109816, -0.443075, 0.633195, -3.12777, -0.0538512, -0.0971816, 0.0260151, 0.0331317, -0.0508638, 0.00155354, 0.00938786, -0.0299512
0.169633, 0.108292, -0.774005, -0.918508, -1.45922, -0.628608, 1.06671, -0.256653, -3.97105e-05, -0.00824327, -0.0197418, -0.067775, -0.00275365, -0.0514491, 0.00125926, 0.626595, 15.9378, 19.9705, 15.0195, 1.5163, 3.42471, -0.101552, -0.00102334, -3.30371e-05, -0.000654062, -0.00050109, -0.012582, 0.0018243, 0.0246685, -0.0227635, 0.0227575, 0.0069322, 0.0862959, 0.216788, -0.00990985, -0.44305, 0.632586, -3.1263, -0.0562005, -0.11674, -0.0109795, -0.443063, 0.633162, -3.12767, -0.0538923, -0.097086, 0.0263857, 0.0335111, -0.0515205, 0.000938049, 0.00957302, -0.0309292
0.170633, 0.108291, -0.77402, -0.918527, -1.4593, -0.62861, 1.06666, -0.256651, -0.000147752, -0.00843154, -0.0204606, -0.0699312, -0.00182354, -0.0570223, 0.000343344, 0.626595, 15.9021, 19.9347, 15.0195, 1.50989, 3.41006, -0.0878186, -0.00104824, -1.12844e-05, -0.000674025, -0.000505764, -0.0127754, 0.00181174, 0.0253115, -0.022006, 0.0221041, 0.00126113, 0.0900006, 0.221094, -0.00988328, -0.443017, 0.632535, -3.12618, -0.0562158, -0.116934, -0.0109785, -0.443052, 0.633128, -3.12757, -0.0539298, -0.0969788, 0.0267585, 0.0338906, -0.0521796, 0.00068899, 0.0106933, -0.0322852
0.171633, 0.108296, -0.774033, -0.918544, -1.45937, -0.628611, 1.0666, -0.256656, 0.00157378, -0.0109518, -0.0218956, -0.0736048, -0.00162191, -0.0577035, -0.000711193, 0.551216, 15.8267, 19.9347, 14.9799, 1.5163, 3.42471, -0.0621838, -0.00107189, 8.86214e-06, -0.000695005, -0.000504176, -0.0129753, 0.00178733, 0.0253963, -0.0223682, 0.0210701, -0.00146599, 0.0905133, 0.227293, -0.00985633, -0.442983, 0.632482, -3.12606, -0.0562314, -0.11713, -0.010976, -0.443039, 0.633094, -3.12747, -0.0539863, -0.0968637, 0.0271335, 0.0342704, -0.052841, 0.00106757, 0.0107201, -0.0339939
0.172633, 0.108298, -0.774052, -0.918558, -1.45945, -0.628606, 1.06654, -0.256646, 0.000980966, -0.0146882, -0.0242462, -0.0714932, -0.000292385, -0.0574081, 0.00194038, 0.551216, 15.8267, 19.8594, 14.8688, 1.49158, 3.42471, -0.127186, -0.00109521, 2.86149e-05, -0.000717903, -0.000507301, -0.0131637, 0.00177306, 0.028028, -0.0232741, 0.0216658, -0.00111266, 0.0847062, 0.224387, -0.00982901, -0.442948, 0.632429, -3.12594, -0.0562473, -0.117329, -0.010973, -0.443026, 0.633062, -3.12736, -0.0540271, -0.0967692, 0.0275107, 0.0346502, -0.0535047, -0.00119147, 0.0100904, -0.034278
0.173633, 0.108299, -0.774073, -0.918576, -1.45954, -0.628604, 1.06648, -0.256649, 0.00153083, -0.0175102, -0.02686, -0.0754807, -5.25445e-05, -0.0614415, 0.000112049, 0.511544, 15.8267, 19.8237, 14.8688, 1.48517, 3.41739, -0.0951428, -0.00112047, 4.94239e-05, -0.000736932, -0.000503553, -0.0133615, 0.00174808, 0.0293929, -0.0232059, 0.0199472, -0.00763234, 0.0868266, 0.229471, -0.00980131, -0.442913, 0.632375, -3.12582, -0.0562634, -0.117531, -0.0109712, -0.443013, 0.633025, -3.12725, -0.0540852, -0.0966621, 0.02789, 0.0350302, -0.0541706, -0.00204836, 0.0105124, -0.0367661
0.174633, 0.108299, -0.77409, -0.918596, -1.45962, -0.628603, 1.06642, -0.256651, 0.000982182, -0.0177344, -0.0226698, -0.0766476, 0.000131094, -0.0643904, -0.00165069, 0.511544, 15.7513, 19.784, 14.9084, 1.47876, 3.41006, -0.0484509, -0.00114524, 7.09827e-05, -0.000756539, -0.000502864, -0.0135657, 0.00172614, 0.0287307, -0.0221099, 0.0212314, -0.00694607, 0.088893, 0.237105, -0.00977323, -0.442878, 0.63232, -3.1257, -0.0562797, -0.117734, -0.0109686, -0.443001, 0.632988, -3.12715, -0.0541388, -0.0965478, 0.0282715, 0.0354102, -0.0548388, -0.00114508, 0.0119899, -0.0360976
0.175633, 0.108301, -0.774115, -0.918613, -1.45971, -0.628602, 1.06636, -0.256642, 0.00146123, -0.0207368, -0.021785, -0.0795347, 0.00023742, -0.0622174, 0.00603512, 0.475838, 15.791, 19.7086, 14.9084, 1.47327, 3.40365, -0.114369, -0.00117066, 9.28335e-05, -0.000776862, -0.000504462, -0.0137637, 0.00170959, 0.0286416, -0.0225776, 0.0213727, -0.00510661, 0.0869448, 0.234697, -0.00974476, -0.442843, 0.632265, -3.12558, -0.0562963, -0.117941, -0.0109663, -0.442988, 0.63295, -3.12704, -0.0541841, -0.0964458, 0.0286551, 0.0357903, -0.0555092, -0.000668407, 0.0119012, -0.0366327
0.176633, 0.1083, -0.774136, -0.918628, -1.45979, -0.628602, 1.0663, -0.256645, 0.000117348, -0.0209634, -0.0189049, -0.0799918, 0.00011821, -0.0607657, 0.00224643, 0.511544, 15.7513, 19.6729, 14.8331, 1.47327, 3.40365, -0.0557752, -0.00119841, 0.000114533, -0.000800735, -0.000510398, -0.0139635, 0.00168814, 0.0284913, -0.022591, 0.0229187, -0.000889749, 0.0866116, 0.2421, -0.00971592, -0.442807, 0.632209, -3.12545, -0.0563132, -0.11815, -0.0109662, -0.442975, 0.632916, -3.12694, -0.0542373, -0.0963437, 0.0290408, 0.0361704, -0.0561817, -0.00025087, 0.0122477, -0.0357593
0.177633, 0.108296, -0.774164, -0.918649, -1.45988, -0.6286, 1.06624, -0.256643, -0.000865977, -0.0221106, -0.0207095, -0.0810043, -0.000392055, -0.0547491, 0.0010465, 0.551216, 15.7513, 19.6729, 14.7934, 1.48517, 3.39633, -0.0356336, -0.00122924, 0.000136798, -0.000820655, -0.000507476, -0.0141648, 0.00167381, 0.0294515, -0.0243807, 0.0233322, 0.00403314, 0.0839247, 0.243844, -0.00968668, -0.44277, 0.632153, -3.12533, -0.0563304, -0.118361, -0.0109685, -0.442963, 0.632876, -3.12682, -0.0542801, -0.0962413, 0.0294287, 0.0365505, -0.0568564, -0.000788038, 0.0107963, -0.0361231
0.178633, 0.108299, -0.774187, -0.918669, -1.45997, -0.628597, 1.06619, -0.25664, 0.000338561, -0.0244419, -0.0219869, -0.0845048, 0.000394259, -0.053397, 0.00139353, 0.511544, 15.6799, 19.6729, 14.722, 1.46686, 3.34598, -0.0484509, -0.00125526, 0.000160627, -0.000842764, -0.000513524, -0.0143658, 0.0016533, 0.0293731, -0.0250062, 0.0226121, 0.00307583, 0.0830575, 0.248505, -0.00965706, -0.442734, 0.632096, -3.1252, -0.0563478, -0.118575, -0.0109657, -0.442951, 0.632839, -3.12671, -0.0543324, -0.0961424, 0.0298187, 0.0369305, -0.0575331, -0.000245172, 0.0105619, -0.0375268
0.179633, 0.108296, -0.774212, -0.918686, -1.46006, -0.628599, 1.06613, -0.256635, -0.000711419, -0.0230556, -0.0188737, -0.0895332, -0.000432233, -0.0485665, 0.00136615, 0.551216, 15.6046, 19.6372, 14.7577, 1.48517, 3.31759, -0.0557752, -0.00128306, 0.000183257, -0.000863165, -0.000515723, -0.0145785, 0.00163489, 0.0273769, -0.0253611, 0.0231728, 0.00825134, 0.0861553, 0.254645, -0.00962704, -0.442696, 0.632038, -3.12507, -0.0563654, -0.118791, -0.0109642, -0.442938, 0.632799, -3.1266, -0.054382, -0.0960276, 0.0302108, 0.0373105, -0.0582119, 0.00210427, 0.0106465, -0.0375064
0.180633, 0.108298, -0.774239, -0.9187, -1.46016, -0.628598, 1.06607, -0.256633, 0.000446911, -0.0259825, -0.0165911, -0.0945248, -6.3475e-05, -0.0494892, 0.000289177, 0.511544, 15.5688, 19.5975, 14.722, 1.47876, 3.28097, -0.0356336, -0.00130709, 0.000206125, -0.000884393, -0.000520896, -0.0147892, 0.00160452, 0.0263725, -0.0248521, 0.0227849, 0.00693551, 0.086989, 0.263961, -0.00959664, -0.442659, 0.631979, -3.12494, -0.0563834, -0.11901, -0.0109586, -0.442925, 0.632759, -3.12649, -0.0544504, -0.0959189, 0.0306049, 0.0376903, -0.0588927, 0.00350764, 0.0115735, -0.0384982
0.181633, 0.108294, -0.774273, -0.918714, -1.46026, -0.6286, 1.06601, -0.256634, 0.000292818, -0.0260237, -0.0180087, -0.0960767, -0.000729994, -0.0511533, 0.000760799, 0.511544, 15.5688, 19.5618, 14.722, 1.49707, 3.27456, -0.0484509, -0.00133689, 0.000228293, -0.000905168, -0.000522463, -0.0150019, 0.00157834, 0.0272578, -0.0251519, 0.0224991, 0.00528633, 0.0897519, 0.265328, -0.00956583, -0.442621, 0.63192, -3.12481, -0.0564016, -0.119232, -0.0109583, -0.44291, 0.632717, -3.12638, -0.0545128, -0.0958091, 0.0310012, 0.03807, -0.0595756, 0.00305198, 0.0116236, -0.0395445
0.182633, 0.108287, -0.774302, -0.918733, -1.46037, -0.628599, 1.06596, -0.256625, -0.00157187, -0.0282225, -0.0176302, -0.100396, -0.000290344, -0.0524075, 0.00254386, 0.586922, 15.5331, 19.5975, 14.722, 1.49158, 3.26724, -0.101552, -0.00136662, 0.000252068, -0.000924684, -0.000524084, -0.0152179, 0.00156374, 0.028145, -0.0248845, 0.0218851, 0.00308446, 0.0910347, 0.267014, -0.00953463, -0.442583, 0.63186, -3.12467, -0.0564201, -0.119456, -0.0109575, -0.442897, 0.632674, -3.12626, -0.0545576, -0.0956968, 0.0313996, 0.0384495, -0.0602603, 0.00260075, 0.0122453, -0.0409134
0.183634, 0.108287, -0.774327, -0.918746, -1.46048, -0.628601, 1.0659, -0.256633, -0.00105079, -0.025091, -0.0195696, -0.102588, -0.000639721, -0.0539398, -0.00116774, 0.586922, 15.4221, 19.5975, 14.6823, 1.50348, 3.27456, -0.0228162, -0.00139172, 0.000275078, -0.00094643, -0.000528985, -0.0154431, 0.00152481, 0.0277394, -0.025181, 0.021362, 0.000870688, 0.0971115, 0.273307, -0.00950303, -0.442544, 0.6318, -3.12454, -0.0564389, -0.119682, -0.0109518, -0.442883, 0.632633, -3.12615, -0.0546404, -0.0955731, 0.0318, 0.0388288, -0.060947, 0.00345362, 0.012348, -0.0421018
0.184634, 0.108285, -0.774363, -0.918757, -1.46059, -0.628603, 1.06584, -0.256623, -0.000702689, -0.0293809, -0.0170358, -0.106321, 0.00360248, -0.054966, 0.00615176, 0.586922, 15.4578, 19.5618, 14.722, 1.52179, 3.28097, -0.0814099, -0.00141994, 0.000297118, -0.000967272, -0.000530557, -0.0156638, 0.00150047, 0.0269407, -0.0242455, 0.0213967, -0.00136203, 0.0928824, 0.274865, -0.00947103, -0.442505, 0.631738, -3.1244, -0.0564579, -0.119911, -0.0109488, -0.442868, 0.63259, -3.12603, -0.054701, -0.0954587, 0.0322025, 0.0392079, -0.0616356, 0.0046128, 0.0136867, -0.0426899
0.185634, 0.108276, -0.774393, -0.91877, -1.4607, -0.628598, 1.06578, -0.256621, -0.00223332, -0.0300221, -0.0168023, -0.107916, 0.00323205, -0.0557243, 0.00476145, 0.6623, 15.3864, 19.5975, 14.722, 1.50989, 3.2883, -0.0878186, -0.00144774, 0.000319758, -0.000988477, -0.000533081, -0.0158866, 0.00147212, 0.0279244, -0.0243277, 0.021673, -0.00127287, 0.094323, 0.278177, -0.00943863, -0.442466, 0.631676, -3.12426, -0.0564773, -0.120143, -0.0109451, -0.442852, 0.632546, -3.12591, -0.0547681, -0.0953437, 0.032607, 0.0395867, -0.062326, 0.00401659, 0.013941, -0.0431892
0.186634, 0.108263, -0.774423, -0.918778, -1.46081, -0.628597, 1.06573, -0.256627, -0.00844524, -0.0312655, -0.0148315, -0.112297, 0.00244689, -0.0557778, 0.00132135, 0.813057, 15.3467, 19.5618, 14.722, 1.50989, 3.2883, -0.0292249, -0.00147699, 0.000341675, -0.00101174, -0.000541191, -0.0161144, 0.00143795, 0.0300309, -0.0239651, 0.021784, -0.000561764, 0.0968126, 0.281431, -0.00940582, -0.442426, 0.631614, -3.12412, -0.0564969, -0.120377, -0.0109425, -0.442836, 0.632504, -3.1258, -0.0548445, -0.0952239, 0.0330136, 0.0399652, -0.0630183, 0.00230009, 0.0146022, -0.0439362
0.187634, 0.108265, -0.774455, -0.918783, -1.46093, -0.628601, 1.06567, -0.256625, -0.00331834, -0.0290644, -0.0103536, -0.115564, 0.00140959, -0.0561833, 0.00183086, 0.701973, 15.311, 19.5261, 14.722, 1.52179, 3.29562, -0.0484509, -0.0014994, 0.00036402, -0.00103426, -0.000549565, -0.01635, 0.00139447, 0.0256024, -0.0233807, 0.0226499, 0.00170348, 0.102427, 0.293241, -0.0093726, -0.442386, 0.63155, -3.12398, -0.0565168, -0.120614, -0.0109326, -0.44282, 0.632461, -3.12568, -0.0549356, -0.0950946, 0.0334222, 0.0403434, -0.0637123, 0.00703071, 0.0157046, -0.0434248
0.188634, 0.108254, -0.774488, -0.918795, -1.46106, -0.6286, 1.06561, -0.256622, -0.00845369, -0.0283046, -0.00954861, -0.119906, 0.000866726, -0.0573904, 0.00238234, 0.813057, 15.311, 19.5975, 14.7934, 1.5282, 3.324, -0.0750012, -0.00152828, 0.000385976, -0.0010532, -0.000546151, -0.0165892, 0.00136403, 0.0270945, -0.0229916, 0.0223839, 0.000686487, 0.107357, 0.292772, -0.00933897, -0.442345, 0.631486, -3.12384, -0.056537, -0.120853, -0.0109286, -0.442802, 0.632412, -3.12556, -0.0550075, -0.0949616, 0.0338328, 0.0407212, -0.0644081, 0.00595822, 0.0164193, -0.0445035
0.189634, 0.108255, -0.774525, -0.918796, -1.46119, -0.6286, 1.06555, -0.256624, -0.00431946, -0.0309165, -0.00542716, -0.121391, 0.000463726, -0.0579562, 2.66178e-05, 0.737679, 15.311, 19.5261, 14.7934, 1.53461, 3.34598, -0.0292249, -0.00155066, 0.000406698, -0.0010761, -0.000550108, -0.0168261, 0.0013102, 0.0249343, -0.0225615, 0.0235476, 0.0029937, 0.106622, 0.305631, -0.00930493, -0.442304, 0.631421, -3.1237, -0.0565575, -0.121095, -0.010918, -0.442784, 0.632368, -3.12544, -0.0546235, -0.0948352, 0.0342455, 0.0410986, -0.0651057, 0.00841501, 0.017281, -0.0438751
0.190634, 0.10824, -0.774562, -0.918808, -1.46132, -0.6286, 1.06549, -0.256622, -0.00590607, -0.0327456, -0.00676545, -0.126913, 0.000198151, -0.061825, 0.000355464, 0.85273, 15.311, 19.6372, 14.8688, 1.5401, 3.33865, -0.0356336, -0.0015828, 0.000429905, -0.00109543, -0.000550209, -0.0170663, 0.00128187, 0.0263335, -0.0221524, 0.021882, -0.00292524, 0.111015, 0.308037, -0.00927048, -0.442263, 0.631356, -3.12355, -0.0565783, -0.121339, -0.0109163, -0.442767, 0.632319, -3.12532, -0.0546939, -0.0947058, 0.0346601, 0.0414756, -0.0658049, 0.00754643, 0.0180412, -0.0463453
0.191634, 0.108228, -0.774603, -0.91881, -1.46144, -0.6286, 1.06543, -0.256618, -0.00502398, -0.034886, -0.00800698, -0.130993, 0.000201439, -0.0596177, 0.00153295, 0.888436, 15.3467, 19.6372, 14.8331, 1.5401, 3.31759, -0.0685925, -0.0016119, 0.000451605, -0.00111962, -0.000559547, -0.0173021, 0.00124586, 0.026298, -0.0229597, 0.0211163, -0.0030314, 0.110923, 0.31158, -0.00923561, -0.442221, 0.63129, -3.1234, -0.0565994, -0.121587, -0.0109117, -0.442749, 0.632274, -3.1252, -0.0547761, -0.0945867, 0.0350768, 0.0418522, -0.0665058, 0.00808474, 0.0176219, -0.0478255
0.192634, 0.108224, -0.774642, -0.918808, -1.46157, -0.628601, 1.06536, -0.256622, -0.00595091, -0.036469, -0.00590382, -0.129546, -0.000288422, -0.0629514, -0.000379644, 0.85273, 15.3864, 19.6372, 14.8331, 1.55292, 3.31027, -0.0292249, -0.00163751, 0.000472298, -0.00114439, -0.000567033, -0.0175461, 0.00119288, 0.0276273, -0.0224428, 0.0225891, -0.00230796, 0.110784, 0.315861, -0.00920033, -0.442179, 0.631223, -3.12326, -0.0566208, -0.121836, -0.0109032, -0.442729, 0.632229, -3.12507, -0.0548854, -0.0944577, 0.0354954, 0.0422282, -0.0672083, 0.00704316, 0.0184392, -0.0471642
0.193634, 0.108216, -0.774672, -0.918808, -1.46171, -0.628601, 1.0653, -0.256624, -0.00688737, -0.0341348, -0.00436025, -0.131046, 8.40802e-05, -0.0661618, -0.000685474, 0.813057, 15.2753, 19.6372, 14.9442, 1.54651, 3.31027, -0.0164075, -0.00166049, 0.000492026, -0.00116696, -0.000567947, -0.0178065, 0.0011415, 0.0271792, -0.0216906, 0.0231482, -0.0035703, 0.115791, 0.319984, -0.00916462, -0.442137, 0.631155, -3.12311, -0.0566425, -0.122088, -0.0108916, -0.442707, 0.632182, -3.12495, -0.0549932, -0.0943051, 0.0359161, 0.0426038, -0.0679124, 0.00783625, 0.0195694, -0.0472733
0.194634, 0.108206, -0.77472, -0.918798, -1.46184, -0.628601, 1.06523, -0.256617, -0.00765285, -0.0377989, -0.00146188, -0.131856, 8.53054e-05, -0.063963, 0.00174491, 0.777352, 15.3864, 19.5618, 14.9084, 1.54651, 3.31759, -0.0750012, -0.00168874, 0.000510267, -0.00119355, -0.000574489, -0.0180495, 0.00109567, 0.0276613, -0.0218804, 0.0245531, 0.000842923, 0.111871, 0.322147, -0.00912849, -0.442094, 0.631087, -3.12296, -0.0566645, -0.122343, -0.0108852, -0.442685, 0.632137, -3.12482, -0.055092, -0.0941828, 0.0363387, 0.0429789, -0.068618, 0.00767314, 0.0197101, -0.046627
0.195634, 0.108191, -0.774753, -0.918796, -1.46198, -0.628601, 1.06516, -0.25662, -0.0123814, -0.0358661, -0.0012133, -0.132229, 7.88093e-05, -0.0674092, -0.000983049, 0.777352, 15.311, 19.5618, 14.8688, 1.54651, 3.33133, -0.0164075, -0.00171666, 0.000529858, -0.00121764, -0.000576175, -0.0183118, 0.00104882, 0.0297567, -0.0213519, 0.0251965, -0.000446829, 0.116153, 0.323178, -0.00909194, -0.442051, 0.631018, -3.1228, -0.0566868, -0.122601, -0.0108777, -0.442663, 0.632089, -3.12469, -0.0551934, -0.0940326, 0.0367632, 0.0433533, -0.0693252, 0.00593728, 0.0205231, -0.0468581
0.196634, 0.108181, -0.774794, -0.918791, -1.46212, -0.628595, 1.06509, -0.256614, -0.0109944, -0.0395938, -0.000152682, -0.136966, 0.000747162, -0.0693707, 0.00129528, 0.701973, 15.311, 19.5261, 14.8688, 1.5282, 3.33133, -0.0685925, -0.00174208, 0.000548306, -0.00124157, -0.000575048, -0.0185685, 0.00100022, 0.0294268, -0.0208839, 0.0244496, -0.00346246, 0.116443, 0.328537, -0.00905497, -0.442007, 0.630949, -3.12265, -0.0567094, -0.122861, -0.0108674, -0.442639, 0.632041, -3.12455, -0.0552979, -0.0938938, 0.0371897, 0.0437272, -0.0700339, 0.0067303, 0.0213855, -0.048287
0.197634, 0.108165, -0.774838, -0.918785, -1.46226, -0.628595, 1.06501, -0.25661, -0.00843003, -0.0425, 0.00152717, -0.13965, 0.00027309, -0.0709095, 0.00557019, 0.701973, 15.311, 19.4507, 14.8331, 1.53461, 3.33133, -0.0685925, -0.00177256, 0.000566734, -0.00126691, -0.000575858, -0.0188285, 0.000956577, 0.0287268, -0.0206411, 0.0245362, -0.00405619, 0.116856, 0.331952, -0.00901756, -0.441964, 0.630878, -3.12249, -0.0567323, -0.123123, -0.0108619, -0.442615, 0.631993, -3.12442, -0.055395, -0.0937525, 0.0376182, 0.0441005, -0.0707441, 0.00783715, 0.0220209, -0.0488604
0.198634, 0.10815, -0.77488, -0.918783, -1.46242, -0.628592, 1.06494, -0.256607, -0.0123499, -0.0442093, 0.00091741, -0.142182, 0.00110684, -0.0718177, 0.00458933, 0.6623, 15.311, 19.4507, 14.8331, 1.50989, 3.324, -0.0814099, -0.00180166, 0.000585234, -0.00128914, -0.000568845, -0.0190959, 0.000908542, 0.0309727, -0.0206121, 0.0243459, -0.00559291, 0.117061, 0.332959, -0.00897973, -0.441919, 0.630807, -3.12233, -0.0567555, -0.123389, -0.0108543, -0.442591, 0.631941, -3.12427, -0.0554998, -0.0936019, 0.0380486, 0.0444731, -0.0714557, 0.00604074, 0.022342, -0.0499475
0.199634, 0.108138, -0.774921, -0.918777, -1.46256, -0.628587, 1.06486, -0.256612, -0.0109664, -0.0450727, 0.00229931, -0.141766, 0.00142301, -0.0720989, 0.001665, 0.586922, 15.2753, 19.3754, 14.722, 1.49158, 3.31027, -0.0356336, -0.00182902, 0.00060298, -0.00131451, -0.00056478, -0.0193619, 0.000848536, 0.0306157, -0.0206743, 0.0255208, -0.00374645, 0.116259, 0.34097, -0.00894147, -0.441875, 0.630735, -3.12218, -0.056779, -0.123657, -0.0108448, -0.442566, 0.631891, -3.12413, -0.0556235, -0.0934566, 0.0384809, 0.044845, -0.0721687, 0.00673518, 0.0226396, -0.0494709
0.200634, 0.108123, -0.774965, -0.918764, -1.46272, -0.628582, 1.06478, -0.256613, -0.00997348, -0.0423357, 0.00718276, -0.145133, 0.00119124, -0.0718474, 0.00585585, 0.511544, 15.2356, 19.2643, 14.7577, 1.48517, 3.28097, -0.0292249, -0.00185326, 0.000619461, -0.0013374, -0.000559819, -0.0196367, 0.00078316, 0.027494, -0.0198953, 0.0266986, -0.00069198, 0.121528, 0.345779, -0.00890277, -0.44183, 0.630663, -3.12202, -0.0568029, -0.123927, -0.0108316, -0.442539, 0.631839, -3.12399, -0.0557562, -0.0933002, 0.0389151, 0.0452163, -0.0728831, 0.010154, 0.0238751, -0.0487602
0.201634, 0.108114, -0.775008, -0.918752, -1.46288, -0.628583, 1.0647, -0.256604, -0.00862094, -0.0437999, 0.0085315, -0.145818, 0.00103542, -0.0761891, 0.00616502, 0.400459, 15.1999, 19.1135, 14.722, 1.47876, 3.24527, -0.0750012, -0.00187797, 0.000636508, -0.00136192, -0.000556863, -0.0199184, 0.000727058, 0.0276528, -0.0192228, 0.0271618, -0.00278589, 0.123263, 0.350812, -0.00886363, -0.441784, 0.630589, -3.12185, -0.0568271, -0.1242, -0.0108186, -0.442512, 0.631787, -3.12384, -0.0558747, -0.0931359, 0.0393512, 0.0455868, -0.0735988, 0.0103666, 0.0248992, -0.049025
0.202634, 0.108098, -0.775054, -0.91875, -1.46304, -0.628578, 1.06462, -0.256606, -0.0116681, -0.0447269, 0.00492204, -0.148129, 0.00137138, -0.0756859, 0.00355095, 0.325081, 15.1642, 19.1532, 14.7577, 1.46045, 3.23153, -0.0484509, -0.00190879, 0.000654142, -0.00138316, -0.000540777, -0.020198, 0.000670166, 0.0302477, -0.0201036, 0.0263305, -0.00471478, 0.123915, 0.351705, -0.00882406, -0.441738, 0.630515, -3.12169, -0.0568516, -0.124476, -0.010811, -0.442485, 0.631731, -3.12369, -0.0559955, -0.0929765, 0.0397893, 0.0459565, -0.0743159, 0.00831438, 0.0243071, -0.0507998
0.203634, 0.108082, -0.7751, -0.918737, -1.46319, -0.628575, 1.06454, -0.256602, -0.0107298, -0.0455745, 0.00600161, -0.14975, 0.00044173, -0.0750785, 0.00295677, 0.245735, 15.1285, 19.0421, 14.6823, 1.47327, 3.20956, -0.0557752, -0.00193757, 0.00067035, -0.00140983, -0.000537249, -0.0204785, 0.000614869, 0.0299219, -0.020387, 0.0268994, -0.00282371, 0.124977, 0.357172, -0.00878406, -0.441692, 0.630441, -3.12153, -0.0568764, -0.124755, -0.0108014, -0.442457, 0.63168, -3.12354, -0.0561136, -0.0928195, 0.0402292, 0.0463255, -0.0750342, 0.00904036, 0.0243897, -0.0509385
0.204634, 0.108059, -0.775145, -0.91873, -1.46335, -0.628572, 1.06446, -0.256599, -0.0128341, -0.0452321, 0.00722218, -0.158552, 0.00100821, -0.0783327, 0.00747889, 0.285408, 15.0531, 19.0421, 14.6823, 1.45404, 3.16653, -0.0685925, -0.00197045, 0.00068813, -0.00143431, -0.000529768, -0.020763, 0.000567569, 0.0292024, -0.0192236, 0.0251129, -0.00851367, 0.132691, 0.358921, -0.00874361, -0.441646, 0.630365, -3.12136, -0.0569015, -0.125036, -0.0107952, -0.44243, 0.631626, -3.12339, -0.0562199, -0.0926584, 0.040671, 0.0466936, -0.0757538, 0.0102942, 0.0259747, -0.0533717
0.205634, 0.108045, -0.775193, -0.918717, -1.46352, -0.628572, 1.06438, -0.256594, -0.013659, -0.045836, 0.0100166, -0.159868, 0.000436017, -0.0771585, 0.00508973, 0.170357, 15.0174, 18.9667, 14.6823, 1.46045, 3.14548, -0.0557752, -0.00199807, 0.000705419, -0.00146008, -0.000527652, -0.0210509, 0.000508012, 0.028958, -0.0191991, 0.0263733, -0.00489031, 0.133158, 0.365757, -0.00870271, -0.441599, 0.630289, -3.12119, -0.056927, -0.12532, -0.0107834, -0.442402, 0.631572, -3.12324, -0.0563454, -0.0924953, 0.0411146, 0.0470609, -0.0764746, 0.0108761, 0.0263473, -0.0528251
0.206634, 0.108031, -0.77524, -0.91871, -1.46369, -0.628569, 1.06429, -0.256592, -0.012274, -0.0463574, 0.0125623, -0.160777, 0.000291605, -0.0821221, 0.00355578, 0.0949785, 14.9777, 19.0024, 14.6823, 1.46045, 3.1528, -0.0484509, -0.00202774, 0.000722149, -0.00148299, -0.000511677, -0.0213468, 0.000447933, 0.0284592, -0.0181403, 0.0270878, -0.00682994, 0.136263, 0.373696, -0.00866138, -0.441552, 0.630212, -3.12102, -0.0569528, -0.125606, -0.0107731, -0.442374, 0.631515, -3.12308, -0.056473, -0.0923216, 0.0415602, 0.0474273, -0.0771966, 0.0117182, 0.0277714, -0.0527867
