alisrour97/Franka_experiments/Real_Robot_scripts/servo-franka/Data4/log_dyn_PIw_ki_4.csv
Time,q1,q2,q3,q4,q5,q6,q7,dq1,dq2,dq3,dq4,dq5,dq6,dq7,t1,t2,t3,t4,t5,t6,t7,ex1,ex2,ex3,ex4,ex5,ex6,ev1,ev2,ev3,ev4,ev5,ev6,xd,yd,zd,uxd,uyd,uzd,x,y,z,ux,uy,uz,vxd,vyd,vzd,vx,vy,vz
4.88281e-07, 0.107633, -0.774094, -0.916516, -1.45703, -0.62545, 1.06972, -0.256727, -0.00548164, -0.00674993, 0.00230548, 0.00978982, -6.6696e-05, 0.000436761, -6.76937e-06, 0.245735, 15.9021, 20.1212, 16.6223, 1.48517, 4.04086, -0.180287, 0.00086775, -0.00171578, 0.000382582, 0.00088268, -0.000970113, 0.000158103, 0.00573108, -0.000255617, 0.00359587, 0.00725197, -0.013421, -0.00875471, -0.011112, -0.444721, 0.635038, -3.13187, -0.0555627, -0.107532, -0.0102753, -0.442973, 0.634721, -3.13104, -0.0557938, -0.105935, 0, 0, 0, -0.00595094, -0.000487959, 0.00319202
0.0140613, 0.107587, -0.77412, -0.916511, -1.45693, -0.625461, 1.06972, -0.256731, -0.0044962, -0.00442394, 0.000163625, 0.0100013, -0.00067877, -6.87076e-05, -0.00106384, 0.21003, 15.8624, 20.1212, 16.5866, 1.50348, 4.04086, -0.160145, 0.00081829, -0.00171017, 0.000350077, 0.000818525, -0.000886678, 0.000253226, 0.00549624, -0.000634161, 0.00306653, 0.00592735, -0.010411, -0.00873698, -0.011112, -0.444721, 0.635038, -3.13187, -0.0555627, -0.107532, -0.0103332, -0.44298, 0.634755, -3.1311, -0.0556268, -0.106091, 1.73063e-06, -1.42215e-06, -3.96181e-06, -0.00566535, -0.000854865, 0.00267378
0.0150613, 0.107587, -0.77412, -0.916511, -1.45693, -0.625461, 1.06972, -0.256731, -0.0044962, -0.00442394, 0.000163625, 0.0100013, -0.00067877, -6.87076e-05, -0.00106384, 0.21003, 15.8624, 20.1212, 16.5866, 1.50348, 4.04086, -0.160145, 0.000818287, -0.00171017, 0.000350068, 0.000818505, -0.000886699, 0.000253233, 0.00550045, -0.000629653, 0.00307867, 0.00595153, -0.0103944, -0.00869347, -0.011112, -0.444721, 0.635038, -3.13187, -0.0555628, -0.107532, -0.0103332, -0.44298, 0.634755, -3.1311, -0.0556268, -0.106091, 6.91577e-06, -5.6745e-06, -1.58141e-05, -0.00566535, -0.000854865, 0.00267378
0.0160613, 0.107587, -0.77412, -0.916511, -1.45693, -0.625461, 1.06972, -0.256731, -0.0044962, -0.00442394, 0.000163625, 0.0100013, -0.00067877, -6.87076e-05, -0.00106384, 0.21003, 15.8624, 20.1212, 16.5866, 1.50348, 4.04086, -0.160145, 0.000818278, -0.00171018, 0.000350042, 0.00081845, -0.000886758, 0.000253253, 0.00550745, -0.000622167, 0.00309885, 0.00599169, -0.0103669, -0.00862119, -0.011112, -0.444721, 0.635038, -3.13187, -0.0555628, -0.107532, -0.0103332, -0.44298, 0.634755, -3.1311, -0.0556268, -0.106091, 1.55453e-05, -1.2736e-05, -3.55071e-05, -0.00566535, -0.000854865, 0.00267378
0.0170613, 0.107587, -0.77412, -0.916511, -1.45693, -0.625461, 1.06972, -0.256731, -0.0044962, -0.00442394, 0.000163625, 0.0100013, -0.00067877, -6.87076e-05, -0.00106384, 0.21003, 15.8624, 20.1212, 16.5866, 1.50348, 4.04086, -0.160145, 0.000818261, -0.0017102, 0.000349993, 0.000818345, -0.000886871, 0.000253291, 0.00551724, -0.000611723, 0.00312701, 0.00604771, -0.0103286, -0.0085203, -0.011112, -0.444721, 0.635038, -3.13187, -0.0555628, -0.107532, -0.0103332, -0.44298, 0.634755, -3.1311, -0.0556268, -0.106091, 2.7609e-05, -2.25855e-05, -6.29913e-05, -0.00566535, -0.000854865, 0.00267378
0.0180613, 0.107587, -0.77412, -0.916511, -1.45693, -0.625461, 1.06972, -0.256731, -0.0044962, -0.00442394, 0.000163625, 0.0100013, -0.00067877, -6.87076e-05, -0.00106384, 0.21003, 15.8624, 20.1212, 16.5866, 1.50348, 4.04086, -0.160145, 0.000818233, -0.00171023, 0.000349911, 0.000818171, -0.000887058, 0.000253354, 0.00552982, -0.000598344, 0.0031631, 0.00611947, -0.0102794, -0.008391, -0.0111119, -0.444721, 0.635038, -3.13187, -0.0555629, -0.107532, -0.0103332, -0.44298, 0.634755, -3.1311, -0.0556268, -0.106091, 4.30968e-05, -3.5202e-05, -9.82172e-05, -0.00566535, -0.000854865, 0.00267378
0.0190613, 0.107587, -0.77412, -0.916511, -1.45693, -0.625461, 1.06972, -0.256731, -0.0044962, -0.00442394, 0.000163625, 0.0100013, -0.00067877, -6.87076e-05, -0.00106384, 0.21003, 15.8624, 20.1212, 16.5866, 1.50348, 4.04086, -0.160145, 0.00081819, -0.00171028, 0.00034979, 0.000817912, -0.000887337, 0.000253447, 0.00554517, -0.000582051, 0.00320708, 0.00620686, -0.0102195, -0.00823347, -0.0111119, -0.444721, 0.635038, -3.13187, -0.0555631, -0.107533, -0.0103332, -0.44298, 0.634755, -3.1311, -0.0556268, -0.106091, 6.19987e-05, -5.05647e-05, -0.000141136, -0.00566535, -0.000854865, 0.00267378
0.0200613, 0.107587, -0.77412, -0.916511, -1.45693, -0.625461, 1.06972, -0.256731, -0.0044962, -0.00442394, 0.000163625, 0.0100013, -0.00067877, -6.87076e-05, -0.00106384, 0.21003, 15.8624, 20.1212, 16.5866, 1.50348, 4.04086, -0.160145, 0.000818131, -0.00171034, 0.000349621, 0.000817552, -0.000887724, 0.000253577, 0.0055633, -0.000562866, 0.0032589, 0.00630975, -0.010149, -0.00804788, -0.0111118, -0.444721, 0.635037, -3.13187, -0.0555633, -0.107533, -0.0103332, -0.44298, 0.634755, -3.1311, -0.0556268, -0.106091, 8.43044e-05, -6.86525e-05, -0.000191697, -0.00566535, -0.000854865, 0.00267378
0.0210615, 0.107587, -0.77412, -0.916511, -1.45693, -0.625461, 1.06972, -0.256731, -0.0044962, -0.00442394, 0.000163625, 0.0100013, -0.00067877, -6.87076e-05, -0.00106384, 0.21003, 15.8624, 20.1212, 16.5866, 1.50348, 4.04086, -0.160145, 0.000818053, -0.00171042, 0.000349397, 0.000817074, -0.000888239, 0.00025375, 0.0055842, -0.000540809, 0.0033185, 0.00642803, -0.0100678, -0.00783443, -0.0111117, -0.444721, 0.635037, -3.13187, -0.0555636, -0.107534, -0.0103332, -0.44298, 0.634755, -3.1311, -0.0556268, -0.106091, 0.000110004, -8.94448e-05, -0.000249853, -0.00566535, -0.000854865, 0.00267378
0.0220615, 0.107587, -0.77412, -0.916511, -1.45693, -0.625461, 1.06972, -0.256731, -0.0044962, -0.00442394, 0.000163625, 0.0100013, -0.00067877, -6.87076e-05, -0.00106384, 0.21003, 15.8624, 20.1212, 16.5866, 1.50348, 4.04086, -0.160145, 0.000817952, -0.00171053, 0.000349109, 0.000816462, -0.000888898, 0.000253971, 0.00560785, -0.000515902, 0.00338583, 0.00656159, -0.00997616, -0.00759328, -0.0111116, -0.444721, 0.635037, -3.13187, -0.055564, -0.107535, -0.0103332, -0.44298, 0.634755, -3.1311, -0.0556268, -0.106091, 0.000139087, -0.000112921, -0.000315553, -0.00566535, -0.000854865, 0.00267378
0.0230615, 0.107587, -0.77412, -0.916511, -1.45693, -0.625461, 1.06972, -0.256731, -0.0044962, -0.00442394, 0.000163625, 0.0100013, -0.00067877, -6.87076e-05, -0.00106384, 0.21003, 15.8624, 20.1212, 16.5866, 1.50348, 4.04086, -0.160145, 0.000817826, -0.00171066, 0.000348751, 0.0008157, -0.00088972, 0.000254247, 0.00563426, -0.000488167, 0.00346086, 0.0067103, -0.00987405, -0.00732462, -0.0111114, -0.444721, 0.635037, -3.13186, -0.0555644, -0.107536, -0.0103332, -0.44298, 0.634755, -3.1311, -0.0556268, -0.106091, 0.000171544, -0.000139059, -0.00038875, -0.00566535, -0.000854865, 0.00267378
0.0240618, 0.107533, -0.774127, -0.916509, -1.45685, -0.625466, 1.06972, -0.25673, -0.00634256, 0.000604154, 0.000409547, 0.00677247, 0.000349565, 0.000150584, -0.00214958, 0.170357, 15.8267, 20.1212, 16.5866, 1.50989, 4.03445, -0.140919, 0.0007748, -0.00170695, 0.00032248, 0.000763568, -0.000836176, 0.000351265, 0.00397435, 2.81257e-05, 0.0028895, 0.0054532, -0.00355638, -0.00545434, -0.0111112, -0.444721, 0.635036, -3.13186, -0.055565, -0.107538, -0.0103776, -0.442986, 0.634778, -3.13115, -0.0554744, -0.106179, 0.000207364, -0.00016784, -0.000469394, -0.00395389, -0.000304392, 0.00214036
0.0250618, 0.107529, -0.774125, -0.916506, -1.45684, -0.625468, 1.06972, -0.256723, -0.00788198, 0.0012155, 0.00120224, 0.00681395, -0.000445118, 0.000371793, 0.000737085, 0.170357, 15.791, 20.0815, 16.5112, 1.5282, 4.02713, -0.199513, 0.000771685, -0.00170681, 0.000317193, 0.000751774, -0.000832436, 0.000366744, 0.0043856, 0.00013509, 0.00330651, 0.00686087, -0.00240551, -0.00935377, -0.011111, -0.444722, 0.635036, -3.13186, -0.0555656, -0.10754, -0.0103808, -0.442986, 0.634783, -3.13116, -0.0554505, -0.106188, 0.000246538, -0.000199242, -0.000557437, -0.0043571, -0.000246959, 0.00244073
0.0260618, 0.107522, -0.774128, -0.91651, -1.45684, -0.625473, 1.06972, -0.256719, -0.00682392, 0.000793473, -0.00155508, 0.00401641, -0.00436118, -0.00802773, 0.00171209, 0.21003, 15.791, 20.0458, 16.5509, 1.50989, 3.99783, -0.232472, 0.000766505, -0.00170609, 0.000318379, 0.000752158, -0.000836698, 0.000380654, 0.00604552, 0.000853522, 0.000982373, -0.00191474, 0.00646412, -0.0114657, -0.0111107, -0.444722, 0.635035, -3.13186, -0.0555664, -0.107542, -0.0103856, -0.442987, 0.634781, -3.13116, -0.0554297, -0.106183, 0.000289055, -0.000233245, -0.00065283, -0.00583612, 0.000398599, -8.28788e-05
0.0270618, 0.107514, -0.774122, -0.916517, -1.45683, -0.625473, 1.06973, -0.256728, -0.00894353, 0.0017626, -0.00586235, 0.00523238, -0.0100199, -0.00804149, -0.00275807, 0.245735, 15.6046, 19.9705, 16.3248, 1.43573, 3.9191, -0.127186, 0.000760683, -0.00170453, 0.000316941, 0.000749107, -0.000839248, 0.000390257, 0.00947053, -0.000584567, 0.000331972, -0.00110884, 0.0112565, -0.015354, -0.0111104, -0.444722, 0.635034, -3.13186, -0.0555673, -0.107544, -0.0103911, -0.442989, 0.634781, -3.13116, -0.0554156, -0.106182, 0.000334905, -0.000269828, -0.000755525, -0.00910923, -0.00119002, -0.00107863
0.0280618, 0.107521, -0.774124, -0.916519, -1.45684, -0.625482, 1.06973, -0.256725, -0.00305309, -0.000575436, -0.00651539, 0.00374555, -0.0113136, -0.00451708, -0.00231343, 0.0949785, 15.5331, 19.784, 16.178, 1.40552, 3.86966, -0.114369, 0.000760694, -0.00170335, 0.000317227, 0.00074584, -0.000847274, 0.000392224, 0.007403, -0.00157133, -0.000149309, 0.000906229, 0.00931806, -0.00986861, -0.0111101, -0.444722, 0.635033, -3.13186, -0.0555684, -0.107547, -0.0103907, -0.442991, 0.63478, -3.13116, -0.0554135, -0.106172, 0.000384079, -0.000308971, -0.000865474, -0.00693054, -0.00213841, -0.00153277
0.0290618, 0.107515, -0.774125, -0.916534, -1.45684, -0.625491, 1.06973, -0.256717, -0.00342632, 0.000915133, -0.0085213, 0.00173513, -0.00715146, -0.00188678, -0.000321586, 0.134651, 15.4578, 19.784, 16.0629, 1.36249, 3.8193, -0.147328, 0.000750973, -0.00169983, 0.000321168, 0.000750332, -0.000856813, 0.000422526, 0.00628984, -0.00174999, -0.000915987, -0.000712852, 0.00788805, -0.0103021, -0.0111097, -0.444723, 0.635033, -3.13186, -0.0555696, -0.10755, -0.0103996, -0.442995, 0.634774, -3.13116, -0.0553678, -0.10616, 0.000436566, -0.000350653, -0.000982628, -0.00570935, -0.00231288, -0.00233941
0.0300618, 0.107514, -0.774119, -0.916538, -1.45684, -0.625499, 1.06972, -0.256716, -0.00170337, 0.0036954, -0.00963361, 0.00411419, -0.00475419, -0.00678692, -0.000451749, 0.0949785, 15.311, 19.6372, 15.9161, 1.33777, 3.82663, -0.140919, 0.000748769, -0.00169975, 0.000321209, 0.000750855, -0.000874184, 0.000431516, 0.00563128, -0.00088535, -0.000759361, -0.00506122, 0.010001, -0.00892034, -0.0111092, -0.444723, 0.635032, -3.13185, -0.0555709, -0.107554, -0.0104013, -0.442995, 0.634773, -3.13115, -0.0553553, -0.106136, 0.000492356, -0.000394854, -0.00110694, -0.00503855, -0.00147119, -0.0022569
0.0310618, 0.107521, -0.774125, -0.916546, -1.45684, -0.625515, 1.06972, -0.256723, 0.00120249, 0.00136711, -0.00994865, 0.000329962, -0.00830748, -0.0055703, -0.00274257, -0.0161054, 15.3467, 19.5975, 15.8765, 1.33136, 3.83304, -0.0750012, 0.000744491, -0.00169723, 0.000324401, 0.000752195, -0.000887446, 0.000430265, 0.00498772, -0.0014162, -0.00193468, -0.00485752, 0.0124383, -0.0032459, -0.0111087, -0.444723, 0.63503, -3.13185, -0.0555724, -0.107558, -0.0104048, -0.442998, 0.634768, -3.13115, -0.0553589, -0.10612, 0.000551439, -0.000441554, -0.00123836, -0.00423842, -0.00201563, -0.00351991
0.0320618, 0.107513, -0.774126, -0.916551, -1.45685, -0.625536, 1.06972, -0.256716, -0.00199209, 0.000715455, -0.0102107, -0.000296547, -0.00735283, -0.00353989, 0.000341757, 0.0949785, 15.3467, 19.5618, 15.8765, 1.35608, 3.81198, -0.133595, 0.000735015, -0.00169502, 0.000325942, 0.00074694, -0.000909198, 0.000457919, 0.0061984, -0.00156621, -0.00180756, -0.00359353, 0.0106346, -0.00842725, -0.0111081, -0.444724, 0.635029, -3.13185, -0.0555741, -0.107563, -0.0104134, -0.443001, 0.634765, -3.13116, -0.0553175, -0.10609, 0.000613805, -0.000490732, -0.00137684, -0.00538647, -0.00225841, -0.00361571
0.0330618, 0.107513, -0.774132, -0.916555, -1.45685, -0.625554, 1.06972, -0.256717, -0.00147452, -0.00143323, -0.00624619, -0.00058509, -0.0110402, -0.00122091, -0.00024688, 0.0949785, 15.4221, 19.4864, 15.8765, 1.37439, 3.76895, -0.120778, 0.000728831, -0.00169286, 0.00032683, 0.000740553, -0.000922763, 0.000467265, 0.00581921, -0.00162989, -0.000509458, 0.00254682, 0.010329, -0.00538755, -0.0111074, -0.444724, 0.635028, -3.13184, -0.055576, -0.107568, -0.0104188, -0.443004, 0.634762, -3.13116, -0.0553047, -0.106074, 0.000679445, -0.000542368, -0.00152234, -0.00502934, -0.00237154, -0.00244057
0.0340618, 0.107511, -0.774132, -0.916568, -1.45686, -0.625574, 1.06972, -0.256719, -0.00109287, -0.00190093, -0.00682909, -0.00549327, -0.0126656, -0.000612421, -0.000639305, 0.0949785, 15.4578, 19.5618, 15.9518, 1.3689, 3.7543, -0.10796, 0.000720436, -0.0016891, 0.000330699, 0.000739529, -0.000946277, 0.000485356, 0.00527117, -0.00169678, -0.00199051, 0.000921154, 0.014226, -0.00275707, -0.0111067, -0.444725, 0.635026, -3.13184, -0.055578, -0.107574, -0.0104261, -0.443009, 0.634756, -3.13116, -0.0552788, -0.106043, 0.000748347, -0.000596442, -0.0016748, -0.00431025, -0.0024604, -0.00403333
0.0350618, 0.107509, -0.774129, -0.916564, -1.45686, -0.625593, 1.06972, -0.256714, -0.00173898, -0.00134995, -0.00263056, -0.00329899, -0.0185024, -0.000935308, 0.00126922, 0.134651, 15.4578, 19.4507, 15.9161, 1.35608, 3.76163, -0.153737, 0.000717341, -0.00168862, 0.000327939, 0.000726286, -0.000967619, 0.00049957, 0.00573146, -0.00153989, 4.87385e-05, 0.00757251, 0.0179578, -0.005458, -0.0111059, -0.444726, 0.635024, -3.13184, -0.0555803, -0.10758, -0.0104286, -0.44301, 0.634757, -3.13117, -0.0552586, -0.106017, 0.000820503, -0.000652933, -0.00183418, -0.00484221, -0.00239389, -0.00218901
0.0360618, 0.107507, -0.774128, -0.916568, -1.45686, -0.625614, 1.06971, -0.256715, 0.00421823, -0.00096197, -0.00226092, -0.00338856, -0.0181512, -0.00108663, 0.000608787, 0.170357, 15.4578, 19.4507, 15.9518, 1.34418, 3.76895, -0.147328, 0.000710925, -0.00168724, 0.000328318, 0.00072037, -0.000993566, 0.000513704, 0.00285589, -0.00148026, 0.000118072, 0.00743213, 0.018467, 0.00225096, -0.0111051, -0.444726, 0.635022, -3.13183, -0.0555828, -0.107587, -0.010434, -0.443012, 0.634754, -3.13117, -0.055239, -0.105983, 0.000895902, -0.000711822, -0.00200043, -0.00190671, -0.00229262, -0.00208811
0.0370618, 0.107507, -0.774133, -0.916571, -1.45686, -0.625639, 1.06971, -0.256715, 0.00328869, -0.00245105, -0.000959675, -0.00345258, -0.0226686, -0.00141082, -0.000814846, 0.170357, 15.5331, 19.4111, 15.9915, 1.33136, 3.7836, -0.114369, 0.000703251, -0.00168519, 0.000328305, 0.000710839, -0.00101614, 0.000527308, 0.00427124, -0.00162505, 0.000591559, 0.0102609, 0.0207845, 0.00224031, -0.0111041, -0.444727, 0.63502, -3.13183, -0.0555855, -0.107594, -0.0104407, -0.443015, 0.634752, -3.13118, -0.0552204, -0.105956, 0.000974534, -0.000773089, -0.00217351, -0.00326645, -0.00255248, -0.00188703
0.0380618, 0.107509, -0.774128, -0.916572, -1.45686, -0.625665, 1.0697, -0.256717, 0.00254986, -0.00074089, -8.98749e-05, -0.00563306, -0.0209404, -0.00237087, -0.00152657, 0.170357, 15.4935, 19.3754, 15.9915, 1.30755, 3.8193, -0.0878186, 0.000698998, -0.00168369, 0.00032671, 0.000699246, -0.00104803, 0.000538337, 0.00317484, -0.000824457, 0.000359995, 0.00854827, 0.0232911, 0.00548306, -0.0111031, -0.444728, 0.635018, -3.13182, -0.0555884, -0.107602, -0.010444, -0.443018, 0.634751, -3.13119, -0.0552059, -0.105914, 0.00105639, -0.000836713, -0.00235336, -0.00210419, -0.00177546, -0.00221759
0.0390618, 0.107505, -0.774128, -0.916581, -1.45687, -0.625688, 1.0697, -0.256713, 0.00103994, -0.000520083, -0.00513424, -0.00583618, -0.028424, -0.00193277, 0.00490155, 0.21003, 15.4935, 19.4507, 16.0629, 1.26453, 3.82663, -0.120778, 0.000690078, -0.00168153, 0.000329094, 0.00069634, -0.0010796, 0.000562799, 0.00684287, -0.00260833, -0.000852329, 0.00935947, 0.0295746, -0.00909394, -0.011102, -0.444729, 0.635016, -3.13182, -0.0555915, -0.107611, -0.0104515, -0.443021, 0.634745, -3.13119, -0.0551711, -0.105874, 0.00114146, -0.000902674, -0.00253994, -0.00552947, -0.00374273, -0.00387688
0.0400618, 0.107508, -0.77412, -0.916584, -1.45688, -0.625714, 1.0697, -0.256715, 0.00182235, 0.0013041, -0.00291339, -0.0059618, -0.0298554, -0.00158657, 0.00294717, 0.170357, 15.4221, 19.4111, 16.1383, 1.2334, 3.83304, -0.101552, 0.00068812, -0.00168007, 0.000329613, 0.000686969, -0.00111868, 0.000570421, 0.00551856, -0.002305, 1.40878e-05, 0.0121249, 0.032558, -0.00458446, -0.0111008, -0.44473, 0.635013, -3.13181, -0.0555949, -0.10762, -0.0104522, -0.443024, 0.634742, -3.13119, -0.0551625, -0.105822, 0.00122973, -0.000970953, -0.00273321, -0.00419101, -0.00346878, -0.00311291
0.0410618, 0.107513, -0.774122, -0.916587, -1.45688, -0.625747, 1.06969, -0.256709, 0.00312892, 1.94665e-05, -0.00456051, -0.00420537, -0.0325644, -0.00110323, 0.00297052, 0.0949785, 15.4578, 19.3754, 16.1383, 1.2453, 3.83304, -0.120778, 0.000681069, -0.0016779, 0.000329484, 0.000676514, -0.00115441, 0.000590018, 0.00678155, -0.00311784, 0.000242082, 0.0138769, 0.0323033, -0.0060246, -0.0110996, -0.444731, 0.63501, -3.1318, -0.0555986, -0.10763, -0.0104579, -0.443027, 0.634739, -3.1312, -0.0551356, -0.105777, 0.00132119, -0.00104153, -0.00293311, -0.00534534, -0.0043981, -0.00317732
0.0420618, 0.107512, -0.774124, -0.916594, -1.45689, -0.625775, 1.06969, -0.256715, 0.00127101, -0.000833275, -0.00747582, -0.00390472, -0.0333113, -0.0018547, 0.000979887, 0.134651, 15.4935, 19.4111, 16.178, 1.22699, 3.86233, -0.0878186, 0.000672035, -0.00167592, 0.000330631, 0.000670191, -0.00118726, 0.000602646, 0.0091644, -0.00354174, -0.000324746, 0.0123195, 0.0326092, -0.00786076, -0.0110982, -0.444732, 0.635007, -3.1318, -0.0556025, -0.107641, -0.0104654, -0.44303, 0.634734, -3.1312, -0.0551198, -0.105737, 0.00141584, -0.00111438, -0.0031396, -0.00757244, -0.00497356, -0.00411586
0.0430618, 0.10751, -0.774124, -0.916592, -1.4569, -0.625811, 1.06968, -0.256718, 9.69355e-05, -0.000563793, -0.00301683, -0.00742668, -0.034747, -0.00635915, 0.000106365, 0.170357, 15.4935, 19.3, 16.2494, 1.2334, 3.86966, -0.0685925, 0.000664944, -0.00167556, 0.000330487, 0.000658334, -0.00123298, 0.000614634, 0.00827505, -0.00168842, -0.000260452, 0.0105096, 0.0386159, -0.00286494, -0.0110967, -0.444733, 0.635004, -3.13179, -0.0556067, -0.107652, -0.010471, -0.443032, 0.63473, -3.13121, -0.0551052, -0.105677, 0.00151366, -0.0011895, -0.00335263, -0.00665851, -0.00316584, -0.00419212
0.0440618, 0.107516, -0.774129, -0.916601, -1.4569, -0.625844, 1.06967, -0.256716, 0.00189147, -0.00214531, -0.0034128, -0.00756485, -0.0353451, -0.0106654, -4.25609e-05, 0.0949785, 15.5688, 19.3397, 16.2137, 1.22699, 3.90536, -0.0621838, 0.000654802, -0.001673, 0.000331756, 0.000652768, -0.00126879, 0.000635122, 0.00871985, -0.00104147, -0.000680241, 0.00692618, 0.040088, -0.000636933, -0.0110952, -0.444734, 0.635, -3.13178, -0.0556111, -0.107664, -0.0104794, -0.443036, 0.634725, -3.13121, -0.0550778, -0.105633, 0.00161465, -0.00126685, -0.00357216, -0.00699533, -0.0026087, -0.00485707
0.0450618, 0.107518, -0.774129, -0.916604, -1.45691, -0.625879, 1.06966, -0.256711, 0.00214391, -0.00143486, -0.00487031, -0.00788509, -0.0304058, -0.00808776, 0.00128525, 0.059273, 15.5688, 19.3, 16.178, 1.20318, 3.91269, -0.0951428, 0.000646999, -0.00167172, 0.000331681, 0.000643233, -0.00131202, 0.0006562, 0.00763874, -0.00111402, -0.000716372, 0.00633428, 0.0363468, 0.000541094, -0.0110935, -0.444735, 0.634997, -3.13177, -0.0556159, -0.107677, -0.0104854, -0.443039, 0.634721, -3.13121, -0.0550497, -0.105579, 0.00171879, -0.00134642, -0.00379814, -0.00580822, -0.00272242, -0.00504526
0.0460618, 0.107518, -0.774127, -0.916608, -1.45692, -0.625913, 1.06965, -0.256705, 0.00376962, -0.000960065, -0.00925063, -0.00674523, -0.0264892, -0.00537895, 0.00660415, 0.0949785, 15.5688, 19.2643, 16.2137, 1.17206, 3.89804, -0.120778, 0.000639257, -0.00167052, 0.000332249, 0.000633668, -0.00135953, 0.000680557, 0.0074553, -0.00202247, -0.00117099, 0.00513739, 0.0322807, -0.00434335, -0.0110917, -0.444737, 0.634993, -3.13176, -0.0556209, -0.107691, -0.0104913, -0.443042, 0.634716, -3.13121, -0.0550168, -0.105519, 0.00182607, -0.00142819, -0.00403052, -0.00545443, -0.00370164, -0.00572432
0.0470618, 0.107519, -0.774126, -0.916614, -1.45693, -0.625949, 1.06964, -0.256715, 0.00280156, 0.000192556, -0.00616257, -0.00887865, -0.0288356, -0.00344067, 0.00217028, 0.0949785, 15.5331, 19.2246, 16.2494, 1.15375, 3.88339, -0.0484509, 0.000630944, -0.00166895, 0.000333718, 0.000625398, -0.00140916, 0.000688994, 0.00644073, -0.00177263, -0.000455031, 0.00928122, 0.0358042, 0.0023198, -0.0110899, -0.444738, 0.634989, -3.13175, -0.0556263, -0.107706, -0.0104976, -0.443045, 0.63471, -3.13122, -0.055009, -0.105457, 0.00193648, -0.00151214, -0.00426926, -0.00439046, -0.00350644, -0.00517752
0.0480618, 0.107524, -0.774127, -0.916624, -1.45693, -0.625986, 1.06963, -0.256711, 0.00291929, -0.000708811, -0.00572902, -0.00789647, -0.0343506, -0.00208308, 0.00323963, 0.059273, 15.5688, 19.2643, 16.178, 1.11072, 3.86966, -0.0878186, 0.000620554, -0.00166666, 0.00033452, 0.000618594, -0.00145536, 0.000714191, 0.00775735, -0.00255785, 0.00030292, 0.0141417, 0.0380815, -0.000552181, -0.0110879, -0.44474, 0.634984, -3.13174, -0.0556319, -0.107721, -0.0105058, -0.443049, 0.634704, -3.13122, -0.0549756, -0.1054, 0.00205002, -0.00159825, -0.00451432, -0.00561348, -0.00443023, -0.00476206
0.0490618, 0.107527, -0.774127, -0.916627, -1.45694, -0.626023, 1.06963, -0.256711, 0.00303648, -0.000474014, -0.00566904, -0.00803187, -0.034786, -0.0005271, 0.00268205, 0.0196001, 15.5688, 19.1889, 16.1383, 1.09241, 3.84036, -0.0951428, 0.00061275, -0.00166515, 0.000333531, 0.000604651, -0.00150337, 0.000731978, 0.00760292, -0.0027743, 0.000678787, 0.0161538, 0.0382968, 0.000950829, -0.0110858, -0.444741, 0.63498, -3.13173, -0.0556379, -0.107738, -0.0105115, -0.443053, 0.634699, -3.13122, -0.0549537, -0.105342, 0.00216668, -0.00168649, -0.00476563, -0.00536088, -0.00473266, -0.00462925
0.0500618, 0.107535, -0.774129, -0.916636, -1.45695, -0.626064, 1.06961, -0.256716, 0.00390927, -0.00115233, -0.00442675, -0.0109496, -0.0352235, -0.00550208, 0.000246981, -0.0557783, 15.6046, 19.1889, 16.2137, 1.07959, 3.84768, -0.0484509, 0.000604302, -0.00166375, 0.000337261, 0.000603303, -0.00156032, 0.000741769, 0.0071309, -0.0014398, -8.04192e-05, 0.0116309, 0.0426671, 0.00743417, -0.0110835, -0.444743, 0.634975, -3.13172, -0.0556442, -0.107755, -0.0105174, -0.443056, 0.63469, -3.13122, -0.054945, -0.10527, 0.00228643, -0.00177687, -0.00502317, -0.00476614, -0.00346619, -0.00560339
0.0510618, 0.107536, -0.774132, -0.916643, -1.45696, -0.626107, 1.0696, -0.25671, 0.00269745, -0.00169707, -0.00167347, -0.0073086, -0.0360468, -0.00834454, 0.0012892, -0.0557783, 15.6442, 19.1135, 16.178, 1.07959, 3.83304, -0.0750012, 0.000591991, -0.0016616, 0.000336869, 0.000589526, -0.00161154, 0.000772841, 0.00826633, -0.000591963, 0.00185136, 0.0139264, 0.0420417, 0.00597979, -0.0110812, -0.444745, 0.634969, -3.13171, -0.0556509, -0.107773, -0.0105273, -0.443061, 0.634685, -3.13122, -0.0549032, -0.105209, 0.00240928, -0.00186934, -0.00528689, -0.0059381, -0.00276831, -0.00401289
0.0520618, 0.107535, -0.774126, -0.916651, -1.45697, -0.626146, 1.06959, -0.256707, 0.000938742, 0.000631237, -0.00458177, -0.00550546, -0.0413043, -0.0111503, 0.00144009, -0.0161054, 15.5688, 19.1135, 16.178, 1.07959, 3.83304, -0.0878186, 0.000581472, -0.00165992, 0.000336599, 0.000577972, -0.00166998, 0.000801466, 0.0110756, -0.0011585, 0.00174597, 0.0137828, 0.0490829, -0.000604662, -0.0110787, -0.444747, 0.634964, -3.1317, -0.0556578, -0.107792, -0.0105352, -0.443065, 0.634679, -3.13123, -0.0548656, -0.105137, 0.00253522, -0.00196389, -0.00555673, -0.00858553, -0.00352714, -0.00458503
0.0530618, 0.107533, -0.774129, -0.916665, -1.45698, -0.626185, 1.06958, -0.256708, -0.000158046, -0.00041486, -0.0076149, -0.00414511, -0.040296, -0.00923329, 0.000802131, 0.0196001, 15.6046, 19.1532, 16.178, 1.0741, 3.85501, -0.0814099, 0.000566398, -0.00165773, 0.000338589, 0.000573424, -0.00172235, 0.000831716, 0.012841, -0.0019538, 0.001744, 0.0143393, 0.0459379, -0.00256977, -0.0110761, -0.444749, 0.634958, -3.13168, -0.0556652, -0.107812, -0.0105475, -0.443069, 0.63467, -3.13122, -0.054826, -0.105075, 0.00266423, -0.00206051, -0.00583265, -0.0101881, -0.00448079, -0.00498972
0.0540618, 0.107541, -0.774129, -0.916674, -1.45698, -0.626226, 1.06957, -0.256716, 0.000768362, -0.000276923, -0.0078763, -0.00452423, -0.0443997, -0.0112931, -0.0011011, -0.0161054, 15.6046, 19.1135, 16.1026, 1.0741, 3.84768, -0.0356336, 0.00055552, -0.0016549, 0.000336732, 0.000557409, -0.00177403, 0.000847459, 0.013527, -0.0019911, 0.00164162, 0.0145036, 0.0508792, -0.000683558, -0.0110734, -0.444751, 0.634952, -3.13167, -0.0556729, -0.107834, -0.0105556, -0.443075, 0.634665, -3.13123, -0.054809, -0.105016, 0.0027963, -0.00215917, -0.00611461, -0.0107316, -0.00464008, -0.00542153
0.0550618, 0.107542, -0.774122, -0.91668, -1.45699, -0.626265, 1.06956, -0.256707, 0.000541122, 0.00148556, -0.00748131, -0.00835989, -0.0425822, -0.00952358, 0.00151466, -0.0161054, 15.5331, 19.0421, 16.178, 1.06769, 3.87607, -0.0951428, 0.000547424, -0.00165549, 0.0003367, 0.000550335, -0.00184116, 0.000876359, 0.0117353, -0.00163833, 0.00110788, 0.0140628, 0.0532486, 0.000670867, -0.0110705, -0.444753, 0.634946, -3.13166, -0.0556809, -0.107856, -0.0105608, -0.443077, 0.634659, -3.13122, -0.0547723, -0.104934, 0.00293143, -0.00225986, -0.00640257, -0.0087861, -0.00432047, -0.00611646
0.0560618, 0.107547, -0.774123, -0.916692, -1.457, -0.626304, 1.06955, -0.256713, 0.00131043, 0.000154958, -0.00897474, -0.0070609, -0.0405109, -0.00759936, -0.00116076, -0.0557783, 15.5688, 19.0421, 16.2137, 1.04297, 3.89071, -0.0356336, 0.000536198, -0.00165319, 0.000337217, 0.0005402, -0.00189542, 0.000893466, 0.0120544, -0.00206087, 0.00147691, 0.0150025, 0.0490176, 0.00438512, -0.0110675, -0.444756, 0.63494, -3.13164, -0.0556894, -0.107879, -0.0105689, -0.443082, 0.634651, -3.13122, -0.054754, -0.104872, 0.00306961, -0.00236255, -0.00669647, -0.00897625, -0.00486001, -0.0060671
0.0570618, 0.10754, -0.774118, -0.916702, -1.45701, -0.626337, 1.06953, -0.256715, -0.00180139, 0.0018664, -0.0121724, -0.00695982, -0.0436116, -0.0118877, -0.00146079, 0.059273, 15.4935, 19.0024, 16.2891, 1.01276, 3.93374, -0.0164075, 0.000523524, -0.00165362, 0.00033732, 0.000534645, -0.0019568, 0.00092136, 0.015136, -0.00202814, 0.000689379, 0.011591, 0.055711, -0.00129997, -0.0110644, -0.444758, 0.634933, -3.13162, -0.0556982, -0.107903, -0.0105784, -0.443084, 0.634643, -3.13122, -0.0547197, -0.104801, 0.00321082, -0.00246723, -0.00699628, -0.0118545, -0.00503375, -0.00736502
0.0580618, 0.107548, -0.774118, -0.916712, -1.45701, -0.626372, 1.06952, -0.256707, 0.000574493, 0.000316133, -0.0147941, -0.00324363, -0.0413433, -0.0139616, 0.00145249, -0.0161054, 15.5331, 18.9667, 16.2137, 0.988036, 3.94839, -0.0814099, 0.000512648, -0.00165276, 0.000334734, 0.000523893, -0.00200772, 0.000950569, 0.0160682, -0.00211242, 0.00107896, 0.00951299, 0.0516318, -0.00353704, -0.0110611, -0.444761, 0.634926, -3.13161, -0.0557074, -0.107928, -0.0105861, -0.443088, 0.634638, -3.13121, -0.0546834, -0.104747, 0.00335505, -0.00257388, -0.00730195, -0.0126634, -0.00526103, -0.00734715
0.0590618, 0.107546, -0.774113, -0.916722, -1.45703, -0.626409, 1.0695, -0.256712, -0.0013711, 0.00113869, -0.0112762, -0.00736264, -0.0401034, -0.0105632, -0.0004756, 0.059273, 15.4935, 18.9667, 16.2891, 0.975218, 3.95572, -0.0420422, 0.000500797, -0.00165287, 0.000334696, 0.000517142, -0.00207411, 0.000974149, 0.0142082, -0.00146701, 0.00153159, 0.0126866, 0.0527425, 0.00298115, -0.0110577, -0.444763, 0.634918, -3.13159, -0.055717, -0.107955, -0.0105945, -0.443091, 0.634629, -3.13121, -0.0546565, -0.104669, 0.0035023, -0.00268248, -0.00761342, -0.010716, -0.00466317, -0.00707497
0.0600618, 0.107549, -0.774112, -0.916734, -1.45703, -0.626443, 1.06949, -0.256715, -0.000907216, 0.000759066, -0.0148837, -0.00865975, -0.0392281, -0.0122041, -0.0012559, 0.059273, 15.4935, 18.9667, 16.2891, 0.963317, 3.94839, -0.0164075, 0.000489302, -0.00165177, 0.00033308, 0.000505852, -0.00212869, 0.000996388, 0.0151367, -0.00158813, 0.000264176, 0.00839521, 0.0539815, 0.00372739, -0.0110541, -0.444766, 0.63491, -3.13157, -0.055727, -0.107982, -0.0106025, -0.443095, 0.634622, -3.1312, -0.0546318, -0.104612, 0.00365255, -0.002793, -0.00793067, -0.0114, -0.00491634, -0.0087217
0.0610618, 0.107555, -0.774107, -0.916749, -1.45704, -0.626479, 1.06949, -0.25671, 0.00116357, 0.00134122, -0.0175105, -0.00723427, -0.0386622, -0.00880969, 0.000628747, -0.0161054, 15.4578, 18.9667, 16.3248, 0.951415, 3.94107, -0.0557752, 0.000479648, -0.00165004, 0.000332521, 0.000495179, -0.00219098, 0.00102465, 0.014842, -0.00265866, 0.000540211, 0.0107192, 0.0520773, 0.00263454, -0.0110504, -0.444769, 0.634902, -3.13155, -0.0557374, -0.108011, -0.0106084, -0.4431, 0.634614, -3.1312, -0.0545983, -0.104543, 0.0038058, -0.00290544, -0.00825364, -0.0109335, -0.00609075, -0.00875618
0.0620618, 0.107555, -0.774106, -0.91676, -1.45704, -0.62651, 1.06947, -0.256707, 0.000779567, 0.0032482, -0.0153218, -0.00529226, -0.0338849, -0.0112566, 0.00137456, -0.0161054, 15.4935, 18.9271, 16.3248, 0.951415, 3.94107, -0.0814099, 0.000466659, -0.00165013, 0.000329335, 0.000483539, -0.00224476, 0.00105484, 0.0135835, -0.00119093, 0.00195894, 0.00981076, 0.0506826, 0.00566553, -0.0110465, -0.444772, 0.634894, -3.13154, -0.0557483, -0.10804, -0.0106177, -0.443103, 0.634608, -3.1312, -0.0545621, -0.104489, 0.00396204, -0.00301977, -0.00858229, -0.00967259, -0.00470667, -0.00757348
0.0630618, 0.107557, -0.7741, -0.916778, -1.45705, -0.626544, 1.06946, -0.256714, 0.00276075, 0.00410165, -0.0165306, -0.00480825, -0.0353931, -0.0131262, -0.00124929, 0.0196001, 15.4221, 19.0024, 16.3644, 0.963317, 3.94107, -0.0228162, 0.000454033, -0.0016485, 0.000328942, 0.000475162, -0.00230886, 0.00107935, 0.0135644, -0.00119611, 0.00191493, 0.00893988, 0.0538358, 0.00959564, -0.0110424, -0.444775, 0.634885, -3.13152, -0.0557596, -0.108071, -0.0106262, -0.443108, 0.634599, -3.13119, -0.0545353, -0.10442, 0.00412125, -0.00313597, -0.00891658, -0.00949117, -0.00482712, -0.00795069
0.0640618, 0.107563, -0.774098, -0.916791, -1.45706, -0.626577, 1.06945, -0.256709, 0.002934, 0.00293375, -0.0186498, -0.00674196, -0.0357386, -0.0098333, -0.000354787, -0.0161054, 15.4221, 19.0024, 16.3644, 0.956908, 3.94107, -0.0356336, 0.00044372, -0.00164778, 0.000326154, 0.000461923, -0.00236693, 0.00110729, 0.0139758, -0.00202797, 0.00131275, 0.0100659, 0.0531037, 0.00933942, -0.0110382, -0.444778, 0.634876, -3.13149, -0.0557713, -0.108103, -0.0106325, -0.443113, 0.634592, -3.13119, -0.0545035, -0.104362, 0.00428343, -0.00325403, -0.00925645, -0.00966791, -0.00578574, -0.00892544
0.0650618, 0.107564, -0.774095, -0.916803, -1.45707, -0.626607, 1.06944, -0.256707, 0.000386474, 0.00528329, -0.0162587, -0.00968884, -0.0315379, -0.0119106, 0.00122405, 0.059273, 15.4221, 18.9667, 16.4359, 0.956908, 3.93374, -0.0750012, 0.000432229, -0.0016484, 0.000324452, 0.000453019, -0.00242888, 0.001135, 0.0125389, -0.000277964, 0.00143054, 0.00734585, 0.0555856, 0.0118283, -0.0110339, -0.444781, 0.634867, -3.13147, -0.0557834, -0.108137, -0.0106397, -0.443116, 0.634584, -3.13118, -0.0544726, -0.104299, 0.00444857, -0.00337392, -0.00960188, -0.00814101, -0.00410724, -0.009043
0.0660618, 0.10757, -0.774092, -0.916819, -1.45707, -0.62664, 1.06943, -0.25671, 0.00133095, 0.00306392, -0.0122318, -0.00623148, -0.0330782, -0.00867922, 0.000105846, 0.0196001, 15.4578, 18.9667, 16.4001, 0.956908, 3.92642, -0.0557752, 0.000420347, -0.00164781, 0.000321324, 0.000441577, -0.0024889, 0.00115861, 0.0123171, -0.000420698, 0.00416381, 0.0158239, 0.0509685, 0.0157315, -0.0110293, -0.444785, 0.634857, -3.13145, -0.055796, -0.108171, -0.0106472, -0.44312, 0.634576, -3.13117, -0.0544484, -0.10424, 0.00461665, -0.00349563, -0.0099528, -0.00793485, -0.00438848, -0.00665315
0.0670618, 0.107576, -0.774088, -0.916837, -1.45709, -0.626673, 1.06942, -0.256714, 0.00412131, 0.00232532, -0.0162067, -0.00954362, -0.0342362, -0.0112095, -0.00114872, 0.0196001, 15.4578, 19.0024, 16.4755, 0.956908, 3.92642, -0.0228162, 0.0004094, -0.00164705, 0.000321364, 0.000434441, -0.00255701, 0.00117994, 0.0125383, -0.000613743, 0.00205701, 0.0101916, 0.0552375, 0.0191956, -0.0110246, -0.444788, 0.634847, -3.13143, -0.055809, -0.108207, -0.0106534, -0.443125, 0.634565, -3.13116, -0.0544284, -0.10417, 0.00478767, -0.00361914, -0.0103092, -0.00783247, -0.0046939, -0.00912813
0.0680618, 0.107574, -0.774085, -0.916848, -1.45709, -0.6267, 1.0694, -0.256708, 0.00354935, 0.00403755, -0.0134995, -0.0083718, -0.0303919, -0.0143389, 0.000184681, 0.134651, 15.4935, 18.9271, 16.4001, 0.956908, 3.95572, -0.0484509, 0.000395714, -0.00164847, 0.000315217, 0.000419148, -0.00261342, 0.00121626, 0.0113652, 0.00103197, 0.00336129, 0.00907479, 0.0552222, 0.0219142, -0.0110198, -0.444792, 0.634836, -3.1314, -0.0558225, -0.108244, -0.0106627, -0.443128, 0.63456, -3.13115, -0.0543853, -0.104119, 0.00496161, -0.00374443, -0.010671, -0.00663785, -0.00314508, -0.00809714
0.0690618, 0.10758, -0.774077, -0.916865, -1.4571, -0.626728, 1.06939, -0.256713, 0.00288542, 0.00394515, -0.0143796, -0.00860139, -0.0320698, -0.010679, -0.000825519, 0.134651, 15.4578, 18.9667, 16.3644, 0.951415, 3.95572, -0.0228162, 0.000386136, -0.00164892, 0.00031175, 0.000409031, -0.0026797, 0.00123624, 0.0120088, 0.000170826, 0.00375734, 0.0130448, 0.0552524, 0.0222543, -0.0110147, -0.444796, 0.634825, -3.13138, -0.0558365, -0.108282, -0.0106674, -0.443131, 0.634552, -3.13114, -0.0543682, -0.104054, 0.00513848, -0.00387148, -0.0110382, -0.00709907, -0.00415921, -0.00811972
0.0700618, 0.107584, -0.774076, -0.916885, -1.4571, -0.626755, 1.06938, -0.256713, 0.00147778, 0.00429966, -0.0147093, -0.00876691, -0.028596, -0.0076879, -0.00031239, 0.170357, 15.5331, 19.0024, 16.3248, 0.945006, 3.94839, -0.0292249, 0.000372283, -0.00164819, 0.00030884, 0.000397952, -0.00273815, 0.00126639, 0.0117448, 0.000153328, 0.00431296, 0.0146443, 0.0520985, 0.0232056, -0.0110095, -0.4448, 0.634814, -3.13135, -0.055851, -0.108322, -0.0106762, -0.443137, 0.634543, -3.13113, -0.0543357, -0.104003, 0.00531825, -0.00400028, -0.0114107, -0.00669383, -0.00430141, -0.00792011
0.0710618, 0.107593, -0.774067, -0.916901, -1.45711, -0.62678, 1.06936, -0.256709, 0.00127723, 0.00428964, -0.0172254, -0.00903338, -0.0257034, -0.00626375, 0.00101289, 0.170357, 15.4935, 19.0024, 16.2891, 0.932189, 3.96213, -0.0621838, 0.000363844, -0.00164953, 0.000304334, 0.000388481, -0.00280396, 0.00129201, 0.012024, -0.000100183, 0.00403435, 0.0135795, 0.0499922, 0.0226762, -0.0110041, -0.444804, 0.634803, -3.13133, -0.0558659, -0.108363, -0.0106796, -0.44314, 0.634535, -3.13112, -0.0543109, -0.103941, 0.00550092, -0.0041308, -0.0117885, -0.00676129, -0.00469281, -0.00859718
0.0720618, 0.107602, -0.774058, -0.916917, -1.45712, -0.626803, 1.06935, -0.256711, 0.00107052, 0.00633434, -0.0191382, -0.00997789, -0.0235776, -0.00359706, 0.00016697, 0.170357, 15.4935, 19.0024, 16.2891, 0.920287, 3.93374, -0.0484509, 0.000356854, -0.00165068, 0.000300266, 0.000377418, -0.00286998, 0.00130951, 0.0113672, -0.000461381, 0.00391156, 0.0140953, 0.0503111, 0.024768, -0.0109985, -0.444808, 0.634791, -3.1313, -0.0558813, -0.108405, -0.0106813, -0.443143, 0.634527, -3.13111, -0.0542991, -0.103881, 0.00568647, -0.00426302, -0.0121715, -0.00589961, -0.00516186, -0.00905997
0.0730618, 0.107609, -0.774052, -0.916933, -1.45712, -0.626826, 1.06934, -0.256709, 0.00401281, 0.00694253, -0.0174373, -0.00499044, -0.0222911, -0.00709086, -0.000125794, 0.170357, 15.5331, 19.0024, 16.178, 0.913878, 3.92642, -0.0420422, 0.000346348, -0.0016513, 0.000292883, 0.000359671, -0.00292865, 0.00133811, 0.010646, 0.000419409, 0.00594146, 0.0150037, 0.0489366, 0.0287636, -0.0109927, -0.444812, 0.634778, -3.13127, -0.0558972, -0.108449, -0.0106865, -0.443147, 0.634521, -3.1311, -0.0542703, -0.103833, 0.00587491, -0.00439694, -0.0125597, -0.00516392, -0.0044089, -0.00736769
0.0740618, 0.107613, -0.77405, -0.916949, -1.45712, -0.626853, 1.06933, -0.256707, 0.0044399, 0.00578664, -0.0185401, -0.00623631, -0.0224047, -0.00537711, 0.00113703, 0.245735, 15.6442, 18.9667, 16.1383, 0.938597, 3.92642, -0.0750012, 0.000333437, -0.00165212, 0.000287047, 0.000342964, -0.00299016, 0.00136776, 0.0109042, 6.76164e-05, 0.00574732, 0.0157903, 0.0484184, 0.0291189, -0.0109867, -0.444817, 0.634765, -3.13124, -0.0559137, -0.108494, -0.0106938, -0.443151, 0.634513, -3.13109, -0.0542404, -0.103783, 0.00606621, -0.00453252, -0.0129531, -0.00520419, -0.00490366, -0.00797533
0.0750618, 0.107616, -0.774038, -0.916968, -1.45713, -0.626873, 1.06932, -0.256709, 0.00476827, 0.00865074, -0.0201839, -0.0112643, -0.0212842, -0.00434341, 0.000520803, 0.325081, 15.6046, 18.9667, 16.1383, 0.932189, 3.93374, -0.0685925, 0.000324607, -0.00165377, 0.000282357, 0.000331958, -0.00306071, 0.00139212, 0.00920615, 0.00020277, 0.00434332, 0.0132873, 0.0538124, 0.0333875, -0.0109806, -0.444821, 0.634752, -3.13121, -0.0559306, -0.108541, -0.0106969, -0.443155, 0.634504, -3.13108, -0.0542195, -0.10372, 0.00626038, -0.00466976, -0.0133516, -0.00322514, -0.00483305, -0.00965607
0.0760618, 0.107626, -0.77403, -0.916992, -1.45714, -0.626897, 1.06931, -0.256709, 0.00301585, 0.00977143, -0.0209364, -0.00955531, -0.0164388, -0.00353243, -0.000636036, 0.360787, 15.6046, 19.0778, 16.178, 0.945006, 3.94107, -0.0420422, 0.000313486, -0.00165356, 0.000278863, 0.0003219, -0.00312986, 0.00142012, 0.00936354, 0.000577535, 0.00522934, 0.0133047, 0.0503207, 0.0351482, -0.0109742, -0.444826, 0.634739, -3.13118, -0.055948, -0.108588, -0.0107019, -0.44316, 0.634494, -3.13106, -0.0541934, -0.10366, 0.00645739, -0.00480863, -0.0137552, -0.00325986, -0.00461141, -0.00918445
0.0770618, 0.107634, -0.774019, -0.91701, -1.45714, -0.626918, 1.0693, -0.256701, 0.00251474, 0.0104842, -0.0209205, -0.00628049, -0.0169797, -0.00340901, 0.0017801, 0.360787, 15.6046, 19.0421, 16.1383, 0.945006, 3.96213, -0.101552, 0.000305085, -0.00165549, 0.000272261, 0.000308002, -0.00319936, 0.00145133, 0.0103011, 0.00047365, 0.00670597, 0.0163837, 0.0498099, 0.031798, -0.0109676, -0.444831, 0.634725, -3.13115, -0.055966, -0.108638, -0.0107042, -0.443163, 0.634486, -3.13105, -0.0541628, -0.103601, 0.00665724, -0.00494912, -0.0141638, -0.00409324, -0.0049029, -0.00818612
0.0780618, 0.107642, -0.774012, -0.91703, -1.45715, -0.626936, 1.06929, -0.256701, 0.00425777, 0.0101005, -0.0187291, -0.00481572, -0.0181653, -0.0024783, 0.000949436, 0.400459, 15.6442, 19.0421, 16.1383, 0.963317, 3.96213, -0.0951428, 0.00029553, -0.00165691, 0.000265422, 0.000292973, -0.00326308, 0.00147514, 0.00954868, 0.000599743, 0.00821596, 0.0206144, 0.0493898, 0.0362314, -0.0109609, -0.444836, 0.63471, -3.13111, -0.0559845, -0.108688, -0.0107075, -0.443167, 0.634477, -3.13104, -0.0541441, -0.103553, 0.00685993, -0.0050912, -0.0145774, -0.00324959, -0.00490673, -0.00704062
0.0790618, 0.10765, -0.774002, -0.917054, -1.45715, -0.626952, 1.06928, -0.256705, 0.00254782, 0.0108591, -0.0211741, -0.00284681, -0.0232327, -0.00652011, -0.000587701, 0.436165, 15.6442, 19.0778, 16.1026, 0.969725, 3.96213, -0.0621838, 0.000284691, -0.00165851, 0.000259125, 0.000282772, -0.00332913, 0.00149972, 0.0128612, 0.00037905, 0.00828197, 0.0198741, 0.0554196, 0.0322846, -0.0109539, -0.444841, 0.634696, -3.13108, -0.0560035, -0.108741, -0.0107119, -0.443171, 0.634468, -3.13102, -0.054125, -0.103502, 0.00706543, -0.00523486, -0.0149959, -0.00634335, -0.00538931, -0.00762536
0.0800618, 0.107662, -0.77399, -0.917069, -1.45716, -0.626973, 1.06927, -0.256705, 0.00522467, 0.0123162, -0.0202162, -0.00225154, -0.0221, -0.0100708, -0.000391767, 0.436165, 15.6046, 19.0024, 16.1026, 0.969725, 3.97677, -0.0621838, 0.000278873, -0.00166081, 0.000249658, 0.000260716, -0.00340094, 0.00151903, 0.0113795, 0.00141914, 0.0088323, 0.0180145, 0.0579799, 0.0372691, -0.0109468, -0.444846, 0.63468, -3.13105, -0.0560231, -0.108794, -0.0107113, -0.443175, 0.634462, -3.13101, -0.0541142, -0.103445, 0.00727374, -0.00538009, -0.0154193, -0.00473369, -0.00444822, -0.00739005
0.0810618, 0.107675, -0.773981, -0.917095, -1.45716, -0.626988, 1.06926, -0.2567, 0.007953, 0.0115103, -0.0256075, -0.00412743, -0.0169698, -0.00721336, 0.00119691, 0.400459, 15.6442, 19.0421, 16.0629, 0.981627, 3.96945, -0.101552, 0.000269551, -0.00166132, 0.000242844, 0.000246945, -0.00346479, 0.00154861, 0.0106331, 0.000626674, 0.00730301, 0.0142771, 0.0539333, 0.039299, -0.0109394, -0.444852, 0.634665, -3.13101, -0.0560432, -0.10885, -0.0107137, -0.44318, 0.634453, -3.13099, -0.0540882, -0.1034, 0.00748486, -0.00552686, -0.0158476, -0.00364424, -0.00534648, -0.00929785
0.0820618, 0.107684, -0.773968, -0.917118, -1.45717, -0.627002, 1.06925, -0.256702, 0.00598229, 0.0127667, -0.0222858, -0.00802656, -0.01266, -0.00538699, 0.000289332, 0.400459, 15.6046, 19.0421, 16.1383, 0.981627, 3.96945, -0.0878186, 0.000262461, -0.00166359, 0.000236345, 0.00023437, -0.00353792, 0.00156929, 0.00838237, 0.00190909, 0.00776769, 0.0149929, 0.0539795, 0.0464255, -0.0109318, -0.444858, 0.634649, -3.13097, -0.0560639, -0.108906, -0.0107137, -0.443184, 0.634443, -3.13097, -0.0540767, -0.103343, 0.00769877, -0.00567515, -0.0162807, -0.00126519, -0.00413817, -0.0091022
0.0830618, 0.107701, -0.773963, -0.91715, -1.45717, -0.62702, 1.06924, -0.256707, 0.0117159, 0.0108921, -0.0256068, -0.0082868, -0.0143386, -0.00429615, -0.00150252, 0.360787, 15.6799, 19.1532, 16.1026, 0.988036, 3.97677, -0.0420422, 0.000249895, -0.00166296, 0.000230214, 0.000222569, -0.00360214, 0.00159343, 0.00782968, 0.000860741, 0.00704725, 0.0147139, 0.0538029, 0.0523474, -0.010924, -0.444863, 0.634632, -3.13094, -0.0560851, -0.108965, -0.0107188, -0.44319, 0.634432, -3.13095, -0.0540604, -0.103302, 0.00791545, -0.00582496, -0.0167186, -0.000410033, -0.00530956, -0.0102279
0.0840618, 0.107711, -0.773948, -0.917173, -1.45717, -0.627035, 1.06923, -0.256701, 0.014074, 0.0131664, -0.0243793, -0.00938365, -0.0152244, -0.00240938, 0.00096502, 0.400459, 15.6046, 19.1135, 16.1026, 0.981627, 3.95572, -0.0951428, 0.000242216, -0.00166481, 0.000220668, 0.000202393, -0.0036747, 0.00162481, 0.00563063, 0.000871485, 0.00769507, 0.0177948, 0.0570838, 0.0549236, -0.010916, -0.444869, 0.634615, -3.1309, -0.0561069, -0.109025, -0.0107192, -0.443195, 0.634424, -3.13094, -0.0540331, -0.103249, 0.00813491, -0.00597625, -0.0171612, 0.00195615, -0.0053786, -0.00987125
0.0850618, 0.107725, -0.773939, -0.917194, -1.45717, -0.627052, 1.06922, -0.256704, 0.0146395, 0.0119972, -0.0235894, -0.00705708, -0.0123205, -0.00673865, -0.00033999, 0.360787, 15.6442, 19.0778, 16.1026, 1.00635, 3.96213, -0.0685925, 0.000233168, -0.00166702, 0.000210102, 0.000181035, -0.00374445, 0.00164569, 0.00603947, 0.00212257, 0.00864779, 0.0153295, 0.0549735, 0.0592271, -0.0109077, -0.444875, 0.634598, -3.13086, -0.0561293, -0.109086, -0.0107208, -0.443199, 0.634416, -3.13092, -0.0540227, -0.103202, 0.00835714, -0.00612902, -0.0176085, 0.00165918, -0.00430513, -0.00938805
0.0860618, 0.107742, -0.773929, -0.917221, -1.45717, -0.627067, 1.06922, -0.256706, 0.0117582, 0.00903111, -0.0239801, -0.00437768, -0.013909, -0.00936682, -0.000972639, 0.325081, 15.6442, 19.0778, 16.0629, 1.00635, 3.94839, -0.0484509, 0.000224626, -0.00166742, 0.000199953, 0.000158654, -0.00381094, 0.00166845, 0.00967171, 0.00235623, 0.00956898, 0.015868, 0.0534225, 0.0562074, -0.0108992, -0.444881, 0.63458, -3.13082, -0.0561522, -0.109149, -0.0107216, -0.443205, 0.634408, -3.13091, -0.0540099, -0.103163, 0.00858211, -0.00628324, -0.0180604, -0.00180972, -0.00436416, -0.00917302
0.0870618, 0.107752, -0.773922, -0.917246, -1.45718, -0.627083, 1.06921, -0.256704, 0.0132325, 0.00910346, -0.022498, -0.00336919, -0.0157298, -0.00758209, 9.75637e-05, 0.400459, 15.6799, 19.0024, 16.0629, 1.02466, 3.96213, -0.0685925, 0.000212438, -0.00166942, 0.000190153, 0.000139325, -0.00388167, 0.00170041, 0.00908742, 0.00217804, 0.0108828, 0.0205371, 0.053897, 0.0580193, -0.0108905, -0.444888, 0.634562, -3.13078, -0.0561758, -0.109214, -0.0107258, -0.44321, 0.634399, -3.13089, -0.0539835, -0.103118, 0.00880983, -0.00643891, -0.018517, -0.00108479, -0.00469033, -0.0082798
0.0880618, 0.107776, -0.773909, -0.917278, -1.45718, -0.627097, 1.0692, -0.256699, 0.0158038, 0.0109042, -0.0273001, -0.0035122, -0.0164456, -0.010379, 0.000777123, 0.285408, 15.6442, 19.0421, 16.1026, 1.02466, 3.96213, -0.0878186, 0.000206441, -0.00167021, 0.000182949, 0.000125957, -0.00395867, 0.00172497, 0.00955058, 0.00182657, 0.00969385, 0.01611, 0.0586163, 0.0576592, -0.0108816, -0.444894, 0.634543, -3.13073, -0.0561999, -0.10928, -0.0107235, -0.443216, 0.634387, -3.13087, -0.0539694, -0.103064, 0.00904028, -0.00659599, -0.0189781, -0.00122114, -0.00520416, -0.00996221
0.0890618, 0.107794, -0.773902, -0.917313, -1.45718, -0.627112, 1.06919, -0.256699, 0.0150153, 0.00732956, -0.0276679, -0.00471642, -0.0172606, -0.0122389, 4.33664e-05, 0.285408, 15.6799, 19.0778, 16.0629, 1.03107, 3.95572, -0.0750012, 0.000193712, -0.00167, 0.000174572, 0.000110137, -0.00402842, 0.001756, 0.0114053, 0.00218886, 0.00943142, 0.014654, 0.0580493, 0.0592638, -0.0108725, -0.444901, 0.634524, -3.13069, -0.0562246, -0.109348, -0.0107276, -0.443224, 0.634375, -3.13084, -0.0539458, -0.103023, 0.00927346, -0.00675447, -0.0194438, -0.00283219, -0.00506456, -0.010817
0.0900618, 0.10781, -0.773896, -0.917343, -1.45718, -0.627128, 1.06918, -0.256707, 0.0142864, 0.00703926, -0.0313246, -0.00358855, -0.0179994, -0.0139694, -0.00166651, 0.285408, 15.7513, 19.0024, 16.0629, 1.04297, 3.95572, -0.0292249, 0.000182101, -0.00167138, 0.000164136, 8.99776e-05, -0.00409995, 0.00177621, 0.0137515, 0.00182903, 0.00908238, 0.0126915, 0.0592713, 0.0582484, -0.0108631, -0.444908, 0.634504, -3.13064, -0.0562499, -0.109417, -0.0107306, -0.443229, 0.634365, -3.13083, -0.0539394, -0.102982, 0.00950935, -0.00691434, -0.0199139, -0.00489843, -0.00566466, -0.0118025
0.0910618, 0.107831, -0.773878, -0.917382, -1.45719, -0.627143, 1.06917, -0.256697, 0.013765, 0.00796476, -0.0328331, -0.00365359, -0.013659, -0.0148329, 0.0013304, 0.285408, 15.6442, 19.0024, 16.1026, 1.04938, 3.94839, -0.0951428, 0.000173227, -0.00167133, 0.000156989, 7.66221e-05, -0.00418606, 0.00181557, 0.0136124, 0.00240242, 0.00909477, 0.0100469, 0.0581095, 0.0574325, -0.0108534, -0.444915, 0.634484, -3.1306, -0.0562758, -0.109488, -0.0107303, -0.443237, 0.634352, -3.1308, -0.0539043, -0.102919, 0.00974794, -0.00707558, -0.0203885, -0.00454317, -0.00524869, -0.0122514
0.0920623, 0.107853, -0.773867, -0.917418, -1.4572, -0.62716, 1.06917, -0.2567, 0.0165715, 0.00991575, -0.036453, -0.00352085, -0.0146946, -0.0114253, -0.000333767, 0.285408, 15.6046, 18.9667, 16.1383, 1.04297, 3.95572, -0.0621838, 0.000163319, -0.00167136, 0.000148723, 5.89634e-05, -0.0042665, 0.00184003, 0.0130162, 0.0011008, 0.00888632, 0.0120624, 0.0598895, 0.0603305, -0.0108436, -0.444922, 0.634463, -3.13055, -0.0563023, -0.109561, -0.0107309, -0.443244, 0.634339, -3.13077, -0.0538927, -0.102867, 0.00998923, -0.00723817, -0.0208674, -0.00364628, -0.00668935, -0.0129068
0.0930623, 0.107878, -0.773858, -0.917461, -1.45719, -0.627176, 1.06916, -0.256704, 0.0195456, 0.0104656, -0.0430927, -0.000771425, -0.0156992, -0.00880333, -0.00144321, 0.245735, 15.6046, 18.9667, 16.0629, 1.04297, 3.96213, -0.0292249, 0.000150513, -0.00167026, 0.000139794, 4.2972e-05, -0.00434181, 0.00186942, 0.0143665, -0.000833005, 0.00849764, 0.0127889, 0.0590838, 0.0592317, -0.0108335, -0.444929, 0.634442, -3.1305, -0.0563295, -0.109636, -0.0107342, -0.443253, 0.634326, -3.13075, -0.053874, -0.102825, 0.0102332, -0.00740209, -0.0213508, -0.00465161, -0.00883062, -0.0138874
0.0940623, 0.1079, -0.773844, -0.917504, -1.4572, -0.62719, 1.06915, -0.256699, 0.0208336, 0.0125452, -0.044035, -0.00158287, -0.0164453, -0.0115675, 0.00049592, 0.245735, 15.5331, 18.9271, 16.1026, 1.04297, 3.96945, -0.0685925, 0.000139493, -0.00167011, 0.000132844, 3.1351e-05, -0.00442884, 0.00190574, 0.0139468, -0.0003569, 0.00828164, 0.0106854, 0.064376, 0.059693, -0.0108231, -0.444937, 0.634421, -3.13045, -0.0563573, -0.109712, -0.0107353, -0.443262, 0.63431, -3.13072, -0.0538455, -0.102765, 0.0104799, -0.00756732, -0.0218384, -0.00398904, -0.00850361, -0.0145583
0.0950623, 0.107924, -0.773837, -0.917546, -1.4572, -0.627207, 1.06914, -0.256702, 0.024963, 0.0154323, -0.04405, -0.00116068, -0.0167886, -0.0133263, 0.000330614, 0.245735, 15.5331, 18.8556, 16.1026, 1.03656, 3.96945, -0.0685925, 0.000126515, -0.00166962, 0.000124526, 1.57394e-05, -0.00450967, 0.00193431, 0.0118005, 2.82435e-05, 0.00873942, 0.0104292, 0.0688439, 0.0653747, -0.0108125, -0.444944, 0.634399, -3.1304, -0.0563857, -0.10979, -0.0107382, -0.44327, 0.634296, -3.13069, -0.0538295, -0.102717, 0.0107292, -0.00773386, -0.0223304, -0.00164642, -0.00821394, -0.0144408
0.0960623, 0.10795, -0.773825, -0.917593, -1.4572, -0.627225, 1.06913, -0.256703, 0.024945, 0.0154942, -0.0450325, 7.51632e-05, -0.0168609, -0.0146725, -0.000762935, 0.245735, 15.4935, 18.816, 16.0629, 1.02466, 3.96945, -0.0420422, 0.000113057, -0.00166766, 0.000115779, -2.55575e-06, -0.00459297, 0.00197019, 0.0127295, 0.000182741, 0.00923457, 0.0103198, 0.0695694, 0.066846, -0.0108016, -0.444952, 0.634376, -3.13035, -0.0564147, -0.10987, -0.0107414, -0.443281, 0.634281, -3.13066, -0.0538027, -0.102668, 0.0109812, -0.00790168, -0.0228265, -0.00236115, -0.00826613, -0.0145078
0.0970623, 0.107974, -0.773811, -0.917642, -1.45721, -0.627242, 1.06912, -0.2567, 0.0240479, 0.0162305, -0.0488836, -0.00177243, -0.0178353, -0.0118017, 0.000237362, 0.285408, 15.4221, 18.7803, 16.1383, 1.03656, 3.99142, -0.0621838, 0.000101388, -0.00166727, 0.000110274, -1.1529e-05, -0.00468908, 0.00200603, 0.013859, -0.000856363, 0.00840136, 0.010797, 0.0716658, 0.0643339, -0.0107905, -0.44496, 0.634353, -3.1303, -0.0564444, -0.109952, -0.0107423, -0.443289, 0.634263, -3.13062, -0.053777, -0.102599, 0.0112358, -0.00807076, -0.0233269, -0.00313687, -0.00950618, -0.0159273
0.0980623, 0.108001, -0.773804, -0.917692, -1.45721, -0.627259, 1.06911, -0.256699, 0.0243216, 0.0110877, -0.0505182, -0.000390881, -0.0177011, -0.0142254, 0.000395601, 0.285408, 15.4578, 18.7049, 16.1026, 1.02466, 4.01248, -0.0685925, 8.57368e-05, -0.00166549, 0.000102002, -2.70435e-05, -0.00477139, 0.00204479, 0.0165593, -0.000736626, 0.00846868, 0.00894267, 0.0675352, 0.0644145, -0.0107792, -0.444968, 0.634329, -3.13025, -0.0564747, -0.110035, -0.0107471, -0.4433, 0.634246, -3.13059, -0.0537472, -0.102554, 0.011493, -0.00824109, -0.0238314, -0.00558097, -0.00965466, -0.0165546
0.0990623, 0.108028, -0.773792, -0.917746, -1.45721, -0.627278, 1.0691, -0.256702, 0.0235054, 0.012173, -0.0538565, -0.00169369, -0.0135452, -0.0157928, -0.00071961, 0.325081, 15.4221, 18.7049, 16.0272, 1.03107, 4.02713, -0.0420422, 6.97766e-05, -0.00166243, 9.39013e-05, -4.40742e-05, -0.00486081, 0.00208453, 0.0169647, -0.000309699, 0.0075733, 0.0039795, 0.0679619, 0.0666914, -0.0107676, -0.444977, 0.634305, -3.13019, -0.0565057, -0.11012, -0.0107519, -0.443312, 0.634229, -3.13056, -0.0537164, -0.1025, 0.0117529, -0.00841265, -0.0243401, -0.00567837, -0.00940568, -0.0179827
0.100062, 0.108055, -0.77378, -0.9178, -1.45722, -0.627294, 1.06909, -0.256703, 0.0263383, 0.00816024, -0.0513604, -0.00141773, -0.0148826, -0.0166949, -0.000717099, 0.360787, 15.4578, 18.6295, 16.0272, 1.03107, 4.03445, -0.0356336, 5.48947e-05, -0.00166153, 8.71532e-05, -5.35598e-05, -0.00495431, 0.00212177, 0.0167628, 0.000190478, 0.00858114, 0.00606762, 0.0658722, 0.072517, -0.0107557, -0.444985, 0.634281, -3.13014, -0.0565373, -0.110207, -0.0107553, -0.443322, 0.63421, -3.13052, -0.0536905, -0.102441, 0.0120154, -0.00858543, -0.0248528, -0.00530379, -0.00908248, -0.017473
0.101062, 0.108088, -0.773764, -0.917854, -1.45723, -0.627311, 1.06908, -0.256698, 0.0302591, 0.00869869, -0.0518545, -0.00505467, -0.015584, -0.0126535, 0.00121736, 0.325081, 15.3467, 18.5184, 16.0629, 1.02466, 4.04086, -0.0814099, 4.48273e-05, -0.00165975, 8.0597e-05, -6.64138e-05, -0.00505501, 0.00215847, 0.0142042, -0.000399956, 0.00811713, 0.00829614, 0.0680501, 0.0775453, -0.0107435, -0.444994, 0.634256, -3.13008, -0.0565696, -0.110296, -0.0107536, -0.443333, 0.634191, -3.13048, -0.053666, -0.102373, 0.0122806, -0.0087594, -0.0253696, -0.0024344, -0.00975095, -0.0182778
0.102062, 0.108112, -0.773755, -0.917908, -1.45723, -0.627328, 1.06908, -0.256699, 0.0264177, 0.00853913, -0.0532643, -0.00526464, -0.0168518, -0.0138618, 0.000336852, 0.436165, 15.3864, 18.443, 15.9915, 1.03656, 4.03445, -0.0685925, 2.65608e-05, -0.00165802, 7.11507e-05, -8.42988e-05, -0.00514401, 0.00220183, 0.0169604, -0.000293478, 0.00819951, 0.00803756, 0.0703571, 0.0749224, -0.0107311, -0.445003, 0.63423, -3.13002, -0.0566025, -0.110386, -0.01076, -0.443344, 0.634174, -3.13045, -0.0536316, -0.102325, 0.0125483, -0.00893455, -0.0258904, -0.00492427, -0.00991992, -0.018911
0.103062, 0.108141, -0.773739, -0.917973, -1.45724, -0.627348, 1.06906, -0.256704, 0.0307574, 0.0112071, -0.056766, -0.00725169, -0.0180649, -0.0156305, -0.00147085, 0.511544, 15.311, 18.4827, 15.9915, 1.05578, 4.04819, -0.0228162, 8.38453e-06, -0.00165535, 6.62973e-05, -8.95708e-05, -0.00525026, 0.00224476, 0.015603, -0.000529286, 0.00695232, 0.00458043, 0.0770476, 0.080738, -0.0107184, -0.445012, 0.634204, -3.12996, -0.0566361, -0.110479, -0.0107657, -0.443357, 0.634151, -3.1304, -0.0535991, -0.102251, 0.0128186, -0.00911087, -0.0264151, -0.00320498, -0.0102711, -0.0205868
0.104062, 0.108176, -0.77373, -0.918026, -1.45723, -0.627365, 1.06905, -0.256698, 0.0336129, 0.0104856, -0.0586227, -0.00200329, -0.017525, -0.0116538, 0.00118957, 0.475838, 15.3467, 18.3716, 15.8408, 1.03656, 4.04819, -0.0814099, -6.73998e-06, -0.0016545, 5.47476e-05, -0.000107316, -0.00534145, 0.00228815, 0.0159459, -0.00177237, 0.00880544, 0.0102892, 0.0713428, 0.0790233, -0.0107055, -0.445021, 0.634177, -3.1299, -0.0566704, -0.110573, -0.0107687, -0.443367, 0.634135, -3.13036, -0.053566, -0.102204, 0.0130915, -0.00928833, -0.0269437, -0.00335934, -0.0117232, -0.0193022
0.105062, 0.108208, -0.773717, -0.918089, -1.45724, -0.627384, 1.06904, -0.256704, 0.0370674, 0.0117805, -0.0600049, -0.00498312, -0.0179582, -0.0134005, -0.00113973, 0.511544, 15.311, 18.3716, 15.8408, 1.03656, 4.04819, -0.0292249, -2.3109e-05, -0.0016522, 4.88241e-05, -0.000116598, -0.00544656, 0.00232479, 0.014357, -0.00145683, 0.00784211, 0.00729308, 0.0766181, 0.087007, -0.0106922, -0.44503, 0.63415, -3.12984, -0.0567054, -0.110669, -0.0107722, -0.44338, 0.634113, -3.13032, -0.0535445, -0.102136, 0.0133669, -0.00946692, -0.0274763, -0.00144397, -0.0115202, -0.0206818
0.106062, 0.108243, -0.7737, -0.918145, -1.45725, -0.627405, 1.06903, -0.256709, 0.0372927, 0.0126089, -0.0581978, -0.00796569, -0.0141871, -0.0143198, -0.0014719, 0.511544, 15.2753, 18.2606, 15.8765, 1.05578, 4.03445, -0.00999879, -3.48787e-05, -0.00165084, 4.0344e-05, -0.000134255, -0.00555746, 0.00235439, 0.0123967, -0.000119103, 0.00793715, 0.00540916, 0.077664, 0.094236, -0.0106787, -0.44504, 0.634122, -3.12978, -0.056741, -0.110767, -0.010771, -0.443391, 0.634093, -3.13028, -0.0535344, -0.102061, 0.0136449, -0.00964662, -0.0280126, 0.000732168, -0.0102946, -0.0209748
0.107062, 0.108275, -0.773687, -0.918208, -1.45726, -0.627424, 1.06902, -0.256701, 0.0365435, 0.0124187, -0.0618869, -0.00838009, -0.0150859, -0.0154717, 0.000951514, 0.551216, 15.2753, 18.2209, 15.8408, 1.04938, 4.03445, -0.0621838, -5.2492e-05, -0.00164903, 3.21449e-05, -0.000146289, -0.00566295, 0.00240734, 0.0144227, -0.00048504, 0.00723921, 0.00327864, 0.0799209, 0.0900097, -0.0106649, -0.44505, 0.634094, -3.12971, -0.0567774, -0.110867, -0.0107753, -0.443403, 0.634071, -3.13024, -0.0534889, -0.101996, 0.0139255, -0.00982742, -0.0285528, -0.000944651, -0.0109071, -0.0223586
0.108062, 0.108312, -0.773677, -0.91827, -1.45726, -0.627444, 1.06901, -0.256705, 0.0339397, 0.0106425, -0.0605343, -0.00780934, -0.016206, -0.0162732, 0.000125716, 0.551216, 15.3467, 18.1455, 15.7654, 1.05578, 4.03445, -0.0484509, -6.87255e-05, -0.00164693, 2.273e-05, -0.000162983, -0.00576601, 0.00244354, 0.0163353, -1.10123e-05, 0.00830546, 0.0053659, 0.0797085, 0.0904299, -0.0106509, -0.44506, 0.634065, -3.12965, -0.0568144, -0.110969, -0.010778, -0.443416, 0.634051, -3.1302, -0.0534699, -0.101938, 0.0142086, -0.0100093, -0.0290967, -0.00266109, -0.0106962, -0.0219719
0.109062, 0.108312, -0.773677, -0.91827, -1.45726, -0.627444, 1.06901, -0.256705, 0.0339397, 0.0106425, -0.0605343, -0.00780934, -0.016206, -0.0162732, 0.000125716, 0.551216, 15.3467, 18.1455, 15.7654, 1.05578, 4.03445, -0.0484509, -8.05455e-05, -0.00165779, -7.37375e-06, -0.000224585, -0.00583467, 0.00246669, 0.016574, 0.000187655, 0.00887105, 0.00641472, 0.0804715, 0.0924337, -0.0106365, -0.44507, 0.634036, -3.12958, -0.0568522, -0.111073, -0.010778, -0.443416, 0.634051, -3.1302, -0.0534699, -0.101938, 0.0144943, -0.0101922, -0.0296444, -0.00266109, -0.0106962, -0.0219719
0.110062, 0.108312, -0.773677, -0.91827, -1.45726, -0.627444, 1.06901, -0.256705, 0.0339397, 0.0106425, -0.0605343, -0.00780934, -0.016206, -0.0162732, 0.000125716, 0.551216, 15.3467, 18.1455, 15.7654, 1.05578, 4.03445, -0.0484509, -9.26004e-05, -0.00166885, -3.80425e-05, -0.000287309, -0.00590461, 0.00249027, 0.0168148, 0.00038759, 0.00944051, 0.00746956, 0.0812396, 0.0944509, -0.0106219, -0.44508, 0.634006, -3.12951, -0.0568906, -0.111178, -0.010778, -0.443416, 0.634051, -3.1302, -0.0534699, -0.101938, 0.0147825, -0.0103762, -0.0301957, -0.00266109, -0.0106962, -0.0219719
0.111062, 0.108413, -0.773628, -0.918473, -1.45728, -0.627508, 1.06897, -0.256699, 0.0360419, 0.0150156, -0.0629579, -0.00515968, -0.0155088, -0.0169545, 0.000824678, 0.701973, 15.311, 18.1852, 15.7297, 1.07959, 4.00516, -0.0685925, -0.000122801, -0.0016394, -1.17754e-06, -0.000204308, -0.00611442, 0.00259438, 0.0160683, 0.000206027, 0.0101729, 0.00773941, 0.0845997, 0.0949864, -0.010607, -0.44509, 0.633975, -3.12945, -0.0569298, -0.111286, -0.0107896, -0.443457, 0.633981, -3.13006, -0.0533522, -0.101711, 0.0150731, -0.0105613, -0.0307507, -0.00167207, -0.0110448, -0.0217461
0.112062, 0.108449, -0.773612, -0.918538, -1.45728, -0.627528, 1.06896, -0.256705, 0.0356587, 0.0167382, -0.0598045, -0.00447623, -0.0162767, -0.0127841, -0.00138299, 0.737679, 15.3467, 18.1852, 15.6146, 1.07959, 4.00516, -0.0164075, -0.000140688, -0.00163739, -1.27984e-05, -0.000224599, -0.00622684, 0.00263659, 0.0147914, 0.000178695, 0.0122936, 0.01532, 0.0849923, 0.100541, -0.0105917, -0.445101, 0.633944, -3.12938, -0.0569696, -0.111396, -0.010793, -0.44347, 0.633961, -3.13002, -0.0533267, -0.101646, 0.0153663, -0.0107473, -0.0313093, -0.000256085, -0.0112366, -0.0200998
0.113062, 0.108482, -0.773598, -0.918607, -1.45728, -0.62755, 1.06895, -0.256703, 0.0346265, 0.0140712, -0.0605763, -0.00283854, -0.0130897, -0.014587, 0.00457295, 0.813057, 15.4221, 18.1852, 15.5789, 1.10431, 4.01248, -0.0356336, -0.000162192, -0.00163539, -2.32257e-05, -0.000241339, -0.00634309, 0.00269245, 0.0164584, 0.000794405, 0.0129283, 0.0137379, 0.0805712, 0.0957153, -0.0105762, -0.445112, 0.633913, -3.1293, -0.0570102, -0.111507, -0.0107996, -0.443484, 0.633938, -3.12997, -0.0532809, -0.101576, 0.015662, -0.0109343, -0.0318714, -0.00169051, -0.0108766, -0.0201437
0.114062, 0.108517, -0.773582, -0.91868, -1.45729, -0.627572, 1.06893, -0.256701, 0.0347371, 0.0161977, -0.063843, -0.00324478, -0.0144726, -0.0150895, 0.00419319, 0.85273, 15.4578, 18.2963, 15.6146, 1.10431, 3.99783, -0.0557752, -0.000182127, -0.00163273, -3.13048e-05, -0.000254546, -0.00646706, 0.00274699, 0.0173086, 0.000373693, 0.0124969, 0.012808, 0.0851976, 0.0953202, -0.0105604, -0.445123, 0.63388, -3.12923, -0.0570515, -0.111621, -0.0108042, -0.443498, 0.633913, -3.12992, -0.053238, -0.101497, 0.0159602, -0.0111224, -0.0324371, -0.00219456, -0.0115122, -0.0212053
0.115062, 0.108548, -0.77356, -0.918737, -1.4573, -0.627596, 1.06892, -0.256698, 0.0371395, 0.0154641, -0.0608527, -0.00171587, -0.0157231, -0.0158345, 0.00404383, 0.928108, 15.4578, 18.1852, 15.5789, 1.11072, 3.99142, -0.0814099, -0.000198193, -0.00163301, -4.59634e-05, -0.000284329, -0.00659493, 0.00279664, 0.0163971, 0.000976177, 0.0142336, 0.0163767, 0.0854749, 0.10084, -0.0105443, -0.445134, 0.633848, -3.12916, -0.0570936, -0.111737, -0.0108052, -0.44351, 0.633893, -3.12988, -0.0532029, -0.101414, 0.0162609, -0.0113113, -0.0330063, -0.00113176, -0.011087, -0.0199733
0.116062, 0.108584, -0.773538, -0.918811, -1.4573, -0.627616, 1.06891, -0.256704, 0.0375241, 0.0180817, -0.0615451, -0.00143484, -0.0162602, -0.0166004, 0.000987301, 0.928108, 15.4578, 18.332, 15.5789, 1.10431, 3.99142, -0.0292249, -0.000217296, -0.00163035, -5.63842e-05, -0.000302388, -0.00672169, 0.00284545, 0.0161547, 0.00116001, 0.0147342, 0.0169128, 0.0895322, 0.105431, -0.0105279, -0.445146, 0.633814, -3.12908, -0.0571363, -0.111854, -0.0108085, -0.443525, 0.633869, -3.12983, -0.0531703, -0.101334, 0.016564, -0.0115013, -0.033579, -0.000630479, -0.0110916, -0.020029
0.117062, 0.108611, -0.773523, -0.918873, -1.45731, -0.627637, 1.0689, -0.256695, 0.0349853, 0.0151174, -0.0607846, -0.00422059, -0.0174011, -0.0119433, 0.00275913, 1.03919, 15.5331, 18.2963, 15.5789, 1.11713, 3.97677, -0.0814099, -0.000238835, -0.00163047, -7.13121e-05, -0.000330142, -0.00684276, 0.00290886, 0.0173397, 0.00071398, 0.0150731, 0.0214375, 0.0876621, 0.104717, -0.0105112, -0.445157, 0.633781, -3.12901, -0.0571798, -0.111974, -0.0108144, -0.443537, 0.633849, -3.12979, -0.0531154, -0.101265, 0.0168696, -0.0116921, -0.034155, -0.00151479, -0.0117763, -0.0203572
0.118062, 0.108646, -0.7735, -0.918941, -1.45731, -0.627658, 1.06889, -0.256695, 0.032967, 0.0178512, -0.0619849, -0.00499443, -0.0180973, -0.00875515, 0.00247416, 1.03919, 15.5331, 18.332, 15.6543, 1.12903, 3.96945, -0.0951428, -0.000255889, -0.00163011, -8.32378e-05, -0.000350048, -0.00697824, 0.00295813, 0.0176852, 0.000197212, 0.0155406, 0.0247365, 0.0906648, 0.104253, -0.0104942, -0.445169, 0.633746, -3.12893, -0.0572241, -0.112096, -0.0108153, -0.44355, 0.633825, -3.12975, -0.0530836, -0.101176, 0.0171776, -0.0118839, -0.0347344, -0.00156653, -0.0125039, -0.0205011
0.119062, 0.108674, -0.773479, -0.919019, -1.45732, -0.627677, 1.06888, -0.256699, 0.0294643, 0.0188881, -0.068669, -0.0027147, -0.0180936, -0.0117244, 0.000760676, 1.11457, 15.5688, 18.4827, 15.6146, 1.12903, 3.97677, -0.0685925, -0.000281234, -0.00162793, -9.53583e-05, -0.00036961, -0.00710628, 0.00302142, 0.0221221, -0.000360356, 0.0148377, 0.020544, 0.0927908, 0.0983285, -0.0104768, -0.445181, 0.633711, -3.12885, -0.0572691, -0.112219, -0.0108241, -0.443565, 0.633801, -3.1297, -0.0530307, -0.1011, 0.017488, -0.0120766, -0.0353172, -0.00560896, -0.0134079, -0.02211
0.120062, 0.108709, -0.773449, -0.919083, -1.45733, -0.6277, 1.06886, -0.2567, 0.029524, 0.0224268, -0.0658815, -0.00380786, -0.0184613, -0.0135226, -0.000642648, 1.07887, 15.4935, 18.443, 15.69, 1.13544, 3.97677, -0.0356336, -0.000296053, -0.00162877, -0.000109771, -0.000395797, -0.00725281, 0.00306946, 0.0204214, 0.000820092, 0.0158724, 0.021712, 0.0989127, 0.10442, -0.0104592, -0.445193, 0.633676, -3.12877, -0.0573148, -0.112345, -0.0108223, -0.443577, 0.633778, -3.12965, -0.0530022, -0.100998, 0.0178009, -0.0122702, -0.0359033, -0.00371952, -0.012374, -0.0215332
0.121062, 0.10874, -0.773434, -0.919153, -1.45733, -0.627721, 1.06885, -0.256691, 0.0325787, 0.0173454, -0.0657097, -0.00271469, -0.0187454, -0.0148158, 0.00230354, 1.03919, 15.6046, 18.4827, 15.69, 1.14093, 3.97677, -0.10796, -0.000320121, -0.00162856, -0.000124479, -0.000420344, -0.00738126, 0.00313811, 0.0212414, 0.00100872, 0.0164685, 0.0219918, 0.0948438, 0.106123, -0.0104412, -0.445205, 0.633639, -3.12869, -0.0573613, -0.112473, -0.0108294, -0.443591, 0.633755, -3.1296, -0.0529423, -0.100926, 0.0181163, -0.0124646, -0.0364926, -0.00427232, -0.0124184, -0.0215871
0.122062, 0.108765, -0.773412, -0.919215, -1.45734, -0.627743, 1.06884, -0.256691, 0.0258239, 0.0186099, -0.0635085, -0.00194188, -0.0185632, -0.0111221, 0.00133823, 1.11457, 15.6442, 18.443, 15.69, 1.13544, 3.97677, -0.101552, -0.000341828, -0.00162977, -0.00014208, -0.000453978, -0.007518, 0.00319691, 0.0231283, 0.00116229, 0.0185241, 0.0286356, 0.0942764, 0.103889, -0.0104229, -0.445218, 0.633603, -3.12861, -0.0574085, -0.112603, -0.0108342, -0.443603, 0.633734, -3.12956, -0.0528983, -0.100844, 0.018434, -0.0126599, -0.0370852, -0.00598964, -0.0125547, -0.0202659
0.123062, 0.108795, -0.773384, -0.919284, -1.45734, -0.627764, 1.06883, -0.256699, 0.0266485, 0.0182378, -0.0633236, -0.000558438, -0.0235833, -0.0130677, -0.000773338, 1.07887, 15.6046, 18.443, 15.6543, 1.14093, 3.97677, -0.0557752, -0.000362414, -0.0016304, -0.000158974, -0.00048351, -0.00766156, 0.00324921, 0.0245625, 0.00108274, 0.0194148, 0.0311104, 0.0986208, 0.106017, -0.0104044, -0.445231, 0.633565, -3.12852, -0.0574565, -0.112735, -0.0108374, -0.443617, 0.633713, -3.12952, -0.0528653, -0.100753, 0.0187541, -0.012856, -0.0376809, -0.00716145, -0.0128951, -0.0200796
0.124062, 0.108825, -0.773361, -0.919359, -1.45734, -0.627786, 1.06881, -0.256695, 0.0262513, 0.016904, -0.0680083, -0.00360709, -0.0222242, -0.014757, 0.000218963, 1.07887, 15.6046, 18.5184, 15.6543, 1.13544, 3.9841, -0.0750012, -0.000386013, -0.00162963, -0.000173735, -0.000510001, -0.007804, 0.00331789, 0.0262105, 0.00102814, 0.0175926, 0.0253862, 0.100142, 0.10546, -0.0103854, -0.445244, 0.633527, -3.12844, -0.0575053, -0.11287, -0.0108431, -0.443631, 0.633688, -3.12947, -0.0528078, -0.100665, 0.0190766, -0.013053, -0.0382798, -0.00835006, -0.013187, -0.0226177
0.125062, 0.108855, -0.773333, -0.919429, -1.45735, -0.627805, 1.0688, -0.25669, 0.0269288, 0.0166715, -0.0666423, -0.00577686, -0.0256926, -0.0154776, 0.00162087, 1.03919, 15.5688, 18.5184, 15.6543, 1.12262, 3.97677, -0.114369, -0.000406604, -0.00163135, -0.000189627, -0.000535096, -0.0079526, 0.00338189, 0.026122, 0.00135697, 0.0178528, 0.0270525, 0.105103, 0.107419, -0.0103662, -0.445257, 0.633489, -3.12835, -0.0575548, -0.113006, -0.0108457, -0.443644, 0.633664, -3.12942, -0.0527584, -0.10057, 0.0194015, -0.0132507, -0.0388819, -0.00796928, -0.0130584, -0.0229531
0.126062, 0.108888, -0.773311, -0.919498, -1.45736, -0.627822, 1.06879, -0.256694, 0.0281773, 0.0179361, -0.0668848, -0.00434499, -0.028679, -0.0113465, -0.000364856, 0.963814, 15.6046, 18.443, 15.6543, 1.12262, 3.96945, -0.0750012, -0.000426278, -0.00163263, -0.000206979, -0.000565073, -0.00809293, 0.00343238, 0.0259821, 0.000345452, 0.0192218, 0.0337357, 0.106489, 0.110518, -0.0103466, -0.44527, 0.633449, -3.12826, -0.0576051, -0.113144, -0.0108471, -0.443657, 0.63364, -3.12937, -0.0527306, -0.100491, 0.0197288, -0.0134493, -0.039487, -0.00756498, -0.0142814, -0.0221947
0.127062, 0.10892, -0.77329, -0.919575, -1.45737, -0.627843, 1.06878, -0.256692, 0.0280496, 0.0157888, -0.0700683, -0.00642995, -0.0262941, -0.00826759, 0.00410702, 0.928108, 15.6442, 18.4827, 15.6543, 1.12262, 3.96213, -0.0621838, -0.000451187, -0.00163258, -0.000222186, -0.000591274, -0.00823859, 0.00349896, 0.0267704, -0.00025202, 0.0185046, 0.0331371, 0.103344, 0.107946, -0.0103267, -0.445284, 0.63341, -3.12817, -0.0576562, -0.113285, -0.0108532, -0.443672, 0.633614, -3.12932, -0.0526787, -0.100405, 0.0200585, -0.0136486, -0.0400951, -0.00794866, -0.0151002, -0.0235835
0.128062, 0.108951, -0.773262, -0.91965, -1.45738, -0.627857, 1.06876, -0.256687, 0.0312267, 0.019984, -0.0712795, -0.00784767, -0.0235301, -0.0104347, 0.00436711, 0.888436, 15.5688, 18.4827, 15.6543, 1.0979, 3.94839, -0.0951428, -0.000472435, -0.00163449, -0.000238099, -0.000613572, -0.00838921, 0.00356409, 0.02416, 0.000538451, 0.0182228, 0.0297147, 0.108389, 0.114189, -0.0103065, -0.445298, 0.633369, -3.12808, -0.0577081, -0.113428, -0.0108554, -0.443684, 0.633588, -3.12926, -0.0526302, -0.100313, 0.0203905, -0.0138487, -0.0407063, -0.00502538, -0.0144142, -0.0242813
0.129062, 0.108985, -0.773235, -0.919721, -1.45738, -0.627875, 1.06875, -0.256693, 0.0311895, 0.0188663, -0.0765603, -0.00722221, -0.0222213, -0.0073538, 0.00223436, 0.813057, 15.5331, 18.4073, 15.5789, 1.09241, 3.93374, -0.0685925, -0.000492389, -0.00163587, -0.000257226, -0.000647733, -0.00853848, 0.00361641, 0.0260486, -0.000729767, 0.017785, 0.0298079, 0.105425, 0.114825, -0.010286, -0.445311, 0.633328, -3.12799, -0.0577607, -0.113573, -0.0108563, -0.443698, 0.633565, -3.12921, -0.0526018, -0.100226, 0.0207248, -0.0140495, -0.0413204, -0.006496, -0.0159482, -0.025484
0.130062, 0.109018, -0.773212, -0.919792, -1.45739, -0.627894, 1.06874, -0.256694, 0.0331551, 0.0195418, -0.0761113, -0.00789256, -0.0169448, -0.0093802, 0.000735951, 0.777352, 15.5688, 18.2606, 15.5432, 1.0979, 3.90536, -0.0420422, -0.000513653, -0.00163752, -0.000275896, -0.00068197, -0.00868852, 0.00367351, 0.0241543, 0.00055197, 0.0181232, 0.0267077, 0.104423, 0.123742, -0.0102651, -0.445326, 0.633287, -3.1279, -0.0578142, -0.11372, -0.0108581, -0.443711, 0.63354, -3.12916, -0.0525668, -0.10014, 0.0210615, -0.0142511, -0.0419374, -0.00434504, -0.0148064, -0.0256161
0.131062, 0.109048, -0.773189, -0.919881, -1.4574, -0.627909, 1.06873, -0.256689, 0.0332054, 0.0209291, -0.0833728, -0.00821362, -0.0169833, -0.00637035, 0.00212099, 0.813057, 15.5688, 18.2963, 15.5035, 1.086, 3.88339, -0.0814099, -0.000542099, -0.00163672, -0.000290066, -0.000702729, -0.00883806, 0.00375305, 0.0259667, -0.00112483, 0.0169287, 0.0257312, 0.105727, 0.119286, -0.0102438, -0.44534, 0.633244, -3.1278, -0.0578684, -0.113869, -0.0108663, -0.443728, 0.63351, -3.1291, -0.0524984, -0.100056, 0.0214005, -0.0144534, -0.0425574, -0.00566478, -0.0167379, -0.0275785
0.132062, 0.109087, -0.773161, -0.919974, -1.45742, -0.627923, 1.06871, -0.256687, 0.0359757, 0.0228806, -0.0855778, -0.0095183, -0.0172634, -0.00913696, 0.00205184, 0.737679, 15.5331, 18.332, 15.5035, 1.07959, 3.86966, -0.0951428, -0.000565864, -0.00163561, -0.000302545, -0.000718867, -0.00899555, 0.003821, 0.0252314, -0.000804074, 0.0162958, 0.022438, 0.111128, 0.123223, -0.0102223, -0.445355, 0.633201, -3.12771, -0.0579234, -0.114021, -0.0108693, -0.443745, 0.633478, -3.12903, -0.052449, -0.0999622, 0.0217418, -0.0146563, -0.0431802, -0.00455802, -0.0165879, -0.0287783
0.133062, 0.109122, -0.773141, -0.920056, -1.45742, -0.627939, 1.06871, -0.256695, 0.0393275, 0.0217613, -0.0837028, -0.00768792, -0.0181746, -0.00619274, -0.00121396, 0.737679, 15.6046, 18.2209, 15.3925, 1.09241, 3.84768, -0.0228162, -0.000591537, -0.00163555, -0.000320779, -0.000750605, -0.00914262, 0.00387949, 0.024015, -0.00108316, 0.0181441, 0.0284708, 0.108861, 0.132187, -0.0102004, -0.445369, 0.633158, -3.12761, -0.0579792, -0.114174, -0.0108744, -0.443761, 0.633451, -3.12897, -0.0524144, -0.0998874, 0.0220854, -0.01486, -0.0438058, -0.00312729, -0.0170518, -0.0274774
0.134062, 0.109122, -0.773141, -0.920056, -1.45742, -0.627939, 1.06871, -0.256695, 0.0393275, 0.0217613, -0.0837028, -0.00768792, -0.0181746, -0.00619274, -0.00121396, 0.737679, 15.6046, 18.2209, 15.3925, 1.09241, 3.84768, -0.0228162, -0.000609853, -0.00165183, -0.000366118, -0.000841998, -0.00924579, 0.00391441, 0.0243045, -0.000857205, 0.018796, 0.0296446, 0.10974, 0.134484, -0.0101781, -0.445384, 0.633114, -3.12751, -0.0580358, -0.11433, -0.0108744, -0.443761, 0.633451, -3.12897, -0.0524144, -0.0998874, 0.0224314, -0.0150643, -0.0444342, -0.00312729, -0.0170518, -0.0274774
0.135063, 0.109196, -0.773082, -0.920249, -1.45745, -0.627961, 1.06869, -0.256687, 0.0386549, 0.025002, -0.0964697, -0.0110608, -0.00998559, -0.0112477, 0.00208396, 0.737679, 15.4935, 18.1852, 15.3171, 1.086, 3.8193, -0.0951428, -0.000640432, -0.00163274, -0.000348186, -0.000790328, -0.00946097, 0.00402764, 0.0262811, -0.000937309, 0.0145003, 0.013012, 0.112961, 0.128695, -0.0101555, -0.445399, 0.633069, -3.12741, -0.0580933, -0.114488, -0.0108804, -0.443796, 0.633386, -3.12884, -0.0523005, -0.099705, 0.0227796, -0.0152693, -0.0450654, -0.00443464, -0.0173565, -0.032541
0.136063, 0.109237, -0.773062, -0.920338, -1.45746, -0.62797, 1.06868, -0.256688, 0.0383207, 0.0231143, -0.0909814, -0.0067899, -0.00774625, -0.012468, 0.000921565, 0.737679, 15.5688, 18.0344, 15.2417, 1.09241, 3.79733, -0.0814099, -0.000664394, -0.00163248, -0.000364381, -0.000815885, -0.00961057, 0.00408804, 0.0260889, 0.000534092, 0.017845, 0.0179657, 0.107861, 0.13491, -0.0101325, -0.445415, 0.633024, -3.12731, -0.0581515, -0.114649, -0.0108826, -0.443813, 0.633355, -3.12877, -0.0522657, -0.0996327, 0.0231301, -0.0154749, -0.0456993, -0.00419313, -0.0161305, -0.0298131
0.137063, 0.109275, -0.773036, -0.920443, -1.45748, -0.627982, 1.06867, -0.256694, 0.0402261, 0.0235762, -0.0923395, -0.00774254, -0.00556568, -0.013161, -0.00128774, 0.777352, 15.5688, 18.1098, 15.206, 1.086, 3.76895, -0.0292249, -0.000692428, -0.00162958, -0.000376277, -0.000833202, -0.0097714, 0.00415765, 0.0252929, 0.000894208, 0.0177222, 0.0160764, 0.108616, 0.141832, -0.0101092, -0.44543, 0.632978, -3.12721, -0.0582105, -0.114811, -0.0108881, -0.443832, 0.633319, -3.1287, -0.0522179, -0.0995444, 0.0234829, -0.0156811, -0.0463358, -0.00305331, -0.0159487, -0.0305128
0.138063, 0.109319, -0.773009, -0.920542, -1.4575, -0.62799, 1.06867, -0.256693, 0.0427736, 0.0240846, -0.0936354, -0.0082888, -0.00442697, -0.00952395, -0.00154757, 0.777352, 15.5688, 18.0741, 15.1703, 1.09241, 3.7543, -0.00999879, -0.000714958, -0.0016281, -0.00039052, -0.000855166, -0.00993219, 0.00422316, 0.0240091, 0.000318848, 0.0181041, 0.0186318, 0.107774, 0.146814, -0.0100856, -0.445446, 0.632931, -3.1271, -0.0582704, -0.114976, -0.010888, -0.443851, 0.633285, -3.12863, -0.0521771, -0.0994588, 0.0238379, -0.015888, -0.046975, -0.00142673, -0.016691, -0.0306855
0.139063, 0.10936, -0.772982, -0.920643, -1.45751, -0.627995, 1.06867, -0.256687, 0.0397539, 0.0244113, -0.0974086, -0.00788144, -0.00307332, -0.00681005, 0.00163039, 0.85273, 15.5688, 18.0344, 15.0949, 1.086, 3.74057, -0.0814099, -0.000739006, -0.00162671, -0.000404329, -0.000875385, -0.0100913, 0.00429584, 0.0262972, -0.000448761, 0.0181742, 0.0196187, 0.106486, 0.140537, -0.0100616, -0.445462, 0.632884, -3.127, -0.0583311, -0.115144, -0.010889, -0.443869, 0.63325, -3.12855, -0.0521261, -0.0993778, 0.0241952, -0.0160954, -0.0476168, -0.00332772, -0.0177533, -0.031437
0.140063, 0.109402, -0.772949, -0.920751, -1.45753, -0.628003, 1.06866, -0.256689, 0.0376093, 0.0263892, -0.102542, -0.00669528, -0.00208104, -0.0049958, 0.000862505, 0.928108, 15.4935, 18.1098, 14.9799, 1.07959, 3.73324, -0.0750012, -0.00076466, -0.00162451, -0.000417883, -0.000892918, -0.0102607, 0.00436917, 0.0284681, -0.00138917, 0.0180574, 0.0195945, 0.107138, 0.137465, -0.0100372, -0.445478, 0.632836, -3.12689, -0.0583926, -0.115313, -0.0108912, -0.443889, 0.633213, -3.12847, -0.0520751, -0.099283, 0.0245547, -0.0163034, -0.0482612, -0.00508926, -0.0189822, -0.0323714
0.141063, 0.10945, -0.772934, -0.920856, -1.45755, -0.628012, 1.06865, -0.256697, 0.0402239, 0.0223839, -0.101943, -0.0107834, -0.00628094, -0.00360455, -0.00209406, 0.963814, 15.6442, 18.1098, 14.9442, 1.07959, 3.72592, -0.00267457, -0.000791397, -0.00162243, -0.000430845, -0.000911978, -0.0104177, 0.00442616, 0.028472, -0.00168027, 0.0175453, 0.0214672, 0.109206, 0.145951, -0.0100124, -0.445495, 0.632787, -3.12678, -0.0584549, -0.115485, -0.0108941, -0.443909, 0.633176, -3.1284, -0.0520502, -0.09921, 0.0249165, -0.016512, -0.0489081, -0.00468447, -0.0194778, -0.0335359
0.142063, 0.109495, -0.772908, -0.920961, -1.45757, -0.628021, 1.06865, -0.256694, 0.0410988, 0.023315, -0.101416, -0.0152475, -0.00564538, -0.00281199, -0.000405419, 1.03919, 15.6442, 18.1098, 14.8331, 1.10431, 3.72592, -0.0292249, -0.000816715, -0.00162002, -0.000446015, -0.000937331, -0.0105825, 0.00449879, 0.0268122, -0.0011465, 0.0170758, 0.0209382, 0.113066, 0.150491, -0.00998734, -0.445511, 0.632738, -3.12667, -0.058518, -0.115659, -0.0108954, -0.443929, 0.63314, -3.12832, -0.0520017, -0.0991275, 0.0252805, -0.0167211, -0.0495576, -0.00265357, -0.0190888, -0.0345284
0.143063, 0.109539, -0.772887, -0.921071, -1.45759, -0.628021, 1.06865, -0.256689, 0.0419345, 0.022233, -0.0988825, -0.0181039, -0.00349234, -0.00323254, 0.0014306, 1.11457, 15.7156, 18.1455, 14.8331, 1.086, 3.7543, -0.0750012, -0.000843026, -0.00161871, -0.000457612, -0.000950341, -0.0107434, 0.00457108, 0.0252928, 2.62513e-05, 0.0174847, 0.0207398, 0.113247, 0.156293, -0.00996188, -0.445528, 0.632688, -3.12656, -0.058582, -0.115835, -0.010897, -0.443948, 0.6331, -3.12824, -0.051955, -0.0990525, 0.0256467, -0.0169307, -0.0502094, -0.000849274, -0.0180789, -0.0346503
0.144063, 0.109586, -0.772859, -0.921172, -1.45762, -0.628027, 1.06864, -0.256693, 0.0435986, 0.023986, -0.100523, -0.0224473, -0.00331158, -0.00265633, -0.000500236, 1.15424, 15.6799, 18.0741, 14.7934, 1.10431, 3.76163, -0.0356336, -0.000864006, -0.00161879, -0.000472615, -0.000973029, -0.0109173, 0.00462674, 0.0238789, 0.000120778, 0.0164323, 0.018887, 0.118416, 0.163318, -0.00993605, -0.445545, 0.632638, -3.12645, -0.0586468, -0.116014, -0.0108933, -0.443966, 0.633063, -3.12816, -0.0519348, -0.0989602, 0.0260151, -0.0171409, -0.0508638, 0.00100051, -0.0181306, -0.0362512
0.145063, 0.109637, -0.772834, -0.921284, -1.45763, -0.628029, 1.06864, -0.256691, 0.0478253, 0.0235745, -0.103196, -0.0201228, -0.00267397, -0.00194342, -0.00056778, 1.18995, 15.7156, 18.1852, 14.6466, 1.11072, 3.76163, -0.0292249, -0.000888491, -0.00161648, -0.000487567, -0.0009948, -0.0110815, 0.00469624, 0.0235908, -0.000480033, 0.0169807, 0.0196957, 0.116744, 0.167077, -0.00990985, -0.445562, 0.632586, -3.12633, -0.0587125, -0.116195, -0.0108927, -0.443987, 0.633024, -3.12808, -0.0518939, -0.0988855, 0.0263857, -0.0173516, -0.0515205, 0.00163887, -0.0189413, -0.0363493
0.146063, 0.109683, -0.77281, -0.921391, -1.45766, -0.628031, 1.06864, -0.256685, 0.046967, 0.0231705, -0.106309, -0.0239287, -0.00239513, -0.00196754, 0.00108184, 1.26533, 15.7513, 18.2209, 14.6069, 1.12262, 3.77627, -0.0685925, -0.000913079, -0.00161578, -0.000502587, -0.00101657, -0.0112495, 0.00476718, 0.024582, -0.000557459, 0.0156335, 0.0166695, 0.119682, 0.16668, -0.00988328, -0.44558, 0.632535, -3.12622, -0.058779, -0.116378, -0.0108918, -0.444006, 0.632986, -3.12799, -0.0518516, -0.0988069, 0.0267585, -0.0175627, -0.0521796, 0.00112495, -0.0192505, -0.0384297
0.147063, 0.109729, -0.772789, -0.921501, -1.45769, -0.628032, 1.06864, -0.256686, 0.0453174, 0.0220552, -0.107528, -0.025457, -0.00220022, -0.000866208, 0.000485598, 1.38038, 15.8267, 18.2209, 14.6466, 1.13544, 3.76163, -0.0621838, -0.000938281, -0.00161469, -0.00051576, -0.00103707, -0.0114186, 0.00483185, 0.0258915, -0.000616209, 0.0156177, 0.0171429, 0.119838, 0.167996, -0.00985633, -0.445598, 0.632482, -3.1261, -0.0588463, -0.116563, -0.0108911, -0.444026, 0.632945, -3.12791, -0.0518201, -0.0987291, 0.0271335, -0.0177744, -0.052841, 0.000196828, -0.0195719, -0.0392086
0.148063, 0.109785, -0.772766, -0.92161, -1.45771, -0.628031, 1.06864, -0.256695, 0.0507759, 0.0223139, -0.108787, -0.0228803, -0.00108866, -0.000921525, -0.00160775, 1.34071, 15.8624, 18.2209, 14.5355, 1.12262, 3.76895, -0.00999879, -0.000959077, -0.00161396, -0.000531751, -0.00105975, -0.0115857, 0.00487944, 0.0244431, -0.000783777, 0.0165653, 0.0180914, 0.118664, 0.176203, -0.00982901, -0.445615, 0.632429, -3.12598, -0.0589145, -0.116751, -0.0108858, -0.444046, 0.632906, -3.12783, -0.0518158, -0.098657, 0.0275107, -0.0179865, -0.0535047, 0.00195167, -0.019914, -0.0388244
0.149063, 0.109832, -0.772741, -0.921725, -1.45774, -0.628034, 1.06864, -0.256686, 0.048177, 0.023265, -0.110673, -0.0238009, -0.00195108, -0.000397672, 0.00109927, 1.45576, 15.8624, 18.2606, 14.5355, 1.15375, 3.76163, -0.0685925, -0.000985363, -0.0016122, -0.000544403, -0.00107898, -0.0117655, 0.00495884, 0.0261608, -0.000948382, 0.0166126, 0.018691, 0.1216, 0.171943, -0.00980131, -0.445634, 0.632375, -3.12586, -0.0589835, -0.116942, -0.0108853, -0.444067, 0.632863, -3.12774, -0.0517633, -0.0985668, 0.02789, -0.018199, -0.0541706, 0.000620363, -0.0203584, -0.0395771
0.150063, 0.109886, -0.772715, -0.921846, -1.45777, -0.628033, 1.06864, -0.256688, 0.054448, 0.0247135, -0.111843, -0.0265135, -0.000880321, -0.000306057, 0.000970937, 1.49146, 15.8267, 18.2963, 14.4958, 1.14093, 3.76163, -0.0750012, -0.00100938, -0.00161012, -0.000556032, -0.00109284, -0.011944, 0.00502255, 0.022875, -0.000803501, 0.0159986, 0.0169267, 0.125026, 0.181757, -0.00977323, -0.445652, 0.63232, -3.12574, -0.0590534, -0.117134, -0.010882, -0.444089, 0.632818, -3.12764, -0.0517363, -0.0984808, 0.0282715, -0.018412, -0.0548388, 0.00431467, -0.0202984, -0.0406128
0.151063, 0.109938, -0.772698, -0.921969, -1.45781, -0.628035, 1.06865, -0.256691, 0.0543311, 0.0223053, -0.115954, -0.0287151, -0.0013397, 3.6523e-05, -0.00128494, 1.49146, 15.9378, 18.332, 14.4601, 1.16015, 3.7543, -0.0228162, -0.0010375, -0.0016067, -0.000567576, -0.00111064, -0.0121167, 0.00508865, 0.0249152, -0.00138164, 0.0148101, 0.0145885, 0.125368, 0.184122, -0.00974476, -0.44567, 0.632265, -3.12562, -0.0591241, -0.117329, -0.0108825, -0.444112, 0.632772, -3.12755, -0.0517062, -0.0984066, 0.0286551, -0.0186253, -0.0555092, 0.00277443, -0.0211509, -0.0426317
0.152063, 0.109986, -0.772672, -0.922088, -1.45784, -0.628035, 1.06865, -0.256691, 0.0510562, 0.0272457, -0.114696, -0.0302093, -0.000923684, -0.000541216, -0.00109358, 1.60651, 15.9021, 18.332, 14.4205, 1.16015, 3.76895, -0.0164075, -0.00106476, -0.00160556, -0.000581687, -0.00112966, -0.0122986, 0.0051609, 0.0244589, -0.000451227, 0.0156439, 0.0157129, 0.132107, 0.184999, -0.00971592, -0.445689, 0.632209, -3.12549, -0.0591957, -0.117527, -0.0108819, -0.444133, 0.632728, -3.12746, -0.0516675, -0.0983204, 0.0290408, -0.0188391, -0.0561817, 0.00351535, -0.0204331, -0.042431
0.153063, 0.110041, -0.77265, -0.922209, -1.45787, -0.628036, 1.06864, -0.256684, 0.0547676, 0.0260479, -0.117305, -0.0314372, -0.00107951, -0.00064935, 0.00144139, 1.60651, 15.9378, 18.332, 14.3848, 1.17206, 3.77627, -0.0750012, -0.00109104, -0.00160461, -0.000594903, -0.00114524, -0.0124825, 0.00523441, 0.0241452, -0.000761421, 0.0150596, 0.0142266, 0.133001, 0.187189, -0.00968668, -0.445708, 0.632153, -3.12537, -0.0592682, -0.117726, -0.01088, -0.444154, 0.632683, -3.12736, -0.051628, -0.0982333, 0.0294287, -0.0190533, -0.0568564, 0.00426978, -0.0209398, -0.0436718
0.154063, 0.110094, -0.772627, -0.922335, -1.4579, -0.628036, 1.06864, -0.256682, 0.0538782, 0.0227544, -0.119235, -0.0307836, -0.000736862, -0.000174587, 0.00170715, 1.60651, 15.9378, 18.332, 14.4205, 1.17206, 3.76895, -0.0951428, -0.00111834, -0.00160222, -0.000607099, -0.00116249, -0.012667, 0.00530773, 0.0265077, -0.00102206, 0.0153702, 0.0146657, 0.129832, 0.186878, -0.00965706, -0.445727, 0.632096, -3.12524, -0.0593415, -0.117929, -0.0108785, -0.444177, 0.632636, -3.12727, -0.0515896, -0.0981477, 0.0298187, -0.0192678, -0.0575331, 0.00229078, -0.0215106, -0.0442241
0.155063, 0.110157, -0.772611, -0.922459, -1.45795, -0.628036, 1.06864, -0.256687, 0.0588691, 0.021638, -0.119862, -0.0311513, -0.000266772, -0.000397375, 0.000392285, 1.49146, 16.0092, 18.2963, 14.4958, 1.16565, 3.77627, -0.0750012, -0.00114215, -0.00160138, -0.000617069, -0.00117085, -0.0128523, 0.00535811, 0.0250285, -0.000943644, 0.0155604, 0.0144595, 0.129771, 0.195581, -0.00962704, -0.445747, 0.632038, -3.12511, -0.0594156, -0.118133, -0.0108731, -0.444199, 0.632586, -3.12716, -0.051588, -0.098063, 0.0302108, -0.0194827, -0.0582119, 0.00413778, -0.0215977, -0.0446042
0.156063, 0.110209, -0.772584, -0.92259, -1.45798, -0.62804, 1.06864, -0.256689, 0.0580343, 0.0213187, -0.123211, -0.0310047, -0.000662233, -9.35801e-07, 2.42938e-05, 1.57081, 15.9378, 18.3716, 14.4205, 1.17847, 3.76895, -0.0685925, -0.00117312, -0.00159773, -0.00063089, -0.00119257, -0.0130439, 0.00543829, 0.026981, -0.00144974, 0.0154238, 0.0141792, 0.130564, 0.194776, -0.00959664, -0.445766, 0.631979, -3.12498, -0.0594907, -0.11834, -0.0108746, -0.444223, 0.632539, -3.12706, -0.0515407, -0.0979712, 0.0306049, -0.019698, -0.0588927, 0.00261455, -0.0223927, -0.0455793
0.157063, 0.110264, -0.772564, -0.922714, -1.45801, -0.62804, 1.06865, -0.256684, 0.0584532, 0.0222411, -0.121599, -0.0326974, -0.000889549, -6.08896e-06, 0.00072837, 1.60651, 15.9378, 18.2963, 14.4205, 1.19037, 3.76895, -0.0878186, -0.00120088, -0.00159674, -0.000645267, -0.00121209, -0.0132305, 0.00551201, 0.0260262, -0.00080536, 0.0160885, 0.0156569, 0.133671, 0.198952, -0.00956583, -0.445786, 0.63192, -3.12485, -0.0595666, -0.11855, -0.0108727, -0.444246, 0.632492, -3.12697, -0.0515043, -0.0978898, 0.0310012, -0.0199136, -0.0595756, 0.00388553, -0.021942, -0.0455229
0.158063, 0.110319, -0.772545, -0.922835, -1.45805, -0.628036, 1.06865, -0.256683, 0.0573504, 0.0197885, -0.12325, -0.0332622, 0.000520507, -8.15813e-06, 0.000485653, 1.57081, 15.9378, 18.2209, 14.3848, 1.16015, 3.76895, -0.0878186, -0.00122729, -0.001597, -0.000661237, -0.0012331, -0.0134154, 0.00557772, 0.0277357, -0.000703358, 0.0161074, 0.0147885, 0.131563, 0.200305, -0.00953463, -0.445806, 0.63186, -3.12472, -0.0596434, -0.118761, -0.0108692, -0.444267, 0.632446, -3.12687, -0.0514812, -0.0978135, 0.0313996, -0.0201295, -0.0602603, 0.00257339, -0.0221237, -0.0463217
0.159063, 0.110381, -0.772523, -0.922965, -1.45809, -0.628037, 1.06865, -0.256686, 0.0637558, 0.022009, -0.125734, -0.0360934, -9.78829e-05, -8.51287e-06, -0.00184632, 1.49146, 15.9021, 18.2963, 14.4601, 1.17206, 3.76895, -0.0292249, -0.0012531, -0.00159551, -0.000672543, -0.00124643, -0.0136143, 0.00563962, 0.0249188, -0.000959925, 0.0151244, 0.0128298, 0.13726, 0.21076, -0.00950303, -0.445826, 0.6318, -3.12458, -0.059721, -0.118976, -0.0108643, -0.44429, 0.632395, -3.12676, -0.0514654, -0.0977174, 0.0318, -0.0203457, -0.060947, 0.00586308, -0.0224783, -0.047781
0.160063, 0.11043, -0.772506, -0.923094, -1.45813, -0.628037, 1.06864, -0.256681, 0.0613477, 0.0195589, -0.124703, -0.041302, -6.83141e-05, -7.98083e-06, -1.01329e-05, 1.57081, 15.9021, 18.2606, 14.5355, 1.17206, 3.76895, -0.0621838, -0.00128519, -0.00159572, -0.000684265, -0.00125808, -0.0138122, 0.00571906, 0.0256569, -0.00017969, 0.0145244, 0.0118064, 0.139096, 0.212504, -0.00947103, -0.445847, 0.631738, -3.12445, -0.0597996, -0.119192, -0.0108653, -0.444311, 0.632343, -3.12665, -0.0514234, -0.0976251, 0.0322025, -0.0205621, -0.0616356, 0.0055437, -0.0219366, -0.0491181
0.161063, 0.110498, -0.77249, -0.923223, -1.45817, -0.628039, 1.06865, -0.25668, 0.0653978, 0.0208984, -0.124982, -0.0393474, -0.000726005, 0.000535485, 0.00145134, 1.41608, 15.9021, 18.2606, 14.4958, 1.19037, 3.7543, -0.101552, -0.00131105, -0.00159367, -0.000698832, -0.00128053, -0.0140046, 0.00578256, 0.0243644, -0.000358479, 0.0157262, 0.0145685, 0.140437, 0.216059, -0.00943863, -0.445867, 0.631676, -3.12431, -0.059879, -0.119411, -0.0108599, -0.444336, 0.632293, -3.12655, -0.0514065, -0.0975447, 0.032607, -0.0207789, -0.062326, 0.00714994, -0.0223055, -0.0485176
0.162063, 0.110552, -0.772471, -0.923357, -1.45822, -0.628039, 1.06865, -0.256681, 0.0604033, 0.0197813, -0.127282, -0.0408142, -0.000485724, -0.000186842, -0.000253122, 1.45576, 15.8624, 18.2209, 14.5712, 1.19037, 3.76895, -0.0685925, -0.00134224, -0.00159294, -0.000710298, -0.00129259, -0.0142075, 0.00585529, 0.0277323, -0.000185758, 0.0154149, 0.0130386, 0.141489, 0.214408, -0.00940582, -0.445888, 0.631614, -3.12417, -0.0599593, -0.119633, -0.0108592, -0.444359, 0.63224, -3.12644, -0.0513768, -0.0974495, 0.0330136, -0.0209959, -0.0630183, 0.00421601, -0.0224753, -0.0497802
0.163063, 0.110615, -0.772457, -0.923491, -1.45826, -0.628037, 1.06865, -0.256687, 0.0622477, 0.0200866, -0.126233, -0.0431193, 0.000115703, 0.000145734, -0.00138943, 1.41608, 15.9021, 18.1852, 14.5712, 1.17847, 3.76163, -0.0356336, -0.00137242, -0.00159157, -0.000722926, -0.00130734, -0.0144024, 0.00591753, 0.0262025, 0.000369999, 0.015701, 0.0135836, 0.143647, 0.222172, -0.0093726, -0.445909, 0.63155, -3.12403, -0.0600404, -0.119857, -0.0108571, -0.444383, 0.632187, -3.12633, -0.0513641, -0.0973695, 0.0334222, -0.0212132, -0.0637123, 0.00610351, -0.0220875, -0.0500685
0.164063, 0.11067, -0.772436, -0.923629, -1.45831, -0.628039, 1.06865, -0.256678, 0.0612951, 0.0207879, -0.127077, -0.044495, -0.000364642, -0.000174841, 0.00127777, 1.45576, 15.791, 18.2209, 14.5712, 1.19037, 3.76895, -0.0951428, -0.00140504, -0.00159031, -0.000735629, -0.00132197, -0.0146108, 0.00600568, 0.0268811, 0.000590384, 0.015798, 0.0136014, 0.146788, 0.220902, -0.00933897, -0.445931, 0.631486, -3.12389, -0.0601225, -0.120083, -0.0108571, -0.444407, 0.632133, -3.12621, -0.0513124, -0.0972708, 0.0338328, -0.0214307, -0.0644081, 0.00582017, -0.0221154, -0.050721
0.165063, 0.110733, -0.772426, -0.923758, -1.45835, -0.628035, 1.06864, -0.256683, 0.059362, 0.0199939, -0.124754, -0.04555, -0.00024382, 0.000425427, -0.000877472, 1.41608, 15.8624, 18.1455, 14.5712, 1.19037, 3.7543, -0.0484509, -0.00143461, -0.00159116, -0.00075058, -0.00133904, -0.0148063, 0.00606493, 0.0272649, 0.00129473, 0.0169407, 0.0162878, 0.14717, 0.226043, -0.00930493, -0.445952, 0.631421, -3.12375, -0.0602054, -0.120312, -0.0108539, -0.444429, 0.63208, -3.1261, -0.0513061, -0.097195, 0.0342455, -0.0216484, -0.0651057, 0.00573337, -0.0216662, -0.0503036
0.166063, 0.110794, -0.772405, -0.923903, -1.4584, -0.628036, 1.06865, -0.256684, 0.0606507, 0.019785, -0.131839, -0.0474831, 0.000277718, 1.19402e-05, 0.00355039, 1.38038, 15.791, 18.2963, 14.6069, 1.17847, 3.76163, -0.0356336, -0.00146633, -0.001589, -0.000760487, -0.00134871, -0.0150207, 0.00614023, 0.0289612, 0.000398492, 0.0149994, 0.0112379, 0.149355, 0.221263, -0.00927048, -0.445974, 0.631356, -3.1236, -0.0602893, -0.120544, -0.0108519, -0.444455, 0.632022, -3.12598, -0.0512764, -0.0970917, 0.0346601, -0.0218663, -0.0658049, 0.00463991, -0.0228155, -0.0530858
0.167063, 0.110851, -0.772388, -0.924036, -1.45846, -0.628037, 1.06865, -0.256676, 0.0547782, 0.0187113, -0.134695, -0.0483572, 0.000184737, 7.65237e-06, 0.00444653, 1.38038, 15.7513, 18.2209, 14.7577, 1.17847, 3.76163, -0.0814099, -0.00149576, -0.00158989, -0.000772023, -0.00136247, -0.015237, 0.00621596, 0.0330058, 0.000289998, 0.0148212, 0.0105442, 0.149978, 0.215282, -0.00923561, -0.445996, 0.63129, -3.12346, -0.060374, -0.120777, -0.0108474, -0.444477, 0.631965, -3.12587, -0.0512469, -0.096988, 0.0350768, -0.0220844, -0.0665058, 0.00104307, -0.0232962, -0.0542839
0.168063, 0.110908, -0.772373, -0.924172, -1.45851, -0.62804, 1.06865, -0.256671, 0.0548779, 0.0177361, -0.134727, -0.0498319, -0.000996126, 4.87076e-06, 0.00423583, 1.45576, 15.7156, 18.1852, 14.6823, 1.20868, 3.76163, -0.10796, -0.00153093, -0.00158946, -0.000788652, -0.00138618, -0.015446, 0.00630028, 0.0335516, 0.000470636, 0.0150572, 0.0113987, 0.151874, 0.218314, -0.00920033, -0.446018, 0.631223, -3.12331, -0.0604596, -0.121014, -0.0108486, -0.444502, 0.631912, -3.12576, -0.0512045, -0.0968988, 0.0354954, -0.0223027, -0.0672083, 0.000890918, -0.0233625, -0.0547963
0.169063, 0.110977, -0.772353, -0.924304, -1.45856, -0.628038, 1.06865, -0.256679, 0.059674, 0.0179086, -0.137015, -0.0538422, 0.000251214, 3.07406e-06, 0.000361222, 1.34071, 15.6442, 18.1098, 14.722, 1.18396, 3.76163, -0.0356336, -0.0015544, -0.00159121, -0.000802125, -0.0014015, -0.0156659, 0.0063483, 0.0314147, 0.000539075, 0.0137574, 0.00802826, 0.154892, 0.230421, -0.00916462, -0.446041, 0.631155, -3.12316, -0.0605461, -0.121253, -0.0108376, -0.444524, 0.631856, -3.12564, -0.0512198, -0.096795, 0.0359161, -0.0225212, -0.0679124, 0.00353626, -0.023413, -0.0566344
0.170063, 0.111038, -0.772339, -0.924441, -1.45861, -0.628039, 1.06865, -0.256678, 0.0601979, 0.0186784, -0.137081, -0.0519692, -7.00554e-05, 1.91954e-06, 0.00527706, 1.34071, 15.6799, 18.1098, 14.6823, 1.19037, 3.76163, -0.0420422, -0.00158747, -0.0015916, -0.000816648, -0.00141957, -0.0158797, 0.0064221, 0.0317751, 0.000636119, 0.0150617, 0.010506, 0.155708, 0.227423, -0.00912849, -0.446063, 0.631087, -3.12301, -0.0606336, -0.121494, -0.0108358, -0.444548, 0.6318, -3.12553, -0.050669, -0.096703, 0.0363387, -0.0227398, -0.068618, 0.00349336, -0.0235743, -0.0560718
0.171063, 0.111103, -0.77232, -0.924577, -1.45867, -0.628039, 1.06865, -0.256676, 0.0584826, 0.0188467, -0.140591, -0.052413, -4.68328e-05, 1.18231e-06, 0.00477198, 1.305, 15.6046, 18.1455, 14.722, 1.19037, 3.76163, -0.0621838, -0.00161486, -0.00159314, -0.000830111, -0.00143561, -0.0161053, 0.00648789, 0.0338915, 0.000301368, 0.0147448, 0.00938165, 0.157294, 0.226337, -0.00909194, -0.446086, 0.631018, -3.12286, -0.0607219, -0.121738, -0.0108278, -0.44457, 0.631742, -3.12541, -0.0506593, -0.096595, 0.0367632, -0.0229586, -0.0693252, 0.00184543, -0.0242067, -0.0572703
0.172063, 0.111158, -0.772305, -0.924713, -1.45874, -0.628038, 1.06865, -0.256673, 0.0554358, 0.0170119, -0.136074, -0.0556378, 0.00020604, 0.000271983, 0.00451173, 1.34071, 15.6046, 18.1098, 14.7577, 1.18396, 3.7543, -0.0878186, -0.00164771, -0.00159526, -0.000843825, -0.00145241, -0.0163295, 0.00656377, 0.0339457, 0.00164575, 0.0158199, 0.0119396, 0.158024, 0.231363, -0.00905497, -0.446109, 0.630949, -3.12271, -0.0608111, -0.121984, -0.0108249, -0.444593, 0.631684, -3.12529, -0.0506347, -0.0964919, 0.0371897, -0.0231774, -0.0700339, 0.00207949, -0.0231071, -0.0568979
0.173063, 0.111222, -0.772289, -0.924857, -1.4588, -0.628034, 1.06865, -0.256676, 0.0579581, 0.0187516, -0.136616, -0.0590792, 0.000340738, -9.00004e-05, 0.00234411, 1.305, 15.6046, 18.1098, 14.8331, 1.17847, 3.76163, -0.0621838, -0.00167813, -0.00159664, -0.000854367, -0.00145968, -0.0165571, 0.0066282, 0.0321542, 0.00205626, 0.0152965, 0.0104871, 0.163165, 0.240009, -0.00901756, -0.446132, 0.630878, -3.12255, -0.0609012, -0.122233, -0.0108189, -0.444616, 0.631621, -3.12516, -0.0506296, -0.0963855, 0.0376182, -0.0233964, -0.0707441, 0.00431497, -0.0228423, -0.057989
0.174063, 0.111284, -0.772278, -0.924995, -1.45886, -0.628035, 1.06865, -0.25667, 0.060015, 0.0193241, -0.135232, -0.0557857, -0.000451064, 0.000211226, 0.00272647, 1.26533, 15.6442, 18.0344, 14.7934, 1.19678, 3.7543, -0.0878186, -0.00171243, -0.00159786, -0.000870232, -0.00148065, -0.0167778, 0.00670762, 0.0317789, 0.00219196, 0.017418, 0.0150133, 0.16304, 0.243257, -0.00897973, -0.446156, 0.630807, -3.12239, -0.0609922, -0.122484, -0.0108168, -0.444641, 0.631563, -3.12504, -0.0506012, -0.096293, 0.0380486, -0.0236155, -0.0714557, 0.00494627, -0.022953, -0.0565597
0.175063, 0.111344, -0.772258, -0.925149, -1.45892, -0.628036, 1.06865, -0.256674, 0.0605432, 0.0194809, -0.140682, -0.0573789, 0.000377418, -0.000401748, 0.00150365, 1.26533, 15.5688, 18.1098, 14.7934, 1.17847, 3.76895, -0.0750012, -0.00174818, -0.00159776, -0.000880292, -0.00148726, -0.0170171, 0.00678657, 0.0332191, 0.00169608, 0.016079, 0.0109461, 0.165183, 0.244628, -0.00894147, -0.44618, 0.630735, -3.12224, -0.0610841, -0.122738, -0.0108151, -0.444666, 0.631499, -3.12491, -0.0505755, -0.0961733, 0.0384809, -0.0238347, -0.0721687, 0.00406581, -0.0237033, -0.0587335
0.176063, 0.111407, -0.772247, -0.925296, -1.45898, -0.628035, 1.06865, -0.256674, 0.0610224, 0.0158797, -0.145346, -0.0546137, -0.000189228, 3.41211e-06, 0.000139629, 1.26533, 15.6442, 18.1098, 14.7577, 1.19037, 3.76163, -0.0484509, -0.00178383, -0.00159848, -0.000892723, -0.00149984, -0.0172447, 0.00686157, 0.036613, 0.000663294, 0.0162608, 0.0110526, 0.161257, 0.243851, -0.00890277, -0.446204, 0.630663, -3.12208, -0.061177, -0.122995, -0.0108132, -0.444691, 0.631436, -3.12478, -0.0505564, -0.0960746, 0.0389151, -0.0240539, -0.0728831, 0.00114386, -0.0250925, -0.0595558
0.177063, 0.111468, -0.772237, -0.925427, -1.45905, -0.628033, 1.06865, -0.256675, 0.0622904, 0.0165006, -0.140908, -0.0588591, 0.000111184, 0.000273525, -0.000291226, 1.22962, 15.7156, 17.9987, 14.722, 1.18396, 3.7543, -0.0356336, -0.00181402, -0.00160292, -0.000909732, -0.00152273, -0.0174752, 0.00692354, 0.0338328, 0.00199277, 0.0169457, 0.0128431, 0.165146, 0.253837, -0.00886363, -0.446228, 0.630589, -3.12192, -0.0612707, -0.123253, -0.0108059, -0.444713, 0.631377, -3.12466, -0.0505583, -0.095975, 0.0393512, -0.0242732, -0.0735988, 0.0042405, -0.0238934, -0.0593553
0.178063, 0.111525, -0.772221, -0.925574, -1.45912, -0.628032, 1.06865, -0.256671, 0.0572457, 0.0188996, -0.141939, -0.0657618, 0.000514915, -0.000631465, 0.00109436, 1.305, 15.7156, 18.0741, 14.722, 1.17206, 3.77627, -0.0685925, -0.00185013, -0.0016055, -0.000921862, -0.00153225, -0.0177168, 0.00700624, 0.0346611, 0.00287976, 0.015466, 0.00915321, 0.173186, 0.252911, -0.00882406, -0.446252, 0.630515, -3.12175, -0.0613653, -0.123515, -0.0108035, -0.444736, 0.631312, -3.12452, -0.0505296, -0.0958592, 0.0397893, -0.0244926, -0.0743159, 0.00393203, -0.0232359, -0.0616053
0.179063, 0.111582, -0.772207, -0.925716, -1.45919, -0.628032, 1.06865, -0.25667, 0.0587441, 0.0198026, -0.138759, -0.0713811, 0.000343264, 0.000121548, 0.00101778, 1.305, 15.7513, 18.1098, 14.722, 1.17206, 3.76163, -0.0750012, -0.00188525, -0.00160855, -0.000936575, -0.00155071, -0.0179567, 0.00708245, 0.0318701, 0.00390996, 0.0154233, 0.00999696, 0.178426, 0.262294, -0.00878406, -0.446277, 0.630441, -3.12159, -0.0614609, -0.123779, -0.0108, -0.44476, 0.631249, -3.12439, -0.0505115, -0.0957495, 0.0402292, -0.0247119, -0.0750342, 0.0071119, -0.0223217, -0.0621344
0.180063, 0.111649, -0.772196, -0.925855, -1.45926, -0.628033, 1.06864, -0.256677, 0.06087, 0.0202513, -0.140673, -0.0706673, -0.000211977, -0.000732777, -0.00169084, 1.26533, 15.791, 18.0741, 14.6466, 1.18396, 3.7836, -0.00999879, -0.00191759, -0.0016124, -0.000952072, -0.00156836, -0.0181984, 0.00714161, 0.0321383, 0.00380377, 0.01573, 0.0098029, 0.180418, 0.267625, -0.00874361, -0.446302, 0.630365, -3.12142, -0.0615574, -0.124045, -0.0107934, -0.444783, 0.631187, -3.12426, -0.0505211, -0.0956397, 0.040671, -0.0249313, -0.0757538, 0.00726422, -0.0226676, -0.0625766
0.181063, 0.111708, -0.77218, -0.925999, -1.45933, -0.628032, 1.06865, -0.256672, 0.0603901, 0.0162923, -0.140845, -0.0743401, 6.21254e-05, 5.4011e-05, 0.000596802, 1.305, 15.7513, 18.1098, 14.6069, 1.17847, 3.76895, -0.0557752, -0.00195184, -0.00161579, -0.00096676, -0.00158621, -0.0184458, 0.00722132, 0.0330908, 0.00406708, 0.0152459, 0.00920777, 0.179304, 0.269384, -0.00870271, -0.446327, 0.630289, -3.12126, -0.0616548, -0.124315, -0.0107882, -0.444806, 0.631122, -3.12413, -0.0504997, -0.0955233, 0.0411146, -0.0251507, -0.0764746, 0.00678449, -0.022656, -0.0638573
0.182063, 0.111764, -0.772168, -0.926133, -1.45941, -0.628032, 1.06865, -0.256669, 0.0602348, 0.0144453, -0.139423, -0.0777836, 0.00027877, 0.000578538, 0.00136876, 1.34071, 15.791, 18.0741, 14.6069, 1.17206, 3.7543, -0.0814099, -0.00198444, -0.00162164, -0.00098322, -0.00160846, -0.0186942, 0.0072917, 0.0328299, 0.00470137, 0.0153213, 0.00968851, 0.180263, 0.274039, -0.00866138, -0.446352, 0.630212, -3.12109, -0.0617531, -0.124586, -0.0107811, -0.444827, 0.631059, -3.12401, -0.0504937, -0.0954083, 0.0415602, -0.0253701, -0.0771966, 0.00745603, -0.0222374, -0.0644789
