alisrour97/Franka_experiments/Real_Robot_scripts/servo-franka/Data4/log_dyn_INITw_ki_8.csv
Time,q1,q2,q3,q4,q5,q6,q7,dq1,dq2,dq3,dq4,dq5,dq6,dq7,t1,t2,t3,t4,t5,t6,t7,ex1,ex2,ex3,ex4,ex5,ex6,ev1,ev2,ev3,ev4,ev5,ev6,xd,yd,zd,uxd,uyd,uzd,x,y,z,ux,uy,uz,vxd,vyd,vzd,vx,vy,vz
4.88281e-07, 0.107651, -0.774335, -0.916467, -1.45693, -0.625334, 1.0703, -0.25675, 0.0023189, 0.00065876, 0.00393228, 0.000206414, 0.00500194, 0.000247303, 0.00114582, -0.43267, 16.0092, 19.8237, 16.8127, 1.11713, 3.17386, -0.127186, 0.000881497, -0.00162166, 0.000296617, 0.000366433, -0.000283015, 7.52593e-05, -0.00345094, 0.00123036, 0.00115805, 0.000547117, -0.00355695, 0.00645369, -0.011112, -0.444721, 0.635038, -3.13187, -0.0555627, -0.107532, -0.010279, -0.443069, 0.634807, -3.13151, -0.0558578, -0.107069, 0, 0, 0, 0.00331749, 0.00134098, 0.00139995
0.0120598, 0.107646, -0.774303, -0.916439, -1.45693, -0.625333, 1.0703, -0.256748, -0.000594822, -0.00130591, 0.000433136, -0.000219085, -0.000353036, -3.81195e-05, 0.00100719, -0.392998, 16.2314, 19.9705, 16.8484, 1.16015, 3.16653, -0.147328, 0.000898258, -0.00162796, 0.000287045, 0.000344705, -0.000311889, 6.08043e-05, 0.000549922, 4.78795e-05, 2.70955e-05, 0.000235999, -0.000895394, -0.00131026, -0.011112, -0.444721, 0.635038, -3.13187, -0.0555627, -0.107532, -0.0102549, -0.44306, 0.634823, -3.13154, -0.0559055, -0.107022, 1.73063e-06, 3.0097e-06, -3.96181e-06, -0.000550114, 3.12811e-05, -1.44137e-05
0.0130598, 0.107646, -0.774303, -0.916439, -1.45693, -0.625333, 1.0703, -0.256748, -0.000594822, -0.00130591, 0.000433136, -0.000219085, -0.000353036, -3.81195e-05, 0.00100719, -0.392998, 16.2314, 19.9705, 16.8484, 1.16015, 3.16653, -0.147328, 0.000898254, -0.00162796, 0.000287035, 0.000344685, -0.000311912, 6.0805e-05, 0.000554594, 3.91512e-05, 3.93517e-05, 0.000260637, -0.000892066, -0.00126358, -0.011112, -0.444721, 0.635038, -3.13187, -0.0555627, -0.107532, -0.0102549, -0.44306, 0.634823, -3.13154, -0.0559055, -0.107022, 6.91577e-06, 1.20019e-05, -1.58141e-05, -0.000550114, 3.12811e-05, -1.44137e-05
0.0140598, 0.107646, -0.774303, -0.916439, -1.45693, -0.625333, 1.0703, -0.256748, -0.000594822, -0.00130591, 0.000433136, -0.000219085, -0.000353036, -3.81195e-05, 0.00100719, -0.392998, 16.2314, 19.9705, 16.8484, 1.16015, 3.16653, -0.147328, 0.000898244, -0.00162794, 0.000287009, 0.00034463, -0.000311975, 6.08068e-05, 0.00056237, 2.46707e-05, 5.97167e-05, 0.000301551, -0.000886513, -0.00118603, -0.011112, -0.444721, 0.635038, -3.13187, -0.0555627, -0.107532, -0.0102549, -0.44306, 0.634823, -3.13154, -0.0559055, -0.107022, 1.55453e-05, 2.69215e-05, -3.55071e-05, -0.000550114, 3.12811e-05, -1.44137e-05
0.0150598, 0.107646, -0.774303, -0.916439, -1.45693, -0.625333, 1.0703, -0.256748, -0.000594822, -0.00130591, 0.000433136, -0.000219085, -0.000353036, -3.81195e-05, 0.00100719, -0.392998, 16.2314, 19.9705, 16.8484, 1.16015, 3.16653, -0.147328, 0.000898225, -0.0016279, 0.000286959, 0.000344525, -0.000312097, 6.08102e-05, 0.000573241, 4.49231e-06, 8.81398e-05, 0.000358621, -0.00087873, -0.00107782, -0.011112, -0.444721, 0.635038, -3.13187, -0.0555628, -0.107532, -0.0102549, -0.44306, 0.634823, -3.13154, -0.0559055, -0.107022, 2.7609e-05, 4.77135e-05, -6.29913e-05, -0.000550114, 3.12811e-05, -1.44137e-05
0.0160598, 0.107646, -0.774303, -0.916439, -1.45693, -0.625333, 1.0703, -0.256748, -0.000594822, -0.00130591, 0.000433136, -0.000219085, -0.000353036, -3.81195e-05, 0.00100719, -0.392998, 16.2314, 19.9705, 16.8484, 1.16015, 3.16653, -0.147328, 0.000898193, -0.00162784, 0.000286877, 0.000344351, -0.000312297, 6.0816e-05, 0.000587199, -2.13299e-05, 0.000124571, 0.000431726, -0.000868713, -0.000939149, -0.0111119, -0.444721, 0.635038, -3.13187, -0.0555628, -0.107532, -0.0102549, -0.44306, 0.634823, -3.13154, -0.0559055, -0.107022, 4.30968e-05, 7.4323e-05, -9.82172e-05, -0.000550114, 3.12811e-05, -1.44137e-05
0.0170598, 0.107646, -0.774303, -0.916439, -1.45693, -0.625333, 1.0703, -0.256748, -0.000594822, -0.00130591, 0.000433136, -0.000219085, -0.000353036, -3.81195e-05, 0.00100719, -0.392998, 16.2314, 19.9705, 16.8484, 1.16015, 3.16653, -0.147328, 0.000898146, -0.00162775, 0.000286755, 0.000344092, -0.000312595, 6.08246e-05, 0.000604234, -5.27419e-05, 0.000168959, 0.000520747, -0.000856457, -0.000770218, -0.0111119, -0.444721, 0.635038, -3.13187, -0.0555628, -0.107533, -0.0102549, -0.44306, 0.634823, -3.13154, -0.0559055, -0.107022, 6.19987e-05, 0.000106695, -0.000141136, -0.000550114, 3.12811e-05, -1.44137e-05
0.0180598, 0.107646, -0.774303, -0.916439, -1.45693, -0.625333, 1.0703, -0.256748, -0.000594822, -0.00130591, 0.000433136, -0.000219085, -0.000353036, -3.81195e-05, 0.00100719, -0.392998, 16.2314, 19.9705, 16.8484, 1.16015, 3.16653, -0.147328, 0.00089808, -0.00162763, 0.000286584, 0.000343732, -0.00031301, 6.08367e-05, 0.000624339, -8.96899e-05, 0.000221254, 0.000625563, -0.000841958, -0.00057123, -0.0111118, -0.44472, 0.635037, -3.13187, -0.0555628, -0.107533, -0.0102549, -0.44306, 0.634823, -3.13154, -0.0559055, -0.107022, 8.43044e-05, 0.000144776, -0.000191697, -0.000550114, 3.12811e-05, -1.44137e-05
0.0190598, 0.107646, -0.774303, -0.916439, -1.45693, -0.625333, 1.0703, -0.256748, -0.000594822, -0.00130591, 0.000433136, -0.000219085, -0.000353036, -3.81195e-05, 0.00100719, -0.392998, 16.2314, 19.9705, 16.8484, 1.16015, 3.16653, -0.147328, 0.000897993, -0.00162747, 0.000286358, 0.000343253, -0.000313562, 6.08529e-05, 0.000647505, -0.00013212, 0.000281407, 0.000746054, -0.000825209, -0.000342387, -0.0111117, -0.44472, 0.635037, -3.13187, -0.0555629, -0.107534, -0.0102549, -0.44306, 0.634823, -3.13154, -0.0559055, -0.107022, 0.000110004, 0.000188511, -0.000249853, -0.000550114, 3.12811e-05, -1.44137e-05
0.0200598, 0.107646, -0.774303, -0.916439, -1.45693, -0.625333, 1.0703, -0.256748, -0.000594822, -0.00130591, 0.000433136, -0.000219085, -0.000353036, -3.81195e-05, 0.00100719, -0.392998, 16.2314, 19.9705, 16.8484, 1.16015, 3.16653, -0.147328, 0.000897881, -0.00162726, 0.000286068, 0.000342641, -0.000314268, 6.08738e-05, 0.000673723, -0.00017998, 0.000349366, 0.000882102, -0.000806208, -8.38906e-05, -0.0111116, -0.44472, 0.635037, -3.13187, -0.0555629, -0.107535, -0.0102549, -0.44306, 0.634823, -3.13154, -0.0559055, -0.107022, 0.000139087, 0.000237846, -0.000315553, -0.000550114, 3.12811e-05, -1.44137e-05
0.0210598, 0.107646, -0.774303, -0.916439, -1.45693, -0.625333, 1.0703, -0.256748, -0.000594822, -0.00130591, 0.000433136, -0.000219085, -0.000353036, -3.81195e-05, 0.00100719, -0.392998, 16.2314, 19.9705, 16.8484, 1.16015, 3.16653, -0.147328, 0.000897741, -0.00162701, 0.000285706, 0.000341878, -0.000315148, 6.09001e-05, 0.000702985, -0.000233214, 0.000425082, 0.00103359, -0.000784948, 0.000204059, -0.0111114, -0.44472, 0.635037, -3.13186, -0.055563, -0.107537, -0.0102549, -0.44306, 0.634823, -3.13154, -0.0559055, -0.107022, 0.000171544, 0.000292726, -0.00038875, -0.000550114, 3.12811e-05, -1.44137e-05
0.0220598, 0.107627, -0.774296, -0.916453, -1.45693, -0.625348, 1.0703, -0.256748, -0.00415189, -0.000947654, -0.00248728, 0.000988546, -0.000870917, 5.66841e-05, 0.00114468, -0.166862, 16.1203, 20.1926, 16.8127, 1.25171, 3.16653, -0.147328, 0.000883146, -0.00162326, 0.000288144, 0.000343648, -0.000335104, 9.86908e-05, 0.00347734, -0.000908556, 0.000174621, 0.000566847, -0.000735087, -0.0062574, -0.0111112, -0.444719, 0.635036, -3.13186, -0.055563, -0.107538, -0.0102689, -0.443064, 0.634819, -3.13154, -0.055847, -0.106992, 0.000207364, 0.000353099, -0.000469394, -0.00323914, -0.00067868, -0.000539691
0.0230598, 0.107627, -0.7743, -0.916454, -1.45693, -0.625353, 1.0703, -0.256757, -0.0100158, -0.000720499, -2.05279e-05, 0.00158722, -0.000340599, 3.77893e-05, -0.00116979, -0.131157, 16.1203, 20.1212, 16.7731, 1.2453, 3.16653, -0.0951428, 0.000881004, -0.00162234, 0.000289301, 0.000343547, -0.000338716, 9.11876e-05, 0.0052614, -0.000309729, 0.00133438, 0.00284546, -0.00141541, -0.00762206, -0.011111, -0.444719, 0.635036, -3.13186, -0.0555631, -0.10754, -0.0102707, -0.443064, 0.634818, -3.13154, -0.0558588, -0.106988, 0.000246538, 0.00041891, -0.000557437, -0.00507944, -8.71673e-05, 0.000410378
0.0240598, 0.107627, -0.7743, -0.916454, -1.45693, -0.625353, 1.0703, -0.256757, -0.0100158, -0.000720499, -2.05279e-05, 0.00158722, -0.000340599, 3.77893e-05, -0.00116979, -0.131157, 16.1203, 20.1212, 16.7731, 1.2453, 3.16653, -0.0951428, 0.000880762, -0.0016219, 0.00028868, 0.000342236, -0.000340229, 9.12338e-05, 0.00529974, -0.000378771, 0.00143307, 0.00304255, -0.00138736, -0.00724695, -0.0111107, -0.444719, 0.635035, -3.13186, -0.0555632, -0.107542, -0.0102707, -0.443064, 0.634818, -3.13154, -0.0558588, -0.106988, 0.000289055, 0.000490107, -0.00065283, -0.00507944, -8.71673e-05, 0.000410378
0.0250598, 0.107627, -0.7743, -0.916454, -1.45693, -0.625353, 1.0703, -0.256757, -0.0100158, -0.000720499, -2.05279e-05, 0.00158722, -0.000340599, 3.77893e-05, -0.00116979, -0.131157, 16.1203, 20.1212, 16.7731, 1.2453, 3.16653, -0.0951428, 0.000880481, -0.00162138, 0.000287956, 0.000340711, -0.00034199, 9.12879e-05, 0.00534109, -0.000452976, 0.00153933, 0.00325462, -0.00135703, -0.00684319, -0.0111104, -0.444718, 0.635034, -3.13186, -0.0555634, -0.107545, -0.0102707, -0.443064, 0.634818, -3.13154, -0.0558588, -0.106988, 0.000334905, 0.000566635, -0.000755525, -0.00507944, -8.71673e-05, 0.000410378
0.0260598, 0.10764, -0.774303, -0.916486, -1.45694, -0.625365, 1.0703, -0.256758, -0.00127544, -0.0022658, -0.00726775, -0.00346101, -0.00879567, -0.00119067, 0.00188452, -0.317619, 15.791, 19.8951, 16.2494, 1.15375, 3.20956, -0.0228162, 0.000874496, -0.00161364, 0.00029991, 0.000362382, -0.000359065, 0.00010229, 0.00506473, -0.0026279, -0.00237817, -0.0020543, 0.00783589, -0.00772374, -0.0111101, -0.444717, 0.635033, -3.13186, -0.0555635, -0.107548, -0.0102752, -0.443072, 0.634804, -3.13151, -0.0558427, -0.106963, 0.000384079, 0.000648441, -0.000865474, -0.004409, -0.00213542, -0.00360219
0.0270598, 0.107641, -0.774301, -0.916494, -1.45695, -0.625371, 1.0703, -0.256754, -0.00110689, -0.00259278, -0.00717314, -0.00394366, -0.0114721, 0.00335327, 0.00259639, -0.317619, 15.6799, 19.8237, 16.1383, 1.15375, 3.22421, -0.0484509, 0.000873287, -0.00161089, 0.000303333, 0.000364732, -0.00037291, 0.000109922, 0.00504846, -0.00380733, -0.00199486, 0.00305219, 0.00759225, -0.00876994, -0.0111097, -0.444717, 0.635033, -3.13186, -0.0555637, -0.107552, -0.0102757, -0.443074, 0.6348, -3.13151, -0.0558312, -0.106944, 0.000436566, 0.000735474, -0.000982628, -0.00432443, -0.00322976, -0.00334314
0.0280598, 0.107635, -0.774309, -0.916499, -1.45696, -0.625381, 1.0703, -0.256753, -0.00269361, -0.00324567, -0.00939702, -0.00109974, -0.00915922, 0.00289758, 0.00229515, -0.242241, 15.7156, 19.7086, 16.0272, 1.16565, 3.21689, -0.0557752, 0.000866455, -0.00160816, 0.000306031, 0.000364033, -0.000378726, 0.000120225, 0.00689901, -0.00413015, -0.0016482, 0.00210297, 0.00369483, -0.0116066, -0.0111092, -0.444716, 0.635032, -3.13185, -0.0555639, -0.107556, -0.0102818, -0.443076, 0.634796, -3.13151, -0.0558154, -0.106939, 0.000492356, 0.000827679, -0.00110694, -0.00612587, -0.00352824, -0.00325078
0.0290598, 0.107641, -0.774316, -0.916509, -1.45697, -0.625392, 1.07031, -0.256757, -0.000176841, -0.00351045, -0.0105746, -0.00237019, -0.0134185, 0.00354725, 0.000529111, -0.317619, 15.7513, 19.7086, 16.0629, 1.21509, 3.18118, -0.0228162, 0.000864859, -0.00160327, 0.000312584, 0.000366648, -0.000391065, 0.000116587, 0.00680181, -0.0050502, -0.00226348, 0.00315653, 0.00726698, -0.0090996, -0.0111087, -0.444715, 0.63503, -3.13185, -0.0555641, -0.10756, -0.0102822, -0.44308, 0.634788, -3.1315, -0.0558214, -0.106924, 0.000551439, 0.000925004, -0.00123836, -0.00589492, -0.00434165, -0.00399505
0.0300598, 0.107638, -0.774319, -0.916521, -1.45698, -0.6254, 1.07032, -0.256749, -0.00106136, -0.00272389, -0.0105855, 0.000416966, -0.0108532, 0.00390708, 0.00319629, -0.281914, 15.7513, 19.6729, 15.9518, 1.23981, 3.14548, -0.0951428, 0.000858543, -0.00159853, 0.000315803, 0.000366436, -0.000398316, 0.000137138, 0.00705126, -0.00505652, -0.00118604, 0.00428465, 0.00414805, -0.0123155, -0.0111081, -0.444714, 0.635029, -3.13185, -0.0555643, -0.107565, -0.0102875, -0.443084, 0.634783, -3.1315, -0.0557897, -0.106918, 0.000613805, 0.0010274, -0.00137684, -0.00615478, -0.00426362, -0.00307588
0.0310598, 0.107641, -0.774323, -0.916532, -1.45699, -0.625411, 1.07032, -0.256755, 4.64528e-05, -0.00625953, -0.0121936, -0.00110106, -0.00889494, 0.00385466, 0.000287763, -0.317619, 15.791, 19.7086, 15.9915, 1.26453, 3.11618, -0.0420422, 0.000855249, -0.00159404, 0.000321608, 0.000370762, -0.000413765, 0.000135851, 0.00752067, -0.00525092, -0.0021247, 0.00145243, 0.000277302, -0.00723048, -0.0111074, -0.444713, 0.635028, -3.13184, -0.0555646, -0.10757, -0.0102896, -0.443087, 0.634775, -3.13149, -0.0557923, -0.106899, 0.000679445, 0.00113481, -0.00152234, -0.00648595, -0.0043589, -0.0041913
0.0320598, 0.107641, -0.774329, -0.916541, -1.457, -0.625418, 1.07032, -0.256751, -2.99234e-05, -0.00632822, -0.0116421, -0.00424152, -0.00577586, 0.00269343, 0.00150524, -0.317619, 15.8624, 19.6729, 15.9915, 1.2453, 3.11618, -0.0750012, 0.000851108, -0.00159023, 0.000325485, 0.000373182, -0.000422852, 0.000144756, 0.00631985, -0.00448918, -0.00287007, -0.00201399, 0.000497464, -0.0043964, -0.0111067, -0.444712, 0.635026, -3.13184, -0.0555649, -0.107577, -0.0102926, -0.44309, 0.63477, -3.13149, -0.0557789, -0.10689, 0.000748347, 0.00124718, -0.0016748, -0.00519595, -0.00343662, -0.00500016
0.0330598, 0.107638, -0.774331, -0.916546, -1.45702, -0.625431, 1.07033, -0.25675, -0.000900836, -0.00458238, -0.0103223, -0.0105141, -0.00919231, 0.00239698, 0.000360935, -0.281914, 15.8624, 19.5975, 16.0272, 1.25171, 3.10245, -0.0557752, 0.000848009, -0.00158634, 0.000328973, 0.000369707, -0.000441678, 0.000151174, 0.00521112, -0.00423224, -0.00417746, -0.00289456, 0.009045, -0.000909232, -0.0111059, -0.444711, 0.635024, -3.13184, -0.0555653, -0.107583, -0.0102945, -0.443093, 0.634764, -3.13149, -0.0557692, -0.106868, 0.000820503, 0.00136446, -0.00183418, -0.00393801, -0.00301226, -0.00638606
0.0340598, 0.10764, -0.774337, -0.916559, -1.45703, -0.625443, 1.07033, -0.256754, -0.000634809, -0.00509084, -0.0120753, -0.00968879, -0.00615439, 0.00061638, -0.0011653, -0.281914, 15.9378, 19.6372, 16.1026, 1.2334, 3.13083, -0.0164075, 0.000842929, -0.00158156, 0.00033485, 0.000375342, -0.000457982, 0.000154198, 0.00564539, -0.00408854, -0.00443614, -0.00616334, 0.00672901, 0.00123437, -0.0111051, -0.444709, 0.635022, -3.13183, -0.0555656, -0.10759, -0.0102982, -0.443096, 0.634756, -3.13148, -0.0557652, -0.106849, 0.000895902, 0.00148661, -0.00200043, -0.00428298, -0.00275954, -0.00683937
0.0350598, 0.107641, -0.77434, -0.916568, -1.45704, -0.625451, 1.07033, -0.25675, 0.00663886, -0.00443362, -0.0114277, -0.00621828, -0.0083632, -7.94491e-05, 0.000449033, -0.317619, 15.9735, 19.5975, 16.0629, 1.20868, 3.14548, -0.0484509, 0.000838879, -0.0015771, 0.000337063, 0.000374095, -0.000469676, 0.000164722, 0.00332524, -0.00460367, -0.00327113, -0.0035246, 0.00721919, 0.00520609, -0.0111041, -0.444708, 0.63502, -3.13183, -0.055566, -0.107598, -0.010301, -0.443099, 0.634751, -3.13148, -0.0557492, -0.106839, 0.000974534, 0.00161356, -0.00217351, -0.00195249, -0.00307581, -0.00569398
0.0360598, 0.10764, -0.774335, -0.91658, -1.45705, -0.625466, 1.07034, -0.256757, 0.00409247, -0.00455044, -0.011849, -0.00558887, -0.0106059, -0.000285109, -0.0105003, -0.281914, 15.9021, 19.5975, 16.1026, 1.19678, 3.1528, -0.00999879, 0.000835088, -0.00157151, 0.000341434, 0.00037354, -0.000498196, 0.000168868, 0.00528609, -0.00500716, -0.00295813, -0.00209828, 0.0085524, 0.0126016, -0.0111031, -0.444706, 0.635018, -3.13182, -0.0555664, -0.107607, -0.0103032, -0.443103, 0.634745, -3.13148, -0.0557434, -0.106803, 0.00105639, 0.00174526, -0.00235336, -0.00383265, -0.00341899, -0.00569891
0.0370598, 0.107641, -0.774335, -0.916591, -1.45707, -0.625479, 1.07034, -0.256753, 0.00310465, -0.00340797, -0.00814025, -0.0121966, -0.0118909, -0.00016073, -0.00606648, -0.281914, 15.9021, 19.5618, 16.178, 1.17206, 3.1528, -0.0557752, 0.000832664, -0.00156654, 0.000346575, 0.000374755, -0.000522728, 0.00017756, 0.00312456, -0.00412806, -0.00364136, -0.00217997, 0.0147895, 0.0135145, -0.011102, -0.444704, 0.635016, -3.13182, -0.0555669, -0.107616, -0.010304, -0.443106, 0.634737, -3.13147, -0.0557305, -0.106773, 0.00114146, 0.00188168, -0.00253994, -0.00157706, -0.0023221, -0.00641308
0.0380598, 0.107641, -0.774335, -0.916598, -1.45708, -0.625499, 1.07035, -0.256755, 0.00235202, -0.00255274, -0.0107711, -0.0129434, -0.0097356, 0.00474639, -0.00536161, -0.281914, 15.9021, 19.4864, 16.2137, 1.19037, 3.1528, -0.0356336, 0.000828913, -0.00156027, 0.00034919, 0.000365352, -0.000548972, 0.000183604, 0.00302394, -0.00533444, -0.00393246, -0.00050552, 0.0121971, 0.0122311, -0.0111008, -0.444702, 0.635013, -3.13181, -0.0555674, -0.107626, -0.0103062, -0.443111, 0.634731, -3.13147, -0.0557215, -0.106743, 0.00122973, 0.00202275, -0.00273321, -0.00132545, -0.00338053, -0.00689738
0.0390598, 0.107646, -0.77434, -0.916619, -1.45709, -0.625512, 1.07036, -0.256756, 0.00261492, -0.00358284, -0.0140938, -0.013387, -0.0114099, 0.00805786, -0.00400288, -0.317619, 15.9735, 19.5975, 16.2494, 1.17206, 3.15921, -0.0356336, 0.000822577, -0.00155243, 0.000356389, 0.000370843, -0.000569026, 0.000193804, 0.00425636, -0.00691411, -0.00456147, 0.0010155, 0.0112741, 0.00881675, -0.0110996, -0.4447, 0.63501, -3.1318, -0.055568, -0.107637, -0.0103104, -0.443117, 0.634721, -3.13146, -0.0557065, -0.106722, 0.00132119, 0.00216842, -0.00293311, -0.00236322, -0.00485138, -0.00781942
0.0400598, 0.107652, -0.77434, -0.916626, -1.45711, -0.625531, 1.07036, -0.256752, 0.00283006, -0.00254648, -0.0120254, -0.0139104, -0.0135904, 0.00526511, -0.00298995, -0.357292, 15.9735, 19.5261, 16.2891, 1.17847, 3.18118, -0.0356336, 0.000821135, -0.00154693, 0.000360088, 0.000367687, -0.000599791, 0.000198598, 0.00388141, -0.0063509, -0.00413198, 0.00109774, 0.0156811, 0.00962471, -0.0110982, -0.444698, 0.635007, -3.1318, -0.0555686, -0.107648, -0.0103101, -0.44312, 0.634714, -3.13146, -0.0556997, -0.106685, 0.00141584, 0.00231864, -0.0031396, -0.00194423, -0.00412882, -0.00756823
0.0410598, 0.107649, -0.77434, -0.916642, -1.45713, -0.625549, 1.07036, -0.256757, 0.000242545, -0.00265132, -0.0131622, -0.0151589, -0.0146228, 0.00298916, -0.00416709, -0.281914, 16.0092, 19.5618, 16.3644, 1.17206, 3.20956, 0.0165515, 0.000814215, -0.00154044, 0.000366368, 0.000371003, -0.000632763, 0.000207372, 0.00569381, -0.00628214, -0.00474114, -0.00123828, 0.0184223, 0.00833686, -0.0110967, -0.444695, 0.635004, -3.13179, -0.0555692, -0.107661, -0.0103148, -0.443124, 0.634704, -3.13145, -0.055687, -0.106646, 0.00151366, 0.00247337, -0.00335263, -0.00361407, -0.00396382, -0.00851327
0.0420598, 0.10765, -0.77434, -0.916654, -1.45714, -0.62557, 1.07037, -0.256749, -0.000677017, -0.00185638, -0.0152412, -0.0133196, -0.020014, 0.00157666, -0.000280061, -0.242241, 16.0092, 19.5261, 16.3248, 1.16015, 3.23153, -0.0557752, 0.000808546, -0.00153234, 0.000369237, 0.000361503, -0.000662026, 0.000228935, 0.00820576, -0.0072715, -0.00461103, 0.000181228, 0.0229742, -0.000720445, -0.0110952, -0.444693, 0.635, -3.13178, -0.0555699, -0.107674, -0.0103184, -0.44313, 0.634697, -3.13146, -0.055654, -0.106613, 0.00161465, 0.00263255, -0.00357216, -0.00599108, -0.00488281, -0.00878207
0.0430598, 0.107654, -0.774334, -0.91667, -1.45715, -0.625592, 1.07037, -0.25675, 0.000543654, 0.000366222, -0.0147505, -0.0154442, -0.0240461, 0.00134938, -0.000830906, -0.281914, 15.9378, 19.5261, 16.2891, 1.14734, 3.23153, -0.0420422, 0.000804143, -0.00152433, 0.000373503, 0.00035798, -0.00070056, 0.000239674, 0.00729982, -0.00760503, -0.00485967, 0.00143916, 0.029802, 0.00146267, -0.0110935, -0.44469, 0.634997, -3.13177, -0.0555706, -0.107688, -0.0103206, -0.443135, 0.634689, -3.13145, -0.0556382, -0.106567, 0.00171879, 0.00279613, -0.00379814, -0.00495472, -0.00501846, -0.00919598
0.0440598, 0.107651, -0.774337, -0.916683, -1.45717, -0.62561, 1.07038, -0.256749, -0.00135057, -0.000641039, -0.0165758, -0.0172187, -0.0221344, 0.00112328, -0.000418258, -0.206535, 15.9735, 19.4864, 16.4001, 1.12903, 3.23153, -0.0484509, 0.000797985, -0.00151684, 0.000379074, 0.000355152, -0.00073266, 0.000251425, 0.00840713, -0.00772333, -0.0056795, -0.00124227, 0.0287644, 0.000511849, -0.0110917, -0.444687, 0.634993, -3.13176, -0.0555714, -0.107702, -0.0103243, -0.44314, 0.634679, -3.13145, -0.0556208, -0.106532, 0.00182607, 0.00296406, -0.00403052, -0.00589096, -0.00500054, -0.0103233
0.0450598, 0.107651, -0.774342, -0.916697, -1.45719, -0.625636, 1.07039, -0.256749, -0.00179072, -0.00222807, -0.0125389, -0.0190085, -0.021121, 0.000645363, -0.000355098, -0.166862, 16.0489, 19.4864, 16.4001, 1.12262, 3.23886, -0.0484509, 0.000789399, -0.00150767, 0.000382874, 0.000345875, -0.00076345, 0.000266418, 0.00736639, -0.00681742, -0.00491626, -8.91356e-05, 0.0277095, 0.00542652, -0.0110899, -0.444684, 0.634989, -3.13175, -0.0555722, -0.107718, -0.0103304, -0.443146, 0.63467, -3.13145, -0.0555982, -0.1065, 0.00193648, 0.00313629, -0.00426926, -0.0048275, -0.00389298, -0.00972348
0.0460598, 0.107655, -0.774342, -0.916711, -1.4572, -0.625657, 1.0704, -0.256755, 0.00292211, -0.00151349, -0.0117994, -0.0165472, -0.0193958, 0.00474442, -0.00222671, -0.206535, 16.0489, 19.4507, 16.3644, 1.09241, 3.25259, 0.00373412, 0.000783898, -0.00149852, 0.000386034, 0.000337435, -0.000795939, 0.000271986, 0.00467178, -0.00765325, -0.00345761, 0.0047684, 0.0235204, 0.0130863, -0.0110879, -0.444681, 0.634984, -3.13174, -0.0555731, -0.107735, -0.0103333, -0.443153, 0.634662, -3.13145, -0.0555903, -0.106466, 0.00205002, 0.00331277, -0.00451432, -0.00209753, -0.00446965, -0.00833329
0.0470598, 0.107649, -0.77434, -0.91673, -1.45722, -0.625684, 1.0704, -0.25675, -0.000458688, -0.00103007, -0.0160156, -0.0154285, -0.019146, 0.00777741, 0.000168054, -0.0914839, 16.0489, 19.4864, 16.3644, 1.086, 3.26724, -0.0420422, 0.000772949, -0.00148825, 0.00039054, 0.00032943, -0.000837009, 0.000302203, 0.00734004, -0.00913742, -0.00366937, 0.00595427, 0.0218083, 0.00463958, -0.0110858, -0.444678, 0.63498, -3.13173, -0.055574, -0.107752, -0.0103415, -0.44316, 0.634653, -3.13145, -0.0555442, -0.106419, 0.00216668, 0.00349346, -0.00476563, -0.0045736, -0.00586414, -0.00898901
0.0480598, 0.107655, -0.774341, -0.916742, -1.45723, -0.62571, 1.07041, -0.256754, 0.0008356, -0.000702527, -0.0175738, -0.0129285, -0.0184855, 0.00542992, -0.00110693, -0.131157, 16.0489, 19.4507, 16.2891, 1.06769, 3.28097, -0.00999879, 0.000767717, -0.00147869, 0.000392179, 0.000315378, -0.000872533, 0.000308126, 0.00791752, -0.00929794, -0.00331685, 0.00448258, 0.0213534, 0.00606019, -0.0110835, -0.444674, 0.634975, -3.13172, -0.055575, -0.107771, -0.010344, -0.443166, 0.634646, -3.13146, -0.0555357, -0.106383, 0.00228643, 0.0036783, -0.00502317, -0.00504799, -0.00586307, -0.00893583
0.0490598, 0.107656, -0.774337, -0.916768, -1.45724, -0.625737, 1.07042, -0.256757, 0.000717096, 0.00128303, -0.0198483, -0.0121826, -0.0182502, 0.00337135, -0.00174543, -0.131157, 15.9735, 19.5975, 16.2494, 1.05578, 3.30295, 0.0165515, 0.000757906, -0.00146601, 0.000397356, 0.000307328, -0.000915973, 0.000330099, 0.00853597, -0.00951928, -0.00356739, 0.0022344, 0.0238971, 0.00560843, -0.0110812, -0.44467, 0.634969, -3.13171, -0.0555761, -0.10779, -0.0103506, -0.443175, 0.634635, -3.13146, -0.0555026, -0.106335, 0.00240928, 0.00386724, -0.00528689, -0.00551658, -0.00591486, -0.00949367
0.0500598, 0.107664, -0.774342, -0.916775, -1.45727, -0.625765, 1.07043, -0.256748, 0.00236132, -0.001752, -0.0151587, -0.0150432, -0.0183093, 0.00762864, 0.00173441, -0.206535, 16.0846, 19.4864, 16.3644, 1.04938, 3.29562, -0.0621838, 0.000755075, -0.00145639, 0.000400213, 0.000291835, -0.00095392, 0.000339733, 0.00630432, -0.00951023, -0.00261325, 0.00759208, 0.0205165, 0.00984341, -0.0110787, -0.444666, 0.634964, -3.1317, -0.0555772, -0.107811, -0.0103504, -0.443181, 0.634626, -3.13146, -0.0554884, -0.106297, 0.00253522, 0.00406024, -0.00555673, -0.0032314, -0.00564262, -0.00865811
0.0510598, 0.107664, -0.774339, -0.916796, -1.45728, -0.625791, 1.07044, -0.256756, 0.000736213, -0.00033945, -0.0188168, -0.0134055, -0.022298, 0.00447175, -0.00153606, -0.166862, 16.0489, 19.5261, 16.3248, 1.02466, 3.33133, 0.0101428, 0.000745222, -0.00144513, 0.000403485, 0.000283288, -0.000997146, 0.000353887, 0.00934202, -0.0103193, -0.00304412, 0.00595266, 0.0257206, 0.00703197, -0.0110761, -0.444662, 0.634958, -3.13168, -0.0555784, -0.107832, -0.010357, -0.443188, 0.634616, -3.13146, -0.0554675, -0.106251, 0.00266423, 0.00425725, -0.00583265, -0.00607248, -0.0063572, -0.00957848
0.0520598, 0.107662, -0.774334, -0.91681, -1.45729, -0.625824, 1.07045, -0.256749, -0.00120492, 0.000696717, -0.0163147, -0.0132252, -0.0218012, 0.00700446, 0.00140718, -0.0914839, 16.0092, 19.4864, 16.3248, 1.03107, 3.36703, -0.0557752, 0.000736259, -0.00143387, 0.000404394, 0.000264333, -0.00104692, 0.000383177, 0.00887016, -0.0103701, -0.00166501, 0.0104218, 0.0249498, 0.00530617, -0.0110734, -0.444658, 0.634952, -3.13167, -0.0555796, -0.107855, -0.0103628, -0.443195, 0.634609, -3.13147, -0.0554229, -0.106197, 0.0027963, 0.00445821, -0.00611461, -0.00556274, -0.00620245, -0.0084527
0.0530598, 0.10766, -0.774339, -0.916824, -1.45731, -0.625852, 1.07046, -0.256752, -0.00158786, -0.00130251, -0.0146271, -0.0178511, -0.0253185, 0.00465552, -5.28564e-05, -0.0557783, 16.0846, 19.4507, 16.4001, 1.01825, 3.38901, -0.0292249, 0.000726797, -0.00142326, 0.000407498, 0.000251789, -0.00108937, 0.00039581, 0.00920411, -0.00996246, -0.0025649, 0.00892423, 0.029834, 0.0094891, -0.0110705, -0.444653, 0.634946, -3.13165, -0.0555809, -0.107878, -0.0103687, -0.443202, 0.634599, -3.13147, -0.0554043, -0.106155, 0.00293143, 0.00466308, -0.00640257, -0.00571329, -0.00559406, -0.00965909
0.0540598, 0.107665, -0.774338, -0.916842, -1.45732, -0.625884, 1.07047, -0.256749, -0.000185381, -0.000871155, -0.0174702, -0.0154959, -0.0235704, 0.00761498, -0.000278322, -0.0914839, 16.0846, 19.4507, 16.3644, 1.01276, 3.41006, -0.0228162, 0.00071777, -0.0014101, 0.000408503, 0.000232648, -0.00113265, 0.000417247, 0.00932577, -0.0112262, -0.00211787, 0.0107144, 0.026151, 0.00972893, -0.0110675, -0.444648, 0.63494, -3.13164, -0.0555822, -0.107903, -0.0103742, -0.44321, 0.634591, -3.13148, -0.055372, -0.106113, 0.00306961, 0.00487181, -0.00669647, -0.00568192, -0.00665646, -0.00952378
0.0550598, 0.107663, -0.774331, -0.916861, -1.45734, -0.625916, 1.07048, -0.256748, -0.000930323, 0.00201558, -0.0170937, -0.0154716, -0.023186, 0.010037, 0.000759593, -0.0557783, 15.9735, 19.4864, 16.4001, 1.03107, 3.42471, -0.0484509, 0.000708334, -0.00139743, 0.000410475, 0.000216285, -0.0011882, 0.000442277, 0.00845635, -0.0116731, -0.00135036, 0.0137621, 0.0275805, 0.00957664, -0.0110644, -0.444643, 0.634933, -3.13162, -0.0555837, -0.107929, -0.0103799, -0.443218, 0.634581, -3.13148, -0.0553343, -0.106052, 0.00321082, 0.00508435, -0.00699628, -0.00471059, -0.00686661, -0.00900114
0.0560598, 0.107656, -0.774336, -0.916878, -1.45736, -0.625943, 1.07049, -0.25675, -0.00329011, -0.00125632, -0.0169489, -0.0155138, -0.0262183, 0.00743914, -0.000920979, 0.059273, 16.0846, 19.5261, 16.4359, 1.01276, 3.43204, -0.00999879, 0.000694, -0.00138482, 0.000411489, 0.000197664, -0.00122553, 0.000466867, 0.0114381, -0.0117359, -0.00128164, 0.0134741, 0.028033, 0.00878184, -0.0110611, -0.444638, 0.634926, -3.13161, -0.0555852, -0.107956, -0.0103904, -0.443226, 0.634572, -3.13149, -0.0552971, -0.106022, 0.00335505, 0.00530066, -0.00730195, -0.00754162, -0.00681862, -0.00944465
0.0570598, 0.107666, -0.774335, -0.916891, -1.45737, -0.625976, 1.0705, -0.256745, 0.000513871, -0.000838735, -0.0148826, -0.0146712, -0.0293659, 0.0101569, 0.000807752, -0.0557783, 16.0846, 19.4864, 16.4359, 1.01825, 3.43936, -0.0484509, 0.000688597, -0.0013727, 0.000410972, 0.000177251, -0.00127519, 0.000481099, 0.00960341, -0.0125451, 2.60327e-05, 0.0194246, 0.0289517, 0.0116989, -0.0110577, -0.444633, 0.634918, -3.13159, -0.0555867, -0.107984, -0.0103919, -0.443233, 0.634564, -3.13149, -0.0552761, -0.105973, 0.0035023, 0.00552068, -0.00761342, -0.00562607, -0.0073543, -0.0083306
0.0580598, 0.107669, -0.77433, -0.916906, -1.45739, -0.626009, 1.07051, -0.256748, 0.00118981, 0.000275171, -0.0142892, -0.0188511, -0.0314073, 0.0124446, -0.000412746, -0.0914839, 16.0489, 19.4864, 16.5112, 1.01825, 3.43936, -0.0228162, 0.000681766, -0.00135937, 0.000411798, 0.000155662, -0.00133089, 0.000494592, 0.00820026, -0.0130282, -0.000528818, 0.02103, 0.0332634, 0.0164557, -0.0110541, -0.444627, 0.63491, -3.13157, -0.0555884, -0.108013, -0.0103946, -0.443241, 0.634555, -3.1315, -0.0552564, -0.105917, 0.00365255, 0.00574437, -0.00793067, -0.00402144, -0.00755911, -0.00910803
0.0590598, 0.107664, -0.77433, -0.916925, -1.4574, -0.626042, 1.07052, -0.256745, -0.000961017, 0.00018278, -0.0148269, -0.0170948, -0.0337214, 0.0133465, 0.000435554, -0.0161054, 16.0489, 19.5261, 16.5112, 1.04297, 3.46042, -0.0420422, 0.000667444, -0.00134579, 0.000411766, 0.000135599, -0.00138191, 0.000526097, 0.0102122, -0.013835, 0.000330892, 0.024261, 0.0334473, 0.0123051, -0.0110504, -0.444621, 0.634902, -3.13155, -0.0555901, -0.108044, -0.0104047, -0.443249, 0.634546, -3.1315, -0.0552087, -0.105868, 0.0038058, 0.00597168, -0.00825364, -0.00590434, -0.00821642, -0.00871785
0.0600598, 0.107664, -0.774332, -0.916941, -1.45742, -0.626073, 1.07053, -0.25675, -0.00146914, -0.00154908, -0.0141966, -0.0184453, -0.0294867, 0.0145203, -0.000185368, 0.0196001, 16.1203, 19.5261, 16.6223, 1.03107, 3.46774, -0.0292249, 0.000657365, -0.00133225, 0.000412931, 0.000115263, -0.00143185, 0.000539076, 0.00966694, -0.0136058, 0.000492916, 0.0236272, 0.028879, 0.0169119, -0.0110465, -0.444615, 0.634894, -3.13153, -0.0555919, -0.108076, -0.0104103, -0.443257, 0.634536, -3.13151, -0.0551899, -0.105823, 0.00396204, 0.00620257, -0.00858229, -0.00522378, -0.0077388, -0.00884619
0.0610598, 0.107665, -0.774337, -0.91696, -1.45743, -0.626108, 1.07054, -0.25675, -0.000974355, -0.00279634, -0.015505, -0.015836, -0.0274742, 0.0150533, -0.00083642, 0.0196001, 16.1957, 19.5975, 16.5866, 1.04938, 3.48239, -0.00999879, 0.000643257, -0.00131746, 0.00041244, 9.26072e-05, -0.00148026, 0.000564033, 0.0104836, -0.0141548, 0.00124877, 0.0243586, 0.0243201, 0.0179946, -0.0110424, -0.444609, 0.634885, -3.13151, -0.0555937, -0.108109, -0.0104198, -0.443266, 0.634527, -3.13151, -0.0551525, -0.105782, 0.00412125, 0.00643698, -0.00891658, -0.00591117, -0.00808853, -0.00848689
0.0620598, 0.107662, -0.774337, -0.91697, -1.45745, -0.626143, 1.07055, -0.256743, -0.00157379, -0.00186451, -0.0129355, -0.0149073, -0.0259093, 0.0114026, 0.00161195, 0.059273, 16.1957, 19.5261, 16.5866, 1.06769, 3.48239, -0.0685925, 0.000632363, -0.00130358, 0.000408842, 6.00223e-05, -0.00153267, 0.000592575, 0.0100589, -0.0130662, 0.00234783, 0.0234911, 0.0252949, 0.0185023, -0.0110382, -0.444602, 0.634876, -3.13149, -0.0555957, -0.108143, -0.0104262, -0.443274, 0.63452, -3.13153, -0.0551093, -0.105736, 0.00428343, 0.00667487, -0.00925645, -0.00544008, -0.00675766, -0.00769443
0.0630598, 0.107662, -0.774337, -0.91697, -1.45745, -0.626143, 1.07055, -0.256743, -0.00157379, -0.00186451, -0.0129355, -0.0149073, -0.0259093, 0.0114026, 0.00161195, 0.059273, 16.1957, 19.5261, 16.5866, 1.06769, 3.48239, -0.0685925, 0.000628415, -0.001297, 0.000399115, 3.98596e-05, -0.00155619, 0.000593516, 0.0102081, -0.0132991, 0.00270646, 0.0241879, 0.0254147, 0.0198523, -0.0110339, -0.444596, 0.634867, -3.13147, -0.0555977, -0.108178, -0.0104262, -0.443274, 0.63452, -3.13153, -0.0551093, -0.105736, 0.00444857, 0.0069162, -0.00960188, -0.00544008, -0.00675766, -0.00769443
0.0640598, 0.107662, -0.774337, -0.91697, -1.45745, -0.626143, 1.07055, -0.256743, -0.00157379, -0.00186451, -0.0129355, -0.0149073, -0.0259093, 0.0114026, 0.00161195, 0.059273, 16.1957, 19.5261, 16.5866, 1.06769, 3.48239, -0.0685925, 0.000624316, -0.00129018, 0.000389029, 1.89608e-05, -0.00158057, 0.000594497, 0.01036, -0.0135353, 0.00307084, 0.0248953, 0.025537, 0.0212236, -0.0110293, -0.444589, 0.634857, -3.13145, -0.0555998, -0.108215, -0.0104262, -0.443274, 0.63452, -3.13153, -0.0551093, -0.105736, 0.00461665, 0.00716091, -0.0099528, -0.00544008, -0.00675766, -0.00769443
0.0650598, 0.107664, -0.774336, -0.917029, -1.45749, -0.626236, 1.07058, -0.256746, -0.00136941, -0.00129518, -0.0184475, -0.0148469, -0.0234941, 0.0181874, 0.000642742, 0.059273, 16.2314, 19.6372, 16.662, 1.03656, 3.52542, -0.0621838, 0.000596643, -0.00125938, 0.000407269, -1.9443e-06, -0.00169686, 0.000654643, 0.0108442, -0.0157941, 0.00250086, 0.0268999, 0.0211936, 0.0207258, -0.0110246, -0.444581, 0.634847, -3.13142, -0.055602, -0.108254, -0.0104467, -0.443298, 0.63449, -3.13153, -0.055018, -0.105593, 0.00478767, 0.00740896, -0.0103092, -0.00563183, -0.00877883, -0.00866832
0.0660598, 0.107668, -0.774331, -0.917045, -1.4575, -0.626268, 1.07059, -0.256749, 1.62842e-05, 0.000806893, -0.0169105, -0.0132179, -0.0219432, 0.0179533, -0.00102975, 0.0196001, 16.16, 19.6372, 16.6223, 1.02466, 3.53915, -0.0228162, 0.000587718, -0.00124408, 0.000403676, -3.10832e-05, -0.0017555, 0.000671154, 0.00931534, -0.0156105, 0.00382544, 0.0287006, 0.0212379, 0.0262673, -0.0110198, -0.444574, 0.634836, -3.1314, -0.0556043, -0.108293, -0.0104504, -0.443306, 0.634482, -3.13154, -0.054994, -0.105542, 0.00496161, 0.0076603, -0.010671, -0.0040315, -0.00830234, -0.00760238
0.0670598, 0.107667, -0.774334, -0.917063, -1.45752, -0.626298, 1.07059, -0.256745, -0.000916262, -0.00113257, -0.0157681, -0.0122335, -0.0256998, 0.0172004, 0.000262801, 0.059273, 16.2314, 19.6372, 16.5866, 1.01825, 3.56845, -0.0484509, 0.000574032, -0.00122909, 0.000401077, -5.44461e-05, -0.00180783, 0.000697384, 0.0111295, -0.0160067, 0.00472422, 0.0316658, 0.0219601, 0.0240452, -0.0110147, -0.444566, 0.634825, -3.13137, -0.0556067, -0.108334, -0.0104587, -0.443314, 0.634473, -3.13155, -0.0549551, -0.105503, 0.00513848, 0.00791489, -0.0110382, -0.00571118, -0.00851575, -0.00720178
0.0680598, 0.107666, -0.774333, -0.917087, -1.45754, -0.626326, 1.07061, -0.256745, -0.00144538, -0.000755099, -0.0206971, -0.0133555, -0.0285471, 0.0133406, -6.22605e-05, 0.0949785, 16.2314, 19.7483, 16.6223, 1.01276, 3.56112, -0.0420422, 0.000560237, -0.00121255, 0.00040107, -7.43388e-05, -0.001866, 0.00072268, 0.0137318, -0.0167405, 0.00305863, 0.0265903, 0.0275248, 0.0207542, -0.0110095, -0.444558, 0.634814, -3.13135, -0.0556092, -0.108376, -0.0104666, -0.443323, 0.634461, -3.13154, -0.0549179, -0.105455, 0.00531825, 0.00817268, -0.0114107, -0.00798481, -0.00906777, -0.00942164
0.0690598, 0.107671, -0.774333, -0.917108, -1.45754, -0.626357, 1.07062, -0.256751, 0.000800157, -0.000503437, -0.021621, -0.0114766, -0.0304193, 0.0100955, -0.001737, 0.0196001, 16.2314, 19.7483, 16.5509, 0.999938, 3.56112, 0.00373412, 0.000548118, -0.00119567, 0.000396915, -0.000102529, -0.00192023, 0.00073913, 0.0142276, -0.016965, 0.00341834, 0.0256911, 0.0297987, 0.0235758, -0.0110041, -0.44455, 0.634803, -3.13132, -0.0556118, -0.10842, -0.010473, -0.443332, 0.634453, -3.13155, -0.0548943, -0.105415, 0.00550092, 0.00843363, -0.0117885, -0.00831326, -0.00905205, -0.00947725
0.0700598, 0.107673, -0.77433, -0.91712, -1.45756, -0.626388, 1.07062, -0.256739, -0.000394201, 0.000499565, -0.018305, -0.014951, -0.0278851, 0.0123176, 0.0015207, 0.059273, 16.1957, 19.7086, 16.5509, 1.00635, 3.56112, -0.0685925, 0.000538355, -0.00118126, 0.000392151, -0.000130609, -0.00198312, 0.000766448, 0.0120971, -0.0164225, 0.00396749, 0.0276204, 0.0299978, 0.0261461, -0.0109985, -0.444541, 0.634791, -3.13129, -0.0556144, -0.108465, -0.0104769, -0.443338, 0.634445, -3.13155, -0.0548539, -0.105364, 0.00568647, 0.00869769, -0.0121715, -0.00606096, -0.00817594, -0.00916203
0.0710598, 0.107672, -0.774333, -0.917144, -1.45757, -0.626413, 1.07063, -0.256749, -0.00109773, -0.00133741, -0.0217776, -0.0135121, -0.0253686, 0.0134327, -0.00166501, 0.0949785, 16.2671, 19.784, 16.5112, 0.999938, 3.57577, 0.00373412, 0.000522716, -0.00116414, 0.000388442, -0.00015574, -0.00203323, 0.000782804, 0.0139415, -0.017378, 0.00387264, 0.0267171, 0.0250536, 0.0279732, -0.0109927, -0.444532, 0.634778, -3.13127, -0.0556172, -0.108512, -0.0104863, -0.443347, 0.634435, -3.13155, -0.0548306, -0.105333, 0.00587491, 0.00896481, -0.0125597, -0.00767061, -0.0089279, -0.00978
0.0720598, 0.107672, -0.77434, -0.917163, -1.45759, -0.626441, 1.07064, -0.256742, -0.000731608, -0.00349008, -0.0203258, -0.0102647, -0.0287539, 0.00990905, 0.00156873, 0.0949785, 16.3782, 19.8237, 16.5112, 1.00635, 3.58218, -0.0685925, 0.000507369, -0.00114793, 0.000385131, -0.00017948, -0.00208714, 0.000811635, 0.0158514, -0.0173625, 0.00528691, 0.0285369, 0.025211, 0.0244553, -0.0109867, -0.444523, 0.634765, -3.13124, -0.05562, -0.10856, -0.0104953, -0.443355, 0.634424, -3.13155, -0.0547882, -0.105298, 0.00606621, 0.00923495, -0.0129531, -0.00948173, -0.00872257, -0.00889587
0.0730598, 0.107672, -0.774333, -0.917188, -1.4576, -0.626471, 1.07065, -0.256742, -0.0014156, -0.000656297, -0.0198094, -0.0101222, -0.0267126, 0.012388, 0.0010458, 0.134651, 16.3068, 19.8951, 16.4755, 1.01825, 3.57577, -0.0685925, 0.000493127, -0.00112969, 0.000381042, -0.000206785, -0.00215341, 0.000841171, 0.0146681, -0.017671, 0.00623417, 0.0312388, 0.0252642, 0.0271466, -0.0109806, -0.444514, 0.634752, -3.13121, -0.055623, -0.10861, -0.010503, -0.443364, 0.634414, -3.13155, -0.0547447, -0.105245, 0.00626038, 0.00950806, -0.0133516, -0.00816239, -0.00872502, -0.0082704
0.0740598, 0.107672, -0.774332, -0.917203, -1.45761, -0.626495, 1.07065, -0.256746, 0.00134622, 0.0018439, -0.0202111, -0.0129734, -0.0287773, 0.0142902, -0.00147296, 0.170357, 16.3425, 19.8594, 16.4359, 0.999938, 3.56845, -0.00999879, 0.000481543, -0.00111428, 0.000374448, -0.000235424, -0.00221056, 0.000855143, 0.0126066, -0.0184363, 0.00584548, 0.0327419, 0.0304046, 0.034163, -0.0109742, -0.444504, 0.634739, -3.13117, -0.055626, -0.108661, -0.0105081, -0.44337, 0.634406, -3.13155, -0.0547254, -0.105209, 0.00645739, 0.00978411, -0.0137552, -0.00585603, -0.00913783, -0.00892479
0.0750598, 0.107673, -0.774334, -0.917225, -1.45763, -0.626521, 1.07066, -0.256742, 0.00115799, 0.00295364, -0.0190272, -0.013996, -0.0315198, 0.00993205, 0.000950793, 0.170357, 16.4178, 19.8951, 16.4755, 1.01276, 3.58951, -0.0621838, 0.000467666, -0.0010982, 0.000371508, -0.000254905, -0.00227437, 0.000878285, 0.0129399, -0.0179037, 0.00596053, 0.0313011, 0.0365459, 0.0332517, -0.0109676, -0.444494, 0.634725, -3.13114, -0.0556292, -0.108713, -0.010515, -0.443377, 0.634394, -3.13155, -0.0546923, -0.105163, 0.00665724, 0.010063, -0.0141638, -0.00601555, -0.00833968, -0.00923912
0.0760598, 0.107671, -0.774328, -0.917252, -1.45764, -0.626545, 1.07067, -0.25675, 3.93566e-05, 0.00419611, -0.0231322, -0.0150733, -0.0284967, 0.0124637, -0.00180755, 0.21003, 16.3425, 20.0101, 16.4001, 1.01825, 3.58218, 0.00373412, 0.000451558, -0.00107937, 0.000365848, -0.000282548, -0.00233748, 0.000902331, 0.0134764, -0.0189596, 0.00519534, 0.0298825, 0.0352522, 0.035385, -0.0109609, -0.444484, 0.63471, -3.13111, -0.0556325, -0.108767, -0.010524, -0.443386, 0.634384, -3.13154, -0.0546577, -0.105119, 0.00685993, 0.0103448, -0.0145774, -0.00625714, -0.00912509, -0.0104616
0.0770598, 0.107676, -0.774329, -0.917265, -1.45765, -0.626567, 1.07067, -0.256745, 0.0011008, 0.001382, -0.0216031, -0.0154795, -0.0252429, 0.0098746, 0.000490377, 0.170357, 16.4178, 19.9347, 16.4359, 0.999938, 3.56845, -0.0420422, 0.000442987, -0.00106365, 0.000359429, -0.00031091, -0.00239873, 0.000915676, 0.0131093, -0.0181601, 0.00557641, 0.0275302, 0.0316402, 0.038712, -0.0109539, -0.444473, 0.634696, -3.13108, -0.0556359, -0.108823, -0.0105254, -0.443392, 0.634375, -3.13154, -0.0546397, -0.105081, 0.00706543, 0.0106294, -0.0149959, -0.00574068, -0.00803236, -0.01047
0.0780598, 0.107668, -0.774327, -0.91729, -1.45767, -0.626592, 1.07068, -0.256743, -0.00184749, 0.00118221, -0.0210009, -0.0171524, -0.0239028, 0.00737569, 8.95533e-05, 0.285408, 16.4178, 20.0101, 16.4001, 1.00635, 3.56845, -0.0356336, 0.000423849, -0.00104565, 0.000353314, -0.000337218, -0.00246255, 0.000951849, 0.0141222, -0.0175351, 0.00554052, 0.0252657, 0.0328832, 0.03978, -0.0109468, -0.444463, 0.63468, -3.13104, -0.0556394, -0.10888, -0.0105371, -0.4434, 0.634365, -3.13154, -0.0545865, -0.10504, 0.00727374, 0.0109167, -0.0154193, -0.00656217, -0.007156, -0.0109965
0.0790598, 0.107678, -0.774322, -0.917309, -1.45768, -0.626613, 1.07068, -0.256745, 0.00373052, 0.00191182, -0.0221611, -0.0161015, -0.0226735, 0.00578287, 5.96979e-05, 0.21003, 16.3782, 20.0101, 16.4001, 1.00635, 3.56112, -0.0356336, 0.000416665, -0.00102864, 0.000346833, -0.000363388, -0.00253059, 0.000958403, 0.0121475, -0.0178049, 0.00569258, 0.0237087, 0.0330482, 0.0462068, -0.0109394, -0.444452, 0.634665, -3.131, -0.055643, -0.108939, -0.0105367, -0.443406, 0.634355, -3.13153, -0.0545794, -0.104994, 0.00748486, 0.0112067, -0.0158476, -0.00438333, -0.00706766, -0.0111387
0.0800598, 0.107679, -0.774324, -0.917331, -1.45769, -0.626638, 1.07069, -0.256746, 0.00197333, -0.000341951, -0.0237118, -0.0121413, -0.0226763, 0.00430109, 3.97954e-05, 0.245735, 16.4536, 20.0458, 16.4001, 1.03107, 3.56112, -0.0356336, 0.000400942, -0.00101044, 0.000340207, -0.000391188, -0.00259518, 0.000980132, 0.0152808, -0.0183664, 0.00675174, 0.0244591, 0.0291912, 0.0429476, -0.0109318, -0.44444, 0.634649, -3.13097, -0.0556467, -0.109, -0.0105446, -0.443413, 0.634344, -3.13153, -0.0545488, -0.104955, 0.00769877, 0.0114994, -0.0162807, -0.0073467, -0.00745663, -0.0107385
0.0810598, 0.107682, -0.774316, -0.917355, -1.4577, -0.626656, 1.0707, -0.256746, 0.003766, 0.00481329, -0.0215631, -0.00983751, -0.0215901, 0.00374432, -0.000922908, 0.285408, 16.3782, 20.0815, 16.2891, 1.03107, 3.54648, -0.00999879, 0.000388363, -0.000991887, 0.000330709, -0.00042149, -0.00265896, 0.00100307, 0.0127508, -0.0180859, 0.00860761, 0.0272971, 0.0323686, 0.0483671, -0.010924, -0.444429, 0.634632, -3.13093, -0.0556505, -0.109062, -0.0105493, -0.443421, 0.634336, -3.13153, -0.0545164, -0.104919, 0.00791545, 0.0117947, -0.0167186, -0.00474669, -0.00680983, -0.00914803
0.0820598, 0.107684, -0.774313, -0.917374, -1.45772, -0.626675, 1.0707, -0.256742, 0.00617403, 0.00574035, -0.0192366, -0.00938685, -0.0257973, 0.00301827, 0.00131751, 0.285408, 16.4178, 20.0815, 16.3644, 1.04297, 3.53915, -0.0621838, 0.00037763, -0.000974615, 0.000325155, -0.000445726, -0.00273139, 0.00101986, 0.0118497, -0.0183416, 0.0097665, 0.0310771, 0.036631, 0.0497745, -0.010916, -0.444417, 0.634615, -3.13089, -0.0556545, -0.109126, -0.0105518, -0.443426, 0.634324, -3.13152, -0.0544939, -0.10487, 0.00813491, 0.0120926, -0.0171612, -0.00370048, -0.00674716, -0.00837476
0.0830598, 0.107694, -0.77431, -0.917401, -1.45773, -0.626697, 1.07071, -0.256746, 0.00647941, 0.003511, -0.0184659, -0.00973675, -0.0248725, 0.0074894, -0.00132571, 0.21003, 16.4536, 20.1212, 16.2137, 1.06769, 3.52542, -0.00267457, 0.000364414, -0.000954069, 0.000315441, -0.000478094, -0.00279515, 0.00103618, 0.0116161, -0.0192234, 0.0106449, 0.0355359, 0.0318186, 0.0556844, -0.0109077, -0.444404, 0.634598, -3.13085, -0.0556585, -0.109191, -0.0105566, -0.443435, 0.634315, -3.13151, -0.0544719, -0.104838, 0.00835714, 0.012393, -0.0176085, -0.00327516, -0.00732856, -0.00793695
0.0840598, 0.107694, -0.774306, -0.917429, -1.45774, -0.626713, 1.07071, -0.256744, 0.00300648, 0.00189494, -0.0217243, -0.0108698, -0.0185317, 0.01077, -0.000375182, 0.285408, 16.4893, 20.1926, 16.2137, 1.06769, 3.51077, -0.0164075, 0.000350084, -0.000935318, 0.000309854, -0.000498172, -0.00286647, 0.00105975, 0.0130676, -0.01989, 0.0101745, 0.0338407, 0.024783, 0.054176, -0.0108992, -0.444392, 0.63458, -3.13081, -0.0556627, -0.109258, -0.0105622, -0.443442, 0.634302, -3.1315, -0.0544392, -0.104795, 0.00858211, 0.0126959, -0.0180604, -0.00444104, -0.00773883, -0.00896557
0.0850598, 0.107703, -0.774297, -0.917451, -1.45776, -0.626735, 1.07072, -0.256742, 0.00326992, 0.00466104, -0.0225145, -0.0113348, -0.0199178, 0.00875576, 0.00120794, 0.245735, 16.4893, 20.1926, 16.2137, 1.10431, 3.48971, -0.0557752, 0.000341231, -0.000915889, 0.000301767, -0.000528248, -0.00294595, 0.00107364, 0.0129601, -0.0200451, 0.0102015, 0.0330366, 0.0301223, 0.0535986, -0.0108905, -0.444379, 0.634562, -3.13077, -0.055667, -0.109327, -0.0105621, -0.443449, 0.634291, -3.13149, -0.0544214, -0.104741, 0.00880983, 0.0130012, -0.018517, -0.00410272, -0.00758541, -0.00939025
0.0860598, 0.107707, -0.7743, -0.917474, -1.45778, -0.626752, 1.07072, -0.256747, 0.00464243, 0.0040912, -0.0229262, -0.0118046, -0.0150082, 0.00697659, -0.00041541, 0.285408, 16.6003, 20.1926, 16.2137, 1.11072, 3.47507, -0.0228162, 0.000327909, -0.000896874, 0.000293977, -0.000555287, -0.00301205, 0.00108305, 0.0119968, -0.0195557, 0.0101987, 0.0295737, 0.0272419, 0.060665, -0.0108816, -0.444366, 0.634543, -3.13072, -0.0556715, -0.109398, -0.0105664, -0.443455, 0.634279, -3.13148, -0.0544108, -0.10471, 0.00904028, 0.013309, -0.0189781, -0.00292963, -0.00675501, -0.00978465
0.0870598, 0.107718, -0.774287, -0.917494, -1.45779, -0.626766, 1.07073, -0.256742, 0.0107269, 0.00510782, -0.0194313, -0.0104581, -0.0120402, 0.0106206, 0.000435136, 0.245735, 16.525, 20.1569, 16.1383, 1.13544, 3.45309, -0.0420422, 0.000322939, -0.000877217, 0.00028221, -0.000592161, -0.00308728, 0.00109512, 0.00739569, -0.0197225, 0.0122563, 0.035002, 0.0233562, 0.0710909, -0.0108725, -0.444352, 0.634524, -3.13068, -0.0556761, -0.10947, -0.0105623, -0.443462, 0.634271, -3.13148, -0.0543958, -0.104666, 0.00927346, 0.0136191, -0.0194438, 0.00175281, -0.00647004, -0.00787844
0.0880598, 0.107719, -0.774283, -0.917518, -1.45781, -0.626782, 1.07074, -0.256743, 0.00531956, 0.00603108, -0.0177532, -0.0112188, -0.00978174, 0.0132909, -0.000421986, 0.360787, 16.5646, 20.1569, 16.1383, 1.16015, 3.43204, -0.0228162, 0.000309387, -0.000856912, 0.000272904, -0.000623362, -0.00316023, 0.00111318, 0.00829212, -0.0197143, 0.0134241, 0.0383359, 0.0217835, 0.0711356, -0.0108631, -0.444339, 0.634504, -3.13064, -0.0556808, -0.109544, -0.0105663, -0.443469, 0.63426, -3.13147, -0.0543718, -0.104628, 0.00950935, 0.0139315, -0.0199139, 0.00101287, -0.00619298, -0.00724762
0.0890598, 0.107734, -0.774274, -0.917549, -1.45782, -0.626798, 1.07075, -0.256745, 0.0123548, 0.0078661, -0.0214453, -0.0129493, -0.00759152, 0.0103411, -0.00102731, 0.285408, 16.5646, 20.2323, 16.0629, 1.17206, 3.41739, -0.00267457, 0.000300387, -0.00083502, 0.000264196, -0.000651312, -0.00323725, 0.00112292, 0.00555672, -0.0199821, 0.0119309, 0.0320535, 0.0249708, 0.0797248, -0.0108534, -0.444325, 0.634484, -3.13059, -0.0556856, -0.10962, -0.0105655, -0.443477, 0.634248, -3.13145, -0.0543611, -0.104585, 0.00974794, 0.0142462, -0.0203885, 0.00409169, -0.00603545, -0.0090233
0.0900598, 0.107743, -0.774274, -0.917571, -1.45783, -0.62681, 1.07076, -0.256738, 0.011407, 0.003462, -0.021432, -0.017447, -0.00485501, 0.0128031, 0.00175653, 0.325081, 16.6718, 20.1926, 15.9915, 1.15375, 3.40365, -0.0685925, 0.000289159, -0.000814781, 0.000253213, -0.000682942, -0.00330426, 0.00113986, 0.00579626, -0.0202114, 0.0111412, 0.0311596, 0.0203725, 0.0815029, -0.0108436, -0.44431, 0.634463, -3.13054, -0.0556906, -0.109698, -0.0105668, -0.443483, 0.634237, -3.13144, -0.0543391, -0.10456, 0.00998923, 0.0145631, -0.0208674, 0.00415706, -0.00594887, -0.0103096
0.0910598, 0.107753, -0.774263, -0.917604, -1.45785, -0.626831, 1.07077, -0.256749, 0.0117664, 0.00594174, -0.0241197, -0.01562, -0.00946172, 0.0149431, -0.00150774, 0.325081, 16.6718, 20.268, 15.9518, 1.18396, 3.38168, 0.00373412, 0.000277229, -0.000790761, 0.00024405, -0.000716675, -0.0033891, 0.00114871, 0.00702481, -0.02202, 0.0117103, 0.0354372, 0.0243857, 0.0818128, -0.0108335, -0.444295, 0.634442, -3.13049, -0.0556957, -0.109777, -0.0105684, -0.443493, 0.634224, -3.13144, -0.0543298, -0.104508, 0.0102332, 0.0148823, -0.0213508, 0.00320089, -0.00748658, -0.0103262
0.0920598, 0.107763, -0.774256, -0.91763, -1.45787, -0.626845, 1.07077, -0.256739, 0.0119958, 0.00780123, -0.024397, -0.0160675, -0.0124353, 0.0104984, 0.0016736, 0.325081, 16.6718, 20.268, 15.9915, 1.20318, 3.39633, -0.0685925, 0.000268092, -0.000769267, 0.000234294, -0.00074747, -0.00347152, 0.00116877, 0.00763269, -0.0218503, 0.0116765, 0.0335742, 0.0312311, 0.0793398, -0.0108231, -0.44428, 0.634421, -3.13044, -0.0557009, -0.109858, -0.010567, -0.4435, 0.634212, -3.13142, -0.0543034, -0.104462, 0.0104799, 0.0152035, -0.0218384, 0.00283737, -0.00701738, -0.0108904
0.0930598, 0.107775, -0.774249, -0.917659, -1.45789, -0.626857, 1.07078, -0.256741, 0.00902747, 0.0059639, -0.0254732, -0.016157, -0.0134104, 0.00780803, 0.000132391, 0.325081, 16.6718, 20.3077, 16.0272, 1.19037, 3.39633, -0.0420422, 0.000259509, -0.000746943, 0.000225143, -0.000777265, -0.00355267, 0.00117436, 0.0105322, -0.021947, 0.011645, 0.031974, 0.0317758, 0.0785912, -0.0108125, -0.444265, 0.634399, -3.13039, -0.0557063, -0.109941, -0.0105648, -0.443507, 0.634198, -3.13141, -0.0542997, -0.10442, 0.0107292, 0.0155269, -0.0223304, 0.000201331, -0.00689297, -0.0116198
0.0940598, 0.107785, -0.774242, -0.917686, -1.4579, -0.626873, 1.07079, -0.256743, 0.00990753, 0.00454824, -0.0274546, -0.0165504, -0.0153999, 0.0058122, -0.000623816, 0.325081, 16.6718, 20.268, 15.9518, 1.20868, 3.39633, -0.0228162, 0.000247386, -0.000724145, 0.000212468, -0.000813377, -0.00363323, 0.00118744, 0.0119598, -0.0225364, 0.0112266, 0.0304438, 0.0334286, 0.0798941, -0.0108016, -0.444249, 0.634376, -3.13034, -0.0557118, -0.110026, -0.0105661, -0.443515, 0.634187, -3.1314, -0.0542841, -0.104381, 0.0109812, 0.0158524, -0.0228265, -0.000919848, -0.0072032, -0.0126399
0.0950598, 0.107795, -0.774238, -0.91772, -1.45791, -0.626884, 1.0708, -0.256739, 0.00660903, 0.00346139, -0.0279288, -0.0148936, -0.0158356, 0.00930559, 0.000804826, 0.360787, 16.6718, 20.3077, 15.9161, 1.20318, 3.38901, -0.0557752, 0.00023408, -0.000700057, 0.000202391, -0.000843521, -0.00371014, 0.00120735, 0.0141874, -0.0236654, 0.0124891, 0.0354086, 0.0300338, 0.0757079, -0.0107905, -0.444233, 0.634353, -3.13029, -0.0557175, -0.110113, -0.0105681, -0.443523, 0.634173, -3.13138, -0.0542584, -0.104349, 0.0112358, 0.0161798, -0.0233269, -0.00293433, -0.0080958, -0.0120482
0.0960598, 0.10781, -0.77423, -0.917747, -1.45793, -0.626897, 1.07081, -0.256745, 0.00993723, 0.0057242, -0.026213, -0.0175522, -0.0162794, 0.00720837, -0.00143014, 0.285408, 16.6718, 20.268, 15.9161, 1.19678, 3.38168, -0.00267457, 0.000226994, -0.000676792, 0.000190633, -0.000879085, -0.00379468, 0.00120546, 0.0114677, -0.0231914, 0.0124871, 0.0343431, 0.0355658, 0.0856738, -0.0107792, -0.444217, 0.634329, -3.13024, -0.0557233, -0.110202, -0.0105638, -0.443531, 0.63416, -3.13137, -0.0542665, -0.104308, 0.011493, 0.0165093, -0.0238314, 1.6829e-05, -0.00719753, -0.0123614
0.0970598, 0.107812, -0.774223, -0.917781, -1.45795, -0.626911, 1.07082, -0.25674, 0.00466718, 0.00832489, -0.0268992, -0.0153739, -0.0171202, 0.00995829, 0.000741996, 0.400459, 16.636, 20.3077, 15.8765, 1.20318, 3.38168, -0.0484509, 0.000209617, -0.000651736, 0.000178608, -0.000915081, -0.00387899, 0.00123735, 0.0137858, -0.0241747, 0.0139896, 0.0394198, 0.0361904, 0.078176, -0.0107676, -0.4442, 0.634305, -3.13018, -0.0557293, -0.110292, -0.0105694, -0.44354, 0.634147, -3.13135, -0.0542223, -0.104269, 0.0117529, 0.0168407, -0.0243401, -0.00210491, -0.00794648, -0.0115444
0.0980598, 0.107827, -0.774217, -0.91781, -1.45796, -0.626924, 1.07083, -0.256744, 0.00773308, 0.00930437, -0.0255181, -0.0140153, -0.0179547, 0.0125282, -0.00092949, 0.360787, 16.636, 20.268, 15.8408, 1.21509, 3.37436, -0.00999879, 0.000199794, -0.000627186, 0.0001655, -0.000953227, -0.00396192, 0.00124127, 0.0120973, -0.0249321, 0.0154992, 0.0445269, 0.0357895, 0.0848551, -0.0107557, -0.444183, 0.634281, -3.13012, -0.0557354, -0.110385, -0.0105674, -0.443548, 0.634135, -3.13134, -0.0542215, -0.104234, 0.0120154, 0.017174, -0.0248528, -0.000238731, -0.00832679, -0.0104402
0.0990598, 0.107842, -0.774213, -0.917841, -1.45799, -0.626937, 1.07084, -0.256741, 0.00666521, 0.010116, -0.0268386, -0.0187717, -0.0134114, 0.013751, 0.000329776, 0.325081, 16.636, 20.1926, 15.9161, 1.21509, 3.38168, -0.0356336, 0.000190089, -0.000602598, 0.000155167, -0.000985349, -0.0040514, 0.00124971, 0.0109815, -0.0248702, 0.0143767, 0.0412074, 0.0359005, 0.0881504, -0.0107435, -0.444166, 0.634256, -3.13007, -0.0557417, -0.110479, -0.0105647, -0.443555, 0.634119, -3.13132, -0.0542142, -0.10419, 0.0122806, 0.0175091, -0.0253696, 0.00121476, -0.0078798, -0.0119994
0.10006, 0.107855, -0.774211, -0.917874, -1.45801, -0.62695, 1.07085, -0.256744, 0.00587745, 0.00756269, -0.029925, -0.0202425, -0.0153917, 0.0103058, -0.000729585, 0.285408, 16.636, 20.1926, 15.9161, 1.2334, 3.38168, -0.00999879, 0.000176897, -0.000576763, 0.000143381, -0.00102029, -0.00413536, 0.0012585, 0.0137909, -0.0253336, 0.0132251, 0.0371783, 0.0378977, 0.0879019, -0.0107311, -0.444148, 0.63423, -3.13001, -0.0557481, -0.110576, -0.0105654, -0.443564, 0.634104, -3.13131, -0.0542064, -0.104157, 0.0125483, 0.0178461, -0.0258904, -0.00122117, -0.00809369, -0.0138733
0.10106, 0.107862, -0.774211, -0.917901, -1.45803, -0.626958, 1.07085, -0.256746, 0.00655331, 0.0056558, -0.030391, -0.0190494, -0.0157647, 0.00826687, -0.00123238, 0.325081, 16.636, 20.1212, 15.9518, 1.2215, 3.36703, 0.0101428, 0.00016309, -0.000552687, 0.000129499, -0.00105699, -0.00421735, 0.00126745, 0.0150023, -0.0255532, 0.0137359, 0.0367892, 0.0367721, 0.0899705, -0.0107184, -0.44413, 0.634204, -3.12995, -0.0557547, -0.110674, -0.0105666, -0.443571, 0.634091, -3.13129, -0.0541984, -0.10413, 0.0128186, 0.0181849, -0.0264151, -0.00218711, -0.00802321, -0.0139783
0.10206, 0.107872, -0.774203, -0.917938, -1.45804, -0.626969, 1.07087, -0.256739, 0.00804016, 0.0068295, -0.0325201, -0.0195521, -0.0168947, 0.010691, 0.00161982, 0.325081, 16.525, 20.1212, 15.9161, 1.2334, 3.37436, -0.0557752, 0.000148678, -0.000525638, 0.000116063, -0.00109494, -0.00430657, 0.00129326, 0.0147814, -0.0268418, 0.0137408, 0.038751, 0.0382305, 0.0887514, -0.0107055, -0.444112, 0.634177, -3.12989, -0.0557614, -0.110774, -0.0105679, -0.44358, 0.634076, -3.13127, -0.0541644, -0.104092, 0.0130915, 0.0185254, -0.0269437, -0.00164879, -0.00896352, -0.0144992
0.10306, 0.107889, -0.774203, -0.917973, -1.45805, -0.626978, 1.07087, -0.256747, 0.0110285, 0.00489838, -0.034164, -0.0159601, -0.0171281, 0.00827974, -0.00159888, 0.245735, 16.525, 20.1212, 15.8408, 1.22699, 3.36703, 0.0165515, 0.000134872, -0.000498691, 0.000101937, -0.0011311, -0.00438767, 0.00129572, 0.0158717, -0.027419, 0.0145532, 0.0384043, 0.0356785, 0.0938103, -0.0106922, -0.444093, 0.63415, -3.12983, -0.0557683, -0.110876, -0.0105685, -0.443589, 0.634062, -3.13125, -0.0541668, -0.10407, 0.0133669, 0.0188676, -0.0274763, -0.00249737, -0.00924598, -0.0143059
0.10406, 0.107902, -0.774203, -0.918003, -1.45808, -0.626987, 1.07088, -0.25674, 0.011268, 0.00352462, -0.0334105, -0.0169387, -0.0173236, 0.00590943, 0.00134158, 0.245735, 16.525, 20.0458, 15.9161, 1.2215, 3.37436, -0.0484509, 0.000122635, -0.000473273, 8.87814e-05, -0.00116639, -0.00447676, 0.00130873, 0.016278, -0.0271688, 0.0147632, 0.0373214, 0.0364791, 0.094171, -0.0106787, -0.444074, 0.634122, -3.12976, -0.0557754, -0.110981, -0.0105672, -0.443596, 0.634046, -3.13123, -0.0541531, -0.104037, 0.0136449, 0.0192114, -0.0280126, -0.0026489, -0.0086696, -0.0146624
0.10506, 0.107913, -0.7742, -0.918036, -1.4581, -0.626996, 1.07089, -0.256743, 0.012324, -0.00292283, -0.0372345, -0.0148984, -0.0127641, 0.00470654, -0.000292411, 0.21003, 16.4893, 20.0101, 15.8765, 1.21509, 3.36703, -0.0164075, 0.000107664, -0.000446822, 7.33539e-05, -0.0012048, -0.00456504, 0.00131857, 0.0189116, -0.0277958, 0.0144871, 0.033437, 0.026281, 0.0971914, -0.0106649, -0.444055, 0.634094, -3.1297, -0.0557826, -0.111087, -0.0105685, -0.443604, 0.634032, -3.13121, -0.0541444, -0.104008, 0.0139255, 0.0195569, -0.0285528, -0.00495232, -0.00904155, -0.015673
0.10606, 0.107924, -0.774203, -0.918068, -1.45811, -0.627005, 1.0709, -0.256748, 0.0122465, -0.00232802, -0.0367355, -0.0134451, -0.0093613, 0.00374679, 0.00307333, 0.21003, 16.4893, 19.9705, 15.8408, 1.20868, 3.36062, 0.0229602, 9.20114e-05, -0.000419724, 5.79795e-05, -0.00124474, -0.00465044, 0.00132586, 0.0185951, -0.0275419, 0.0155784, 0.0333512, 0.0240378, 0.097118, -0.0106509, -0.444035, 0.634065, -3.12963, -0.05579, -0.111195, -0.0105701, -0.443612, 0.634017, -3.13119, -0.0541397, -0.103985, 0.0142086, 0.019904, -0.0290967, -0.0044407, -0.00844225, -0.0151069
0.10706, 0.107937, -0.774203, -0.918101, -1.45814, -0.627017, 1.07091, -0.256741, 0.0131364, -0.00183661, -0.0395129, -0.0189375, -0.0115655, 0.00253931, 0.00485025, 0.170357, 16.4893, 19.9347, 15.9518, 1.20318, 3.36703, -0.0420422, 7.87427e-05, -0.00039264, 4.55385e-05, -0.00128043, -0.00474865, 0.00133935, 0.0186293, -0.0281163, 0.0135711, 0.0294654, 0.0307482, 0.0979968, -0.0106365, -0.444015, 0.634036, -3.12957, -0.0557975, -0.111306, -0.0105689, -0.443619, 0.633999, -3.13117, -0.0541258, -0.103944, 0.0144943, 0.0202526, -0.0296444, -0.00402709, -0.0086482, -0.0176671
0.10806, 0.107949, -0.774209, -0.918131, -1.45816, -0.627027, 1.07091, -0.256746, 0.00971384, -0.0032011, -0.038556, -0.0186025, -0.00939382, 0.0068493, 0.00159611, 0.170357, 16.5646, 19.8951, 15.8765, 1.2215, 3.36062, 0.0101428, 6.13463e-05, -0.000365279, 2.75371e-05, -0.00132432, -0.00483228, 0.00134548, 0.019692, -0.0287601, 0.0149551, 0.0342319, 0.0255202, 0.101585, -0.0106219, -0.443995, 0.634006, -3.1295, -0.0558053, -0.111418, -0.0105719, -0.443627, 0.633986, -3.13115, -0.0541231, -0.103928, 0.0147825, 0.0206027, -0.0301957, -0.00487389, -0.00899486, -0.0169223
0.10906, 0.107954, -0.774201, -0.918161, -1.45818, -0.627034, 1.07092, -0.256744, 0.00939504, 0.000304305, -0.0376699, -0.0201989, -0.011224, 0.00433563, 0.00203161, 0.21003, 16.4536, 19.8594, 15.8765, 1.20868, 3.38168, -0.00999879, 4.67995e-05, -0.000339651, 1.12125e-05, -0.00136171, -0.00493669, 0.00136037, 0.0190403, -0.0284905, 0.0152193, 0.0339107, 0.0329047, 0.103585, -0.010607, -0.443974, 0.633975, -3.12943, -0.0558132, -0.111532, -0.0105717, -0.443633, 0.63397, -3.13112, -0.0541074, -0.103881, 0.0150731, 0.0209542, -0.0307507, -0.00396274, -0.00835488, -0.0171684
0.11006, 0.107968, -0.774199, -0.918195, -1.45821, -0.627042, 1.07092, -0.256741, 0.00799008, 0.000918023, -0.0349216, -0.0205352, -0.00891308, 0.00357368, 0.00247, 0.170357, 16.4178, 19.8594, 15.8408, 1.2215, 3.37436, -0.0356336, 3.28114e-05, -0.000311874, -4.61536e-06, -0.00139965, -0.00503533, 0.00137142, 0.0184104, -0.0278207, 0.016478, 0.035044, 0.0324744, 0.107279, -0.0105917, -0.443953, 0.633944, -3.12936, -0.0558213, -0.111649, -0.0105706, -0.44364, 0.633954, -3.1311, -0.0540978, -0.103846, 0.0153663, 0.0213072, -0.0313093, -0.00315597, -0.00732517, -0.0164243
0.11106, 0.107976, -0.774204, -0.918228, -1.45823, -0.627048, 1.07093, -0.256745, 0.00813998, -0.00114847, -0.0368095, -0.0208953, -0.0118534, 0.00320008, 0.000550584, 0.21003, 16.4893, 19.8951, 15.8011, 1.2334, 3.36062, -0.00267457, 1.35408e-05, -0.000283888, -2.19533e-05, -0.00144051, -0.00512544, 0.00138237, 0.0203882, -0.0288181, 0.0163117, 0.0355273, 0.0333961, 0.10887, -0.0105762, -0.443931, 0.633913, -3.12929, -0.0558295, -0.111768, -0.0105745, -0.443647, 0.633938, -3.13107, -0.0540883, -0.103826, 0.015662, 0.0216616, -0.0318714, -0.00478502, -0.00803666, -0.0173056
0.11206, 0.107985, -0.774199, -0.918263, -1.45826, -0.627056, 1.07093, -0.25674, 0.00530256, 0.000837253, -0.0356668, -0.0230238, -0.0132607, 0.00706396, 0.00120651, 0.245735, 16.4178, 19.9705, 15.8408, 1.22699, 3.36062, -0.0228162, -1.00653e-06, -0.00025618, -3.67791e-05, -0.00147598, -0.00523448, 0.00139744, 0.0203636, -0.0295468, 0.01708, 0.0404768, 0.0360551, 0.108868, -0.0105604, -0.443909, 0.63388, -3.12921, -0.055838, -0.111888, -0.0105733, -0.443654, 0.633919, -3.13104, -0.054073, -0.103778, 0.0159602, 0.0220173, -0.0324371, -0.0044917, -0.00841801, -0.0171131
0.11306, 0.107998, -0.774199, -0.918287, -1.45828, -0.627065, 1.07094, -0.256745, 0.00804215, -0.000327702, -0.0312816, -0.0226929, -0.0108448, 0.00581722, -0.000108908, 0.21003, 16.4536, 19.8951, 15.8011, 1.25171, 3.34598, 0.00373412, -1.3337e-05, -0.00022935, -5.64931e-05, -0.00152344, -0.00533641, 0.00139305, 0.0180892, -0.0286541, 0.0187799, 0.0421723, 0.0335495, 0.119449, -0.0105443, -0.443887, 0.633848, -3.12914, -0.0558466, -0.112011, -0.0105699, -0.443659, 0.633905, -3.13102, -0.0540876, -0.103745, 0.0162609, 0.0223744, -0.0330063, -0.00207816, -0.007109, -0.0158198
0.11406, 0.108, -0.774203, -0.918318, -1.45831, -0.627073, 1.07094, -0.256744, 0.00739338, -0.00109168, -0.0307224, -0.0275462, -0.00804647, 0.00457345, 0.000488595, 0.285408, 16.4893, 19.9347, 15.8408, 1.25171, 3.33865, -0.00999879, -3.36635e-05, -0.00020255, -7.22668e-05, -0.00155766, -0.00544378, 0.00140791, 0.0172798, -0.0280404, 0.0179343, 0.0386026, 0.0346762, 0.124676, -0.0105279, -0.443865, 0.633814, -3.12906, -0.0558554, -0.112136, -0.0105739, -0.443664, 0.633886, -3.13099, -0.054073, -0.103704, 0.016564, 0.0227327, -0.033579, -0.000931112, -0.00610071, -0.0171761
0.11506, 0.108006, -0.774198, -0.918348, -1.45834, -0.627082, 1.07095, -0.256746, 0.00392298, 0.00091416, -0.0301206, -0.0291053, -0.00689228, 0.00414689, -0.000380824, 0.360787, 16.4178, 19.9705, 15.8011, 1.27643, 3.31759, 0.0101428, -4.96381e-05, -0.00017397, -9.20255e-05, -0.00160607, -0.00555311, 0.0014173, 0.0177818, -0.0278231, 0.0183755, 0.0387361, 0.0372329, 0.126117, -0.0105112, -0.443842, 0.633781, -3.12899, -0.0558644, -0.112263, -0.0105735, -0.443671, 0.63387, -3.13097, -0.0540666, -0.103663, 0.0168696, 0.0230922, -0.034155, -0.00116638, -0.00554812, -0.0173498
0.11606, 0.108013, -0.774199, -0.918379, -1.45837, -0.627085, 1.07095, -0.256745, 0.00538774, -0.000247147, -0.0274505, -0.0312579, -0.005495, 0.00327438, 0.000250408, 0.400459, 16.4536, 20.0458, 15.8011, 1.28833, 3.31027, -0.00267457, -6.6284e-05, -0.000146999, -0.000109272, -0.00164111, -0.00566244, 0.00142561, 0.0162758, -0.0272622, 0.0189143, 0.0388183, 0.0370071, 0.132998, -0.0104942, -0.443818, 0.633746, -3.12891, -0.0558736, -0.112393, -0.0105733, -0.443675, 0.633852, -3.13093, -0.0540626, -0.103623, 0.0171776, 0.0234529, -0.0347344, 0.000582895, -0.00458124, -0.0172822
0.11706, 0.108021, -0.7742, -0.918402, -1.4584, -0.627091, 1.07095, -0.256742, 0.00427885, -0.000180791, -0.0266604, -0.0288845, -0.00471991, 0.00263307, 0.00117246, 0.400459, 16.4536, 20.0458, 15.7654, 1.30755, 3.30295, -0.0292249, -8.1227e-05, -0.000120709, -0.000129233, -0.00168392, -0.00577372, 0.0014305, 0.0171764, -0.0273631, 0.0204554, 0.0409662, 0.0354791, 0.132979, -0.0104768, -0.443795, 0.633711, -3.12883, -0.0558829, -0.112524, -0.0105714, -0.443679, 0.633835, -3.13091, -0.0540638, -0.103583, 0.017488, 0.0238148, -0.0353172, -0.000112254, -0.00437122, -0.0163972
0.11806, 0.108023, -0.774199, -0.918433, -1.45843, -0.627097, 1.07095, -0.256749, 0.00160459, -0.000132548, -0.0288727, -0.0279876, -0.00384579, 0.00216082, -0.00160922, 0.475838, 16.4536, 20.1569, 15.7654, 1.31946, 3.29562, 0.0357776, -0.000100116, -9.3007e-05, -0.000147758, -0.00172344, -0.0058904, 0.00143602, 0.0194031, -0.027933, 0.0207615, 0.0405518, 0.0348625, 0.133632, -0.0104592, -0.443771, 0.633676, -3.12875, -0.0558925, -0.112658, -0.0105729, -0.443683, 0.633817, -3.13087, -0.0540644, -0.103537, 0.0178009, 0.0241778, -0.0359033, -0.00202164, -0.00466143, -0.0168473
0.11906, 0.108024, -0.774196, -0.918453, -1.45846, -0.6271, 1.07095, -0.256742, -0.000307061, 0.000737838, -0.0268167, -0.0269237, -0.00811436, 0.0012699, 0.00134716, 0.551216, 16.4178, 20.1212, 15.6146, 1.33777, 3.30295, -0.0292249, -0.000117136, -6.70254e-05, -0.000172535, -0.00177377, -0.0060027, 0.00145183, 0.0207542, -0.0282009, 0.0223079, 0.0449378, 0.038876, 0.130021, -0.0104412, -0.443746, 0.633639, -3.12867, -0.0559023, -0.112794, -0.0105728, -0.443686, 0.633804, -3.13085, -0.0540488, -0.1035, 0.0181163, 0.0245419, -0.0364926, -0.0031559, -0.00463247, -0.0159982
0.12006, 0.108028, -0.774193, -0.918474, -1.4585, -0.627108, 1.07095, -0.256749, -0.000750089, 0.00141315, -0.0208108, -0.0317453, -0.00730112, 0.00119334, -0.00150003, 0.586922, 16.3782, 20.1569, 15.69, 1.37439, 3.29562, 0.0357776, -0.000130283, -4.08703e-05, -0.000192108, -0.00181752, -0.00613096, 0.00144357, 0.0179434, -0.0269529, 0.0231864, 0.0469054, 0.0421115, 0.142153, -0.0104229, -0.443722, 0.633603, -3.12858, -0.0559122, -0.112932, -0.0105681, -0.443688, 0.633785, -3.13082, -0.0540712, -0.103441, 0.018434, 0.0249071, -0.0370852, -0.000146128, -0.00293314, -0.0155043
0.12106, 0.108029, -0.774195, -0.918498, -1.45853, -0.627109, 1.07095, -0.256746, -0.0012107, 9.00944e-06, -0.0245115, -0.0312903, -0.00506538, 0.000852161, -0.000993005, 0.626595, 16.4178, 20.268, 15.6146, 1.3689, 3.29562, 0.0357776, -0.000148457, -1.39267e-05, -0.000213991, -0.00186135, -0.00624381, 0.00145276, 0.0197473, -0.0277455, 0.0228334, 0.0445567, 0.0393264, 0.141511, -0.0104044, -0.443697, 0.633565, -3.1285, -0.0559224, -0.113072, -0.0105682, -0.44369, 0.633768, -3.13079, -0.0540665, -0.103407, 0.0187541, 0.0252732, -0.0376809, -0.00157176, -0.00342045, -0.0165939
0.12206, 0.108025, -0.7742, -0.918519, -1.45857, -0.627114, 1.07094, -0.256736, -0.00240734, -0.00166823, -0.0251893, -0.0352589, -0.00411879, 6.80237e-05, 0.00222548, 0.701973, 16.4893, 20.3077, 15.5789, 1.3808, 3.31027, -0.0420422, -0.000169144, 1.19089e-05, -0.000235518, -0.00190363, -0.00636482, 0.00147071, 0.0203715, -0.0277339, 0.021963, 0.0419206, 0.0402085, 0.141388, -0.0103854, -0.443671, 0.633527, -3.12841, -0.0559327, -0.113214, -0.0105706, -0.443692, 0.63375, -3.13075, -0.0540485, -0.103363, 0.0190766, 0.0256403, -0.0382798, -0.0018107, -0.00305535, -0.0181102
0.12306, 0.108025, -0.774203, -0.918536, -1.4586, -0.627117, 1.07094, -0.256744, -0.00231784, -0.00195023, -0.0252325, -0.0334419, -0.00364982, 0.000348455, -0.000207823, 0.737679, 16.525, 20.3077, 15.4678, 1.39911, 3.30295, 0.00373412, -0.000186318, 3.82144e-05, -0.000260625, -0.00195542, -0.00648316, 0.00146536, 0.0209763, -0.0282083, 0.02315, 0.0440618, 0.03853, 0.1455, -0.0103662, -0.443645, 0.633489, -3.12833, -0.0559433, -0.113359, -0.0105693, -0.443693, 0.633735, -3.13072, -0.0540666, -0.103326, 0.0194015, 0.0260084, -0.0388819, -0.0021587, -0.00319887, -0.017581
0.12406, 0.108027, -0.7742, -0.918558, -1.45865, -0.62712, 1.07094, -0.256741, -0.0006183, -0.000467072, -0.0244638, -0.0357533, -0.00351809, 0.00106998, 0.00132247, 0.701973, 16.4893, 20.4188, 15.5035, 1.42383, 3.28097, -0.0356336, -0.000200512, 6.54014e-05, -0.00028138, -0.00200031, -0.00661526, 0.00146767, 0.0192408, -0.0283937, 0.0233583, 0.0449842, 0.0413111, 0.149834, -0.0103466, -0.443619, 0.633449, -3.12824, -0.0559541, -0.113506, -0.0105645, -0.443695, 0.633715, -3.13069, -0.0540734, -0.103269, 0.0197288, 0.0263773, -0.039487, -0.000111704, -0.00295847, -0.0178586
0.12506, 0.108018, -0.7742, -0.918576, -1.45869, -0.627119, 1.07094, -0.256737, -0.00916522, -0.000312986, -0.0251333, -0.0395623, -0.00203159, 0.000188697, 0.00112123, 0.813057, 16.4893, 20.4545, 15.5035, 1.41192, 3.29562, -0.0420422, -0.000218557, 9.08748e-05, -0.000304332, -0.00204526, -0.00674359, 0.00147545, 0.0224988, -0.0280774, 0.022841, 0.0427657, 0.0435038, 0.146008, -0.0103267, -0.443593, 0.63341, -3.12815, -0.055965, -0.113655, -0.0105633, -0.443695, 0.633696, -3.13066, -0.0540719, -0.103221, 0.0200585, 0.0267472, -0.0400951, -0.00300519, -0.00238336, -0.019221
0.12606, 0.108018, -0.7742, -0.918589, -1.45873, -0.62712, 1.07095, -0.256749, -0.00657717, -0.00020986, -0.0217977, -0.037496, -0.00189046, 0.000919124, -0.00240433, 0.813057, 16.4893, 20.4545, 15.4282, 1.42383, 3.27456, 0.0431018, -0.000232303, 0.00011788, -0.000330383, -0.00210253, -0.00686972, 0.0014595, 0.0208648, -0.0280917, 0.0250447, 0.0476276, 0.0419495, 0.156029, -0.0103065, -0.443566, 0.633369, -3.12806, -0.0559762, -0.113807, -0.0105577, -0.443696, 0.633681, -3.13063, -0.0541069, -0.103179, 0.0203905, 0.0271178, -0.0407063, -0.00120542, -0.00199843, -0.0175204
0.12706, 0.108016, -0.774203, -0.918608, -1.45878, -0.627122, 1.07094, -0.256741, -0.00473505, 0.00526438, -0.0241465, -0.0419221, -0.00200992, 0.000114197, 0.00131449, 0.813057, 16.525, 20.5298, 15.4678, 1.44214, 3.2883, -0.0356336, -0.000248793, 0.000144013, -0.000352215, -0.00214547, -0.00700594, 0.00146478, 0.0186449, -0.0284191, 0.0237387, 0.0444479, 0.0511948, 0.156917, -0.010286, -0.443538, 0.633328, -3.12796, -0.0559876, -0.113961, -0.0105543, -0.443695, 0.63366, -3.13059, -0.0541099, -0.103122, 0.0207248, 0.0274892, -0.0413204, 0.00144612, -0.00186184, -0.0192828
0.12806, 0.108018, -0.774206, -0.918626, -1.45882, -0.627127, 1.07094, -0.256749, -0.00258419, 0.00310092, -0.022754, -0.0413884, -0.0020717, 0.000592313, -0.0017676, 0.777352, 16.5646, 20.6052, 15.3568, 1.46045, 3.27456, 0.0357776, -0.000266126, 0.000172377, -0.000378173, -0.00220046, -0.00713687, 0.00145668, 0.0182738, -0.0287321, 0.0248396, 0.0469434, 0.0487482, 0.165294, -0.0102651, -0.443511, 0.633287, -3.12787, -0.0559992, -0.114117, -0.0105516, -0.443697, 0.633643, -3.13056, -0.0541333, -0.103077, 0.0210615, 0.0278614, -0.0419374, 0.00208216, -0.00180524, -0.0187825
0.12906, 0.108013, -0.774206, -0.918646, -1.45888, -0.62713, 1.07094, -0.256743, -0.00593987, 0.0024568, -0.0216374, -0.0417455, -0.00189603, 0.000671809, -0.000228259, 0.813057, 16.5646, 20.6766, 15.3925, 1.47327, 3.26724, 0.0101428, -0.000283695, 0.000199501, -0.000400438, -0.00224504, -0.00727993, 0.00146319, 0.0197783, -0.0287645, 0.0257893, 0.0488276, 0.0483801, 0.163921, -0.0102438, -0.443483, 0.633244, -3.12777, -0.056011, -0.114275, -0.0105485, -0.443697, 0.633621, -3.13052, -0.0541348, -0.103015, 0.0214005, 0.0282343, -0.0425574, 0.000851695, -0.001532, -0.0185704
0.13006, 0.108012, -0.774208, -0.918659, -1.45893, -0.627131, 1.07095, -0.256741, -0.00437309, 0.00109479, -0.019089, -0.0471924, -0.00149761, 0.00072339, 0.00130642, 0.813057, 16.6003, 20.6766, 15.3925, 1.47876, 3.25992, -0.0292249, -0.000297476, 0.000226683, -0.00042532, -0.00229836, -0.00741813, 0.00145613, 0.0177743, -0.0283229, 0.0254011, 0.0482738, 0.05044, 0.171281, -0.0102223, -0.443454, 0.633201, -3.12768, -0.0560231, -0.114436, -0.0105415, -0.443697, 0.633602, -3.13049, -0.0541573, -0.102963, 0.0217418, 0.0286079, -0.0431802, 0.00320061, -0.000643819, -0.0194339
0.13106, 0.108002, -0.774215, -0.918672, -1.45898, -0.627132, 1.07094, -0.256747, -0.00591653, -0.000721474, -0.0172613, -0.0462215, -0.00613089, 0.00126534, -0.000824082, 0.928108, 16.6718, 20.6766, 15.3171, 1.49158, 3.23886, 0.0165515, -0.000317979, 0.000253616, -0.000451584, -0.00235249, -0.00755362, 0.00145186, 0.0197745, -0.029007, 0.0269133, 0.0536766, 0.0514423, 0.172973, -0.0102004, -0.443425, 0.633158, -3.12758, -0.0560353, -0.114599, -0.010541, -0.443696, 0.633582, -3.13045, -0.0541755, -0.102918, 0.0220854, 0.0289822, -0.0438058, 0.00146291, -0.00104565, -0.0187098
0.13206, 0.108004, -0.774219, -0.918685, -1.45904, -0.627133, 1.07094, -0.256743, -0.00324874, -0.00124467, -0.0158847, -0.0497534, -0.00469392, 0.000845951, 0.000908971, 0.888436, 16.7114, 20.6766, 15.2814, 1.49707, 3.23886, -0.0228162, -0.000330776, 0.000280521, -0.000476387, -0.00240307, -0.00769798, 0.00144161, 0.017654, -0.0287176, 0.0267376, 0.0525632, 0.0526106, 0.179871, -0.0101781, -0.443396, 0.633114, -3.12748, -0.0560478, -0.114764, -0.0105324, -0.443694, 0.633562, -3.13042, -0.0542035, -0.102861, 0.0224314, 0.029357, -0.0444342, 0.00392241, -0.000306993, -0.0193598
0.13306, 0.108004, -0.774219, -0.9187, -1.45909, -0.627134, 1.07094, -0.256747, -0.00234014, -0.000706537, -0.0149365, -0.052045, -0.00390641, 0.000837028, -0.000851859, 0.888436, 16.7114, 20.6766, 15.2417, 1.50989, 3.23153, 0.0165515, -0.000344437, 0.000308346, -0.000501381, -0.00245508, -0.00784755, 0.0014268, 0.0164688, -0.0286663, 0.0269553, 0.0527002, 0.0543251, 0.187243, -0.0101555, -0.443367, 0.633069, -3.12738, -0.0560605, -0.114932, -0.0105243, -0.443693, 0.633541, -3.13038, -0.0542389, -0.102798, 0.0227796, 0.0297325, -0.0450654, 0.0054317, 0.000156233, -0.019691
0.13406, 0.107998, -0.774221, -0.918719, -1.45915, -0.627134, 1.07095, -0.256743, -0.00660872, -0.00037859, -0.0153703, -0.0532648, -0.00259373, 0.000830631, 0.000890323, 0.963814, 16.7114, 20.7163, 15.1703, 1.50348, 3.22421, -0.0228162, -0.000361877, 0.000336875, -0.000526042, -0.00250532, -0.00799538, 0.00142748, 0.0182014, -0.0287564, 0.0272729, 0.0526762, 0.0547447, 0.184607, -0.0101325, -0.443337, 0.633024, -3.12728, -0.0560735, -0.115102, -0.0105195, -0.443693, 0.633518, -3.13034, -0.0542504, -0.10274, 0.0231301, 0.0301084, -0.0456993, 0.00403301, 0.000374071, -0.0201415
0.13506, 0.107999, -0.77423, -0.918732, -1.45922, -0.627135, 1.07095, -0.256746, -0.00393153, -0.00278152, -0.0136427, -0.0550898, -0.00237398, 0.00160592, -0.00062703, 0.928108, 16.8225, 20.6766, 15.1306, 1.5163, 3.19583, 0.0101428, -0.000376385, 0.00036537, -0.000551111, -0.00255952, -0.00814205, 0.00140882, 0.0170022, -0.0289026, 0.0277665, 0.0541766, 0.0532452, 0.193619, -0.0101092, -0.443306, 0.632978, -3.12717, -0.0560866, -0.115274, -0.0105116, -0.443692, 0.633496, -3.1303, -0.0542921, -0.102687, 0.0234829, 0.0304849, -0.0463358, 0.00554751, 0.000637676, -0.0202038
0.13606, 0.107998, -0.774232, -0.918748, -1.45928, -0.627135, 1.07095, -0.256743, -0.0019637, -0.00180235, -0.0167746, -0.0586709, -0.00171023, 0.000291478, 0.000565418, 0.888436, 16.8225, 20.6766, 15.0552, 1.5163, 3.21689, -0.0164075, -0.000391059, 0.00039355, -0.00057628, -0.00260917, -0.00829721, 0.00139963, 0.0164391, -0.0293587, 0.026312, 0.0498646, 0.0571869, 0.196606, -0.0100856, -0.443276, 0.632931, -3.12707, -0.0561, -0.115449, -0.0105034, -0.443691, 0.633473, -3.13025, -0.0543196, -0.102623, 0.0238379, 0.0308619, -0.046975, 0.00658469, 0.000595168, -0.0222616
0.13706, 0.107997, -0.774233, -0.918769, -1.45935, -0.627134, 1.07095, -0.25674, -0.00559348, -0.00432307, -0.0175371, -0.0632385, -0.000761121, 0.000466154, 0.000614375, 0.928108, 16.8225, 20.752, 15.0552, 1.50348, 3.20956, -0.0228162, -0.000405312, 0.000422842, -0.000597966, -0.00265341, -0.00845955, 0.00139137, 0.0182285, -0.0294617, 0.025414, 0.0478241, 0.0571627, 0.19763, -0.0100616, -0.443245, 0.632884, -3.12696, -0.0561137, -0.115626, -0.0104942, -0.44369, 0.633446, -3.1302, -0.0543462, -0.102549, 0.0241952, 0.0312393, -0.0476168, 0.00522604, 0.000815558, -0.0239376
0.13806, 0.107993, -0.774243, -0.91878, -1.45942, -0.627134, 1.07095, -0.256745, -0.00808366, -0.00873603, -0.012168, -0.0646235, -0.000816537, 0.000819821, -0.0017605, 0.963814, 16.9296, 20.7163, 14.9799, 1.50989, 3.19583, 0.0357776, -0.000421325, 0.000451184, -0.000623458, -0.00270726, -0.00861408, 0.00137087, 0.0189391, -0.0287917, 0.0271391, 0.0519001, 0.0535958, 0.204799, -0.0100372, -0.443213, 0.632836, -3.12686, -0.0561275, -0.115806, -0.0104867, -0.443687, 0.633421, -3.13016, -0.0543915, -0.102491, 0.0245547, 0.0316171, -0.0482612, 0.00472349, 0.0018119, -0.0229125
0.13906, 0.107995, -0.774245, -0.918792, -1.45949, -0.627136, 1.07095, -0.256741, -0.00419585, -0.00542392, -0.0105825, -0.0693905, -0.00103899, 0.000818134, 0.00123387, 0.888436, 16.8939, 20.6409, 14.9442, 1.52179, 3.18851, -0.0292249, -0.000432006, 0.000479727, -0.000648193, -0.00275946, -0.00878106, 0.00135236, 0.015091, -0.0286001, 0.0267983, 0.0515515, 0.0604656, 0.211701, -0.0100124, -0.443182, 0.632787, -3.12675, -0.0561417, -0.115988, -0.0104734, -0.443685, 0.633396, -3.13012, -0.0544343, -0.102416, 0.0249165, 0.0319953, -0.0489081, 0.00893602, 0.00251952, -0.0236168
0.14006, 0.107995, -0.774245, -0.918792, -1.45949, -0.627136, 1.07095, -0.256741, -0.00419585, -0.00542392, -0.0105825, -0.0693905, -0.00103899, 0.000818134, 0.00123387, 0.888436, 16.8939, 20.6409, 14.9442, 1.52179, 3.18851, -0.0292249, -0.00045442, 0.000510369, -0.000699682, -0.002861, -0.00890313, 0.00135997, 0.0154157, -0.0289552, 0.0274827, 0.0527677, 0.0607912, 0.214202, -0.00998734, -0.443149, 0.632738, -3.12664, -0.056156, -0.116172, -0.0104734, -0.443685, 0.633396, -3.13012, -0.0544343, -0.102416, 0.0252805, 0.0323738, -0.0495576, 0.00893602, 0.00251952, -0.0236168
0.14106, 0.107995, -0.774245, -0.918792, -1.45949, -0.627136, 1.07095, -0.256741, -0.00419585, -0.00542392, -0.0105825, -0.0693905, -0.00103899, 0.000818134, 0.00123387, 0.888436, 16.8939, 20.6409, 14.9442, 1.52179, 3.18851, -0.0292249, -0.000477149, 0.000541357, -0.000751865, -0.00296382, -0.0090268, 0.00136771, 0.0157424, -0.0293103, 0.0281699, 0.0539869, 0.0611197, 0.216713, -0.00996188, -0.443117, 0.632688, -3.12652, -0.0561706, -0.116359, -0.0104734, -0.443685, 0.633396, -3.13012, -0.0544343, -0.102416, 0.0256467, 0.0327526, -0.0502094, 0.00893602, 0.00251952, -0.0236168
0.14206, 0.107986, -0.774264, -0.918834, -1.45972, -0.627133, 1.07095, -0.256746, -0.00378898, -0.00676824, -0.0114763, -0.0758781, 0.000501636, 0.00138435, 0.000350565, 0.928108, 16.8939, 20.4941, 14.8331, 1.49707, 3.14548, 0.00373412, -0.000475422, 0.000566469, -0.000722176, -0.00291058, -0.00928311, 0.00129228, 0.014894, -0.0294031, 0.0266022, 0.0506828, 0.0629471, 0.223898, -0.00993605, -0.443084, 0.632638, -3.12641, -0.0561854, -0.116548, -0.0104428, -0.443677, 0.633316, -3.12997, -0.0545714, -0.102202, 0.0260151, 0.0331317, -0.0508638, 0.0102668, 0.00285453, -0.0257774
0.14306, 0.107983, -0.774275, -0.918849, -1.4598, -0.627134, 1.07095, -0.25674, -0.00285363, -0.00905809, -0.011146, -0.0763349, -0.000157324, 0.00173681, 0.000979708, 0.928108, 16.9296, 20.4545, 14.722, 1.50989, 3.1235, -0.0164075, -0.000492783, 0.000597213, -0.000747901, -0.00296532, -0.00944929, 0.00128202, 0.0153966, -0.0298793, 0.027168, 0.0522364, 0.0616163, 0.226911, -0.00990985, -0.44305, 0.632586, -3.1263, -0.0562005, -0.11674, -0.0104348, -0.443675, 0.633289, -3.12992, -0.0546023, -0.102138, 0.0263857, 0.0335111, -0.0515205, 0.0101091, 0.00272934, -0.0259181
0.14406, 0.107985, -0.774289, -0.918861, -1.45988, -0.627134, 1.07095, -0.256742, -0.00438353, -0.00767529, -0.0133214, -0.0795862, -0.000117655, 0.00220911, -0.000330196, 0.888436, 16.9693, 20.3791, 14.722, 1.50989, 3.09512, 0.0101428, -0.000505766, 0.000627145, -0.000772442, -0.00301826, -0.00961839, 0.00125143, 0.0159645, -0.0304647, 0.0263926, 0.0508339, 0.0652718, 0.229248, -0.00988328, -0.443017, 0.632535, -3.12618, -0.0562158, -0.116934, -0.010422, -0.443672, 0.63326, -3.12987, -0.0546651, -0.102071, 0.0267585, 0.0338906, -0.0521796, 0.00999224, 0.00251159, -0.0274049
0.14506, 0.107982, -0.774304, -0.918875, -1.45996, -0.627134, 1.07096, -0.256741, -0.00337027, -0.00873206, -0.0134268, -0.0770531, -8.80159e-05, 0.00252396, 1.72351e-05, 0.888436, 16.9693, 20.3791, 14.6466, 1.50989, 3.06674, 0.00373412, -0.000522865, 0.000658124, -0.000798505, -0.0030737, -0.00978584, 0.0012326, 0.0166872, -0.031098, 0.0277947, 0.0535309, 0.0627465, 0.2311, -0.00985633, -0.442983, 0.632482, -3.12606, -0.0562314, -0.11713, -0.010413, -0.44367, 0.633231, -3.12982, -0.0547098, -0.10201, 0.0271335, 0.0342704, -0.052841, 0.0095628, 0.00221, -0.0267354
0.14606, 0.107982, -0.77431, -0.918887, -1.46005, -0.627134, 1.07096, -0.256741, -0.00174756, -0.00788663, -0.0151985, -0.0782343, 0.000171497, 0.00195395, 1.14954e-05, 0.85273, 16.8939, 20.3077, 14.5712, 1.50348, 3.05942, 0.00373412, -0.000535537, 0.000688244, -0.000824411, -0.00312717, -0.00996684, 0.00120727, 0.0163924, -0.0316135, 0.0275591, 0.0523027, 0.0648933, 0.234646, -0.00982901, -0.442948, 0.632429, -3.12594, -0.0562473, -0.117329, -0.0103992, -0.443667, 0.633203, -3.12977, -0.0547651, -0.10193, 0.0275107, 0.0346502, -0.0535047, 0.0102673, 0.0020854, -0.0276237
0.14706, 0.107971, -0.774324, -0.918904, -1.46014, -0.627137, 1.07096, -0.25674, -0.00716762, -0.0130774, -0.014862, -0.0851946, -0.000806584, 0.00130266, 0.000245026, 0.963814, 16.9296, 20.3077, 14.6069, 1.5282, 3.05942, -0.00267457, -0.000555966, 0.000719069, -0.000847028, -0.00317509, -0.0101498, 0.00119303, 0.0194209, -0.0314383, 0.0261628, 0.0497365, 0.0656045, 0.234934, -0.00980131, -0.442913, 0.632375, -3.12582, -0.0562634, -0.117531, -0.0103925, -0.443664, 0.633169, -3.12971, -0.0548037, -0.101849, 0.02789, 0.0350302, -0.0541706, 0.00772383, 0.00254991, -0.0299139
0.14806, 0.10797, -0.774341, -0.918922, -1.46024, -0.627134, 1.07096, -0.256743, -0.00842613, -0.0129186, -0.0153364, -0.089187, 0.000136404, 0.001411, -0.000786082, 0.963814, 16.9296, 20.3434, 14.6069, 1.50989, 3.04477, 0.0229602, -0.000571307, 0.00075034, -0.000867487, -0.0032177, -0.0103323, 0.00116162, 0.0194072, -0.0315128, 0.0255641, 0.0482041, 0.067963, 0.239407, -0.00977323, -0.442878, 0.63232, -3.1257, -0.0562797, -0.117734, -0.0103802, -0.443661, 0.633133, -3.12965, -0.0548695, -0.101771, 0.0282715, 0.0354102, -0.0548388, 0.00816387, 0.00286163, -0.0311852
0.14906, 0.107971, -0.77436, -0.918923, -1.46033, -0.627134, 1.07096, -0.256738, -0.00759288, -0.0159198, -0.0128959, -0.0878161, 8.79052e-05, 0.00172058, 0.00117137, 0.888436, 16.9296, 20.1212, 14.4205, 1.50989, 3.02371, -0.0228162, -0.000584042, 0.000779742, -0.000898148, -0.00328273, -0.010506, 0.00113097, 0.0197579, -0.0316263, 0.0272754, 0.051814, 0.0642164, 0.24201, -0.00974476, -0.442843, 0.632265, -3.12558, -0.0562963, -0.117941, -0.0103658, -0.443656, 0.633107, -3.1296, -0.0549333, -0.101711, 0.0286551, 0.0357903, -0.0555092, 0.00807094, 0.00308774, -0.0301837
0.15006, 0.107964, -0.774373, -0.918936, -1.46043, -0.627134, 1.07096, -0.256749, -0.00670488, -0.0156559, -0.0123288, -0.0933178, 0.000293689, 0.00141833, -0.00189785, 0.928108, 16.8225, 20.0815, 14.4958, 1.50348, 3.01639, 0.0495105, -0.000599713, 0.000810343, -0.000921346, -0.00333109, -0.0106972, 0.0010926, 0.0183097, -0.03147, 0.0264098, 0.0499316, 0.0684156, 0.251887, -0.00971592, -0.442807, 0.632209, -3.12545, -0.0563132, -0.11815, -0.0103533, -0.443651, 0.633073, -3.12954, -0.0550103, -0.101625, 0.0290408, 0.0361704, -0.0561817, 0.00995637, 0.00368479, -0.0316145
0.15106, 0.107961, -0.774392, -0.918953, -1.46053, -0.627133, 1.07097, -0.256739, -0.00718494, -0.0171154, -0.0136998, -0.0929207, 0.000431447, 0.00175937, 0.00141353, 0.888436, 16.7828, 20.1212, 14.5355, 1.49707, 2.99441, -0.0228162, -0.000616938, 0.000842546, -0.000944498, -0.00338009, -0.0108831, 0.00107524, 0.0197721, -0.0321775, 0.0268534, 0.0506974, 0.0668397, 0.249514, -0.00968668, -0.44277, 0.632153, -3.12533, -0.0563304, -0.118361, -0.0103419, -0.443648, 0.633038, -3.12948, -0.0550549, -0.10155, 0.0294287, 0.0365505, -0.0568564, 0.00887653, 0.00329616, -0.0319728
0.15206, 0.107963, -0.774421, -0.918963, -1.46063, -0.627135, 1.07097, -0.256744, -0.00682756, -0.0201917, -0.0152026, -0.0930154, -0.000425724, 0.00168155, -0.000990424, 0.813057, 16.8225, 20.0458, 14.4601, 1.5163, 2.98068, 0.0293689, -0.000635429, 0.00087464, -0.000971361, -0.00343712, -0.0110593, 0.00103785, 0.021537, -0.0329759, 0.0269935, 0.050977, 0.0649636, 0.253382, -0.00965706, -0.442734, 0.632096, -3.1252, -0.0563478, -0.118575, -0.0103317, -0.443645, 0.633005, -3.12942, -0.0551305, -0.101493, 0.0298187, 0.0369305, -0.0575331, 0.00752351, 0.00281034, -0.0326606
0.15306, 0.107958, -0.774439, -0.918974, -1.46073, -0.627134, 1.07097, -0.256745, -0.00762227, -0.0179463, -0.0140052, -0.0951076, 0.000189943, -0.00368579, -0.00116891, 0.777352, 16.6718, 20.0101, 14.4601, 1.50348, 2.98068, 0.0431018, -0.000651706, 0.000905666, -0.000996583, -0.00348854, -0.0112524, 0.00100591, 0.0211944, -0.0318509, 0.0270405, 0.0471386, 0.0711193, 0.257606, -0.00962704, -0.442696, 0.632038, -3.12507, -0.0563654, -0.118791, -0.0103187, -0.44364, 0.632971, -3.12936, -0.0551983, -0.101412, 0.0302108, 0.0373105, -0.0582119, 0.00820946, 0.00432252, -0.0332598
0.15406, 0.107953, -0.774465, -0.918981, -1.46084, -0.627134, 1.07097, -0.256738, -0.00905297, -0.0192598, -0.0122317, -0.0984464, -0.00011145, -0.00231522, 0.00166213, 0.777352, 16.636, 19.9347, 14.5355, 1.50989, 2.96603, -0.0228162, -0.000668566, 0.00093675, -0.00102136, -0.00354164, -0.0114435, 0.00097755, 0.021229, -0.0319265, 0.0273577, 0.0490067, 0.0718039, 0.258889, -0.00959664, -0.442659, 0.631979, -3.12494, -0.0563834, -0.11901, -0.010306, -0.443634, 0.632935, -3.12929, -0.0552608, -0.101336, 0.0306049, 0.0376903, -0.0588927, 0.00854493, 0.00461729, -0.0336352
0.15506, 0.107943, -0.774493, -0.918997, -1.46095, -0.627134, 1.07097, -0.256745, -0.0069199, -0.0224556, -0.013456, -0.103695, 0.00016252, -0.00157264, -0.00133332, 0.777352, 16.5646, 19.9705, 14.6069, 1.50348, 2.95871, 0.0431018, -0.000691012, 0.000969243, -0.00104479, -0.00358999, -0.0116339, 0.000945144, 0.0207956, -0.0324228, 0.0260058, 0.0466506, 0.0719168, 0.268531, -0.00956583, -0.442621, 0.63192, -3.12481, -0.0564016, -0.119232, -0.0102983, -0.44363, 0.632897, -3.12922, -0.05533, -0.101264, 0.0310012, 0.03807, -0.0595756, 0.00949075, 0.00453363, -0.0356463
0.15606, 0.107941, -0.774519, -0.918994, -1.46107, -0.627134, 1.07097, -0.256738, -0.00570315, -0.0240542, -0.00586936, -0.105626, -0.000129417, -0.000493849, 0.00155253, 0.6623, 16.4536, 19.784, 14.6069, 1.50989, 2.93765, -0.0228162, -0.000703733, 0.000999171, -0.00107338, -0.00365182, -0.0118279, 0.000905511, 0.0181844, -0.0314776, 0.0282703, 0.0525994, 0.0713287, 0.276134, -0.00953463, -0.442583, 0.63186, -3.12467, -0.0564201, -0.119456, -0.0102809, -0.443623, 0.632864, -3.12917, -0.0554102, -0.10119, 0.0313996, 0.0384495, -0.0602603, 0.0122813, 0.00591187, -0.0338687
0.15706, 0.107931, -0.774547, -0.919004, -1.46118, -0.627134, 1.07097, -0.256741, -0.00455948, -0.0253615, -0.00402298, -0.111679, -8.65815e-05, -0.000226954, 5.16755e-05, 0.6623, 16.3425, 19.7483, 14.6823, 1.50989, 2.93033, 0.00373412, -0.000723712, 0.00103101, -0.00109846, -0.00370425, -0.0120259, 0.000870837, 0.0165569, -0.0311996, 0.0275964, 0.0516849, 0.0741284, 0.285936, -0.00950303, -0.442544, 0.6318, -3.12454, -0.0564389, -0.119682, -0.0102701, -0.443617, 0.632826, -3.1291, -0.0554835, -0.101111, 0.0318, 0.0388288, -0.060947, 0.0143413, 0.00663365, -0.0351058
0.15806, 0.107925, -0.774578, -0.919017, -1.4613, -0.627134, 1.07097, -0.256742, -0.00184446, -0.0294868, -0.00744142, -0.112622, 0.00017941, -0.000278044, -0.000440267, 0.586922, 16.2314, 19.784, 14.722, 1.50348, 2.93033, 0.0165515, -0.000745254, 0.00106387, -0.00112334, -0.00375488, -0.0122206, 0.000837485, 0.017833, -0.0322769, 0.0268356, 0.0495553, 0.0710203, 0.289801, -0.00947103, -0.442505, 0.631738, -3.1244, -0.0564579, -0.119911, -0.0102604, -0.443612, 0.632787, -3.12903, -0.0555551, -0.10104, 0.0322025, 0.0392079, -0.0616356, 0.0135666, 0.00589919, -0.0366716
0.15906, 0.107918, -0.774616, -0.919012, -1.46141, -0.627135, 1.07097, -0.256739, -0.00220565, -0.0313004, -0.00139892, -0.114104, -0.000355282, -9.15086e-06, 0.000689833, 0.475838, 16.1957, 19.5975, 14.7934, 1.5163, 2.923, -0.00999879, -0.000762731, 0.00109375, -0.00115248, -0.00381718, -0.0124137, 0.000793517, 0.0167146, -0.0315003, 0.0287847, 0.0542577, 0.0705815, 0.296081, -0.00943863, -0.442466, 0.631676, -3.12426, -0.0564773, -0.120143, -0.0102467, -0.443604, 0.632752, -3.12897, -0.055643, -0.100975, 0.032607, 0.0395867, -0.062326, 0.0149047, 0.00705918, -0.0353297
0.16006, 0.107903, -0.774647, -0.919026, -1.46153, -0.627136, 1.07098, -0.256743, -0.00835159, -0.028952, -0.0032956, -0.115314, -0.000440433, 0.00073641, -0.000760815, 0.475838, 16.0092, 19.6729, 14.8688, 1.52179, 2.90103, 0.0229602, -0.000787819, 0.00112751, -0.00117719, -0.00386968, -0.0126165, 0.000765877, 0.0193845, -0.0320714, 0.0289678, 0.0548985, 0.0738115, 0.293174, -0.00940582, -0.442426, 0.631614, -3.12412, -0.0564969, -0.120377, -0.0102397, -0.443599, 0.632711, -3.1289, -0.0557063, -0.100897, 0.0330136, 0.0399652, -0.0630183, 0.0126545, 0.00676532, -0.03606
0.16106, 0.107892, -0.774691, -0.919026, -1.46165, -0.627135, 1.07098, -0.256745, -0.00874827, -0.0318501, -0.0040591, -0.118485, -9.02675e-05, 0.000437471, -0.00125319, 0.436165, 16.0092, 19.5975, 14.9084, 1.5163, 2.90103, 0.0431018, -0.000810806, 0.00115866, -0.00120588, -0.00392887, -0.0128069, 0.000723637, 0.0203619, -0.0323307, 0.0284016, 0.0532943, 0.0733038, 0.297149, -0.0093726, -0.442386, 0.63155, -3.12398, -0.0565168, -0.120614, -0.0102306, -0.443592, 0.632674, -3.12883, -0.0557923, -0.100841, 0.0334222, 0.0403434, -0.0637123, 0.0121388, 0.00685479, -0.0374051
0.16206, 0.107892, -0.774691, -0.919026, -1.46165, -0.627135, 1.07098, -0.256745, -0.00874827, -0.0318501, -0.0040591, -0.118485, -9.02675e-05, 0.000437471, -0.00125319, 0.436165, 16.0092, 19.5975, 14.9084, 1.5163, 2.90103, 0.0431018, -0.000840609, 0.0011969, -0.00127327, -0.00405919, -0.0129656, 0.000734754, 0.0207264, -0.0326799, 0.0291405, 0.0545559, 0.0736973, 0.299815, -0.00933897, -0.442345, 0.631486, -3.12384, -0.056537, -0.120853, -0.0102306, -0.443592, 0.632674, -3.12883, -0.0557923, -0.100841, 0.0338328, 0.0407212, -0.0644081, 0.0121388, 0.00685479, -0.0374051
0.16306, 0.107876, -0.774769, -0.919033, -1.4619, -0.627129, 1.07097, -0.25674, -0.00690867, -0.0396012, -0.00394379, -0.122573, 0.000287561, 0.000646247, 0.00583517, 0.245735, 15.791, 19.5618, 14.9799, 1.49707, 2.8873, -0.00267457, -0.000852062, 0.00122185, -0.00126057, -0.00403703, -0.0132065, 0.000642279, 0.0216558, -0.032962, 0.0283452, 0.0529795, 0.0686643, 0.299638, -0.00930493, -0.442304, 0.631421, -3.1237, -0.0565575, -0.121095, -0.0102062, -0.443576, 0.632595, -3.12868, -0.0559609, -0.100708, 0.0342455, 0.0410986, -0.0651057, 0.0116935, 0.00692628, -0.0389795
0.16406, 0.107856, -0.774812, -0.919034, -1.46203, -0.627126, 1.07097, -0.256738, -0.00966374, -0.0410218, -0.00233521, -0.119712, 0.00107329, 0.000679542, 0.00502749, 0.285408, 15.7156, 19.5261, 14.9799, 1.47327, 2.87997, -0.0228162, -0.000878339, 0.00125338, -0.00128961, -0.00409598, -0.0134054, 0.000610708, 0.0235752, -0.0330427, 0.030466, 0.0566589, 0.0650829, 0.300529, -0.00927048, -0.442263, 0.631356, -3.12355, -0.0565783, -0.121339, -0.0101992, -0.443568, 0.632556, -3.12861, -0.0560313, -0.100646, 0.0346601, 0.0414756, -0.0658049, 0.0100315, 0.00711519, -0.0377233
0.16506, 0.107848, -0.774857, -0.919038, -1.46216, -0.627126, 1.07097, -0.256744, -0.0111543, -0.0453614, -0.00279796, -0.125952, 0.000512043, 0.000707377, 0.00171243, 0.170357, 15.6442, 19.5618, 15.0552, 1.47876, 2.87265, 0.0293689, -0.000900247, 0.00128606, -0.00131557, -0.00415044, -0.0136121, 0.000558905, 0.0248975, -0.0332186, 0.0290692, 0.054177, 0.0656587, 0.307631, -0.00923561, -0.442221, 0.63129, -3.1234, -0.0565994, -0.121587, -0.0101871, -0.44356, 0.632513, -3.12853, -0.0561338, -0.100575, 0.0350768, 0.0418522, -0.0665058, 0.00924153, 0.00728783, -0.0399308
0.16606, 0.107832, -0.774903, -0.919036, -1.4623, -0.627124, 1.07097, -0.256741, -0.0110266, -0.0476031, -0.00216975, -0.126399, 0.00125687, 0.000458896, 0.00231121, 0.134651, 15.5331, 19.5618, 15.0949, 1.45404, 2.87265, 0.00373412, -0.000922445, 0.00131702, -0.00134247, -0.00420543, -0.0138215, 0.000515126, 0.0254756, -0.0333333, 0.0297509, 0.0548914, 0.0636692, 0.310926, -0.00920033, -0.442179, 0.631223, -3.12326, -0.0566208, -0.121836, -0.0101751, -0.443551, 0.632471, -3.12846, -0.0562241, -0.100503, 0.0354954, 0.0422282, -0.0672083, 0.00903194, 0.00751307, -0.0400095
0.16706, 0.107815, -0.774954, -0.919033, -1.46244, -0.62712, 1.07097, -0.256744, -0.0148583, -0.0478936, -0.000839618, -0.127508, 0.00104134, 0.000805041, 0.000756492, 0.134651, 15.4935, 19.5261, 15.0195, 1.44855, 2.85892, 0.0293689, -0.000947492, 0.00134795, -0.00137127, -0.00426233, -0.0140243, 0.000467055, 0.0269747, -0.0333399, 0.0306852, 0.0570367, 0.0644161, 0.312836, -0.00916462, -0.442137, 0.631155, -3.12311, -0.0566425, -0.122088, -0.0101656, -0.443541, 0.632429, -3.12838, -0.0563213, -0.100443, 0.0359161, 0.0426038, -0.0679124, 0.00788285, 0.00780846, -0.0399091
0.16806, 0.107798, -0.774998, -0.919028, -1.46258, -0.62712, 1.07097, -0.256744, -0.0167267, -0.0463359, 0.000197023, -0.133216, 0.00137239, 0.00134336, 0.000628167, 0.0949785, 15.3864, 19.4864, 15.0195, 1.43024, 2.83694, 0.0293689, -0.00096972, 0.00137923, -0.00139982, -0.00432297, -0.0142413, 0.000419838, 0.0260795, -0.0331048, 0.030134, 0.0563403, 0.0695305, 0.317652, -0.00912849, -0.442094, 0.631087, -3.12296, -0.0566645, -0.122343, -0.0101529, -0.443531, 0.632387, -3.12831, -0.0564176, -0.100364, 0.0363387, 0.0429789, -0.068618, 0.00922765, 0.0084551, -0.0411001
0.16906, 0.10778, -0.775046, -0.919019, -1.46273, -0.627117, 1.07097, -0.256736, -0.0158819, -0.0480723, 0.00260137, -0.13737, 0.000914914, 0.00089022, 0.00196972, 0.0949785, 15.2753, 19.3754, 15.0195, 1.43024, 2.83694, -0.00999879, -0.000990415, 0.00140922, -0.00142773, -0.00438048, -0.0144598, 0.000372795, 0.0251181, -0.0327525, 0.0301572, 0.0564741, 0.0714211, 0.3236, -0.00909194, -0.442051, 0.631018, -3.1228, -0.0566868, -0.122601, -0.0101382, -0.443519, 0.632343, -3.12823, -0.056514, -0.100286, 0.0367632, 0.0433533, -0.0693252, 0.0105914, 0.00921089, -0.041713
0.17006, 0.107762, -0.775098, -0.91902, -1.46288, -0.627114, 1.07097, -0.256746, -0.0112207, -0.0474464, 0.000802697, -0.139695, 0.0012881, 0.000318198, -0.0010586, 0.059273, 15.1999, 19.4111, 14.9799, 1.41192, 2.84427, 0.0559192, -0.00101659, 0.00144073, -0.00145434, -0.00443144, -0.0146768, 0.000317432, 0.0233469, -0.0332609, 0.0295017, 0.054314, 0.0741399, 0.333969, -0.00905497, -0.442007, 0.630949, -3.12265, -0.0567094, -0.122861, -0.0101284, -0.443509, 0.632297, -3.12814, -0.056624, -0.100212, 0.0371897, 0.0437272, -0.0700339, 0.0128486, 0.0091468, -0.0429522
0.17106, 0.107762, -0.775098, -0.91902, -1.46288, -0.627114, 1.07097, -0.256746, -0.0112207, -0.0474464, 0.000802697, -0.139695, 0.0012881, 0.000318198, -0.0010586, 0.059273, 15.1999, 19.4111, 14.9799, 1.41192, 2.84427, 0.0559192, -0.00104962, 0.00148197, -0.00152859, -0.00457378, -0.0148511, 0.000330225, 0.0237262, -0.0336031, 0.0302585, 0.0555822, 0.0745624, 0.336684, -0.00901756, -0.441964, 0.630878, -3.12249, -0.0567323, -0.123123, -0.0101284, -0.443509, 0.632297, -3.12814, -0.056624, -0.100212, 0.0376182, 0.0441005, -0.0707441, 0.0128486, 0.0091468, -0.0429522
0.17206, 0.107762, -0.775098, -0.91902, -1.46288, -0.627114, 1.07097, -0.256746, -0.0112207, -0.0474464, 0.000802697, -0.139695, 0.0012881, 0.000318198, -0.0010586, 0.059273, 15.1999, 19.4111, 14.9799, 1.41192, 2.84427, 0.0559192, -0.00108301, 0.00152354, -0.00160361, -0.00471746, -0.0150272, 0.000343202, 0.024107, -0.0339443, 0.0310173, 0.0568507, 0.0749878, 0.339404, -0.00897973, -0.441919, 0.630807, -3.12233, -0.0567555, -0.123389, -0.0101284, -0.443509, 0.632297, -3.12814, -0.056624, -0.100212, 0.0380486, 0.0444731, -0.0714557, 0.0128486, 0.0091468, -0.0429522
0.17306, 0.107762, -0.775098, -0.91902, -1.46288, -0.627114, 1.07097, -0.256746, -0.0112207, -0.0474464, 0.000802697, -0.139695, 0.0012881, 0.000318198, -0.0010586, 0.059273, 15.1999, 19.4111, 14.9799, 1.41192, 2.84427, 0.0559192, -0.00111676, 0.00156543, -0.00167941, -0.00486248, -0.0152051, 0.000356365, 0.0244892, -0.0342845, 0.0317779, 0.0581196, 0.0754163, 0.342129, -0.00894147, -0.441875, 0.630735, -3.12218, -0.056779, -0.123657, -0.0101284, -0.443509, 0.632297, -3.12814, -0.056624, -0.100212, 0.0384809, 0.044845, -0.0721687, 0.0128486, 0.0091468, -0.0429522
0.17406, 0.107682, -0.775298, -0.919002, -1.46351, -0.627101, 1.07097, -0.256741, -0.016403, -0.050773, 0.00310428, -0.154266, 0.00341122, 0.000390108, 0.00112254, -0.0914839, 15.0174, 19.3, 14.9799, 1.3689, 2.82229, 0.00373412, -0.00110911, 0.00156657, -0.00156136, -0.00465022, -0.0155873, 0.000110479, 0.0240293, -0.0329674, 0.0287637, 0.0519955, 0.080292, 0.34772, -0.00890277, -0.44183, 0.630663, -3.12202, -0.0568029, -0.123927, -0.010073, -0.443463, 0.632107, -3.1278, -0.0570448, -0.0998774, 0.0389151, 0.0452163, -0.0728831, 0.0139259, 0.0108998, -0.0466243
0.17506, 0.107666, -0.775347, -0.918989, -1.46368, -0.627099, 1.07097, -0.256746, -0.0168391, -0.0508719, 0.00568199, -0.162887, 0.00291334, 0.000767745, -0.000930527, -0.166862, 15.0174, 19.1532, 15.0195, 1.35608, 2.80856, 0.0495105, -0.00112625, 0.00159681, -0.00158947, -0.00470931, -0.0158258, 3.68801e-05, 0.0221035, -0.0323865, 0.0276391, 0.0506544, 0.0863529, 0.358191, -0.00886363, -0.441784, 0.630589, -3.12185, -0.0568271, -0.1242, -0.0100522, -0.443449, 0.632059, -3.12772, -0.0571848, -0.0997841, 0.0393512, 0.0455868, -0.0735988, 0.016344, 0.0119353, -0.0483081
0.17606, 0.107645, -0.7754, -0.918983, -1.46384, -0.627092, 1.07097, -0.256738, -0.0182194, -0.0498101, 0.0048501, -0.162484, 0.00318457, -0.00414914, 0.00207081, -0.206535, 14.9777, 19.1135, 14.8688, 1.32587, 2.80856, -0.0228162, -0.00115005, 0.00162841, -0.00161836, -0.00476599, -0.0160569, -1.0756e-05, 0.0236084, -0.0319217, 0.0279499, 0.0474549, 0.0898877, 0.35579, -0.00882406, -0.441738, 0.630515, -3.12169, -0.0568516, -0.124476, -0.0100377, -0.443436, 0.632011, -3.12763, -0.0572849, -0.0997046, 0.0397893, 0.0459565, -0.0743159, 0.0152373, 0.0127057, -0.0488378
0.17706, 0.107624, -0.775449, -0.918975, -1.46402, -0.627085, 1.07097, -0.256741, -0.0203213, -0.0525385, 0.00733838, -0.165873, 0.00289373, -0.00288372, 0.000406495, -0.206535, 14.942, 19.0778, 14.8688, 1.30755, 2.80124, 0.00373412, -0.00117003, 0.00165867, -0.00164377, -0.00481503, -0.0163032, -7.8361e-05, 0.0241735, -0.0318263, 0.0284627, 0.0496024, 0.0892976, 0.361614, -0.00878406, -0.441692, 0.630441, -3.12153, -0.0568764, -0.124755, -0.0100187, -0.443422, 0.63196, -3.12753, -0.0574169, -0.0996038, 0.0402292, 0.0463255, -0.0750342, 0.0150663, 0.0131358, -0.0490984
0.17806, 0.1076, -0.775503, -0.918964, -1.4642, -0.627081, 1.07097, -0.256738, -0.0216938, -0.05225, 0.00783023, -0.171025, 0.00291407, -0.00167161, 4.06117e-05, -0.206535, 14.942, 18.9667, 14.8331, 1.28284, 2.78659, 0.0101428, -0.00119158, 0.00168921, -0.00167103, -0.00487098, -0.0165482, -0.000139636, 0.0237425, -0.0319183, 0.027944, 0.0494613, 0.092747, 0.366367, -0.00874361, -0.441646, 0.630365, -3.12136, -0.0569015, -0.125036, -0.010001, -0.443407, 0.631909, -3.12744, -0.0575391, -0.0995081, 0.040671, 0.0466936, -0.0757538, 0.0159781, 0.0134324, -0.0503115
0.17906, 0.107574, -0.775555, -0.91896, -1.46438, -0.627076, 1.07097, -0.256743, -0.0204185, -0.0518855, 0.00463958, -0.172903, 0.00246947, -0.00133316, -0.000679772, -0.166862, 14.942, 19.0024, 14.722, 1.27002, 2.78659, 0.0293689, -0.00121519, 0.001721, -0.00169465, -0.00491797, -0.016801, -0.00020286, 0.0241689, -0.032889, 0.0272411, 0.0480473, 0.0951158, 0.369414, -0.00870271, -0.441599, 0.630289, -3.12119, -0.056927, -0.12532, -0.00998461, -0.443394, 0.631853, -3.12734, -0.0576652, -0.0994024, 0.0411146, 0.0470609, -0.0764746, 0.0160853, 0.0128233, -0.0517924
0.18006, 0.107553, -0.775604, -0.918955, -1.46458, -0.627072, 1.07097, -0.256741, -0.020819, -0.048405, 0.00560194, -0.177099, 0.00168535, -0.000781567, -0.000686617, -0.206535, 14.942, 19.0421, 14.722, 1.27002, 2.77926, 0.0357776, -0.00123396, 0.00175237, -0.00171681, -0.00496362, -0.0170645, -0.00027, 0.0226205, -0.0328726, 0.0271674, 0.0486962, 0.102069, 0.37424, -0.00866138, -0.441552, 0.630212, -3.12102, -0.0569528, -0.125606, -0.00996283, -0.443379, 0.631796, -3.12724, -0.057798, -0.0992827, 0.0415602, 0.0474273, -0.0771966, 0.0180747, 0.0132582, -0.0524727
