alisrour97/Franka_experiments/Real_Robot_scripts/servo-franka/Data4/log_dyn_PI3_0.csv
Time,q1,q2,q3,q4,q5,q6,q7,dq1,dq2,dq3,dq4,dq5,dq6,dq7,t1,t2,t3,t4,t5,t6,t7,ex1,ex2,ex3,ex4,ex5,ex6,ev1,ev2,ev3,ev4,ev5,ev6,xd,yd,zd,uxd,uyd,uzd,x,y,z,ux,uy,uz,vxd,vyd,vzd,vx,vy,vz
1.70898e-06, 0.107848, -0.773529, -0.913585, -1.45403, -0.624917, 1.0712, -0.25672, -0.00433194, 0.00684664, -0.00117474, -0.00059586, -0.00133289, -0.000162321, -2.82969e-05, -0.845268, 14.462, 15.17, 13.0399, 0.625487, 2.26382, -0.205922, 0.0017136, -0.00190141, -0.0015101, -0.00374605, 0.00170306, -0.000998557, 0.000346794, -5.40384e-05, -0.000151901, 0.000152435, 0.00834521, -0.00551904, -0.011112, -0.444721, 0.635038, -3.13187, -0.0555627, -0.107532, -0.00957728, -0.442772, 0.636673, -3.13548, -0.0574086, -0.110469, 0, 0, 0, -0.000333437, -6.48956e-05, -0.000175696
0.0122827, 0.107847, -0.773516, -0.913605, -1.45403, -0.624917, 1.0712, -0.256722, 0.00529314, -0.00440644, -0.00203867, 7.45716e-05, -0.000257125, 0.000284363, -0.00155421, -0.76989, 14.9063, 15.2811, 12.8534, 0.619078, 2.26382, -0.127186, 0.00171025, -0.00189776, -0.00150604, -0.00373639, 0.00169134, -0.000982625, -0.000294002, -0.000714632, -0.000846389, -0.00159018, -0.00426571, 0.0051297, -0.011112, -0.444721, 0.635038, -3.13187, -0.0555627, -0.107532, -0.00957762, -0.442777, 0.636669, -3.13547, -0.057372, -0.11042, 1.73063e-06, -1.42215e-06, -3.96181e-06, 0.000378278, -0.000697967, -0.000832544
0.0132827, 0.107847, -0.773516, -0.913605, -1.45403, -0.624917, 1.0712, -0.256722, 0.00529314, -0.00440644, -0.00203867, 7.45716e-05, -0.000257125, 0.000284363, -0.00155421, -0.76989, 14.9063, 15.2811, 12.8534, 0.619078, 2.26382, -0.127186, 0.00171025, -0.00189776, -0.00150605, -0.00373641, 0.00169132, -0.000982618, -0.000289796, -0.000710124, -0.000834246, -0.00156607, -0.00424925, 0.00517327, -0.011112, -0.444721, 0.635038, -3.13187, -0.0555628, -0.107532, -0.00957762, -0.442777, 0.636669, -3.13547, -0.057372, -0.11042, 6.91577e-06, -5.6745e-06, -1.58141e-05, 0.000378278, -0.000697967, -0.000832544
0.0142832, 0.107847, -0.773516, -0.913605, -1.45403, -0.624917, 1.0712, -0.256722, 0.00529314, -0.00440644, -0.00203867, 7.45716e-05, -0.000257125, 0.000284363, -0.00155421, -0.76989, 14.9063, 15.2811, 12.8534, 0.619078, 2.26382, -0.127186, 0.00171024, -0.00189777, -0.00150607, -0.00373646, 0.00169126, -0.000982599, -0.000282793, -0.000702638, -0.00081407, -0.00152602, -0.0042219, 0.00524567, -0.011112, -0.444721, 0.635038, -3.13187, -0.0555628, -0.107532, -0.00957762, -0.442777, 0.636669, -3.13547, -0.057372, -0.11042, 1.55453e-05, -1.2736e-05, -3.55071e-05, 0.000378278, -0.000697967, -0.000832544
0.0152832, 0.107847, -0.773516, -0.913605, -1.45403, -0.624917, 1.0712, -0.256722, 0.00529314, -0.00440644, -0.00203867, 7.45716e-05, -0.000257125, 0.000284363, -0.00155421, -0.76989, 14.9063, 15.2811, 12.8534, 0.619078, 2.26382, -0.127186, 0.00171022, -0.00189779, -0.00150612, -0.00373657, 0.00169114, -0.000982561, -0.000273, -0.000692195, -0.000785911, -0.00147015, -0.00418374, 0.00534672, -0.011112, -0.444721, 0.635038, -3.13187, -0.0555628, -0.107532, -0.00957762, -0.442777, 0.636669, -3.13547, -0.057372, -0.11042, 2.7609e-05, -2.25855e-05, -6.29913e-05, 0.000378278, -0.000697967, -0.000832544
0.0162832, 0.107847, -0.773516, -0.913605, -1.45403, -0.624917, 1.0712, -0.256722, 0.00529314, -0.00440644, -0.00203867, 7.45716e-05, -0.000257125, 0.000284363, -0.00155421, -0.76989, 14.9063, 15.2811, 12.8534, 0.619078, 2.26382, -0.127186, 0.00171019, -0.00189782, -0.0015062, -0.00373674, 0.00169096, -0.000982499, -0.000260422, -0.000678817, -0.000749817, -0.00139859, -0.00413482, 0.00547622, -0.0111119, -0.444721, 0.635038, -3.13187, -0.0555629, -0.107532, -0.00957762, -0.442777, 0.636669, -3.13547, -0.057372, -0.11042, 4.30968e-05, -3.5202e-05, -9.82172e-05, 0.000378278, -0.000697967, -0.000832544
0.0172832, 0.107847, -0.773516, -0.913605, -1.45403, -0.624917, 1.0712, -0.256722, 0.00529314, -0.00440644, -0.00203867, 7.45716e-05, -0.000257125, 0.000284363, -0.00155421, -0.76989, 14.9063, 15.2811, 12.8534, 0.619078, 2.26382, -0.127186, 0.00171015, -0.00189786, -0.00150633, -0.003737, 0.00169068, -0.000982406, -0.000245065, -0.000662526, -0.00070584, -0.00131145, -0.00407524, 0.005634, -0.0111119, -0.444721, 0.635038, -3.13187, -0.0555631, -0.107533, -0.00957762, -0.442777, 0.636669, -3.13547, -0.057372, -0.11042, 6.19987e-05, -5.05647e-05, -0.000141136, 0.000378278, -0.000697967, -0.000832544
0.0182832, 0.107847, -0.773516, -0.913605, -1.45403, -0.624917, 1.0712, -0.256722, 0.00529314, -0.00440644, -0.00203867, 7.45716e-05, -0.000257125, 0.000284363, -0.00155421, -0.76989, 14.9063, 15.2811, 12.8534, 0.619078, 2.26382, -0.127186, 0.00171009, -0.00189793, -0.00150649, -0.00373736, 0.00169029, -0.000982278, -0.000226935, -0.000643343, -0.000654027, -0.00120884, -0.00400504, 0.00581987, -0.0111118, -0.444721, 0.635037, -3.13187, -0.0555633, -0.107533, -0.00957762, -0.442777, 0.636669, -3.13547, -0.057372, -0.11042, 8.43044e-05, -6.86525e-05, -0.000191697, 0.000378278, -0.000697967, -0.000832544
0.0192834, 0.107847, -0.773516, -0.913605, -1.45403, -0.624917, 1.0712, -0.256722, 0.00529314, -0.00440644, -0.00203867, 7.45716e-05, -0.000257125, 0.000284363, -0.00155421, -0.76989, 14.9063, 15.2811, 12.8534, 0.619078, 2.26382, -0.127186, 0.00171001, -0.00189801, -0.00150672, -0.00373784, 0.00168977, -0.000982107, -0.000206038, -0.000621289, -0.00059443, -0.00109089, -0.00392431, 0.00603366, -0.0111117, -0.444721, 0.635037, -3.13187, -0.0555636, -0.107534, -0.00957762, -0.442777, 0.636669, -3.13547, -0.057372, -0.11042, 0.000110004, -8.94448e-05, -0.000249853, 0.000378278, -0.000697967, -0.000832544
0.0202837, 0.107847, -0.773516, -0.913605, -1.45403, -0.624917, 1.0712, -0.256722, 0.00529314, -0.00440644, -0.00203867, 7.45716e-05, -0.000257125, 0.000284363, -0.00155421, -0.76989, 14.9063, 15.2811, 12.8534, 0.619078, 2.26382, -0.127186, 0.00170991, -0.00189812, -0.001507, -0.00373845, 0.00168911, -0.000981888, -0.000182381, -0.000596386, -0.000527097, -0.000957705, -0.00383311, 0.00627519, -0.0111116, -0.444721, 0.635037, -3.13187, -0.055564, -0.107535, -0.00957762, -0.442777, 0.636669, -3.13547, -0.057372, -0.11042, 0.000139087, -0.000112921, -0.000315553, 0.000378278, -0.000697967, -0.000832544
0.0212842, 0.107847, -0.773516, -0.913605, -1.45403, -0.624917, 1.0712, -0.256722, 0.00529314, -0.00440644, -0.00203867, 7.45716e-05, -0.000257125, 0.000284363, -0.00155421, -0.76989, 14.9063, 15.2811, 12.8534, 0.619078, 2.26382, -0.127186, 0.00170979, -0.00189825, -0.00150736, -0.00373921, 0.00168829, -0.000981615, -0.000155968, -0.000568655, -0.000452078, -0.000809406, -0.00373152, 0.00654426, -0.0111114, -0.444721, 0.635037, -3.13186, -0.0555644, -0.107536, -0.00957762, -0.442777, 0.636669, -3.13547, -0.057372, -0.11042, 0.000171544, -0.000139059, -0.00038875, 0.000378278, -0.000697967, -0.000832544
0.0222844, 0.107847, -0.773516, -0.913605, -1.45403, -0.624917, 1.0712, -0.256722, 0.00529314, -0.00440644, -0.00203867, 7.45716e-05, -0.000257125, 0.000284363, -0.00155421, -0.76989, 14.9063, 15.2811, 12.8534, 0.619078, 2.26382, -0.127186, 0.00170964, -0.00189842, -0.0015078, -0.00374014, 0.00168729, -0.000981282, -0.000126807, -0.000538118, -0.000369422, -0.000646108, -0.0036196, 0.00684071, -0.0111112, -0.444721, 0.635036, -3.13186, -0.055565, -0.107538, -0.00957762, -0.442777, 0.636669, -3.13547, -0.057372, -0.11042, 0.000207364, -0.00016784, -0.000469394, 0.000378278, -0.000697967, -0.000832544
0.0232847, 0.107847, -0.773516, -0.913605, -1.45403, -0.624917, 1.0712, -0.256722, 0.00529314, -0.00440644, -0.00203867, 7.45716e-05, -0.000257125, 0.000284363, -0.00155421, -0.76989, 14.9063, 15.2811, 12.8534, 0.619078, 2.26382, -0.127186, 0.00170946, -0.00189861, -0.00150832, -0.00374125, 0.00168609, -0.000980884, -9.4903e-05, -0.000504796, -0.000279177, -0.000467926, -0.00349742, 0.00716436, -0.011111, -0.444722, 0.635036, -3.13186, -0.0555656, -0.10754, -0.00957762, -0.442777, 0.636669, -3.13547, -0.057372, -0.11042, 0.000246538, -0.000199242, -0.000557437, 0.000378278, -0.000697967, -0.000832544
0.0242849, 0.107842, -0.773565, -0.913619, -1.45403, -0.624915, 1.07119, -0.256722, 0.000632517, -0.00734682, -0.00294691, -0.00126974, 0.000246184, -0.000181148, -0.00109626, -0.694511, 15.2356, 15.4279, 13.0042, 0.600768, 2.28488, -0.127186, 0.00168918, -0.00189686, -0.00150025, -0.00371992, 0.0017256, -0.000970268, 0.0028583, -0.000368653, -0.000856554, -0.00212379, -0.00554487, 0.00264456, -0.0111107, -0.444722, 0.635035, -3.13186, -0.0555664, -0.107542, -0.00959696, -0.44278, 0.636659, -3.13545, -0.0573567, -0.110483, 0.000289055, -0.000233245, -0.00065283, -0.00248894, -0.000694834, -0.00170599
0.0252849, 0.10784, -0.773568, -0.913619, -1.45403, -0.624916, 1.07119, -0.256725, 0.000603391, -0.00505979, -0.00129552, 7.7573e-05, -7.32533e-05, -0.000120767, -0.000730837, -0.694511, 15.2356, 15.3922, 12.9645, 0.607176, 2.28488, -0.127186, 0.00168693, -0.00189715, -0.00150127, -0.00372167, 0.00172698, -0.000970246, 0.00201461, -8.59275e-05, 0.000218027, 0.000261248, -0.00386735, 0.00304375, -0.0111104, -0.444722, 0.635034, -3.13186, -0.0555673, -0.107544, -0.00959897, -0.44278, 0.63666, -3.13545, -0.0573575, -0.110488, 0.000334905, -0.000269828, -0.000755525, -0.00168555, -0.000428445, -0.000676962
0.0262849, 0.107845, -0.773576, -0.913618, -1.45403, -0.624916, 1.07119, -0.256723, 0.00146657, -0.00752828, -0.00275152, 0.00639467, -0.000286207, 0.00745218, -0.000487225, -0.734184, 15.2753, 15.4676, 12.9645, 0.613585, 2.33523, -0.127186, 0.00168537, -0.00189683, -0.00150296, -0.00372555, 0.00173529, -0.000969716, 0.0034508, -0.00219049, 0.00240177, 0.0094634, -0.0138876, -0.000386767, -0.0111101, -0.444722, 0.635033, -3.13186, -0.0555684, -0.107547, -0.00960028, -0.44278, 0.63666, -3.13545, -0.0573575, -0.110504, 0.000384079, -0.000308971, -0.000865474, -0.00314264, -0.00264009, 0.00127995
0.0272849, 0.107837, -0.773587, -0.91362, -1.45403, -0.624915, 1.07119, -0.256718, -0.00161133, -0.00703917, -0.00189714, 0.00759917, 0.00857624, 0.00620045, 0.000895887, -0.619133, 15.3467, 15.7294, 13.1152, 0.631896, 2.44967, -0.160145, 0.00167768, -0.00189708, -0.00150359, -0.00372554, 0.00174535, -0.000955758, 0.00307593, -0.000721671, 0.00313087, 0.00616798, -0.0201543, -0.000114082, -0.0111097, -0.444723, 0.635033, -3.13186, -0.0555696, -0.10755, -0.0096076, -0.442781, 0.63666, -3.13545, -0.0573369, -0.110523, 0.000436566, -0.000350653, -0.000982628, -0.00281873, -0.00120702, 0.00192498
0.0282849, 0.107837, -0.773587, -0.91362, -1.45403, -0.624915, 1.07119, -0.256718, -0.00161133, -0.00703917, -0.00189714, 0.00759917, 0.00857624, 0.00620045, 0.000895887, -0.619133, 15.3467, 15.7294, 13.1152, 0.631896, 2.44967, -0.160145, 0.0016773, -0.00189747, -0.00150465, -0.0037278, 0.0017429, -0.000954947, 0.00312145, -0.00067473, 0.00325833, 0.00641886, -0.0199818, 0.000342886, -0.0111092, -0.444723, 0.635032, -3.13185, -0.0555709, -0.107554, -0.0096076, -0.442781, 0.63666, -3.13545, -0.0573369, -0.110523, 0.000492356, -0.000394854, -0.00110694, -0.00281873, -0.00120702, 0.00192498
0.0292849, 0.107834, -0.773593, -0.913612, -1.45402, -0.624919, 1.07119, -0.256718, -0.0027608, -0.00495518, 0.0048371, 0.011094, 0.00491089, 0.000330544, -0.000386086, -0.543754, 15.3467, 16.027, 13.3017, 0.674925, 2.57876, -0.133595, 0.00167359, -0.00189727, -0.00151222, -0.00374853, 0.00175473, -0.000948749, 0.00294356, 0.00119515, 0.00596217, 0.00976735, -0.0145829, 0.002541, -0.0111087, -0.444723, 0.63503, -3.13185, -0.0555724, -0.107558, -0.0096113, -0.442782, 0.636666, -3.13546, -0.0573279, -0.110547, 0.000551439, -0.000441554, -0.00123836, -0.00283411, 0.000597896, 0.00451473
0.0302849, 0.107817, -0.773612, -0.913565, -1.45398, -0.624925, 1.07122, -0.256718, -0.00526882, -0.00653347, 0.0154158, 0.0154783, 0.000147994, 0.0109938, -0.000725432, -0.242241, 15.5331, 16.7331, 14.0118, 0.772887, 2.80124, -0.114369, 0.00166854, -0.00190015, -0.00153906, -0.0038217, 0.00180131, -0.000945788, 0.001899, 0.000595427, 0.0114157, 0.030696, -0.0211114, 0.00441456, -0.0111081, -0.444724, 0.635029, -3.13185, -0.0555741, -0.107563, -0.0096177, -0.44278, 0.636691, -3.13553, -0.0573221, -0.110629, 0.000613805, -0.000490732, -0.00137684, -0.00208224, -6.08833e-05, 0.00988488
0.0312849, 0.107805, -0.773617, -0.913531, -1.45395, -0.624926, 1.07123, -0.25672, -0.00681152, -0.00613678, 0.0224441, 0.0188659, -0.00024745, 0.00982074, -0.0011957, -0.0914839, 15.6046, 17.1418, 14.4205, 0.791197, 2.90835, -0.0951428, 0.00166736, -0.00190296, -0.00156026, -0.00387665, 0.00182955, -0.000945351, 0.00116123, 0.00203131, 0.0145531, 0.0367147, -0.0221691, 0.00731193, -0.0111074, -0.444724, 0.635028, -3.13184, -0.055576, -0.107568, -0.00961979, -0.442777, 0.63671, -3.13558, -0.0573212, -0.110682, 0.000679445, -0.000542368, -0.00152234, -0.0015471, 0.0013213, 0.0129288
0.0322849, 0.107788, -0.773625, -0.913496, -1.45392, -0.624932, 1.07125, -0.25672, -0.0096601, -0.00677267, 0.0284862, 0.0233732, -0.000594093, 0.0136613, -0.000559773, 0.134651, 15.7156, 17.6615, 14.9084, 0.809508, 3.01639, -0.101552, 0.00166338, -0.00190414, -0.00158383, -0.00394303, 0.00186361, -0.000935476, 0.00132693, 0.00231602, 0.0182068, 0.0470577, -0.0275066, 0.00652359, -0.0111067, -0.444725, 0.635026, -3.13184, -0.055578, -0.107574, -0.00962471, -0.442777, 0.636732, -3.13564, -0.0573053, -0.110745, 0.000748347, -0.000596442, -0.0016748, -0.00190376, 0.00151435, 0.0164118
0.0332849, 0.107778, -0.773633, -0.913448, -1.45388, -0.624934, 1.07127, -0.256715, -0.0112127, -0.00801106, 0.0320637, 0.0288871, -0.000683999, 0.0192774, 0.000101536, 0.21003, 15.8624, 18.1098, 15.3171, 0.822325, 3.17386, -0.114369, 0.00166291, -0.00190816, -0.00161487, -0.00401895, 0.00190671, -0.0009313, 0.00187132, 0.001722, 0.0215713, 0.0576708, -0.0350619, 0.00475659, -0.0111059, -0.444726, 0.635024, -3.13184, -0.0555803, -0.10758, -0.00962667, -0.442774, 0.636761, -3.13571, -0.057298, -0.110823, 0.000820503, -0.000652933, -0.00183418, -0.00258359, 0.000815968, 0.0195677
0.0342849, 0.107762, -0.773633, -0.913394, -1.45383, -0.624934, 1.07128, -0.256715, -0.0142848, -0.00538741, 0.0365841, 0.03614, -7.85543e-05, 0.0146072, -0.000169668, 0.360787, 15.8624, 18.4827, 15.7297, 0.815917, 3.324, -0.10796, 0.0016637, -0.00191429, -0.00164888, -0.00409821, 0.00194361, -0.000928867, 0.00292098, 0.00327691, 0.0250117, 0.0610732, -0.0352727, 0.00259508, -0.0111051, -0.444726, 0.635022, -3.13183, -0.0555828, -0.107587, -0.00962759, -0.442769, 0.636793, -3.13578, -0.0572937, -0.110893, 0.000895902, -0.000711822, -0.00200043, -0.00384589, 0.00224424, 0.0227712
0.0352849, 0.107745, -0.773643, -0.913341, -1.45377, -0.624936, 1.0713, -0.25671, -0.0134336, -0.00706031, 0.0420138, 0.0404338, -0.000625473, 0.0153815, 0.00134495, 0.511544, 16.0092, 18.8913, 16.0629, 0.834227, 3.48971, -0.147328, 0.00165891, -0.00191875, -0.00168557, -0.00418592, 0.00199642, -0.000915595, 0.00229797, 0.00388019, 0.0280256, 0.0680505, -0.0397364, 0.00424016, -0.0111041, -0.444727, 0.63502, -3.13183, -0.0555855, -0.107594, -0.00963411, -0.442766, 0.636828, -3.13586, -0.0572722, -0.110988, 0.000974534, -0.000773089, -0.00217351, -0.00337414, 0.00278163, 0.0256513
0.0362849, 0.107739, -0.773648, -0.913286, -1.45371, -0.624935, 1.07132, -0.256711, -0.00840846, -0.0127681, 0.0441077, 0.0475166, -0.000100825, 0.0188789, 0.000388007, 0.475838, 16.0846, 19.2643, 16.3644, 0.827819, 3.58218, -0.133595, 0.00166123, -0.00192225, -0.0017242, -0.00428063, 0.00205158, -0.000919633, 0.00222684, 0.00309712, 0.0309196, 0.0757425, -0.0520415, 0.0090843, -0.0111031, -0.444728, 0.635018, -3.13182, -0.0555884, -0.107602, -0.00963356, -0.442763, 0.636864, -3.13595, -0.0572777, -0.111089, 0.00105639, -0.000836713, -0.00235336, -0.00339174, 0.00191279, 0.0283587
0.0372849, 0.107735, -0.773655, -0.913229, -1.45364, -0.624932, 1.07135, -0.256708, -0.00489357, -0.0139282, 0.0472867, 0.0553849, 0.000873501, 0.0177192, 0.000258671, 0.436165, 16.16, 19.5618, 16.5509, 0.804015, 3.64718, -0.133595, 0.00166377, -0.00192563, -0.0017658, -0.0043821, 0.00211554, -0.000920324, 0.00165353, 0.00351612, 0.034164, 0.0807974, -0.0583633, 0.0122635, -0.011102, -0.444729, 0.635016, -3.13182, -0.0555915, -0.107611, -0.00963291, -0.442761, 0.636903, -3.13604, -0.0572779, -0.111204, 0.00114146, -0.000902674, -0.00253994, -0.00297241, 0.00225749, 0.0314507
0.0382849, 0.107728, -0.773661, -0.913175, -1.45357, -0.62493, 1.07138, -0.256707, -0.00656297, -0.0107866, 0.0495346, 0.0568183, 0.00154219, 0.0227875, 0.000172448, 0.436165, 16.1957, 19.8594, 16.7731, 0.779296, 3.66824, -0.133595, 0.00166572, -0.00192853, -0.00180607, -0.00448186, 0.00217565, -0.000920069, 0.000409194, 0.00321397, 0.036054, 0.0878553, -0.0590768, 0.0127011, -0.0111008, -0.44473, 0.635013, -3.13181, -0.0555949, -0.10762, -0.00963266, -0.442759, 0.636941, -3.13613, -0.0572769, -0.111314, 0.00122973, -0.000970953, -0.00273321, -0.00176239, 0.0019145, 0.0332267
0.0392849, 0.10773, -0.773666, -0.913122, -1.4535, -0.62493, 1.07141, -0.256711, -0.00215989, -0.00852579, 0.0487609, 0.0636528, 0.00106137, 0.0214124, -0.00130919, 0.325081, 16.2314, 20.1212, 16.8842, 0.779296, 3.69754, -0.0951428, 0.00166846, -0.00193077, -0.00184828, -0.00458482, 0.00223739, -0.000926862, -0.000235992, 0.00285479, 0.0379506, 0.0904512, -0.0598914, 0.0149881, -0.0110996, -0.444731, 0.63501, -3.1318, -0.0555986, -0.10763, -0.00963164, -0.442758, 0.636981, -3.13622, -0.0572871, -0.111427, 0.00132119, -0.00104153, -0.00293311, -0.00114499, 0.00149103, 0.0349609
0.0402849, 0.107738, -0.773675, -0.91307, -1.45342, -0.624928, 1.07143, -0.256712, 0.00189208, -0.0109273, 0.0497227, 0.0679441, 0.00141068, 0.0261119, -0.00138142, 0.170357, 16.3068, 20.3077, 16.8842, 0.760985, 3.69754, -0.0814099, 0.00167194, -0.00193165, -0.00189237, -0.00469203, 0.0023094, -0.000933758, -0.00118931, 0.00189342, 0.039955, 0.0973244, -0.0674703, 0.0185622, -0.0110982, -0.444732, 0.635007, -3.1318, -0.0556025, -0.107641, -0.00962988, -0.442759, 0.637022, -3.13631, -0.0572974, -0.111558, 0.00141584, -0.00111438, -0.0031396, -0.00020312, 0.000473368, 0.0368136
0.0412849, 0.107743, -0.77368, -0.913015, -1.45334, -0.624928, 1.07146, -0.256712, 0.00280918, -0.00782465, 0.0525952, 0.0715672, 0.000959152, 0.0248919, -0.000920946, 0.0949785, 16.3068, 20.3791, 16.8484, 0.760985, 3.69021, -0.0814099, 0.00167516, -0.00193309, -0.00193804, -0.00480403, 0.00237702, -0.000936389, -0.00241227, 0.00253229, 0.0420713, 0.100928, -0.0656244, 0.0199205, -0.0110967, -0.444733, 0.635004, -3.13179, -0.0556067, -0.107652, -0.00962841, -0.442759, 0.637064, -3.13641, -0.0573013, -0.111682, 0.00151366, -0.0011895, -0.00335263, 0.000945897, 0.00106111, 0.0388
0.0422849, 0.107759, -0.773686, -0.912963, -1.45326, -0.624927, 1.0715, -0.256712, 0.00700091, -0.00645647, 0.0540464, 0.0756291, 0.000890818, 0.0309151, -0.000613964, -0.131157, 16.3425, 20.3434, 16.7374, 0.754576, 3.6188, -0.0814099, 0.00168243, -0.00193248, -0.0019842, -0.00492116, 0.0024507, -0.000947111, -0.00484063, 0.00147911, 0.0444085, 0.109601, -0.0696534, 0.023598, -0.0110952, -0.444734, 0.635, -3.13178, -0.0556111, -0.107664, -0.00962275, -0.442761, 0.637108, -3.13651, -0.0573178, -0.111818, 0.00161465, -0.00126685, -0.00357216, 0.00334512, -3.8515e-06, 0.0410725
0.0432849, 0.107773, -0.773692, -0.912919, -1.45317, -0.624926, 1.07154, -0.256712, 0.0112222, -0.00771112, 0.0506741, 0.0768452, 0.000841756, 0.0355208, -0.000409309, -0.281914, 16.3425, 20.3434, 16.5509, 0.748168, 3.53915, -0.0814099, 0.00168645, -0.00192941, -0.00203011, -0.00503979, 0.00252767, -0.000948487, -0.00537222, -0.000141594, 0.0442916, 0.112164, -0.073503, 0.0252174, -0.0110935, -0.444735, 0.634997, -3.13177, -0.0556159, -0.107677, -0.00962014, -0.442766, 0.63715, -3.13662, -0.0573199, -0.111959, 0.00171879, -0.00134642, -0.00379814, 0.00404479, -0.00168368, 0.0407563
0.0442849, 0.107794, -0.773698, -0.912879, -1.45308, -0.624927, 1.07158, -0.256712, 0.0151558, -0.00878755, 0.0473786, 0.0816583, 0.0003317, 0.034225, -3.55139e-05, -0.468376, 16.3425, 20.2323, 16.3248, 0.754576, 3.45309, -0.0878186, 0.00169077, -0.00192471, -0.00207561, -0.00515888, 0.0026058, -0.000949481, -0.00438709, -0.000937411, 0.0447894, 0.111938, -0.0761907, 0.0243955, -0.0110917, -0.444737, 0.634993, -3.13176, -0.0556209, -0.107691, -0.00961703, -0.442772, 0.637192, -3.13672, -0.0573217, -0.112103, 0.00182607, -0.00142819, -0.00403052, 0.00316381, -0.00260013, 0.0409478
0.0452849, 0.107824, -0.773697, -0.912843, -1.453, -0.624928, 1.07163, -0.256711, 0.0198544, -0.00388802, 0.0423165, 0.0829723, -0.00944439, 0.0328206, 0.000247591, -0.734184, 16.2314, 20.0815, 16.178, 0.760985, 3.37436, -0.0951428, 0.0017012, -0.00191909, -0.00211952, -0.00527655, 0.00267463, -0.00095829, -0.00390621, -0.00279186, 0.0439074, 0.113014, -0.0634735, 0.0204467, -0.0110899, -0.444738, 0.634989, -3.13175, -0.0556263, -0.107706, -0.0096076, -0.442779, 0.637232, -3.13683, -0.0573361, -0.112233, 0.00193648, -0.00151214, -0.00426926, 0.00292107, -0.00454697, 0.0397845
0.0462849, 0.107852, -0.773705, -0.912812, -1.4529, -0.624928, 1.07167, -0.256701, 0.0212913, -0.00620018, 0.0375468, 0.0881235, -0.007078, 0.035346, 0.0023352, -0.920646, 16.2314, 19.8237, 15.8408, 0.760985, 3.324, -0.153737, 0.00170321, -0.00191209, -0.00216534, -0.0053954, 0.00275996, -0.000945927, -0.00185943, -0.00421892, 0.044474, 0.114159, -0.0716468, 0.0155521, -0.0110879, -0.44474, 0.634984, -3.13174, -0.0556319, -0.107721, -0.00960652, -0.442788, 0.637274, -3.13693, -0.0573176, -0.11239, 0.00205002, -0.00159825, -0.00451432, 0.00100568, -0.00613663, 0.0399548
0.0472849, 0.107885, -0.773707, -0.91279, -1.45281, -0.624932, 1.07173, -0.256707, 0.023372, -0.00307775, 0.0327986, 0.0890409, -0.00550842, 0.0429949, -0.000884606, -1.15075, 16.16, 19.5975, 15.6146, 0.766478, 3.24527, -0.0878186, 0.00170954, -0.00190189, -0.00220673, -0.00551365, 0.00283314, -0.0009525, -0.0030386, -0.00629583, 0.0443959, 0.118096, -0.0735946, 0.0184428, -0.0110858, -0.444741, 0.63498, -3.13173, -0.0556379, -0.107738, -0.00960061, -0.4428, 0.637311, -3.13703, -0.0573291, -0.112528, 0.00216668, -0.00168649, -0.00476563, 0.00237709, -0.00825866, 0.0396937
0.0482849, 0.107919, -0.773708, -0.912769, -1.45271, -0.624932, 1.07178, -0.256705, 0.0268366, 8.5571e-05, 0.0315194, 0.0888898, -0.00390855, 0.0487297, 0.000156248, -1.33721, 16.0489, 19.2643, 15.2814, 0.760985, 3.16653, -0.10796, 0.00171528, -0.00189045, -0.00225132, -0.0056401, 0.0029157, -0.000946529, -0.00597853, -0.00730979, 0.0447735, 0.121921, -0.0740251, 0.0216843, -0.0110835, -0.444743, 0.634975, -3.13172, -0.0556442, -0.107755, -0.00959535, -0.442813, 0.637351, -3.13714, -0.057321, -0.112683, 0.00228643, -0.00177687, -0.00502317, 0.00543786, -0.00926254, 0.0400088
0.0492849, 0.107961, -0.773708, -0.912752, -1.45262, -0.624936, 1.07185, -0.25671, 0.0328736, 0.0014745, 0.0302949, 0.0896864, -0.0029355, 0.0576356, -0.00182861, -1.52764, 15.9735, 18.9271, 14.9084, 0.760985, 3.0878, -0.0557752, 0.00172212, -0.00187717, -0.00229576, -0.00576827, 0.00299677, -0.000949678, -0.00954003, -0.00911938, 0.045604, 0.129031, -0.0779472, 0.0297923, -0.0110812, -0.444745, 0.634969, -3.13171, -0.0556509, -0.107773, -0.00958878, -0.442829, 0.63739, -3.13725, -0.0573274, -0.112837, 0.00240928, -0.00186934, -0.00528689, 0.00911878, -0.0110457, 0.0408073
0.0502849, 0.108006, -0.773704, -0.912742, -1.45252, -0.624932, 1.07192, -0.256706, 0.039598, 0.00332211, 0.0227501, 0.0936143, -0.00172963, 0.0609948, 0.000238985, -1.6784, 15.8624, 18.5938, 14.6466, 0.748168, 2.97336, -0.0951428, 0.00173376, -0.00186133, -0.00233834, -0.00589909, 0.00308214, -0.000947916, -0.0103166, -0.011332, 0.0451004, 0.128912, -0.0805308, 0.0282419, -0.0110787, -0.444747, 0.634964, -3.1317, -0.0556578, -0.107792, -0.00957711, -0.442846, 0.637428, -3.13736, -0.0573263, -0.112998, 0.00253522, -0.00196389, -0.00555673, 0.0101321, -0.0133202, 0.0400746
0.0512849, 0.108051, -0.7737, -0.912736, -1.45242, -0.624934, 1.072, -0.256707, 0.0429958, 0.00461869, 0.0161022, 0.0934558, -0.00110123, 0.0667326, -0.000349303, -1.75378, 15.7513, 18.2963, 14.3848, 0.741759, 2.8873, -0.0814099, 0.00174189, -0.00184322, -0.0023818, -0.00603578, 0.00316722, -0.000942476, -0.0107339, -0.0135425, 0.0439052, 0.129611, -0.0817981, 0.0285517, -0.0110761, -0.444749, 0.634958, -3.13168, -0.0556652, -0.107812, -0.00956877, -0.442866, 0.637466, -3.13748, -0.0573196, -0.11316, 0.00266423, -0.00206051, -0.00583265, 0.0108377, -0.0156011, 0.038621
0.0522849, 0.108101, -0.773703, -0.912728, -1.45232, -0.624934, 1.07208, -0.256706, 0.0478465, 0.00293325, 0.0150651, 0.0984363, -0.000669838, 0.0703511, 0.000275758, -1.78948, 15.7513, 17.959, 14.0475, 0.736266, 2.81589, -0.0951428, 0.00175053, -0.00182396, -0.00242781, -0.00618154, 0.00326722, -0.000938737, -0.0113411, -0.0147065, 0.0455382, 0.134745, -0.0884346, 0.0306638, -0.0110734, -0.444751, 0.634952, -3.13167, -0.0556729, -0.107834, -0.00955994, -0.442888, 0.637507, -3.1376, -0.0573156, -0.113347, 0.0027963, -0.00215917, -0.00611461, 0.0115041, -0.0168565, 0.0400026
0.0532849, 0.108101, -0.773703, -0.912728, -1.45232, -0.624934, 1.07208, -0.256706, 0.0478465, 0.00293325, 0.0150651, 0.0984363, -0.000669838, 0.0703511, 0.000275758, -1.78948, 15.7513, 17.959, 14.0475, 0.736266, 2.81589, -0.0951428, 0.00174823, -0.00182633, -0.00243418, -0.00619497, 0.00325257, -0.000933909, -0.0112304, -0.0145986, 0.0458339, 0.135317, -0.0880366, 0.0317244, -0.0110705, -0.444753, 0.634946, -3.13166, -0.0556809, -0.107856, -0.00955994, -0.442888, 0.637507, -3.1376, -0.0573156, -0.113347, 0.00293143, -0.00225986, -0.00640257, 0.0115041, -0.0168565, 0.0400026
0.0542849, 0.108101, -0.773703, -0.912728, -1.45232, -0.624934, 1.07208, -0.256706, 0.0478465, 0.00293325, 0.0150651, 0.0984363, -0.000669838, 0.0703511, 0.000275758, -1.78948, 15.7513, 17.959, 14.0475, 0.736266, 2.81589, -0.0951428, 0.00174582, -0.00182882, -0.00244085, -0.00620901, 0.00323723, -0.000928857, -0.0111171, -0.0144886, 0.0461357, 0.1359, -0.0876305, 0.0328069, -0.0110675, -0.444756, 0.63494, -3.13164, -0.0556894, -0.107879, -0.00955994, -0.442888, 0.637507, -3.1376, -0.0573156, -0.113347, 0.00306961, -0.00236255, -0.00669647, 0.0115041, -0.0168565, 0.0400026
0.0552849, 0.108264, -0.773694, -0.912718, -1.45201, -0.624936, 1.07236, -0.256702, 0.0502298, 0.00246747, 0.00962845, 0.0994126, 0.000137837, 0.0839519, 1.38892e-05, -1.52764, 15.6442, 17.1061, 13.4525, 0.717955, 2.75088, -0.0951428, 0.00178715, -0.00175978, -0.00256419, -0.00663272, 0.00355211, -0.000933638, -0.0115509, -0.0179312, 0.0463351, 0.1447, -0.0955423, 0.0322909, -0.0110644, -0.444758, 0.634933, -3.13162, -0.0556982, -0.107903, -0.00952164, -0.442959, 0.637625, -3.13799, -0.0573146, -0.113892, 0.00321082, -0.00246723, -0.00699628, 0.0121867, -0.0203886, 0.0399095
0.0562849, 0.108327, -0.773698, -0.912726, -1.45191, -0.624934, 1.07247, -0.256702, 0.0532643, 0.000763608, 0.00361139, 0.101654, 0.000963396, 0.0905126, -0.000262008, -1.37688, 15.6799, 16.9196, 13.3017, 0.693236, 2.75821, -0.0878186, 0.00179823, -0.0017336, -0.0026088, -0.00678882, 0.00366317, -0.000931937, -0.0107005, -0.020338, 0.0460609, 0.147632, -0.101923, 0.0313724, -0.0110611, -0.444761, 0.634926, -3.13161, -0.0557074, -0.107928, -0.0095095, -0.442988, 0.637663, -3.13812, -0.0573147, -0.114102, 0.00335505, -0.00257388, -0.00730195, 0.0115873, -0.0229287, 0.0392561
0.0572849, 0.108402, -0.773694, -0.912728, -1.4518, -0.624935, 1.07259, -0.256704, 0.0606673, 0.00130967, 0.00337676, 0.101492, 0.00152477, 0.0996914, -0.000886749, -1.30151, 15.6442, 16.6935, 13.1152, 0.668517, 2.78659, -0.0685925, 0.0018181, -0.00170648, -0.0026579, -0.00696086, 0.00377153, -0.000944094, -0.0150527, -0.0220257, 0.0468874, 0.155192, -0.105873, 0.0407045, -0.0110577, -0.444763, 0.634918, -3.13159, -0.055717, -0.107955, -0.00948872, -0.443017, 0.637706, -3.13826, -0.0573363, -0.114309, 0.0035023, -0.00268248, -0.00761342, 0.0160768, -0.0245784, 0.0400583
0.0582849, 0.108468, -0.773691, -0.912733, -1.45169, -0.624934, 1.07271, -0.256703, 0.0594739, 0.00177517, 0.00231586, 0.102786, 0.00166992, 0.106705, -0.000116448, -1.07537, 15.6046, 16.511, 13.0042, 0.650206, 2.80856, -0.0814099, 0.00183348, -0.00167898, -0.00270584, -0.0071305, 0.00388011, -0.000942969, -0.0147031, -0.0234016, 0.0479936, 0.161958, -0.109426, 0.0385105, -0.0110541, -0.444766, 0.63491, -3.13157, -0.055727, -0.107982, -0.00947218, -0.443047, 0.637747, -3.13841, -0.0573376, -0.114518, 0.00365255, -0.002793, -0.00793067, 0.0158509, -0.0260868, 0.0408115
0.0592849, 0.108539, -0.773686, -0.912744, -1.45157, -0.624932, 1.07283, -0.256702, 0.0620402, 0.00283441, -0.00307574, 0.108735, 0.00177288, 0.111047, 0.000159727, -0.845268, 15.5331, 16.3959, 12.8177, 0.631896, 2.85892, -0.0878186, 0.00184841, -0.00164877, -0.00275644, -0.0073087, 0.00399669, -0.000938111, -0.0135363, -0.0255114, 0.0489637, 0.166032, -0.113813, 0.0348706, -0.0110504, -0.444769, 0.634902, -3.13155, -0.0557374, -0.108011, -0.00945603, -0.44308, 0.63779, -3.13856, -0.0573331, -0.114741, 0.0038058, -0.00290544, -0.00825364, 0.0148491, -0.0283582, 0.041362
0.0602849, 0.108614, -0.773686, -0.912753, -1.45145, -0.624936, 1.07296, -0.2567, 0.065015, 0.001875, -0.00307376, 0.110618, 0.00116799, 0.120352, 0.000615111, -0.658806, 15.5331, 16.2491, 12.7423, 0.631896, 2.87997, -0.101552, 0.00186411, -0.00161783, -0.00280744, -0.00749231, 0.00411446, -0.000936989, -0.0148973, -0.0273479, 0.050593, 0.175743, -0.119785, 0.0373354, -0.0110465, -0.444772, 0.634894, -3.13154, -0.0557483, -0.10804, -0.00943896, -0.443114, 0.637834, -3.13871, -0.0573347, -0.114967, 0.00396204, -0.00301977, -0.00858229, 0.0163152, -0.0302752, 0.0427405
0.0612849, 0.108694, -0.773686, -0.912769, -1.45134, -0.624937, 1.07309, -0.256701, 0.0672708, 0.00123905, -0.00784959, 0.112405, 0.000768213, 0.122642, 0.000172715, -0.468376, 15.5331, 16.1738, 12.778, 0.631896, 2.90103, -0.0951428, 0.00188158, -0.00158422, -0.00285634, -0.00767695, 0.00423531, -0.000939831, -0.0138191, -0.0287965, 0.0502446, 0.176264, -0.121743, 0.0365026, -0.0110424, -0.444775, 0.634885, -3.13152, -0.0557596, -0.108071, -0.00941973, -0.443151, 0.637875, -3.13887, -0.0573428, -0.1152, 0.00412125, -0.00313597, -0.00891658, 0.0154746, -0.0318748, 0.0419746
0.0622849, 0.108776, -0.773683, -0.912786, -1.45122, -0.62494, 1.07324, -0.2567, 0.069129, 0.00174584, -0.00722772, 0.116189, -0.0050806, 0.125275, 0.000352502, -0.281914, 15.4935, 16.0627, 12.7066, 0.656615, 2.89462, -0.101552, 0.00189891, -0.0015488, -0.00290882, -0.00787337, 0.00435999, -0.000937129, -0.0132007, -0.0299549, 0.0521314, 0.184204, -0.120174, 0.0351479, -0.0110382, -0.444778, 0.634876, -3.13149, -0.0557713, -0.108103, -0.00940066, -0.443189, 0.637919, 3.13886, 0.0573391, 0.115434, 0.00428343, -0.00325403, -0.00925645, 0.014931, -0.0331901, 0.0434664
0.0632849, 0.108856, -0.773683, -0.9128, -1.45109, -0.624944, 1.07338, -0.256701, 0.0703898, 0.00115773, -0.00883795, 0.119042, -0.00776511, 0.132914, -2.35741e-06, -0.0914839, 15.4935, 15.9119, 12.6669, 0.637389, 2.86532, -0.0951428, 0.0019142, -0.00151278, -0.00296386, -0.00807789, 0.00449067, -0.000932152, -0.0126055, -0.0320451, 0.0535344, 0.193082, -0.123894, 0.0340462, -0.0110339, -0.444781, 0.634867, -3.13147, -0.0557834, -0.108137, -0.00938363, -0.443229, 0.637965, 3.13867, 0.0573285, 0.115672, 0.00444857, -0.00337392, -0.00960188, 0.0144803, -0.0354334, 0.0444655
0.0642849, 0.108938, -0.773686, -0.912822, -1.45097, -0.624947, 1.07353, -0.2567, 0.0747134, -0.000160821, -0.0174962, 0.119236, -0.0061016, 0.137932, 0.000473146, 0.0949785, 15.5331, 15.8008, 12.7066, 0.643798, 2.84427, -0.10796, 0.00192828, -0.00147593, -0.00301531, -0.00827385, 0.00462025, -0.000924444, -0.0119996, -0.0344785, 0.0517716, 0.191486, -0.128215, 0.0332621, -0.0110293, -0.444785, 0.634857, -3.13145, -0.055796, -0.108171, -0.00936736, -0.443269, 0.638008, 3.13849, 0.0573146, 0.11591, 0.00461665, -0.00349563, -0.0099528, 0.014252, -0.0379935, 0.0422977
0.0652849, 0.109023, -0.773683, -0.91284, -1.45084, -0.624951, 1.07368, -0.256697, 0.0723008, 0.00081734, -0.01577, 0.120272, -0.00933718, 0.141005, 7.80719e-05, 0.245735, 15.4935, 15.6144, 12.5916, 0.643798, 2.84427, -0.101552, 0.00194456, -0.0014392, -0.00307108, -0.00847934, 0.00474907, -0.000916367, -0.0111198, -0.0349079, 0.0533387, 0.198198, -0.126622, 0.0317947, -0.0110246, -0.444788, 0.634847, -3.13143, -0.055809, -0.108207, -0.00934904, -0.443309, 0.638054, 3.1383, 0.0573, 0.116148, 0.00478767, -0.00361914, -0.0103092, 0.0134524, -0.0385924, 0.0434404
0.0662849, 0.109114, -0.773681, -0.912864, -1.45072, -0.624951, 1.07382, -0.256702, 0.0810676, 0.00137751, -0.0155088, 0.116989, -0.0101109, 0.142599, -0.00191464, 0.325081, 15.4578, 15.4676, 12.6312, 0.600768, 2.86532, -0.0484509, 0.00196463, -0.00140223, -0.00312216, -0.00867515, 0.00487358, -0.000924348, -0.0158052, -0.0351035, 0.0526872, 0.198374, -0.123632, 0.0453758, -0.0110198, -0.444792, 0.634836, -3.1314, -0.0558225, -0.108244, -0.00932644, -0.443349, 0.638096, 3.13812, 0.0573116, 0.11638, 0.00496161, -0.00374443, -0.010671, 0.0183486, -0.0387428, 0.042751
0.0672849, 0.109202, -0.773683, -0.91289, -1.45059, -0.624954, 1.07398, -0.2567, 0.0849857, 8.11742e-05, -0.0183322, 0.121726, -0.00727839, 0.143858, -0.000767801, 0.400459, 15.4935, 15.3168, 12.5201, 0.588866, 2.8873, -0.0621838, 0.00197805, -0.00136268, -0.00317756, -0.00888335, 0.00501122, -0.000912168, -0.0157759, -0.0358352, 0.053663, 0.199366, -0.130152, 0.0462613, -0.0110147, -0.444796, 0.634825, -3.13138, -0.0558365, -0.108282, -0.00931051, -0.443393, 0.638141, 3.13793, 0.0572912, 0.116635, 0.00513848, -0.00387148, -0.0110382, 0.0184543, -0.0396121, 0.0433498
0.0682849, 0.109287, -0.773678, -0.91291, -1.45046, -0.624959, 1.07413, -0.256699, 0.0859722, 0.00172309, -0.0180127, 0.122231, -0.00467066, 0.145586, -0.000274508, 0.551216, 15.4221, 15.059, 12.5201, 0.564147, 2.8873, -0.0685925, 0.00199529, -0.00132626, -0.00323183, -0.00908734, 0.00512962, -0.000906479, -0.0172556, -0.0356602, 0.0544841, 0.200961, -0.131199, 0.0493687, -0.0110095, -0.4448, 0.634814, -3.13135, -0.055851, -0.108322, -0.00929063, -0.443433, 0.638185, 3.13774, 0.0572819, 0.11686, 0.00531825, -0.00400028, -0.0114107, 0.0200454, -0.0395224, 0.0438995
0.0692849, 0.109383, -0.773674, -0.912939, -1.45033, -0.624963, 1.07428, -0.256699, 0.0881563, 0.00818922, -0.0205289, 0.125474, -0.00773425, 0.150545, 5.43535e-05, 0.511544, 15.3864, 14.9082, 12.4051, 0.545836, 2.90835, -0.0750012, 0.00201218, -0.00128624, -0.00328784, -0.0092958, 0.00525921, -0.000898437, -0.0184921, -0.037361, 0.0557708, 0.207835, -0.126409, 0.0475716, -0.0110041, -0.444804, 0.634803, -3.13133, -0.0558659, -0.108363, -0.0092709, -0.443477, 0.63823, 3.13755, 0.057269, 0.117104, 0.00550092, -0.0041308, -0.0117885, 0.021432, -0.0413218, 0.0448791
0.0702849, 0.109476, -0.77367, -0.912967, -1.45019, -0.624967, 1.07443, -0.256698, 0.0884322, 0.00690388, -0.0237843, 0.128774, -0.00548997, 0.154794, 0.000273595, 0.511544, 15.3467, 14.686, 12.2583, 0.533019, 2.90103, -0.0814099, 0.00202726, -0.0012469, -0.00334538, -0.00950667, 0.00538999, -0.000887406, -0.0172127, -0.0386003, 0.0565833, 0.210882, -0.133004, 0.0459353, -0.0109985, -0.444808, 0.634791, -3.1313, -0.0558813, -0.108405, -0.00925294, -0.443521, 0.638277, 3.13736, 0.0572518, 0.117352, 0.00568647, -0.00426302, -0.0121715, 0.0203294, -0.0427464, 0.0452091
0.0712849, 0.109566, -0.77367, -0.912993, -1.45005, -0.624968, 1.07458, -0.256698, 0.0876439, 0.00821777, -0.0252263, 0.129246, -0.00314739, 0.153372, -0.00103831, 0.551216, 15.3467, 14.4242, 12.1829, 0.502806, 2.90835, -0.0484509, 0.00204231, -0.00120801, -0.00340253, -0.00971858, 0.00552317, -0.000879336, -0.0168546, -0.0381876, 0.0566688, 0.208861, -0.132452, 0.0476778, -0.0109927, -0.444812, 0.634778, -3.13127, -0.0558972, -0.108449, -0.00923481, -0.443564, 0.638322, 3.13717, 0.0572396, 0.117605, 0.00587491, -0.00439694, -0.0125597, 0.0201389, -0.0424828, 0.0448835
0.0722849, 0.109659, -0.773668, -0.913027, -1.44992, -0.624973, 1.07474, -0.256697, 0.088007, 0.00603796, -0.0293845, 0.129742, -0.00231569, 0.15392, -0.000692204, 0.551216, 15.3467, 14.2774, 12.1075, 0.496398, 2.87265, -0.0484509, 0.00205632, -0.00116743, -0.00345704, -0.00992587, 0.00564969, -0.000865685, -0.0149617, -0.0389477, 0.0560098, 0.207141, -0.135113, 0.0461043, -0.0109867, -0.444817, 0.634765, -3.13124, -0.0559137, -0.108494, -0.0092173, -0.443609, 0.638365, 3.13698, 0.0572196, 0.117848, 0.00606621, -0.00453252, -0.0129531, 0.0185146, -0.0434403, 0.0436958
0.0732849, 0.109756, -0.773657, -0.913066, -1.44979, -0.624973, 1.0749, -0.256697, 0.0889961, 0.00704336, -0.0298935, 0.130895, -0.000528551, 0.160164, -0.00046147, 0.511544, 15.2356, 14.1623, 11.9965, 0.459777, 2.80856, -0.0484509, 0.00207302, -0.00112594, -0.00351286, -0.0101346, 0.00577401, -0.000852423, -0.0161493, -0.0398894, 0.0572066, 0.212828, -0.138796, 0.0482114, -0.0109806, -0.444821, 0.634752, -3.13121, -0.0559306, -0.108541, -0.00919698, -0.443655, 0.638408, 3.1368, 0.0572006, 0.11809, 0.00626038, -0.00466976, -0.0133516, 0.0198427, -0.044489, 0.0445664
0.0742849, 0.109847, -0.773657, -0.913093, -1.44965, -0.624974, 1.07505, -0.256692, 0.0856277, 0.00718787, -0.0268002, 0.13048, -0.000167378, 0.164342, 0.00115042, 0.511544, 15.2753, 13.9045, 11.9211, 0.447875, 2.74356, -0.0878186, 0.00208799, -0.00108711, -0.00357104, -0.0103486, 0.00590617, -0.000839068, -0.0161324, -0.0397254, 0.0588707, 0.219061, -0.140385, 0.0474766, -0.0109742, -0.444826, 0.634739, -3.13118, -0.055948, -0.108588, -0.00917844, -0.443699, 0.638453, 3.13661, 0.0571815, 0.118345, 0.00645739, -0.00480863, -0.0137552, 0.0199007, -0.0444816, 0.0458221
0.0752849, 0.109942, -0.773658, -0.91313, -1.44952, -0.624977, 1.07521, -0.256695, 0.0902517, 0.00445152, -0.031211, 0.128231, -6.60916e-05, 0.162176, 0.00103821, 0.475838, 15.311, 13.7934, 11.81, 0.441466, 2.70053, -0.0951428, 0.0020997, -0.00104579, -0.0036274, -0.0105599, 0.00603827, -0.000825716, -0.0160074, -0.040078, 0.0569212, 0.213306, -0.139843, 0.0515273, -0.0109676, -0.444831, 0.634725, -3.13115, -0.055966, -0.108638, -0.00916276, -0.443745, 0.638496, 3.13642, 0.0571632, 0.118602, 0.00665724, -0.00494912, -0.0141638, 0.020122, -0.0449623, 0.0434569
0.0762849, 0.110027, -0.773648, -0.913157, -1.44938, -0.624984, 1.07536, -0.256692, 0.083878, 0.00593725, -0.0252934, 0.133891, -0.00110349, 0.160285, 0.0009295, 0.586922, 15.1999, 13.5673, 11.6592, 0.466185, 2.66482, -0.101552, 0.00211163, -0.001007, -0.00368909, -0.0107821, 0.0061567, -0.000800348, -0.0137897, -0.0386777, 0.0608464, 0.220467, -0.140059, 0.0479294, -0.0109609, -0.444836, 0.63471, -3.13111, -0.0559845, -0.108688, -0.00914711, -0.443789, 0.638544, 3.13622, 0.057126, 0.118839, 0.00685993, -0.0050912, -0.0145774, 0.0177905, -0.0438218, 0.0468137
0.0772849, 0.110117, -0.773642, -0.913187, -1.44924, -0.624984, 1.07551, -0.256691, 0.0882786, 0.00507172, -0.0258237, 0.128901, -0.000368864, 0.152568, 0.000619666, 0.586922, 15.1642, 13.4205, 11.6235, 0.453368, 2.6575, -0.101552, 0.0021265, -0.000968975, -0.00374775, -0.0109948, 0.006279, -0.000787808, -0.0154983, -0.0369729, 0.0587451, 0.210777, -0.133725, 0.0566749, -0.0109539, -0.444841, 0.634696, -3.13108, -0.0560035, -0.108741, -0.00912816, -0.443833, 0.638589, 3.13603, 0.05711, 0.119083, 0.00706543, -0.00523486, -0.0149959, 0.019782, -0.0421834, 0.0444286
0.0782849, 0.110211, -0.773639, -0.913218, -1.44911, -0.624988, 1.07567, -0.256695, 0.0881051, 0.0035899, -0.0280118, 0.131019, -0.000326853, 0.151568, -0.000807592, 0.586922, 15.1642, 13.3451, 11.4728, 0.453368, 2.66482, -0.0685925, 0.00214055, -0.000929623, -0.00380691, -0.0112115, 0.00640226, -0.000778397, -0.0135433, -0.0372142, 0.0590747, 0.210393, -0.135416, 0.0567459, -0.0109468, -0.444846, 0.63468, -3.13105, -0.0560231, -0.108794, -0.00910981, -0.443877, 0.638633, 3.13584, 0.057099, 0.11933, 0.00727374, -0.00538009, -0.0154193, 0.0180256, -0.0426439, 0.0441956
0.0792849, 0.110297, -0.773631, -0.913246, -1.44898, -0.624988, 1.07583, -0.256692, 0.0871931, 0.00654803, -0.0285814, 0.130628, -7.51585e-05, 0.151758, 0.000173682, 0.626595, 15.1285, 13.234, 11.3974, 0.447875, 2.65018, -0.0878186, 0.00215605, -0.000891564, -0.00386607, -0.0114301, 0.0065195, -0.000763059, -0.0138408, -0.0370531, 0.0593959, 0.210966, -0.131894, 0.0563333, -0.0109394, -0.444852, 0.634665, -3.13101, -0.0560432, -0.10885, -0.00908985, -0.443921, 0.638678, 3.13565, 0.0570793, 0.11957, 0.00748486, -0.00552686, -0.0158476, 0.0185037, -0.0426241, 0.0441087
0.0802849, 0.110386, -0.773625, -0.913272, -1.44885, -0.624988, 1.07599, -0.256696, 0.0866277, 0.00567438, -0.0268052, 0.130814, 0.000141723, 0.151814, -0.00107101, 0.6623, 15.0888, 13.1586, 11.2863, 0.441466, 2.63644, -0.0557752, 0.00217286, -0.000854614, -0.00392576, -0.0116476, 0.00663601, -0.000758089, -0.0137223, -0.0365394, 0.0604032, 0.212976, -0.132574, 0.0599753, -0.0109318, -0.444858, 0.634649, -3.13097, -0.0560639, -0.108906, -0.00906847, -0.443964, 0.638722, 3.13546, 0.0570764, 0.11981, 0.00769877, -0.00567515, -0.0162807, 0.0185094, -0.0422747, 0.0446749
0.0812849, 0.110477, -0.773614, -0.913294, -1.44872, -0.624987, 1.07614, -0.256696, 0.0878986, 0.00573911, -0.0244111, 0.129339, 0.000297693, 0.156265, -0.000714004, 0.626595, 15.0174, 13.0475, 11.1356, 0.435057, 2.62912, -0.0557752, 0.00219144, -0.000819371, -0.00398792, -0.0118667, 0.00674814, -0.000752118, -0.0157026, -0.0366264, 0.0614613, 0.218216, -0.133443, 0.0651646, -0.010924, -0.444863, 0.634632, -3.13094, -0.0560851, -0.108965, -0.00904535, -0.444005, 0.638769, 3.13527, 0.0570724, 0.120044, 0.00791545, -0.00582496, -0.0167186, 0.0206284, -0.0424531, 0.0454289
0.0822849, 0.110558, -0.773608, -0.913318, -1.4486, -0.624987, 1.07629, -0.256696, 0.0853738, 0.00320517, -0.0244329, 0.126216, 0.000172851, 0.150898, -0.000476003, 0.737679, 15.0531, 13.0118, 11.0641, 0.435057, 2.60074, -0.0557752, 0.00220477, -0.000783377, -0.00404871, -0.0120863, 0.00686224, -0.000736812, -0.0136764, -0.0353144, 0.0604626, 0.212725, -0.130532, 0.0655568, -0.010916, -0.444869, 0.634615, -3.1309, -0.0561069, -0.109025, -0.00902713, -0.444047, 0.638813, 3.13508, 0.0570544, 0.120284, 0.00813491, -0.00597625, -0.0171612, 0.018848, -0.0413578, 0.0438573
0.0832849, 0.110642, -0.773597, -0.913332, -1.44848, -0.624989, 1.07645, -0.256695, 0.0851933, 0.00623592, -0.0193152, 0.121559, -0.000582143, 0.152239, -7.99764e-05, 0.777352, 15.0174, 12.8968, 11.0999, 0.453368, 2.53573, -0.0621838, 0.00222604, -0.000750383, -0.00411007, -0.012308, 0.00696134, -0.000735786, -0.0169631, -0.0341065, 0.0612028, 0.215999, -0.124238, 0.0725862, -0.0109077, -0.444875, 0.634598, -3.13086, -0.0561293, -0.109086, -0.00900093, -0.444086, 0.638858, 3.13489, 0.0570591, 0.120501, 0.00835714, -0.00612902, -0.0176085, 0.02225, -0.040196, 0.0443851
0.0842849, 0.110724, -0.773595, -0.913359, -1.44835, -0.624988, 1.0766, -0.256694, 0.0838661, 0.0042645, -0.0199658, 0.121603, 3.83083e-05, 0.14886, 0.0004214, 0.85273, 15.1642, 12.9722, 10.9888, 0.441466, 2.48538, -0.0750012, 0.00223684, -0.000715253, -0.00416966, -0.0125209, 0.0070747, -0.000717824, -0.0151244, -0.033397, 0.0611663, 0.213227, -0.124356, 0.0721992, -0.0108992, -0.444881, 0.63458, -3.13082, -0.0561522, -0.109149, -0.00898475, -0.444127, 0.638901, 3.13471, 0.0570385, 0.120743, 0.00858211, -0.00628324, -0.0180604, 0.0206169, -0.0397083, 0.0437729
0.0852849, 0.110801, -0.773583, -0.91338, -1.44824, -0.624989, 1.07675, -0.256694, 0.0802802, 0.00422606, -0.0193554, 0.119076, -0.000426075, 0.150282, 0.000280934, 0.928108, 15.1285, 13.0118, 10.9888, 0.453368, 2.44967, -0.0750012, 0.00225221, -0.000682624, -0.00422932, -0.0127346, 0.00716707, -0.00070479, -0.0141211, -0.0331714, 0.0612844, 0.214776, -0.122527, 0.0719914, -0.0108905, -0.444888, 0.634562, -3.13078, -0.0561758, -0.109214, -0.00896389, -0.444166, 0.638943, 3.13453, 0.0570263, 0.120953, 0.00880983, -0.00643891, -0.018517, 0.019826, -0.0396775, 0.0433648
0.0862849, 0.110876, -0.773576, -0.913392, -1.44812, -0.624989, 1.07689, -0.25669, 0.0775623, 0.00465979, -0.0167833, 0.119012, -0.000292154, 0.151301, 0.00140799, 1.00349, 15.1999, 12.9722, 10.9134, 0.453368, 2.41397, -0.10796, 0.00226674, -0.000652348, -0.00429304, -0.0129539, 0.00726713, -0.000691338, -0.0138341, -0.032574, 0.0626722, 0.218321, -0.122187, 0.0719256, -0.0108816, -0.444894, 0.634543, -3.13073, -0.0561999, -0.10928, -0.00894402, -0.444203, 0.638988, 3.13434, 0.0570136, 0.121177, 0.00904028, -0.00659599, -0.0189781, 0.0196502, -0.0392636, 0.0442715
0.0872849, 0.110951, -0.773571, -0.913405, -1.44801, -0.62499, 1.07703, -0.25669, 0.076578, 0.000239511, -0.0127144, 0.11386, -0.000438206, 0.145303, 0.000938661, 1.03919, 15.3467, 12.9722, 10.9134, 0.459777, 2.42862, -0.10796, 0.00228087, -0.000622856, -0.00435409, -0.013166, 0.00736145, -0.000683552, -0.0135696, -0.0302962, 0.0620651, 0.213576, -0.119676, 0.0787977, -0.0108725, -0.444901, 0.634524, -3.13069, -0.0562246, -0.109348, -0.00892416, -0.44424, 0.639031, 3.13417, 0.0570108, 0.121393, 0.00927346, -0.00675447, -0.0194438, 0.0195774, -0.0371517, 0.0431973
0.0882849, 0.111024, -0.773558, -0.913416, -1.44789, -0.62499, 1.07717, -0.256691, 0.0755717, 0.00369152, -0.00962043, 0.111249, -0.000296695, 0.145858, 0.000388415, 1.07887, 15.3467, 12.9722, 10.8777, 0.459777, 2.42129, -0.101552, 0.00229683, -0.000595049, -0.00441636, -0.0133783, 0.00744437, -0.000675357, -0.015623, -0.0293273, 0.0628466, 0.215752, -0.11444, 0.0838751, -0.0108631, -0.444908, 0.634504, -3.13064, -0.0562499, -0.109417, -0.0089024, -0.444275, 0.639075, 3.13399, 0.0570081, 0.121594, 0.00950935, -0.00691434, -0.0199139, 0.0217686, -0.0362804, 0.0436566
0.0892849, 0.111092, -0.773548, -0.913425, -1.44778, -0.62499, 1.07729, -0.256689, 0.0709806, 0.00528235, -0.00952153, 0.11242, -0.000201215, 0.141491, -0.000249683, 1.15424, 15.3864, 12.9365, 10.838, 0.459777, 2.44235, -0.0878186, 0.00230909, -0.000570356, -0.00447791, -0.0135793, 0.00752159, -0.000662243, -0.0132254, -0.0282471, 0.0635301, 0.214021, -0.110848, 0.081219, -0.0108534, -0.444915, 0.634484, -3.1306, -0.0562758, -0.109488, -0.00888417, -0.444307, 0.639117, 3.13383, 0.0569991, 0.121787, 0.00974794, -0.00707558, -0.0203885, 0.0195279, -0.0354567, 0.0437032
0.0902849, 0.111157, -0.773538, -0.913441, -1.44767, -0.62499, 1.07741, -0.256691, 0.0675826, 0.0056748, -0.0090116, 0.106993, -0.000136708, 0.133422, -0.00111589, 1.22962, 15.4578, 13.0118, 10.8023, 0.459777, 2.46432, -0.0621838, 0.00231756, -0.000545043, -0.00453746, -0.0137757, 0.00759548, -0.000644351, -0.0121058, -0.0260827, 0.0618982, 0.205521, -0.102267, 0.0836752, -0.0108436, -0.444922, 0.634463, -3.13055, -0.0563023, -0.109561, -0.00886931, -0.44434, 0.639156, 3.13367, 0.0569837, 0.121977, 0.00998923, -0.00723817, -0.0208674, 0.018686, -0.0334828, 0.0415331
0.0912849, 0.111215, -0.77353, -0.913448, -1.44757, -0.624989, 1.07753, -0.256696, 0.0617916, 0.00603026, -0.00886207, 0.102912, 0.000347748, 0.127012, -0.00148991, 1.305, 15.5331, 12.9722, 10.7626, 0.447875, 2.50003, -0.0420422, 0.00232638, -0.000523785, -0.0045972, -0.0139673, 0.00766269, -0.000634437, -0.00977204, -0.0242612, 0.060803, 0.198967, -0.0957352, 0.0825049, -0.0108335, -0.444929, 0.634442, -3.1305, -0.0563295, -0.109636, -0.00885404, -0.444369, 0.639195, 3.13352, 0.0569817, 0.122159, 0.0102332, -0.00740209, -0.0213508, 0.0166114, -0.0319014, 0.0398065
0.0922849, 0.111267, -0.773519, -0.913453, -1.44747, -0.624989, 1.07764, -0.256695, 0.063018, 0.0071387, -0.00583837, 0.10141, 2.69393e-05, 0.12282, -0.000484649, 1.41608, 15.5688, 12.9365, 10.6516, 0.453368, 2.52109, -0.0557752, 0.00233259, -0.000503762, -0.00465812, -0.0141597, 0.00772361, -0.00061237, -0.0112353, -0.0226745, 0.0613318, 0.197509, -0.0907961, 0.0874629, -0.0108231, -0.444937, 0.634421, -3.13045, -0.0563573, -0.109712, -0.00884127, -0.444397, 0.639235, 3.13337, 0.0569614, 0.122332, 0.0104799, -0.00756732, -0.0218384, 0.0182198, -0.0304368, 0.0399599
0.0932849, 0.11132, -0.773512, -0.913459, -1.44738, -0.624989, 1.07775, -0.256691, 0.058553, 0.00931144, -0.00665258, 0.0976332, 0.000220328, 0.119931, 0.000151619, 1.49146, 15.6799, 12.8968, 10.6516, 0.447875, 2.53573, -0.0685925, 0.00234117, -0.000484864, -0.00471419, -0.014342, 0.00777686, -0.000595139, -0.00998594, -0.0217187, 0.0604101, 0.193725, -0.0841522, 0.0856139, -0.0108125, -0.444944, 0.634399, -3.1304, -0.0563857, -0.10979, -0.0088256, -0.444424, 0.639269, 3.13323, 0.0569501, 0.122495, 0.0107292, -0.00773386, -0.0223304, 0.0172507, -0.0296863, 0.0384674
0.0942849, 0.111373, -0.773503, -0.913466, -1.44728, -0.62499, 1.07785, -0.256686, 0.0569836, 0.00573347, -0.0074381, 0.0954055, -0.000294735, 0.11417, 0.00155914, 1.49146, 15.7513, 12.8611, 10.5008, 0.459777, 2.52109, -0.10796, 0.00234683, -0.000467168, -0.00477209, -0.0145214, 0.00782621, -0.000571525, -0.00748253, -0.0206191, 0.059413, 0.188017, -0.0822677, 0.0847526, -0.0108016, -0.444952, 0.634376, -3.13035, -0.0564147, -0.10987, -0.00881277, -0.44445, 0.639305, 3.13309, 0.0569297, 0.122654, 0.0109812, -0.00790168, -0.0228265, 0.0150342, -0.0288373, 0.0368083
0.0952849, 0.111421, -0.77349, -0.913473, -1.4472, -0.624989, 1.07795, -0.256688, 0.0524911, 0.00784321, -0.00490345, 0.0923957, 4.02604e-05, 0.105741, 0.000293442, 1.49146, 15.7513, 12.8254, 10.3897, 0.453368, 2.48538, -0.0878186, 0.00235337, -0.00045111, -0.00482752, -0.0146941, 0.00786366, -0.000555042, -0.00655864, -0.0180302, 0.0591784, 0.181986, -0.073647, 0.0870446, -0.0107905, -0.44496, 0.634353, -3.1303, -0.0564444, -0.109952, -0.00879871, -0.444474, 0.639337, 3.13296, 0.0569215, 0.122796, 0.0112358, -0.00807076, -0.0233269, 0.0142875, -0.0264527, 0.0360277
0.0962849, 0.111458, -0.773478, -0.913478, -1.44712, -0.624989, 1.07804, -0.256687, 0.0462712, 0.00918909, -0.00532113, 0.0821905, 2.63839e-05, 0.108278, 0.000466896, 1.60651, 15.7513, 12.75, 10.354, 0.453368, 2.46432, -0.0951428, 0.00235734, -0.000437696, -0.00488099, -0.0148597, 0.00789015, -0.000532156, -0.00628156, -0.0175864, 0.0569353, 0.179738, -0.0662165, 0.0874532, -0.0107792, -0.444968, 0.634329, -3.13025, -0.0564747, -0.110035, -0.00878692, -0.444496, 0.639367, 3.13284, 0.0569047, 0.122923, 0.011493, -0.00824109, -0.0238314, 0.0144067, -0.0261696, 0.0332689
0.0972849, 0.111504, -0.773475, -0.913485, -1.44704, -0.624989, 1.07812, -0.256687, 0.0460318, 0.00764524, -0.00650152, 0.0811752, 1.7247e-05, 0.105446, 0.000311264, 1.53114, 15.8624, 12.7143, 10.1675, 0.453368, 2.44235, -0.0951428, 0.00235892, -0.000423885, -0.00493525, -0.0150231, 0.00792744, -0.000512444, -0.00501473, -0.0170901, 0.056509, 0.17684, -0.0649041, 0.0888574, -0.0107676, -0.444977, 0.634305, -3.13019, -0.0565057, -0.11012, -0.0087773, -0.444519, 0.639397, 3.13273, 0.0568935, 0.123069, 0.0117529, -0.00841265, -0.0243401, 0.0134129, -0.025889, 0.0322489
0.0982849, 0.111546, -0.773463, -0.913486, -1.44696, -0.624989, 1.07821, -0.25669, 0.0481283, 0.00922657, -0.00554993, 0.0830421, 0.000214692, 0.0993438, -0.000775835, 1.49146, 15.8624, 12.5992, 9.98108, 0.447875, 2.39932, -0.0685925, 0.00236365, -0.000412403, -0.00499085, -0.0151879, 0.00795168, -0.000497472, -0.00552274, -0.0157141, 0.0573166, 0.174077, -0.0609597, 0.0938068, -0.0107557, -0.444985, 0.634281, -3.13014, -0.0565373, -0.110207, -0.00876449, -0.44454, 0.639429, 3.13261, 0.0568904, 0.123196, 0.0120154, -0.00858543, -0.0248528, 0.0140723, -0.0246798, 0.0325873
0.0992849, 0.111581, -0.77346, -0.913489, -1.44689, -0.624989, 1.07829, -0.256687, 0.0455015, 0.00454868, -0.00604074, 0.0807395, -6.05151e-05, 0.0948834, -0.000754582, 1.49146, 15.9735, 12.5278, 9.83032, 0.453368, 2.34988, -0.0621838, 0.00236214, -0.000401847, -0.00504446, -0.0153467, 0.00797736, -0.000470767, -0.0024952, -0.0147531, 0.0565116, 0.16957, -0.0609366, 0.0937253, -0.0107435, -0.444994, 0.634256, -3.13008, -0.0565696, -0.110296, -0.00875753, -0.44456, 0.639457, 3.1325, 0.05687, 0.123327, 0.0122806, -0.0087594, -0.0253696, 0.011338, -0.0239964, 0.0310608
0.100285, 0.111617, -0.773448, -0.913487, -1.44682, -0.62499, 1.07836, -0.256686, 0.0421719, 0.00461474, -0.0014021, 0.0758771, -0.000277847, 0.0867868, -0.000503055, 1.41608, 15.9378, 12.3771, 9.67957, 0.459777, 2.29953, -0.0621838, 0.00236561, -0.000393506, -0.00509869, -0.0155042, 0.00798786, -0.000451446, -0.00243999, -0.0118313, 0.0562467, 0.164174, -0.0529894, 0.098019, -0.0107311, -0.445003, 0.63423, -3.13002, -0.0566025, -0.110386, -0.00874547, -0.444578, 0.639486, 3.1324, 0.0568621, 0.123437, 0.0125483, -0.00893455, -0.0258904, 0.0114599, -0.0212541, 0.0302939
0.101285, 0.111657, -0.77344, -0.913494, -1.44675, -0.624991, 1.07843, -0.25669, 0.0443518, 0.00603074, -0.000775575, 0.0738576, -0.000422698, 0.0801893, -0.000572729, 1.26533, 15.9735, 12.3414, 9.4574, 0.466185, 2.2565, -0.0557752, 0.002365, -0.00038495, -0.00515043, -0.0156499, 0.00799845, -0.00043293, -0.00352091, -0.0102404, 0.0557288, 0.158753, -0.0461405, 0.103656, -0.0107184, -0.445012, 0.634204, -3.12996, -0.0566361, -0.110479, -0.00873705, -0.444596, 0.639511, 3.1323, 0.0568569, 0.123548, 0.0128186, -0.00911087, -0.0264151, 0.0127831, -0.0197997, 0.0293407
0.102285, 0.111691, -0.773431, -0.913498, -1.44668, -0.624991, 1.07849, -0.256691, 0.0416154, 0.00787654, -0.00234346, 0.0712957, -0.000485331, 0.0751557, -0.000381819, 1.15424, 15.9735, 12.266, 9.27094, 0.471678, 2.22079, -0.0557752, 0.00236424, -0.000378288, -0.00520165, -0.0157927, 0.00800019, -0.000411081, -0.00214284, -0.00919058, 0.0547368, 0.153341, -0.0392424, 0.102785, -0.0107055, -0.445021, 0.634177, -3.1299, -0.0566704, -0.110573, -0.00872854, -0.444613, 0.639536, 3.13221, 0.0568474, 0.123648, 0.0130915, -0.00928833, -0.0269437, 0.0117107, -0.0189702, 0.0277328
0.103285, 0.11173, -0.773416, -0.913505, -1.44662, -0.624993, 1.07855, -0.256691, 0.0405273, 0.0148392, -0.00453097, 0.0702169, -0.000798333, 0.0712075, -0.000254546, 1.00349, 15.8624, 12.2303, 9.04877, 0.484496, 2.1915, -0.0557752, 0.00236494, -0.000371969, -0.0052527, -0.015932, 0.0079928, -0.000388981, -0.00262799, -0.00849588, 0.0542601, 0.149678, -0.0285284, 0.102309, -0.0106922, -0.44503, 0.63415, -3.12984, -0.0567054, -0.110669, -0.00871832, -0.444629, 0.63956, 3.13213, 0.0568386, 0.123736, 0.0133669, -0.00946692, -0.0274763, 0.0124748, -0.0184353, 0.0267641
0.104285, 0.111764, -0.773409, -0.913514, -1.44656, -0.624992, 1.07861, -0.256691, 0.0346732, 0.0132831, -0.00606739, 0.0659906, -0.000294908, 0.0690712, -0.000169697, 0.928108, 15.9021, 12.1906, 8.97339, 0.478087, 2.14206, -0.0557752, 0.00236303, -0.000366245, -0.00529975, -0.0160635, 0.0079869, -0.000367518, 0.00040985, -0.00779825, 0.0530146, 0.145598, -0.0258171, 0.0995944, -0.0106787, -0.44504, 0.634122, -3.12978, -0.056741, -0.110767, -0.00871018, -0.444645, 0.639579, 3.13205, 0.0568321, 0.123828, 0.0136449, -0.00964662, -0.0280126, 0.00978373, -0.0180169, 0.0247752
0.105285, 0.111795, -0.773402, -0.913522, -1.4465, -0.624991, 1.07866, -0.256687, 0.0326635, 0.0130575, -0.00718728, 0.0640357, 0.00024417, 0.0673496, 0.000124227, 0.888436, 15.9021, 12.1549, 8.71155, 0.466185, 2.0917, -0.0621838, 0.00235817, -0.000361135, -0.0053506, -0.0161995, 0.00798412, -0.000335305, 0.00162858, -0.00728736, 0.0525531, 0.143214, -0.0235153, 0.0996975, -0.0106649, -0.44505, 0.634094, -3.12971, -0.0567774, -0.110867, -0.008705, -0.444661, 0.639601, 3.13197, 0.0568091, 0.123926, 0.0139255, -0.00982742, -0.0285528, 0.00886014, -0.0177292, 0.0236918
0.106285, 0.111837, -0.773398, -0.913539, -1.44645, -0.624993, 1.07872, -0.256682, 0.0378231, 0.00895009, -0.0106084, 0.061352, -0.000718865, 0.0611038, 0.00154088, 0.701973, 15.9378, 12.2303, 8.63617, 0.489989, 2.04867, -0.101552, 0.00235565, -0.000354798, -0.00539435, -0.0163215, 0.00796926, -0.000309505, 0.00223416, -0.00681569, 0.0504381, 0.134879, -0.0210704, 0.103705, -0.0106509, -0.44506, 0.634065, -3.12965, -0.0568144, -0.110969, -0.00869667, -0.444678, 0.639616, 3.13191, 0.0567979, 0.124008, 0.0142086, -0.0100093, -0.0290967, 0.00866851, -0.0174421, 0.0209983
0.107285, 0.111868, -0.773386, -0.913548, -1.4464, -0.624995, 1.07877, -0.256683, 0.0371169, 0.00937543, -0.00623483, 0.0554808, -0.00095398, 0.0606804, 0.000518627, 0.701973, 15.8267, 12.1549, 8.60046, 0.502806, 2.01938, -0.0878186, 0.00235287, -0.000351096, -0.00544173, -0.0164497, 0.00794631, -0.000285088, 9.73713e-05, -0.00532077, 0.0504483, 0.135262, -0.015903, 0.112297, -0.0106365, -0.44507, 0.634036, -3.12958, -0.0568522, -0.111073, -0.00868868, -0.444693, 0.639633, 3.13184, 0.0567892, 0.12408, 0.0144943, -0.0101922, -0.0296444, 0.0110256, -0.0160578, 0.0206241
0.108285, 0.111905, -0.77338, -0.913566, -1.44635, -0.624995, 1.07882, -0.256685, 0.038601, 0.00685797, -0.0118327, 0.051369, -0.0100258, 0.0560517, 0.000617019, 0.626595, 15.8267, 12.1906, 8.56079, 0.502806, 1.97635, -0.0951428, 0.00234874, -0.000345661, -0.00548608, -0.0165715, 0.00792797, -0.000262722, 0.00366491, -0.00628522, 0.0476085, 0.130134, -0.00548215, 0.109163, -0.0106219, -0.44508, 0.634006, -3.12951, -0.0568906, -0.111178, -0.0086815, -0.44471, 0.639648, 3.13178, 0.0567848, 0.12416, 0.0147825, -0.0103762, -0.0301957, 0.00799057, -0.0173063, 0.0169779
0.109285, 0.111954, -0.773376, -0.91359, -1.4463, -0.624999, 1.07887, -0.25669, 0.0423099, 0.00814072, -0.0170007, 0.0492962, -0.00790715, 0.0566442, -0.00203006, 0.436165, 15.8267, 12.266, 8.48541, 0.514708, 1.95529, -0.0292249, 0.00234591, -0.00033946, -0.00552902, -0.0166881, 0.00790451, -0.00024837, 0.00262038, -0.00690948, 0.0460625, 0.126108, -0.00370161, 0.115692, -0.010607, -0.44509, 0.633975, -3.12945, -0.0569298, -0.111286, -0.00867261, -0.444727, 0.63966, 3.13173, 0.0567941, 0.124235, 0.0150731, -0.0105613, -0.0307507, 0.00945179, -0.0180638, 0.0149491
0.110285, 0.111992, -0.77337, -0.913618, -1.44625, -0.625002, 1.07891, -0.256689, 0.0413437, 0.00779162, -0.0215518, 0.0457869, -0.00653647, 0.0518024, -0.00111601, 0.400459, 15.7513, 12.3771, 8.48541, 0.533019, 1.94797, -0.0356336, 0.002338, -0.000333725, -0.00556947, -0.0167972, 0.00787292, -0.000215004, 0.00437245, -0.00635384, 0.0438442, 0.117536, 0.000639447, 0.114845, -0.0105917, -0.445101, 0.633944, -3.12938, -0.0569696, -0.111396, -0.00866834, -0.444745, 0.639669, 3.13168, 0.056775, 0.124299, 0.0153663, -0.0107473, -0.0313093, 0.00813238, -0.0177365, 0.0120569
0.111285, 0.112027, -0.773372, -0.913648, -1.44622, -0.625004, 1.07896, -0.256686, 0.0381619, 0.00388211, -0.0239669, 0.0416471, -0.00503516, 0.0522474, 1.97549e-06, 0.475838, 15.8267, 12.4524, 8.56079, 0.539427, 1.96261, -0.0557752, 0.0023276, -0.000328672, -0.00560718, -0.0169008, 0.00784474, -0.000181862, 0.00680419, -0.00630233, 0.04247, 0.114389, -0.00103427, 0.113604, -0.0105762, -0.445112, 0.633913, -3.1293, -0.0570102, -0.111507, -0.0086661, -0.444762, 0.639674, 3.13164, 0.0567575, 0.12437, 0.015662, -0.0109343, -0.0318714, 0.00609685, -0.0179475, 0.00995003
0.112285, 0.11207, -0.773366, -0.913682, -1.44618, -0.625004, 1.079, -0.256686, 0.0409804, 0.00552472, -0.0278064, 0.0389196, -0.00392424, 0.0529914, 1.31699e-06, 0.475838, 15.7156, 12.4882, 8.63617, 0.545836, 1.96994, -0.0557752, 0.00232194, -0.000323153, -0.00564429, -0.0170016, 0.00780572, -0.000155664, 0.00566475, -0.00673377, 0.041167, 0.111528, 0.00214253, 0.117506, -0.0105604, -0.445123, 0.63388, -3.12923, -0.0570515, -0.111621, -0.0086588, -0.444779, 0.639679, 3.13161, 0.0567517, 0.124427, 0.0159602, -0.0111224, -0.0324371, 0.00763638, -0.0185142, 0.00816124
0.113285, 0.112116, -0.773369, -0.913723, -1.44614, -0.625004, 1.07904, -0.256685, 0.0441568, 0.00310158, -0.0286485, 0.0386461, -0.00262639, 0.048336, 0.000475596, 0.436165, 15.7513, 12.5635, 8.63617, 0.539427, 1.991, -0.0685925, 0.00231151, -0.000317026, -0.00567994, -0.0170943, 0.00777495, -0.000124922, 0.00570687, -0.00582611, 0.0408159, 0.106883, 0.00209054, 0.122403, -0.0105443, -0.445134, 0.633848, -3.12916, -0.0570936, -0.111737, -0.00865584, -0.444798, 0.639681, 3.13158, 0.0567402, 0.124499, 0.0162609, -0.0113113, -0.0330063, 0.00788383, -0.0177968, 0.00724552
0.114285, 0.112157, -0.773368, -0.913773, -1.44611, -0.625006, 1.07907, -0.256684, 0.0427186, 0.00392839, -0.034076, 0.0350282, -0.00169926, 0.0491194, 0.00177513, 0.551216, 15.6799, 12.7143, 8.78693, 0.533019, 2.0267, -0.10796, 0.00229813, -0.000310537, -0.00570963, -0.0171746, 0.00772625, -8.62175e-05, 0.00706752, -0.00645901, 0.0389043, 0.102888, 0.00523772, 0.119932, -0.0105279, -0.445146, 0.633814, -3.12908, -0.0571363, -0.111854, -0.00865509, -0.444817, 0.639676, 3.13157, 0.056718, 0.124545, 0.016564, -0.0115013, -0.033579, 0.00698723, -0.0186498, 0.00466233
0.115285, 0.11221, -0.773364, -0.913825, -1.44608, -0.625005, 1.07911, -0.256683, 0.0453777, 0.00452484, -0.0382903, 0.0319537, -0.000390485, 0.0403454, 0.000708699, 0.511544, 15.6046, 12.75, 8.82263, 0.509215, 2.06241, -0.0951428, 0.00229051, -0.000303371, -0.00574091, -0.0172577, 0.0076806, -5.8108e-05, 0.00734171, -0.00522523, 0.0364909, 0.0912405, 0.0122947, 0.124747, -0.0105112, -0.445157, 0.633781, -3.12901, -0.0571798, -0.111974, -0.00864839, -0.444836, 0.639673, 3.13156, 0.0567129, 0.124598, 0.0168696, -0.0116921, -0.034155, 0.00714332, -0.0175933, 0.00166908
0.116285, 0.112257, -0.773368, -0.913883, -1.44606, -0.625008, 1.07915, -0.256682, 0.0439301, 0.00219555, -0.0448873, 0.0270697, -0.00124639, 0.0431637, 0.000709825, 0.626595, 15.6442, 12.7857, 8.97339, 0.533019, 2.09903, -0.101552, 0.00227721, -0.000295915, -0.00576757, -0.0173321, 0.00762845, -2.21359e-05, 0.00993367, -0.00665829, 0.0339406, 0.0881133, 0.013527, 0.122469, -0.0104942, -0.445169, 0.633746, -3.12893, -0.0572241, -0.112096, -0.00864673, -0.444857, 0.639665, 3.13155, 0.056697, 0.124643, 0.0171776, -0.0118839, -0.0347344, 0.00509994, -0.0192846, -0.00165365
0.117285, 0.112311, -0.773377, -0.913949, -1.44604, -0.625008, 1.07918, -0.256681, 0.0470628, -0.0009617, -0.0508051, 0.0252432, -2.76471e-05, 0.0405166, 0.000473217, 0.701973, 15.7513, 12.8611, 9.04877, 0.509215, 2.14206, -0.101552, 0.00226167, -0.000287712, -0.00579142, -0.0173959, 0.00758039, 1.22178e-05, 0.0113471, -0.00704912, 0.0318452, 0.0810887, 0.0130991, 0.124947, -0.0104768, -0.445181, 0.633711, -3.12885, -0.0572691, -0.112219, -0.00864676, -0.444878, 0.639652, 3.13156, 0.056685, 0.124696, 0.017488, -0.0120766, -0.0353172, 0.00416321, -0.0198977, -0.00443284
0.118285, 0.112364, -0.773371, -0.914023, -1.44603, -0.625005, 1.07921, -0.256686, 0.0495846, 0.00192471, -0.0584003, 0.0190078, 0.000397533, 0.0344017, -0.00114258, 0.777352, 15.6442, 12.9365, 9.19556, 0.496398, 2.17044, -0.0621838, 0.00225061, -0.000279414, -0.00581142, -0.0174505, 0.00751147, 4.31771e-05, 0.0113019, -0.00681889, 0.0278454, 0.0683988, 0.0240285, 0.128828, -0.0104592, -0.445193, 0.633676, -3.12877, -0.0573148, -0.112345, -0.00864176, -0.4449, 0.639636, 3.13158, 0.05668, 0.124719, 0.0178009, -0.0122702, -0.0359033, 0.00479648, -0.019816, -0.00900461
0.119285, 0.112428, -0.773371, -0.914097, -1.44602, -0.625007, 1.07924, -0.256686, 0.0541056, 0.00132829, -0.0622765, 0.0162627, 0.000458316, 0.0294634, -0.000999082, 0.737679, 15.6442, 12.9365, 9.27094, 0.489989, 2.20614, -0.0557752, 0.00224118, -0.000271181, -0.00583094, -0.0175031, 0.00744161, 6.82288e-05, 0.0109291, -0.00644254, 0.0258932, 0.060801, 0.0286854, 0.133822, -0.0104412, -0.445205, 0.633639, -3.12869, -0.0573613, -0.112473, -0.00863479, -0.444921, 0.639619, 3.1316, 0.0566851, 0.124743, 0.0181163, -0.0124646, -0.0364926, 0.00560727, -0.0196005, -0.0115124
0.120285, 0.112483, -0.773368, -0.914182, -1.44602, -0.625007, 1.07926, -0.256685, 0.0560659, 0.0018474, -0.0714216, 0.0109821, 0.000475946, 0.0265374, -0.00117468, 0.888436, 15.6046, 12.9365, 9.34631, 0.484496, 2.22079, -0.0420422, 0.00222654, -0.000262501, -0.00584587, -0.0175443, 0.00736164, 0.00010881, 0.0123146, -0.00723725, 0.0219782, 0.0504541, 0.0354112, 0.133842, -0.0104229, -0.445218, 0.633603, -3.12861, -0.0574085, -0.112603, -0.00863237, -0.444944, 0.639596, 3.13164, 0.0566677, 0.124754, 0.018434, -0.0126599, -0.0370852, 0.00485214, -0.0205966, -0.0161182
0.121285, 0.112544, -0.773371, -0.914272, -1.44602, -0.625007, 1.07929, -0.256683, 0.055476, 0.000328974, -0.0753795, 0.00791385, 0.000292511, 0.0290005, -0.000545762, 1.00349, 15.6442, 12.9365, 9.38202, 0.484496, 2.23453, -0.0484509, 0.00221135, -0.000252467, -0.00585897, -0.0175827, 0.00728496, 0.00014737, 0.0137226, -0.00811044, 0.0207201, 0.0494476, 0.0358198, 0.133266, -0.0104044, -0.445231, 0.633565, -3.12852, -0.0574565, -0.112735, -0.00863, -0.444968, 0.63957, 3.13168, 0.0566545, 0.124771, 0.0187541, -0.012856, -0.0376809, 0.00389, -0.0217036, -0.0180801
0.122285, 0.112613, -0.773366, -0.914366, -1.44603, -0.625011, 1.07931, -0.256685, 0.0631521, 0.00116638, -0.0816136, 0.0014117, -2.70331e-05, 0.030793, -9.25737e-05, 1.03919, 15.6046, 12.9365, 9.4574, 0.489989, 2.24917, -0.0557752, 0.00220141, -0.000242996, -0.00586837, -0.0176114, 0.0071875, 0.000174083, 0.0108529, -0.00927751, 0.0175271, 0.044104, 0.0413891, 0.14108, -0.0103854, -0.445244, 0.633527, -3.12844, -0.0575053, -0.11287, -0.00862185, -0.444991, 0.639541, 3.13173, 0.0566613, 0.124759, 0.0190766, -0.013053, -0.0382798, 0.00734411, -0.0229266, -0.0216691
0.123285, 0.112678, -0.773367, -0.914464, -1.44604, -0.625011, 1.07933, -0.256682, 0.059956, 0.000791871, -0.0876368, -0.00249364, 0.000171486, 0.0263311, 0.000175643, 1.18995, 15.6046, 12.8611, 9.4931, 0.484496, 2.2922, -0.0621838, 0.00218634, -0.000233622, -0.00587641, -0.0176343, 0.00709554, 0.000212342, 0.0142143, -0.00912514, 0.0149204, 0.035454, 0.0468089, 0.137314, -0.0103662, -0.445257, 0.633489, -3.12835, -0.0575548, -0.113006, -0.00861839, -0.445014, 0.63951, 3.13179, 0.0566514, 0.124757, 0.0194015, -0.0132507, -0.0388819, 0.00449934, -0.0230648, -0.0251144
0.124285, 0.112749, -0.773361, -0.914573, -1.44605, -0.625012, 1.07934, -0.256682, 0.0626367, 0.00220906, -0.093367, -0.00866161, 0.000103867, 0.0240297, -0.000120264, 1.26533, 15.5331, 12.8254, 9.53278, 0.484496, 2.31326, -0.0557752, 0.00217343, -0.000223324, -0.00588081, -0.0176469, 0.00698944, 0.000247728, 0.0136747, -0.00930424, 0.0117827, 0.0274083, 0.0546002, 0.141249, -0.0103466, -0.44527, 0.633449, -3.12826, -0.0576051, -0.113144, -0.00861217, -0.445039, 0.639474, 3.13186, 0.0566476, 0.124736, 0.0197288, -0.0134493, -0.039487, 0.00559626, -0.0233865, -0.0288136
0.125285, 0.112822, -0.773363, -0.914682, -1.44607, -0.625011, 1.07935, -0.256683, 0.0653843, 0.000645525, -0.0977914, -0.0101885, 0.00053612, 0.0215663, 0.000631901, 1.305, 15.5688, 12.6746, 9.56848, 0.471678, 2.34988, -0.0750012, 0.00215919, -0.000213881, -0.00588389, -0.0176535, 0.00688777, 0.000278113, 0.0144999, -0.00948348, 0.0103164, 0.0222, 0.056024, 0.143062, -0.0103267, -0.445284, 0.63341, -3.12817, -0.0576562, -0.113285, -0.0086069, -0.445063, 0.639436, 3.13193, 0.0566528, 0.124724, 0.0200585, -0.0136486, -0.0400951, 0.00521514, -0.0237785, -0.0309477
0.126285, 0.112901, -0.773355, -0.914804, -1.44609, -0.625011, 1.07936, -0.25668, 0.0715277, 0.00303483, -0.107644, -0.011463, 0.000351531, 0.015393, 0.00164197, 1.305, 15.4578, 12.6746, 9.60815, 0.471678, 2.37826, -0.10796, 0.00214597, -0.000202935, -0.00588386, -0.0176517, 0.00677084, 0.000316175, 0.0149214, -0.010147, 0.00708467, 0.0107763, 0.063855, 0.143441, -0.0103065, -0.445298, 0.633369, -3.12808, -0.0577081, -0.113428, -0.0086, -0.445089, 0.639395, 3.13202, 0.0566476, 0.12469, 0.0203905, -0.0138487, -0.0407063, 0.00538468, -0.0246187, -0.0348211
0.127285, 0.112967, -0.77335, -0.914915, -1.44611, -0.625012, 1.07937, -0.256685, 0.0673663, 0.00202774, -0.109381, -0.0163442, -0.000244775, 0.0158276, -0.000600774, 1.53114, 15.4578, 12.4128, 9.67957, 0.484496, 2.39932, -0.0621838, 0.00212938, -0.000194572, -0.00588598, -0.0176557, 0.0066522, 0.000350449, 0.0169658, -0.0100451, 0.00586741, 0.00895786, 0.0672254, 0.144671, -0.010286, -0.445311, 0.633328, -3.12799, -0.0577607, -0.113573, -0.00859639, -0.445112, 0.639355, 3.1321, 0.0566487, 0.124656, 0.0207248, -0.0140495, -0.0413204, 0.00376543, -0.0247783, -0.0367992
0.128285, 0.112967, -0.77335, -0.914915, -1.44611, -0.625012, 1.07937, -0.256685, 0.0673663, 0.00202774, -0.109381, -0.0163442, -0.000244775, 0.0158276, -0.000600774, 1.53114, 15.4578, 12.4128, 9.67957, 0.484496, 2.39932, -0.0621838, 0.00211269, -0.000210335, -0.00592861, -0.0177422, 0.00655445, 0.000381883, 0.0172488, -0.00982408, 0.00650718, 0.0100965, 0.0680714, 0.146943, -0.0102651, -0.445326, 0.633287, -3.1279, -0.0578142, -0.11372, -0.00859639, -0.445112, 0.639355, 3.1321, 0.0566487, 0.124656, 0.0210615, -0.0142511, -0.0419374, 0.00376543, -0.0247783, -0.0367992
0.129285, 0.113137, -0.773346, -0.915179, -1.44616, -0.625012, 1.07937, -0.256686, 0.0764036, 0.00090602, -0.115221, -0.0222033, -0.000396046, 0.00825285, -0.00126166, 1.53114, 15.4578, 12.3017, 9.83032, 0.489989, 2.43594, -0.0484509, 0.00209837, -0.000172013, -0.0058759, -0.0176226, 0.00640552, 0.000419378, 0.0153597, -0.00931293, 0.00266599, -0.00301688, 0.0759063, 0.157323, -0.0102438, -0.44534, 0.633244, -3.1278, -0.0578684, -0.113869, -0.00858477, -0.445165, 0.639259, 3.13231, 0.056656, 0.124581, 0.0214005, -0.0144534, -0.0425574, 0.00624648, -0.0243539, -0.0411098
0.130285, 0.113221, -0.773343, -0.915313, -1.44619, -0.625012, 1.07937, -0.256687, 0.0796527, 0.00060592, -0.119678, -0.0225223, -6.24414e-05, 0.00560069, -0.00107846, 1.53114, 15.4578, 12.2303, 9.83032, 0.484496, 2.457, -0.0420422, 0.00208078, -0.000161272, -0.00587219, -0.0176058, 0.00627908, 0.000457103, 0.015887, -0.00952377, 0.0015891, -0.0076077, 0.0780051, 0.15957, -0.0102223, -0.445355, 0.633201, -3.12771, -0.0579234, -0.114021, -0.00858064, -0.445191, 0.639211, 3.13242, 0.0566558, 0.124541, 0.0217418, -0.0146563, -0.0431802, 0.00614858, -0.0247739, -0.0428495
0.131285, 0.113304, -0.773343, -0.915448, -1.44622, -0.625013, 1.07937, -0.256684, 0.0802776, -0.00135786, -0.120732, -0.0237895, -0.000246474, 0.00439281, -0.000481617, 1.60651, 15.5331, 12.1906, 9.87, 0.489989, 2.457, -0.0484509, 0.00206219, -0.000150461, -0.00586676, -0.0175873, 0.00615002, 0.000500249, 0.0167434, -0.00929572, 0.00134611, -0.00900042, 0.0785455, 0.161636, -0.0102004, -0.445369, 0.633158, -3.12761, -0.0579792, -0.114174, -0.00857707, -0.445218, 0.639161, 3.13253, 0.0566482, 0.1245, 0.0220854, -0.01486, -0.0438058, 0.00564817, -0.0247786, -0.0437802
0.132285, 0.113387, -0.773335, -0.915576, -1.44625, -0.625012, 1.07937, -0.256685, 0.0869115, 2.38516e-05, -0.120637, -0.0266775, 3.80877e-05, 0.00369407, -4.98107e-05, 1.68189, 15.4935, 12.1152, 9.98108, 0.484496, 2.44967, -0.0557752, 0.00205062, -0.000142601, -0.00586141, -0.0175677, 0.00600525, 0.000527141, 0.0130472, -0.00885289, 0.000908506, -0.0105283, 0.0828202, 0.17182, -0.0101781, -0.445384, 0.633114, -3.12751, -0.0580358, -0.11433, -0.00856626, -0.445242, 0.639111, 3.13264, 0.0566669, 0.124437, 0.0224314, -0.0150643, -0.0444342, 0.00969357, -0.0244001, -0.0445726
0.133285, 0.113478, -0.773328, -0.915705, -1.44628, -0.625007, 1.07936, -0.256682, 0.0891852, 1.67055e-05, -0.120317, -0.0240527, 0.000499325, 0.00151098, 0.000204152, 1.72157, 15.4935, 12.0438, 9.9057, 0.471678, 2.48538, -0.0621838, 0.00203887, -0.000134796, -0.00585955, -0.0175505, 0.00587097, 0.000556899, 0.0129196, -0.00832592, 0.00218285, -0.00995848, 0.0827206, 0.175271, -0.0101555, -0.445399, 0.633069, -3.12741, -0.0580933, -0.114488, -0.00855556, -0.445266, 0.639063, 3.13275, 0.0566818, 0.124393, 0.0227796, -0.0152693, -0.0450654, 0.0100567, -0.0240908, -0.0439204
0.134285, 0.113558, -0.77333, -0.915838, -1.44631, -0.625006, 1.07936, -0.256678, 0.0825266, -0.00351474, -0.123012, -0.0301828, 0.000332294, -3.70824e-05, 0.00108554, 1.87232, 15.6442, 12.0795, 9.9057, 0.471678, 2.52109, -0.0878186, 0.00201949, -0.000126549, -0.00585507, -0.0175304, 0.00573594, 0.000598488, 0.0170397, -0.00792329, 0.000139256, -0.0149793, 0.0851127, 0.171051, -0.0101325, -0.445415, 0.633024, -3.12731, -0.0581515, -0.114649, -0.0085519, -0.44529, 0.639012, 3.13287, 0.0566793, 0.124349, 0.0231301, -0.0154749, -0.0456993, 0.00643525, -0.0240193, -0.0468927
0.135285, 0.113645, -0.773323, -0.915962, -1.44635, -0.625007, 1.07936, -0.256678, 0.0826284, 0.000827755, -0.120729, -0.0319221, -0.00025363, -0.000901274, 0.000723691, 1.9477, 15.6442, 12.0795, 9.9057, 0.484496, 2.55038, -0.0878186, 0.00200802, -0.000119833, -0.0058535, -0.0175182, 0.00558897, 0.000625036, 0.0150535, -0.00694646, 0.000985945, -0.013484, 0.092229, 0.176228, -0.0101092, -0.44543, 0.632978, -3.12721, -0.0582105, -0.114811, -0.0085403, -0.445313, 0.638964, 3.13298, 0.0567006, 0.124289, 0.0234829, -0.0156811, -0.0463358, 0.00866936, -0.0231882, -0.0465313
0.136285, 0.113725, -0.773318, -0.916089, -1.44639, -0.625006, 1.07935, -0.256677, 0.0850737, -0.00168927, -0.120782, -0.0351184, 0.0003053, -0.00281805, 0.000753728, 2.05878, 15.7513, 12.1549, 9.98108, 0.471678, 2.61447, -0.0951428, 0.00199324, -0.000114832, -0.00584875, -0.0174938, 0.00543528, 0.000656474, 0.0144842, -0.00624759, 0.000304766, -0.0164185, 0.0932474, 0.182831, -0.0100856, -0.445446, 0.632931, -3.1271, -0.0582704, -0.114976, -0.00853146, -0.445335, 0.638912, 3.1331, 0.0567161, 0.124222, 0.0238379, -0.015888, -0.046975, 0.00961567, -0.0226674, -0.0478029
0.137285, 0.113806, -0.773315, -0.916215, -1.44643, -0.625006, 1.07934, -0.256676, 0.0835265, -0.000368212, -0.121464, -0.0363981, 0.000203285, -0.00284648, 0.000739844, 2.17384, 15.8624, 12.266, 10.0168, 0.471678, 2.64377, -0.101552, 0.0019783, -0.000109072, -0.00584641, -0.0174791, 0.00528607, 0.000687657, 0.015039, -0.00600938, 0.00047827, -0.0161569, 0.0964217, 0.183747, -0.0100616, -0.445462, 0.632884, -3.127, -0.0583311, -0.115144, -0.0085226, -0.445358, 0.638861, 3.13321, 0.0567321, 0.124163, 0.0241952, -0.0160954, -0.0476168, 0.00939871, -0.02266, -0.0483123
0.138285, 0.113885, -0.773308, -0.916333, -1.44648, -0.625006, 1.07934, -0.256682, 0.0817138, 0.00151011, -0.119812, -0.0374216, 0.000135337, -0.00231831, -0.00120219, 2.32459, 15.9378, 12.3017, 10.0565, 0.471678, 2.6575, -0.0557752, 0.00196668, -0.000104207, -0.00584659, -0.017474, 0.00513287, 0.000709004, 0.0147745, -0.00539926, 0.0014742, -0.0137213, 0.099575, 0.188013, -0.0100372, -0.445478, 0.632836, -3.12689, -0.0583926, -0.115313, -0.00851029, -0.44538, 0.638812, 3.13332, 0.0567636, 0.124101, 0.0245547, -0.0163034, -0.0482612, 0.00992613, -0.0222626, -0.0479397
0.139285, 0.113966, -0.773301, -0.91645, -1.44652, -0.625007, 1.07934, -0.256682, 0.0831293, 0.0020444, -0.12074, -0.0405555, -0.000384633, -0.00175083, -0.00107273, 2.3603, 16.0489, 12.4524, 10.0565, 0.484496, 2.66482, -0.0484509, 0.00195477, -0.000100271, -0.00584787, -0.0174685, 0.00497603, 0.000734261, 0.0139724, -0.00534732, 0.000944997, -0.0142347, 0.103214, 0.192315, -0.0100124, -0.445495, 0.632787, -3.12678, -0.0584549, -0.115485, -0.00849804, -0.445401, 0.638764, 3.13343, 0.05679, 0.124035, 0.0249165, -0.016512, -0.0489081, 0.0111245, -0.0223832, -0.0490567
0.140285, 0.114041, -0.773286, -0.916567, -1.44656, -0.625009, 1.07934, -0.256679, 0.0798218, 0.00830946, -0.121904, -0.0405144, -0.000934695, -0.00193154, -0.000715152, 2.43568, 16.0489, 12.5992, 10.0922, 0.502806, 2.6868, -0.0484509, 0.00194341, -9.7111e-05, -0.00585043, -0.017466, 0.00480829, 0.000768019, 0.0143274, -0.00514097, 0.00161887, -0.0129479, 0.110901, 0.189887, -0.00998734, -0.445511, 0.632738, -3.12667, -0.058518, -0.115659, -0.008485, -0.445422, 0.638717, 3.13353, 0.0568038, 0.123954, 0.0252805, -0.0167211, -0.0495576, 0.0110775, -0.022409, -0.0490604
0.141285, 0.114106, -0.77328, -0.916682, -1.44661, -0.62501, 1.07934, -0.256679, 0.0747694, 0.00934806, -0.118121, -0.0453055, -0.000860568, -0.00125058, 0.00400848, 2.62611, 16.1957, 12.8254, 10.2032, 0.509215, 2.6868, -0.0420422, 0.00192616, -9.44712e-05, -0.00585216, -0.0174637, 0.00464716, 0.000805399, 0.0142426, -0.00383284, 0.00215876, -0.0110123, 0.115321, 0.18791, -0.00996188, -0.445528, 0.632688, -3.12656, -0.058582, -0.115835, -0.00847744, -0.445443, 0.638668, 3.13364, 0.0568129, 0.123887, 0.0256467, -0.0169307, -0.0502094, 0.011439, -0.0213165, -0.0491555
0.142285, 0.114179, -0.773265, -0.91679, -1.44665, -0.62501, 1.07933, -0.256679, 0.0748125, 0.0129541, -0.115892, -0.0439781, -0.000573771, -0.00158578, 0.00381186, 2.66181, 16.2314, 13.0832, 10.2429, 0.509215, 2.70785, -0.0621838, 0.00191548, -9.40572e-05, -0.00585799, -0.0174656, 0.00447682, 0.000832587, 0.0129576, -0.00305339, 0.00397304, -0.00779209, 0.118804, 0.191729, -0.00993605, -0.445545, 0.632638, -3.12645, -0.0586468, -0.116014, -0.00846336, -0.445461, 0.638622, 3.13374, 0.0568384, 0.123807, 0.0260151, -0.0171409, -0.0508638, 0.0129246, -0.0207261, -0.0478986
0.143285, 0.114248, -0.773261, -0.916889, -1.4467, -0.625013, 1.07933, -0.25668, 0.0744914, 0.0121017, -0.108885, -0.0464429, -0.00126418, -0.00130758, 0.0028364, 2.70148, 16.4178, 13.2697, 10.4294, 0.533019, 2.71518, -0.0621838, 0.00190516, -9.48188e-05, -0.00586405, -0.0174752, 0.00431128, 0.000850998, 0.0109954, -0.00142292, 0.00588454, -0.00299123, 0.120504, 0.201095, -0.00990985, -0.445562, 0.632586, -3.12633, -0.0587125, -0.116195, -0.00844862, -0.445479, 0.638577, 3.13384, 0.0568779, 0.123737, 0.0263857, -0.0173516, -0.0515205, 0.0150472, -0.0192625, -0.046487
0.144285, 0.114314, -0.773246, -0.916985, -1.44675, -0.625013, 1.07933, -0.256676, 0.0720083, 0.0142502, -0.107526, -0.0470791, -0.00108018, -0.00190722, 0.00258703, 2.70148, 16.4893, 13.4958, 10.5762, 0.539427, 2.74356, -0.0750012, 0.00189719, -9.74367e-05, -0.00587317, -0.0174875, 0.00413491, 0.000876541, 0.011203, -0.000633483, 0.00686035, -0.00152321, 0.124071, 0.202746, -0.00988328, -0.44558, 0.632535, -3.12622, -0.058779, -0.116378, -0.00843147, -0.445495, 0.638534, 3.13393, 0.056907, 0.123653, 0.0267585, -0.0175627, -0.0521796, 0.0151102, -0.0187073, -0.0461811
0.145285, 0.114372, -0.773234, -0.917078, -1.4468, -0.625014, 1.07933, -0.256676, 0.0659203, 0.0178563, -0.103527, -0.0467606, -0.000957502, -0.00258217, 0.0026367, 2.73719, 16.6003, 13.718, 10.6873, 0.545836, 2.77926, -0.0951428, 0.00188399, -0.000100935, -0.00588453, -0.0175034, 0.00396199, 0.000906603, 0.0119269, 0.000755812, 0.00904278, 0.00251974, 0.128406, 0.202025, -0.00985633, -0.445598, 0.632482, -3.1261, -0.0588463, -0.116563, -0.00841938, -0.44551, 0.638492, 3.13403, 0.0569297, 0.123576, 0.0271335, -0.0177744, -0.052841, 0.0145485, -0.0175897, -0.0447062
0.146285, 0.114432, -0.773222, -0.917169, -1.44685, -0.625015, 1.07932, -0.256674, 0.0637792, 0.0113866, -0.101363, -0.0464486, -0.000875712, -0.0035776, 0.00161105, 2.66181, 16.7114, 13.9799, 10.8023, 0.552245, 2.82962, -0.0878186, 0.00187199, -0.000105505, -0.00589634, -0.0175192, 0.00378572, 0.000934603, 0.0146411, 0.00149446, 0.0101848, 0.00405049, 0.123012, 0.204865, -0.00982901, -0.445615, 0.632429, -3.12598, -0.0589145, -0.116751, -0.0084058, -0.445525, 0.63845, 3.13412, 0.0569566, 0.123497, 0.0275107, -0.0179865, -0.0535047, 0.0121068, -0.0171824, -0.0444272
0.147285, 0.114481, -0.773209, -0.917253, -1.44689, -0.625012, 1.07931, -0.256679, 0.0595287, 0.0119075, -0.0946957, -0.0460617, -0.000787273, -0.00397216, -0.000527994, 2.70148, 16.8582, 14.1623, 10.9134, 0.557738, 2.87265, -0.0420422, 0.00185809, -0.000112765, -0.00591156, -0.0175392, 0.00360889, 0.000961102, 0.0146297, 0.00323466, 0.0130021, 0.00972473, 0.124002, 0.210167, -0.00980131, -0.445634, 0.632375, -3.12586, -0.0589835, -0.116942, -0.00839411, -0.445537, 0.63841, 3.13421, 0.0569863, 0.123419, 0.02789, -0.018199, -0.0541706, 0.0122203, -0.015698, -0.0422648
0.148285, 0.114537, -0.773196, -0.917332, -1.44695, -0.625013, 1.07931, -0.256678, 0.0568648, 0.0111222, -0.0890096, -0.0476445, -0.000999577, -0.00450812, -4.45933e-05, 2.58643, 16.9296, 14.3131, 11.0999, 0.570555, 2.923, -0.0484509, 0.00184871, -0.000120808, -0.0059273, -0.0175629, 0.00342578, 0.000982723, 0.0142984, 0.004817, 0.0148267, 0.0134543, 0.12531, 0.214542, -0.00977323, -0.445652, 0.63232, -3.12574, -0.0590534, -0.117134, -0.0083776, -0.445548, 0.638371, 3.1343, 0.0570244, 0.123334, 0.0282715, -0.018412, -0.0548388, 0.0127337, -0.0143461, -0.041072
0.149285, 0.114588, -0.773182, -0.917416, -1.447, -0.625014, 1.0793, -0.256678, 0.0545325, 0.0134012, -0.0874073, -0.0478116, -0.00134456, -0.00405286, -0.000214555, 2.47535, 17.005, 14.5749, 11.2506, 0.588866, 2.95138, -0.0420422, 0.00183535, -0.000128091, -0.00594271, -0.0175861, 0.00324007, 0.00101188, 0.0144191, 0.00537903, 0.0161244, 0.0164967, 0.128573, 0.216002, -0.00974476, -0.44567, 0.632265, -3.12562, -0.0591241, -0.117329, -0.00836465, -0.445561, 0.63833, 3.1344, 0.0570517, 0.123247, 0.0286551, -0.0186253, -0.0555092, 0.0128767, -0.0140237, -0.0404523
0.150285, 0.114639, -0.773168, -0.917496, -1.44704, -0.625015, 1.0793, -0.256678, 0.0543656, 0.0119464, -0.0820985, -0.0471551, -0.00113374, -0.00351292, -0.000103637, 2.28492, 17.0804, 14.7971, 11.3617, 0.595275, 2.97336, -0.0420422, 0.00182221, -0.000135585, -0.0059621, -0.0176187, 0.00305926, 0.00104193, 0.0135822, 0.00653085, 0.0185258, 0.0217424, 0.126927, 0.222027, -0.00971592, -0.445689, 0.632209, -3.12549, -0.0591957, -0.117527, -0.00835141, -0.445574, 0.638293, 3.13448, 0.0570777, 0.12317, 0.0290408, -0.0188391, -0.0561817, 0.0138705, -0.0130933, -0.0386552
0.151285, 0.114684, -0.773156, -0.91757, -1.44709, -0.625015, 1.0793, -0.256676, 0.0498679, 0.0117426, -0.0762874, -0.0433951, -0.00075583, -0.00714102, 0.000706443, 2.13416, 17.1161, 14.9439, 11.4728, 0.595275, 2.97336, -0.0621838, 0.00180777, -0.000144115, -0.00598398, -0.0176586, 0.0028802, 0.00107644, 0.0151751, 0.00851013, 0.0218322, 0.025805, 0.126437, 0.221913, -0.00968668, -0.445708, 0.632153, -3.12537, -0.0592682, -0.117726, -0.00833933, -0.445585, 0.638258, 3.13456, 0.0570971, 0.123098, 0.0294287, -0.0190533, -0.0568564, 0.0123447, -0.0114413, -0.0361308
0.152285, 0.114727, -0.773145, -0.917643, -1.44714, -0.625013, 1.07929, -0.256675, 0.0465419, 0.0145773, -0.0785594, -0.0456903, -2.91722e-05, -0.00461667, 0.000730483, 1.98341, 17.1518, 15.0947, 11.6592, 0.582457, 2.95871, -0.0685925, 0.0017935, -0.000153903, -0.0060059, -0.0176974, 0.00269909, 0.00110732, 0.015954, 0.00822024, 0.0216287, 0.0266146, 0.129991, 0.220847, -0.00965706, -0.445727, 0.632096, -3.12524, -0.0593415, -0.117929, -0.00832674, -0.445596, 0.638221, 3.13464, 0.0571233, 0.123026, 0.0298187, -0.0192678, -0.0575331, 0.011982, -0.0119749, -0.0370741
0.153285, 0.114771, -0.773134, -0.917716, -1.44718, -0.625014, 1.07929, -0.256677, 0.045703, 0.0166503, -0.0771201, -0.0422353, -0.00025681, -0.00283414, 2.88928e-05, 1.75727, 17.1875, 15.2454, 11.7703, 0.588866, 2.94406, -0.0557752, 0.00177684, -0.000163223, -0.00602984, -0.0177399, 0.00251854, 0.00114109, 0.0161268, 0.00827055, 0.0240672, 0.0325553, 0.129959, 0.222444, -0.00962704, -0.445747, 0.632038, -3.12511, -0.0594156, -0.118133, -0.0083163, -0.445608, 0.638187, 3.13471, 0.0571455, 0.122957, 0.0302108, -0.0194827, -0.0582119, 0.0120134, -0.0121862, -0.0353356
0.154285, 0.11481, -0.773128, -0.917783, -1.44722, -0.625015, 1.07929, -0.256672, 0.0471171, 0.0150813, -0.0710772, -0.0430219, -0.000612018, -0.0021136, 0.00172715, 1.57081, 17.2272, 15.3168, 11.8854, 0.600768, 2.94406, -0.101552, 0.00175921, -0.000173374, -0.00605689, -0.0177925, 0.00234318, 0.00118091, 0.0141806, 0.00951488, 0.0262002, 0.0377422, 0.129444, 0.22952, -0.00959664, -0.445766, 0.631979, -3.12498, -0.0594907, -0.11834, -0.00830671, -0.445619, 0.638154, 3.13478, 0.0571584, 0.122899, 0.0306049, -0.019698, -0.0588927, 0.0141348, -0.0111215, -0.0337283
0.155285, 0.114857, -0.773116, -0.917861, -1.44727, -0.625015, 1.07929, -0.256673, 0.0468222, 0.0133507, -0.0725848, -0.0474353, -0.000204563, -0.00106857, 0.000652156, 1.305, 17.1518, 15.5033, 12.0322, 0.595275, 2.93033, -0.0878186, 0.00174393, -0.000181814, -0.00608002, -0.0178358, 0.00215789, 0.0012135, 0.0145547, 0.00954653, 0.0251678, 0.0361364, 0.130804, 0.234097, -0.00956583, -0.445786, 0.63192, -3.12485, -0.0595666, -0.11855, -0.00829406, -0.445632, 0.638117, 3.13486, 0.0571843, 0.122827, 0.0310012, -0.0199136, -0.0595756, 0.0142311, -0.0113076, -0.0354696
0.156285, 0.114896, -0.773111, -0.917933, -1.44731, -0.625014, 1.07929, -0.256672, 0.0415371, 0.0100504, -0.0739744, -0.0460525, 0.000100983, -0.00110975, 0.00526022, 1.11457, 17.1518, 15.5787, 12.1075, 0.588866, 2.93765, -0.0951428, 0.00172385, -0.000192063, -0.00610675, -0.0178847, 0.00198067, 0.0012529, 0.018933, 0.00953453, 0.0259665, 0.0372212, 0.127373, 0.225097, -0.00953463, -0.445806, 0.63186, -3.12472, -0.0596434, -0.118761, -0.00828613, -0.445644, 0.638082, 3.13493, 0.0572, 0.122771, 0.0313996, -0.0201295, -0.0602603, 0.0102033, -0.0117162, -0.0356928
0.157285, 0.114946, -0.773102, -0.918017, -1.44736, -0.625015, 1.0793, -0.256671, 0.0441488, 0.0101612, -0.0805402, -0.0450272, 0.00455956, 0.000250666, 0.00338238, 0.777352, 17.0407, 15.7651, 12.1829, 0.595275, 2.90835, -0.0814099, 0.00170528, -0.000198392, -0.00613175, -0.0179344, 0.00180019, 0.00129515, 0.0194025, 0.00862183, 0.0251755, 0.0338306, 0.12408, 0.228676, -0.00950303, -0.445826, 0.6318, -3.12458, -0.059721, -0.118976, -0.00827604, -0.44566, 0.638046, 3.13501, 0.0572122, 0.122712, 0.0318, -0.0203457, -0.060947, 0.0102274, -0.0128539, -0.0372175
0.158285, 0.114992, -0.773099, -0.918098, -1.4474, -0.625014, 1.0793, -0.256675, 0.0472648, 0.00825621, -0.0802283, -0.0444481, 0.0036712, 0.00114734, 0.00084764, 0.511544, 17.005, 15.8405, 12.2583, 0.588866, 2.87997, -0.0356336, 0.00168443, -0.000206974, -0.00615751, -0.0179815, 0.00162182, 0.00133074, 0.0190416, 0.00850943, 0.0260671, 0.036362, 0.123009, 0.236361, -0.00947103, -0.445847, 0.631738, -3.12445, -0.0597996, -0.119192, -0.00826798, -0.445673, 0.638009, 3.13509, 0.0572358, 0.122659, 0.0322025, -0.0205621, -0.0616356, 0.0109224, -0.0131873, -0.0369931
0.159285, 0.115031, -0.773098, -0.918175, -1.44744, -0.625013, 1.07931, -0.256678, 0.0437865, 0.00775252, -0.0805724, -0.043781, 0.00298043, 0.00149159, 0.000543841, 0.360787, 16.9296, 15.8008, 12.3297, 0.582457, 2.85892, -0.0292249, 0.00166067, -0.000215775, -0.00618521, -0.0180352, 0.00144568, 0.00137269, 0.0214282, 0.00858654, 0.0270241, 0.0385758, 0.123397, 0.234794, -0.00943863, -0.445867, 0.631676, -3.12431, -0.059879, -0.119411, -0.0082626, -0.445687, 0.637973, 3.13516, 0.05725, 0.122612, 0.032607, -0.0207789, -0.062326, 0.00886933, -0.0134366, -0.0369131
0.160285, 0.115078, -0.773096, -0.918268, -1.44748, -0.625015, 1.07931, -0.256677, 0.0423144, 0.00720263, -0.0824143, -0.0434774, 0.00173393, 0.00149703, 0.000287282, 0.170357, 16.8582, 15.9516, 12.4051, 0.595275, 2.84427, -0.0228162, 0.00163442, -0.000221876, -0.00620874, -0.0180786, 0.00126363, 0.00142546, 0.0234962, 0.0083348, 0.0273503, 0.0394273, 0.124656, 0.233955, -0.00940582, -0.445888, 0.631614, -3.12417, -0.0599593, -0.119633, -0.00825888, -0.445704, 0.637932, 3.13525, 0.0572491, 0.122559, 0.0330136, -0.0209959, -0.0630183, 0.0071964, -0.0139931, -0.0374446
0.161285, 0.115135, -0.773092, -0.918359, -1.44753, -0.625014, 1.07931, -0.256679, 0.0469763, 0.00539657, -0.0831087, -0.0448141, 0.00155959, 0.00201926, 0.000313081, -0.131157, 16.7114, 15.9516, 12.4051, 0.588866, 2.81589, -0.0228162, 0.00161428, -0.000228209, -0.00623417, -0.0181253, 0.00108073, 0.00146281, 0.0222508, 0.00824948, 0.0272903, 0.0394906, 0.124626, 0.241187, -0.0093726, -0.445909, 0.63155, -3.12403, -0.0600404, -0.119857, -0.00824883, -0.445721, 0.637893, 3.13533, 0.0572729, 0.122506, 0.0334222, -0.0212132, -0.0637123, 0.00884968, -0.0142523, -0.0381067
0.162285, 0.115183, -0.773092, -0.918458, -1.44757, -0.625013, 1.07931, -0.256675, 0.0458707, 0.00218141, -0.0879991, -0.042684, 0.00163915, 0.00186626, 0.00101197, -0.242241, 16.636, 15.9873, 12.4051, 0.576048, 2.80124, -0.0420422, 0.00158569, -0.000233958, -0.00625728, -0.0181654, 0.000899362, 0.00152181, 0.0261071, 0.00739495, 0.0272004, 0.0384611, 0.121268, 0.237128, -0.00933897, -0.445931, 0.631486, -3.12389, -0.0601225, -0.120083, -0.00824662, -0.445739, 0.63785, 3.13542, 0.0572644, 0.122459, 0.0338328, -0.0214307, -0.0644081, 0.0054543, -0.0154729, -0.0392032
0.163285, 0.115234, -0.773088, -0.918557, -1.44761, -0.625013, 1.07932, -0.25667, 0.0483973, 0.00154198, -0.0922745, -0.0474476, 0.0011863, 0.00254977, 0.00196373, -0.357292, 16.4893, 15.9119, 12.4051, 0.576048, 2.76553, -0.0750012, 0.00155941, -0.000239287, -0.00628165, -0.01821, 0.00071238, 0.00157933, 0.0259424, 0.00682438, 0.0252092, 0.0348355, 0.124936, 0.240186, -0.00930493, -0.445952, 0.631421, -3.12375, -0.0602054, -0.120312, -0.00824179, -0.445757, 0.637807, 3.13551, 0.0572589, 0.122405, 0.0342455, -0.0216484, -0.0651057, 0.00620176, -0.0162269, -0.0418841
0.164285, 0.115299, -0.773082, -0.918675, -1.44765, -0.625013, 1.07932, -0.256673, 0.0500527, 0.000870156, -0.100144, -0.0470547, 0.000623652, 0.00300965, 0.00037709, -0.583427, 16.3425, 16.027, 12.3694, 0.582457, 2.72983, -0.0484509, 0.00153306, -0.000240875, -0.00630147, -0.0182442, 0.000520562, 0.0016318, 0.0284634, 0.00529006, 0.0238039, 0.0317312, 0.125614, 0.239474, -0.00927048, -0.445974, 0.631356, -3.1236, -0.0602893, -0.120544, -0.00823614, -0.445779, 0.63776, 3.13561, 0.0572631, 0.122347, 0.0346601, -0.0218663, -0.0658049, 0.00426878, -0.018055, -0.0442035
0.165285, 0.115359, -0.77308, -0.91878, -1.44769, -0.625016, 1.07933, -0.256674, 0.0515781, 0.00255943, -0.100495, -0.0466261, -0.000447149, 0.00308204, 0.000798482, -0.694511, 16.2314, 15.9119, 12.3297, 0.607176, 2.70053, -0.0621838, 0.00150724, -0.000244525, -0.00632564, -0.0182904, 0.000331244, 0.00168143, 0.0280214, 0.00531445, 0.0245831, 0.033533, 0.128803, 0.242145, -0.00923561, -0.445996, 0.63129, -3.12346, -0.060374, -0.120777, -0.00822998, -0.4458, 0.637716, 3.1357, 0.0572717, 0.122295, 0.0350768, -0.0220844, -0.0665058, 0.0050615, -0.0182497, -0.0440971
0.166285, 0.115422, -0.773074, -0.918908, -1.44774, -0.625013, 1.07933, -0.256669, 0.0489114, 0.00467561, -0.107707, -0.0435739, 0.000656886, 0.00337002, 0.00178187, -0.76989, 16.0846, 15.9516, 12.294, 0.582457, 2.66482, -0.0951428, 0.00147781, -0.000244995, -0.00634326, -0.0183185, 0.000136729, 0.00174948, 0.031638, 0.0041558, 0.0244149, 0.0320097, 0.12928, 0.234515, -0.00920033, -0.446018, 0.631223, -3.12331, -0.0604596, -0.121014, -0.00822638, -0.445824, 0.637665, 3.13581, 0.0572541, 0.122237, 0.0354954, -0.0223027, -0.0672083, 0.00193186, -0.0197653, -0.0452682
0.167285, 0.115494, -0.773069, -0.919039, -1.44778, -0.625015, 1.07934, -0.256673, 0.0543039, 0.0030654, -0.115274, -0.0413269, -7.20061e-06, 0.00410632, -0.00051978, -0.884941, 15.9378, 15.9516, 12.2583, 0.595275, 2.61447, -0.0484509, 0.0014502, -0.000243638, -0.00636046, -0.01835, -5.97758e-05, 0.00180306, 0.033073, 0.00239543, 0.023538, 0.0300647, 0.12777, 0.237499, -0.00916462, -0.446041, 0.631155, -3.12316, -0.0605461, -0.121253, -0.00822046, -0.44585, 0.637612, 3.13592, 0.0572597, 0.122179, 0.0359161, -0.0225212, -0.0679124, 0.00105616, -0.0217875, -0.0469875
0.168285, 0.115568, -0.773066, -0.919169, -1.44783, -0.625019, 1.07935, -0.256674, 0.0573471, 0.00328422, -0.11926, -0.0429069, -0.000423415, 0.00378471, -0.000805012, -0.960319, 15.8624, 15.8762, 12.2186, 0.607176, 2.58609, -0.0356336, 0.00142129, -0.0002431, -0.00637883, -0.0183817, -0.000259971, 0.00186078, 0.0330933, 0.00189178, 0.0225399, 0.0275591, 0.130714, 0.240946, -0.00912849, -0.446063, 0.631087, -3.12301, -0.0606336, -0.121494, -0.00821554, -0.445875, 0.63756, 3.13603, 0.0572598, 0.122118, 0.0363387, -0.0227398, -0.068618, 0.00155226, -0.0224981, -0.0487022
0.169285, 0.115654, -0.773056, -0.919309, -1.44787, -0.625017, 1.07935, -0.256674, 0.0695906, 0.00606641, -0.124414, -0.0432265, -0.00026563, 0.00333395, 0.0042583, -1.07537, 15.6799, 15.7651, 12.1432, 0.607176, 2.56412, -0.0420422, 0.00139787, -0.000241146, -0.00639552, -0.0184073, -0.000462381, 0.00191308, 0.028787, 0.000997266, 0.0213645, 0.024135, 0.135086, 0.246959, -0.00909194, -0.446086, 0.631018, -3.12286, -0.0607219, -0.121738, -0.00820457, -0.445902, 0.637506, 3.13614, 0.0572699, 0.122056, 0.0367632, -0.0229586, -0.0693252, 0.00639004, -0.0234307, -0.0502628
0.170285, 0.115735, -0.773049, -0.919453, -1.44791, -0.625016, 1.07936, -0.256673, 0.0703268, 0.00634875, -0.12963, -0.0445485, 7.27567e-05, 0.00327155, 0.00322678, -1.07537, 15.5688, 15.6898, 12.1075, 0.600768, 2.53573, -0.0420422, 0.00136996, -0.00023906, -0.0064106, -0.0184286, -0.000667046, 0.00197198, 0.0300944, 0.000337022, 0.0202069, 0.0210647, 0.137289, 0.248148, -0.00905497, -0.446109, 0.630949, -3.12271, -0.0608111, -0.121984, -0.00819754, -0.44593, 0.637449, 3.13627, 0.057271, 0.121993, 0.0371897, -0.0231774, -0.0700339, 0.00562708, -0.0243438, -0.0522422
0.171285, 0.115825, -0.773041, -0.919608, -1.44796, -0.625021, 1.07936, -0.256673, 0.0750286, 0.00661048, -0.135829, -0.0445394, -0.0006203, 0.00245061, 0.00244212, -1.11108, 15.4578, 15.5787, 12.0322, 0.619078, 2.52841, -0.0420422, 0.00134048, -0.00023414, -0.00642328, -0.0184469, -0.000879115, 0.00203524, 0.0305294, -0.000678657, 0.0189803, 0.0176082, 0.13984, 0.251115, -0.00901756, -0.446132, 0.630878, -3.12255, -0.0609012, -0.122233, -0.00819134, -0.44596, 0.637389, 3.13639, 0.0572666, 0.121921, 0.0376182, -0.0233964, -0.0707441, 0.00575504, -0.0255772, -0.0542291
0.172285, 0.11592, -0.77304, -0.919773, -1.44799, -0.625021, 1.07937, -0.256673, 0.0850903, 0.0097274, -0.145924, -0.0418042, -0.00020306, 0.00655491, 0.00208364, -1.15075, 15.4935, 15.4279, 11.8457, 0.613585, 2.52109, -0.0484509, 0.00130776, -0.000226431, -0.00643658, -0.0184655, -0.00107616, 0.00210381, 0.0288047, -0.00345498, 0.0178629, 0.0167631, 0.140366, 0.255182, -0.00897973, -0.446156, 0.630807, -3.12239, -0.0609922, -0.122484, -0.0081879, -0.445994, 0.637329, 3.13652, 0.0572548, 0.121875, 0.0380486, -0.0236155, -0.0714557, 0.00809819, -0.0284887, -0.0559651
0.173285, 0.116019, -0.773023, -0.919947, -1.44804, -0.625021, 1.07937, -0.256671, 0.0876316, 0.0142512, -0.154697, -0.0468414, -0.000130107, 0.00448532, 0.00206137, -1.11108, 15.311, 15.3168, 11.81, 0.613585, 2.52841, -0.0621838, 0.00127884, -0.00021924, -0.00644472, -0.0184691, -0.00129987, 0.00217289, 0.0286679, -0.00421203, 0.0144703, 0.00791533, 0.150623, 0.256195, -0.00894147, -0.44618, 0.630735, -3.12224, -0.0610841, -0.122738, -0.00817988, -0.446027, 0.637263, 3.13666, 0.0572447, 0.121791, 0.0384809, -0.0238347, -0.0721687, 0.00895963, -0.0294026, -0.0600659
0.174285, 0.116132, -0.77301, -0.920132, -1.44808, -0.625019, 1.07938, -0.256669, 0.0916581, 0.0126592, -0.16022, -0.0463473, -0.000286238, 0.00433136, 0.00220906, -1.15075, 15.1999, 15.17, 11.7346, 0.619078, 2.50003, -0.0814099, 0.00125278, -0.000209114, -0.00645083, -0.01847, -0.00151745, 0.00223539, 0.0296835, -0.00520522, 0.0136062, 0.0054122, 0.150236, 0.258099, -0.00890277, -0.446204, 0.630663, -3.12208, -0.061177, -0.122995, -0.0081683, -0.446063, 0.637195, 3.13681, 0.0572459, 0.121718, 0.0389151, -0.0240539, -0.0728831, 0.00848772, -0.0306413, -0.0617423
0.175285, 0.116244, -0.772994, -0.920319, -1.44812, -0.625016, 1.07938, -0.256671, 0.0977479, 0.0122931, -0.173588, -0.0451385, 0.000490306, 0.00310506, 0.00109005, -1.18645, 15.0531, 15.059, 11.6235, 0.600768, 2.50003, -0.0685925, 0.00122488, -0.000199196, -0.00645813, -0.0184707, -0.00173826, 0.00230004, 0.0320437, -0.00751577, 0.0106325, -0.00310047, 0.15086, 0.257379, -0.00886363, -0.446228, 0.630589, -3.12192, -0.0612707, -0.123253, -0.00815825, -0.446099, 0.637127, 3.13696, 0.0572448, 0.121643, 0.0393512, -0.0242732, -0.0735988, 0.00689681, -0.0332096, -0.0656498
0.176285, 0.116358, -0.772985, -0.920514, -1.44817, -0.625018, 1.07939, -0.256671, 0.098584, 0.0125135, -0.180746, -0.0441436, -0.000349076, 0.00223316, 0.000558379, -1.07537, 15.0174, 14.9082, 11.5085, 0.619078, 2.50003, -0.0621838, 0.00119235, -0.000186695, -0.00646354, -0.0184712, -0.00195642, 0.00237151, 0.0347707, -0.00868224, 0.009579, -0.00628995, 0.152907, 0.254948, -0.00882406, -0.446252, 0.630515, -3.12175, -0.0613653, -0.123515, -0.00815211, -0.446138, 0.637055, 3.13711, 0.0572342, 0.121575, 0.0397893, -0.0244926, -0.0743159, 0.00474712, -0.0346836, -0.0676577
0.177285, 0.116472, -0.772969, -0.920718, -1.44821, -0.625015, 1.0794, -0.256671, 0.10183, 0.0145454, -0.187879, -0.044456, 0.000650568, 0.00682486, 0.000661392, -0.920646, 14.9063, 14.8328, 11.4371, 0.595275, 2.48538, -0.0685925, 0.00116082, -0.000172949, -0.00646723, -0.0184675, -0.00218033, 0.00244786, 0.0346556, -0.0105598, 0.00860489, -0.00633726, 0.15348, 0.255883, -0.00878406, -0.446277, 0.630441, -3.12159, -0.0614609, -0.123779, -0.00814438, -0.446179, 0.636982, 3.13727, 0.0572173, 0.121501, 0.0402292, -0.0247119, -0.0750342, 0.0054531, -0.0367598, -0.0693742
0.178285, 0.116599, -0.77295, -0.920911, -1.44825, -0.625017, 1.07941, -0.256676, 0.106422, 0.0192478, -0.187646, -0.0468967, -0.000243206, 0.0097242, -0.00145302, -0.845268, 14.7952, 14.6464, 11.322, 0.613585, 2.48538, -0.0164075, 0.00113731, -0.000160425, -0.00647507, -0.0184761, -0.00241015, 0.00250177, 0.0308334, -0.0107379, 0.00894071, -0.00340221, 0.16005, 0.26621, -0.00874361, -0.446302, 0.630365, -3.12142, -0.0615574, -0.124045, -0.00812859, -0.446218, 0.636912, 3.13742, 0.0572354, 0.12142, 0.040671, -0.0249313, -0.0757538, 0.00968247, -0.0370187, -0.0694652
0.179285, 0.11673, -0.772945, -0.921115, -1.4483, -0.625017, 1.07943, -0.256676, 0.112098, 0.0152348, -0.192946, -0.0474659, -0.0001612, 0.0121672, -0.000702193, -0.734184, 14.8706, 14.5749, 11.2863, 0.613585, 2.47897, -0.0228162, 0.00110901, -0.000146156, -0.00647844, -0.018473, -0.00262968, 0.00256273, 0.0312536, -0.012164, 0.00791118, -0.0045427, 0.156468, 0.270018, -0.00870271, -0.446327, 0.630289, -3.12126, -0.0616548, -0.124315, -0.00811673, -0.446259, 0.636837, 3.13757, 0.0572444, 0.121358, 0.0411146, -0.0251507, -0.0764746, 0.0098461, -0.038663, -0.0712753
0.180285, 0.116854, -0.772933, -0.92133, -1.44834, -0.625016, 1.07944, -0.256675, 0.115272, 0.0174191, -0.198991, -0.0468397, 0.000130595, 0.013475, 0.00924002, -0.43267, 14.8706, 14.5749, 11.2109, 0.607176, 2.48538, -0.0292249, 0.00107492, -0.000130183, -0.00648134, -0.0184684, -0.00285512, 0.00264204, 0.0314567, -0.0133627, 0.00724618, -0.00585918, 0.158636, 0.261053, -0.00866138, -0.446352, 0.630212, -3.12109, -0.0617531, -0.124586, -0.00811009, -0.446303, 0.63676, 3.13774, 0.057226, 0.121289, 0.0415602, -0.0253701, -0.0771966, 0.0101903, -0.0400782, -0.0727029
0.181285, 0.116994, -0.77291, -0.921546, -1.44838, -0.625017, 1.07945, -0.256666, 0.121312, 0.0186549, -0.203655, -0.0462697, -0.000149768, 0.0087644, 0.00889659, -0.281914, 14.7595, 14.4599, 11.1356, 0.613585, 2.52109, -0.0814099, 0.00104971, -0.000114126, -0.006484, -0.0184619, -0.00309512, 0.00271634, 0.0309669, -0.0133614, 0.00627263, -0.0115823, 0.163408, 0.266014, -0.00861959, -0.446377, 0.630135, -3.12092, -0.0618523, -0.12486, -0.00809415, -0.446347, 0.636683, 3.1379, 0.0572168, 0.1212, 0.0420076, -0.0255895, -0.0779197, 0.0112031, -0.0402616, -0.0743649
0.182285, 0.117133, -0.772893, -0.921778, -1.44843, -0.625017, 1.07946, -0.256669, 0.12525, 0.0167659, -0.207342, -0.0458163, -9.945e-05, 0.0108158, 0.00605919, -0.131157, 14.7595, 14.4996, 11.0641, 0.613585, 2.53573, -0.0685925, 0.00101916, -9.46028e-05, -0.00648305, -0.0184505, -0.00333101, 0.00278823, 0.0312467, -0.0143618, 0.00611604, -0.0111405, 0.161452, 0.272387, -0.00857736, -0.446403, 0.630057, -3.12075, -0.0619525, -0.125137, -0.00808265, -0.446394, 0.636601, 3.13807, 0.0572127, 0.12112, 0.0424568, -0.0258089, -0.078644, 0.0114269, -0.041491, -0.0752917
