alisrour97/Franka_experiments/Real_Robot_scripts/servo-franka/Data4/log_dyn_INITw_ki_3.csv
Time,q1,q2,q3,q4,q5,q6,q7,dq1,dq2,dq3,dq4,dq5,dq6,dq7,t1,t2,t3,t4,t5,t6,t7,ex1,ex2,ex3,ex4,ex5,ex6,ev1,ev2,ev3,ev4,ev5,ev6,xd,yd,zd,uxd,uyd,uzd,x,y,z,ux,uy,uz,vxd,vyd,vzd,vx,vy,vz
9.76563e-07, 0.107757, -0.774359, -0.917171, -1.45784, -0.625486, 1.06995, -0.25672, -0.00199887, -0.00161391, -0.00168909, 0.00473851, -0.00134957, -0.000360675, -0.000839566, -0.206535, 16.3068, 21.8708, 18.6417, 1.49158, 3.72592, -0.140919, 0.000817723, -0.00158572, 0.000811183, 0.0015785, -0.0011802, 0.000137972, 0.0032019, -0.000695062, 0.000933307, 0.00185855, -0.00342866, -0.00551824, -0.011112, -0.444721, 0.635038, -3.13187, -0.0555627, -0.107532, -0.0102921, -0.4431, 0.634295, -3.13037, -0.0558463, -0.105581, 0, 0, 0, -0.00323142, -0.000815259, 0.000706838
0.012321, 0.107736, -0.774386, -0.917191, -1.45782, -0.625488, 1.06995, -0.256723, -0.00259921, -0.00274391, -0.00440852, 0.00280352, 3.76618e-05, -0.000147232, -0.000118134, -0.206535, 16.4893, 21.9819, 18.5266, 1.49158, 3.73324, -0.153737, 0.000788873, -0.00158047, 0.000810925, 0.00158034, -0.00114352, 0.000183206, 0.0039898, -0.000992108, -0.000431892, -0.00144393, -0.00433362, -0.00723123, -0.011112, -0.444721, 0.635038, -3.13187, -0.0555627, -0.107532, -0.0103264, -0.443107, 0.634293, -3.13036, -0.0557643, -0.105643, 1.73063e-06, 3.0097e-06, -3.96181e-06, -0.00391121, -0.00112508, -0.000715029
0.013321, 0.107736, -0.774386, -0.917191, -1.45782, -0.625488, 1.06995, -0.256723, -0.00259921, -0.00274391, -0.00440852, 0.00280352, 3.76618e-05, -0.000147232, -0.000118134, -0.206535, 16.4893, 21.9819, 18.5266, 1.49158, 3.73324, -0.153737, 0.000788869, -0.00158047, 0.000810916, 0.00158032, -0.00114354, 0.000183206, 0.00399447, -0.00100084, -0.000419636, -0.00141927, -0.00433027, -0.00718457, -0.011112, -0.444721, 0.635038, -3.13187, -0.0555627, -0.107532, -0.0103264, -0.443107, 0.634293, -3.13036, -0.0557643, -0.105643, 6.91577e-06, 1.20019e-05, -1.58141e-05, -0.00391121, -0.00112508, -0.000715029
0.014321, 0.107736, -0.774386, -0.917191, -1.45782, -0.625488, 1.06995, -0.256723, -0.00259921, -0.00274391, -0.00440852, 0.00280352, 3.76618e-05, -0.000147232, -0.000118134, -0.206535, 16.4893, 21.9819, 18.5266, 1.49158, 3.73324, -0.153737, 0.00078886, -0.00158045, 0.00081089, 0.00158026, -0.0011436, 0.000183208, 0.00400225, -0.00101532, -0.000399271, -0.00137832, -0.00432467, -0.00710704, -0.011112, -0.444721, 0.635038, -3.13187, -0.0555627, -0.107532, -0.0103264, -0.443107, 0.634293, -3.13036, -0.0557643, -0.105643, 1.55453e-05, 2.69215e-05, -3.55071e-05, -0.00391121, -0.00112508, -0.000715029
0.015321, 0.107736, -0.774386, -0.917191, -1.45782, -0.625488, 1.06995, -0.256723, -0.00259921, -0.00274391, -0.00440852, 0.00280352, 3.76618e-05, -0.000147232, -0.000118134, -0.206535, 16.4893, 21.9819, 18.5266, 1.49158, 3.73324, -0.153737, 0.00078884, -0.00158041, 0.00081084, 0.00158016, -0.00114372, 0.000183212, 0.00401312, -0.0010355, -0.000370847, -0.00132121, -0.00431682, -0.00699886, -0.011112, -0.444721, 0.635038, -3.13187, -0.0555628, -0.107532, -0.0103264, -0.443107, 0.634293, -3.13036, -0.0557643, -0.105643, 2.7609e-05, 4.77135e-05, -6.29913e-05, -0.00391121, -0.00112508, -0.000715029
0.016321, 0.107736, -0.774386, -0.917191, -1.45782, -0.625488, 1.06995, -0.256723, -0.00259921, -0.00274391, -0.00440852, 0.00280352, 3.76618e-05, -0.000147232, -0.000118134, -0.206535, 16.4893, 21.9819, 18.5266, 1.49158, 3.73324, -0.153737, 0.000788809, -0.00158035, 0.000810758, 0.00157998, -0.00114392, 0.000183218, 0.00402708, -0.00106132, -0.000334415, -0.00124804, -0.00430673, -0.00686023, -0.0111119, -0.444721, 0.635038, -3.13187, -0.0555628, -0.107532, -0.0103264, -0.443107, 0.634293, -3.13036, -0.0557643, -0.105643, 4.30968e-05, 7.4323e-05, -9.82172e-05, -0.00391121, -0.00112508, -0.000715029
0.017321, 0.107736, -0.774386, -0.917191, -1.45782, -0.625488, 1.06995, -0.256723, -0.00259921, -0.00274391, -0.00440852, 0.00280352, 3.76618e-05, -0.000147232, -0.000118134, -0.206535, 16.4893, 21.9819, 18.5266, 1.49158, 3.73324, -0.153737, 0.000788761, -0.00158027, 0.000810635, 0.00157973, -0.00114422, 0.000183226, 0.00404411, -0.00109273, -0.000290026, -0.00115895, -0.00429437, -0.00669134, -0.0111119, -0.444721, 0.635038, -3.13187, -0.0555628, -0.107533, -0.0103264, -0.443107, 0.634293, -3.13036, -0.0557643, -0.105643, 6.19987e-05, 0.000106695, -0.000141136, -0.00391121, -0.00112508, -0.000715029
0.0183213, 0.107736, -0.774386, -0.917191, -1.45782, -0.625488, 1.06995, -0.256723, -0.00259921, -0.00274391, -0.00440852, 0.00280352, 3.76618e-05, -0.000147232, -0.000118134, -0.206535, 16.4893, 21.9819, 18.5266, 1.49158, 3.73324, -0.153737, 0.000788695, -0.00158014, 0.000810465, 0.00157937, -0.00114464, 0.000183239, 0.00406422, -0.00112968, -0.000237729, -0.00105405, -0.00427976, -0.0064924, -0.0111118, -0.44472, 0.635037, -3.13187, -0.0555628, -0.107533, -0.0103264, -0.443107, 0.634293, -3.13036, -0.0557643, -0.105643, 8.43044e-05, 0.000144776, -0.000191697, -0.00391121, -0.00112508, -0.000715029
0.0193215, 0.107736, -0.774386, -0.917191, -1.45782, -0.625488, 1.06995, -0.256723, -0.00259921, -0.00274391, -0.00440852, 0.00280352, 3.76618e-05, -0.000147232, -0.000118134, -0.206535, 16.4893, 21.9819, 18.5266, 1.49158, 3.73324, -0.153737, 0.000788607, -0.00157998, 0.000810238, 0.00157889, -0.00114519, 0.000183256, 0.00408739, -0.00117211, -0.000177574, -0.000933459, -0.00426288, -0.00626362, -0.0111117, -0.44472, 0.635037, -3.13187, -0.0555629, -0.107534, -0.0103264, -0.443107, 0.634293, -3.13036, -0.0557643, -0.105643, 0.000110004, 0.000188511, -0.000249853, -0.00391121, -0.00112508, -0.000715029
0.0203215, 0.107736, -0.774386, -0.917191, -1.45782, -0.625488, 1.06995, -0.256723, -0.00259921, -0.00274391, -0.00440852, 0.00280352, 3.76618e-05, -0.000147232, -0.000118134, -0.206535, 16.4893, 21.9819, 18.5266, 1.49158, 3.73324, -0.153737, 0.000788495, -0.00157978, 0.000809948, 0.00157827, -0.00114589, 0.000183277, 0.0041136, -0.00121997, -0.000109611, -0.000797301, -0.00424373, -0.00600519, -0.0111116, -0.44472, 0.635037, -3.13187, -0.0555629, -0.107535, -0.0103264, -0.443107, 0.634293, -3.13036, -0.0557643, -0.105643, 0.000139087, 0.000237846, -0.000315553, -0.00391121, -0.00112508, -0.000715029
0.0213218, 0.107736, -0.774386, -0.917191, -1.45782, -0.625488, 1.06995, -0.256723, -0.00259921, -0.00274391, -0.00440852, 0.00280352, 3.76618e-05, -0.000147232, -0.000118134, -0.206535, 16.4893, 21.9819, 18.5266, 1.49158, 3.73324, -0.153737, 0.000788355, -0.00157952, 0.000809586, 0.00157751, -0.00114677, 0.000183304, 0.00414287, -0.0012732, -3.38911e-05, -0.000645692, -0.0042223, -0.00571732, -0.0111114, -0.44472, 0.635037, -3.13186, -0.055563, -0.107537, -0.0103264, -0.443107, 0.634293, -3.13036, -0.0557643, -0.105643, 0.000171544, 0.000292726, -0.00038875, -0.00391121, -0.00112508, -0.000715029
0.022322, 0.107736, -0.774386, -0.917191, -1.45782, -0.625488, 1.06995, -0.256723, -0.00259921, -0.00274391, -0.00440852, 0.00280352, 3.76618e-05, -0.000147232, -0.000118134, -0.206535, 16.4893, 21.9819, 18.5266, 1.49158, 3.73324, -0.153737, 0.000788183, -0.0015792, 0.000809145, 0.00157658, -0.00114785, 0.000183338, 0.00417516, -0.00133176, 4.95375e-05, -0.000478752, -0.00419859, -0.0054002, -0.0111112, -0.444719, 0.635036, -3.13186, -0.055563, -0.107538, -0.0103264, -0.443107, 0.634293, -3.13036, -0.0557643, -0.105643, 0.000207364, 0.000353099, -0.000469394, -0.00391121, -0.00112508, -0.000715029
0.023322, 0.107736, -0.774386, -0.917191, -1.45782, -0.625488, 1.06995, -0.256723, -0.00259921, -0.00274391, -0.00440852, 0.00280352, 3.76618e-05, -0.000147232, -0.000118134, -0.206535, 16.4893, 21.9819, 18.5266, 1.49158, 3.73324, -0.153737, 0.000787978, -0.00157883, 0.000808618, 0.00157547, -0.00114913, 0.000183378, 0.00421049, -0.00139559, 0.000140625, -0.000296599, -0.00417261, -0.00505404, -0.011111, -0.444719, 0.635036, -3.13186, -0.0555631, -0.10754, -0.0103264, -0.443107, 0.634293, -3.13036, -0.0557643, -0.105643, 0.000246538, 0.00041891, -0.000557437, -0.00391121, -0.00112508, -0.000715029
0.0243247, 0.107736, -0.774386, -0.917191, -1.45782, -0.625488, 1.06995, -0.256723, -0.00259921, -0.00274391, -0.00440852, 0.00280352, 3.76618e-05, -0.000147232, -0.000118134, -0.206535, 16.4893, 21.9819, 18.5266, 1.49158, 3.73324, -0.153737, 0.000787736, -0.00157839, 0.000807996, 0.00157416, -0.00115064, 0.000183426, 0.00424883, -0.00146463, 0.000239322, -9.93505e-05, -0.00414433, -0.00467903, -0.0111107, -0.444719, 0.635035, -3.13186, -0.0555632, -0.107542, -0.0103264, -0.443107, 0.634293, -3.13036, -0.0557643, -0.105643, 0.000289055, 0.000490107, -0.00065283, -0.00391121, -0.00112508, -0.000715029
0.0253247, 0.107695, -0.774409, -0.917219, -1.45781, -0.625504, 1.06995, -0.256728, -0.00106254, -0.000332481, -0.00233516, 0.00118341, -0.000943692, -0.00023758, 0.000609863, -0.0914839, 16.6003, 22.204, 18.602, 1.57764, 3.73324, -0.166554, 0.00074856, -0.00157058, 0.000811977, 0.00157674, -0.00113511, 0.000252807, 0.00207837, -0.00111931, 0.000476626, 0.000976099, 5.27716e-05, -0.00153527, -0.0111104, -0.444718, 0.635034, -3.13186, -0.0555634, -0.107545, -0.0103646, -0.443115, 0.634285, -3.13036, -0.0556567, -0.10567, 0.000334905, 0.000566635, -0.000755525, -0.00172995, -0.00062915, -0.00042974
0.0263247, 0.107688, -0.774412, -0.917225, -1.45781, -0.625501, 1.06995, -0.256732, -0.00154825, -0.00107579, -0.00255108, 0.00279249, 4.90426e-05, 0.000112879, -0.00128889, -0.0557783, 16.636, 22.2437, 18.5266, 1.55932, 3.72592, -0.120778, 0.000741958, -0.00156893, 0.000810813, 0.00157616, -0.00112856, 0.000261175, 0.00273476, -0.00129481, 0.00103739, 0.00180375, -0.00262768, -0.000202656, -0.0111101, -0.444717, 0.635033, -3.13186, -0.0555635, -0.107548, -0.0103708, -0.443116, 0.634285, -3.13035, -0.0556437, -0.105683, 0.000384079, 0.000648441, -0.000865474, -0.00236732, -0.000750643, -2.64521e-05
0.0273247, 0.107683, -0.774411, -0.917226, -1.45781, -0.6255, 1.06995, -0.256732, -0.00103568, -0.00209265, -0.0053309, -0.00164362, 0.00118558, 0.000346519, -0.000859287, -0.0557783, 16.5646, 22.1287, 18.4155, 1.5282, 3.7186, -0.120778, 0.000738768, -0.00156871, 0.000810444, 0.00157738, -0.00113281, 0.000267706, 0.00258984, -0.00158761, -0.00101818, -0.0026407, -0.0015672, 0.00105001, -0.0111097, -0.444717, 0.635033, -3.13186, -0.0555637, -0.107552, -0.0103736, -0.443116, 0.634285, -3.13035, -0.0556338, -0.10568, 0.000436566, 0.000735474, -0.000982628, -0.0020192, -0.000933427, -0.00218614
0.0283247, 0.107678, -0.774411, -0.91723, -1.45781, -0.625503, 1.06995, -0.256726, -0.0016211, -0.00133034, -0.00434667, -0.00580245, -0.00118153, -0.00312327, 0.00983343, -0.0161054, 16.4178, 21.8708, 18.1934, 1.45404, 3.68289, -0.147328, 0.00073576, -0.00156674, 0.000811466, 0.0015764, -0.00113906, 0.00028083, 0.00231925, -0.000834328, -0.00213539, -0.00591788, 0.00544199, -0.00798903, -0.0111092, -0.444716, 0.635032, -3.13185, -0.0555639, -0.107556, -0.010376, -0.443117, 0.634282, -3.13035, -0.0556136, -0.105674, 0.000492356, 0.000827679, -0.00110694, -0.00164403, -6.92932e-05, -0.00340175
0.0293247, 0.107691, -0.774412, -0.917252, -1.45782, -0.625507, 1.06995, -0.256733, 0.00337179, -0.000911359, -0.00888998, -0.00730471, -0.0038231, -0.00192937, 0.00442473, -0.206535, 16.2671, 21.6843, 17.8918, 1.39911, 3.66824, -0.0685925, 0.000733527, -0.00156217, 0.000819452, 0.00159554, -0.00115163, 0.000275747, 0.00158052, -0.00235363, -0.00378172, -0.00753901, 0.00851456, -0.0010355, -0.0111087, -0.444715, 0.63503, -3.13185, -0.0555641, -0.10756, -0.010377, -0.443121, 0.634273, -3.13033, -0.0556225, -0.105657, 0.000551439, 0.000925004, -0.00123836, -0.000681507, -0.0014501, -0.00513422
0.0303247, 0.107693, -0.774412, -0.917273, -1.45783, -0.625519, 1.06995, -0.256732, 0.0030816, -4.31771e-05, -0.0129823, -0.00830022, -0.00656662, 0.000252513, 0.00279275, -0.242241, 16.0846, 21.3868, 17.5586, 1.36249, 3.6188, -0.0484509, 0.000727531, -0.00155652, 0.000827568, 0.00160731, -0.00117279, 0.000290432, 0.0029158, -0.00386533, -0.00487487, -0.00727786, 0.0112322, -0.00306843, -0.0111081, -0.444714, 0.635029, -3.13185, -0.0555643, -0.107565, -0.0103816, -0.443126, 0.634263, -3.13032, -0.0556005, -0.105628, 0.000613805, 0.0010274, -0.00137684, -0.00182165, -0.00289596, -0.00646437
0.0313247, 0.107703, -0.774427, -0.917299, -1.45785, -0.625529, 1.06994, -0.256727, 0.00474455, -0.0047123, -0.0181253, -0.00765927, -0.00858047, -0.0036554, 0.00352423, -0.357292, 16.1203, 21.1606, 17.2968, 1.32587, 3.58951, -0.0814099, 0.000720129, -0.00155014, 0.000840136, 0.00162974, -0.00118386, 0.000300375, 0.00625481, -0.00466948, -0.00655855, -0.0128826, 0.0099449, -0.00676843, -0.0111074, -0.444713, 0.635028, -3.13184, -0.0555646, -0.10757, -0.0103873, -0.443131, 0.634249, -3.13029, -0.0555862, -0.105615, 0.000679445, 0.00113481, -0.00152234, -0.00494108, -0.00369509, -0.00852399
0.0323247, 0.107706, -0.774427, -0.917331, -1.45787, -0.625536, 1.06994, -0.256728, 0.0031622, -0.00368407, -0.0228834, -0.0126089, -0.0108509, -0.00221225, 0.0024434, -0.357292, 15.9735, 20.9742, 16.9992, 1.30755, 3.56845, -0.0750012, 0.000712959, -0.00154296, 0.000853685, 0.00165507, -0.00120582, 0.000315368, 0.00749673, -0.00584613, -0.00905224, -0.0159801, 0.0154369, -0.00883519, -0.0111067, -0.444712, 0.635026, -3.13184, -0.0555649, -0.107577, -0.0103925, -0.443137, 0.634233, -3.13026, -0.0555642, -0.105585, 0.000748347, 0.00124718, -0.0016748, -0.00589764, -0.00478075, -0.0112569
0.0333247, 0.107717, -0.774437, -0.917353, -1.45789, -0.625555, 1.06995, -0.256732, 0.00470596, -0.00646803, -0.0227693, -0.0153128, -0.00978504, -0.00107744, 0.000419322, -0.468376, 15.9735, 20.6409, 16.7731, 1.34418, 3.54648, -0.0356336, 0.000708212, -0.00153585, 0.000865653, 0.00166943, -0.00123031, 0.000314436, 0.00679854, -0.00595466, -0.00972993, -0.0168886, 0.0130941, -0.00265182, -0.0111059, -0.444711, 0.635024, -3.13184, -0.0555653, -0.107583, -0.0103954, -0.443143, 0.634219, -3.13025, -0.0555667, -0.105553, 0.000820503, 0.00136446, -0.00183418, -0.00507906, -0.00474148, -0.0120451
0.0343247, 0.10772, -0.774447, -0.917389, -1.45793, -0.625573, 1.06995, -0.256727, 0.00313684, -0.0091388, -0.0266967, -0.0197369, -0.00833498, 0.000834359, 0.00192395, -0.468376, 16.0092, 20.4545, 16.662, 1.3689, 3.49612, -0.0750012, 0.000698569, -0.00152639, 0.000884589, 0.00169666, -0.00125996, 0.000333713, 0.00822741, -0.00675436, -0.0119095, -0.0206363, 0.0114677, -0.00508311, -0.0111051, -0.444709, 0.635022, -3.13183, -0.0555656, -0.10759, -0.0104025, -0.443152, 0.634197, -3.13022, -0.0555383, -0.105512, 0.000895902, 0.00148661, -0.00200043, -0.00625044, -0.00544992, -0.0144889
0.0353247, 0.107728, -0.774454, -0.917419, -1.45795, -0.62559, 1.06996, -0.256726, 0.00385411, -0.00619513, -0.0277099, -0.0178253, -0.0118036, 0.00164444, 0.00288045, -0.543754, 15.9735, 20.1926, 16.4755, 1.3927, 3.46042, -0.114369, 0.000692502, -0.00151774, 0.000899274, 0.00171655, -0.00128866, 0.00034388, 0.00840385, -0.00769008, -0.0112775, -0.0174691, 0.015485, -0.00806574, -0.0111041, -0.444708, 0.63502, -3.13183, -0.055566, -0.107598, -0.0104063, -0.443159, 0.63418, -3.13019, -0.0555238, -0.105473, 0.000974534, 0.00161356, -0.00217351, -0.00635754, -0.00626968, -0.0140495
0.0363247, 0.107732, -0.774464, -0.917454, -1.45799, -0.625607, 1.06997, -0.256728, 0.00256915, -0.00566866, -0.030412, -0.0183776, -0.0131993, 0.00302294, 0.000567053, -0.543754, 16.0092, 20.0101, 16.3644, 1.38721, 3.40365, -0.0750012, 0.000682828, -0.00150728, 0.000916082, 0.00173705, -0.0013146, 0.000357644, 0.00976627, -0.00866962, -0.0118501, -0.0172251, 0.0169, -0.00876983, -0.0111031, -0.444706, 0.635018, -3.13182, -0.0555664, -0.107607, -0.0104134, -0.443168, 0.63416, -3.13017, -0.0555037, -0.10544, 0.00105639, 0.00174526, -0.00235336, -0.0075598, -0.00715979, -0.0149004
0.0373247, 0.107732, -0.77447, -0.917487, -1.45802, -0.625623, 1.06998, -0.256733, 0.000877349, -0.00747334, -0.0281617, -0.0214094, -0.0136901, 0.00401977, -0.00147613, -0.508049, 16.0092, 19.784, 16.2494, 1.36249, 3.34598, -0.0228162, 0.000674115, -0.00149729, 0.000931305, 0.00175382, -0.00134202, 0.000368505, 0.00977557, -0.0084095, -0.0118694, -0.0160185, 0.0168859, -0.00464242, -0.011102, -0.444704, 0.635016, -3.13182, -0.0555669, -0.107616, -0.0104196, -0.443176, 0.634142, -3.13015, -0.0554881, -0.105405, 0.00114146, 0.00188168, -0.00253994, -0.00749188, -0.00676352, -0.0151054
0.0383247, 0.10773, -0.774471, -0.917522, -1.45806, -0.625645, 1.06998, -0.256728, -0.00117849, -0.00624173, -0.0312619, -0.0273794, -0.0150641, 0.00471726, 0.000770291, -0.43267, 15.9021, 19.6372, 16.2891, 1.36249, 3.2883, -0.0685925, 0.000664966, -0.00148705, 0.00094993, 0.00177634, -0.00138748, 0.000393704, 0.0103417, -0.00897361, -0.0142036, -0.0195224, 0.0228794, -0.00813278, -0.0111008, -0.444702, 0.635013, -3.13181, -0.0555674, -0.107626, -0.0104259, -0.443184, 0.63412, -3.13012, -0.0554505, -0.105343, 0.00122973, 0.00202275, -0.00273321, -0.00778797, -0.00718585, -0.0176698
0.0393247, 0.107728, -0.774478, -0.917554, -1.45809, -0.625664, 1.06999, -0.256727, -0.00171379, -0.00491461, -0.0335964, -0.0294981, -0.0191743, 0.00385062, 0.00103246, -0.392998, 15.9021, 19.4864, 16.2494, 1.31946, 3.26724, -0.0814099, 0.000654688, -0.00147761, 0.000966549, 0.00179765, -0.00142263, 0.000412805, 0.0114659, -0.00970126, -0.0153177, -0.0206037, 0.0293001, -0.0108038, -0.0110996, -0.4447, 0.63501, -3.1318, -0.055568, -0.107637, -0.0104334, -0.443192, 0.6341, -3.1301, -0.0554224, -0.105297, 0.00132119, 0.00216842, -0.00293311, -0.0087149, -0.00779715, -0.0190631
0.0403247, 0.107726, -0.774481, -0.917591, -1.45812, -0.625687, 1.07, -0.256735, -0.00197783, -0.00384149, -0.0339035, -0.0281354, -0.0237027, 0.0033253, -0.00192338, -0.357292, 15.9021, 19.4111, 16.2137, 1.31305, 3.24527, -0.00999879, 0.000642682, -0.00146642, 0.000982895, 0.00181638, -0.00146396, 0.000430185, 0.0126671, -0.010382, -0.0147737, -0.0179744, 0.033255, -0.0104066, -0.0110982, -0.444698, 0.635007, -3.1318, -0.0555686, -0.107648, -0.0104424, -0.443201, 0.63408, -3.13008, -0.0553969, -0.105242, 0.00141584, 0.00231864, -0.0031396, -0.00983073, -0.00837408, -0.0188139
0.0413247, 0.107718, -0.774488, -0.917623, -1.45816, -0.625711, 1.07, -0.256735, -0.00400987, -0.00382003, -0.0298831, -0.0294454, -0.0263519, 0.00136138, -0.00152865, -0.242241, 15.9378, 19.3, 16.2891, 1.28833, 3.26724, -0.00267457, 0.000628761, -0.00145789, 0.00100091, 0.00184233, -0.00151093, 0.000452906, 0.0128094, -0.00956409, -0.0139172, -0.0160515, 0.0369986, -0.00952922, -0.0110967, -0.444695, 0.635004, -3.13179, -0.0555692, -0.107661, -0.0104533, -0.443208, 0.634058, -3.13004, -0.0553635, -0.105179, 0.00151366, 0.00247337, -0.00335263, -0.00996253, -0.00741432, -0.0181773
0.0423247, 0.107718, -0.774485, -0.91766, -1.45819, -0.625734, 1.07, -0.25673, -0.00897255, -0.00202933, -0.0303656, -0.0315478, -0.0238412, 0.000367691, 0.000694976, -0.242241, 15.9021, 19.3397, 16.2891, 1.27002, 3.28097, -0.0484509, 0.000618835, -0.00144732, 0.00101766, 0.0018651, -0.00156191, 0.000480707, 0.0138811, -0.00904131, -0.0143387, -0.0185897, 0.0388095, -0.0139302, -0.0110952, -0.444693, 0.635, -3.13178, -0.0555699, -0.107674, -0.0104601, -0.443216, 0.634037, -3.13002, -0.0553221, -0.105111, 0.00161465, 0.00263255, -0.00357216, -0.0109197, -0.00676664, -0.018888
0.0433247, 0.107713, -0.77449, -0.917686, -1.45823, -0.625766, 1.06999, -0.256728, -0.00826991, -0.00326172, -0.0277169, -0.0319312, -0.0232657, -0.00113466, 0.00122329, -0.166862, 15.9735, 19.2643, 16.3644, 1.28284, 3.31759, -0.0685925, 0.000606559, -0.00143901, 0.00103283, 0.00188283, -0.00161768, 0.000503921, 0.0131549, -0.00836984, -0.0136658, -0.0183161, 0.0381091, -0.01038, -0.0110935, -0.44469, 0.634997, -3.13177, -0.0555706, -0.107688, -0.0104693, -0.443222, 0.634017, -3.13, -0.0552878, -0.105037, 0.00171879, 0.00279613, -0.00379814, -0.0101615, -0.00591221, -0.0183887
0.0443247, 0.107706, -0.774493, -0.917712, -1.45827, -0.625797, 1.06999, -0.256731, -0.00767024, -0.00411651, -0.0265811, -0.0358463, -0.0215088, 0.00309724, -0.000157321, -0.0914839, 16.0489, 19.2246, 16.4755, 1.26453, 3.33865, -0.0420422, 0.000594221, -0.00143054, 0.00104858, 0.00190172, -0.00167554, 0.000523189, 0.0112757, -0.00867063, -0.0139754, -0.01652, 0.0363662, -0.00376836, -0.0110917, -0.444687, 0.634993, -3.13176, -0.0555714, -0.107702, -0.0104785, -0.443228, 0.633996, -3.12997, -0.0552597, -0.10496, 0.00182607, 0.00296406, -0.00403052, -0.00814849, -0.00597596, -0.0188027
0.0453247, 0.107703, -0.774493, -0.917744, -1.45831, -0.625827, 1.06999, -0.256731, -0.00624401, -0.00371366, -0.0313966, -0.0376754, -0.0256901, 0.00162543, -0.00128381, -0.0557783, 16.0846, 19.3, 16.5509, 1.26453, 3.36062, -0.00999879, 0.000583283, -0.00142035, 0.00106529, 0.00192133, -0.00173571, 0.000544916, 0.0127683, -0.00989044, -0.0158134, -0.0196603, 0.0421746, -0.00501045, -0.0110899, -0.444684, 0.634989, -3.13175, -0.0555722, -0.107718, -0.010486, -0.443235, 0.633975, -3.12995, -0.0552279, -0.10488, 0.00193648, 0.00313629, -0.00426926, -0.0093565, -0.00705911, -0.0209856
0.0463247, 0.107687, -0.77449, -0.917771, -1.45834, -0.625856, 1.06999, -0.256724, -0.00883864, -0.00257635, -0.0316875, -0.0352102, -0.0230785, 0.000313266, 0.00132017, 0.134651, 16.0846, 19.3754, 16.5866, 1.23981, 3.38901, -0.0685925, 0.000567616, -0.00141154, 0.00107812, 0.00193519, -0.0017959, 0.000586359, 0.0139049, -0.00964032, -0.0148847, -0.0199996, 0.0404621, -0.00948247, -0.0110879, -0.444681, 0.634984, -3.13174, -0.0555731, -0.107735, -0.0104984, -0.443241, 0.633957, -3.12993, -0.0551653, -0.104801, 0.00205002, 0.00331277, -0.00451432, -0.0104486, -0.0066806, -0.020381
0.0473247, 0.107678, -0.774495, -0.917797, -1.45839, -0.625891, 1.06999, -0.256725, -0.00865699, -0.00439145, -0.0317322, -0.0381039, -0.0264197, -0.000123087, 0.000409823, 0.245735, 16.1957, 19.4507, 16.6977, 1.22699, 3.40365, -0.0557752, 0.000553951, -0.00140229, 0.00109318, 0.00195007, -0.00185798, 0.000609041, 0.0145962, -0.00998879, -0.0156299, -0.0201749, 0.0433724, -0.00754817, -0.0110858, -0.444678, 0.63498, -3.13173, -0.055574, -0.107752, -0.0105086, -0.443247, 0.633936, -3.1299, -0.0551319, -0.10472, 0.00216668, 0.00349346, -0.00476563, -0.0109574, -0.00686581, -0.0214258
0.0483247, 0.107667, -0.774491, -0.917817, -1.45843, -0.625926, 1.06999, -0.256731, -0.00951518, -0.00298421, -0.0275404, -0.037086, -0.0235628, -0.000432732, -0.00192751, 0.400459, 16.1957, 19.4864, 16.8127, 1.19678, 3.41739, 0.00373412, 0.000543168, -0.00139422, 0.00110584, 0.00196012, -0.00192737, 0.000624752, 0.0129934, -0.00898505, -0.0138081, -0.0177417, 0.0419896, -0.00102647, -0.0110835, -0.444674, 0.634975, -3.13172, -0.055575, -0.107771, -0.0105159, -0.443252, 0.633918, -3.12989, -0.0551093, -0.10463, 0.00228643, 0.0036783, -0.00502317, -0.00940026, -0.00563727, -0.0197495
0.0493247, 0.107657, -0.774495, -0.917839, -1.45846, -0.625964, 1.06999, -0.256727, -0.00903535, -0.00370234, -0.0239792, -0.0385186, -0.0227778, -0.000712558, 0.000175544, 0.511544, 16.2671, 19.6372, 16.8842, 1.20318, 3.43204, -0.0356336, 0.000528366, -0.00138393, 0.00111803, 0.00196555, -0.00199012, 0.000656454, 0.0115443, -0.00827779, -0.0130234, -0.0163707, 0.041683, 0.00220634, -0.0110812, -0.44467, 0.634969, -3.13171, -0.0555761, -0.10779, -0.0105271, -0.443259, 0.633899, -3.12987, -0.0550617, -0.10455, 0.00240928, 0.00386724, -0.00528689, -0.00791152, -0.00469726, -0.0191264
0.0503247, 0.107649, -0.77449, -0.917864, -1.4585, -0.626003, 1.06999, -0.256725, -0.00785688, -0.00166483, -0.0240597, -0.0356454, -0.0277287, 0.00413993, 0.000864882, 0.586922, 16.2314, 19.784, 16.9238, 1.2334, 3.43936, -0.0557752, 0.000515703, -0.00137332, 0.00112969, 0.00197134, -0.0020613, 0.000686942, 0.0115971, -0.0100939, -0.0114252, -0.00781716, 0.0432539, -0.00016228, -0.0110787, -0.444666, 0.634964, -3.1317, -0.0555772, -0.107811, -0.0105361, -0.443266, 0.633881, -3.12986, -0.0550161, -0.104459, 0.00253522, 0.00406024, -0.00555673, -0.00788285, -0.00633491, -0.0178172
0.0513247, 0.107638, -0.774497, -0.917887, -1.45854, -0.626041, 1.06999, -0.256727, -0.00798173, -0.00373221, -0.0249911, -0.0374181, -0.0259545, 0.00136141, -0.000167996, 0.701973, 16.3425, 19.9705, 16.9992, 1.2453, 3.48971, -0.0356336, 0.00049912, -0.00136341, 0.00114162, 0.00197872, -0.00212404, 0.000712594, 0.0122756, -0.00968635, -0.012261, -0.0121763, 0.0425331, 0.00288336, -0.0110761, -0.444662, 0.634958, -3.13168, -0.0555784, -0.107832, -0.0105488, -0.443272, 0.633863, -3.12984, -0.0549781, -0.104382, 0.00266423, 0.00425725, -0.00583265, -0.00838733, -0.00574699, -0.0189714
0.0523247, 0.107627, -0.774492, -0.917907, -1.45858, -0.626087, 1.06999, -0.256731, -0.0102673, 0.00140697, -0.0215249, -0.0366144, -0.0256966, 0.00512506, -0.00133165, 0.777352, 16.3068, 20.1212, 17.1103, 1.28833, 3.51077, -0.00267457, 0.00048614, -0.00135315, 0.00115287, 0.00198065, -0.00220593, 0.00073687, 0.0104477, -0.00974344, -0.0101472, -0.00524668, 0.0449622, 0.00520782, -0.0110734, -0.444658, 0.634952, -3.13167, -0.0555796, -0.107855, -0.0105579, -0.443278, 0.633844, -3.12983, -0.0549423, -0.104276, 0.0027963, 0.00445821, -0.00611461, -0.00657566, -0.00555719, -0.0170193
0.0533247, 0.107618, -0.774497, -0.917924, -1.45861, -0.626129, 1.06999, -0.256724, -0.00889962, -0.000489397, -0.0210452, -0.0371568, -0.0294481, 0.00247267, 0.00131707, 0.85273, 16.3782, 20.2323, 17.146, 1.31305, 3.5538, -0.0621838, 0.000471746, -0.00134251, 0.00116156, 0.00197704, -0.00227139, 0.000768859, 0.0112914, -0.00983821, -0.0102203, -0.00551037, 0.0476922, 0.00390206, -0.0110705, -0.444653, 0.634946, -3.13165, -0.0555809, -0.107878, -0.0105684, -0.443285, 0.633828, -3.12983, -0.0548942, -0.104197, 0.00293143, 0.00466308, -0.00640257, -0.00727317, -0.00547594, -0.0174392
0.0543247, 0.107607, -0.774497, -0.917944, -1.45864, -0.626175, 1.06999, -0.256727, -0.00875018, -0.00107199, -0.0215736, -0.0351065, -0.0324023, 0.00159315, -0.000104708, 0.963814, 16.4178, 20.3791, 17.0706, 1.34418, 3.56845, -0.0356336, 0.000454716, -0.00133085, 0.00116886, 0.00197061, -0.00234097, 0.00079977, 0.0127952, -0.0104639, -0.00954273, -0.00361549, 0.0485817, 0.00375399, -0.0110675, -0.444648, 0.63494, -3.13164, -0.0555822, -0.107903, -0.0105814, -0.443292, 0.633813, -3.12982, -0.0548478, -0.104113, 0.00306961, 0.00487181, -0.00669647, -0.00865823, -0.00595125, -0.0171651
0.0553247, 0.107601, -0.774497, -0.917959, -1.45868, -0.626223, 1.06999, -0.256729, -0.00599743, -0.00141316, -0.0180896, -0.035101, -0.0385801, 0.000105104, -0.000781439, 0.963814, 16.4536, 20.4941, 17.1857, 1.36249, 3.60415, -0.0164075, 0.000442879, -0.00132069, 0.00117808, 0.00196869, -0.0024222, 0.000818625, 0.0120602, -0.0105123, -0.00846258, 0.000490605, 0.0536348, 0.00803999, -0.0110644, -0.444643, 0.634933, -3.13162, -0.0555837, -0.107929, -0.0105891, -0.443298, 0.633796, -3.12982, -0.0548204, -0.104012, 0.00321082, 0.00508435, -0.00699628, -0.00785652, -0.00577056, -0.0163374
0.0563247, 0.107592, -0.774499, -0.917978, -1.45871, -0.626265, 1.06999, -0.256727, -0.00588451, 0.000654224, -0.0193503, -0.0330897, -0.0424051, 0.00475326, 0.00019145, 1.03919, 16.525, 20.6409, 17.2214, 1.34967, 3.61148, -0.0356336, 0.000427711, -0.00130951, 0.00118636, 0.00196588, -0.00249368, 0.000848211, 0.0125928, -0.01233, -0.00741006, 0.00727016, 0.055107, 0.0045491, -0.0110611, -0.444638, 0.634926, -3.13161, -0.0555852, -0.107956, -0.0105999, -0.443304, 0.63378, -3.12981, -0.0547763, -0.103927, 0.00335505, 0.00530066, -0.00730195, -0.00825056, -0.0073987, -0.0156418
0.0573247, 0.107584, -0.774493, -0.917996, -1.45874, -0.626311, 1.06999, -0.25672, -0.0070981, 0.00474294, -0.017256, -0.0300495, -0.0455808, 0.002442, 0.00134859, 1.03919, 16.4893, 20.7917, 17.1857, 1.34418, 3.64718, -0.0685925, 0.000414624, -0.00129799, 0.00119292, 0.00195825, -0.00257442, 0.000882926, 0.0128471, -0.0121488, -0.00557515, 0.0107471, 0.0607821, 0.00189792, -0.0110577, -0.444633, 0.634918, -3.13159, -0.0555867, -0.107984, -0.0106087, -0.443311, 0.633765, -3.1298, -0.0547243, -0.103829, 0.0035023, 0.00552068, -0.00761342, -0.00848923, -0.00702273, -0.0141396
0.0583247, 0.107572, -0.774493, -0.918011, -1.45878, -0.626355, 1.06999, -0.256727, -0.00682139, 0.00191508, -0.0179285, -0.0303977, -0.0433495, 0.00156606, -0.000796177, 1.11457, 16.5646, 20.9028, 17.2571, 1.33777, 3.66092, -0.0228162, 0.000400151, -0.00128738, 0.00119952, 0.00195108, -0.00265077, 0.000902174, 0.0135188, -0.0121274, -0.00573383, 0.00878979, 0.0570771, 0.0063023, -0.0110541, -0.444627, 0.63491, -3.13157, -0.0555884, -0.108013, -0.0106187, -0.443316, 0.63375, -3.1298, -0.0546963, -0.103739, 0.00365255, 0.00574437, -0.00793067, -0.00899832, -0.00679979, -0.0146618
0.0593247, 0.107566, -0.774499, -0.918022, -1.45881, -0.6264, 1.06998, -0.256724, -0.00709672, -0.000841665, -0.016623, -0.0319901, -0.041146, 2.27213e-05, 0.000927418, 1.07887, 16.6718, 20.9385, 17.2571, 1.31946, 3.69754, -0.0621838, 0.000386427, -0.00127652, 0.00120396, 0.00193909, -0.00272021, 0.000926498, 0.0135971, -0.0115159, -0.00574194, 0.00691326, 0.0545233, 0.00843987, -0.0110504, -0.444621, 0.634902, -3.13155, -0.0555901, -0.108044, -0.0106279, -0.443321, 0.633736, -3.12979, -0.0546603, -0.103662, 0.0038058, 0.00597168, -0.00825364, -0.0089443, -0.00596389, -0.0149948
0.0603247, 0.10756, -0.774494, -0.918032, -1.45884, -0.626442, 1.06998, -0.256725, -0.00740161, -0.000270658, -0.0158864, -0.0311019, -0.0430428, 2.90517e-05, -0.000839678, 1.03919, 16.6718, 20.9742, 17.2968, 1.27643, 3.70395, -0.0228162, 0.000376449, -0.00126667, 0.00120776, 0.0019281, -0.00280135, 0.000943598, 0.0140185, -0.0118492, -0.00488808, 0.0094576, 0.0560257, 0.0103818, -0.0110465, -0.444615, 0.634894, -3.13153, -0.0555919, -0.108076, -0.0106333, -0.443325, 0.633723, -3.12979, -0.0546357, -0.103567, 0.00396204, 0.00620257, -0.00858229, -0.00925489, -0.00608846, -0.0145034
0.0613247, 0.10755, -0.774491, -0.918043, -1.45887, -0.62649, 1.06998, -0.256721, -0.00865971, 0.00221868, -0.0163945, -0.030343, -0.041797, -0.000605987, 0.00161043, 1.03919, 16.7114, 21.0496, 17.3325, 1.27643, 3.72592, -0.0814099, 0.000362447, -0.00125492, 0.00121068, 0.0019114, -0.00288207, 0.00097507, 0.0141079, -0.0118748, -0.00437884, 0.00939889, 0.0575217, 0.00779621, -0.0110424, -0.444609, 0.634885, -3.13151, -0.0555937, -0.108109, -0.0106426, -0.443331, 0.633711, -3.12979, -0.0545886, -0.103474, 0.00412125, 0.00643698, -0.00891658, -0.00921876, -0.00588723, -0.0143365
0.0623247, 0.107548, -0.774492, -0.918058, -1.4589, -0.626536, 1.06998, -0.256719, -0.00388285, 0.000231169, -0.0207707, -0.0290414, -0.0448572, 0.00308613, 0.000836322, 0.928108, 16.7828, 21.1606, 17.3325, 1.25812, 3.76163, -0.0750012, 0.000349519, -0.00124292, 0.00121421, 0.00189927, -0.00295917, 0.000997817, 0.0146336, -0.0142207, -0.00476981, 0.0120559, 0.0555024, 0.00920936, -0.0110382, -0.444602, 0.634876, -3.13149, -0.0555957, -0.108143, -0.0106506, -0.443337, 0.633697, -3.12979, -0.0545554, -0.103389, 0.00428343, 0.00667487, -0.00925645, -0.00946981, -0.00800862, -0.0151185
0.0633247, 0.107542, -0.774489, -0.918069, -1.45893, -0.626579, 1.06998, -0.256721, -0.00219167, 0.00258284, -0.0190568, -0.0297251, -0.0425324, 0.00201015, -0.000425752, 0.888436, 16.8225, 21.2003, 17.4078, 1.23981, 3.77627, -0.0484509, 0.000337842, -0.00123174, 0.00121715, 0.00188572, -0.00303966, 0.00101619, 0.0122889, -0.0136119, -0.00419025, 0.0115785, 0.0571277, 0.0162698, -0.0110339, -0.444596, 0.634867, -3.13147, -0.0555977, -0.108178, -0.0106572, -0.443342, 0.633684, -3.12979, -0.054529, -0.103299, 0.00444857, 0.0069162, -0.00960188, -0.00702854, -0.00708146, -0.0147204
0.0643247, 0.107534, -0.774485, -0.918073, -1.45896, -0.626625, 1.06998, -0.256719, -0.0049894, 0.00137765, -0.012943, -0.0301766, -0.0458661, 0.00120293, 0.000224825, 0.888436, 16.8582, 21.1606, 17.4832, 1.2334, 3.79001, -0.0621838, 0.000327411, -0.00122129, 0.00121754, 0.00186507, -0.00312383, 0.00103583, 0.0127203, -0.0128269, -0.0022517, 0.0168771, 0.0589806, 0.0174879, -0.0110293, -0.444589, 0.634857, -3.13145, -0.0555998, -0.108215, -0.0106627, -0.443346, 0.633673, -3.12979, -0.0545004, -0.103205, 0.00461665, 0.00716091, -0.0099528, -0.00745201, -0.00608482, -0.0131627
0.0653247, 0.107531, -0.774481, -0.91808, -1.45899, -0.626673, 1.06997, -0.256715, -0.00212262, 0.000451444, -0.0126616, -0.0281106, -0.0489297, -0.000275797, 0.00160797, 0.813057, 16.8939, 21.1606, 17.5943, 1.23981, 3.82663, -0.101552, 0.00031716, -0.00121029, 0.0012186, 0.00184677, -0.00321211, 0.00105701, 0.0129853, -0.0133181, -0.00142025, 0.0187549, 0.0599156, 0.0180431, -0.0110246, -0.444581, 0.634847, -3.13142, -0.055602, -0.108254, -0.0106677, -0.44335, 0.633661, -3.12979, -0.0544697, -0.103106, 0.00478767, 0.00740896, -0.0103092, -0.00758477, -0.00634444, -0.0127118
0.0663247, 0.107527, -0.774482, -0.918092, -1.45902, -0.626721, 1.06997, -0.256715, -0.00320893, -0.0011861, -0.0142256, -0.0289036, -0.0461772, -0.00129735, -0.000148704, 0.737679, 16.9693, 21.236, 17.6697, 1.23981, 3.86233, -0.0685925, 0.000302879, -0.00119782, 0.00121991, 0.0018297, -0.00329425, 0.00107913, 0.0140271, -0.013319, -0.00184913, 0.0158805, 0.0574157, 0.0206679, -0.0110198, -0.444574, 0.634836, -3.1314, -0.0556043, -0.108293, -0.0106765, -0.443355, 0.633648, -3.12979, -0.0544376, -0.103018, 0.00496161, 0.0076603, -0.010671, -0.0084198, -0.00612681, -0.0135742
0.0673247, 0.107524, -0.774474, -0.918103, -1.45905, -0.626764, 1.06997, -0.256716, -0.00410071, 0.000344413, -0.012195, -0.0277218, -0.0433532, -0.00148809, -0.000845107, 0.6623, 16.9296, 21.3114, 17.6697, 1.2215, 3.88339, -0.0484509, 0.000292648, -0.00118533, 0.00121937, 0.00181027, -0.0033798, 0.0010979, 0.0131756, -0.0128324, -0.000462613, 0.0173517, 0.0561599, 0.0241926, -0.0110147, -0.444566, 0.634825, -3.13137, -0.0556067, -0.108334, -0.0106812, -0.44336, 0.633637, -3.12979, -0.0544108, -0.102926, 0.00513848, 0.00791489, -0.0110382, -0.00750686, -0.00536846, -0.0124967
0.0683247, 0.10752, -0.774475, -0.918107, -1.45908, -0.626806, 1.06996, -0.256712, -0.00573908, -0.00137828, -0.00800579, -0.0285532, -0.0415599, -0.00168833, 0.000657309, 0.626595, 17.005, 21.2757, 17.7451, 1.20868, 3.90536, -0.0814099, 0.000281841, -0.00117498, 0.0012186, 0.0017919, -0.00346143, 0.00111483, 0.0127334, -0.0119743, 0.000831046, 0.0193732, 0.0536575, 0.0269861, -0.0110095, -0.444558, 0.634814, -3.13135, -0.0556092, -0.108376, -0.0106864, -0.443363, 0.633626, -3.12979, -0.0543869, -0.102842, 0.00531825, 0.00817268, -0.0114107, -0.00700605, -0.00424932, -0.011543
0.0693247, 0.107522, -0.774472, -0.918114, -1.4591, -0.626852, 1.06996, -0.256708, -0.00503319, -0.000802345, -0.00902505, -0.0272906, -0.0453637, -0.00154603, 0.000675573, 0.511544, 17.005, 21.2757, 17.7451, 1.20868, 3.9191, -0.0878186, 0.000272489, -0.00116248, 0.00121632, 0.00176701, -0.00354724, 0.00113263, 0.0137325, -0.0129675, 0.00133336, 0.021982, 0.0564088, 0.0258995, -0.0110041, -0.44455, 0.634803, -3.13132, -0.0556118, -0.10842, -0.01069, -0.443367, 0.633616, -3.12979, -0.0543616, -0.102753, 0.00550092, 0.00843363, -0.0117885, -0.00781861, -0.0050207, -0.0114962
0.0703247, 0.107515, -0.774471, -0.918123, -1.45914, -0.626895, 1.06996, -0.256716, -0.00513039, -0.00128273, -0.00751474, -0.0268458, -0.0431011, -0.00123585, -0.00148239, 0.551216, 17.0407, 21.3114, 17.8918, 1.19678, 3.92642, -0.0356336, 0.000260897, -0.00114962, 0.00121696, 0.00174588, -0.00363304, 0.00114196, 0.0132187, -0.0127644, 0.00230835, 0.0232138, 0.0538362, 0.03146, -0.0109985, -0.444541, 0.634791, -3.13129, -0.0556144, -0.108465, -0.0106955, -0.443372, 0.633602, -3.12979, -0.0543496, -0.102665, 0.00568647, 0.00869769, -0.0121715, -0.00719538, -0.00454463, -0.0108704
0.0713247, 0.107516, -0.774473, -0.918134, -1.45916, -0.626934, 1.06996, -0.256714, -0.00626967, -0.00171764, -0.010427, -0.0243497, -0.0458592, -0.00185938, -0.000988257, 0.511544, 17.0804, 21.3868, 17.8204, 1.17847, 3.95572, -0.0356336, 0.000248915, -0.00113619, 0.00121471, 0.00172499, -0.00370762, 0.00116003, 0.0160857, -0.0139199, 0.00261074, 0.0242324, 0.0544462, 0.0265254, -0.0109927, -0.444532, 0.634778, -3.13127, -0.0556172, -0.108512, -0.0107013, -0.443377, 0.633591, -3.12979, -0.0543241, -0.102596, 0.00587491, 0.00896481, -0.0125597, -0.00984483, -0.005536, -0.0111643
0.0723247, 0.107516, -0.77447, -0.918141, -1.45919, -0.626975, 1.06995, -0.256707, -0.0040828, -0.00109594, -0.0106916, -0.0243421, -0.0435465, -0.00171103, 0.00127395, 0.475838, 17.0804, 21.3868, 17.8204, 1.17206, 3.96945, -0.0878186, 0.00023898, -0.00112391, 0.00121162, 0.00170187, -0.00379297, 0.00117941, 0.0147223, -0.0140388, 0.00291521, 0.0238626, 0.053407, 0.0288796, -0.0109867, -0.444523, 0.634765, -3.13124, -0.05562, -0.10856, -0.0107049, -0.44338, 0.633581, -3.12979, -0.0542967, -0.102512, 0.00606621, 0.00923495, -0.0129531, -0.008311, -0.00533959, -0.0111611
0.0733247, 0.107518, -0.774471, -0.918157, -1.45922, -0.627015, 1.06995, -0.256706, -0.00234753, -0.000693761, -0.013605, -0.0243308, -0.0421975, -0.00216396, 0.00112057, 0.436165, 17.0804, 21.4979, 17.8204, 1.17206, 3.99783, -0.0951428, 0.000226145, -0.00110956, 0.00121162, 0.00168623, -0.00387549, 0.0011971, 0.0147336, -0.0146647, 0.00242607, 0.0217062, 0.0532964, 0.0307405, -0.0109806, -0.444514, 0.634752, -3.13121, -0.055623, -0.10861, -0.010711, -0.443386, 0.633567, -3.12978, -0.0542723, -0.102433, 0.00626038, 0.00950806, -0.0133516, -0.00807193, -0.00568791, -0.0120534
0.0743247, 0.107517, -0.774472, -0.918163, -1.45924, -0.627054, 1.06995, -0.256709, -0.0029083, -0.000434859, -0.0121261, -0.024402, -0.0460467, -0.00118436, -0.001457, 0.475838, 17.0804, 21.4582, 17.8204, 1.17847, 3.99142, -0.0356336, 0.000215932, -0.00109617, 0.00120806, 0.00165957, -0.00395738, 0.00120542, 0.0152405, -0.015238, 0.00335965, 0.0260377, 0.0561005, 0.0336516, -0.0109742, -0.444504, 0.634739, -3.13117, -0.055626, -0.108661, -0.0107146, -0.44339, 0.633556, -3.12978, -0.0542621, -0.102358, 0.00645739, 0.00978411, -0.0137552, -0.00842431, -0.00601131, -0.0115657
0.0753247, 0.107528, -0.774472, -0.918178, -1.45927, -0.627095, 1.06995, -0.256709, 0.000440947, -0.00026917, -0.0139408, -0.0255631, -0.0388261, -0.00647258, -0.000225347, 0.360787, 17.0804, 21.5336, 17.8561, 1.16565, 4.0198, -0.0557752, 0.000208191, -0.00108137, 0.00120796, 0.00164259, -0.00404523, 0.00121077, 0.0133822, -0.0140822, 0.00235236, 0.0170568, 0.0544719, 0.0400197, -0.0109676, -0.444494, 0.634725, -3.13114, -0.0556292, -0.108713, -0.0107152, -0.443395, 0.633542, -3.12977, -0.054257, -0.102274, 0.00665724, 0.010063, -0.0141638, -0.00634347, -0.00450276, -0.0128431
0.0763247, 0.107525, -0.774477, -0.918191, -1.4593, -0.627133, 1.06994, -0.256704, -0.00170286, -0.00183433, -0.0142334, -0.0213846, -0.0384188, -0.00574174, 0.00178255, 0.436165, 17.1518, 21.5732, 17.8204, 1.16015, 4.04819, -0.10796, 0.000192719, -0.00106742, 0.00120527, 0.00162316, -0.00412631, 0.00123416, 0.0157892, -0.0147348, 0.00404563, 0.0205165, 0.0496653, 0.035314, -0.0109609, -0.444484, 0.63471, -3.13111, -0.0556325, -0.108767, -0.0107235, -0.443399, 0.633529, -3.12976, -0.0542239, -0.102202, 0.00685993, 0.0103448, -0.0145774, -0.00863439, -0.00497375, -0.0117403
0.0773247, 0.107527, -0.774477, -0.918199, -1.45933, -0.627168, 1.06994, -0.256705, -0.000475208, -0.000376005, -0.0126157, -0.0222652, -0.0377526, -0.00492328, 0.000951008, 0.400459, 17.1161, 21.5336, 17.8204, 1.14734, 4.07016, -0.101552, 0.000183171, -0.00105405, 0.0012016, 0.00160154, -0.00421024, 0.00124179, 0.01407, -0.0147151, 0.00476039, 0.0223446, 0.0508675, 0.041, -0.0109539, -0.444473, 0.634696, -3.13108, -0.0556359, -0.108823, -0.0107258, -0.443402, 0.633517, -3.12976, -0.0542153, -0.102128, 0.00706543, 0.0106294, -0.0149959, -0.00676519, -0.00461579, -0.0113271
0.0783247, 0.107529, -0.77448, -0.918213, -1.45935, -0.627206, 1.06993, -0.256711, 0.000479824, -0.00733469, -0.0166136, -0.0211737, -0.0378574, -0.00454458, -0.00133268, 0.360787, 17.1518, 21.5732, 17.7451, 1.15375, 4.09854, -0.0484509, 0.000169552, -0.00103871, 0.00119722, 0.00157732, -0.00429144, 0.00125127, 0.017439, -0.0160891, 0.00414273, 0.0210115, 0.0434491, 0.0422543, -0.0109468, -0.444463, 0.63468, -3.13104, -0.0556394, -0.10888, -0.0107319, -0.443407, 0.633505, -3.12975, -0.0542039, -0.10206, 0.00727374, 0.0109167, -0.0154193, -0.00982372, -0.00581452, -0.0126117
0.0793247, 0.107537, -0.77448, -0.918227, -1.45939, -0.627239, 1.06993, -0.256712, 0.00198458, -0.0054047, -0.0154926, -0.0272156, -0.0373565, -0.00345941, -0.00112581, 0.285408, 17.1518, 21.5732, 17.8204, 1.14093, 4.10586, -0.0420422, 0.000161851, -0.00102355, 0.00119574, 0.00155876, -0.00437877, 0.00125429, 0.0145543, -0.0159119, 0.00318372, 0.019975, 0.0485034, 0.0494116, -0.0109394, -0.444452, 0.634665, -3.131, -0.055643, -0.108939, -0.0107317, -0.443412, 0.63349, -3.12974, -0.0542028, -0.101983, 0.00748486, 0.0112067, -0.0158476, -0.00667663, -0.005237, -0.0137958
0.0803247, 0.107537, -0.77448, -0.91825, -1.45941, -0.627276, 1.06993, -0.256701, 0.00124914, -0.00398931, -0.0173588, -0.024819, -0.0374521, -0.0024251, 0.00192822, 0.285408, 17.1518, 21.6843, 17.7451, 1.14093, 4.10586, -0.114369, 0.000144887, -0.00100516, 0.00119221, 0.0015351, -0.00446183, 0.00129117, 0.0156498, -0.016851, 0.00400062, 0.0220658, 0.0481501, 0.044611, -0.0109318, -0.44444, 0.634649, -3.13097, -0.0556467, -0.109, -0.0107406, -0.443419, 0.633477, -3.12973, -0.0541491, -0.101915, 0.00769877, 0.0114994, -0.0162807, -0.00757796, -0.00592926, -0.013498
0.0813247, 0.10754, -0.77448, -0.918268, -1.45944, -0.627311, 1.06993, -0.256701, 0.000777332, -0.00294917, -0.0197982, -0.0281847, -0.037537, -0.00197711, 0.000810765, 0.285408, 17.1518, 21.72, 17.7451, 1.14093, 4.11319, -0.101552, 0.000131974, -0.00098894, 0.00118996, 0.00151702, -0.00455175, 0.00130535, 0.0157965, -0.0174502, 0.002828, 0.0200106, 0.0514885, 0.0467947, -0.010924, -0.444429, 0.634632, -3.13093, -0.0556505, -0.109062, -0.0107452, -0.443424, 0.633461, -3.12972, -0.054131, -0.101837, 0.00791545, 0.0117947, -0.0167186, -0.0074047, -0.0062269, -0.0151213
0.0823247, 0.107538, -0.774475, -0.918287, -1.45947, -0.627346, 1.06993, -0.256709, -0.000451371, -0.000512902, -0.0186833, -0.0306054, -0.0380548, -0.00138491, 0.00256985, 0.325081, 17.0804, 21.7597, 17.7451, 1.15375, 4.11319, -0.0292249, 0.000118753, -0.000972047, 0.00118715, 0.00149547, -0.0046475, 0.00131667, 0.0149778, -0.0174507, 0.00304755, 0.0212694, 0.0556985, 0.0473711, -0.010916, -0.444417, 0.634615, -3.13089, -0.0556545, -0.109126, -0.0107499, -0.44343, 0.633446, -3.12971, -0.0541174, -0.101753, 0.00813491, 0.0120926, -0.0171612, -0.00638431, -0.00590289, -0.0152891
0.0833247, 0.107543, -0.774475, -0.918307, -1.45951, -0.62738, 1.06993, -0.256708, 0.00152395, -0.000504853, -0.0200194, -0.0341735, -0.0332124, -0.000973401, 0.00234294, 0.245735, 17.0804, 21.7597, 17.8204, 1.15375, 4.11319, -0.0356336, 0.00010792, -0.000954539, 0.00118574, 0.00147693, -0.00474016, 0.00132727, 0.0130026, -0.017348, 0.0020165, 0.0173809, 0.0543981, 0.054446, -0.0109077, -0.444404, 0.634598, -3.13085, -0.0556585, -0.109191, -0.0107519, -0.443435, 0.633429, -3.12969, -0.0541051, -0.101674, 0.00835714, 0.012393, -0.0176085, -0.00412491, -0.00542061, -0.0166276
0.0843247, 0.107546, -0.774477, -0.918331, -1.45953, -0.627413, 1.06993, -0.256702, 0.000992579, -0.000458757, -0.021885, -0.0323224, -0.0341026, -0.000415262, 0.00378899, 0.245735, 17.0804, 21.7954, 17.7054, 1.14734, 4.10586, -0.0878186, 9.16376e-05, -0.000935327, 0.00118191, 0.00145397, -0.00482453, 0.00135411, 0.0145262, -0.0183019, 0.00258916, 0.0190265, 0.0538869, 0.051433, -0.0108992, -0.444392, 0.63458, -3.13081, -0.0556627, -0.109258, -0.0107592, -0.443443, 0.633414, -3.12968, -0.0540675, -0.10161, 0.00858211, 0.0126959, -0.0180604, -0.00542451, -0.00613025, -0.0166227
0.0853247, 0.107552, -0.774473, -0.918358, -1.45957, -0.627448, 1.06993, -0.256705, 0.00240742, 0.00136576, -0.0202381, -0.034735, -0.030702, -3.37703e-05, 0.00179725, 0.170357, 17.005, 21.8311, 17.7451, 1.16015, 4.09854, -0.0621838, 7.96791e-05, -0.000915729, 0.00118125, 0.00143609, -0.00492489, 0.00136646, 0.0118176, -0.0178056, 0.00285144, 0.0185107, 0.0546197, 0.060728, -0.0108905, -0.444379, 0.634562, -3.13077, -0.055667, -0.109327, -0.0107617, -0.44345, 0.633396, -3.12966, -0.0540528, -0.101523, 0.00880983, 0.0130012, -0.018517, -0.00253255, -0.00523613, -0.0166262
0.0863247, 0.107554, -0.774466, -0.918375, -1.4596, -0.627478, 1.06992, -0.256708, 0.00159179, 0.00167699, -0.0217226, -0.031417, -0.0324277, -0.000857463, 0.000142985, 0.170357, 16.9693, 21.72, 17.7054, 1.16015, 4.12051, -0.0292249, 6.89707e-05, -0.00089925, 0.00117668, 0.00141632, -0.00502516, 0.00137426, 0.0138832, -0.0186128, 0.00388889, 0.0204472, 0.0547314, 0.0596988, -0.0108816, -0.444366, 0.634543, -3.13072, -0.0556715, -0.109398, -0.0107631, -0.443453, 0.633381, -3.12965, -0.0540453, -0.101438, 0.00904028, 0.013309, -0.0189781, -0.00440462, -0.00581802, -0.016204
0.0873247, 0.107562, -0.77447, -0.91841, -1.45963, -0.627512, 1.06992, -0.256703, 0.00281457, 0.000231229, -0.0273838, -0.031993, -0.0341961, -4.49677e-05, 0.00093154, 0.0949785, 17.005, 21.7954, 17.6697, 1.17206, 4.10586, -0.0484509, 5.21619e-05, -0.000877246, 0.00117689, 0.00140162, -0.00511777, 0.00139982, 0.0159566, -0.0203788, 0.00257002, 0.0186848, 0.0550418, 0.0570916, -0.0108725, -0.444352, 0.634524, -3.13068, -0.0556761, -0.10947, -0.0107699, -0.443462, 0.63336, -3.12962, -0.0540105, -0.101366, 0.00927346, 0.0136191, -0.0194438, -0.00608339, -0.00733312, -0.0181445
0.0883247, 0.107565, -0.774464, -0.918447, -1.45967, -0.627547, 1.06992, -0.256703, 0.00186898, 0.00187873, -0.0253129, -0.0344798, -0.0354855, 0.000771928, 0.00146012, 0.0949785, 16.9296, 21.8708, 17.7054, 1.18396, 4.08389, -0.0685925, 3.60023e-05, -0.00085493, 0.00117806, 0.00138733, -0.005223, 0.00142421, 0.0150729, -0.0203581, 0.0030523, 0.0210339, 0.058954, 0.0596806, -0.0108631, -0.444339, 0.634504, -3.13064, -0.0556808, -0.109544, -0.0107757, -0.443472, 0.633338, -3.1296, -0.0539777, -0.101277, 0.00950935, 0.0139315, -0.0199139, -0.00500091, -0.00697364, -0.0180732
0.0893247, 0.107573, -0.774454, -0.918473, -1.4597, -0.627578, 1.06993, -0.256708, 0.00207565, 0.00465716, -0.0263666, -0.0343774, -0.0362183, 0.000743056, -0.000414823, 0.059273, 16.7828, 21.7954, 17.6697, 1.19037, 4.07748, -0.0292249, 2.69275e-05, -0.00083489, 0.00117572, 0.00136793, -0.00533169, 0.00142975, 0.0148636, -0.0208919, 0.00337364, 0.0218346, 0.0624633, 0.062393, -0.0108534, -0.444325, 0.634484, -3.13059, -0.0556856, -0.10962, -0.0107745, -0.443478, 0.633319, -3.12958, -0.0539742, -0.101184, 0.00974794, 0.0142462, -0.0203885, -0.0045569, -0.00718836, -0.0182181
0.0903247, 0.107585, -0.774452, -0.91851, -1.45974, -0.627606, 1.06993, -0.256705, 0.00407087, 0.00308303, -0.0299814, -0.0345331, -0.0315649, 0.00048868, -0.000224177, -0.0557783, 16.7828, 21.8311, 17.634, 1.18396, 4.07748, -0.0292249, 1.40146e-05, -0.000812652, 0.00117604, 0.00135619, -0.00543204, 0.00144611, 0.0149249, -0.0213925, 0.00265193, 0.0178264, 0.0579636, 0.0656164, -0.0108436, -0.44431, 0.634463, -3.13054, -0.0556906, -0.109698, -0.0107766, -0.443486, 0.633297, -3.12955, -0.0539542, -0.101105, 0.00998923, 0.0145631, -0.0208674, -0.00430842, -0.0073669, -0.0194267
0.0913247, 0.107593, -0.774451, -0.918547, -1.45978, -0.627633, 1.06993, -0.256701, 0.009843, 0.00203904, -0.0318348, -0.0331503, -0.0287711, 0.00113457, 0.000873171, -0.0914839, 16.7828, 21.8311, 17.6697, 1.19678, 4.05551, -0.0557752, -3.24803e-07, -0.00078997, 0.00117653, 0.00134355, -0.00553161, 0.00146572, 0.0131792, -0.0221169, 0.0028883, 0.0172145, 0.0539023, 0.0713772, -0.0108335, -0.444295, 0.634442, -3.13049, -0.0556957, -0.109777, -0.0107799, -0.443494, 0.633274, -3.12952, -0.0539293, -0.101029, 0.0102332, 0.0148823, -0.0213508, -0.00231465, -0.00771269, -0.0195588
0.0923247, 0.107601, -0.774449, -0.918589, -1.45982, -0.627661, 1.06993, -0.256702, 0.00708441, 0.00218235, -0.0342039, -0.0374948, -0.0262117, 0.00129515, 0.000102947, -0.0914839, 16.7471, 21.8708, 17.6697, 1.19678, 4.04086, -0.0420422, -1.60659e-05, -0.000766043, 0.00117843, 0.0013345, -0.00563612, 0.00148432, 0.0139236, -0.0222696, 0.00149919, 0.0134179, 0.0551309, 0.0729455, -0.0108231, -0.44428, 0.634421, -3.13044, -0.0557009, -0.109858, -0.0107842, -0.443504, 0.63325, -3.12949, -0.0539063, -0.100947, 0.0104799, 0.0152035, -0.0218384, -0.00270749, -0.00755659, -0.0214873
0.0933247, 0.107609, -0.774449, -0.918628, -1.45985, -0.627686, 1.06993, -0.256706, 0.00604276, 0.00144572, -0.0339695, -0.0368284, -0.0241247, 0.0016405, -0.00109607, -0.131157, 16.7471, 21.8311, 17.634, 1.19037, 4.0198, -0.00999879, -3.19942e-05, -0.000743246, 0.00117779, 0.00132335, -0.00573562, 0.00149812, 0.0144491, -0.0223885, 0.00231542, 0.0143017, 0.0523846, 0.0758536, -0.0108125, -0.444265, 0.634399, -3.13039, -0.0557063, -0.109941, -0.0107886, -0.443512, 0.633227, -3.12946, -0.0538908, -0.100875, 0.0107292, 0.0155269, -0.0223304, -0.00303479, -0.00737876, -0.0212046
0.0943247, 0.107614, -0.774443, -0.918669, -1.4599, -0.627711, 1.06993, -0.256707, 0.00654031, 0.00272017, -0.0348631, -0.0370172, -0.0230208, 0.00109155, -2.06539e-06, -0.0914839, 16.6718, 21.8311, 17.634, 1.19678, 4.0198, -0.0292249, -4.78871e-05, -0.000719952, 0.00117858, 0.00131495, -0.00584494, 0.00151733, 0.0141627, -0.0226194, 0.00250436, 0.0136976, 0.0534637, 0.0771227, -0.0108016, -0.444249, 0.634376, -3.13034, -0.0557118, -0.110026, -0.0107927, -0.44352, 0.633202, -3.12942, -0.0538672, -0.10079, 0.0109812, 0.0158524, -0.0228265, -0.00250218, -0.007276, -0.0214958
0.0953247, 0.107632, -0.774443, -0.918715, -1.45994, -0.627736, 1.06993, -0.256703, 0.0106713, 0.00180829, -0.0355788, -0.038072, -0.0223907, 0.00177728, 0.000723128, -0.206535, 16.6718, 21.8311, 17.6697, 1.20868, 3.99142, -0.0484509, -6.03294e-05, -0.000694651, 0.00118193, 0.00130898, -0.0059523, 0.00153076, 0.0126605, -0.0231874, 0.00239835, 0.013604, 0.0526884, 0.0827658, -0.0107905, -0.444233, 0.634353, -3.13029, -0.0557175, -0.110113, -0.0107928, -0.443529, 0.633175, -3.12938, -0.0538528, -0.100709, 0.0112358, 0.0161798, -0.0233269, -0.000722105, -0.00746226, -0.0220024
0.0963247, 0.107638, -0.774438, -0.918759, -1.45999, -0.627762, 1.06993, -0.256709, 0.00994688, 0.00287209, -0.0352456, -0.0379119, -0.0221671, 0.00145493, -0.000932747, -0.166862, 16.6003, 21.7954, 17.6697, 1.22699, 3.9841, -0.00999879, -7.61414e-05, -0.000669238, 0.00118335, 0.00129808, -0.00606456, 0.00154413, 0.0128077, -0.023321, 0.00310183, 0.0146491, 0.0538222, 0.0859312, -0.0107792, -0.444217, 0.634329, -3.13024, -0.0557233, -0.110202, -0.0107961, -0.443539, 0.633149, -3.12935, -0.0538386, -0.100623, 0.011493, 0.0165093, -0.0238314, -0.000656112, -0.00727882, -0.0218185
0.0973247, 0.107648, -0.774443, -0.918809, -1.46003, -0.627785, 1.06994, -0.256704, 0.0104841, 0.000241388, -0.0390063, -0.0371274, -0.0219436, 0.00229149, 0.000334595, -0.166862, 16.6718, 21.7954, 17.634, 1.2453, 3.94839, -0.0356336, -9.56251e-05, -0.000642866, 0.00118569, 0.00129244, -0.0061656, 0.00157003, 0.0148436, -0.0246096, 0.00276255, 0.0140542, 0.0504793, 0.0840287, -0.0107676, -0.4442, 0.634305, -3.13018, -0.0557293, -0.110292, -0.0108027, -0.443549, 0.633121, -3.1293, -0.0538051, -0.100555, 0.0117529, 0.0168407, -0.0243401, -0.00235572, -0.00830364, -0.0228211
0.0983247, 0.107663, -0.774441, -0.918865, -1.46007, -0.627807, 1.06994, -0.256708, 0.0127181, 0.000993966, -0.0467697, -0.0406261, -0.0217072, 0.00261206, -0.00146711, -0.242241, 16.636, 21.8708, 17.634, 1.26453, 3.9191, 0.0101428, -0.000111555, -0.000614551, 0.00118957, 0.00128799, -0.00627458, 0.00158411, 0.0155656, -0.0262788, 1.00428e-05, 0.00815242, 0.0537429, 0.0860532, -0.0107557, -0.444183, 0.634281, -3.13012, -0.0557354, -0.110385, -0.0108053, -0.443561, 0.633091, -3.12926, -0.0537903, -0.100478, 0.0120154, 0.017174, -0.0248528, -0.0025596, -0.00963576, -0.0261455
0.0993247, 0.107667, -0.774436, -0.918913, -1.46012, -0.627831, 1.06994, -0.2567, 0.0107262, 0.00233145, -0.0433329, -0.0421256, -0.0215598, 0.0030633, 0.00170462, -0.166862, 16.5646, 21.8311, 17.5943, 1.28284, 3.88339, -0.0621838, -0.000129827, -0.000588289, 0.00119111, 0.0012798, -0.00639215, 0.00161611, 0.0147863, -0.0258256, 0.00121832, 0.0111248, 0.0557598, 0.0863504, -0.0107435, -0.444166, 0.634256, -3.13007, -0.0557417, -0.110479, -0.0108103, -0.44357, 0.633063, -3.12922, -0.0537477, -0.100388, 0.0122806, 0.0175091, -0.0253696, -0.00161862, -0.0088327, -0.0254008
0.100325, 0.107676, -0.774433, -0.918962, -1.46017, -0.627852, 1.06995, -0.256705, 0.0103478, 0.00248109, -0.0410918, -0.0492058, -0.0208853, 0.00309298, -0.000556058, -0.131157, 16.525, 21.7954, 17.6697, 1.28833, 3.85501, -0.0164075, -0.00014426, -0.000561611, 0.00119434, 0.00127354, -0.00650875, 0.00162464, 0.0128295, -0.0251881, 0.000254911, 0.00940058, 0.0601045, 0.0959186, -0.0107311, -0.444148, 0.63423, -3.13001, -0.0557481, -0.110576, -0.010811, -0.44358, 0.633033, -3.12918, -0.0537418, -0.100303, 0.0125483, 0.0178461, -0.0258904, 0.000644827, -0.00777973, -0.0267415
0.101325, 0.107684, -0.774426, -0.919015, -1.46022, -0.627873, 1.06995, -0.256708, 0.00691531, 0.00332358, -0.0434335, -0.0486915, -0.0216244, 0.00311287, -0.000368493, -0.0914839, 16.4536, 21.7954, 17.634, 1.32587, 3.82663, -0.0164075, -0.000161184, -0.000533828, 0.00119647, 0.00126708, -0.0066279, 0.00164321, 0.0153405, -0.0259716, 0.000435542, 0.00984116, 0.0614547, 0.0919391, -0.0107184, -0.44413, 0.634204, -3.12995, -0.0557547, -0.110674, -0.010814, -0.44359, 0.633003, -3.12913, -0.0537205, -0.100215, 0.0128186, 0.0181849, -0.0264151, -0.00157237, -0.00831445, -0.0272722
0.102325, 0.107691, -0.774417, -0.919067, -1.46028, -0.627892, 1.06996, -0.256707, 0.00762719, 0.00481349, -0.0475182, -0.0507651, -0.016466, 0.00288883, 0.000468074, -0.0557783, 16.3425, 21.7597, 17.7054, 1.33777, 3.80466, -0.0356336, -0.000175735, -0.000506936, 0.0012001, 0.00126434, -0.00675485, 0.00166035, 0.0147244, -0.02631, -0.000798232, 0.00465827, 0.0609038, 0.0942807, -0.0107055, -0.444112, 0.634177, -3.12989, -0.0557614, -0.110774, -0.0108142, -0.443599, 0.632972, -3.12908, -0.0537018, -0.100117, 0.0130915, 0.0185254, -0.0269437, -0.000585931, -0.00827749, -0.028993
0.103325, 0.107703, -0.774413, -0.919117, -1.46033, -0.627911, 1.06996, -0.256708, 0.00587822, 0.00404369, -0.0513663, -0.0537606, -0.016828, 0.00246827, 7.59343e-05, -0.0557783, 16.3068, 21.7597, 17.7054, 1.33777, 3.79001, -0.0292249, -0.000189237, -0.000480045, 0.00120295, 0.00126099, -0.00687905, 0.00166969, 0.0167181, -0.0271247, -0.00225959, 0.00139511, 0.0629533, 0.0934322, -0.0106922, -0.444093, 0.63415, -3.12983, -0.0557683, -0.110876, -0.0108132, -0.443607, 0.63294, -3.12903, -0.0536954, -0.100025, 0.0133669, 0.0188676, -0.0274763, -0.00216522, -0.00880419, -0.0311335
0.104325, 0.10771, -0.77441, -0.919161, -1.46039, -0.62793, 1.06996, -0.25671, 0.00674052, 0.00591696, -0.0483425, -0.0558043, -0.0181066, 0.00242528, -0.00164386, -0.0161054, 16.3068, 21.6446, 17.7054, 1.36249, 3.76895, 0.0165515, -0.000203378, -0.000453886, 0.00120408, 0.00125337, -0.00700287, 0.00167765, 0.0148807, -0.026862, -0.00142497, 0.00386512, 0.0672427, 0.100822, -0.0106787, -0.444074, 0.634122, -3.12976, -0.0557754, -0.110981, -0.0108127, -0.443615, 0.63291, -3.12898, -0.0536911, -0.0999363, 0.0136449, 0.0192114, -0.0280126, -0.000123492, -0.00814184, -0.0307076
0.105325, 0.10771, -0.774404, -0.919221, -1.46045, -0.627949, 1.06996, -0.256702, 0.00260442, 0.00514083, -0.054646, -0.0589785, -0.0183608, 0.00188803, 0.00131229, 0.0949785, 16.2671, 21.7597, 17.7808, 1.3689, 3.76163, -0.0484509, -0.000223682, -0.000425525, 0.00121113, 0.00125932, -0.00713759, 0.00171106, 0.018683, -0.0280434, -0.00356539, -0.00105098, 0.0694738, 0.0925468, -0.0106649, -0.444055, 0.634094, -3.1297, -0.0557826, -0.111087, -0.0108176, -0.443625, 0.632873, -3.12892, -0.0536481, -0.0998313, 0.0139255, 0.0195569, -0.0285528, -0.0034391, -0.00908808, -0.0336651
0.106325, 0.107716, -0.774396, -0.919265, -1.46051, -0.627964, 1.06996, -0.256702, 0.00447747, 0.00765005, -0.0517062, -0.0581443, -0.0136509, 0.00230978, 0.000638024, 0.134651, 16.2314, 21.6843, 17.7054, 1.3689, 3.73324, -0.0420422, -0.000236438, -0.000399241, 0.0012107, 0.00124933, -0.00726642, 0.00171996, 0.0156096, -0.0273941, -0.00184256, 0.000713202, 0.067769, 0.101246, -0.0106509, -0.444035, 0.634065, -3.12963, -0.05579, -0.111195, -0.0108152, -0.443631, 0.632844, -3.12888, -0.0536426, -0.0997388, 0.0142086, 0.019904, -0.0290967, -0.000236955, -0.00800208, -0.0322697
0.107325, 0.107724, -0.774394, -0.919318, -1.46058, -0.627982, 1.06997, -0.256711, 0.00457336, 0.00778561, -0.0514653, -0.0610436, -0.0149066, 0.010305, -0.00126968, 0.0949785, 16.2671, 21.6843, 17.7808, 1.3689, 3.74698, 0.00373412, -0.00025211, -0.000371359, 0.00121549, 0.00125004, -0.00739931, 0.00172229, 0.0145046, -0.0290955, -0.00138858, 0.00777969, 0.0669419, 0.106465, -0.0106365, -0.444015, 0.634036, -3.12957, -0.0557975, -0.111306, -0.0108151, -0.44364, 0.632808, -3.12882, -0.053648, -0.0996414, 0.0144943, 0.0202526, -0.0296444, 0.00117965, -0.00931954, -0.0323027
0.108325, 0.10772, -0.774384, -0.919362, -1.46063, -0.628001, 1.06996, -0.256707, 0.00399641, 0.00743184, -0.0502788, -0.0596605, -0.0166614, 0.00788018, -0.00033753, 0.21003, 16.1957, 21.6446, 17.7054, 1.3927, 3.74057, -0.00999879, -0.000271133, -0.000344922, 0.00121296, 0.00123809, -0.00753542, 0.00174948, 0.0156334, -0.0290375, -0.000255937, 0.00909848, 0.0684212, 0.106438, -0.0106219, -0.443995, 0.634006, -3.1295, -0.0558053, -0.111418, -0.0108185, -0.443646, 0.632779, -3.12877, -0.0536145, -0.0995415, 0.0147825, 0.0206027, -0.0301957, 0.000260603, -0.00896358, -0.0318072
0.109325, 0.107723, -0.774381, -0.919402, -1.4607, -0.628015, 1.06996, -0.256701, 0.00329769, 0.00680583, -0.0446041, -0.062352, -0.0167528, 0.00559568, 0.00147062, 0.21003, 16.2671, 21.5336, 17.7808, 1.38721, 3.74698, -0.0557752, -0.000284497, -0.00031989, 0.0012127, 0.00123154, -0.00767015, 0.00175963, 0.0142699, -0.0277008, 0.00091234, 0.0104274, 0.0707544, 0.111732, -0.010607, -0.443974, 0.633975, -3.12943, -0.0558132, -0.111532, -0.010816, -0.443651, 0.632748, -3.12872, -0.0536079, -0.0994457, 0.0150731, 0.0209542, -0.0307507, 0.00177977, -0.00724092, -0.0310914
0.110325, 0.107726, -0.774376, -0.919443, -1.46075, -0.628031, 1.06996, -0.256708, 0.0018383, 0.0113737, -0.0423072, -0.0606408, -0.0176301, 0.0044025, -0.000240122, 0.245735, 16.2671, 21.4979, 17.7054, 1.39911, 3.74057, -0.0228162, -0.00029961, -0.000293436, 0.00121011, 0.00121875, -0.00780435, 0.00176278, 0.0137107, -0.0274443, 0.00278274, 0.0137439, 0.0755909, 0.114574, -0.0105917, -0.443953, 0.633944, -3.12936, -0.0558213, -0.111649, -0.010815, -0.443657, 0.632718, -3.12867, -0.0536121, -0.0993533, 0.0153663, 0.0213072, -0.0313093, 0.00248852, -0.00663256, -0.0297453
0.111325, 0.107726, -0.774365, -0.919481, -1.46082, -0.628046, 1.06996, -0.256708, 0.00158183, 0.0124464, -0.040519, -0.062188, -0.018061, 0.00326102, -0.0011433, 0.245735, 16.2314, 21.4582, 17.7451, 1.40552, 3.74057, 0.00373412, -0.000312277, -0.000268104, 0.00120727, 0.0012056, -0.00794868, 0.00176909, 0.013078, -0.027151, 0.00335398, 0.0144294, 0.0787348, 0.119336, -0.0105762, -0.443931, 0.633913, -3.12929, -0.0558295, -0.111768, -0.0108113, -0.443661, 0.632688, -3.12862, -0.0536116, -0.0992471, 0.015662, 0.0216616, -0.0318714, 0.00336378, -0.00596932, -0.0296928
0.112325, 0.107724, -0.774358, -0.91952, -1.46089, -0.628061, 1.06996, -0.256701, 0.00132177, 0.00927046, -0.0408961, -0.0630366, -0.0139176, 0.00296106, 0.00144194, 0.245735, 16.2314, 21.4979, 17.7808, 1.41742, 3.72592, -0.0557752, -0.000327149, -0.000241801, 0.00120533, 0.00119284, -0.00809253, 0.00178588, 0.0135901, -0.0270439, 0.00343897, 0.0125107, 0.0733955, 0.12082, -0.0105604, -0.443909, 0.63388, -3.12921, -0.055838, -0.111888, -0.0108094, -0.443666, 0.632657, -3.12857, -0.0535951, -0.0991437, 0.0159602, 0.0220173, -0.0324371, 0.00314167, -0.00552581, -0.0302123
0.113325, 0.107721, -0.774352, -0.919558, -1.46095, -0.628073, 1.06997, -0.256704, 0.0010816, 0.00928618, -0.0378745, -0.0652599, -0.0105928, 0.00269996, 0.000961363, 0.245735, 16.2671, 21.5336, 17.7451, 1.42383, 3.71127, -0.0557752, -0.000343308, -0.000215338, 0.00119992, 0.00117521, -0.00822873, 0.00179449, 0.0119063, -0.0262288, 0.00419221, 0.0126448, 0.0725865, 0.128289, -0.0105443, -0.443887, 0.633848, -3.12914, -0.0558466, -0.112011, -0.0108087, -0.443671, 0.632628, -3.12852, -0.0535913, -0.0990547, 0.0162609, 0.0223744, -0.0330063, 0.00503777, -0.00430358, -0.0299055
0.114325, 0.107717, -0.774346, -0.91959, -1.46101, -0.628091, 1.06997, -0.256709, -0.00321504, 0.00916624, -0.0378077, -0.063794, -0.00922599, 0.00220878, -0.00180044, 0.285408, 16.3068, 21.5336, 17.7054, 1.46045, 3.70395, 0.0101428, -0.000359173, -0.000189374, 0.00119153, 0.00114928, -0.00837006, 0.00179976, 0.014181, -0.02629, 0.00534513, 0.0138587, 0.0709344, 0.128927, -0.0105279, -0.443865, 0.633814, -3.12906, -0.0558554, -0.112136, -0.0108077, -0.443675, 0.632602, -3.12848, -0.0535925, -0.0989603, 0.016564, 0.0227327, -0.033579, 0.00299336, -0.00409996, -0.0294948
0.115325, 0.10771, -0.774338, -0.919614, -1.46107, -0.628104, 1.06997, -0.256708, -0.00322185, 0.00697935, -0.0338373, -0.0658904, -0.00767203, 0.0020843, -0.00120026, 0.325081, 16.3068, 21.4979, 17.6697, 1.48517, 3.69021, 0.0101428, -0.000373074, -0.00016423, 0.00118089, 0.00111728, -0.00850977, 0.00180704, 0.0131163, -0.0255841, 0.00633951, 0.0154208, 0.0690862, 0.135395, -0.0105112, -0.443842, 0.633781, -3.12899, -0.0558644, -0.112263, -0.0108046, -0.443677, 0.632577, -3.12845, -0.0535906, -0.098871, 0.0168696, 0.0230922, -0.034155, 0.0042636, -0.00300917, -0.0289994
0.116325, 0.107706, -0.774337, -0.919641, -1.46113, -0.628116, 1.06997, -0.256701, -0.00226075, 0.00270584, -0.0325597, -0.0661202, -0.00600988, 0.0014669, 0.00164126, 0.325081, 16.4178, 21.5336, 17.7054, 1.49707, 3.69021, -0.0557752, -0.000386824, -0.000139465, 0.00117253, 0.0010932, -0.00864859, 0.0018148, 0.013542, -0.0254836, 0.00699489, 0.0156066, 0.0642407, 0.137652, -0.0104942, -0.443818, 0.633746, -3.12891, -0.0558736, -0.112393, -0.0108009, -0.443679, 0.63255, -3.1284, -0.0535885, -0.0987848, 0.0171776, 0.0234529, -0.0347344, 0.00409663, -0.00257102, -0.0289579
0.117325, 0.107698, -0.774325, -0.919665, -1.4612, -0.628127, 1.06997, -0.256702, -0.00242702, 0.00322046, -0.0314855, -0.0661751, -0.00505945, 0.00130722, 0.000822931, 0.360787, 16.3782, 21.5732, 17.7451, 1.5163, 3.68289, -0.0484509, -0.000398456, -0.000115241, 0.00116232, 0.00106489, -0.00880036, 0.00181646, 0.0132136, -0.0254632, 0.00790148, 0.0168853, 0.0643646, 0.141851, -0.0104768, -0.443795, 0.633711, -3.12883, -0.0558829, -0.112524, -0.0107949, -0.44368, 0.632524, -3.12836, -0.0535959, -0.0986808, 0.017488, 0.0238148, -0.0353172, 0.00466846, -0.00218822, -0.0286157
0.118325, 0.107694, -0.77432, -0.919682, -1.46126, -0.628142, 1.06997, -0.256705, -0.00168149, 0.00251338, -0.0266855, -0.0684914, -0.00874975, 0.000915002, -0.000638157, 0.360787, 16.3782, 21.5732, 17.7451, 1.5282, 3.68289, -0.0164075, -0.000410331, -9.11778e-05, 0.00114874, 0.00102944, -0.00894552, 0.00181053, 0.0121187, -0.0251238, 0.00908937, 0.0210219, 0.0682257, 0.149399, -0.0104592, -0.443771, 0.633676, -3.12875, -0.0558925, -0.112658, -0.0107891, -0.443681, 0.632501, -3.12833, -0.0536151, -0.0985898, 0.0178009, 0.0241778, -0.0359033, 0.00597505, -0.0014618, -0.0279382
0.119325, 0.107685, -0.774314, -0.919707, -1.46132, -0.628152, 1.06997, -0.256705, -0.00293184, 0.00507894, -0.0266016, -0.0630722, -0.00733042, 0.000100105, -0.000425426, 0.436165, 16.3782, 21.72, 17.7054, 1.55292, 3.69754, -0.0164075, -0.00042678, -6.60925e-05, 0.0011355, 0.000998323, -0.00908886, 0.0018183, 0.0130788, -0.0253907, 0.0114487, 0.0241835, 0.0668454, 0.148159, -0.0104412, -0.443746, 0.633639, -3.12867, -0.0559023, -0.112794, -0.0107875, -0.443682, 0.632477, -3.12829, -0.0536133, -0.0985035, 0.0181163, 0.0245419, -0.0364926, 0.00517309, -0.00142657, -0.0262492
0.120325, 0.107682, -0.77431, -0.919721, -1.46138, -0.628162, 1.06997, -0.256701, -0.00115505, 0.00385278, -0.0205513, -0.0630863, -0.0104647, 9.12156e-05, 0.00117445, 0.400459, 16.3782, 21.7597, 17.7054, 1.56482, 3.69754, -0.0557752, -0.000437671, -4.29876e-05, 0.00111974, 0.000962352, -0.00923374, 0.00181522, 0.0116091, -0.0250012, 0.0136826, 0.030418, 0.0680392, 0.153738, -0.0104229, -0.443722, 0.633603, -3.12858, -0.0559122, -0.112932, -0.0107803, -0.443681, 0.632455, -3.12825, -0.0536284, -0.0984174, 0.018434, 0.0249071, -0.0370852, 0.00678047, -0.000647473, -0.0245072
0.121325, 0.107673, -0.774301, -0.919736, -1.46143, -0.628177, 1.06997, -0.256706, -0.00256005, 0.00458907, -0.0167879, -0.0621593, -0.0130103, -0.000158189, -0.000912444, 0.475838, 16.3068, 21.8311, 17.6697, 1.58313, 3.70395, -0.00999879, -0.000452476, -1.78124e-05, 0.00110082, 0.000915491, -0.00938101, 0.00181564, 0.0117969, -0.0248723, 0.0157107, 0.0355751, 0.0703219, 0.157889, -0.0104044, -0.443697, 0.633565, -3.1285, -0.0559224, -0.113072, -0.0107768, -0.443682, 0.632435, -3.12822, -0.0536379, -0.0983304, 0.0187541, 0.0252732, -0.0376809, 0.00676186, -0.000184296, -0.0230958
0.122325, 0.107668, -0.7743, -0.919751, -1.46149, -0.628189, 1.06997, -0.256707, -0.00395704, 0.00332196, -0.0179247, -0.0609249, -0.0150199, 0.000145669, -0.000879558, 0.436165, 16.3068, 21.9422, 17.7451, 1.60144, 3.69754, -0.00267457, -0.000466716, 7.55391e-06, 0.00108309, 0.000871696, -0.00952385, 0.0018132, 0.0140705, -0.0257903, 0.0164226, 0.0378399, 0.0699396, 0.156323, -0.0103854, -0.443671, 0.633527, -3.12841, -0.0559327, -0.113214, -0.0107723, -0.443682, 0.632413, -3.12819, -0.0536522, -0.0982524, 0.0190766, 0.0256403, -0.0382798, 0.00479893, -0.000824642, -0.0231612
0.123325, 0.107661, -0.7743, -0.919763, -1.46155, -0.6282, 1.06997, -0.256703, -0.00602674, 0.00241158, -0.0178679, -0.0619584, -0.01134, -0.000129919, 0.00161768, 0.436165, 16.3068, 22.0176, 17.7808, 1.60785, 3.70395, -0.0621838, -0.000481441, 3.21345e-05, 0.00106335, 0.000825923, -0.00966546, 0.00181449, 0.0146295, -0.0255578, 0.0167562, 0.0366702, 0.0673136, 0.156419, -0.0103662, -0.443645, 0.633489, -3.12833, -0.0559433, -0.113359, -0.0107682, -0.443682, 0.632393, -3.12816, -0.0536608, -0.0981787, 0.0194015, 0.0260084, -0.0388819, 0.00453311, -0.000249314, -0.0234724
0.124325, 0.107657, -0.774299, -0.919773, -1.4616, -0.62821, 1.06997, -0.2567, -0.0036505, 0.00268344, -0.0138881, -0.0599614, -0.0130611, -7.88675e-05, 0.00155317, 0.400459, 16.2671, 22.0572, 17.8204, 1.60785, 3.70395, -0.0750012, -0.000494632, 5.61096e-05, 0.00104202, 0.00077915, -0.00980841, 0.00181148, 0.0132488, -0.0255279, 0.0190705, 0.0421933, 0.0676987, 0.162369, -0.0103466, -0.443619, 0.633449, -3.12824, -0.0559541, -0.113506, -0.0107623, -0.44368, 0.632374, -3.12813, -0.0536762, -0.0981052, 0.0197288, 0.0263773, -0.039487, 0.00606708, 0.000168874, -0.0216724
0.125325, 0.107646, -0.774295, -0.91978, -1.46166, -0.628225, 1.06997, -0.256706, -0.00361981, 0.00357018, -0.0139711, -0.05982, -0.0106261, -0.000589304, -0.00137205, 0.436165, 16.1957, 22.0929, 17.9315, 1.63257, 3.7186, -0.00999879, -0.000509548, 8.01572e-05, 0.00102024, 0.000728251, -0.00996329, 0.00180425, 0.0128969, -0.0255127, 0.0197107, 0.0419119, 0.0671927, 0.168691, -0.0103267, -0.443593, 0.63341, -3.12815, -0.055965, -0.113655, -0.0107579, -0.443678, 0.632354, -3.1281, -0.0536984, -0.0980156, 0.0200585, 0.0267472, -0.0400951, 0.00669914, 0.000556768, -0.0216199
0.126325, 0.107645, -0.774299, -0.919793, -1.4617, -0.628236, 1.06997, -0.256705, -7.7941e-05, 0.00162798, -0.0119245, -0.0534511, -0.0124821, -0.000117245, 0.00427706, 0.325081, 16.2314, 22.1683, 17.7808, 1.63257, 3.71127, -0.0228162, -0.000527842, 0.000107397, 0.000994318, 0.000670602, -0.0100935, 0.00180763, 0.0131787, -0.0263004, 0.0227419, 0.0488494, 0.0625166, 0.166349, -0.0103065, -0.443566, 0.633369, -3.12806, -0.0559762, -0.113807, -0.0107567, -0.443679, 0.632338, -3.12808, -0.0537039, -0.0979671, 0.0203905, 0.0271178, -0.0407063, 0.00655762, 9.14517e-05, -0.0192397
0.127325, 0.107636, -0.774302, -0.919803, -1.46176, -0.628246, 1.06996, -0.256699, -0.00247836, 0.00114763, -0.0134915, -0.0530456, -0.00951019, -0.000888698, 0.00517724, 0.285408, 16.2314, 22.2437, 17.9315, 1.63898, 3.73324, -0.0750012, -0.000544097, 0.000132289, 0.000973297, 0.000623499, -0.0102423, 0.00180956, 0.014774, -0.0264446, 0.0230542, 0.0473843, 0.060247, 0.16544, -0.010286, -0.443538, 0.633328, -3.12796, -0.0559876, -0.113961, -0.0107529, -0.443678, 0.632317, -3.12804, -0.0537124, -0.0978914, 0.0207248, 0.0274892, -0.0413204, 0.00528259, 0.000256494, -0.0196639
0.128325, 0.107626, -0.774308, -0.919804, -1.46181, -0.628259, 1.06996, -0.256704, -0.00113535, -2.33938e-05, -0.00880475, -0.0520817, -0.0117414, -0.000590015, 0.00205089, 0.245735, 16.2671, 22.204, 17.9315, 1.63898, 3.73324, -0.0292249, -0.000561641, 0.000157314, 0.000944986, 0.000559151, -0.0103816, 0.0018021, 0.0139247, -0.0263234, 0.0252682, 0.0531938, 0.0600977, 0.1743, -0.0102651, -0.443511, 0.633287, -3.12787, -0.0559992, -0.114117, -0.0107505, -0.443676, 0.632302, -3.12802, -0.053735, -0.0978339, 0.0210615, 0.0278614, -0.0419374, 0.00629867, 0.000750181, -0.0180137
0.129325, 0.107622, -0.774314, -0.919812, -1.46186, -0.628271, 1.06996, -0.2567, 0.00153321, -0.000908565, -0.0073517, -0.0513762, -0.0136465, -0.000120238, 0.00182573, 0.134651, 16.3068, 22.2437, 17.9315, 1.64447, 3.72592, -0.0356336, -0.000579638, 0.000184266, 0.000917988, 0.000498236, -0.0105204, 0.00180423, 0.0133152, -0.0268323, 0.0264733, 0.0567184, 0.060226, 0.179419, -0.0102438, -0.443483, 0.633244, -3.12777, -0.056011, -0.114275, -0.0107481, -0.443676, 0.632285, -3.128, -0.053743, -0.0977792, 0.0214005, 0.0282343, -0.0425574, 0.00717384, 0.000618623, -0.0173963
0.130325, 0.107612, -0.774319, -0.919821, -1.46191, -0.628283, 1.06996, -0.256698, -0.000593087, -0.000579422, -0.00615174, -0.0507742, -0.0147369, -0.000621315, 0.00162035, 0.059273, 16.3068, 22.2794, 17.9315, 1.63898, 3.74057, -0.0420422, -0.000600483, 0.000211199, 0.000890374, 0.000437316, -0.0106633, 0.00181004, 0.0144638, -0.0269594, 0.0276905, 0.059239, 0.0614691, 0.179984, -0.0102223, -0.443454, 0.633201, -3.12768, -0.0560231, -0.114436, -0.0107483, -0.443675, 0.632267, -3.12797, -0.0537457, -0.0977204, 0.0217418, 0.0286079, -0.0431802, 0.00628404, 0.000806812, -0.0168946
0.131325, 0.107609, -0.774326, -0.919829, -1.46196, -0.628293, 1.06996, -0.256695, -0.00126734, -0.00429646, -0.00751345, -0.0514134, -0.0107976, -0.000141909, 0.00195059, -0.0557783, 16.3425, 22.2794, 17.9672, 1.63257, 3.73324, -0.0621838, -0.00061741, 0.000238511, 0.000863473, 0.000377072, -0.0108066, 0.00180679, 0.015677, -0.0272353, 0.0276885, 0.0576331, 0.055308, 0.182587, -0.0102004, -0.443425, 0.633158, -3.12758, -0.0560353, -0.114599, -0.0107441, -0.443675, 0.632249, -3.12795, -0.0537626, -0.0976633, 0.0220854, 0.0289822, -0.0438058, 0.0054262, 0.000859843, -0.0176183
0.132325, 0.107602, -0.774326, -0.919836, -1.46202, -0.628305, 1.06996, -0.256703, -0.00281999, -0.00134417, -0.00860421, -0.0535028, -0.0123402, -9.38303e-05, -0.00104773, -0.131157, 16.2671, 22.2794, 18.0783, 1.62067, 3.73324, 0.00373412, -0.000633222, 0.000265363, 0.000837122, 0.000317416, -0.0109631, 0.00179437, 0.0160019, -0.0277461, 0.0275647, 0.0579858, 0.0610966, 0.185946, -0.0101781, -0.443396, 0.633114, -3.12748, -0.0560478, -0.114764, -0.0107384, -0.443673, 0.63223, -3.12792, -0.0537942, -0.097588, 0.0224314, 0.029357, -0.0444342, 0.00547336, 0.000711675, -0.0184036
0.133325, 0.107594, -0.774335, -0.91985, -1.46207, -0.628316, 1.06996, -0.256698, -0.00708229, -0.00517069, -0.00812701, -0.0548556, -0.00950064, -0.000570598, 0.000829537, -0.206535, 16.3068, 22.3548, 18.0426, 1.62616, 3.74698, -0.0356336, -0.000656399, 0.000293664, 0.000810341, 0.00026141, -0.0111098, 0.00180319, 0.0184138, -0.0274818, 0.0279018, 0.0570855, 0.0564953, 0.18468, -0.0101555, -0.443367, 0.633069, -3.12738, -0.0560605, -0.114932, -0.0107398, -0.443673, 0.63221, -3.12788, -0.0537931, -0.09753, 0.0227796, 0.0297325, -0.0450654, 0.00338109, 0.00125886, -0.018878
0.134325, 0.107586, -0.774331, -0.919857, -1.46213, -0.628323, 1.06996, -0.256702, -0.00577075, -0.00355464, -0.00496072, -0.058519, -0.00601757, -0.00065123, -0.000615208, -0.206535, 16.16, 22.3151, 18.118, 1.59595, 3.7543, -0.00267457, -0.000671506, 0.000320135, 0.000781956, 0.000201456, -0.0112696, 0.001794, 0.0152093, -0.0265847, 0.0283422, 0.0566908, 0.0580854, 0.195817, -0.0101325, -0.443337, 0.633024, -3.12728, -0.0560735, -0.115102, -0.0107329, -0.44367, 0.632191, -3.12785, -0.0538202, -0.0974542, 0.0231301, 0.0301084, -0.0456993, 0.00685807, 0.00263615, -0.0188321
0.135325, 0.107585, -0.774341, -0.919863, -1.46218, -0.628334, 1.06996, -0.256698, -0.0042548, -0.00293181, -0.00518245, -0.0565123, -0.00505461, -0.000433826, 0.00183326, -0.357292, 16.16, 22.2437, 18.0069, 1.60785, 3.7543, -0.0621838, -0.000690606, 0.000348878, 0.000750734, 0.000133419, -0.0114131, 0.00179123, 0.0149384, -0.0270621, 0.0295542, 0.0585929, 0.0569029, 0.196593, -0.0101092, -0.443306, 0.632978, -3.12717, -0.0560866, -0.115274, -0.0107298, -0.44367, 0.632174, -3.12783, -0.0538371, -0.0974068, 0.0234829, 0.0304849, -0.0463358, 0.00740649, 0.00252648, -0.0182495
0.136325, 0.10758, -0.774349, -0.91988, -1.46224, -0.628346, 1.06996, -0.256701, -0.00285377, -0.0045476, -0.00798899, -0.0599629, -0.00826985, -0.000288972, -0.000206373, -0.392998, 16.1203, 22.2794, 18.0783, 1.60144, 3.7543, -0.0228162, -0.000711683, 0.00037904, 0.000725815, 7.75519e-05, -0.0115719, 0.00178881, 0.015939, -0.0282078, 0.028293, 0.0573864, 0.0603578, 0.200597, -0.0100856, -0.443276, 0.632931, -3.12707, -0.0561, -0.115449, -0.0107278, -0.44367, 0.632151, -3.12779, -0.0538543, -0.0973371, 0.0238379, 0.0308619, -0.046975, 0.00689575, 0.00173676, -0.0202371
0.137325, 0.107576, -0.774358, -0.919893, -1.4623, -0.628351, 1.06996, -0.256702, -0.00391848, -0.00584516, -0.0083134, -0.0583916, -0.00536078, 7.88033e-05, -0.000861431, -0.468376, 16.0846, 22.2437, 18.118, 1.57764, 3.74698, -0.00267457, -0.000730097, 0.000408197, 0.000699197, 2.06243e-05, -0.0117241, 0.00177887, 0.0169382, -0.0284563, 0.0293721, 0.0582685, 0.0559769, 0.203007, -0.0100616, -0.443245, 0.632884, -3.12696, -0.0561137, -0.115626, -0.0107229, -0.443669, 0.632128, -3.12775, -0.0538833, -0.0972802, 0.0241952, 0.0312393, -0.0476168, 0.00618412, 0.00181318, -0.0198843
0.138325, 0.107569, -0.77436, -0.919904, -1.46235, -0.62836, 1.06995, -0.256698, -0.00650689, -0.0043069, -0.00764341, -0.0567876, -0.00412073, 5.26735e-05, 0.000663018, -0.468376, 15.9378, 22.1683, 18.0069, 1.57764, 3.74698, -0.0356336, -0.000750636, 0.000437328, 0.000668227, -4.36899e-05, -0.0118837, 0.00178307, 0.0178105, -0.0285312, 0.030866, 0.0605413, 0.055809, 0.201652, -0.0100372, -0.443213, 0.632836, -3.12686, -0.0561275, -0.115806, -0.0107201, -0.443668, 0.632109, -3.12772, -0.0538905, -0.0972145, 0.0245547, 0.0316171, -0.0482612, 0.00556405, 0.0020622, -0.0191096
0.139325, 0.10756, -0.774375, -0.919917, -1.46242, -0.628369, 1.06995, -0.2567, -0.00515658, -0.00448481, -0.00816423, -0.0592823, -0.00315731, 3.52192e-05, -2.02542e-05, -0.468376, 15.9735, 22.1287, 18.0426, 1.57764, 3.74698, -0.0228162, -0.000773733, 0.000467067, 0.000642099, -0.000100434, -0.012041, 0.00177817, 0.0170603, -0.0287573, 0.0305817, 0.0594758, 0.0569015, 0.207514, -0.0100124, -0.443182, 0.632787, -3.12675, -0.0561417, -0.115988, -0.0107192, -0.443667, 0.632084, -3.12768, -0.0539123, -0.0971544, 0.0249165, 0.0319953, -0.0489081, 0.00669971, 0.0022416, -0.019992
0.140325, 0.10756, -0.774377, -0.91994, -1.46249, -0.628376, 1.06995, -0.256705, -0.00228848, -0.00246647, -0.0135232, -0.0592193, -0.00241249, 0.000803451, -0.00169959, -0.543754, 15.791, 22.1683, 18.0069, 1.57764, 3.72592, 0.0229602, -0.000791788, 0.000499314, 0.000617149, -0.000154548, -0.0122087, 0.00176759, 0.0170285, -0.0302352, 0.029816, 0.0575412, 0.0585148, 0.210788, -0.00998734, -0.443149, 0.632738, -3.12664, -0.056156, -0.116172, -0.0107127, -0.443668, 0.632058, -3.12763, -0.0539434, -0.0970805, 0.0252805, 0.0323738, -0.0495576, 0.00720265, 0.00115152, -0.0214241
0.141325, 0.107554, -0.774391, -0.919954, -1.46255, -0.628383, 1.06996, -0.256699, -0.00198614, -0.00544879, -0.0169238, -0.0601545, -0.00628758, 0.00134949, 0.000806727, -0.543754, 15.791, 22.0572, 17.8918, 1.57123, 3.70395, -0.0292249, -0.000814514, 0.000530735, 0.000587798, -0.000218838, -0.0123643, 0.00177007, 0.0197321, -0.0318013, 0.0291976, 0.0580176, 0.0592933, 0.207151, -0.00996188, -0.443117, 0.632688, -3.12652, -0.0561706, -0.116359, -0.0107108, -0.443668, 0.632035, -3.1276, -0.053954, -0.0970284, 0.0256467, 0.0327526, -0.0502094, 0.00497428, -0.000125129, -0.0229169
0.142325, 0.107547, -0.774408, -0.919973, -1.46263, -0.628389, 1.06995, -0.256698, -0.00250468, -0.00837722, -0.0151205, -0.0682607, -0.00475525, 0.00113707, 0.00078043, -0.508049, 15.8267, 22.0176, 17.9315, 1.57123, 3.69754, -0.0356336, -0.000837862, 0.00056158, 0.00056461, -0.000266927, -0.0125287, 0.00176357, 0.0186504, -0.0311411, 0.0278015, 0.0548331, 0.0608557, 0.215449, -0.00993605, -0.443084, 0.632638, -3.12641, -0.0561854, -0.116548, -0.0107087, -0.443667, 0.632006, -3.12754, -0.0539795, -0.0969639, 0.0260151, 0.0331317, -0.0508638, 0.00649739, 0.000968098, -0.0248813
0.143325, 0.107544, -0.774412, -0.919991, -1.46269, -0.628395, 1.06996, -0.256704, -0.00424204, -0.00925998, -0.0175373, -0.0675273, -0.00359281, 0.00262304, -0.00140855, -0.543754, 15.6799, 21.8708, 17.8204, 1.57123, 3.64718, 0.0165515, -0.000856607, 0.000593536, 0.000536964, -0.000325679, -0.0127008, 0.00175078, 0.0205614, -0.0321166, 0.0281892, 0.0557212, 0.0582937, 0.216782, -0.00990985, -0.44305, 0.632586, -3.1263, -0.0562005, -0.11674, -0.010702, -0.443666, 0.63198, -3.1275, -0.0540147, -0.0968908, 0.0263857, 0.0335111, -0.0515205, 0.00496746, 0.00029643, -0.0253112
0.144325, 0.107542, -0.774429, -0.920023, -1.46277, -0.6284, 1.06995, -0.2567, -0.00328467, -0.0136064, -0.0238005, -0.0703176, -0.00271219, 0.00174872, -0.000698722, -0.543754, 15.6799, 21.9065, 17.7054, 1.57123, 3.64718, 0.0101428, -0.000882898, 0.00062787, 0.000514375, -0.000371396, -0.012865, 0.001754, 0.0231598, -0.0333662, 0.0259991, 0.0498191, 0.0561703, 0.216663, -0.00988328, -0.443017, 0.632535, -3.12618, -0.0562158, -0.116934, -0.010702, -0.443668, 0.631948, -3.12744, -0.0540258, -0.0968314, 0.0267585, 0.0338906, -0.0521796, 0.00295654, -0.000637151, -0.0283693
0.145325, 0.107535, -0.774442, -0.920043, -1.46285, -0.628406, 1.06996, -0.256697, -0.00336748, -0.0150079, -0.0209419, -0.0741911, -0.00272403, 0.00170836, 0.00123182, -0.508049, 15.6046, 21.7597, 17.6697, 1.58954, 3.63254, -0.0356336, -0.00090547, 0.000660368, 0.000490384, -0.000423816, -0.0130407, 0.00174994, 0.0222415, -0.0329506, 0.0262654, 0.050625, 0.0575509, 0.221354, -0.00985633, -0.442983, 0.632482, -3.12606, -0.0562314, -0.11713, -0.0106981, -0.443668, 0.631918, -3.12739, -0.0540483, -0.0967571, 0.0271335, 0.0342704, -0.052841, 0.00420921, 0.000183605, -0.0286984
0.146325, 0.107536, -0.774463, -0.920072, -1.46294, -0.628406, 1.06996, -0.2567, -0.00166663, -0.0148001, -0.0277389, -0.0770304, -0.00243513, 0.00219008, 0.0001108, -0.543754, 15.6046, 21.72, 17.634, 1.60144, 3.60415, -0.0164075, -0.000927371, 0.000693807, 0.000470402, -0.000463585, -0.0132095, 0.00173201, 0.0232759, -0.034534, 0.0241718, 0.0460577, 0.0598055, 0.223139, -0.00982901, -0.442948, 0.632429, -3.12594, -0.0562473, -0.117329, -0.0106928, -0.443668, 0.631882, -3.12732, -0.0540931, -0.0966954, 0.0275107, 0.0346502, -0.0535047, 0.00376698, -0.00102861, -0.0315525
0.147325, 0.107531, -0.774475, -0.920098, -1.46302, -0.62841, 1.06996, -0.256705, -0.00213895, -0.0148649, -0.0303447, -0.0760287, -0.00199451, 0.00173133, -0.00162031, -0.508049, 15.4935, 21.5732, 17.5943, 1.60785, 3.59683, 0.0293689, -0.000949404, 0.000727077, 0.000448124, -0.00050956, -0.0133912, 0.00171759, 0.024855, -0.0353067, 0.0244215, 0.0456013, 0.0594451, 0.224667, -0.00980131, -0.442913, 0.632375, -3.12582, -0.0562634, -0.117531, -0.0106874, -0.443667, 0.631848, -3.12726, -0.0541325, -0.0966164, 0.02789, 0.0350302, -0.0541706, 0.00257984, -0.00148313, -0.0321046
0.148325, 0.107527, -0.774487, -0.92013, -1.46311, -0.628414, 1.06996, -0.256698, -0.00249847, -0.0120376, -0.0339415, -0.0775167, -0.00142997, 0.00247666, 0.000378792, -0.468376, 15.3864, 21.4979, 17.5189, 1.60785, 3.56112, -0.00999879, -0.000972992, 0.000762806, 0.000426546, -0.000556544, -0.0135733, 0.00172015, 0.0251722, -0.0362603, 0.0238331, 0.0443243, 0.0629347, 0.223153, -0.00977323, -0.442878, 0.63232, -3.1257, -0.0562797, -0.117734, -0.0106831, -0.443669, 0.631813, -3.1272, -0.0541459, -0.0965391, 0.0282715, 0.0354102, -0.0548388, 0.00272168, -0.00206169, -0.0334021
0.149325, 0.107525, -0.774506, -0.920163, -1.46319, -0.628415, 1.06996, -0.256699, -0.00177401, -0.0148738, -0.0335746, -0.0801947, -0.00194406, 0.00219365, 0.000727947, -0.468376, 15.3467, 21.4225, 17.3721, 1.63257, 3.54648, -0.0228162, -0.000998961, 0.000797978, 0.000404444, -0.000599157, -0.0137492, 0.00171338, 0.0255143, -0.0364648, 0.0236772, 0.0440412, 0.0627366, 0.227521, -0.00974476, -0.442843, 0.632265, -3.12558, -0.0562963, -0.117941, -0.0106808, -0.443669, 0.631777, -3.12713, -0.0541742, -0.096474, 0.0286551, 0.0357903, -0.0555092, 0.00278133, -0.00189868, -0.0342641
0.150325, 0.107516, -0.774525, -0.920198, -1.46329, -0.628416, 1.06996, -0.256706, -0.00302718, -0.0161544, -0.0333301, -0.0866573, -0.00203063, -0.00185544, -0.00168431, -0.392998, 15.2753, 21.3471, 17.4078, 1.65088, 3.51077, 0.0357776, -0.00102513, 0.000833711, 0.000386589, -0.00063713, -0.0139346, 0.00169994, 0.0258477, -0.0356372, 0.0221203, 0.0383468, 0.0681148, 0.234699, -0.00971592, -0.442807, 0.632209, -3.12545, -0.0563132, -0.11815, -0.010678, -0.44367, 0.631736, -3.12706, -0.0542134, -0.0963962, 0.0290408, 0.0361704, -0.0561817, 0.00291951, -0.000683392, -0.0365121
0.151325, 0.107518, -0.774543, -0.920232, -1.46338, -0.628417, 1.06996, -0.256705, -0.00115106, -0.0139664, -0.0353678, -0.0868939, -0.000717894, -0.00162365, -0.000647764, -0.43267, 15.1999, 21.236, 17.2571, 1.63257, 3.51077, 0.0229602, -0.0010489, 0.000869792, 0.000364362, -0.000680824, -0.0141166, 0.00168971, 0.0250357, -0.0362623, 0.0222195, 0.0378021, 0.0698146, 0.237304, -0.00968668, -0.44277, 0.632153, -3.12533, -0.0563304, -0.118361, -0.0106727, -0.443671, 0.6317, -3.12699, -0.0542477, -0.0963265, 0.0294287, 0.0365505, -0.0568564, 0.00412976, -0.000903342, -0.0370418
0.152325, 0.107508, -0.774562, -0.920266, -1.46348, -0.628418, 1.06996, -0.256701, -0.00350434, -0.0155024, -0.034641, -0.089092, -0.00051033, -0.000321285, 0.000789156, -0.317619, 15.1285, 21.1606, 17.1857, 1.63257, 3.48239, -0.00999879, -0.00107805, 0.000905737, 0.000343077, -0.000722958, -0.014302, 0.00169179, 0.0260216, -0.0365208, 0.022603, 0.0393893, 0.0692127, 0.23791, -0.00965706, -0.442734, 0.632096, -3.1252, -0.0563478, -0.118575, -0.0106723, -0.443672, 0.631661, -3.12692, -0.0542633, -0.0962539, 0.0298187, 0.0369305, -0.0575331, 0.00351563, -0.000825168, -0.0374224
0.153325, 0.107507, -0.774583, -0.920304, -1.46358, -0.62842, 1.06996, -0.256699, -0.0014425, -0.0183194, -0.0349691, -0.0952968, -0.00080483, 0.0003821, 0.0012384, -0.357292, 15.1285, 21.1249, 17.1857, 1.64447, 3.46042, -0.0292249, -0.00110239, 0.000942801, 0.000326039, -0.000757988, -0.0144952, 0.00167994, 0.0251308, -0.036829, 0.0212187, 0.037354, 0.0707277, 0.244927, -0.00962704, -0.442696, 0.632038, -3.12507, -0.0563654, -0.118791, -0.0106664, -0.443673, 0.631617, -3.12684, -0.0543011, -0.0961714, 0.0302108, 0.0373105, -0.0582119, 0.00490921, -0.000703528, -0.0394256
0.154325, 0.107504, -0.774607, -0.92034, -1.46368, -0.628421, 1.06996, -0.256703, -0.000987379, -0.0203366, -0.0342526, -0.100882, -0.00102912, 0.00114276, -0.000632294, -0.357292, 15.1285, 21.0496, 17.1103, 1.65729, 3.43204, 0.0101428, -0.00112893, 0.000979493, 0.000307476, -0.000794758, -0.0146871, 0.00166342, 0.0244788, -0.0369154, 0.0204073, 0.0365123, 0.0724962, 0.253175, -0.00959664, -0.442659, 0.631979, -3.12494, -0.0563834, -0.11901, -0.0106625, -0.443673, 0.631574, -3.12676, -0.0543465, -0.0960936, 0.0306049, 0.0376903, -0.0588927, 0.00601564, -0.000377372, -0.040875
0.155325, 0.107496, -0.774628, -0.920369, -1.46379, -0.62842, 1.06996, -0.256707, -0.00244078, -0.0207108, -0.0320319, -0.101835, -0.00046211, -0.00346732, -0.00164211, -0.281914, 15.0888, 20.9028, 16.9992, 1.65088, 3.41739, 0.0431018, -0.00115398, 0.00101479, 0.000286158, -0.000837163, -0.0148828, 0.00164622, 0.0250559, -0.0358444, 0.0210985, 0.0345062, 0.074908, 0.257773, -0.00956583, -0.442621, 0.63192, -3.12481, -0.0564016, -0.119232, -0.0106569, -0.443672, 0.631534, -3.12669, -0.054393, -0.0960128, 0.0310012, 0.03807, -0.0595756, 0.00574334, 0.00103882, -0.0409076
0.156325, 0.107487, -0.774653, -0.920405, -1.4639, -0.628417, 1.06996, -0.2567, -0.00340489, -0.0229127, -0.0330671, -0.103317, -8.07554e-05, -0.00201086, 0.00134676, -0.206535, 15.1285, 20.8631, 16.9238, 1.64447, 3.39633, -0.0228162, -0.00118121, 0.00105142, 0.000267899, -0.00087271, -0.0150759, 0.00164087, 0.0263033, -0.036545, 0.0211586, 0.0352867, 0.0730694, 0.256622, -0.00953463, -0.442583, 0.63186, -3.12467, -0.0564201, -0.119456, -0.0106528, -0.443671, 0.631489, -3.1266, -0.0544217, -0.0959381, 0.0313996, 0.0384495, -0.0602603, 0.00491779, 0.000670223, -0.0416452
0.157325, 0.107479, -0.774675, -0.920439, -1.46401, -0.628421, 1.06996, -0.256704, -0.00320879, -0.020343, -0.031452, -0.108525, -0.000773444, -0.00169998, -0.000560151, -0.166862, 15.1285, 20.8631, 16.8842, 1.66369, 3.39633, 0.0165515, -0.00120873, 0.00108847, 0.000248935, -0.000911818, -0.0152818, 0.00162554, 0.0243155, -0.0363443, 0.0208533, 0.0354117, 0.0797188, 0.264899, -0.00950303, -0.442544, 0.6318, -3.12454, -0.0564389, -0.119682, -0.0106486, -0.443671, 0.631445, -3.12652, -0.0544662, -0.0958463, 0.0318, 0.0388288, -0.060947, 0.00731272, 0.00132263, -0.0424898
0.158325, 0.107468, -0.774698, -0.920461, -1.46413, -0.628416, 1.06996, -0.256703, -0.00391057, -0.0215516, -0.0267362, -0.112561, 0.000190799, -0.000860342, -0.00108546, -0.0914839, 15.1285, 20.7163, 16.7374, 1.64447, 3.38168, 0.0357776, -0.00123257, 0.0011229, 0.00022522, -0.00095849, -0.0154802, 0.00160654, 0.0227169, -0.035583, 0.0217209, 0.0377169, 0.0801785, 0.27349, -0.00947103, -0.442505, 0.631738, -3.1244, -0.0564579, -0.119911, -0.0106409, -0.443667, 0.631404, -3.12645, -0.0545163, -0.0957693, 0.0322025, 0.0392079, -0.0616356, 0.00921188, 0.00250264, -0.0421892
0.159325, 0.107459, -0.774723, -0.920489, -1.46424, -0.628417, 1.06997, -0.256701, -0.00656853, -0.0233371, -0.0297881, -0.109998, 0.000563773, -0.00050446, 0.000700554, -0.0557783, 15.1642, 20.7163, 16.5866, 1.63257, 3.37436, -0.00267457, -0.00125858, 0.00115913, 0.000203758, -0.0010022, -0.0156854, 0.00159118, 0.0261915, -0.0366677, 0.0224406, 0.0386588, 0.0767518, 0.268255, -0.00943863, -0.442466, 0.631676, -3.12426, -0.0564773, -0.120143, -0.0106346, -0.443665, 0.631361, -3.12637, -0.0545613, -0.095684, 0.032607, 0.0395867, -0.062326, 0.00613673, 0.00165974, -0.0424522
0.160325, 0.107443, -0.774748, -0.920511, -1.46437, -0.628415, 1.06996, -0.256699, -0.00733487, -0.0253844, -0.0279979, -0.11368, 0.000372672, 2.0695e-05, 0.00121305, 0.059273, 15.2356, 20.6766, 16.5509, 1.63257, 3.36062, -0.0228162, -0.00128363, 0.00119267, 0.000183251, -0.00104173, -0.0158977, 0.00157064, 0.0261591, -0.0365826, 0.0225485, 0.0394708, 0.0773039, 0.272799, -0.00940582, -0.442426, 0.631614, -3.12412, -0.0564969, -0.120377, -0.010627, -0.44366, 0.631316, -3.12628, -0.0546149, -0.09559, 0.0330136, 0.0399652, -0.0630183, 0.00656188, 0.00211961, -0.0430423
0.161325, 0.107431, -0.77477, -0.920534, -1.4645, -0.628417, 1.06996, -0.256706, -0.00824053, -0.0291451, -0.028497, -0.118437, 0.000246065, 0.00071388, -0.00136142, 0.059273, 15.2753, 20.7163, 16.4755, 1.63257, 3.33865, 0.0357776, -0.00130664, 0.00122801, 0.000163239, -0.00108424, -0.0161187, 0.00153949, 0.0271988, -0.0369289, 0.0216438, 0.0381786, 0.076812, 0.279148, -0.0093726, -0.442386, 0.63155, -3.12398, -0.0565168, -0.120614, -0.0106169, -0.443657, 0.63127, -3.1262, -0.0546853, -0.0954854, 0.0334222, 0.0403434, -0.0637123, 0.00601442, 0.00212626, -0.0447323
0.162325, 0.107421, -0.774799, -0.920552, -1.46462, -0.628414, 1.06997, -0.256704, -0.00904868, -0.030577, -0.0246531, -0.118194, 0.000603066, 0.00144179, -0.00117886, 0.059273, 15.3864, 20.7163, 16.3644, 1.62067, 3.31027, 0.0431018, -0.00132884, 0.00126244, 0.000140042, -0.00113165, -0.016327, 0.00151024, 0.0270071, -0.0366484, 0.0235778, 0.0424962, 0.0748269, 0.283813, -0.00933897, -0.442345, 0.631486, -3.12384, -0.056537, -0.120853, -0.0106059, -0.443652, 0.631227, -3.12612, -0.0547527, -0.0954035, 0.0338328, 0.0407212, -0.0644081, 0.00645473, 0.00275665, -0.0434909
0.163325, 0.107394, -0.774826, -0.920571, -1.46476, -0.628409, 1.06997, -0.256695, -0.0141119, -0.0305587, -0.0194041, -0.123041, 0.00986177, 0.0011685, 0.00165551, 0.245735, 15.4578, 20.752, 16.3248, 1.61426, 3.30295, -0.0228162, -0.00135686, 0.00129592, 0.000118871, -0.00117342, -0.0165453, 0.0015001, 0.0251291, -0.034437, 0.0244212, 0.0404579, 0.0712552, 0.289482, -0.00930493, -0.442304, 0.631421, -3.1237, -0.0565575, -0.121095, -0.0106001, -0.443646, 0.63118, -3.12604, -0.0547912, -0.0953079, 0.0342455, 0.0410986, -0.0651057, 0.00858968, 0.00539329, -0.0431811
0.164325, 0.107376, -0.774851, -0.920586, -1.4649, -0.628407, 1.06997, -0.256702, -0.0172641, -0.029713, -0.0154642, -0.127398, 0.00757951, 0.00127356, -0.00011702, 0.285408, 15.4935, 20.7917, 16.3248, 1.60785, 3.2883, 0.0101428, -0.00137919, 0.00132944, 9.65033e-05, -0.00121955, -0.0167705, 0.00146323, 0.0249061, -0.0339268, 0.0250839, 0.0432102, 0.0768267, 0.294914, -0.00927048, -0.442263, 0.631356, -3.12355, -0.0565783, -0.121339, -0.0105883, -0.443639, 0.631134, -3.12595, -0.0548714, -0.0952049, 0.0346601, 0.0414756, -0.0658049, 0.00915387, 0.00627354, -0.0432043
0.165325, 0.107353, -0.774887, -0.920597, -1.46503, -0.628408, 1.06997, -0.256706, -0.0205997, -0.0325948, -0.0164041, -0.126474, 0.00495057, 0.00159295, -0.00129871, 0.360787, 15.6799, 20.8631, 16.2891, 1.62616, 3.26724, 0.0431018, -0.00140814, 0.00136298, 7.12285e-05, -0.00127123, -0.0169873, 0.00143496, 0.0285915, -0.0348396, 0.0259014, 0.0458598, 0.0755901, 0.293032, -0.00923561, -0.442221, 0.63129, -3.1234, -0.0565994, -0.121587, -0.0105829, -0.443632, 0.63109, -3.12588, -0.0549382, -0.0951178, 0.0350768, 0.0418522, -0.0665058, 0.00586599, 0.00558966, -0.0433992
0.166325, 0.107326, -0.774911, -0.920601, -1.46517, -0.628414, 1.06997, -0.256703, -0.0240062, -0.0300497, -0.0121048, -0.132576, 0.00281665, 0.00184878, 0.000354902, 0.475838, 15.6799, 20.8631, 16.2891, 1.65088, 3.24527, 0.0101428, -0.00143245, 0.00139557, 4.50796e-05, -0.00132899, -0.0172238, 0.00141113, 0.0274557, -0.0341173, 0.0262118, 0.048103, 0.0837905, 0.296017, -0.00920033, -0.442179, 0.631223, -3.12326, -0.0566208, -0.121836, -0.0105726, -0.443624, 0.631047, -3.1258, -0.0549985, -0.0950028, 0.0354954, 0.0422282, -0.0672083, 0.00736258, 0.00671882, -0.0437032
0.167325, 0.107302, -0.774939, -0.920606, -1.46531, -0.628412, 1.06997, -0.256698, -0.0245919, -0.0300874, -0.0107097, -0.133257, 0.00220161, 0.00226344, 0.00193203, 0.511544, 15.7513, 20.9385, 16.2494, 1.65088, 3.21689, -0.0356336, -0.00145583, 0.00142825, 1.74569e-05, -0.00138681, -0.0174499, 0.00138394, 0.0275846, -0.0342776, 0.0272001, 0.0505867, 0.0848102, 0.297665, -0.00916462, -0.442137, 0.631155, -3.12311, -0.0566425, -0.122088, -0.0105611, -0.443616, 0.631004, -3.12573, -0.0550642, -0.0949069, 0.0359161, 0.0426038, -0.0679124, 0.00758073, 0.00690893, -0.0434442
0.168325, 0.107281, -0.774967, -0.920611, -1.46545, -0.628412, 1.06997, -0.256702, -0.0203538, -0.0325068, -0.00321952, -0.134003, 0.00147327, 0.00176505, -0.00111948, 0.475838, 15.791, 21.0138, 16.2137, 1.65729, 3.20956, 0.0293689, -0.00147885, 0.00146114, -9.85939e-06, -0.00144333, -0.0176824, 0.00134613, 0.0244291, -0.0332844, 0.029554, 0.0556894, 0.0838716, 0.313394, -0.00912849, -0.442094, 0.631087, -3.12296, -0.0566645, -0.122343, -0.0105488, -0.443607, 0.63096, -3.12565, -0.0551468, -0.0948036, 0.0363387, 0.0429789, -0.068618, 0.0109238, 0.00834437, -0.0415513
0.169325, 0.107249, -0.774999, -0.920609, -1.4656, -0.628414, 1.06997, -0.256698, -0.0221834, -0.0351406, -0.00294622, -0.141097, 0.000486174, 0.00143658, 0.00020312, 0.511544, 15.8624, 21.0496, 16.3248, 1.6756, 3.20224, 0.00373412, -0.0015037, 0.00149229, -3.60177e-05, -0.00149953, -0.0179213, 0.00131564, 0.0251042, -0.0331935, 0.028148, 0.0532743, 0.0871752, 0.316323, -0.00909194, -0.442051, 0.631018, -3.1228, -0.0566868, -0.122601, -0.0105378, -0.443596, 0.630914, -3.12557, -0.0552186, -0.0946929, 0.0367632, 0.0433533, -0.0693252, 0.0107784, 0.00880549, -0.043721
0.170325, 0.107218, -0.775035, -0.920608, -1.46575, -0.628414, 1.06998, -0.256695, -0.0227196, -0.0347555, 0.000242415, -0.14445, 0.00022338, 0.000949183, 0.00111876, 0.511544, 15.9735, 21.0892, 16.3644, 1.68201, 3.20224, -0.0228162, -0.00153035, 0.00152462, -6.39799e-05, -0.00155997, -0.0181535, 0.0012862, 0.0239907, -0.0326272, 0.0287549, 0.0545057, 0.0904872, 0.321584, -0.00905497, -0.442007, 0.630949, -3.12265, -0.0567094, -0.122861, -0.0105284, -0.443586, 0.630869, -3.12551, -0.0547979, -0.0945952, 0.0371897, 0.0437272, -0.0700339, 0.0122422, 0.00977005, -0.0437382
0.171325, 0.107186, -0.775071, -0.92061, -1.4659, -0.628414, 1.06998, -0.256697, -0.0263427, -0.0336219, -0.00215796, -0.147133, 0.000251387, 0.000863744, 0.0009832, 0.511544, 16.0489, 21.2003, 16.2891, 1.68201, 3.19583, -0.0292249, -0.00155973, 0.00155718, -9.24797e-05, -0.00161731, -0.0183873, 0.00125578, 0.0258685, -0.0331216, 0.0281687, 0.052977, 0.0938707, 0.320357, -0.00901756, -0.441964, 0.630878, -3.12249, -0.0567323, -0.123123, -0.0105212, -0.443577, 0.630824, -3.12542, -0.0548711, -0.0944979, 0.0376182, 0.0441005, -0.0707441, 0.0108604, 0.00958832, -0.0451975
0.172325, 0.10715, -0.775105, -0.920603, -1.46605, -0.628409, 1.06998, -0.256699, -0.0321356, -0.031081, 0.000533765, -0.149477, 0.00092261, 0.000571026, -0.000565236, 0.511544, 16.0489, 21.1249, 16.2494, 1.66369, 3.19583, 0.00373412, -0.00158533, 0.00158723, -0.000122817, -0.00167747, -0.0186243, 0.00121811, 0.0265942, -0.0324522, 0.0292185, 0.0547043, 0.0978258, 0.322381, -0.00897973, -0.441919, 0.630807, -3.12233, -0.0567555, -0.123389, -0.0105101, -0.443564, 0.63078, -3.12535, -0.054956, -0.0943985, 0.0380486, 0.0444731, -0.0714557, 0.010457, 0.010581, -0.0449199
0.173325, 0.10712, -0.775145, -0.920595, -1.46622, -0.628409, 1.06998, -0.2567, -0.0308924, -0.0339917, 0.00227596, -0.150948, 0.000469261, 0.000919617, -0.000851541, 0.400459, 16.1203, 21.0496, 16.2891, 1.66919, 3.18118, 0.0165515, -0.00160805, 0.00161784, -0.000149906, -0.00173527, -0.0188684, 0.00116992, 0.0264912, -0.0325711, 0.029904, 0.0564951, 0.0964431, 0.328515, -0.00894147, -0.441875, 0.630735, -3.12218, -0.056779, -0.123657, -0.0104954, -0.443551, 0.630733, -3.12526, -0.0550579, -0.0942907, 0.0384809, 0.044845, -0.0721687, 0.0109384, 0.0108209, -0.0449532
0.174325, 0.107085, -0.775187, -0.920592, -1.46638, -0.628407, 1.06998, -0.256695, -0.0318631, -0.0332321, 0.00163496, -0.154208, 0.000796878, 0.000881644, 0.000890369, 0.360787, 16.1957, 21.0496, 16.2891, 1.65729, 3.17386, -0.0228162, -0.0016359, 0.00164942, -0.00017649, -0.00179045, -0.0191109, 0.00113607, 0.0265636, -0.0327403, 0.0295369, 0.0554949, 0.0995549, 0.329849, -0.00890277, -0.44183, 0.630663, -3.12202, -0.0568029, -0.123927, -0.0104854, -0.443539, 0.630684, -3.12518, -0.0551378, -0.0941878, 0.0389151, 0.0452163, -0.0728831, 0.0113318, 0.0110225, -0.0460517
0.175325, 0.107047, -0.775228, -0.920586, -1.46654, -0.628402, 1.06998, -0.256693, -0.0327249, -0.0347385, 0.00518015, -0.154923, 0.00124184, -0.00382154, 0.00130566, 0.325081, 16.2314, 21.0138, 16.2137, 1.63898, 3.16653, -0.0420422, -0.00166522, 0.00168026, -0.000207111, -0.00184946, -0.0193501, 0.00110337, 0.0269055, -0.0314481, 0.0306449, 0.0543653, 0.100851, 0.334551, -0.00886363, -0.441784, 0.630589, -3.12185, -0.0568271, -0.1242, -0.0104767, -0.443526, 0.630637, -3.12509, -0.0552162, -0.0940928, 0.0393512, 0.0455868, -0.0735988, 0.0112879, 0.012647, -0.0456807
0.176325, 0.107009, -0.775265, -0.92058, -1.4667, -0.6284, 1.06998, -0.256699, -0.0323215, -0.0343336, 0.00778812, -0.155252, 0.00108957, -0.00266782, -0.0012997, 0.245735, 16.1957, 20.9742, 16.1383, 1.63257, 3.15921, 0.0165515, -0.00169302, 0.00171235, -0.000237546, -0.00191333, -0.0195971, 0.00106073, 0.0259853, -0.0314841, 0.032138, 0.0581902, 0.101364, 0.342378, -0.00882406, -0.441738, 0.630515, -3.12169, -0.0568516, -0.124476, -0.010466, -0.443514, 0.630591, -3.12501, -0.0553102, -0.0939888, 0.0397893, 0.0459565, -0.0743159, 0.0125213, 0.0129814, -0.0448467
0.177325, 0.10697, -0.775306, -0.920573, -1.46687, -0.628396, 1.06998, -0.256689, -0.0352488, -0.0341948, 0.00653124, -0.1622, 0.000981976, -0.00156347, 0.00130367, 0.170357, 16.16, 20.9385, 16.0629, 1.62616, 3.14548, -0.0420422, -0.00172042, 0.00174367, -0.000267319, -0.00197474, -0.0198452, 0.00103014, 0.0265285, -0.0317597, 0.0306144, 0.0560047, 0.106019, 0.342129, -0.00878406, -0.441692, 0.630441, -3.12153, -0.0568764, -0.124755, -0.0104545, -0.443501, 0.630542, -3.12493, -0.055386, -0.0938855, 0.0402292, 0.0463255, -0.0750342, 0.0125468, 0.0130785, -0.0471414
0.178325, 0.106925, -0.775355, -0.920566, -1.46703, -0.628391, 1.06998, -0.256691, -0.0400158, -0.0397859, 0.00866687, -0.164359, 0.00178731, -0.000719942, 0.00110647, 0.21003, 16.2314, 20.9028, 15.9915, 1.59595, 3.13083, -0.0484509, -0.00175393, 0.00177549, -0.000297353, -0.0020358, -0.0200867, 0.000995673, 0.0293234, -0.0315966, 0.031365, 0.0577603, 0.101123, 0.343483, -0.00874361, -0.441646, 0.630365, -3.12136, -0.0569015, -0.125036, -0.0104486, -0.443488, 0.630493, -3.12484, -0.0554682, -0.0937953, 0.040671, 0.0466936, -0.0757538, 0.0101345, 0.0134908, -0.0473449
0.179325, 0.106882, -0.775404, -0.920553, -1.46721, -0.628388, 1.06998, -0.256692, -0.0418311, -0.0453746, 0.0119971, -0.166531, 0.000998345, 0.000677346, -0.000449146, 0.170357, 16.2314, 20.7917, 15.9518, 1.60144, 3.09512, -0.0164075, -0.00178326, 0.00180581, -0.000327289, -0.00209752, -0.0203375, 0.000950955, 0.0306772, -0.0315619, 0.0323986, 0.0612523, 0.0971705, 0.349307, -0.00870271, -0.441599, 0.630289, -3.12119, -0.056927, -0.12532, -0.0104382, -0.443473, 0.630443, -3.12476, -0.0555668, -0.0936934, 0.0411146, 0.0470609, -0.0764746, 0.00914132, 0.0138198, -0.0471548
0.180325, 0.106839, -0.775447, -0.920544, -1.46739, -0.628384, 1.06999, -0.256693, -0.0401523, -0.0439117, 0.009589, -0.171688, 0.00514336, 0.00137888, -0.00104542, 0.134651, 16.1203, 20.752, 15.9161, 1.60785, 3.06674, 0.00373412, -0.00181163, 0.00183789, -0.000357306, -0.00216155, -0.0205938, 0.000908452, 0.028743, -0.031703, 0.0309396, 0.0568181, 0.099087, 0.357081, -0.00866138, -0.441552, 0.630212, -3.12102, -0.0569528, -0.125606, -0.0104263, -0.443459, 0.630393, -3.12467, -0.0556623, -0.0935858, 0.0415602, 0.0474273, -0.0771966, 0.0116308, 0.0141366, -0.0491883
