alisrour97/Franka_experiments/Real_Robot_scripts/servo-franka/Data4/log_dyn_INITw_ki_5.csv
Time,q1,q2,q3,q4,q5,q6,q7,dq1,dq2,dq3,dq4,dq5,dq6,dq7,t1,t2,t3,t4,t5,t6,t7,ex1,ex2,ex3,ex4,ex5,ex6,ev1,ev2,ev3,ev4,ev5,ev6,xd,yd,zd,uxd,uyd,uzd,x,y,z,ux,uy,uz,vxd,vyd,vzd,vx,vy,vz
9.76563e-07, 0.107608, -0.774187, -0.915974, -1.45614, -0.625344, 1.0703, -0.256723, -0.000755306, -0.000170908, -0.00104292, 0.00285417, 7.23192e-05, -0.000221975, -0.000376651, 0.21003, 16.2314, 18.6692, 14.9442, 1.17847, 3.13815, -0.153737, 0.000899244, -0.00167125, -9.2052e-05, -0.000413515, 0.000100936, 0.000181755, 0.00132356, -0.000314691, 0.000570451, 0.00073554, -0.00192931, -0.00260174, -0.011112, -0.444721, 0.635038, -3.13187, -0.0555627, -0.107532, -0.0102749, -0.443021, 0.635198, -3.13226, -0.0557029, -0.107696, 0, 0, 0, -0.00134742, -0.000365946, 0.000476228
0.0122312, 0.107579, -0.774213, -0.915982, -1.45613, -0.625344, 1.0703, -0.25673, -0.00277742, -0.0027766, -0.00568775, -0.000588718, -4.61296e-05, -0.00037647, -0.000559914, 0.245735, 16.1957, 18.7803, 15.0195, 1.18396, 3.13815, -0.166554, 0.000874423, -0.00166923, -9.26378e-05, -0.000413921, 0.000133059, 0.000214203, 0.00382797, -0.00099527, -0.0018455, -0.00431179, -0.00191451, -0.00624372, -0.011112, -0.444721, 0.635038, -3.13187, -0.0555627, -0.107532, -0.0103061, -0.443023, 0.635201, -3.13226, -0.0556372, -0.107764, 1.73063e-06, 3.0097e-06, -3.96181e-06, -0.00365301, -0.00111039, -0.00211417
0.0132314, 0.107579, -0.774213, -0.915982, -1.45613, -0.625344, 1.0703, -0.25673, -0.00277742, -0.0027766, -0.00568775, -0.000588718, -4.61296e-05, -0.00037647, -0.000559914, 0.245735, 16.1957, 18.7803, 15.0195, 1.18396, 3.13815, -0.166554, 0.000874419, -0.00166923, -9.26473e-05, -0.000413941, 0.000133035, 0.000214204, 0.00383264, -0.001004, -0.00183324, -0.00428717, -0.0019112, -0.00619704, -0.011112, -0.444721, 0.635038, -3.13187, -0.0555627, -0.107532, -0.0103061, -0.443023, 0.635201, -3.13226, -0.0556372, -0.107764, 6.91577e-06, 1.20019e-05, -1.58141e-05, -0.00365301, -0.00111039, -0.00211417
0.0142317, 0.107579, -0.774213, -0.915982, -1.45613, -0.625344, 1.0703, -0.25673, -0.00277742, -0.0027766, -0.00568775, -0.000588718, -4.61296e-05, -0.00037647, -0.000559914, 0.245735, 16.1957, 18.7803, 15.0195, 1.18396, 3.13815, -0.166554, 0.000874409, -0.00166921, -9.2673e-05, -0.000413996, 0.000132973, 0.000214205, 0.00384042, -0.00101848, -0.00181287, -0.00424627, -0.00190568, -0.00611948, -0.011112, -0.444721, 0.635038, -3.13187, -0.0555627, -0.107532, -0.0103061, -0.443023, 0.635201, -3.13226, -0.0556372, -0.107764, 1.55453e-05, 2.69215e-05, -3.55071e-05, -0.00365301, -0.00111039, -0.00211417
0.0152319, 0.107579, -0.774213, -0.915982, -1.45613, -0.625344, 1.0703, -0.25673, -0.00277742, -0.0027766, -0.00568775, -0.000588718, -4.61296e-05, -0.00037647, -0.000559914, 0.245735, 16.1957, 18.7803, 15.0195, 1.18396, 3.13815, -0.166554, 0.00087439, -0.00166917, -9.2723e-05, -0.000414102, 0.000132851, 0.000214209, 0.00385129, -0.00103866, -0.00178445, -0.00418922, -0.00189794, -0.00601126, -0.011112, -0.444721, 0.635038, -3.13187, -0.0555628, -0.107532, -0.0103061, -0.443023, 0.635201, -3.13226, -0.0556372, -0.107764, 2.7609e-05, 4.77135e-05, -6.29913e-05, -0.00365301, -0.00111039, -0.00211417
0.0162322, 0.107579, -0.774213, -0.915982, -1.45613, -0.625344, 1.0703, -0.25673, -0.00277742, -0.0027766, -0.00568775, -0.000588718, -4.61296e-05, -0.00037647, -0.000559914, 0.245735, 16.1957, 18.7803, 15.0195, 1.18396, 3.13815, -0.166554, 0.000874358, -0.00166911, -9.28052e-05, -0.000414276, 0.000132651, 0.000214214, 0.00386525, -0.00106448, -0.00174802, -0.00411615, -0.00188798, -0.00587256, -0.0111119, -0.444721, 0.635038, -3.13187, -0.0555628, -0.107532, -0.0103061, -0.443023, 0.635201, -3.13226, -0.0556372, -0.107764, 4.30968e-05, 7.4323e-05, -9.82172e-05, -0.00365301, -0.00111039, -0.00211417
0.0172322, 0.107579, -0.774213, -0.915982, -1.45613, -0.625344, 1.0703, -0.25673, -0.00277742, -0.0027766, -0.00568775, -0.000588718, -4.61296e-05, -0.00037647, -0.000559914, 0.245735, 16.1957, 18.7803, 15.0195, 1.18396, 3.13815, -0.166554, 0.000874311, -0.00166903, -9.29277e-05, -0.000414534, 0.000132353, 0.000214223, 0.00388229, -0.00109589, -0.00170363, -0.00402716, -0.0018758, -0.00570361, -0.0111119, -0.444721, 0.635038, -3.13187, -0.0555628, -0.107533, -0.0103061, -0.443023, 0.635201, -3.13226, -0.0556372, -0.107764, 6.19987e-05, 0.000106695, -0.000141136, -0.00365301, -0.00111039, -0.00211417
0.0182327, 0.107579, -0.774213, -0.915982, -1.45613, -0.625344, 1.0703, -0.25673, -0.00277742, -0.0027766, -0.00568775, -0.000588718, -4.61296e-05, -0.00037647, -0.000559914, 0.245735, 16.1957, 18.7803, 15.0195, 1.18396, 3.13815, -0.166554, 0.000874246, -0.00166891, -9.30981e-05, -0.000414895, 0.000131937, 0.000214235, 0.00390239, -0.00113284, -0.00165133, -0.00392239, -0.00186138, -0.00550459, -0.0111118, -0.44472, 0.635037, -3.13187, -0.0555628, -0.107533, -0.0103061, -0.443023, 0.635201, -3.13226, -0.0556372, -0.107764, 8.43044e-05, 0.000144776, -0.000191697, -0.00365301, -0.00111039, -0.00211417
0.0192329, 0.107579, -0.774213, -0.915982, -1.45613, -0.625344, 1.0703, -0.25673, -0.00277742, -0.0027766, -0.00568775, -0.000588718, -4.61296e-05, -0.00037647, -0.000559914, 0.245735, 16.1957, 18.7803, 15.0195, 1.18396, 3.13815, -0.166554, 0.000874158, -0.00166874, -9.33245e-05, -0.000415373, 0.000131386, 0.000214251, 0.00392556, -0.00117527, -0.00159118, -0.00380194, -0.00184473, -0.00527572, -0.0111117, -0.44472, 0.635037, -3.13187, -0.0555629, -0.107534, -0.0103061, -0.443023, 0.635201, -3.13226, -0.0556372, -0.107764, 0.000110004, 0.000188511, -0.000249853, -0.00365301, -0.00111039, -0.00211417
0.0202334, 0.107579, -0.774213, -0.915982, -1.45613, -0.625344, 1.0703, -0.25673, -0.00277742, -0.0027766, -0.00568775, -0.000588718, -4.61296e-05, -0.00037647, -0.000559914, 0.245735, 16.1957, 18.7803, 15.0195, 1.18396, 3.13815, -0.166554, 0.000874047, -0.00166854, -9.36146e-05, -0.000415986, 0.00013068, 0.000214271, 0.00395178, -0.00122313, -0.00152322, -0.00366595, -0.00182584, -0.00501719, -0.0111116, -0.44472, 0.635037, -3.13187, -0.0555629, -0.107535, -0.0103061, -0.443023, 0.635201, -3.13226, -0.0556372, -0.107764, 0.000139087, 0.000237846, -0.000315553, -0.00365301, -0.00111039, -0.00211417
0.0212334, 0.107579, -0.774213, -0.915982, -1.45613, -0.625344, 1.0703, -0.25673, -0.00277742, -0.0027766, -0.00568775, -0.000588718, -4.61296e-05, -0.00037647, -0.000559914, 0.245735, 16.1957, 18.7803, 15.0195, 1.18396, 3.13815, -0.166554, 0.000873907, -0.00166828, -9.39762e-05, -0.000416749, 0.000129799, 0.000214297, 0.00398104, -0.00127637, -0.0014475, -0.00351453, -0.0018047, -0.0047292, -0.0111114, -0.44472, 0.635037, -3.13186, -0.055563, -0.107537, -0.0103061, -0.443023, 0.635201, -3.13226, -0.0556372, -0.107764, 0.000171544, 0.000292726, -0.00038875, -0.00365301, -0.00111039, -0.00211417
0.0222336, 0.107579, -0.774213, -0.915982, -1.45613, -0.625344, 1.0703, -0.25673, -0.00277742, -0.0027766, -0.00568775, -0.000588718, -4.61296e-05, -0.00037647, -0.000559914, 0.245735, 16.1957, 18.7803, 15.0195, 1.18396, 3.13815, -0.166554, 0.000873737, -0.00166797, -9.44168e-05, -0.000417679, 0.000128727, 0.000214328, 0.00401334, -0.00133493, -0.00136407, -0.00334779, -0.00178132, -0.00441195, -0.0111112, -0.444719, 0.635036, -3.13186, -0.055563, -0.107538, -0.0103061, -0.443023, 0.635201, -3.13226, -0.0556372, -0.107764, 0.000207364, 0.000353099, -0.000469394, -0.00365301, -0.00111039, -0.00211417
0.0232341, 0.107554, -0.774229, -0.915996, -1.45611, -0.625355, 1.0703, -0.256726, -0.00211865, -0.00497878, -0.00322665, 0.00142581, 5.78093e-05, -0.000231331, 0.000371025, 0.21003, 16.1957, 18.9271, 15.0195, 1.23981, 3.15921, -0.186696, 0.000847308, -0.00166363, -9.57245e-05, -0.000420883, 0.000142952, 0.000267833, 0.00402104, -0.00112637, -4.6732e-05, -0.000574767, -0.00552615, -0.00344752, -0.011111, -0.444719, 0.635036, -3.13186, -0.0555631, -0.10754, -0.0103321, -0.443028, 0.6352, -3.13226, -0.055554, -0.107788, 0.000246538, 0.00041891, -0.000557437, -0.00371912, -0.000847763, -0.000887263
0.0242344, 0.107554, -0.77423, -0.915996, -1.45611, -0.62535, 1.0703, -0.256734, -0.000719353, -0.00360735, -0.0022769, 0.0019062, 0.000513293, 0.000354396, -0.00171934, 0.170357, 16.1957, 18.9271, 14.9799, 1.22699, 3.14548, -0.133595, 0.000846434, -0.00166288, -9.79814e-05, -0.000424906, 0.000151042, 0.000260553, 0.00266728, -0.00110163, 0.000528532, 0.00081177, -0.0051187, 0.00110786, -0.0111107, -0.444719, 0.635035, -3.13186, -0.0555632, -0.107542, -0.0103329, -0.443028, 0.635201, -3.13227, -0.0555652, -0.107803, 0.000289055, 0.000490107, -0.00065283, -0.00236713, -0.000709171, -0.000315609
0.0252344, 0.10755, -0.774232, -0.915996, -1.45611, -0.62535, 1.0703, -0.256731, -0.00158379, -0.0050188, -0.00394254, 0.00129152, 0.00102039, -3.50105e-05, 7.44762e-05, 0.21003, 16.16, 18.8913, 14.9799, 1.20868, 3.1528, -0.166554, 0.000844516, -0.00166277, -9.77025e-05, -0.000424379, 0.000149011, 0.000265287, 0.00386967, -0.00134059, -8.68292e-05, -0.000999539, -0.00621249, -0.00185246, -0.0111104, -0.444718, 0.635034, -3.13186, -0.0555634, -0.107545, -0.0103344, -0.443028, 0.6352, -3.13226, -0.055558, -0.107803, 0.000334905, 0.000566635, -0.000755525, -0.00346944, -0.000908444, -0.00111629
0.0262344, 0.107547, -0.774232, -0.916, -1.45611, -0.625351, 1.0703, -0.256726, -0.00118802, -0.0064916, -0.00428951, -0.00143759, -0.00204278, -2.33457e-05, -0.000187709, 0.21003, 16.0092, 18.816, 14.9442, 1.15375, 3.1528, -0.160145, 0.000842378, -0.00166153, -9.66348e-05, -0.000422734, 0.000143737, 0.000275268, 0.0043308, -0.00171327, -0.00096906, -0.00128946, -0.00353802, -0.00109503, -0.0111101, -0.444717, 0.635033, -3.13186, -0.0555635, -0.107548, -0.0103361, -0.443028, 0.635198, -3.13226, -0.0555427, -0.107797, 0.000384079, 0.000648441, -0.000865474, -0.00380634, -0.0012077, -0.00214036
0.0272344, 0.107552, -0.774234, -0.916005, -1.45611, -0.625357, 1.0703, -0.256729, 0.000872111, -0.00482276, -0.00564461, 0.000554059, -0.000605415, -0.000524194, -0.00205792, 0.134651, 15.8624, 18.7803, 14.8688, 1.12262, 3.16653, -0.10796, 0.000840462, -0.00165935, -9.62872e-05, -0.000422973, 0.000138869, 0.000274062, 0.0035818, -0.00194559, -0.000671181, -0.0019013, -0.00389761, 0.00192467, -0.0111097, -0.444717, 0.635033, -3.13186, -0.0555637, -0.107552, -0.0103375, -0.44303, 0.635197, -3.13226, -0.0555448, -0.107793, 0.000436566, 0.000735474, -0.000982628, -0.00301918, -0.00132905, -0.00191033
0.0282344, 0.107552, -0.774236, -0.916001, -1.45611, -0.625361, 1.0703, -0.256728, 0.00143509, -0.00467328, -0.000877208, 0.000181282, -0.00495897, -0.00116327, 0.00358617, 0.0949785, 15.7513, 18.6295, 14.8688, 1.11072, 3.18851, -0.114369, 0.000840081, -0.00165867, -9.80114e-05, -0.000429524, 0.000134893, 0.000273854, 0.00264881, -0.00148041, 0.000632795, 0.00257458, -6.57897e-05, -0.000937432, -0.0111092, -0.444716, 0.635032, -3.13185, -0.0555639, -0.107556, -0.0103375, -0.44303, 0.635197, -3.13226, -0.0555451, -0.107791, 0.000492356, 0.000827679, -0.00110694, -0.00213904, -0.000750384, -0.000666806
0.0292344, 0.107546, -0.774246, -0.916006, -1.45612, -0.625367, 1.0703, -0.256725, -0.000862264, -0.00632333, -0.0028285, -0.00261867, -0.00415791, 0.00258244, 0.00254681, 0.170357, 15.7156, 18.7049, 14.9799, 1.11713, 3.22421, -0.10796, 0.000831642, -0.00165682, -9.60593e-05, -0.000426237, 0.000132665, 0.000287672, 0.00370943, -0.00234484, -0.000301639, 0.00293923, -0.00226738, -0.00133524, -0.0111087, -0.444715, 0.63503, -3.13185, -0.0555641, -0.10756, -0.0103452, -0.443031, 0.635194, -3.13226, -0.0555239, -0.107792, 0.000551439, 0.000925004, -0.00123836, -0.0030426, -0.00154619, -0.00180867
0.0302344, 0.107546, -0.774251, -0.916012, -1.45612, -0.625374, 1.0703, -0.256724, 0.000218561, -0.00752615, -0.00400925, -0.000573765, -0.00843875, 0.00156912, 0.00199292, 0.134651, 15.6799, 18.7803, 15.0552, 1.12903, 3.23886, -0.10796, 0.000827086, -0.00165377, -9.52506e-05, -0.00042853, 0.000129842, 0.000294858, 0.00540598, -0.00316, -3.70703e-05, 0.00446033, -0.000943034, -0.00316199, -0.0111081, -0.444714, 0.635029, -3.13185, -0.0555643, -0.107565, -0.010349, -0.443033, 0.635191, -3.13226, -0.0555129, -0.107792, 0.000613805, 0.0010274, -0.00137684, -0.00466074, -0.00232037, -0.00180486
0.0312344, 0.10755, -0.774259, -0.916012, -1.45612, -0.625385, 1.0703, -0.25673, 0.000114347, -0.00683665, -0.00377831, -0.00197168, -0.0122296, 0.00188114, -0.000654147, 0.134651, 15.7156, 18.816, 15.1306, 1.16015, 3.22421, -0.0484509, 0.000824122, -0.00165069, -9.58878e-05, -0.000437031, 0.000124943, 0.000290044, 0.00564565, -0.00360491, -0.000190852, 0.00613178, 0.00340295, -0.000974029, -0.0111074, -0.444713, 0.635028, -3.13184, -0.0555646, -0.10757, -0.0103512, -0.443035, 0.63519, -3.13226, -0.0555204, -0.107791, 0.000679445, 0.00113481, -0.00152234, -0.00480765, -0.00266469, -0.00212302
0.0322344, 0.107551, -0.774265, -0.916014, -1.45612, -0.625392, 1.07031, -0.256724, 0.00098073, -0.00844144, -0.00364959, -0.00294714, -0.00954332, 0.00120222, 0.00169655, 0.0949785, 15.7156, 18.8556, 15.206, 1.17206, 3.23153, -0.101552, 0.000820702, -0.00164762, -9.69239e-05, -0.000444249, 0.000122676, 0.00029944, 0.0051159, -0.00325593, -0.000439085, 0.0040334, 0.000790133, 2.85719e-05, -0.0111067, -0.444712, 0.635026, -3.13184, -0.0555649, -0.107577, -0.0103539, -0.443037, 0.635189, -3.13227, -0.0555059, -0.107794, 0.000748347, 0.00124718, -0.0016748, -0.00420603, -0.00218278, -0.00248459
0.0332344, 0.107546, -0.774271, -0.916014, -1.45613, -0.625403, 1.0703, -0.256722, -0.00112706, -0.00727848, -0.000193668, -0.0044653, -0.0126482, 0.000966021, 0.00220495, 0.170357, 15.7513, 18.8913, 15.3171, 1.19678, 3.23153, -0.127186, 0.000814323, -0.0016458, -9.65924e-05, -0.000447633, 0.000111498, 0.000310428, 0.00496366, -0.00283656, 0.000332423, 0.00714594, 0.0052869, -3.69847e-05, -0.0111059, -0.444711, 0.635024, -3.13184, -0.0555653, -0.107583, -0.0103594, -0.443038, 0.635187, -3.13227, -0.055489, -0.107783, 0.000820503, 0.00136446, -0.00183418, -0.00404988, -0.00164771, -0.00186128
0.0342344, 0.107551, -0.77427, -0.916013, -1.45612, -0.625407, 1.0703, -0.256728, 0.000998635, -0.00462883, 2.57582e-05, -0.00206821, -0.0133714, 0.00479814, -0.000606821, 0.0949785, 15.7156, 18.8913, 15.2814, 1.17847, 3.25259, -0.0685925, 0.00081505, -0.00164377, -9.96374e-05, -0.000455682, 0.000104719, 0.000301801, 0.00344951, -0.00383694, 0.00166884, 0.0126421, 0.00503729, 0.00413492, -0.0111051, -0.444709, 0.635022, -3.13183, -0.0555656, -0.10759, -0.0103579, -0.443039, 0.635188, -3.13227, -0.0555026, -0.10778, 0.000895902, 0.00148661, -0.00200043, -0.00252066, -0.00248357, -0.000596458
0.0352344, 0.10755, -0.774275, -0.916013, -1.45612, -0.625412, 1.07031, -0.256724, -0.000272186, -0.0043799, 0.000133325, 0.000439506, -0.00860695, 0.00420083, 0.000886172, 0.134651, 15.7513, 18.8913, 15.206, 1.14093, 3.23886, -0.101552, 0.000810726, -0.00164098, -0.000103574, -0.000467007, 0.000106222, 0.000310943, 0.00362255, -0.0034024, 0.00263806, 0.0119489, 0.00038385, 0.0031348, -0.0111041, -0.444708, 0.63502, -3.13183, -0.055566, -0.107598, -0.0103615, -0.44304, 0.635189, -3.13228, -0.0554883, -0.107791, 0.000974534, 0.00161356, -0.00217351, -0.00269643, -0.00193683, 0.000188136
0.0362344, 0.107554, -0.774279, -0.91601, -1.45612, -0.625419, 1.0703, -0.256725, 0.000739121, -0.00419205, 0.00193924, 0.000334312, -0.00610937, 0.0018482, 0.000405934, 0.0949785, 15.791, 18.816, 15.206, 1.12903, 3.27456, -0.0951428, 0.000809344, -0.00163958, -0.00010629, -0.00047384, 9.6568e-05, 0.000308255, 0.00235075, -0.00248256, 0.00307511, 0.0102341, -8.75758e-05, 0.00795785, -0.0111031, -0.444706, 0.635018, -3.13182, -0.0555664, -0.107607, -0.010362, -0.44304, 0.63519, -3.13228, -0.0554928, -0.107785, 0.00105639, 0.00174526, -0.00235336, -0.00140934, -0.000844931, 0.000537395
0.0372344, 0.107554, -0.774279, -0.91601, -1.45612, -0.625419, 1.0703, -0.256725, 0.000739121, -0.00419205, 0.00193924, 0.000334312, -0.00610937, 0.0018482, 0.000405934, 0.0949785, 15.791, 18.816, 15.206, 1.12903, 3.27456, -0.0951428, 0.000808354, -0.00163782, -0.000108808, -0.000479122, 9.04523e-05, 0.000308456, 0.00242752, -0.00261467, 0.00326828, 0.0106165, -2.99132e-05, 0.00869028, -0.011102, -0.444704, 0.635016, -3.13182, -0.0555669, -0.107616, -0.010362, -0.44304, 0.63519, -3.13228, -0.0554928, -0.107785, 0.00114146, 0.00188168, -0.00253994, -0.00140934, -0.000844931, 0.000537395
0.0382344, 0.107559, -0.774274, -0.916013, -1.45612, -0.625432, 1.0703, -0.256725, 0.00115581, -0.00161006, -0.00221477, 0.00102769, -0.0101281, 0.000706007, -0.000656713, 0.059273, 15.7513, 18.816, 15.1703, 1.0741, 3.2883, -0.0621838, 0.00080688, -0.00163394, -0.000111349, -0.000488823, 6.95771e-05, 0.00031416, 0.00392445, -0.00380586, 0.00247979, 0.00966318, 0.00596778, 0.00547588, -0.0111008, -0.444702, 0.635013, -3.13181, -0.0555674, -0.107626, -0.0103623, -0.443042, 0.63519, -3.13228, -0.0554842, -0.107763, 0.00122973, 0.00202275, -0.00273321, -0.00271703, -0.00194012, -0.000552846
0.0392344, 0.107552, -0.774279, -0.916013, -1.45612, -0.62544, 1.0703, -0.25672, -0.000995838, -0.00381699, -0.000868644, -0.000967882, -0.00730996, 8.42643e-05, 0.000805048, 0.134651, 15.8624, 18.7803, 15.2417, 1.06128, 3.30295, -0.0951428, 0.000800588, -0.00163098, -0.000112753, -0.000496866, 5.93582e-05, 0.000326729, 0.00429519, -0.00311935, 0.00239026, 0.0080333, 0.00323251, 0.00605693, -0.0110996, -0.4447, 0.63501, -3.1318, -0.055568, -0.107637, -0.0103673, -0.443043, 0.635188, -3.13228, -0.055465, -0.107758, 0.00132119, 0.00216842, -0.00293311, -0.00301358, -0.00112068, -0.000863334
0.0402344, 0.107559, -0.774278, -0.916004, -1.45612, -0.625448, 1.0703, -0.256725, 0.00109699, -0.00265354, 0.00184885, -0.000632185, -0.00964079, 0.000173272, -0.000904748, 0.059273, 15.8624, 18.6692, 15.2417, 1.04297, 3.30295, -0.0557752, 0.000804605, -0.00162945, -0.000117711, -0.000511888, 4.48463e-05, 0.000311525, 0.00274593, -0.00307036, 0.00346731, 0.0114483, 0.00584742, 0.0114416, -0.0110982, -0.444698, 0.635007, -3.1318, -0.0555686, -0.107648, -0.0103622, -0.443042, 0.63519, -3.13229, -0.0554887, -0.107748, 0.00141584, 0.00231864, -0.0031396, -0.00144985, -0.000876353, 0.000111451
0.0412344, 0.107562, -0.774278, -0.916006, -1.45612, -0.625459, 1.07031, -0.256725, 0.00165758, -0.00185068, 0.000269463, -0.00133967, -0.00787201, -6.7931e-05, -0.000590704, 0.0196001, 15.8624, 18.7049, 15.2814, 1.05578, 3.31027, -0.0557752, 0.00080258, -0.00162497, -0.000120169, -0.000523742, 2.84721e-05, 0.000314685, 0.00238184, -0.00323353, 0.00301406, 0.00949627, 0.00603381, 0.0125314, -0.0110967, -0.444695, 0.635004, -3.13179, -0.0555692, -0.107661, -0.0103628, -0.443044, 0.635189, -3.1323, -0.0554841, -0.107735, 0.00151366, 0.00247337, -0.00335263, -0.000952165, -0.000867968, -0.000529768
0.0422344, 0.107567, -0.774268, -0.916012, -1.45612, -0.625467, 1.07031, -0.25672, 0.00193895, 0.00130343, -0.00167951, -0.000885764, -0.0101812, -0.000488047, 0.00131096, -0.0161054, 15.7513, 18.7803, 15.2814, 1.04297, 3.324, -0.101552, 0.000802962, -0.00162069, -0.000122598, -0.00053183, 3.4895e-06, 0.000323366, 0.00260567, -0.00391923, 0.0028961, 0.0098056, 0.0110052, 0.0089425, -0.0110952, -0.444693, 0.635, -3.13178, -0.0555699, -0.107674, -0.0103609, -0.443046, 0.635188, -3.1323, -0.0554712, -0.107709, 0.00161465, 0.00263255, -0.00357216, -0.00104181, -0.00140091, -0.000886705
0.0432344, 0.107568, -0.774267, -0.916006, -1.45612, -0.625479, 1.07031, -0.256725, 0.00360362, 0.000823019, 0.00057163, 0.00117824, -0.00748585, -0.000547233, -0.000814435, 0.0196001, 15.7513, 18.7049, 15.206, 1.03656, 3.33133, -0.0557752, 0.000800037, -0.00161747, -0.000129548, -0.000551255, -1.20215e-05, 0.000322729, 0.0012952, -0.003504, 0.0043266, 0.0114822, 0.00714778, 0.0155636, -0.0110935, -0.44469, 0.634997, -3.13177, -0.0555706, -0.107688, -0.0103625, -0.443047, 0.635191, -3.13231, -0.0554723, -0.1077, 0.00171879, 0.00279613, -0.00379814, 0.000256001, -0.000788731, 0.000407098
0.0442344, 0.107571, -0.774262, -0.916008, -1.45613, -0.625489, 1.07031, -0.256719, 0.00349916, 0.00134945, 0.000327136, -0.00180883, -0.00525154, -0.000599039, 0.000411736, -0.0161054, 15.7156, 18.7049, 15.3171, 1.02466, 3.33865, -0.0814099, 0.000800816, -0.00161324, -0.000130904, -0.000560379, -3.7622e-05, 0.000327781, 0.000302981, -0.00324964, 0.00360478, 0.00914255, 0.00803693, 0.0175642, -0.0110917, -0.444687, 0.634993, -3.13176, -0.0555714, -0.107702, -0.0103599, -0.443048, 0.635189, -3.13231, -0.055465, -0.107676, 0.00182607, 0.00296406, -0.00403052, 0.00139289, -0.000325469, -0.000475555
0.0452344, 0.107576, -0.774267, -0.916009, -1.45612, -0.625499, 1.07031, -0.256718, 0.00658315, -0.000889442, 0.000177627, -0.000367564, -0.007763, 0.000408322, 0.00126178, -0.0557783, 15.791, 18.7049, 15.2814, 0.999938, 3.31759, -0.10796, 0.00079764, -0.00160794, -0.000135723, -0.000577142, -4.80438e-05, 0.000330545, 0.000456513, -0.00413483, 0.00416202, 0.0119447, 0.00636069, 0.0186696, -0.0110899, -0.444684, 0.634989, -3.13175, -0.0555722, -0.107718, -0.0103613, -0.44305, 0.635189, -3.13232, -0.055461, -0.107676, 0.00193648, 0.00313629, -0.00426926, 0.0013436, -0.00104813, -0.000174544
0.0462344, 0.10758, -0.774261, -0.916002, -1.45612, -0.625507, 1.07031, -0.256723, 0.00877519, 0.0011509, 0.00268653, 0.000685303, -0.00973728, -0.000215571, -0.00061392, -0.0914839, 15.7156, 18.5938, 15.2417, 0.975218, 3.33133, -0.0685925, 0.000799503, -0.00160485, -0.000143535, -0.000598574, -6.74278e-05, 0.000322062, -0.00116475, -0.00400888, 0.00540479, 0.0149854, 0.00949655, 0.0241127, -0.0110879, -0.444681, 0.634984, -3.13174, -0.0555731, -0.107735, -0.0103579, -0.44305, 0.635192, -3.13234, -0.0554744, -0.107664, 0.00205002, 0.00331277, -0.00451432, 0.00298381, -0.000699618, 0.000932542
0.0472344, 0.107582, -0.774264, -0.916007, -1.45612, -0.625518, 1.07031, -0.256723, 0.00948175, -0.0010105, 5.01918e-06, 0.000458614, -0.0114884, -0.000670619, -0.00139041, -0.0914839, 15.791, 18.6692, 15.2417, 0.956908, 3.34598, -0.0420422, 0.000793779, -0.00159918, -0.000146564, -0.000609263, -8.48731e-05, 0.000329519, 0.000493365, -0.00487349, 0.00469203, 0.013814, 0.0092534, 0.023815, -0.0110858, -0.444678, 0.63498, -3.13173, -0.055574, -0.107752, -0.0103615, -0.443053, 0.63519, -3.13234, -0.0554634, -0.107654, 0.00216668, 0.00349346, -0.00476563, 0.00152699, -0.00143514, -0.000149453
0.0482344, 0.107582, -0.774259, -0.916008, -1.45612, -0.625528, 1.07032, -0.256717, 0.00616704, 0.00024345, 0.000914296, 0.000307051, -0.0133305, -0.000706624, 0.000770147, -0.0557783, 15.7513, 18.6295, 15.2417, 0.951415, 3.3533, -0.0878186, 0.000791509, -0.00159387, -0.00015162, -0.000626096, -0.000109138, 0.000341631, 0.00172327, -0.00495617, 0.005315, 0.0159442, 0.0120372, 0.0192415, -0.0110835, -0.444674, 0.634975, -3.13172, -0.055575, -0.107771, -0.0103617, -0.443055, 0.63519, -3.13234, -0.0554451, -0.107636, 0.00228643, 0.0036783, -0.00502317, 0.000380698, -0.00138168, 0.000129228
0.0492344, 0.107588, -0.774265, -0.916009, -1.45612, -0.62554, 1.07032, -0.256716, 0.00545739, -0.00160911, 0.00143195, 0.000205682, -0.0143636, -0.00046229, 0.000785946, -0.0914839, 15.8267, 18.5938, 15.2417, 0.938597, 3.3533, -0.0951428, 0.000787731, -0.00158759, -0.000156614, -0.000644633, -0.00012233, 0.000344047, 0.00270078, -0.00521703, 0.00567951, 0.0173418, 0.0109725, 0.0195033, -0.0110812, -0.44467, 0.634969, -3.13171, -0.0555761, -0.10779, -0.0103632, -0.443057, 0.63519, -3.13235, -0.0554418, -0.107636, 0.00240928, 0.00386724, -0.00528689, -0.000486782, -0.00149107, 0.000160099
0.0502344, 0.107589, -0.774261, -0.916005, -1.45612, -0.625551, 1.07032, -0.256722, 0.00631121, -0.000243655, -0.000444801, 0.000137857, -0.0108981, -0.000572867, -0.00167915, -0.0557783, 15.791, 18.5184, 15.2417, 0.938597, 3.36062, -0.0356336, 0.000786369, -0.00158328, -0.000163562, -0.000664533, -0.000147779, 0.000339423, 0.00194368, -0.00533932, 0.00541884, 0.0150502, 0.00998965, 0.0241452, -0.0110787, -0.444666, 0.634964, -3.1317, -0.0555772, -0.107811, -0.0103624, -0.443058, 0.635191, -3.13236, -0.0554495, -0.107618, 0.00253522, 0.00406024, -0.00555673, 0.000416166, -0.00139144, -0.000318512
0.0512344, 0.107594, -0.774263, -0.916008, -1.45612, -0.625563, 1.07032, -0.256718, 0.00559044, -0.000167035, -0.000566491, 9.24569e-05, -0.0126153, -0.000885592, 0.000101973, -0.0914839, 15.791, 18.5184, 15.2417, 0.932189, 3.37436, -0.0685925, 0.000783033, -0.00157676, -0.000168665, -0.00068198, -0.000168949, 0.00034587, 0.00275417, -0.00566956, 0.00565364, 0.0160518, 0.0116452, 0.0218319, -0.0110761, -0.444662, 0.634958, -3.13168, -0.0555784, -0.107832, -0.0103633, -0.44306, 0.635191, -3.13237, -0.0554402, -0.107607, 0.00266423, 0.00425725, -0.00583265, -0.000267275, -0.0015551, -0.000418228
0.0522344, 0.107598, -0.774263, -0.916011, -1.45612, -0.625575, 1.07032, -0.256716, 0.00413778, -0.000950023, -0.00365552, 0.00173249, -0.0144695, -0.000315418, 0.00105185, -0.0914839, 15.8267, 18.5184, 15.1703, 0.938597, 3.36703, -0.0951428, 0.000777671, -0.00156987, -0.000175546, -0.000702233, -0.000187561, 0.000356565, 0.00538997, -0.00685936, 0.00563278, 0.0168991, 0.0111386, 0.0164535, -0.0110734, -0.444658, 0.634952, -3.13167, -0.0555796, -0.107855, -0.0103661, -0.443063, 0.635191, -3.13237, -0.0554242, -0.107602, 0.0027963, 0.00445821, -0.00611461, -0.00271926, -0.00263578, -0.000910306
0.0532344, 0.107606, -0.774265, -0.916006, -1.45612, -0.625589, 1.07033, -0.256718, 0.00797203, -0.000635935, -0.000246694, 0.000320084, -0.0161149, 2.98621e-05, -0.00126506, -0.166862, 15.8267, 18.4073, 15.206, 0.951415, 3.36062, -0.0420422, 0.000777627, -0.00156439, -0.000182347, -0.000724043, -0.000213575, 0.000348142, 0.00262004, -0.00665299, 0.00639639, 0.0196834, 0.0134065, 0.026254, -0.0110705, -0.444653, 0.634946, -3.13165, -0.0555809, -0.107878, -0.0103636, -0.443064, 0.635192, -3.13238, -0.0554379, -0.107586, 0.00293143, 0.00466308, -0.00640257, 0.000117629, -0.00213402, -0.000244438
0.0542344, 0.107609, -0.774268, -0.916016, -1.45612, -0.625602, 1.07033, -0.256719, 0.0049724, -0.00126111, -0.00441263, 0.000213623, -0.0162544, -0.000215364, -0.00033445, -0.131157, 15.8624, 18.443, 15.206, 0.938597, 3.36703, -0.0557752, 0.000770212, -0.0015552, -0.000186587, -0.000741873, -0.000233922, 0.000358912, 0.00562975, -0.00756287, 0.00552976, 0.0175378, 0.0133527, 0.0202975, -0.0110675, -0.444648, 0.63494, -3.13164, -0.0555822, -0.107903, -0.010368, -0.443069, 0.635189, -3.13239, -0.055422, -0.10758, 0.00306961, 0.00487181, -0.00669647, -0.00265296, -0.00293291, -0.00161633
0.0552344, 0.107613, -0.774266, -0.916021, -1.45612, -0.625615, 1.07033, -0.256713, 0.00368463, -6.98021e-06, -0.00343023, 0.00014259, -0.0117767, 9.53474e-05, 0.000726691, -0.131157, 15.8267, 18.443, 15.206, 0.926695, 3.36062, -0.0814099, 0.000766121, -0.00154744, -0.000192561, -0.000761715, -0.000261883, 0.000370676, 0.00470281, -0.00705632, 0.00621052, 0.0172075, 0.011148, 0.0220583, -0.0110644, -0.444643, 0.634933, -3.13162, -0.0555837, -0.107929, -0.010369, -0.443072, 0.635188, -3.13239, -0.0554046, -0.107563, 0.00321082, 0.00508435, -0.00699628, -0.00165251, -0.00218764, -0.00117007
0.0562344, 0.107619, -0.774261, -0.916029, -1.45612, -0.625627, 1.07034, -0.256713, 0.00356891, 0.000829473, -0.00265318, 9.51908e-05, -0.00820894, 6.47385e-05, 0.000247268, -0.166862, 15.791, 18.443, 15.206, 0.908385, 3.36062, -0.0750012, 0.000762633, -0.00153871, -0.000198007, -0.000780672, -0.000292072, 0.000377497, 0.00367391, -0.00667661, 0.0067652, 0.0167658, 0.00939214, 0.0259466, -0.0110611, -0.444638, 0.634926, -3.13161, -0.0555852, -0.107956, -0.0103693, -0.443075, 0.635186, -3.1324, -0.0553949, -0.107544, 0.00335505, 0.00530066, -0.00730195, -0.000534229, -0.00156069, -0.000849179
0.0572344, 0.107622, -0.774265, -0.916028, -1.45612, -0.625643, 1.07034, -0.256717, 0.00175201, -0.000283054, 0.000554898, 6.35588e-05, -0.0104756, -0.00019332, -0.00129309, -0.131157, 15.8267, 18.332, 15.206, 0.895568, 3.36703, -0.0356336, 0.0007568, -0.00153153, -0.000205757, -0.000804368, -0.000318628, 0.000378284, 0.00438111, -0.0064541, 0.00798297, 0.0202768, 0.0100968, 0.0282655, -0.0110577, -0.444633, 0.634918, -3.13159, -0.0555867, -0.107984, -0.010372, -0.443078, 0.635185, -3.13241, -0.0553946, -0.107532, 0.0035023, 0.00552068, -0.00761342, -0.0011838, -0.00115409, 6.63897e-06
0.0582344, 0.107631, -0.774256, -0.916036, -1.45612, -0.625657, 1.07034, -0.256712, 0.00308721, 0.00240914, -0.00605474, 0.000877664, -0.0119366, 0.00428826, 0.00107081, -0.206535, 15.7156, 18.332, 15.1703, 0.877257, 3.37436, -0.0878186, 0.000754895, -0.00152217, -0.000212381, -0.000825205, -0.000355005, 0.000390033, 0.0052124, -0.00895926, 0.00713376, 0.02172, 0.0115171, 0.0223208, -0.0110541, -0.444627, 0.63491, -3.13157, -0.0555884, -0.108013, -0.0103704, -0.443081, 0.635184, -3.13241, -0.0553774, -0.107506, 0.00365255, 0.00574437, -0.00793067, -0.00171462, -0.00345575, -0.00123148
0.0592344, 0.107633, -0.774255, -0.916041, -1.45612, -0.625669, 1.07034, -0.256719, 0.000411879, 0.00160563, -0.00614568, 0.000585165, -0.00816111, 0.00352124, -0.00169355, -0.131157, 15.7156, 18.2606, 15.1703, 0.852538, 3.36703, -0.0228162, 0.000749255, -0.00151389, -0.000219631, -0.0008467, -0.000384042, 0.000390225, 0.00608662, -0.00855496, 0.00733717, 0.0199432, 0.008532, 0.0255738, -0.0110504, -0.444621, 0.634902, -3.13155, -0.0555901, -0.108044, -0.0103725, -0.443084, 0.635183, -3.13242, -0.0553782, -0.107492, 0.0038058, 0.00597168, -0.00825364, -0.0024615, -0.0028571, -0.00140954
0.0602344, 0.10764, -0.774252, -0.916045, -1.45611, -0.625683, 1.07035, -0.256717, 0.00433979, 0.00190529, -0.00706235, 0.00215339, -0.00604255, 0.00209832, -0.000654264, -0.166862, 15.6799, 18.2209, 15.0949, 0.846129, 3.38168, -0.0356336, 0.000744683, -0.00150472, -0.000228665, -0.000872183, -0.000413991, 0.000398118, 0.00475935, -0.00864827, 0.00766157, 0.0184752, 0.00709924, 0.0292514, -0.0110465, -0.444615, 0.634894, -3.13153, -0.0555919, -0.108076, -0.0103735, -0.443087, 0.635183, -3.13242, -0.055367, -0.107478, 0.00396204, 0.00620257, -0.00858229, -0.00100109, -0.0026758, -0.00132381
0.0612344, 0.107651, -0.774248, -0.916057, -1.45612, -0.625699, 1.07035, -0.256708, 0.00727519, 0.00210516, -0.00646968, -0.00116283, -0.00898955, 0.00189016, 0.00149664, -0.206535, 15.6442, 18.2606, 15.206, 0.834227, 3.37436, -0.0878186, 0.000742451, -0.00149386, -0.000232311, -0.000890344, -0.000455889, 0.000409913, 0.00326596, -0.00892593, 0.00706596, 0.0186187, 0.0119006, 0.0320752, -0.0110424, -0.444609, 0.634885, -3.13151, -0.0555937, -0.108109, -0.0103716, -0.443092, 0.635178, -3.13242, -0.0553501, -0.107447, 0.00412125, 0.00643698, -0.00891658, 0.00069778, -0.00266114, -0.00215119
0.0622344, 0.10766, -0.774247, -0.91606, -1.45612, -0.625714, 1.07035, -0.256717, 0.0084524, 0.00140324, -0.00533919, 6.00199e-05, -0.0115598, 0.00115385, -0.00117235, -0.206535, 15.6442, 18.1455, 15.1703, 0.834227, 3.38168, -0.0292249, 0.000738653, -0.00148403, -0.000241574, -0.000918567, -0.000487633, 0.000404394, 0.0035789, -0.00921829, 0.00798708, 0.0210868, 0.0127949, 0.0362473, -0.0110382, -0.444602, 0.634876, -3.13149, -0.0555957, -0.108143, -0.0103714, -0.443096, 0.635178, -3.13243, -0.0553598, -0.107433, 0.00428343, 0.00667487, -0.00925645, 0.000494871, -0.00273483, -0.00159596
0.0632344, 0.107662, -0.774247, -0.916063, -1.45611, -0.625728, 1.07036, -0.256718, 0.0045094, 0.000935349, -0.00168749, 0.000968051, -0.0131786, 0.0064835, -0.0010189, -0.131157, 15.6442, 18.0344, 15.1306, 0.827819, 3.36062, -0.0228162, 0.000731982, -0.00147446, -0.00025175, -0.000948157, -0.000518358, 0.000411903, 0.00437713, -0.00985903, 0.0102337, 0.0302071, 0.0102024, 0.0350515, -0.0110339, -0.444596, 0.634867, -3.13147, -0.0555977, -0.108178, -0.0103741, -0.443099, 0.635178, -3.13244, -0.0553492, -0.107423, 0.00444857, 0.0069162, -0.00960188, -0.000267756, -0.00318225, 0.00024021
0.0642344, 0.107674, -0.774244, -0.91608, -1.45612, -0.625745, 1.07036, -0.256714, 0.0074682, 0.000623457, -0.00971531, -0.00028264, -0.0142835, 0.00481604, 0.00101617, -0.166862, 15.6442, 18.1098, 15.1703, 0.815917, 3.36062, -0.0685925, 0.000725813, -0.00146168, -0.000256153, -0.00096625, -0.000558183, 0.000425982, 0.00603278, -0.011483, 0.00768507, 0.0238493, 0.0128926, 0.0313376, -0.0110293, -0.444589, 0.634857, -3.13145, -0.0555998, -0.108215, -0.0103756, -0.443105, 0.635172, -3.13244, -0.055329, -0.107398, 0.00461665, 0.00716091, -0.0099528, -0.001517, -0.00459594, -0.00277868
0.0652344, 0.107678, -0.774246, -0.916085, -1.45612, -0.625761, 1.07037, -0.256713, 0.00701135, -0.000419662, -0.00871403, -0.000188417, -0.0159472, 0.00385224, -6.85261e-05, -0.0914839, 15.6799, 18.0344, 15.1703, 0.827819, 3.3533, -0.0484509, 0.000718457, -0.00145064, -0.000265431, -0.000996169, -0.000592038, 0.00043577, 0.00683241, -0.01156, 0.0082595, 0.0251261, 0.0136125, 0.0332757, -0.0110246, -0.444581, 0.634847, -3.13142, -0.055602, -0.108254, -0.0103785, -0.443109, 0.635171, -3.13245, -0.0553151, -0.107385, 0.00478767, 0.00740896, -0.0103092, -0.00218017, -0.00445837, -0.00261826
0.0662344, 0.107692, -0.774243, -0.916097, -1.45612, -0.625776, 1.07037, -0.256716, 0.00947858, 0.000555382, -0.00676416, -0.000125604, -0.0166759, 0.00233724, -0.000283034, -0.131157, 15.6442, 18.0344, 15.1703, 0.827819, 3.36703, -0.0420422, 0.000714868, -0.00143846, -0.000272787, -0.00101927, -0.000631168, 0.000435744, 0.00529277, -0.0112792, 0.00903628, 0.026064, 0.015912, 0.0384665, -0.0110198, -0.444574, 0.634836, -3.1314, -0.0556043, -0.108293, -0.0103772, -0.443114, 0.635167, -3.13245, -0.0553169, -0.107365, 0.00496161, 0.0076603, -0.010671, -0.000534968, -0.00387943, -0.00209723
0.0672344, 0.107697, -0.774243, -0.916107, -1.45612, -0.625791, 1.07037, -0.25671, 0.0116651, 0.000370209, -0.00755705, -0.000918948, -0.0125205, 0.00122391, 0.00201537, -0.0557783, 15.6442, 17.9987, 15.206, 0.827819, 3.38168, -0.101552, 0.000707322, -0.0014268, -0.000280495, -0.00104334, -0.000669877, 0.000451078, 0.00393781, -0.0110135, 0.00877747, 0.0228828, 0.0138358, 0.0415819, -0.0110147, -0.444566, 0.634825, -3.13137, -0.0556067, -0.108334, -0.0103798, -0.443118, 0.635164, -3.13245, -0.0552947, -0.107347, 0.00513848, 0.00791489, -0.0110382, 0.00100091, -0.00330954, -0.00262744
0.0682344, 0.107702, -0.774244, -0.916118, -1.45612, -0.625801, 1.07038, -0.25671, 0.0102612, -0.000588447, -0.00899579, 0.00022259, -0.00895862, 0.000158346, 0.000360238, 0.0196001, 15.6799, 17.9987, 15.1703, 0.815917, 3.40365, -0.0750012, 0.000698886, -0.00141512, -0.00028989, -0.00106797, -0.000702677, 0.000461801, 0.00512708, -0.0109954, 0.00901592, 0.0208684, 0.0101653, 0.0433203, -0.0110095, -0.444558, 0.634814, -3.13135, -0.0556092, -0.108376, -0.0103833, -0.443122, 0.635161, -3.13245, -0.0552798, -0.107339, 0.00531825, 0.00817268, -0.0114107, -2.2279e-05, -0.00307787, -0.00284471
0.0692344, 0.107709, -0.774237, -0.91613, -1.45612, -0.625816, 1.07038, -0.256714, 0.0110267, 0.00220613, -0.00686099, 0.000148396, -0.0111324, -0.000285904, -0.00145526, 0.0196001, 15.5688, 17.9987, 15.1703, 0.809508, 3.41739, -0.0292249, 0.000692675, -0.00140232, -0.000298733, -0.00109469, -0.000748893, 0.000468105, 0.00387365, -0.0109541, 0.0100336, 0.0236926, 0.0149127, 0.0479919, -0.0110041, -0.44455, 0.634803, -3.13132, -0.0556118, -0.10842, -0.0103842, -0.443127, 0.635158, -3.13246, -0.0552719, -0.107312, 0.00550092, 0.00843363, -0.0117885, 0.00133812, -0.00274113, -0.00212064
0.0702344, 0.107717, -0.774241, -0.916137, -1.45611, -0.625829, 1.07038, -0.256714, 0.00751117, -0.000292503, -0.00736802, 0.00102695, -0.0133832, 0.00404432, 1.31749e-05, 0.059273, 15.6442, 17.959, 15.1306, 0.815917, 3.43204, -0.0557752, 0.000684664, -0.00139066, -0.000309388, -0.00112158, -0.000783271, 0.000474458, 0.00668126, -0.0123681, 0.0109526, 0.0294208, 0.011507, 0.0426002, -0.0109985, -0.444541, 0.634791, -3.13129, -0.0556144, -0.108465, -0.0103869, -0.44313, 0.635156, -3.13246, -0.0552639, -0.107305, 0.00568647, 0.00869769, -0.0121715, -0.00128858, -0.00399758, -0.00179135
0.0712344, 0.10773, -0.774243, -0.916149, -1.45611, -0.625839, 1.07038, -0.256708, 0.00895101, -0.00103023, -0.0088208, 0.00244788, -0.0147412, 0.00315291, 0.00119558, 0.059273, 15.6799, 17.959, 15.0552, 0.815917, 3.43204, -0.0878186, 0.000677649, -0.00137725, -0.000320229, -0.00114994, -0.000815295, 0.000486189, 0.00756366, -0.0130425, 0.011227, 0.0297319, 0.0115373, 0.0418827, -0.0109927, -0.444532, 0.634778, -3.13127, -0.0556172, -0.108512, -0.0103884, -0.443135, 0.635154, -3.13246, -0.0552476, -0.107303, 0.00587491, 0.00896481, -0.0125597, -0.00197499, -0.00443829, -0.00197212
0.0722344, 0.107737, -0.774233, -0.916159, -1.45611, -0.625853, 1.07038, -0.256714, 0.00919218, 0.00191162, -0.0121504, 0.000703898, -0.0160516, 0.00244447, -0.00038974, 0.0949785, 15.5688, 17.9233, 15.0949, 0.822325, 3.43204, -0.0557752, 0.000673646, -0.00136491, -0.00032994, -0.00117644, -0.000869287, 0.000486377, 0.00777407, -0.0138033, 0.0101959, 0.0275579, 0.0172549, 0.0429708, -0.0109867, -0.444523, 0.634765, -3.13124, -0.05562, -0.10856, -0.0103867, -0.443138, 0.635151, -3.13246, -0.0552495, -0.107268, 0.00606621, 0.00923495, -0.0129531, -0.00189532, -0.00492663, -0.00341442
0.0732344, 0.107747, -0.77423, -0.916167, -1.45611, -0.625862, 1.07039, -0.256717, 0.00704824, 0.00127441, -0.0114916, 0.000469266, -0.0208922, 0.00215781, -0.00100581, 0.0949785, 15.5688, 17.8876, 15.0949, 0.809508, 3.42471, -0.0356336, 0.000669061, -0.00135282, -0.000341137, -0.00120394, -0.000911816, 0.000485433, 0.00980784, -0.014383, 0.0107441, 0.0306463, 0.0206838, 0.0413027, -0.0109806, -0.444514, 0.634752, -3.13121, -0.055623, -0.10861, -0.0103855, -0.443141, 0.635148, -3.13246, -0.0552532, -0.107253, 0.00626038, 0.00950806, -0.0133516, -0.00374618, -0.00530985, -0.00341181
0.0742344, 0.107756, -0.774229, -0.91618, -1.45611, -0.625875, 1.07039, -0.256707, 0.00761556, 0.000849598, -0.012777, -0.000522373, -0.0202001, 0.00163121, 0.00177087, 0.134651, 15.5688, 17.9233, 15.1306, 0.804015, 3.42471, -0.101552, 0.000662038, -0.001339, -0.000350883, -0.00123123, -0.000956635, 0.000502282, 0.00999238, -0.0146864, 0.0104161, 0.0292391, 0.0208549, 0.0405293, -0.0109742, -0.444504, 0.634739, -3.13117, -0.055626, -0.108661, -0.0103863, -0.443146, 0.635144, -3.13246, -0.0552293, -0.107236, 0.00645739, 0.00978411, -0.0137552, -0.00369989, -0.00534077, -0.00415825
0.0752344, 0.107767, -0.774227, -0.916186, -1.45611, -0.625886, 1.07039, -0.256717, 0.00993757, 0.000566394, -0.0110565, 0.00048697, -0.0198785, 0.00068944, -0.00149819, 0.0949785, 15.5688, 17.848, 15.0949, 0.804015, 3.43936, -0.0292249, 0.000656939, -0.00132663, -0.000363904, -0.00126183, -0.00100105, 0.00049399, 0.00892711, -0.0145427, 0.0114735, 0.0305932, 0.0202321, 0.0486556, -0.0109676, -0.444494, 0.634725, -3.13114, -0.0556292, -0.108713, -0.0103853, -0.443149, 0.635142, -3.13246, -0.0552445, -0.107221, 0.00665724, 0.010063, -0.0141638, -0.00251658, -0.0048909, -0.00343786
0.0762344, 0.107771, -0.774221, -0.916196, -1.45611, -0.625898, 1.07039, -0.256715, 0.0110124, 0.00121281, -0.0107903, 0.000324647, -0.0194073, 0.00138181, -0.00123615, 0.21003, 15.5331, 17.8122, 15.0949, 0.797606, 3.41739, -0.0228162, 0.000648564, -0.00131295, -0.000376265, -0.0012941, -0.0010508, 0.000507662, 0.00815343, -0.0148379, 0.0119814, 0.0318626, 0.0204221, 0.0515913, -0.0109609, -0.444484, 0.63471, -3.13111, -0.0556325, -0.108767, -0.0103873, -0.443153, 0.63514, -3.13247, -0.0552256, -0.107199, 0.00685993, 0.0103448, -0.0145774, -0.0015675, -0.00488197, -0.00329381
0.0772344, 0.107781, -0.774223, -0.916209, -1.4561, -0.625908, 1.07039, -0.256709, 0.0125733, -0.000861898, -0.0122146, 0.00374291, -0.0188214, 0.000459952, 0.00110868, 0.170357, 15.6046, 17.848, 14.9442, 0.784789, 3.43204, -0.0750012, 0.000638101, -0.00129852, -0.000390518, -0.00132496, -0.00108735, 0.000524933, 0.00943323, -0.0154515, 0.0128491, 0.0323732, 0.0163738, 0.0498801, -0.0109539, -0.444473, 0.634696, -3.13108, -0.0556359, -0.108823, -0.0103913, -0.443157, 0.635139, -3.13247, -0.0552012, -0.107199, 0.00706543, 0.0106294, -0.0149959, -0.0026764, -0.00526423, -0.00294076
0.0782344, 0.10779, -0.774223, -0.916219, -1.45611, -0.625917, 1.07039, -0.256714, 0.0116551, -0.00150262, -0.0115086, -0.000103184, -0.0187376, 0.00546087, -0.000244223, 0.21003, 15.6442, 17.8122, 15.0552, 0.779296, 3.42471, -0.0484509, 0.000632631, -0.00128473, -0.000401259, -0.00135392, -0.0011362, 0.000520034, 0.00864829, -0.0162421, 0.012762, 0.0358235, 0.0157756, 0.0545255, -0.0109468, -0.444463, 0.63468, -3.13104, -0.0556394, -0.10888, -0.0103898, -0.44316, 0.635134, -3.13246, -0.0552116, -0.107182, 0.00727374, 0.0109167, -0.0154193, -0.0016516, -0.00573892, -0.00340288
0.0792344, 0.107803, -0.774214, -0.916234, -1.45611, -0.625925, 1.07039, -0.256714, 0.00980068, 0.000761489, -0.013607, 0.000766429, -0.0184049, 0.00381686, -0.000637533, 0.170357, 15.5688, 17.8876, 15.0195, 0.766478, 3.43204, -0.0356336, 0.000626775, -0.00127031, -0.000413376, -0.00137925, -0.00119055, 0.000526844, 0.00993263, -0.0165464, 0.0128714, 0.0345312, 0.0182882, 0.0528498, -0.0109394, -0.444452, 0.634665, -3.131, -0.055643, -0.108939, -0.0103886, -0.443164, 0.63513, -3.13246, -0.055204, -0.107157, 0.00748486, 0.0112067, -0.0158476, -0.00271801, -0.00579969, -0.00381445
0.0802344, 0.107812, -0.774213, -0.916239, -1.4561, -0.625936, 1.07039, -0.256709, 0.00958116, -0.000327559, -0.00836452, 0.00143897, -0.0141202, 0.00342278, 0.00103304, 0.21003, 15.6046, 17.8122, 14.9799, 0.772887, 3.41739, -0.0750012, 0.000620192, -0.00125673, -0.000429338, -0.00141673, -0.0012371, 0.000534507, 0.00820946, -0.0153088, 0.0149473, 0.0368569, 0.0136346, 0.0583549, -0.0109318, -0.44444, 0.634649, -3.13097, -0.0556467, -0.109, -0.0103882, -0.443167, 0.635129, -3.13246, -0.0551947, -0.107147, 0.00769877, 0.0114994, -0.0162807, -0.000974881, -0.00422974, -0.00204901
0.0812344, 0.107823, -0.774203, -0.916253, -1.4561, -0.625944, 1.07039, -0.256708, 0.00819805, 0.00453346, -0.0102961, 0.00179453, -0.0101823, 0.00199107, 0.000688693, 0.170357, 15.5331, 17.848, 14.9442, 0.760985, 3.43204, -0.0750012, 0.000614649, -0.00124202, -0.000442328, -0.00144479, -0.00129611, 0.00054068, 0.00761036, -0.0151353, 0.0150556, 0.0341466, 0.016235, 0.0592553, -0.010924, -0.444429, 0.634632, -3.13093, -0.0556505, -0.109062, -0.0103864, -0.44317, 0.635125, -3.13245, -0.0551883, -0.107118, 0.00791545, 0.0117947, -0.0167186, -0.000175147, -0.00374147, -0.00233686
0.0822344, 0.107836, -0.774207, -0.916261, -1.4561, -0.625952, 1.07039, -0.256714, 0.00928196, 0.00378993, -0.00688082, 0.00119636, -0.0081363, 0.00151619, -0.00147365, 0.170357, 15.6442, 17.8122, 14.9442, 0.772887, 3.43204, -0.0228162, 0.000608196, -0.00122701, -0.000457754, -0.00148139, -0.00133824, 0.00053381, 0.00598244, -0.0144464, 0.0162007, 0.0354525, 0.014591, 0.0681156, -0.010916, -0.444417, 0.634615, -3.13089, -0.0556545, -0.109126, -0.0103853, -0.443173, 0.635123, -3.13245, -0.0552018, -0.107119, 0.00813491, 0.0120926, -0.0171612, 0.00156255, -0.00270937, -0.00151969
0.0832344, 0.107846, -0.774196, -0.916271, -1.4561, -0.62596, 1.07039, -0.256706, 0.00915661, 0.00474155, -0.00522616, 0.00163279, -0.00610465, 0.00142367, 0.00169633, 0.21003, 15.5688, 17.8122, 14.9084, 0.772887, 3.42471, -0.0951428, 0.000603407, -0.0012125, -0.000473158, -0.00151507, -0.0013994, 0.000545677, 0.00511805, -0.0141672, 0.017299, 0.0367545, 0.0138533, 0.068574, -0.0109077, -0.444404, 0.634598, -3.13085, -0.0556585, -0.109191, -0.0103824, -0.443176, 0.635121, -3.13245, -0.0551866, -0.10709, 0.00835714, 0.012393, -0.0176085, 0.00255959, -0.00211064, -0.00080986
0.0842344, 0.107857, -0.774195, -0.916281, -1.4561, -0.625967, 1.07039, -0.256703, 0.010143, 0.00266459, -0.00396332, 0.000253308, -0.00951444, 0.000784053, 0.00113089, 0.21003, 15.6046, 17.8122, 14.9442, 0.779296, 3.43204, -0.0951428, 0.000597365, -0.00119739, -0.000487788, -0.00154875, -0.00145205, 0.000549212, 0.00556105, -0.0144732, 0.0175457, 0.0384342, 0.0157061, 0.0719197, -0.0108992, -0.444392, 0.63458, -3.13081, -0.0556627, -0.109258, -0.0103805, -0.443179, 0.635117, -3.13245, -0.0551843, -0.107077, 0.00858211, 0.0126959, -0.0180604, 0.00233607, -0.00213221, -0.00104967
0.0852344, 0.107869, -0.774187, -0.91629, -1.4561, -0.625975, 1.07039, -0.256713, 0.0101719, 0.0052097, -0.00538417, 0.00100409, -0.0128053, 0.000602357, -0.00192484, 0.245735, 15.6046, 17.7765, 14.9084, 0.804015, 3.43204, -0.0228162, 0.000592129, -0.00118187, -0.000504765, -0.00158681, -0.00150986, 0.000541477, 0.0062552, -0.0153758, 0.0179243, 0.0403206, 0.0205814, 0.0737319, -0.0108905, -0.444379, 0.634562, -3.13077, -0.055667, -0.109327, -0.0103777, -0.443182, 0.635115, -3.13245, -0.0551996, -0.107058, 0.00880983, 0.0130012, -0.018517, 0.00187705, -0.00275765, -0.00118446
0.0862344, 0.107877, -0.77418, -0.916305, -1.4561, -0.625981, 1.0704, -0.256714, 0.0129403, 0.00707061, -0.00901282, 0.000669393, -0.009956, 0.00100385, -0.00128323, 0.285408, 15.6046, 17.848, 14.9084, 0.815917, 3.41739, -0.0228162, 0.000583938, -0.00116509, -0.000519933, -0.00162091, -0.00156794, 0.000549189, 0.00517124, -0.0161333, 0.0172884, 0.0377315, 0.0206562, 0.0764212, -0.0108816, -0.444366, 0.634543, -3.13072, -0.0556715, -0.109398, -0.0103774, -0.443186, 0.635111, -3.13244, -0.0551912, -0.10704, 0.00904028, 0.013309, -0.0189781, 0.00325882, -0.00316335, -0.00221053
0.0872344, 0.107895, -0.774176, -0.916315, -1.4561, -0.625986, 1.0704, -0.256707, 0.0147833, 0.00743609, -0.00984399, 0.000446262, -0.00828662, 0.00044277, 0.00131465, 0.21003, 15.6442, 17.848, 14.9084, 0.840636, 3.42471, -0.0814099, 0.00058049, -0.00114948, -0.000536536, -0.00165562, -0.00162372, 0.00054971, 0.00440999, -0.0163259, 0.0173753, 0.0366686, 0.0204123, 0.0777567, -0.0108725, -0.444352, 0.634524, -3.13068, -0.0556761, -0.10947, -0.0103723, -0.443189, 0.635108, -3.13244, -0.055194, -0.107027, 0.00927346, 0.0136191, -0.0194438, 0.00425104, -0.00302041, -0.00253859
0.0882344, 0.107904, -0.774172, -0.916328, -1.45611, -0.625987, 1.0704, -0.256707, 0.0124179, 0.00482868, -0.0113949, -0.00053771, -0.00539656, 0.000328785, 0.000876436, 0.285408, 15.6799, 17.8876, 14.9442, 0.822325, 3.42471, -0.0814099, 0.000574044, -0.00113372, -0.00055178, -0.00168705, -0.0016816, 0.000550374, 0.00620177, -0.0165106, 0.0170896, 0.0346421, 0.0165605, 0.07838, -0.0108631, -0.444339, 0.634504, -3.13064, -0.0556808, -0.109544, -0.0103699, -0.443191, 0.635103, -3.13243, -0.0551969, -0.107012, 0.00950935, 0.0139315, -0.0199139, 0.00272647, -0.00295361, -0.00342143
0.0892344, 0.107915, -0.774171, -0.916337, -1.4561, -0.625993, 1.07039, -0.256711, 0.0147656, 0.00207856, -0.0115913, 0.00223998, -0.00445126, -2.68741e-05, -0.00182321, 0.325081, 15.7513, 17.8876, 14.8331, 0.834227, 3.43204, -0.0164075, 0.000563947, -0.00111755, -0.000572065, -0.00172701, -0.00173405, 0.000552826, 0.00671036, -0.0169716, 0.0181709, 0.0359134, 0.0116817, 0.0841521, -0.0108534, -0.444325, 0.634484, -3.13059, -0.0556856, -0.10962, -0.0103712, -0.443194, 0.635102, -3.13243, -0.0551968, -0.107009, 0.00974794, 0.0142462, -0.0203885, 0.0023984, -0.00312892, -0.00285752
0.0902344, 0.10792, -0.774164, -0.916349, -1.4561, -0.625997, 1.07039, -0.256705, 0.012596, 0.00261833, -0.0118335, 0.000658104, -0.00780102, 0.000272254, 0.000717309, 0.400459, 15.7156, 17.8876, 14.8688, 0.827819, 3.42471, -0.0685925, 0.000555899, -0.00110127, -0.00058885, -0.00176237, -0.00179859, 0.000565181, 0.00809512, -0.0175931, 0.018233, 0.0377518, 0.015819, 0.08033, -0.0108436, -0.44431, 0.634463, -3.13054, -0.0556906, -0.109698, -0.01037, -0.443196, 0.635098, -3.13242, -0.0551816, -0.106987, 0.00998923, 0.0145631, -0.0208674, 0.00127635, -0.00348328, -0.00337737
0.0912344, 0.107935, -0.774159, -0.916357, -1.4561, -0.626, 1.07039, -0.256706, 0.0137921, 0.00204361, -0.008825, 0.000438736, -0.00630434, 0.000738214, -0.000267779, 0.360787, 15.7156, 17.8876, 14.8688, 0.840636, 3.41006, -0.0484509, 0.000552163, -0.0010847, -0.000608044, -0.00180317, -0.00185925, 0.000558233, 0.00660499, -0.0172588, 0.0195061, 0.0401401, 0.0140809, 0.0875141, -0.0108335, -0.444295, 0.634442, -3.13049, -0.0556957, -0.109777, -0.0103644, -0.443198, 0.635096, -3.13242, -0.0551964, -0.106974, 0.0102332, 0.0148823, -0.0213508, 0.00290412, -0.00279106, -0.002485
0.0922344, 0.107945, -0.774152, -0.916371, -1.4561, -0.626004, 1.07039, -0.256709, 0.012648, 0.00552924, -0.0105885, 0.000292491, -0.00938271, -0.000582294, -0.00112796, 0.400459, 15.6799, 17.9233, 14.8688, 0.840636, 3.43936, -0.0228162, 0.00054415, -0.00106778, -0.000625408, -0.00183712, -0.00192623, 0.000559309, 0.00755094, -0.0179045, 0.0195171, 0.0404342, 0.0209166, 0.086377, -0.0108231, -0.44428, 0.634421, -3.13044, -0.0557009, -0.109858, -0.0103626, -0.4432, 0.635091, -3.13241, -0.0551991, -0.106953, 0.0104799, 0.0152035, -0.0218384, 0.00222923, -0.00314945, -0.00303416
0.0932344, 0.107953, -0.774151, -0.916383, -1.45611, -0.626007, 1.07039, -0.256704, 0.0150643, 0.00244238, -0.011777, -0.000733026, -0.00767943, 0.000433581, 0.000943451, 0.436165, 15.7513, 17.959, 14.9084, 0.858946, 3.41739, -0.0685925, 0.000534667, -0.00104976, -0.000643572, -0.00187662, -0.00198597, 0.000568294, 0.00737716, -0.0185034, 0.0192802, 0.0397949, 0.0169678, 0.0890742, -0.0108125, -0.444265, 0.634399, -3.13039, -0.0557063, -0.109941, -0.0103622, -0.443204, 0.635086, -3.1324, -0.0551895, -0.106945, 0.0107292, 0.0155269, -0.0223304, 0.00268893, -0.00341699, -0.003756
0.0942344, 0.107968, -0.774147, -0.916393, -1.45611, -0.626008, 1.07039, -0.256705, 0.0153983, 0.0050393, -0.00786664, -0.000488684, -0.00591657, 0.000295035, 0.000391608, 0.400459, 15.7513, 17.9233, 14.9084, 0.865355, 3.41739, -0.0621838, 0.000529788, -0.00103257, -0.000663247, -0.00191666, -0.002049, 0.000562242, 0.0051263, -0.0177949, 0.0210532, 0.0426977, 0.0181547, 0.0955856, -0.0108016, -0.444249, 0.634376, -3.13034, -0.0557118, -0.110026, -0.010357, -0.443205, 0.635083, -3.13239, -0.0552033, -0.106934, 0.0109812, 0.0158524, -0.0228265, 0.00503432, -0.00232308, -0.00232129
0.0952344, 0.10798, -0.774144, -0.916409, -1.45611, -0.626011, 1.07039, -0.256708, 0.0115861, 0.00703509, -0.0108061, -0.00116101, -0.00436407, 0.000201175, -0.000959631, 0.400459, 15.7513, 17.9987, 14.9442, 0.865355, 3.41739, -0.0292249, 0.000521397, -0.0010137, -0.000681419, -0.00195424, -0.00211533, 0.000560641, 0.00694309, -0.0182987, 0.0207168, 0.0410455, 0.0197666, 0.0939269, -0.0107905, -0.444233, 0.634353, -3.13029, -0.0557175, -0.110113, -0.0103549, -0.443209, 0.635077, -3.13238, -0.0552105, -0.106919, 0.0112358, 0.0161798, -0.0233269, 0.0035184, -0.00256076, -0.00329026
0.0962344, 0.107994, -0.77414, -0.916418, -1.45611, -0.626012, 1.07039, -0.256705, 0.0127824, 0.0061633, -0.0132725, -0.000774005, -0.00322415, 0.000137481, 0.00034359, 0.360787, 15.7156, 17.959, 14.9442, 0.865355, 3.41739, -0.0557752, 0.000515533, -0.000995961, -0.000702204, -0.00199651, -0.00218054, 0.000559364, 0.00756984, -0.0190255, 0.0205857, 0.0399538, 0.0181366, 0.0942497, -0.0107792, -0.444217, 0.634329, -3.13024, -0.0557233, -0.110202, -0.0103502, -0.443211, 0.635074, -3.13237, -0.0552172, -0.106909, 0.011493, 0.0165093, -0.0238314, 0.00318509, -0.0029794, -0.00397668
0.0972344, 0.108008, -0.774137, -0.916428, -1.45612, -0.62601, 1.07039, -0.256704, 0.016663, 0.0054226, -0.0122549, -0.000516003, -0.00238551, 0.000602804, 0.000703778, 0.325081, 15.6799, 17.9233, 14.9442, 0.865355, 3.40365, -0.0685925, 0.000510505, -0.000977895, -0.000723176, -0.00203843, -0.00224291, 0.000553919, 0.00582807, -0.0192674, 0.0213767, 0.0414601, 0.0165449, 0.100786, -0.0107676, -0.4442, 0.634305, -3.13018, -0.0557293, -0.110292, -0.0103445, -0.443212, 0.63507, -3.13237, -0.0552305, -0.106904, 0.0117529, 0.0168407, -0.0243401, 0.00513343, -0.00283754, -0.00357683
0.0982344, 0.108016, -0.774135, -0.91644, -1.45612, -0.62601, 1.07039, -0.256709, 0.0146636, 0.00480917, -0.0123414, 0.000491216, -0.00220821, 0.000166403, -0.00122624, 0.360787, 15.6442, 17.9233, 14.9084, 0.877257, 3.41006, -0.0228162, 0.000500026, -0.000959064, -0.000744638, -0.0020809, -0.00230841, 0.000553436, 0.00738196, -0.0195263, 0.0221955, 0.0426077, 0.0155632, 0.102218, -0.0107557, -0.444183, 0.634281, -3.13012, -0.0557354, -0.110385, -0.0103439, -0.443215, 0.635066, -3.13236, -0.0552362, -0.106897, 0.0120154, 0.017174, -0.0248528, 0.00379754, -0.00282732, -0.00338596
0.0992344, 0.108028, -0.774129, -0.916458, -1.45612, -0.626013, 1.07039, -0.256705, 0.0141129, 0.00523851, -0.014155, -0.000507741, -0.00160493, -0.000158913, 0.000640572, 0.360787, 15.5688, 17.9987, 14.9442, 0.877257, 3.41739, -0.0621838, 0.000490436, -0.000939455, -0.000763258, -0.00211633, -0.00238497, 0.000561083, 0.00802589, -0.0199852, 0.0219187, 0.0414134, 0.0166385, 0.101228, -0.0107435, -0.444166, 0.634256, -3.13007, -0.0557417, -0.110479, -0.010342, -0.443218, 0.635059, -3.13234, -0.0552297, -0.106874, 0.0122806, 0.0175091, -0.0253696, 0.0034555, -0.00297183, -0.00422957
0.100234, 0.108041, -0.77413, -0.916468, -1.45612, -0.626014, 1.07039, -0.256703, 0.0144896, 0.002859, -0.0127841, 0.00142474, -0.00116955, 0.00016639, 0.00113912, 0.325081, 15.6046, 17.959, 14.8688, 0.877257, 3.41006, -0.0814099, 0.000481349, -0.00091941, -0.00078743, -0.00216698, -0.00244679, 0.000562633, 0.00866432, -0.0202316, 0.023371, 0.0442857, 0.0126644, 0.103397, -0.0107311, -0.444148, 0.63423, -3.13001, -0.0557481, -0.110576, -0.0103397, -0.443221, 0.635057, -3.13234, -0.0552323, -0.106876, 0.0125483, 0.0178461, -0.0258904, 0.00299223, -0.00291989, -0.00335042
0.101234, 0.10805, -0.774126, -0.916486, -1.45612, -0.626015, 1.07039, -0.256708, 0.0131005, 0.00372784, -0.0167675, 0.00178505, -0.00109176, 0.000111725, -0.00117336, 0.360787, 15.5331, 17.9987, 14.8331, 0.883666, 3.41006, -0.0292249, 0.000469551, -0.000898294, -0.000809199, -0.00221087, -0.00251711, 0.000564241, 0.0106041, -0.0212764, 0.0229688, 0.0430145, 0.0136564, 0.103178, -0.0107184, -0.44413, 0.634204, -3.12995, -0.0557547, -0.110674, -0.0103396, -0.443224, 0.635051, -3.13233, -0.0552352, -0.106868, 0.0128186, 0.0181849, -0.0264151, 0.00139336, -0.00369069, -0.00442371
0.102234, 0.108066, -0.774129, -0.916492, -1.45613, -0.626016, 1.07039, -0.256704, 0.0178706, 0.00176356, -0.0129278, -0.00196923, -0.00098731, 0.000854976, 0.00067582, 0.285408, 15.5688, 17.8876, 14.8331, 0.889159, 3.38901, -0.0685925, 0.000463358, -0.000878871, -0.000833223, -0.00226155, -0.00258356, 0.000558176, 0.00722695, -0.0209163, 0.0233085, 0.044551, 0.0137649, 0.113047, -0.0107055, -0.444112, 0.634177, -3.12989, -0.0557614, -0.110774, -0.0103339, -0.443226, 0.635048, -3.13232, -0.0552499, -0.106867, 0.0130915, 0.0185254, -0.0269437, 0.00499468, -0.00287622, -0.00437345
0.103234, 0.108078, -0.774134, -0.91651, -1.45613, -0.626016, 1.07039, -0.256706, 0.0132707, 0.000425655, -0.016956, -0.000648068, -0.000700224, 0.000299165, -0.000295439, 0.285408, 15.6046, 17.9233, 14.7934, 0.889159, 3.39633, -0.0484509, 0.000449899, -0.000857985, -0.000854511, -0.00230095, -0.00265144, 0.000559116, 0.0114869, -0.0218819, 0.023171, 0.0433397, 0.0120078, 0.10789, -0.0106922, -0.444093, 0.63415, -3.12983, -0.0557683, -0.110876, -0.0103349, -0.443229, 0.635041, -3.1323, -0.0552543, -0.106866, 0.0133669, 0.0188676, -0.0274763, 0.0010666, -0.00364908, -0.00535472
0.104234, 0.108091, -0.774128, -0.916525, -1.45614, -0.626016, 1.07039, -0.256702, 0.0129887, 0.00201808, -0.0127558, -0.00366817, -0.000735687, -7.14869e-05, 0.000311667, 0.285408, 15.5331, 17.9233, 14.7934, 0.895568, 3.40365, -0.0621838, 0.000441504, -0.000836538, -0.000876863, -0.00234668, -0.00273153, 0.000563895, 0.00944314, -0.0211019, 0.0240339, 0.0452414, 0.0158084, 0.113813, -0.0106787, -0.444074, 0.634122, -3.12976, -0.0557754, -0.110981, -0.0103306, -0.443232, 0.635035, -3.13229, -0.0552528, -0.106847, 0.0136449, 0.0192114, -0.0280126, 0.00329167, -0.00246427, -0.00488117
0.105234, 0.108108, -0.774127, -0.916541, -1.45615, -0.626018, 1.07039, -0.256704, 0.0137642, 0.00139329, -0.0159261, -0.0109384, 0.0084975, 0.000766397, 0.000207778, 0.245735, 15.5331, 17.9233, 14.8688, 0.908385, 3.38168, -0.0621838, 0.000433638, -0.000814831, -0.000898231, -0.00238991, -0.00281043, 0.000555652, 0.00715957, -0.0207315, 0.0214976, 0.0367158, 0.0128898, 0.122533, -0.0106649, -0.444055, 0.634094, -3.1297, -0.0557826, -0.111087, -0.0103255, -0.443235, 0.635027, -3.13228, -0.0552718, -0.106833, 0.0139255, 0.0195569, -0.0285528, 0.00601323, -0.00164253, -0.00778797
0.106234, 0.10812, -0.774129, -0.916554, -1.45614, -0.626017, 1.07039, -0.256704, 0.0141116, 0.000964791, -0.0132811, -0.00784252, 0.00667516, 0.000511121, 0.000375878, 0.21003, 15.5331, 17.848, 14.722, 0.901976, 3.38168, -0.0685925, 0.000421017, -0.000793152, -0.000924755, -0.00244159, -0.00287898, 0.000558266, 0.00756451, -0.020919, 0.0237139, 0.041742, 0.0120637, 0.124378, -0.0106509, -0.444035, 0.634065, -3.12963, -0.05579, -0.111195, -0.0103251, -0.443238, 0.635024, -3.13227, -0.0552736, -0.106837, 0.0142086, 0.019904, -0.0290967, 0.00574127, -0.00152231, -0.00615348
0.107234, 0.108131, -0.774125, -0.916571, -1.45615, -0.626018, 1.07039, -0.256704, 0.00960122, 0.00159816, -0.0164452, -0.0101083, 0.00458889, 0.00112078, -0.000732759, 0.245735, 15.4935, 17.848, 14.7577, 0.913878, 3.36062, -0.0420422, 0.000410936, -0.000770506, -0.000947588, -0.00248907, -0.00296315, 0.000559337, 0.0105132, -0.0219434, 0.0229165, 0.0413058, 0.0157915, 0.120861, -0.0106365, -0.444015, 0.634036, -3.12957, -0.0557975, -0.111306, -0.0103217, -0.443241, 0.635016, -3.13225, -0.0552783, -0.106819, 0.0144943, 0.0202526, -0.0296444, 0.00317935, -0.0022943, -0.00771684
0.108234, 0.10815, -0.774124, -0.916586, -1.45615, -0.626018, 1.07039, -0.256709, 0.0121319, 0.00108565, -0.0116043, -0.00808667, 0.00349396, 0.000747295, -0.00143794, 0.170357, 15.4935, 17.8122, 14.6466, 0.913878, 3.36062, -0.0164075, 0.000401167, -0.000747448, -0.000973301, -0.00253977, -0.00303947, 0.00055136, 0.00892387, -0.0215951, 0.0253527, 0.0465781, 0.0150132, 0.128359, -0.0106219, -0.443995, 0.634006, -3.1295, -0.0558053, -0.111418, -0.0103179, -0.443244, 0.635011, -3.13224, -0.0552971, -0.106815, 0.0147825, 0.0206027, -0.0301957, 0.00486516, -0.00156805, -0.00572437
0.109234, 0.108162, -0.774127, -0.916608, -1.45616, -0.626019, 1.07039, -0.256704, 0.00893291, -0.000189095, -0.0158945, -0.00937991, 0.00241797, -0.00418578, 0.000974152, 0.170357, 15.5331, 17.848, 14.6466, 0.920287, 3.36062, -0.0685925, 0.000387566, -0.000723471, -0.000995512, -0.00258385, -0.00312022, 0.000559375, 0.012835, -0.0218561, 0.023942, 0.0405112, 0.0182947, 0.121778, -0.010607, -0.443974, 0.633975, -3.12943, -0.0558132, -0.111532, -0.0103173, -0.443248, 0.635002, -3.13222, -0.0552914, -0.106806, 0.0150731, 0.0209542, -0.0307507, 0.00136501, -0.00160155, -0.00796979
0.110234, 0.108172, -0.774129, -0.916624, -1.45618, -0.626018, 1.07039, -0.256701, 0.005661, -0.000114695, -0.0173941, -0.011105, -0.00717028, -0.00290953, 0.000412076, 0.21003, 15.5331, 17.8122, 14.6823, 0.908385, 3.3533, -0.0621838, 0.000375227, -0.000700436, -0.001019, -0.00263067, -0.0032025, 0.000561408, 0.0163887, -0.0236175, 0.023801, 0.0452441, 0.0263958, 0.116383, -0.0105917, -0.443953, 0.633944, -3.12936, -0.0558213, -0.111649, -0.0103153, -0.443251, 0.634993, -3.13221, -0.0552952, -0.106797, 0.0153663, 0.0213072, -0.0313093, -0.00181234, -0.00313419, -0.00894029
0.111234, 0.108193, -0.77413, -0.916641, -1.45618, -0.626019, 1.07039, -0.256707, 0.00916348, -0.000903155, -0.0184948, -0.0127847, -0.00582657, -0.00196113, -0.000945986, 0.134651, 15.5688, 17.7765, 14.6069, 0.920287, 3.34598, -0.0292249, 0.000365741, -0.000676169, -0.00104452, -0.00268229, -0.00328561, 0.000549477, 0.0149906, -0.0241934, 0.0235079, 0.0446012, 0.0255299, 0.124085, -0.0105762, -0.443931, 0.633913, -3.12929, -0.0558295, -0.111768, -0.0103103, -0.443254, 0.634986, -3.13219, -0.0553206, -0.106789, 0.015662, 0.0216616, -0.0318714, -8.29793e-05, -0.00330448, -0.00970266
0.112234, 0.108204, -0.774132, -0.916665, -1.45619, -0.626018, 1.0704, -0.256703, 0.0121429, -0.000595709, -0.0220041, -0.0128097, -0.0041012, -0.000984416, -0.000155939, 0.170357, 15.5688, 17.848, 14.6069, 0.913878, 3.33133, -0.0420422, 0.000350591, -0.000650644, -0.0010676, -0.00272837, -0.00337039, 0.000559363, 0.0145332, -0.0252636, 0.0231002, 0.0433091, 0.0244807, 0.126628, -0.0105604, -0.443909, 0.63388, -3.12921, -0.055838, -0.111888, -0.0103104, -0.443259, 0.634976, -3.13217, -0.0553126, -0.10678, 0.0159602, 0.0220173, -0.0324371, 0.000737169, -0.0039992, -0.0106545
0.113234, 0.108214, -0.774132, -0.916679, -1.4562, -0.626018, 1.07039, -0.2567, 0.0112897, -0.000392343, -0.0179407, -0.0128579, -0.00307477, -0.0003123, 0.000879385, 0.21003, 15.5688, 17.7765, 14.6069, 0.913878, 3.31759, -0.0685925, 0.00033827, -0.000627399, -0.00109341, -0.00277882, -0.00346047, 0.000561845, 0.0135253, -0.0247876, 0.0249248, 0.0472057, 0.0236555, 0.130564, -0.0105443, -0.443887, 0.633848, -3.12914, -0.0558466, -0.112011, -0.0103077, -0.443261, 0.634968, -3.13215, -0.0553161, -0.106765, 0.0162609, 0.0223744, -0.0330063, 0.00189382, -0.00315299, -0.00933047
0.114234, 0.108232, -0.77413, -0.916703, -1.45621, -0.626018, 1.07039, -0.256708, 0.0134397, 0.000577253, -0.0205902, -0.013301, -0.00210188, -6.0419e-05, -0.00110916, 0.134651, 15.5331, 17.8122, 14.4958, 0.908385, 3.31027, -0.0228162, 0.000325283, -0.000601041, -0.00111992, -0.00282999, -0.00354809, 0.000556609, 0.0130976, -0.0255851, 0.0246272, 0.0460547, 0.0244391, 0.135589, -0.0105279, -0.443865, 0.633814, -3.12906, -0.0558554, -0.112136, -0.0103052, -0.443265, 0.63496, -3.13213, -0.0553318, -0.106756, 0.016564, 0.0227327, -0.033579, 0.00267156, -0.00357505, -0.0101793
0.115234, 0.108244, -0.77413, -0.916723, -1.45622, -0.62602, 1.0704, -0.256704, 0.0122944, -0.00272421, -0.0185447, -0.0164475, -0.00247448, 0.000409641, 0.000955978, 0.170357, 15.5331, 17.8122, 14.4958, 0.932189, 3.29562, -0.0685925, 0.000311922, -0.000575254, -0.00114488, -0.00288146, -0.00364366, 0.000562022, 0.0135948, -0.0255071, 0.0248065, 0.0471401, 0.0233935, 0.137615, -0.0105112, -0.443842, 0.633781, -3.12899, -0.0558644, -0.112263, -0.0103028, -0.443269, 0.63495, -3.13212, -0.0553311, -0.106737, 0.0168696, 0.0230922, -0.034155, 0.00246425, -0.00315898, -0.0106146
0.116234, 0.108257, -0.774135, -0.916739, -1.45623, -0.626019, 1.0704, -0.256701, 0.0115003, -0.00290865, -0.0153749, -0.0138921, -0.00135255, 0.000203633, 0.00039996, 0.21003, 15.5688, 17.7369, 14.4205, 0.920287, 3.29562, -0.0621838, 0.000297618, -0.000550051, -0.00117302, -0.0029365, -0.00372969, 0.00056359, 0.0135865, -0.0252071, 0.0270912, 0.0510947, 0.0209061, 0.141271, -0.0104942, -0.443818, 0.633746, -3.12891, -0.0558736, -0.112393, -0.0103012, -0.443272, 0.634942, -3.1321, -0.0553364, -0.106736, 0.0171776, 0.0234529, -0.0347344, 0.0026045, -0.00252617, -0.00891516
0.117234, 0.108274, -0.774128, -0.916767, -1.45624, -0.62602, 1.0704, -0.256706, 0.0128067, -0.000368829, -0.0166038, -0.0147796, -0.00145029, 8.36592e-05, -0.00166614, 0.170357, 15.4935, 17.8122, 14.4601, 0.932189, 3.29562, -0.00999879, 0.000285619, -0.000522664, -0.00119656, -0.00298303, -0.00383599, 0.000560414, 0.0127589, -0.0257017, 0.0271225, 0.0509554, 0.0244819, 0.146362, -0.0104768, -0.443795, 0.633711, -3.12883, -0.0558829, -0.112524, -0.0102967, -0.443276, 0.63493, -3.13207, -0.0553498, -0.106704, 0.017488, 0.0238148, -0.0353172, 0.00375356, -0.00263179, -0.00941476
0.118234, 0.108284, -0.77413, -0.916786, -1.45626, -0.62602, 1.0704, -0.256701, 0.011732, -0.00131863, -0.0146801, -0.0102574, -0.000844243, 0.000559236, 0.000584661, 0.21003, 15.5331, 17.7765, 14.4205, 0.926695, 3.28097, -0.0557752, 0.000270148, -0.000496085, -0.00122397, -0.003038, -0.00392975, 0.000568816, 0.0139488, -0.0259583, 0.0297049, 0.0560028, 0.0200513, 0.144755, -0.0104592, -0.443771, 0.633676, -3.12875, -0.0558925, -0.112658, -0.0102956, -0.44328, 0.63492, -3.13206, -0.0553449, -0.106694, 0.0178009, 0.0241778, -0.0359033, 0.00270252, -0.00259932, -0.00751657
0.119234, 0.108299, -0.774133, -0.916809, -1.45627, -0.626022, 1.07039, -0.256701, 0.0120156, -0.00182285, -0.0181005, -0.00922133, -0.00130162, 0.00034352, 0.000389774, 0.21003, 15.5688, 17.8122, 14.3491, 0.945006, 3.28097, -0.0557752, 0.000254605, -0.00046907, -0.00125041, -0.0030886, -0.00402991, 0.000570572, 0.0156892, -0.0270636, 0.0296259, 0.0554645, 0.0197515, 0.144158, -0.0104412, -0.443746, 0.633639, -3.12867, -0.0559023, -0.112794, -0.0102941, -0.443283, 0.634909, -3.13203, -0.0553508, -0.106677, 0.0181163, 0.0245419, -0.0364926, 0.00132632, -0.00340256, -0.0083238
0.120234, 0.108307, -0.774133, -0.916833, -1.45629, -0.626021, 1.07039, -0.256706, 0.0104292, -0.00129664, -0.020548, -0.011029, -0.000675859, 0.000444394, -0.00143557, 0.285408, 15.5688, 17.848, 14.3848, 0.938597, 3.27456, -0.00999879, 0.000238649, -0.000441985, -0.00127503, -0.00313661, -0.00413596, 0.000569483, 0.0167958, -0.0276678, 0.0290795, 0.0539656, 0.0213013, 0.146054, -0.0104229, -0.443722, 0.633603, -3.12858, -0.0559122, -0.112932, -0.0102927, -0.443287, 0.634895, -3.132, -0.0553614, -0.106652, 0.018434, 0.0249071, -0.0370852, 0.000599914, -0.00367628, -0.00955044
0.121234, 0.108325, -0.774132, -0.916855, -1.45631, -0.62602, 1.0704, -0.256703, 0.012088, -9.0265e-05, -0.0216348, -0.0106525, -0.00116284, 0.00109358, -7.61205e-06, 0.245735, 15.5331, 17.848, 14.3491, 0.956908, 3.25259, -0.0356336, 0.00022638, -0.000413887, -0.00130286, -0.00319221, -0.0042378, 0.0005685, 0.0164372, -0.0284386, 0.0295609, 0.0553661, 0.0226315, 0.147331, -0.0104044, -0.443697, 0.633565, -3.1285, -0.0559224, -0.113072, -0.0102874, -0.44329, 0.634885, -3.13198, -0.0553718, -0.106637, 0.0187541, 0.0252732, -0.0376809, 0.0012684, -0.00407585, -0.0096512
0.122234, 0.108336, -0.774131, -0.916875, -1.45632, -0.626024, 1.0704, -0.2567, 0.0112989, -0.000105969, -0.0216182, -0.00762823, -0.00127552, 0.00122532, 0.000978269, 0.285408, 15.5331, 17.8122, 14.1983, 0.969725, 3.23886, -0.0621838, 0.000209821, -0.000385432, -0.00133356, -0.00325511, -0.00434292, 0.000577595, 0.0177069, -0.0289838, 0.0311555, 0.0584334, 0.0209275, 0.146287, -0.0103854, -0.443671, 0.633527, -3.12841, -0.0559327, -0.113214, -0.0102863, -0.443294, 0.634876, -3.13197, -0.0553664, -0.106619, 0.0190766, 0.0256403, -0.0382798, 0.000227829, -0.00431984, -0.00876081
0.123234, 0.108351, -0.774135, -0.9169, -1.45634, -0.626025, 1.0704, -0.256707, 0.0117317, -0.000940208, -0.0233391, -0.013159, -0.00107298, 0.00107887, -0.00155187, 0.285408, 15.5688, 17.848, 14.234, 0.975218, 3.23153, -0.00267457, 0.000194932, -0.000356658, -0.00135867, -0.00330565, -0.00445227, 0.000568279, 0.0174477, -0.0293082, 0.0295523, 0.0550668, 0.0239862, 0.153196, -0.0103662, -0.443645, 0.633489, -3.12833, -0.0559433, -0.113359, -0.0102828, -0.443298, 0.634861, -3.13194, -0.0553904, -0.106596, 0.0194015, 0.0260084, -0.0388819, 0.000936038, -0.00425025, -0.0109503
0.124234, 0.108362, -0.774138, -0.91693, -1.45635, -0.626025, 1.0704, -0.256705, 0.0110804, -0.00148778, -0.0262637, -0.0159758, -0.000526258, 0.000983563, -0.000525952, 0.325081, 15.6046, 17.959, 14.0872, 0.969725, 3.22421, -0.0164075, 0.000174643, -0.000326206, -0.00138625, -0.00335943, -0.00455636, 0.000580101, 0.0184589, -0.0299688, 0.0284911, 0.052442, 0.0253164, 0.153336, -0.0103466, -0.443619, 0.633449, -3.12824, -0.0559541, -0.113506, -0.0102845, -0.443304, 0.634848, -3.13191, -0.0553816, -0.106583, 0.0197288, 0.0263773, -0.039487, 0.000353643, -0.00456681, -0.0126977
0.125234, 0.108373, -0.774136, -0.91695, -1.45638, -0.626023, 1.0704, -0.256702, 0.0107268, -0.000175954, -0.0248246, -0.0204868, -0.000802438, 0.00092176, 0.000598801, 0.360787, 15.5688, 17.9233, 14.1626, 0.981627, 3.21689, -0.0420422, 0.000162602, -0.000298707, -0.00141254, -0.00341165, -0.00467655, 0.00057665, 0.0171743, -0.0297437, 0.0282103, 0.0521994, 0.0300207, 0.15748, -0.0103267, -0.443593, 0.63341, -3.12815, -0.055965, -0.113655, -0.0102777, -0.443306, 0.634833, -3.13188, -0.0553969, -0.106548, 0.0200585, 0.0267472, -0.0400951, 0.00197359, -0.00392578, -0.0134948
0.126234, 0.108386, -0.774133, -0.91697, -1.4564, -0.626026, 1.0704, -0.256699, 0.00903198, 0.000703426, -0.0240085, -0.0181194, -0.000983861, 0.00115313, 0.00138254, 0.325081, 15.5331, 17.8876, 14.0118, 0.993529, 3.20224, -0.0685925, 0.000146963, -0.000269674, -0.00144395, -0.00347384, -0.00479338, 0.00058129, 0.0181885, -0.0300777, 0.029914, 0.0556795, 0.0296081, 0.156692, -0.0103065, -0.443566, 0.633369, -3.12806, -0.0559762, -0.113807, -0.0102744, -0.443309, 0.634823, -3.13186, -0.0553995, -0.106521, 0.0203905, 0.0271178, -0.0407063, 0.00118109, -0.00394816, -0.0124884
0.127234, 0.108393, -0.774138, -0.916995, -1.45643, -0.626024, 1.0704, -0.256706, 0.00822981, -0.00121235, -0.0281734, -0.0193624, -0.000661977, 0.00127445, -0.00124844, 0.400459, 15.6046, 17.9233, 13.9722, 0.993529, 3.18851, -0.00999879, 0.000128218, -0.000240376, -0.00147097, -0.00352624, -0.00490692, 0.000577668, 0.0204361, -0.0311694, 0.0289693, 0.0533373, 0.028678, 0.158516, -0.010286, -0.443538, 0.633328, -3.12796, -0.0559876, -0.113961, -0.0102736, -0.443312, 0.634807, -3.13183, -0.0554154, -0.1065, 0.0207248, 0.0274892, -0.0413204, -0.000619249, -0.0047381, -0.0142239
0.128234, 0.108403, -0.774138, -0.91702, -1.45645, -0.626024, 1.0704, -0.256705, 0.00867726, -0.000816384, -0.0218985, -0.0203414, -0.000920588, 0.0011187, -0.000594936, 0.436165, 15.6046, 17.959, 13.9365, 1.00635, 3.18118, -0.0164075, 0.000111433, -0.000210373, -0.00149885, -0.00358164, -0.00502901, 0.000579906, 0.0182585, -0.0302431, 0.0310787, 0.057989, 0.0299974, 0.165856, -0.0102651, -0.443511, 0.633287, -3.12787, -0.0559992, -0.114117, -0.0102705, -0.443315, 0.634792, -3.1318, -0.0554225, -0.106469, 0.0210615, 0.0278614, -0.0419374, 0.0016988, -0.00339214, -0.0125742
0.129234, 0.108411, -0.774136, -0.917045, -1.45649, -0.626024, 1.0704, -0.256699, 0.00891602, 0.000284849, -0.0235125, -0.0257226, -0.000617139, 0.00128668, 0.00177351, 0.475838, 15.5688, 17.9987, 13.9722, 1.00635, 3.16653, -0.0750012, 9.57483e-05, -0.00018042, -0.00152546, -0.00363513, -0.00515842, 0.000586555, 0.0174529, -0.0305571, 0.0296738, 0.0551945, 0.034656, 0.167785, -0.0102438, -0.443483, 0.633244, -3.12777, -0.056011, -0.114275, -0.0102659, -0.443318, 0.634774, -3.13177, -0.055423, -0.106429, 0.0214005, 0.0282343, -0.0425574, 0.00295165, -0.00328984, -0.0145441
0.130234, 0.10842, -0.774138, -0.917062, -1.45651, -0.62603, 1.0704, -0.256706, 0.00919242, -0.000649903, -0.0188172, -0.0232469, -0.00132951, 0.00112782, -0.00122515, 0.511544, 15.6046, 17.9233, 13.8611, 1.03107, 3.15921, -0.00999879, 7.87911e-05, -0.000150513, -0.00155702, -0.00370084, -0.00528414, 0.000578455, 0.0170722, -0.0302265, 0.0323579, 0.0608716, 0.0328224, 0.175442, -0.0102223, -0.443454, 0.633201, -3.12768, -0.0560231, -0.114436, -0.0102626, -0.443321, 0.634761, -3.13175, -0.0554462, -0.106397, 0.0217418, 0.0286079, -0.0431802, 0.00346241, -0.00260909, -0.0124638
0.131234, 0.108431, -0.774138, -0.917085, -1.45654, -0.626026, 1.0704, -0.256702, 0.0101414, -0.000436707, -0.0212089, -0.0262263, -0.000210095, 0.00180211, 0.000607384, 0.511544, 15.6046, 17.959, 13.8254, 1.01276, 3.13083, -0.0484509, 6.43425e-05, -0.000120279, -0.00158599, -0.00375839, -0.00540942, 0.000577457, 0.016761, -0.0308766, 0.0314633, 0.0588852, 0.0342037, 0.177211, -0.0102004, -0.443425, 0.633158, -3.12758, -0.0560353, -0.114599, -0.0102563, -0.443323, 0.634746, -3.13172, -0.0554589, -0.106368, 0.0220854, 0.0289822, -0.0438058, 0.0042022, -0.00286524, -0.0139701
0.132234, 0.108446, -0.774142, -0.917106, -1.45658, -0.626025, 1.0704, -0.256695, 0.0126523, -0.00205695, -0.0189351, -0.0282949, -0.000141503, 0.00120071, 0.00138827, 0.436165, 15.6799, 17.959, 13.7857, 1.01276, 3.13083, -0.0750012, 5.0169e-05, -9.06006e-05, -0.00161445, -0.00381221, -0.0055403, 0.000573452, 0.0153437, -0.0306452, 0.0319416, 0.0595391, 0.0344102, 0.18419, -0.0101781, -0.443396, 0.633114, -3.12748, -0.0560478, -0.114764, -0.0102493, -0.443325, 0.634728, -3.13168, -0.0554766, -0.106332, 0.0224314, 0.029357, -0.0444342, 0.00591455, -0.00221811, -0.01402
0.133234, 0.108445, -0.774143, -0.917131, -1.45661, -0.626027, 1.0704, -0.256701, 0.00590553, -0.00137324, -0.0182489, -0.0291937, -0.000773584, 0.000528685, -0.00124463, 0.586922, 15.6799, 17.9987, 13.7143, 1.03107, 3.13815, -0.0164075, 2.74212e-05, -5.97802e-05, -0.0016438, -0.00386946, -0.00567481, 0.000578476, 0.0182132, -0.0305669, 0.0327084, 0.0608905, 0.0367201, 0.183206, -0.0101555, -0.443367, 0.633069, -3.12738, -0.0560605, -0.114932, -0.0102506, -0.443327, 0.634711, -3.13165, -0.0554805, -0.106293, 0.0227796, 0.0297325, -0.0450654, 0.00334099, -0.00187893, -0.0141016
0.134234, 0.108454, -0.774141, -0.917151, -1.45666, -0.626027, 1.0704, -0.2567, 0.0102268, -8.17239e-05, -0.018931, -0.0364832, -0.000516533, 0.000623332, -0.000592393, 0.626595, 15.6442, 17.959, 13.7857, 1.03107, 3.13083, -0.0228162, 1.47246e-05, -3.00409e-05, -0.00167155, -0.00392524, -0.0058197, 0.000568859, 0.0148809, -0.0306804, 0.0308654, 0.0573259, 0.042897, 0.192636, -0.0101325, -0.443337, 0.633024, -3.12728, -0.0560735, -0.115102, -0.0102414, -0.443328, 0.634692, -3.13161, -0.0555076, -0.106241, 0.0231301, 0.0301084, -0.0456993, 0.00714889, -0.00147785, -0.0163342
0.135234, 0.108462, -0.774143, -0.917176, -1.4567, -0.626027, 1.0704, -0.256695, 0.0109688, -0.0062911, -0.022177, -0.0391394, -0.000344963, 0.000957796, 0.00570713, 0.626595, 15.6442, 18.0344, 13.75, 1.03107, 3.11618, -0.0621838, -2.73438e-06, 1.7641e-06, -0.00169965, -0.0039817, -0.00595857, 0.000570521, 0.0171892, -0.0317032, 0.0295901, 0.0546711, 0.0385903, 0.188518, -0.0101092, -0.443306, 0.632978, -3.12717, -0.0560866, -0.115274, -0.0102366, -0.443331, 0.634672, -3.13157, -0.0555172, -0.1062, 0.0234829, 0.0304849, -0.0463358, 0.00532888, -0.00219141, -0.0184284
0.136234, 0.108466, -0.774151, -0.917196, -1.45673, -0.626023, 1.0704, -0.256697, 0.0106335, -0.00722016, -0.0164951, -0.0363299, 6.9279e-06, 0.0014182, 0.00368312, 0.6623, 15.7513, 18.0344, 13.6389, 1.02466, 3.09512, -0.0484509, -2.20655e-05, 3.27545e-05, -0.00173139, -0.00404441, -0.00608667, 0.000565769, 0.0165627, -0.0311764, 0.0327452, 0.0613002, 0.0353957, 0.195748, -0.0100856, -0.443276, 0.632931, -3.12707, -0.0561, -0.115449, -0.0102336, -0.443332, 0.634656, -3.13154, -0.0555368, -0.106178, 0.0238379, 0.0308619, -0.046975, 0.00605459, -0.00131053, -0.0158748
0.137234, 0.108475, -0.774149, -0.917213, -1.45678, -0.626026, 1.0704, -0.256701, 0.0121361, -0.00436856, -0.0176435, -0.0401874, -0.000233082, 0.00121657, 0.00132151, 0.626595, 15.7156, 17.9987, 13.6389, 1.03107, 3.0878, -0.00999879, -3.52953e-05, 6.27461e-05, -0.00176127, -0.0041038, -0.0062409, 0.000549759, 0.0149942, -0.0314849, 0.0319508, 0.0596346, 0.0414282, 0.203053, -0.0100616, -0.443245, 0.632884, -3.12696, -0.0561137, -0.115626, -0.0102241, -0.443332, 0.634637, -3.13151, -0.0555744, -0.106118, 0.0241952, 0.0312393, -0.0476168, 0.00804159, -0.00117876, -0.0172012
0.138234, 0.10848, -0.774152, -0.917229, -1.45682, -0.626028, 1.0704, -0.256695, 0.00915229, -0.00404034, -0.0184885, -0.0412047, -0.000833813, 0.00135346, 0.00326883, 0.626595, 15.7513, 17.959, 13.5635, 1.04938, 3.07315, -0.0685925, -5.28975e-05, 9.37968e-05, -0.00179355, -0.00416973, -0.00638733, 0.000551369, 0.0166986, -0.0319488, 0.0322016, 0.0603568, 0.043134, 0.2002, -0.0100372, -0.443213, 0.632836, -3.12686, -0.0561275, -0.115806, -0.0102187, -0.443333, 0.634619, -3.13147, -0.0555846, -0.106073, 0.0245547, 0.0316171, -0.0482612, 0.0066978, -0.00133153, -0.0177321
0.139234, 0.10848, -0.774159, -0.917249, -1.45688, -0.626027, 1.0704, -0.2567, 0.00513446, -0.00467636, -0.0148774, -0.0435886, -8.13496e-05, 0.00141084, 0.000409708, 0.701973, 15.8267, 17.9987, 13.5635, 1.03656, 3.05942, -0.0164075, -7.18075e-05, 0.000124791, -0.00182192, -0.00422676, -0.00653517, 0.000539278, 0.0171765, -0.0312866, 0.0332837, 0.0625084, 0.0435925, 0.205884, -0.0100124, -0.443182, 0.632787, -3.12675, -0.0561417, -0.115988, -0.010214, -0.443333, 0.634597, -3.13143, -0.0556167, -0.106028, 0.0249165, 0.0319953, -0.0489081, 0.0064762, -0.000326573, -0.0173337
0.140234, 0.108484, -0.774167, -0.917265, -1.45693, -0.626029, 1.0704, -0.2567, 0.00715619, -0.00504548, -0.0164969, -0.046663, -0.000529095, 0.00148302, 0.000395588, 0.701973, 15.9021, 17.959, 13.4882, 1.04938, 3.04477, -0.0164075, -8.9908e-05, 0.000156136, -0.00185362, -0.00429182, -0.00668218, 0.00053036, 0.0166904, -0.0318944, 0.0324979, 0.0610494, 0.0459504, 0.210539, -0.00998734, -0.443149, 0.632738, -3.12664, -0.056156, -0.116172, -0.0102084, -0.443334, 0.634578, -3.1314, -0.0556437, -0.105987, 0.0252805, 0.0323738, -0.0495576, 0.00740155, -0.000531007, -0.0187428
0.141234, 0.108484, -0.774167, -0.917265, -1.45693, -0.626029, 1.0704, -0.2567, 0.00715619, -0.00504548, -0.0164969, -0.046663, -0.000529095, 0.00148302, 0.000395588, 0.701973, 15.9021, 17.959, 13.4882, 1.04938, 3.04477, -0.0164075, -0.000112492, 0.000187009, -0.00190572, -0.0043946, -0.0068059, 0.000537905, 0.0170164, -0.032249, 0.0331856, 0.062266, 0.0462774, 0.213053, -0.00996188, -0.443117, 0.632688, -3.12652, -0.0561706, -0.116359, -0.0102084, -0.443334, 0.634578, -3.1314, -0.0556437, -0.105987, 0.0256467, 0.0327526, -0.0502094, 0.00740155, -0.000531007, -0.0187428
0.142234, 0.108484, -0.774179, -0.917298, -1.45704, -0.626027, 1.07041, -0.256699, 0.0036284, -0.00353102, -0.0145439, -0.0525526, -0.000676116, 0.00171021, 0.000136377, 0.737679, 15.9735, 17.959, 13.4128, 1.06128, 3.01639, -0.0292249, -0.000126116, 0.000218189, -0.00191426, -0.00441406, -0.00699229, 0.000514167, 0.0166017, -0.0317941, 0.0328104, 0.0620741, 0.0518486, 0.216736, -0.00993605, -0.443084, 0.632638, -3.12641, -0.0561854, -0.116548, -0.0101958, -0.443333, 0.634535, -3.13132, -0.0556966, -0.105887, 0.0260151, 0.0331317, -0.0508638, 0.0081912, 0.0003189, -0.0197411
0.143234, 0.108486, -0.774184, -0.917316, -1.45709, -0.626024, 1.0704, -0.256695, 0.00365307, -0.00557655, -0.0172438, -0.0559651, -9.99541e-06, 0.00141138, 0.000379935, 0.701973, 15.9735, 17.959, 13.3017, 1.04938, 3.00906, -0.0356336, -0.000144378, 0.000249697, -0.00194606, -0.00447514, -0.00714865, 0.000509053, 0.0176147, -0.0323824, 0.031596, 0.058944, 0.0521384, 0.219055, -0.00990985, -0.44305, 0.632586, -3.1263, -0.0562005, -0.11674, -0.0101893, -0.443332, 0.634513, -3.13128, -0.0557188, -0.105838, 0.0263857, 0.0335111, -0.0515205, 0.00766048, 8.77185e-05, -0.0216968
0.144234, 0.108489, -0.77419, -0.91733, -1.45715, -0.626025, 1.07041, -0.256692, -0.00264175, -0.00642397, -0.0152329, -0.0571604, -0.000244068, 0.0017547, 0.00103802, 0.6623, 15.9378, 17.9233, 13.266, 1.05578, 2.98709, -0.0557752, -0.000159988, 0.000281115, -0.00197698, -0.00453864, -0.00731256, 0.000496619, 0.0200966, -0.0322137, 0.0326996, 0.0615886, 0.0522703, 0.216693, -0.00988328, -0.443017, 0.632535, -3.12618, -0.0562158, -0.116934, -0.0101797, -0.443331, 0.634491, -3.13124, -0.0557526, -0.10578, 0.0267585, 0.0338906, -0.0521796, 0.00546841, 0.000528841, -0.0214455
0.145234, 0.108489, -0.774202, -0.917352, -1.45722, -0.626023, 1.07041, -0.25669, -0.00206213, -0.00956741, -0.0203664, -0.0605904, 0.000311972, 0.00140714, 0.00119579, 0.6623, 16.0092, 18.0344, 13.2263, 1.04297, 2.98068, -0.0685925, -0.000181551, 0.000314079, -0.00200649, -0.00459687, -0.00747058, 0.000491058, 0.0220129, -0.0333182, 0.0307395, 0.0567726, 0.0517026, 0.217771, -0.00985633, -0.442983, 0.632482, -3.12606, -0.0562314, -0.11713, -0.0101755, -0.443331, 0.634465, -3.13119, -0.0557761, -0.105734, 0.0271335, 0.0342704, -0.052841, 0.00411664, -0.000238999, -0.0242243
0.146234, 0.108492, -0.774213, -0.917359, -1.45728, -0.626025, 1.07041, -0.256695, 0.000162754, -0.0111121, -0.0178932, -0.0639451, -0.000266763, 0.00120935, -0.000876436, 0.586922, 16.0489, 17.8876, 13.1906, 1.05578, 2.97336, -0.0228162, -0.000196392, 0.000344586, -0.00203883, -0.00466364, -0.00763627, 0.000462633, 0.020481, -0.0331089, 0.0309652, 0.0575284, 0.0531522, 0.227944, -0.00982901, -0.442948, 0.632429, -3.12594, -0.0562473, -0.117329, -0.0101645, -0.443329, 0.634443, -3.13115, -0.0558352, -0.105679, 0.0275107, 0.0346502, -0.0535047, 0.00599279, 0.000397481, -0.0245522
0.147234, 0.108481, -0.774225, -0.917376, -1.45736, -0.626024, 1.07041, -0.256693, -0.00358727, -0.00898572, -0.0144385, -0.0645963, 5.9498e-05, 0.00107749, 0.000144131, 0.737679, 16.0846, 17.9233, 13.2263, 1.04938, 2.96603, -0.0420422, -0.000219726, 0.000376426, -0.00206809, -0.00472281, -0.0078052, 0.000459769, 0.0205263, -0.0325414, 0.0326282, 0.060794, 0.0556779, 0.228863, -0.00980131, -0.442913, 0.632375, -3.12582, -0.0562634, -0.117531, -0.0101613, -0.443327, 0.634416, -3.1311, -0.0558552, -0.10562, 0.02789, 0.0350302, -0.0541706, 0.00617859, 0.00131539, -0.0235634
0.148234, 0.108482, -0.774239, -0.917391, -1.45743, -0.626021, 1.07041, -0.25669, -0.00387541, -0.012727, -0.0141093, -0.0664402, -0.000197708, 0.000989588, 0.000854332, 0.6623, 16.0846, 17.9233, 13.1906, 1.05578, 2.95871, -0.0621838, -0.000237985, 0.000408545, -0.0020982, -0.00478281, -0.00797211, 0.000443531, 0.0217049, -0.0328075, 0.0327332, 0.0610007, 0.0537236, 0.23152, -0.00977323, -0.442878, 0.63232, -3.1257, -0.0562797, -0.117734, -0.0101528, -0.443325, 0.63439, -3.13105, -0.0558962, -0.105568, 0.0282715, 0.0354102, -0.0548388, 0.00538391, 0.00138235, -0.0242257
0.149234, 0.108477, -0.774246, -0.917405, -1.4575, -0.626022, 1.07041, -0.256694, -0.00386687, -0.0108282, -0.0129486, -0.0709632, -0.000572626, 0.000930987, -0.000641955, 0.701973, 16.0092, 17.8876, 13.1509, 1.06769, 2.95138, -0.0292249, -0.000256537, 0.000439844, -0.00212876, -0.00484292, -0.00815224, 0.000424635, 0.0202394, -0.0326489, 0.0324434, 0.0607044, 0.0591919, 0.238608, -0.00974476, -0.442843, 0.632265, -3.12558, -0.0562963, -0.117941, -0.0101442, -0.443322, 0.634363, -3.131, -0.0559417, -0.105497, 0.0286551, 0.0357903, -0.0555092, 0.00724038, 0.00197315, -0.0250794
0.150234, 0.108474, -0.774259, -0.917419, -1.45758, -0.626021, 1.07041, -0.256695, -0.00367956, -0.0104519, -0.0137743, -0.0741077, -0.000381759, 0.000891922, -0.000658433, 0.737679, 15.9735, 17.9233, 13.1152, 1.06769, 2.94406, -0.0228162, -0.000275477, 0.000471909, -0.00215867, -0.00490294, -0.00833022, 0.000406101, 0.0199732, -0.0329388, 0.0319609, 0.0595495, 0.0618928, 0.242461, -0.00971592, -0.442807, 0.632209, -3.12545, -0.0563132, -0.11815, -0.0101356, -0.44332, 0.634335, -3.13095, -0.0559869, -0.105432, 0.0290408, 0.0361704, -0.0561817, 0.00793468, 0.00207625, -0.0262233
0.151234, 0.108469, -0.774281, -0.917433, -1.45767, -0.626022, 1.07041, -0.256691, -0.00358089, -0.0118929, -0.0133641, -0.0801954, -0.000491871, -0.00303829, 0.0054984, 0.777352, 16.0092, 17.9233, 13.0795, 1.0741, 2.91568, -0.0557752, -0.000297146, 0.000504772, -0.0021869, -0.00496235, -0.00850395, 0.000391048, 0.0197704, -0.0321759, 0.0305231, 0.0542175, 0.0668249, 0.242349, -0.00968668, -0.44277, 0.632153, -3.12533, -0.0563304, -0.118361, -0.0101292, -0.443318, 0.634305, -3.1309, -0.056027, -0.105376, 0.0294287, 0.0365505, -0.0568564, 0.0086016, 0.00324326, -0.0283138
0.152234, 0.108464, -0.774294, -0.917444, -1.45775, -0.626023, 1.07041, -0.256693, -0.00253713, -0.0111664, -0.012352, -0.0834397, -0.000768728, -0.0021446, 0.00331612, 0.777352, 15.9735, 17.8876, 13.0042, 1.086, 2.90835, -0.0356336, -0.000316155, 0.000536316, -0.00221748, -0.00502319, -0.00869062, 0.00036902, 0.018401, -0.032338, 0.0305981, 0.0551639, 0.0697642, 0.250467, -0.00965706, -0.442734, 0.632096, -3.1252, -0.0563478, -0.118575, -0.0101199, -0.443314, 0.634276, -3.13084, -0.0560783, -0.105303, 0.0298187, 0.0369305, -0.0575331, 0.0103531, 0.003505, -0.0288205
0.153234, 0.108455, -0.774314, -0.917455, -1.45784, -0.626023, 1.07041, -0.256694, -0.00356706, -0.0123686, -0.0155731, -0.0871134, -0.000512489, -0.00121386, 0.00128742, 0.85273, 16.0092, 17.8876, 12.9645, 1.086, 2.89462, -0.00267457, -0.000338087, 0.000568354, -0.00224744, -0.00508434, -0.00887192, 0.000349856, 0.0197085, -0.0332338, 0.0293572, 0.0529468, 0.0708048, 0.253623, -0.00962704, -0.442696, 0.632038, -3.12507, -0.0563654, -0.118791, -0.0101132, -0.44331, 0.634246, -3.13079, -0.0561254, -0.105241, 0.0302108, 0.0373105, -0.0582119, 0.00956538, 0.00295839, -0.030854
0.154234, 0.108457, -0.774333, -0.917467, -1.45794, -0.626021, 1.07041, -0.256688, -0.00153432, -0.0146239, -0.0148271, -0.0877151, -0.000782471, -0.000486272, 0.00277673, 0.813057, 15.9735, 17.8876, 12.9645, 1.0979, 2.87997, -0.0484509, -0.000353444, 0.000600688, -0.00227518, -0.00514096, -0.00906024, 0.000323017, 0.0194583, -0.0336687, 0.0300216, 0.0547875, 0.0691439, 0.257537, -0.00959664, -0.442659, 0.631979, -3.12494, -0.0563834, -0.11901, -0.0100993, -0.443306, 0.634213, -3.13073, -0.0561849, -0.10517, 0.0306049, 0.0376903, -0.0588927, 0.0101712, 0.00289859, -0.0308659
0.155234, 0.108449, -0.774357, -0.917482, -1.45803, -0.62602, 1.07041, -0.256692, -0.00201412, -0.0118586, -0.0150592, -0.0871227, -0.000521649, -0.000217589, 0.000594276, 0.85273, 16.0092, 17.9233, 12.9288, 1.0979, 2.87265, -0.00999879, -0.000376268, 0.000633873, -0.00230313, -0.00519751, -0.00924468, 0.000298256, 0.0192991, -0.0340443, 0.0309963, 0.0565643, 0.0715705, 0.261496, -0.00956583, -0.442621, 0.63192, -3.12481, -0.0564016, -0.119232, -0.0100924, -0.443303, 0.63418, -3.13067, -0.0562415, -0.105107, 0.0310012, 0.03807, -0.0595756, 0.0106624, 0.0028898, -0.0305768
0.156234, 0.10844, -0.774374, -0.917493, -1.45813, -0.626022, 1.07041, -0.256694, -0.00315341, -0.0135019, -0.0144124, -0.0906451, -0.00105984, 0.000511328, -0.000224345, 0.928108, 15.9378, 17.9233, 12.9288, 1.11713, 2.85159, 0.0101428, -0.000396583, 0.000666184, -0.0023323, -0.00525709, -0.00944267, 0.000273407, 0.0197513, -0.0342545, 0.0308689, 0.0570904, 0.0726133, 0.265849, -0.00953463, -0.442583, 0.63186, -3.12467, -0.0564201, -0.119456, -0.0100828, -0.443299, 0.634147, -3.13061, -0.0562985, -0.105026, 0.0313996, 0.0384495, -0.0602603, 0.010624, 0.00304121, -0.0314333
0.157234, 0.108438, -0.774401, -0.9175, -1.45823, -0.626021, 1.07041, -0.256687, -0.00436187, -0.0174325, -0.013161, -0.0911601, -0.000469205, 0.000790791, 0.00211467, 0.888436, 15.9735, 17.8876, 12.8534, 1.11072, 2.83694, -0.0484509, -0.000415949, 0.000698627, -0.00236292, -0.00531946, -0.00962926, 0.000247912, 0.0211788, -0.0343671, 0.0317184, 0.0586558, 0.068753, 0.266463, -0.00950303, -0.442544, 0.6318, -3.12454, -0.0564389, -0.119682, -0.010072, -0.443294, 0.634114, -3.13055, -0.0563566, -0.104966, 0.0318, 0.0388288, -0.060947, 0.00953781, 0.00323993, -0.0313916
0.158234, 0.108434, -0.774421, -0.917507, -1.45833, -0.626023, 1.07041, -0.256691, -0.00319726, -0.0167274, -0.00899015, -0.096014, -0.000990973, 0.00100026, 5.61933e-05, 0.888436, 15.8624, 17.848, 12.8177, 1.12903, 2.82229, -0.00999879, -0.000433781, 0.000731416, -0.00239412, -0.0053847, -0.00982823, 0.000212831, 0.018542, -0.0337197, 0.0321341, 0.0602517, 0.0731389, 0.27773, -0.00947103, -0.442505, 0.631738, -3.1244, -0.0564579, -0.119911, -0.0100593, -0.443289, 0.634082, -3.1305, -0.0564299, -0.104889, 0.0322025, 0.0392079, -0.0616356, 0.0125084, 0.00434884, -0.0314626
0.159234, 0.108423, -0.774449, -0.917519, -1.45844, -0.626025, 1.07041, -0.256689, -0.00728143, -0.0182422, -0.00995839, -0.0974693, -0.00110146, 0.000343466, 0.000802466, 0.963814, 15.8267, 17.848, 12.8177, 1.14093, 2.82962, -0.0292249, -0.0004579, 0.000764627, -0.00242246, -0.00544223, -0.0100255, 0.000191249, 0.0212713, -0.0339882, 0.0321756, 0.0597424, 0.0733808, 0.275512, -0.00943863, -0.442466, 0.631676, -3.12426, -0.0564773, -0.120143, -0.0100522, -0.443284, 0.634046, -3.13043, -0.0564829, -0.104817, 0.032607, 0.0395867, -0.062326, 0.0101962, 0.00435746, -0.0323329
0.160234, 0.108415, -0.774478, -0.917532, -1.45855, -0.626024, 1.07041, -0.256685, -0.00843086, -0.0201011, -0.0115593, -0.101383, -0.000530856, 0.000461167, 0.00104939, 0.963814, 15.8267, 17.8876, 12.8177, 1.13544, 2.82229, -0.0420422, -0.000480811, 0.000798423, -0.00245011, -0.00549861, -0.0102231, 0.000168054, 0.0222965, -0.0343777, 0.0312424, 0.0575759, 0.074041, 0.277829, -0.00940582, -0.442426, 0.631614, -3.12412, -0.0564969, -0.120377, -0.0100434, -0.44328, 0.634009, -3.13036, -0.0565387, -0.104747, 0.0330136, 0.0399652, -0.0630183, 0.00966332, 0.00432082, -0.0340478
0.161234, 0.108408, -0.774501, -0.917537, -1.45866, -0.626021, 1.07041, -0.256686, -0.005368, -0.0219904, -0.0077125, -0.103419, -0.000557355, 0.000515495, -0.000220071, 0.928108, 15.7156, 17.848, 12.778, 1.14093, 2.81589, -0.0164075, -0.000499199, 0.000830158, -0.00248115, -0.00555906, -0.0104271, 0.000130721, 0.0202181, -0.0339853, 0.0322698, 0.0598704, 0.0737477, 0.288786, -0.0093726, -0.442386, 0.63155, -3.12398, -0.0565168, -0.120614, -0.0100301, -0.443273, 0.633974, -3.1303, -0.0566167, -0.10467, 0.0334222, 0.0403434, -0.0637123, 0.0120457, 0.00514416, -0.0335598
0.162234, 0.108401, -0.774533, -0.917546, -1.45877, -0.626021, 1.07041, -0.256687, -0.0061422, -0.0254013, -0.00584243, -0.107762, -0.000608929, 0.000321682, -0.000361745, 0.888436, 15.6799, 17.848, 12.7423, 1.14734, 2.81589, -0.00999879, -0.0005214, 0.000863539, -0.00251079, -0.00561833, -0.0106278, 9.7687e-05, 0.0204956, -0.0337291, 0.0320914, 0.0595675, 0.0736322, 0.294455, -0.00933897, -0.442345, 0.631486, -3.12384, -0.056537, -0.120853, -0.01002, -0.443268, 0.633937, -3.13023, -0.0566884, -0.104601, 0.0338328, 0.0407212, -0.0644081, 0.0121801, 0.00576651, -0.0344596
0.163234, 0.108386, -0.774562, -0.91755, -1.45889, -0.626024, 1.07041, -0.256684, -0.00961125, -0.0261799, -0.00275009, -0.114131, -0.000405953, 0.000740503, 0.000725019, 0.963814, 15.5688, 17.7765, 12.8534, 1.14734, 2.80124, -0.0356336, -0.000543467, 0.000896204, -0.00253964, -0.00567988, -0.0108408, 6.86314e-05, 0.0202386, -0.033063, 0.0318698, 0.0597263, 0.076882, 0.298291, -0.00930493, -0.442304, 0.631421, -3.1237, -0.0565575, -0.121095, -0.0100093, -0.443261, 0.633899, -3.13016, -0.0567542, -0.104515, 0.0342455, 0.0410986, -0.0651057, 0.0128375, 0.00681782, -0.0353572
0.164234, 0.108382, -0.774602, -0.91756, -1.459, -0.626023, 1.07041, -0.256683, -0.00851113, -0.0294608, -0.00622329, -0.11126, -0.000745353, 0.00102384, 0.000733265, 0.888436, 15.5688, 17.8122, 12.7423, 1.16015, 2.78659, -0.0420422, -0.000567437, 0.000930973, -0.00256968, -0.00574113, -0.0110363, 3.3968e-05, 0.0228666, -0.0344512, 0.0323979, 0.0604437, 0.0724166, 0.297802, -0.00927048, -0.442263, 0.631356, -3.12355, -0.0565783, -0.121339, -0.0100002, -0.443256, 0.633861, -3.1301, -0.0568289, -0.104459, 0.0346601, 0.0414756, -0.0658049, 0.01064, 0.00570097, -0.0357617
0.165234, 0.108371, -0.774637, -0.917562, -1.45913, -0.626023, 1.07041, -0.256685, -0.0119253, -0.0292142, -0.00387265, -0.116614, -0.000700353, 0.000944553, -0.000213814, 0.85273, 15.4578, 17.7765, 12.8177, 1.16565, 2.77926, -0.0228162, -0.000588814, 0.000962834, -0.0025987, -0.00579918, -0.0112487, -8.6274e-06, 0.02281, -0.033896, 0.0322741, 0.0603949, 0.076443, 0.302569, -0.00923561, -0.442221, 0.63129, -3.1234, -0.0565994, -0.121587, -0.00998808, -0.443248, 0.633821, -3.13002, -0.0569166, -0.104379, 0.0350768, 0.0418522, -0.0665058, 0.0110981, 0.00663171, -0.0365826
0.166234, 0.10836, -0.774674, -0.91756, -1.45926, -0.626023, 1.0704, -0.256686, -0.00813908, -0.0330774, -0.00341417, -0.120711, -0.000704261, 0.00113137, -0.000372837, 0.813057, 15.3864, 17.6615, 12.8931, 1.17206, 2.76553, -0.0164075, -0.000608045, 0.000993865, -0.00262757, -0.0058575, -0.0114659, -5.69346e-05, 0.0216776, -0.0341203, 0.0316459, 0.0592711, 0.0756141, 0.311652, -0.00920033, -0.442179, 0.631223, -3.12326, -0.0566208, -0.121836, -0.00997343, -0.443238, 0.633781, -3.12995, -0.0570135, -0.104295, 0.0354954, 0.0422282, -0.0672083, 0.0126978, 0.00682992, -0.0378348
0.167234, 0.108351, -0.77471, -0.917564, -1.4594, -0.626021, 1.0704, -0.25668, -0.00681733, -0.0320687, -0.00284926, -0.125652, 0.000208661, 0.000477765, 0.00168952, 0.701973, 15.2753, 17.6615, 12.9288, 1.15375, 2.77286, -0.0685925, -0.000627673, 0.00102605, -0.00265438, -0.00591043, -0.0116861, -9.77408e-05, 0.0198592, -0.033841, 0.0309624, 0.0571528, 0.0798918, 0.316976, -0.00916462, -0.442137, 0.631155, -3.12311, -0.0566425, -0.122088, -0.00995858, -0.44323, 0.633738, -3.12987, -0.0570994, -0.104207, 0.0359161, 0.0426038, -0.0679124, 0.0149689, 0.00755625, -0.0390825
0.168234, 0.108337, -0.774764, -0.917565, -1.45953, -0.626022, 1.0704, -0.256681, -0.00859171, -0.0420104, -0.00149414, -0.129642, -9.82516e-05, 0.000585865, -9.03819e-05, 0.701973, 15.3467, 17.6258, 12.9645, 1.16015, 2.76553, -0.0356336, -0.000655203, 0.00105855, -0.00268297, -0.00596759, -0.0118915, -0.000139851, 0.0228274, -0.0339046, 0.0306012, 0.0566877, 0.0731118, 0.322667, -0.00912849, -0.442094, 0.631087, -3.12296, -0.0566645, -0.122343, -0.00995131, -0.443221, 0.633695, -3.12979, -0.0571873, -0.104147, 0.0363387, 0.0429789, -0.068618, 0.0124607, 0.00776372, -0.0403906
0.169234, 0.10833, -0.774797, -0.917566, -1.45967, -0.626023, 1.0704, -0.256687, -0.00942445, -0.0391861, -0.00131849, -0.130655, -0.000506311, -0.00414792, -0.00151534, 0.551216, 15.1285, 17.6258, 12.9288, 1.17206, 2.75821, 0.00373412, -0.000674239, 0.0010919, -0.00271407, -0.00603135, -0.0121163, -0.000192629, 0.0230378, -0.0332526, 0.0308013, 0.0538553, 0.0797017, 0.326372, -0.00909194, -0.442051, 0.631018, -3.1228, -0.0566868, -0.122601, -0.00993534, -0.443213, 0.633655, -3.12972, -0.057292, -0.104059, 0.0367632, 0.0433533, -0.0693252, 0.012632, 0.00877419, -0.0409145
0.170234, 0.108307, -0.774847, -0.917559, -1.45981, -0.626019, 1.0704, -0.256677, -0.0116064, -0.0424719, 0.00064245, -0.132023, 0.000103269, -0.00262551, 0.00167078, 0.586922, 15.1285, 17.5504, 12.9288, 1.16015, 2.74356, -0.0685925, -0.000700552, 0.0011224, -0.00274513, -0.00609243, -0.0123276, -0.000225851, 0.0241774, -0.0333465, 0.0317812, 0.0566068, 0.0764025, 0.326238, -0.00905497, -0.442007, 0.630949, -3.12265, -0.0567094, -0.122861, -0.0099263, -0.443202, 0.633613, -3.12965, -0.0573667, -0.103994, 0.0371897, 0.0437272, -0.0700339, 0.011846, 0.00899194, -0.0407468
0.171234, 0.108287, -0.774902, -0.917559, -1.45995, -0.626016, 1.07039, -0.256684, -0.0120519, -0.0454916, 0.000246954, -0.133508, 0.000543564, -0.00127252, -0.00156324, 0.586922, 15.1642, 17.5504, 12.9288, 1.14734, 2.7225, 0.00373412, -0.000729709, 0.00115492, -0.00277484, -0.00615079, -0.0125374, -0.000274349, 0.0252627, -0.0339211, 0.0320023, 0.0575576, 0.0738005, 0.332437, -0.00901756, -0.441964, 0.630878, -3.12249, -0.0567323, -0.123123, -0.0099195, -0.443192, 0.633569, -3.12956, -0.0574655, -0.103934, 0.0376182, 0.0441005, -0.0707441, 0.0111929, 0.00874366, -0.0413402
0.172234, 0.108275, -0.774951, -0.917556, -1.4601, -0.626016, 1.07039, -0.256685, -0.0127423, -0.0448131, 0.00624722, -0.138884, 0.000362376, -0.00134617, -0.00151562, 0.475838, 15.0888, 17.5504, 12.9645, 1.14734, 2.72983, 0.0165515, -0.00075073, 0.00118689, -0.00280163, -0.0062048, -0.0127663, -0.000331754, 0.022742, -0.0327324, 0.0328268, 0.0597966, 0.078345, 0.341648, -0.00897973, -0.441919, 0.630807, -3.12233, -0.0567555, -0.123389, -0.00990396, -0.443182, 0.633522, -3.12948, -0.057579, -0.103847, 0.0380486, 0.0444731, -0.0714557, 0.0140215, 0.0103743, -0.0410226
0.173234, 0.108259, -0.775004, -0.917548, -1.46026, -0.626014, 1.07039, -0.256677, -0.0112583, -0.0479187, 0.0103772, -0.146638, 0.000682393, 1.77011e-05, 0.0016693, 0.400459, 15.0174, 17.4393, 13.0399, 1.13544, 2.70053, -0.0557752, -0.000771453, 0.00121766, -0.00282853, -0.00626069, -0.0129954, -0.000384744, 0.0202808, -0.0321085, 0.0323192, 0.0601048, 0.0796629, 0.349949, -0.00894147, -0.441875, 0.630735, -3.12218, -0.056779, -0.123657, -0.00988777, -0.443169, 0.633475, -3.12939, -0.0576858, -0.103763, 0.0384809, 0.044845, -0.0721687, 0.016918, 0.0114614, -0.0420461
0.174234, 0.10824, -0.775054, -0.917543, -1.46041, -0.626014, 1.07039, -0.256679, -0.0163508, -0.0430632, 0.00749673, -0.148027, 0.000454929, 0.000392988, 0.000367586, 0.325081, 14.9063, 17.4393, 12.9288, 1.13544, 2.6868, -0.0356336, -0.000798065, 0.00124944, -0.00285952, -0.00631998, -0.0132237, -0.000433495, 0.0220942, -0.0327735, 0.0322205, 0.0598828, 0.0859043, 0.347269, -0.00890277, -0.44183, 0.630663, -3.12202, -0.0568029, -0.123927, -0.0098773, -0.443158, 0.63343, -3.12931, -0.0577863, -0.103682, 0.0389151, 0.0452163, -0.0728831, 0.0155736, 0.0111002, -0.043022
0.175234, 0.10822, -0.775107, -0.917534, -1.46057, -0.626012, 1.07038, -0.256682, -0.018012, -0.0436234, 0.00803025, -0.154569, 9.98354e-05, 0.000708948, -0.000703848, 0.285408, 14.8309, 17.3282, 12.9288, 1.14093, 2.67215, -0.00999879, -0.000820998, 0.00128048, -0.00288892, -0.00637946, -0.0134555, -0.000493073, 0.0219113, -0.0326725, 0.0311871, 0.0583355, 0.0901398, 0.352986, -0.00886363, -0.441784, 0.630589, -3.12185, -0.0568271, -0.1242, -0.00986265, -0.443145, 0.633384, -3.12923, -0.057904, -0.103599, 0.0393512, 0.0455868, -0.0735988, 0.0162654, 0.0115919, -0.0447609
0.176234, 0.108201, -0.775169, -0.917529, -1.46074, -0.626012, 1.07039, -0.256676, -0.0183643, -0.0488001, 0.0065142, -0.155259, -0.000408161, 0.00121475, 0.000243243, 0.21003, 14.8309, 17.2925, 13.0042, 1.15375, 2.65018, -0.0292249, -0.000846646, 0.00131312, -0.00291498, -0.00643522, -0.0136867, -0.000545176, 0.0244203, -0.0335134, 0.0312027, 0.0585717, 0.0860647, 0.353415, -0.00882406, -0.441738, 0.630515, -3.12169, -0.0568516, -0.124476, -0.00984995, -0.443134, 0.633333, -3.12914, -0.0580106, -0.103519, 0.0397893, 0.0459565, -0.0743159, 0.0142296, 0.0110267, -0.0456852
0.177234, 0.108178, -0.77522, -0.917524, -1.46091, -0.626009, 1.07038, -0.256675, -0.0204621, -0.0500674, 0.00458691, -0.160576, -0.000272107, -0.0034212, 0.000399819, 0.21003, 14.7198, 17.2925, 13.0042, 1.15375, 2.63644, -0.0356336, -0.000869724, 0.00134438, -0.00294055, -0.00648596, -0.0139322, -0.00060107, 0.0261328, -0.0330166, 0.0294182, 0.0516244, 0.0910218, 0.355176, -0.00878406, -0.441692, 0.630441, -3.12153, -0.0568764, -0.124755, -0.00983428, -0.443121, 0.633281, -3.12904, -0.0581238, -0.103419, 0.0402292, 0.0463255, -0.0750342, 0.0130826, 0.0118589, -0.0483215
0.178234, 0.108156, -0.775277, -0.917514, -1.46109, -0.626007, 1.07038, -0.25668, -0.0208473, -0.0558888, 0.00500426, -0.16812, 5.59541e-05, -0.00189781, -0.00166601, 0.170357, 14.6841, 17.2172, 13.0399, 1.14734, 2.61447, 0.0165515, -0.000892486, 0.0013752, -0.002966, -0.00653756, -0.0141779, -0.000670372, 0.0265584, -0.0331644, 0.0279337, 0.049701, 0.0895748, 0.363965, -0.00874361, -0.441646, 0.630365, -3.12136, -0.0569015, -0.125036, -0.00981787, -0.443107, 0.633228, -3.12895, -0.0582582, -0.103322, 0.040671, 0.0466936, -0.0757538, 0.0132202, 0.012087, -0.0505674
0.179234, 0.108133, -0.775335, -0.917508, -1.46128, -0.626005, 1.07038, -0.256676, -0.0181682, -0.0561232, 0.00749618, -0.172617, 0.000478112, -0.00131705, 0.000347556, 0.134651, 14.6127, 17.1775, 13.1509, 1.13544, 2.60715, -0.0228162, -0.000916449, 0.00140703, -0.0029909, -0.0065887, -0.0144263, -0.000727414, 0.0239713, -0.0328638, 0.0279627, 0.0501734, 0.0920581, 0.371769, -0.00870271, -0.441599, 0.630289, -3.12119, -0.056927, -0.12532, -0.00980215, -0.443094, 0.633174, -3.12885, -0.058374, -0.103224, 0.0411146, 0.0470609, -0.0764746, 0.0162236, 0.0128419, -0.051057
0.180234, 0.108116, -0.775393, -0.917503, -1.46145, -0.626002, 1.07038, -0.256673, -0.0168618, -0.0572787, 0.00535833, -0.169764, 0.000115291, -0.00112037, 0.000943907, -0.0161054, 14.5731, 17.1775, 13.1509, 1.14093, 2.60715, -0.0420422, -0.000939372, 0.00143897, -0.0030166, -0.00663843, -0.0146749, -0.000791009, 0.0254645, -0.0339167, 0.0289516, 0.0518332, 0.089788, 0.371983, -0.00866138, -0.441552, 0.630212, -3.12102, -0.0569528, -0.125606, -0.00978501, -0.44308, 0.63312, -3.12875, -0.0585005, -0.103128, 0.0415602, 0.0474273, -0.0771966, 0.0151378, 0.0120795, -0.0509407
