alisrour97/Franka_experiments/Real_Robot_scripts/servo-franka/Data4/log_dyn_PIw_ki_2.csv
Time,q1,q2,q3,q4,q5,q6,q7,dq1,dq2,dq3,dq4,dq5,dq6,dq7,t1,t2,t3,t4,t5,t6,t7,ex1,ex2,ex3,ex4,ex5,ex6,ev1,ev2,ev3,ev4,ev5,ev6,xd,yd,zd,uxd,uyd,uzd,x,y,z,ux,uy,uz,vxd,vyd,vzd,vx,vy,vz
9.76563e-07, 0.107755, -0.774257, -0.917029, -1.45775, -0.625409, 1.06981, -0.256737, 0.0100001, 0.00175163, 0.00583814, 0.000193184, 0.000582977, -0.00077947, 0.00103138, -0.76989, 15.7513, 21.236, 18.7131, 1.25171, 3.96213, -0.153737, 0.000873368, -0.00164307, 0.000748953, 0.00157639, -0.00122296, 2.91141e-05, -0.0068136, 0.00110406, 0.00141443, 0.00240064, 0.00137816, 0.0135654, -0.011112, -0.444721, 0.635038, -3.13187, -0.0555627, -0.107532, -0.0102622, -0.443046, 0.634358, -3.13037, -0.0559652, -0.105544, 0, 0, 0, 0.00665709, 0.00133084, 0.00188594
0.0130989, 0.107785, -0.774233, -0.91698, -1.45774, -0.625409, 1.06981, -0.256739, 0.00274944, 0.000965484, 0.00198338, -0.000133144, -9.43277e-05, -0.000131269, -0.00126528, -0.76989, 15.9735, 21.3471, 18.7131, 1.25171, 3.96213, -0.140919, 0.000909089, -0.00165315, 0.00073451, 0.00154756, -0.00124495, -3.99118e-05, -0.00213813, 0.000356376, 0.000468922, 0.00102728, 0.00112104, 0.00555359, -0.011112, -0.444721, 0.635038, -3.13187, -0.0555627, -0.107532, -0.0102143, -0.44303, 0.634378, -3.1304, -0.0561105, -0.105488, 1.73063e-06, -1.42215e-06, -3.96181e-06, 0.00208868, 0.000425898, 0.000612924
0.0140991, 0.107785, -0.774233, -0.91698, -1.45774, -0.625409, 1.06981, -0.256739, 0.00274944, 0.000965484, 0.00198338, -0.000133144, -9.43277e-05, -0.000131269, -0.00126528, -0.76989, 15.9735, 21.3471, 18.7131, 1.25171, 3.96213, -0.140919, 0.000909086, -0.00165315, 0.000734501, 0.00154754, -0.00124497, -3.99045e-05, -0.00213393, 0.000360884, 0.000481064, 0.00105147, 0.0011376, 0.00559709, -0.011112, -0.444721, 0.635038, -3.13187, -0.0555628, -0.107532, -0.0102143, -0.44303, 0.634378, -3.1304, -0.0561105, -0.105488, 6.91577e-06, -5.6745e-06, -1.58141e-05, 0.00208868, 0.000425898, 0.000612924
0.0150991, 0.107785, -0.774233, -0.91698, -1.45774, -0.625409, 1.06981, -0.256739, 0.00274944, 0.000965484, 0.00198338, -0.000133144, -9.43277e-05, -0.000131269, -0.00126528, -0.76989, 15.9735, 21.3471, 18.7131, 1.25171, 3.96213, -0.140919, 0.000909077, -0.00165316, 0.000734475, 0.00154749, -0.00124503, -3.98849e-05, -0.00212692, 0.00036837, 0.00050124, 0.00109164, 0.00116513, 0.00566936, -0.011112, -0.444721, 0.635038, -3.13187, -0.0555628, -0.107532, -0.0102143, -0.44303, 0.634378, -3.1304, -0.0561105, -0.105488, 1.55453e-05, -1.2736e-05, -3.55071e-05, 0.00208868, 0.000425898, 0.000612924
0.0160994, 0.107785, -0.774233, -0.91698, -1.45774, -0.625409, 1.06981, -0.256739, 0.00274944, 0.000965484, 0.00198338, -0.000133144, -9.43277e-05, -0.000131269, -0.00126528, -0.76989, 15.9735, 21.3471, 18.7131, 1.25171, 3.96213, -0.140919, 0.000909059, -0.00165318, 0.000734426, 0.00154738, -0.00124515, -3.98467e-05, -0.00211713, 0.000378813, 0.000529399, 0.00114767, 0.00120353, 0.00577021, -0.011112, -0.444721, 0.635038, -3.13187, -0.0555628, -0.107532, -0.0102143, -0.44303, 0.634378, -3.1304, -0.0561105, -0.105488, 2.7609e-05, -2.25855e-05, -6.29913e-05, 0.00208868, 0.000425898, 0.000612924
0.0170996, 0.107785, -0.774233, -0.91698, -1.45774, -0.625409, 1.06981, -0.256739, 0.00274944, 0.000965484, 0.00198338, -0.000133144, -9.43277e-05, -0.000131269, -0.00126528, -0.76989, 15.9735, 21.3471, 18.7131, 1.25171, 3.96213, -0.140919, 0.000909031, -0.00165321, 0.000734345, 0.00154721, -0.00124533, -3.97838e-05, -0.00210455, 0.000392191, 0.000565492, 0.00121944, 0.00125275, 0.00589948, -0.0111119, -0.444721, 0.635038, -3.13187, -0.0555629, -0.107532, -0.0102143, -0.44303, 0.634378, -3.1304, -0.0561105, -0.105488, 4.30968e-05, -3.5202e-05, -9.82172e-05, 0.00208868, 0.000425898, 0.000612924
0.0180999, 0.107785, -0.774233, -0.91698, -1.45774, -0.625409, 1.06981, -0.256739, 0.00274944, 0.000965484, 0.00198338, -0.000133144, -9.43277e-05, -0.000131269, -0.00126528, -0.76989, 15.9735, 21.3471, 18.7131, 1.25171, 3.96213, -0.140919, 0.000908988, -0.00165325, 0.000734223, 0.00154695, -0.00124561, -3.96903e-05, -0.0020892, 0.000408482, 0.000609469, 0.00130684, 0.00131271, 0.00605697, -0.0111119, -0.444721, 0.635038, -3.13187, -0.0555631, -0.107533, -0.0102143, -0.44303, 0.634378, -3.1304, -0.0561105, -0.105488, 6.19987e-05, -5.05647e-05, -0.000141136, 0.00208868, 0.000425898, 0.000612924
0.0190999, 0.107785, -0.774233, -0.91698, -1.45774, -0.625409, 1.06981, -0.256739, 0.00274944, 0.000965484, 0.00198338, -0.000133144, -9.43277e-05, -0.000131269, -0.00126528, -0.76989, 15.9735, 21.3471, 18.7131, 1.25171, 3.96213, -0.140919, 0.000908929, -0.00165332, 0.000734054, 0.00154659, -0.001246, -3.956e-05, -0.00207107, 0.000427666, 0.00066128, 0.00140975, 0.00138335, 0.00624251, -0.0111118, -0.444721, 0.635037, -3.13187, -0.0555633, -0.107533, -0.0102143, -0.44303, 0.634378, -3.1304, -0.0561105, -0.105488, 8.43044e-05, -6.86525e-05, -0.000191697, 0.00208868, 0.000425898, 0.000612924
0.0200999, 0.107785, -0.774233, -0.91698, -1.45774, -0.625409, 1.06981, -0.256739, 0.00274944, 0.000965484, 0.00198338, -0.000133144, -9.43277e-05, -0.000131269, -0.00126528, -0.76989, 15.9735, 21.3471, 18.7131, 1.25171, 3.96213, -0.140919, 0.00090885, -0.0016534, 0.00073383, 0.00154611, -0.00124651, -3.9387e-05, -0.00205017, 0.00044972, 0.000720876, 0.00152806, 0.00146459, 0.00645591, -0.0111117, -0.444721, 0.635037, -3.13187, -0.0555636, -0.107534, -0.0102143, -0.44303, 0.634378, -3.1304, -0.0561105, -0.105488, 0.000110004, -8.94448e-05, -0.000249853, 0.00208868, 0.000425898, 0.000612924
0.0210999, 0.107785, -0.774233, -0.91698, -1.45774, -0.625409, 1.06981, -0.256739, 0.00274944, 0.000965484, 0.00198338, -0.000133144, -9.43277e-05, -0.000131269, -0.00126528, -0.76989, 15.9735, 21.3471, 18.7131, 1.25171, 3.96213, -0.140919, 0.000908749, -0.00165351, 0.000733543, 0.0015455, -0.00124717, -3.91654e-05, -0.00202651, 0.000474623, 0.000788207, 0.00166164, 0.00155636, 0.006697, -0.0111116, -0.444721, 0.635037, -3.13187, -0.055564, -0.107535, -0.0102143, -0.44303, 0.634378, -3.1304, -0.0561105, -0.105488, 0.000139087, -0.000112921, -0.000315553, 0.00208868, 0.000425898, 0.000612924
0.0221003, 0.107785, -0.774233, -0.91698, -1.45774, -0.625409, 1.06981, -0.256739, 0.00274944, 0.000965484, 0.00198338, -0.000133144, -9.43277e-05, -0.000131269, -0.00126528, -0.76989, 15.9735, 21.3471, 18.7131, 1.25171, 3.96213, -0.140919, 0.000908623, -0.00165364, 0.000733184, 0.00154474, -0.001248, -3.88892e-05, -0.0020001, 0.000502355, 0.000863224, 0.00181038, 0.0016586, 0.00696559, -0.0111114, -0.444721, 0.635037, -3.13186, -0.0555644, -0.107536, -0.0102143, -0.44303, 0.634378, -3.1304, -0.0561105, -0.105488, 0.000171544, -0.000139059, -0.00038875, 0.00208868, 0.000425898, 0.000612924
0.0231003, 0.107785, -0.774233, -0.91698, -1.45774, -0.625409, 1.06981, -0.256739, 0.00274944, 0.000965484, 0.00198338, -0.000133144, -9.43277e-05, -0.000131269, -0.00126528, -0.76989, 15.9735, 21.3471, 18.7131, 1.25171, 3.96213, -0.140919, 0.000908469, -0.0016538, 0.000732748, 0.00154381, -0.001249, -3.85525e-05, -0.00197094, 0.000532892, 0.000945878, 0.00197416, 0.00177122, 0.0072615, -0.0111112, -0.444721, 0.635036, -3.13186, -0.055565, -0.107538, -0.0102143, -0.44303, 0.634378, -3.1304, -0.0561105, -0.105488, 0.000207364, -0.00016784, -0.000469394, 0.00208868, 0.000425898, 0.000612924
0.0241003, 0.107785, -0.774233, -0.91698, -1.45774, -0.625409, 1.06981, -0.256739, 0.00274944, 0.000965484, 0.00198338, -0.000133144, -9.43277e-05, -0.000131269, -0.00126528, -0.76989, 15.9735, 21.3471, 18.7131, 1.25171, 3.96213, -0.140919, 0.000908285, -0.00165399, 0.000732225, 0.00154269, -0.0012502, -3.81496e-05, -0.00193904, 0.000566215, 0.00103612, 0.00215288, 0.00189417, 0.00758456, -0.011111, -0.444722, 0.635036, -3.13186, -0.0555656, -0.10754, -0.0102143, -0.44303, 0.634378, -3.1304, -0.0561105, -0.105488, 0.000246538, -0.000199242, -0.000557437, 0.00208868, 0.000425898, 0.000612924
0.0251003, 0.107755, -0.774247, -0.916992, -1.45772, -0.625414, 1.06981, -0.256738, -0.00435235, -0.00350222, -0.00247479, 0.00164288, -0.00127393, -0.000138972, -0.000807252, -0.43267, 16.1203, 21.4979, 18.4552, 1.30115, 3.96945, -0.153737, 0.000881557, -0.00165065, 0.000728443, 0.00153494, -0.0012296, 1.57669e-05, 0.00462092, -0.000418329, 0.000455967, 0.00113029, -0.00253445, -0.00447056, -0.0111107, -0.444722, 0.635035, -3.13186, -0.0555664, -0.107542, -0.0102409, -0.443035, 0.634379, -3.13041, -0.0560271, -0.105523, 0.000289055, -0.000233245, -0.00065283, -0.00433436, -0.000817775, -0.000518005
0.0261003, 0.107752, -0.774248, -0.916994, -1.45772, -0.62541, 1.06981, -0.256735, -0.0039506, -0.00329574, -0.00452348, 0.00202302, -0.000611653, -9.26485e-05, 0.000445176, -0.392998, 16.16, 21.4979, 18.4155, 1.29474, 3.96945, -0.180287, 0.000878741, -0.00165082, 0.000727456, 0.00153486, -0.0012251, 2.40596e-05, 0.00502101, -0.000738108, 9.36004e-05, -3.95723e-05, -0.00286127, -0.00638276, -0.0111104, -0.444722, 0.635034, -3.13186, -0.0555673, -0.107544, -0.0102434, -0.443035, 0.634379, -3.13041, -0.0560151, -0.105532, 0.000334905, -0.000269828, -0.000755525, -0.0046512, -0.00118489, -0.00101167
0.0271003, 0.107754, -0.774244, -0.916995, -1.45772, -0.625412, 1.06981, -0.256736, -0.00179647, -0.0027926, -0.0035438, -6.2491e-05, 0.000711413, -0.00904209, 2.55168e-05, -0.43267, 16.0489, 21.3868, 18.3401, 1.26453, 3.95572, -0.172963, 0.000880389, -0.00165113, 0.000728072, 0.00153623, -0.00123542, 2.18085e-05, 0.00390128, 0.00135676, -0.000981334, -0.00877173, 0.00263383, -0.000961744, -0.0111101, -0.444722, 0.635033, -3.13186, -0.0555684, -0.107547, -0.0102414, -0.443035, 0.634378, -3.1304, -0.0560197, -0.105519, 0.000384079, -0.000308971, -0.000865474, -0.00348681, 0.000918106, -0.00210414
0.0281003, 0.107746, -0.774246, -0.917005, -1.45773, -0.625411, 1.06981, -0.256738, -0.00395697, -0.00266255, -0.0059113, 0.000287823, 0.00274629, -0.00909352, 0.00776723, -0.317619, 15.9378, 21.2757, 18.0426, 1.20318, 3.89071, -0.127186, 0.00087316, -0.00165, 0.000730227, 0.00154204, -0.00123546, 3.50491e-05, 0.00529873, 0.0012225, -0.00136268, -0.0106546, 0.00128115, -0.0114355, -0.0111097, -0.444723, 0.635033, -3.13186, -0.0555696, -0.10755, -0.010248, -0.443037, 0.634374, -3.1304, -0.0560005, -0.105521, 0.000436566, -0.000350653, -0.000982628, -0.00479671, 0.000696374, -0.00269859
0.0291003, 0.107759, -0.774248, -0.917025, -1.45774, -0.625415, 1.0698, -0.256746, 0.000837446, -0.00276, -0.0134852, -0.00380614, 0.00298386, -0.0096008, 0.00281181, -0.468376, 15.8267, 21.1606, 17.7808, 1.17206, 3.83304, -0.0420422, 0.000872599, -0.00164687, 0.000738447, 0.00155913, -0.0012484, 2.63794e-05, 0.00484995, 5.26961e-05, -0.00483211, -0.0184701, 0.00447255, -0.00478849, -0.0111092, -0.444723, 0.635032, -3.13185, -0.0555709, -0.107554, -0.0102474, -0.44304, 0.634365, -3.13038, -0.056016, -0.105504, 0.000492356, -0.000394854, -0.00110694, -0.00401425, -0.0004712, -0.00626046
0.0301003, 0.107762, -0.774255, -0.91704, -1.45775, -0.625418, 1.0698, -0.256738, 0.00144803, -0.00470528, -0.0148198, -0.00548272, -0.00186925, -0.00569786, 0.00392295, -0.508049, 15.791, 20.9742, 17.4435, 1.14734, 3.7836, -0.0814099, 0.000868477, -0.00164532, 0.000746428, 0.00157669, -0.00125795, 3.77995e-05, 0.00583661, -0.00137453, -0.00533658, -0.0146672, 0.00558239, -0.007285, -0.0111087, -0.444723, 0.63503, -3.13185, -0.0555724, -0.107558, -0.0102504, -0.443042, 0.634356, -3.13036, -0.0560005, -0.105492, 0.000551439, -0.000441554, -0.00123836, -0.0048534, -0.00197455, -0.00697178
0.0311003, 0.107762, -0.774257, -0.917057, -1.45775, -0.625426, 1.0698, -0.256731, 0.00312757, -0.00837043, -0.0179395, -0.00661797, -0.00140658, -0.0079415, 0.00404141, -0.468376, 15.7156, 20.752, 16.9595, 1.14093, 3.74698, -0.10796, 0.000860676, -0.00164222, 0.000751494, 0.00158599, -0.00126914, 6.13476e-05, 0.00717469, -0.00151833, -0.00681128, -0.0195614, 0.00379375, -0.00678199, -0.0111081, -0.444724, 0.635029, -3.13185, -0.0555741, -0.107563, -0.0102571, -0.443046, 0.634349, -3.13035, -0.055966, -0.105478, 0.000613805, -0.000490732, -0.00137684, -0.00601902, -0.00220179, -0.0086743
0.0321003, 0.10777, -0.774264, -0.917079, -1.45778, -0.625432, 1.06979, -0.256737, 0.00633191, -0.00664142, -0.0224499, -0.0130062, -0.00729343, -0.00499437, 0.00156829, -0.508049, 15.7156, 20.6052, 16.6977, 1.17206, 3.71127, -0.0685925, 0.000857797, -0.00163977, 0.000764522, 0.00161273, -0.00128958, 5.58715e-05, 0.00625251, -0.00319086, -0.00966835, -0.0206981, 0.0130811, -0.00355471, -0.0111074, -0.444724, 0.635028, -3.13184, -0.055576, -0.107568, -0.0102584, -0.443049, 0.634334, -3.13032, -0.0559774, -0.10545, 0.000679445, -0.000542368, -0.00152234, -0.00477864, -0.00386777, -0.0116171
0.0331003, 0.107769, -0.774274, -0.917106, -1.45781, -0.62544, 1.0698, -0.256742, 0.00465676, -0.0069867, -0.0245811, -0.0157782, -0.00664763, -0.000400413, -0.000163484, -0.508049, 15.791, 20.5298, 16.4755, 1.20318, 3.61148, -0.0292249, 0.000850435, -0.00163498, 0.000779054, 0.00163535, -0.00130659, 6.20108e-05, 0.00664831, -0.00409726, -0.0105238, -0.0195488, 0.0120317, -0.00282141, -0.0111067, -0.444725, 0.635026, -3.13184, -0.055578, -0.107574, -0.0102639, -0.443054, 0.634317, -3.13029, -0.0559708, -0.105427, 0.000748347, -0.000596442, -0.0016748, -0.00501339, -0.00483417, -0.0126558
0.0341003, 0.107768, -0.774287, -0.917122, -1.45784, -0.625447, 1.0698, -0.256736, 0.00250311, -0.0110186, -0.0197721, -0.022459, -0.00578771, -0.00312786, 0.00299393, -0.468376, 15.9021, 20.3077, 16.3248, 1.22699, 3.54648, -0.10796, 0.000845878, -0.00163313, 0.000792575, 0.00165715, -0.00132446, 6.80661e-05, 0.0060716, -0.00212765, -0.0113517, -0.0227257, 0.0130772, -3.02035e-05, -0.0111059, -0.444726, 0.635024, -3.13184, -0.0555803, -0.10758, -0.0102666, -0.443057, 0.634302, -3.13027, -0.0559645, -0.105404, 0.000820503, -0.000652933, -0.00183418, -0.00437982, -0.00289487, -0.0135893
0.0351003, 0.107767, -0.774286, -0.917144, -1.45787, -0.62546, 1.0698, -0.256736, 0.00107848, -0.00629395, -0.0180055, -0.0281574, -0.0105105, -0.00185654, 0.00261076, -0.43267, 15.8267, 20.1569, 16.2137, 1.27002, 3.5181, -0.120778, 0.00084241, -0.00163083, 0.000807361, 0.00168196, -0.00136433, 7.62202e-05, 0.00436647, -0.00199669, -0.0120869, -0.0208034, 0.0245797, 0.00154008, -0.0111051, -0.444726, 0.635022, -3.13183, -0.0555828, -0.107587, -0.0102681, -0.44306, 0.634285, -3.13024, -0.0559555, -0.105347, 0.000895902, -0.000711822, -0.00200043, -0.00255867, -0.00275651, -0.014371
0.0361003, 0.107764, -0.774295, -0.91716, -1.45791, -0.625468, 1.0698, -0.256742, -2.53114e-05, -0.0064928, -0.0158138, -0.0304239, -0.0085812, -0.001312, 0.000150157, -0.392998, 15.9021, 19.9705, 16.0272, 1.29474, 3.50345, -0.0750012, 0.000837557, -0.00162863, 0.000819385, 0.00169948, -0.00138625, 7.5895e-05, 0.0033679, -0.0012196, -0.0119033, -0.0206271, 0.0242529, 0.0072925, -0.0111041, -0.444727, 0.63502, -3.13183, -0.0555855, -0.107594, -0.0102711, -0.443063, 0.63427, -3.13022, -0.0559594, -0.105319, 0.000974534, -0.000773089, -0.00217351, -0.0015247, -0.00200759, -0.0142874
0.0371003, 0.10776, -0.774303, -0.917184, -1.45795, -0.625475, 1.0698, -0.256744, -0.000714301, -0.00639916, -0.0130673, -0.0333281, -0.0104095, -0.00106603, -0.00151651, -0.357292, 15.9735, 19.8594, 16.0272, 1.27643, 3.49612, -0.0292249, 0.000832319, -0.00162656, 0.000836718, 0.00172979, -0.00141591, 7.93456e-05, 0.00255713, -0.000672568, -0.0117768, -0.0190355, 0.027619, 0.0116377, -0.0111031, -0.444728, 0.635018, -3.13182, -0.0555884, -0.107602, -0.0102741, -0.443066, 0.634251, -3.13019, -0.0559582, -0.105279, 0.00105639, -0.000836713, -0.00235336, -0.00066262, -0.00149704, -0.0142821
0.0381003, 0.107754, -0.774306, -0.917211, -1.45798, -0.625486, 1.06981, -0.256735, -0.0021361, -0.00456625, -0.0164455, -0.033461, -0.00839439, -0.00132893, 0.000506155, -0.281914, 15.9735, 19.8594, 15.9518, 1.29474, 3.50345, -0.0685925, 0.000824214, -0.00162265, 0.000852267, 0.00175415, -0.00144926, 0.000104385, 0.00338951, -0.000890989, -0.0125, -0.0218087, 0.0285438, 0.00734068, -0.011102, -0.444729, 0.635016, -3.13182, -0.0555915, -0.107611, -0.0102798, -0.443071, 0.634232, -3.13016, -0.0559235, -0.105234, 0.00114146, -0.000902674, -0.00253994, -0.00135005, -0.00180426, -0.0152487
0.0391003, 0.107746, -0.774312, -0.91723, -1.45802, -0.625494, 1.0698, -0.256732, -0.00310979, -0.00721624, -0.0168674, -0.0301398, -0.00923435, -0.00195999, 0.000856481, -0.206535, 16.0092, 19.784, 15.8765, 1.25171, 3.52542, -0.0814099, 0.00081738, -0.00162152, 0.000865222, 0.00177685, -0.00147896, 0.000117757, 0.00575293, -0.00112159, -0.0115326, -0.0201358, 0.0249745, 0.00430414, -0.0111008, -0.44473, 0.635013, -3.13181, -0.0555949, -0.10762, -0.0102845, -0.443073, 0.634216, -3.13013, -0.0559071, -0.105195, 0.00122973, -0.000970953, -0.00273321, -0.00367609, -0.00219448, -0.0146409
0.0401003, 0.107735, -0.774311, -0.917247, -1.45806, -0.625503, 1.06981, -0.256739, -0.00554154, -0.00440375, -0.0126995, -0.0344792, -0.0103435, -0.00068803, -0.000616471, -0.0557783, 15.9735, 19.6372, 15.9518, 1.20868, 3.50345, -0.0484509, 0.000813515, -0.00162071, 0.000879193, 0.00179763, -0.00152023, 0.00012069, 0.00388932, -0.000201603, -0.0111758, -0.0175036, 0.0308758, 0.00894811, -0.0110996, -0.444731, 0.63501, -3.1318, -0.0555986, -0.10763, -0.0102861, -0.443075, 0.634199, -3.13011, -0.0559072, -0.105139, 0.00132119, -0.00104153, -0.00293311, -0.00178379, -0.00128311, -0.014351
0.0411003, 0.107729, -0.774311, -0.917271, -1.45809, -0.625515, 1.06981, -0.256741, -0.00457878, -0.00325694, -0.0159153, -0.0354887, -0.00724879, -0.000605066, -0.000860765, -0.0161054, 15.9735, 19.6372, 15.9518, 1.19037, 3.50345, -0.0356336, 0.000806851, -0.00161801, 0.000892963, 0.00181947, -0.00155895, 0.000132837, 0.00340341, -0.000343108, -0.0121669, -0.0210149, 0.0307295, 0.0104627, -0.0110982, -0.444732, 0.635007, -3.1318, -0.0556025, -0.107641, -0.0102904, -0.443079, 0.634182, -3.13008, -0.0558932, -0.105088, 0.00141584, -0.00111438, -0.0031396, -0.00113166, -0.00147161, -0.0155137
0.0421003, 0.107723, -0.774316, -0.917296, -1.45814, -0.625526, 1.06981, -0.256737, -0.00794382, -0.00417536, -0.016087, -0.0414794, -0.00560598, -0.000513163, 0.00066556, 0.059273, 16.0489, 19.6729, 16.178, 1.19037, 3.50345, -0.0685925, 0.000801002, -0.0016161, 0.000911626, 0.00185091, -0.00160213, 0.000144663, 0.0037289, 0.000317975, -0.0137485, -0.0245289, 0.032705, 0.0100973, -0.0110967, -0.444733, 0.635004, -3.13179, -0.0556067, -0.107652, -0.0102934, -0.443082, 0.63416, -3.13005, -0.0558804, -0.10503, 0.00151366, -0.0011895, -0.00335263, -0.00127352, -0.000883736, -0.0173227
0.0431003, 0.107718, -0.774314, -0.917314, -1.45818, -0.625541, 1.06981, -0.256735, -0.00636997, -0.0029642, -0.0171798, -0.0398174, -0.0038766, -0.000424447, 0.00116981, 0.0949785, 16.0489, 19.6372, 16.2891, 1.17847, 3.50345, -0.0878186, 0.000797748, -0.00161487, 0.000925127, 0.00187012, -0.00165052, 0.000154686, 0.00309777, 0.000252778, -0.0133228, -0.024575, 0.0318424, 0.0111093, -0.0110952, -0.444734, 0.635, -3.13178, -0.0556111, -0.107664, -0.0102941, -0.443084, 0.634142, -3.13002, -0.0558702, -0.104965, 0.00161465, -0.00126685, -0.00357216, -0.000570017, -0.00100762, -0.0170746
0.0441003, 0.107707, -0.774319, -0.917334, -1.45822, -0.625557, 1.0698, -0.256741, -0.00795228, -0.00378204, -0.0159825, -0.037358, -0.00789047, -0.00166715, -0.00090503, 0.245735, 16.1203, 19.6372, 16.3644, 1.18396, 3.53915, -0.0420422, 0.000787994, -0.00161393, 0.000938477, 0.00189173, -0.00169378, 0.00016707, 0.00517385, 0.000205678, -0.0120907, -0.0212223, 0.033341, 0.0101604, -0.0110935, -0.444735, 0.634997, -3.13177, -0.0556159, -0.107677, -0.0103012, -0.443087, 0.634125, -3.12999, -0.0558568, -0.104909, 0.00171879, -0.00134642, -0.00379814, -0.00261839, -0.00121796, -0.0162146
0.0451003, 0.107702, -0.774324, -0.917356, -1.45826, -0.625574, 1.0698, -0.256743, -0.00636391, -0.0043862, -0.0166307, -0.0421761, -0.0118196, -0.00197155, -0.00130754, 0.285408, 16.1957, 19.7086, 16.5866, 1.20868, 3.56112, -0.0228162, 0.000781343, -0.00161242, 0.00095489, 0.00191746, -0.00174282, 0.000175042, 0.00475544, 2.08774e-05, -0.0136027, -0.0225425, 0.0393711, 0.0131007, -0.0110917, -0.444737, 0.634993, -3.13176, -0.0556209, -0.107691, -0.0103049, -0.44309, 0.634104, -3.12996, -0.0558506, -0.104844, 0.00182607, -0.00142819, -0.00403052, -0.00198361, -0.00145643, -0.0179277
0.0461003, 0.107696, -0.774318, -0.917378, -1.4583, -0.625596, 1.0698, -0.256734, -0.0052714, -0.00123709, -0.0171417, -0.0421873, -0.0141725, -0.00240026, 0.001067, 0.325081, 16.1203, 19.784, 16.662, 1.2215, 3.58951, -0.0750012, 0.000774826, -0.00161037, 0.000967901, 0.00193511, -0.00180113, 0.000201396, 0.00407686, -0.000137616, -0.0134604, -0.0215737, 0.0448845, 0.011174, -0.0110899, -0.444738, 0.634989, -3.13175, -0.0556263, -0.107706, -0.0103085, -0.443093, 0.634086, -3.12994, -0.055816, -0.104767, 0.00193648, -0.00151214, -0.00426926, -0.0012006, -0.001676, -0.0179789
0.0471003, 0.107685, -0.774329, -0.917391, -1.45834, -0.625618, 1.0698, -0.256735, -0.0061883, -0.00431555, -0.0147408, -0.0421587, -0.0159854, -0.0018975, 3.69613e-06, 0.436165, 16.2671, 19.7483, 16.7374, 1.23981, 3.59683, -0.0557752, 0.000764639, -0.00160954, 0.000979336, 0.00194738, -0.00184405, 0.000215344, 0.00504538, 7.4096e-05, -0.0125586, -0.0184371, 0.0431413, 0.0131727, -0.0110879, -0.44474, 0.634984, -3.13174, -0.0556319, -0.107721, -0.0103159, -0.443096, 0.63407, -3.12992, -0.0558007, -0.104714, 0.00205002, -0.00159825, -0.00451432, -0.00212194, -0.00159239, -0.0173897
0.0481003, 0.10768, -0.774329, -0.91741, -1.45838, -0.625639, 1.0698, -0.256732, -0.00418222, -0.0029199, -0.0146845, -0.0417462, -0.0161153, -0.00209834, 0.000955228, 0.436165, 16.2671, 19.784, 16.9238, 1.22699, 3.6188, -0.0814099, 0.0007596, -0.00160802, 0.000992904, 0.00196334, -0.00189965, 0.000229305, 0.00394687, 0.000153572, -0.0121856, -0.017817, 0.0448277, 0.01491, -0.0110858, -0.444741, 0.63498, -3.13173, -0.0556379, -0.107738, -0.0103178, -0.443099, 0.634051, -3.1299, -0.0557859, -0.104642, 0.00216668, -0.00168649, -0.00476563, -0.000938341, -0.00156567, -0.0171928
0.0491003, 0.107676, -0.774329, -0.917422, -1.45841, -0.625664, 1.06979, -0.256741, -0.00283066, -0.00197875, -0.0137362, -0.040012, -0.0170672, -0.00192217, -0.00153082, 0.436165, 16.2671, 19.784, 16.9238, 1.2334, 3.63254, -0.0228162, 0.00075369, -0.00160755, 0.00100106, 0.00197019, -0.0019523, 0.000231787, 0.00338606, 0.000169206, -0.0111129, -0.0151715, 0.0455933, 0.0190614, -0.0110835, -0.444743, 0.634975, -3.13172, -0.0556442, -0.107755, -0.0103209, -0.443101, 0.634038, -3.12988, -0.0557889, -0.104577, 0.00228643, -0.00177687, -0.00502317, -0.000333437, -0.00162992, -0.0163416
0.0501003, 0.10767, -0.774334, -0.91744, -1.45845, -0.625693, 1.06979, -0.256738, -0.00191899, -0.00310651, -0.0157304, -0.0406825, -0.0219854, -0.00288614, -0.000781318, 0.436165, 16.3425, 19.8951, 16.9992, 1.22699, 3.67557, -0.0292249, 0.000743552, -0.00160537, 0.00101249, 0.00198049, -0.00200753, 0.000253115, 0.00499526, -0.000510816, -0.0117669, -0.0151064, 0.0495836, 0.016662, -0.0110812, -0.444745, 0.634969, -3.13171, -0.0556509, -0.107773, -0.0103278, -0.443106, 0.634021, -3.12986, -0.055763, -0.104508, 0.00240928, -0.00186934, -0.00528689, -0.00174567, -0.00245282, -0.0173728
0.0511003, 0.107662, -0.774339, -0.917457, -1.45848, -0.625718, 1.06979, -0.256734, -0.00223126, -0.00292431, -0.012464, -0.0402422, -0.0210525, -0.00298349, 0.000701228, 0.475838, 16.3782, 19.9347, 17.0349, 1.2215, 3.70395, -0.0621838, 0.000732339, -0.00160452, 0.00102262, 0.00199221, -0.00206076, 0.000277981, 0.00405049, 0.000330278, -0.0104184, -0.0126676, 0.0490487, 0.0185634, -0.0110787, -0.444747, 0.634964, -3.1317, -0.0556578, -0.107792, -0.0103358, -0.443109, 0.634004, -3.12984, -0.0557321, -0.104443, 0.00253522, -0.00196389, -0.00555673, -0.000800222, -0.00168524, -0.016227
0.0521003, 0.107658, -0.774339, -0.917478, -1.45852, -0.625745, 1.06978, -0.256732, -0.000577424, -0.0019631, -0.0153717, -0.0387211, -0.0247251, -0.00253771, 0.00118062, 0.436165, 16.3782, 20.0815, 17.146, 1.20868, 3.7186, -0.0814099, 0.00072438, -0.00160249, 0.00103517, 0.00200625, -0.00212149, 0.000296839, 0.00505789, -0.000746345, -0.0104735, -0.0111794, 0.052104, 0.0159905, -0.0110761, -0.444749, 0.634958, -3.13168, -0.0556652, -0.107812, -0.0103402, -0.443113, 0.633986, -3.12982, -0.055711, -0.104367, 0.00266423, -0.00206051, -0.00583265, -0.00163318, -0.00289267, -0.0166342
0.0531003, 0.107656, -0.774339, -0.917488, -1.45855, -0.625778, 1.06979, -0.256739, 0.000436816, -0.00131891, -0.0131361, -0.0349094, -0.02784, -0.00196771, -0.00161963, 0.400459, 16.3782, 20.0458, 17.146, 1.19037, 3.72592, -0.0164075, 0.000718157, -0.00160061, 0.0010407, 0.00199997, -0.00217886, 0.000303917, 0.005145, -0.000920076, -0.00834151, -0.00519324, 0.0526351, 0.019086, -0.0110734, -0.444751, 0.634952, -3.13167, -0.0556729, -0.107834, -0.0103432, -0.443117, 0.633974, -3.12982, -0.0557078, -0.104299, 0.0027963, -0.00215917, -0.00611461, -0.0017279, -0.00318664, -0.0147965
0.0541003, 0.107641, -0.774337, -0.917508, -1.45859, -0.625808, 1.06979, -0.256736, -0.00231733, -0.000886899, -0.01504, -0.0338254, -0.0245561, -0.00158655, -0.000129726, 0.511544, 16.3782, 20.1569, 17.2214, 1.16015, 3.73324, -0.0420422, 0.000704127, -0.00159809, 0.00105003, 0.00200404, -0.00224184, 0.000339796, 0.00649476, -0.00086014, -0.00812469, -0.00615051, 0.0501472, 0.0154712, -0.0110705, -0.444753, 0.634946, -3.13166, -0.0556809, -0.107856, -0.0103536, -0.443122, 0.633957, -3.1298, -0.0556607, -0.104222, 0.00293143, -0.00225986, -0.00640257, -0.00295539, -0.00327682, -0.0149608
0.0551003, 0.107634, -0.774337, -0.917526, -1.45862, -0.625841, 1.06978, -0.256733, -0.00385702, -0.000596987, -0.0155163, -0.0321872, -0.0279555, -0.00211147, 0.000897305, 0.475838, 16.3782, 20.2323, 17.2571, 1.15375, 3.76163, -0.0685925, 0.00069262, -0.00159652, 0.00105833, 0.00200925, -0.00230703, 0.000367765, 0.0084153, -0.00119124, -0.00744619, -0.00377853, 0.0526316, 0.0111524, -0.0110675, -0.444756, 0.63494, -3.13164, -0.0556894, -0.107879, -0.0103614, -0.443126, 0.633942, -3.12979, -0.0556262, -0.104142, 0.00306961, -0.00236255, -0.00669647, -0.0047666, -0.003784, -0.0147124
0.0561003, 0.107625, -0.774341, -0.917538, -1.45866, -0.625879, 1.06978, -0.256731, -0.00592629, -0.0013303, -0.0132077, -0.0319164, -0.0309506, -0.00222341, 0.00107325, 0.475838, 16.4178, 20.1926, 17.3325, 1.16015, 3.7836, -0.0814099, 0.000680704, -0.00159489, 0.0010657, 0.00200585, -0.00237094, 0.000392556, 0.00958037, -0.000934296, -0.00637184, -0.000217524, 0.0543491, 0.010196, -0.0110644, -0.444758, 0.634933, -3.13162, -0.0556982, -0.107903, -0.0103696, -0.443131, 0.633927, -3.12978, -0.0555968, -0.104067, 0.00321082, -0.00246723, -0.00699628, -0.0058698, -0.00368239, -0.0140193
0.0571003, 0.107623, -0.774339, -0.917552, -1.45869, -0.625915, 1.06977, -0.256736, -0.00484489, 3.79331e-05, -0.0154881, -0.0316517, -0.0319481, -0.00307743, -0.000979668, 0.360787, 16.3782, 20.1926, 17.4078, 1.14093, 3.82663, -0.0356336, 0.000673136, -0.00159444, 0.00107339, 0.00200897, -0.00244379, 0.000404034, 0.00988167, -0.00123403, -0.00668231, -0.00120907, 0.0572628, 0.0120958, -0.0110611, -0.444761, 0.634926, -3.13161, -0.0557074, -0.107928, -0.0103733, -0.443134, 0.633911, -3.12976, -0.0555887, -0.103978, 0.00335505, -0.00257388, -0.00730195, -0.00599378, -0.0040964, -0.0146575
0.0581003, 0.107614, -0.774334, -0.917567, -1.45872, -0.625952, 1.06977, -0.256734, -0.00383389, 0.00169331, -0.0153177, -0.0305406, -0.0338249, -0.00337515, 9.30604e-05, 0.360787, 16.3068, 20.2323, 17.4435, 1.13544, 3.86233, -0.0557752, 0.000661034, -0.00159236, 0.0010789, 0.0020034, -0.00251504, 0.000436611, 0.00963004, -0.00130498, -0.00596959, 0.000769141, 0.0601978, 0.0118292, -0.0110577, -0.444763, 0.634918, -3.13159, -0.055717, -0.107955, -0.0103815, -0.443139, 0.633898, -3.12976, -0.0555479, -0.103893, 0.0035023, -0.00268248, -0.00761342, -0.00564195, -0.00427329, -0.0142413
0.0591003, 0.107601, -0.774335, -0.917588, -1.45875, -0.625993, 1.06977, -0.256727, -0.00708785, 0.00112706, -0.0196457, -0.0297303, -0.0349044, -0.00303082, 0.00152024, 0.400459, 16.3068, 20.3434, 17.4832, 1.12903, 3.88339, -0.0951428, 0.00064378, -0.00158901, 0.00108535, 0.00199863, -0.00258439, 0.000483102, 0.0130977, -0.0021858, -0.00651934, 8.45657e-06, 0.0603638, 0.00409434, -0.0110541, -0.444766, 0.63491, -3.13157, -0.055727, -0.107982, -0.0103945, -0.443146, 0.633882, -3.12975, -0.055486, -0.103812, 0.00365255, -0.002793, -0.00793067, -0.00887947, -0.00538143, -0.0153521
0.0601003, 0.107597, -0.774332, -0.917593, -1.45878, -0.626035, 1.06976, -0.256724, -0.00985623, 0.00167804, -0.0176015, -0.0299934, -0.0356128, -0.00334359, 0.00148832, 0.325081, 16.2671, 20.2323, 17.5586, 1.12262, 3.9191, -0.10796, 0.000635531, -0.00158963, 0.00108834, 0.00198881, -0.00266167, 0.000504205, 0.0137396, -0.00159365, -0.00560826, 0.00209888, 0.0621168, 0.0038977, -0.0110504, -0.444769, 0.634902, -3.13155, -0.0557374, -0.108011, -0.0103988, -0.443148, 0.633871, -3.12975, -0.0554637, -0.10372, 0.0038058, -0.00290544, -0.00825364, -0.00944991, -0.00493284, -0.0148069
0.0611003, 0.107588, -0.774332, -0.917616, -1.45881, -0.626076, 1.06976, -0.25673, -0.0106929, 0.000189654, -0.0215155, -0.0292161, -0.0360605, -0.00358586, -0.00121176, 0.325081, 16.3068, 20.3434, 17.5943, 1.10431, 3.95572, -0.0484509, 0.000618309, -0.00158675, 0.0010956, 0.00198806, -0.00273483, 0.000535473, 0.0162237, -0.0022928, -0.00619716, 0.000586979, 0.0612123, 0.00338008, -0.0110465, -0.444772, 0.634894, -3.13154, -0.0557483, -0.10804, -0.0104115, -0.443154, 0.633854, -3.12973, -0.0554264, -0.103635, 0.00396204, -0.00301977, -0.00858229, -0.0117046, -0.00582823, -0.0158993
0.0621003, 0.107578, -0.774326, -0.917631, -1.45884, -0.626118, 1.06976, -0.256727, -0.0112479, 0.00188891, -0.0187535, -0.0265267, -0.0409503, -0.00317082, 0.000175566, 0.325081, 16.2314, 20.3434, 17.6697, 1.0979, 3.97677, -0.0750012, 0.000605415, -0.00158428, 0.00109952, 0.00197561, -0.00281292, 0.000572019, 0.0166683, -0.00238584, -0.00412932, 0.00722833, 0.0649917, 0.00103785, -0.0110424, -0.444775, 0.634885, -3.13152, -0.0557596, -0.108071, -0.01042, -0.44316, 0.63384, -3.12973, -0.0553809, -0.103544, 0.00412125, -0.00313597, -0.00891658, -0.0121273, -0.00607157, -0.0142024
0.0631003, 0.107571, -0.774324, -0.917643, -1.45887, -0.62616, 1.06975, -0.256729, -0.0106512, 0.00209392, -0.0159784, -0.0234389, -0.0447714, -0.00343657, -0.000594988, 0.285408, 16.1957, 20.3077, 17.7054, 1.086, 4.01248, -0.0557752, 0.000593036, -0.00158381, 0.00110206, 0.00196505, -0.0028901, 0.000598274, 0.0170014, -0.00231642, -0.00208029, 0.0128613, 0.0665684, 0.0023432, -0.0110382, -0.444778, 0.634876, -3.13149, -0.0557713, -0.108103, -0.0104279, -0.443164, 0.633828, -3.12972, -0.0553519, -0.103456, 0.00428343, -0.00325403, -0.00925645, -0.0124406, -0.0061504, -0.0125212
0.0641003, 0.10757, -0.774326, -0.917666, -1.4589, -0.626204, 1.06975, -0.256722, -0.00857125, 0.000560298, -0.0203387, -0.0253908, -0.0483806, -0.00388494, 0.00201087, 0.170357, 16.2314, 20.4188, 17.7808, 1.09241, 4.05551, -0.120778, 0.000577373, -0.00158063, 0.00110821, 0.00196119, -0.00296538, 0.000638276, 0.0184382, -0.00332613, -0.00371831, 0.0105976, 0.0699665, -0.000960355, -0.0110339, -0.444781, 0.634867, -3.13147, -0.0557834, -0.108137, -0.0104386, -0.443171, 0.633811, -3.12971, -0.0553022, -0.103371, 0.00444857, -0.00337392, -0.00960188, -0.0135589, -0.00731543, -0.0146069
0.0651003, 0.107557, -0.774326, -0.917681, -1.45892, -0.626244, 1.06975, -0.25673, -0.0107989, 0.00037321, -0.0169864, -0.0258379, -0.0448789, -0.0025901, -0.00133816, 0.21003, 16.2314, 20.3791, 17.8204, 1.06769, 4.05551, -0.0484509, 0.000560663, -0.0015787, 0.0011099, 0.00194579, -0.0030361, 0.000668041, 0.0176231, -0.00230133, -0.00236692, 0.0129139, 0.0670823, 0.00591132, -0.0110293, -0.444785, 0.634857, -3.13145, -0.055796, -0.108171, -0.0104506, -0.443177, 0.633799, -3.12971, -0.0552685, -0.103296, 0.00461665, -0.00349563, -0.0099528, -0.0127078, -0.00639646, -0.0135472
0.0661003, 0.107553, -0.774324, -0.917695, -1.45895, -0.626284, 1.06974, -0.256726, -0.0104565, 0.000248565, -0.0196235, -0.0311796, -0.0422359, -0.00254065, 0.000565975, 0.170357, 16.2314, 20.3077, 17.9315, 1.04297, 4.07748, -0.0878186, 0.00054861, -0.00157759, 0.00111205, 0.00193263, -0.00311273, 0.000700368, 0.01687, -0.00206209, -0.00439144, 0.0077725, 0.0690269, 0.00765988, -0.0110246, -0.444788, 0.634847, -3.13143, -0.055809, -0.108207, -0.0104577, -0.443182, 0.633786, -3.1297, -0.0552313, -0.103213, 0.00478767, -0.00361914, -0.0103092, -0.011655, -0.00623609, -0.01587
0.0671003, 0.107548, -0.774323, -0.917716, -1.45897, -0.626328, 1.06974, -0.256724, -0.00716911, 0.00100075, -0.022122, -0.0281972, -0.0416612, -0.00169385, -9.73871e-05, 0.134651, 16.1957, 20.3791, 17.8918, 1.04938, 4.07748, -0.0750012, 0.00053178, -0.00157371, 0.00111378, 0.00191639, -0.00318624, 0.000741456, 0.0165545, -0.00275468, -0.0038183, 0.0088459, 0.0676131, 0.00976997, -0.0110198, -0.444792, 0.634836, -3.1314, -0.0558225, -0.108244, -0.0104693, -0.44319, 0.633772, -3.1297, -0.0551808, -0.103135, 0.00496161, -0.00374443, -0.010671, -0.011181, -0.00704759, -0.0156433
0.0681003, 0.10755, -0.774326, -0.917733, -1.459, -0.626364, 1.06974, -0.25672, -0.00202792, -0.000168189, -0.0222887, -0.0281785, -0.0396923, -0.00245172, 0.00186787, -0.0161054, 16.2314, 20.3791, 17.9315, 1.01276, 4.11319, -0.127186, 0.000520184, -0.0015727, 0.00111566, 0.001906, -0.00325532, 0.000768161, 0.0145383, -0.00245, -0.00374864, 0.00752067, 0.0658847, 0.0150887, -0.0110147, -0.444796, 0.634825, -3.13138, -0.0558365, -0.108282, -0.0104756, -0.443196, 0.633759, -3.12969, -0.0551534, -0.103066, 0.00513848, -0.00387148, -0.0110382, -0.00900964, -0.00679958, -0.0157999
0.0691003, 0.107543, -0.774326, -0.917754, -1.45902, -0.626407, 1.06973, -0.256722, -0.00276841, -0.000112228, -0.0232863, -0.0280916, -0.0399031, -0.00241442, -0.00021281, 0.0196001, 16.2314, 20.4188, 17.9672, 1.01825, 4.13424, -0.0878186, 0.000501972, -0.00157072, 0.00111803, 0.00189504, -0.00333374, 0.000806176, 0.015374, -0.00251957, -0.00359434, 0.00783678, 0.0665808, 0.0168911, -0.0110095, -0.4448, 0.634814, -3.13135, -0.055851, -0.108322, -0.0104883, -0.443202, 0.633744, -3.12968, -0.0551089, -0.102983, 0.00531825, -0.00400028, -0.0114107, -0.00967104, -0.00702888, -0.0160772
0.0701003, 0.107541, -0.774331, -0.91776, -1.45904, -0.626445, 1.06973, -0.256724, -0.00144632, -0.00183813, -0.0167172, -0.0262157, -0.038962, -0.00215218, -0.0010913, -0.0161054, 16.3068, 20.268, 17.9315, 1.00635, 4.14889, -0.0621838, 0.000489563, -0.00157038, 0.00111343, 0.0018671, -0.00339604, 0.000828484, 0.0135278, -0.00124259, -0.000846014, 0.0134796, 0.0630335, 0.0249622, -0.0110041, -0.444804, 0.634803, -3.13133, -0.0558659, -0.108363, -0.0104956, -0.443207, 0.633736, -3.12969, -0.0550885, -0.102928, 0.00550092, -0.0041308, -0.0117885, -0.00788301, -0.00584311, -0.0135775
0.0711003, 0.107538, -0.774324, -0.917786, -1.45905, -0.626484, 1.06973, -0.256723, -0.00129117, 0.000537758, -0.0181934, -0.0240455, -0.0388467, -0.00197735, -0.000490172, -0.0161054, 16.2314, 20.3791, 17.8561, 1.00635, 4.16354, -0.0685925, 0.00047263, -0.00156739, 0.00111359, 0.00185331, -0.0034747, 0.000872357, 0.0137766, -0.00149168, -0.000111055, 0.0147556, 0.0644162, 0.0237301, -0.0109985, -0.444808, 0.634791, -3.1313, -0.0558813, -0.108405, -0.0105067, -0.443215, 0.633723, -3.12968, -0.0550358, -0.102848, 0.00568647, -0.00426302, -0.0121715, -0.00798717, -0.00623988, -0.0132466
0.0721003, 0.107542, -0.774328, -0.917812, -1.45908, -0.626522, 1.06973, -0.256717, 0.000657247, -0.000476755, -0.0239391, -0.0251846, -0.0387278, -0.00104699, 0.00184336, -0.0914839, 16.2671, 20.4545, 17.8918, 0.999938, 4.15622, -0.127186, 0.00045764, -0.0015632, 0.00111528, 0.00183765, -0.00354258, 0.00091109, 0.0148714, -0.00261422, -0.00170897, 0.0117159, 0.0644026, 0.0210385, -0.0109927, -0.444812, 0.634778, -3.13127, -0.0558972, -0.108449, -0.0105156, -0.443224, 0.633708, -3.12967, -0.0549914, -0.102786, 0.00587491, -0.00439694, -0.0125597, -0.00873956, -0.00751978, -0.0153127
0.0731003, 0.107539, -0.774326, -0.917832, -1.4591, -0.62656, 1.06973, -0.256723, -0.00150898, -0.000317869, -0.0227054, -0.0251306, -0.0338803, -0.000426738, -0.000941229, -0.0161054, 16.2671, 20.4188, 17.8918, 0.999938, 4.14889, -0.0685925, 0.000442184, -0.00156158, 0.00111432, 0.00181921, -0.00361884, 0.000940235, 0.0145371, -0.00173231, -0.000812762, 0.011863, 0.0610125, 0.0263356, -0.0109867, -0.444817, 0.634765, -3.13124, -0.0559137, -0.108494, -0.0105251, -0.44323, 0.633695, -3.12967, -0.0549624, -0.102713, 0.00606621, -0.00453252, -0.0129531, -0.00830837, -0.00677055, -0.0147835
0.0741003, 0.107541, -0.774326, -0.917856, -1.45912, -0.6266, 1.06973, -0.25672, -0.00114392, -0.000211937, -0.0235397, -0.0242413, -0.0307362, -0.000284503, -0.000627484, -0.0161054, 16.2671, 20.4545, 17.8561, 1.01276, 4.14889, -0.0685925, 0.000426236, -0.00155832, 0.00111336, 0.00180026, -0.0036932, 0.00097999, 0.0143267, -0.00147537, -0.00036475, 0.0113198, 0.0586799, 0.0282601, -0.0109806, -0.444821, 0.634752, -3.13121, -0.0559306, -0.108541, -0.0105347, -0.443239, 0.633682, -3.12966, -0.0549173, -0.102644, 0.00626038, -0.00466976, -0.0133516, -0.00794459, -0.00664784, -0.0147192
0.0751003, 0.107537, -0.774326, -0.917887, -1.45914, -0.626636, 1.06973, -0.25672, -0.0026293, -0.000141309, -0.0287088, -0.0231567, -0.0326378, 0.000352858, 0.000293755, 0.059273, 16.2671, 20.5655, 17.9315, 1.01825, 4.13424, -0.0878186, 0.000408113, -0.001555, 0.001116, 0.00178861, -0.00377033, 0.00102128, 0.0173184, -0.00268276, -0.000983757, 0.0108739, 0.0599476, 0.0219361, -0.0109742, -0.444826, 0.634739, -3.13118, -0.055948, -0.108588, -0.0105461, -0.443247, 0.633664, -3.12965, -0.0548707, -0.102572, 0.00645739, -0.00480863, -0.0137552, -0.0106439, -0.0080936, -0.0159566
0.0761003, 0.107542, -0.774323, -0.917914, -1.45916, -0.626674, 1.06973, -0.256717, -0.000902434, 0.00396636, -0.0286809, -0.0227912, -0.0296933, -3.6035e-05, 0.00141654, 0.0196001, 16.2314, 20.6409, 17.8918, 1.02466, 4.14157, -0.120778, 0.000392925, -0.00155167, 0.00111494, 0.00177053, -0.00384725, 0.00106037, 0.0150079, -0.00209779, -0.000379867, 0.010444, 0.0623529, 0.0252645, -0.0109676, -0.444831, 0.634725, -3.13115, -0.055966, -0.108638, -0.0105546, -0.443256, 0.63365, -3.12964, -0.0548278, -0.102501, 0.00665724, -0.00494912, -0.0141638, -0.00820332, -0.00757345, -0.015599
0.0771003, 0.107543, -0.774323, -0.917933, -1.45918, -0.626712, 1.06973, -0.256719, -0.000659813, 0.00207779, -0.0271865, -0.0202747, -0.0378982, 0.000247239, -0.000751059, 0.0196001, 16.2671, 20.5298, 17.8918, 1.05578, 4.13424, -0.0750012, 0.000378137, -0.00155002, 0.00111148, 0.00174549, -0.00392261, 0.00109148, 0.01726, -0.00285024, 0.00119115, 0.0173533, 0.0654166, 0.0251099, -0.0109609, -0.444836, 0.63471, -3.13111, -0.0559845, -0.108688, -0.0105628, -0.443263, 0.633639, -3.12963, -0.0547976, -0.102436, 0.00685993, -0.0050912, -0.0145774, -0.0103274, -0.00856206, -0.0146076
0.0781003, 0.107545, -0.77432, -0.917967, -1.4592, -0.626747, 1.06973, -0.256724, -0.000483518, 0.00242199, -0.0316611, -0.0183792, -0.0381895, 0.000164823, -0.00148405, 0.0196001, 16.2314, 20.6409, 17.8918, 1.06769, 4.13424, -0.0484509, 0.000361098, -0.00154631, 0.0011124, 0.00173216, -0.00400261, 0.00112711, 0.019148, -0.00369195, 0.000928733, 0.0164075, 0.0655725, 0.0230336, -0.0109539, -0.444841, 0.634696, -3.13108, -0.0560035, -0.108741, -0.0105726, -0.443273, 0.633622, -3.12962, -0.0547613, -0.102363, 0.00706543, -0.00523486, -0.0149959, -0.0119555, -0.00961154, -0.0154255
0.0791003, 0.107543, -0.77432, -0.917997, -1.45922, -0.62678, 1.06973, -0.25672, -0.0012831, 0.00176584, -0.0329217, -0.0193019, -0.0382634, 0.000381147, -0.000243381, 0.059273, 16.2314, 20.6766, 17.8561, 1.06128, 4.12692, -0.0685925, 0.00034184, -0.00154332, 0.00111063, 0.00171377, -0.00407567, 0.00117569, 0.0200797, -0.00376156, 0.000744229, 0.0161368, 0.0661068, 0.0220284, -0.0109468, -0.444846, 0.63468, -3.13105, -0.0560231, -0.108794, -0.0105846, -0.443282, 0.633607, -3.12961, -0.0547052, -0.102303, 0.00727374, -0.00538009, -0.0154193, -0.0126607, -0.00985788, -0.0160991
0.0801003, 0.107541, -0.774315, -0.918026, -1.45923, -0.626815, 1.06973, -0.256715, -0.00171517, 0.00212583, -0.0330318, -0.0190769, -0.038526, 0.000762722, 0.00129581, 0.0949785, 16.1957, 20.6766, 17.7808, 1.0741, 4.11319, -0.10796, 0.000323238, -0.00154039, 0.00110665, 0.00168959, -0.00415314, 0.00122661, 0.0204303, -0.0037185, 0.00128306, 0.0175371, 0.0669255, 0.0213014, -0.0109394, -0.444852, 0.634665, -3.13101, -0.0560432, -0.10885, -0.010596, -0.443291, 0.633594, -3.1296, -0.0546459, -0.102239, 0.00748486, -0.00552686, -0.0158476, -0.012838, -0.00997939, -0.0160148
0.0811003, 0.107546, -0.77431, -0.918056, -1.45925, -0.62685, 1.06973, -0.25672, -0.000326637, 0.00233748, -0.0303574, -0.0190782, -0.0389896, 0.00050848, -0.00106891, 0.059273, 16.16, 20.6766, 17.7054, 1.086, 4.11319, -0.0557752, 0.000306827, -0.00153728, 0.00110315, 0.00166771, -0.00423296, 0.00126197, 0.0191878, -0.00308172, 0.00243303, 0.020021, 0.0681096, 0.02845, -0.0109318, -0.444858, 0.634649, -3.13097, -0.0560639, -0.108906, -0.0106048, -0.4433, 0.63358, -3.12959, -0.0546114, -0.102171, 0.00769877, -0.00567515, -0.0162807, -0.0114879, -0.00945843, -0.0152107
0.0821003, 0.107544, -0.774304, -0.918089, -1.45927, -0.626883, 1.06973, -0.25672, -0.00106678, 0.00255012, -0.035144, -0.0218647, -0.0385819, 0.000338985, -0.000712605, 0.0949785, 16.1203, 20.7163, 17.7451, 1.07959, 4.11319, -0.0557752, 0.000289544, -0.0015351, 0.00110249, 0.00165193, -0.00431938, 0.00130472, 0.0205333, -0.00356684, 0.00068871, 0.015963, 0.0707307, 0.0269439, -0.010924, -0.444863, 0.634632, -3.13094, -0.0560851, -0.108965, -0.0106142, -0.443308, 0.633563, -3.12957, -0.0545662, -0.102095, 0.00791545, -0.00582496, -0.0167186, -0.0124742, -0.0101245, -0.0174866
0.0831003, 0.107549, -0.774296, -0.918119, -1.45929, -0.626914, 1.06974, -0.256723, 0.000113671, 0.00258313, -0.0338991, -0.0227123, -0.0385277, 0.000497257, -0.00145841, 0.059273, 16.0846, 20.6766, 17.7451, 1.086, 4.10586, -0.0292249, 0.000275708, -0.00153307, 0.00109964, 0.00163212, -0.00440418, 0.0013382, 0.0195813, -0.00316388, 0.00121916, 0.0171972, 0.0717644, 0.031897, -0.010916, -0.444869, 0.634615, -3.1309, -0.0561069, -0.109025, -0.0106201, -0.443317, 0.633548, -3.12956, -0.0545358, -0.102023, 0.00813491, -0.00597625, -0.0171612, -0.0113569, -0.00984469, -0.0173318
0.0841003, 0.107555, -0.774292, -0.918156, -1.4593, -0.626943, 1.06974, -0.256716, 0.00400665, 0.00489628, -0.0349484, -0.021701, -0.0338956, 0.000331504, 0.00146913, 0.0196001, 16.0846, 20.7163, 17.6697, 1.086, 4.10586, -0.0951428, 0.00025812, -0.00152918, 0.00109651, 0.00161166, -0.00448021, 0.00138868, 0.0170036, -0.00275838, 0.00163908, 0.0156756, 0.0706888, 0.0353843, -0.0109077, -0.444875, 0.634598, -3.13086, -0.0561293, -0.109086, -0.0106294, -0.443327, 0.633533, -3.12955, -0.0544796, -0.101967, 0.00835714, -0.00612902, -0.0176085, -0.00860858, -0.00950502, -0.0171785
0.0851003, 0.107558, -0.774281, -0.918189, -1.45932, -0.626975, 1.06974, -0.25672, 0.00375138, 0.00841548, -0.0346783, -0.022779, -0.0350181, 0.00049227, -0.000478642, -0.0161054, 16.0092, 20.7163, 17.6697, 1.086, 4.09854, -0.0557752, 0.000242923, -0.00152738, 0.00109328, 0.0015923, -0.00457179, 0.00142537, 0.0161304, -0.00254601, 0.00200557, 0.017037, 0.0762847, 0.0389436, -0.0108992, -0.444881, 0.63458, -3.13082, -0.0561522, -0.109149, -0.0106363, -0.443336, 0.633517, -3.12953, -0.0544455, -0.101887, 0.00858211, -0.00628324, -0.0180604, -0.00754615, -0.00941982, -0.0172033
0.0861003, 0.107562, -0.774278, -0.918226, -1.45934, -0.62701, 1.06974, -0.256721, 0.0018495, 0.00826622, -0.0345422, -0.0217768, -0.0314452, 0.00137934, -0.000827721, 0.0196001, 16.0489, 20.7163, 17.5943, 1.0979, 4.07016, -0.0420422, 0.000223591, -0.00152297, 0.00108867, 0.00156488, -0.00465178, 0.00147113, 0.0165746, -0.00212033, 0.00294853, 0.0178787, 0.0729428, 0.040368, -0.0108905, -0.444888, 0.634562, -3.13078, -0.0561758, -0.109214, -0.010647, -0.443347, 0.633502, -3.12952, -0.0543975, -0.101828, 0.00880983, -0.00643891, -0.018517, -0.00784224, -0.00917528, -0.016748
0.0871003, 0.107567, -0.774267, -0.918271, -1.45936, -0.627041, 1.06974, -0.256723, 0.00137084, 0.0132579, -0.0370418, -0.0197315, -0.0285624, 0.00173336, -0.00102653, 0.0196001, 16.0092, 20.8274, 17.5943, 1.10431, 4.04819, -0.0292249, 0.00020478, -0.00151891, 0.00108798, 0.00155118, -0.00474478, 0.00151976, 0.0160919, -0.00217314, 0.00356583, 0.0177272, 0.0749766, 0.04019, -0.0108816, -0.444894, 0.634543, -3.13073, -0.0561999, -0.10928, -0.0106567, -0.443359, 0.633483, -3.1295, -0.0543462, -0.101749, 0.00904028, -0.00659599, -0.0189781, -0.00717157, -0.00937431, -0.0165608
0.0881003, 0.107578, -0.77426, -0.918307, -1.45938, -0.627071, 1.06975, -0.256718, 0.0058995, 0.0120006, -0.038178, -0.0180999, -0.0265654, 0.00193547, 0.000773708, -0.0557783, 16.0489, 20.7917, 17.5943, 1.11713, 4.02713, -0.0685925, 0.000190994, -0.00151581, 0.00108394, 0.00152684, -0.00483102, 0.00156028, 0.0149585, -0.0022797, 0.00405146, 0.0177108, 0.0717825, 0.0438703, -0.0108725, -0.444901, 0.634524, -3.13069, -0.0562246, -0.109348, -0.0106614, -0.443369, 0.633467, -3.12949, -0.0543077, -0.101684, 0.00927346, -0.00675447, -0.0194438, -0.0058385, -0.00960408, -0.0164644
0.0891003, 0.107589, -0.774246, -0.918352, -1.45939, -0.627103, 1.06975, -0.256716, 0.00918586, 0.0139184, -0.0417442, -0.0160215, -0.0305227, 0.00183285, 0.00122788, -0.131157, 15.9735, 20.8631, 17.5586, 1.14093, 4.01248, -0.0878186, 0.000175641, -0.00151133, 0.00108136, 0.00150753, -0.0049274, 0.00160766, 0.015489, -0.00340195, 0.00412132, 0.0190645, 0.0762354, 0.0427342, -0.0108631, -0.444908, 0.634504, -3.13064, -0.0562499, -0.109417, -0.0106673, -0.443381, 0.633449, -3.12947, -0.0542595, -0.101603, 0.00950935, -0.00691434, -0.0199139, -0.00609585, -0.0109054, -0.0169109
0.0901003, 0.1076, -0.77424, -0.918398, -1.45941, -0.627139, 1.06975, -0.256724, 0.0097844, 0.0107993, -0.0406005, -0.0192038, -0.0337016, 0.00200179, -0.00158891, -0.131157, 16.0846, 20.9028, 17.5943, 1.17206, 3.99142, -0.0228162, 0.000157125, -0.00150656, 0.00108029, 0.00148922, -0.00502232, 0.00164671, 0.0159474, -0.00328589, 0.0038479, 0.0202333, 0.0781345, 0.0488791, -0.0108534, -0.444915, 0.634484, -3.1306, -0.0562758, -0.109488, -0.0106761, -0.443393, 0.633428, -3.12945, -0.0542247, -0.101527, 0.00974794, -0.00707558, -0.0203885, -0.00629939, -0.0109647, -0.0176903
0.0911003, 0.107612, -0.774229, -0.918443, -1.45942, -0.627166, 1.06975, -0.256723, 0.0111505, 0.0104939, -0.0417718, -0.0148743, -0.0290082, 0.00187706, -0.000821914, -0.166862, 16.1203, 20.9028, 17.4832, 1.14734, 3.97677, -0.0292249, 0.00014018, -0.00150272, 0.0010744, 0.00146606, -0.00510885, 0.00169323, 0.0160048, -0.00309046, 0.00526281, 0.0205291, 0.0722487, 0.0503601, -0.0108436, -0.444922, 0.634463, -3.13055, -0.0563023, -0.109561, -0.0106833, -0.443405, 0.633412, -3.12943, -0.0541788, -0.101465, 0.00998923, -0.00723817, -0.0208674, -0.00622113, -0.0109484, -0.0167614
0.0921003, 0.107627, -0.774209, -0.918489, -1.45944, -0.627199, 1.06976, -0.256715, 0.0122464, 0.0127724, -0.0426836, -0.0152686, -0.0318659, 0.00203127, 0.00114748, -0.206535, 16.0489, 20.9028, 17.5189, 1.16015, 3.95572, -0.0750012, 0.000127243, -0.00149858, 0.00107191, 0.00144592, -0.00521835, 0.0017446, 0.0157906, -0.00339719, 0.00544844, 0.0221571, 0.0775919, 0.0493868, -0.0108335, -0.444929, 0.634442, -3.1305, -0.0563295, -0.109636, -0.0106861, -0.443417, 0.633393, -3.12941, -0.0541263, -0.101369, 0.0102332, -0.00740209, -0.0213508, -0.00576563, -0.0114136, -0.0170478
0.0931003, 0.107642, -0.774201, -0.918544, -1.45947, -0.62723, 1.06976, -0.256718, 0.0121121, 0.0101074, -0.0478264, -0.017692, -0.0334099, 0.00162545, 0.000290268, -0.206535, 16.16, 20.9742, 17.5189, 1.16565, 3.94839, -0.0621838, 0.000108344, -0.00149347, 0.00107182, 0.00143367, -0.00531572, 0.00178895, 0.0183656, -0.00421414, 0.00362224, 0.0185696, 0.0787946, 0.0484961, -0.0108231, -0.444937, 0.634421, -3.13045, -0.0563573, -0.109712, -0.0106944, -0.44343, 0.63337, -3.12938, -0.0540854, -0.101294, 0.0104799, -0.00756732, -0.0218384, -0.00792898, -0.0124693, -0.0195447
0.0941003, 0.10766, -0.774182, -0.918595, -1.45949, -0.627262, 1.06976, -0.256725, 0.012942, 0.0149846, -0.0471552, -0.020487, -0.034954, 0.00162617, -0.00201054, -0.242241, 16.1203, 20.9742, 17.5586, 1.16565, 3.93374, -0.00267457, 9.57203e-05, -0.00148864, 0.0010699, 0.00141387, -0.00542513, 0.00182349, 0.0162386, -0.00382157, 0.00362335, 0.0193762, 0.0873105, 0.0546162, -0.0108125, -0.444944, 0.634399, -3.1304, -0.0563857, -0.10979, -0.0106963, -0.443443, 0.633349, -3.12936, -0.0540603, -0.101202, 0.0107292, -0.00773386, -0.0223304, -0.00557357, -0.0121682, -0.0198845
0.0951003, 0.10766, -0.774182, -0.918595, -1.45949, -0.627262, 1.06976, -0.256725, 0.012942, 0.0149846, -0.0471552, -0.020487, -0.034954, 0.00162617, -0.00201054, -0.242241, 16.1203, 20.9742, 17.5586, 1.16565, 3.93374, -0.00267457, 8.67338e-05, -0.00149696, 0.00104677, 0.00136625, -0.00547789, 0.00184131, 0.0164488, -0.00364052, 0.00413526, 0.0203383, 0.0880019, 0.0564319, -0.0108016, -0.444952, 0.634376, -3.13035, -0.0564147, -0.10987, -0.0106963, -0.443443, 0.633349, -3.12936, -0.0540603, -0.101202, 0.0109812, -0.00790168, -0.0228265, -0.00557357, -0.0121682, -0.0198845
0.0961003, 0.10766, -0.774182, -0.918595, -1.45949, -0.627262, 1.06976, -0.256725, 0.012942, 0.0149846, -0.0471552, -0.020487, -0.034954, 0.00162617, -0.00201054, -0.242241, 16.1203, 20.9742, 17.5586, 1.16565, 3.93374, -0.00267457, 7.75379e-05, -0.00150547, 0.00102313, 0.00131759, -0.00553182, 0.00185953, 0.0166613, -0.00345802, 0.00465155, 0.0213077, 0.0886992, 0.0582629, -0.0107905, -0.44496, 0.634353, -3.1303, -0.0564444, -0.109952, -0.0106963, -0.443443, 0.633349, -3.12936, -0.0540603, -0.101202, 0.0112358, -0.00807076, -0.0233269, -0.00557357, -0.0121682, -0.0198845
0.0971003, 0.10766, -0.774182, -0.918595, -1.45949, -0.627262, 1.06976, -0.256725, 0.012942, 0.0149846, -0.0471552, -0.020487, -0.034954, 0.00162617, -0.00201054, -0.242241, 16.1203, 20.9742, 17.5586, 1.16565, 3.93374, -0.00267457, 6.81306e-05, -0.00151416, 0.000998981, 0.0012679, -0.00558692, 0.00187815, 0.016876, -0.00327407, 0.0051722, 0.0222843, 0.0894023, 0.0601091, -0.0107792, -0.444968, 0.634329, -3.13025, -0.0564747, -0.110035, -0.0106963, -0.443443, 0.633349, -3.12936, -0.0540603, -0.101202, 0.011493, -0.00824109, -0.0238314, -0.00557357, -0.0121682, -0.0198845
0.0981003, 0.107741, -0.774115, -0.918834, -1.45958, -0.627389, 1.06976, -0.256724, 0.016438, 0.012901, -0.055709, -0.0230111, -0.0328986, 0.000361406, -0.00141691, -0.206535, 16.2314, 21.0892, 17.5189, 1.14734, 3.93374, -0.0164075, 3.08237e-05, -0.00146746, 0.00106943, 0.0013675, -0.0058762, 0.00201496, 0.0181514, -0.00424694, 0.002201, 0.013945, 0.0891722, 0.0606385, -0.0107676, -0.444977, 0.634305, -3.13019, -0.0565057, -0.11012, -0.0107152, -0.443498, 0.633252, -3.12922, -0.0538847, -0.100827, 0.0117529, -0.00841265, -0.0243401, -0.00634164, -0.0133277, -0.0234553
0.0991003, 0.107767, -0.774102, -0.918909, -1.4596, -0.627419, 1.06976, -0.256722, 0.0185168, 0.0135142, -0.0594641, -0.0243381, -0.029523, -0.000301598, -0.000232528, -0.206535, 16.3425, 21.236, 17.5586, 1.14734, 3.94839, -0.0356336, 1.20488e-05, -0.00145983, 0.00107417, 0.0013666, -0.00599129, 0.00206834, 0.0176131, -0.0042354, 0.00115594, 0.00960643, 0.0893248, 0.0628393, -0.0107557, -0.444985, 0.634281, -3.13014, -0.0565373, -0.110207, -0.0107214, -0.443515, 0.633221, -3.12917, -0.0538343, -0.100734, 0.0120154, -0.00858543, -0.0248528, -0.00546957, -0.0134594, -0.0249737
0.1001, 0.107795, -0.77408, -0.918973, -1.45963, -0.627455, 1.06976, -0.256718, 0.0202039, 0.0167483, -0.0568258, -0.0244166, -0.0270102, -0.000201065, 0.00130304, -0.206535, 16.3425, 21.1606, 17.5586, 1.14734, 3.94839, -0.0750012, -1.16138e-06, -0.00145403, 0.00107404, 0.00135262, -0.00611805, 0.0021171, 0.0147408, -0.00323926, 0.00248811, 0.0113727, 0.0912664, 0.068115, -0.0107435, -0.444994, 0.634256, -3.13008, -0.0565696, -0.110296, -0.0107222, -0.44353, 0.633195, -3.12914, -0.0537914, -0.100625, 0.0122806, -0.0087594, -0.0253696, -0.00247082, -0.0125494, -0.0239526
0.1011, 0.107813, -0.774062, -0.919045, -1.45966, -0.627485, 1.06976, -0.256722, 0.0210802, 0.0151148, -0.0607023, -0.0302249, -0.0292509, -0.000134043, -0.000589366, -0.0557783, 16.3782, 21.2003, 17.6697, 1.13544, 3.94839, -0.0356336, -2.0083e-05, -0.00144819, 0.00107903, 0.00135202, -0.00624436, 0.00216641, 0.0155555, -0.00375908, 7.17916e-05, 0.00749184, 0.0959894, 0.0717532, -0.0107311, -0.445003, 0.63423, -3.13002, -0.0566025, -0.110386, -0.0107281, -0.443545, 0.633164, -3.12909, -0.0537488, -0.100517, 0.0125483, -0.00893455, -0.0258904, -0.00282657, -0.0132485, -0.0269462
0.1021, 0.107835, -0.774043, -0.919117, -1.45969, -0.62752, 1.06976, -0.256723, 0.0228786, 0.0169054, -0.0626283, -0.0280615, -0.0278815, -0.00036063, -0.00063027, 0.059273, 16.4178, 21.2003, 17.634, 1.16015, 3.95572, -0.0292249, -3.98184e-05, -0.00144142, 0.00108069, 0.00134338, -0.00637184, 0.00222238, 0.0152704, -0.00388353, 0.00071697, 0.0076769, 0.0962781, 0.0735777, -0.0107184, -0.445012, 0.634204, -3.12996, -0.0566361, -0.110479, -0.0107347, -0.443561, 0.633134, -3.12905, -0.0536962, -0.10041, 0.0128186, -0.00911087, -0.0264151, -0.00231272, -0.013546, -0.0268094
0.1031, 0.107865, -0.774026, -0.91919, -1.45972, -0.627548, 1.06976, -0.256724, 0.0268471, 0.0183689, -0.0630414, -0.0249429, -0.0296123, -0.00024042, -0.000894898, 0.059273, 16.4536, 21.1606, 17.6697, 1.14093, 3.95572, -0.0164075, -5.42494e-05, -0.00143577, 0.00108428, 0.00134106, -0.00649787, 0.00226418, 0.0144081, -0.00425688, 0.00204146, 0.0108844, 0.0977525, 0.0769844, -0.0107055, -0.445021, 0.634177, -3.1299, -0.0566704, -0.110573, -0.0107356, -0.443577, 0.633103, -3.129, -0.0536666, -0.100307, 0.0130915, -0.00928833, -0.0269437, -0.00125972, -0.0140799, -0.02596
0.1041, 0.107885, -0.774007, -0.919268, -1.45975, -0.62758, 1.06976, -0.25672, 0.0230533, 0.0194823, -0.0703135, -0.0271333, -0.0324207, -0.000668906, 0.000861464, 0.21003, 16.4893, 21.1606, 17.634, 1.16015, 3.96945, -0.0557752, -7.59498e-05, -0.00142908, 0.00108751, 0.00133824, -0.00662752, 0.00232933, 0.0184694, -0.00543961, -1.63069e-05, 0.00719918, 0.10367, 0.0676317, -0.0106922, -0.44503, 0.63415, -3.12984, -0.0567054, -0.110669, -0.0107435, -0.443593, 0.633071, -3.12895, -0.0536014, -0.100201, 0.0133669, -0.00946692, -0.0274763, -0.0048445, -0.0155647, -0.0288432
0.1051, 0.107914, -0.773992, -0.919349, -1.45979, -0.62761, 1.06976, -0.256722, 0.0263772, 0.0161585, -0.0719871, -0.0306952, -0.0283009, -0.000717205, -0.000171676, 0.245735, 16.5646, 21.1249, 17.6697, 1.14093, 3.97677, -0.0356336, -9.44067e-05, -0.00142222, 0.00109366, 0.00134127, -0.00675777, 0.00237729, 0.0172425, -0.00502665, -0.00126057, 0.00282292, 0.100428, 0.0764802, -0.0106787, -0.44504, 0.634122, -3.12978, -0.056741, -0.110767, -0.0107477, -0.44361, 0.633036, -3.12889, -0.0535638, -0.100094, 0.0136449, -0.00964662, -0.0280126, -0.00327066, -0.0152749, -0.0305319
0.1061, 0.107941, -0.773969, -0.919427, -1.45982, -0.627642, 1.06976, -0.256723, 0.0253989, 0.0172729, -0.0724245, -0.0314371, -0.0313561, -0.00102067, -0.00035181, 0.285408, 16.4893, 21.0496, 17.634, 1.16015, 3.99142, -0.0292249, -0.000112059, -0.00141604, 0.00109674, 0.00133778, -0.00689615, 0.00243028, 0.0181936, -0.00510822, -0.00100409, 0.00440619, 0.105258, 0.0762392, -0.0106649, -0.44505, 0.634094, -3.12971, -0.0567774, -0.110867, -0.010751, -0.443627, 0.633003, -3.12884, -0.053519, -0.0999776, 0.0139255, -0.00982742, -0.0285528, -0.00395298, -0.0155743, -0.0308858
0.1071, 0.10797, -0.773956, -0.91951, -1.45986, -0.627669, 1.06976, -0.256721, 0.0247448, 0.017573, -0.0738126, -0.0331126, -0.0328168, -0.000680448, -0.000709258, 0.325081, 16.5646, 21.0138, 17.634, 1.14734, 3.99142, -0.0164075, -0.000132059, -0.00140926, 0.00110172, 0.0013391, -0.00702449, 0.0024848, 0.0189829, -0.00527518, -0.00128486, 0.00462528, 0.108402, 0.0770367, -0.0106509, -0.44506, 0.634065, -3.12965, -0.0568144, -0.110969, -0.0107563, -0.443644, 0.632968, -3.12878, -0.0534726, -0.0998783, 0.0142086, -0.0100093, -0.0290967, -0.00443039, -0.0159487, -0.0317686
0.1081, 0.107991, -0.773939, -0.91959, -1.45989, -0.627698, 1.06976, -0.256719, 0.0247994, 0.0133571, -0.0731451, -0.0332999, -0.0294708, -0.000453632, 0.000985224, 0.475838, 16.5646, 20.9028, 17.5943, 1.14734, 3.99142, -0.0557752, -0.000153991, -0.00140326, 0.00110492, 0.00133617, -0.00715799, 0.00254647, 0.0195411, -0.00468782, -0.00072838, 0.0044157, 0.102407, 0.0796193, -0.0106365, -0.44507, 0.634036, -3.12958, -0.0568522, -0.111073, -0.0107633, -0.443661, 0.632934, -3.12873, -0.0534157, -0.099773, 0.0144943, -0.0101922, -0.0296444, -0.00476165, -0.0155711, -0.0317977
0.1091, 0.108028, -0.77392, -0.919674, -1.45992, -0.627723, 1.06975, -0.256716, 0.0271533, 0.0173488, -0.0784446, -0.0319499, -0.0266304, -0.000811047, 0.000894175, 0.400459, 16.525, 20.7917, 17.4832, 1.14093, 4.00516, -0.0621838, -0.000169574, -0.00139767, 0.00110858, 0.00133961, -0.00729318, 0.00259512, 0.0190069, -0.00517619, -0.00120984, 0.00136696, 0.104565, 0.0806872, -0.0106219, -0.44508, 0.634006, -3.12951, -0.0568906, -0.111178, -0.0107637, -0.443677, 0.6329, -3.12867, -0.0533799, -0.0996668, 0.0147825, -0.0103762, -0.0301957, -0.00388874, -0.0162191, -0.032797
0.1101, 0.108055, -0.773906, -0.919758, -1.45996, -0.627751, 1.06976, -0.256717, 0.0291255, 0.0161041, -0.0795956, -0.0320021, -0.0250778, 0.000239195, 0.000833475, 0.436165, 16.525, 20.6766, 17.4078, 1.14734, 3.9841, -0.0685925, -0.000190978, -0.00139031, 0.00111136, 0.00133338, -0.00742346, 0.00265069, 0.018702, -0.00528551, -0.000996958, 0.00165509, 0.102498, 0.0846442, -0.010607, -0.44509, 0.633975, -3.12945, -0.0569298, -0.111286, -0.0107696, -0.443696, 0.632865, -3.12861, -0.0533338, -0.0995707, 0.0150731, -0.0105613, -0.0307507, -0.00330485, -0.0165051, -0.0331205
0.1111, 0.108079, -0.773888, -0.919838, -1.45999, -0.627775, 1.06975, -0.256721, 0.0255781, 0.0161384, -0.0795649, -0.0310379, -0.0277513, -0.000891697, -0.00161449, 0.551216, 16.4893, 20.5298, 17.2968, 1.13544, 4.01248, -0.00999879, -0.000212429, -0.00138571, 0.0011119, 0.00132926, -0.00755689, 0.0027047, 0.0213406, -0.00513656, -9.82037e-05, 0.00372749, 0.105249, 0.0838391, -0.0105917, -0.445101, 0.633944, -3.12938, -0.0569696, -0.111396, -0.0107755, -0.443712, 0.632832, -3.12855, -0.0532909, -0.0994715, 0.0153663, -0.0107473, -0.0313093, -0.00571064, -0.0166475, -0.0329711
0.1121, 0.108111, -0.773877, -0.919924, -1.46003, -0.627804, 1.06976, -0.256716, 0.0299168, 0.0143738, -0.080603, -0.0332368, -0.0309788, -0.000323198, 0.000347828, 0.511544, 16.525, 20.4188, 17.2968, 1.14734, 4.00516, -0.0484509, -0.000232689, -0.00137913, 0.00111681, 0.00132929, -0.00769364, 0.00276121, 0.0206605, -0.00562004, -0.000630788, 0.00441231, 0.107957, 0.0870638, -0.0105762, -0.445112, 0.633913, -3.1293, -0.0570102, -0.111507, -0.0107796, -0.44373, 0.632794, -3.12849, -0.0532451, -0.0993689, 0.015662, -0.0109343, -0.0318714, -0.00468119, -0.0172878, -0.0340219
0.1131, 0.108142, -0.773859, -0.920013, -1.46006, -0.627829, 1.06976, -0.256717, 0.0320779, 0.0157062, -0.0833905, -0.0335432, -0.0277672, -0.000215465, 0.000977871, 0.511544, 16.4536, 20.268, 17.1103, 1.14093, 4.00516, -0.0685925, -0.000254266, -0.00137234, 0.0011179, 0.00132518, -0.00782789, 0.00281989, 0.01975, -0.00561269, -0.000943357, 0.00214555, 0.107933, 0.0902213, -0.0105604, -0.445123, 0.63388, -3.12923, -0.0570515, -0.111621, -0.0107849, -0.443748, 0.632759, -3.12843, -0.0531964, -0.0992724, 0.0159602, -0.0111224, -0.0324371, -0.0034532, -0.0174326, -0.0348362
0.1141, 0.108172, -0.773844, -0.920107, -1.4601, -0.627853, 1.06976, -0.256713, 0.0273156, 0.0155958, -0.0865383, -0.0351085, -0.0253773, -0.000143643, 0.00136399, 0.511544, 16.4178, 20.1569, 17.1103, 1.13544, 4.00516, -0.0878186, -0.0002767, -0.00136564, 0.00112317, 0.00132957, -0.00796765, 0.00288314, 0.0223597, -0.00552575, -0.00157706, -0.000358523, 0.107887, 0.0867131, -0.0105443, -0.445134, 0.633848, -3.12916, -0.0570936, -0.111737, -0.0107905, -0.443767, 0.632719, -3.12836, -0.0531418, -0.0991687, 0.0162609, -0.0113113, -0.0330063, -0.00571159, -0.0176222, -0.0362251
0.1151, 0.108198, -0.773831, -0.920194, -1.46013, -0.627877, 1.06976, -0.256723, 0.0259331, 0.01463, -0.0880752, -0.0313979, -0.0286306, -0.00036703, -0.00173553, 0.551216, 16.4178, 20.0101, 17.0349, 1.13544, 4.01248, -0.0164075, -0.000301447, -0.00135997, 0.00112375, 0.00132498, -0.00810136, 0.00293498, 0.0254429, -0.00615502, -0.000292527, 0.00307735, 0.107945, 0.0858975, -0.0105279, -0.445146, 0.633814, -3.12908, -0.0571363, -0.111854, -0.0107984, -0.443785, 0.632684, -3.1283, -0.0531052, -0.0990772, 0.016564, -0.0115013, -0.033579, -0.00854959, -0.0185671, -0.0357448
0.1161, 0.108235, -0.773811, -0.920289, -1.46016, -0.627901, 1.06976, -0.256719, 0.0316256, 0.0165131, -0.0926512, -0.0306578, -0.0262336, 0.000297848, 0.000301042, 0.436165, 16.3068, 19.8951, 16.9238, 1.13544, 3.99783, -0.0557752, -0.000321753, -0.00135247, 0.00112521, 0.00132121, -0.00824243, 0.00299686, 0.0237064, -0.00683047, -0.000822249, 0.000906988, 0.108255, 0.0889193, -0.0105112, -0.445157, 0.633781, -3.12901, -0.0571798, -0.111974, -0.0108015, -0.443804, 0.632647, -3.12824, -0.053054, -0.098976, 0.0168696, -0.0116921, -0.034155, -0.00645012, -0.0193648, -0.0367331
0.1171, 0.108264, -0.773797, -0.920384, -1.46019, -0.627918, 1.06976, -0.256718, 0.0297267, 0.0161356, -0.0923152, -0.0297991, -0.0244529, -7.27018e-05, 0.000675413, 0.436165, 16.2671, 19.8594, 16.9238, 1.13544, 4.00516, -0.0685925, -0.000346559, -0.00134649, 0.00112781, 0.00132407, -0.00837669, 0.00306049, 0.0246789, -0.0062932, 0.000146532, 0.00170455, 0.106937, 0.0894317, -0.0104942, -0.445169, 0.633746, -3.12893, -0.0572241, -0.112096, -0.0108088, -0.443823, 0.632608, -3.12817, -0.0530009, -0.0988871, 0.0171776, -0.0118839, -0.0347344, -0.00719993, -0.0190665, -0.0364137
0.1181, 0.108287, -0.773786, -0.920476, -1.46022, -0.627937, 1.06976, -0.256721, 0.0267392, 0.010907, -0.0910541, -0.0302813, -0.0183469, 0.000222799, -0.00029571, 0.511544, 16.3068, 19.784, 16.8484, 1.13544, 3.99783, -0.0484509, -0.000374142, -0.00134096, 0.00112694, 0.00131832, -0.00850702, 0.0031259, 0.0261057, -0.00519961, 0.000877539, 0.000725889, 0.0979903, 0.0937007, -0.0104768, -0.445181, 0.633711, -3.12885, -0.0572691, -0.112219, -0.0108188, -0.443841, 0.632572, -3.1281, -0.0529456, -0.098807, 0.017488, -0.0120766, -0.0353172, -0.0084039, -0.0182271, -0.0363626
0.1191, 0.108318, -0.77377, -0.920565, -1.46026, -0.627957, 1.06976, -0.256724, 0.0272164, 0.00900781, -0.0879818, -0.030086, -0.0188733, -0.000122734, -0.00138393, 0.475838, 16.2671, 19.7483, 16.8842, 1.14734, 4.00516, -0.0164075, -0.0003958, -0.00133638, 0.00112695, 0.00131432, -0.00864928, 0.00317903, 0.0259202, -0.00445847, 0.00230037, 0.0036992, 0.0972344, 0.0993985, -0.0104592, -0.445193, 0.633676, -3.12877, -0.0573148, -0.112345, -0.0108225, -0.443859, 0.632535, -3.12804, -0.0529102, -0.0987102, 0.0178009, -0.0122702, -0.0359033, -0.00803492, -0.0176906, -0.0355121
0.1201, 0.108343, -0.773759, -0.920653, -1.46028, -0.627971, 1.06976, -0.256718, 0.0258555, 0.00877336, -0.086464, -0.0313122, -0.0145961, -8.18229e-05, 0.00101016, 0.511544, 16.3068, 19.7483, 16.8484, 1.16015, 4.00516, -0.0685925, -0.000423015, -0.00133226, 0.00112291, 0.00130474, -0.0087754, 0.00325032, 0.0252716, -0.00336428, 0.00299675, 0.00334129, 0.0952834, 0.101628, -0.0104412, -0.445205, 0.633639, -3.12869, -0.0573613, -0.112473, -0.0108317, -0.443876, 0.632501, -3.12797, -0.052847, -0.098641, 0.0181163, -0.0124646, -0.0364926, -0.00716328, -0.0167771, -0.0353529
0.1211, 0.108363, -0.773741, -0.92074, -1.46031, -0.62799, 1.06976, -0.256721, 0.0271157, 0.0145725, -0.087881, -0.029041, -0.011326, -0.000325816, -7.25474e-05, 0.586922, 16.2314, 19.7483, 16.8127, 1.17206, 4.01248, -0.0484509, -0.000450447, -0.00132844, 0.00111704, 0.00129028, -0.00891328, 0.00331944, 0.0235411, -0.0030519, 0.00405152, 0.00349848, 0.0981376, 0.105419, -0.0104229, -0.445218, 0.633603, -3.12861, -0.0574085, -0.112603, -0.010841, -0.443894, 0.632468, -3.12792, -0.0527879, -0.0985557, 0.018434, -0.0126599, -0.0370852, -0.00520786, -0.0166108, -0.0347684
0.1221, 0.108389, -0.773724, -0.920832, -1.46034, -0.628002, 1.06976, -0.256724, 0.0268112, 0.0148419, -0.088866, -0.0309069, -0.0133657, 0.00949174, -0.000997801, 0.586922, 16.1957, 19.8594, 16.9238, 1.17847, 3.99783, -0.0228162, -0.000474427, -0.00132447, 0.00111507, 0.00128432, -0.00905319, 0.00337964, 0.0231555, -0.00491339, 0.00469383, 0.012375, 0.0971063, 0.107481, -0.0104044, -0.445231, 0.633565, -3.12852, -0.0574565, -0.112735, -0.0108463, -0.443911, 0.632431, -3.12785, -0.0527438, -0.098469, 0.0187541, -0.012856, -0.0376809, -0.00448054, -0.0186617, -0.0347152
0.1231, 0.108409, -0.773706, -0.920914, -1.46036, -0.628014, 1.06976, -0.256723, 0.0247793, 0.0180335, -0.0875519, -0.0262594, -0.0103933, 0.00682043, -0.000427842, 0.6623, 16.16, 19.8951, 16.9238, 1.19037, 4.00516, -0.0292249, -0.000500109, -0.00132268, 0.00110577, 0.00126565, -0.00918701, 0.00344721, 0.0235951, -0.00378113, 0.00705371, 0.0137121, 0.0971188, 0.107079, -0.0103854, -0.445244, 0.633527, -3.12844, -0.0575053, -0.11287, -0.0108535, -0.443927, 0.6324, -3.12779, -0.0526885, -0.0983946, 0.0190766, -0.013053, -0.0382798, -0.00480779, -0.0177723, -0.0329842
0.1241, 0.10843, -0.773695, -0.920997, -1.46039, -0.628026, 1.06976, -0.256718, 0.0209995, 0.0179426, -0.0873018, -0.025382, -0.00838853, 0.00484859, 0.00141019, 0.701973, 16.2314, 19.9705, 17.0349, 1.20868, 4.01248, -0.0750012, -0.00052674, -0.00132123, 0.00109902, 0.00125169, -0.00932069, 0.0035158, 0.0254837, -0.00287941, 0.00795893, 0.0131716, 0.0967267, 0.104358, -0.0103662, -0.445257, 0.633489, -3.12835, -0.0575548, -0.113006, -0.0108612, -0.443943, 0.632367, -3.12773, -0.0526326, -0.0983222, 0.0194015, -0.0132507, -0.0388819, -0.00646419, -0.0171498, -0.0328141
0.1251, 0.108447, -0.773674, -0.921075, -1.46041, -0.628036, 1.06976, -0.25672, 0.0202938, 0.0174648, -0.0849901, -0.0259542, -0.0111065, 0.00366207, 0.000228052, 0.777352, 16.1957, 20.0815, 17.0706, 1.20868, 4.01248, -0.0557752, -0.000551639, -0.00132083, 0.00108766, 0.00122899, -0.00945846, 0.00358014, 0.0260102, -0.00226366, 0.00897205, 0.0156801, 0.100021, 0.107796, -0.0103466, -0.44527, 0.633449, -3.12826, -0.0576051, -0.113144, -0.0108672, -0.443957, 0.632337, -3.12767, -0.0525837, -0.0982462, 0.0197288, -0.0134493, -0.039487, -0.00675786, -0.0167658, -0.0324437
0.1261, 0.108467, -0.773665, -0.921154, -1.46044, -0.628044, 1.06975, -0.256719, 0.0199885, 0.0167151, -0.0802763, -0.0241629, -0.0135537, 0.00249237, 0.000389394, 0.85273, 16.3068, 20.1926, 17.146, 1.2215, 4.0198, -0.0621838, -0.000578736, -0.00132086, 0.00107683, 0.00120861, -0.00958643, 0.00364376, 0.0260976, -0.00132152, 0.0113697, 0.0209227, 0.101198, 0.111049, -0.0103267, -0.445284, 0.63341, -3.12817, -0.0576562, -0.113285, -0.010875, -0.443972, 0.632306, -3.12761, -0.0525368, -0.0981875, 0.0200585, -0.0136486, -0.0400951, -0.00672378, -0.0160576, -0.0306607
0.1271, 0.108488, -0.773647, -0.921228, -1.46046, -0.628052, 1.06975, -0.256722, 0.0184923, 0.0158834, -0.0767963, -0.021916, -0.0148237, 0.00136074, -0.00167318, 0.85273, 16.3068, 20.3077, 17.1857, 1.2215, 4.03445, -0.00999879, -0.000602448, -0.00132182, 0.00106248, 0.00118145, -0.00972283, 0.00370274, 0.0269959, -0.000485808, 0.013597, 0.0252025, 0.10113, 0.114739, -0.0103065, -0.445298, 0.633369, -3.12808, -0.0577081, -0.113428, -0.0108795, -0.443986, 0.632279, -3.12756, -0.0524977, -0.0981182, 0.0203905, -0.0138487, -0.0407063, -0.00747981, -0.0154844, -0.0291103
0.1281, 0.108505, -0.773628, -0.921303, -1.46048, -0.628064, 1.06976, -0.256717, 0.0172382, 0.0182124, -0.0748926, -0.0219239, -0.0169708, 0.00108843, 7.13386e-05, 0.85273, 16.3068, 20.4545, 17.2968, 1.2453, 4.03445, -0.0420422, -0.000627277, -0.00132196, 0.00104851, 0.00115009, -0.00986414, 0.00377276, 0.0269611, -5.49878e-06, 0.0148762, 0.0285711, 0.105991, 0.114398, -0.010286, -0.445311, 0.633328, -3.12799, -0.0577607, -0.113573, -0.0108846, -0.444, 0.63225, -3.1275, -0.0524422, -0.0980436, 0.0207248, -0.0140495, -0.0413204, -0.00722222, -0.0152218, -0.0284443
0.1291, 0.108521, -0.773609, -0.92137, -1.4605, -0.628072, 1.06975, -0.256716, 0.0153511, 0.0168471, -0.0696164, -0.0231551, -0.0130895, 8.16766e-05, 0.00150562, 0.888436, 16.3068, 20.5655, 17.3325, 1.25812, 4.05551, -0.0814099, -0.000651345, -0.00132541, 0.00103142, 0.00111925, -0.0100052, 0.00383596, 0.0258749, 0.00195411, 0.0165478, 0.0299018, 0.103612, 0.119839, -0.0102651, -0.445326, 0.633287, -3.1279, -0.0578142, -0.11372, -0.010889, -0.444012, 0.632223, -3.12745, -0.052398, -0.0979715, 0.0210615, -0.0142511, -0.0419374, -0.00599826, -0.0134486, -0.0272988
0.1301, 0.108533, -0.773588, -0.921439, -1.46052, -0.628078, 1.06975, -0.256718, 0.013065, 0.0181983, -0.0694643, -0.0203239, -0.0101428, -0.000114852, 0.00052903, 0.963814, 16.3425, 20.7163, 17.3325, 1.27002, 4.06283, -0.0685925, -0.000677832, -0.00132838, 0.00101231, 0.00108317, -0.0101446, 0.00390272, 0.0267386, 0.00249636, 0.0182009, 0.0315277, 0.101822, 0.120859, -0.0102438, -0.44534, 0.633244, -3.1278, -0.0578684, -0.113869, -0.0108956, -0.444025, 0.632198, -3.1274, -0.052349, -0.0979046, 0.0214005, -0.0144534, -0.0425574, -0.00666157, -0.0131636, -0.0263303
0.1311, 0.108541, -0.773568, -0.92151, -1.46054, -0.62809, 1.06975, -0.256725, 0.00736945, 0.019284, -0.0672026, -0.0230133, -0.00864649, -0.000271362, -0.00181745, 1.07887, 16.3782, 20.9028, 17.4078, 1.30115, 4.07016, -0.00999879, -0.000706467, -0.00133104, 0.000995071, 0.00104821, -0.0102928, 0.00396929, 0.0276535, 0.00370211, 0.0188694, 0.0323118, 0.104314, 0.123605, -0.0102223, -0.445355, 0.633201, -3.12771, -0.0579234, -0.114021, -0.0109039, -0.444038, 0.632171, -3.12735, -0.0523012, -0.0978261, 0.0217418, -0.0146563, -0.0431802, -0.0073273, -0.0122061, -0.0263439
0.1321, 0.108561, -0.773546, -0.921573, -1.46056, -0.628098, 1.06975, -0.256716, 0.0148944, 0.0167836, -0.0656695, -0.020124, -0.00699131, -0.000123553, 0.000721145, 0.963814, 16.4178, 20.9742, 17.4078, 1.31946, 4.07016, -0.0621838, -0.000726797, -0.0013353, 0.000974328, 0.00100662, -0.0104389, 0.00403375, 0.025127, 0.00394414, 0.0205125, 0.0348116, 0.0995054, 0.131347, -0.0102004, -0.445369, 0.633158, -3.12761, -0.0579792, -0.114174, -0.0109039, -0.444049, 0.632147, -3.12731, -0.0522572, -0.0977534, 0.0220854, -0.01486, -0.0438058, -0.00459584, -0.012099, -0.0251465
0.1331, 0.108576, -0.773523, -0.921641, -1.46058, -0.628108, 1.06975, -0.256713, 0.0142244, 0.0180951, -0.0664457, -0.0212379, -0.0105594, -0.00031062, 0.000955481, 0.963814, 16.4536, 21.1249, 17.4078, 1.33777, 4.07748, -0.0750012, -0.000752072, -0.00133868, 0.000953965, 0.000965815, -0.010589, 0.00410356, 0.0260604, 0.00376814, 0.0206641, 0.0364302, 0.105249, 0.131004, -0.0101781, -0.445384, 0.633114, -3.12751, -0.0580358, -0.11433, -0.0109084, -0.444062, 0.632121, -3.12726, -0.0522057, -0.0976765, 0.0224314, -0.0150643, -0.0444342, -0.00518662, -0.0125181, -0.0256962
0.1341, 0.108589, -0.773498, -0.921703, -1.46061, -0.628117, 1.06975, -0.256715, 0.0115313, 0.0221749, -0.0641162, -0.0229153, -0.00866455, 9.64493e-05, 0.00016227, 0.928108, 16.4893, 21.1606, 17.4435, 1.36249, 4.07016, -0.0621838, -0.000773981, -0.00134367, 0.000932308, 0.000921395, -0.0107433, 0.00416366, 0.0247974, 0.00485213, 0.0217318, 0.038172, 0.109525, 0.134929, -0.0101555, -0.445399, 0.633069, -3.12741, -0.0580933, -0.114488, -0.0109093, -0.444073, 0.632096, -3.12721, -0.0521701, -0.0975957, 0.0227796, -0.0152693, -0.0450654, -0.00370015, -0.0116103, -0.0251616
0.1351, 0.108601, -0.77347, -0.921772, -1.46063, -0.628124, 1.06975, -0.256719, 0.0109057, 0.0231612, -0.0681983, -0.0232399, -0.00698661, -0.000182771, -0.00134988, 0.963814, 16.4893, 21.3114, 17.4435, 1.3808, 4.07748, -0.0228162, -0.000798445, -0.00134808, 0.000911207, 0.000880556, -0.0109011, 0.00422833, 0.0260272, 0.00459944, 0.021165, 0.0356614, 0.110649, 0.13598, -0.0101325, -0.445415, 0.633024, -3.12731, -0.0581515, -0.114649, -0.0109124, -0.444085, 0.63207, -3.12716, -0.0521284, -0.0975115, 0.0231301, -0.0154749, -0.0456993, -0.00452657, -0.0121091, -0.026456
0.1361, 0.10861, -0.773444, -0.921842, -1.46065, -0.628132, 1.06975, -0.256716, 0.0113435, 0.0229358, -0.0674798, -0.0227179, -0.00597233, -0.0001037, 0.00103286, 0.963814, 16.525, 21.4225, 17.4078, 1.40552, 4.07748, -0.0750012, -0.000825606, -0.00135164, 0.000888695, 0.000834166, -0.0110549, 0.00430537, 0.0258651, 0.00501984, 0.0221707, 0.0371966, 0.110146, 0.13712, -0.0101092, -0.44543, 0.632978, -3.12721, -0.0582105, -0.114811, -0.0109179, -0.444098, 0.632045, -3.12712, -0.0520681, -0.0974359, 0.0234829, -0.0156811, -0.0463358, -0.00410377, -0.0119055, -0.0260758
0.1371, 0.108629, -0.773418, -0.92191, -1.46067, -0.62814, 1.06975, -0.256715, 0.013422, 0.0250684, -0.0651737, -0.0255378, -0.00428084, -0.000292882, 0.000451213, 0.888436, 16.6003, 21.4582, 17.3721, 1.40552, 4.08389, -0.0685925, -0.000848057, -0.00135684, 0.000867146, 0.000793408, -0.0112158, 0.00436838, 0.0229618, 0.00608377, 0.0226126, 0.0374018, 0.113743, 0.146102, -0.0100856, -0.445446, 0.632931, -3.1271, -0.0582704, -0.114976, -0.0109184, -0.44411, 0.632018, -3.12706, -0.0520307, -0.0973513, 0.0238379, -0.015888, -0.046975, -0.000929934, -0.0109515, -0.0260521
0.1381, 0.108645, -0.773389, -0.921979, -1.4607, -0.628148, 1.06975, -0.256717, 0.0170725, 0.0284159, -0.0665645, -0.0245229, -0.00872566, 0.00032358, -0.000682535, 0.85273, 16.6003, 21.4979, 17.3325, 1.42383, 4.07016, -0.0420422, -0.000871392, -0.00136145, 0.000844476, 0.000748185, -0.0113795, 0.00443317, 0.0221041, 0.00534223, 0.0232637, 0.0407674, 0.120487, 0.149496, -0.0100616, -0.445462, 0.632884, -3.127, -0.0583311, -0.115144, -0.0109194, -0.444123, 0.631992, -3.12702, -0.0519912, -0.0972649, 0.0241952, -0.0160954, -0.0476168, 0.000259843, -0.0118801, -0.0259914
0.1391, 0.108655, -0.773355, -0.922053, -1.46072, -0.628154, 1.06975, -0.256722, 0.014952, 0.0286573, -0.0674554, -0.0240164, -0.00663691, 0.000494643, -0.0011671, 0.888436, 16.5646, 21.5336, 17.2968, 1.43024, 4.06283, -0.0228162, -0.000896179, -0.00136626, 0.000823413, 0.000707426, -0.0115504, 0.00450092, 0.0232361, 0.00564374, 0.0239237, 0.0410604, 0.119652, 0.150272, -0.0100372, -0.445478, 0.632836, -3.12689, -0.0583926, -0.115313, -0.0109214, -0.444135, 0.631963, -3.12696, -0.0519482, -0.097169, 0.0245547, -0.0163034, -0.0482612, -0.000571063, -0.0118406, -0.0260601
0.1401, 0.108673, -0.773334, -0.922133, -1.46074, -0.628162, 1.06975, -0.256716, 0.0183085, 0.0243781, -0.069577, -0.0208662, -0.00975632, 0.000335504, 0.00162943, 0.85273, 16.7114, 21.6089, 17.146, 1.43573, 4.06283, -0.0878186, -0.000925948, -0.00136898, 0.000802145, 0.000666356, -0.0117091, 0.00458312, 0.0253111, 0.00476604, 0.0246889, 0.0433808, 0.116824, 0.148487, -0.0100124, -0.445495, 0.632787, -3.12678, -0.0584549, -0.115485, -0.010928, -0.44415, 0.631934, -3.1269, -0.0518836, -0.0970946, 0.0249165, -0.016512, -0.0489081, -0.00230297, -0.0130164, -0.0261092
0.1411, 0.108691, -0.773304, -0.922216, -1.46077, -0.628168, 1.06975, -0.256716, 0.0177223, 0.02709, -0.0727234, -0.0236792, -0.00722279, -4.32915e-05, 0.000136852, 0.813057, 16.7471, 21.6446, 17.0706, 1.43573, 4.07016, -0.0621838, -0.000952006, -0.0013725, 0.000783169, 0.000631541, -0.0118807, 0.00465549, 0.0250439, 0.00500381, 0.0236926, 0.0397607, 0.120672, 0.151995, -0.00998734, -0.445511, 0.632738, -3.12667, -0.058518, -0.115659, -0.0109303, -0.444164, 0.631901, -3.12684, -0.0518354, -0.0970019, 0.0252805, -0.0167211, -0.0495576, -0.00161104, -0.012968, -0.0277325
0.1421, 0.108707, -0.773269, -0.922295, -1.46081, -0.628174, 1.06975, -0.256717, 0.0194123, 0.0318123, -0.0725343, -0.0267827, -0.00535413, 0.000516904, -0.000654751, 0.813057, 16.6718, 21.5732, 17.0349, 1.43573, 4.05551, -0.0420422, -0.000975438, -0.00137701, 0.00076317, 0.000592878, -0.0120601, 0.00472468, 0.0220554, 0.00563382, 0.0236332, 0.0392405, 0.126633, 0.159445, -0.00996188, -0.445528, 0.632688, -3.12656, -0.058582, -0.115835, -0.0109298, -0.444178, 0.63187, -3.12678, -0.051793, -0.0968997, 0.0256467, -0.0169307, -0.0502094, 0.00171126, -0.0124404, -0.0282176
0.1431, 0.10873, -0.773241, -0.922381, -1.46084, -0.628176, 1.06975, -0.256717, 0.0215936, 0.0291912, -0.0772658, -0.0258258, -0.003092, 7.57574e-05, -0.000436501, 0.777352, 16.7114, 21.5732, 16.9992, 1.41192, 4.06283, -0.0420422, -0.000999424, -0.00138112, 0.000745673, 0.000562673, -0.0122352, 0.0047914, 0.0235257, 0.0051246, 0.0230603, 0.0362116, 0.123056, 0.160784, -0.00993605, -0.445545, 0.632638, -3.12645, -0.0586468, -0.116014, -0.0109293, -0.444192, 0.631835, -3.12671, -0.0517556, -0.096806, 0.0260151, -0.0171409, -0.0508638, 0.000673362, -0.0132093, -0.0295604
0.1441, 0.108749, -0.773216, -0.922462, -1.46087, -0.628183, 1.06975, -0.256712, 0.0223531, 0.0297789, -0.0773051, -0.0305914, -0.00786894, 0.000323589, 0.00116706, 0.777352, 16.7828, 21.4225, 16.9238, 1.43024, 4.05551, -0.0814099, -0.00102621, -0.00138525, 0.00072573, 0.000524256, -0.0124092, 0.00486631, 0.0232712, 0.00505311, 0.0222993, 0.037067, 0.13118, 0.162457, -0.00990985, -0.445562, 0.632586, -3.12633, -0.0587125, -0.116195, -0.0109314, -0.444206, 0.631802, -3.12665, -0.0517059, -0.0967168, 0.0263857, -0.0173516, -0.0515205, 0.00135391, -0.0134748, -0.0309603
0.1451, 0.108766, -0.773182, -0.922559, -1.46091, -0.628187, 1.06975, -0.256712, 0.0221362, 0.0304974, -0.0812917, -0.0302362, -0.00563815, 0.000996982, 0.0010154, 0.813057, 16.7114, 21.4225, 16.8127, 1.42383, 4.03445, -0.0878186, -0.00105583, -0.00138707, 0.00070874, 0.000493231, -0.0125918, 0.00495092, 0.0243221, 0.00465838, 0.0220545, 0.0355744, 0.130735, 0.162634, -0.00988328, -0.44558, 0.632535, -3.12622, -0.058779, -0.116378, -0.0109357, -0.444223, 0.631765, -3.12658, -0.0516426, -0.0966158, 0.0267585, -0.0175627, -0.0521796, 0.000709998, -0.0141193, -0.0319488
0.1461, 0.108787, -0.773153, -0.922657, -1.46094, -0.628191, 1.06975, -0.256712, 0.021965, 0.0260256, -0.0880988, -0.0315976, -0.00399358, 0.000665677, 0.000676933, 0.85273, 16.7114, 21.3471, 16.7731, 1.41742, 4.03445, -0.0878186, -0.00108525, -0.00138948, 0.000692801, 0.000465882, -0.0127744, 0.0050299, 0.0277055, 0.00383194, 0.0202146, 0.0303033, 0.127305, 0.161531, -0.00985633, -0.445598, 0.632482, -3.1261, -0.0588463, -0.116563, -0.0109393, -0.44424, 0.631726, -3.1265, -0.051589, -0.0965171, 0.0271335, -0.0177744, -0.052841, -0.00212129, -0.0152597, -0.0347097
0.1471, 0.108819, -0.773127, -0.922759, -1.46098, -0.628197, 1.06976, -0.256719, 0.0214261, 0.0289939, -0.0940899, -0.0355929, -0.00821527, 0.00125835, -0.00195621, 0.777352, 16.7114, 21.3114, 16.7374, 1.43024, 4.01248, -0.0228162, -0.00111134, -0.00139043, 0.000678993, 0.000440503, -0.0129598, 0.00509307, 0.0292596, 0.00266356, 0.0181777, 0.0280439, 0.136957, 0.161488, -0.00982901, -0.445615, 0.632429, -3.12598, -0.0589145, -0.116751, -0.010939, -0.444258, 0.631685, -3.12642, -0.0515609, -0.0964165, 0.0275107, -0.0179865, -0.0535047, -0.00309915, -0.0166713, -0.0375373
0.1481, 0.108847, -0.773106, -0.92286, -1.46101, -0.6282, 1.06975, -0.256716, 0.0221568, 0.0240181, -0.0998383, -0.0327726, -0.00545794, 0.00056821, -0.000354704, 0.777352, 16.7471, 21.2003, 16.5866, 1.41192, 4.0198, -0.0484509, -0.00114259, -0.00139212, 0.00066202, 0.000412995, -0.0131345, 0.00517358, 0.0327337, 0.00194039, 0.0178435, 0.0249184, 0.129613, 0.158559, -0.00980131, -0.445634, 0.632375, -3.12586, -0.0589835, -0.116942, -0.0109437, -0.444276, 0.631645, -3.12634, -0.0515066, -0.0963349, 0.02789, -0.018199, -0.0541706, -0.00613129, -0.0177341, -0.0388089
0.1491, 0.10887, -0.773077, -0.92296, -1.46106, -0.628207, 1.06975, -0.256713, 0.0242321, 0.0262072, -0.0967604, -0.0416381, -0.00481124, 0.000379237, 0.000746875, 0.85273, 16.6718, 21.0138, 16.6223, 1.43024, 4.0198, -0.0750012, -0.00117052, -0.00139522, 0.000649306, 0.000390605, -0.0133326, 0.00525062, 0.0285553, 0.00341548, 0.0166798, 0.0227421, 0.138008, 0.169134, -0.00977323, -0.445652, 0.63232, -3.12574, -0.0590534, -0.117134, -0.0109445, -0.444292, 0.631601, -3.12625, -0.051459, -0.0962187, 0.0282715, -0.018412, -0.0548388, -0.00155767, -0.0163041, -0.0403108
0.1501, 0.108908, -0.773052, -0.923074, -1.4611, -0.628209, 1.06976, -0.256714, 0.0286283, 0.024337, -0.100979, -0.0407253, -0.00290016, 0.000795683, 2.31989e-05, 0.813057, 16.6003, 20.9742, 16.4755, 1.41192, 4.00516, -0.0621838, -0.00119927, -0.00139484, 0.000636237, 0.000370109, -0.0135181, 0.00532437, 0.0286368, 0.00277224, 0.0162865, 0.0208354, 0.135075, 0.173925, -0.00974476, -0.44567, 0.632265, -3.12562, -0.0591241, -0.117329, -0.0109457, -0.444312, 0.631557, -3.12616, -0.0514174, -0.0961246, 0.0286551, -0.0186253, -0.0555092, -0.00120319, -0.0171607, -0.0413905
0.1511, 0.108943, -0.773025, -0.923184, -1.46115, -0.628214, 1.06976, -0.256719, 0.0304803, 0.0291738, -0.102323, -0.0426306, -0.00221157, 0.00131059, -0.00167996, 0.813057, 16.525, 20.8631, 16.4359, 1.41192, 3.9841, -0.0164075, -0.00122617, -0.00139579, 0.000624112, 0.000349414, -0.0137139, 0.00539082, 0.0265431, 0.00291391, 0.0161799, 0.0204954, 0.141391, 0.180168, -0.00971592, -0.445689, 0.632209, -3.12549, -0.0591957, -0.117527, -0.0109445, -0.444331, 0.631511, -3.12607, -0.0513881, -0.0960168, 0.0290408, -0.0188391, -0.0561817, 0.00126953, -0.0171564, -0.0420136
0.1521, 0.108981, -0.773002, -0.923303, -1.46119, -0.628216, 1.06976, -0.256712, 0.032246, 0.0285132, -0.106155, -0.0462957, -0.00168297, 0.00087391, 0.000338092, 0.813057, 16.4893, 20.752, 16.3644, 1.41192, 3.9841, -0.0557752, -0.00125662, -0.00139582, 0.000613761, 0.000336113, -0.013905, 0.00547437, 0.0267272, 0.00272605, 0.0145558, 0.0164365, 0.144078, 0.181571, -0.00968668, -0.445708, 0.632153, -3.12537, -0.0592682, -0.117726, -0.0109464, -0.444351, 0.631463, -3.12598, -0.0513335, -0.0959182, 0.0294287, -0.0190533, -0.0568564, 0.00160092, -0.0175441, -0.044327
0.1531, 0.109021, -0.772985, -0.923425, -1.46125, -0.628218, 1.06976, -0.256712, 0.0376206, 0.0242899, -0.112231, -0.0515596, -0.000803711, 0.00139654, 0.000937472, 0.777352, 16.4893, 20.6409, 16.4001, 1.39911, 3.96213, -0.0750012, -0.00128638, -0.00139541, 0.000606641, 0.000327161, -0.0140984, 0.00554526, 0.0266217, 0.00189376, 0.0116441, 0.0101855, 0.143648, 0.187306, -0.00965706, -0.445727, 0.632096, -3.12524, -0.0593415, -0.117929, -0.0109469, -0.444372, 0.631411, -3.12587, -0.0512996, -0.0958182, 0.0298187, -0.0192678, -0.0575331, 0.00234488, -0.0185456, -0.0479125
0.1541, 0.109056, -0.772961, -0.923548, -1.4613, -0.628223, 1.06976, -0.256713, 0.0358113, 0.0268981, -0.116925, -0.0507018, -0.00565126, 0.00171103, 0.000624981, 0.85273, 16.3782, 20.4188, 16.3644, 1.40552, 3.94107, -0.0750012, -0.00131918, -0.00139454, 0.000596939, 0.00031243, -0.0142984, 0.00562726, 0.02959, 0.000690266, 0.0114877, 0.0116207, 0.150353, 0.181931, -0.00962704, -0.445747, 0.632038, -3.12511, -0.0594156, -0.118133, -0.0109503, -0.444394, 0.63136, -3.12577, -0.0512492, -0.0957106, 0.0302108, -0.0194827, -0.0582119, -0.000163988, -0.0200744, -0.0489903
0.1551, 0.109102, -0.772942, -0.923687, -1.46135, -0.628223, 1.06976, -0.256722, 0.0394458, 0.0246326, -0.123142, -0.0490309, -0.00849418, 0.00114076, -0.00249947, 0.85273, 16.3068, 20.3077, 16.2891, 1.3927, 3.94107, 0.00373412, -0.00135333, -0.00139165, 0.000591853, 0.000312184, -0.0144935, 0.00569994, 0.0319823, -0.000723466, 0.0107152, 0.0101214, 0.150729, 0.184215, -0.00959664, -0.445766, 0.631979, -3.12498, -0.0594907, -0.11834, -0.0109541, -0.444417, 0.631304, -3.12566, -0.0512148, -0.0956124, 0.0306049, -0.019698, -0.0588927, -0.00204201, -0.0217828, -0.0506444
0.1561, 0.109144, -0.772929, -0.923819, -1.4614, -0.628228, 1.06977, -0.256713, 0.041429, 0.0181141, -0.124094, -0.0519037, -0.00689411, 0.00157437, 0.000266467, 0.888436, 16.3068, 20.1569, 16.2494, 1.40552, 3.9191, -0.0484509, -0.00138952, -0.00138921, 0.00058391, 0.000301755, -0.0146864, 0.00579152, 0.0327655, -0.000575802, 0.010007, 0.00820948, 0.145705, 0.187469, -0.00956583, -0.445786, 0.63192, -3.12485, -0.0595666, -0.11855, -0.0109599, -0.444441, 0.63125, -3.12556, -0.0506251, -0.0955201, 0.0310012, -0.0199136, -0.0595756, -0.00237937, -0.0218721, -0.0520957
0.1571, 0.109191, -0.772913, -0.923961, -1.46145, -0.628233, 1.06977, -0.256709, 0.0406382, 0.0142733, -0.126499, -0.0531266, -0.00999764, 0.00104962, 0.00092363, 0.888436, 16.2671, 20.0815, 16.178, 1.40552, 3.9191, -0.0685925, -0.00142626, -0.00138498, 0.000578473, 0.000297106, -0.0148836, 0.00588063, 0.0358081, -0.0010284, 0.00951877, 0.00791909, 0.146357, 0.185847, -0.00953463, -0.445806, 0.63186, -3.12472, -0.0596434, -0.118761, -0.0109655, -0.444467, 0.631192, -3.12544, -0.050567, -0.0954234, 0.0313996, -0.0201295, -0.0602603, -0.00495917, -0.0226497, -0.0535094
0.1581, 0.109243, -0.772895, -0.9241, -1.4615, -0.628232, 1.06977, -0.256713, 0.0431581, 0.0160874, -0.132272, -0.0531668, -0.00681536, 0.000937139, -0.000842309, 0.888436, 16.16, 19.9705, 16.0629, 1.38721, 3.91269, -0.0292249, -0.00145901, -0.00138217, 0.000571107, 0.000291779, -0.0150805, 0.00595449, 0.0357438, -0.00153083, 0.00856085, 0.00386169, 0.147091, 0.189741, -0.00950303, -0.445826, 0.6318, -3.12458, -0.059721, -0.118976, -0.010967, -0.444491, 0.631136, -3.12533, -0.0505336, -0.0953298, 0.0318, -0.0203457, -0.060947, -0.00440351, -0.0233534, -0.0551579
0.1591, 0.109292, -0.772882, -0.924246, -1.46156, -0.628234, 1.06977, -0.25672, 0.0472334, 0.0157054, -0.13177, -0.0537921, -0.0056057, 0.00116732, -0.00178224, 0.928108, 16.1203, 19.8594, 16.1026, 1.39911, 3.89804, 0.00373412, -0.00149573, -0.00137936, 0.000568542, 0.000297146, -0.0152844, 0.00602963, 0.0338441, -0.00117276, 0.00909344, 0.00443517, 0.147102, 0.19853, -0.00947103, -0.445847, 0.631738, -3.12445, -0.0597996, -0.119192, -0.0109716, -0.444516, 0.631075, -3.1252, -0.0504998, -0.0952272, 0.0322025, -0.0205621, -0.0616356, -0.00216315, -0.0231517, -0.0551712
0.1601, 0.109347, -0.77287, -0.924393, -1.46162, -0.628232, 1.06977, -0.256711, 0.0511004, 0.0154601, -0.135849, -0.0553628, -0.0032876, 0.000506963, 0.00101589, 0.928108, 16.0846, 19.7086, 16.0629, 1.37439, 3.90536, -0.0557752, -0.00153024, -0.00137671, 0.000564985, 0.000303143, -0.0154843, 0.0061147, 0.0331714, -0.0013362, 0.00798098, 0.000313714, 0.147664, 0.200891, -0.00943863, -0.445867, 0.631676, -3.12431, -0.059879, -0.119411, -0.0109738, -0.444541, 0.631014, -3.12507, -0.0504514, -0.0951329, 0.032607, -0.0207789, -0.062326, -0.000998193, -0.0234915, -0.0569265
0.1611, 0.109399, -0.772858, -0.924538, -1.46168, -0.62823, 1.06977, -0.256711, 0.046991, 0.0152602, -0.136578, -0.0553359, -0.00210042, 0.000337989, 0.000677257, 0.963814, 16.0489, 19.5618, 16.1026, 1.36249, 3.90536, -0.0557752, -0.00156507, -0.00137405, 0.000560084, 0.000302527, -0.0156856, 0.00619311, 0.0354227, -0.000947602, 0.00861881, 0.000708303, 0.147599, 0.19964, -0.00940582, -0.445888, 0.631614, -3.12417, -0.0599593, -0.119633, -0.0109759, -0.444565, 0.630953, -3.12495, -0.050414, -0.0950395, 0.0330136, -0.0209959, -0.0630183, -0.00289899, -0.0234181, -0.0571556
0.1621, 0.109455, -0.772847, -0.924684, -1.46172, -0.628231, 1.06977, -0.256715, 0.049871, 0.012114, -0.138875, -0.054608, -0.00189976, 0.00103914, -0.00100656, 1.00349, 16.0092, 19.4864, 15.9915, 1.3689, 3.88339, -0.0164075, -0.00160243, -0.00137079, 0.000552436, 0.000298215, -0.0158834, 0.0062709, 0.0362241, -0.00143342, 0.00876944, 0.000965313, 0.144615, 0.204718, -0.0093726, -0.445909, 0.63155, -3.12403, -0.0600404, -0.119857, -0.0109804, -0.444591, 0.630894, -3.12483, -0.0503784, -0.0949543, 0.0334222, -0.0212132, -0.0637123, -0.00328209, -0.0241563, -0.057773
0.1631, 0.109508, -0.772836, -0.924836, -1.46178, -0.628233, 1.06977, -0.256722, 0.0480996, 0.00967062, -0.142449, -0.0529322, -0.00122574, 0.000692767, -0.00189174, 1.07887, 15.9735, 19.3754, 15.9518, 1.36249, 3.88339, 0.0165515, -0.00164145, -0.00136681, 0.00054742, 0.000297028, -0.0160892, 0.00635068, 0.039502, -0.00182874, 0.00894558, 0.000196451, 0.141874, 0.203118, -0.00933897, -0.445931, 0.631486, -3.12389, -0.0601225, -0.120083, -0.0109858, -0.444618, 0.630832, -3.1247, -0.0503408, -0.0948589, 0.0338328, -0.0214307, -0.0644081, -0.00613604, -0.0248986, -0.0585567
0.1641, 0.109567, -0.772827, -0.924987, -1.46184, -0.628229, 1.06977, -0.256717, 0.0543592, 0.00701662, -0.147197, -0.056503, -0.000286434, 0.00046185, 0.000671619, 1.11457, 15.9735, 19.2246, 15.9915, 1.34418, 3.88339, -0.0356336, -0.00167593, -0.00136433, 0.000544009, 0.000302773, -0.0162946, 0.00642924, 0.0385378, -0.00234985, 0.00691127, -0.00483925, 0.142239, 0.208002, -0.00930493, -0.445952, 0.631421, -3.12375, -0.0602054, -0.120312, -0.0109863, -0.444644, 0.630768, -3.12457, -0.0503064, -0.0947661, 0.0342455, -0.0216484, -0.0651057, -0.00458725, -0.0255702, -0.0612212
0.1651, 0.109626, -0.772817, -0.925151, -1.4619, -0.628229, 1.06978, -0.256716, 0.0556114, 0.00510491, -0.153069, -0.0602755, -0.000301538, 0.000816531, 0.000922464, 1.15424, 15.9735, 19.1889, 15.9518, 1.34418, 3.86966, -0.0484509, -0.00171714, -0.00135874, 0.00054178, 0.000310227, -0.016501, 0.00652014, 0.0400192, -0.00312913, 0.00475095, -0.00939995, 0.143886, 0.208997, -0.00927048, -0.445974, 0.631356, -3.1236, -0.0602893, -0.120544, -0.0109928, -0.444673, 0.630702, -3.12443, -0.0502538, -0.0946741, 0.0346601, -0.0218663, -0.0658049, -0.00545253, -0.02659, -0.0642056
0.1661, 0.109683, -0.772803, -0.925316, -1.46197, -0.628228, 1.06978, -0.256715, 0.0586708, 0.00539408, -0.159268, -0.0647911, -0.000283962, 0.000544357, 0.000886243, 1.22962, 15.9021, 19.2246, 15.9915, 1.34418, 3.86966, -0.0557752, -0.00175633, -0.0013535, 0.000540336, 0.000317879, -0.0167174, 0.00660949, 0.0400573, -0.00380977, 0.00223669, -0.0151075, 0.148541, 0.212208, -0.00923561, -0.445996, 0.63129, -3.12346, -0.060374, -0.120777, -0.0109969, -0.444701, 0.630634, -3.12429, -0.0502047, -0.0945689, 0.0350768, -0.0220844, -0.0665058, -0.00485382, -0.0274503, -0.0674319
0.1671, 0.109747, -0.772796, -0.925472, -1.46203, -0.628227, 1.06978, -0.256717, 0.0663722, 0.00300111, -0.156279, -0.0643242, 0.000223207, 0.000125548, -0.00110459, 1.22962, 15.9378, 19.1889, 15.9915, 1.33136, 3.87607, -0.00999879, -0.00179286, -0.00135049, 0.000536226, 0.000322248, -0.0169277, 0.00668395, 0.036789, -0.00314747, 0.00356612, -0.012968, 0.146675, 0.226732, -0.00920033, -0.446018, 0.631223, -3.12331, -0.0604596, -0.121014, -0.0109981, -0.444728, 0.630568, -3.12415, -0.0501796, -0.0944761, 0.0354954, -0.0223027, -0.0672083, -0.00130706, -0.0269072, -0.066553
0.1681, 0.109807, -0.772784, -0.925629, -1.46209, -0.628226, 1.06978, -0.256718, 0.0630453, 0.00535641, -0.153925, -0.0599818, 0.000305603, 8.37006e-05, -0.00148238, 1.34071, 15.9378, 19.1532, 15.9518, 1.32587, 3.87607, 0.0101428, -0.00183073, -0.00134753, 0.00053072, 0.000323763, -0.0171437, 0.0067653, 0.0380172, -0.00254289, 0.00649186, -0.00741062, 0.147032, 0.225939, -0.00916462, -0.446041, 0.631155, -3.12316, -0.0605461, -0.121253, -0.0110005, -0.444755, 0.630503, -3.12402, -0.0501447, -0.094377, 0.0359161, -0.0225212, -0.0679124, -0.00235947, -0.0266204, -0.064434
0.1691, 0.109862, -0.772771, -0.925782, -1.46215, -0.628228, 1.06978, -0.256714, 0.0600098, 0.00795038, -0.153028, -0.0615788, -0.000272063, -0.000215466, 0.00118189, 1.45576, 15.9021, 19.1532, 15.9915, 1.33777, 3.88339, -0.0484509, -0.00186914, -0.0013453, 0.000524157, 0.000320385, -0.0173649, 0.00685353, 0.0384678, -0.00188372, 0.0071629, -0.00603854, 0.152182, 0.224005, -0.00912849, -0.446063, 0.631087, -3.12301, -0.0606336, -0.121494, -0.011003, -0.444781, 0.630438, -3.12389, -0.0500998, -0.0942725, 0.0363387, -0.0227398, -0.068618, -0.00246387, -0.026212, -0.0645031
0.1701, 0.10992, -0.772759, -0.925938, -1.46222, -0.628226, 1.06978, -0.256715, 0.0584491, 0.0088985, -0.150165, -0.0640215, 0.000233193, -0.00041491, 0.00105919, 1.57081, 15.9021, 19.1889, 15.9518, 1.32587, 3.89071, -0.0557752, -0.00190832, -0.00134392, 0.000517605, 0.000322505, -0.0175865, 0.00693771, 0.0377247, -0.000770388, 0.0080221, -0.00451795, 0.155313, 0.228797, -0.00909194, -0.446086, 0.631018, -3.12286, -0.0607219, -0.121738, -0.0110059, -0.444807, 0.630372, -3.12375, -0.0500624, -0.0941695, 0.0367632, -0.0229586, -0.0693252, -0.00141002, -0.0253078, -0.0642865
0.1711, 0.109981, -0.772752, -0.92609, -1.46229, -0.628225, 1.06978, -0.256718, 0.0583582, 0.00720919, -0.149039, -0.0656511, 0.000373139, -0.000547873, -0.00149792, 1.64619, 16.0092, 19.2643, 16.0272, 1.31946, 3.89804, 0.00373412, -0.00194459, -0.00134352, 0.000512363, 0.000325401, -0.0178108, 0.00700797, 0.0379215, -0.000190968, 0.00850682, -0.0037615, 0.155625, 0.235605, -0.00905497, -0.446109, 0.630949, -3.12271, -0.0608111, -0.121984, -0.0110054, -0.444832, 0.630305, -3.12361, -0.0500479, -0.0940652, 0.0371897, -0.0231774, -0.0700339, -0.0012407, -0.0249669, -0.0645255
0.1721, 0.110038, -0.772739, -0.926237, -1.46236, -0.628228, 1.06978, -0.256719, 0.0605612, 0.0109417, -0.146911, -0.0648745, -0.000681529, -0.000365248, -0.00147333, 1.75727, 16.0489, 19.3, 16.0272, 1.34418, 3.89804, 0.0165515, -0.0019814, -0.00134363, 0.000503002, 0.000317607, -0.0180409, 0.00708691, 0.0358408, 0.000292834, 0.0101623, 6.99605e-05, 0.160524, 0.241042, -0.00901756, -0.446132, 0.630878, -3.12255, -0.0609012, -0.122233, -0.0110054, -0.444857, 0.630241, -3.12348, -0.0500204, -0.0939548, 0.0376182, -0.0233964, -0.0707441, 0.00111173, -0.0246551, -0.0634216
0.1731, 0.110097, -0.772731, -0.926387, -1.46243, -0.628224, 1.06978, -0.256712, 0.0588453, 0.0089124, -0.146214, -0.0691213, -0.000228064, -0.00102339, 0.00118792, 1.87232, 16.16, 19.3754, 16.1026, 1.33777, 3.9191, -0.0420422, -0.00201752, -0.00134509, 0.000496225, 0.000319274, -0.0182689, 0.00716704, 0.0364636, 0.00112122, 0.00972173, -0.001382, 0.162223, 0.242179, -0.00897973, -0.446156, 0.630807, -3.12239, -0.0609922, -0.122484, -0.0110041, -0.444881, 0.630173, -3.12334, -0.0499924, -0.0938495, 0.0380486, -0.0236155, -0.0714557, 0.000922183, -0.0240661, -0.0646153
0.1741, 0.110154, -0.772721, -0.926536, -1.4625, -0.628223, 1.06978, -0.256711, 0.0587152, 0.0108019, -0.149332, -0.0696248, -0.000160346, -0.000953528, 0.0010293, 1.9477, 16.2671, 19.4864, 16.0629, 1.33777, 3.92642, -0.0484509, -0.00205525, -0.00134522, 0.000485891, 0.000309837, -0.018496, 0.00724791, 0.0372157, 0.000856337, 0.00951595, -0.00222673, 0.165506, 0.242681, -0.00894147, -0.44618, 0.630735, -3.12224, -0.0610841, -0.122738, -0.0110042, -0.444906, 0.630109, -3.12321, -0.0499637, -0.0937489, 0.0384809, -0.0238347, -0.0721687, 0.000630773, -0.0245785, -0.0656028
0.1751, 0.110217, -0.772707, -0.926677, -1.46257, -0.628224, 1.06977, -0.256714, 0.0603557, 0.0122925, -0.148672, -0.0677782, -0.000350483, -0.000906953, -0.000263233, 1.9477, 16.3782, 19.4864, 16.0629, 1.34418, 3.93374, -0.0228162, -0.00208728, -0.00134814, 0.000473912, 0.000299552, -0.0187329, 0.00731228, 0.0366027, 0.00108557, 0.011018, 0.000620768, 0.166948, 0.247654, -0.00890277, -0.446204, 0.630663, -3.12208, -0.061177, -0.122995, -0.0109985, -0.444928, 0.630046, -3.12307, -0.0499618, -0.0936358, 0.0389151, -0.0240539, -0.0728831, 0.00154786, -0.0245757, -0.0647745
0.1761, 0.110274, -0.772688, -0.926828, -1.46264, -0.628223, 1.06978, -0.256718, 0.059594, 0.0129597, -0.151168, -0.068159, -9.67176e-07, -0.000604635, -0.00163355, 2.02308, 16.3782, 19.5975, 15.9915, 1.33777, 3.93374, 0.0165515, -0.00212287, -0.00134905, 0.000463422, 0.000289821, -0.0189757, 0.00738886, 0.0377475, 0.000914279, 0.011025, 0.000266049, 0.168571, 0.249306, -0.00886363, -0.446228, 0.630589, -3.12192, -0.0612707, -0.123253, -0.0109956, -0.444953, 0.62998, -3.12294, -0.049942, -0.0935158, 0.0393512, -0.0242732, -0.0735988, 0.00084854, -0.025014, -0.0655828
0.1771, 0.110325, -0.772674, -0.926972, -1.46272, -0.628221, 1.06977, -0.256711, 0.0613676, 0.0137509, -0.148359, -0.070976, 0.000436662, -0.00121689, 0.00131846, 2.13416, 16.4893, 19.6372, 16.0272, 1.32587, 3.95572, -0.0484509, -0.00216, -0.00135334, 0.000453336, 0.000285388, -0.0192221, 0.00747386, 0.0355858, 0.00201125, 0.0116064, 0.00100218, 0.17212, 0.254495, -0.00882406, -0.446252, 0.630515, -3.12175, -0.0613653, -0.123515, -0.010994, -0.444975, 0.629913, -3.1228, -0.0499103, -0.0933926, 0.0397893, -0.0244926, -0.0743159, 0.0033491, -0.0240685, -0.0655388
0.1781, 0.110378, -0.772663, -0.927119, -1.46279, -0.628221, 1.06977, -0.25671, 0.0572155, 0.0127586, -0.145045, -0.0711622, 0.000288481, -0.00104862, 0.00115024, 2.20954, 16.6718, 19.7483, 15.9915, 1.32587, 3.96213, -0.0557752, -0.00219876, -0.00135642, 0.000442107, 0.000276352, -0.0194653, 0.00755531, 0.0369857, 0.00296736, 0.013352, 0.00473066, 0.172124, 0.255689, -0.00878406, -0.446277, 0.630441, -3.12159, -0.0614609, -0.123779, -0.0109936, -0.444998, 0.629846, -3.12266, -0.0498849, -0.093277, 0.0402292, -0.0247119, -0.0750342, 0.00221725, -0.0234228, -0.0646199
0.1791, 0.110433, -0.772643, -0.92726, -1.46288, -0.628224, 1.06977, -0.256717, 0.0581893, 0.0148095, -0.142533, -0.0730548, -0.000691269, -0.000190454, -0.00143722, 2.24921, 16.7471, 19.8594, 16.0272, 1.34967, 3.94839, 0.00373412, -0.00223175, -0.00136042, 0.000429993, 0.000261939, -0.0197229, 0.00762218, 0.0352106, 0.00357372, 0.0143415, 0.00779449, 0.176672, 0.264254, -0.00874361, -0.446302, 0.630365, -3.12142, -0.0615574, -0.124045, -0.0109871, -0.445021, 0.62978, -3.12253, -0.0498832, -0.0931421, 0.040671, -0.0249313, -0.0757538, 0.00432287, -0.0229904, -0.0642089
0.1801, 0.110485, -0.772621, -0.927392, -1.46296, -0.628222, 1.06977, -0.256718, 0.0548167, 0.0153005, -0.138095, -0.0754549, 0.000215845, -0.000398236, -0.0011955, 2.32459, 16.8582, 19.8594, 16.1026, 1.33136, 3.95572, 0.0101428, -0.00226091, -0.00136712, 0.000415142, 0.000242481, -0.0199816, 0.00768723, 0.0348392, 0.00507721, 0.0157117, 0.0102666, 0.178952, 0.268293, -0.00870271, -0.446327, 0.630289, -3.12126, -0.0616548, -0.124315, -0.0109767, -0.445041, 0.629716, -3.1224, -0.0498851, -0.0930083, 0.0411146, -0.0251507, -0.0764746, 0.00496562, -0.0217233, -0.0635168
0.1811, 0.11054, -0.772599, -0.927529, -1.46304, -0.628223, 1.06977, -0.256712, 0.0538341, 0.0167544, -0.137421, -0.0744159, -0.00033193, -0.00104538, 0.00113578, 2.32459, 16.9296, 19.9705, 16.0629, 1.34418, 3.97677, -0.0420422, -0.00229374, -0.00137342, 0.000399161, 0.000224998, -0.0202432, 0.00776593, 0.0353834, 0.0055217, 0.0170091, 0.0124466, 0.181475, 0.267296, -0.00866138, -0.446352, 0.630212, -3.12109, -0.0617531, -0.124586, -0.0109696, -0.445061, 0.629653, -3.12227, -0.0498668, -0.0928724, 0.0415602, -0.0253701, -0.0771966, 0.00474576, -0.0215489, -0.0629881
0.1821, 0.11059, -0.772579, -0.927656, -1.46312, -0.62822, 1.06977, -0.256715, 0.0524137, 0.0188869, -0.136011, -0.0763189, -0.000222118, -0.000425656, -0.000192251, 2.3603, 17.0804, 20.0458, 16.1383, 1.34418, 3.96945, -0.0164075, -0.00232339, -0.00138154, 0.000381439, 0.000199606, -0.0205016, 0.00782802, 0.0348178, 0.00615617, 0.0177521, 0.014288, 0.185417, 0.271904, -0.00861959, -0.446377, 0.630135, -3.12092, -0.0618523, -0.12486, -0.010959, -0.44508, 0.62959, -3.12215, -0.0498751, -0.0927447, 0.0420076, -0.0255895, -0.0779197, 0.00566909, -0.0211315, -0.0629211
