alisrour97/Franka_experiments/Real_Robot_scripts/servo-franka/Data4/log_dyn_PIw_ki_20.csv
Time,q1,q2,q3,q4,q5,q6,q7,dq1,dq2,dq3,dq4,dq5,dq6,dq7,t1,t2,t3,t4,t5,t6,t7,ex1,ex2,ex3,ex4,ex5,ex6,ev1,ev2,ev3,ev4,ev5,ev6,xd,yd,zd,uxd,uyd,uzd,x,y,z,ux,uy,uz,vxd,vyd,vzd,vx,vy,vz
4.88281e-07, 0.107617, -0.77392, -0.915932, -1.45623, -0.62528, 1.07024, -0.25673, 0.00910876, 0.00204085, 0.00130079, 0.000381746, -0.000279275, -0.000100945, 0.000589313, -0.317619, 15.311, 18.6692, 15.3925, 1.04938, 3.23886, -0.153737, 0.00102469, -0.00170919, -7.85362e-05, -0.000324826, -0.000208016, 5.33715e-05, -0.00491484, 2.38083e-05, 0.000277118, 0.000612997, 0.00204405, 0.00915636, -0.011112, -0.444721, 0.635038, -3.13187, -0.0555627, -0.107532, -0.0101587, -0.442979, 0.635195, -3.1322, -0.0558847, -0.107225, 0, 0, 0, 0.00488036, 0.000194291, 0.00061424
0.0130256, 0.107629, -0.773902, -0.915919, -1.45625, -0.625283, 1.07024, -0.256729, 0.000565793, 0.0073953, 0.000886216, -0.00110745, -0.000407605, -9.70363e-06, 0.00085839, -0.317619, 15.2356, 18.5581, 15.4678, 1.06769, 3.25259, -0.193104, 0.00104111, -0.00171223, -7.93092e-05, -0.000328707, -0.000235761, 2.94839e-05, -0.0029355, 0.000345849, 0.000171799, 0.000629267, 0.00837932, 0.000760712, -0.011112, -0.444721, 0.635038, -3.13187, -0.0555627, -0.107532, -0.0101405, -0.442974, 0.635199, -3.1322, -0.0559297, -0.107182, 1.73063e-06, -1.42215e-06, -3.96181e-06, 0.00290438, 0.00044598, 0.00037122
0.0140256, 0.107629, -0.773902, -0.915919, -1.45625, -0.625283, 1.07024, -0.256729, 0.000565793, 0.0073953, 0.000886216, -0.00110745, -0.000407605, -9.70363e-06, 0.00085839, -0.317619, 15.2356, 18.5581, 15.4678, 1.06769, 3.25259, -0.193104, 0.0010411, -0.00171223, -7.93186e-05, -0.000328727, -0.000235782, 2.94912e-05, -0.00293129, 0.000350357, 0.000183942, 0.000653433, 0.00839584, 0.000804235, -0.011112, -0.444721, 0.635038, -3.13187, -0.0555628, -0.107532, -0.0101405, -0.442974, 0.635199, -3.1322, -0.0559297, -0.107182, 6.91577e-06, -5.6745e-06, -1.58141e-05, 0.00290438, 0.00044598, 0.00037122
0.0150256, 0.107629, -0.773902, -0.915919, -1.45625, -0.625283, 1.07024, -0.256729, 0.000565793, 0.0073953, 0.000886216, -0.00110745, -0.000407605, -9.70363e-06, 0.00085839, -0.317619, 15.2356, 18.5581, 15.4678, 1.06769, 3.25259, -0.193104, 0.0010411, -0.00171224, -7.93441e-05, -0.000328781, -0.000235841, 2.95107e-05, -0.00292429, 0.000357843, 0.000204117, 0.000693566, 0.0084233, 0.000876549, -0.011112, -0.444721, 0.635038, -3.13187, -0.0555628, -0.107532, -0.0101405, -0.442974, 0.635199, -3.1322, -0.0559297, -0.107182, 1.55453e-05, -1.2736e-05, -3.55071e-05, 0.00290438, 0.00044598, 0.00037122
0.0160256, 0.107629, -0.773902, -0.915919, -1.45625, -0.625283, 1.07024, -0.256729, 0.000565793, 0.0073953, 0.000886216, -0.00110745, -0.000407605, -9.70363e-06, 0.00085839, -0.317619, 15.2356, 18.5581, 15.4678, 1.06769, 3.25259, -0.193104, 0.00104108, -0.00171226, -7.93936e-05, -0.000328887, -0.000235954, 2.95488e-05, -0.0029145, 0.000368286, 0.000232277, 0.000749547, 0.0084616, 0.000977472, -0.011112, -0.444721, 0.635038, -3.13187, -0.0555628, -0.107532, -0.0101405, -0.442974, 0.635199, -3.1322, -0.0559297, -0.107182, 2.7609e-05, -2.25855e-05, -6.29913e-05, 0.00290438, 0.00044598, 0.00037122
0.0170256, 0.107629, -0.773902, -0.915919, -1.45625, -0.625283, 1.07024, -0.256729, 0.000565793, 0.0073953, 0.000886216, -0.00110745, -0.000407605, -9.70363e-06, 0.00085839, -0.317619, 15.2356, 18.5581, 15.4678, 1.06769, 3.25259, -0.193104, 0.00104105, -0.00171229, -7.9475e-05, -0.00032906, -0.000236141, 2.96113e-05, -0.00290192, 0.000381664, 0.000268369, 0.000821258, 0.0085107, 0.00110682, -0.0111119, -0.444721, 0.635038, -3.13187, -0.0555629, -0.107532, -0.0101405, -0.442974, 0.635199, -3.1322, -0.0559297, -0.107182, 4.30968e-05, -3.5202e-05, -9.82172e-05, 0.00290438, 0.00044598, 0.00037122
0.0180256, 0.107629, -0.773902, -0.915919, -1.45625, -0.625283, 1.07024, -0.256729, 0.000565793, 0.0073953, 0.000886216, -0.00110745, -0.000407605, -9.70363e-06, 0.00085839, -0.317619, 15.2356, 18.5581, 15.4678, 1.06769, 3.25259, -0.193104, 0.00104101, -0.00171234, -7.95963e-05, -0.000329319, -0.00023642, 2.97045e-05, -0.00288656, 0.000397955, 0.000312346, 0.000908583, 0.00857051, 0.00126441, -0.0111119, -0.444721, 0.635038, -3.13187, -0.0555631, -0.107533, -0.0101405, -0.442974, 0.635199, -3.1322, -0.0559297, -0.107182, 6.19987e-05, -5.05647e-05, -0.000141136, 0.00290438, 0.00044598, 0.00037122
0.0190256, 0.107629, -0.773902, -0.915919, -1.45625, -0.625283, 1.07024, -0.256729, 0.000565793, 0.0073953, 0.000886216, -0.00110745, -0.000407605, -9.70363e-06, 0.00085839, -0.317619, 15.2356, 18.5581, 15.4678, 1.06769, 3.25259, -0.193104, 0.00104095, -0.0017124, -7.97651e-05, -0.000329679, -0.000236808, 2.98342e-05, -0.00286843, 0.000417139, 0.000364157, 0.0010114, 0.00864097, 0.00145007, -0.0111118, -0.444721, 0.635037, -3.13187, -0.0555633, -0.107533, -0.0101405, -0.442974, 0.635199, -3.1322, -0.0559297, -0.107182, 8.43044e-05, -6.86525e-05, -0.000191697, 0.00290438, 0.00044598, 0.00037122
0.0200256, 0.107629, -0.773902, -0.915919, -1.45625, -0.625283, 1.07024, -0.256729, 0.000565793, 0.0073953, 0.000886216, -0.00110745, -0.000407605, -9.70363e-06, 0.00085839, -0.317619, 15.2356, 18.5581, 15.4678, 1.06769, 3.25259, -0.193104, 0.00104087, -0.00171248, -7.99893e-05, -0.000330157, -0.000237322, 3.00065e-05, -0.00284754, 0.000439193, 0.000423752, 0.0011296, 0.008722, 0.0016636, -0.0111117, -0.444721, 0.635037, -3.13187, -0.0555636, -0.107534, -0.0101405, -0.442974, 0.635199, -3.1322, -0.0559297, -0.107182, 0.000110004, -8.94448e-05, -0.000249853, 0.00290438, 0.00044598, 0.00037122
0.0210256, 0.107629, -0.773902, -0.915919, -1.45625, -0.625283, 1.07024, -0.256729, 0.000565793, 0.0073953, 0.000886216, -0.00110745, -0.000407605, -9.70363e-06, 0.00085839, -0.317619, 15.2356, 18.5581, 15.4678, 1.06769, 3.25259, -0.193104, 0.00104077, -0.00171259, -8.02766e-05, -0.000330769, -0.000237982, 3.02272e-05, -0.00282388, 0.000464096, 0.000491083, 0.00126307, 0.00881354, 0.00190484, -0.0111116, -0.444721, 0.635037, -3.13187, -0.055564, -0.107535, -0.0101405, -0.442974, 0.635199, -3.1322, -0.0559297, -0.107182, 0.000139087, -0.000112921, -0.000315553, 0.00290438, 0.00044598, 0.00037122
0.0220256, 0.107641, -0.773886, -0.915924, -1.45626, -0.625284, 1.07024, -0.25673, -9.88599e-05, 0.0053378, -5.31386e-05, -0.00390316, 0.000883902, -0.000100144, 0.000168267, -0.392998, 15.0888, 18.6295, 15.6543, 1.07959, 3.27456, -0.180287, 0.00105183, -0.00171389, -7.3813e-05, -0.000313992, -0.000269815, 1.23802e-05, -0.00239964, 0.000619041, -0.000617238, -0.00150948, 0.00779168, 0.00354233, -0.0111114, -0.444721, 0.635037, -3.13186, -0.0555644, -0.107536, -0.0101289, -0.442972, 0.635193, -3.13219, -0.0559587, -0.107133, 0.000171544, -0.000139059, -0.00038875, 0.00258418, 0.000569295, -0.000835845
0.0230256, 0.107641, -0.773888, -0.915927, -1.45626, -0.625284, 1.07024, -0.256729, 0.00086536, 0.00293389, -0.000957589, -0.00179732, 0.00069827, 0.000204505, 0.000586896, -0.43267, 15.1285, 18.6692, 15.6146, 1.07959, 3.26724, -0.193104, 0.00104941, -0.00171319, -7.4291e-05, -0.000315135, -0.000266759, 1.82359e-05, -0.00133124, 0.000188813, -0.000240096, -0.000648652, 0.00416849, 0.00252538, -0.0111112, -0.444721, 0.635036, -3.13186, -0.055565, -0.107538, -0.0101312, -0.442973, 0.635193, -3.13219, -0.0559501, -0.107139, 0.000207364, -0.00016784, -0.000469394, 0.00154432, 6.97436e-05, -0.000616297
0.0240256, 0.107644, -0.773887, -0.915924, -1.45626, -0.625287, 1.07023, -0.256726, 0.000579342, 0.0039467, -0.0042931, -0.00349766, 0.000547266, -0.00037229, 0.000153905, -0.43267, 15.0531, 18.5581, 15.5789, 1.07959, 3.28097, -0.186696, 0.00105217, -0.00171418, -7.44305e-05, -0.000316263, -0.000274862, 1.47915e-05, -0.000671948, -0.000202214, -0.00162216, -0.00391441, 0.00696619, 0.00125514, -0.011111, -0.444722, 0.635036, -3.13186, -0.0555656, -0.10754, -0.0101282, -0.442972, 0.635193, -3.13219, -0.0559561, -0.107129, 0.000246538, -0.000199242, -0.000557437, 0.00103472, -0.000363731, -0.00213082
0.0250256, 0.107647, -0.773886, -0.915934, -1.45627, -0.625289, 1.07024, -0.256732, 0.00122327, 0.00363701, -0.00731864, -0.00803554, 0.00130778, -1.08343e-05, -0.00210144, -0.468376, 15.0174, 18.5938, 15.5432, 1.05578, 3.27456, -0.127186, 0.00105156, -0.0017124, -7.02765e-05, -0.000308715, -0.000282735, 1.17376e-05, -0.000984797, -0.000473742, -0.00376802, -0.00830246, 0.00913186, 0.00489375, -0.0111107, -0.444722, 0.635035, -3.13186, -0.0555664, -0.107542, -0.0101282, -0.442974, 0.635188, -3.13218, -0.055962, -0.107118, 0.000289055, -0.000233245, -0.00065283, 0.00154571, -0.000639613, -0.00434714
0.0260256, 0.107653, -0.773883, -0.915939, -1.45627, -0.625291, 1.07024, -0.256734, 0.00258012, 0.00348068, -0.00552632, -0.00746314, -0.00286494, -0.00105838, -0.00333374, -0.543754, 14.9777, 18.5938, 15.4678, 1.03107, 3.30295, -0.0750012, 0.00105346, -0.00171169, -6.83554e-05, -0.000305591, -0.000290957, 6.85578e-06, -0.00102734, -0.00044839, -0.00311695, -0.00577847, 0.0123611, 0.00692508, -0.0111104, -0.444722, 0.635034, -3.13186, -0.0555673, -0.107544, -0.0101259, -0.442975, 0.635185, -3.13218, -0.0559706, -0.107107, 0.000334905, -0.000269828, -0.000755525, 0.00158851, -0.00065496, -0.00379723
0.0270256, 0.107651, -0.773887, -0.91594, -1.45628, -0.625296, 1.07023, -0.256732, 0.00088589, 0.00693789, -0.00416963, -0.00487661, -0.00247045, -0.00124812, 0.00151491, -0.508049, 15.0531, 18.5938, 15.4282, 1.03656, 3.31759, -0.0484509, 0.00105044, -0.00171146, -6.72316e-05, -0.000305567, -0.000296932, 1.2713e-05, -0.00124855, -0.000104235, -0.00166817, -0.00320641, 0.0140006, 0.000681005, -0.0111101, -0.444722, 0.635033, -3.13186, -0.0555684, -0.107547, -0.0101284, -0.442976, 0.635183, -3.13218, -0.0559626, -0.107101, 0.000384079, -0.000308971, -0.000865474, 0.0017468, -0.000354856, -0.00244453
0.0280256, 0.107653, -0.773879, -0.915941, -1.45628, -0.625303, 1.07023, -0.256731, 0.000591364, 0.0060562, -0.00397904, -0.00705095, -0.00615799, -0.00134071, 0.00140334, -0.508049, 15.0174, 18.6295, 15.4282, 1.02466, 3.33133, -0.0484509, 0.00105299, -0.0017116, -6.59783e-05, -0.000305546, -0.000316492, 1.31952e-05, -0.000588166, -0.000304973, -0.00218822, -0.00255179, 0.0175306, 0.000421185, -0.0111097, -0.444723, 0.635033, -3.13186, -0.0555696, -0.10755, -0.0101254, -0.442976, 0.635181, -3.13218, -0.0559631, -0.107073, 0.000436566, -0.000350653, -0.000982628, 0.00118364, -0.000615895, -0.00312711
0.0290256, 0.107654, -0.773886, -0.915939, -1.45628, -0.62531, 1.07023, -0.256728, 0.000394821, 0.00105058, -0.00385376, -0.00459668, -0.00605283, -0.00116507, 0.00221395, -0.508049, 15.1642, 18.6692, 15.3925, 1.06128, 3.33865, -0.0750012, 0.00105014, -0.00171156, -6.73738e-05, -0.000311105, -0.000317598, 1.85696e-05, 0.00149949, -0.000511313, -0.00143884, -0.00109113, 0.0109366, -0.00123774, -0.0111092, -0.444723, 0.635032, -3.13185, -0.0555709, -0.107554, -0.0101279, -0.442976, 0.635181, -3.13218, -0.0559559, -0.107076, 0.000492356, -0.000394854, -0.00110694, -0.000885921, -0.000946193, -0.00264854
0.0300256, 0.107651, -0.773885, -0.915938, -1.45629, -0.625315, 1.07024, -0.256724, -0.00149959, 0.000200259, -0.00360918, -0.00713937, -0.00495332, -0.000776716, 0.00291796, -0.43267, 15.1999, 18.7049, 15.5432, 1.0741, 3.33865, -0.10796, 0.00105028, -0.0017117, -6.65255e-05, -0.000314786, -0.000329673, 2.32059e-05, 0.0017792, -0.000170935, -0.00194983, -0.00217003, 0.0108768, -0.00132891, -0.0111087, -0.444723, 0.63503, -3.13185, -0.0555724, -0.107558, -0.0101272, -0.442976, 0.635179, -3.13218, -0.0559502, -0.107061, 0.000551439, -0.000441554, -0.00123836, -0.00108288, -0.000658174, -0.00330686
0.0310256, 0.107651, -0.773884, -0.915939, -1.45629, -0.625322, 1.07024, -0.256723, -0.00192742, 0.000384825, -0.00348773, -0.00517091, -0.00902222, 2.47243e-05, 0.00234863, -0.392998, 15.1999, 18.7446, 15.5432, 1.09241, 3.324, -0.114369, 0.00104818, -0.00171051, -6.84686e-05, -0.000323362, -0.000335924, 3.05016e-05, 0.00304458, -0.000813154, -0.00108226, 0.00182302, 0.0126408, -0.00354893, -0.0111081, -0.444724, 0.635029, -3.13185, -0.0555741, -0.107563, -0.0101288, -0.442978, 0.63518, -3.13219, -0.0559402, -0.107056, 0.000613805, -0.000490732, -0.00137684, -0.00231858, -0.00140114, -0.00267076
0.0320256, 0.107652, -0.773875, -0.915939, -1.4563, -0.625325, 1.07024, -0.256723, -0.000356684, 0.00304349, -0.00244034, -0.00718945, -0.0118, 0.000253842, 0.00169022, -0.43267, 15.0888, 18.7446, 15.69, 1.10431, 3.31759, -0.114369, 0.00105174, -0.00171179, -6.78988e-05, -0.000322598, -0.00035544, 2.73365e-05, 0.0013587, -0.000771318, -0.00118026, 0.00317791, 0.0187603, -0.000291539, -0.0111074, -0.444724, 0.635028, -3.13184, -0.055576, -0.107568, -0.0101246, -0.442977, 0.635178, -3.13218, -0.0559471, -0.107031, 0.000679445, -0.000542368, -0.00152234, -0.000566873, -0.00135081, -0.00279793
0.0330256, 0.107655, -0.773878, -0.91594, -1.4563, -0.625332, 1.07024, -0.25673, 0.000597611, 0.00124234, -0.00078527, -0.00595236, -0.0137292, -0.000339398, -5.32469e-07, -0.468376, 15.1285, 18.7049, 15.7297, 1.11072, 3.33133, -0.0814099, 0.0010498, -0.00171112, -6.84946e-05, -0.000327817, -0.000363178, 2.33953e-05, 0.00170839, -0.000646984, -0.000322755, 0.00539224, 0.0180605, 0.00261224, -0.0111067, -0.444725, 0.635026, -3.13184, -0.055578, -0.107574, -0.0101258, -0.442979, 0.635177, -3.13219, -0.0559552, -0.107025, 0.000748347, -0.000596442, -0.0016748, -0.000909758, -0.00130033, -0.0021182
0.0340256, 0.107652, -0.773878, -0.915942, -1.4563, -0.625334, 1.07024, -0.256731, 0.000398545, 0.000934254, -0.000588309, -0.00321375, -0.00905087, -0.00104007, -0.00115104, -0.468376, 15.1285, 18.7049, 15.69, 1.07959, 3.3533, -0.0484509, 0.00104651, -0.00171146, -7.07594e-05, -0.00033204, -0.000367728, 2.91192e-05, 0.00161294, -5.7802e-05, 0.000664516, 0.00468609, 0.0129902, 0.00513896, -0.0111059, -0.444726, 0.635024, -3.13184, -0.0555803, -0.10758, -0.0101285, -0.442979, 0.635177, -3.13219, -0.0559484, -0.107024, 0.000820503, -0.000652933, -0.00183418, -0.000831057, -0.000773184, -0.00128246
0.0350256, 0.107659, -0.773875, -0.915937, -1.4563, -0.625341, 1.07023, -0.256731, 0.00202904, 0.00163037, 0.00132244, -0.00320067, -0.00638131, -0.000964646, -0.000952208, -0.543754, 15.0888, 18.6295, 15.7297, 1.06769, 3.36062, -0.0420422, 0.0010503, -0.00171248, -7.31227e-05, -0.000340137, -0.000382105, 2.22521e-05, -0.00039941, 0.000639432, 0.00136507, 0.00508586, 0.0117692, 0.0099061, -0.0111051, -0.444726, 0.635022, -3.13183, -0.0555828, -0.107587, -0.0101241, -0.442979, 0.635178, -3.13219, -0.0559613, -0.107009, 0.000895902, -0.000711822, -0.00200043, 0.00117783, -7.05404e-05, -0.000607201
0.0360256, 0.107654, -0.77387, -0.915944, -1.4563, -0.625343, 1.07023, -0.25673, -0.000410469, 0.00281699, -0.000918062, -0.00223139, -0.00816573, -0.00115172, 0.00459542, -0.468376, 15.0174, 18.7049, 15.7297, 1.03107, 3.37436, -0.0557752, 0.00104643, -0.00171222, -7.26616e-05, -0.000338857, -0.000395819, 3.60345e-05, 0.00167107, 0.000129079, 0.001302, 0.00540973, 0.0140953, -0.000501647, -0.0111041, -0.444727, 0.63502, -3.13183, -0.0555855, -0.107594, -0.0101269, -0.44298, 0.635175, -3.13219, -0.0559427, -0.106995, 0.000974534, -0.000773089, -0.00217351, -0.000785309, -0.000714143, -0.000988675
0.0370256, 0.107654, -0.77387, -0.915944, -1.4563, -0.625343, 1.07023, -0.25673, -0.000410469, 0.00281699, -0.000918062, -0.00223139, -0.00816573, -0.00115172, 0.00459542, -0.468376, 15.0174, 18.7049, 15.7297, 1.03107, 3.37436, -0.0557752, 0.0010456, -0.00171307, -7.49678e-05, -0.00034374, -0.000401111, 3.7805e-05, 0.00173807, 0.000196709, 0.00148649, 0.00577184, 0.0143456, 0.000158544, -0.0111031, -0.444728, 0.635018, -3.13182, -0.0555884, -0.107602, -0.0101269, -0.44298, 0.635175, -3.13219, -0.0559427, -0.106995, 0.00105639, -0.000836713, -0.00235336, -0.000785309, -0.000714143, -0.000988675
0.0380256, 0.107654, -0.77387, -0.915944, -1.4563, -0.625343, 1.07023, -0.25673, -0.000410469, 0.00281699, -0.000918062, -0.00223139, -0.00816573, -0.00115172, 0.00459542, -0.468376, 15.0174, 18.7049, 15.7297, 1.03107, 3.37436, -0.0557752, 0.00104471, -0.00171399, -7.74607e-05, -0.000349018, -0.000406831, 3.97188e-05, 0.00180773, 0.000266835, 0.00167789, 0.00614729, 0.0146052, 0.000843427, -0.011102, -0.444729, 0.635016, -3.13182, -0.0555915, -0.107611, -0.0101269, -0.44298, 0.635175, -3.13219, -0.0559427, -0.106995, 0.00114146, -0.000902674, -0.00253994, -0.000785309, -0.000714143, -0.000988675
0.0390256, 0.107654, -0.77387, -0.915944, -1.4563, -0.625343, 1.07023, -0.25673, -0.000410469, 0.00281699, -0.000918062, -0.00223139, -0.00816573, -0.00115172, 0.00459542, -0.468376, 15.0174, 18.7049, 15.7297, 1.03107, 3.37436, -0.0557752, 0.00104374, -0.00171499, -8.01474e-05, -0.000354703, -0.000412996, 4.17811e-05, 0.00188003, 0.000339436, 0.00187616, 0.00653595, 0.0148741, 0.00155283, -0.0111008, -0.44473, 0.635013, -3.13181, -0.0555949, -0.10762, -0.0101269, -0.44298, 0.635175, -3.13219, -0.0559427, -0.106995, 0.00122973, -0.000970953, -0.00273321, -0.000785309, -0.000714143, -0.000988675
0.0400256, 0.107652, -0.773875, -0.915954, -1.45632, -0.625374, 1.07023, -0.256721, -0.000730612, -0.00621424, -0.00217949, -0.00385514, -0.00559589, -0.000599238, 0.00179156, -0.43267, 15.0888, 18.7803, 15.9161, 1.01825, 3.38901, -0.0878186, 0.00103382, -0.0017118, -7.57685e-05, -0.000358799, -0.000448333, 6.94874e-05, 0.00435366, 0.000273075, 0.000954063, 0.00392505, 0.00503379, 0.00588727, -0.0110996, -0.444731, 0.63501, -3.1318, -0.0555986, -0.10763, -0.0101352, -0.442984, 0.635167, -3.13219, -0.0559033, -0.106949, 0.00132119, -0.00104153, -0.00293311, -0.00309456, -0.00093013, -0.00227899
0.0410256, 0.107654, -0.77387, -0.915954, -1.45631, -0.625383, 1.07023, -0.25672, 0.000348162, -0.00285134, -0.00384672, 9.80017e-05, -0.00895628, -0.000670759, 0.0018358, -0.468376, 15.0174, 18.7446, 15.8011, 1.01825, 3.39633, -0.101552, 0.00103222, -0.00171104, -8.17265e-05, -0.000376447, -0.000460994, 7.9269e-05, 0.00495396, -0.000543196, 0.00198231, 0.0070642, 0.0087638, 0.0027616, -0.0110982, -0.444732, 0.635007, -3.1318, -0.0556025, -0.107641, -0.0101358, -0.442986, 0.63517, -3.1322, -0.0558914, -0.106941, 0.00141584, -0.00111438, -0.0031396, -0.00363971, -0.00184878, -0.00150608
0.0420256, 0.107652, -0.77387, -0.915951, -1.45631, -0.625393, 1.07023, -0.256723, -0.000603096, -0.00218511, -0.00107608, -0.0026433, -0.00696573, -0.000955799, 0.000102766, -0.43267, 15.0174, 18.6692, 15.9161, 1.02466, 3.41006, -0.0685925, 0.00102991, -0.00171208, -8.39589e-05, -0.000385998, -0.000480248, 8.06179e-05, 0.00343102, 0.000563081, 0.00218071, 0.00673769, 0.0100141, 0.00879944, -0.0110967, -0.444733, 0.635004, -3.13179, -0.0556067, -0.107652, -0.0101368, -0.442986, 0.635169, -3.1322, -0.0558933, -0.106923, 0.00151366, -0.0011895, -0.00335263, -0.00207661, -0.000766478, -0.00140959
0.0430256, 0.107657, -0.773877, -0.915954, -1.45631, -0.625405, 1.07023, -0.256723, 0.000433164, -0.00334033, -0.000923523, -0.000847207, -0.00967158, -0.000908467, 0.000380571, -0.468376, 15.0888, 18.6692, 15.8765, 1.01825, 3.41739, -0.0750012, 0.00102484, -0.00171114, -8.65905e-05, -0.000396329, -0.000489823, 8.81925e-05, 0.00425756, 0.000193093, 0.00292799, 0.00936397, 0.0100218, 0.00825799, -0.0110952, -0.444734, 0.635, -3.13178, -0.0556111, -0.107664, -0.0101404, -0.442989, 0.635168, -3.1322, -0.0558856, -0.106921, 0.00161465, -0.00126685, -0.00357216, -0.0028377, -0.00124919, -0.00094281
0.0440256, 0.107655, -0.773879, -0.915957, -1.45631, -0.625418, 1.07024, -0.256727, 0.000288784, -0.00331478, -0.000770282, -0.0015026, -0.0114611, -9.70182e-05, -0.00114832, -0.468376, 15.1285, 18.6692, 15.9161, 1.00635, 3.40365, -0.0356336, 0.00101981, -0.00171038, -8.8581e-05, -0.000407338, -0.00050802, 9.48988e-05, 0.00447787, 3.78579e-07, 0.0030806, 0.0110542, 0.0117273, 0.0100668, -0.0110935, -0.444735, 0.634997, -3.13177, -0.0556159, -0.107677, -0.0101439, -0.442991, 0.635166, -3.13221, -0.0558796, -0.106906, 0.00171879, -0.00134642, -0.00379814, -0.00295681, -0.00153046, -0.00103294
0.0450256, 0.10766, -0.773875, -0.915959, -1.45631, -0.625427, 1.07023, -0.256726, 0.00112055, -0.000566517, -0.000629471, -8.10404e-05, -0.00816556, -0.000844572, -0.000486169, -0.508049, 15.0531, 18.6692, 15.8765, 0.993529, 3.42471, -0.0420422, 0.00101842, -0.00171076, -9.28654e-05, -0.000418754, -0.000527575, 0.000101012, 0.00304563, 0.000578425, 0.00380208, 0.0104423, 0.0117444, 0.0120433, -0.0110917, -0.444737, 0.634993, -3.13176, -0.0556209, -0.107691, -0.0101438, -0.442992, 0.635166, -3.13221, -0.0558748, -0.10689, 0.00182607, -0.00142819, -0.00403052, -0.0014917, -0.000990452, -0.000443456
0.0460256, 0.107658, -0.773874, -0.91596, -1.45631, -0.625438, 1.07023, -0.256721, 0.000747036, -0.000467604, 0.00042141, -5.95237e-05, -0.0100413, -0.000834316, 0.00140282, -0.508049, 15.0531, 18.6295, 15.8765, 0.969725, 3.43204, -0.0878186, 0.00101395, -0.00171099, -9.66095e-05, -0.000430725, -0.000547406, 0.000117342, 0.0033039, 0.000665805, 0.00436869, 0.0124842, 0.0135257, 0.0105468, -0.0110899, -0.444738, 0.634989, -3.13175, -0.0556263, -0.107706, -0.0101467, -0.442994, 0.635165, -3.13221, -0.0558544, -0.106874, 0.00193648, -0.00151214, -0.00426926, -0.00168077, -0.00100115, -0.000134189
0.0470256, 0.107657, -0.773873, -0.915964, -1.45631, -0.625451, 1.07023, -0.256724, 0.000498027, 0.000456037, -0.00208371, 0.000791413, -0.0165693, -0.00055621, 9.41566e-06, -0.508049, 15.0174, 18.5938, 15.8408, 0.956908, 3.43204, -0.0621838, 0.00100788, -0.00171031, -0.00010161, -0.000446284, -0.00056521, 0.000129386, 0.00545707, -0.000551523, 0.00423429, 0.0150433, 0.0191514, 0.00711234, -0.0110879, -0.44474, 0.634984, -3.13174, -0.0556319, -0.107721, -0.0101511, -0.442996, 0.635166, -3.13222, -0.0558409, -0.106863, 0.00205002, -0.00159825, -0.00451432, -0.00366129, -0.0023785, -0.000669177
0.0480256, 0.107657, -0.773868, -0.915962, -1.45631, -0.625469, 1.07023, -0.256722, 0.000332021, 0.00118146, -0.00226753, 0.000524517, -0.0175375, -0.000370807, 0.000736081, -0.508049, 14.9777, 18.4827, 15.8408, 0.963317, 3.43204, -0.0814099, 0.00100423, -0.00171034, -0.000107183, -0.000466065, -0.000593664, 0.000143194, 0.00557882, -0.000600692, 0.00440681, 0.0159309, 0.0210452, 0.006674, -0.0110858, -0.444741, 0.63498, -3.13173, -0.0556379, -0.107738, -0.010153, -0.442998, 0.635166, -3.13223, -0.0558248, -0.106836, 0.00216668, -0.00168649, -0.00476563, -0.00367613, -0.00252174, -0.000757147
0.0490256, 0.107662, -0.773868, -0.915968, -1.45631, -0.625479, 1.07024, -0.256719, 0.00105657, 0.000749703, -0.00515632, -0.000487859, -0.0125347, 2.40627e-05, 0.000266657, -0.543754, 14.9777, 18.4827, 15.8765, 0.945006, 3.42471, -0.0750012, 0.00100147, -0.0017091, -0.00010992, -0.000478913, -0.000613138, 0.000153474, 0.00518576, -0.000529909, 0.00353705, 0.0120589, 0.017781, 0.00953285, -0.0110835, -0.444743, 0.634975, -3.13172, -0.0556442, -0.107755, -0.0101537, -0.443001, 0.635164, -3.13223, -0.0558147, -0.106823, 0.00228643, -0.00177687, -0.00502317, -0.00310742, -0.00252, -0.00185493
0.0500256, 0.107663, -0.773868, -0.915975, -1.4563, -0.625495, 1.07024, -0.256722, 0.000704379, 0.000471348, -0.00717789, 0.00143626, -0.0140063, 1.60418e-05, -0.00103296, -0.543754, 14.9777, 18.4827, 15.8011, 0.938597, 3.42471, -0.0420422, 0.00099371, -0.00170741, -0.000115087, -0.000496906, -0.000633871, 0.000169572, 0.00686596, -0.00110659, 0.00381986, 0.0130016, 0.0178259, 0.00821558, -0.0110812, -0.444745, 0.634969, -3.13171, -0.0556509, -0.107773, -0.0101594, -0.443005, 0.635164, -3.13224, -0.0557958, -0.10681, 0.00240928, -0.00186934, -0.00528689, -0.00465855, -0.00325049, -0.00195592
0.0510256, 0.10766, -0.77387, -0.915975, -1.4563, -0.625511, 1.07024, -0.256719, -0.000365631, -0.000635128, -0.00602605, 0.00179142, -0.0108261, 1.06945e-05, 6.48236e-05, -0.508049, 15.0174, 18.3716, 15.7654, 0.945006, 3.42471, -0.0621838, 0.000986023, -0.00170726, -0.000121186, -0.000516803, -0.000654073, 0.000188159, 0.00685993, -0.000436246, 0.00452364, 0.013065, 0.0144, 0.00926318, -0.0110787, -0.444747, 0.634964, -3.1317, -0.0556578, -0.107792, -0.010165, -0.443007, 0.635164, -3.13225, -0.0557732, -0.106799, 0.00253522, -0.00196389, -0.00555673, -0.00459888, -0.00268118, -0.00151911
0.0520256, 0.107662, -0.773865, -0.915985, -1.4563, -0.625528, 1.07024, -0.256724, -0.000243753, 0.00132381, -0.00873661, 0.000358083, -0.0125588, -0.000264138, -0.00140924, -0.508049, 14.942, 18.4073, 15.8011, 0.938597, 3.43204, -0.0228162, 0.000980491, -0.00170592, -0.000123562, -0.000528605, -0.000688079, 0.000200431, 0.00725797, -0.00087832, 0.00364335, 0.0117253, 0.019248, 0.0097089, -0.0110761, -0.444749, 0.634958, -3.13168, -0.0556652, -0.107812, -0.010168, -0.443011, 0.63516, -3.13225, -0.0557612, -0.106766, 0.00266423, -0.00206051, -0.00583265, -0.00479057, -0.00322597, -0.00270354
0.0530256, 0.107669, -0.773873, -0.915986, -1.4563, -0.625548, 1.07024, -0.256721, 0.00160074, -0.00172792, -0.00641852, 0.00190842, -0.0146236, -0.000176092, 1.41509e-05, -0.583427, 15.0531, 18.2606, 15.7297, 0.951415, 3.43204, -0.0484509, 0.000973378, -0.00170509, -0.000130558, -0.000551831, -0.000706324, 0.000214662, 0.00745411, -0.000786961, 0.00490533, 0.0152955, 0.0170097, 0.0111424, -0.0110734, -0.444751, 0.634952, -3.13167, -0.0556729, -0.107834, -0.0101729, -0.443014, 0.635161, -3.13226, -0.055746, -0.10676, 0.0027963, -0.00215917, -0.00611461, -0.00494395, -0.00325141, -0.00173959
0.0540256, 0.107671, -0.773867, -0.915993, -1.4563, -0.62557, 1.07024, -0.256718, 0.00106716, 0.000602291, -0.00737042, 0.00219975, -0.0201356, -0.000388662, 0.00570372, -0.583427, 14.9777, 18.2209, 15.69, 0.945006, 3.43936, -0.0750012, 0.000966511, -0.00170361, -0.000135799, -0.000571204, -0.00074146, 0.000237393, 0.00855994, -0.00140862, 0.00510344, 0.01788, 0.0238653, 0.00245439, -0.0110705, -0.444753, 0.634946, -3.13166, -0.0556809, -0.107856, -0.0101772, -0.443018, 0.635159, -3.13227, -0.0557182, -0.106728, 0.00293143, -0.00225986, -0.00640257, -0.00590276, -0.00401418, -0.00191019
0.0550256, 0.107671, -0.773868, -0.915998, -1.45629, -0.625589, 1.07024, -0.256724, -0.000216581, -0.000533245, -0.00812045, 0.00146609, -0.019324, -0.000259108, 0.00202702, -0.543754, 15.0174, 18.1852, 15.69, 0.932189, 3.43936, -0.0164075, 0.000958488, -0.0017022, -0.000141935, -0.000594138, -0.000767556, 0.000249879, 0.00950233, -0.00132139, 0.00497686, 0.0173281, 0.0229667, 0.00612523, -0.0110675, -0.444756, 0.63494, -3.13164, -0.0556894, -0.107879, -0.0101825, -0.443022, 0.635158, -3.13228, -0.0557065, -0.106712, 0.00306961, -0.00236255, -0.00669647, -0.00669862, -0.00406192, -0.00239493
0.0560256, 0.107669, -0.77387, -0.916009, -1.45629, -0.625611, 1.07024, -0.256721, -0.00190762, -0.000360561, -0.00949302, 0.0018123, -0.0190181, -0.000172739, 0.00259679, -0.468376, 15.0174, 18.1852, 15.6543, 0.926695, 3.43936, -0.0420422, 0.000946098, -0.00169973, -0.000146873, -0.000614219, -0.000796761, 0.000280932, 0.0107567, -0.00143008, 0.0050654, 0.017299, 0.0231071, 0.0038922, -0.0110644, -0.444758, 0.634933, -3.13162, -0.0556982, -0.107903, -0.010192, -0.443027, 0.635155, -3.13229, -0.0556664, -0.106691, 0.00321082, -0.00246723, -0.00699628, -0.00781031, -0.00432034, -0.00269376
0.0570256, 0.107677, -0.773865, -0.916019, -1.45629, -0.625634, 1.07024, -0.256718, 0.000491488, 0.00151907, -0.0104479, 0.00350984, -0.0187084, 0.000156108, 0.00317391, -0.543754, 14.942, 18.1852, 15.69, 0.920287, 3.43204, -0.0750012, 0.000940695, -0.00169809, -0.000151001, -0.000631083, -0.000837219, 0.000300383, 0.00980846, -0.00165182, 0.0056509, 0.0183566, 0.0239582, 0.00537813, -0.0110611, -0.444761, 0.634926, -3.13161, -0.0557074, -0.107928, -0.0101944, -0.443032, 0.635152, -3.13229, -0.055645, -0.106654, 0.00335505, -0.00257388, -0.00730195, -0.00675298, -0.00462046, -0.00235157
0.0580256, 0.107678, -0.773865, -0.916018, -1.45628, -0.625652, 1.07024, -0.256718, -0.000507559, 0.0064519, -0.00758745, 0.00436438, -0.0181501, 0.000917874, 0.00228244, -0.508049, 14.9777, 18.0344, 15.6146, 0.901976, 3.41006, -0.0750012, 0.000933879, -0.00169766, -0.00016107, -0.000663155, -0.00086182, 0.000316963, 0.00793548, -0.000973531, 0.00732323, 0.0221374, 0.0278095, 0.00841867, -0.0110577, -0.444763, 0.634918, -3.13159, -0.055717, -0.107955, -0.0101984, -0.443035, 0.635154, -3.13231, -0.0556277, -0.106644, 0.0035023, -0.00268248, -0.00761342, -0.00487763, -0.00400014, -0.000861392
0.0590256, 0.107681, -0.773867, -0.916029, -1.45628, -0.625673, 1.07025, -0.256715, 0.00220387, 0.00389422, -0.00699795, 0.00477596, -0.0177192, 0.00112054, 0.00164651, -0.468376, 15.0174, 18.0741, 15.5432, 0.883666, 3.39633, -0.0750012, 0.000923202, -0.00169535, -0.000167743, -0.000686959, -0.00088953, 0.000344205, 0.0074319, -0.000881152, 0.00778403, 0.0229921, 0.0249919, 0.0133713, -0.0110541, -0.444766, 0.63491, -3.13157, -0.055727, -0.107982, -0.0102059, -0.443041, 0.635152, -3.13231, -0.0555946, -0.106629, 0.00365255, -0.002793, -0.00793067, -0.00426039, -0.00400485, -0.000683778
0.0600256, 0.107679, -0.773875, -0.916037, -1.45627, -0.625697, 1.07025, -0.256714, 0.0034529, 0.000388416, -0.00765527, 0.00509416, -0.0228188, -3.28653e-05, 0.000953974, -0.392998, 15.1285, 18.0344, 15.4678, 0.883666, 3.41739, -0.0685925, 0.000908517, -0.00169329, -0.000175815, -0.000714075, -0.000913679, 0.000373726, 0.00947401, -0.00139157, 0.00775934, 0.0243079, 0.0262188, 0.0133867, -0.0110504, -0.444769, 0.634902, -3.13155, -0.0557374, -0.108011, -0.0102173, -0.443046, 0.635151, -3.13232, -0.0555583, -0.106622, 0.0038058, -0.00290544, -0.00825364, -0.00612326, -0.00469938, -0.00117578
0.0610256, 0.107688, -0.773864, -0.916045, -1.45627, -0.625716, 1.07025, -0.256721, 0.00457021, 0.00407846, -0.00910254, 0.00350632, -0.0264003, -2.19102e-05, -0.000751835, -0.468376, 14.9777, 18.0344, 15.4678, 0.877257, 3.41739, -0.0292249, 0.000905948, -0.00169237, -0.000182609, -0.000737357, -0.000958453, 0.000380398, 0.00882181, -0.00181095, 0.00730482, 0.0249219, 0.0341716, 0.0154026, -0.0110465, -0.444772, 0.634894, -3.13154, -0.0557483, -0.10804, -0.0102164, -0.44305, 0.63515, -3.13233, -0.0555581, -0.106583, 0.00396204, -0.00301977, -0.00858229, -0.00527064, -0.00520594, -0.00191576
0.0620256, 0.107686, -0.773867, -0.916054, -1.45627, -0.625741, 1.07025, -0.256724, 0.00512004, 0.00117552, -0.010138, 0.00242021, -0.0241224, -0.000285874, -0.000923257, -0.392998, 15.0531, 18.0344, 15.4678, 0.865355, 3.42471, -0.0164075, 0.00089285, -0.00169041, -0.000189903, -0.000764807, -0.000991938, 0.000406827, 0.00928419, -0.00159026, 0.0068757, 0.0228252, 0.0309069, 0.0182145, -0.0110424, -0.444775, 0.634885, -3.13152, -0.0557596, -0.108071, -0.0102259, -0.443056, 0.635147, -3.13234, -0.0555274, -0.106563, 0.00412125, -0.00313597, -0.00891658, -0.00555091, -0.00511429, -0.00270886
0.0630256, 0.107691, -0.773867, -0.916057, -1.45627, -0.625761, 1.07025, -0.256724, 0.00315037, 0.000948519, -0.00729495, 0.00260349, -0.0220459, -0.000190583, -0.000575992, -0.357292, 15.0531, 17.8876, 15.4282, 0.846129, 3.42471, -0.0164075, 0.00088678, -0.00169052, -0.000198635, -0.000792137, -0.00102719, 0.000421253, 0.00906328, -0.000657447, 0.00814866, 0.024721, 0.0292693, 0.0202176, -0.0110382, -0.444778, 0.634876, -3.13149, -0.0557713, -0.108103, -0.0102284, -0.443059, 0.635146, -3.13235, -0.0555158, -0.106541, 0.00428343, -0.00325403, -0.00925645, -0.0052896, -0.00430396, -0.00175775
0.0640256, 0.107688, -0.773867, -0.916073, -1.45627, -0.625788, 1.07025, -0.256718, 0.000766174, 0.000755974, -0.0106434, 0.00178216, -0.0217962, -0.000940857, 0.000595076, -0.281914, 15.0531, 17.959, 15.4282, 0.858946, 3.44668, -0.0420422, 0.000870902, -0.00168812, -0.000204157, -0.000813648, -0.00107115, 0.000463728, 0.0112479, -0.000904807, 0.00730064, 0.0221739, 0.0304199, 0.0159262, -0.0110339, -0.444781, 0.634867, -3.13147, -0.0557834, -0.108137, -0.0102401, -0.443065, 0.635141, -3.13235, -0.0554614, -0.106507, 0.00444857, -0.00337392, -0.00960188, -0.00723544, -0.0047408, -0.00310195
0.0650256, 0.10769, -0.773864, -0.916078, -1.45627, -0.625814, 1.07025, -0.256715, -0.00093058, 0.000596704, -0.00640207, 0.00122298, -0.0260267, -0.000355971, 0.00116493, -0.206535, 15.0531, 17.8876, 15.4282, 0.865355, 3.43936, -0.0621838, 0.000862909, -0.00168725, -0.000212628, -0.000845286, -0.00111476, 0.000487937, 0.0114704, -0.000466368, 0.00879529, 0.0277807, 0.0338164, 0.0164386, -0.0110293, -0.444785, 0.634857, -3.13145, -0.055796, -0.108171, -0.0102442, -0.44307, 0.63514, -3.13236, -0.0554353, -0.106475, 0.00461665, -0.00349563, -0.0099528, -0.00740795, -0.00444591, -0.00197462
0.0660256, 0.107694, -0.773864, -0.91609, -1.45626, -0.625837, 1.07025, -0.256713, 0.00216573, -0.000367874, -0.0081637, 0.00251191, -0.0284699, -0.000237314, 0.00126801, -0.166862, 15.0888, 17.8876, 15.3568, 0.852538, 3.43936, -0.0750012, 0.00085134, -0.00168542, -0.000221614, -0.000873748, -0.00115176, 0.000517149, 0.0118395, -0.00115842, 0.00893591, 0.0289687, 0.0343998, 0.0175573, -0.0110246, -0.444788, 0.634847, -3.13143, -0.055809, -0.108207, -0.0102516, -0.443076, 0.635138, -3.13237, -0.0554021, -0.106454, 0.00478767, -0.00361914, -0.0103092, -0.00758996, -0.00527561, -0.00222109
0.0670256, 0.107698, -0.773868, -0.916102, -1.45626, -0.625861, 1.07025, -0.256713, 0.00107905, -0.00195633, -0.00940616, 0.000859003, -0.0260613, -0.000666836, 0.000857839, -0.131157, 15.1642, 17.8876, 15.3925, 0.852538, 3.45309, -0.0750012, 0.00083934, -0.0016843, -0.000227794, -0.000896017, -0.00119265, 0.000541558, 0.0125769, -0.000816206, 0.00838677, 0.02648, 0.0328377, 0.0192706, -0.0110198, -0.444792, 0.634836, -3.1314, -0.0558225, -0.108244, -0.0102591, -0.443081, 0.635133, -3.13237, -0.055377, -0.106428, 0.00496161, -0.00374443, -0.010671, -0.00812582, -0.0050803, -0.0031798
0.0680256, 0.107702, -0.773863, -0.91612, -1.45626, -0.625884, 1.07026, -0.256713, 0.00450908, -0.000429886, -0.0119278, 0.0014226, -0.0240492, 0.000606604, 0.00058127, -0.131157, 15.1285, 17.959, 15.3568, 0.846129, 3.42471, -0.0750012, 0.000828134, -0.00168149, -0.000235003, -0.000922416, -0.00123801, 0.000571859, 0.0111433, -0.00126124, 0.00828267, 0.0259746, 0.0324737, 0.0230712, -0.0110147, -0.444796, 0.634825, -3.13138, -0.0558365, -0.108282, -0.0102656, -0.443088, 0.635128, -3.13238, -0.0553431, -0.106397, 0.00513848, -0.00387148, -0.0110382, -0.00649668, -0.00560078, -0.00355492
0.0690256, 0.107703, -0.773858, -0.91612, -1.45625, -0.625911, 1.07026, -0.256712, 0.00179385, 0.00384498, -0.00859247, 0.00272267, -0.0236828, 0.000133135, 0.000869263, -0.0557783, 15.0888, 17.8122, 15.2814, 0.870848, 3.43204, -0.0878186, 0.000819602, -0.00168192, -0.000248431, -0.000963444, -0.00128553, 0.000597469, 0.0103637, -0.000263521, 0.0102084, 0.0295166, 0.036198, 0.0234844, -0.0110095, -0.4448, 0.634814, -3.13135, -0.055851, -0.108322, -0.0102698, -0.443092, 0.63513, -3.13239, -0.0553165, -0.106365, 0.00531825, -0.00400028, -0.0114107, -0.00570841, -0.00472279, -0.00194614
0.0700256, 0.107706, -0.77386, -0.916138, -1.45626, -0.625936, 1.07026, -0.256716, 0.00413678, 0.0010866, -0.0115229, 0.000988171, -0.0266023, 0.000360024, -0.000873279, -0.0161054, 15.1642, 17.8876, 15.3171, 0.858946, 3.42471, -0.0484509, 0.000806084, -0.00167962, -0.000254585, -0.000988273, -0.00133158, 0.000623137, 0.0114515, -0.00108163, 0.00908339, 0.0285259, 0.0373486, 0.0262109, -0.0110041, -0.444804, 0.634803, -3.13133, -0.0558659, -0.108363, -0.0102783, -0.443099, 0.635123, -3.1324, -0.0552908, -0.106335, 0.00550092, -0.0041308, -0.0117885, -0.00650354, -0.00569942, -0.00352726
0.0710256, 0.107712, -0.773859, -0.916151, -1.45625, -0.625962, 1.07026, -0.256717, 0.00335578, 0.000104074, -0.01259, 0.00150021, -0.02963, -3.12512e-05, -0.000815589, -0.0161054, 15.1999, 17.9233, 15.2814, 0.865355, 3.43204, -0.0420422, 0.000794721, -0.00167842, -0.000263715, -0.00101747, -0.00137896, 0.000648984, 0.0133336, -0.00145451, 0.00928491, 0.029862, 0.0391015, 0.0242513, -0.0109985, -0.444808, 0.634791, -3.1313, -0.0558813, -0.108405, -0.0102846, -0.443105, 0.63512, -3.1324, -0.0552652, -0.106305, 0.00568647, -0.00426302, -0.0121715, -0.00819509, -0.00627302, -0.0038425
0.0720256, 0.107708, -0.773856, -0.91616, -1.45625, -0.625988, 1.07026, -0.256719, -0.000840846, 0.0025708, -0.01165, 0.00276803, -0.0273901, -2.08341e-05, -0.0014902, 0.134651, 15.2356, 17.8876, 15.206, 0.877257, 3.43204, -0.0164075, 0.000780177, -0.00167752, -0.000275799, -0.00105534, -0.00142542, 0.000682248, 0.0141116, -0.0007883, 0.010557, 0.0314259, 0.0395036, 0.0233008, -0.0109927, -0.444812, 0.634778, -3.13127, -0.0558972, -0.108449, -0.0102942, -0.443111, 0.635119, -3.13241, -0.0552282, -0.106278, 0.00587491, -0.00439694, -0.0125597, -0.00889422, -0.00578074, -0.00301165
0.0730256, 0.107712, -0.773852, -0.916171, -1.45625, -0.626011, 1.07027, -0.256718, -0.00105945, 0.00209936, -0.0087643, 0.00101363, -0.0294948, 0.00478538, -0.00051652, 0.170357, 15.2356, 17.8876, 15.2417, 0.865355, 3.43204, -0.0292249, 0.00077138, -0.00167701, -0.000285528, -0.00108825, -0.00147634, 0.000707334, 0.0131195, -0.001093, 0.0116601, 0.0381499, 0.0397594, 0.0256453, -0.0109867, -0.444817, 0.634765, -3.13124, -0.0559137, -0.108494, -0.0102977, -0.443116, 0.635115, -3.13242, -0.0552046, -0.106245, 0.00606621, -0.00453252, -0.0129531, -0.00777933, -0.00619631, -0.00223829
0.0740256, 0.107718, -0.773852, -0.916188, -1.45625, -0.626032, 1.07027, -0.256714, -0.00045405, -7.45391e-05, -0.0113709, 0.00151359, -0.0270112, 0.00331893, 0.00111538, 0.170357, 15.311, 17.959, 15.206, 0.870848, 3.43936, -0.0685925, 0.0007591, -0.00167574, -0.000294768, -0.00111626, -0.00152242, 0.000740157, 0.0142869, -0.000995501, 0.0112537, 0.0349651, 0.0367992, 0.0250309, -0.0109806, -0.444821, 0.634752, -3.13121, -0.0559306, -0.108541, -0.0103044, -0.443123, 0.63511, -3.13242, -0.0551697, -0.106221, 0.00626038, -0.00466976, -0.0133516, -0.0087248, -0.00627414, -0.00312301
0.0750256, 0.107722, -0.773848, -0.916197, -1.45624, -0.626057, 1.07027, -0.256713, -0.00104153, 0.00328135, -0.0129441, 0.00184624, -0.0198035, 0.00665693, 0.0009822, 0.21003, 15.311, 17.8876, 15.1703, 0.858946, 3.45309, -0.0750012, 0.000748036, -0.00167542, -0.000307503, -0.00115428, -0.0015733, 0.000769455, 0.0124962, -0.000865288, 0.0117554, 0.0349035, 0.0334162, 0.028148, -0.0109742, -0.444826, 0.634739, -3.13118, -0.055948, -0.108588, -0.0103099, -0.443128, 0.635109, -3.13243, -0.0551404, -0.106191, 0.00645739, -0.00480863, -0.0137552, -0.0067821, -0.00622462, -0.00290143
0.0760256, 0.107727, -0.773846, -0.916209, -1.45625, -0.626084, 1.07027, -0.256712, 0.0011381, 0.000846479, -0.0128668, 0.0012323, -0.0250264, 0.00423686, 0.000893098, 0.285408, 15.3864, 17.8876, 15.1703, 0.883666, 3.47507, -0.0814099, 0.000736916, -0.00167552, -0.000317966, -0.00118681, -0.0016312, 0.000796806, 0.0135692, -0.000929403, 0.0116441, 0.0353093, 0.0371408, 0.0297783, -0.0109676, -0.444831, 0.634725, -3.13115, -0.055966, -0.108638, -0.0103152, -0.443133, 0.635105, -3.13244, -0.055115, -0.106152, 0.00665724, -0.00494912, -0.0141638, -0.00764234, -0.00646664, -0.00349649
0.0770256, 0.107737, -0.773841, -0.916223, -1.45624, -0.626107, 1.07027, -0.256714, 0.00470719, 0.000880931, -0.0128506, 0.00258588, -0.0276342, 0.00355538, -0.000115974, 0.285408, 15.3864, 17.8876, 15.0949, 0.870848, 3.46774, -0.0621838, 0.00072723, -0.00167481, -0.000330012, -0.00122155, -0.00168373, 0.000820394, 0.0130104, -0.00112412, 0.012321, 0.0372103, 0.0392081, 0.0339304, -0.0109609, -0.444836, 0.63471, -3.13111, -0.0559845, -0.108688, -0.010319, -0.44314, 0.635102, -3.13244, -0.0550957, -0.106122, 0.00685993, -0.0050912, -0.0145774, -0.00692269, -0.00679034, -0.00319785
0.0780266, 0.10774, -0.773838, -0.916233, -1.45625, -0.626127, 1.07027, -0.256717, 0.00625668, 0.00314013, -0.014205, -3.84924e-05, -0.0252601, 0.00298617, -0.00106013, 0.325081, 15.4221, 17.8122, 15.1703, 0.865355, 3.46042, -0.0356336, 0.000718043, -0.00167562, -0.000340984, -0.00125595, -0.0017389, 0.000841029, 0.0112948, -0.000686582, 0.0115506, 0.0342042, 0.0423136, 0.0394069, -0.0109539, -0.444841, 0.634696, -3.13108, -0.0560035, -0.108741, -0.010322, -0.443144, 0.635097, -3.13245, -0.0550817, -0.10609, 0.00706543, -0.00523486, -0.0149959, -0.00496966, -0.00642931, -0.00426321
0.0790266, 0.107746, -0.773839, -0.916252, -1.45624, -0.626146, 1.07027, -0.256717, 0.00753685, -6.43948e-05, -0.0157467, 0.00350144, -0.023479, 0.00143547, -0.000469, 0.360787, 15.5331, 17.8876, 15.0195, 0.858946, 3.48239, -0.0420422, 0.000702038, -0.00167485, -0.000353998, -0.00128862, -0.00178197, 0.000876937, 0.0129255, -0.000666814, 0.0123345, 0.0335677, 0.0369096, 0.0395123, -0.0109468, -0.444846, 0.63468, -3.13105, -0.0560231, -0.108794, -0.0103317, -0.443151, 0.635094, -3.13245, -0.0550444, -0.106078, 0.00727374, -0.00538009, -0.0154193, -0.00644233, -0.00662046, -0.00401831
0.0800266, 0.107749, -0.773833, -0.916267, -1.45624, -0.626168, 1.07028, -0.256715, 0.00409927, -0.000547665, -0.0117718, 0.00149954, -0.0221017, 0.00169338, -0.000787088, 0.436165, 15.5688, 17.8876, 15.0552, 0.852538, 3.46774, -0.0292249, 0.000691071, -0.00167506, -0.000365179, -0.00132217, -0.00184239, 0.000907878, 0.0127728, 0.000575603, 0.0134034, 0.0356716, 0.0369494, 0.0426891, -0.0109394, -0.444852, 0.634665, -3.13101, -0.0560432, -0.10885, -0.0103361, -0.443157, 0.635089, -3.13245, -0.0550154, -0.106041, 0.00748486, -0.00552686, -0.0158476, -0.00619822, -0.00553089, -0.0033616
0.0810266, 0.107757, -0.773829, -0.91628, -1.45623, -0.626189, 1.07028, -0.256714, 0.0033613, 0.00215806, -0.0110458, -0.00333291, -0.0260675, 0.00100305, -0.000524502, 0.436165, 15.6046, 17.848, 14.9799, 0.858946, 3.47507, -0.0292249, 0.000680356, -0.00167525, -0.000379704, -0.00136218, -0.00189631, 0.000936896, 0.0120652, 0.000925483, 0.0126441, 0.0356952, 0.0467116, 0.0444041, -0.0109318, -0.444858, 0.634649, -3.13097, -0.0560639, -0.108906, -0.0103402, -0.443163, 0.635087, -3.13246, -0.0549898, -0.106015, 0.00769877, -0.00567515, -0.0162807, -0.00523933, -0.00529789, -0.00450099
0.0820266, 0.107768, -0.773825, -0.916294, -1.45624, -0.626209, 1.07028, -0.256713, 0.0104829, 0.000955791, -0.010609, -0.00272969, -0.0242839, 0.00132029, 0.000871202, 0.400459, 15.6442, 17.8122, 14.9799, 0.858946, 3.46042, -0.0621838, 0.000672737, -0.00167599, -0.000392153, -0.00139787, -0.00195426, 0.000957808, 0.00906882, 0.00106646, 0.0131679, 0.0360807, 0.0442406, 0.0526003, -0.010924, -0.444863, 0.634632, -3.13094, -0.0560851, -0.108965, -0.0103409, -0.443168, 0.635082, -3.13246, -0.0549774, -0.105985, 0.00791545, -0.00582496, -0.0167186, -0.00207727, -0.00520607, -0.00420715
0.0830266, 0.107774, -0.773819, -0.916314, -1.45623, -0.626224, 1.07029, -0.256717, 0.00962804, 0.00323413, -0.0151833, -0.00220061, -0.0226426, 0.00123325, -0.000402418, 0.475838, 15.6799, 17.848, 14.9799, 0.852538, 3.45309, -0.0356336, 0.000661258, -0.00167564, -0.000404476, -0.00143188, -0.00200943, 0.000984816, 0.0102045, 0.000585847, 0.0125869, 0.0337057, 0.0457889, 0.0516731, -0.010916, -0.444869, 0.634615, -3.1309, -0.0561069, -0.109025, -0.0103452, -0.443175, 0.635077, -3.13246, -0.0549562, -0.105961, 0.00813491, -0.00597625, -0.0171612, -0.00293283, -0.00587304, -0.00531222
0.0840266, 0.107782, -0.773817, -0.916326, -1.45623, -0.626244, 1.07029, -0.256713, 0.0100501, 6.61937e-05, -0.0128861, -0.000917468, -0.0176832, 0.000883504, 0.000206534, 0.511544, 15.791, 17.7765, 14.9442, 0.870848, 3.45309, -0.0484509, 0.000650144, -0.00167697, -0.000419772, -0.0014724, -0.00206487, 0.00101515, 0.00975948, 0.00166574, 0.0139288, 0.0340254, 0.0387307, 0.0566016, -0.0109077, -0.444875, 0.634598, -3.13086, -0.0561293, -0.109086, -0.0103492, -0.44318, 0.635074, -3.13246, -0.0549302, -0.105937, 0.00835714, -0.00612902, -0.0176085, -0.00239958, -0.0049443, -0.0043826
0.0850266, 0.107789, -0.773809, -0.916349, -1.45623, -0.626265, 1.07029, -0.256709, 0.0102665, 0.00135357, -0.0146856, 9.36382e-06, -0.01842, 0.000635008, 0.000883745, 0.551216, 15.7513, 17.848, 14.9084, 0.883666, 3.45309, -0.0685925, 0.000636723, -0.00167652, -0.000432301, -0.00150599, -0.00212906, 0.00105421, 0.0104011, 0.00140967, 0.0141851, 0.0344531, 0.040805, 0.0555956, -0.0108992, -0.444881, 0.63458, -3.13082, -0.0561522, -0.109149, -0.010355, -0.443188, 0.635068, -3.13246, -0.0548915, -0.105902, 0.00858211, -0.00628324, -0.0180604, -0.00282337, -0.00538036, -0.00462586
0.0860266, 0.107798, -0.773803, -0.916365, -1.45623, -0.626278, 1.07029, -0.256709, 0.0139535, 0.00118845, -0.0155102, -0.000989632, -0.0177613, 0.000186576, 0.000589216, 0.586922, 15.7513, 17.7765, 14.9442, 0.865355, 3.46042, -0.0685925, 0.000628906, -0.00167838, -0.000445221, -0.0015399, -0.00219081, 0.00107602, 0.00898946, 0.00153503, 0.0139571, 0.0333078, 0.0417142, 0.0614429, -0.0108905, -0.444888, 0.634562, -3.13078, -0.0561758, -0.109214, -0.0103551, -0.443192, 0.635062, -3.13246, -0.0548801, -0.105872, 0.00880983, -0.00643891, -0.018517, -0.00117759, -0.00535909, -0.0052109
0.0870266, 0.107813, -0.773795, -0.916382, -1.45623, -0.626295, 1.07029, -0.256707, 0.0149616, 0.00412105, -0.0170888, 5.4971e-05, -0.0185312, 0.000150262, 0.000867568, 0.551216, 15.7513, 17.7369, 14.9084, 0.877257, 3.46042, -0.0814099, 0.000621845, -0.00167969, -0.000460064, -0.00157733, -0.00225445, 0.00109897, 0.00872242, 0.00129079, 0.0143763, 0.0342228, 0.0452791, 0.0617488, -0.0108816, -0.444894, 0.634543, -3.13073, -0.0561999, -0.10928, -0.0103544, -0.443198, 0.635057, -3.13245, -0.0548675, -0.105841, 0.00904028, -0.00659599, -0.0189781, -0.000701839, -0.00575552, -0.00523731
0.0880266, 0.107821, -0.773795, -0.916407, -1.45623, -0.626312, 1.07029, -0.25671, 0.0104544, 0.00457128, -0.0201495, 0.00170952, -0.0185026, -0.000151684, -0.000371027, 0.586922, 15.8267, 17.7765, 14.8331, 0.877257, 3.46774, -0.0557752, 0.000605365, -0.00167964, -0.000474052, -0.00161198, -0.00231054, 0.00113282, 0.0121242, 0.000953444, 0.0146202, 0.0341431, 0.0455395, 0.0570306, -0.0108725, -0.444901, 0.634524, -3.13069, -0.0562246, -0.109348, -0.0103627, -0.443206, 0.635051, -3.13245, -0.0548385, -0.105823, 0.00927346, -0.00675447, -0.0194438, -0.00386541, -0.00637523, -0.00570024
0.0890266, 0.107833, -0.773787, -0.916429, -1.45622, -0.626327, 1.07029, -0.256713, 0.0114308, 0.00674586, -0.0182954, 0.00199992, -0.013417, -0.000357834, -0.00123067, 0.586922, 15.8267, 17.7765, 14.7934, 0.865355, 3.47507, -0.0292249, 0.000595245, -0.00168031, -0.00048888, -0.00164903, -0.00237338, 0.00115829, 0.00971511, 0.00210806, 0.0157479, 0.0340782, 0.0443461, 0.0642891, -0.0108631, -0.444908, 0.634504, -3.13064, -0.0562499, -0.109417, -0.0103645, -0.443212, 0.635046, -3.13245, -0.0548231, -0.105796, 0.00950935, -0.00691434, -0.0199139, -0.00134873, -0.00530739, -0.00486921
0.0900266, 0.107843, -0.773782, -0.916443, -1.45622, -0.626341, 1.07029, -0.256715, 0.0103528, 0.00519158, -0.017369, 0.00211767, -0.0147597, -0.000498906, -0.00129515, 0.6623, 15.8267, 17.6615, 14.7577, 0.865355, 3.48239, -0.0164075, 0.000585006, -0.00168302, -0.000506125, -0.00169031, -0.00243543, 0.00118249, 0.0108667, 0.00232113, 0.0165004, 0.0360987, 0.044417, 0.0650214, -0.0108534, -0.444915, 0.634484, -3.1306, -0.0562758, -0.109488, -0.0103664, -0.443217, 0.635042, -3.13245, -0.0548102, -0.105772, 0.00974794, -0.00707558, -0.0203885, -0.00231908, -0.00530493, -0.00467256
0.0910266, 0.107856, -0.773779, -0.916473, -1.45622, -0.626353, 1.0703, -0.256714, 0.0122187, 0.00314659, -0.0213256, 0.00137365, -0.0110857, 0.000218119, -0.000626062, 0.626595, 15.8624, 17.7369, 14.7577, 0.865355, 3.46774, -0.0228162, 0.000572792, -0.00168238, -0.000518933, -0.00172351, -0.00249443, 0.00121369, 0.0111902, 0.00197041, 0.0155718, 0.0327737, 0.0405767, 0.0671051, -0.0108436, -0.444922, 0.634463, -3.13055, -0.0563023, -0.109561, -0.0103697, -0.443225, 0.635033, -3.13244, -0.0547873, -0.105755, 0.00998923, -0.00723817, -0.0208674, -0.0023236, -0.00582128, -0.00610361
0.0920266, 0.107868, -0.773776, -0.91649, -1.45622, -0.626367, 1.0703, -0.256713, 0.0117902, 0.00156027, -0.0174033, 0.00172239, -0.013459, 0.000151553, 5.73527e-05, 0.6623, 15.9021, 17.6615, 14.722, 0.877257, 3.46774, -0.0356336, 0.000561806, -0.0016845, -0.000536112, -0.00176499, -0.00255694, 0.00124163, 0.0113463, 0.00260421, 0.0172406, 0.037349, 0.0410868, 0.0694391, -0.0108335, -0.444929, 0.634442, -3.1305, -0.0563295, -0.109636, -0.0103718, -0.443231, 0.635029, -3.13243, -0.0547697, -0.105734, 0.0102332, -0.00740209, -0.0213508, -0.00237538, -0.00537485, -0.00492908
0.0930266, 0.107874, -0.773771, -0.916515, -1.45622, -0.626378, 1.0703, -0.256708, 0.00973892, 0.0013331, -0.0186495, 0.00112682, -0.0146995, -0.000165626, 0.0014963, 0.777352, 15.9021, 17.6258, 14.722, 0.877257, 3.47507, -0.0750012, 0.00054691, -0.0016866, -0.000551252, -0.00179926, -0.0026212, 0.00128141, 0.0130808, 0.00254327, 0.0172354, 0.0375582, 0.0430676, 0.0665025, -0.0108231, -0.444937, 0.634421, -3.13045, -0.0563573, -0.109712, -0.0103775, -0.443237, 0.635021, -3.13242, -0.0547347, -0.105711, 0.0104799, -0.00756732, -0.0218384, -0.00385607, -0.00566376, -0.00554451
0.0940266, 0.107894, -0.77376, -0.916545, -1.45621, -0.626388, 1.0703, -0.256708, 0.0128102, 0.00287167, -0.024232, 0.00249837, -0.0110049, -0.000106963, 0.000997541, 0.701973, 15.8267, 17.6615, 14.6466, 0.877257, 3.47507, -0.0750012, 0.000537645, -0.00168709, -0.000566558, -0.001833, -0.00268937, 0.00130922, 0.0128162, 0.0019207, 0.0165408, 0.0339856, 0.0418406, 0.0686829, -0.0108125, -0.444944, 0.634399, -3.1304, -0.0563857, -0.10979, -0.0103773, -0.443245, 0.635014, -3.13241, -0.0547189, -0.105685, 0.0107292, -0.00773386, -0.0223304, -0.00327269, -0.0064371, -0.00671606
0.0950266, 0.107907, -0.773757, -0.916567, -1.45622, -0.626406, 1.0703, -0.256707, 0.0131294, 0.00442071, -0.0228232, 0.000818296, -0.00891863, -6.87179e-05, 0.000902391, 0.701973, 15.8624, 17.5901, 14.6823, 0.895568, 3.47507, -0.0814099, 0.000525906, -0.00168913, -0.000582544, -0.00187282, -0.00276223, 0.00133783, 0.0111976, 0.00273577, 0.0169876, 0.0341173, 0.0435083, 0.0738496, -0.0108016, -0.444952, 0.634376, -3.13035, -0.0564147, -0.10987, -0.0103794, -0.443251, 0.635007, -3.1324, -0.0547023, -0.105653, 0.0109812, -0.00790168, -0.0228265, -0.00146881, -0.00573819, -0.0066473
0.0960266, 0.107923, -0.773755, -0.916597, -1.45621, -0.626417, 1.0703, -0.256712, 0.00988171, 0.00333545, -0.0235294, 0.0013717, -0.0110685, 0.000227398, -0.000856465, 0.701973, 15.8624, 17.5901, 14.6466, 0.889159, 3.46774, -0.0420422, 0.000512153, -0.00168936, -0.000598328, -0.00191085, -0.00282442, 0.00136593, 0.013906, 0.00251096, 0.0175603, 0.0362876, 0.0442524, 0.0723517, -0.0107905, -0.44496, 0.634353, -3.1303, -0.0564444, -0.109952, -0.0103832, -0.44326, 0.634999, -3.13239, -0.0546872, -0.105639, 0.0112358, -0.00807076, -0.0233269, -0.00394694, -0.00623546, -0.00676908
0.0970266, 0.107933, -0.773753, -0.916626, -1.45621, -0.626432, 1.0703, -0.256715, 0.00912979, 0.00468766, -0.027168, -0.00133351, -0.0134346, 0.000424324, -0.00152041, 0.777352, 15.9021, 17.5901, 14.6069, 0.901976, 3.46042, -0.0164075, 0.000495387, -0.00169002, -0.000614948, -0.00195093, -0.00289172, 0.001402, 0.0150945, 0.00190035, 0.0163139, 0.0347666, 0.04992, 0.071593, -0.0107792, -0.444968, 0.634329, -3.13025, -0.0564747, -0.110035, -0.0103898, -0.443268, 0.63499, -3.13239, -0.0546603, -0.105619, 0.011493, -0.00824109, -0.0238314, -0.00476593, -0.00704692, -0.00860587
0.0980266, 0.107949, -0.773749, -0.916657, -1.45621, -0.626445, 1.0703, -0.256713, 0.0104875, 0.00360193, -0.0297498, -0.000322978, -0.0106987, 1.2708e-05, -0.000301528, 0.777352, 15.9021, 17.5901, 14.5712, 0.920287, 3.46774, -0.0356336, 0.000481362, -0.0016912, -0.00063051, -0.00198635, -0.00296312, 0.00143719, 0.015591, 0.00185101, 0.0162944, 0.0329082, 0.047147, 0.0724218, -0.0107676, -0.444977, 0.634305, -3.13019, -0.0565057, -0.11012, -0.0103934, -0.443276, 0.634981, -3.13237, -0.0546356, -0.105595, 0.0117529, -0.00841265, -0.0243401, -0.00499871, -0.00728646, -0.0091702
0.0990266, 0.107968, -0.773745, -0.916686, -1.45621, -0.626452, 1.07031, -0.256714, 0.0123596, 0.00592188, -0.0300668, -0.00125243, -0.0117651, 0.000280559, -0.000675736, 0.737679, 15.9021, 17.5147, 14.6069, 0.895568, 3.46042, -0.0228162, 0.000470972, -0.00169288, -0.000647174, -0.00202487, -0.00302962, 0.00146099, 0.0143664, 0.00186531, 0.0165007, 0.033915, 0.05148, 0.0762629, -0.0107557, -0.444985, 0.634281, -3.13014, -0.0565373, -0.110207, -0.0103932, -0.443283, 0.634972, -3.13236, -0.0546291, -0.10558, 0.0120154, -0.00858543, -0.0248528, -0.00353133, -0.00740445, -0.0093916
0.100027, 0.107978, -0.773742, -0.916718, -1.45621, -0.626465, 1.07031, -0.256713, 0.0109704, 0.00540774, -0.0313293, 0.00161208, -0.0132772, -0.000354881, -0.000213131, 0.813057, 15.8624, 17.479, 14.4958, 0.889159, 3.47507, -0.0292249, 0.000452832, -0.0016941, -0.00066538, -0.00206484, -0.00309929, 0.00150424, 0.0167218, 0.00160216, 0.01752, 0.0358761, 0.051332, 0.0731517, -0.0107435, -0.444994, 0.634256, -3.13008, -0.0565696, -0.110296, -0.0104005, -0.443292, 0.634964, -3.13235, -0.054593, -0.105562, 0.0122806, -0.0087594, -0.0253696, -0.00567712, -0.00793735, -0.00906062
0.101027, 0.107996, -0.773737, -0.91675, -1.45621, -0.626476, 1.07031, -0.25671, 0.0118446, 0.00483922, -0.0321156, 3.31382e-05, -0.0195703, -0.000507393, 0.00107862, 0.813057, 15.8267, 17.4393, 14.5355, 0.895568, 3.48239, -0.0621838, 0.000440204, -0.00169599, -0.000681037, -0.00209986, -0.00317687, 0.00153823, 0.0179078, 0.00101097, 0.0172962, 0.0380436, 0.0574021, 0.0718317, -0.0107311, -0.445003, 0.63423, -3.13002, -0.0566025, -0.110386, -0.0104019, -0.443299, 0.634954, -3.13233, -0.0545722, -0.105533, 0.0125483, -0.00893455, -0.0258904, -0.00655532, -0.00874471, -0.00989398
0.102027, 0.108015, -0.773734, -0.916785, -1.45621, -0.626485, 1.07031, -0.256707, 0.0124579, 0.00352528, -0.033747, 0.000864939, -0.0142365, 0.000475886, 0.00143116, 0.813057, 15.8267, 17.4393, 14.4958, 0.883666, 3.46042, -0.0814099, 0.000425725, -0.00169684, -0.000698392, -0.00213862, -0.0032463, 0.00157433, 0.0178106, 0.00122023, 0.0176439, 0.0368151, 0.0518228, 0.0749089, -0.0107184, -0.445012, 0.634204, -3.12996, -0.0566361, -0.110479, -0.010405, -0.443308, 0.634944, -3.13231, -0.0545486, -0.105519, 0.0128186, -0.00911087, -0.0264151, -0.0062212, -0.0087134, -0.0100645
0.103027, 0.108034, -0.773728, -0.916822, -1.45621, -0.6265, 1.07031, -0.256709, 0.0120274, 0.00340976, -0.0340081, 0.000512746, -0.0160706, -0.000225018, 0.000479386, 0.85273, 15.791, 17.4036, 14.4958, 0.901976, 3.47507, -0.0685925, 0.000409968, -0.00169782, -0.000714732, -0.00217524, -0.00332825, 0.00161068, 0.0187082, 0.00131145, 0.017957, 0.0376925, 0.0544249, 0.076469, -0.0107055, -0.445021, 0.634177, -3.1299, -0.0566704, -0.110573, -0.010409, -0.443317, 0.634932, -3.13229, -0.0545254, -0.105487, 0.0130915, -0.00928833, -0.0269437, -0.00686947, -0.00883655, -0.0103447
0.104027, 0.108054, -0.77373, -0.916863, -1.4562, -0.62651, 1.07031, -0.25671, 0.012567, 0.000770999, -0.0350344, 0.00112914, -0.0120207, -0.000421085, 8.2232e-05, 0.85273, 15.8624, 17.4036, 14.4601, 0.901976, 3.48239, -0.0621838, 0.000391478, -0.00169821, -0.000731013, -0.00220995, -0.00339896, 0.001649, 0.0191884, 0.00169445, 0.0182698, 0.0362045, 0.0492151, 0.0802064, -0.0106922, -0.44503, 0.63415, -3.12984, -0.0567054, -0.110669, -0.0104155, -0.443327, 0.63492, -3.13227, -0.0544999, -0.105474, 0.0133669, -0.00946692, -0.0274763, -0.00710974, -0.00865437, -0.0105974
0.105027, 0.108072, -0.773724, -0.916899, -1.45621, -0.62652, 1.07031, -0.256715, 0.0145368, 0.00375317, -0.0340795, -0.000118392, -0.0137404, 0.000261957, -0.00187796, 0.928108, 15.8624, 17.3282, 14.4958, 0.901976, 3.46774, -0.00999879, 0.000377711, -0.00170002, -0.00074756, -0.0022473, -0.00348064, 0.00167643, 0.0173403, 0.00184505, 0.0188225, 0.0385818, 0.05468, 0.086635, -0.0106787, -0.44504, 0.634122, -3.12978, -0.056741, -0.110767, -0.010417, -0.443335, 0.634908, -3.13225, -0.0544919, -0.105446, 0.0136449, -0.00964662, -0.0280126, -0.00503503, -0.00862467, -0.0104516
0.106027, 0.1081, -0.773718, -0.916946, -1.45621, -0.626532, 1.07031, -0.256709, 0.0198084, 0.00369139, -0.0399635, 0.000729341, -0.0147538, -9.65197e-05, -0.000302536, 0.85273, 15.8267, 17.4036, 14.4601, 0.895568, 3.47507, -0.0356336, 0.000363166, -0.00169891, -0.000763375, -0.00228345, -0.00356241, 0.00171905, 0.0175749, 0.000657513, 0.0177737, 0.0360643, 0.0560699, 0.0868922, -0.0106649, -0.44505, 0.634094, -3.12971, -0.0567774, -0.110867, -0.0104189, -0.443347, 0.634895, -3.13223, -0.0544611, -0.10542, 0.0139255, -0.00982742, -0.0285528, -0.00487203, -0.00999093, -0.0120652
0.107027, 0.108119, -0.773712, -0.916981, -1.45621, -0.626545, 1.07031, -0.25671, 0.019999, 0.00588078, -0.0367698, -0.00271321, -0.0115503, -0.000335532, 0.000273027, 0.928108, 15.8267, 17.2925, 14.4601, 0.908385, 3.48239, -0.0484509, 0.000348023, -0.00170085, -0.000782287, -0.00232531, -0.0036464, 0.00175464, 0.0147141, 0.00213803, 0.0182388, 0.0357666, 0.0588036, 0.0942313, -0.0106509, -0.44506, 0.634065, -3.12965, -0.0568144, -0.110969, -0.0104214, -0.443356, 0.634884, -3.13221, -0.0544417, -0.105393, 0.0142086, -0.0100093, -0.0290967, -0.00182523, -0.00859709, -0.0119313
0.108027, 0.108147, -0.773711, -0.917028, -1.4562, -0.626555, 1.07031, -0.256708, 0.0229956, 0.00354732, -0.0372084, -0.000325666, -0.0135102, 0.000318908, 0.00588797, 0.888436, 15.8624, 17.2925, 14.3848, 0.913878, 3.46774, -0.0750012, 0.000331266, -0.00170086, -0.0007992, -0.0023604, -0.00372547, 0.00179397, 0.0152902, 0.00163278, 0.01929, 0.0389323, 0.0568733, 0.0911199, -0.0106365, -0.44507, 0.634036, -3.12958, -0.0568522, -0.111073, -0.0104251, -0.443367, 0.63487, -3.13219, -0.0544174, -0.105375, 0.0144943, -0.0101922, -0.0296444, -0.00217086, -0.00931848, -0.0114766
0.109027, 0.108167, -0.773703, -0.917076, -1.4562, -0.626566, 1.07031, -0.256709, 0.0214557, 0.00675304, -0.041366, -0.000427182, -0.0105686, -5.86156e-05, 0.00384415, 1.00349, 15.8267, 17.3282, 14.3848, 0.926695, 3.47507, -0.0621838, 0.000313049, -0.00170086, -0.000815873, -0.00239721, -0.00381407, 0.00183772, 0.0160178, 0.00154994, 0.0187787, 0.0359527, 0.0590479, 0.0919349, -0.0106219, -0.44508, 0.634006, -3.12951, -0.0568906, -0.111178, -0.0104299, -0.443378, 0.634856, -3.13216, -0.054387, -0.105344, 0.0147825, -0.0103762, -0.0301957, -0.00257003, -0.00960747, -0.0125914
0.110027, 0.1082, -0.773697, -0.917115, -1.45621, -0.626578, 1.07031, -0.256707, 0.0274036, 0.0104003, -0.0418321, -0.000442341, -0.00762365, -0.000581577, 0.00380737, 0.963814, 15.8624, 17.2529, 14.3848, 0.920287, 3.48971, -0.0878186, 0.000302155, -0.00170322, -0.000833932, -0.0024341, -0.00390594, 0.00186602, 0.0121483, 0.00201539, 0.019113, 0.0348017, 0.0615665, 0.100995, -0.010607, -0.44509, 0.633975, -3.12945, -0.0569298, -0.111286, -0.0104273, -0.443387, 0.634843, -3.13214, -0.0543813, -0.10531, 0.0150731, -0.0105613, -0.0307507, 0.0015358, -0.00919341, -0.0125348
0.111027, 0.108224, -0.773693, -0.917165, -1.45621, -0.62659, 1.07031, -0.256714, 0.0257815, 0.00691805, -0.0439948, 0.000422159, -0.0106332, 0.00042611, 0.000352118, 1.03919, 15.9021, 17.2529, 14.3491, 0.926695, 3.46774, -0.0228162, 0.000284092, -0.00170251, -0.00085153, -0.00247502, -0.00399155, 0.00190178, 0.0155291, 0.001187, 0.0193566, 0.0370095, 0.0601721, 0.101353, -0.0105917, -0.445101, 0.633944, -3.12938, -0.0569696, -0.111396, -0.0104314, -0.443399, 0.634828, -3.13211, -0.0543645, -0.105288, 0.0153663, -0.0107473, -0.0313093, -0.00152921, -0.0103332, -0.0130991
0.112027, 0.108256, -0.773684, -0.917218, -1.4562, -0.6266, 1.07031, -0.256708, 0.0307, 0.00529642, -0.046613, 0.00195605, -0.0127206, -0.000258442, 0.00135021, 1.00349, 15.9021, 17.2925, 14.2737, 0.932189, 3.48239, -0.0484509, 0.00026737, -0.00170254, -0.000869129, -0.00250889, -0.00408396, 0.00194904, 0.0157416, 0.000509694, 0.0193929, 0.037125, 0.0604191, 0.103539, -0.0105762, -0.445112, 0.633913, -3.1293, -0.0570102, -0.111507, -0.0104339, -0.443411, 0.634813, -3.13208, -0.0543309, -0.105257, 0.015662, -0.0109343, -0.0318714, -0.00142434, -0.0112069, -0.0136472
0.113027, 0.108283, -0.77368, -0.917268, -1.4562, -0.626609, 1.07031, -0.256714, 0.0319794, 0.00320902, -0.0433956, -0.00193414, -0.0137941, -0.000443547, -0.000399491, 1.07887, 15.9378, 17.2529, 14.2737, 0.920287, 3.48971, -0.00999879, 0.000250476, -0.00170286, -0.000887175, -0.00254701, -0.00417208, 0.00198228, 0.0144469, 0.00140824, 0.0195683, 0.038175, 0.0624338, 0.112572, -0.0105604, -0.445123, 0.63388, -3.12923, -0.0570515, -0.111621, -0.0104364, -0.443422, 0.634798, -3.13205, -0.0543197, -0.105235, 0.0159602, -0.0111224, -0.0324371, 0.000117635, -0.010454, -0.013939
0.114027, 0.108315, -0.773671, -0.917327, -1.4562, -0.626619, 1.07031, -0.256714, 0.0302459, 0.00477772, -0.0460594, -0.000675568, -0.0105925, 0.000246847, 6.4423e-05, 1.11457, 15.9735, 17.2925, 14.234, 0.926695, 3.47507, -0.0164075, 0.000233064, -0.00170127, -0.000903715, -0.00258281, -0.00426616, 0.00202615, 0.0154048, 0.00134276, 0.0199551, 0.0376565, 0.0613084, 0.111323, -0.0105443, -0.445134, 0.633848, -3.12916, -0.0570936, -0.111737, -0.0104388, -0.443436, 0.63478, -3.13202, -0.0542927, -0.105205, 0.0162609, -0.0113113, -0.0330063, -0.000563076, -0.0107491, -0.0141926
0.115027, 0.108353, -0.773659, -0.917384, -1.4562, -0.626629, 1.07031, -0.256711, 0.0297964, 0.00774822, -0.047135, 0.000149219, -0.0128864, 0.000164573, 0.00129979, 1.11457, 15.9378, 17.2925, 14.1983, 0.932189, 3.47507, -0.0484509, 0.000219517, -0.00170066, -0.000920891, -0.0026185, -0.00436731, 0.00206679, 0.0159283, 0.00112337, 0.020612, 0.0397077, 0.0663564, 0.109386, -0.0105279, -0.445146, 0.633814, -3.12908, -0.0571363, -0.111854, -0.0104373, -0.443449, 0.634763, -3.13199, -0.0542716, -0.105167, 0.016564, -0.0115013, -0.033579, -0.000821929, -0.0111864, -0.0141507
0.116027, 0.108383, -0.773652, -0.917438, -1.4562, -0.626635, 1.07031, -0.256706, 0.02766, 0.00727662, -0.0491753, 0.001686, -0.00943546, 0.000109722, 0.00166504, 1.18995, 16.0092, 17.2172, 14.1229, 0.926695, 3.47507, -0.0685925, 0.000201521, -0.00170169, -0.000940589, -0.00265497, -0.00445916, 0.0021146, 0.0175761, 0.00129377, 0.0211404, 0.0388835, 0.0631794, 0.108313, -0.0105112, -0.445157, 0.633781, -3.12901, -0.0571798, -0.111974, -0.0104401, -0.44346, 0.634748, -3.13196, -0.05424, -0.105145, 0.0168696, -0.0116921, -0.034155, -0.00220424, -0.0112744, -0.0143176
0.117027, 0.108421, -0.773637, -0.917495, -1.4562, -0.626645, 1.07031, -0.256707, 0.0312498, 0.00955322, -0.0477827, 0.00182668, -0.012203, -0.000198115, 0.00138679, 1.18995, 15.9735, 17.1418, 14.0872, 0.938597, 3.48239, -0.0750012, 0.000188413, -0.00170134, -0.000959223, -0.00269406, -0.00456425, 0.00215116, 0.0157096, 0.00146061, 0.0221227, 0.0418373, 0.0683836, 0.113949, -0.0104942, -0.445169, 0.633746, -3.12893, -0.0572241, -0.112096, -0.0104375, -0.443473, 0.634731, -3.13193, -0.0542266, -0.105104, 0.0171776, -0.0118839, -0.0347344, -0.000113525, -0.0112453, -0.0137834
0.118027, 0.108458, -0.773626, -0.917564, -1.4562, -0.626652, 1.07031, -0.256706, 0.036506, 0.0103214, -0.0535995, 0.00111839, -0.00959004, -0.000132073, 0.000479356, 1.22962, 15.9735, 17.2172, 14.0872, 0.951415, 3.48239, -0.0621838, 0.000170985, -0.00169944, -0.000974042, -0.00272327, -0.00466731, 0.00219683, 0.0146252, 0.000750541, 0.0207264, 0.0373807, 0.0687193, 0.119414, -0.0104768, -0.445181, 0.633711, -3.12885, -0.0572691, -0.112219, -0.0104387, -0.443488, 0.63471, -3.13188, -0.0542002, -0.105068, 0.017488, -0.0120766, -0.0353172, 0.00140205, -0.0120943, -0.0156885
0.119027, 0.108499, -0.773614, -0.917627, -1.4562, -0.626661, 1.07031, -0.256709, 0.0414176, 0.0109306, -0.0548639, 0.00159906, -0.0119793, -8.80462e-05, -0.00087897, 1.22962, 15.9735, 17.1775, 14.0475, 0.956908, 3.48239, -0.0292249, 0.00015632, -0.00169853, -0.000991721, -0.00275881, -0.00477281, 0.00223317, 0.013503, 0.000290787, 0.0209951, 0.0387399, 0.0717184, 0.125459, -0.0104592, -0.445193, 0.633676, -3.12877, -0.0573148, -0.112345, -0.010437, -0.443502, 0.634691, -3.13185, -0.0541888, -0.105031, 0.0178009, -0.0122702, -0.0359033, 0.00282965, -0.0127118, -0.0159314
0.120027, 0.10854, -0.773599, -0.917691, -1.4562, -0.626666, 1.07031, -0.256712, 0.0407726, 0.0113393, -0.0583716, 0.00184534, -0.00848395, -5.86955e-05, -0.000806717, 1.26533, 15.9735, 17.1061, 14.0118, 0.945006, 3.48239, -0.0228162, 0.000142813, -0.0016983, -0.00100983, -0.00279313, -0.00487931, 0.00226762, 0.0144218, 0.000229568, 0.0207203, 0.0362814, 0.0702828, 0.125776, -0.0104412, -0.445205, 0.633639, -3.12869, -0.0573613, -0.112473, -0.010434, -0.443515, 0.634672, -3.13181, -0.0541811, -0.104994, 0.0181163, -0.0124646, -0.0364926, 0.00224949, -0.0129995, -0.0168628
0.121027, 0.108577, -0.773589, -0.917755, -1.4562, -0.626675, 1.07031, -0.256706, 0.0393764, 0.0140184, -0.0579521, 0.00211631, -0.00659722, -3.91289e-05, 0.000932717, 1.34071, 16.0092, 17.0307, 13.9722, 0.951415, 3.48239, -0.0621838, 0.000124931, -0.00169766, -0.0010284, -0.00283026, -0.00498661, 0.00231963, 0.0140369, 0.000817863, 0.0216755, 0.0373031, 0.0721367, 0.125892, -0.0104229, -0.445218, 0.633603, -3.12861, -0.0574085, -0.112603, -0.010435, -0.443529, 0.634653, -3.13177, -0.0541469, -0.104959, 0.018434, -0.0126599, -0.0370852, 0.00285899, -0.0126062, -0.0164709
0.122027, 0.108623, -0.773573, -0.917828, -1.45621, -0.626679, 1.07031, -0.256711, 0.0409288, 0.0145714, -0.0625362, 0.00137942, -0.004214, 0.000245183, -0.00130162, 1.305, 15.9735, 17.0307, 13.9722, 0.932189, 3.47507, -0.00999879, 0.000111225, -0.0016968, -0.00104419, -0.00285727, -0.00509934, 0.00235295, 0.0142809, 0.000381538, 0.0207619, 0.0341752, 0.0722787, 0.12988, -0.0104044, -0.445231, 0.633565, -3.12852, -0.0574565, -0.112735, -0.0104313, -0.443544, 0.63463, -3.13172, -0.0541428, -0.104916, 0.0187541, -0.012856, -0.0376809, 0.00301595, -0.0132386, -0.0180008
0.123027, 0.108663, -0.773558, -0.917901, -1.45621, -0.626688, 1.07031, -0.256703, 0.0391912, 0.014986, -0.0659337, -0.000606497, -0.00813222, -0.000107812, 0.00154676, 1.38038, 15.9378, 17.0307, 13.9008, 0.938597, 3.48239, -0.0750012, 9.24948e-05, -0.00169473, -0.0010618, -0.00289259, -0.00521356, 0.00241118, 0.0166845, -0.000264509, 0.0198572, 0.0335918, 0.0781066, 0.124034, -0.0103854, -0.445244, 0.633527, -3.12844, -0.0575053, -0.11287, -0.0104324, -0.44356, 0.634609, -3.13168, -0.0541006, -0.104873, 0.0190766, -0.013053, -0.0382798, 0.00102999, -0.0141597, -0.019683
0.124027, 0.108705, -0.773551, -0.917969, -1.45621, -0.626694, 1.07031, -0.256703, 0.0426574, 0.0117434, -0.0665531, -0.00152165, -0.0107477, 0.000470661, 0.00103644, 1.41608, 16.0489, 16.9553, 13.9365, 0.938597, 3.46774, -0.0750012, 7.5916e-05, -0.00169414, -0.00107927, -0.00292759, -0.0053219, 0.00245104, 0.0168738, -0.000678011, 0.0198512, 0.0349927, 0.0780593, 0.128957, -0.0103662, -0.445257, 0.633489, -3.12835, -0.0575548, -0.113006, -0.010431, -0.443574, 0.634586, -3.13163, -0.0540876, -0.104842, 0.0194015, -0.0132507, -0.0388819, 0.00118038, -0.0147796, -0.0203102
0.125027, 0.108754, -0.77353, -0.918041, -1.45621, -0.626701, 1.07031, -0.256704, 0.0433674, 0.013842, -0.0698151, -0.00191674, -0.00854223, -0.000737387, 0.000457542, 1.38038, 15.9735, 16.8799, 13.8254, 0.951415, 3.49612, -0.0685925, 6.25912e-05, -0.00169341, -0.00109859, -0.0029621, -0.00544311, 0.00249144, 0.0168632, -0.00056812, 0.0193785, 0.0318895, 0.0803504, 0.13122, -0.0103466, -0.44527, 0.633449, -3.12826, -0.0576051, -0.113144, -0.0104263, -0.443589, 0.634566, -3.13159, -0.0540747, -0.104793, 0.0197288, -0.0134493, -0.039487, 0.00154653, -0.0148645, -0.0213867
0.126027, 0.108802, -0.773511, -0.91812, -1.45621, -0.626705, 1.07031, -0.256705, 0.0395352, 0.0143545, -0.0706865, -0.00311533, -0.00613423, 0.000288303, 7.06276e-05, 1.38038, 15.9378, 16.8442, 13.75, 0.945006, 3.47507, -0.0621838, 4.65998e-05, -0.00169101, -0.00111687, -0.00299668, -0.00555966, 0.00253736, 0.0181286, -0.000240546, 0.0196224, 0.0319247, 0.080165, 0.131115, -0.0103267, -0.445284, 0.63341, -3.12817, -0.0576562, -0.113285, -0.0104237, -0.443606, 0.634543, -3.13154, -0.054054, -0.104753, 0.0200585, -0.0136486, -0.0400951, 0.000583644, -0.0147877, -0.021842
0.127027, 0.108849, -0.773501, -0.918199, -1.45621, -0.626708, 1.07031, -0.256708, 0.040075, 0.0112249, -0.0735534, -0.00583094, -0.0088064, 0.000192202, -0.00093404, 1.38038, 16.0489, 16.7689, 13.75, 0.932189, 3.47507, -0.0356336, 2.87883e-05, -0.00169007, -0.00113276, -0.00302254, -0.00567618, 0.00257775, 0.0200194, -0.00077935, 0.0184781, 0.0305343, 0.0818795, 0.132824, -0.0103065, -0.445298, 0.633369, -3.12808, -0.0577081, -0.113428, -0.0104225, -0.443622, 0.634517, -3.13148, -0.054043, -0.104715, 0.0203905, -0.0138487, -0.0407063, -0.000867864, -0.0155833, -0.0237387
0.128027, 0.108897, -0.773479, -0.918285, -1.45622, -0.626715, 1.07031, -0.256711, 0.0427844, 0.0142731, -0.0743086, -0.00542774, -0.00711668, 0.000399402, -0.00184173, 1.41608, 15.9378, 16.7689, 13.7857, 0.945006, 3.46774, -0.00267457, 1.21361e-05, -0.0016876, -0.0011479, -0.00304967, -0.0058078, 0.00262399, 0.0181492, -0.0005776, 0.019064, 0.0308899, 0.0841934, 0.138699, -0.010286, -0.445311, 0.633328, -3.12799, -0.0577607, -0.113573, -0.0104197, -0.443639, 0.63449, -3.13143, -0.0540237, -0.104655, 0.0207248, -0.0140495, -0.0413204, 0.00127906, -0.0155238, -0.0236327
0.129027, 0.108951, -0.773461, -0.918373, -1.45622, -0.626718, 1.07031, -0.256705, 0.0408814, 0.0137619, -0.0777174, -0.00562142, -0.00955546, 0.000537536, 0.000740115, 1.34071, 15.9378, 16.7689, 13.7143, 0.932189, 3.46042, -0.0557752, -4.822e-06, -0.00168442, -0.00116446, -0.00307831, -0.00592993, 0.00267752, 0.020953, -0.00126495, 0.0187383, 0.0310434, 0.0865889, 0.132806, -0.0102651, -0.445326, 0.633287, -3.1279, -0.0578142, -0.11372, -0.010417, -0.443657, 0.634464, -3.13137, -0.0539939, -0.104613, 0.0210615, -0.0142511, -0.0419374, -0.00113114, -0.0165128, -0.0247873
0.130027, 0.108998, -0.773445, -0.918449, -1.45622, -0.626721, 1.07031, -0.256708, 0.0434197, 0.0164636, -0.0787153, -0.00562448, -0.00767101, 0.000358357, -0.000251639, 1.38038, 15.9378, 16.5824, 13.6389, 0.945006, 3.46042, -0.0356336, -2.08586e-05, -0.00168359, -0.00118542, -0.00311835, -0.00605038, 0.00272008, 0.0192651, -0.000994579, 0.019096, 0.0305884, 0.0888867, 0.138732, -0.0102438, -0.44534, 0.633244, -3.1278, -0.0578684, -0.113869, -0.0104134, -0.443673, 0.634442, -3.13133, -0.0539813, -0.104576, 0.0214005, -0.0144534, -0.0425574, 0.000852566, -0.0163901, -0.0249272
0.131027, 0.109047, -0.773428, -0.918546, -1.45623, -0.626727, 1.07032, -0.256703, 0.0421663, 0.0154722, -0.086369, -0.0070906, -0.00641167, 0.000510172, 0.001291, 1.41608, 15.9378, 16.6578, 13.75, 0.963317, 3.45309, -0.0750012, -4.19857e-05, -0.00167951, -0.00119761, -0.00314007, -0.00618285, 0.00278038, 0.0223155, -0.00203403, 0.0171454, 0.0255913, 0.089031, 0.133735, -0.0102223, -0.445355, 0.633201, -3.12771, -0.0579234, -0.114021, -0.0104138, -0.443693, 0.634409, -3.13126, -0.0539429, -0.104521, 0.0217418, -0.0146563, -0.0431802, -0.00166752, -0.017721, -0.0277305
0.132027, 0.1091, -0.773408, -0.918635, -1.45623, -0.626726, 1.07032, -0.256705, 0.0455403, 0.0154952, -0.0881835, -0.00655105, -0.0040609, 0.000577474, 0.000386478, 1.41608, 15.9021, 16.5824, 13.6746, 0.945006, 3.44668, -0.0621838, -5.90776e-05, -0.00167717, -0.00121672, -0.00317205, -0.00630743, 0.00282867, 0.0213359, -0.00202635, 0.0173412, 0.0246737, 0.0878799, 0.139759, -0.0102004, -0.445369, 0.633158, -3.12761, -0.0579792, -0.114174, -0.0104104, -0.443711, 0.634384, -3.13121, -0.0539235, -0.104482, 0.0220854, -0.01486, -0.0438058, -0.000363524, -0.017886, -0.0280917
0.133027, 0.10915, -0.773389, -0.918724, -1.45624, -0.62673, 1.07032, -0.25671, 0.0480852, 0.014652, -0.0883909, -0.00503755, -0.00329309, 0.000384983, -0.00143737, 1.41608, 15.9021, 16.5824, 13.6746, 0.951415, 3.44668, -0.0164075, -7.81235e-05, -0.00167516, -0.00123432, -0.00320295, -0.00644067, 0.00287596, 0.0210074, -0.00189536, 0.0182669, 0.0258099, 0.0864868, 0.145855, -0.0101781, -0.445384, 0.633114, -3.12751, -0.0580358, -0.11433, -0.0104085, -0.443729, 0.634356, -3.13115, -0.0539066, -0.104431, 0.0224314, -0.0150643, -0.0444342, 0.00023615, -0.0179616, -0.0277742
0.134027, 0.1092, -0.773365, -0.918818, -1.45624, -0.626731, 1.07032, -0.256704, 0.0494846, 0.0189069, -0.0883654, -0.00607282, -0.00221938, 0.00107046, 0.000974827, 1.45576, 15.8267, 16.5824, 13.6389, 0.945006, 3.42471, -0.0685925, -9.65326e-05, -0.0016725, -0.00125224, -0.00323395, -0.00657571, 0.00293698, 0.018882, -0.00154405, 0.0187795, 0.0267659, 0.0911424, 0.148197, -0.0101555, -0.445399, 0.633069, -3.12741, -0.0580933, -0.114488, -0.0104057, -0.443748, 0.634328, -3.13109, -0.0538691, -0.10438, 0.0227796, -0.0152693, -0.0450654, 0.00265041, -0.0177467, -0.0277372
0.135027, 0.109251, -0.773351, -0.918908, -1.45625, -0.626731, 1.07032, -0.256708, 0.0509392, 0.015392, -0.0906895, -0.00693568, -0.0016756, 0.000713638, -0.000807955, 1.45576, 15.9021, 16.5467, 13.5992, 0.945006, 3.42471, -0.0292249, -0.000116876, -0.00167086, -0.00127102, -0.00326508, -0.00670295, 0.00298417, 0.0201067, -0.00170247, 0.0183094, 0.0250495, 0.0889803, 0.152687, -0.0101325, -0.445415, 0.633024, -3.12731, -0.0581515, -0.114649, -0.0104045, -0.443766, 0.6343, -3.13103, -0.0538539, -0.104343, 0.0231301, -0.0154749, -0.0456993, 0.00181898, -0.0181519, -0.0289338
0.136027, 0.109307, -0.773331, -0.919003, -1.45625, -0.626731, 1.07031, -0.256706, 0.0530912, 0.017909, -0.0900857, -0.00934217, -0.00126407, 0.000204491, 0.000173606, 1.41608, 15.9021, 16.5467, 13.6389, 0.945006, 3.43204, -0.0484509, -0.000134558, -0.00166968, -0.00128719, -0.00328802, -0.0068426, 0.00303431, 0.0179676, -0.00107129, 0.0183796, 0.0246927, 0.0938917, 0.158055, -0.0101092, -0.44543, 0.632978, -3.12721, -0.0582105, -0.114811, -0.0104002, -0.443784, 0.634269, -3.13096, -0.0538354, -0.104288, 0.0234829, -0.0156811, -0.0463358, 0.00427311, -0.0176523, -0.0293391
0.137027, 0.109359, -0.77331, -0.919099, -1.45626, -0.626736, 1.07032, -0.256708, 0.049271, 0.0206688, -0.0902728, -0.0101759, -0.00139378, -0.00013494, -0.000358855, 1.45576, 15.8624, 16.5824, 13.6389, 0.956908, 3.43936, -0.0356336, -0.000155076, -0.00166711, -0.00130533, -0.0033202, -0.0069854, 0.00309061, 0.0190648, -0.000613293, 0.0189282, 0.0255288, 0.098333, 0.157321, -0.0100856, -0.445446, 0.632931, -3.1271, -0.0582704, -0.114976, -0.0103984, -0.443803, 0.634239, -3.13089, -0.0538078, -0.104231, 0.0238379, -0.015888, -0.046975, 0.00347553, -0.0174515, -0.0295093
0.138027, 0.109413, -0.773293, -0.919184, -1.45626, -0.626736, 1.07032, -0.256704, 0.0500589, 0.0177427, -0.0871332, -0.0131948, -0.000808429, 0.000452575, 0.00459025, 1.49146, 15.9021, 16.4713, 13.5992, 0.951415, 3.42471, -0.0420422, -0.000172933, -0.00166737, -0.00132753, -0.0033579, -0.0071199, 0.00314137, 0.0180892, 0.000284043, 0.0194744, 0.0270486, 0.0974064, 0.159736, -0.0100616, -0.445462, 0.632884, -3.127, -0.0583311, -0.115144, -0.010394, -0.44382, 0.634212, -3.13084, -0.0537894, -0.10419, 0.0241952, -0.0160954, -0.0476168, 0.00472946, -0.0167362, -0.0295274
0.139027, 0.109468, -0.773273, -0.919284, -1.45627, -0.626735, 1.07032, -0.256703, 0.0488783, 0.0174402, -0.0925038, -0.0109146, -0.000126254, 0.000301717, 0.00442625, 1.45576, 15.8624, 16.5467, 13.6389, 0.938597, 3.42471, -0.0685925, -0.000192459, -0.00166491, -0.00134482, -0.00338634, -0.00726084, 0.00319598, 0.0210956, -0.000530314, 0.0193382, 0.0256881, 0.0963184, 0.156138, -0.0100372, -0.445478, 0.632836, -3.12689, -0.0583926, -0.115313, -0.0103905, -0.44384, 0.63418, -3.13077, -0.0537663, -0.104141, 0.0245547, -0.0163034, -0.0482612, 0.00213161, -0.0178696, -0.0305405
0.140027, 0.109517, -0.773256, -0.91938, -1.45628, -0.626734, 1.07032, -0.256703, 0.04615, 0.0183901, -0.0945109, -0.00640576, -0.000605401, -7.01229e-05, 0.00347525, 1.49146, 15.9021, 16.5467, 13.5635, 0.951415, 3.43204, -0.0750012, -0.000215064, -0.00166397, -0.00136517, -0.00341912, -0.0073993, 0.00325462, 0.0240294, -0.000849669, 0.0209156, 0.02827, 0.0958576, 0.152658, -0.0100124, -0.445495, 0.632787, -3.12678, -0.0584549, -0.115485, -0.01039, -0.443858, 0.634151, -3.1307, -0.0537375, -0.104098, 0.0249165, -0.016512, -0.0489081, -0.00053619, -0.0185295, -0.0298375
0.141027, 0.109571, -0.773236, -0.91947, -1.45629, -0.626731, 1.07032, -0.256708, 0.048219, 0.0169481, -0.0942448, -0.00893814, 0.00027359, 0.000224519, 0.00107406, 1.49146, 15.9021, 16.4713, 13.5992, 0.932189, 3.42471, -0.0356336, -0.000232439, -0.00166445, -0.00138611, -0.00345375, -0.0075425, 0.00329777, 0.0230464, -0.000450891, 0.020794, 0.0278294, 0.096184, 0.16142, -0.00998734, -0.445511, 0.632738, -3.12667, -0.058518, -0.115659, -0.010384, -0.443876, 0.634121, -3.13064, -0.0537336, -0.10405, 0.0252805, -0.0167211, -0.0495576, 0.000799334, -0.0183053, -0.0305341
0.142027, 0.10963, -0.773219, -0.919569, -1.4563, -0.626732, 1.07032, -0.256708, 0.0520988, 0.0150106, -0.0967177, -0.00672441, 0.000597039, -0.000121588, 0.000640151, 1.41608, 15.9378, 16.511, 13.5992, 0.920287, 3.43204, -0.0292249, -0.000252831, -0.00166296, -0.00140605, -0.00348626, -0.00768701, 0.00334959, 0.0234577, -0.000876333, 0.0212239, 0.0278221, 0.0938079, 0.165247, -0.00996188, -0.445528, 0.632688, -3.12656, -0.058582, -0.115835, -0.0103805, -0.443895, 0.63409, -3.13057, -0.0537172, -0.104002, 0.0256467, -0.0169307, -0.0502094, 0.000737903, -0.0189643, -0.0307954
0.143027, 0.109684, -0.773197, -0.919669, -1.45631, -0.626731, 1.07032, -0.256709, 0.0521715, 0.0153561, -0.100879, -0.00904547, -6.24069e-05, -8.10588e-05, -0.000672835, 1.45576, 15.9021, 16.511, 13.6389, 0.932189, 3.43204, 0.00373412, -0.00027313, -0.00166224, -0.00142465, -0.00351575, -0.00784007, 0.00340457, 0.0246245, -0.00138078, 0.0200339, 0.0253919, 0.0972581, 0.166713, -0.00993605, -0.445545, 0.632638, -3.12645, -0.0586468, -0.116014, -0.0103765, -0.443914, 0.634056, -3.1305, -0.053697, -0.103943, 0.0260151, -0.0171409, -0.0508638, 4.84545e-05, -0.0197084, -0.0327317
0.144027, 0.109736, -0.773181, -0.91977, -1.45631, -0.62673, 1.07032, -0.256703, 0.0521967, 0.013846, -0.0998426, -0.00495278, 0.000147129, 0.000217228, 0.00133769, 1.49146, 15.9378, 16.4713, 13.5635, 0.926695, 3.42471, -0.0420422, -0.000297643, -0.00166089, -0.00144631, -0.00355116, -0.00798321, 0.00347268, 0.0258176, -0.00125451, 0.0222327, 0.0296256, 0.0936563, 0.165933, -0.00990985, -0.445562, 0.632586, -3.12633, -0.0587125, -0.116195, -0.0103765, -0.443934, 0.634025, -3.13043, -0.0536569, -0.103902, 0.0263857, -0.0173516, -0.0515205, -0.000939316, -0.0198708, -0.0312866
0.145027, 0.109793, -0.773162, -0.919877, -1.45633, -0.626732, 1.07032, -0.256703, 0.0530243, 0.0158322, -0.0999882, -0.00465135, 0.000324407, 0.000416086, 0.0017059, 1.49146, 15.9735, 16.4713, 13.5992, 0.920287, 3.41739, -0.0621838, -0.000321114, -0.00165859, -0.00146459, -0.00358116, -0.00813788, 0.00353298, 0.0252143, -0.00105604, 0.0230307, 0.0311003, 0.0961536, 0.168608, -0.00988328, -0.44558, 0.632535, -3.12622, -0.058779, -0.116378, -0.0103748, -0.443955, 0.63399, -3.13035, -0.0536301, -0.103845, 0.0267585, -0.0175627, -0.0521796, -3.42295e-05, -0.019876, -0.0311062
0.146027, 0.109857, -0.773142, -0.919988, -1.45633, -0.626732, 1.07032, -0.256701, 0.0555458, 0.0182012, -0.101026, -0.00581686, -0.000470176, 6.1234e-06, 0.00118836, 1.41608, 15.9735, 16.511, 13.5635, 0.938597, 3.42471, -0.0621838, -0.000343475, -0.00165571, -0.0014843, -0.00361104, -0.00828978, 0.00359418, 0.0239902, -0.000978306, 0.0230369, 0.0309901, 0.101093, 0.173465, -0.00985633, -0.445598, 0.632482, -3.1261, -0.0588463, -0.116563, -0.0103718, -0.443977, 0.633955, -3.13028, -0.0536028, -0.103794, 0.0271335, -0.0177744, -0.052841, 0.00155477, -0.0199682, -0.0316726
0.147027, 0.109918, -0.77312, -0.920101, -1.45634, -0.626728, 1.07032, -0.256704, 0.0562334, 0.0176694, -0.106869, -0.00662492, 0.000595868, 0.00027535, 0.000830554, 1.38038, 15.9378, 16.511, 13.5278, 0.913878, 3.41739, -0.0621838, -0.000366372, -0.00165317, -0.00150346, -0.00363944, -0.00844423, 0.00365329, 0.0256538, -0.00177798, 0.0218124, 0.0276652, 0.101355, 0.173396, -0.00982901, -0.445615, 0.632429, -3.12598, -0.0589145, -0.116751, -0.0103688, -0.443999, 0.63392, -3.1302, -0.0535797, -0.103742, 0.0275107, -0.0179865, -0.0535047, 0.000393139, -0.0210272, -0.0336943
0.148027, 0.109918, -0.77312, -0.920101, -1.45634, -0.626728, 1.07032, -0.256704, 0.0562334, 0.0176694, -0.106869, -0.00662492, 0.000595868, 0.00027535, 0.000830554, 1.38038, 15.9378, 16.511, 13.5278, 0.913878, 3.41739, -0.0621838, -0.000389008, -0.00167311, -0.0015588, -0.00375004, -0.0085703, 0.00369571, 0.0259713, -0.00153995, 0.022505, 0.0288828, 0.102289, 0.175832, -0.00980131, -0.445634, 0.632375, -3.12586, -0.0589835, -0.116942, -0.0103688, -0.443999, 0.63392, -3.1302, -0.0535797, -0.103742, 0.02789, -0.018199, -0.0541706, 0.000393139, -0.0210272, -0.0336943
0.149027, 0.110033, -0.773082, -0.920322, -1.45636, -0.626729, 1.07032, -0.256708, 0.0584661, 0.0211808, -0.107934, -0.00916981, -5.82454e-05, 0.000732729, -0.0021898, 1.41608, 15.9378, 16.4713, 13.5278, 0.926695, 3.39633, 0.00373412, -0.000417112, -0.00164972, -0.00154322, -0.00370065, -0.00876336, 0.00377833, 0.02414, -0.00148639, 0.0222144, 0.0287781, 0.108748, 0.18367, -0.00977323, -0.445652, 0.63232, -3.12574, -0.0590534, -0.117134, -0.010367, -0.444041, 0.633847, -3.13004, -0.0535254, -0.103629, 0.0282715, -0.018412, -0.0548388, 0.00261668, -0.021118, -0.034518
0.150027, 0.110091, -0.773057, -0.920436, -1.45637, -0.626732, 1.07032, -0.256702, 0.0577438, 0.0176166, -0.109196, -0.00776375, 0.000195909, -2.01402e-05, 0.000489079, 1.41608, 15.8624, 16.4713, 13.5635, 0.920287, 3.41006, -0.0484509, -0.000441862, -0.0016473, -0.00156299, -0.00373315, -0.00893217, 0.00385158, 0.0265926, -0.00146635, 0.0228157, 0.0290188, 0.10546, 0.181168, -0.00974476, -0.44567, 0.632265, -3.12562, -0.0591241, -0.117329, -0.0103648, -0.444064, 0.63381, -3.12996, -0.0534829, -0.103562, 0.0286551, -0.0186253, -0.0555092, 0.000508242, -0.0214151, -0.0347764
0.151027, 0.110153, -0.773035, -0.920556, -1.45639, -0.62673, 1.07032, -0.256707, 0.0571681, 0.0171123, -0.112004, -0.00812383, 0.000128642, 0.000766467, -0.0015946, 1.41608, 15.8267, 16.5467, 13.5278, 0.920287, 3.38901, 0.00373412, -0.000467172, -0.00164389, -0.00158208, -0.00376294, -0.00909489, 0.00391278, 0.0280902, -0.00188985, 0.0226846, 0.0289441, 0.105925, 0.183144, -0.00971592, -0.445689, 0.632209, -3.12549, -0.0591957, -0.117527, -0.0103628, -0.444087, 0.633771, -3.12988, -0.0534601, -0.103506, 0.0290408, -0.0188391, -0.0561817, -0.000574771, -0.0221098, -0.0357014
0.152027, 0.110217, -0.773019, -0.920668, -1.45639, -0.626728, 1.07032, -0.256705, 0.0575496, 0.0140658, -0.111344, -0.00753732, 0.000525097, 0.000510978, -0.000307991, 1.38038, 15.9021, 16.511, 13.4525, 0.908385, 3.38901, -0.0164075, -0.000493233, -0.00164278, -0.00160501, -0.00379646, -0.00925252, 0.00397815, 0.0290273, -0.00153989, 0.0236065, 0.0302866, 0.103265, 0.185107, -0.00968668, -0.445708, 0.632153, -3.12537, -0.0592682, -0.117726, -0.0103615, -0.444109, 0.633736, -3.1298, -0.0534315, -0.103462, 0.0294287, -0.0190533, -0.0568564, -0.00120567, -0.022027, -0.0355276
0.153027, 0.110285, -0.772997, -0.920788, -1.45641, -0.626729, 1.07032, -0.256702, 0.0611478, 0.0176851, -0.112578, -0.00899977, -9.18497e-05, 0.000611919, 0.000988287, 1.34071, 15.8624, 16.5467, 13.4525, 0.920287, 3.38168, -0.0484509, -0.000516293, -0.00163964, -0.0016246, -0.00382853, -0.00942368, 0.00404378, 0.0268749, -0.00155109, 0.0235365, 0.0302897, 0.109296, 0.189359, -0.00965706, -0.445727, 0.632096, -3.12524, -0.0593415, -0.117929, -0.0103565, -0.444133, 0.633696, -3.12972, -0.0534036, -0.103398, 0.0298187, -0.0192678, -0.0575331, 0.00133214, -0.0221753, -0.0361159
0.154027, 0.110347, -0.772978, -0.920909, -1.45642, -0.626729, 1.07032, -0.256701, 0.0631728, 0.015396, -0.11838, -0.0101522, -0.000299421, 0.000679214, 0.00093524, 1.34071, 15.9021, 16.6578, 13.4525, 0.926695, 3.37436, -0.0557752, -0.000543788, -0.00163688, -0.00164401, -0.00385881, -0.00959371, 0.00411346, 0.0286829, -0.00250032, 0.0221136, 0.0269819, 0.109132, 0.189976, -0.00962704, -0.445747, 0.632038, -3.12511, -0.0594156, -0.118133, -0.0103555, -0.444156, 0.633656, -3.12963, -0.0533704, -0.103338, 0.0302108, -0.0194827, -0.0582119, 6.34853e-05, -0.0233889, -0.038366
0.155027, 0.11041, -0.772955, -0.921029, -1.45644, -0.626729, 1.07032, -0.256702, 0.0601715, 0.0188481, -0.11738, -0.0139697, -0.000200236, 0.000452809, 0.000356062, 1.38038, 15.8624, 16.6935, 13.4525, 0.926695, 3.37436, -0.0484509, -0.000569403, -0.0016352, -0.00166464, -0.00389045, -0.00976962, 0.00417943, 0.0281889, -0.0016177, 0.022137, 0.026952, 0.115995, 0.192784, -0.00959664, -0.445766, 0.631979, -3.12498, -0.0594907, -0.11834, -0.0103524, -0.444179, 0.633616, -3.12955, -0.0533438, -0.103272, 0.0306049, -0.019698, -0.0588927, 0.000911755, -0.0227081, -0.0389797
0.156027, 0.110476, -0.772934, -0.92114, -1.45646, -0.62673, 1.07032, -0.256706, 0.0624672, 0.0140836, -0.11514, -0.0175715, -0.000337407, 0.000301873, -0.0011839, 1.38038, 15.8624, 16.6578, 13.4882, 0.932189, 3.37436, -0.00999879, -0.000590912, -0.00163536, -0.00168731, -0.00392702, -0.00994789, 0.00423128, 0.0275277, -0.000877346, 0.0221116, 0.027018, 0.114672, 0.202611, -0.00956583, -0.445786, 0.63192, -3.12485, -0.0595666, -0.11855, -0.0103451, -0.4442, 0.633578, -3.12946, -0.0533399, -0.103205, 0.0310012, -0.0199136, -0.0595756, 0.00193765, -0.0221628, -0.0396327
0.157027, 0.110541, -0.772914, -0.921259, -1.45647, -0.626725, 1.07032, -0.256707, 0.0634304, 0.0127065, -0.116336, -0.0154806, 0.000215522, 0.000201248, -0.00105838, 1.41608, 15.9021, 16.7331, 13.4525, 0.920287, 3.37436, -0.00267457, -0.000616844, -0.00163448, -0.00170904, -0.00395845, -0.0101202, 0.00429504, 0.0285739, -0.000962738, 0.023038, 0.0281622, 0.112609, 0.204233, -0.00953463, -0.445806, 0.63186, -3.12472, -0.0596434, -0.118761, -0.0103416, -0.444223, 0.633538, -3.12938, -0.0533185, -0.103149, 0.0313996, -0.0201295, -0.0602603, 0.00122424, -0.0225217, -0.0394788
0.158027, 0.110607, -0.772894, -0.921384, -1.45648, -0.626729, 1.07033, -0.256707, 0.0672758, 0.0127344, -0.120114, -0.0123516, -0.000297391, 0.000914059, -0.000703967, 1.45576, 15.9021, 16.8085, 13.3414, 0.932189, 3.3533, -0.00267457, -0.000646151, -0.0016312, -0.00173241, -0.00399747, -0.0102957, 0.00436892, 0.0290954, -0.00192624, 0.0235876, 0.0293074, 0.111816, 0.205491, -0.00950303, -0.445826, 0.6318, -3.12458, -0.059721, -0.118976, -0.0103412, -0.444248, 0.633498, -3.12929, -0.0532821, -0.103091, 0.0318, -0.0203457, -0.060947, 0.00109797, -0.023733, -0.039674
0.159027, 0.110677, -0.77287, -0.921502, -1.45651, -0.626728, 1.07033, -0.256703, 0.0675299, 0.0158839, -0.121256, -0.0174175, -0.000673175, 0.000609373, 0.000752606, 1.45576, 15.9021, 16.8085, 13.4128, 0.945006, 3.3533, -0.0356336, -0.000667206, -0.00163124, -0.00175292, -0.00402837, -0.0104847, 0.00442849, 0.0278021, -0.0015161, 0.0225084, 0.0271048, 0.119729, 0.208311, -0.00947103, -0.445847, 0.631738, -3.12445, -0.0597996, -0.119192, -0.010332, -0.44427, 0.633456, -3.1292, -0.0532693, -0.103014, 0.0322025, -0.0205621, -0.0616356, 0.00285231, -0.0234784, -0.0413392
0.160027, 0.110747, -0.772848, -0.921637, -1.45653, -0.626729, 1.07033, -0.256701, 0.0645469, 0.0182679, -0.125264, -0.0152853, 2.57871e-05, 0.000134981, 0.00124863, 1.45576, 15.9021, 16.9553, 13.3771, 0.932189, 3.36062, -0.0557752, -0.000695869, -0.00162786, -0.0017713, -0.00405358, -0.010673, 0.00450366, 0.0303916, -0.00186793, 0.0228988, 0.026647, 0.121556, 0.203521, -0.00943863, -0.445867, 0.631676, -3.12431, -0.059879, -0.119411, -0.0103298, -0.444295, 0.63341, -3.1291, -0.0532334, -0.10294, 0.032607, -0.0207789, -0.062326, 0.000658064, -0.0241548, -0.0418478
0.161027, 0.110817, -0.772823, -0.921767, -1.45655, -0.626727, 1.07033, -0.256702, 0.0691604, 0.0222572, -0.128142, -0.0170515, -0.000220278, 0.000361255, 0.000561837, 1.45576, 15.9378, 16.995, 13.3414, 0.938597, 3.3533, -0.0484509, -0.000721843, -0.00162585, -0.00179197, -0.00408366, -0.0108616, 0.0045706, 0.0280798, -0.00217388, 0.0222787, 0.0253271, 0.127927, 0.209892, -0.00940582, -0.445888, 0.631614, -3.12417, -0.0599593, -0.119633, -0.0103247, -0.44432, 0.633366, -3.12901, -0.053211, -0.102868, 0.0330136, -0.0209959, -0.0630183, 0.00342429, -0.0245848, -0.0429898
0.162027, 0.110885, -0.772802, -0.921901, -1.45656, -0.626728, 1.07033, -0.256702, 0.0684442, 0.0222152, -0.128129, -0.014212, -0.000621653, 0.000783371, 0.000137711, 1.49146, 15.9735, 17.0307, 13.266, 0.951415, 3.33865, -0.0420422, -0.000752579, -0.00162262, -0.00181294, -0.0041153, -0.0110487, 0.00464674, 0.0293654, -0.0021937, 0.0239386, 0.0287724, 0.127114, 0.2105, -0.0093726, -0.445909, 0.63155, -3.12403, -0.0600404, -0.119857, -0.0103239, -0.444346, 0.633321, -3.12891, -0.0531752, -0.102801, 0.0334222, -0.0212132, -0.0637123, 0.00242352, -0.0249015, -0.0421329
0.163027, 0.11096, -0.772777, -0.922035, -1.45659, -0.626729, 1.07033, -0.256696, 0.0687238, 0.0198707, -0.130228, -0.0171144, -0.000855307, -2.02872e-05, 0.00107554, 1.49146, 15.9735, 17.0307, 13.266, 0.963317, 3.3533, -0.0685925, -0.000778166, -0.00162071, -0.00183218, -0.0041418, -0.0112479, 0.0047193, 0.030516, -0.00211283, 0.0230203, 0.0262661, 0.128339, 0.212147, -0.00933897, -0.445931, 0.631486, -3.12389, -0.0601225, -0.120083, -0.0103175, -0.444371, 0.633274, -3.12881, -0.0531462, -0.102717, 0.0338328, -0.0214307, -0.0644081, 0.00175189, -0.0250715, -0.0438368
0.164027, 0.111033, -0.772755, -0.922172, -1.45661, -0.626729, 1.07033, -0.256705, 0.0646645, 0.0194499, -0.133803, -0.0200394, -0.000570251, 0.00052901, -0.00145283, 1.53114, 16.0489, 17.1061, 13.3017, 0.963317, 3.33865, -0.00999879, -0.000805493, -0.00161805, -0.00185038, -0.00416759, -0.0114459, 0.00477963, 0.0332345, -0.00233937, 0.0220158, 0.0241721, 0.130448, 0.212067, -0.00930493, -0.445952, 0.631421, -3.12375, -0.0602054, -0.120312, -0.0103124, -0.444396, 0.633226, -3.12871, -0.0531371, -0.102639, 0.0342455, -0.0216484, -0.0651057, -0.000460944, -0.0256067, -0.0457537
0.165027, 0.111105, -0.772724, -0.92231, -1.45663, -0.626728, 1.07033, -0.256706, 0.0684722, 0.0220018, -0.135154, -0.0187559, -0.000142844, 0.000623941, -0.0012396, 1.57081, 16.0092, 17.1418, 13.1906, 0.956908, 3.33133, -0.00267457, -0.000833432, -0.00161604, -0.00187146, -0.0041956, -0.0116507, 0.00485382, 0.0317343, -0.00244035, 0.0227311, 0.0250977, 0.132891, 0.216697, -0.00927048, -0.445974, 0.631356, -3.1236, -0.0602893, -0.120544, -0.0103076, -0.444422, 0.633179, -3.12861, -0.0531075, -0.102551, 0.0346601, -0.0218663, -0.0658049, 0.00139475, -0.0258851, -0.045631
0.166027, 0.111178, -0.7727, -0.922449, -1.45666, -0.626731, 1.07033, -0.256707, 0.0678457, 0.0210528, -0.13878, -0.0206247, 0.00357595, 0.000687228, -0.0010636, 1.60651, 16.0846, 17.1775, 13.1906, 0.981627, 3.324, 0.00373412, -0.000862464, -0.00161285, -0.00189108, -0.00422591, -0.0118536, 0.00492657, 0.0327093, -0.00236788, 0.0218536, 0.021355, 0.131469, 0.218413, -0.00923561, -0.445996, 0.63129, -3.12346, -0.060374, -0.120777, -0.0103034, -0.444449, 0.63313, -3.12851, -0.0530809, -0.10247, 0.0350768, -0.0220844, -0.0665058, 0.00090183, -0.026058, -0.0472867
0.167027, 0.111252, -0.772672, -0.922586, -1.4567, -0.626726, 1.07033, -0.256697, 0.0753255, 0.0223255, -0.138402, -0.0267887, 0.00320699, 0.000695511, 0.0014951, 1.60651, 16.0846, 17.1775, 13.266, 0.969725, 3.31759, -0.0557752, -0.000885991, -0.00161207, -0.00190925, -0.00424974, -0.0120647, 0.005, 0.0280528, -0.00189133, 0.020592, 0.019142, 0.138105, 0.229115, -0.00920033, -0.446018, 0.631223, -3.12331, -0.0604596, -0.121014, -0.0102933, -0.444473, 0.63308, -3.1284, -0.0530546, -0.102377, 0.0354954, -0.0223027, -0.0672083, 0.00603539, -0.0256064, -0.0488846
0.168027, 0.11133, -0.772648, -0.922734, -1.45672, -0.626729, 1.07033, -0.256699, 0.0774016, 0.0245309, -0.141469, -0.0244841, 0.0022212, 0.000463674, 0.00123419, 1.60651, 16.16, 17.3282, 13.1906, 0.975218, 3.31759, -0.0621838, -0.000916349, -0.00160821, -0.00192698, -0.00427353, -0.012274, 0.00507449, 0.028509, -0.00244422, 0.0211657, 0.0199801, 0.14084, 0.229998, -0.00916462, -0.446041, 0.631155, -3.12316, -0.0605461, -0.121253, -0.0102895, -0.444501, 0.633028, -3.12829, -0.0530276, -0.10229, 0.0359161, -0.0225212, -0.0679124, 0.00597637, -0.0264088, -0.0490649
0.169027, 0.11141, -0.772622, -0.922874, -1.45676, -0.626727, 1.07033, -0.256697, 0.0763124, 0.0272634, -0.141158, -0.0280168, 0.00145843, 0.000309116, 0.0005855, 1.57081, 16.1957, 17.3639, 13.1906, 0.981627, 3.31759, -0.0557752, -0.000940672, -0.00160711, -0.00194573, -0.00429821, -0.0124884, 0.00513957, 0.0278608, -0.00188245, 0.0210277, 0.0199417, 0.147513, 0.233779, -0.00912849, -0.446063, 0.631087, -3.12301, -0.0606336, -0.121494, -0.0102794, -0.444527, 0.632976, -3.12818, -0.0530161, -0.102198, 0.0363387, -0.0227398, -0.068618, 0.0070306, -0.0260435, -0.0498549
0.170027, 0.111484, -0.772598, -0.923018, -1.45679, -0.626726, 1.07033, -0.256696, 0.0772811, 0.028441, -0.140077, -0.0295472, 0.00113353, 0.000477345, 0.000627743, 1.60651, 16.2671, 17.3639, 13.1509, 0.981627, 3.31027, -0.0621838, -0.000969896, -0.00160535, -0.00196439, -0.00432314, -0.0127021, 0.0052139, 0.0268138, -0.00139235, 0.0216234, 0.0213496, 0.15083, 0.238717, -0.00909194, -0.446086, 0.631018, -3.12286, -0.0607219, -0.121738, -0.0102737, -0.444553, 0.632923, -3.12807, -0.0529912, -0.102109, 0.0367632, -0.0229586, -0.0693252, 0.00842994, -0.0257474, -0.0498846
0.171027, 0.111566, -0.772567, -0.923166, -1.45683, -0.626725, 1.07033, -0.2567, 0.0804474, 0.0317885, -0.145675, -0.0316886, 0.00131743, 0.000860764, -0.00103953, 1.53114, 16.2314, 17.3639, 13.1509, 0.969725, 3.29562, -0.0228162, -0.000994168, -0.00160316, -0.00198152, -0.00434492, -0.0129268, 0.0052765, 0.026067, -0.00214948, 0.0201805, 0.0180773, 0.15654, 0.242993, -0.00905497, -0.446109, 0.630949, -3.12271, -0.0608111, -0.121984, -0.0102626, -0.44458, 0.632869, -3.12795, -0.0529858, -0.102006, 0.0371897, -0.0231774, -0.0700339, 0.00973948, -0.0266736, -0.051989
0.172027, 0.111645, -0.772545, -0.923313, -1.45686, -0.626726, 1.07034, -0.256701, 0.0775832, 0.0285511, -0.14998, -0.031687, 0.000528177, 0.00084511, -0.00116771, 1.53114, 16.3068, 17.3639, 13.0795, 0.981627, 3.2883, -0.00999879, -0.00102425, -0.00160018, -0.00200102, -0.00437402, -0.013141, 0.00534883, 0.0302357, -0.00280292, 0.0197002, 0.0168728, 0.155093, 0.239194, -0.00901756, -0.446132, 0.630878, -3.12255, -0.0609012, -0.122233, -0.0102569, -0.444608, 0.632816, -3.12784, -0.0529658, -0.101921, 0.0376182, -0.0233964, -0.0707441, 0.00607561, -0.027701, -0.0535193
0.173027, 0.111728, -0.772517, -0.923467, -1.45691, -0.626725, 1.07034, -0.256696, 0.0763841, 0.0279901, -0.14889, -0.0372395, 0.000860953, 0.00107203, 0.000916971, 1.49146, 16.3068, 17.3282, 13.1152, 0.969725, 3.27456, -0.0557752, -0.0010506, -0.00159827, -0.00201576, -0.00438924, -0.0133719, 0.00542198, 0.0297196, -0.00198283, 0.0190817, 0.015824, 0.158746, 0.242324, -0.00897973, -0.446156, 0.630807, -3.12239, -0.0609922, -0.122484, -0.0102468, -0.444635, 0.632757, -3.12772, -0.0529462, -0.101813, 0.0380486, -0.0236155, -0.0714557, 0.00703335, -0.0270745, -0.0548006
0.174027, 0.111807, -0.772499, -0.923623, -1.45695, -0.626721, 1.07034, -0.256694, 0.0770086, 0.0248459, -0.147064, -0.0355964, 0.000624987, 0.000714689, 0.000340063, 1.53114, 16.4178, 17.3639, 13.0399, 0.969725, 3.27456, -0.0484509, -0.0010833, -0.00159508, -0.00203221, -0.00440846, -0.013588, 0.00550111, 0.0305851, -0.00151863, 0.020679, 0.0186964, 0.155861, 0.246579, -0.00894147, -0.44618, 0.630735, -3.12224, -0.0610841, -0.122738, -0.0102427, -0.444664, 0.632699, -3.1276, -0.0529181, -0.10173, 0.0384809, -0.0238347, -0.0721687, 0.00645777, -0.0268961, -0.0539884
0.175027, 0.111887, -0.772476, -0.923779, -1.45699, -0.626721, 1.07034, -0.256693, 0.0741255, 0.024353, -0.151073, -0.0345051, 0.000251471, 0.00129026, 0.000972706, 1.57081, 16.4536, 17.3639, 12.9645, 0.975218, 3.25259, -0.0685925, -0.00111467, -0.00159198, -0.00204974, -0.00443152, -0.0138126, 0.0055782, 0.0339184, -0.00217563, 0.0207734, 0.0188406, 0.155822, 0.241872, -0.00890277, -0.446204, 0.630663, -3.12208, -0.061177, -0.122995, -0.0102369, -0.444693, 0.632642, -3.12748, -0.0528939, -0.101636, 0.0389151, -0.0240539, -0.0728831, 0.0035875, -0.0279065, -0.0548875
0.176027, 0.111978, -0.772455, -0.923937, -1.45703, -0.626721, 1.07034, -0.256694, 0.0795729, 0.0231065, -0.149984, -0.037763, 0.000196346, 0.000860174, 0.00064848, 1.45576, 16.525, 17.3282, 12.9288, 0.975218, 3.25259, -0.0685925, -0.00114235, -0.00158917, -0.00206507, -0.00444801, -0.0140413, 0.00564324, 0.0312881, -0.00161747, 0.0205534, 0.0181372, 0.158022, 0.252698, -0.00886363, -0.446228, 0.630589, -3.12192, -0.0612707, -0.123253, -0.0102269, -0.444722, 0.632581, -3.12735, -0.0528898, -0.101539, 0.0393512, -0.0242732, -0.0735988, 0.00663601, -0.0274679, -0.0556124
0.177027, 0.112053, -0.772427, -0.924092, -1.45708, -0.62672, 1.07035, -0.256694, 0.0805243, 0.0216688, -0.14862, -0.0410401, 0.000355871, 0.000844717, -0.000551018, 1.57081, 16.4893, 17.2529, 12.9288, 0.969725, 3.24527, -0.0420422, -0.00117301, -0.00158743, -0.00208223, -0.004471, -0.0142787, 0.00572128, 0.0305279, -0.000934711, 0.0205901, 0.0181674, 0.159605, 0.260248, -0.00882406, -0.446252, 0.630515, -3.12175, -0.0613653, -0.123515, -0.0102196, -0.44475, 0.632522, -3.12723, -0.0528663, -0.101431, 0.0397893, -0.0244926, -0.0743159, 0.00779829, -0.0269813, -0.0562282
0.178027, 0.112138, -0.772405, -0.924259, -1.45713, -0.62672, 1.07035, -0.256695, 0.0812565, 0.0226822, -0.156093, -0.0432587, 4.99395e-05, 0.00107177, 0.000141286, 1.57081, 16.4893, 17.2925, 12.9288, 0.975218, 3.23153, -0.0557752, -0.00120578, -0.00158402, -0.00209501, -0.00448149, -0.0145165, 0.00579769, 0.0322892, -0.00205657, 0.0185995, 0.0137472, 0.163551, 0.25815, -0.00878406, -0.446277, 0.630441, -3.12159, -0.0614609, -0.123779, -0.0102135, -0.444779, 0.632457, -3.12709, -0.0528469, -0.101324, 0.0402292, -0.0247119, -0.0750342, 0.00668267, -0.0283577, -0.0590936
0.179027, 0.112231, -0.772378, -0.924418, -1.45717, -0.626721, 1.07035, -0.256697, 0.0835723, 0.0251019, -0.156962, -0.0442019, -0.000191959, 0.000443247, -0.00160123, 1.49146, 16.4178, 17.2925, 12.8931, 0.981627, 3.23886, -0.00999879, -0.00123114, -0.00158106, -0.0021123, -0.00450507, -0.0147565, 0.00586041, 0.031111, -0.00182912, 0.0187703, 0.0134938, 0.168196, 0.264487, -0.00874361, -0.446302, 0.630365, -3.12142, -0.0615574, -0.124045, -0.0102001, -0.444809, 0.632397, -3.12697, -0.0528492, -0.101217, 0.040671, -0.0249313, -0.0757538, 0.00827294, -0.0283122, -0.059552
0.180027, 0.112315, -0.772361, -0.924576, -1.45723, -0.626717, 1.07035, -0.256695, 0.0824534, 0.0210408, -0.156762, -0.0459723, 0.000118467, 0.000295498, -0.000592763, 1.53114, 16.4536, 17.2172, 12.8931, 0.975218, 3.23886, -0.0228162, -0.00126186, -0.00157998, -0.00212826, -0.00452214, -0.0149907, 0.00593214, 0.0327368, -0.00141994, 0.0189158, 0.0134065, 0.166162, 0.266211, -0.00870271, -0.446327, 0.630289, -3.12126, -0.0616548, -0.124315, -0.0101914, -0.444837, 0.632335, -3.12684, -0.0528386, -0.101121, 0.0411146, -0.0251507, -0.0764746, 0.00706667, -0.0281933, -0.0602572
0.181027, 0.112406, -0.772341, -0.92475, -1.45728, -0.626719, 1.07035, -0.256691, 0.0826734, 0.018884, -0.161597, -0.0512138, 0.000289238, -0.000311628, 0.00082553, 1.53114, 16.4536, 17.2172, 12.9288, 0.969725, 3.25259, -0.0557752, -0.00129507, -0.00157615, -0.00213915, -0.00452831, -0.0152372, 0.00601212, 0.0342078, -0.00170103, 0.0165679, 0.0078482, 0.168858, 0.266691, -0.00866138, -0.446352, 0.630212, -3.12109, -0.0617531, -0.124586, -0.0101843, -0.444868, 0.632266, -3.12669, -0.052817, -0.101008, 0.0415602, -0.0253701, -0.0771966, 0.00624198, -0.028711, -0.0634479
