alisrour97/Franka_experiments/Real_Robot_scripts/servo-franka/Data4/log_dyn_INITw_ki_12.csv
Time,q1,q2,q3,q4,q5,q6,q7,dq1,dq2,dq3,dq4,dq5,dq6,dq7,t1,t2,t3,t4,t5,t6,t7,ex1,ex2,ex3,ex4,ex5,ex6,ev1,ev2,ev3,ev4,ev5,ev6,xd,yd,zd,uxd,uyd,uzd,x,y,z,ux,uy,uz,vxd,vyd,vzd,vx,vy,vz
4.88281e-07, 0.107504, -0.774028, -0.916895, -1.45733, -0.625245, 1.0697, -0.25704, 0.00251586, -0.00234861, -0.00124544, 0.00657976, 0.00573844, 0.000677413, 0.00137484, -0.0914839, 15.3864, 20.9742, 17.634, 1.0979, 4.09854, 0.134655, 0.000809115, -0.00169328, 0.000576214, 0.00138907, -0.00110033, 1.06507e-05, 0.000173935, -0.000235534, 0.00154853, 0.000577641, -0.0112429, -0.00043462, -0.011112, -0.444721, 0.635038, -3.13187, -0.0555627, -0.107532, -0.0103222, -0.442996, 0.634525, -3.13054, -0.0560365, -0.105714, 0, 0, 0, -0.000270986, -0.000254811, 0.00153144
0.0120603, 0.107522, -0.773995, -0.916885, -1.45731, -0.625235, 1.06971, -0.257041, 0.00067592, 0.00192334, 0.00127105, 0.00170678, 0.000597197, 0.00168351, -0.000502487, -0.131157, 15.2753, 20.9385, 17.5943, 1.11072, 4.04086, 0.160289, 0.000828958, -0.00169347, 0.000566172, 0.00136707, -0.00110821, -9.54533e-06, -0.00123154, -7.66021e-05, 0.00108413, 0.00306606, -0.000546486, 0.00156663, -0.011112, -0.444721, 0.635038, -3.13187, -0.0555627, -0.107532, -0.0103072, -0.442994, 0.63454, -3.13057, -0.056056, -0.105713, 1.73063e-06, 3.0097e-06, -3.96181e-06, 0.00115814, -3.95434e-05, 0.00116171
0.0130603, 0.107522, -0.773995, -0.916885, -1.45731, -0.625235, 1.06971, -0.257041, 0.00067592, 0.00192334, 0.00127105, 0.00170678, 0.000597197, 0.00168351, -0.000502487, -0.131157, 15.2753, 20.9385, 17.5943, 1.11072, 4.04086, 0.160289, 0.000828954, -0.00169346, 0.000566162, 0.00136705, -0.00110824, -9.54466e-06, -0.00122687, -8.53304e-05, 0.00109638, 0.00309071, -0.000543134, 0.0016133, -0.011112, -0.444721, 0.635038, -3.13187, -0.0555627, -0.107532, -0.0103072, -0.442994, 0.63454, -3.13057, -0.056056, -0.105713, 6.91577e-06, 1.20019e-05, -1.58141e-05, 0.00115814, -3.95434e-05, 0.00116171
0.0140603, 0.107522, -0.773995, -0.916885, -1.45731, -0.625235, 1.06971, -0.257041, 0.00067592, 0.00192334, 0.00127105, 0.00170678, 0.000597197, 0.00168351, -0.000502487, -0.131157, 15.2753, 20.9385, 17.5943, 1.11072, 4.04086, 0.160289, 0.000828944, -0.00169344, 0.000566137, 0.00136699, -0.0011083, -9.54283e-06, -0.0012191, -9.98108e-05, 0.00111675, 0.00313166, -0.00053754, 0.00169083, -0.011112, -0.444721, 0.635038, -3.13187, -0.0555627, -0.107532, -0.0103072, -0.442994, 0.63454, -3.13057, -0.056056, -0.105713, 1.55453e-05, 2.69215e-05, -3.55071e-05, 0.00115814, -3.95434e-05, 0.00116171
0.0150603, 0.107522, -0.773995, -0.916885, -1.45731, -0.625235, 1.06971, -0.257041, 0.00067592, 0.00192334, 0.00127105, 0.00170678, 0.000597197, 0.00168351, -0.000502487, -0.131157, 15.2753, 20.9385, 17.5943, 1.11072, 4.04086, 0.160289, 0.000828925, -0.00169341, 0.000566087, 0.00136689, -0.00110842, -9.53926e-06, -0.00120823, -0.000119989, 0.00114517, 0.00318877, -0.0005297, 0.00179901, -0.011112, -0.444721, 0.635038, -3.13187, -0.0555628, -0.107532, -0.0103072, -0.442994, 0.63454, -3.13057, -0.056056, -0.105713, 2.7609e-05, 4.77135e-05, -6.29913e-05, 0.00115814, -3.95434e-05, 0.00116171
0.0160603, 0.107522, -0.773995, -0.916885, -1.45731, -0.625235, 1.06971, -0.257041, 0.00067592, 0.00192334, 0.00127105, 0.00170678, 0.000597197, 0.00168351, -0.000502487, -0.131157, 15.2753, 20.9385, 17.5943, 1.11072, 4.04086, 0.160289, 0.000828893, -0.00169335, 0.000566004, 0.00136671, -0.00110862, -9.53333e-06, -0.00119427, -0.000145811, 0.0011816, 0.00326193, -0.000519609, 0.00193765, -0.0111119, -0.444721, 0.635038, -3.13187, -0.0555628, -0.107532, -0.0103072, -0.442994, 0.63454, -3.13057, -0.056056, -0.105713, 4.30968e-05, 7.4323e-05, -9.82172e-05, 0.00115814, -3.95434e-05, 0.00116171
0.0170603, 0.107522, -0.773995, -0.916885, -1.45731, -0.625235, 1.06971, -0.257041, 0.00067592, 0.00192334, 0.00127105, 0.00170678, 0.000597197, 0.00168351, -0.000502487, -0.131157, 15.2753, 20.9385, 17.5943, 1.11072, 4.04086, 0.160289, 0.000828846, -0.00169326, 0.000565882, 0.00136645, -0.00110892, -9.52444e-06, -0.00117723, -0.000177223, 0.00122599, 0.00335102, -0.000507263, 0.00210654, -0.0111119, -0.444721, 0.635038, -3.13187, -0.0555628, -0.107533, -0.0103072, -0.442994, 0.63454, -3.13057, -0.056056, -0.105713, 6.19987e-05, 0.000106695, -0.000141136, 0.00115814, -3.95434e-05, 0.00116171
0.0180603, 0.107522, -0.773995, -0.916885, -1.45731, -0.625235, 1.06971, -0.257041, 0.00067592, 0.00192334, 0.00127105, 0.00170678, 0.000597197, 0.00168351, -0.000502487, -0.131157, 15.2753, 20.9385, 17.5943, 1.11072, 4.04086, 0.160289, 0.00082878, -0.00169314, 0.000565712, 0.00136609, -0.00110933, -9.51198e-06, -0.00115713, -0.000214171, 0.00127828, 0.00345591, -0.000492657, 0.00230548, -0.0111118, -0.44472, 0.635037, -3.13187, -0.0555628, -0.107533, -0.0103072, -0.442994, 0.63454, -3.13057, -0.056056, -0.105713, 8.43044e-05, 0.000144776, -0.000191697, 0.00115814, -3.95434e-05, 0.00116171
0.0190603, 0.107522, -0.773995, -0.916885, -1.45731, -0.625235, 1.06971, -0.257041, 0.00067592, 0.00192334, 0.00127105, 0.00170678, 0.000597197, 0.00168351, -0.000502487, -0.131157, 15.2753, 20.9385, 17.5943, 1.11072, 4.04086, 0.160289, 0.000828692, -0.00169298, 0.000565485, 0.00136562, -0.00110988, -9.4953e-06, -0.00113396, -0.0002566, 0.00133843, 0.00357649, -0.000475787, 0.00253427, -0.0111117, -0.44472, 0.635037, -3.13187, -0.0555629, -0.107534, -0.0103072, -0.442994, 0.63454, -3.13057, -0.056056, -0.105713, 0.000110004, 0.000188511, -0.000249853, 0.00115814, -3.95434e-05, 0.00116171
0.0200603, 0.107522, -0.773995, -0.916885, -1.45731, -0.625235, 1.06971, -0.257041, 0.00067592, 0.00192334, 0.00127105, 0.00170678, 0.000597197, 0.00168351, -0.000502487, -0.131157, 15.2753, 20.9385, 17.5943, 1.11072, 4.04086, 0.160289, 0.00082858, -0.00169277, 0.000565195, 0.001365, -0.00111059, -9.47378e-06, -0.00110775, -0.000304459, 0.00140639, 0.00371264, -0.000456648, 0.0027927, -0.0111116, -0.44472, 0.635037, -3.13187, -0.0555629, -0.107535, -0.0103072, -0.442994, 0.63454, -3.13057, -0.056056, -0.105713, 0.000139087, 0.000237846, -0.000315553, 0.00115814, -3.95434e-05, 0.00116171
0.0210603, 0.107522, -0.773995, -0.916885, -1.45731, -0.625235, 1.06971, -0.257041, 0.00067592, 0.00192334, 0.00127105, 0.00170678, 0.000597197, 0.00168351, -0.000502487, -0.131157, 15.2753, 20.9385, 17.5943, 1.11072, 4.04086, 0.160289, 0.00082844, -0.00169251, 0.000564833, 0.00136424, -0.00111147, -9.44677e-06, -0.00107849, -0.000357693, 0.00148211, 0.00386424, -0.000435235, 0.00308058, -0.0111114, -0.44472, 0.635037, -3.13186, -0.055563, -0.107537, -0.0103072, -0.442994, 0.63454, -3.13057, -0.056056, -0.105713, 0.000171544, 0.000292726, -0.00038875, 0.00115814, -3.95434e-05, 0.00116171
0.0220603, 0.107522, -0.773995, -0.916885, -1.45731, -0.625235, 1.06971, -0.257041, 0.00067592, 0.00192334, 0.00127105, 0.00170678, 0.000597197, 0.00168351, -0.000502487, -0.131157, 15.2753, 20.9385, 17.5943, 1.11072, 4.04086, 0.160289, 0.000828269, -0.0016922, 0.000564393, 0.00136331, -0.00111254, -9.41362e-06, -0.00104619, -0.000416249, 0.00156553, 0.00403117, -0.000411544, 0.0033977, -0.0111112, -0.444719, 0.635036, -3.13186, -0.055563, -0.107538, -0.0103072, -0.442994, 0.63454, -3.13057, -0.056056, -0.105713, 0.000207364, 0.000353099, -0.000469394, 0.00115814, -3.95434e-05, 0.00116171
0.0230603, 0.107551, -0.773965, -0.916882, -1.45731, -0.625226, 1.06972, -0.257043, 0.000932694, 0.00251245, 0.000486791, -0.00192245, 0.000734196, -0.0050751, -0.00105885, -0.281914, 15.2753, 20.9385, 17.6697, 1.0741, 4.05551, 0.180431, 0.000853317, -0.00169311, 0.000563491, 0.00136357, -0.00113751, -4.80722e-05, -0.00111366, 0.000845327, -0.000251618, -0.0041949, 0.00590574, 0.0058864, -0.011111, -0.444719, 0.635036, -3.13186, -0.0555631, -0.10754, -0.0102821, -0.442992, 0.634543, -3.13057, -0.0561164, -0.105676, 0.000246538, 0.00041891, -0.000557437, 0.00134394, 0.00130502, -0.000726729
0.0240603, 0.107551, -0.773965, -0.91689, -1.45731, -0.625225, 1.06972, -0.257037, 0.000622928, 0.00178465, -0.00151365, -0.00127734, 0.000728211, -0.00375104, 0.00122691, -0.281914, 15.2753, 21.0138, 17.6697, 1.06769, 4.05551, 0.128246, 0.000851391, -0.00169117, 0.000564892, 0.00136665, -0.00113865, -3.80486e-05, -7.97122e-05, 9.96855e-05, -0.000426689, -0.00381493, 0.00421495, 0.00181114, -0.0111107, -0.444719, 0.635035, -3.13186, -0.0555632, -0.107542, -0.0102836, -0.442994, 0.63454, -3.13057, -0.056101, -0.105676, 0.000289055, 0.000490107, -0.00065283, 0.000394176, 0.000596202, -0.00107241
0.0250603, 0.107556, -0.773964, -0.916891, -1.45731, -0.625226, 1.06971, -0.25704, 0.00125135, 0.00220005, -0.00187099, -0.0014166, 0.00140204, -0.00172526, -0.000131476, -0.317619, 15.2356, 20.9028, 17.5586, 1.04297, 4.02713, 0.153881, 0.000852803, -0.00169082, 0.000565187, 0.00136913, -0.00114361, -4.49399e-05, -0.000703058, -0.000333504, -0.00029078, -0.00247394, 0.00323819, 0.00432224, -0.0111104, -0.444718, 0.635034, -3.13186, -0.0555634, -0.107545, -0.0102818, -0.442993, 0.634539, -3.13057, -0.056112, -0.105671, 0.000334905, 0.000566635, -0.000755525, 0.00106767, 0.000260583, -0.000999367
0.0260603, 0.10756, -0.773957, -0.916884, -1.45732, -0.625224, 1.06972, -0.257036, 0.00176289, 0.00178911, 0.00189605, -0.00566859, 0.001851, 0.00155916, 0.00231986, -0.357292, 15.0888, 20.6052, 17.4832, 1.01825, 3.94839, 0.0888782, 0.000861901, -0.00169201, 0.000565616, 0.00136708, -0.00115783, -5.69957e-05, -0.0032898, 1.28866e-05, -0.000144944, 0.000388453, 0.00346899, 0.00808102, -0.0111101, -0.444717, 0.635033, -3.13186, -0.0555635, -0.107548, -0.0102724, -0.442991, 0.634539, -3.13057, -0.0561309, -0.105652, 0.000384079, 0.000648441, -0.000865474, 0.00367352, 0.000778288, -0.000783958
0.0270603, 0.107568, -0.773957, -0.916887, -1.45733, -0.625223, 1.06971, -0.257044, 0.00377419, -0.000516703, -0.000678691, -0.00482995, 0.0016754, 0.00380047, 0.000359793, -0.468376, 15.0174, 20.3791, 17.2214, 1.00635, 3.86966, 0.120922, 0.00086473, -0.00169129, 0.000567611, 0.0013733, -0.00116377, -7.2872e-05, -0.00263079, -0.00115267, -0.000449747, 0.00114263, -0.000209733, 0.0100378, -0.0111097, -0.444717, 0.635033, -3.13186, -0.0555637, -0.107552, -0.010269, -0.442991, 0.634536, -3.13056, -0.056156, -0.105646, 0.000436566, 0.000735474, -0.000982628, 0.00313142, -0.000320032, -0.00125766
0.0280603, 0.107576, -0.773959, -0.916899, -1.45734, -0.625221, 1.06971, -0.257039, 0.00520774, -0.00160677, -0.00577916, -0.00711152, 0.0020329, 0.00455355, 0.00363071, -0.583427, 15.0531, 20.268, 17.0706, 0.981627, 3.81198, 0.0293689, 0.000866633, -0.00168992, 0.000574754, 0.00139144, -0.00117395, -7.51576e-05, -0.00186536, -0.00224392, -0.00248539, -0.00285697, -0.000181362, 0.00614761, -0.0111092, -0.444716, 0.635032, -3.13185, -0.0555639, -0.107556, -0.0102661, -0.442992, 0.634528, -3.13054, -0.0561604, -0.105633, 0.000492356, 0.000827679, -0.00110694, 0.00260234, -0.00132775, -0.0034721
0.0290603, 0.107573, -0.773957, -0.916908, -1.45735, -0.625222, 1.06971, -0.257047, 0.00170886, -0.00139149, -0.00911666, -0.00619665, 0.000914785, 0.00454216, 0.000216435, -0.508049, 15.0531, 20.1569, 16.8127, 0.993529, 3.76895, 0.0888782, 0.000864421, -0.00168829, 0.000579639, 0.00140182, -0.00118892, -7.82737e-05, 0.00114975, -0.0030708, -0.00290703, -0.00349676, 0.000454853, 0.00304022, -0.0111087, -0.444715, 0.63503, -3.13185, -0.0555641, -0.10756, -0.0102674, -0.442993, 0.634522, -3.13053, -0.056166, -0.105613, 0.000551439, 0.000925004, -0.00123836, -0.000286309, -0.00215918, -0.00423645
0.0300603, 0.107583, -0.77396, -0.916917, -1.45738, -0.625221, 1.06971, -0.257046, 0.00290268, -0.00376635, -0.00583649, -0.0130409, 0.000813554, 0.00401383, 0.00160236, -0.583427, 15.1642, 20.0815, 16.7374, 0.988036, 3.74057, 0.0495105, 0.000869058, -0.00168711, 0.000588024, 0.00141996, -0.00120464, -9.23148e-05, -0.000997976, -0.00210742, -0.00408776, -0.0055775, 0.00278944, 0.00935673, -0.0111081, -0.444714, 0.635029, -3.13185, -0.0555643, -0.107565, -0.0102616, -0.442992, 0.634513, -3.13051, -0.0561888, -0.105593, 0.000613805, 0.0010274, -0.00137684, 0.00196384, -0.00100831, -0.00539932
0.0310603, 0.107583, -0.77396, -0.916917, -1.45738, -0.625221, 1.06971, -0.257046, 0.00290268, -0.00376635, -0.00583649, -0.0130409, 0.000813554, 0.00401383, 0.00160236, -0.583427, 15.1642, 20.0815, 16.7374, 0.988036, 3.74057, 0.0495105, 0.000868473, -0.00168606, 0.000586533, 0.00141683, -0.00120826, -9.21952e-05, -0.000938738, -0.00221153, -0.00393719, -0.00527789, 0.00283387, 0.00992811, -0.0111074, -0.444713, 0.635028, -3.13184, -0.0555646, -0.10757, -0.0102616, -0.442992, 0.634513, -3.13051, -0.0561888, -0.105593, 0.000679445, 0.00113481, -0.00152234, 0.00196384, -0.00100831, -0.00539932
0.0320603, 0.107583, -0.77396, -0.916917, -1.45738, -0.625221, 1.06971, -0.257046, 0.00290268, -0.00376635, -0.00583649, -0.0130409, 0.000813554, 0.00401383, 0.00160236, -0.583427, 15.1642, 20.0815, 16.7374, 0.988036, 3.74057, 0.0495105, 0.000867828, -0.00168491, 0.000584889, 0.00141337, -0.00121226, -9.20624e-05, -0.00087655, -0.00232044, -0.0037794, -0.00496412, 0.00288063, 0.0105267, -0.0111067, -0.444712, 0.635026, -3.13184, -0.0555649, -0.107577, -0.0102616, -0.442992, 0.634513, -3.13051, -0.0561888, -0.105593, 0.000748347, 0.00124718, -0.0016748, 0.00196384, -0.00100831, -0.00539932
0.0330603, 0.107588, -0.773962, -0.916949, -1.45744, -0.625218, 1.06971, -0.257055, 0.000788102, -0.00393437, -0.00758303, -0.0155184, 0.00090443, 0.00484149, -0.00167275, -0.583427, 15.3467, 19.8594, 16.4359, 0.956908, 3.59683, 0.114513, 0.000871985, -0.00168142, 0.000610918, 0.00146551, -0.00125262, -0.000115112, 0.00011462, -0.00270575, -0.00473672, -0.00634609, 0.0039513, 0.0123046, -0.0111059, -0.444711, 0.635024, -3.13184, -0.0555653, -0.107583, -0.0102547, -0.442994, 0.634485, -3.13045, -0.056227, -0.105533, 0.000820503, 0.00136446, -0.00183418, 0.00112709, -0.00130268, -0.00658424
0.0340603, 0.107588, -0.773959, -0.916959, -1.45746, -0.625221, 1.06971, -0.25705, -0.000402555, -0.00269893, -0.00786878, -0.0167264, -0.00881623, 0.00320696, 0.000580253, -0.543754, 15.3467, 19.784, 16.3644, 0.956908, 3.59683, 0.0687366, 0.000872327, -0.00167926, 0.000618487, 0.00147974, -0.00127814, -0.000110983, 0.00225143, -0.00356009, -0.00507526, -0.00380311, 0.0142182, 0.00525486, -0.0111051, -0.444709, 0.635022, -3.13183, -0.0555656, -0.10759, -0.0102529, -0.442995, 0.634476, -3.13044, -0.0562216, -0.1055, 0.000895902, 0.00148661, -0.00200043, -0.00087425, -0.00210653, -0.00724041
0.0350603, 0.107594, -0.773953, -0.916968, -1.45748, -0.625217, 1.06971, -0.257052, 0.000659698, 0.00209436, -0.00904559, -0.0186121, -0.0059842, 0.00212245, -0.000359149, -0.583427, 15.311, 19.7483, 16.3248, 0.938597, 3.59683, 0.0888782, 0.000878368, -0.00167795, 0.000626032, 0.00149636, -0.00130167, -0.000125674, -5.55537e-05, -0.00319404, -0.00575687, -0.00717989, 0.0187413, 0.00935376, -0.0111041, -0.444708, 0.63502, -3.13183, -0.055566, -0.107598, -0.0102454, -0.442994, 0.634466, -3.13042, -0.0562456, -0.10547, 0.000974534, 0.00161356, -0.00217351, 0.00153812, -0.00152671, -0.00793264
0.0360603, 0.107594, -0.773952, -0.916976, -1.4575, -0.625217, 1.0697, -0.25705, -0.000488186, 0.00244832, -0.00541341, -0.0197614, -0.00481549, 0.000860784, 0.00145599, -0.543754, 15.2753, 19.6729, 16.2891, 0.945006, 3.61148, 0.0431018, 0.000879905, -0.0016766, 0.000632224, 0.00150923, -0.00132364, -0.000129251, -0.00108376, -0.00214643, -0.00495092, -0.00660532, 0.0194787, 0.0110139, -0.0111031, -0.444706, 0.635018, -3.13182, -0.0555664, -0.107607, -0.0102424, -0.442994, 0.634458, -3.1304, -0.0562522, -0.105443, 0.00105639, 0.00174526, -0.00235336, 0.00255256, -0.000318843, -0.00723129
0.0370603, 0.10759, -0.773952, -0.916983, -1.45752, -0.625217, 1.06971, -0.257052, -0.00208867, 0.00179486, -0.00938309, -0.0166889, -0.00365182, 0.000565122, 0.00097066, -0.468376, 15.2753, 19.5975, 16.2137, 0.945006, 3.61148, 0.0431018, 0.000879025, -0.00167418, 0.000637417, 0.0015168, -0.00134074, -0.000130465, 0.0016154, -0.00302396, -0.00495156, -0.00778186, 0.0163195, 0.0065942, -0.011102, -0.444704, 0.635016, -3.13182, -0.0555669, -0.107616, -0.0102417, -0.442995, 0.63445, -3.13039, -0.0562549, -0.105425, 0.00114146, 0.00188168, -0.00253994, -2.20734e-05, -0.0011543, -0.00760954
0.0380603, 0.10759, -0.77395, -0.916993, -1.45755, -0.625216, 1.06971, -0.257056, -0.00139242, 0.00131856, -0.00662142, -0.0178315, -0.00252831, 0.000370197, -0.000810955, -0.468376, 15.2753, 19.5618, 16.2891, 0.938597, 3.61148, 0.0824695, 0.000882044, -0.00167215, 0.000646796, 0.00153415, -0.00136858, -0.000143626, 0.000208393, -0.0024196, -0.0043702, -0.00698611, 0.015775, 0.0130573, -0.0111008, -0.444702, 0.635013, -3.13181, -0.0555674, -0.107626, -0.0102368, -0.442994, 0.634439, -3.13037, -0.0562767, -0.105391, 0.00122973, 0.00202275, -0.00273321, 0.00140765, -0.000364781, -0.00712235
0.0390603, 0.107587, -0.773944, -0.917006, -1.45758, -0.625219, 1.06971, -0.25705, 0.000421368, 0.00273377, -0.00615043, -0.0238344, -0.00193388, 0.000513153, -0.00300414, -0.392998, 15.1999, 19.5975, 16.3248, 0.938597, 3.60415, 0.0229602, 0.000882106, -0.00166955, 0.000656043, 0.00155198, -0.00140388, -0.000136711, -0.00246779, -0.00206882, -0.00585054, -0.0097891, 0.020626, 0.0215668, -0.0110996, -0.4447, 0.63501, -3.1318, -0.055568, -0.107637, -0.0102347, -0.442995, 0.634427, -3.13035, -0.0562674, -0.105345, 0.00132119, 0.00216842, -0.00293311, 0.00425621, 0.000238432, -0.00861286
0.0400603, 0.107589, -0.773949, -0.917021, -1.45761, -0.625216, 1.06971, -0.25706, 0.00146835, 0.0032569, -0.00911743, -0.0251613, -0.0010347, 0.000338417, -0.00483313, -0.43267, 15.2753, 19.6372, 16.3644, 0.926695, 3.60415, 0.0888782, 0.000881508, -0.00166596, 0.000665156, 0.00156969, -0.00142035, -0.000152156, -0.00248201, -0.00258628, -0.00691328, -0.0126108, 0.0216237, 0.0241026, -0.0110982, -0.444698, 0.635007, -3.1318, -0.0555686, -0.107648, -0.0102332, -0.442996, 0.634414, -3.13032, -0.0562927, -0.10533, 0.00141584, 0.00231864, -0.0031396, 0.00445636, -0.000118709, -0.00988179
0.0410603, 0.107583, -0.773947, -0.917028, -1.45763, -0.625218, 1.0697, -0.257053, 0.000245443, 0.00248348, -0.0086355, -0.025247, -0.000829492, -0.000319687, -0.000835043, -0.392998, 15.2753, 19.5618, 16.3644, 0.926695, 3.6188, 0.0165515, 0.000880384, -0.00166444, 0.000671582, 0.00158323, -0.00145108, -0.000145615, -0.00176176, -0.00247942, -0.00663092, -0.0125396, 0.0211252, 0.0202304, -0.0110967, -0.444695, 0.635004, -3.13179, -0.0555692, -0.107661, -0.0102324, -0.442995, 0.634405, -3.1303, -0.0562838, -0.105293, 0.00151366, 0.00247337, -0.00335263, 0.00381298, 0.000115074, -0.00986201
0.0420603, 0.107585, -0.773949, -0.917036, -1.45766, -0.625216, 1.0697, -0.257063, 0.00123757, 0.00105459, -0.00822013, -0.0261136, -0.000861214, -0.000995091, -0.00270827, -0.43267, 15.311, 19.4864, 16.4001, 0.932189, 3.63986, 0.0687366, 0.000883018, -0.00166236, 0.000678719, 0.00159705, -0.00147504, -0.000166067, -0.00190936, -0.00243696, -0.00669156, -0.0130473, 0.020686, 0.0247028, -0.0110952, -0.444693, 0.635, -3.13178, -0.0555699, -0.107674, -0.0102276, -0.442995, 0.634394, -3.13028, -0.056317, -0.105268, 0.00161465, 0.00263255, -0.00357216, 0.00406382, 0.000322446, -0.0101316
0.0430603, 0.107574, -0.773946, -0.917051, -1.4577, -0.625217, 1.0697, -0.257059, -0.00259199, 0.0017139, -0.0108084, -0.030175, -0.00021191, -0.00120748, -0.000274184, -0.281914, 15.2753, 19.5261, 16.5866, 0.920287, 3.65451, 0.0229602, 0.000879812, -0.00165936, 0.000690113, 0.00161885, -0.00151258, -0.000157352, -0.000440108, -0.00261498, -0.00831113, -0.0166904, 0.0237676, 0.0197584, -0.0110935, -0.44469, 0.634997, -3.13177, -0.0555706, -0.107688, -0.0102283, -0.442995, 0.634379, -3.13026, -0.0563052, -0.105222, 0.00171879, 0.00279613, -0.00379814, 0.00282051, 0.000270574, -0.0120755
0.0440603, 0.107577, -0.773954, -0.917071, -1.45772, -0.625219, 1.0697, -0.257064, -0.0039333, -0.00132414, -0.0132939, -0.0268893, -0.000437565, -0.00158605, -0.00200128, -0.317619, 15.3864, 19.5975, 16.5112, 0.926695, 3.67557, 0.0687366, 0.000874066, -0.00165391, 0.000698226, 0.00163602, -0.00153047, -0.000159059, 0.00273709, -0.00345202, -0.00787943, -0.0163429, 0.0191357, 0.0173774, -0.0110917, -0.444687, 0.634993, -3.13176, -0.0555714, -0.107702, -0.0102315, -0.442998, 0.634367, -3.13023, -0.0563093, -0.105207, 0.00182607, 0.00296406, -0.00403052, -0.000239538, -0.000513435, -0.0121011
0.0450603, 0.107572, -0.773954, -0.917084, -1.45775, -0.625216, 1.0697, -0.257063, -0.00365607, -0.000783974, -0.0156408, -0.0281301, 0.000579618, -0.000786972, 0.000268932, -0.281914, 15.3864, 19.5618, 16.5866, 0.901976, 3.66824, 0.0229602, 0.000873036, -0.00165057, 0.000706807, 0.00165269, -0.00155904, -0.000159218, 0.00276383, -0.00401916, -0.00859689, -0.0178055, 0.0194955, 0.0156562, -0.0110899, -0.444684, 0.634989, -3.13175, -0.0555722, -0.107718, -0.0102299, -0.442998, 0.634354, -3.13021, -0.0563112, -0.105177, 0.00193648, 0.00313629, -0.00426926, -8.62687e-05, -0.00090259, -0.013061
0.0460603, 0.107571, -0.773961, -0.917095, -1.45778, -0.625219, 1.0697, -0.257068, -0.00258637, -0.002119, -0.0170295, -0.0299108, -0.000324906, -0.000796571, -0.001348, -0.281914, 15.4578, 19.4864, 16.6977, 0.920287, 3.67557, 0.0623279, 0.000871313, -0.0016471, 0.000715122, 0.00166773, -0.0015857, -0.000170519, 0.00305549, -0.00450593, -0.00936347, -0.0189772, 0.0201624, 0.0187269, -0.0110879, -0.444681, 0.634984, -3.13174, -0.0555731, -0.107735, -0.0102289, -0.442998, 0.634341, -3.13018, -0.0563303, -0.105151, 0.00205002, 0.00331277, -0.00451432, -0.000193483, -0.00121605, -0.014094
0.0470603, 0.107568, -0.773959, -0.917108, -1.4578, -0.625217, 1.0697, -0.257066, -0.00276401, -0.000521879, -0.0155324, -0.026137, 0.000436702, -0.0015827, 0.000744833, -0.242241, 15.4221, 19.4507, 16.7374, 0.901976, 3.70395, 0.0165515, 0.000870076, -0.00164384, 0.000722702, 0.00168513, -0.00161771, -0.000170444, 0.00298995, -0.00435686, -0.00753101, -0.0162743, 0.0191324, 0.0170047, -0.0110858, -0.444678, 0.63498, -3.13173, -0.055574, -0.107752, -0.0102274, -0.442998, 0.634329, -3.13016, -0.056332, -0.105118, 0.00216668, 0.00349346, -0.00476563, -0.000142357, -0.000899984, -0.0125119
0.0480603, 0.107564, -0.773961, -0.917131, -1.45783, -0.625215, 1.06969, -0.257071, -0.0027617, -0.000306244, -0.0161675, -0.0222611, 0.000747206, -0.0026492, -0.000763088, -0.206535, 15.4221, 19.4864, 16.7374, 0.889159, 3.74698, 0.0495105, 0.000862971, -0.00163865, 0.000732197, 0.00170804, -0.00164638, -0.000166496, 0.00409237, -0.00466615, -0.00634805, -0.0150384, 0.0172377, 0.0171982, -0.0110835, -0.444674, 0.634975, -3.13172, -0.055575, -0.107771, -0.0102314, -0.443, 0.634314, -3.13012, -0.0563279, -0.10509, 0.00228643, 0.0036783, -0.00502317, -0.00119172, -0.00107327, -0.0116672
0.0490603, 0.107565, -0.773962, -0.917151, -1.45785, -0.625215, 1.06969, -0.257067, -0.00106877, -0.000172906, -0.0191481, -0.021777, 0.000687603, -0.00312275, 0.000920132, -0.242241, 15.4221, 19.4864, 16.6977, 0.883666, 3.7836, 0.0101428, 0.000859589, -0.0016341, 0.000740732, 0.00173023, -0.00167875, -0.000161949, 0.00453683, -0.0054171, -0.00686264, -0.0166456, 0.0175741, 0.01569, -0.0110812, -0.44467, 0.634969, -3.13171, -0.0555761, -0.10779, -0.0102317, -0.443, 0.6343, -3.13009, -0.0563228, -0.105058, 0.00240928, 0.00386724, -0.00528689, -0.0014498, -0.00164584, -0.0124797
0.0500603, 0.107565, -0.77396, -0.917173, -1.45789, -0.625213, 1.06968, -0.257077, -0.00389944, 0.00074339, -0.0219644, -0.0283418, 0.000922631, -0.0023194, -0.00157862, -0.242241, 15.3864, 19.5261, 16.8127, 0.870848, 3.79001, 0.0687366, 0.000858043, -0.00162868, 0.000751968, 0.00175406, -0.00171771, -0.000172561, 0.00503479, -0.00576318, -0.00919681, -0.0207414, 0.0223729, 0.0177583, -0.0110787, -0.444666, 0.634964, -3.1317, -0.0555772, -0.107811, -0.0102298, -0.443002, 0.634283, -3.13006, -0.0563415, -0.105016, 0.00253522, 0.00406024, -0.00555673, -0.00164772, -0.00179568, -0.0151148
0.0510603, 0.107563, -0.773965, -0.917196, -1.45792, -0.625212, 1.06968, -0.257075, -0.00373185, -0.00115726, -0.0232847, -0.0249956, 0.00104803, -0.00263149, -0.0045322, -0.206535, 15.4578, 19.5261, 16.8484, 0.858946, 3.8193, 0.0357776, 0.000850758, -0.0016225, 0.000761199, 0.00177556, -0.00174577, -0.000163119, 0.00678201, -0.00639271, -0.00836787, -0.0196398, 0.0185103, 0.0193006, -0.0110761, -0.444662, 0.634958, -3.13168, -0.0555784, -0.107832, -0.0102336, -0.443004, 0.634268, -3.13003, -0.056329, -0.104992, 0.00266423, 0.00425725, -0.00583265, -0.00329498, -0.00229642, -0.0146882
0.0520603, 0.107565, -0.773955, -0.917216, -1.45794, -0.625213, 1.06968, -0.257076, -0.00187544, 0.00184013, -0.0191238, -0.0215298, 0.000251978, -0.00202571, -0.00271205, -0.242241, 15.3467, 19.4507, 16.8484, 0.870848, 3.82663, 0.0165515, 0.000850886, -0.00161622, 0.000768009, 0.00178901, -0.00178912, -0.000163658, 0.00464415, -0.00618242, -0.00572803, -0.0134711, 0.0194634, 0.0214356, -0.0110734, -0.444658, 0.634952, -3.13167, -0.0555796, -0.107855, -0.01023, -0.443006, 0.634255, -3.13, -0.0563318, -0.104946, 0.0027963, 0.00445821, -0.00611461, -0.00122002, -0.00183319, -0.0121882
0.0530603, 0.107558, -0.773954, -0.917242, -1.45797, -0.625214, 1.06968, -0.257079, -0.00318059, 0.00123665, -0.0220272, -0.0249353, 0.000841729, -0.00185919, -0.00258474, -0.166862, 15.3467, 19.4864, 16.9595, 0.852538, 3.84036, 0.0293689, 0.000842995, -0.00160912, 0.000778226, 0.00180983, -0.00182843, -0.000154053, 0.00562033, -0.00667076, -0.00726225, -0.0167397, 0.0207655, 0.0209552, -0.0110705, -0.444653, 0.634946, -3.13165, -0.0555809, -0.107878, -0.0102341, -0.443009, 0.634238, -3.12997, -0.0563192, -0.104907, 0.00293143, 0.00466308, -0.00640257, -0.00193527, -0.0021371, -0.0140772
0.0540603, 0.107552, -0.773954, -0.917261, -1.458, -0.625214, 1.06968, -0.257082, -0.00308091, 0.000831848, -0.0216966, -0.025523, 8.31158e-05, -0.00178206, -0.00194966, -0.131157, 15.3467, 19.4111, 16.9992, 0.865355, 3.85501, 0.0293689, 0.000836947, -0.00160284, 0.000784742, 0.00182394, -0.00186266, -0.000150235, 0.00573669, -0.00688387, -0.00705392, -0.0158908, 0.0213659, 0.0217601, -0.0110675, -0.444648, 0.63494, -3.13164, -0.0555822, -0.107903, -0.0102364, -0.44301, 0.634225, -3.12994, -0.0563154, -0.104877, 0.00306961, 0.00487181, -0.00669647, -0.00191967, -0.00214716, -0.0141729
0.0550608, 0.107554, -0.773949, -0.917289, -1.45802, -0.625213, 1.06967, -0.257086, -0.0013127, 0.00139535, -0.0206982, -0.0227098, 0.000968449, -0.00278178, -0.00709527, -0.166862, 15.311, 19.4507, 17.0349, 0.840636, 3.89804, 0.0559192, 0.000831883, -0.00159509, 0.000793605, 0.00184544, -0.0019042, -0.000146788, 0.00510814, -0.00682233, -0.00572147, -0.014404, 0.0199942, 0.0295808, -0.0110644, -0.444643, 0.634933, -3.13162, -0.0555837, -0.107929, -0.0102374, -0.443013, 0.634209, -3.12991, -0.0563125, -0.104836, 0.00321082, 0.00508435, -0.00699628, -0.00124539, -0.00186267, -0.0130999
0.0560608, 0.107549, -0.773946, -0.917309, -1.45805, -0.62521, 1.06967, -0.257082, -0.00178083, 0.00176962, -0.020729, -0.0248823, 0.00111848, -0.00677336, -0.00354902, -0.131157, 15.2753, 19.3754, 17.1103, 0.827819, 3.90536, 0.0101428, 0.000827613, -0.00158866, 0.000800248, 0.0018605, -0.00194172, -0.000137132, 0.00528604, -0.00613775, -0.00639727, -0.0184701, 0.0237859, 0.0279242, -0.0110611, -0.444638, 0.634926, -3.13161, -0.0555852, -0.107956, -0.0102377, -0.443014, 0.634195, -3.12988, -0.0562998, -0.104804, 0.00335505, 0.00530066, -0.00730195, -0.00125642, -0.000962418, -0.0140878
0.0570608, 0.107551, -0.773949, -0.917334, -1.45807, -0.62521, 1.06967, -0.257088, -0.00347233, 0.000347659, -0.021766, -0.0224692, 0.00142242, -0.00541152, -0.00492185, -0.166862, 15.311, 19.3397, 17.146, 0.809508, 3.9191, 0.0687366, 0.000821067, -0.00158082, 0.000807866, 0.0018789, -0.0019781, -0.000138196, 0.00722723, -0.00690137, -0.00551477, -0.016108, 0.0200187, 0.0269488, -0.0110577, -0.444633, 0.634918, -3.13159, -0.0555867, -0.107984, -0.01024, -0.443017, 0.634179, -3.12985, -0.0563039, -0.104774, 0.0035023, 0.00552068, -0.00761342, -0.00307778, -0.00158153, -0.0136579
0.0580608, 0.107548, -0.773948, -0.917361, -1.4581, -0.625208, 1.06967, -0.257082, -0.00261015, 0.000234119, -0.0231415, -0.0239496, 0.00186276, -0.00471198, -0.00140037, -0.166862, 15.311, 19.3397, 17.1857, 0.784789, 3.94107, 0.0101428, 0.000813465, -0.00157207, 0.000814313, 0.00189309, -0.00201245, -0.000121328, 0.00699226, -0.00739231, -0.00599777, -0.0168371, 0.0203632, 0.0254522, -0.0110541, -0.444627, 0.63491, -3.13157, -0.0555884, -0.108013, -0.0102432, -0.44302, 0.634164, -3.12982, -0.0562801, -0.104748, 0.00365255, 0.00574437, -0.00793067, -0.0026424, -0.0018358, -0.0144442
0.0590608, 0.107547, -0.773946, -0.917389, -1.45812, -0.625208, 1.06966, -0.257086, -0.00196155, 0.00015784, -0.0218368, -0.0247504, 0.0014445, -0.00390172, -0.00237123, -0.166862, 15.311, 19.3754, 17.2214, 0.779296, 3.95572, 0.0431018, 0.0008059, -0.00156327, 0.000821615, 0.001911, -0.00205353, -0.000114345, 0.00627823, -0.00752303, -0.00548772, -0.014953, 0.0207739, 0.0295369, -0.0110504, -0.444621, 0.634902, -3.13155, -0.0555901, -0.108044, -0.0102462, -0.443023, 0.634148, -3.12978, -0.0562719, -0.104714, 0.0038058, 0.00597168, -0.00825364, -0.00180752, -0.00171844, -0.0142101
0.0600608, 0.107547, -0.773938, -0.917417, -1.45814, -0.625207, 1.06966, -0.257085, -0.00147379, 0.002705, -0.0230903, -0.0221884, 0.00119977, -0.00300191, -0.000522835, -0.166862, 15.1999, 19.3754, 17.2571, 0.772887, 3.96213, 0.0101428, 0.000800526, -0.00155394, 0.000827516, 0.00192451, -0.00209921, -0.000103429, 0.00631774, -0.00829644, -0.00456407, -0.0126293, 0.0215536, 0.0270665, -0.0110465, -0.444615, 0.634894, -3.13153, -0.0555919, -0.108076, -0.0102469, -0.443027, 0.634134, -3.12975, -0.0562576, -0.104673, 0.00396204, 0.00620257, -0.00858229, -0.00172645, -0.00226999, -0.0136253
0.0610608, 0.107547, -0.773938, -0.917448, -1.45817, -0.625206, 1.06966, -0.257094, -0.00110709, 0.00414082, -0.0249997, -0.0203836, 0.00124021, -0.00188646, -0.00314936, -0.166862, 15.2356, 19.4111, 17.2968, 0.760985, 3.95572, 0.0824695, 0.000791747, -0.00154329, 0.000834041, 0.00193843, -0.00213558, -0.00010005, 0.006726, -0.0091805, -0.0040704, -0.011159, 0.0214196, 0.0290013, -0.0110424, -0.444609, 0.634885, -3.13151, -0.0555937, -0.108109, -0.0102508, -0.443031, 0.634118, -3.12972, -0.056255, -0.104648, 0.00412125, 0.00643698, -0.00891658, -0.00197653, -0.00293775, -0.0135014
0.0620608, 0.107545, -0.773938, -0.917477, -1.45819, -0.625202, 1.06966, -0.25709, -0.000831486, 0.00209758, -0.026554, -0.0190555, 0.00106384, -0.00212945, -0.00416895, -0.166862, 15.2753, 19.4507, 17.3325, 0.754576, 3.97677, 0.0101428, 0.000782634, -0.00153359, 0.000839822, 0.00195386, -0.00217215, -8.32774e-05, 0.00820717, -0.00982128, -0.00385901, -0.0110342, 0.0189626, 0.0296793, -0.0110382, -0.444602, 0.634876, -3.13149, -0.0555957, -0.108143, -0.0102549, -0.443035, 0.634102, -3.12969, -0.0562317, -0.104624, 0.00428343, 0.00667487, -0.00925645, -0.0032826, -0.00339414, -0.0137372
0.0630615, 0.107544, -0.773932, -0.917505, -1.45821, -0.625199, 1.06966, -0.257097, -0.000624392, 0.00252519, -0.0297784, -0.018172, 0.00118369, -0.0012173, -0.00540613, -0.166862, 15.2356, 19.4507, 17.3721, 0.741759, 3.96945, 0.0687366, 0.000775929, -0.00152382, 0.000844768, 0.00196687, -0.00221646, -8.04317e-05, 0.00923559, -0.0108804, -0.00405849, -0.0111789, 0.0185289, 0.0296207, -0.0110339, -0.444596, 0.634867, -3.13147, -0.0555977, -0.108178, -0.0102565, -0.443038, 0.634087, -3.12966, -0.0562301, -0.10459, 0.00444857, 0.0069162, -0.00960188, -0.0040911, -0.0042456, -0.01436
0.0640615, 0.107544, -0.773927, -0.917531, -1.45823, -0.625204, 1.06965, -0.25709, -0.000468813, 0.00500301, -0.0292717, -0.0197496, 0.000314224, -0.000863235, -0.00130175, -0.166862, 15.2356, 19.4507, 17.3721, 0.754576, 3.96945, -0.00267457, 0.00076784, -0.00151292, 0.000847921, 0.00197236, -0.00226355, -5.93012e-05, 0.00820984, -0.0110332, -0.00391422, -0.0101622, 0.0226144, 0.0278146, -0.0110293, -0.444589, 0.634857, -3.13145, -0.0555998, -0.108215, -0.0102595, -0.443042, 0.634074, -3.12963, -0.0561999, -0.104552, 0.00461665, 0.00716091, -0.0099528, -0.0029047, -0.00411862, -0.0144975
0.0650615, 0.107544, -0.77393, -0.917562, -1.45825, -0.6252, 1.06965, -0.257103, -0.000351955, 0.00425244, -0.0295578, -0.0226369, 0.00068406, -0.000885534, -0.00451557, -0.166862, 15.3467, 19.4864, 17.4435, 0.741759, 3.97677, 0.0888782, 0.000758172, -0.00150203, 0.000853758, 0.00198688, -0.00229983, -6.26538e-05, 0.00796478, -0.0111201, -0.00453985, -0.0114923, 0.0236133, 0.03398, -0.0110246, -0.444581, 0.634847, -3.13142, -0.055602, -0.108254, -0.0102636, -0.443046, 0.634057, -3.1296, -0.0562081, -0.104533, 0.00478767, 0.00740896, -0.0103092, -0.00244301, -0.00394312, -0.0154621
0.0660615, 0.107538, -0.773922, -0.917591, -1.45827, -0.625204, 1.06965, -0.257096, -0.00202743, 0.00736964, -0.0332567, -0.0181617, -1.8783e-05, -0.000619438, -0.000524284, -0.0914839, 15.311, 19.5261, 17.3721, 0.754576, 3.97677, 0.0165515, 0.000746205, -0.00148974, 0.00085445, 0.0019875, -0.00234618, -3.14168e-05, 0.0101424, -0.0123733, -0.00366115, -0.00976967, 0.0244924, 0.0242715, -0.0110198, -0.444574, 0.634836, -3.1314, -0.0556043, -0.108293, -0.0102701, -0.443051, 0.634045, -3.12957, -0.0561623, -0.1045, 0.00496161, 0.0076603, -0.010671, -0.00445579, -0.00502858, -0.0151067
0.0670615, 0.107544, -0.773919, -0.917612, -1.45829, -0.625201, 1.06965, -0.257107, 0.000389445, 0.00474859, -0.0308661, -0.0176083, 0.000224758, -0.000706037, -0.00293543, -0.166862, 15.3467, 19.4864, 17.4078, 0.748168, 3.9841, 0.0824695, 0.000743287, -0.00148063, 0.00085664, 0.00199576, -0.0023925, -4.38642e-05, 0.00933853, -0.0122683, -0.00260886, -0.00771349, 0.0214177, 0.0321865, -0.0110147, -0.444566, 0.634825, -3.13137, -0.0556067, -0.108334, -0.0102675, -0.443052, 0.634032, -3.12954, -0.0561846, -0.104468, 0.00513848, 0.00791489, -0.0110382, -0.00355359, -0.00465028, -0.0143684
0.0680615, 0.107544, -0.77391, -0.917642, -1.45831, -0.625201, 1.06965, -0.257101, 0.000243002, 0.010764, -0.0306215, -0.02108, -8.75793e-05, -0.00048705, 0.000376076, -0.166862, 15.311, 19.5261, 17.4832, 0.754576, 3.9841, 0.0165515, 0.000735791, -0.00146875, 0.000859598, 0.00200295, -0.00244451, -2.44055e-05, 0.00698042, -0.0121918, -0.00296755, -0.00797251, 0.0299293, 0.0319847, -0.0110095, -0.444558, 0.634814, -3.13135, -0.0556092, -0.108376, -0.0102691, -0.443056, 0.634017, -3.12951, -0.0561575, -0.104428, 0.00531825, 0.00817268, -0.0114107, -0.00100071, -0.00422972, -0.0149354
0.0690615, 0.107541, -0.773904, -0.917671, -1.45832, -0.625199, 1.06965, -0.257109, -0.000685687, 0.0135269, -0.031524, -0.0178548, 0.000416287, -0.000336969, -0.00128863, -0.131157, 15.3467, 19.5975, 17.4435, 0.741759, 3.9841, 0.0559192, 0.000725262, -0.00145637, 0.000859587, 0.00200471, -0.00248803, -1.40684e-05, 0.00756124, -0.0127038, -0.00170475, -0.00582675, 0.0302953, 0.0320881, -0.0110041, -0.44455, 0.634803, -3.13132, -0.0556118, -0.10842, -0.0102737, -0.443061, 0.634005, -3.12949, -0.0561444, -0.104404, 0.00550092, 0.00843363, -0.0117885, -0.00146581, -0.00451234, -0.0140976
0.0700615, 0.107541, -0.773895, -0.917693, -1.45834, -0.6252, 1.06965, -0.257104, -0.000466478, 0.01239, -0.0260776, -0.018128, -0.000197226, -0.000505115, 0.00125009, -0.131157, 15.3864, 19.5618, 17.5189, 0.754576, 3.99142, -0.00267457, 0.000719567, -0.00144525, 0.000859876, 0.0020052, -0.00254271, -5.41875e-07, 0.00630659, -0.011959, 9.47094e-05, -0.00165415, 0.0297894, 0.035258, -0.0109985, -0.444541, 0.634791, -3.13129, -0.0556144, -0.108465, -0.0102734, -0.443064, 0.633992, -3.12946, -0.0561265, -0.104363, 0.00568647, 0.00869769, -0.0121715, -0.000180132, -0.00347618, -0.0125942
0.0710615, 0.107538, -0.773888, -0.917719, -1.45836, -0.625201, 1.06965, -0.257112, -0.00124602, 0.0116936, -0.0263169, -0.017861, -0.000368868, -0.00504804, -0.00161982, -0.0914839, 15.4221, 19.5618, 17.4435, 0.760985, 3.99142, 0.0623279, 0.000709752, -0.00143275, 0.00085786, 0.0020014, -0.00259112, 9.09567e-06, 0.00768147, -0.0114674, 0.000112888, -0.00472876, 0.0314841, 0.0384619, -0.0109927, -0.444532, 0.634778, -3.13127, -0.0556172, -0.108512, -0.0102771, -0.443068, 0.633981, -3.12944, -0.0561146, -0.104334, 0.00587491, 0.00896481, -0.0125597, -0.0013812, -0.00276634, -0.0130568
0.0720615, 0.107547, -0.773876, -0.91775, -1.45838, -0.625203, 1.06965, -0.257114, 0.00185532, 0.0120371, -0.0292928, -0.018354, 0.000228787, -0.00376257, 0.00010653, -0.206535, 15.4221, 19.6729, 17.5189, 0.748168, 3.99142, 0.0293689, 0.000705263, -0.001419, 0.000859433, 0.00200442, -0.00265057, 1.39703e-05, 0.00698379, -0.0125104, -0.00044445, -0.0054783, 0.0313492, 0.0396367, -0.0109867, -0.444523, 0.634765, -3.13124, -0.05562, -0.10856, -0.0102749, -0.443072, 0.633967, -3.12941, -0.0561104, -0.104289, 0.00606621, 0.00923495, -0.0129531, -0.000418484, -0.00350886, -0.0139654
0.0730615, 0.107538, -0.773865, -0.917783, -1.45839, -0.625207, 1.06964, -0.25712, 0.00481877, 0.0122243, -0.0310175, -0.0166573, -0.000763017, -0.00331491, -0.00539947, -0.0914839, 15.4221, 19.784, 17.5189, 0.772887, 4.00516, 0.0559192, 0.00069071, -0.00140544, 0.000859665, 0.00200732, -0.00271045, 3.71124e-05, 0.00684821, -0.0134804, -4.67389e-05, -0.00421594, 0.0311981, 0.0469933, -0.0109806, -0.444514, 0.634752, -3.13121, -0.055623, -0.10861, -0.0102828, -0.443077, 0.633952, -3.12939, -0.056078, -0.104245, 0.00626038, 0.00950806, -0.0133516, -8.1891e-05, -0.00420405, -0.0139649
0.0740615, 0.107538, -0.773854, -0.917806, -1.4584, -0.625201, 1.06964, -0.257118, 0.00373265, 0.0123478, -0.0262729, -0.0179136, 0.000406839, -0.00243337, -0.0022953, -0.0914839, 15.4221, 19.784, 17.4832, 0.748168, 4.00516, 0.0101428, 0.000684866, -0.00139355, 0.000855979, 0.00200343, -0.00276214, 4.79312e-05, 0.00535856, -0.0127466, 0.00145168, -0.000710898, 0.0307407, 0.0491962, -0.0109742, -0.444504, 0.634739, -3.13117, -0.055626, -0.108661, -0.010282, -0.443079, 0.633942, -3.12936, -0.0560645, -0.104215, 0.00645739, 0.00978411, -0.0137552, 0.00147045, -0.00315605, -0.0127658
0.0750615, 0.107543, -0.773847, -0.917836, -1.45842, -0.625202, 1.06964, -0.257125, 0.00380655, 0.00670764, -0.0281724, -0.0164946, -0.00040695, -0.00178982, -0.00351893, -0.131157, 15.5331, 19.8594, 17.4832, 0.766478, 4.00516, 0.0559192, 0.000676528, -0.00137908, 0.000854914, 0.00200178, -0.00281648, 5.34677e-05, 0.00821459, -0.0138064, 0.00161729, 0.000175008, 0.0247197, 0.0495385, -0.0109676, -0.444494, 0.634725, -3.13114, -0.0556292, -0.108713, -0.0102833, -0.443084, 0.633928, -3.12934, -0.0560595, -0.104183, 0.00665724, 0.010063, -0.0141638, -0.0011506, -0.00403843, -0.0132155
0.0760615, 0.107544, -0.773833, -0.917864, -1.45844, -0.625203, 1.06964, -0.257123, 0.00366549, 0.00844663, -0.0291774, -0.0165002, -0.000746024, -0.00213269, -0.00063315, -0.166862, 15.5331, 19.9347, 17.5189, 0.779296, 4.02713, 0.00373412, 0.000668711, -0.00136534, 0.000852926, 0.0019996, -0.00287975, 6.99498e-05, 0.00835801, -0.0142057, 0.00179824, 0.000342358, 0.0270885, 0.0471933, -0.0109609, -0.444484, 0.63471, -3.13111, -0.0556325, -0.108767, -0.010284, -0.443088, 0.633915, -3.12931, -0.0560376, -0.104138, 0.00685993, 0.0103448, -0.0145774, -0.00108913, -0.00416246, -0.013462
0.0770615, 0.107537, -0.773825, -0.917889, -1.45845, -0.625201, 1.06964, -0.257136, 0.000899855, 0.0111674, -0.024985, -0.0185488, 0.000180815, -0.000973521, -0.00350321, -0.0914839, 15.6046, 19.9347, 17.5189, 0.760985, 4.01248, 0.0824695, 0.000657097, -0.00135168, 0.000848675, 0.0019912, -0.00293308, 7.64046e-05, 0.00686085, -0.0135144, 0.00308416, 0.00371503, 0.0297946, 0.053615, -0.0109539, -0.444473, 0.634696, -3.13108, -0.0556359, -0.108823, -0.0102884, -0.443092, 0.633904, -3.12929, -0.056031, -0.104111, 0.00706543, 0.0106294, -0.0149959, 0.000495198, -0.00314643, -0.0124896
0.0780615, 0.107538, -0.773813, -0.917917, -1.45847, -0.625203, 1.06964, -0.257134, 0.000764477, 0.0139951, -0.0270862, -0.0170166, -0.000557629, -0.00153351, -0.000492522, -0.0914839, 15.6442, 20.0101, 17.5189, 0.779296, 4.03445, 0.0293689, 0.000647871, -0.00133705, 0.000845031, 0.00198536, -0.00299605, 9.37528e-05, 0.00744911, -0.0142091, 0.00345433, 0.00411966, 0.0327141, 0.0493697, -0.0109468, -0.444463, 0.63468, -3.13104, -0.0556394, -0.10888, -0.0102901, -0.443096, 0.633892, -3.12926, -0.0560079, -0.10407, 0.00727374, 0.0109167, -0.0154193, 0.000116195, -0.00357765, -0.0125902
0.0790615, 0.107536, -0.7738, -0.91795, -1.45848, -0.625206, 1.06963, -0.25714, -0.000202137, 0.0138599, -0.0302563, -0.0150715, -0.00128728, -0.00158399, -0.00187921, -0.0557783, 15.6442, 20.1569, 17.4832, 0.804015, 4.04819, 0.0687366, 0.000634906, -0.00132154, 0.000841315, 0.00198111, -0.00306121, 0.00011269, 0.00967955, -0.0152736, 0.00361375, 0.00434601, 0.032185, 0.0476987, -0.0109394, -0.444452, 0.634665, -3.131, -0.055643, -0.108939, -0.0102954, -0.443101, 0.633879, -3.12924, -0.0559825, -0.104027, 0.00748486, 0.0112067, -0.0158476, -0.00186936, -0.00443153, -0.0130229
0.0800615, 0.107536, -0.773789, -0.91797, -1.45849, -0.625204, 1.06963, -0.257138, -4.21857e-05, 0.0119947, -0.0238877, -0.0144107, -0.000383472, -0.000587131, 0.000610368, -0.0557783, 15.7156, 20.0815, 17.4832, 0.791197, 4.03445, 0.0165515, 0.000628383, -0.00130805, 0.000834381, 0.00196739, -0.00312065, 0.000122812, 0.00817173, -0.0144892, 0.00608839, 0.0100174, 0.0285925, 0.0520049, -0.0109318, -0.44444, 0.634649, -3.13097, -0.0556467, -0.109, -0.0102942, -0.443103, 0.633869, -3.12922, -0.0559705, -0.103995, 0.00769877, 0.0114994, -0.0162807, -0.000352017, -0.00332545, -0.0108779
0.0810615, 0.107536, -0.773773, -0.918002, -1.4585, -0.625208, 1.06963, -0.257149, -0.00621858, 0.0131867, -0.0295164, -0.0122514, -0.00161199, -0.000929871, -0.00157807, -0.0557783, 15.6799, 20.1569, 17.4078, 0.827819, 4.04819, 0.0687366, 0.0006156, -0.00129165, 0.000828329, 0.00195833, -0.00318878, 0.000138218, 0.0132688, -0.0158853, 0.00580832, 0.00920937, 0.0298447, 0.0437498, -0.010924, -0.444429, 0.634632, -3.13093, -0.0556505, -0.109062, -0.010299, -0.443108, 0.633858, -3.12919, -0.0559506, -0.103951, 0.00791545, 0.0117947, -0.0167186, -0.00514756, -0.00460233, -0.0119611
0.0820615, 0.107536, -0.773758, -0.918031, -1.45851, -0.625208, 1.06963, -0.257148, -0.00461531, 0.0139959, -0.0331593, -0.0133648, -0.000871208, -0.00091355, 0.000604223, -0.0557783, 15.6442, 20.1926, 17.4435, 0.822325, 4.05551, 0.0229602, 0.000606808, -0.00127625, 0.000823124, 0.00195014, -0.00325799, 0.000154543, 0.0133101, -0.0167479, 0.00487619, 0.00675126, 0.031153, 0.0430391, -0.010916, -0.444417, 0.634615, -3.13089, -0.0556545, -0.109126, -0.0102995, -0.443112, 0.633846, -3.12917, -0.0559295, -0.103907, 0.00813491, 0.0120926, -0.0171612, -0.00487382, -0.00515929, -0.0133436
0.0830615, 0.107538, -0.773743, -0.91806, -1.45852, -0.62521, 1.06962, -0.257157, -0.00259384, 0.0135747, -0.0332224, -0.0132102, -0.00146243, -0.000897077, -0.00580351, -0.0914839, 15.6442, 20.268, 17.4435, 0.846129, 4.06283, 0.0623279, 0.000596868, -0.00126023, 0.000816487, 0.00193957, -0.00332858, 0.000162891, 0.0129133, -0.0171908, 0.00529557, 0.00778468, 0.0312568, 0.0527947, -0.0109077, -0.444404, 0.634598, -3.13085, -0.0556585, -0.109191, -0.010301, -0.443116, 0.633834, -3.12914, -0.0559208, -0.103863, 0.00835714, 0.012393, -0.0176085, -0.00426937, -0.00529175, -0.0133493
0.0840615, 0.107541, -0.773731, -0.918087, -1.45853, -0.625211, 1.06962, -0.257155, -0.00106535, 0.0133625, -0.0305777, -0.0129919, -0.00121231, -6.80985e-05, -0.00187677, -0.131157, 15.6442, 20.2323, 17.4435, 0.852538, 4.04819, -0.00267457, 0.000586909, -0.00124417, 0.000808581, 0.00192606, -0.00339398, 0.000180211, 0.0115629, -0.0171512, 0.00660136, 0.0110081, 0.0303695, 0.0541747, -0.0108992, -0.444392, 0.63458, -3.13081, -0.0556627, -0.109258, -0.0103024, -0.44312, 0.633823, -3.12912, -0.0558982, -0.103829, 0.00858211, 0.0126959, -0.0180604, -0.00279046, -0.0049145, -0.0124053
0.0850615, 0.107541, -0.773719, -0.918119, -1.45854, -0.625214, 1.06962, -0.257164, -0.00090834, 0.0132521, -0.0316383, -0.00892797, -0.00172373, 0.000216432, -0.00397013, -0.131157, 15.6442, 20.3077, 17.4078, 0.877257, 4.04086, 0.0623279, 0.000572971, -0.00122665, 0.000800868, 0.00191332, -0.00346193, 0.00019567, 0.0129853, -0.0180194, 0.00803302, 0.0139533, 0.0280816, 0.0550641, -0.0108905, -0.444379, 0.634562, -3.13077, -0.055667, -0.109327, -0.0103075, -0.443125, 0.633812, -3.12909, -0.0558786, -0.103792, 0.00880983, 0.0130012, -0.018517, -0.00404955, -0.00554095, -0.0115406
0.0860615, 0.107544, -0.773707, -0.918155, -1.45855, -0.625216, 1.06961, -0.257162, 8.10781e-05, 0.00910208, -0.0327964, -0.0132215, -0.00182732, -0.00482158, -0.000947557, -0.166862, 15.6799, 20.4188, 17.4078, 0.895568, 4.04086, 0.0101428, 0.000560031, -0.00120798, 0.00079505, 0.00190315, -0.00353245, 0.000219764, 0.0140567, -0.0174826, 0.00625173, 0.00705069, 0.0295969, 0.0561012, -0.0108816, -0.444366, 0.634543, -3.13072, -0.0556715, -0.109398, -0.0103112, -0.443131, 0.633798, -3.12907, -0.0558459, -0.103753, 0.00904028, 0.013309, -0.0189781, -0.00478261, -0.00471763, -0.0138509
0.0870618, 0.107547, -0.773693, -0.918191, -1.45856, -0.625217, 1.06961, -0.25717, 0.000870637, 0.0132259, -0.032866, -0.0123063, -0.00145558, -0.00390419, -0.00226496, -0.206535, 15.6799, 20.4941, 17.3721, 0.901976, 4.04819, 0.0495105, 0.000546449, -0.00118947, 0.000787766, 0.00189292, -0.00360314, 0.000234239, 0.0127097, -0.0179049, 0.00720297, 0.00931054, 0.032561, 0.0596601, -0.0108725, -0.444352, 0.634524, -3.13068, -0.0556761, -0.10947, -0.0103154, -0.443137, 0.633785, -3.12904, -0.0558282, -0.103715, 0.00927346, 0.0136191, -0.0194438, -0.00325787, -0.00479165, -0.0132779
0.0880618, 0.107549, -0.773678, -0.918225, -1.45857, -0.625219, 1.06961, -0.257168, 0.000496849, 0.0108002, -0.032871, -0.0124854, -0.00164855, -0.00213681, 0.000800043, -0.206535, 15.6442, 20.5655, 17.3721, 0.920287, 4.02713, -0.0164075, 0.000533897, -0.00117054, 0.000779864, 0.00187893, -0.00367807, 0.000259341, 0.0136384, -0.0185813, 0.00771408, 0.0116075, 0.029699, 0.0580554, -0.0108631, -0.444339, 0.634504, -3.13064, -0.0556808, -0.109544, -0.0103184, -0.443142, 0.633772, -3.12901, -0.0557941, -0.103672, 0.00950935, 0.0139315, -0.0199139, -0.00395943, -0.00519316, -0.0133096
0.0890618, 0.10756, -0.773667, -0.918256, -1.45858, -0.625219, 1.0696, -0.257181, 0.00379503, 0.0103461, -0.0309258, -0.0126103, -0.00133639, -0.00635509, -0.00224395, -0.357292, 15.6799, 20.5655, 17.3721, 0.926695, 4.02713, 0.0559192, 0.000523866, -0.00115267, 0.000770824, 0.00186722, -0.00374946, 0.00025791, 0.0122708, -0.0177928, 0.00823621, 0.00968983, 0.0313431, 0.0679264, -0.0108534, -0.444325, 0.634484, -3.13059, -0.0556856, -0.10962, -0.0103187, -0.443147, 0.63376, -3.12898, -0.0558013, -0.103637, 0.00974794, 0.0142462, -0.0203885, -0.00242233, -0.00404776, -0.0131632
0.0900618, 0.107552, -0.773652, -0.91829, -1.45859, -0.625221, 1.0696, -0.25718, 0.00293895, 0.00956629, -0.0298966, -0.0126779, -0.0015691, -0.00426203, 0.000125548, -0.242241, 15.6046, 20.5655, 17.3721, 0.945006, 4.01248, 0.0101428, 0.000506415, -0.00113385, 0.000761339, 0.00185147, -0.00382759, 0.000290763, 0.0125809, -0.0182954, 0.00918767, 0.013183, 0.0298709, 0.0672765, -0.0108436, -0.44431, 0.634463, -3.13054, -0.0556906, -0.109698, -0.0103262, -0.443152, 0.633748, -3.12896, -0.0557554, -0.103594, 0.00998923, 0.0145631, -0.0208674, -0.00253886, -0.00425386, -0.01272
0.0910632, 0.107562, -0.773637, -0.918325, -1.45859, -0.625225, 1.06959, -0.25718, 0.00487757, 0.0102037, -0.0322515, -0.0117551, -0.00128342, -0.00272469, 0.000502986, -0.357292, 15.6046, 20.5655, 17.3325, 0.951415, 3.99783, -0.00267457, 0.000495147, -0.00111356, 0.000751444, 0.00183389, -0.0039049, 0.000307901, 0.0124824, -0.0193972, 0.0094027, 0.014249, 0.0292286, 0.068581, -0.0108335, -0.444295, 0.634442, -3.13049, -0.0556957, -0.109777, -0.0103272, -0.443158, 0.633736, -3.12893, -0.0557339, -0.103553, 0.0102332, 0.0148823, -0.0213508, -0.0021726, -0.00503491, -0.0129916
0.0920632, 0.107574, -0.773622, -0.918362, -1.4586, -0.625223, 1.06958, -0.257182, 0.00694844, 0.0115297, -0.0352514, -0.0151308, -0.000855616, -0.0065533, 0.00103974, -0.508049, 15.5688, 20.6052, 17.3325, 0.951415, 3.99142, -0.0228162, 0.000484526, -0.00109384, 0.000742512, 0.00182386, -0.00398303, 0.00032181, 0.0119812, -0.0193534, 0.00767904, 0.0078428, 0.0347001, 0.0716463, -0.0108231, -0.44428, 0.634421, -3.13044, -0.0557009, -0.109858, -0.0103274, -0.443163, 0.633722, -3.1289, -0.0557179, -0.103513, 0.0104799, 0.0152035, -0.0218384, -0.00130766, -0.00463551, -0.0151646
0.0930632, 0.107573, -0.773611, -0.9184, -1.45861, -0.625225, 1.06958, -0.257189, 0.00690305, 0.0108018, -0.0367258, -0.0105784, -0.00145203, -0.00906537, -8.40081e-05, -0.468376, 15.6046, 20.6052, 17.2968, 0.975218, 3.97677, -0.00267457, 0.000466371, -0.00107299, 0.000732144, 0.00180693, -0.00405772, 0.000344376, 0.0142474, -0.0198574, 0.00892066, 0.00845122, 0.0329903, 0.0708919, -0.0108125, -0.444265, 0.634399, -3.13039, -0.0557063, -0.109941, -0.0103348, -0.443169, 0.633709, -3.12887, -0.0556883, -0.10348, 0.0107292, 0.0155269, -0.0223304, -0.00338664, -0.00490843, -0.0145827
0.0940632, 0.107577, -0.773598, -0.918442, -1.45862, -0.625224, 1.06957, -0.257192, 0.00588174, 0.0144255, -0.0383381, -0.0111026, -0.00052721, -0.0066272, -0.000791467, -0.508049, 15.6046, 20.6409, 17.2968, 0.963317, 3.96945, 0.0165515, 0.000449719, -0.00105193, 0.000724007, 0.00179859, -0.0041373, 0.00036697, 0.013798, -0.0206788, 0.00919682, 0.0101208, 0.0352795, 0.0719812, -0.0108016, -0.444249, 0.634376, -3.13034, -0.0557118, -0.110026, -0.0103403, -0.443175, 0.633693, -3.12883, -0.0556592, -0.103441, 0.0109812, 0.0158524, -0.0228265, -0.00267685, -0.00539124, -0.0147798
0.0950632, 0.107587, -0.77358, -0.918485, -1.45862, -0.625225, 1.06957, -0.257191, 0.00910283, 0.0188127, -0.0390619, -0.00663922, -0.00102964, -0.00923289, 0.00115024, -0.583427, 15.5331, 20.6409, 17.2214, 0.981627, 3.95572, -0.0292249, 0.000435508, -0.00102911, 0.000713717, 0.00178258, -0.00422098, 0.000393181, 0.0128072, -0.0209812, 0.0107108, 0.0112108, 0.0387083, 0.0720959, -0.0107905, -0.444233, 0.634353, -3.13029, -0.0557175, -0.110113, -0.0103433, -0.443182, 0.633679, -3.1288, -0.0556244, -0.103397, 0.0112358, 0.0161798, -0.0233269, -0.00153006, -0.00534684, -0.0137044
0.0960632, 0.107588, -0.773571, -0.918525, -1.45863, -0.625225, 1.06957, -0.257202, 0.00652927, 0.0153833, -0.0395639, -0.0051767, -0.000686428, -0.00621252, -0.00141647, -0.583427, 15.6046, 20.6409, 17.2214, 0.981627, 3.93374, 0.0293689, 0.000417694, -0.00100688, 0.00070349, 0.00176584, -0.00429885, 0.000409292, 0.0152912, -0.0220023, 0.0117599, 0.0150781, 0.0327583, 0.0731024, -0.0107792, -0.444217, 0.634329, -3.13024, -0.0557233, -0.110202, -0.0103495, -0.443189, 0.633665, -3.12877, -0.0556053, -0.103365, 0.011493, 0.0165093, -0.0238314, -0.00378646, -0.00613656, -0.0133471
0.0970632, 0.107593, -0.773555, -0.918572, -1.45864, -0.625227, 1.06956, -0.257198, 0.00783816, 0.0155322, -0.0415892, -0.00401406, -0.00113579, -0.00920409, 0.000741243, -0.583427, 15.5688, 20.7163, 17.2214, 0.999938, 3.92642, -0.0164075, 0.000399601, -0.000983631, 0.000694183, 0.00175377, -0.00438689, 0.000443607, 0.0162023, -0.0223205, 0.0117764, 0.0129623, 0.0343093, 0.0718655, -0.0107676, -0.4442, 0.634305, -3.13018, -0.0557293, -0.110292, -0.0103557, -0.443196, 0.633649, -3.12873, -0.0555584, -0.103319, 0.0117529, 0.0168407, -0.0243401, -0.00442507, -0.00615601, -0.0139082
0.0980632, 0.107602, -0.773542, -0.918618, -1.45865, -0.625229, 1.06955, -0.257208, 0.00750948, 0.0116082, -0.0458067, -0.00626744, -0.00123191, -0.00674479, -0.00144602, -0.658806, 15.5688, 20.752, 17.2214, 1.01276, 3.9191, 0.0357776, 0.000382963, -0.000959691, 0.000684718, 0.00174011, -0.00447255, 0.000459493, 0.0184257, -0.0238488, 0.0105094, 0.0118843, 0.0310893, 0.0736286, -0.0107557, -0.444183, 0.634281, -3.13012, -0.0557354, -0.110385, -0.0103602, -0.443204, 0.633632, -3.12869, -0.0555402, -0.103278, 0.0120154, 0.017174, -0.0248528, -0.00623567, -0.00741598, -0.0158556
0.0990632, 0.107603, -0.773524, -0.91866, -1.45866, -0.625231, 1.06954, -0.257205, 0.00762107, 0.0117808, -0.0466282, -0.00875475, -0.00149944, -0.00515653, 0.00120058, -0.619133, 15.5688, 20.7163, 17.2571, 1.03107, 3.9191, -0.0228162, 0.000365093, -0.00093727, 0.000674311, 0.00172605, -0.00456741, 0.000491078, 0.0181984, -0.024491, 0.0101981, 0.0124778, 0.0325371, 0.0736208, -0.0107435, -0.444166, 0.634256, -3.13007, -0.0557417, -0.110479, -0.0103658, -0.44321, 0.633616, -3.12866, -0.0554978, -0.103225, 0.0122806, 0.0175091, -0.0253696, -0.00569941, -0.00771203, -0.0166743
0.100063, 0.107609, -0.773508, -0.918709, -1.45866, -0.625232, 1.06954, -0.257212, 0.00656436, 0.0128168, -0.0506135, -0.00804046, -0.00120308, -0.00869535, -0.000899197, -0.658806, 15.5331, 20.7917, 17.1857, 1.03656, 3.9191, 0.0229602, 0.000345794, -0.000912797, 0.00066433, 0.00171497, -0.00465948, 0.000516761, 0.0203437, -0.0248982, 0.00959292, 0.00827885, 0.0350449, 0.0734162, -0.0107311, -0.444148, 0.63423, -3.13001, -0.0557481, -0.110576, -0.0103724, -0.443217, 0.633599, -3.12862, -0.0554648, -0.103178, 0.0125483, 0.0178461, -0.0258904, -0.00751341, -0.00785189, -0.0179561
0.101063, 0.107611, -0.773489, -0.918761, -1.45868, -0.625236, 1.06953, -0.257206, 0.00386495, 0.01677, -0.0523118, -0.0109616, -0.00127677, -0.00632768, 0.00156755, -0.619133, 15.4935, 20.8274, 17.2571, 1.04938, 3.91269, -0.0356336, 0.00032569, -0.000887836, 0.000656661, 0.00170612, -0.00476279, 0.000557269, 0.0202887, -0.0256484, 0.00920202, 0.00912996, 0.0400252, 0.0704473, -0.0107184, -0.44413, 0.634204, -3.12995, -0.0557547, -0.110674, -0.0103794, -0.443225, 0.633579, -3.12857, -0.0554091, -0.103115, 0.0128186, 0.0181849, -0.0264151, -0.00713415, -0.00825738, -0.0188756
0.102063, 0.107613, -0.773479, -0.918809, -1.45869, -0.625235, 1.06952, -0.257215, 0.00520229, 0.0146931, -0.0527137, -0.0112263, -0.00108854, -0.00479456, -0.00187343, -0.583427, 15.5331, 20.8274, 17.2571, 1.05578, 3.91269, 0.0431018, 0.000304825, -0.000863203, 0.000647206, 0.00169456, -0.00485333, 0.000579366, 0.0204497, -0.0263723, 0.00957661, 0.010749, 0.03746, 0.0772019, -0.0107055, -0.444112, 0.634177, -3.12989, -0.0557614, -0.110774, -0.010387, -0.443232, 0.63356, -3.12853, -0.055382, -0.103074, 0.0130915, 0.0185254, -0.0269437, -0.00702253, -0.00865047, -0.0190506
0.103063, 0.107616, -0.773466, -0.918855, -1.4587, -0.625235, 1.06951, -0.257209, 0.00715126, 0.0156948, -0.049055, -0.00988346, -0.0011665, -0.00894769, 0.00166541, -0.583427, 15.6046, 20.7917, 17.1857, 1.06769, 3.92642, -0.0356336, 0.000283941, -0.000838837, 0.000634947, 0.00167915, -0.0049462, 0.000615853, 0.0190889, -0.0253581, 0.011195, 0.0113026, 0.039821, 0.0797226, -0.0106922, -0.444093, 0.63415, -3.12983, -0.0557683, -0.110876, -0.0103945, -0.443238, 0.633543, -3.12849, -0.0553327, -0.103032, 0.0133669, 0.0188676, -0.0274763, -0.00554146, -0.00726444, -0.0178672
0.104063, 0.107617, -0.77344, -0.918902, -1.45872, -0.625237, 1.0695, -0.257218, 0.00763349, 0.0176, -0.0525347, -0.0122342, -0.00145584, -0.00669007, -0.00576113, -0.543754, 15.4935, 20.752, 17.2571, 1.086, 3.92642, 0.0293689, 0.00026748, -0.000814629, 0.000625586, 0.001668, -0.00506256, 0.000637461, 0.0190038, -0.0266256, 0.0103031, 0.0109525, 0.0427123, 0.0881188, -0.0106787, -0.444074, 0.634122, -3.12976, -0.0557754, -0.110981, -0.0103972, -0.443244, 0.633524, -3.12845, -0.0553069, -0.102954, 0.0136449, 0.0192114, -0.0280126, -0.00507059, -0.00817551, -0.0193002
0.105063, 0.10762, -0.773428, -0.918961, -1.45874, -0.62524, 1.06949, -0.25721, 0.00583056, 0.0152553, -0.0559647, -0.012277, -0.000970558, -0.0103175, -0.00156876, -0.543754, 15.5331, 20.8631, 17.2571, 1.086, 3.94107, -0.0420422, 0.000242519, -0.000786739, 0.00061736, 0.00165882, -0.00516253, 0.000684766, 0.0221526, -0.0269025, 0.00953828, 0.00638423, 0.042229, 0.0818639, -0.0106649, -0.444055, 0.634094, -3.1297, -0.0557826, -0.111087, -0.0104078, -0.443253, 0.633502, -3.1284, -0.0552414, -0.102905, 0.0139255, 0.0195569, -0.0285528, -0.00786527, -0.00821026, -0.0208321
0.106063, 0.10762, -0.773408, -0.919009, -1.45874, -0.625238, 1.06948, -0.257221, 0.003608, 0.0154681, -0.0556296, -0.00973319, -0.000647038, -0.0126301, -0.00373299, -0.508049, 15.4935, 20.8631, 17.146, 1.086, 3.94107, 0.0229602, 0.000221585, -0.000760977, 0.000603566, 0.00164091, -0.00526412, 0.000709907, 0.0239249, -0.0268053, 0.0108563, 0.00710879, 0.0419013, 0.083019, -0.0106509, -0.444035, 0.634065, -3.12963, -0.05579, -0.111195, -0.0104146, -0.44326, 0.633485, -3.12836, -0.0552101, -0.102855, 0.0142086, 0.019904, -0.0290967, -0.00944594, -0.00784335, -0.0201899
0.107063, 0.10762, -0.773408, -0.919009, -1.45874, -0.625238, 1.06948, -0.257221, 0.003608, 0.0154681, -0.0556296, -0.00973319, -0.000647038, -0.0126301, -0.00373299, -0.508049, 15.4935, 20.8631, 17.146, 1.086, 3.94107, 0.0229602, 0.000208621, -0.000741633, 0.000573101, 0.00157931, -0.0053371, 0.000713829, 0.0241822, -0.0271381, 0.0114299, 0.00817555, 0.042136, 0.085141, -0.0106365, -0.444015, 0.634036, -3.12957, -0.0557975, -0.111306, -0.0104146, -0.44326, 0.633485, -3.12836, -0.0552101, -0.102855, 0.0144943, 0.0202526, -0.0296444, -0.00944594, -0.00784335, -0.0201899
0.108063, 0.10762, -0.773408, -0.919009, -1.45874, -0.625238, 1.06948, -0.257221, 0.003608, 0.0154681, -0.0556296, -0.00973319, -0.000647038, -0.0126301, -0.00373299, -0.508049, 15.4935, 20.8631, 17.146, 1.086, 3.94107, 0.0229602, 0.000195401, -0.000721959, 0.00054206, 0.00151658, -0.00541145, 0.000717844, 0.0244418, -0.0274722, 0.0120076, 0.00924843, 0.0423735, 0.0872769, -0.0106219, -0.443995, 0.634006, -3.1295, -0.0558053, -0.111418, -0.0104146, -0.44326, 0.633485, -3.12836, -0.0552101, -0.102855, 0.0147825, 0.0206027, -0.0301957, -0.00944594, -0.00784335, -0.0201899
0.109063, 0.107625, -0.773356, -0.919169, -1.4588, -0.625238, 1.06945, -0.257217, 0.000109687, 0.0144052, -0.0551598, -0.0157831, -0.00010506, -0.0160783, -0.000499075, -0.392998, 15.5688, 20.9742, 17.1103, 1.09241, 3.93374, -0.0164075, 0.000155239, -0.000681827, 0.000573297, 0.00161286, -0.00559759, 0.000816354, 0.0254342, -0.0265784, 0.0106437, 0.00420123, 0.0467712, 0.0864111, -0.010607, -0.443974, 0.633975, -3.12943, -0.0558132, -0.111532, -0.010436, -0.443281, 0.63342, -3.1282, -0.0550705, -0.102672, 0.0150731, 0.0209542, -0.0307507, -0.0100803, -0.00661946, -0.0221723
0.110063, 0.107623, -0.773344, -0.919218, -1.45882, -0.625238, 1.06944, -0.257218, 0.00170794, 0.0122148, -0.0532286, -0.018359, -7.00402e-05, -0.0123343, -0.0004212, -0.317619, 15.6442, 20.9028, 17.1103, 1.09241, 3.94107, -0.0164075, 0.000131717, -0.000655901, 0.000561814, 0.0016001, -0.00570816, 0.000847598, 0.0240976, -0.0271484, 0.011185, 0.00804338, 0.0445259, 0.0929139, -0.0105917, -0.443953, 0.633944, -3.12936, -0.0558213, -0.111649, -0.0104441, -0.443286, 0.633399, -3.12815, -0.0550308, -0.102616, 0.0153663, 0.0213072, -0.0313093, -0.00847317, -0.00679567, -0.022104
0.111063, 0.107623, -0.773324, -0.919275, -1.45884, -0.625239, 1.06942, -0.257219, -0.000224122, 0.0125097, -0.0590841, -0.0162556, -0.000487503, -0.00923101, -0.000855789, -0.242241, 15.6442, 20.9742, 17.0706, 1.10431, 3.94107, -0.00267457, 0.000108001, -0.000628842, 0.000552337, 0.00159478, -0.00583281, 0.000883225, 0.0272041, -0.0293002, 0.0111026, 0.00955177, 0.0426885, 0.0878608, -0.0105762, -0.443931, 0.633913, -3.12929, -0.0558295, -0.111768, -0.0104519, -0.443293, 0.633375, -3.1281, -0.0549848, -0.10254, 0.015662, 0.0216616, -0.0318714, -0.0111913, -0.00870114, -0.0229925
0.112063, 0.10763, -0.773307, -0.919331, -1.45886, -0.62524, 1.06941, -0.257217, 0.00107897, 0.0118455, -0.0618535, -0.0170294, -0.00079972, -0.00691011, -0.000857657, -0.281914, 15.6799, 21.0138, 16.9992, 1.11713, 3.94107, 0.00373412, 8.63124e-05, -0.000600398, 0.00054165, 0.00158392, -0.00595239, 0.000916725, 0.0276484, -0.030631, 0.0108134, 0.0104347, 0.0419803, 0.0894944, -0.0105604, -0.443909, 0.63388, -3.12921, -0.055838, -0.111888, -0.0104574, -0.4433, 0.633352, -3.12804, -0.0549421, -0.102474, 0.0159602, 0.0220173, -0.0324371, -0.011268, -0.00968858, -0.0238942
0.113063, 0.107623, -0.773287, -0.919375, -1.45888, -0.62524, 1.06939, -0.257217, -0.00174667, 0.0121437, -0.0583625, -0.0185481, -0.000295788, -0.00957926, 0.000136885, -0.166862, 15.6799, 20.9385, 16.9595, 1.11072, 3.93374, -0.0164075, 6.29556e-05, -0.000575313, 0.00052701, 0.00156793, -0.00607567, 0.00095125, 0.0278225, -0.0295772, 0.0118015, 0.0106327, 0.0443026, 0.0915543, -0.0105443, -0.443887, 0.633848, -3.12914, -0.0558466, -0.112011, -0.0104647, -0.443304, 0.633332, -3.12799, -0.0548979, -0.102405, 0.0162609, 0.0223744, -0.0330063, -0.0112497, -0.00829652, -0.0234855
0.114063, 0.107622, -0.773268, -0.919426, -1.4589, -0.625239, 1.06938, -0.257216, -0.00275873, 0.0154566, -0.0575705, -0.0216879, 4.01672e-05, -0.0072012, -0.000445367, -0.0914839, 15.6799, 20.9385, 16.8842, 1.10431, 3.93374, -0.00267457, 4.11015e-05, -0.000548, 0.000514342, 0.00155354, -0.00620064, 0.000983693, 0.0263182, -0.0298638, 0.0120251, 0.0127088, 0.0484089, 0.095703, -0.0105279, -0.443865, 0.633814, -3.12906, -0.0558554, -0.112136, -0.0104699, -0.44331, 0.633309, -3.12794, -0.0548572, -0.102335, 0.016564, 0.0227327, -0.033579, -0.00945315, -0.00817504, -0.0237341
0.115063, 0.107617, -0.773245, -0.919482, -1.45893, -0.62524, 1.06936, -0.257222, -0.00347567, 0.0209048, -0.0552512, -0.0249273, -0.00044794, -0.00993632, -0.0015047, -0.0161054, 15.6799, 21.0138, 16.8484, 1.11713, 3.92642, 0.0293689, 1.54744e-05, -0.000520729, 0.000503754, 0.00154768, -0.00633836, 0.0010186, 0.0242312, -0.0289748, 0.0122777, 0.0118016, 0.0578481, 0.101434, -0.0105112, -0.443842, 0.633781, -3.12899, -0.0558644, -0.112263, -0.0104785, -0.443315, 0.633284, -3.12788, -0.0548133, -0.102247, 0.0168696, 0.0230922, -0.034155, -0.00711789, -0.00685727, -0.0239049
0.116063, 0.107616, -0.773229, -0.919534, -1.45896, -0.62524, 1.06935, -0.257217, -0.00305729, 0.020318, -0.0526699, -0.0251922, 0.00915404, -0.0119851, 0.000913896, 0.0196001, 15.7513, 21.0496, 16.8484, 1.11713, 3.9191, -0.0228162, -7.30471e-06, -0.00049351, 0.000492764, 0.00153853, -0.0064696, 0.00105251, 0.0219505, -0.0273574, 0.0133122, 0.00835376, 0.0513438, 0.108368, -0.0104942, -0.443818, 0.633746, -3.12891, -0.0558736, -0.112393, -0.010484, -0.44332, 0.633259, -3.12782, -0.0547709, -0.102172, 0.0171776, 0.0234529, -0.0347344, -0.00466933, -0.0048126, -0.0232785
0.117063, 0.107617, -0.773207, -0.919587, -1.45899, -0.625241, 1.06933, -0.25722, -0.00196692, 0.0185145, -0.0536163, -0.0267834, 0.00668697, -0.0134948, -0.00133533, 0.0196001, 15.7513, 21.0892, 16.7731, 1.12262, 3.91269, 0.0293689, -2.97889e-05, -0.000465746, 0.000480205, 0.00152784, -0.00660699, 0.00108144, 0.0229181, -0.0278591, 0.0129414, 0.00755345, 0.0535249, 0.112872, -0.0104768, -0.443795, 0.633711, -3.12883, -0.0558829, -0.112524, -0.0104889, -0.443325, 0.633234, -3.12776, -0.0547365, -0.102089, 0.017488, 0.0238148, -0.0353172, -0.00527941, -0.00498301, -0.0243092
0.118063, 0.107606, -0.773193, -0.919633, -1.45902, -0.625243, 1.06931, -0.257216, -0.0047843, 0.0177536, -0.0529955, -0.0258641, 0.0043706, -0.0146531, 5.03594e-05, 0.170357, 15.8624, 21.0496, 16.7374, 1.14093, 3.90536, 0.00373412, -5.66244e-05, -0.000439403, 0.000466514, 0.00151377, -0.00674273, 0.00112075, 0.0252412, -0.0281355, 0.0139776, 0.00977018, 0.0547194, 0.109833, -0.0104592, -0.443771, 0.633676, -3.12875, -0.0558925, -0.112658, -0.010498, -0.443328, 0.63321, -3.1277, -0.0546861, -0.102011, 0.0178009, 0.0241778, -0.0359033, -0.0073472, -0.00499122, -0.0240359
0.119063, 0.107604, -0.773168, -0.919684, -1.45905, -0.625242, 1.06929, -0.25722, -0.00407746, 0.0198425, -0.051012, -0.028163, 0.00379764, -0.0154796, -0.00021043, 0.21003, 15.8624, 21.0892, 16.6977, 1.12903, 3.89804, 0.0101428, -7.81609e-05, -0.000412219, 0.000453706, 0.00150353, -0.00688816, 0.00114705, 0.0236677, -0.0278422, 0.0144362, 0.0105417, 0.0593402, 0.115476, -0.0104412, -0.443746, 0.633639, -3.12867, -0.0559023, -0.112794, -0.0105014, -0.443332, 0.633185, -3.12764, -0.0546563, -0.10192, 0.0181163, 0.0245419, -0.0364926, -0.00550774, -0.00428505, -0.0240561
0.120063, 0.107601, -0.773155, -0.919732, -1.45909, -0.625239, 1.06927, -0.257218, -0.00352345, 0.0188263, -0.0457696, -0.0299462, 0.00262672, -0.0158177, 0.000600716, 0.245735, 15.9735, 21.1249, 16.662, 1.13544, 3.88339, -0.00999879, -0.000101523, -0.000385814, 0.000441646, 0.00149659, -0.00702719, 0.0011731, 0.0222223, -0.0271743, 0.015913, 0.0141866, 0.0605983, 0.121857, -0.0104229, -0.443722, 0.633603, -3.12858, -0.0559122, -0.112932, -0.0105063, -0.443335, 0.633158, -3.12757, -0.0546272, -0.101841, 0.018434, 0.0249071, -0.0370852, -0.00388031, -0.00322002, -0.0230696
0.121063, 0.107596, -0.773133, -0.919778, -1.45912, -0.62524, 1.06925, -0.257218, -0.00325443, 0.0208093, -0.0447227, -0.0311758, 0.00155958, -0.0209544, -0.000586604, 0.285408, 15.9735, 21.1249, 16.6223, 1.14734, 3.86966, 0.0165515, -0.000123407, -0.00035982, 0.000427432, 0.00148487, -0.00717828, 0.00119968, 0.0219567, -0.0263926, 0.0160763, 0.0114765, 0.067004, 0.126503, -0.0104044, -0.443697, 0.633565, -3.1285, -0.0559224, -0.113072, -0.0105096, -0.443336, 0.633133, -3.12751, -0.0545974, -0.101746, 0.0187541, 0.0252732, -0.0376809, -0.00333644, -0.00206658, -0.0234803
0.122063, 0.107587, -0.773114, -0.91982, -1.45915, -0.62524, 1.06923, -0.257223, -0.00484397, 0.0172251, -0.0467796, -0.0326412, 0.000989289, -0.0200826, -0.00110595, 0.400459, 16.0489, 21.1249, 16.4755, 1.15375, 3.85501, 0.0357776, -0.000148135, -0.000333791, 0.000410852, 0.00146855, -0.00732581, 0.00122594, 0.0244169, -0.0273058, 0.0156742, 0.011332, 0.0647271, 0.126675, -0.0103854, -0.443671, 0.633527, -3.12841, -0.0559327, -0.113214, -0.0105155, -0.443338, 0.63311, -3.12745, -0.0545681, -0.101659, 0.0190766, 0.0256403, -0.0382798, -0.00540519, -0.00269548, -0.0246713
0.123063, 0.10758, -0.773094, -0.919865, -1.45919, -0.625241, 1.06921, -0.257218, -0.00497986, 0.0186642, -0.0471666, -0.0335199, 0.000562365, -0.0242187, 0.00095602, 0.475838, 16.0846, 21.2003, 16.4359, 1.16015, 3.84768, -0.00999879, -0.000171713, -0.000307512, 0.000396439, 0.00145692, -0.00748142, 0.00125835, 0.0248029, -0.0269341, 0.0156264, 0.00848366, 0.0694383, 0.126729, -0.0103662, -0.443645, 0.633489, -3.12833, -0.0559433, -0.113359, -0.0105198, -0.443339, 0.633084, -3.12739, -0.0545298, -0.101561, 0.0194015, 0.0260084, -0.0388819, -0.00547597, -0.00197047, -0.0253501
0.124063, 0.107572, -0.773076, -0.919908, -1.45924, -0.625242, 1.06918, -0.25722, -0.00812937, 0.0187947, -0.0421066, -0.038031, 3.92487e-05, -0.0225382, -0.000822292, 0.551216, 16.16, 21.2003, 16.4359, 1.17206, 3.83304, 0.0293689, -0.000194842, -0.000281434, 0.000382939, 0.00144595, -0.0076398, 0.00128102, 0.0238096, -0.0263056, 0.0165633, 0.0122854, 0.0720894, 0.133617, -0.0103466, -0.443619, 0.633449, -3.12824, -0.0559541, -0.113506, -0.0105233, -0.44334, 0.633056, -3.12732, -0.0545068, -0.101461, 0.0197288, 0.0263773, -0.039487, -0.00424999, -0.00095111, -0.0249474
0.125063, 0.107565, -0.773059, -0.919946, -1.45928, -0.625242, 1.06916, -0.257217, -0.00743032, 0.0189859, -0.0415175, -0.0366417, 0.000105027, -0.0214766, 0.00114604, 0.626595, 16.2314, 21.2003, 16.3644, 1.17206, 3.82663, -0.0164075, -0.000216595, -0.00025664, 0.000366585, 0.00143247, -0.00779826, 0.00130342, 0.0237097, -0.0268269, 0.0178718, 0.0154728, 0.0710627, 0.134461, -0.0103267, -0.443593, 0.63341, -3.12815, -0.055965, -0.113655, -0.0105254, -0.443339, 0.633031, -3.12726, -0.0544844, -0.101363, 0.0200585, 0.0267472, -0.0400951, -0.00389777, -0.00111603, -0.024253
0.126063, 0.107555, -0.773041, -0.919987, -1.45933, -0.62524, 1.06913, -0.257222, -0.0108837, 0.0200486, -0.0389103, -0.0363763, -0.000311646, -0.0162003, -0.00167826, 0.737679, 16.2671, 21.236, 16.3248, 1.18396, 3.82663, 0.0495105, -0.000240488, -0.000231765, 0.000351222, 0.00142319, -0.00795985, 0.0013221, 0.0239436, -0.0275823, 0.0199403, 0.0235228, 0.0697509, 0.137858, -0.0103065, -0.443566, 0.633369, -3.12806, -0.0559762, -0.113807, -0.0105291, -0.443338, 0.633004, -3.12719, -0.0544682, -0.101263, 0.0203905, 0.0271178, -0.0407063, -0.00392265, -0.00153559, -0.0228303
0.127063, 0.107547, -0.773025, -0.920027, -1.45937, -0.625239, 1.0691, -0.257213, -0.00942043, 0.0175668, -0.0393229, -0.0374008, -0.000163404, -0.0166323, 0.00155926, 0.813057, 16.3068, 21.236, 16.2137, 1.18396, 3.8193, -0.0228162, -0.000264348, -0.000205587, 0.000334091, 0.00140764, -0.008119, 0.00135421, 0.0242896, -0.0279462, 0.0199829, 0.0231505, 0.0683764, 0.138738, -0.010286, -0.443538, 0.633328, -3.12796, -0.0559876, -0.113961, -0.0105326, -0.443338, 0.632978, -3.12712, -0.0544312, -0.101168, 0.0207248, 0.0274892, -0.0413204, -0.00392457, -0.00154238, -0.0234356
0.128063, 0.107541, -0.773008, -0.920066, -1.45942, -0.625242, 1.06907, -0.257222, -0.0114526, 0.0189046, -0.0396808, -0.0443187, -0.00122855, -0.017224, -0.00113113, 0.888436, 16.3425, 21.236, 16.2137, 1.21509, 3.8193, 0.0357776, -0.000286912, -0.00018048, 0.000319138, 0.00139857, -0.00829156, 0.00136278, 0.0240514, -0.027868, 0.0184763, 0.0204052, 0.0756087, 0.144522, -0.0102651, -0.443511, 0.633287, -3.12787, -0.0559992, -0.114117, -0.0105344, -0.443336, 0.632949, -3.12705, -0.0544313, -0.101055, 0.0210615, 0.0278614, -0.0419374, -0.00324534, -0.00106675, -0.025542
0.129063, 0.107533, -0.772991, -0.920108, -1.45947, -0.625243, 1.06904, -0.257218, -0.0122325, 0.0175469, -0.0384306, -0.0441867, -0.00123489, -0.0218417, 0.00117832, 0.928108, 16.3425, 21.3114, 16.1383, 1.22699, 3.80466, -0.0164075, -0.000310885, -0.000154721, 0.000304014, 0.00139036, -0.0084641, 0.00138844, 0.0252281, -0.0271552, 0.0190981, 0.0184484, 0.076738, 0.144696, -0.0102438, -0.443483, 0.633244, -3.12777, -0.056011, -0.114275, -0.0105372, -0.443335, 0.63292, -3.12697, -0.0544051, -0.100945, 0.0214005, 0.0282343, -0.0425574, -0.00415149, -3.26385e-05, -0.025626
0.130063, 0.107524, -0.772982, -0.920141, -1.45953, -0.625245, 1.06901, -0.25722, -0.0105472, 0.0115689, -0.037904, -0.0500858, -0.00127927, -0.0255107, -0.000910157, 1.00349, 16.4178, 21.2757, 16.178, 1.23981, 3.79001, 0.0293689, -0.000333641, -0.000130841, 0.00028904, 0.00138173, -0.00863643, 0.00139728, 0.025618, -0.0265534, 0.0175094, 0.0129572, 0.0767946, 0.15428, -0.0102223, -0.443454, 0.633201, -3.12768, -0.0560231, -0.114436, -0.0105385, -0.443332, 0.63289, -3.1269, -0.0544053, -0.100837, 0.0217418, 0.0286079, -0.0431802, -0.00410621, 0.000946726, -0.027861
0.131063, 0.107518, -0.772963, -0.920177, -1.45958, -0.625246, 1.06898, -0.257215, -0.0146131, 0.0107015, -0.0362654, -0.0494433, -0.00127962, -0.0284677, 0.000579813, 1.03919, 16.3425, 21.3114, 16.1383, 1.25171, 3.7836, -0.00267457, -0.000354837, -0.000106013, 0.000271782, 0.00136999, -0.00881589, 0.00141558, 0.0279022, -0.0260016, 0.0186713, 0.0132371, 0.077194, 0.152056, -0.0102004, -0.443425, 0.633158, -3.12758, -0.0560353, -0.114599, -0.010538, -0.443329, 0.632862, -3.12682, -0.054391, -0.10072, 0.0220854, 0.0289822, -0.0438058, -0.0061452, 0.00177508, -0.0274952
0.132063, 0.107511, -0.772958, -0.92021, -1.45963, -0.625249, 1.06894, -0.257214, -0.0106188, 0.00629031, -0.0347899, -0.0501078, -0.00175808, -0.0261323, 0.000657652, 1.03919, 16.4178, 21.3471, 16.0272, 1.27643, 3.7836, -0.00999879, -0.000381073, -8.16102e-05, 0.00025335, 0.00135789, -0.00898583, 0.0014314, 0.0270156, -0.0267106, 0.019464, 0.0166476, 0.0727047, 0.15965, -0.0101781, -0.443396, 0.633114, -3.12748, -0.0560478, -0.114764, -0.0105423, -0.443325, 0.632834, -3.12675, -0.0543807, -0.100621, 0.0224314, 0.029357, -0.0444342, -0.00494927, 0.00146081, -0.0272807
0.133063, 0.107503, -0.772945, -0.920239, -1.45969, -0.625251, 1.06891, -0.257213, -0.0118169, 0.00581099, -0.0320275, -0.0505554, -0.00184233, -0.0280656, 0.000913034, 1.07887, 16.3782, 21.3114, 16.0272, 1.29474, 3.7543, -0.0228162, -0.000401541, -5.74444e-05, 0.000235243, 0.00134238, -0.00916718, 0.00143973, 0.0272397, -0.0261389, 0.0206256, 0.0177955, 0.0737382, 0.162918, -0.0101555, -0.443367, 0.633069, -3.12738, -0.0560605, -0.114932, -0.0105406, -0.44332, 0.632806, -3.12668, -0.0543822, -0.100506, 0.0227796, 0.0297325, -0.0450654, -0.00493163, 0.00238266, -0.0267698
0.134063, 0.107495, -0.77294, -0.920273, -1.45975, -0.625253, 1.06887, -0.257219, -0.00946897, 0.00662354, -0.0327034, -0.0497143, -0.00190046, -0.0257216, -0.000374744, 1.11457, 16.4178, 21.3868, 15.9915, 1.31305, 3.74698, 0.00373412, -0.000428009, -3.23718e-05, 0.00021821, 0.0013331, -0.00934351, 0.00144707, 0.0264252, -0.0271516, 0.0215183, 0.0209768, 0.0732354, 0.168016, -0.0101325, -0.443337, 0.633024, -3.12728, -0.0560735, -0.115102, -0.0105443, -0.443317, 0.632775, -3.1266, -0.0543858, -0.100401, 0.0231301, 0.0301084, -0.0456993, -0.00379978, 0.00176173, -0.0264696
0.135063, 0.107492, -0.772938, -0.920303, -1.45981, -0.625253, 1.06883, -0.257217, -0.00826969, 0.00423165, -0.0344198, -0.0514676, -0.00126254, -0.033607, -0.000249896, 1.03919, 16.4536, 21.3868, 15.9161, 1.31305, 3.74698, 0.00373412, -0.000451628, -8.95982e-06, 0.000199374, 0.00132412, -0.00951909, 0.00145242, 0.0278475, -0.0263038, 0.0203601, 0.0127403, 0.0758833, 0.171412, -0.0101092, -0.443306, 0.632978, -3.12717, -0.0560866, -0.115274, -0.010545, -0.443311, 0.632746, -3.12651, -0.0543927, -0.1003, 0.0234829, 0.0304849, -0.0463358, -0.00481198, 0.00294796, -0.028363
0.136063, 0.10748, -0.772934, -0.920326, -1.45987, -0.625253, 1.06879, -0.257216, -0.00712908, 0.0041447, -0.0317755, -0.0538037, -0.00107572, -0.0342935, 0.000816697, 1.07887, 16.4178, 21.3471, 15.8765, 1.31946, 3.73324, -0.0228162, -0.000476379, 1.40286e-05, 0.000178764, 0.00130843, -0.00969879, 0.00145991, 0.0263909, -0.0258887, 0.0209643, 0.0135901, 0.0777467, 0.177237, -0.0100856, -0.443276, 0.632931, -3.12707, -0.0561, -0.115449, -0.0105467, -0.443304, 0.632717, -3.12644, -0.0543963, -0.100195, 0.0238379, 0.0308619, -0.046975, -0.00306638, 0.0037812, -0.0282935
0.137063, 0.107471, -0.772933, -0.92035, -1.45993, -0.625257, 1.06875, -0.25722, -0.00526867, 0.00405744, -0.0290099, -0.0554254, -0.00207098, -0.0394985, -0.00162571, 1.07887, 16.3782, 21.2757, 15.8408, 1.35608, 3.7186, 0.0357776, -0.000501634, 3.65143e-05, 0.000158705, 0.00129619, -0.00988434, 0.00146001, 0.0254394, -0.024826, 0.0214112, 0.0114759, 0.0823197, 0.186442, -0.0100616, -0.443245, 0.632884, -3.12696, -0.0561137, -0.115626, -0.0105485, -0.443297, 0.632688, -3.12636, -0.0544118, -0.100083, 0.0241952, 0.0312393, -0.0476168, -0.00183402, 0.00524602, -0.0284137
0.138063, 0.107461, -0.772928, -0.920378, -1.46, -0.625257, 1.06871, -0.257214, -0.00788059, 0.00465011, -0.0295812, -0.0583217, -0.00137878, -0.0384494, 0.000611585, 1.11457, 16.3068, 21.3114, 15.8765, 1.35608, 3.69754, -0.00999879, -0.000526116, 5.99335e-05, 0.000141095, 0.0012895, -0.0100747, 0.00147031, 0.02608, -0.0251403, 0.0212388, 0.0115337, 0.0840703, 0.185448, -0.0100372, -0.443213, 0.632836, -3.12686, -0.0561275, -0.115806, -0.0105489, -0.44329, 0.632655, -3.12627, -0.0544121, -0.0999661, 0.0245547, 0.0316171, -0.0482612, -0.00209075, 0.00528712, -0.0292865
0.139063, 0.107452, -0.772938, -0.920402, -1.46006, -0.625257, 1.06867, -0.25722, -0.0120957, -0.00153728, -0.0249382, -0.0601233, -0.000917783, -0.0376773, -0.00155899, 1.11457, 16.3782, 21.2757, 15.7654, 1.35608, 3.67557, 0.0431018, -0.000554875, 8.3679e-05, 0.000118636, 0.001273, -0.0102457, 0.00146899, 0.0280906, -0.0245983, 0.0226617, 0.0150327, 0.0784232, 0.190625, -0.0100124, -0.443182, 0.632787, -3.12675, -0.0561417, -0.115988, -0.0105536, -0.443283, 0.632627, -3.12619, -0.0544301, -0.0998822, 0.0249165, 0.0319953, -0.0489081, -0.00385933, 0.00611413, -0.0286639
0.140063, 0.107448, -0.772941, -0.92042, -1.46013, -0.625259, 1.06863, -0.257213, -0.0103799, -0.00337852, -0.0203397, -0.0632597, -0.00128897, -0.0416299, 0.00116471, 1.03919, 16.3425, 21.2003, 15.7297, 1.37439, 3.64718, -0.0164075, -0.000576964, 0.000105996, 9.7118e-05, 0.00125823, -0.0104334, 0.0014676, 0.0265793, -0.0232803, 0.0232183, 0.0139749, 0.081067, 0.197033, -0.00998734, -0.443149, 0.632738, -3.12664, -0.056156, -0.116172, -0.0105513, -0.443274, 0.632597, -3.12611, -0.0544487, -0.0997746, 0.0252805, 0.0323738, -0.0495576, -0.0020803, 0.00785309, -0.0286376
0.141063, 0.107433, -0.772947, -0.920448, -1.4602, -0.625258, 1.06858, -0.257221, -0.0154371, -0.00486297, -0.0207001, -0.0655545, -0.00133324, -0.0403135, -0.00166495, 1.07887, 16.3068, 21.2757, 15.69, 1.38721, 3.63254, 0.0495105, -0.000607198, 0.000129374, 7.8036e-05, 0.00125263, -0.0106196, 0.00146776, 0.0291035, -0.0237042, 0.0233294, 0.0150654, 0.0807463, 0.198211, -0.00996188, -0.443117, 0.632688, -3.12652, -0.0561706, -0.116359, -0.0105565, -0.443266, 0.632564, -3.12601, -0.0544655, -0.0996712, 0.0256467, 0.0327526, -0.0502094, -0.00422467, 0.00771491, -0.0293773
0.142063, 0.107423, -0.772958, -0.92046, -1.46028, -0.62526, 1.06853, -0.257215, -0.0146938, -0.00459035, -0.0198234, -0.0674849, -0.00109168, -0.0438191, 0.000822807, 1.07887, 16.3425, 21.1606, 15.6543, 1.3927, 3.60415, -0.00267457, -0.000632656, 0.000150139, 5.58849e-05, 0.00123881, -0.0108086, 0.00146455, 0.0286708, -0.0231179, 0.0233577, 0.0126232, 0.0841747, 0.200728, -0.00993605, -0.443084, 0.632638, -3.12641, -0.0561854, -0.116548, -0.0105569, -0.443255, 0.632533, -3.12593, -0.0544875, -0.0995663, 0.0260151, 0.0331317, -0.0508638, -0.00345062, 0.00869209, -0.029971
0.143063, 0.107413, -0.772966, -0.920481, -1.46036, -0.625261, 1.06849, -0.257223, -0.0142265, -0.00661182, -0.0227093, -0.069747, -0.000727345, -0.041659, -0.00114689, 1.07887, 16.3425, 21.2003, 15.6543, 1.3927, 3.58218, 0.0431018, -0.000657727, 0.000172315, 3.68903e-05, 0.00123188, -0.0110057, 0.00144895, 0.0295777, -0.024297, 0.0226467, 0.0122401, 0.0827406, 0.204833, -0.00990985, -0.44305, 0.632586, -3.1263, -0.0562005, -0.11674, -0.0105563, -0.443245, 0.632498, -3.12584, -0.0545294, -0.099451, 0.0263857, 0.0335111, -0.0515205, -0.00389029, 0.00786828, -0.031424
0.144063, 0.107406, -0.772979, -0.920494, -1.46043, -0.625263, 1.06844, -0.257216, -0.0127942, -0.00903118, -0.0224133, -0.0727885, -0.000959281, -0.040099, 0.000930823, 1.03919, 16.3782, 21.1249, 15.5789, 1.40552, 3.56112, -0.00267457, -0.000683166, 0.000193759, 1.38855e-05, 0.00121802, -0.011196, 0.00144438, 0.0291715, -0.0248076, 0.0224983, 0.0131479, 0.0820562, 0.208403, -0.00988328, -0.443017, 0.632535, -3.12618, -0.0562158, -0.116934, -0.010556, -0.443234, 0.632467, -3.12575, -0.0545542, -0.099349, 0.0267585, 0.0338906, -0.0521796, -0.00308522, 0.00775146, -0.0322131
0.145063, 0.107394, -0.772984, -0.920511, -1.46051, -0.625265, 1.06839, -0.25722, -0.0137426, -0.00817637, -0.0247156, -0.0743991, -0.00131744, -0.0435687, -0.00107488, 1.07887, 16.3068, 21.1606, 15.6146, 1.42383, 3.53915, 0.0431018, -0.000708698, 0.000215402, -6.81124e-06, 0.00120923, -0.0114023, 0.00143326, 0.0305252, -0.0248713, 0.0218191, 0.00927523, 0.0864122, 0.21087, -0.00985633, -0.442983, 0.632482, -3.12606, -0.0562314, -0.11713, -0.0105553, -0.443223, 0.632433, -3.12565, -0.0545897, -0.0992245, 0.0271335, 0.0342704, -0.052841, -0.00400838, 0.00802655, -0.0336607
0.146063, 0.10739, -0.772999, -0.920522, -1.46059, -0.625266, 1.06833, -0.257215, -0.0116595, -0.0133432, -0.0212327, -0.0779733, -0.00131891, -0.0469808, 0.000978834, 1.00349, 16.3425, 21.1249, 15.6146, 1.43573, 3.53915, -0.00267457, -0.000732461, 0.000236194, -2.99664e-05, 0.00119745, -0.0115997, 0.00142009, 0.0300105, -0.0238802, 0.0218598, 0.00730354, 0.0855472, 0.217939, -0.00982901, -0.442948, 0.632429, -3.12594, -0.0562473, -0.117329, -0.0105526, -0.443211, 0.632401, -3.12556, -0.0546285, -0.0991164, 0.0275107, 0.0346502, -0.0535047, -0.00315952, 0.00941176, -0.0342406
0.147063, 0.10738, -0.773013, -0.920532, -1.46068, -0.625267, 1.06828, -0.257218, -0.0152605, -0.0131668, -0.0142698, -0.0773333, -0.00111649, -0.0489634, -0.000534241, 1.00349, 16.3425, 21.0496, 15.6146, 1.44214, 3.52542, 0.0293689, -0.000758154, 0.000255741, -5.2582e-05, 0.00119032, -0.0118031, 0.00140025, 0.029933, -0.022445, 0.0246726, 0.011851, 0.0861816, 0.223483, -0.00980131, -0.442913, 0.632375, -3.12582, -0.0562634, -0.117531, -0.0105515, -0.443197, 0.632367, -3.12546, -0.0546783, -0.0990012, 0.02789, 0.0350302, -0.0541706, -0.00296787, 0.0111855, -0.0320861
0.148063, 0.107368, -0.773026, -0.920549, -1.46076, -0.625268, 1.06822, -0.257213, -0.0146366, -0.0122093, -0.0160644, -0.0792929, -0.000981583, -0.0559176, 0.00157662, 1.00349, 16.3068, 21.1249, 15.5789, 1.44855, 3.52542, -0.0228162, -0.000786834, 0.000277437, -7.46848e-05, 0.00118307, -0.012008, 0.00139788, 0.0306074, -0.0217381, 0.0236867, 0.00481031, 0.0922592, 0.224208, -0.00977323, -0.442878, 0.63232, -3.1257, -0.0562797, -0.117734, -0.0105528, -0.443184, 0.632332, -3.12537, -0.0542028, -0.0988858, 0.0282715, 0.0354102, -0.0548388, -0.00321288, 0.0122593, -0.0337867
0.149063, 0.107358, -0.773044, -0.920551, -1.46085, -0.625268, 1.06816, -0.257224, -0.0141719, -0.0131715, -0.00944907, -0.0816877, -0.00065431, -0.0564279, -0.00162769, 1.00349, 16.3425, 21.0138, 15.5789, 1.44855, 3.53274, 0.0495105, -0.000812025, 0.000295572, -9.98331e-05, 0.00117288, -0.0122131, 0.00136438, 0.0283939, -0.0205698, 0.0254277, 0.00827509, 0.0929717, 0.236872, -0.00974476, -0.442843, 0.632265, -3.12558, -0.0562963, -0.117941, -0.0105507, -0.443168, 0.6323, -3.12527, -0.0542753, -0.0987734, 0.0286551, 0.0357903, -0.0555092, -0.000799233, 0.0138569, -0.0325469
0.150063, 0.107349, -0.77305, -0.920559, -1.46094, -0.625267, 1.0681, -0.257217, -0.0160061, -0.00867665, -0.00730284, -0.0832006, -0.00111432, -0.0568538, 0.000372936, 0.963814, 16.16, 21.0138, 15.5789, 1.46686, 3.53915, 0.0101428, -0.000833947, 0.000314815, -0.000124103, 0.00116418, -0.0124328, 0.00135002, 0.0273225, -0.0202422, 0.0264617, 0.010364, 0.0992673, 0.237766, -0.00971592, -0.442807, 0.632209, -3.12545, -0.0563132, -0.11815, -0.0105448, -0.443153, 0.632266, -3.12517, -0.0543185, -0.0986403, 0.0290408, 0.0361704, -0.0561817, 0.000561681, 0.0145839, -0.0321099
0.151063, 0.107342, -0.773071, -0.920568, -1.46103, -0.625263, 1.06804, -0.25722, -0.0134975, -0.0178228, -0.00986052, -0.0876426, 0.000172695, -0.0555082, 0.000248623, 0.888436, 16.2314, 21.0496, 15.5789, 1.44214, 3.50345, 0.0101428, -0.000859571, 0.000335041, -0.000147298, 0.00115765, -0.0126367, 0.00132339, 0.028851, -0.0211795, 0.0248066, 0.00722914, 0.0919011, 0.243981, -0.00968668, -0.44277, 0.632153, -3.12533, -0.0563304, -0.118361, -0.0105421, -0.443138, 0.632231, -3.12507, -0.0543811, -0.0985344, 0.0294287, 0.0365505, -0.0568564, -0.000417616, 0.0139944, -0.0345686
0.152063, 0.107331, -0.773089, -0.920567, -1.46112, -0.625264, 1.06798, -0.257216, -0.0103385, -0.0189008, -0.00482335, -0.0878109, -0.000563005, -0.0609856, 0.000640466, 0.888436, 16.1957, 20.9385, 15.5789, 1.46045, 3.49612, -0.00267457, -0.000883663, 0.000352528, -0.000172866, 0.00114794, -0.0128553, 0.00129955, 0.0271947, -0.0197434, 0.0262733, 0.00694154, 0.0944681, 0.252885, -0.00965706, -0.442734, 0.632096, -3.1252, -0.0563478, -0.118575, -0.0105378, -0.44312, 0.632197, -3.12497, -0.0544396, -0.0984084, 0.0298187, 0.0369305, -0.0575331, 0.00145696, 0.0158432, -0.0336464
0.153063, 0.107319, -0.773111, -0.920581, -1.46122, -0.625266, 1.06792, -0.257217, -0.0110546, -0.0205483, -0.00645011, -0.0910545, 6.54977e-05, -0.0591649, -0.0002851, 0.888436, 16.1957, 21.0496, 15.5789, 1.44855, 3.47507, 0.0165515, -0.000914255, 0.000373227, -0.000193763, 0.00114877, -0.0130745, 0.00128243, 0.0279066, -0.0204852, 0.0256641, 0.00654873, 0.0939875, 0.256427, -0.00962704, -0.442696, 0.632038, -3.12507, -0.0563654, -0.118791, -0.0105391, -0.443105, 0.632157, -3.12485, -0.0544885, -0.0982832, 0.0302108, 0.0373105, -0.0582119, 0.00120989, 0.0154624, -0.0350025
0.154063, 0.107306, -0.773131, -0.920577, -1.46132, -0.625267, 1.06785, -0.257218, -0.0156289, -0.0210093, -0.00217869, -0.0959916, -0.000871843, -0.0625955, -0.000664785, 0.928108, 16.16, 20.9385, 15.69, 1.47327, 3.45309, 0.0293689, -0.000938206, 0.000390277, -0.000219008, 0.00114014, -0.0132991, 0.00125039, 0.0285756, -0.019078, 0.0259128, 0.00552757, 0.0993388, 0.260157, -0.00959664, -0.442659, 0.631979, -3.12494, -0.0563834, -0.11901, -0.0105338, -0.443086, 0.632121, -3.12475, -0.0545606, -0.0981529, 0.0306049, 0.0376903, -0.0588927, 0.000864271, 0.0172175, -0.0354756
0.155063, 0.107297, -0.773155, -0.920581, -1.46142, -0.625268, 1.06778, -0.257214, -0.0139027, -0.0220896, -0.00264548, -0.0961175, -0.000106497, -0.0663152, 0.00101487, 0.888436, 16.16, 20.9742, 15.6543, 1.46045, 3.46042, -0.00999879, -0.00096638, 0.000408482, -0.000243545, 0.00113825, -0.0135214, 0.00122858, 0.0288685, -0.018816, 0.0260507, 0.00267984, 0.100073, 0.26287, -0.00956583, -0.442621, 0.63192, -3.12481, -0.0564016, -0.119232, -0.0105323, -0.443067, 0.632084, -3.12464, -0.0546173, -0.0980282, 0.0310012, 0.03807, -0.0595756, 0.000945607, 0.017843, -0.0360468
0.156063, 0.107292, -0.77318, -0.920581, -1.46151, -0.625265, 1.06771, -0.257221, -0.0109386, -0.0220006, -0.00119679, -0.0947769, 0.000166372, -0.064059, -0.00176483, 0.777352, 16.1203, 20.9385, 15.5432, 1.45404, 3.46042, 0.0559192, -0.000991335, 0.000426695, -0.000271107, 0.00113023, -0.0137383, 0.00118767, 0.0273991, -0.019425, 0.0276946, 0.00724213, 0.0983222, 0.271788, -0.00953463, -0.442583, 0.63186, -3.12467, -0.0564201, -0.119456, -0.0105274, -0.443049, 0.632049, -3.12453, -0.0547039, -0.0979152, 0.0313996, 0.0384495, -0.0602603, 0.0027023, 0.0176372, -0.0349948
0.157063, 0.107281, -0.773211, -0.920582, -1.46161, -0.625264, 1.06764, -0.257213, -0.0147679, -0.0270257, -0.00455643, -0.0953947, 0.000110922, -0.0662308, 0.00150222, 0.777352, 16.16, 20.9385, 15.5035, 1.45404, 3.43936, -0.0164075, -0.00102113, 0.000444702, -0.000297142, 0.00112638, -0.0139573, 0.00116691, 0.0321695, -0.0200033, 0.027061, 0.0040725, 0.0953344, 0.265078, -0.00950303, -0.442544, 0.6318, -3.12454, -0.0564389, -0.119682, -0.0105269, -0.443029, 0.632012, -3.12441, -0.0547595, -0.0978009, 0.0318, 0.0388288, -0.060947, -0.00158445, 0.0172754, -0.0366935
0.158063, 0.107272, -0.773237, -0.920583, -1.46171, -0.625264, 1.06757, -0.257217, -0.0134649, -0.0287574, 0.002351, -0.0959605, -0.000163405, -0.068176, -0.000219227, 0.737679, 16.1203, 20.9742, 15.4678, 1.46045, 3.42471, 0.0165515, -0.00104948, 0.000462581, -0.000323759, 0.00112281, -0.0141859, 0.00113363, 0.0303836, -0.0187329, 0.0292859, 0.00769404, 0.0953081, 0.27616, -0.00947103, -0.442505, 0.631738, -3.1244, -0.0564579, -0.119911, -0.0105245, -0.44301, 0.631974, -3.1243, -0.0548351, -0.0976744, 0.0322025, 0.0392079, -0.0616356, 0.00037795, 0.0189486, -0.0350178
0.159063, 0.107257, -0.773262, -0.920582, -1.46182, -0.625262, 1.06749, -0.257214, -0.01422, -0.0263361, 0.00262295, -0.0982887, 0.000569236, -0.0697747, 0.000837193, 0.777352, 16.0489, 20.9385, 15.5035, 1.44214, 3.41739, -0.00999879, -0.00107881, 0.000478715, -0.000349126, 0.00112569, -0.0144212, 0.00110697, 0.0298128, -0.0184373, 0.0293514, 0.00636107, 0.0998796, 0.278698, -0.00943863, -0.442466, 0.631676, -3.12426, -0.0564773, -0.120143, -0.0105227, -0.442988, 0.631935, -3.12417, -0.0549012, -0.0975396, 0.032607, 0.0395867, -0.062326, 0.00133179, 0.0196379, -0.0356025
0.160063, 0.107252, -0.773297, -0.920577, -1.46193, -0.625263, 1.06742, -0.25722, -0.0121654, -0.0302396, 0.00367716, -0.102111, 0.000142135, -0.0710745, -0.00140856, 0.701973, 16.0846, 20.8631, 15.5035, 1.44855, 3.39633, 0.0431018, -0.00110473, 0.000496287, -0.000375532, 0.00112054, -0.0146502, 0.00105881, 0.0295506, -0.0182984, 0.0288953, 0.00479282, 0.0998546, 0.288207, -0.00940582, -0.442426, 0.631614, -3.12412, -0.0564969, -0.120377, -0.0105171, -0.442967, 0.631896, -3.12406, -0.0550007, -0.0974179, 0.0330136, 0.0399652, -0.0630183, 0.00202583, 0.0201678, -0.0367348
0.161063, 0.10725, -0.773323, -0.920585, -1.46203, -0.625258, 1.06734, -0.257214, -0.0097813, -0.0264072, -2.30415e-05, -0.103183, 0.000569477, -0.0720402, 0.00102765, 0.586922, 15.9735, 20.9742, 15.4282, 1.43573, 3.38901, -0.00999879, -0.00113077, 0.000515528, -0.000399426, 0.00112599, -0.014886, 0.00102719, 0.0287102, -0.0190491, 0.0282359, 0.00218129, 0.105138, 0.288682, -0.0093726, -0.442386, 0.63155, -3.12398, -0.0565168, -0.120614, -0.010511, -0.442948, 0.631854, -3.12393, -0.0550752, -0.0972873, 0.0334222, 0.0403434, -0.0637123, 0.00334625, 0.0198323, -0.0380385
0.162063, 0.107235, -0.773355, -0.920585, -1.46214, -0.625262, 1.06726, -0.257218, -0.011788, -0.0278449, 7.76174e-05, -0.105165, -9.50645e-05, -0.0730685, -0.000535604, 0.626595, 15.9021, 20.9742, 15.3925, 1.44855, 3.38168, 0.0229602, -0.00116394, 0.000532926, -0.000425375, 0.001128, -0.0151282, 0.000995866, 0.0302001, -0.0191199, 0.0283289, 0.00184154, 0.106404, 0.29167, -0.00933897, -0.442345, 0.631486, -3.12384, -0.056537, -0.120853, -0.0105118, -0.442926, 0.631813, -3.1238, -0.0551496, -0.0971496, 0.0338328, 0.0407212, -0.0644081, 0.00226431, 0.0200808, -0.0387655
0.163063, 0.107228, -0.77339, -0.92058, -1.46226, -0.625258, 1.06718, -0.257215, -0.0111606, -0.0327374, 0.00179191, -0.107265, 0.000411343, -0.0777379, 0.000355007, 0.586922, 15.8624, 20.9028, 15.3925, 1.43573, 3.36062, 0.00373412, -0.00119029, 0.000549731, -0.000451613, 0.00112817, -0.0153646, 0.000952722, 0.031186, -0.0182209, 0.0283149, -0.00160222, 0.105229, 0.296698, -0.00930493, -0.442304, 0.631421, -3.1237, -0.0565575, -0.121095, -0.0105055, -0.442903, 0.631772, -3.12367, -0.0552427, -0.0970238, 0.0342455, 0.0410986, -0.0651057, 0.0016591, 0.0213176, -0.0395489
0.164063, 0.107218, -0.773425, -0.92058, -1.46238, -0.625258, 1.0671, -0.257219, -0.0140015, -0.0355034, 0.00217493, -0.115248, 3.68708e-05, -0.0762226, -0.000950123, 0.551216, 15.791, 20.8631, 15.4282, 1.44214, 3.33133, 0.0357776, -0.0012193, 0.000566983, -0.000475258, 0.001135, -0.0156116, 0.00090812, 0.0318075, -0.0183035, 0.026849, -0.0030966, 0.107569, 0.302042, -0.00927048, -0.442263, 0.631356, -3.12355, -0.0565783, -0.121339, -0.0105012, -0.442881, 0.631727, -3.12354, -0.0553388, -0.0968839, 0.0346601, 0.0414756, -0.0658049, 0.00156721, 0.0216101, -0.0417669
0.165063, 0.107208, -0.773461, -0.92057, -1.4625, -0.625258, 1.06702, -0.257215, -0.0106902, -0.0354371, 0.00408763, -0.117264, -0.000212778, -0.0805208, 0.000553379, 0.551216, 15.7513, 20.752, 15.3925, 1.44855, 3.31759, 0.00373412, -0.00124707, 0.000583052, -0.000502603, 0.00113379, -0.0158583, 0.000866374, 0.0301801, -0.0174873, 0.0270334, -0.00553154, 0.11171, 0.308847, -0.00923561, -0.442221, 0.63129, -3.1234, -0.0565994, -0.121587, -0.0104956, -0.442857, 0.631686, -3.12341, -0.0554304, -0.0967474, 0.0350768, 0.0418522, -0.0665058, 0.00355752, 0.0228531, -0.0421538
0.166063, 0.107195, -0.773502, -0.920578, -1.46263, -0.625259, 1.06694, -0.257215, -0.0122167, -0.0354807, 0.000156053, -0.118543, -0.000345302, -0.0782345, 0.00036892, 0.586922, 15.7156, 20.8631, 15.3568, 1.45404, 3.28097, 0.00373412, -0.00128129, 0.000602918, -0.000524614, 0.0011425, -0.0161053, 0.000833129, 0.0320368, -0.0189016, 0.0265391, -0.00536793, 0.112017, 0.307785, -0.00920033, -0.442179, 0.631223, -3.12326, -0.0566208, -0.121836, -0.0104954, -0.442836, 0.631637, -3.12328, -0.0555096, -0.0966123, 0.0354954, 0.0422282, -0.0672083, 0.00221321, 0.0217542, -0.0435217
0.167063, 0.107194, -0.773536, -0.920573, -1.46276, -0.625257, 1.06686, -0.257218, -0.00963531, -0.0337172, 0.00179654, -0.123814, 0.000447968, -0.0772773, -0.000703489, 0.475838, 15.6046, 20.7917, 15.3568, 1.43573, 3.27456, 0.0293689, -0.00130463, 0.000619143, -0.000548836, 0.0011512, -0.0163639, 0.000773905, 0.0288834, -0.0187168, 0.0261817, -0.00557863, 0.116549, 0.318412, -0.00916462, -0.442137, 0.631155, -3.12311, -0.0566425, -0.122088, -0.0104843, -0.442811, 0.631592, -3.12314, -0.0556298, -0.0964621, 0.0359161, 0.0426038, -0.0679124, 0.00579304, 0.0224287, -0.0443408
0.168063, 0.107189, -0.773567, -0.920572, -1.46289, -0.625259, 1.06678, -0.257218, -0.00568941, -0.0316424, 0.00214226, -0.123237, -0.000616882, -0.0765187, -0.000231634, 0.400459, 15.4578, 20.752, 15.3171, 1.46045, 3.25992, 0.0229602, -0.00132992, 0.000638, -0.00057269, 0.00115466, -0.016629, 0.000725605, 0.0270293, -0.0193455, 0.0272134, -0.00274095, 0.119157, 0.324004, -0.00912849, -0.442094, 0.631087, -3.12296, -0.0566645, -0.122343, -0.0104746, -0.442789, 0.631545, -3.123, -0.0557332, -0.0963047, 0.0363387, 0.0429789, -0.068618, 0.00800219, 0.0222199, -0.0438893
0.169063, 0.107172, -0.773611, -0.920568, -1.46303, -0.62526, 1.0667, -0.257218, -0.00632801, -0.0337412, 0.0022758, -0.124828, -0.000648613, -0.0761716, -0.000154423, 0.475838, 15.4578, 20.7163, 15.3568, 1.46686, 3.25259, 0.0229602, -0.00136342, 0.000655095, -0.000596862, 0.0011619, -0.0168864, 0.000684433, 0.0279259, -0.0196569, 0.0274987, -0.00205378, 0.118385, 0.326897, -0.00909194, -0.442051, 0.631018, -3.1228, -0.0566868, -0.122601, -0.0104727, -0.442764, 0.631496, -3.12286, -0.0558259, -0.0961617, 0.0367632, 0.0433533, -0.0693252, 0.00751901, 0.0222422, -0.0443949
0.170063, 0.107162, -0.773645, -0.920567, -1.46316, -0.625259, 1.06661, -0.257216, -0.00793494, -0.0294121, 0.00245453, -0.126639, -0.00019505, -0.0711941, 0.000371769, 0.475838, 15.3467, 20.6766, 15.2814, 1.46045, 3.23886, 0.0101428, -0.00139234, 0.000672761, -0.000621134, 0.00117057, -0.017154, 0.00063997, 0.0266625, -0.0205658, 0.0283777, 0.00285463, 0.121457, 0.328726, -0.00905497, -0.442007, 0.630949, -3.12265, -0.0567094, -0.122861, -0.0104659, -0.44274, 0.631448, -3.12272, -0.0559244, -0.0960052, 0.0371897, 0.0437272, -0.0700339, 0.00916518, 0.0217333, -0.044149
0.171063, 0.10715, -0.773687, -0.920562, -1.4633, -0.62526, 1.06653, -0.257221, -0.00908997, -0.0341849, 0.00331377, -0.130396, -0.000367392, -0.077162, -0.00144757, 0.475838, 15.311, 20.6052, 15.3171, 1.46686, 3.23886, 0.0559192, -0.00142266, 0.000689643, -0.000644891, 0.00118073, -0.0174224, 0.000585878, 0.0286272, -0.0195139, 0.0275884, -0.00277001, 0.12269, 0.334579, -0.00901756, -0.441964, 0.630878, -3.12249, -0.0567323, -0.123123, -0.01046, -0.442715, 0.631398, -3.12257, -0.0560383, -0.0958504, 0.0376182, 0.0441005, -0.0707441, 0.00765545, 0.0230972, -0.0457937
0.172063, 0.10715, -0.773729, -0.920558, -1.46344, -0.625259, 1.06645, -0.257217, -0.00729633, -0.0345778, 0.00314244, -0.13238, -7.56891e-06, -0.0804698, 0.000493012, 0.360787, 15.2753, 20.5655, 15.3171, 1.46045, 3.20956, 0.0165515, -0.00144739, 0.000707458, -0.000668986, 0.00118876, -0.0176903, 0.000528209, 0.0282791, -0.0191753, 0.0273316, -0.00586191, 0.125486, 0.338159, -0.00897973, -0.441919, 0.630807, -3.12233, -0.0567555, -0.123389, -0.0104481, -0.44269, 0.631349, -3.12243, -0.0561581, -0.0956992, 0.0380486, 0.0444731, -0.0714557, 0.00843646, 0.0238207, -0.0467369
0.173063, 0.107136, -0.773768, -0.920552, -1.46359, -0.625257, 1.06636, -0.25722, -0.00976364, -0.039412, 0.00376932, -0.13312, -0.000242405, -0.0838767, -0.00184146, 0.400459, 15.1642, 20.4941, 15.2814, 1.46686, 3.20224, 0.0751453, -0.00147641, 0.000724743, -0.000693829, 0.00119554, -0.0179628, 0.000473894, 0.0312679, -0.0187902, 0.0276739, -0.00761464, 0.123443, 0.341506, -0.00894147, -0.441875, 0.630735, -3.12218, -0.056779, -0.123657, -0.0104401, -0.442664, 0.631299, -3.12229, -0.056273, -0.0955433, 0.0384809, 0.044845, -0.0721687, 0.00584627, 0.0244605, -0.0473483
0.174063, 0.107131, -0.773813, -0.920551, -1.46374, -0.625258, 1.06627, -0.257214, -0.00879277, -0.0426135, 0.00344385, -0.138615, 7.57558e-05, -0.0870564, 0.00141721, 0.325081, 15.1642, 20.4545, 15.3171, 1.46045, 3.20224, 0.00373412, -0.00150527, 0.000742571, -0.00071495, 0.00121258, -0.0182417, 0.000421783, 0.0314658, -0.0183312, 0.0262437, -0.0127788, 0.125698, 0.34463, -0.00890277, -0.44183, 0.630663, -3.12202, -0.0568029, -0.123927, -0.0104313, -0.442638, 0.631244, -3.12213, -0.0563855, -0.0953798, 0.0389151, 0.0452163, -0.0728831, 0.00617539, 0.0253046, -0.0495058
0.175063, 0.107121, -0.773863, -0.920546, -1.46389, -0.625256, 1.06619, -0.257221, -0.00982765, -0.0425312, 0.00406134, -0.141803, 5.05039e-05, -0.084579, -0.000987971, 0.325081, 15.1999, 20.3791, 15.3171, 1.46045, 3.20956, 0.0559192, -0.00153552, 0.000760184, -0.000738191, 0.00122449, -0.0185132, 0.000357583, 0.0311798, -0.0187729, 0.0264544, -0.010676, 0.127065, 0.350814, -0.00886363, -0.441784, 0.630589, -3.12185, -0.0568271, -0.1242, -0.0104236, -0.442612, 0.631191, -3.12198, -0.0565168, -0.0952309, 0.0393512, 0.0455868, -0.0735988, 0.00689239, 0.0252358, -0.0500043
0.176063, 0.107112, -0.773907, -0.920547, -1.46405, -0.625254, 1.06611, -0.257216, -0.00977742, -0.0427769, 0.0017812, -0.14295, 0.000474479, -0.081628, 0.00103677, 0.285408, 15.1285, 20.4188, 15.2814, 1.44855, 3.18851, 0.0101428, -0.00156472, 0.000779704, -0.000759714, 0.00123672, -0.0187925, 0.000306091, 0.0317314, -0.0199699, 0.0264771, -0.00914227, 0.126327, 0.350629, -0.00882406, -0.441738, 0.630515, -3.12169, -0.0568516, -0.124476, -0.0104141, -0.442587, 0.631136, -3.12182, -0.0566289, -0.0950723, 0.0397893, 0.0459565, -0.0743159, 0.00681974, 0.0243851, -0.0507702
0.177063, 0.107107, -0.773961, -0.920539, -1.46421, -0.625254, 1.06602, -0.25722, -0.00657209, -0.0457514, 0.00378716, -0.151293, 0.00505334, -0.0841635, -0.00052952, 0.245735, 15.1642, 20.3077, 15.2814, 1.44855, 3.17386, 0.0431018, -0.00159189, 0.000796613, -0.000781474, 0.00125139, -0.0190743, 0.000232847, 0.0286469, -0.0185673, 0.0247948, -0.0159327, 0.12708, 0.366086, -0.00878406, -0.441692, 0.630441, -3.12153, -0.0568764, -0.124755, -0.0104024, -0.442559, 0.63108, -3.12167, -0.0567754, -0.0949128, 0.0402292, 0.0463255, -0.0750342, 0.0104103, 0.0262922, -0.0529056
0.178063, 0.1071, -0.774006, -0.920535, -1.46438, -0.625251, 1.06594, -0.257223, -0.00740275, -0.0483998, 0.00428895, -0.156549, 0.00444182, -0.0860958, -0.00130245, 0.21003, 15.0888, 20.2323, 15.2417, 1.43024, 3.13815, 0.0687366, -0.00161726, 0.000815333, -0.000801899, 0.00126525, -0.019364, 0.000162366, 0.0293087, -0.0182306, 0.0238668, -0.0188074, 0.129762, 0.371527, -0.00874361, -0.441646, 0.630365, -3.12136, -0.0569015, -0.125036, -0.0103883, -0.442533, 0.631022, -3.12151, -0.0569181, -0.0947435, 0.040671, 0.0466936, -0.0757538, 0.0102507, 0.0269864, -0.0546065
0.179063, 0.107088, -0.774055, -0.920529, -1.46456, -0.625249, 1.06586, -0.257216, -0.00888355, -0.0514629, 0.00462323, -0.161482, 0.00281647, -0.0833472, 0.00130184, 0.21003, 15.0531, 20.1569, 15.2417, 1.44214, 3.13083, 0.0101428, -0.00164405, 0.000833036, -0.000822317, 0.00127971, -0.0196571, 0.000101116, 0.0301977, -0.0189034, 0.0234073, -0.0170626, 0.130229, 0.372212, -0.00870271, -0.441599, 0.630289, -3.12119, -0.056927, -0.12532, -0.0103751, -0.442505, 0.630963, -3.12135, -0.0570469, -0.0945717, 0.0411146, 0.0470609, -0.0764746, 0.00986705, 0.0266543, -0.0558761
0.180063, 0.107076, -0.77411, -0.920523, -1.46473, -0.625248, 1.06578, -0.257222, -0.00994261, -0.0513684, 0.00484592, -0.164621, 0.00209969, -0.0858331, -0.00106489, 0.21003, 15.0531, 20.0815, 15.206, 1.44214, 3.10977, 0.0623279, -0.00167461, 0.000851358, -0.000843464, 0.00129375, -0.0199453, 3.05723e-05, 0.030737, -0.0185934, 0.0231095, -0.019162, 0.134636, 0.377652, -0.00866138, -0.441552, 0.630212, -3.12102, -0.0569528, -0.125606, -0.0103653, -0.442478, 0.630904, -3.12119, -0.0571905, -0.0944103, 0.0415602, 0.0474273, -0.0771966, 0.00978441, 0.0273128, -0.0569425
