alisrour97/Franka_experiments/Real_Robot_scripts/servo-franka/Data4/log_dyn_INITw_ki_2.csv
Time,q1,q2,q3,q4,q5,q6,q7,dq1,dq2,dq3,dq4,dq5,dq6,dq7,t1,t2,t3,t4,t5,t6,t7,ex1,ex2,ex3,ex4,ex5,ex6,ev1,ev2,ev3,ev4,ev5,ev6,xd,yd,zd,uxd,uyd,uzd,x,y,z,ux,uy,uz,vxd,vyd,vzd,vx,vy,vz
4.88281e-07, 0.107626, -0.774303, -0.917131, -1.45766, -0.625453, 1.06968, -0.256747, -0.00209208, -0.00285118, 0.000101682, 0.0077207, -0.000579159, 0.000946264, -0.00156052, 0.0196001, 16.3068, 21.9065, 18.2291, 1.47327, 4.17727, -0.120778, 0.00072891, -0.00163847, 0.000759811, 0.00167859, -0.00122065, 0.000292647, 0.00337279, -0.000708659, 0.00242342, 0.00538744, -0.00793041, -0.00468712, -0.011112, -0.444721, 0.635038, -3.13187, -0.0555627, -0.107532, -0.0103876, -0.44305, 0.634338, -3.13027, -0.0556106, -0.105504, 0, 0, 0, -0.00350329, -0.00084767, 0.00218158
0.0130706, 0.107614, -0.774335, -0.917161, -1.45759, -0.625466, 1.06969, -0.256755, -0.00347324, -0.00543212, -0.00343807, 0.0060201, -0.000965119, 0.000808698, -0.0012985, 0.0196001, 16.4536, 22.0929, 18.1537, 1.50989, 4.15622, -0.114369, 0.000687501, -0.0016262, 0.000747872, 0.00165364, -0.00115364, 0.000360813, 0.00564325, -0.00132924, 0.000835517, 0.00211481, -0.00888315, -0.00831169, -0.011112, -0.444721, 0.635038, -3.13187, -0.0555627, -0.107532, -0.0104334, -0.443065, 0.634349, -3.13029, -0.055491, -0.105622, 1.73063e-06, 3.0097e-06, -3.96181e-06, -0.00563443, -0.00153104, 0.000433697
0.0140706, 0.107614, -0.774335, -0.917161, -1.45759, -0.625466, 1.06969, -0.256755, -0.00347324, -0.00543212, -0.00343807, 0.0060201, -0.000965119, 0.000808698, -0.0012985, 0.0196001, 16.4536, 22.0929, 18.1537, 1.50989, 4.15622, -0.114369, 0.000687498, -0.00162619, 0.000747862, 0.00165362, -0.00115367, 0.000360814, 0.00564792, -0.00133797, 0.000847774, 0.00213947, -0.00887979, -0.00826503, -0.011112, -0.444721, 0.635038, -3.13187, -0.0555627, -0.107532, -0.0104334, -0.443065, 0.634349, -3.13029, -0.055491, -0.105622, 6.91577e-06, 1.20019e-05, -1.58141e-05, -0.00563443, -0.00153104, 0.000433697
0.0150706, 0.107614, -0.774335, -0.917161, -1.45759, -0.625466, 1.06969, -0.256755, -0.00347324, -0.00543212, -0.00343807, 0.0060201, -0.000965119, 0.000808698, -0.0012985, 0.0196001, 16.4536, 22.0929, 18.1537, 1.50989, 4.15622, -0.114369, 0.000687488, -0.00162617, 0.000747836, 0.00165357, -0.00115373, 0.000360815, 0.00565569, -0.00135245, 0.000868139, 0.00218042, -0.0088742, -0.0081875, -0.011112, -0.444721, 0.635038, -3.13187, -0.0555627, -0.107532, -0.0104334, -0.443065, 0.634349, -3.13029, -0.055491, -0.105622, 1.55453e-05, 2.69215e-05, -3.55071e-05, -0.00563443, -0.00153104, 0.000433697
0.0160706, 0.107614, -0.774335, -0.917161, -1.45759, -0.625466, 1.06969, -0.256755, -0.00347324, -0.00543212, -0.00343807, 0.0060201, -0.000965119, 0.000808698, -0.0012985, 0.0196001, 16.4536, 22.0929, 18.1537, 1.50989, 4.15622, -0.114369, 0.000687468, -0.00162614, 0.000747786, 0.00165346, -0.00115385, 0.000360819, 0.00566657, -0.00137262, 0.000896563, 0.00223754, -0.00886635, -0.00807932, -0.011112, -0.444721, 0.635038, -3.13187, -0.0555628, -0.107532, -0.0104334, -0.443065, 0.634349, -3.13029, -0.055491, -0.105622, 2.7609e-05, 4.77135e-05, -6.29913e-05, -0.00563443, -0.00153104, 0.000433697
0.0170706, 0.107614, -0.774335, -0.917161, -1.45759, -0.625466, 1.06969, -0.256755, -0.00347324, -0.00543212, -0.00343807, 0.0060201, -0.000965119, 0.000808698, -0.0012985, 0.0196001, 16.4536, 22.0929, 18.1537, 1.50989, 4.15622, -0.114369, 0.000687437, -0.00162608, 0.000747704, 0.00165329, -0.00115405, 0.000360825, 0.00568052, -0.00139845, 0.000932995, 0.0023107, -0.00885626, -0.00794068, -0.0111119, -0.444721, 0.635038, -3.13187, -0.0555628, -0.107532, -0.0104334, -0.443065, 0.634349, -3.13029, -0.055491, -0.105622, 4.30968e-05, 7.4323e-05, -9.82172e-05, -0.00563443, -0.00153104, 0.000433697
0.0180706, 0.107614, -0.774335, -0.917161, -1.45759, -0.625466, 1.06969, -0.256755, -0.00347324, -0.00543212, -0.00343807, 0.0060201, -0.000965119, 0.000808698, -0.0012985, 0.0196001, 16.4536, 22.0929, 18.1537, 1.50989, 4.15622, -0.114369, 0.000687389, -0.00162599, 0.000747582, 0.00165303, -0.00115435, 0.000360834, 0.00569756, -0.00142986, 0.000977385, 0.0023998, -0.0088439, -0.0077718, -0.0111119, -0.444721, 0.635038, -3.13187, -0.0555628, -0.107533, -0.0104334, -0.443065, 0.634349, -3.13029, -0.055491, -0.105622, 6.19987e-05, 0.000106695, -0.000141136, -0.00563443, -0.00153104, 0.000433697
0.0190706, 0.107614, -0.774335, -0.917161, -1.45759, -0.625466, 1.06969, -0.256755, -0.00347324, -0.00543212, -0.00343807, 0.0060201, -0.000965119, 0.000808698, -0.0012985, 0.0196001, 16.4536, 22.0929, 18.1537, 1.50989, 4.15622, -0.114369, 0.000687323, -0.00162587, 0.000747411, 0.00165267, -0.00115476, 0.000360846, 0.00571766, -0.00146681, 0.00102968, 0.0025047, -0.00882929, -0.00757286, -0.0111118, -0.44472, 0.635037, -3.13187, -0.0555628, -0.107533, -0.0104334, -0.443065, 0.634349, -3.13029, -0.055491, -0.105622, 8.43044e-05, 0.000144776, -0.000191697, -0.00563443, -0.00153104, 0.000433697
0.0200706, 0.107614, -0.774335, -0.917161, -1.45759, -0.625466, 1.06969, -0.256755, -0.00347324, -0.00543212, -0.00343807, 0.0060201, -0.000965119, 0.000808698, -0.0012985, 0.0196001, 16.4536, 22.0929, 18.1537, 1.50989, 4.15622, -0.114369, 0.000687236, -0.00162571, 0.000747185, 0.00165219, -0.00115532, 0.000360863, 0.00574083, -0.00150924, 0.00108984, 0.00262529, -0.00881241, -0.00734408, -0.0111117, -0.44472, 0.635037, -3.13187, -0.0555629, -0.107534, -0.0104334, -0.443065, 0.634349, -3.13029, -0.055491, -0.105622, 0.000110004, 0.000188511, -0.000249853, -0.00563443, -0.00153104, 0.000433697
0.0210706, 0.107614, -0.774335, -0.917161, -1.45759, -0.625466, 1.06969, -0.256755, -0.00347324, -0.00543212, -0.00343807, 0.0060201, -0.000965119, 0.000808698, -0.0012985, 0.0196001, 16.4536, 22.0929, 18.1537, 1.50989, 4.15622, -0.114369, 0.000687123, -0.0016255, 0.000746894, 0.00165158, -0.00115602, 0.000360885, 0.00576705, -0.00155709, 0.0011578, 0.00276145, -0.00879327, -0.00708565, -0.0111116, -0.44472, 0.635037, -3.13187, -0.0555629, -0.107535, -0.0104334, -0.443065, 0.634349, -3.13029, -0.055491, -0.105622, 0.000139087, 0.000237846, -0.000315553, -0.00563443, -0.00153104, 0.000433697
0.0220706, 0.107614, -0.774335, -0.917161, -1.45759, -0.625466, 1.06969, -0.256755, -0.00347324, -0.00543212, -0.00343807, 0.0060201, -0.000965119, 0.000808698, -0.0012985, 0.0196001, 16.4536, 22.0929, 18.1537, 1.50989, 4.15622, -0.114369, 0.000686983, -0.00162524, 0.000746533, 0.00165081, -0.0011569, 0.000360912, 0.00579631, -0.00161033, 0.00123352, 0.00291307, -0.00877184, -0.00679777, -0.0111114, -0.44472, 0.635037, -3.13186, -0.055563, -0.107537, -0.0104334, -0.443065, 0.634349, -3.13029, -0.055491, -0.105622, 0.000171544, 0.000292726, -0.00038875, -0.00563443, -0.00153104, 0.000433697
0.0230706, 0.107602, -0.774359, -0.917191, -1.45756, -0.625484, 1.06969, -0.256754, -0.00113669, -0.00194061, -0.00326204, 0.00539877, -0.000852593, -3.25212e-06, 0.000315727, 0.059273, 16.5646, 22.3548, 18.0426, 1.58954, 4.15622, -0.133595, 0.000655429, -0.00161515, 0.000746876, 0.0016471, -0.00113174, 0.000419458, 0.00361515, -0.00141981, 0.00116505, 0.00218996, -0.00452721, -0.00526405, -0.0111112, -0.444719, 0.635036, -3.13186, -0.055563, -0.107538, -0.0104643, -0.443076, 0.634346, -3.13029, -0.0553999, -0.105663, 0.000207364, 0.000353099, -0.000469394, -0.00342607, -0.00120297, 0.000435758
0.0240706, 0.107599, -0.774358, -0.917189, -1.45757, -0.625486, 1.06969, -0.256754, -0.0048077, -0.000420727, -0.00139083, 0.00223525, -0.0010092, 0.000540696, -0.00451399, 0.0949785, 16.525, 22.3151, 18.118, 1.60144, 4.14157, -0.133595, 0.000655709, -0.00161506, 0.000747064, 0.00164513, -0.00113704, 0.000418772, 0.00352361, -0.000911435, 0.0010393, 0.0027122, -0.0011953, -0.000779466, -0.011111, -0.444719, 0.635036, -3.13186, -0.0555631, -0.10754, -0.0104637, -0.443076, 0.634345, -3.13029, -0.055401, -0.105656, 0.000246538, 0.00041891, -0.000557437, -0.00330517, -0.000624812, 0.00023168
0.0250706, 0.107599, -0.774361, -0.91719, -1.45756, -0.625486, 1.06969, -0.25675, -0.00351387, 0.00051348, -0.00388883, 0.0032107, 0.000446175, -0.00847224, -0.00313176, 0.0949785, 16.4893, 22.1683, 17.9315, 1.57123, 4.12692, -0.140919, 0.000653386, -0.00161445, 0.00074543, 0.00164316, -0.00113379, 0.000425635, 0.00438409, 0.000267914, -6.95847e-05, -0.00660944, 0.00269421, -0.00220285, -0.0111107, -0.444719, 0.635035, -3.13186, -0.0555632, -0.107542, -0.0104659, -0.443076, 0.634346, -3.13029, -0.0553904, -0.105664, 0.000289055, 0.000490107, -0.00065283, -0.00408675, 0.000604231, -0.0010218
0.0260706, 0.107601, -0.774358, -0.917212, -1.45757, -0.625485, 1.06969, -0.256751, -0.00173891, 0.00138384, -0.0138859, -0.00171452, -0.00162352, -0.00765749, -0.00289175, 0.059273, 16.3068, 22.0929, 17.8204, 1.49707, 4.03445, -0.127186, 0.000650149, -0.0016105, 0.000753962, 0.00166196, -0.00114523, 0.000433844, 0.00588752, -0.00184325, -0.00426046, -0.0140559, 0.00842365, -0.00634086, -0.0111104, -0.444718, 0.635034, -3.13186, -0.0555634, -0.107545, -0.0104681, -0.443079, 0.634337, -3.13027, -0.0553785, -0.105647, 0.000334905, 0.000566635, -0.000755525, -0.00517767, -0.00144584, -0.00542172
0.0270706, 0.10761, -0.774365, -0.917236, -1.45758, -0.62549, 1.06969, -0.256752, 0.00219353, -0.00290568, -0.0196062, -0.00488272, -0.00396076, -0.00741542, -0.00360735, -0.0914839, 16.1957, 21.9422, 17.5586, 1.43573, 3.94107, -0.0878186, 0.000644761, -0.00160478, 0.000763096, 0.00167903, -0.00115169, 0.00044096, 0.00711253, -0.00333912, -0.00699756, -0.0186356, 0.00817685, -0.00510751, -0.0111101, -0.444717, 0.635033, -3.13186, -0.0555635, -0.107548, -0.0104723, -0.443084, 0.634326, -3.13025, -0.0553682, -0.105639, 0.000384079, 0.000648441, -0.000865474, -0.00610913, -0.00287844, -0.00835567
0.0280706, 0.107622, -0.774375, -0.917256, -1.45759, -0.625497, 1.06968, -0.25676, 0.00485858, -0.00183051, -0.0239837, -0.00774726, -0.00574673, -0.00822031, -0.00105327, -0.242241, 16.16, 21.6446, 17.2968, 1.37439, 3.86966, -0.00267457, 0.000640477, -0.00160049, 0.000772818, 0.00169988, -0.00115978, 0.000433441, 0.0069045, -0.00419462, -0.00910692, -0.022834, 0.0131283, -0.00726074, -0.0111097, -0.444717, 0.635033, -3.13186, -0.0555637, -0.107552, -0.0104753, -0.443088, 0.634315, -3.13023, -0.0553809, -0.105629, 0.000436566, 0.000735474, -0.000982628, -0.00567431, -0.00362085, -0.0105682
0.0290706, 0.107625, -0.774383, -0.917281, -1.45761, -0.625506, 1.06967, -0.256756, 0.00406939, -0.00309945, -0.0205473, -0.0108987, -0.00767263, -0.00513318, 0.00078322, -0.281914, 16.0846, 21.3114, 17.0706, 1.32587, 3.82663, -0.0356336, 0.000632319, -0.0015965, 0.000785306, 0.00172812, -0.00117871, 0.000448025, 0.00597932, -0.00421159, -0.00871367, -0.0186331, 0.0136956, -0.0060821, -0.0111092, -0.444716, 0.635032, -3.13185, -0.0555639, -0.107556, -0.010482, -0.443092, 0.634301, -3.1302, -0.0553595, -0.105601, 0.000492356, 0.000827679, -0.00110694, -0.00472239, -0.00351644, -0.0102367
0.0300706, 0.107637, -0.774386, -0.91732, -1.45763, -0.62552, 1.06967, -0.256751, 0.00836929, -0.00323643, -0.0226325, -0.0126574, -0.0109454, -0.00691787, 0.00217873, -0.392998, 15.9735, 21.1606, 16.8127, 1.32587, 3.76895, -0.0750012, 0.000623802, -0.00158786, 0.000801237, 0.00175899, -0.00120449, 0.000468866, 0.00531198, -0.00476418, -0.00999874, -0.0210892, 0.0182504, -0.00492359, -0.0111087, -0.444715, 0.63503, -3.13185, -0.0555641, -0.10756, -0.0104885, -0.443099, 0.634284, -3.13017, -0.0553286, -0.105563, 0.000551439, 0.000925004, -0.00123836, -0.00389024, -0.00393677, -0.0116077
0.0310706, 0.107651, -0.774398, -0.91734, -1.45765, -0.625535, 1.06966, -0.256751, 0.00847676, -0.00375211, -0.0201797, -0.0142997, -0.0145544, -0.00278845, 0.00160138, -0.508049, 16.0092, 20.7163, 16.6977, 1.36249, 3.69021, -0.0750012, 0.000621431, -0.00158326, 0.000814958, 0.0017829, -0.0012277, 0.000463543, 0.00461663, -0.0054644, -0.00931866, -0.0150158, 0.01939, -0.00271316, -0.0111081, -0.444714, 0.635029, -3.13185, -0.0555643, -0.107565, -0.0104892, -0.443103, 0.634269, -3.13014, -0.0553382, -0.105531, 0.000613805, 0.0010274, -0.00137684, -0.00315613, -0.00451551, -0.0110243
0.0320706, 0.107663, -0.774408, -0.917383, -1.45768, -0.625553, 1.06966, -0.256757, 0.0115279, -0.0061084, -0.0267643, -0.0168591, -0.0159968, -0.00389835, -0.000753525, -0.619133, 16.0092, 20.6052, 16.5112, 1.3689, 3.59683, -0.0228162, 0.000610369, -0.00157281, 0.000833226, 0.00181426, -0.00125127, 0.00047594, 0.00603033, -0.00677551, -0.0120998, -0.0211075, 0.0207218, -0.00112467, -0.0111074, -0.444713, 0.635028, -3.13184, -0.0555646, -0.10757, -0.010498, -0.443113, 0.634248, -3.13011, -0.0553204, -0.105497, 0.000679445, 0.00113481, -0.00152234, -0.00426276, -0.00574406, -0.0140497
0.0330706, 0.107666, -0.774413, -0.917416, -1.4577, -0.62557, 1.06966, -0.256748, 0.0112025, -0.00391727, -0.0278371, -0.0172835, -0.0165442, -0.00603475, 0.00249753, -0.619133, 15.9735, 20.3434, 16.4001, 1.36249, 3.53274, -0.101552, 0.000600711, -0.00156523, 0.000849148, 0.00184144, -0.00128301, 0.00050169, 0.00616147, -0.00668179, -0.0124727, -0.0231451, 0.0247717, -0.0049668, -0.0111067, -0.444712, 0.635026, -3.13184, -0.0555649, -0.107577, -0.0105055, -0.443119, 0.63423, -3.13008, -0.0552819, -0.105452, 0.000748347, 0.00124718, -0.0016748, -0.00430236, -0.00553939, -0.0145826
0.0340706, 0.107673, -0.774422, -0.917456, -1.45773, -0.625588, 1.06966, -0.25675, 0.00894024, -0.00395689, -0.0312821, -0.0246058, -0.0169224, -0.00276946, 0.0012192, -0.658806, 16.0092, 20.1926, 16.3248, 1.35608, 3.46774, -0.0878186, 0.000590183, -0.00155494, 0.000868586, 0.00187101, -0.00131219, 0.000517721, 0.00655209, -0.00758128, -0.0151681, -0.0259995, 0.0283286, -0.004359, -0.0111059, -0.444711, 0.635024, -3.13184, -0.0555653, -0.107583, -0.0105135, -0.443128, 0.634208, -3.13005, -0.0552586, -0.105411, 0.000820503, 0.00136446, -0.00183418, -0.00440296, -0.00631144, -0.0174635
0.0350706, 0.10768, -0.774431, -0.917487, -1.45776, -0.625609, 1.06966, -0.256757, 0.0072033, -0.00302055, -0.0312007, -0.0267216, -0.021518, -0.00166049, -0.00154758, -0.694511, 16.0092, 19.9347, 16.2494, 1.33777, 3.43936, -0.0228162, 0.000582535, -0.00154698, 0.000885309, 0.001897, -0.00134546, 0.000520413, 0.00741981, -0.00821165, -0.0154334, -0.0236117, 0.0335966, -0.00372756, -0.0111051, -0.444709, 0.635022, -3.13183, -0.0555656, -0.10759, -0.0105189, -0.443135, 0.634189, -3.13002, -0.0552559, -0.105364, 0.000895902, 0.00148661, -0.00200043, -0.00515196, -0.00684743, -0.0179579
0.0360706, 0.107676, -0.774441, -0.91753, -1.45778, -0.625629, 1.06966, -0.256755, 0.00158166, -0.00322869, -0.0347208, -0.0257393, -0.0247866, -0.001756, -0.00147111, -0.543754, 16.0489, 19.8237, 16.0629, 1.31305, 3.43936, -0.00999879, 0.000563388, -0.00153643, 0.000902428, 0.001925, -0.00137354, 0.000557761, 0.0120219, -0.0092877, -0.015803, -0.0232549, 0.0354477, -0.013482, -0.0111041, -0.444708, 0.63502, -3.13183, -0.055566, -0.107598, -0.0105355, -0.443145, 0.634168, -3.12999, -0.0551995, -0.105326, 0.000974534, 0.00161356, -0.00217351, -0.00959788, -0.00795444, -0.0188228
0.0370706, 0.107677, -0.774438, -0.917566, -1.45782, -0.625648, 1.06966, -0.256752, 0.000448675, -0.00293221, -0.0330645, -0.0305015, -0.0216894, -0.00270858, 0.000978541, -0.508049, 15.9378, 19.6729, 16.1026, 1.26453, 3.46774, -0.0621838, 0.000556491, -0.00152879, 0.000922196, 0.00195956, -0.00142461, 0.00057674, 0.0104796, -0.00823321, -0.0166352, -0.0265667, 0.0369521, -0.0111638, -0.0111031, -0.444706, 0.635018, -3.13182, -0.0555664, -0.107607, -0.0105397, -0.443151, 0.634146, -3.12995, -0.055172, -0.105253, 0.00105639, 0.00174526, -0.00235336, -0.00795891, -0.0067074, -0.0197204
0.0380706, 0.107678, -0.774447, -0.917596, -1.45787, -0.625671, 1.06966, -0.256752, 0.00268535, -0.00581348, -0.0341642, -0.0353373, -0.0248143, -0.00298459, 0.000909594, -0.468376, 16.0846, 19.4864, 16.2137, 1.2334, 3.48971, -0.0685925, 0.000547951, -0.00152097, 0.000942336, 0.00198877, -0.00146943, 0.000587384, 0.0104353, -0.00870376, -0.0184282, -0.0288136, 0.0398586, -0.00797328, -0.011102, -0.444704, 0.635016, -3.13182, -0.0555669, -0.107616, -0.0105455, -0.443157, 0.634123, -3.12992, -0.0551573, -0.10519, 0.00114146, 0.00188168, -0.00253994, -0.00768996, -0.00702408, -0.0216957
0.0390706, 0.107682, -0.774443, -0.917633, -1.4579, -0.625689, 1.06966, -0.256758, 0.00218115, -0.00159595, -0.0352033, -0.0351061, -0.0210105, -0.00250088, -0.00154884, -0.468376, 15.9735, 19.4507, 16.178, 1.16565, 3.49612, -0.00999879, 0.000540513, -0.00151174, 0.000959737, 0.00201673, -0.0015149, 0.000598437, 0.00904318, -0.0086017, -0.0182392, -0.0298881, 0.0408892, -0.0043546, -0.0111008, -0.444702, 0.635013, -3.13181, -0.0555674, -0.107626, -0.0105502, -0.443164, 0.634102, -3.12989, -0.0551419, -0.105127, 0.00122973, 0.00202275, -0.00273321, -0.00623016, -0.00673358, -0.0216042
0.0400706, 0.107677, -0.774447, -0.917669, -1.45794, -0.625713, 1.06966, -0.256755, -1.59533e-05, -0.00213825, -0.035689, -0.034472, -0.0207421, -0.00241514, 0.000165416, -0.392998, 16.0092, 19.4111, 16.2494, 1.16565, 3.51077, -0.0420422, 0.000528419, -0.0015021, 0.000979039, 0.00204369, -0.00156303, 0.000625056, 0.0104869, -0.00881405, -0.0179235, -0.0293721, 0.0397595, -0.00804097, -0.0110996, -0.4447, 0.63501, -3.1318, -0.055568, -0.107637, -0.0105593, -0.443172, 0.634079, -3.12986, -0.0551024, -0.105061, 0.00132119, 0.00216842, -0.00293311, -0.00759206, -0.00685352, -0.0215898
0.0410706, 0.10767, -0.774448, -0.917709, -1.45798, -0.62574, 1.06966, -0.256753, -0.0023892, -0.00253282, -0.0353949, -0.0386257, -0.0250777, -0.00203537, 0.000627288, -0.281914, 16.0489, 19.4864, 16.4001, 1.16015, 3.5181, -0.0557752, 0.00051477, -0.00149278, 0.00100113, 0.00207845, -0.00162258, 0.000653691, 0.011593, -0.00915231, -0.0188015, -0.0286999, 0.0451999, -0.00977809, -0.0110982, -0.444698, 0.635007, -3.1318, -0.0555686, -0.107648, -0.0105697, -0.443179, 0.634053, -3.12982, -0.0550601, -0.104977, 0.00141584, 0.00231864, -0.0031396, -0.00852779, -0.00707251, -0.0227506
0.0420706, 0.10767, -0.774451, -0.917736, -1.45802, -0.625768, 1.06966, -0.25675, -0.00142788, 0.00276164, -0.0313588, -0.0380805, -0.0236873, -0.00201496, 0.00066184, -0.281914, 16.1203, 19.4111, 16.4001, 1.16015, 3.53274, -0.0621838, 0.000505052, -0.00148436, 0.00101596, 0.00209734, -0.00167373, 0.000675164, 0.00819125, -0.00830991, -0.0170959, -0.0256256, 0.0489534, -0.00457243, -0.0110967, -0.444695, 0.635004, -3.13179, -0.0555692, -0.107661, -0.0105766, -0.443185, 0.634034, -3.1298, -0.0550284, -0.104908, 0.00151366, 0.00247337, -0.00335263, -0.00518516, -0.00597094, -0.021023
0.0430706, 0.107662, -0.77445, -0.917767, -1.45806, -0.625795, 1.06965, -0.256759, -0.00351949, 0.00443789, -0.031042, -0.0403368, -0.0278014, -0.00275237, -0.00199546, -0.166862, 16.16, 19.4507, 16.5112, 1.17206, 3.56845, 0.00373412, 0.000493345, -0.00147652, 0.00103412, 0.00212458, -0.00173374, 0.000688561, 0.00901205, -0.00850456, -0.0174045, -0.0247871, 0.0556216, -0.0037155, -0.0110952, -0.444693, 0.635, -3.13178, -0.0555699, -0.107674, -0.0105851, -0.443191, 0.634012, -3.12977, -0.0550096, -0.104825, 0.00161465, 0.00263255, -0.00357216, -0.00587428, -0.00603234, -0.0216081
0.0440706, 0.107647, -0.774447, -0.917804, -1.4581, -0.625825, 1.06965, -0.256753, -0.00661526, 0.00446062, -0.0361542, -0.0380909, -0.0265513, -0.00217115, -0.000106069, 0.0196001, 16.1203, 19.5975, 16.5866, 1.19678, 3.57577, -0.0292249, 0.000476769, -0.00146649, 0.00105249, 0.00214883, -0.00179794, 0.000732021, 0.0122703, -0.00966944, -0.0177957, -0.0262175, 0.0532241, -0.0122514, -0.0110935, -0.44469, 0.634997, -3.13177, -0.0555706, -0.107688, -0.0105984, -0.443199, 0.633989, -3.12974, -0.0549441, -0.104737, 0.00171879, 0.00279613, -0.00379814, -0.00895007, -0.00714396, -0.0224559
0.0450706, 0.107639, -0.774447, -0.917833, -1.45814, -0.625856, 1.06965, -0.256751, -0.00610383, 0.00247623, -0.0348185, -0.0392922, -0.0252577, -0.00200479, 0.000406658, 0.0949785, 16.16, 19.6729, 16.662, 1.21509, 3.58951, -0.0420422, 0.000464416, -0.00145764, 0.00106891, 0.00216906, -0.00185878, 0.000758609, 0.0117945, -0.00943766, -0.0176157, -0.026156, 0.0509812, -0.00908376, -0.0110917, -0.444687, 0.634993, -3.13176, -0.0555714, -0.107702, -0.0106075, -0.443205, 0.633967, -3.12972, -0.0549047, -0.104655, 0.00182607, 0.00296406, -0.00403052, -0.00838888, -0.00672907, -0.0224748
0.0460706, 0.107625, -0.774446, -0.917861, -1.45818, -0.625887, 1.06965, -0.256752, -0.00754352, 0.00197369, -0.0347957, -0.0410665, -0.0236064, -0.00245814, 0.000781722, 0.245735, 16.16, 19.784, 16.7731, 1.21509, 3.6188, -0.0557752, 0.000449989, -0.00144847, 0.00108473, 0.00218627, -0.00192186, 0.000787223, 0.0120323, -0.00918972, -0.0179176, -0.0277056, 0.0506773, -0.00823696, -0.0110899, -0.444684, 0.634989, -3.13175, -0.0555722, -0.107718, -0.0106186, -0.443211, 0.633946, -3.12969, -0.0548622, -0.104571, 0.00193648, 0.00313629, -0.00426926, -0.00850348, -0.00631463, -0.0230297
0.0470706, 0.107619, -0.774446, -0.917887, -1.45822, -0.625923, 1.06965, -0.256753, -0.00906138, 0.000722736, -0.0345445, -0.0406812, -0.0279594, -0.00166617, -0.000698063, 0.285408, 16.1957, 19.8951, 16.8127, 1.23981, 3.6188, -0.0228162, 0.000438674, -0.00143879, 0.00109914, 0.00219809, -0.00198599, 0.000808253, 0.0139534, -0.00996393, -0.0174054, -0.0242064, 0.0521345, -0.00939983, -0.0110879, -0.444681, 0.634984, -3.13174, -0.0555731, -0.107735, -0.0106265, -0.443218, 0.633927, -3.12968, -0.0548312, -0.104486, 0.00205002, 0.00331277, -0.00451432, -0.0103126, -0.00698373, -0.0229011
0.0480706, 0.107606, -0.774446, -0.917906, -1.45826, -0.62596, 1.06965, -0.256756, -0.00896479, -0.000171776, -0.0271862, -0.0411509, -0.0258175, -0.0021825, -0.00168496, 0.400459, 16.2314, 19.9705, 16.8842, 1.2453, 3.64718, 0.0101428, 0.000425501, -0.00143086, 0.00111214, 0.00220852, -0.00205475, 0.000831009, 0.0114597, -0.00837251, -0.0152747, -0.0206587, 0.0499336, -0.000463035, -0.0110858, -0.444678, 0.63498, -3.13173, -0.055574, -0.107752, -0.0106363, -0.443223, 0.633908, -3.12966, -0.0547976, -0.104395, 0.00216668, 0.00349346, -0.00476563, -0.00791238, -0.00514336, -0.0208454
0.0490706, 0.107591, -0.77444, -0.91794, -1.4583, -0.625998, 1.06964, -0.256752, -0.00967745, 0.00169213, -0.0291959, -0.0408505, -0.0295679, -0.00252158, 0.00131894, 0.551216, 16.16, 20.2323, 16.9238, 1.27002, 3.67557, -0.0557752, 0.000408303, -0.00142004, 0.00112796, 0.00222592, -0.002129, 0.000874332, 0.0127975, -0.00926353, -0.0154261, -0.0197133, 0.0547837, -0.00665354, -0.0110835, -0.444674, 0.634975, -3.13172, -0.055575, -0.107771, -0.0106498, -0.443231, 0.633886, -3.12963, -0.0547325, -0.104296, 0.00228643, 0.0036783, -0.00502317, -0.00908404, -0.00589453, -0.0213519
0.0500706, 0.107585, -0.774445, -0.917959, -1.45833, -0.626035, 1.06964, -0.256752, -0.0074177, -0.00127541, -0.0299659, -0.0405181, -0.0317497, -0.00274378, 0.00135464, 0.586922, 16.2671, 20.3434, 16.9595, 1.27643, 3.70395, -0.0685925, 0.000395436, -0.00141116, 0.00113925, 0.0022331, -0.00219102, 0.000895735, 0.0135793, -0.00994861, -0.0154684, -0.0190832, 0.0535118, -0.0051957, -0.0110812, -0.44467, 0.634969, -3.13171, -0.0555761, -0.10779, -0.0106592, -0.443236, 0.633869, -3.12962, -0.0547009, -0.104218, 0.00240928, 0.00386724, -0.00528689, -0.00971309, -0.00641717, -0.0217163
0.0510706, 0.107569, -0.774442, -0.91798, -1.45837, -0.626076, 1.06964, -0.256759, -0.00856974, -0.00077365, -0.0283479, -0.0400861, -0.0388519, -0.00292293, -0.00153784, 0.737679, 16.2671, 20.4941, 16.9992, 1.30115, 3.73324, -0.00267457, 0.000379759, -0.00140206, 0.00115064, 0.00223926, -0.00226511, 0.000920719, 0.0150303, -0.0105864, -0.0145567, -0.0141454, 0.0592092, -0.0047904, -0.0110787, -0.444666, 0.634964, -3.1317, -0.0555772, -0.107811, -0.0106712, -0.443242, 0.633851, -3.12961, -0.054664, -0.104122, 0.00253522, 0.00406024, -0.00555673, -0.0110734, -0.00692037, -0.0211808
0.0520706, 0.107563, -0.774446, -0.918003, -1.45841, -0.626117, 1.06964, -0.256755, -0.00671478, -0.00222154, -0.0270358, -0.0407441, -0.0383739, -0.00246375, -0.000753605, 0.777352, 16.3425, 20.6409, 17.0706, 1.30115, 3.74698, -0.00999879, 0.000365974, -0.00139185, 0.00116335, 0.00224657, -0.0023341, 0.000948098, 0.0140668, -0.0105917, -0.0141676, -0.0131459, 0.0576468, -0.00107339, -0.0110761, -0.444662, 0.634958, -3.13168, -0.0555784, -0.107832, -0.0106811, -0.443248, 0.633832, -3.12959, -0.0546233, -0.104035, 0.00266423, 0.00425725, -0.00583265, -0.01001, -0.00669804, -0.0210025
0.0530706, 0.10755, -0.774444, -0.918023, -1.45845, -0.626156, 1.06963, -0.256752, -0.00629495, -0.00143793, -0.025227, -0.0403257, -0.0331375, -0.00218991, 0.00143064, 0.85273, 16.3425, 20.752, 17.1103, 1.29474, 3.76163, -0.0621838, 0.000351647, -0.00138222, 0.00117352, 0.00225009, -0.00240569, 0.000980847, 0.0122137, -0.00990836, -0.0131931, -0.0132169, 0.0540664, 0.00193328, -0.0110734, -0.444658, 0.634952, -3.13167, -0.0555796, -0.107855, -0.0106916, -0.443254, 0.633815, -3.12958, -0.0545743, -0.103945, 0.0027963, 0.00445821, -0.00611461, -0.0081214, -0.00575736, -0.0201807
0.0540706, 0.107537, -0.774443, -0.918044, -1.45848, -0.626197, 1.06964, -0.25675, -0.00914476, -0.00176151, -0.0247863, -0.0371164, -0.038816, -0.00173487, 0.000716602, 0.928108, 16.3782, 20.9028, 17.146, 1.28833, 3.76895, -0.0557752, 0.000335976, -0.00137096, 0.00118244, 0.00224746, -0.00247387, 0.00101432, 0.0152814, -0.0108843, -0.0116748, -0.00747827, 0.0557842, -0.00310185, -0.0110705, -0.444653, 0.634946, -3.13165, -0.0555809, -0.107878, -0.0107033, -0.443261, 0.633798, -3.12957, -0.054524, -0.103862, 0.00293143, 0.00466308, -0.00640257, -0.011114, -0.00664891, -0.0191719
0.0550706, 0.107524, -0.77444, -0.918064, -1.45851, -0.626245, 1.06963, -0.256753, -0.00815275, -0.0011501, -0.0243314, -0.0378202, -0.0439954, -0.00193922, -0.000980178, 1.00349, 16.3782, 21.0496, 17.1857, 1.30755, 3.79001, -0.0164075, 0.000318732, -0.00136033, 0.00119169, 0.00224698, -0.00255506, 0.0010462, 0.0155279, -0.0115206, -0.0114785, -0.0048885, 0.0609653, -0.00103965, -0.0110675, -0.444648, 0.63494, -3.13164, -0.0555822, -0.107903, -0.0107165, -0.443267, 0.633781, -3.12956, -0.0544764, -0.10376, 0.00306961, 0.00487181, -0.00669647, -0.0112121, -0.00708632, -0.0192914
0.0560706, 0.107514, -0.774444, -0.918079, -1.45855, -0.626286, 1.06963, -0.256753, -0.00879717, -0.00251179, -0.0214712, -0.036945, -0.0421521, -0.00237994, -0.00065334, 1.00349, 16.4536, 21.0892, 17.2968, 1.30115, 3.8193, -0.0164075, 0.000305163, -0.00135059, 0.00119946, 0.00224402, -0.00262228, 0.00106861, 0.0153006, -0.0109509, -0.0101562, -0.00318942, 0.05783, 0.00177635, -0.0110644, -0.444643, 0.634933, -3.13162, -0.0555837, -0.107929, -0.010726, -0.443272, 0.633766, -3.12955, -0.0544434, -0.10368, 0.00321082, 0.00508435, -0.00699628, -0.0109553, -0.00630792, -0.0182531
0.0570706, 0.107503, -0.77444, -0.918089, -1.45858, -0.62633, 1.06963, -0.256747, -0.00944848, -0.00082567, -0.0186262, -0.0336386, -0.0407488, -0.00236806, 0.00173466, 1.00349, 16.4178, 21.0892, 17.2968, 1.29474, 3.84036, -0.0750012, 0.000291801, -0.00134147, 0.00120353, 0.00223427, -0.00270024, 0.00110235, 0.0147022, -0.0106055, -0.00793718, 0.000679783, 0.0562629, 0.00106669, -0.0110611, -0.444638, 0.634926, -3.13161, -0.0555852, -0.107956, -0.0107354, -0.443277, 0.633754, -3.12955, -0.0543927, -0.103586, 0.00335505, 0.00530066, -0.00730195, -0.0103789, -0.00574484, -0.0163021
0.0580706, 0.107495, -0.774439, -0.918114, -1.45861, -0.626374, 1.06963, -0.256747, -0.00595405, -0.00137544, -0.0210361, -0.0320131, -0.0442144, -0.00239367, 0.000919146, 0.963814, 16.4536, 21.2757, 17.3325, 1.28833, 3.86233, -0.0685925, 0.000274992, -0.00132848, 0.00121156, 0.00223108, -0.00277204, 0.00113473, 0.0152538, -0.0118794, -0.00793177, 0.00189402, 0.0575369, 0.00225993, -0.0110577, -0.444633, 0.634918, -3.13159, -0.0555867, -0.107984, -0.0107477, -0.443285, 0.633737, -3.12954, -0.0543444, -0.103501, 0.0035023, 0.00552068, -0.00761342, -0.0107363, -0.00681725, -0.0166548
0.0590706, 0.107488, -0.774436, -0.918124, -1.45864, -0.626419, 1.06963, -0.256754, -0.00985597, 0.00141103, -0.0173292, -0.0316257, -0.0481143, -0.00237654, -0.00155733, 0.928108, 16.4893, 21.236, 17.4078, 1.30755, 3.88339, -0.00999879, 0.000263151, -0.00131829, 0.00121494, 0.00221739, -0.00284874, 0.00115061, 0.0159184, -0.0116884, -0.00620369, 0.00735791, 0.0629208, 0.00282946, -0.0110541, -0.444627, 0.63491, -3.13157, -0.0555884, -0.108013, -0.0107553, -0.44329, 0.633725, -3.12954, -0.0543214, -0.103411, 0.00365255, 0.00574437, -0.00793067, -0.0113741, -0.00644124, -0.0152933
0.0600706, 0.107483, -0.77443, -0.918145, -1.45867, -0.626463, 1.06962, -0.256752, -0.00879897, 0.00519893, -0.0193361, -0.0322988, -0.0447407, -0.00267008, -0.000563465, 0.85273, 16.4536, 21.3868, 17.5189, 1.28833, 3.91269, -0.0228162, 0.000250426, -0.0013069, 0.00122276, 0.00221702, -0.00293421, 0.00117768, 0.0143183, -0.0117584, -0.00656203, 0.00479578, 0.0649381, 0.00457796, -0.0110504, -0.444621, 0.634902, -3.13155, -0.0555901, -0.108044, -0.0107633, -0.443296, 0.633708, -3.12953, -0.0542816, -0.103308, 0.0038058, 0.00597168, -0.00825364, -0.00959829, -0.00622433, -0.0158642
0.0610706, 0.107479, -0.774432, -0.918155, -1.45869, -0.626508, 1.06962, -0.256745, -0.00813926, 0.00133189, -0.0203106, -0.0298548, -0.0480532, -0.00228917, 0.00203188, 0.777352, 16.5646, 21.3868, 17.5189, 1.29474, 3.92642, -0.0878186, 0.000236862, -0.00129592, 0.00122414, 0.00220053, -0.00300386, 0.00120719, 0.0167704, -0.0128715, -0.00588228, 0.00767024, 0.0619748, 0.000351953, -0.0110465, -0.444615, 0.634894, -3.13153, -0.0555919, -0.108076, -0.0107724, -0.443301, 0.633697, -3.12953, -0.0542375, -0.103232, 0.00396204, 0.00620257, -0.00858229, -0.0118936, -0.007198, -0.0156918
0.0620706, 0.107472, -0.774424, -0.918162, -1.45872, -0.626552, 1.06962, -0.256741, -0.00543481, 0.00123622, -0.0171548, -0.0292615, -0.0491687, -0.00206901, 0.00162587, 0.737679, 16.5646, 21.3471, 17.5586, 1.27002, 3.94107, -0.0951428, 0.000227253, -0.00128516, 0.00122418, 0.00217887, -0.0030834, 0.00123214, 0.0150525, -0.0127679, -0.00452165, 0.0112168, 0.0622217, 0.00632425, -0.0110424, -0.444609, 0.634885, -3.13151, -0.0555937, -0.108109, -0.0107775, -0.443306, 0.633688, -3.12954, -0.0542004, -0.103141, 0.00412125, 0.00643698, -0.00891658, -0.0101188, -0.00681167, -0.01455
0.0630706, 0.107465, -0.774424, -0.918171, -1.45875, -0.626599, 1.06962, -0.256748, -0.00660217, 0.0016196, -0.0158183, -0.0312396, -0.0507035, -0.00192215, -0.000374131, 0.701973, 16.6718, 21.3471, 17.7054, 1.25812, 3.95572, -0.0557752, 0.000214716, -0.00127401, 0.00122739, 0.00216368, -0.00316268, 0.00124628, 0.0150438, -0.0127783, -0.00432791, 0.0125754, 0.0650284, 0.00978541, -0.0110382, -0.444602, 0.634876, -3.13149, -0.0555957, -0.108143, -0.0107852, -0.443311, 0.633675, -3.12954, -0.0541804, -0.103053, 0.00428343, 0.00667487, -0.00925645, -0.00996073, -0.00658556, -0.0146967
0.0640706, 0.107461, -0.774421, -0.918189, -1.45877, -0.626646, 1.06962, -0.256746, -0.00649539, 0.000600953, -0.0143575, -0.025311, -0.0523516, -0.00206153, -0.000520677, 0.626595, 16.7114, 21.4582, 17.6697, 1.25812, 3.97677, -0.0484509, 0.000198954, -0.00126041, 0.00122857, 0.00214594, -0.00324097, 0.00127913, 0.0165522, -0.0132879, -0.00179759, 0.0180597, 0.0615286, 0.00866471, -0.0110339, -0.444596, 0.634867, -3.13147, -0.0555977, -0.108178, -0.010796, -0.443318, 0.633663, -3.12954, -0.0541314, -0.102966, 0.00444857, 0.0069162, -0.00960188, -0.0114553, -0.00692923, -0.0126261
0.0650706, 0.107459, -0.774417, -0.918201, -1.4588, -0.62669, 1.06961, -0.256743, -0.00341257, -0.000932871, -0.0177308, -0.0285451, -0.0473482, -0.0021544, 0.000398876, 0.551216, 16.7828, 21.4979, 17.8204, 1.2215, 3.99783, -0.0685925, 0.000188214, -0.00124924, 0.00123166, 0.00213516, -0.00332549, 0.00129994, 0.0152524, -0.0134991, -0.00353993, 0.012166, 0.0586576, 0.0136888, -0.0110293, -0.444589, 0.634857, -3.13145, -0.0555998, -0.108215, -0.0108015, -0.443322, 0.633649, -3.12953, -0.0541014, -0.102872, 0.00461665, 0.00716091, -0.0099528, -0.00986376, -0.00683414, -0.0146273
0.0660706, 0.107453, -0.774415, -0.918213, -1.45882, -0.626733, 1.06961, -0.256739, -0.00198119, 0.00103053, -0.0170981, -0.0241325, -0.0444487, -0.00170765, 0.00148663, 0.511544, 16.8582, 21.5336, 17.8204, 1.20318, 4.00516, -0.101552, 0.000173844, -0.00123686, 0.00123115, 0.0021156, -0.00340048, 0.00132954, 0.0142756, -0.0136375, -0.0015761, 0.0149111, 0.0554298, 0.0150172, -0.0110246, -0.444581, 0.634847, -3.13142, -0.055602, -0.108254, -0.0108107, -0.443328, 0.633639, -3.12953, -0.0540575, -0.102794, 0.00478767, 0.00740896, -0.0103092, -0.00884905, -0.0067077, -0.0129586
0.0670706, 0.10745, -0.774409, -0.918218, -1.45884, -0.626778, 1.06961, -0.256745, -0.00410469, 0.000304906, -0.0148893, -0.0241628, -0.0422536, -0.00113852, -0.000975599, 0.475838, 16.8939, 21.4979, 17.8204, 1.18396, 4.00516, -0.0484509, 0.000164269, -0.00122444, 0.00122724, 0.00208469, -0.00347854, 0.00134229, 0.0143831, -0.0132647, -0.000494146, 0.0166618, 0.0527848, 0.0195229, -0.0110198, -0.444574, 0.634836, -3.1314, -0.0556043, -0.108293, -0.0108152, -0.443333, 0.633631, -3.12955, -0.0540395, -0.102713, 0.00496161, 0.0076603, -0.010671, -0.00887008, -0.00609732, -0.0122467
0.0680706, 0.107452, -0.774402, -0.918227, -1.45887, -0.62682, 1.06961, -0.256743, -0.00159189, 0.00281963, -0.011071, -0.0259296, -0.0453542, -0.00130161, -0.00014177, 0.400459, 16.9296, 21.4979, 17.8918, 1.16565, 4.0198, -0.0621838, 0.000156664, -0.00121223, 0.00122648, 0.00206352, -0.00356252, 0.00135695, 0.0117011, -0.013, 0.000439787, 0.0201357, 0.0588546, 0.0249499, -0.0110147, -0.444566, 0.634825, -3.13137, -0.0556067, -0.108334, -0.0108173, -0.443338, 0.633621, -3.12955, -0.054019, -0.102623, 0.00513848, 0.00791489, -0.0110382, -0.00609311, -0.00549224, -0.0114955
0.0690706, 0.107453, -0.774398, -0.91824, -1.45889, -0.62686, 1.06961, -0.25674, -0.000597248, 0.00146592, -0.0100024, -0.021363, -0.0425081, -0.00113906, 0.000854925, 0.360787, 16.9693, 21.5732, 17.8561, 1.13544, 4.02713, -0.0878186, 0.000145732, -0.00119938, 0.00122457, 0.0020437, -0.00364072, 0.00137824, 0.0118626, -0.0130889, 0.00245616, 0.022847, 0.0523863, 0.0262312, -0.0110095, -0.444558, 0.634814, -3.13135, -0.0556092, -0.108376, -0.0108226, -0.443343, 0.633611, -3.12955, -0.0539882, -0.102545, 0.00531825, 0.00817268, -0.0114107, -0.00621018, -0.00534736, -0.00986894
0.0700706, 0.107458, -0.774391, -0.918248, -1.45891, -0.6269, 1.0696, -0.256734, 0.00101707, 0.00444071, -0.0104008, -0.018934, -0.0461351, -0.00126804, 0.0015533, 0.285408, 16.9693, 21.5732, 17.8561, 1.13544, 4.04086, -0.114369, 0.000138225, -0.00118678, 0.00122132, 0.00202012, -0.0037215, 0.00139635, 0.0117695, -0.0139371, 0.00352878, 0.0263106, 0.0567534, 0.0253202, -0.0110041, -0.44455, 0.634803, -3.13132, -0.0556118, -0.10842, -0.0108244, -0.443348, 0.633602, -3.12955, -0.0539625, -0.102463, 0.00550092, 0.00843363, -0.0117885, -0.00597838, -0.00594068, -0.00917659
0.0710706, 0.107458, -0.774389, -0.918258, -1.45893, -0.62694, 1.06961, -0.25674, 0.000417043, 0.00183575, -0.00850945, -0.0231632, -0.0397115, -6.54911e-05, -0.00113461, 0.285408, 17.0407, 21.6089, 17.8561, 1.14093, 4.0198, -0.0557752, 0.000126921, -0.00117297, 0.00121741, 0.00199242, -0.00379493, 0.00140865, 0.0101199, -0.0130897, 0.00319824, 0.023986, 0.0514787, 0.0356016, -0.0109985, -0.444541, 0.634791, -3.13129, -0.0556144, -0.108465, -0.0108298, -0.443353, 0.633593, -3.12955, -0.0539456, -0.102395, 0.00568647, 0.00869769, -0.0121715, -0.00415572, -0.00476874, -0.00977006
0.0720706, 0.10746, -0.77438, -0.918272, -1.45895, -0.62698, 1.06961, -0.256736, 0.00636431, 0.00330355, -0.0111081, -0.0227081, -0.0352683, -4.36814e-05, 0.000193033, 0.285408, 16.9693, 21.6843, 17.8204, 1.16015, 4.0198, -0.0814099, 0.000117156, -0.00115783, 0.00121383, 0.00196452, -0.00387729, 0.00143159, 0.00727657, -0.0134993, 0.00287419, 0.021099, 0.0495721, 0.0416349, -0.0109927, -0.444532, 0.634778, -3.13127, -0.0556172, -0.108512, -0.0108335, -0.44336, 0.633583, -3.12956, -0.0539123, -0.102314, 0.00587491, 0.00896481, -0.0125597, -0.00109559, -0.00480805, -0.0102878
0.0730706, 0.107461, -0.774379, -0.918287, -1.45896, -0.627018, 1.06961, -0.256732, 0.00461956, 0.00167411, -0.01068, -0.0223141, -0.0365868, -0.000571671, 0.000366048, 0.285408, 17.005, 21.7954, 17.7808, 1.17847, 4.03445, -0.0878186, 0.00010337, -0.00114362, 0.00121044, 0.00194337, -0.0039521, 0.00145678, 0.00897242, -0.0137451, 0.00347246, 0.0225149, 0.0490667, 0.040751, -0.0109867, -0.444523, 0.634765, -3.13124, -0.05562, -0.10856, -0.0108409, -0.443365, 0.633573, -3.12956, -0.0538759, -0.102246, 0.00606621, 0.00923495, -0.0129531, -0.00262758, -0.00484882, -0.0102043
0.0740706, 0.107471, -0.774381, -0.918296, -1.45899, -0.627054, 1.06961, -0.256729, 0.00605348, -0.000416941, -0.013094, -0.0249537, -0.0375263, 0.000432676, 0.000990018, 0.170357, 17.0804, 21.7597, 17.8561, 1.19678, 4.01248, -0.10796, 9.7651e-05, -0.00112912, 0.00120672, 0.0019152, -0.00402443, 0.00146214, 0.00945608, -0.0146823, 0.00236141, 0.0213147, 0.049172, 0.0421899, -0.0109806, -0.444514, 0.634752, -3.13121, -0.055623, -0.10861, -0.0108402, -0.443371, 0.633563, -3.12956, -0.0538701, -0.102185, 0.00626038, 0.00950806, -0.0133516, -0.00280534, -0.00551914, -0.0117517
0.0750706, 0.107466, -0.774372, -0.918313, -1.45901, -0.627092, 1.06961, -0.256734, 0.00155628, 0.00249316, -0.0122333, -0.0247535, -0.0331998, 1.71749e-05, -0.00103541, 0.285408, 16.9693, 21.8708, 17.8561, 1.20868, 4.0198, -0.0621838, 8.30421e-05, -0.0011135, 0.00120312, 0.00189067, -0.00410932, 0.00148611, 0.00969905, -0.0140415, 0.00329418, 0.0210304, 0.0489461, 0.0439163, -0.0109742, -0.444504, 0.634739, -3.13117, -0.055626, -0.108661, -0.010848, -0.443377, 0.633552, -3.12956, -0.0538357, -0.102104, 0.00645739, 0.00978411, -0.0137552, -0.00293799, -0.00461997, -0.0112381
0.0760706, 0.107474, -0.774372, -0.918331, -1.45902, -0.62713, 1.06961, -0.25673, 0.00295968, 0.000956389, -0.0114331, -0.0229823, -0.0349686, 0.000282711, 0.000530431, 0.21003, 17.005, 21.9819, 17.7808, 1.2334, 4.01248, -0.0951428, 7.04588e-05, -0.00109725, 0.00119833, 0.00186587, -0.0041834, 0.0015072, 0.0101536, -0.0145877, 0.00441124, 0.0241676, 0.0475948, 0.0441992, -0.0109676, -0.444494, 0.634725, -3.13114, -0.0556292, -0.108713, -0.0108537, -0.443384, 0.633542, -3.12956, -0.0538059, -0.102042, 0.00665724, 0.010063, -0.0141638, -0.00324908, -0.00491338, -0.0105684
0.0770706, 0.107475, -0.774371, -0.918338, -1.45904, -0.627164, 1.06961, -0.256728, 0.0020923, 0.000734718, -0.00636819, -0.0235257, -0.0357094, -8.27984e-05, 0.000828339, 0.21003, 17.005, 21.9065, 17.7808, 1.23981, 4.0198, -0.10796, 5.99297e-05, -0.00108367, 0.00119131, 0.00183643, -0.00425996, 0.00152093, 0.00922776, -0.013849, 0.00610329, 0.0280292, 0.048392, 0.0484247, -0.0109609, -0.444484, 0.63471, -3.13111, -0.0556325, -0.108767, -0.0108574, -0.443388, 0.633534, -3.12956, -0.0537874, -0.101978, 0.00685993, 0.0103448, -0.0145774, -0.00226702, -0.0038767, -0.00922546
0.0780706, 0.107481, -0.774368, -0.918355, -1.45906, -0.627199, 1.06961, -0.256725, 0.0032475, 0.00139787, -0.0116666, -0.0231822, -0.0363108, 0.000487332, 0.000789585, 0.134651, 16.9693, 21.9422, 17.7451, 1.2453, 4.00516, -0.114369, 4.86598e-05, -0.00106644, 0.00118561, 0.00180645, -0.00433497, 0.00154172, 0.0105368, -0.0153534, 0.00517594, 0.0263574, 0.0494017, 0.0467512, -0.0109539, -0.444473, 0.634696, -3.13108, -0.0556359, -0.108823, -0.0108614, -0.443395, 0.633524, -3.12956, -0.053758, -0.101918, 0.00706543, 0.0106294, -0.0149959, -0.00324869, -0.00513319, -0.0106713
0.0790706, 0.107486, -0.774363, -0.918371, -1.45908, -0.627235, 1.06961, -0.256733, 0.00316006, 0.00274979, -0.0126797, -0.0243981, -0.0316377, -0.000217649, -0.00164375, 0.0949785, 16.8939, 21.9819, 17.7808, 1.23981, 4.0198, -0.0557752, 3.81205e-05, -0.00105021, 0.00118109, 0.00178122, -0.00442087, 0.0015483, 0.00958735, -0.0150554, 0.004946, 0.0232908, 0.0485555, 0.0528337, -0.0109468, -0.444463, 0.63468, -3.13104, -0.0556394, -0.10888, -0.0108645, -0.443401, 0.633512, -3.12955, -0.0537511, -0.101843, 0.00727374, 0.0109167, -0.0154193, -0.00208862, -0.00451268, -0.0112568
0.0800706, 0.107484, -0.77436, -0.918388, -1.4591, -0.627271, 1.06961, -0.256726, 0.00122897, 0.0035446, -0.0124098, -0.0236894, -0.0326268, 0.0006687, 0.00036223, 0.134651, 16.8225, 21.9819, 17.7451, 1.22699, 3.99783, -0.0951428, 2.24509e-05, -0.00103267, 0.00117445, 0.00174958, -0.0045005, 0.00158101, 0.0105499, -0.0155316, 0.00585141, 0.0261146, 0.0493252, 0.0499356, -0.0109394, -0.444452, 0.634665, -3.131, -0.055643, -0.108939, -0.0108725, -0.443408, 0.633502, -3.12955, -0.0537034, -0.101779, 0.00748486, 0.0112067, -0.0158476, -0.00288297, -0.00474111, -0.0108532
0.0810706, 0.107494, -0.774358, -0.918415, -1.45911, -0.627307, 1.06961, -0.256723, 0.00354828, 0.00332182, -0.01579, -0.0192294, -0.0341765, 0.000683158, 0.000953563, 0.0196001, 16.7828, 22.1287, 17.6697, 1.2334, 3.99142, -0.114369, 7.83597e-06, -0.00101351, 0.00117008, 0.00172727, -0.00458113, 0.00160567, 0.012101, -0.0169886, 0.00662477, 0.0278103, 0.0477015, 0.0477399, -0.0109318, -0.44444, 0.634649, -3.13097, -0.0556467, -0.109, -0.0108791, -0.443416, 0.633489, -3.12955, -0.0536687, -0.101714, 0.00769877, 0.0114994, -0.0162807, -0.00421707, -0.00596661, -0.010634
0.0820706, 0.1075, -0.774356, -0.91843, -1.45913, -0.627342, 1.06961, -0.256725, 0.00322902, 0.00307281, -0.0161425, -0.017794, -0.0305492, 0.000726705, 0.000160991, -0.0161054, 16.7471, 22.0572, 17.6697, 1.23981, 3.9841, -0.101552, -4.39898e-06, -0.00099632, 0.00116267, 0.00169674, -0.00466279, 0.00162055, 0.0122084, -0.0170208, 0.0074202, 0.0276915, 0.0439257, 0.0506504, -0.010924, -0.444429, 0.634632, -3.13093, -0.0556505, -0.109062, -0.0108833, -0.443422, 0.633479, -3.12954, -0.053649, -0.10165, 0.00791545, 0.0117947, -0.0167186, -0.00416171, -0.00571513, -0.0102872
0.0830706, 0.107506, -0.774356, -0.918454, -1.45915, -0.627378, 1.06961, -0.256727, 0.00310191, 0.00206583, -0.0191355, -0.0166328, -0.0320574, 0.000484469, -0.000638658, -0.0557783, 16.7471, 22.0929, 17.6697, 1.2334, 3.9841, -0.0814099, -2.02185e-05, -0.000977007, 0.00115786, 0.00167147, -0.00474568, 0.00164077, 0.0142939, -0.0181024, 0.00733081, 0.0276773, 0.0437324, 0.0494534, -0.010916, -0.444417, 0.634615, -3.13089, -0.0556545, -0.109126, -0.0108907, -0.44343, 0.633466, -3.12954, -0.0536214, -0.101586, 0.00813491, 0.0120926, -0.0171612, -0.00597659, -0.00657099, -0.0109733
0.0840706, 0.107517, -0.774351, -0.918479, -1.45916, -0.627414, 1.06962, -0.256729, 0.00781354, 0.00315342, -0.0182158, -0.0211139, -0.0339481, 0.00113678, -0.00113785, -0.166862, 16.6718, 22.1287, 17.634, 1.2453, 3.96213, -0.0621838, -3.27262e-05, -0.000956006, 0.00115085, 0.00163817, -0.00482914, 0.00165844, 0.0111612, -0.0183707, 0.00664501, 0.0278239, 0.0490058, 0.0584899, -0.0109077, -0.444404, 0.634598, -3.13085, -0.0556585, -0.109191, -0.0108946, -0.443439, 0.633454, -3.12953, -0.0535975, -0.101523, 0.00835714, 0.012393, -0.0176085, -0.00257422, -0.00642206, -0.0118892
0.0850706, 0.107525, -0.774349, -0.918503, -1.45918, -0.627453, 1.06962, -0.256726, 0.0127093, 0.002112, -0.0181411, -0.0211554, -0.0356305, 0.00126648, 0.00019087, -0.206535, 16.6718, 22.0572, 17.5943, 1.26453, 3.94839, -0.0878186, -4.80148e-05, -0.000935164, 0.00114378, 0.00160514, -0.00491538, 0.00168409, 0.00980096, -0.0190138, 0.00694781, 0.029205, 0.0494147, 0.0630807, -0.0108992, -0.444392, 0.63458, -3.13081, -0.0556627, -0.109258, -0.010901, -0.443448, 0.633442, -3.12953, -0.0535614, -0.101457, 0.00858211, 0.0126959, -0.0180604, -0.000991363, -0.00671719, -0.0119499
0.0860706, 0.107536, -0.77434, -0.918531, -1.4592, -0.627492, 1.06962, -0.25672, 0.0140919, 0.00392095, -0.0261902, -0.0209555, -0.031549, 0.00138685, 0.00111059, -0.281914, 16.5646, 22.0572, 17.6697, 1.27002, 3.93374, -0.114369, -6.07854e-05, -0.000914263, 0.00113989, 0.0015815, -0.00501471, 0.00171008, 0.0106694, -0.0204231, 0.00522821, 0.0233511, 0.0484843, 0.0610402, -0.0108905, -0.444379, 0.634562, -3.13077, -0.055667, -0.109327, -0.0109046, -0.443457, 0.633427, -3.12952, -0.0535254, -0.101371, 0.00880983, 0.0130012, -0.018517, -0.00145945, -0.00783445, -0.0141938
0.0870706, 0.107547, -0.774332, -0.918567, -1.45922, -0.627529, 1.06962, -0.256725, 0.0141724, 0.00521789, -0.02679, -0.0179789, -0.0336723, 0.00197573, -0.00119239, -0.317619, 16.4536, 22.0929, 17.634, 1.28833, 3.90536, -0.0621838, -7.60566e-05, -0.00089048, 0.0011356, 0.00155393, -0.00510811, 0.00173226, 0.0116124, -0.0213425, 0.00654543, 0.0270758, 0.049358, 0.0622116, -0.0108816, -0.444366, 0.634543, -3.13072, -0.0556715, -0.109398, -0.0109103, -0.443468, 0.633411, -3.12951, -0.0534952, -0.101297, 0.00904028, 0.013309, -0.0189781, -0.00222806, -0.00849164, -0.0134149
0.0880706, 0.107561, -0.774335, -0.918606, -1.45924, -0.627573, 1.06962, -0.256724, 0.0120785, 0.00264748, -0.0302355, -0.0183455, -0.0357214, 0.00185969, -0.000794924, -0.392998, 16.4893, 22.1287, 17.7054, 1.31946, 3.89071, -0.0621838, -9.53293e-05, -0.000866024, 0.00113424, 0.0015335, -0.00520368, 0.00175964, 0.0149751, -0.0224932, 0.00589997, 0.0263283, 0.0489652, 0.0581309, -0.0108725, -0.444352, 0.634524, -3.13068, -0.0556761, -0.10947, -0.0109195, -0.443479, 0.633392, -3.12949, -0.0534574, -0.101221, 0.00927346, 0.0136191, -0.0194438, -0.00526117, -0.00944396, -0.0147695
0.0890706, 0.107576, -0.774335, -0.918641, -1.45926, -0.627608, 1.06963, -0.256721, 0.013586, 0.00176806, -0.0343086, -0.0177107, -0.0311433, 0.00256222, 0.000419486, -0.468376, 16.4893, 22.0929, 17.7451, 1.31305, 3.85501, -0.0878186, -0.000110467, -0.000841685, 0.00113027, 0.00150655, -0.00529174, 0.00178288, 0.0152604, -0.023282, 0.0054043, 0.023396, 0.0442312, 0.0590203, -0.0108631, -0.444339, 0.634504, -3.13064, -0.0556808, -0.109544, -0.0109245, -0.44349, 0.633375, -3.12948, -0.0534258, -0.101159, 0.00950935, 0.0139315, -0.0199139, -0.00524701, -0.00992527, -0.0157615
0.0900706, 0.107591, -0.774326, -0.918681, -1.45928, -0.627641, 1.06963, -0.25672, 0.0138803, 0.00461469, -0.0351459, -0.0176075, -0.0325195, 0.00197941, 0.000550925, -0.508049, 16.3425, 22.0929, 17.6697, 1.30755, 3.84768, -0.0951428, -0.000126472, -0.000816943, 0.00112561, 0.00148283, -0.00538698, 0.00181042, 0.0151067, -0.0237473, 0.00574005, 0.0241485, 0.048567, 0.0596685, -0.0108534, -0.444325, 0.634484, -3.13059, -0.0556856, -0.10962, -0.0109303, -0.443502, 0.633358, -3.12947, -0.0533879, -0.101087, 0.00974794, 0.0142462, -0.0203885, -0.00486207, -0.0100737, -0.0158956
0.0910706, 0.107614, -0.77432, -0.918722, -1.45929, -0.627681, 1.06963, -0.256728, 0.0167613, 0.00484143, -0.0371594, -0.0155725, -0.0288056, 0.00237077, -0.00207412, -0.658806, 16.2671, 22.0176, 17.634, 1.30115, 3.8193, -0.0292249, -0.000139517, -0.000790899, 0.0011217, 0.00145667, -0.00548784, 0.00182212, 0.0142838, -0.0242854, 0.00623891, 0.0234404, 0.044758, 0.0662301, -0.0108436, -0.44431, 0.634463, -3.13054, -0.0556906, -0.109698, -0.0109327, -0.443514, 0.63334, -3.12945, -0.0533747, -0.101009, 0.00998923, 0.0145631, -0.0208674, -0.00381604, -0.0102707, -0.015825
0.0920706, 0.107626, -0.774325, -0.918766, -1.45932, -0.62772, 1.06964, -0.256723, 0.0111267, 0.00146568, -0.0398085, -0.0165083, -0.0358173, 0.00626457, 7.53135e-05, -0.619133, 16.3425, 21.9819, 17.7054, 1.30115, 3.8193, -0.0685925, -0.000161302, -0.000764174, 0.00112039, 0.001436, -0.00558187, 0.00185674, 0.019637, -0.0264738, 0.00609882, 0.0287699, 0.0456217, 0.0554664, -0.0108335, -0.444295, 0.634442, -3.13049, -0.0556957, -0.109777, -0.0109434, -0.443526, 0.633319, -3.12943, -0.0533262, -0.100942, 0.0102332, 0.0148823, -0.0213508, -0.00882066, -0.0123259, -0.0168419
0.0930706, 0.107647, -0.77431, -0.918808, -1.45934, -0.627755, 1.06963, -0.256722, 0.0129873, 0.00441177, -0.0399543, -0.0186226, -0.0362029, 0.00483799, 0.000524927, -0.694511, 16.1957, 21.8708, 17.7054, 1.30115, 3.81198, -0.0814099, -0.000172712, -0.000738977, 0.00111738, 0.00141664, -0.00569523, 0.00187673, 0.0179825, -0.0264468, 0.00584943, 0.0274912, 0.0511645, 0.0595466, -0.0108231, -0.44428, 0.634421, -3.13044, -0.0557009, -0.109858, -0.0109436, -0.443537, 0.633299, -3.12941, -0.0533007, -0.100847, 0.0104799, 0.0152035, -0.0218384, -0.00690823, -0.0119173, -0.0174642
0.0940706, 0.107664, -0.774311, -0.918869, -1.45937, -0.627795, 1.06963, -0.256722, 0.0156633, 0.00210669, -0.0452332, -0.0210827, -0.0411388, 0.00378935, 0.000349951, -0.694511, 16.2314, 21.9819, 17.7451, 1.29474, 3.80466, -0.0814099, -0.000196301, -0.000709106, 0.00112071, 0.00140824, -0.00580016, 0.00191247, 0.0199956, -0.0281131, 0.00385704, 0.0246042, 0.0551941, 0.059195, -0.0108125, -0.444265, 0.634399, -3.13039, -0.0557063, -0.109941, -0.0109552, -0.443552, 0.633272, -3.12937, -0.0532513, -0.100766, 0.0107292, 0.0155269, -0.0223304, -0.00846673, -0.0133103, -0.0200998
0.0950706, 0.107688, -0.774303, -0.918919, -1.45939, -0.627831, 1.06964, -0.256729, 0.0187312, 0.00623346, -0.0438929, -0.0208873, -0.0403163, 0.00328833, -0.0021742, -0.734184, 16.16, 21.8708, 17.7054, 1.29474, 3.79001, -0.0164075, -0.000211794, -0.000680848, 0.00111874, 0.00138965, -0.00590754, 0.00192829, 0.0171188, -0.0279849, 0.00482987, 0.0258536, 0.0589761, 0.068005, -0.0108016, -0.444249, 0.634376, -3.13034, -0.0557118, -0.110026, -0.0109588, -0.443565, 0.63325, -3.12935, -0.0532326, -0.100684, 0.0109812, 0.0158524, -0.0228265, -0.00541962, -0.0127655, -0.0194247
0.0960706, 0.107705, -0.7743, -0.918979, -1.45943, -0.627862, 1.06964, -0.256723, 0.0223255, 0.00534724, -0.0465125, -0.0237171, -0.0385489, 0.00259425, 0.000483315, -0.694511, 16.1203, 21.9065, 17.7808, 1.26453, 3.7836, -0.0685925, -0.000231871, -0.000651797, 0.00112228, 0.00138495, -0.00601603, 0.00196379, 0.016016, -0.0284136, 0.00353776, 0.0218842, 0.0592975, 0.0711859, -0.0107905, -0.444233, 0.634353, -3.13029, -0.0557175, -0.110113, -0.0109664, -0.443579, 0.633222, -3.12931, -0.053184, -0.100601, 0.0112358, 0.0161798, -0.0233269, -0.00395973, -0.0128147, -0.0211419
0.0970706, 0.107727, -0.774298, -0.919032, -1.45945, -0.627903, 1.06964, -0.256721, 0.0229582, 0.00283449, -0.0490466, -0.0231495, -0.0436449, 0.00161565, 0.00103429, -0.694511, 16.16, 21.8311, 17.7451, 1.27643, 3.79001, -0.0878186, -0.000251114, -0.00062195, 0.00112155, 0.00136547, -0.00612737, 0.00199278, 0.0187677, -0.0297265, 0.0033252, 0.0227452, 0.0611036, 0.0685736, -0.0107792, -0.444217, 0.634329, -3.13024, -0.0557233, -0.110202, -0.0109731, -0.443593, 0.633198, -3.12928, -0.0531452, -0.100517, 0.011493, 0.0165093, -0.0238314, -0.0063835, -0.0138923, -0.0220648
0.0980706, 0.107743, -0.774294, -0.919091, -1.45949, -0.627938, 1.06964, -0.256725, 0.0185507, 0.00203792, -0.0526586, -0.0244994, -0.0381117, 0.00167835, -0.00049727, -0.619133, 16.16, 21.8311, 17.7808, 1.29474, 3.77627, -0.0557752, -0.000272194, -0.000592258, 0.0011243, 0.00135841, -0.00624234, 0.00202002, 0.0209854, -0.0299333, 0.00252535, 0.0184929, 0.0572949, 0.0682796, -0.0107676, -0.4442, 0.634305, -3.13018, -0.0557293, -0.110292, -0.0109812, -0.443607, 0.633169, -3.12924, -0.0531097, -0.100428, 0.0117529, 0.0168407, -0.0243401, -0.00827077, -0.0138377, -0.0235319
0.0990706, 0.107763, -0.774286, -0.919152, -1.45953, -0.627974, 1.06964, -0.256726, 0.0185081, 0.00323305, -0.0563409, -0.0284924, -0.0380301, 0.00118837, -0.00178958, -0.543754, 16.0846, 21.8708, 17.8204, 1.29474, 3.77627, -0.0164075, -0.000291225, -0.000562011, 0.00112759, 0.00135168, -0.00636683, 0.00204799, 0.021278, -0.030585, 0.000799403, 0.0145165, 0.0616467, 0.0708039, -0.0107557, -0.444183, 0.634281, -3.13012, -0.0557354, -0.110385, -0.0109869, -0.44362, 0.63314, -3.1292, -0.0530734, -0.100326, 0.0120154, 0.017174, -0.0248528, -0.00815516, -0.0141484, -0.0257947
0.100071, 0.107782, -0.774278, -0.919209, -1.45956, -0.628008, 1.06964, -0.256721, 0.0154891, 0.00545526, -0.0563276, -0.0289745, -0.0377362, 0.000573086, 0.00121445, -0.468376, 16.0846, 21.7954, 17.7451, 1.28833, 3.7836, -0.0814099, -0.00030965, -0.000532279, 0.00112769, 0.00133989, -0.00648626, 0.00207956, 0.0220834, -0.0305962, 0.00131904, 0.0149889, 0.0644538, 0.0671817, -0.0107435, -0.444166, 0.634256, -3.13007, -0.0557417, -0.110479, -0.010992, -0.443633, 0.633113, -3.12916, -0.0530314, -0.100234, 0.0122806, 0.0175091, -0.0253696, -0.00872882, -0.0138583, -0.0258531
0.101071, 0.107782, -0.774278, -0.919209, -1.45956, -0.628008, 1.06964, -0.256721, 0.0154891, 0.00545526, -0.0563276, -0.0289745, -0.0377362, 0.000573086, 0.00121445, -0.468376, 16.0846, 21.7954, 17.7451, 1.28833, 3.7836, -0.0814099, -0.000320906, -0.000515201, 0.00110108, 0.00128591, -0.00654995, 0.00208288, 0.0223253, -0.0309191, 0.00186388, 0.0160119, 0.0646685, 0.069201, -0.0107311, -0.444148, 0.63423, -3.13001, -0.0557481, -0.110576, -0.010992, -0.443633, 0.633113, -3.12916, -0.0530314, -0.100234, 0.0125483, 0.0178461, -0.0258904, -0.00872882, -0.0138583, -0.0258531
0.102071, 0.107807, -0.774269, -0.919275, -1.4596, -0.628043, 1.06964, -0.256724, 0.0204899, 0.00789733, -0.0588222, -0.0318781, -0.0344331, 0.000692403, -0.000139804, -0.43267, 16.0489, 21.8311, 17.7808, 1.32587, 3.77627, -0.0557752, -0.00033738, -0.000482633, 0.00110563, 0.00127938, -0.00667938, 0.00210263, 0.0191656, -0.0312667, 0.000759462, 0.0122841, 0.0668043, 0.0787456, -0.0107184, -0.44413, 0.634204, -3.12995, -0.0557547, -0.110674, -0.0109942, -0.443648, 0.633081, -3.12912, -0.0530084, -0.10013, 0.0128186, 0.0181849, -0.0264151, -0.00521817, -0.0137442, -0.0272617
0.103071, 0.107807, -0.774269, -0.919275, -1.4596, -0.628043, 1.06964, -0.256724, 0.0204899, 0.00789733, -0.0588222, -0.0318781, -0.0344331, 0.000692403, -0.000139804, -0.43267, 16.0489, 21.8311, 17.7808, 1.32587, 3.77627, -0.0557752, -0.000349123, -0.000464908, 0.00107791, 0.00122324, -0.00674567, 0.00210614, 0.0194122, -0.0315929, 0.0013126, 0.0133206, 0.0670246, 0.0807945, -0.0107055, -0.444112, 0.634177, -3.12989, -0.0557614, -0.110774, -0.0109942, -0.443648, 0.633081, -3.12912, -0.0530084, -0.10013, 0.0130915, 0.0185254, -0.0269437, -0.00521817, -0.0137442, -0.0272617
0.104071, 0.107807, -0.774269, -0.919275, -1.4596, -0.628043, 1.06964, -0.256724, 0.0204899, 0.00789733, -0.0588222, -0.0318781, -0.0344331, 0.000692403, -0.000139804, -0.43267, 16.0489, 21.8311, 17.7808, 1.32587, 3.77627, -0.0557752, -0.000361111, -0.000446858, 0.00104964, 0.00116601, -0.00681327, 0.00210973, 0.0196611, -0.0319205, 0.00186994, 0.0143636, 0.0672475, 0.0828581, -0.0106922, -0.444093, 0.63415, -3.12983, -0.0557683, -0.110876, -0.0109942, -0.443648, 0.633081, -3.12912, -0.0530084, -0.10013, 0.0133669, 0.0188676, -0.0274763, -0.00521817, -0.0137442, -0.0272617
0.105071, 0.107879, -0.774232, -0.91951, -1.45976, -0.628159, 1.06964, -0.256723, 0.0160012, 0.0104888, -0.0560503, -0.0386407, -0.0289427, 9.8204e-05, -1.63128e-05, -0.0161054, 16.0846, 21.6843, 17.5943, 1.31305, 3.7836, -0.0420422, -0.00039513, -0.00037913, 0.00113864, 0.00130223, -0.00712509, 0.00219344, 0.0178106, -0.0303749, 0.00133043, 0.0109897, 0.0704435, 0.0885343, -0.0106787, -0.444074, 0.634122, -3.12976, -0.0557754, -0.110981, -0.0110058, -0.443697, 0.632961, -3.12894, -0.0528934, -0.0997379, 0.0136449, 0.0192114, -0.0280126, -0.00311269, -0.0117848, -0.0281956
0.106071, 0.107891, -0.774218, -0.919569, -1.45982, -0.628181, 1.06964, -0.25672, 0.0121866, 0.00787258, -0.0537649, -0.0425984, -0.0254487, 7.47427e-05, 0.00073511, 0.134651, 16.0846, 21.6446, 17.634, 1.28833, 3.7836, -0.0621838, -0.000410628, -0.00034961, 0.00114138, 0.00129959, -0.00726204, 0.00221743, 0.0183052, -0.0295694, 0.00135102, 0.00981663, 0.0678691, 0.0915226, -0.0106649, -0.444055, 0.634094, -3.1297, -0.0557826, -0.111087, -0.0110061, -0.443708, 0.632929, -3.12889, -0.0528647, -0.09963, 0.0139255, 0.0195569, -0.0285528, -0.00335532, -0.0106522, -0.0287468
0.107071, 0.107911, -0.774204, -0.919628, -1.45986, -0.628207, 1.06964, -0.256725, 0.0152132, 0.00901163, -0.0593448, -0.0424021, -0.0246372, -0.00072311, -0.00144271, 0.170357, 16.0846, 21.6446, 17.5586, 1.30755, 3.80466, -0.00999879, -0.000426435, -0.000319609, 0.00114175, 0.00129455, -0.00740021, 0.0022314, 0.0186469, -0.0308038, 0.000274039, 0.0062021, 0.0691723, 0.0948612, -0.0106509, -0.444035, 0.634065, -3.12963, -0.05579, -0.111195, -0.0110066, -0.443718, 0.632898, -3.12884, -0.0528517, -0.0995225, 0.0142086, 0.019904, -0.0290967, -0.003292, -0.0115393, -0.0304025
0.108071, 0.107927, -0.774187, -0.91968, -1.45991, -0.628229, 1.06963, -0.256724, 0.0173061, 0.0107096, -0.0546108, -0.0436505, -0.0283698, -0.000476857, 0.000462349, 0.21003, 16.0489, 21.5336, 17.5189, 1.31946, 3.80466, -0.0484509, -0.000438452, -0.000290875, 0.00114106, 0.00128525, -0.00754267, 0.0022463, 0.0163881, -0.0306357, 0.00183337, 0.0115007, 0.0744292, 0.0996153, -0.0106365, -0.444015, 0.634036, -3.12957, -0.0557975, -0.111306, -0.0110032, -0.443727, 0.632869, -3.12879, -0.0528373, -0.0994106, 0.0144943, 0.0202526, -0.0296444, -0.000870855, -0.01096, -0.0292359
0.109071, 0.107938, -0.774176, -0.91974, -1.45995, -0.628254, 1.06963, -0.256723, 0.0170116, 0.0125441, -0.0548481, -0.0403928, -0.0264292, -0.00058526, 0.00105422, 0.325081, 16.1203, 21.5732, 17.4435, 1.33136, 3.81198, -0.0685925, -0.000458137, -0.000260069, 0.00114084, 0.00127673, -0.00767941, 0.00227369, 0.0166051, -0.0309275, 0.0034039, 0.0134491, 0.072969, 0.0999295, -0.0106219, -0.443995, 0.634006, -3.1295, -0.0558053, -0.111418, -0.011007, -0.443738, 0.632837, -3.12874, -0.0528037, -0.0993095, 0.0147825, 0.0206027, -0.0301957, -0.000899715, -0.0109264, -0.0282418
0.110071, 0.107957, -0.774163, -0.919791, -1.46, -0.628274, 1.06963, -0.256723, 0.0141936, 0.01491, -0.055298, -0.0437214, -0.0245218, -0.000115972, -0.000280532, 0.285408, 16.16, 21.4979, 17.3325, 1.33136, 3.80466, -0.0420422, -0.000470224, -0.000230203, 0.00113782, 0.00126257, -0.00781543, 0.0022839, 0.0164328, -0.0308806, 0.00305477, 0.0123008, 0.0760486, 0.102871, -0.010607, -0.443974, 0.633975, -3.12943, -0.0558132, -0.111532, -0.0110032, -0.443748, 0.632809, -3.12869, -0.0527967, -0.0992121, 0.0150731, 0.0209542, -0.0307507, -0.000413991, -0.0105183, -0.0291355
0.111071, 0.107961, -0.774147, -0.919842, -1.46005, -0.628293, 1.06963, -0.256726, 0.00821455, 0.0144003, -0.0533102, -0.0471624, -0.02392, -7.51139e-05, -0.00164508, 0.400459, 16.16, 21.4582, 17.2571, 1.35608, 3.80466, -0.00267457, -0.000487401, -0.000201243, 0.0011342, 0.00124799, -0.00795685, 0.00230332, 0.0180215, -0.0304081, 0.00332384, 0.0128838, 0.0774033, 0.104001, -0.0105917, -0.443953, 0.633944, -3.12936, -0.0558213, -0.111649, -0.0110042, -0.443756, 0.63278, -3.12865, -0.0527757, -0.0991083, 0.0153663, 0.0213072, -0.0313093, -0.00174044, -0.00975229, -0.0295385
0.112071, 0.107974, -0.774136, -0.919891, -1.4601, -0.628308, 1.06963, -0.256725, 0.00966937, 0.0145705, -0.0556207, -0.051413, -0.0222647, -0.00059096, 0.00036134, 0.400459, 16.2671, 21.4582, 17.2571, 1.34967, 3.8193, -0.0420422, -0.000500545, -0.00017291, 0.0011321, 0.00123936, -0.00809517, 0.00231354, 0.0171945, -0.0306771, 0.00187181, 0.00885118, 0.0797096, 0.106834, -0.0105762, -0.443931, 0.633913, -3.12929, -0.0558295, -0.111768, -0.0110009, -0.443764, 0.632749, -3.12859, -0.0527693, -0.0990112, 0.015662, 0.0216616, -0.0318714, -0.000507335, -0.00962174, -0.0314955
0.113071, 0.107984, -0.77412, -0.919938, -1.46015, -0.628323, 1.06963, -0.256722, 0.0105872, 0.0143507, -0.0513222, -0.0496632, -0.0180384, -0.000392736, 0.000478252, 0.400459, 16.2671, 21.4582, 17.1857, 1.38721, 3.8193, -0.0484509, -0.000513003, -0.000144313, 0.00112655, 0.0012222, -0.00823769, 0.00232791, 0.0152495, -0.029881, 0.00419234, 0.0119341, 0.075115, 0.114213, -0.0105604, -0.443909, 0.63388, -3.12921, -0.055838, -0.111888, -0.0109967, -0.443771, 0.632721, -3.12855, -0.0527564, -0.0989101, 0.0159602, 0.0220173, -0.0324371, 0.00153599, -0.00842786, -0.0296041
0.114071, 0.107988, -0.774109, -0.919977, -1.4602, -0.628337, 1.06963, -0.256724, 0.0104207, 0.0115045, -0.0485504, -0.0492121, -0.0135828, -0.000260895, 0.000318835, 0.436165, 16.3782, 21.3471, 17.146, 1.3927, 3.8193, -0.0484509, -0.000527912, -0.000117061, 0.00111917, 0.0012014, -0.00837542, 0.00233732, 0.0147665, -0.0292894, 0.00561711, 0.0130272, 0.0686666, 0.120427, -0.0105443, -0.443887, 0.633848, -3.12914, -0.0558466, -0.112011, -0.010995, -0.443776, 0.632695, -3.1285, -0.0527512, -0.0988189, 0.0162609, 0.0223744, -0.0330063, 0.00219522, -0.00747895, -0.0287158
0.115071, 0.107994, -0.774088, -0.920024, -1.46025, -0.628346, 1.06963, -0.256723, 0.00800305, 0.012071, -0.0470897, -0.0496573, -0.0103078, 9.80334e-05, -0.000262161, 0.436165, 16.3782, 21.3868, 17.0349, 1.39911, 3.81198, -0.0356336, -0.000540615, -8.85173e-05, 0.00111117, 0.00118215, -0.00851732, 0.00235228, 0.0146947, -0.0289351, 0.00661846, 0.0138971, 0.0670256, 0.123713, -0.0105279, -0.443865, 0.633814, -3.12906, -0.0558554, -0.112136, -0.0109907, -0.443783, 0.632668, -3.12846, -0.0527377, -0.0987231, 0.016564, 0.0227327, -0.033579, 0.00248557, -0.00677582, -0.0282847
0.116071, 0.107994, -0.774088, -0.920024, -1.46025, -0.628346, 1.06963, -0.256723, 0.00800305, 0.012071, -0.0470897, -0.0496573, -0.0103078, 9.80334e-05, -0.000262161, 0.436165, 16.3782, 21.3868, 17.0349, 1.39911, 3.81198, -0.0356336, -0.000555747, -6.64448e-05, 0.00107589, 0.00111133, -0.00860137, 0.00235708, 0.0149702, -0.0292778, 0.00722221, 0.0150122, 0.0672819, 0.125939, -0.0105112, -0.443842, 0.633781, -3.12899, -0.0558644, -0.112263, -0.0109907, -0.443783, 0.632668, -3.12846, -0.0527377, -0.0987231, 0.0168696, 0.0230922, -0.034155, 0.00248557, -0.00677582, -0.0282847
0.117071, 0.107991, -0.774062, -0.9201, -1.46036, -0.628367, 1.06963, -0.256724, 0.0022969, 0.014957, -0.0405369, -0.0534969, -0.0109031, 0.000315578, -0.00107725, 0.551216, 16.525, 21.4225, 17.0349, 1.42383, 3.80466, -0.0164075, -0.000570291, -3.43077e-05, 0.00109443, 0.00113868, -0.00880389, 0.00237489, 0.0140857, -0.0280086, 0.00881917, 0.0192796, 0.0729192, 0.129959, -0.0104942, -0.443818, 0.633746, -3.12891, -0.0558736, -0.112393, -0.0109856, -0.443792, 0.632614, -3.12836, -0.0527225, -0.0985341, 0.0171776, 0.0234529, -0.0347344, 0.00351505, -0.00513433, -0.0271999
0.118071, 0.108002, -0.774043, -0.920132, -1.46041, -0.628374, 1.06963, -0.256723, 0.00466799, 0.0187317, -0.037465, -0.053028, -0.0130352, -6.05886e-05, -0.000243452, 0.436165, 16.4893, 21.4582, 17.0349, 1.43024, 3.81198, -0.0292249, -0.000576156, -8.25846e-06, 0.00108275, 0.00111242, -0.00895182, 0.00237109, 0.0117405, -0.027945, 0.0104787, 0.0234016, 0.0783359, 0.134799, -0.0104768, -0.443795, 0.633711, -3.12883, -0.0558829, -0.112524, -0.0109739, -0.443794, 0.63259, -3.12832, -0.0527385, -0.098436, 0.017488, 0.0238148, -0.0353172, 0.00604163, -0.00464596, -0.0259615
0.119071, 0.107993, -0.774024, -0.920163, -1.46047, -0.62838, 1.06963, -0.256723, 0.00168286, 0.0212852, -0.0351952, -0.0524808, -0.014551, -0.000311439, -0.000162301, 0.511544, 16.4536, 21.4979, 17.0349, 1.43573, 3.8193, -0.0292249, -0.000590668, 1.74603e-05, 0.00107016, 0.00108477, -0.00910013, 0.0023843, 0.0122749, -0.0278767, 0.0120726, 0.0271564, 0.0819392, 0.13471, -0.0104592, -0.443771, 0.633676, -3.12875, -0.0558925, -0.112658, -0.0109706, -0.443797, 0.632565, -3.12828, -0.0527283, -0.0983395, 0.0178009, 0.0241778, -0.0359033, 0.00570457, -0.00425283, -0.024999
0.120071, 0.107985, -0.774018, -0.920196, -1.46052, -0.628387, 1.06963, -0.256725, 0.000444458, 0.0165127, -0.0351574, -0.0510932, -0.0115223, -0.000987355, -0.000820278, 0.551216, 16.5646, 21.6089, 16.9992, 1.45404, 3.84036, -0.00999879, -0.000610875, 4.34805e-05, 0.00105672, 0.00105851, -0.00923774, 0.00239816, 0.0143014, -0.0279044, 0.0129251, 0.0268974, 0.074576, 0.137191, -0.0104412, -0.443746, 0.633639, -3.12867, -0.0559023, -0.112794, -0.0109727, -0.443799, 0.632541, -3.12823, -0.0527173, -0.0982618, 0.0181163, 0.0245419, -0.0364926, 0.0039391, -0.00399889, -0.0248877
0.121071, 0.107976, -0.774005, -0.92022, -1.46058, -0.628388, 1.06962, -0.256724, -0.001279, 0.0157749, -0.0341618, -0.0512162, -0.00853919, -0.00120065, -7.21339e-05, 0.626595, 16.5646, 21.6843, 17.146, 1.45404, 3.85501, -0.0228162, -0.000623619, 6.73623e-05, 0.00104287, 0.00103069, -0.00938454, 0.00240278, 0.0146639, -0.027642, 0.0137947, 0.0271748, 0.0719785, 0.139259, -0.0104229, -0.443722, 0.633603, -3.12858, -0.0559122, -0.112932, -0.0109671, -0.443799, 0.632517, -3.12819, -0.0527208, -0.0981721, 0.018434, 0.0249071, -0.0370852, 0.00382274, -0.00339565, -0.0246404
0.122071, 0.10797, -0.773992, -0.920242, -1.46062, -0.628392, 1.06962, -0.256722, -0.00071172, 0.0151069, -0.0301569, -0.0475841, -0.0074889, -0.00107161, 0.00140997, 0.626595, 16.5646, 21.7597, 17.146, 1.48517, 3.86233, -0.0621838, -0.000637547, 9.26997e-05, 0.00102379, 0.000990932, -0.00952485, 0.00241011, 0.014138, -0.0273781, 0.0166315, 0.032512, 0.0681916, 0.142331, -0.0104044, -0.443697, 0.633565, -3.1285, -0.0559224, -0.113072, -0.0109628, -0.4438, 0.632497, -3.12815, -0.0527198, -0.0980954, 0.0187541, 0.0252732, -0.0376809, 0.00445247, -0.00278186, -0.02237
0.123071, 0.107967, -0.773983, -0.920261, -1.46067, -0.628398, 1.06962, -0.256722, -0.002583, 0.0137038, -0.0270875, -0.0475858, -0.00639054, -0.0017655, 0.000193997, 0.586922, 16.6003, 21.8311, 17.146, 1.50989, 3.89071, -0.0420422, -0.000651638, 0.000117756, 0.00100398, 0.000950006, -0.00966517, 0.0024122, 0.0145458, -0.0268639, 0.0180741, 0.0345817, 0.0664342, 0.146857, -0.0103854, -0.443671, 0.633527, -3.12841, -0.0559327, -0.113214, -0.0109584, -0.4438, 0.632478, -3.12812, -0.0527272, -0.0980211, 0.0190766, 0.0256403, -0.0382798, 0.0042449, -0.00193391, -0.0215585
0.124071, 0.107958, -0.773978, -0.920283, -1.46072, -0.628401, 1.06962, -0.256727, -0.00598725, 0.0127828, -0.0265921, -0.0498137, -0.00506298, -0.00144821, -0.00156609, 0.626595, 16.636, 21.9819, 17.2214, 1.52179, 3.89804, 0.00373412, -0.00066888, 0.000142762, 0.00098531, 0.000913648, -0.00980412, 0.00241422, 0.0157083, -0.026813, 0.0182642, 0.0346527, 0.0660247, 0.149703, -0.0103662, -0.443645, 0.633489, -3.12833, -0.0559433, -0.113359, -0.0109566, -0.4438, 0.632456, -3.12808, -0.052735, -0.0979509, 0.0194015, 0.0260084, -0.0388819, 0.00339426, -0.00155992, -0.0220584
0.125071, 0.107947, -0.773976, -0.920296, -1.46077, -0.628401, 1.06961, -0.256725, -0.0075054, 0.00891643, -0.0242598, -0.0473922, -0.00479957, -0.00150797, -0.000535434, 0.626595, 16.6718, 22.0572, 17.2571, 1.55292, 3.91269, -0.00999879, -0.000685048, 0.000166634, 0.000963172, 0.000869583, -0.0099382, 0.00241733, 0.0175411, -0.026867, 0.0202015, 0.038334, 0.0605894, 0.15017, -0.0103466, -0.443619, 0.633449, -3.12824, -0.0559541, -0.113506, -0.0109538, -0.443798, 0.632437, -3.12804, -0.0527411, -0.0978911, 0.0197288, 0.0263773, -0.039487, 0.00175546, -0.00133462, -0.020869
0.126071, 0.107942, -0.773967, -0.920311, -1.46082, -0.6284, 1.06961, -0.25672, -0.00777473, 0.00853708, -0.0202768, -0.0466185, -0.00340323, -0.00566918, 0.00133847, 0.586922, 16.6003, 22.1683, 17.3325, 1.55292, 3.91269, -0.0557752, -0.000697197, 0.000191459, 0.000940282, 0.000823324, -0.0100774, 0.00241926, 0.0171122, -0.0255827, 0.0218349, 0.0382958, 0.0608538, 0.153659, -0.0103267, -0.443593, 0.63341, -3.12815, -0.055965, -0.113655, -0.0109467, -0.443797, 0.632419, -3.12801, -0.0527491, -0.0978257, 0.0200585, 0.0267472, -0.0400951, 0.00234652, 0.000312067, -0.0198087
0.127071, 0.107928, -0.773961, -0.920322, -1.46087, -0.628403, 1.06961, -0.256724, -0.0099346, 0.0081464, -0.0186524, -0.0456791, -0.00333699, -0.00440545, 0.000621043, 0.626595, 16.525, 22.204, 17.4078, 1.57764, 3.9191, -0.0484509, -0.000713525, 0.0002153, 0.000916772, 0.000776495, -0.0102219, 0.00241845, 0.0180034, -0.0258512, 0.0233882, 0.0422206, 0.0593626, 0.155371, -0.0103065, -0.443566, 0.633369, -3.12806, -0.0559762, -0.113807, -0.0109435, -0.443795, 0.632401, -3.12797, -0.0527616, -0.0977542, 0.0203905, 0.0271178, -0.0407063, 0.00168569, 0.000361944, -0.0189423
0.128071, 0.107916, -0.773958, -0.920335, -1.46092, -0.628407, 1.06961, -0.256727, -0.0113794, 0.00678498, -0.0184807, -0.0482646, -0.00277995, -0.00349971, -0.00128139, 0.6623, 16.4893, 22.2794, 17.4832, 1.58954, 3.92642, -0.00267457, -0.000731463, 0.000240518, 0.000892597, 0.000726254, -0.0103642, 0.00241995, 0.0185601, -0.0261003, 0.0233646, 0.0425844, 0.0590793, 0.159934, -0.010286, -0.443538, 0.633328, -3.12796, -0.0559876, -0.113961, -0.0109416, -0.443794, 0.632382, -3.12794, -0.0527707, -0.0976888, 0.0207248, 0.0274892, -0.0413204, 0.001474, 0.000462908, -0.0196272
0.129071, 0.107912, -0.77396, -0.920349, -1.46097, -0.628411, 1.06961, -0.256725, -0.00897319, 0.00491244, -0.0182578, -0.0487981, -0.00285469, -0.00282302, -0.000582994, 0.551216, 16.4893, 22.3548, 17.5189, 1.61426, 3.93374, -0.00999879, -0.000748389, 0.000266995, 0.000867649, 0.000674617, -0.0105003, 0.00242008, 0.0181251, -0.026613, 0.0238261, 0.043931, 0.0575857, 0.164435, -0.0102651, -0.443511, 0.633287, -3.12787, -0.0559992, -0.114117, -0.0109383, -0.443793, 0.632364, -3.12791, -0.052782, -0.0976353, 0.0210615, 0.0278614, -0.0419374, 0.00222744, 0.000330297, -0.0197616
0.130071, 0.107904, -0.773958, -0.920356, -1.46102, -0.628411, 1.0696, -0.256721, -0.0113574, 0.00523723, -0.0164156, -0.046592, -0.00173016, -0.0017747, 0.00103549, 0.475838, 16.4178, 22.3548, 17.5586, 1.60785, 3.92642, -0.0484509, -0.000762778, 0.000291603, 0.000840046, 0.000619871, -0.0106396, 0.00241915, 0.0189102, -0.026738, 0.0258512, 0.048142, 0.0552873, 0.163639, -0.0102438, -0.443483, 0.633244, -3.12777, -0.056011, -0.114275, -0.0109324, -0.44379, 0.632348, -3.12788, -0.0527951, -0.0975796, 0.0214005, 0.0282343, -0.0425574, 0.0016392, 0.00052292, -0.0184251
0.131071, 0.107895, -0.773965, -0.920372, -1.46106, -0.628412, 1.0696, -0.256719, -0.0100758, -0.000220739, -0.0177822, -0.0472096, -0.00167645, -0.000797474, 0.00143631, 0.400459, 16.4536, 22.4659, 17.5586, 1.62067, 3.91269, -0.0685925, -0.000785083, 0.000318729, 0.000814508, 0.000569483, -0.0107719, 0.00242681, 0.0204983, -0.0276408, 0.0257753, 0.0484353, 0.0500874, 0.166253, -0.0102223, -0.443454, 0.633201, -3.12768, -0.0560231, -0.114436, -0.0109339, -0.44379, 0.632328, -3.12784, -0.0527951, -0.0975366, 0.0217418, 0.0286079, -0.0431802, 0.000433671, -6.33112e-05, -0.0192535
0.132071, 0.107885, -0.773968, -0.920384, -1.46112, -0.628414, 1.0696, -0.256727, -0.0124026, 0.00152225, -0.0191837, -0.049444, -0.00183203, -0.000352607, -0.00172122, 0.325081, 16.3782, 22.4659, 17.634, 1.63898, 3.90536, 0.00373412, -0.000803461, 0.000344443, 0.000789236, 0.000519446, -0.0109166, 0.00241728, 0.0212851, -0.0281214, 0.0255306, 0.0481926, 0.0535148, 0.169497, -0.0102004, -0.443425, 0.633158, -3.12758, -0.0560353, -0.114599, -0.0109311, -0.443788, 0.632308, -3.1278, -0.0528223, -0.0974768, 0.0220854, 0.0289822, -0.0438058, 2.6182e-05, -0.000196517, -0.0201906
0.133071, 0.107882, -0.773973, -0.920391, -1.46117, -0.628414, 1.0696, -0.256725, -0.00917456, -0.00138206, -0.0162962, -0.0504978, -0.00101116, -3.2973e-05, -0.000638856, 0.170357, 16.3425, 22.4262, 17.7054, 1.63257, 3.89804, -0.00999879, -0.000817051, 0.000370189, 0.000762379, 0.000465002, -0.0110579, 0.0024053, 0.0196996, -0.0279684, 0.0265016, 0.0501519, 0.050738, 0.177205, -0.0101781, -0.443396, 0.633114, -3.12748, -0.0560478, -0.114764, -0.0109233, -0.443785, 0.63229, -3.12777, -0.0528533, -0.0974249, 0.0224314, 0.029357, -0.0444342, 0.00187367, 0.000372382, -0.0197378
0.134071, 0.107872, -0.773977, -0.920406, -1.46122, -0.628414, 1.06959, -0.256721, -0.0119394, -0.00354932, -0.0138791, -0.0507056, -0.00093184, -0.0036648, 0.00099825, 0.0949785, 16.3068, 22.5016, 17.5943, 1.63898, 3.86966, -0.0484509, -0.000839576, 0.000397949, 0.000733248, 0.000408766, -0.0111959, 0.00241613, 0.0214346, -0.0271462, 0.0274809, 0.0496632, 0.050656, 0.177221, -0.0101555, -0.443367, 0.633069, -3.12738, -0.0560605, -0.114932, -0.0109242, -0.443785, 0.632272, -3.12774, -0.052849, -0.0973804, 0.0227796, 0.0297325, -0.0450654, 0.000389017, 0.00149282, -0.0195166
0.135071, 0.107859, -0.773985, -0.920416, -1.46128, -0.628412, 1.06959, -0.256721, -0.0148526, -0.00286565, -0.0124755, -0.0524957, 4.16609e-05, -0.00232642, 0.0006655, 0.059273, 16.3068, 22.4659, 17.6697, 1.62067, 3.85501, -0.0484509, -0.000859682, 0.000423658, 0.000706576, 0.000357616, -0.0113387, 0.00241251, 0.0216733, -0.0271569, 0.0282297, 0.051743, 0.0513139, 0.179543, -0.0101325, -0.443337, 0.633024, -3.12728, -0.0560735, -0.115102, -0.0109222, -0.443781, 0.632251, -3.12769, -0.0528677, -0.0973307, 0.0231301, 0.0301084, -0.0456993, 0.000444638, 0.00183725, -0.0194266
0.136071, 0.10785, -0.773994, -0.92043, -1.46132, -0.628414, 1.06959, -0.256727, -0.0160745, -0.00135699, -0.0123928, -0.0531974, -0.000661855, -0.000819096, -0.00148911, -0.0161054, 16.2671, 22.4659, 17.5943, 1.63898, 3.82663, 0.00373412, -0.00088235, 0.000452308, 0.000677641, 0.000299829, -0.0114788, 0.00240952, 0.0218792, -0.0277388, 0.0289352, 0.0544065, 0.0533488, 0.183015, -0.0101092, -0.443306, 0.632978, -3.12717, -0.0560866, -0.115274, -0.0109225, -0.443781, 0.632232, -3.12766, -0.0528853, -0.0972878, 0.0234829, 0.0304849, -0.0463358, 0.000558967, 0.0016128, -0.0193862
0.137071, 0.107847, -0.774001, -0.92044, -1.46138, -0.628413, 1.06958, -0.256725, -0.00978239, -0.00260499, -0.0106874, -0.056377, 2.48853e-05, 0.000299521, -0.000484116, -0.131157, 16.1957, 22.3905, 17.634, 1.62616, 3.79733, -0.00999879, -0.000898559, 0.000479033, 0.000650402, 0.000248126, -0.0116274, 0.00239817, 0.018334, -0.0278894, 0.0289622, 0.0550875, 0.0534057, 0.194017, -0.0100856, -0.443276, 0.632931, -3.12707, -0.0561, -0.115449, -0.0109159, -0.443778, 0.632211, -3.12762, -0.0529165, -0.0972339, 0.0238379, 0.0308619, -0.046975, 0.00444806, 0.00196142, -0.0197435
0.138071, 0.107837, -0.774012, -0.920457, -1.46144, -0.628414, 1.06958, -0.256721, -0.00700438, -0.0053117, -0.0152315, -0.0568505, -0.000464574, 0.000528694, 0.00110141, -0.166862, 16.1957, 22.4262, 17.5943, 1.63898, 3.7836, -0.0484509, -0.000922413, 0.000507833, 0.000622592, 0.000194511, -0.0117735, 0.0024047, 0.0196881, -0.0293205, 0.028043, 0.0531341, 0.0518188, 0.194239, -0.0100616, -0.443245, 0.632884, -3.12696, -0.0561137, -0.115626, -0.0109166, -0.443777, 0.632189, -3.12757, -0.0529201, -0.0971862, 0.0241952, 0.0312393, -0.0476168, 0.00357272, 0.000869973, -0.0214225
0.139071, 0.10783, -0.774018, -0.920467, -1.4615, -0.628416, 1.06957, -0.25672, -0.00473007, -0.00554224, -0.00975918, -0.0582235, -0.000755361, -1.96062e-05, 0.00100554, -0.206535, 16.1203, 22.3548, 17.5943, 1.65088, 3.79001, -0.0557752, -0.000942428, 0.000534049, 0.000594554, 0.000145283, -0.0119318, 0.0023988, 0.0171362, -0.0285352, 0.0297171, 0.0566054, 0.0530957, 0.203813, -0.0100372, -0.443213, 0.632836, -3.12686, -0.0561275, -0.115806, -0.0109132, -0.443772, 0.632167, -3.12753, -0.0529435, -0.0971217, 0.0245547, 0.0316171, -0.0482612, 0.00632097, 0.00209747, -0.0202053
0.140071, 0.10782, -0.774023, -0.920485, -1.46156, -0.628414, 1.06956, -0.25672, -0.00619932, -0.00497726, -0.0137622, -0.0586482, -6.63907e-05, 0.000123256, 0.00067036, -0.242241, 16.0092, 22.3548, 17.5586, 1.63898, 3.7836, -0.0557752, -0.000964205, 0.000562725, 0.000567527, 9.59162e-05, -0.0120893, 0.00239834, 0.0189965, -0.0295288, 0.0292179, 0.0549564, 0.0538272, 0.202668, -0.0100124, -0.443182, 0.632787, -3.12675, -0.0561417, -0.115988, -0.010911, -0.44377, 0.632144, -3.12748, -0.0529588, -0.0970607, 0.0249165, 0.0319953, -0.0489081, 0.00489879, 0.00142051, -0.0215042
0.141071, 0.107812, -0.774036, -0.920501, -1.46162, -0.628416, 1.06955, -0.256725, -0.00495057, -0.00734466, -0.0157101, -0.0544019, -0.00048779, -0.00414805, -0.00124851, -0.242241, 16.0092, 22.3151, 17.4832, 1.65088, 3.76895, -0.00999879, -0.000988849, 0.000591295, 0.000539354, 4.5872e-05, -0.0122433, 0.00239241, 0.0215246, -0.0298773, 0.0301593, 0.0535242, 0.0516, 0.204463, -0.00998734, -0.443149, 0.632738, -3.12664, -0.056156, -0.116172, -0.0109115, -0.443768, 0.63212, -3.12743, -0.0529827, -0.0970079, 0.0252805, 0.0323738, -0.0495576, 0.00268344, 0.00134538, -0.0214124
0.142071, 0.107811, -0.774044, -0.920517, -1.46168, -0.628415, 1.06954, -0.256725, -0.00436711, -0.00723564, -0.0173698, -0.0548759, -8.9874e-05, -0.00294234, -0.000832343, -0.357292, 15.9378, 22.2794, 17.4078, 1.64447, 3.76163, -0.00999879, -0.00100748, 0.000619898, 0.000512736, -8.51246e-07, -0.0124064, 0.00238063, 0.0217942, -0.0307086, 0.0303222, 0.0542485, 0.0515232, 0.20631, -0.00996188, -0.443117, 0.632688, -3.12652, -0.0561706, -0.116359, -0.0109054, -0.443765, 0.632095, -3.12738, -0.0530162, -0.096943, 0.0256467, 0.0327526, -0.0502094, 0.00279615, 0.000878381, -0.0219372
0.143071, 0.107801, -0.774056, -0.920533, -1.46175, -0.628414, 1.06952, -0.256719, -0.00456143, -0.00889927, -0.0146569, -0.0610129, 0.000379364, -0.00648011, 0.00137788, -0.317619, 15.9378, 22.204, 17.4435, 1.63257, 3.74698, -0.0621838, -0.00103055, 0.000647128, 0.000487998, -4.04771e-05, -0.0125733, 0.00237901, 0.0208598, -0.0294941, 0.0295357, 0.0504366, 0.0555081, 0.211845, -0.00993605, -0.443084, 0.632638, -3.12641, -0.0561854, -0.116548, -0.0109033, -0.44376, 0.632067, -3.12732, -0.0530346, -0.0968743, 0.0260151, 0.0331317, -0.0508638, 0.004107, 0.00251165, -0.0232986
0.144071, 0.107797, -0.774066, -0.92055, -1.46182, -0.628416, 1.06951, -0.256718, -0.00265444, -0.00827974, -0.016723, -0.0621946, -0.000426407, -0.0144437, 0.00115595, -0.357292, 15.8624, 22.1683, 17.3325, 1.65088, 3.74698, -0.0685925, -0.00105309, 0.000675887, 0.000460548, -8.60196e-05, -0.0127424, 0.00237315, 0.0215965, -0.0288537, 0.0285557, 0.0430631, 0.0619675, 0.215092, -0.00990985, -0.44305, 0.632586, -3.1263, -0.0562005, -0.11674, -0.0109005, -0.443757, 0.632041, -3.12726, -0.0530596, -0.0968048, 0.0263857, 0.0335111, -0.0515205, 0.00379002, 0.00351528, -0.0249864
0.145071, 0.107788, -0.774079, -0.920574, -1.46189, -0.628416, 1.0695, -0.256722, -0.00625098, -0.00959618, -0.0191135, -0.0629204, -0.000522491, -0.0153704, -0.000450071, -0.317619, 15.8624, 22.1683, 17.2214, 1.65729, 3.74057, -0.0356336, -0.00108058, 0.000706051, 0.000434948, -0.000127603, -0.0129098, 0.00237112, 0.024659, -0.0293969, 0.0283465, 0.0417284, 0.0620734, 0.21415, -0.00988328, -0.443017, 0.632535, -3.12618, -0.0562158, -0.116934, -0.0109021, -0.443754, 0.632012, -3.1272, -0.0530791, -0.0967403, 0.0267585, 0.0338906, -0.0521796, 0.00114328, 0.00324321, -0.0260958
0.146071, 0.107783, -0.77409, -0.920592, -1.46196, -0.628416, 1.06948, -0.256723, -0.00473418, -0.00966286, -0.0189653, -0.0669907, -0.000111614, -0.0157584, -0.000537406, -0.317619, 15.8267, 22.0929, 17.1103, 1.65088, 3.72592, -0.0292249, -0.00110228, 0.000735286, 0.00040776, -0.000173045, -0.0130819, 0.0023603, 0.0234227, -0.0293952, 0.0277524, 0.0401562, 0.0649024, 0.220681, -0.00985633, -0.442983, 0.632482, -3.12606, -0.0562314, -0.11713, -0.0108976, -0.443751, 0.631984, -3.12714, -0.0531123, -0.0966712, 0.0271335, 0.0342704, -0.052841, 0.00279171, 0.00367348, -0.0272635
0.147071, 0.107772, -0.7741, -0.920614, -1.46204, -0.628413, 1.06947, -0.256715, -0.00849295, -0.00968387, -0.0230176, -0.068234, 0.000840634, -0.0158473, 0.00109979, -0.242241, 15.791, 22.0572, 17.0706, 1.62616, 3.70395, -0.0685925, -0.00112645, 0.000764264, 0.000384383, -0.00020838, -0.0132624, 0.00236186, 0.0263077, -0.0302263, 0.0270439, 0.0378488, 0.0654956, 0.215846, -0.00982901, -0.442948, 0.632429, -3.12594, -0.0562473, -0.117329, -0.010895, -0.443746, 0.631952, -3.12707, -0.0531272, -0.0965906, 0.0275107, 0.0346502, -0.0535047, 0.000374202, 0.00312748, -0.0288667
0.148071, 0.107766, -0.774112, -0.920629, -1.46212, -0.628415, 1.06945, -0.256714, -0.00707842, -0.00962918, -0.0179115, -0.0709463, -0.000118109, -0.0157935, 0.000733194, -0.206535, 15.7513, 21.9422, 16.9595, 1.64447, 3.67557, -0.0685925, -0.0011488, 0.000792364, 0.000358444, -0.000248884, -0.0134471, 0.0023501, 0.0239774, -0.029584, 0.028318, 0.0412536, 0.0681725, 0.224998, -0.00980131, -0.442913, 0.632375, -3.12582, -0.0562634, -0.117531, -0.0108904, -0.443741, 0.631922, -3.127, -0.0531629, -0.0965065, 0.02789, 0.0350302, -0.0541706, 0.00295436, 0.00421033, -0.0280864
0.149071, 0.107757, -0.774128, -0.920659, -1.4622, -0.628416, 1.06943, -0.256715, -0.0069181, -0.0129113, -0.0210885, -0.0749287, -0.00031637, -0.0162821, 0.000251437, -0.131157, 15.7156, 21.9819, 16.9238, 1.65088, 3.66092, -0.0621838, -0.00117661, 0.000823846, 0.00033699, -0.000281088, -0.0136311, 0.00234755, 0.0255426, -0.0303129, 0.0267442, 0.0376277, 0.0683851, 0.227745, -0.00977323, -0.442878, 0.63232, -3.1257, -0.0562797, -0.117734, -0.0108905, -0.443738, 0.631886, -3.12692, -0.0531849, -0.0964254, 0.0282715, 0.0354102, -0.0548388, 0.0019176, 0.003826, -0.0304573
0.150071, 0.107754, -0.774142, -0.920679, -1.46228, -0.628416, 1.06941, -0.25672, -0.00493901, -0.0130419, -0.02054, -0.0749164, -0.000448477, -0.0209345, -0.0015278, -0.131157, 15.7156, 21.9065, 16.7731, 1.65729, 3.63986, -0.0164075, -0.00120046, 0.000853623, 0.00031153, -0.000318951, -0.0138166, 0.00233039, 0.0253981, -0.0297857, 0.0271397, 0.0351203, 0.0710524, 0.234391, -0.00974476, -0.442843, 0.632265, -3.12558, -0.0562963, -0.117941, -0.0108865, -0.443734, 0.631854, -3.12685, -0.0532296, -0.096345, 0.0286551, 0.0357903, -0.0555092, 0.00239351, 0.00472899, -0.0307233
0.151071, 0.107748, -0.774153, -0.9207, -1.46237, -0.628417, 1.06939, -0.256715, -0.0044659, -0.011413, -0.0201898, -0.0830223, -0.000536497, -0.0205883, 0.000439531, -0.0914839, 15.6442, 21.8311, 16.7374, 1.66369, 3.63986, -0.0557752, -0.00122182, 0.000882536, 0.000289291, -0.000350533, -0.0140169, 0.00231827, 0.0232509, -0.0296196, 0.0255358, 0.0324966, 0.0782079, 0.239835, -0.00971592, -0.442807, 0.632209, -3.12545, -0.0563132, -0.11815, -0.0108795, -0.443728, 0.631818, -3.12677, -0.0532672, -0.0962435, 0.0290408, 0.0361704, -0.0561817, 0.00503078, 0.00537148, -0.0328377
0.152071, 0.107742, -0.774166, -0.920725, -1.46246, -0.628415, 1.06937, -0.256713, -0.00399639, -0.0109518, -0.0216631, -0.0852924, -0.000798589, -0.0191468, 0.00570182, -0.0557783, 15.6046, 21.8311, 16.6223, 1.6756, 3.61148, -0.0750012, -0.00124648, 0.000913021, 0.000266096, -0.000382341, -0.0142106, 0.00230943, 0.0231616, -0.0304098, 0.0252651, 0.0329276, 0.0800564, 0.237545, -0.00968668, -0.44277, 0.632153, -3.12533, -0.0563304, -0.118361, -0.0108754, -0.443723, 0.631782, -3.12669, -0.0533, -0.0961548, 0.0294287, 0.0365505, -0.0568564, 0.00555414, 0.00496597, -0.033792
0.153071, 0.107736, -0.774184, -0.920748, -1.46255, -0.628415, 1.06935, -0.256715, -0.00768559, -0.0124922, -0.0211301, -0.0859666, -0.000769838, -0.0184277, 0.00348053, 0.0196001, 15.6442, 21.7597, 16.4755, 1.68201, 3.58951, -0.0557752, -0.00127264, 0.000943159, 0.000242248, -0.000415117, -0.0144034, 0.00229468, 0.0252111, -0.0306784, 0.0260558, 0.0348852, 0.0788825, 0.239459, -0.00965706, -0.442734, 0.632096, -3.1252, -0.0563478, -0.118575, -0.0108725, -0.443717, 0.631746, -3.12661, -0.0533422, -0.0960703, 0.0298187, 0.0369305, -0.0575331, 0.0038493, 0.00498988, -0.0338466
0.154071, 0.10773, -0.7742, -0.920772, -1.46265, -0.628418, 1.06933, -0.256717, -0.00641521, -0.0126633, -0.0215513, -0.0884523, -0.00071674, -0.0176717, 0.000918479, 0.059273, 15.6442, 21.72, 16.4001, 1.6875, 3.56112, -0.00999879, -0.0012978, 0.000973317, 0.000220052, -0.000444574, -0.0146091, 0.00227838, 0.0245889, -0.0311266, 0.0259108, 0.0349912, 0.0803214, 0.246869, -0.00962704, -0.442696, 0.632038, -3.12507, -0.0563654, -0.118791, -0.0108681, -0.443712, 0.631708, -3.12653, -0.0533874, -0.095968, 0.0302108, 0.0373105, -0.0582119, 0.00488591, 0.00494288, -0.0346357
0.155071, 0.107722, -0.774216, -0.920794, -1.46276, -0.628421, 1.06931, -0.256713, -0.00631264, -0.01483, -0.0209553, -0.0950955, -0.00115604, -0.0177086, 0.00178191, 0.134651, 15.6046, 21.6446, 16.4001, 1.70581, 3.54648, -0.0356336, -0.00132112, 0.0010027, 0.000201062, -0.000468412, -0.0148257, 0.00226291, 0.0240887, -0.0310457, 0.024679, 0.0329209, 0.0831977, 0.252369, -0.00959664, -0.442659, 0.631979, -3.12494, -0.0563834, -0.11901, -0.0108612, -0.443705, 0.631666, -3.12644, -0.053432, -0.0958508, 0.0306049, 0.0376903, -0.0588927, 0.00586614, 0.00543675, -0.0365129
0.156071, 0.107714, -0.77423, -0.92082, -1.46286, -0.628423, 1.06928, -0.256713, -0.00524809, -0.0143424, -0.0255047, -0.100807, -0.00124545, -0.0174126, 0.00233641, 0.170357, 15.6046, 21.6446, 16.3248, 1.71863, 3.52542, -0.0621838, -0.00134681, 0.00103309, 0.000180544, -0.000492715, -0.0150406, 0.0022489, 0.0241206, -0.0320023, 0.0223777, 0.0283053, 0.0879106, 0.254898, -0.00956583, -0.442621, 0.63192, -3.12481, -0.0564016, -0.119232, -0.0108564, -0.443698, 0.631624, -3.12634, -0.0534746, -0.0957387, 0.0310012, 0.03807, -0.0595756, 0.00643765, 0.00489153, -0.0395123
0.157071, 0.107708, -0.774248, -0.920839, -1.46298, -0.628422, 1.06925, -0.256711, -0.00458008, -0.0171111, -0.0230137, -0.102071, -0.000592968, -0.0222989, 0.00144408, 0.21003, 15.6046, 21.5336, 16.3644, 1.71222, 3.5181, -0.0557752, -0.00136797, 0.00106089, 0.000160958, -0.000513683, -0.015261, 0.00222187, 0.0243458, -0.0309092, 0.022872, 0.0257065, 0.0882335, 0.261919, -0.00953463, -0.442583, 0.63186, -3.12467, -0.0564201, -0.119456, -0.0108467, -0.443689, 0.631581, -3.12625, -0.0535379, -0.0956208, 0.0313996, 0.0384495, -0.0602603, 0.00653172, 0.00634474, -0.0397153
0.158071, 0.1077, -0.774269, -0.920872, -1.46309, -0.628423, 1.06923, -0.256713, -0.00400361, -0.0200248, -0.0233987, -0.103267, -0.000632692, -0.0213136, 0.000309617, 0.245735, 15.6442, 21.6446, 16.2891, 1.71863, 3.51077, -0.0356336, -0.00139793, 0.00109258, 0.000142986, -0.000529982, -0.0154766, 0.00220924, 0.0251103, -0.0315215, 0.0230889, 0.0266627, 0.0860565, 0.266582, -0.00950303, -0.442544, 0.6318, -3.12454, -0.0564389, -0.119682, -0.0108451, -0.443683, 0.631536, -3.12615, -0.0535794, -0.0955123, 0.0318, 0.0388288, -0.060947, 0.00617381, 0.00607859, -0.04026
0.159071, 0.107688, -0.774283, -0.920889, -1.4632, -0.628425, 1.0692, -0.256713, -0.00774868, -0.0203848, -0.0204902, -0.107977, -0.000862619, -0.0253797, 3.87123e-05, 0.325081, 15.6046, 21.4979, 16.2891, 1.73053, 3.50345, -0.0292249, -0.00142142, 0.00112095, 0.000121161, -0.000555651, -0.0157048, 0.00218666, 0.025809, -0.0302118, 0.0229538, 0.0239917, 0.0912155, 0.270236, -0.00947103, -0.442505, 0.631738, -3.1244, -0.0564579, -0.119911, -0.010837, -0.443674, 0.631494, -3.12605, -0.0536363, -0.0953876, 0.0322025, 0.0392079, -0.0616356, 0.00583999, 0.00774058, -0.041128
0.160071, 0.10768, -0.774302, -0.920921, -1.46332, -0.628424, 1.06917, -0.256713, -0.00549192, -0.0214896, -0.0236636, -0.110735, -0.00037164, -0.0276784, 7.8053e-05, 0.325081, 15.6046, 21.5732, 16.2137, 1.72504, 3.48239, -0.0292249, -0.00144934, 0.00115269, 0.000102434, -0.000573927, -0.0159282, 0.00217181, 0.0261239, -0.0306123, 0.0216333, 0.0192243, 0.0932551, 0.274304, -0.00943863, -0.442466, 0.631676, -3.12426, -0.0564773, -0.120143, -0.0108327, -0.443667, 0.631447, -3.12595, -0.0536819, -0.0952723, 0.032607, 0.0395867, -0.062326, 0.00604394, 0.00772578, -0.0431724
0.161071, 0.107668, -0.774323, -0.920942, -1.46344, -0.628419, 1.06914, -0.256714, -0.00785156, -0.0233347, -0.0232226, -0.115269, 0.000226949, -0.0303198, -0.00014614, 0.360787, 15.6442, 21.5336, 16.2494, 1.71222, 3.48239, -0.0228162, -0.00147494, 0.0011808, 8.26375e-05, -0.000589885, -0.0161539, 0.00214596, 0.0271839, -0.0300225, 0.0208854, 0.015718, 0.0956008, 0.277752, -0.00940582, -0.442426, 0.631614, -3.12412, -0.0564969, -0.120377, -0.0108258, -0.443657, 0.631402, -3.12584, -0.053745, -0.095156, 0.0330136, 0.0399652, -0.0630183, 0.00542776, 0.00866491, -0.0446925
0.162071, 0.107653, -0.77434, -0.920962, -1.46356, -0.62842, 1.06911, -0.256717, -0.00744027, -0.0196177, -0.0230614, -0.114059, -0.000526876, -0.032739, -0.00105138, 0.436165, 15.6046, 21.4979, 16.2137, 1.73053, 3.49612, 0.00373412, -0.00150159, 0.00120902, 6.22e-05, -0.00060767, -0.016393, 0.00212282, 0.0268502, -0.0299878, 0.0219506, 0.0162567, 0.100713, 0.280813, -0.0093726, -0.442386, 0.63155, -3.12398, -0.0565168, -0.120614, -0.0108196, -0.443646, 0.631356, -3.12574, -0.0538043, -0.0950215, 0.0334222, 0.0403434, -0.0637123, 0.0060836, 0.00906947, -0.0443068
0.163071, 0.107639, -0.774358, -0.920977, -1.46369, -0.628423, 1.06907, -0.256719, -0.00529217, -0.0201536, -0.0180109, -0.116699, -0.000351255, -0.0331779, -0.00139096, 0.436165, 15.5688, 21.3868, 16.2137, 1.73053, 3.47507, 0.0229602, -0.00152606, 0.00123645, 4.15636e-05, -0.000627595, -0.0166366, 0.00209289, 0.024266, -0.0291667, 0.0231672, 0.0186693, 0.102221, 0.291231, -0.00933897, -0.442345, 0.631486, -3.12384, -0.056537, -0.120853, -0.0108109, -0.443634, 0.63131, -3.12563, -0.0538744, -0.0948828, 0.0338328, 0.0407212, -0.0644081, 0.00894284, 0.0103367, -0.0435868
0.164071, 0.107629, -0.774384, -0.920992, -1.46382, -0.628419, 1.06903, -0.256713, -0.00608537, -0.0200754, -0.0191392, -0.12143, 0.000443995, -0.034818, 0.00125936, 0.400459, 15.6442, 21.3471, 16.178, 1.71222, 3.48239, -0.0356336, -0.00155096, 0.00126303, 2.0777e-05, -0.000641366, -0.0168719, 0.00206632, 0.0243848, -0.0290253, 0.0220242, 0.0148761, 0.106056, 0.292372, -0.00930493, -0.442304, 0.631421, -3.1237, -0.0565575, -0.121095, -0.0108022, -0.443621, 0.631263, -3.12553, -0.0534381, -0.0947592, 0.0342455, 0.0410986, -0.0651057, 0.0093174, 0.0108667, -0.0454391
0.165071, 0.107611, -0.774407, -0.921009, -1.46395, -0.628421, 1.069, -0.256708, -0.00848318, -0.0211874, -0.0146407, -0.123332, -0.000619534, -0.034359, 0.00132669, 0.436165, 15.6442, 21.3471, 16.1026, 1.73694, 3.45309, -0.0484509, -0.00157969, 0.00129126, -4.26376e-07, -0.000661153, -0.0171144, 0.00204794, 0.0244613, -0.0285485, 0.0235322, 0.0189525, 0.106964, 0.296482, -0.00927048, -0.442263, 0.631356, -3.12355, -0.0565783, -0.121339, -0.010797, -0.443609, 0.631216, -3.12542, -0.053492, -0.0946272, 0.0346601, 0.0414756, -0.0658049, 0.00951929, 0.0116893, -0.0446425
0.166071, 0.107593, -0.774427, -0.921028, -1.46409, -0.628421, 1.06896, -0.256713, -0.0102996, -0.0210398, -0.0120994, -0.131485, -0.000413024, -0.0399966, -0.00103902, 0.475838, 15.6046, 21.3868, 16.1383, 1.73694, 3.44668, 0.00373412, -0.00160622, 0.001318, -1.71945e-05, -0.000667298, -0.0173726, 0.00201507, 0.023672, -0.0267976, 0.0220646, 0.0124563, 0.115404, 0.305857, -0.00923561, -0.442221, 0.63129, -3.1234, -0.0565994, -0.121587, -0.0107888, -0.443596, 0.631163, -3.1253, -0.0535699, -0.0944729, 0.0350768, 0.0418522, -0.0665058, 0.0107688, 0.0138645, -0.0467287
0.167071, 0.10758, -0.774449, -0.921034, -1.46423, -0.62842, 1.06891, -0.256712, -0.012789, -0.0212525, -0.0137097, -0.138931, -3.79923e-05, -0.0442088, -0.000685706, 0.436165, 15.5688, 21.3114, 16.1383, 1.73053, 3.44668, 0.00373412, -0.00162757, 0.00134251, -3.79928e-05, -0.000680872, -0.01763, 0.0019727, 0.0245975, -0.0261202, 0.0197848, 0.00487549, 0.122342, 0.308415, -0.00920033, -0.442179, 0.631223, -3.12326, -0.0566208, -0.121836, -0.0107754, -0.443579, 0.631115, -3.12518, -0.0536626, -0.0943229, 0.0354954, 0.0422282, -0.0672083, 0.0104147, 0.0149197, -0.0497745
0.168071, 0.107556, -0.774487, -0.921045, -1.46438, -0.628418, 1.06887, -0.256707, -0.0144748, -0.0287975, -0.0104625, -0.143059, 0.00041548, -0.0473599, 0.00124351, 0.511544, 15.7156, 21.3114, 16.0629, 1.71863, 3.44668, -0.0420422, -0.00165933, 0.00136792, -5.77389e-05, -0.000691416, -0.0178746, 0.00194731, 0.0263448, -0.0250755, 0.0196997, 0.00260348, 0.119027, 0.312323, -0.00916462, -0.442137, 0.631155, -3.12311, -0.0566425, -0.122088, -0.0107719, -0.443564, 0.631064, -3.12506, -0.053729, -0.0941952, 0.0359161, 0.0426038, -0.0679124, 0.00906035, 0.0162754, -0.0506934
0.169071, 0.107526, -0.774513, -0.921045, -1.46453, -0.628413, 1.06883, -0.256708, -0.0187468, -0.0308403, -0.00854525, -0.145908, 0.000955154, -0.0450184, 0.000595573, 0.586922, 15.7156, 21.2003, 16.0272, 1.70032, 3.44668, -0.0356336, -0.00168511, 0.00139016, -7.8861e-05, -0.000704108, -0.0181351, 0.00190883, 0.0276659, -0.0251634, 0.0203892, 0.00545361, 0.117559, 0.314602, -0.00912849, -0.442094, 0.631087, -3.12296, -0.0566645, -0.122343, -0.0107623, -0.443545, 0.631014, -3.12494, -0.0538164, -0.0940456, 0.0363387, 0.0429789, -0.068618, 0.00811396, 0.0165008, -0.0508249
0.170071, 0.107513, -0.774548, -0.921046, -1.46468, -0.628411, 1.06878, -0.256715, -0.0165658, -0.0332731, -0.00494233, -0.146541, 0.00111149, -0.0423631, -0.00200751, 0.436165, 15.7513, 21.1249, 15.9915, 1.6875, 3.42471, 0.0293689, -0.00170796, 0.00141415, -0.000100634, -0.000718112, -0.018389, 0.00185095, 0.0262009, -0.0253457, 0.0220281, 0.0105853, 0.114417, 0.325258, -0.00909194, -0.442051, 0.631018, -3.1228, -0.0566868, -0.122601, -0.0107493, -0.443527, 0.630964, -3.12483, -0.0539344, -0.0939094, 0.0367632, 0.0433533, -0.0693252, 0.00987439, 0.0167138, -0.0497943
0.171071, 0.107483, -0.774578, -0.921051, -1.46484, -0.62841, 1.06874, -0.256711, -0.0205494, -0.0342505, -0.00488666, -0.151085, 0.000944441, -0.0453037, -0.000149337, 0.511544, 15.7513, 21.1606, 15.9915, 1.68201, 3.39633, -0.00267457, -0.00173722, 0.00143746, -0.000119773, -0.000725236, -0.0186585, 0.00181975, 0.0280432, -0.0247909, 0.021253, 0.00711607, 0.118396, 0.324385, -0.00905497, -0.442007, 0.630949, -3.12265, -0.0567094, -0.122861, -0.010742, -0.443508, 0.63091, -3.1247, -0.0540115, -0.0937507, 0.0371897, 0.0437272, -0.0700339, 0.00850294, 0.0175866, -0.0514212
0.172071, 0.107453, -0.774619, -0.921049, -1.465, -0.628405, 1.06869, -0.256712, -0.0216397, -0.036762, -0.00298997, -0.150256, 0.00110434, -0.0466982, 0.000885441, 0.511544, 15.8267, 21.1249, 15.9518, 1.66919, 3.3533, -0.0292249, -0.00176799, 0.00145999, -0.000142565, -0.000738137, -0.0189126, 0.00177997, 0.0293339, -0.0245666, 0.0226288, 0.00872209, 0.116287, 0.326074, -0.00901756, -0.441964, 0.630878, -3.12249, -0.0567323, -0.123123, -0.0107362, -0.443488, 0.630859, -3.12457, -0.054102, -0.0936191, 0.0376182, 0.0441005, -0.0707441, 0.00752681, 0.0181105, -0.0508674
0.173071, 0.107425, -0.774656, -0.921052, -1.46515, -0.628403, 1.06864, -0.25671, -0.0247822, -0.0358641, 0.00289192, -0.149683, 0.00117704, -0.0476841, 0.000354176, 0.475838, 15.791, 21.1606, 15.9161, 1.65729, 3.31027, -0.0228162, -0.00179918, 0.00148373, -0.000164366, -0.000749307, -0.0191756, 0.00174479, 0.0291325, -0.0235104, 0.0252666, 0.0135274, 0.117423, 0.330384, -0.00897973, -0.441919, 0.630807, -3.12233, -0.0567555, -0.123389, -0.0107302, -0.443469, 0.630806, -3.12445, -0.0541858, -0.0934762, 0.0380486, 0.0444731, -0.0714557, 0.00790865, 0.0194953, -0.0489272
0.174071, 0.107394, -0.774697, -0.921048, -1.46532, -0.628401, 1.06859, -0.256719, -0.0270821, -0.0393695, 0.00295616, -0.15861, 0.00102205, -0.0498389, -0.00169573, 0.436165, 15.791, 21.1249, 15.9161, 1.65088, 3.29562, 0.0293689, -0.0018294, 0.0015061, -0.000186699, -0.00076275, -0.019442, 0.00169386, 0.030018, -0.0229234, 0.0230745, 0.00794239, 0.12137, 0.337388, -0.00894147, -0.441875, 0.630735, -3.12218, -0.056779, -0.123657, -0.010723, -0.443448, 0.630754, -3.12432, -0.0542946, -0.093331, 0.0384809, 0.044845, -0.0721687, 0.00760641, 0.0204573, -0.0518955
0.175071, 0.107364, -0.774737, -0.921044, -1.46548, -0.628401, 1.06854, -0.25671, -0.02494, -0.0379811, 0.00295074, -0.160027, 0.000918726, -0.0464442, 0.00104035, 0.360787, 15.7513, 21.0892, 15.9161, 1.64447, 3.28097, -0.0292249, -0.00186005, 0.00152877, -0.000209346, -0.000775237, -0.0197115, 0.00166012, 0.0284133, -0.0238276, 0.0236664, 0.0113909, 0.122536, 0.340185, -0.00890277, -0.44183, 0.630663, -3.12202, -0.0568029, -0.123927, -0.0107157, -0.443427, 0.6307, -3.1242, -0.054377, -0.0931835, 0.0389151, 0.0452163, -0.0728831, 0.00962299, 0.0199679, -0.0519151
0.176071, 0.10733, -0.774783, -0.921037, -1.46565, -0.6284, 1.06849, -0.25671, -0.0275355, -0.0402132, 0.00701317, -0.163944, 0.00551476, -0.0484359, 0.000219372, 0.325081, 15.7156, 21.0138, 15.9161, 1.63898, 3.25992, -0.0164075, -0.00189311, 0.00155005, -0.000232498, -0.000786826, -0.0199814, 0.00161688, 0.0278186, -0.0222269, 0.0241872, 0.00934815, 0.120654, 0.348425, -0.00886363, -0.441784, 0.630589, -3.12185, -0.0568271, -0.1242, -0.0107106, -0.443405, 0.630647, -3.12407, -0.0544747, -0.093038, 0.0393512, 0.0455868, -0.0735988, 0.010548, 0.0219457, -0.0520489
0.177071, 0.107295, -0.774836, -0.921023, -1.46582, -0.628395, 1.06844, -0.256715, -0.0283885, -0.042896, 0.0125485, -0.169176, 0.0045428, -0.0454454, -0.00154878, 0.245735, 15.7156, 20.8274, 15.9518, 1.62616, 3.24527, 0.0293689, -0.00192548, 0.00156968, -0.000257232, -0.000798773, -0.0202458, 0.00156201, 0.0264017, -0.0218575, 0.0250911, 0.0141439, 0.120861, 0.358537, -0.00882406, -0.441738, 0.630515, -3.12169, -0.0568516, -0.124476, -0.0107044, -0.44338, 0.630594, -3.12394, -0.0545908, -0.0929041, 0.0397893, 0.0459565, -0.0743159, 0.0123087, 0.0227146, -0.0517549
0.178071, 0.107256, -0.774882, -0.921015, -1.466, -0.628394, 1.06838, -0.256716, -0.031023, -0.0451778, 0.0106522, -0.175655, 0.00352566, -0.0483543, -0.00126958, 0.245735, 15.6046, 20.752, 16.0272, 1.62067, 3.24527, 0.0357776, -0.00195838, 0.00158973, -0.000277208, -0.000801129, -0.0205303, 0.00151551, 0.0284599, -0.02172, 0.0231036, 0.00853707, 0.125553, 0.35972, -0.00878406, -0.441692, 0.630441, -3.12153, -0.0568764, -0.124755, -0.010698, -0.443356, 0.630535, -3.12379, -0.054695, -0.0927407, 0.0402292, 0.0463255, -0.0750342, 0.0108477, 0.0231801, -0.0546254
0.179071, 0.107224, -0.774935, -0.92101, -1.46618, -0.628386, 1.06832, -0.25671, -0.0324221, -0.0490894, 0.0083291, -0.174256, 0.00396094, -0.0543287, 0.00108661, 0.0949785, 15.5688, 20.7163, 15.9915, 1.58313, 3.21689, -0.0164075, -0.0019915, 0.00161042, -0.000298093, -0.000801882, -0.0208018, 0.00146991, 0.0322437, -0.0214942, 0.0230584, 0.00359929, 0.123963, 0.356408, -0.00874361, -0.441646, 0.630365, -3.12136, -0.0569015, -0.125036, -0.0106914, -0.443331, 0.630477, -3.12365, -0.054798, -0.0926003, 0.040671, 0.0466936, -0.0757538, 0.00751243, 0.0236357, -0.0556991
0.180071, 0.107187, -0.774989, -0.920999, -1.46635, -0.628379, 1.06826, -0.256714, -0.0355708, -0.0470549, 0.0115634, -0.172972, 0.00368744, -0.0598636, -0.000733489, 0.0196001, 15.4578, 20.6052, 15.9161, 1.55932, 3.21689, 0.0229602, -0.00202651, 0.00162979, -0.000322255, -0.00080644, -0.0210752, 0.00141696, 0.0332759, -0.0201715, 0.0248361, 0.00339059, 0.128457, 0.359428, -0.00870271, -0.441599, 0.630289, -3.12119, -0.056927, -0.12532, -0.0106866, -0.443306, 0.630422, -3.12351, -0.0549128, -0.09246, 0.0411146, 0.0470609, -0.0764746, 0.0067338, 0.0252504, -0.0547199
0.181071, 0.107151, -0.775054, -0.920983, -1.46654, -0.62837, 1.0682, -0.256706, -0.0370845, -0.0513122, 0.011716, -0.176135, 0.00397243, -0.0644271, 0.00120655, -0.0914839, 15.4578, 20.4545, 16.0272, 1.52179, 3.23153, -0.0228162, -0.00205991, 0.00164718, -0.000342772, -0.00080281, -0.0213492, 0.00136278, 0.0353662, -0.0194622, 0.0241971, -0.00124119, 0.128815, 0.360579, -0.00866138, -0.441552, 0.630212, -3.12102, -0.0569528, -0.125606, -0.0106795, -0.443277, 0.630362, -3.12336, -0.0550303, -0.0923209, 0.0415602, 0.0474273, -0.0771966, 0.00511839, 0.0262588, -0.0562458
0.182071, 0.10711, -0.775111, -0.920974, -1.46672, -0.628365, 1.06813, -0.256715, -0.0399582, -0.0518882, 0.0090063, -0.177442, 0.00386019, -0.0681494, -0.00136568, -0.131157, 15.3467, 20.4188, 15.9518, 1.49158, 3.25259, 0.0357776, -0.00210011, 0.00166726, -0.000367392, -0.000806564, -0.0216269, 0.00131336, 0.0382459, -0.0195005, 0.0235788, -0.00546708, 0.131598, 0.361541, -0.00861959, -0.441504, 0.630135, -3.12085, -0.0569789, -0.125895, -0.010679, -0.443252, 0.630304, -3.12321, -0.0551405, -0.0921793, 0.0420076, 0.0477929, -0.0779197, 0.00274503, 0.0264907, -0.0578288
