alisrour97/Franka_experiments/Real_Robot_scripts/servo-franka/Data4/log_dyn_INITw_ki_10.csv
Time,q1,q2,q3,q4,q5,q6,q7,dq1,dq2,dq3,dq4,dq5,dq6,dq7,t1,t2,t3,t4,t5,t6,t7,ex1,ex2,ex3,ex4,ex5,ex6,ev1,ev2,ev3,ev4,ev5,ev6,xd,yd,zd,uxd,uyd,uzd,x,y,z,ux,uy,uz,vxd,vyd,vzd,vx,vy,vz
2.44141e-07, 0.107627, -0.774395, -0.916281, -1.45656, -0.625328, 1.07044, -0.256703, 0.000119106, -0.000744169, -0.00317214, 0.000811733, -0.000986789, 0.000479376, -0.00143952, -0.0557783, 16.3068, 19.5261, 15.9518, 1.16565, 2.91568, -0.153737, 0.000852702, -0.0016095, 0.000121048, -7.46182e-05, 0.000100044, 0.000188844, 0.00150478, -0.00088483, -0.000644394, -0.00080925, -0.000618583, -0.00174642, -0.011112, -0.444721, 0.635038, -3.13187, -0.0555627, -0.107532, -0.0103155, -0.443082, 0.634986, -3.13193, -0.0556719, -0.107697, 0, 0, 0, -0.00142462, -0.00093164, -0.000751688
0.012063, 0.107622, -0.774415, -0.916284, -1.45655, -0.625337, 1.07044, -0.25671, 0.000705122, -0.0074616, 0.00627578, 0.00142331, -0.000841796, -0.000106156, 0.00191249, -0.0557783, 16.4536, 19.5261, 15.9161, 1.20868, 2.90835, -0.199513, 0.000839614, -0.00160674, 0.000120004, -8.07501e-05, 0.000118401, 0.000198947, 0.000417138, 0.000865158, 0.00191874, 0.00455474, -0.00796092, 0.00245855, -0.011112, -0.444721, 0.635038, -3.13187, -0.0555627, -0.107532, -0.010324, -0.443084, 0.634986, -3.13193, -0.055673, -0.10772, 1.73063e-06, 3.0097e-06, -3.96181e-06, -0.000576342, 0.000836431, 0.00188688
0.0130632, 0.107622, -0.774415, -0.916284, -1.45655, -0.625337, 1.07044, -0.25671, 0.000705122, -0.0074616, 0.00627578, 0.00142331, -0.000841796, -0.000106156, 0.00191249, -0.0557783, 16.4536, 19.5261, 15.9161, 1.20868, 2.90835, -0.199513, 0.000839611, -0.00160674, 0.000119995, -8.07702e-05, 0.000118378, 0.000198947, 0.000421809, 0.00085643, 0.00193099, 0.00457936, -0.00795761, 0.00250523, -0.011112, -0.444721, 0.635038, -3.13187, -0.0555627, -0.107532, -0.010324, -0.443084, 0.634986, -3.13193, -0.055673, -0.10772, 6.91577e-06, 1.20019e-05, -1.58141e-05, -0.000576342, 0.000836431, 0.00188688
0.0140632, 0.107622, -0.774415, -0.916284, -1.45655, -0.625337, 1.07044, -0.25671, 0.000705122, -0.0074616, 0.00627578, 0.00142331, -0.000841796, -0.000106156, 0.00191249, -0.0557783, 16.4536, 19.5261, 15.9161, 1.20868, 2.90835, -0.199513, 0.000839601, -0.00160672, 0.000119969, -8.08247e-05, 0.000118315, 0.000198949, 0.000429585, 0.00084195, 0.00195136, 0.00462026, -0.00795207, 0.00258279, -0.011112, -0.444721, 0.635038, -3.13187, -0.0555627, -0.107532, -0.010324, -0.443084, 0.634986, -3.13193, -0.055673, -0.10772, 1.55453e-05, 2.69215e-05, -3.55071e-05, -0.000576342, 0.000836431, 0.00188688
0.0150632, 0.107622, -0.774415, -0.916284, -1.45655, -0.625337, 1.07044, -0.25671, 0.000705122, -0.0074616, 0.00627578, 0.00142331, -0.000841796, -0.000106156, 0.00191249, -0.0557783, 16.4536, 19.5261, 15.9161, 1.20868, 2.90835, -0.199513, 0.000839581, -0.00160668, 0.000119919, -8.09304e-05, 0.000118194, 0.000198952, 0.000440456, 0.000821772, 0.00197978, 0.00467731, -0.00794432, 0.00269101, -0.011112, -0.444721, 0.635038, -3.13187, -0.0555628, -0.107532, -0.010324, -0.443084, 0.634986, -3.13193, -0.055673, -0.10772, 2.7609e-05, 4.77135e-05, -6.29913e-05, -0.000576342, 0.000836431, 0.00188688
0.0160632, 0.107622, -0.774415, -0.916284, -1.45655, -0.625337, 1.07044, -0.25671, 0.000705122, -0.0074616, 0.00627578, 0.00142331, -0.000841796, -0.000106156, 0.00191249, -0.0557783, 16.4536, 19.5261, 15.9161, 1.20868, 2.90835, -0.199513, 0.00083955, -0.00160662, 0.000119837, -8.11043e-05, 0.000117993, 0.000198958, 0.000454413, 0.00079595, 0.00201621, 0.00475038, -0.00793434, 0.00282971, -0.0111119, -0.444721, 0.635038, -3.13187, -0.0555628, -0.107532, -0.010324, -0.443084, 0.634986, -3.13193, -0.055673, -0.10772, 4.30968e-05, 7.4323e-05, -9.82172e-05, -0.000576342, 0.000836431, 0.00188688
0.0170632, 0.107622, -0.774415, -0.916284, -1.45655, -0.625337, 1.07044, -0.25671, 0.000705122, -0.0074616, 0.00627578, 0.00142331, -0.000841796, -0.000106156, 0.00191249, -0.0557783, 16.4536, 19.5261, 15.9161, 1.20868, 2.90835, -0.199513, 0.000839503, -0.00160653, 0.000119714, -8.13631e-05, 0.000117695, 0.000198967, 0.000471448, 0.000764538, 0.0020606, 0.00483937, -0.00792212, 0.00299866, -0.0111119, -0.444721, 0.635038, -3.13187, -0.0555628, -0.107533, -0.010324, -0.443084, 0.634986, -3.13193, -0.055673, -0.10772, 6.19987e-05, 0.000106695, -0.000141136, -0.000576342, 0.000836431, 0.00188688
0.0180632, 0.107622, -0.774415, -0.916284, -1.45655, -0.625337, 1.07044, -0.25671, 0.000705122, -0.0074616, 0.00627578, 0.00142331, -0.000841796, -0.000106156, 0.00191249, -0.0557783, 16.4536, 19.5261, 15.9161, 1.20868, 2.90835, -0.199513, 0.000839437, -0.00160641, 0.000119544, -8.17234e-05, 0.00011728, 0.000198979, 0.000491553, 0.000727591, 0.00211289, 0.00494414, -0.00790767, 0.00319768, -0.0111118, -0.44472, 0.635037, -3.13187, -0.0555628, -0.107533, -0.010324, -0.443084, 0.634986, -3.13193, -0.055673, -0.10772, 8.43044e-05, 0.000144776, -0.000191697, -0.000576342, 0.000836431, 0.00188688
0.0190632, 0.107622, -0.774415, -0.916284, -1.45655, -0.625337, 1.07044, -0.25671, 0.000705122, -0.0074616, 0.00627578, 0.00142331, -0.000841796, -0.000106156, 0.00191249, -0.0557783, 16.4536, 19.5261, 15.9161, 1.20868, 2.90835, -0.199513, 0.00083935, -0.00160625, 0.000119317, -8.22017e-05, 0.000116729, 0.000198994, 0.000514717, 0.000685161, 0.00217304, 0.00506458, -0.00789098, 0.00342655, -0.0111117, -0.44472, 0.635037, -3.13187, -0.0555629, -0.107534, -0.010324, -0.443084, 0.634986, -3.13193, -0.055673, -0.10772, 0.000110004, 0.000188511, -0.000249853, -0.000576342, 0.000836431, 0.00188688
0.0200632, 0.107616, -0.774423, -0.916298, -1.45655, -0.625342, 1.07044, -0.256716, -0.000378127, -0.00351743, -0.000709004, 0.0025498, -0.000820338, -0.000180722, 0.000466005, -0.0161054, 16.525, 19.6729, 15.9518, 1.25171, 2.90835, -0.180287, 0.000828934, -0.0016028, 0.000122515, -7.70874e-05, 0.000120046, 0.000212084, 0.00230116, -0.000655328, 0.000767713, 0.0015984, -0.00433628, -0.00184008, -0.0111116, -0.44472, 0.635037, -3.13187, -0.0555629, -0.107535, -0.0103339, -0.443088, 0.634982, -3.13192, -0.0556528, -0.107726, 0.000139087, 0.000237846, -0.000315553, -0.00218436, -0.000504599, 0.000288202
0.0210632, 0.107622, -0.774421, -0.916298, -1.45655, -0.625344, 1.07044, -0.256726, 0.00151168, -0.00169503, -0.000421703, 0.00273943, -0.000309529, -0.000120494, -0.00213074, -0.0914839, 16.4893, 19.6729, 15.9161, 1.2453, 2.90835, -0.114369, 0.000830304, -0.00160189, 0.000120982, -8.08932e-05, 0.000118281, 0.000199879, 0.000782061, -0.000626375, 0.000998461, 0.00186935, -0.00303985, 0.00329426, -0.0111114, -0.44472, 0.635037, -3.13186, -0.055563, -0.107537, -0.0103325, -0.443089, 0.634983, -3.13193, -0.0556717, -0.107725, 0.000171544, 0.000292726, -0.00038875, -0.000654166, -0.000369335, 0.000549741
0.0220632, 0.107616, -0.774415, -0.9163, -1.45655, -0.625345, 1.07044, -0.256718, -0.000755059, 0.00132947, -0.00237912, -0.000250448, 0.000912628, 0.000190929, 0.000749642, -0.0161054, 16.3782, 19.6372, 15.8765, 1.21509, 2.90103, -0.172963, 0.00082897, -0.0016013, 0.000120902, -8.19755e-05, 0.000110924, 0.000215199, 0.00062901, -0.000669429, -0.000179451, -0.000797145, 0.000940654, -0.000902021, -0.0111112, -0.444719, 0.635036, -3.13186, -0.055563, -0.107538, -0.0103336, -0.443089, 0.634982, -3.13193, -0.055648, -0.107715, 0.000207364, 0.000353099, -0.000469394, -0.000383601, -0.000336473, -0.000695761
0.0230632, 0.107619, -0.774417, -0.916304, -1.45655, -0.625347, 1.07044, -0.256723, 0.000424942, 0.00020508, -0.00221061, -0.000885944, 0.00152395, -0.00122906, -0.00167038, -0.0557783, 16.2671, 19.5261, 15.7654, 1.19037, 2.93765, -0.114369, 0.000828093, -0.00160005, 0.000122417, -7.89463e-05, 0.000107817, 0.000209856, 0.000330368, -0.000388836, -0.000436331, -0.00252004, 0.000511383, 0.00379083, -0.011111, -0.444719, 0.635036, -3.13186, -0.0555631, -0.10754, -0.0103341, -0.44309, 0.63498, -3.13192, -0.0556565, -0.107712, 0.000246538, 0.00041891, -0.000557437, -3.91074e-05, 2.24619e-05, -0.00101783
0.0240632, 0.107624, -0.774421, -0.916314, -1.45656, -0.625354, 1.07044, -0.256726, 0.00111873, -0.00406642, -0.00392513, -0.00327389, 0.00145678, -0.00265043, -0.00328373, -0.0914839, 16.16, 19.4864, 15.7297, 1.17847, 2.98709, -0.0557752, 0.000825571, -0.00159741, 0.000127158, -7.12439e-05, 9.96403e-05, 0.000209115, 0.00158133, -0.000503618, -0.00185761, -0.00631917, -0.00131474, 0.00636536, -0.0111107, -0.444719, 0.635035, -3.13186, -0.0555632, -0.107542, -0.0103359, -0.443092, 0.634975, -3.13192, -0.0556581, -0.107701, 0.000289055, 0.000490107, -0.00065283, -0.00114245, -5.2822e-05, -0.00261776
0.0250632, 0.107627, -0.774415, -0.916319, -1.45656, -0.625357, 1.07045, -0.256724, 0.00167401, -0.00145346, -0.000576281, -0.00484619, 0.00164935, -0.00203823, 0.00203603, -0.131157, 15.9378, 19.3754, 15.69, 1.16015, 2.99441, -0.0356336, 0.000827517, -0.00159514, 0.000128819, -7.21195e-05, 8.83024e-05, 0.000210945, -0.000923914, 0.000122911, -0.00114389, -0.00422592, 0.00174053, 0.00545002, -0.0111104, -0.444718, 0.635034, -3.13186, -0.0555634, -0.107545, -0.0103335, -0.443094, 0.634972, -3.13192, -0.0556554, -0.107686, 0.000334905, 0.000566635, -0.000755525, 0.00132997, 0.000731809, -0.00183245
0.0260632, 0.10763, -0.774423, -0.916325, -1.45656, -0.625364, 1.07045, -0.256717, 0.00195135, -0.00494021, -0.00293889, -0.00212912, -0.00308232, -0.00244389, 0.0037044, -0.166862, 15.9378, 19.3397, 15.6146, 1.14734, 3.02371, -0.0878186, 0.000822819, -0.00159206, 0.000129721, -7.39464e-05, 8.95879e-05, 0.000223697, 0.0023538, -0.00113479, -0.00104708, -0.00253733, 0.000425302, -0.000969884, -0.0111101, -0.444717, 0.635033, -3.13186, -0.0555635, -0.107548, -0.0103376, -0.443096, 0.63497, -3.13192, -0.0556357, -0.107691, 0.000384079, 0.000648441, -0.000865474, -0.00185054, -0.00055939, -0.00207879
0.0270632, 0.10763, -0.774432, -0.916339, -1.45657, -0.625373, 1.07045, -0.256718, 0.00130099, -0.00419331, -0.00710758, -0.00460684, -0.00814622, 0.00254617, 0.00230558, -0.166862, 15.9378, 19.4111, 15.7297, 1.17206, 3.03744, -0.0750012, 0.000815814, -0.00158744, 0.000135805, -6.73687e-05, 8.42982e-05, 0.000232827, 0.00374803, -0.00332548, -0.00238177, 0.000273008, 0.00432686, -0.00409104, -0.0111097, -0.444717, 0.635033, -3.13186, -0.0555637, -0.107552, -0.0103436, -0.443101, 0.634963, -3.13191, -0.0556219, -0.107686, 0.000436566, 0.000735474, -0.000982628, -0.00301859, -0.00269915, -0.00363679
0.0280632, 0.107635, -0.774439, -0.916336, -1.45657, -0.625383, 1.07045, -0.256721, 0.00179542, -0.00347042, -0.00196886, -0.00251533, -0.006799, 0.00738252, 0.000549372, -0.206535, 15.9378, 19.2643, 15.69, 1.19037, 3.02371, -0.0420422, 0.000814132, -0.00158506, 0.000133345, -7.92327e-05, 8.41532e-05, 0.000228403, 0.00136639, -0.00327047, 0.000285009, 0.00861883, 2.98619e-05, 0.00213067, -0.0111092, -0.444716, 0.635032, -3.13185, -0.0555639, -0.107556, -0.0103449, -0.443102, 0.634964, -3.13192, -0.0556286, -0.10769, 0.000492356, 0.000827679, -0.00110694, -0.000772762, -0.00249117, -0.000936705
0.0290632, 0.107636, -0.774449, -0.916341, -1.45658, -0.625394, 1.07046, -0.256717, 0.001197, -0.0044902, -0.0026459, -0.00548246, -0.0055249, 0.00588455, 0.00298242, -0.206535, 16.0092, 19.3, 15.8408, 1.20318, 3.01639, -0.10796, 0.000809657, -0.00158151, 0.000136147, -8.16839e-05, 7.92408e-05, 0.000236397, 0.00150417, -0.00290063, -0.00082789, 0.00490472, 0.000802245, 0.00123826, -0.0111087, -0.444715, 0.63503, -3.13185, -0.0555641, -0.10756, -0.0103485, -0.443105, 0.63496, -3.13192, -0.0556163, -0.107687, 0.000551439, 0.000925004, -0.00123836, -0.000788063, -0.0020195, -0.00218557
0.0300632, 0.107638, -0.774455, -0.916341, -1.45658, -0.625405, 1.07046, -0.256718, 0.00163326, -0.00645689, -0.00433533, -0.00386429, -0.00926603, 0.0039331, 0.00113601, -0.242241, 16.0092, 19.2643, 15.8408, 1.21509, 3.03012, -0.0814099, 0.00080609, -0.00157835, 0.000134129, -9.2449e-05, 7.67375e-05, 0.000239848, 0.00378593, -0.00355596, -0.000929762, 0.00479896, 0.00172731, 0.00015403, -0.0111081, -0.444714, 0.635029, -3.13185, -0.0555643, -0.107565, -0.0103515, -0.443107, 0.63496, -3.13192, -0.0556108, -0.107689, 0.000613805, 0.0010274, -0.00137684, -0.00297029, -0.00265139, -0.00258654
0.0310632, 0.107638, -0.774459, -0.91635, -1.45658, -0.625412, 1.07046, -0.256717, 0.000253649, -0.00484629, -0.0051864, -0.0035684, -0.010889, 0.00688687, 0.00109301, -0.206535, 16.0092, 19.3397, 15.8765, 1.19678, 3.05209, -0.0878186, 0.000800969, -0.00157456, 0.000136095, -9.30499e-05, 6.98444e-05, 0.00024979, 0.00430349, -0.00449402, -0.00057008, 0.00819307, 0.00295567, -0.00218808, -0.0111074, -0.444713, 0.635028, -3.13184, -0.0555646, -0.10757, -0.0103557, -0.44311, 0.634957, -3.13192, -0.0555956, -0.107684, 0.000679445, 0.00113481, -0.00152234, -0.00341181, -0.00350273, -0.00241461
0.0320632, 0.107637, -0.774467, -0.916348, -1.45658, -0.625422, 1.07047, -0.256724, 0.000169121, -0.00767567, -0.00209406, -0.0034247, -0.0129167, 0.00422265, -0.00184246, -0.206535, 16.0489, 19.2643, 15.9161, 1.19678, 3.08047, -0.0164075, 0.000796797, -0.00157248, 0.000134936, -0.000101209, 6.5803e-05, 0.000244933, 0.0049801, -0.00382052, 0.000175474, 0.00898451, 0.0028237, 0.00257303, -0.0111067, -0.444712, 0.635026, -3.13184, -0.0555649, -0.107577, -0.0103592, -0.443111, 0.634956, -3.13193, -0.0556032, -0.107684, 0.000748347, 0.00124718, -0.0016748, -0.00409256, -0.00274753, -0.00186566
0.0330632, 0.107636, -0.774471, -0.916348, -1.45659, -0.625432, 1.07047, -0.256718, -0.000815256, -0.00568103, -0.00383202, -0.00237144, -0.013537, 0.00742299, 0.000997133, -0.166862, 16.0489, 19.2246, 15.9161, 1.17206, 3.09512, -0.0750012, 0.000793077, -0.0015695, 0.00013378, -0.000110404, 5.7883e-05, 0.000256745, 0.00543219, -0.00491908, 0.000551975, 0.012026, 0.00310535, -0.00278671, -0.0111059, -0.444711, 0.635024, -3.13184, -0.0555653, -0.107583, -0.0103621, -0.443113, 0.634955, -3.13193, -0.0555849, -0.107679, 0.000820503, 0.00136446, -0.00183418, -0.00445773, -0.00374724, -0.00168735
0.0340632, 0.107641, -0.774474, -0.916351, -1.45659, -0.625442, 1.07047, -0.256724, 0.00121975, -0.00645899, -0.00598992, -0.00164719, -0.0135329, 0.00517661, -0.00146391, -0.242241, 16.0092, 19.2246, 15.9161, 1.13544, 3.10977, -0.0164075, 0.000791572, -0.00156564, 0.000132956, -0.000118477, 4.9385e-05, 0.000251327, 0.00592044, -0.00516246, 4.25247e-05, 0.00923856, 0.00315012, 0.000345315, -0.0111051, -0.444709, 0.635022, -3.13183, -0.0555656, -0.10759, -0.0103626, -0.443116, 0.634954, -3.13194, -0.0555934, -0.107673, 0.000895902, 0.00148661, -0.00200043, -0.00482555, -0.00388109, -0.00239695
0.0350632, 0.107642, -0.774478, -0.91635, -1.4566, -0.625455, 1.07047, -0.256718, 0.000813174, -0.00804346, -0.00376446, -0.00374626, -0.0100762, 0.00352031, 0.000987944, -0.242241, 16.0092, 19.1889, 16.0272, 1.12903, 3.1235, -0.0685925, 0.000789874, -0.00156283, 0.000133377, -0.000126682, 3.30128e-05, 0.000257252, 0.00499994, -0.00405176, 2.32418e-05, 0.00681448, 0.00110145, 0.00260036, -0.0111041, -0.444708, 0.63502, -3.13183, -0.055566, -0.107598, -0.0103633, -0.443117, 0.634951, -3.13194, -0.0555844, -0.107656, 0.000974534, 0.00161356, -0.00217351, -0.00386748, -0.00261163, -0.00251915
0.0360632, 0.107634, -0.774481, -0.916357, -1.4566, -0.625471, 1.07048, -0.256724, -0.00205633, -0.00606172, -0.00379965, -0.00641821, -0.0117161, 0.002509, -0.00125082, -0.131157, 16.0092, 19.2246, 16.0629, 1.11072, 3.13083, -0.0164075, 0.00078029, -0.00155765, 0.000133618, -0.000135743, 1.86521e-05, 0.000270504, 0.00562139, -0.00390505, -0.000544299, 0.00586127, 0.00661054, 0.00323925, -0.0111031, -0.444706, 0.635018, -3.13182, -0.0555664, -0.107607, -0.0103716, -0.443121, 0.634948, -3.13195, -0.055564, -0.107642, 0.00105639, 0.00174526, -0.00235336, -0.00437158, -0.00235025, -0.00330705
0.0370632, 0.107641, -0.77449, -0.916355, -1.4566, -0.625483, 1.07048, -0.256717, 0.000392354, -0.00632894, -0.00417519, -0.00456077, -0.0137231, 0.00172645, 0.00159111, -0.206535, 16.0846, 19.1532, 16.0629, 1.11072, 3.13815, -0.0814099, 0.000778141, -0.00155423, 0.000131274, -0.000146712, 1.20701e-05, 0.00027522, 0.0056817, -0.0043827, -4.44918e-05, 0.00706264, 0.00713922, 0.00136995, -0.011102, -0.444704, 0.635016, -3.13182, -0.0555669, -0.107616, -0.0103727, -0.443122, 0.634948, -3.13195, -0.0555568, -0.107642, 0.00114146, 0.00188168, -0.00253994, -0.00436382, -0.00269762, -0.00300219
0.0380632, 0.107645, -0.774488, -0.916361, -1.45661, -0.625497, 1.07048, -0.25672, 0.00109679, -0.00284947, -0.0032869, -0.00418, -0.0151411, 0.000614858, -0.00109627, -0.242241, 16.0092, 19.1532, 16.1026, 1.11072, 3.15921, -0.0228162, 0.000775867, -0.00154974, 0.000131516, -0.000153284, -9.70039e-06, 0.000277071, 0.00458055, -0.00427265, 0.000534049, 0.00811629, 0.0120204, 0.00531491, -0.0111008, -0.444702, 0.635013, -3.13181, -0.0555674, -0.107626, -0.0103736, -0.443125, 0.634945, -3.13195, -0.0555543, -0.107618, 0.00122973, 0.00202275, -0.00273321, -0.00322123, -0.00241285, -0.00254196
0.0390632, 0.107645, -0.774489, -0.91637, -1.45661, -0.625512, 1.07048, -0.256716, 0.000731197, -0.00219471, -0.00726574, -0.00693727, -0.0154855, -0.00127222, 0.000499695, -0.242241, 16.0092, 19.2246, 16.1383, 1.09241, 3.20956, -0.0557752, 0.000769926, -0.00154415, 0.000132672, -0.00015898, -3.02084e-05, 0.000293245, 0.00559834, -0.004686, -0.00136328, 0.00300796, 0.0159249, 0.00235977, -0.0110996, -0.4447, 0.63501, -3.1318, -0.055568, -0.107637, -0.010378, -0.443129, 0.63494, -3.13195, -0.0555297, -0.107597, 0.00132119, 0.00216842, -0.00293311, -0.0039998, -0.00269963, -0.00470728
0.0400632, 0.107647, -0.774499, -0.91637, -1.45661, -0.625527, 1.07049, -0.256722, 0.000487467, -0.00428289, -0.00661873, -0.00828313, -0.0114755, -0.00230471, -0.000880192, -0.242241, 16.1203, 19.1532, 16.1383, 1.086, 3.25259, -0.0228162, 0.000764608, -0.00153935, 0.000130745, -0.00017261, -3.86568e-05, 0.000290578, 0.00526318, -0.00401599, -0.00153639, 0.000297117, 0.0122349, 0.00741688, -0.0110982, -0.444698, 0.635007, -3.1318, -0.0555686, -0.107648, -0.0103819, -0.443131, 0.634939, -3.13196, -0.055534, -0.107596, 0.00141584, 0.00231864, -0.0031396, -0.00358303, -0.00186654, -0.00505932
0.0410632, 0.107642, -0.774493, -0.916374, -1.45661, -0.625541, 1.07049, -0.256716, -0.00143826, -0.0013508, -0.00713483, -0.00830305, -0.0170222, -0.00248479, 0.000876804, -0.166862, 16.0489, 19.1135, 16.1026, 1.05578, 3.28097, -0.0621838, 0.000759381, -0.00153504, 0.000128191, -0.000184142, -6.46595e-05, 0.000311229, 0.00657649, -0.00475094, -0.00131776, 0.00303108, 0.0195444, 0.0015272, -0.0110967, -0.444695, 0.635004, -3.13179, -0.0555692, -0.107661, -0.0103856, -0.443134, 0.634938, -3.13197, -0.0555022, -0.107568, 0.00151366, 0.00247337, -0.00335263, -0.00478332, -0.00249437, -0.00514922
0.0420632, 0.10765, -0.77449, -0.916382, -1.45662, -0.625561, 1.07049, -0.256721, 0.0008044, -9.69922e-05, -0.00838726, -0.00935172, -0.0169494, -0.00185066, -0.00161536, -0.242241, 16.0092, 19.1135, 16.1026, 1.03656, 3.2883, -0.00267457, 0.000757101, -0.00152755, 0.000127528, -0.000198518, -9.07561e-05, 0.000312296, 0.005399, -0.00522055, -0.00173239, 0.00253598, 0.0212442, 0.00673651, -0.0110952, -0.444693, 0.635, -3.13178, -0.0555699, -0.107674, -0.0103861, -0.443139, 0.634935, -3.13198, -0.0555009, -0.107541, 0.00161465, 0.00263255, -0.00357216, -0.00346317, -0.00275946, -0.00570442
0.0430632, 0.107653, -0.774492, -0.916387, -1.45662, -0.625572, 1.0705, -0.256719, 0.000536268, -0.00108604, -0.00554788, -0.0109929, -0.0158283, 0.00331468, -0.000327807, -0.242241, 16.0489, 19.0778, 16.1383, 0.988036, 3.29562, -0.0228162, 0.000754062, -0.00152205, 0.000126536, -0.000209228, -0.000107531, 0.000318261, 0.00389097, -0.00555174, -0.000764157, 0.00782889, 0.017812, 0.00961202, -0.0110935, -0.44469, 0.634997, -3.13177, -0.0555706, -0.107688, -0.0103874, -0.443141, 0.634932, -3.13198, -0.0554921, -0.10753, 0.00171879, 0.00279613, -0.00379814, -0.00191003, -0.0028822, -0.00486289
0.0440632, 0.107651, -0.774493, -0.916396, -1.45662, -0.625587, 1.0705, -0.256716, -0.00140573, -0.00162927, -0.00429228, -0.0105, -0.0157077, 0.00210746, 0.00171658, -0.166862, 16.0846, 19.0778, 16.1026, 0.956908, 3.31027, -0.0750012, 0.000746149, -0.00151531, 0.000124833, -0.000221374, -0.000127398, 0.000336996, 0.00481388, -0.00522948, -8.3195e-05, 0.00838898, 0.0174708, 0.00730262, -0.0110917, -0.444687, 0.634993, -3.13176, -0.0555714, -0.107702, -0.0103933, -0.443146, 0.634929, -3.13198, -0.0554634, -0.107514, 0.00182607, 0.00296406, -0.00403052, -0.00278106, -0.00243061, -0.00447751
0.0450632, 0.107657, -0.774494, -0.916407, -1.45663, -0.625605, 1.07051, -0.256715, 0.00315177, -0.00197391, -0.00621997, -0.00696497, -0.0116068, 0.00173513, 0.000671419, -0.206535, 16.1203, 19.0778, 16.0629, 0.945006, 3.31027, -0.0621838, 0.000740469, -0.00150721, 0.000124405, -0.000232941, -0.000149079, 0.000347975, 0.0035975, -0.00557973, 0.000509527, 0.00712891, 0.0120983, 0.0125147, -0.0110899, -0.444684, 0.634989, -3.13175, -0.0555722, -0.107718, -0.0103969, -0.443151, 0.634925, -3.13199, -0.0554469, -0.107496, 0.00193648, 0.00313629, -0.00426926, -0.00148602, -0.00257076, -0.00404352
0.0460632, 0.10766, -0.774492, -0.916412, -1.45663, -0.625619, 1.07051, -0.256717, 0.00236459, -0.000520108, -0.00601388, -0.00364263, -0.0131328, 0.000895748, -0.000297059, -0.206535, 16.0846, 19.0024, 15.9915, 0.932189, 3.324, -0.0420422, 0.00073697, -0.0015002, 0.000120369, -0.000251838, -0.000169983, 0.000354902, 0.0046176, -0.00588613, 0.00183897, 0.00972653, 0.0130282, 0.0113748, -0.0110879, -0.444681, 0.634984, -3.13174, -0.0555731, -0.107735, -0.0103984, -0.443155, 0.634924, -3.132, -0.0554364, -0.107481, 0.00205002, 0.00331277, -0.00451432, -0.00246975, -0.00274796, -0.00303455
0.0470632, 0.107663, -0.774492, -0.916424, -1.45663, -0.625638, 1.07052, -0.25672, 0.000845928, -0.0012115, -0.00853746, -0.00293073, -0.0147786, 0.000511612, -0.00114649, -0.166862, 16.1203, 19.0421, 15.9915, 0.932189, 3.33133, -0.0164075, 0.000730113, -0.00149104, 0.000119576, -0.000266712, -0.000193721, 0.000366636, 0.00692633, -0.00668796, 0.00158481, 0.00945482, 0.0135036, 0.0086185, -0.0110858, -0.444678, 0.63498, -3.13173, -0.055574, -0.107752, -0.0104029, -0.443161, 0.63492, -3.132, -0.0554187, -0.107463, 0.00216668, 0.00349346, -0.00476563, -0.00460888, -0.0034476, -0.00370351
0.0480632, 0.107661, -0.774489, -0.916424, -1.45663, -0.625659, 1.07053, -0.256714, -0.00105112, 5.39917e-06, -0.00672521, -0.00140253, -0.0166866, 0.0051534, 0.00116919, -0.0914839, 16.0846, 18.9271, 15.9518, 0.951415, 3.33133, -0.0685925, 0.000725315, -0.00148429, 0.000113831, -0.000292235, -0.000222222, 0.000383709, 0.00711818, -0.00759534, 0.00334492, 0.0170762, 0.012815, 0.0050982, -0.0110835, -0.444674, 0.634975, -3.13172, -0.055575, -0.107771, -0.0104056, -0.443164, 0.63492, -3.13202, -0.0553924, -0.107438, 0.00228643, 0.0036783, -0.00502317, -0.00476873, -0.00419169, -0.00222424
0.0490632, 0.107665, -0.774491, -0.916436, -1.45663, -0.625676, 1.07053, -0.256717, 0.000338399, -0.000848235, -0.00622725, 0.000545665, -0.0176746, 0.00834596, -0.000203328, -0.131157, 16.1203, 18.9667, 15.8765, 0.963317, 3.33865, -0.0420422, 0.000717217, -0.00147531, 0.000111019, -0.000307914, -0.000242794, 0.000395398, 0.00697551, -0.00855075, 0.00456157, 0.0220594, 0.00990518, 0.00779623, -0.0110812, -0.44467, 0.634969, -3.13171, -0.0555761, -0.10779, -0.0104112, -0.44317, 0.634917, -3.13202, -0.0553748, -0.107426, 0.00240928, 0.00386724, -0.00528689, -0.00455301, -0.0049632, -0.00127059
0.0500632, 0.10767, -0.774491, -0.916442, -1.45663, -0.6257, 1.07054, -0.25671, 0.000308944, -0.000577952, -0.00677954, -0.00161137, -0.0141493, 0.0108606, 0.00572837, -0.131157, 16.1203, 18.9271, 15.9518, 0.988036, 3.34598, -0.0685925, 0.000712356, -0.0014664, 0.000108737, -0.000328365, -0.000275387, 0.000410631, 0.00579163, -0.0087575, 0.00425827, 0.0216806, 0.00775327, 0.00527139, -0.0110787, -0.444666, 0.634964, -3.1317, -0.0555772, -0.107811, -0.0104134, -0.443175, 0.634914, -3.13203, -0.0553517, -0.107397, 0.00253522, 0.00406024, -0.00555673, -0.0032186, -0.00493256, -0.00176297
0.0510632, 0.107671, -0.774491, -0.916449, -1.45663, -0.625718, 1.07055, -0.25672, -0.000659549, -0.000394648, -0.00738021, -0.000397966, -0.0148626, 0.00821176, 0.0017845, -0.0914839, 16.1203, 18.8913, 15.9161, 0.975218, 3.34598, -0.00267457, 0.00070553, -0.00145723, 0.000104073, -0.000352089, -0.00029933, 0.000414953, 0.00714611, -0.00871048, 0.0045464, 0.020638, 0.00913473, 0.00790643, -0.0110761, -0.444662, 0.634958, -3.13168, -0.0555784, -0.107832, -0.0104176, -0.44318, 0.634912, -3.13205, -0.0553455, -0.107382, 0.00266423, 0.00425725, -0.00583265, -0.0044615, -0.00473881, -0.00184466
0.0520632, 0.107679, -0.774496, -0.916461, -1.45663, -0.625736, 1.07056, -0.256708, 0.000535201, -0.00203335, -0.00944492, -0.000384512, -0.0153525, 0.0108779, 0.00464839, -0.131157, 16.1957, 18.9271, 15.9161, 0.963317, 3.34598, -0.0878186, 0.000698859, -0.00144661, 0.000101222, -0.00037183, -0.000319095, 0.000436621, 0.00771654, -0.00991358, 0.00439304, 0.0222018, 0.00671325, 0.00552758, -0.0110734, -0.444658, 0.634952, -3.13167, -0.0555796, -0.107855, -0.0104213, -0.443187, 0.634909, -3.13205, -0.0553124, -0.107375, 0.0027963, 0.00445821, -0.00611461, -0.00484471, -0.00575894, -0.00232678
0.0530632, 0.10767, -0.774491, -0.916471, -1.45663, -0.625757, 1.07057, -0.256718, 1.02115e-05, 0.000402416, -0.0100356, 0.000582278, -0.0166915, 0.0131617, 0.000920363, 0.0196001, 16.1203, 18.9271, 15.8765, 0.975218, 3.33865, -0.0228162, 0.000687495, -0.00143629, 9.53586e-05, -0.000399512, -0.000349088, 0.00045478, 0.00774007, -0.0107864, 0.00512556, 0.0257207, 0.00849597, 0.00826866, -0.0110705, -0.444653, 0.634946, -3.13165, -0.0555809, -0.107878, -0.0104298, -0.443193, 0.634908, -3.13207, -0.0552846, -0.107353, 0.00293143, 0.00466308, -0.00640257, -0.00475222, -0.00643365, -0.00189141
0.0540632, 0.107675, -0.774491, -0.91648, -1.45664, -0.625776, 1.07058, -0.256709, 0.000295239, 0.000264334, -0.00977099, -0.0014421, -0.011378, 0.0101396, 0.00271805, 0.0196001, 16.1203, 18.8913, 15.9518, 0.945006, 3.33133, -0.0750012, 0.000682453, -0.00142603, 9.21112e-05, -0.000421642, -0.000378618, 0.00047214, 0.00655467, -0.00966513, 0.00460788, 0.0203673, 0.00726154, 0.0116959, -0.0110675, -0.444648, 0.63494, -3.13164, -0.0555822, -0.107903, -0.0104317, -0.443199, 0.634904, -3.13208, -0.0552584, -0.107333, 0.00306961, 0.00487181, -0.00669647, -0.00343674, -0.0050582, -0.00261316
0.0550632, 0.107679, -0.774486, -0.916493, -1.45663, -0.625795, 1.07059, -0.256709, 0.000413149, 0.00100848, -0.0141778, 0.000751548, -0.0130609, 0.00808874, 0.00170345, 0.0196001, 16.0846, 18.9271, 15.8765, 0.938597, 3.31759, -0.0685925, 0.000674825, -0.00141414, 8.60586e-05, -0.000449313, -0.000406661, 0.000490947, 0.00882404, -0.010667, 0.00417703, 0.0183693, 0.00918787, 0.00871112, -0.0110644, -0.444643, 0.634933, -3.13162, -0.0555837, -0.107929, -0.0104362, -0.443206, 0.634902, -3.13209, -0.0552298, -0.107316, 0.00321082, 0.00508435, -0.00699628, -0.00549278, -0.00592294, -0.00350594
0.0560632, 0.107677, -0.774483, -0.916498, -1.45663, -0.625814, 1.0706, -0.256708, -0.00132556, 0.000670104, -0.0119831, 0.000463316, -0.014126, 0.00627905, 0.00170693, 0.0949785, 16.0846, 18.8556, 15.8765, 0.926695, 3.31027, -0.0814099, 0.000668216, -0.00140373, 7.86991e-05, -0.000481692, -0.000434485, 0.000507616, 0.00946007, -0.0101875, 0.00491205, 0.0192505, 0.0107481, 0.00947753, -0.0110611, -0.444638, 0.634926, -3.13161, -0.0555852, -0.107956, -0.0104396, -0.443211, 0.634902, -3.13211, -0.0552043, -0.107302, 0.00335505, 0.00530066, -0.00730195, -0.00605032, -0.00525639, -0.00311947
0.0570632, 0.107683, -0.774477, -0.91651, -1.45663, -0.625838, 1.07062, -0.256714, 0.00318609, 0.00538378, -0.0128638, 0.00028059, -0.0207364, 0.00437624, -0.000959747, 0.059273, 16.0092, 18.8913, 15.8765, 0.945006, 3.31759, -0.0228162, 0.000662236, -0.00139097, 7.32645e-05, -0.000511952, -0.000471943, 0.000517156, 0.00790854, -0.0109836, 0.0047995, 0.0205221, 0.0217103, 0.0141103, -0.0110577, -0.444633, 0.634918, -3.13159, -0.0555867, -0.107984, -0.0104421, -0.443219, 0.6349, -3.13212, -0.0551902, -0.107273, 0.0035023, 0.00552068, -0.00761342, -0.0043201, -0.00577645, -0.00344164
0.0580632, 0.107691, -0.774478, -0.916519, -1.45663, -0.625852, 1.07063, -0.256707, 0.00340275, 0.00292454, -0.0125588, 0.000165845, -0.0146369, 0.00823554, 0.00158463, 0.0196001, 16.0489, 18.8913, 15.8765, 0.920287, 3.31027, -0.0814099, 0.000658296, -0.00137979, 6.78614e-05, -0.000537118, -0.000497821, 0.000529407, 0.00697085, -0.0111972, 0.00542185, 0.0217385, 0.0128589, 0.0162448, -0.0110541, -0.444627, 0.63491, -3.13157, -0.0555884, -0.108013, -0.0104424, -0.443225, 0.634897, -3.13213, -0.055172, -0.107263, 0.00365255, 0.00574437, -0.00793067, -0.00327018, -0.00573893, -0.00307503
0.0590632, 0.107692, -0.774472, -0.916534, -1.45663, -0.625875, 1.07064, -0.256715, 0.00160348, 0.00307524, -0.0132703, 0.00092987, -0.0163765, 0.0100293, -0.00154769, 0.059273, 16.0092, 18.9271, 15.8408, 0.932189, 3.33133, -0.00999879, 0.000648434, -0.0013666, 6.12196e-05, -0.000567401, -0.000533712, 0.000545002, 0.00839617, -0.0120761, 0.00600597, 0.0248108, 0.0130575, 0.0170776, -0.0110504, -0.444621, 0.634902, -3.13155, -0.0555901, -0.108044, -0.0104485, -0.443232, 0.634895, -3.13215, -0.0551486, -0.107239, 0.0038058, 0.00597168, -0.00825364, -0.00454682, -0.00644529, -0.0029197
0.0600632, 0.107695, -0.774474, -0.916541, -1.45663, -0.625897, 1.07065, -0.25671, 0.00043102, 0.00127029, -0.0119594, -0.000227238, -0.0163043, 0.0123762, 0.000694187, 0.0949785, 16.0489, 18.8913, 15.8765, 0.913878, 3.33133, -0.0557752, 0.000640983, -0.00135423, 5.42964e-05, -0.000600416, -0.000563592, 0.000562897, 0.0086792, -0.0124003, 0.00654279, 0.0276216, 0.0108167, 0.016582, -0.0110465, -0.444615, 0.634894, -3.13153, -0.0555919, -0.108076, -0.0104521, -0.443239, 0.634893, -3.13216, -0.0551216, -0.107226, 0.00396204, 0.00620257, -0.00858229, -0.00469819, -0.00655326, -0.00273487
0.0610632, 0.107696, -0.774471, -0.916549, -1.45663, -0.625919, 1.07067, -0.256713, -0.000492735, 0.000957971, -0.0081629, -0.000160442, -0.0174622, 0.0140718, -0.000497633, 0.134651, 16.0489, 18.8556, 15.8765, 0.926695, 3.33133, -0.0292249, 0.000633436, -0.0013416, 4.60032e-05, -0.000636611, -0.00059753, 0.000575801, 0.00816592, -0.0123179, 0.00815677, 0.0328064, 0.0104183, 0.0204619, -0.0110424, -0.444609, 0.634885, -3.13151, -0.0555937, -0.108109, -0.0104557, -0.443246, 0.634892, -3.13218, -0.0551023, -0.107208, 0.00412125, 0.00643698, -0.00891658, -0.00414133, -0.00623304, -0.00142351
0.0620632, 0.107697, -0.774466, -0.916563, -1.45663, -0.625937, 1.07068, -0.256707, -0.00105275, 0.00389244, -0.0100184, -0.000113674, -0.0175514, 0.0149796, 0.00185557, 0.170357, 16.0489, 18.8913, 15.8765, 0.920287, 3.33865, -0.0878186, 0.000624724, -0.00132795, 3.9335e-05, -0.000667156, -0.000633416, 0.000602233, 0.00819419, -0.0130054, 0.00820123, 0.033394, 0.0131225, 0.0173966, -0.0110382, -0.444602, 0.634876, -3.13149, -0.0555957, -0.108143, -0.0104601, -0.443253, 0.634889, -3.13219, -0.0550623, -0.107188, 0.00428343, 0.00667487, -0.00925645, -0.00398598, -0.00668378, -0.00172589
0.0630632, 0.107702, -0.774467, -0.916573, -1.45663, -0.625954, 1.0707, -0.256704, -0.00154664, 0.00208645, -0.0104508, 0.00168242, -0.0169845, 0.0112697, 0.00562799, 0.21003, 16.0846, 18.8913, 15.8011, 0.895568, 3.33865, -0.0814099, 0.000616826, -0.00131382, 2.95545e-05, -0.000705728, -0.000656885, 0.000619433, 0.0099061, -0.0127214, 0.00860615, 0.0312631, 0.0117268, 0.013503, -0.0110339, -0.444596, 0.634867, -3.13147, -0.0555977, -0.108178, -0.0104638, -0.443261, 0.634888, -3.13221, -0.0550363, -0.107189, 0.00444857, 0.0069162, -0.00960188, -0.00556577, -0.0062227, -0.00178432
0.0640632, 0.107706, -0.774464, -0.916581, -1.45663, -0.625973, 1.07071, -0.256708, -0.0018039, 0.00247121, -0.00699583, 0.00111784, -0.0175231, 0.00793301, 0.00367156, 0.245735, 16.0489, 18.8556, 15.8011, 0.895568, 3.3533, -0.0685925, 0.000610557, -0.00130143, 2.06341e-05, -0.000739454, -0.000693904, 0.000627375, 0.00928523, -0.011693, 0.00950992, 0.0312908, 0.0145299, 0.0192349, -0.0110293, -0.444589, 0.634857, -3.13145, -0.0555998, -0.108215, -0.0104657, -0.443266, 0.634887, -3.13222, -0.0550251, -0.10717, 0.00461665, 0.00716091, -0.0099528, -0.00487783, -0.00493671, -0.00118451
0.0650632, 0.107711, -0.774462, -0.916593, -1.45663, -0.625992, 1.07073, -0.256708, 0.00198276, 0.000996028, -0.00822176, -0.000185627, -0.0176592, 0.0104178, 0.00199743, 0.245735, 16.0846, 18.8556, 15.8408, 0.889159, 3.36062, -0.0484509, 0.000604494, -0.00128672, 1.34029e-05, -0.000775356, -0.000729184, 0.000639548, 0.00810308, -0.012688, 0.0091826, 0.0323259, 0.0129627, 0.0257538, -0.0110246, -0.444581, 0.634847, -3.13142, -0.055602, -0.108254, -0.010467, -0.443274, 0.634884, -3.13224, -0.0550072, -0.107155, 0.00478767, 0.00740896, -0.0103092, -0.00347031, -0.00563872, -0.0017927
0.0660632, 0.107713, -0.774458, -0.916603, -1.45663, -0.62601, 1.07074, -0.256702, -0.000237548, 0.000801847, -0.00911955, -0.000125875, -0.017874, 0.0117972, 0.00301147, 0.325081, 16.0846, 18.8556, 15.8408, 0.883666, 3.38168, -0.0878186, 0.000596877, -0.00127285, 4.42756e-06, -0.000811095, -0.000766911, 0.000659889, 0.00949668, -0.0133291, 0.00950308, 0.0339322, 0.012351, 0.0231226, -0.0110198, -0.444574, 0.634836, -3.1314, -0.0556043, -0.108293, -0.0104699, -0.443281, 0.634881, -3.13225, -0.0549768, -0.107138, 0.00496161, 0.0076603, -0.010671, -0.00468512, -0.00608014, -0.00193598
0.0670632, 0.10772, -0.774453, -0.916613, -1.45663, -0.626026, 1.07076, -0.256703, 0.00322252, 0.00375829, -0.00992459, 0.00084251, -0.0132254, 0.0136299, 0.00169927, 0.325081, 16.0846, 18.8556, 15.8011, 0.877257, 3.38168, -0.0750012, 0.00059193, -0.00125871, -6.06509e-06, -0.000848988, -0.000802262, 0.00066911, 0.00658363, -0.0136179, 0.0101148, 0.0341917, 0.0104108, 0.0304381, -0.0110147, -0.444566, 0.634825, -3.13137, -0.0556067, -0.108334, -0.01047, -0.443287, 0.634881, -3.13227, -0.0549637, -0.107126, 0.00513848, 0.00791489, -0.0110382, -0.00163606, -0.00601741, -0.00149372
0.0680632, 0.107729, -0.774456, -0.916625, -1.45663, -0.626046, 1.07077, -0.256703, 0.00664992, 0.00107985, -0.0112508, 0.000560479, -0.015354, 0.00975123, 0.00511033, 0.285408, 16.16, 18.8913, 15.8011, 0.895568, 3.39633, -0.0484509, 0.000583811, -0.00124359, -1.48937e-05, -0.000884274, -0.000836178, 0.00068014, 0.00724421, -0.0137938, 0.00949387, 0.0310885, 0.0117035, 0.030017, -0.0110095, -0.444558, 0.634814, -3.13135, -0.0556092, -0.108376, -0.0104729, -0.443295, 0.634878, -3.13228, -0.054948, -0.107117, 0.00531825, 0.00817268, -0.0114107, -0.00206598, -0.00595329, -0.00253313
0.0690632, 0.107733, -0.774454, -0.916629, -1.45663, -0.626062, 1.07079, -0.2567, 0.00643812, -0.000697369, -0.00877778, -0.000555263, -0.016485, 0.0123214, 0.00464945, 0.360787, 16.2314, 18.7803, 15.8408, 0.901976, 3.38901, -0.0685925, 0.00057906, -0.00122972, -2.64877e-05, -0.000927949, -0.000872206, 0.000690746, 0.00696507, -0.0141267, 0.0104171, 0.0354287, 0.0102374, 0.03366, -0.0110041, -0.44455, 0.634803, -3.13132, -0.0556118, -0.10842, -0.0104725, -0.443301, 0.634877, -3.1323, -0.0549327, -0.107107, 0.00550092, 0.00843363, -0.0117885, -0.00165703, -0.00602388, -0.00197336
0.0700632, 0.10774, -0.774447, -0.916647, -1.45663, -0.626078, 1.07081, -0.256702, 0.00499576, 0.000560181, -0.0122608, 0.00139239, -0.0172406, 0.0141525, 0.00370942, 0.360787, 16.1957, 18.8913, 15.7654, 0.908385, 3.38168, -0.0750012, 0.000571393, -0.00121226, -3.70746e-05, -0.000968431, -0.000908397, 0.000706688, 0.00886599, -0.01553, 0.0106702, 0.0371386, 0.0101607, 0.0306421, -0.0109985, -0.444541, 0.634791, -3.13129, -0.0556144, -0.108465, -0.0104747, -0.44331, 0.634875, -3.13231, -0.0549093, -0.107098, 0.00568647, 0.00869769, -0.0121715, -0.0033342, -0.00723167, -0.00224569
0.0710632, 0.107748, -0.774447, -0.916656, -1.45663, -0.626095, 1.07082, -0.256697, 0.00385826, -0.00115457, -0.00826298, -0.00295689, -0.0184296, 0.0154191, 0.00373561, 0.360787, 16.2671, 18.8556, 15.8011, 0.932189, 3.38168, -0.101552, 0.000566072, -0.001197, -4.75505e-05, -0.00100803, -0.000947108, 0.000718532, 0.00796867, -0.0151169, 0.0109675, 0.0396469, 0.0114928, 0.0357084, -0.0109927, -0.444532, 0.634778, -3.13127, -0.0556172, -0.108512, -0.0104744, -0.443317, 0.634873, -3.13233, -0.0548924, -0.107086, 0.00587491, 0.00896481, -0.0125597, -0.0022867, -0.0065232, -0.00227305
0.0720632, 0.10776, -0.774442, -0.916669, -1.45663, -0.626109, 1.07084, -0.256704, 0.00610292, 0.00246115, -0.0101498, -0.00222576, -0.0137214, 0.0157174, 2.11342e-05, 0.360787, 16.2671, 18.8913, 15.8011, 0.932189, 3.39633, -0.0292249, 0.00056182, -0.00118157, -5.73807e-05, -0.00104297, -0.000989245, 0.000716839, 0.00585431, -0.0152833, 0.0111523, 0.037903, 0.0111494, 0.0436398, -0.0109867, -0.444523, 0.634765, -3.13124, -0.05562, -0.10856, -0.0104728, -0.443323, 0.63487, -3.13234, -0.0548969, -0.107071, 0.00606621, 0.00923495, -0.0129531, 5.45174e-06, -0.00634695, -0.00233717
0.0730632, 0.107763, -0.774442, -0.916684, -1.45662, -0.626121, 1.07085, -0.256699, 0.00601565, 0.000217968, -0.0113296, 0.00175896, -0.0152245, 0.0165448, 0.00186663, 0.436165, 16.3425, 18.9271, 15.6543, 0.938597, 3.39633, -0.0750012, 0.000550465, -0.00116446, -7.12656e-05, -0.00108741, -0.00101681, 0.00074243, 0.00816549, -0.0163911, 0.0124398, 0.0413867, 0.00723458, 0.0396007, -0.0109806, -0.444514, 0.634752, -3.13121, -0.055623, -0.10861, -0.0104783, -0.443331, 0.634869, -3.13235, -0.0548586, -0.10708, 0.00626038, 0.00950806, -0.0133516, -0.00215423, -0.00727441, -0.00161987
0.0740632, 0.107771, -0.774441, -0.916691, -1.45663, -0.626134, 1.07087, -0.256699, 0.0100582, 0.0027656, -0.00974017, -0.000733752, -0.0158005, 0.0170928, 0.0011249, 0.475838, 16.3782, 18.8556, 15.7297, 0.932189, 3.39633, -0.0685925, 0.000546839, -0.00114959, -8.26203e-05, -0.00112687, -0.00105782, 0.000743704, 0.00480769, -0.0164097, 0.0125699, 0.0424635, 0.0116579, 0.0481625, -0.0109742, -0.444504, 0.634739, -3.13117, -0.055626, -0.108661, -0.0104758, -0.443337, 0.634867, -3.13236, -0.0548585, -0.107069, 0.00645739, 0.00978411, -0.0137552, 0.00138173, -0.00690041, -0.00166144
0.0750632, 0.107777, -0.774435, -0.916704, -1.45662, -0.626148, 1.07089, -0.2567, 0.0100235, 0.00313713, -0.00820359, -0.00200626, -0.0165204, 0.0133829, 0.000600953, 0.511544, 16.3425, 18.8913, 15.6543, 0.932189, 3.38168, -0.0621838, 0.000539312, -0.0011327, -9.57528e-05, -0.00117021, -0.00109956, 0.000757248, 0.00466596, -0.0157007, 0.0127316, 0.0407064, 0.0153506, 0.0517219, -0.0109676, -0.444494, 0.634725, -3.13114, -0.0556292, -0.108713, -0.0104771, -0.443344, 0.634865, -3.13238, -0.0548392, -0.107059, 0.00665724, 0.010063, -0.0141638, 0.00168598, -0.00590983, -0.00189468
0.0760632, 0.10779, -0.774435, -0.916719, -1.45662, -0.62616, 1.07091, -0.256704, 0.0148508, 0.000671816, -0.00696048, -0.00168244, -0.0176202, 0.0147084, -0.000753783, 0.475838, 16.4178, 18.9271, 15.6543, 0.945006, 3.38168, -0.0292249, 0.000534089, -0.00111435, -0.00010831, -0.00121477, -0.00113426, 0.000759243, 0.00320934, -0.0162989, 0.0134925, 0.0436354, 0.012971, 0.0597637, -0.0109609, -0.444484, 0.63471, -3.13111, -0.0556325, -0.108767, -0.0104758, -0.443353, 0.634863, -3.13239, -0.054838, -0.107061, 0.00685993, 0.0103448, -0.0145774, 0.00330921, -0.00618207, -0.0014528
0.0770632, 0.107796, -0.774435, -0.916729, -1.45662, -0.626174, 1.07093, -0.256698, 0.0103674, -0.000129614, -0.00737083, 0.000382907, -0.0181397, 0.0112817, 0.00147997, 0.511544, 16.4536, 18.8913, 15.5789, 0.951415, 3.37436, -0.0814099, 0.000525144, -0.00109714, -0.000123182, -0.00126255, -0.00117038, 0.000777336, 0.00664523, -0.0161165, 0.014247, 0.0428808, 0.0130898, 0.0530664, -0.0109539, -0.444473, 0.634696, -3.13108, -0.0556359, -0.108823, -0.0104782, -0.44336, 0.634863, -3.13241, -0.0548117, -0.107063, 0.00706543, 0.0106294, -0.0149959, 3.00823e-05, -0.00584375, -0.00135698
0.0780632, 0.107812, -0.77443, -0.916737, -1.45662, -0.626181, 1.07094, -0.256703, 0.0127789, 0.000942103, -0.00766223, -0.000773974, -0.0180514, 0.00842471, -0.000671489, 0.436165, 16.4178, 18.8556, 15.6146, 0.945006, 3.37436, -0.0356336, 0.00052585, -0.00108151, -0.000136691, -0.00130332, -0.00121357, 0.000765317, 0.00558093, -0.0158884, 0.0139653, 0.0402939, 0.0164718, 0.0596863, -0.0109468, -0.444463, 0.63468, -3.13104, -0.0556394, -0.10888, -0.0104707, -0.443365, 0.634861, -3.13242, -0.0548326, -0.107056, 0.00727374, 0.0109167, -0.0154193, 0.00131037, -0.00528881, -0.00198657
0.0790632, 0.107817, -0.774434, -0.916752, -1.45661, -0.626189, 1.07096, -0.256702, 0.0110311, -0.000897396, -0.00973527, 0.00277217, -0.0180331, 0.0068028, 5.50225e-05, 0.511544, 16.4893, 18.8913, 15.4678, 0.938597, 3.36062, -0.0484509, 0.000513862, -0.00106342, -0.000152239, -0.00134851, -0.00124205, 0.000782678, 0.00867566, -0.0164865, 0.0147461, 0.0403651, 0.0133735, 0.0554967, -0.0109394, -0.444452, 0.634665, -3.131, -0.055643, -0.108939, -0.0104757, -0.443372, 0.63486, -3.13243, -0.0548078, -0.107073, 0.00748486, 0.0112067, -0.0158476, -0.00159699, -0.00571332, -0.00185641
0.0800632, 0.107827, -0.774434, -0.916772, -1.45662, -0.626199, 1.07097, -0.256699, 0.0148087, 0.00172452, -0.0120771, -2.4265e-05, -0.0137716, 0.010008, 0.001041, 0.511544, 16.525, 18.9667, 15.5432, 0.945006, 3.3533, -0.0750012, 0.000506145, -0.00104423, -0.000162639, -0.00138602, -0.00128524, 0.000794468, 0.00539957, -0.0171854, 0.0139387, 0.0389632, 0.0132579, 0.0616641, -0.0109318, -0.44444, 0.634649, -3.13097, -0.0556467, -0.109, -0.0104758, -0.44338, 0.634854, -3.13243, -0.054792, -0.107068, 0.00769877, 0.0114994, -0.0162807, 0.00196356, -0.00599663, -0.00287257
0.0810632, 0.107844, -0.774433, -0.91678, -1.45662, -0.626212, 1.07099, -0.256699, 0.0160941, 0.00148533, -0.0100873, 0.00166521, -0.0103151, 0.0125224, 0.00047237, 0.436165, 16.525, 18.8913, 15.4678, 0.945006, 3.34598, -0.0685925, 0.000502805, -0.00102568, -0.000180141, -0.00143993, -0.00132416, 0.000793381, 0.00386641, -0.0172888, 0.0156475, 0.0425983, 0.00811276, 0.0675303, -0.010924, -0.444429, 0.634632, -3.13093, -0.0556505, -0.109062, -0.0104719, -0.443388, 0.634854, -3.13245, -0.0547958, -0.107072, 0.00791545, 0.0117947, -0.0167186, 0.00359334, -0.00576739, -0.00150051
0.0820632, 0.107849, -0.774431, -0.916788, -1.45662, -0.626221, 1.07101, -0.256702, 0.0165692, 0.00207718, -0.00977055, 0.00197677, -0.00816816, 0.0146158, -0.000656634, 0.511544, 16.4893, 18.8556, 15.4282, 0.956908, 3.33133, -0.0420422, 0.000495973, -0.00100825, -0.000196932, -0.00148959, -0.00136699, 0.000798099, 0.00299412, -0.0176671, 0.0164838, 0.0447229, 0.00597341, 0.071971, -0.010916, -0.444417, 0.634615, -3.13089, -0.0556545, -0.109126, -0.0104713, -0.443394, 0.634853, -3.13246, -0.0547908, -0.107072, 0.00813491, 0.0120926, -0.0171612, 0.00463732, -0.00582537, -0.00105151
0.0830632, 0.107856, -0.774428, -0.916805, -1.45662, -0.62623, 1.07103, -0.256704, 0.0115772, 0.00240881, -0.0112172, 0.0012718, -0.0110531, 0.0108742, -0.00114098, 0.551216, 16.4536, 18.8913, 15.4282, 0.963317, 3.33133, -0.0228162, 0.000486894, -0.000989324, -0.000211096, -0.00153194, -0.00141396, 0.000807829, 0.0065798, -0.0177037, 0.0161597, 0.0426961, 0.0110394, 0.0670919, -0.0109077, -0.444404, 0.634598, -3.13085, -0.0556585, -0.109191, -0.0104724, -0.443401, 0.634849, -3.13247, -0.0547785, -0.107067, 0.00835714, 0.012393, -0.0176085, 0.00130807, -0.0056853, -0.00207348
0.0840632, 0.107873, -0.774431, -0.916818, -1.45661, -0.626236, 1.07104, -0.256699, 0.0105757, 0.000912257, -0.0113103, 0.00248377, -0.0127123, 0.0178462, 0.00117876, 0.475838, 16.4893, 18.8913, 15.3568, 0.956908, 3.324, -0.0750012, 0.00048179, -0.000970567, -0.00022733, -0.00157702, -0.00145124, 0.000812639, 0.00754741, -0.01955, 0.0175644, 0.0509269, 0.00666742, 0.064055, -0.0108992, -0.444392, 0.63458, -3.13081, -0.0556627, -0.109258, -0.0104695, -0.443407, 0.634847, -3.13248, -0.0547738, -0.107078, 0.00858211, 0.0126959, -0.0180604, 0.00053621, -0.00727576, -0.00120596
0.0850632, 0.107883, -0.774428, -0.916838, -1.45661, -0.626248, 1.07106, -0.256702, 0.00787118, 0.00154959, -0.0132353, 0.00255797, -0.0144543, 0.0185176, -0.000192528, 0.475838, 16.4536, 18.9667, 15.3171, 0.963317, 3.31027, -0.0484509, 0.000471935, -0.000949, -0.000242539, -0.00162522, -0.00149863, 0.000823847, 0.00965838, -0.0204565, 0.0176818, 0.0522123, 0.00848242, 0.0621682, -0.0108905, -0.444379, 0.634562, -3.13077, -0.055667, -0.109327, -0.0104709, -0.443416, 0.634843, -3.13248, -0.0547592, -0.107076, 0.00880983, 0.0130012, -0.018517, -0.00131693, -0.00795242, -0.00170065
0.0860632, 0.107898, -0.774428, -0.916849, -1.45661, -0.626257, 1.07108, -0.256702, 0.00998582, 0.00111271, -0.0109713, 0.00168589, -0.0112535, 0.0187527, -0.000361978, 0.436165, 16.4536, 18.8913, 15.3171, 0.975218, 3.30295, -0.0420422, 0.000467525, -0.000929438, -0.000260149, -0.00167752, -0.00154263, 0.000822334, 0.0075026, -0.0200011, 0.0184774, 0.052709, 0.00615647, 0.069952, -0.0108816, -0.444366, 0.634543, -3.13072, -0.0556715, -0.109398, -0.0104669, -0.443423, 0.634842, -3.1325, -0.0547643, -0.107081, 0.00904028, 0.013309, -0.0189781, 0.000990312, -0.00712215, -0.00121534
0.0870632, 0.107913, -0.77443, -0.916872, -1.45661, -0.626265, 1.0711, -0.256703, 0.0113663, 0.000801548, -0.0168461, 0.00194457, -0.0128838, 0.0186194, -0.00142531, 0.400459, 16.4536, 19.0024, 15.2814, 0.969725, 3.30295, -0.00999879, 0.000457683, -0.000907613, -0.000274243, -0.00171914, -0.00158755, 0.000831192, 0.00947645, -0.021659, 0.0173064, 0.050465, 0.00743976, 0.068818, -0.0108725, -0.444352, 0.634524, -3.13068, -0.0556761, -0.10947, -0.0104678, -0.443432, 0.634836, -3.1325, -0.0547539, -0.107085, 0.00927346, 0.0136191, -0.0194438, -0.000604065, -0.00852778, -0.00300055
0.0880632, 0.107921, -0.774431, -0.916883, -1.45662, -0.626272, 1.07111, -0.256698, 0.00974982, -0.000256049, -0.0136448, -0.000477782, -0.0100836, 0.0188862, 0.00122203, 0.475838, 16.4893, 18.9271, 15.3568, 0.981627, 3.29562, -0.0685925, 0.000449749, -0.00088859, -0.000291509, -0.00176802, -0.00163623, 0.000840079, 0.00861383, -0.0208974, 0.0179995, 0.0511375, 0.00572772, 0.0714161, -0.0108631, -0.444339, 0.634504, -3.13064, -0.0556808, -0.109544, -0.0104669, -0.443438, 0.634833, -3.13251, -0.0547432, -0.107086, 0.00950935, 0.0139315, -0.0199139, 0.000415514, -0.00743142, -0.00271468
0.0890632, 0.107936, -0.774431, -0.916897, -1.45662, -0.626283, 1.07113, -0.256706, 0.0113762, -0.000137096, -0.0123674, -0.000326716, -0.0130866, 0.0141073, -0.00162515, 0.436165, 16.4893, 18.8913, 15.3568, 1.00635, 3.29562, -0.00267457, 0.000443784, -0.0008676, -0.000309121, -0.00182023, -0.00168819, 0.000833597, 0.00878967, -0.0204761, 0.0184377, 0.0500805, 0.0105702, 0.0771841, -0.0108534, -0.444325, 0.634484, -3.13059, -0.0556856, -0.10962, -0.0104637, -0.443445, 0.63483, -3.13251, -0.0547565, -0.107084, 0.00974794, 0.0142462, -0.0203885, 0.000432414, -0.00670696, -0.00276275
0.0900632, 0.107946, -0.774425, -0.916913, -1.45662, -0.626291, 1.07115, -0.2567, 0.0107237, 0.00253226, -0.00936092, 0.000704063, -0.0101461, 0.0154883, 0.0011218, 0.475838, 16.3782, 18.8913, 15.3171, 1.01825, 3.2883, -0.0621838, 0.000436233, -0.00084668, -0.000327302, -0.00187067, -0.0017434, 0.000848075, 0.00700572, -0.0200988, 0.0203444, 0.0536769, 0.00967788, 0.07882, -0.0108436, -0.44431, 0.634463, -3.13054, -0.0556906, -0.109698, -0.0104619, -0.443452, 0.634827, -3.13252, -0.0547375, -0.107078, 0.00998923, 0.0145631, -0.0208674, 0.00230473, -0.00596978, -0.00121333
0.0910632, 0.107964, -0.774421, -0.91693, -1.45662, -0.6263, 1.07116, -0.256697, 0.0129969, 0.00254229, -0.0150432, 0.00129998, -0.0124508, 0.0118394, 0.000748751, 0.400459, 16.3425, 18.8556, 15.2814, 1.02466, 3.28097, -0.0621838, 0.000430152, -0.000824719, -0.000345564, -0.00192119, -0.0017988, 0.000854258, 0.00901067, -0.0212037, 0.019025, 0.0490026, 0.0133511, 0.0775989, -0.0108335, -0.444295, 0.634442, -3.13049, -0.0556957, -0.109777, -0.0104583, -0.44346, 0.634823, -3.13253, -0.0547314, -0.107074, 0.0102332, 0.0148823, -0.0213508, 0.000680832, -0.0068133, -0.00316305
0.0920632, 0.107972, -0.774428, -0.916948, -1.45661, -0.626308, 1.07118, -0.256699, 0.011039, -0.000889417, -0.0173615, 0.00179122, -0.00992323, 0.00855362, 0.000499832, 0.475838, 16.4536, 18.8556, 15.2417, 1.04297, 3.2883, -0.0621838, 0.00041602, -0.000802362, -0.000364728, -0.00197405, -0.00184204, 0.000865467, 0.0118441, -0.0211305, 0.0186677, 0.0446669, 0.00963545, 0.0769874, -0.0108231, -0.44428, 0.634421, -3.13044, -0.0557009, -0.109858, -0.0104626, -0.443468, 0.63482, -3.13253, -0.0547175, -0.107091, 0.0104799, 0.0152035, -0.0218384, -0.00187568, -0.00651603, -0.00420708
0.0930632, 0.107987, -0.774428, -0.916964, -1.45662, -0.626316, 1.07119, -0.256706, 0.0123889, -0.000582313, -0.0180793, -0.00290318, -0.00708654, 0.0107098, -0.00187033, 0.436165, 16.4536, 18.816, 15.2814, 1.03656, 3.29562, -0.00267457, 0.000409833, -0.000781001, -0.000381752, -0.00202147, -0.00190106, 0.000857243, 0.00985044, -0.0213856, 0.017701, 0.0430808, 0.0100027, 0.0858441, -0.0108125, -0.444265, 0.634399, -3.13039, -0.0557063, -0.109941, -0.0104586, -0.443474, 0.634814, -3.13254, -0.0547343, -0.107085, 0.0107292, 0.0155269, -0.0223304, 0.00043712, -0.00636865, -0.00552674
0.0940632, 0.108005, -0.774428, -0.916982, -1.45663, -0.626321, 1.07121, -0.256699, 0.0164062, -0.000380234, -0.016568, -0.00632181, -0.00969987, 0.0124677, 0.00119489, 0.400459, 16.4536, 18.816, 15.3171, 1.03107, 3.30295, -0.0685925, 0.000403388, -0.000758999, -0.000398558, -0.00206666, -0.00195931, 0.000863412, 0.00737008, -0.021912, 0.0176434, 0.0455375, 0.0136758, 0.0903724, -0.0108016, -0.444249, 0.634376, -3.13034, -0.0557118, -0.110026, -0.0104546, -0.443481, 0.634808, -3.13253, -0.0547289, -0.107081, 0.0109812, 0.0158524, -0.0228265, 0.00318388, -0.00648218, -0.00591155
0.0950632, 0.108013, -0.774428, -0.916999, -1.45662, -0.62633, 1.07122, -0.256705, 0.0135904, -0.000247509, -0.0207638, -0.00208923, -0.00745582, 0.0145706, -0.0011359, 0.475838, 16.4536, 18.7803, 15.206, 1.03656, 3.2883, -0.0164075, 0.000390695, -0.000735907, -0.000420293, -0.00212451, -0.00201328, 0.000871323, 0.01037, -0.023349, 0.0185419, 0.0471986, 0.00866736, 0.0875508, -0.0107905, -0.444233, 0.634353, -3.13029, -0.0557175, -0.110113, -0.0104569, -0.443488, 0.634805, -3.13254, -0.0547205, -0.107087, 0.0112358, 0.0161798, -0.0233269, 0.000435662, -0.00770633, -0.00573941
0.0960632, 0.108026, -0.774426, -0.917023, -1.45663, -0.626337, 1.07124, -0.256706, 0.0134039, 0.000674698, -0.0194883, -0.00664679, -0.010704, 0.0156137, -0.000994418, 0.475838, 16.4178, 18.816, 15.2814, 1.04938, 3.2883, -0.00999879, 0.000381615, -0.000712456, -0.000435658, -0.00216795, -0.00208092, 0.000876597, 0.00957204, -0.0236704, 0.0181722, 0.0488864, 0.0146336, 0.0909397, -0.0107792, -0.444217, 0.634329, -3.13024, -0.0557233, -0.110202, -0.0104549, -0.443496, 0.634796, -3.13254, -0.0547169, -0.107072, 0.011493, 0.0165093, -0.0238314, 0.00152497, -0.00766724, -0.00656077
0.0970632, 0.108041, -0.77442, -0.91704, -1.45663, -0.626347, 1.07125, -0.256701, 0.013262, 0.0022164, -0.0197007, -0.00319543, -0.0184417, 0.0163508, 0.00103263, 0.475838, 16.3425, 18.7803, 15.206, 1.06128, 3.2883, -0.0557752, 0.000373571, -0.000689095, -0.000456452, -0.00222312, -0.00214756, 0.000887098, 0.0116223, -0.0252213, 0.019828, 0.0558636, 0.0196247, 0.0851055, -0.0107676, -0.4442, 0.634305, -3.13018, -0.0557293, -0.110292, -0.0104519, -0.443503, 0.634792, -3.13254, -0.0547049, -0.107062, 0.0117529, 0.0168407, -0.0243401, -0.000320485, -0.00897579, -0.00557622
0.0980632, 0.108054, -0.77442, -0.917062, -1.45664, -0.626354, 1.07126, -0.256703, 0.0162723, 0.00148012, -0.0187295, -0.00664382, -0.0139913, 0.0125236, -5.74446e-05, 0.475838, 16.3425, 18.816, 15.2417, 1.06769, 3.28097, -0.0356336, 0.000364034, -0.000665871, -0.000473015, -0.00226704, -0.00221602, 0.000888576, 0.00925815, -0.024031, 0.0191246, 0.050028, 0.0198786, 0.0958309, -0.0107557, -0.444183, 0.634281, -3.13012, -0.0557354, -0.110385, -0.0104499, -0.44351, 0.634783, -3.13253, -0.0547076, -0.10705, 0.0120154, 0.017174, -0.0248528, 0.00230456, -0.00736352, -0.00661651
0.0990632, 0.10807, -0.774418, -0.917081, -1.45664, -0.626363, 1.07128, -0.256697, 0.0185246, 0.00182386, -0.019105, -0.00240102, -0.0154115, 0.0140507, 0.000945136, 0.475838, 16.3068, 18.7803, 15.1306, 1.0741, 3.28097, -0.0621838, 0.00035397, -0.000641685, -0.00049472, -0.00232286, -0.0022816, 0.000901737, 0.00951467, -0.025177, 0.0209317, 0.0549853, 0.0180046, 0.0959419, -0.0107435, -0.444166, 0.634256, -3.13007, -0.0557417, -0.110479, -0.0104485, -0.443517, 0.634779, -3.13254, -0.0546917, -0.107045, 0.0122806, 0.0175091, -0.0253696, 0.00222705, -0.00820232, -0.00535977
0.100063, 0.10808, -0.774423, -0.917096, -1.45665, -0.62637, 1.07129, -0.256706, 0.0152848, -0.000453111, -0.0165836, -0.00119316, -0.0119321, 0.0157812, -0.00157389, 0.551216, 16.3782, 18.7446, 15.0949, 1.086, 3.26724, -0.00267457, 0.000342147, -0.00061864, -0.000515649, -0.00237634, -0.00234442, 0.000897623, 0.0104521, -0.0249659, 0.0227278, 0.0583164, 0.0115168, 0.100229, -0.0107311, -0.444148, 0.63423, -3.13001, -0.0557481, -0.110576, -0.0104485, -0.443523, 0.634773, -3.13254, -0.0547029, -0.107047, 0.0125483, 0.0178461, -0.0258904, 0.00142526, -0.00770727, -0.00415569
0.101063, 0.108101, -0.774423, -0.917117, -1.45666, -0.626375, 1.0713, -0.256699, 0.0196797, -0.000301009, -0.0154454, -0.00250357, -0.00886745, 0.0120516, 0.0013922, 0.475838, 16.3782, 18.7446, 15.0195, 1.086, 3.25992, -0.0685925, 0.000335148, -0.000593975, -0.000535533, -0.00242736, -0.00241147, 0.000901451, 0.00786369, -0.0240727, 0.0227361, 0.0544742, 0.0122695, 0.106689, -0.0107184, -0.44413, 0.634204, -3.12995, -0.0557547, -0.110674, -0.0104434, -0.44353, 0.634766, -3.13253, -0.0547021, -0.107043, 0.0128186, 0.0181849, -0.0264151, 0.00424197, -0.0063861, -0.00448405
0.102063, 0.108115, -0.77442, -0.917139, -1.45667, -0.626383, 1.07131, -0.256707, 0.017028, 0.000635343, -0.0183758, -0.00533267, -0.00659617, 0.0136649, -0.0017506, 0.511544, 16.3425, 18.7803, 15.0195, 1.086, 3.25992, 0.00373412, 0.000325147, -0.000569582, -0.000553734, -0.00247438, -0.00249016, 0.000897566, 0.0087363, -0.0247345, 0.021849, 0.0526681, 0.0128521, 0.10955, -0.0107055, -0.444112, 0.634177, -3.12989, -0.0557614, -0.110774, -0.0104408, -0.443537, 0.634757, -3.13252, -0.0547136, -0.107024, 0.0130915, 0.0185254, -0.0269437, 0.00373005, -0.00672979, -0.00596656
0.103063, 0.108128, -0.774418, -0.917156, -1.45667, -0.626387, 1.07133, -0.2567, 0.0159602, 0.00125938, -0.0189761, -0.00475664, -0.00514821, 0.0107514, 0.00127437, 0.511544, 16.3068, 18.7446, 14.9084, 1.09241, 3.24527, -0.0621838, 0.00031585, -0.000545718, -0.000577014, -0.00252991, -0.0025597, 0.000907391, 0.00960415, -0.0244766, 0.0222088, 0.050606, 0.0137079, 0.107464, -0.0106922, -0.444093, 0.63415, -3.12983, -0.0557683, -0.110876, -0.0104377, -0.443543, 0.634752, -3.13252, -0.0547036, -0.10702, 0.0133669, 0.0188676, -0.0274763, 0.00310452, -0.00616551, -0.00620179
0.104063, 0.108141, -0.774415, -0.917165, -1.45669, -0.626393, 1.07134, -0.256703, 0.0142149, 0.00176805, -0.0145437, -0.0077781, -0.00449536, 0.00877171, -0.00135445, 0.551216, 16.2671, 18.6295, 14.9442, 1.11072, 3.22421, -0.00267457, 0.000309923, -0.000523987, -0.000599318, -0.00258405, -0.00264149, 0.000897317, 0.00849698, -0.0232666, 0.023002, 0.0509815, 0.0166985, 0.115671, -0.0106787, -0.444074, 0.634122, -3.12976, -0.0557754, -0.110981, -0.0104309, -0.443546, 0.634746, -3.13252, -0.0547249, -0.107, 0.0136449, 0.0192114, -0.0280126, 0.0043855, -0.00458324, -0.00586086
0.105063, 0.108157, -0.774416, -0.917192, -1.4567, -0.6264, 1.07135, -0.2567, 0.0172144, 0.00025102, -0.0168415, -0.00820382, -0.00396387, 0.0070085, 0.000792472, 0.551216, 16.3068, 18.7446, 14.9084, 1.12903, 3.20956, -0.0484509, 0.000297639, -0.000497818, -0.000618442, -0.00263125, -0.00271888, 0.000906259, 0.00862093, -0.0237477, 0.0224788, 0.0482351, 0.0162989, 0.117336, -0.0106649, -0.444055, 0.634094, -3.1297, -0.0557826, -0.111087, -0.0104299, -0.443553, 0.634736, -3.13251, -0.0547169, -0.106988, 0.0139255, 0.0195569, -0.0285528, 0.00459545, -0.00471868, -0.0069377
0.106063, 0.10817, -0.774423, -0.917215, -1.45671, -0.626404, 1.07136, -0.256704, 0.0152756, -0.00243086, -0.0222396, -0.00540246, -0.00285917, 0.0104973, -0.00140445, 0.586922, 16.4178, 18.7803, 14.8688, 1.12903, 3.18851, 0.00373412, 0.000283535, -0.000471766, -0.000638968, -0.00268157, -0.00278882, 0.000908298, 0.0122818, -0.0258144, 0.0226406, 0.0498308, 0.00967051, 0.114701, -0.0106509, -0.444035, 0.634065, -3.12963, -0.05579, -0.111195, -0.0104304, -0.443561, 0.634726, -3.1325, -0.0547197, -0.10699, 0.0142086, 0.019904, -0.0290967, 0.00129071, -0.00656923, -0.00759967
0.107063, 0.108184, -0.774414, -0.917233, -1.45672, -0.626415, 1.07137, -0.256699, 0.0178883, 0.00190609, -0.0195296, -0.00741306, -0.00757789, 0.00827024, 0.00028441, 0.586922, 16.2671, 18.7803, 14.8688, 1.15375, 3.17386, -0.0292249, 0.000275437, -0.000446453, -0.000661382, -0.00273858, -0.00288225, 0.00091472, 0.00993498, -0.0256036, 0.023252, 0.0518262, 0.0201259, 0.118567, -0.0106365, -0.444015, 0.634036, -3.12957, -0.0557975, -0.111306, -0.0104249, -0.443566, 0.634719, -3.13249, -0.0547158, -0.106958, 0.0144943, 0.0202526, -0.0296444, 0.00386357, -0.00593526, -0.00737131
0.108063, 0.108196, -0.774417, -0.917252, -1.45673, -0.626418, 1.07137, -0.256704, 0.0157115, 0.000342852, -0.0176276, -0.00485507, -0.00555658, 0.00578935, -0.000522464, 0.626595, 16.3068, 18.7803, 14.8331, 1.15375, 3.18118, -0.00999879, 0.000263377, -0.000422279, -0.000683336, -0.00278716, -0.00296141, 0.000910163, 0.0114155, -0.0250212, 0.0249405, 0.0525517, 0.0167531, 0.120447, -0.0106219, -0.443995, 0.634006, -3.1295, -0.0558053, -0.111418, -0.010423, -0.443571, 0.63471, -3.13248, -0.0547294, -0.10695, 0.0147825, 0.0206027, -0.0301957, 0.00253378, -0.00507526, -0.00634162
0.109063, 0.108213, -0.774421, -0.917273, -1.45674, -0.626424, 1.07138, -0.256703, 0.0128389, -0.00144176, -0.0190196, -0.00601064, -0.00476104, 0.00454118, -0.000619571, 0.586922, 16.3782, 18.7803, 14.7934, 1.17206, 3.17386, -0.00267457, 0.000251163, -0.000396585, -0.000705615, -0.00283807, -0.00304367, 0.00091261, 0.0136743, -0.0252013, 0.024687, 0.0507217, 0.0160339, 0.119746, -0.010607, -0.443974, 0.633975, -3.12943, -0.0558132, -0.111532, -0.010421, -0.443576, 0.6347, -3.13247, -0.0547321, -0.106939, 0.0150731, 0.0209542, -0.0307507, 0.000595747, -0.00498227, -0.00731469
0.110063, 0.108225, -0.77442, -0.917295, -1.45675, -0.626429, 1.07139, -0.256702, 0.011862, -0.000961094, -0.0210343, -0.00701872, -0.00369525, 0.00411511, -0.000413044, 0.626595, 16.3782, 18.816, 14.7577, 1.17847, 3.1528, -0.00267457, 0.000238697, -0.000369947, -0.000728191, -0.00289214, -0.00312946, 0.000917978, 0.0144997, -0.0256306, 0.0244014, 0.049202, 0.0169025, 0.120223, -0.0105917, -0.443953, 0.633944, -3.12936, -0.0558213, -0.111649, -0.0104189, -0.443583, 0.634691, -3.13246, -0.0547304, -0.106924, 0.0153663, 0.0213072, -0.0313093, 0.000100353, -0.00508591, -0.00822355
0.111063, 0.108234, -0.774425, -0.917317, -1.45677, -0.626434, 1.0714, -0.256704, 0.00814364, -0.00156869, -0.0195783, -0.00850183, -0.00287985, 0.00849056, 0.000233267, 0.6623, 16.4178, 18.8556, 14.7577, 1.18396, 3.13083, -0.0164075, 0.00022359, -0.000342955, -0.000750512, -0.00294666, -0.00321271, 0.000923079, 0.0151911, -0.02621, 0.0254292, 0.0540345, 0.0145884, 0.12032, -0.0105762, -0.443931, 0.633913, -3.12929, -0.0558295, -0.111768, -0.0104191, -0.443589, 0.63468, -3.13245, -0.0547293, -0.106916, 0.015662, 0.0216616, -0.0318714, -0.000346901, -0.00534804, -0.00781797
0.112063, 0.108254, -0.77442, -0.917334, -1.45679, -0.62644, 1.07141, -0.256699, 0.00799545, 0.00071749, -0.0186782, -0.0127026, -0.00708766, 0.00649663, 0.00110495, 0.586922, 16.3425, 18.7803, 14.7577, 1.19037, 3.1235, -0.0420422, 0.000217771, -0.00031768, -0.000774013, -0.00300098, -0.00331044, 0.000918257, 0.0147039, -0.0261788, 0.0249086, 0.053683, 0.024, 0.122309, -0.0105604, -0.443909, 0.63388, -3.12921, -0.055838, -0.111888, -0.0104099, -0.443593, 0.634671, -3.13244, -0.0547438, -0.106888, 0.0159602, 0.0220173, -0.0324371, 0.000471211, -0.00493988, -0.00887088
0.113063, 0.108262, -0.774425, -0.917353, -1.4568, -0.626443, 1.07141, -0.256704, 0.00814564, -0.00128488, -0.0201948, -0.011947, -0.0104552, 0.0050261, -0.00119615, 0.626595, 16.4178, 18.7803, 14.722, 1.20318, 3.11618, 0.0101428, 0.00020196, -0.000291627, -0.00079808, -0.00305419, -0.00339571, 0.000918356, 0.0169783, -0.0270252, 0.0251017, 0.0542865, 0.0251248, 0.123811, -0.0105443, -0.443887, 0.633848, -3.12914, -0.0558466, -0.112011, -0.0104104, -0.443598, 0.634661, -3.13242, -0.0547509, -0.10688, 0.0162609, 0.0223744, -0.0330063, -0.00148024, -0.00551295, -0.00942085
0.114063, 0.108277, -0.774423, -0.917375, -1.45682, -0.62645, 1.07142, -0.256699, 0.0101848, 7.14601e-05, -0.0239099, -0.0145487, -0.0124242, 0.00417717, 0.00164398, 0.586922, 16.3782, 18.7803, 14.6823, 1.20318, 3.10245, -0.0557752, 0.000190814, -0.000264629, -0.000821363, -0.00310785, -0.00349568, 0.000922656, 0.0170719, -0.0280214, 0.023765, 0.0516392, 0.0305232, 0.122778, -0.0105279, -0.443865, 0.633814, -3.12906, -0.0558554, -0.112136, -0.0104058, -0.443603, 0.63465, -3.13241, -0.0547517, -0.106852, 0.016564, 0.0227327, -0.033579, -0.00114078, -0.00614015, -0.0113455
0.115063, 0.108288, -0.774426, -0.917395, -1.45684, -0.626453, 1.07143, -0.256699, 0.00758442, -0.000880361, -0.0229708, -0.0142812, -0.00946261, 0.0032944, 0.00035, 0.586922, 16.4178, 18.7446, 14.6823, 1.20868, 3.09512, -0.0356336, 0.000177734, -0.000237813, -0.000845349, -0.00316298, -0.00358851, 0.000922865, 0.0180503, -0.0276507, 0.0246833, 0.0515399, 0.027795, 0.125709, -0.0105112, -0.443842, 0.633781, -3.12899, -0.0558644, -0.112263, -0.010403, -0.443607, 0.634639, -3.13239, -0.054759, -0.106838, 0.0168696, 0.0230922, -0.034155, -0.00189101, -0.00545693, -0.0110763
0.116063, 0.108297, -0.774423, -0.917422, -1.45687, -0.626457, 1.07144, -0.256701, 0.00472417, 0.000341127, -0.0249315, -0.01808, -0.0070407, 0.00732301, 0.000470693, 0.626595, 16.3782, 18.816, 14.722, 1.20868, 3.0878, -0.0420422, 0.000164007, -0.000210012, -0.000865769, -0.00320965, -0.00369492, 0.000925627, 0.0181616, -0.0284919, 0.0240606, 0.0519617, 0.0279488, 0.126601, -0.0104942, -0.443818, 0.633746, -3.12891, -0.0558736, -0.112393, -0.0104002, -0.443613, 0.634623, -3.13237, -0.0547629, -0.106804, 0.0171776, 0.0234529, -0.0347344, -0.00162069, -0.00593557, -0.0122959
0.117063, 0.108302, -0.774423, -0.917437, -1.45688, -0.626459, 1.07144, -0.256705, 0.00183313, 0.000227429, -0.019944, -0.0213025, -0.010515, 0.0104764, -0.00063564, 0.701973, 16.3782, 18.7446, 14.6466, 1.2215, 3.08047, -0.0164075, 0.000149987, -0.000184094, -0.000892252, -0.00326803, -0.00379443, 0.000924398, 0.017821, -0.0285637, 0.025469, 0.0589566, 0.0309894, 0.130878, -0.0104768, -0.443795, 0.633711, -3.12883, -0.0558829, -0.112524, -0.0103979, -0.443616, 0.634613, -3.13235, -0.0547727, -0.106783, 0.017488, 0.0238148, -0.0353172, -0.00107069, -0.00565146, -0.011454
0.118063, 0.108317, -0.77442, -0.917469, -1.45691, -0.626461, 1.07145, -0.2567, 0.00567905, 0.000986845, -0.0236465, -0.0216479, -0.00714352, 0.00804829, 5.09584e-05, 0.6623, 16.3425, 18.8556, 14.6069, 1.20318, 3.07315, -0.0292249, 0.000136272, -0.000154835, -0.000913563, -0.00331416, -0.00389996, 0.000932011, 0.0168918, -0.0288643, 0.0246165, 0.0536947, 0.0311004, 0.13526, -0.0104592, -0.443771, 0.633676, -3.12875, -0.0558925, -0.112658, -0.0103944, -0.443622, 0.634598, -3.13233, -0.0547695, -0.106755, 0.0178009, 0.0241778, -0.0359033, 0.000238616, -0.00554816, -0.0128298
0.119063, 0.108327, -0.774426, -0.917486, -1.45694, -0.626464, 1.07145, -0.256696, 0.00742009, -0.00110534, -0.0216978, -0.0225763, -0.00581192, 0.00619748, 0.00101732, 0.6623, 16.4178, 18.7803, 14.6069, 1.21509, 3.06674, -0.0557752, 0.000123429, -0.000128841, -0.000936822, -0.00336372, -0.00400557, 0.000929774, 0.0161564, -0.0283781, 0.025207, 0.0531022, 0.029731, 0.140912, -0.0104412, -0.443746, 0.633639, -3.12867, -0.0559023, -0.112794, -0.0103901, -0.443624, 0.634584, -3.1323, -0.0547816, -0.106728, 0.0181163, 0.0245419, -0.0364926, 0.00122534, -0.00468108, -0.0127766
0.120063, 0.108332, -0.774426, -0.917507, -1.45696, -0.626461, 1.07146, -0.256703, 0.0069798, -0.000736886, -0.0192097, -0.0247747, -0.00341566, 0.0053914, -0.00176319, 0.737679, 16.4178, 18.7803, 14.5355, 1.19037, 3.04477, 0.0101428, 0.000108621, -0.000101748, -0.000962359, -0.00341775, -0.00410868, 0.000925247, 0.0148815, -0.0276654, 0.0258142, 0.0529077, 0.0302784, 0.149717, -0.0104229, -0.443722, 0.633603, -3.12858, -0.0559122, -0.112932, -0.0103875, -0.443627, 0.634571, -3.13228, -0.0547973, -0.106709, 0.018434, 0.0249071, -0.0370852, 0.00274259, -0.00356796, -0.0126687
0.121063, 0.108346, -0.774426, -0.917534, -1.45699, -0.626463, 1.07146, -0.256696, 0.00939745, -0.000491254, -0.0221781, -0.0273393, -0.00309425, 0.00447126, 0.00126594, 0.701973, 16.4178, 18.8556, 14.4958, 1.20318, 3.03012, -0.0557752, 9.5893e-05, -7.33091e-05, -0.00098413, -0.00346342, -0.00422233, 0.000929228, 0.0144876, -0.0282857, 0.0246642, 0.0496154, 0.0328346, 0.150607, -0.0104044, -0.443697, 0.633565, -3.1285, -0.0559224, -0.113072, -0.0103823, -0.443632, 0.634554, -3.13225, -0.0548005, -0.106674, 0.0187541, 0.0252732, -0.0376809, 0.00355865, -0.00379622, -0.0143924
0.122063, 0.10836, -0.774423, -0.917548, -1.45702, -0.626466, 1.07146, -0.256703, 0.0120364, 0.00060052, -0.0176833, -0.0292075, -0.00231966, 0.00346904, -0.00136009, 0.626595, 16.3782, 18.7803, 14.4601, 1.20318, 3.02371, 0.00373412, 8.66946e-05, -4.70853e-05, -0.00101013, -0.00351795, -0.0043415, 0.000911876, 0.0113959, -0.0274196, 0.0258598, 0.0512971, 0.0351542, 0.162933, -0.0103854, -0.443671, 0.633527, -3.12841, -0.0559327, -0.113214, -0.0103735, -0.443633, 0.634541, -3.13223, -0.0548366, -0.106634, 0.0190766, 0.0256403, -0.0382798, 0.00684348, -0.00247077, -0.0135706
0.123063, 0.108361, -0.774428, -0.91757, -1.45706, -0.626468, 1.07147, -0.2567, 0.00630954, -0.00136289, -0.0193712, -0.0347598, -0.00309539, 0.00385716, 0.00102606, 0.737679, 16.4536, 18.7803, 14.4601, 1.23981, 2.98709, -0.0484509, 6.8629e-05, -1.91698e-05, -0.00103386, -0.00356922, -0.0044546, 0.000918355, 0.0143212, -0.0278066, 0.0244611, 0.0491954, 0.037512, 0.158355, -0.0103662, -0.443645, 0.633489, -3.12833, -0.0559433, -0.113359, -0.0103731, -0.443636, 0.634525, -3.1322, -0.0548361, -0.106605, 0.0194015, 0.0260084, -0.0388819, 0.00436552, -0.00257814, -0.0157869
0.124063, 0.108373, -0.77443, -0.917592, -1.45708, -0.626465, 1.07147, -0.256704, 0.0088185, -0.000908591, -0.0211837, -0.0320563, -0.00152989, 0.00322117, -0.0014861, 0.701973, 16.4536, 18.816, 14.3094, 1.2215, 2.97336, 0.0101428, 5.51381e-05, 8.79348e-06, -0.00105925, -0.0036194, -0.00456662, 0.000908661, 0.014273, -0.028435, 0.0252886, 0.0492992, 0.0357246, 0.163691, -0.0103466, -0.443619, 0.633449, -3.12824, -0.0559541, -0.113506, -0.0103679, -0.443639, 0.63451, -3.13217, -0.0548609, -0.10658, 0.0197288, 0.0263773, -0.039487, 0.00470191, -0.00284753, -0.015573
0.125063, 0.108377, -0.774434, -0.917612, -1.45712, -0.626468, 1.07147, -0.256698, 0.00794692, -0.00227616, -0.0187445, -0.0339141, -0.00112827, 0.00279581, 0.000942046, 0.777352, 16.525, 18.816, 14.3094, 1.2215, 2.95871, -0.0420422, 3.94576e-05, 3.63893e-05, -0.00108324, -0.00367015, -0.00468927, 0.000912888, 0.014164, -0.0280805, 0.0259894, 0.0504151, 0.0356427, 0.165751, -0.0103267, -0.443593, 0.63341, -3.12815, -0.055965, -0.113655, -0.0103645, -0.443641, 0.634492, -3.13214, -0.0548643, -0.106541, 0.0200585, 0.0267472, -0.0400951, 0.00507471, -0.00213036, -0.0154749
0.126063, 0.108384, -0.774431, -0.917628, -1.45717, -0.626469, 1.07147, -0.256706, 0.00843733, -0.000682223, -0.0153647, -0.0360438, -0.000833442, 0.00194324, -0.00106739, 0.813057, 16.4893, 18.7446, 14.3491, 1.2215, 2.95871, 0.00373412, 2.89057e-05, 6.28544e-05, -0.00110728, -0.00371937, -0.00482235, 0.000894193, 0.0122611, -0.0274315, 0.0269018, 0.0517791, 0.038968, 0.174414, -0.0103065, -0.443566, 0.633369, -3.12806, -0.0559762, -0.113807, -0.0103557, -0.443641, 0.634475, -3.13211, -0.0549038, -0.106487, 0.0203905, 0.0271178, -0.0407063, 0.00721167, -0.00105744, -0.0150352
0.127063, 0.10839, -0.774435, -0.917651, -1.4572, -0.62647, 1.07147, -0.256705, 0.00650522, -0.00129003, -0.0162661, -0.0337728, -0.000616573, 0.00240618, -0.00118631, 0.813057, 16.525, 18.816, 14.234, 1.2215, 2.93033, 0.0165515, 1.17481e-05, 9.20204e-05, -0.00113275, -0.00377234, -0.00494235, 0.000894887, 0.0142676, -0.0281179, 0.0280673, 0.0540302, 0.0367989, 0.173236, -0.010286, -0.443538, 0.633328, -3.12796, -0.0559876, -0.113961, -0.0103531, -0.443644, 0.634458, -3.13208, -0.0549131, -0.106457, 0.0207248, 0.0274892, -0.0413204, 0.00548417, -0.00145961, -0.0146438
0.128063, 0.108396, -0.774439, -0.91767, -1.45724, -0.626472, 1.07147, -0.256705, 0.00814179, -0.00178804, -0.0160767, -0.0363652, -0.00113493, 0.00164876, -7.87974e-05, 0.813057, 16.5646, 18.8556, 14.1626, 1.23981, 2.93033, -0.00267457, -3.8218e-06, 0.00012025, -0.00115832, -0.00382455, -0.00507039, 0.000890059, 0.0135822, -0.0282489, 0.0278389, 0.0533011, 0.0390605, 0.177369, -0.0102651, -0.443511, 0.633287, -3.12787, -0.0559992, -0.114117, -0.0103487, -0.443645, 0.63444, -3.13204, -0.0549312, -0.106416, 0.0210615, 0.0278614, -0.0419374, 0.00652291, -0.00119383, -0.0154439
0.129063, 0.108402, -0.774441, -0.917689, -1.45728, -0.62647, 1.07147, -0.256699, 0.00618511, -0.00119203, -0.0188171, -0.0383917, -0.00123171, 0.00194646, 0.00116817, 0.813057, 16.5646, 18.8913, 14.0872, 1.25171, 2.90835, -0.0356336, -1.75789e-05, 0.000148544, -0.0011843, -0.00387764, -0.00519815, 0.000888005, 0.0150223, -0.0290087, 0.0272052, 0.0520601, 0.0412996, 0.175466, -0.0102438, -0.443483, 0.633244, -3.12777, -0.056011, -0.114275, -0.0103421, -0.443647, 0.634423, -3.13201, -0.0549453, -0.106378, 0.0214005, 0.0282343, -0.0425574, 0.0054978, -0.00162576, -0.0168128
0.130063, 0.108401, -0.774444, -0.917707, -1.45733, -0.626467, 1.07147, -0.256704, 0.0029281, -0.0016299, -0.0197781, -0.0417311, -0.000406041, 0.00159402, -0.00091664, 0.888436, 16.6003, 18.8913, 14.0872, 1.23981, 2.90103, 0.0101428, -3.33439e-05, 0.000176042, -0.00120864, -0.00392649, -0.00533223, 0.000878157, 0.016396, -0.0291081, 0.0266223, 0.0502735, 0.0429111, 0.178079, -0.0102223, -0.443454, 0.633201, -3.12768, -0.0560231, -0.114436, -0.0103372, -0.443647, 0.634403, -3.13197, -0.0549719, -0.106333, 0.0217418, 0.0286079, -0.0431802, 0.00451373, -0.00139524, -0.018123
0.131063, 0.108407, -0.774445, -0.917721, -1.45738, -0.626469, 1.07148, -0.256706, 0.00321324, -0.0010866, -0.0170128, -0.0423447, -0.000968146, 0.00213268, -0.00132317, 0.85273, 16.6003, 18.8556, 14.0118, 1.25812, 2.87265, 0.0293689, -4.55155e-05, 0.000204397, -0.00123616, -0.00398507, -0.00546983, 0.000864918, 0.015445, -0.0290422, 0.0279328, 0.0536322, 0.0441862, 0.18334, -0.0102004, -0.443425, 0.633158, -3.12758, -0.0560353, -0.114599, -0.0103285, -0.443647, 0.634385, -3.13194, -0.0550037, -0.106284, 0.0220854, 0.0289822, -0.0438058, 0.00570493, -0.000940635, -0.0173759
0.132063, 0.1084, -0.774452, -0.917742, -1.45743, -0.626469, 1.07148, -0.256702, -0.000136833, -0.00239484, -0.0165324, -0.0476809, -0.000659893, 0.0105364, 0.00128803, 0.963814, 16.6718, 18.8913, 14.0118, 1.25812, 2.87997, -0.0292249, -6.63067e-05, 0.000232805, -0.0012599, -0.00403247, -0.0056079, 0.000869899, 0.0154198, -0.0304044, 0.0278966, 0.0594142, 0.0421398, 0.183092, -0.0101781, -0.443396, 0.633114, -3.12748, -0.0560478, -0.114764, -0.0103278, -0.443647, 0.634363, -3.1319, -0.0550078, -0.106237, 0.0224314, 0.029357, -0.0444342, 0.00612552, -0.0019284, -0.018057
0.133063, 0.108405, -0.774452, -0.917757, -1.45749, -0.626468, 1.07148, -0.256706, 0.000983594, -0.00076134, -0.0173142, -0.051345, -0.000213417, 0.00835841, -0.0010741, 0.928108, 16.636, 18.8556, 14.0118, 1.25171, 2.86532, 0.0229602, -7.70522e-05, 0.000260628, -0.00128537, -0.00408524, -0.00575439, 0.000849563, 0.01438, -0.0302316, 0.0270466, 0.0560059, 0.0472735, 0.190488, -0.0101555, -0.443367, 0.633069, -3.12738, -0.0560605, -0.114932, -0.0103169, -0.443646, 0.634343, -3.13186, -0.0550514, -0.106179, 0.0227796, 0.0297325, -0.0450654, 0.00756349, -0.00133527, -0.0194623
0.134063, 0.108407, -0.774458, -0.917773, -1.45754, -0.62647, 1.07148, -0.256696, 0.00176345, -0.00134278, -0.016001, -0.0525443, -0.000625131, 0.00616595, 0.00220006, 0.888436, 16.6718, 18.8556, 13.9365, 1.26453, 2.86532, -0.0557752, -9.33675e-05, 0.000289419, -0.00131203, -0.00413982, -0.00589696, 0.000850699, 0.014168, -0.0299386, 0.0274786, 0.0555791, 0.0491426, 0.19185, -0.0101325, -0.443337, 0.633024, -3.12728, -0.0560735, -0.115102, -0.0103112, -0.443646, 0.634322, -3.13183, -0.0550617, -0.10613, 0.0231301, 0.0301084, -0.0456993, 0.00808067, -0.00066727, -0.0196514
0.135063, 0.108407, -0.774464, -0.917791, -1.4576, -0.62647, 1.07148, -0.256701, -0.0010053, -0.00505365, -0.0178011, -0.0543864, -0.000422855, 0.00533579, -0.000228714, 0.85273, 16.7114, 18.8556, 13.9008, 1.26453, 2.84427, -0.00999879, -0.000109388, 0.000318717, -0.00133682, -0.00419173, -0.00604332, 0.000836224, 0.017085, -0.0303652, 0.0269592, 0.053697, 0.0472834, 0.193648, -0.0101092, -0.443306, 0.632978, -3.12717, -0.0560866, -0.115274, -0.0103048, -0.443646, 0.634299, -3.13179, -0.0550967, -0.106077, 0.0234829, 0.0304849, -0.0463358, 0.00557725, -0.000816198, -0.0210304
0.136063, 0.108401, -0.774464, -0.91781, -1.45766, -0.626469, 1.07148, -0.256699, -0.00166692, -0.00271028, -0.0141972, -0.0567474, -4.91207e-05, 0.00470494, 0.000559601, 0.888436, 16.6718, 18.8913, 13.9008, 1.25812, 2.82229, -0.0292249, -0.000125347, 0.000347866, -0.00136047, -0.00424135, -0.00620026, 0.000831715, 0.0153246, -0.029646, 0.0279755, 0.0554139, 0.0513418, 0.19879, -0.0100856, -0.443276, 0.632931, -3.12707, -0.0561, -0.115449, -0.0102979, -0.443646, 0.634275, -3.13174, -0.0551167, -0.10601, 0.0238379, 0.0308619, -0.046975, 0.00758361, 0.000325554, -0.0205234
0.137063, 0.108405, -0.774467, -0.917824, -1.45773, -0.62647, 1.07149, -0.256703, 0.000530838, -0.00117354, -0.0126434, -0.0605941, -0.000273538, 0.00389572, -0.001085, 0.813057, 16.636, 18.8556, 13.8611, 1.26453, 2.80856, 0.0101428, -0.000136502, 0.000376563, -0.00138569, -0.00429442, -0.00635815, 0.000807183, 0.0130404, -0.0293643, 0.0278235, 0.0548219, 0.0562326, 0.208139, -0.0100616, -0.443245, 0.632884, -3.12696, -0.0561137, -0.115626, -0.0102859, -0.443644, 0.634251, -3.1317, -0.0551678, -0.105944, 0.0241952, 0.0312393, -0.0476168, 0.0102157, 0.00106444, -0.0211497
0.138063, 0.108402, -0.774473, -0.917843, -1.4578, -0.62647, 1.07149, -0.256699, -0.00066497, -0.000933787, -0.0103459, -0.0644928, -0.000184933, 0.00332752, 0.000734732, 0.85273, 16.636, 18.8913, 13.8611, 1.26453, 2.79391, -0.0292249, -0.000152052, 0.00040657, -0.00140879, -0.00434508, -0.0065163, 0.000799143, 0.0123137, -0.0288822, 0.0279527, 0.0549095, 0.0594385, 0.211396, -0.0100372, -0.443213, 0.632836, -3.12686, -0.0561275, -0.115806, -0.0102778, -0.443644, 0.634225, -3.13166, -0.0551937, -0.10588, 0.0245547, 0.0316171, -0.0482612, 0.0112699, 0.00194508, -0.0216109
0.139063, 0.1084, -0.774479, -0.917856, -1.45787, -0.62647, 1.07149, -0.256697, -0.00365379, -0.00702574, -0.00994226, -0.0665071, -0.00032867, 0.0026305, 0.000964539, 0.85273, 16.636, 18.8556, 13.8254, 1.27002, 2.78659, -0.0420422, -0.000167502, 0.000435154, -0.00143455, -0.00439723, -0.00667673, 0.000785727, 0.0153654, -0.0289813, 0.0279502, 0.0544854, 0.0554179, 0.211965, -0.0100124, -0.443182, 0.632787, -3.12675, -0.0561417, -0.115988, -0.0102695, -0.443642, 0.634201, -3.13161, -0.0552282, -0.105814, 0.0249165, 0.0319953, -0.0489081, 0.00859125, 0.00211331, -0.0224926
0.140063, 0.108392, -0.774488, -0.917874, -1.45794, -0.62647, 1.07149, -0.256703, -0.00451206, -0.00529314, -0.01121, -0.0687724, -0.000220561, 0.00236796, -0.00105239, 0.928108, 16.636, 18.8913, 13.8254, 1.27002, 2.77286, 0.00373412, -0.000186471, 0.000464869, -0.0014579, -0.0044456, -0.0068395, 0.000772024, 0.0154932, -0.0293217, 0.0276481, 0.0535217, 0.0590555, 0.215863, -0.00998734, -0.443149, 0.632738, -3.12664, -0.056156, -0.116172, -0.0102641, -0.44364, 0.634173, -3.13156, -0.0552635, -0.105748, 0.0252805, 0.0323738, -0.0495576, 0.00885995, 0.0021482, -0.0234616
0.141063, 0.108394, -0.774499, -0.917888, -1.45802, -0.62647, 1.07149, -0.256703, -0.00231474, -0.0110614, -0.0135115, -0.0736334, 5.5324e-05, 0.00220042, 0.000281748, 0.888436, 16.6718, 18.8556, 13.8254, 1.26453, 2.75821, -0.0228162, -0.00020028, 0.00049425, -0.00148258, -0.00449707, -0.00700053, 0.000748563, 0.0163087, -0.0299509, 0.0259037, 0.0496952, 0.0567987, 0.220114, -0.00996188, -0.443117, 0.632688, -3.12652, -0.0561706, -0.116359, -0.0102534, -0.443638, 0.634146, -3.13151, -0.0553141, -0.105687, 0.0256467, 0.0327526, -0.0502094, 0.0085628, 0.0018904, -0.0259259
0.142063, 0.108389, -0.774501, -0.917906, -1.45809, -0.626471, 1.07149, -0.256702, -0.00264722, -0.00798509, -0.0160569, -0.0755432, -0.000404741, 0.000983847, -0.000286886, 0.928108, 16.525, 18.8556, 13.75, 1.27643, 2.77286, -0.00999879, -0.000217586, 0.000524424, -0.00150847, -0.00454901, -0.00717355, 0.000740262, 0.0165, -0.0304379, 0.0253031, 0.0476072, 0.0625196, 0.221667, -0.00993605, -0.443084, 0.632638, -3.12641, -0.0561854, -0.116548, -0.0102458, -0.443636, 0.63412, -3.13146, -0.0553416, -0.105609, 0.0260151, 0.0331317, -0.0508638, 0.00880024, 0.00178158, -0.0272042
0.143063, 0.108386, -0.774516, -0.917915, -1.45817, -0.626467, 1.07149, -0.256701, -0.00189684, -0.0102705, -0.0131889, -0.0756575, -3.30794e-05, 0.000971742, 4.61015e-05, 0.928108, 16.5646, 18.7803, 13.75, 1.27002, 2.76553, -0.0164075, -0.000231893, 0.00055342, -0.00153447, -0.00460386, -0.00733357, 0.000716174, 0.0161715, -0.0302523, 0.0266625, 0.0502231, 0.0602571, 0.227044, -0.00990985, -0.44305, 0.632586, -3.1263, -0.0562005, -0.11674, -0.0102349, -0.443633, 0.634093, -3.13142, -0.0553935, -0.105554, 0.0263857, 0.0335111, -0.0515205, 0.00938805, 0.00233618, -0.0264843
0.144063, 0.10838, -0.774529, -0.917929, -1.45825, -0.626465, 1.0715, -0.256704, -0.0053459, -0.00779007, -0.0130464, -0.0757834, 0.000180939, 0.000952528, -0.00118997, 0.963814, 16.5646, 18.7803, 13.75, 1.26453, 2.75821, 0.0165515, -0.000249107, 0.000583367, -0.00156025, -0.00465732, -0.00750014, 0.000694718, 0.0171627, -0.0303961, 0.0275581, 0.0517824, 0.0629676, 0.227642, -0.00988328, -0.443017, 0.632535, -3.12618, -0.0562158, -0.116934, -0.0102265, -0.44363, 0.634065, -3.13137, -0.0554418, -0.105492, 0.0267585, 0.0338906, -0.0521796, 0.00870886, 0.00252132, -0.0263318
0.145063, 0.108381, -0.774541, -0.917949, -1.45833, -0.626469, 1.07149, -0.256698, -0.00306524, -0.00497266, -0.0175246, -0.0746919, -8.31678e-05, 0.000660093, 0.00113947, 0.928108, 16.525, 18.8556, 13.7143, 1.27002, 2.75821, -0.0356336, -0.000267238, 0.00061497, -0.00158428, -0.00470562, -0.00767517, 0.000683723, 0.017391, -0.0316622, 0.027327, 0.0506544, 0.0659711, 0.226019, -0.00985633, -0.442983, 0.632482, -3.12606, -0.0562314, -0.11713, -0.0102184, -0.443629, 0.634035, -3.13131, -0.0554744, -0.105418, 0.0271335, 0.0342704, -0.052841, 0.00891688, 0.00162796, -0.0272611
0.146063, 0.10838, -0.774554, -0.917959, -1.45842, -0.626471, 1.07149, -0.256703, -0.00136787, -0.00609779, -0.0163617, -0.0758485, -0.000293062, 0.000458867, -0.000698417, 0.888436, 16.4893, 18.7446, 13.75, 1.27643, 2.75821, 0.00373412, -0.000281624, 0.000645082, -0.00161011, -0.00476128, -0.00785146, 0.000653207, 0.0167682, -0.0317756, 0.0278878, 0.0516999, 0.0661803, 0.233484, -0.00982901, -0.442948, 0.632429, -3.12594, -0.0562473, -0.117329, -0.0102064, -0.443626, 0.634006, -3.13126, -0.0555373, -0.105346, 0.0275107, 0.0346502, -0.0535047, 0.00987414, 0.00190539, -0.0273261
0.147063, 0.108373, -0.774569, -0.917971, -1.4585, -0.626469, 1.0715, -0.256699, -0.00517395, -0.0101011, -0.014493, -0.0781242, -0.000636377, 0.00137118, 0.000755092, 0.928108, 16.4536, 18.7049, 13.7143, 1.28833, 2.72983, -0.0292249, -0.000299216, 0.000675836, -0.00163697, -0.00481845, -0.0080225, 0.000636122, 0.0189008, -0.0318195, 0.0284858, 0.0537922, 0.0637011, 0.23324, -0.00980131, -0.442913, 0.632375, -3.12582, -0.0562634, -0.117531, -0.0101974, -0.443623, 0.633977, -3.13121, -0.0555795, -0.105284, 0.02789, 0.0350302, -0.0541706, 0.00808218, 0.00215406, -0.027563
0.148063, 0.108373, -0.774588, -0.917988, -1.4586, -0.626466, 1.0715, -0.256705, -0.0052373, -0.0140257, -0.0139399, -0.084744, 0.000253772, 0.000687337, -0.00166674, 0.85273, 16.4536, 18.7049, 13.75, 1.27002, 2.73623, 0.0293689, -0.000315369, 0.000706753, -0.00165901, -0.0048622, -0.0082001, 0.000601396, 0.0188187, -0.0315203, 0.0271186, 0.0504018, 0.0641113, 0.242411, -0.00977323, -0.442878, 0.63232, -3.1257, -0.0562797, -0.117734, -0.0101861, -0.44362, 0.633943, -3.13115, -0.05565, -0.105214, 0.0282715, 0.0354102, -0.0548388, 0.00863408, 0.00285245, -0.029591
0.149063, 0.108367, -0.774601, -0.918, -1.45869, -0.626464, 1.0715, -0.256697, -0.00489204, -0.014356, -0.0128453, -0.0846212, 0.000609882, 0.000974785, 0.00177105, 0.888436, 16.3425, 18.6692, 13.7143, 1.25812, 2.7225, -0.0484509, -0.000333518, 0.000737164, -0.00168662, -0.00491687, -0.00837966, 0.000589476, 0.0186794, -0.0316949, 0.0281747, 0.0524733, 0.0635916, 0.24284, -0.00974476, -0.442843, 0.632265, -3.12558, -0.0562963, -0.117941, -0.0101769, -0.443616, 0.633913, -3.13109, -0.0556849, -0.105144, 0.0286551, 0.0357903, -0.0555092, 0.00908067, 0.00304423, -0.0292063
0.150063, 0.108361, -0.774623, -0.918016, -1.45878, -0.626466, 1.0715, -0.256701, -0.00680061, -0.0165838, -0.0163727, -0.086973, -3.4303e-05, -0.000124087, -0.000243452, 0.888436, 16.3068, 18.7049, 13.7857, 1.27002, 2.74356, -0.00999879, -0.000353235, 0.000768712, -0.00170988, -0.00496516, -0.00856246, 0.000561921, 0.0214447, -0.0324641, 0.0270606, 0.0494282, 0.0644475, 0.243741, -0.00971592, -0.442807, 0.632209, -3.12545, -0.0563132, -0.11815, -0.0101685, -0.443612, 0.633878, -3.13103, -0.0557447, -0.105071, 0.0290408, 0.0361704, -0.0561817, 0.00681966, 0.00257066, -0.0312149
0.151063, 0.10836, -0.774648, -0.918023, -1.45888, -0.626465, 1.0715, -0.256704, -0.00334808, -0.018886, -0.0126506, -0.0937032, -2.29298e-05, 0.000430364, -0.00114565, 0.813057, 16.3068, 18.5938, 13.8254, 1.27002, 2.72983, 0.0165515, -0.000369121, 0.000799486, -0.00173638, -0.00502156, -0.00874052, 0.000524297, 0.0183146, -0.0319217, 0.0266101, 0.0493581, 0.0664903, 0.256975, -0.00968668, -0.44277, 0.632153, -3.12533, -0.0563304, -0.118361, -0.0101562, -0.443608, 0.633846, -3.13097, -0.0558201, -0.105008, 0.0294287, 0.0365505, -0.0568564, 0.0103379, 0.00360712, -0.0321018
0.152063, 0.108351, -0.774668, -0.918044, -1.45898, -0.626465, 1.07149, -0.256699, -0.00679725, -0.0212019, -0.0145433, -0.094206, -1.53324e-05, -0.00021837, 0.000931657, 0.85273, 16.1957, 18.6692, 13.7857, 1.27002, 2.74356, -0.0292249, -0.000393106, 0.000831892, -0.00176048, -0.00506725, -0.00892762, 0.000515045, 0.0214663, -0.0324533, 0.0266159, 0.048628, 0.0652411, 0.25288, -0.00965706, -0.442734, 0.632096, -3.1252, -0.0563478, -0.118575, -0.0101513, -0.443605, 0.633811, -3.1309, -0.0558521, -0.104933, 0.0298187, 0.0369305, -0.0575331, 0.00760344, 0.00334072, -0.0330253
0.153063, 0.108355, -0.774696, -0.918055, -1.45908, -0.626465, 1.07149, -0.256703, -0.00243213, -0.0257465, -0.0128854, -0.0956561, 0.000193195, 0.000128198, 0.0041342, 0.737679, 16.1957, 18.6295, 13.7857, 1.26453, 2.73623, 0.00373412, -0.00040933, 0.000863582, -0.001786, -0.00511933, -0.00910864, 0.000473365, 0.0203545, -0.0326479, 0.0270823, 0.0497122, 0.0616565, 0.258767, -0.00962704, -0.442696, 0.632038, -3.12507, -0.0563654, -0.118791, -0.0101385, -0.443601, 0.633777, -3.13084, -0.0559346, -0.104871, 0.0302108, 0.0373105, -0.0582119, 0.0090723, 0.00355527, -0.0331641
0.154063, 0.108344, -0.774722, -0.918061, -1.45918, -0.626463, 1.07149, -0.256697, -0.00616681, -0.0271773, -0.0101782, -0.0987391, 0.000603488, 8.73479e-05, 0.00484603, 0.777352, 16.1203, 18.5184, 13.8611, 1.25171, 2.73623, -0.0420422, -0.000428156, 0.000893577, -0.0018125, -0.00517366, -0.00929736, 0.000447167, 0.0212036, -0.032162, 0.0276891, 0.0509314, 0.0621688, 0.260788, -0.00959664, -0.442659, 0.631979, -3.12494, -0.0563834, -0.11901, -0.010128, -0.443595, 0.633743, -3.13078, -0.0559932, -0.104799, 0.0306049, 0.0376903, -0.0588927, 0.00855372, 0.00437782, -0.0333058
0.155063, 0.108345, -0.774748, -0.918076, -1.45929, -0.626461, 1.0715, -0.256705, -0.00201734, -0.0275436, -0.014715, -0.102171, 0.000164947, 0.000839538, 0.00111905, 0.6623, 16.0092, 18.5581, 13.8611, 1.25812, 2.71518, 0.0229602, -0.000444813, 0.00092651, -0.00183614, -0.00522257, -0.00948685, 0.000403676, 0.0206053, -0.0334903, 0.0259972, 0.0478401, 0.0646213, 0.26936, -0.00956583, -0.442621, 0.63192, -3.12481, -0.0564016, -0.119232, -0.0101146, -0.443591, 0.633705, -3.13071, -0.0560793, -0.104729, 0.0310012, 0.03807, -0.0595756, 0.0097201, 0.00347389, -0.0356538
0.156063, 0.108339, -0.774777, -0.918089, -1.45941, -0.62646, 1.07149, -0.256694, -0.00494262, -0.0280069, -0.0170061, -0.108743, 0.00010995, 1.8216e-05, 0.00361279, 0.6623, 15.9021, 18.5581, 13.9008, 1.25812, 2.72983, -0.0484509, -0.000464122, 0.000957983, -0.00185829, -0.00526712, -0.00968349, 0.000380195, 0.0218845, -0.0336759, 0.0240694, 0.0434393, 0.0693471, 0.268153, -0.00953463, -0.442583, 0.63186, -3.12467, -0.0564201, -0.119456, -0.0101034, -0.443585, 0.633665, -3.13064, -0.0561349, -0.104649, 0.0313996, 0.0384495, -0.0602603, 0.00899442, 0.003649, -0.0383683
0.157063, 0.108336, -0.77481, -0.918097, -1.45953, -0.626463, 1.07149, -0.256703, -0.00213035, -0.0300068, -0.0118965, -0.113654, 7.32894e-05, 0.000284206, 0.000167451, 0.586922, 15.8624, 18.5184, 13.9365, 1.25812, 2.7225, 0.0165515, -0.000482406, 0.000989912, -0.00188267, -0.00531965, -0.00987954, 0.000331351, 0.018922, -0.0329003, 0.0245854, 0.0451201, 0.0706528, 0.283438, -0.00950303, -0.442544, 0.6318, -3.12454, -0.0564389, -0.119682, -0.010091, -0.44358, 0.633627, -3.13057, -0.0562298, -0.104574, 0.0318, 0.0388288, -0.060947, 0.0122764, 0.00489725, -0.038311
0.158063, 0.108336, -0.77481, -0.918097, -1.45953, -0.626463, 1.07149, -0.256703, -0.00213035, -0.0300068, -0.0118965, -0.113654, 7.32894e-05, 0.000284206, 0.000167451, 0.586922, 15.8624, 18.5184, 13.9365, 1.25812, 2.7225, 0.0165515, -0.00051069, 0.00102669, -0.00194703, -0.00544464, -0.0100314, 0.000341514, 0.0192802, -0.0332521, 0.0253156, 0.0463735, 0.071032, 0.28608, -0.00947103, -0.442505, 0.631738, -3.1244, -0.0564579, -0.119911, -0.010091, -0.44358, 0.633627, -3.13057, -0.0562298, -0.104574, 0.0322025, 0.0392079, -0.0616356, 0.0122764, 0.00489725, -0.038311
0.159063, 0.108315, -0.774875, -0.918111, -1.45976, -0.626456, 1.0715, -0.256699, -0.00472499, -0.0310437, -0.00899232, -0.112051, 0.00123066, 0.000308002, 0.000160824, 0.586922, 15.7156, 18.4827, 13.9008, 1.2215, 2.71518, -0.00267457, -0.000524354, 0.00105286, -0.00193599, -0.00542725, -0.0102646, 0.000267055, 0.0202598, -0.032954, 0.0274075, 0.0500255, 0.0683145, 0.288105, -0.00943863, -0.442466, 0.631676, -3.12426, -0.0564773, -0.120143, -0.0100706, -0.443567, 0.633552, -3.13043, -0.0563685, -0.104441, 0.032607, 0.0395867, -0.062326, 0.011531, 0.00550246, -0.0369949
0.160063, 0.108305, -0.774913, -0.918113, -1.45989, -0.626452, 1.07149, -0.256694, -0.00594567, -0.0331755, -0.0080478, -0.116264, 0.00105779, 0.000476937, 0.00139813, 0.551216, 15.7156, 18.4073, 13.9365, 1.21509, 2.70785, -0.0356336, -0.000543396, 0.00108267, -0.00196112, -0.00547663, -0.0104624, 0.000226748, 0.0206532, -0.0329254, 0.0270958, 0.049697, 0.0693229, 0.291104, -0.00940582, -0.442426, 0.631614, -3.12412, -0.0564969, -0.120377, -0.0100579, -0.443558, 0.633512, -3.13036, -0.0564512, -0.104371, 0.0330136, 0.0399652, -0.0630183, 0.0115652, 0.0058969, -0.0380355
0.161063, 0.1083, -0.774948, -0.91812, -1.46001, -0.626452, 1.07149, -0.256703, -0.0059957, -0.0352096, -0.00626592, -0.117667, 0.000264383, 4.69422e-05, -0.0011854, 0.475838, 15.6046, 18.4073, 13.9008, 1.22699, 2.71518, 0.0229602, -0.000562534, 0.00111453, -0.00198648, -0.00552793, -0.0106671, 0.00017494, 0.0209922, -0.032895, 0.0277982, 0.0511471, 0.0693576, 0.298003, -0.0093726, -0.442386, 0.63155, -3.12398, -0.0565168, -0.120614, -0.0100448, -0.443552, 0.633472, -3.13028, -0.0565521, -0.104292, 0.0334222, 0.0403434, -0.0637123, 0.0115779, 0.00627825, -0.038063
0.162063, 0.108286, -0.774993, -0.918119, -1.46014, -0.626451, 1.07149, -0.256698, -0.00696537, -0.0402969, -0.00308958, -0.121866, 0.000176253, 0.000302751, 0.00141937, 0.436165, 15.6442, 18.332, 13.8611, 1.22699, 2.70785, -0.0356336, -0.000584112, 0.00114577, -0.00201305, -0.00558611, -0.0108645, 0.000136877, 0.0214279, -0.032509, 0.0280198, 0.0520805, 0.0672108, 0.301652, -0.00933897, -0.442345, 0.631486, -3.12384, -0.056537, -0.120853, -0.0100338, -0.443544, 0.633432, -3.13021, -0.0566316, -0.104228, 0.0338328, 0.0407212, -0.0644081, 0.0115199, 0.00701883, -0.0385744
0.163063, 0.108274, -0.775031, -0.918123, -1.46028, -0.626447, 1.07149, -0.256694, -0.00859349, -0.0412195, -0.00256638, -0.129818, 0.000558309, -6.92922e-05, 0.00121322, 0.436165, 15.5688, 18.332, 13.9008, 1.21509, 2.71518, -0.0420422, -0.000602276, 0.00117568, -0.00203491, -0.00562852, -0.011078, 9.05829e-05, 0.0209603, -0.0321331, 0.0264527, 0.0487844, 0.0717464, 0.307545, -0.00930493, -0.442304, 0.631421, -3.1237, -0.0565575, -0.121095, -0.0100188, -0.443534, 0.633387, -3.13013, -0.0567251, -0.10414, 0.0342455, 0.0410986, -0.0651057, 0.012502, 0.00781036, -0.0408008
0.164063, 0.108264, -0.775078, -0.918127, -1.46042, -0.626446, 1.07149, -0.256704, -0.00891841, -0.0406006, -0.00301893, -0.134113, 0.000134846, 0.000496446, -0.00157647, 0.400459, 15.5688, 18.3716, 13.9008, 1.2215, 2.70053, 0.0229602, -0.000623939, 0.00120773, -0.00205889, -0.00567916, -0.0112835, 3.42712e-05, 0.0205743, -0.0324315, 0.0258306, 0.0480805, 0.0756362, 0.314331, -0.00927048, -0.442263, 0.631356, -3.12355, -0.0565783, -0.121339, -0.0100068, -0.443526, 0.633343, -3.13005, -0.056834, -0.104068, 0.0346601, 0.0414756, -0.0658049, 0.0133571, 0.00790942, -0.0421023
0.165063, 0.10825, -0.775118, -0.918127, -1.46057, -0.626445, 1.07149, -0.256698, -0.0100181, -0.0411821, -0.00313283, -0.135187, 0.00512644, 0.00083967, -8.48814e-05, 0.400459, 15.4935, 18.4073, 13.9008, 1.21509, 2.6868, -0.00267457, -0.000643767, 0.00123887, -0.00208319, -0.00573092, -0.0114999, -7.88033e-06, 0.0204095, -0.0322057, 0.0262465, 0.0467923, 0.0722095, 0.317281, -0.00923561, -0.442221, 0.63129, -3.1234, -0.0565994, -0.121587, -0.00999276, -0.443517, 0.633299, -3.12997, -0.0569214, -0.103982, 0.0350768, 0.0418522, -0.0665058, 0.0138943, 0.00850684, -0.0423806
0.166063, 0.108231, -0.775162, -0.918125, -1.46071, -0.626443, 1.07149, -0.2567, -0.0116068, -0.0429383, 0.00351464, -0.137313, 0.0035802, 0.000322481, -0.000993528, 0.436165, 15.4578, 18.4073, 13.8254, 1.2215, 2.6932, 0.0229602, -0.000665356, 0.00126906, -0.0021087, -0.00578312, -0.0117139, -5.78257e-05, 0.0197832, -0.0312012, 0.0281586, 0.051379, 0.0733991, 0.32472, -0.00920033, -0.442179, 0.631223, -3.12326, -0.0566208, -0.121836, -0.00998015, -0.443507, 0.633255, -3.12989, -0.0570211, -0.103902, 0.0354954, 0.0422282, -0.0672083, 0.0147484, 0.00987292, -0.0411221
0.167063, 0.108223, -0.77521, -0.918116, -1.46086, -0.626443, 1.07149, -0.25669, -0.00926418, -0.0458564, 0.00443077, -0.143878, 0.00336491, 0.000215032, 0.00151716, 0.325081, 15.4935, 18.332, 13.8254, 1.20318, 2.6932, -0.0356336, -0.00068109, 0.00129885, -0.00213393, -0.00583716, -0.0119324, -0.000112257, 0.0184208, -0.0310944, 0.0269561, 0.0491968, 0.0753938, 0.331198, -0.00916462, -0.442137, 0.631155, -3.12311, -0.0566425, -0.122088, -0.00996129, -0.443495, 0.633211, -3.12982, -0.0571281, -0.103818, 0.0359161, 0.0426038, -0.0679124, 0.0166123, 0.01042, -0.0429247
0.168063, 0.108203, -0.775255, -0.918119, -1.46103, -0.626441, 1.07149, -0.2567, -0.0142659, -0.0439561, 0.00143394, -0.146062, 0.00226479, 0.000652014, -0.00138903, 0.360787, 15.4935, 18.4073, 13.8611, 1.20868, 2.67947, 0.0293689, -0.000702647, 0.00133007, -0.00215467, -0.00588184, -0.0121601, -0.000171151, 0.0211228, -0.0319166, 0.0264713, 0.0486614, 0.0798307, 0.330106, -0.00912849, -0.442094, 0.631087, -3.12296, -0.0566645, -0.122343, -0.00994741, -0.443485, 0.633161, -3.12973, -0.0572429, -0.103722, 0.0363387, 0.0429789, -0.068618, 0.0144076, 0.00988161, -0.0443452
0.169063, 0.108192, -0.7753, -0.91811, -1.46119, -0.62644, 1.07149, -0.256694, -0.0143715, -0.0447795, 0.00290169, -0.156512, 0.00167858, 0.000705969, 0.00124939, 0.245735, 15.4578, 18.332, 13.9008, 1.20868, 2.67215, -0.0292249, -0.000716746, 0.00135907, -0.00217773, -0.00592984, -0.0123941, -0.000233412, 0.0192939, -0.0314245, 0.0244013, 0.0452923, 0.0866061, 0.336233, -0.00909194, -0.442051, 0.631018, -3.1228, -0.0566868, -0.122601, -0.00992596, -0.443472, 0.633113, -3.12964, -0.0573632, -0.103618, 0.0367632, 0.0433533, -0.0693252, 0.0167943, 0.0108448, -0.0469732
0.170063, 0.108173, -0.77535, -0.918104, -1.46136, -0.626436, 1.07149, -0.256702, -0.0141965, -0.04635, 0.00290655, -0.157578, 0.00144904, 0.000741932, -0.00184188, 0.245735, 15.4578, 18.2963, 14.0118, 1.20318, 2.66482, 0.0431018, -0.000735753, 0.00138862, -0.00219988, -0.00597575, -0.0126235, -0.000302654, 0.0198938, -0.0317678, 0.0247736, 0.0459592, 0.0863366, 0.342655, -0.00905497, -0.442007, 0.630949, -3.12265, -0.0567094, -0.122861, -0.00990888, -0.443459, 0.633063, -3.12955, -0.0574948, -0.103525, 0.0371897, 0.0437272, -0.0700339, 0.0166036, 0.0108441, -0.0473712
0.171063, 0.108151, -0.775396, -0.918106, -1.46152, -0.626437, 1.07149, -0.256698, -0.0180542, -0.0496476, 0.00120514, -0.156953, 0.000382766, 0.000765903, 0.000233105, 0.285408, 15.4221, 18.332, 13.9365, 1.2215, 2.6575, 0.00373412, -0.000760823, 0.00142113, -0.00222463, -0.0060282, -0.0128546, -0.000342613, 0.0238621, -0.0325727, 0.0252732, 0.0470398, 0.0838895, 0.337342, -0.00901756, -0.441964, 0.630878, -3.12249, -0.0567323, -0.123123, -0.00989752, -0.44345, 0.633015, -3.12947, -0.0575809, -0.103431, 0.0376182, 0.0441005, -0.0707441, 0.0130661, 0.0102591, -0.047917
0.172063, 0.108151, -0.775396, -0.918106, -1.46152, -0.626437, 1.07149, -0.256698, -0.0180542, -0.0496476, 0.00120514, -0.156953, 0.000382766, 0.000765903, 0.000233105, 0.285408, 15.4221, 18.332, 13.9365, 1.2215, 2.6575, 0.00373412, -0.000794088, 0.0014626, -0.0022996, -0.00617184, -0.0130308, -0.000329908, 0.0242438, -0.0329146, 0.0260318, 0.0483054, 0.0843134, 0.340062, -0.00897973, -0.441919, 0.630807, -3.12233, -0.0567555, -0.123389, -0.00989752, -0.44345, 0.633015, -3.12947, -0.0575809, -0.103431, 0.0380486, 0.0444731, -0.0714557, 0.0130661, 0.0102591, -0.047917
0.173063, 0.108151, -0.775396, -0.918106, -1.46152, -0.626437, 1.07149, -0.256698, -0.0180542, -0.0496476, 0.00120514, -0.156953, 0.000382766, 0.000765903, 0.000233105, 0.285408, 15.4221, 18.332, 13.9365, 1.2215, 2.6575, 0.00373412, -0.00082771, 0.00150439, -0.00237534, -0.00631682, -0.0132087, -0.000317019, 0.0246269, -0.0332555, 0.0267923, 0.0495713, 0.0847403, 0.342787, -0.00894147, -0.441875, 0.630735, -3.12218, -0.056779, -0.123657, -0.00989752, -0.44345, 0.633015, -3.12947, -0.0575809, -0.103431, 0.0384809, 0.044845, -0.0721687, 0.0130661, 0.0102591, -0.047917
0.174063, 0.108151, -0.775396, -0.918106, -1.46152, -0.626437, 1.07149, -0.256698, -0.0180542, -0.0496476, 0.00120514, -0.156953, 0.000382766, 0.000765903, 0.000233105, 0.285408, 15.4221, 18.332, 13.9365, 1.2215, 2.6575, 0.00373412, -0.00086169, 0.0015465, -0.00245186, -0.00646314, -0.0133884, -0.000303945, 0.0250115, -0.0335954, 0.0275546, 0.0508375, 0.0851702, 0.345517, -0.00890277, -0.44183, 0.630663, -3.12202, -0.0568029, -0.123927, -0.00989752, -0.44345, 0.633015, -3.12947, -0.0575809, -0.103431, 0.0389151, 0.0452163, -0.0728831, 0.0130661, 0.0102591, -0.047917
0.175063, 0.108085, -0.775594, -0.918086, -1.46221, -0.626423, 1.07149, -0.256696, -0.0148592, -0.0545017, 0.00579952, -0.169999, 0.00612023, 0.000764168, -0.000724396, -0.0557783, 15.311, 18.2209, 14.1229, 1.17847, 2.65018, 0.0293689, -0.000834047, 0.00154324, -0.00231464, -0.0062131, -0.0138182, -0.00060166, 0.0201862, -0.0317476, 0.0252926, 0.044637, 0.0848646, 0.365311, -0.00886363, -0.441784, 0.630589, -3.12185, -0.0568271, -0.1242, -0.0098205, -0.443398, 0.632806, -3.12909, -0.0580847, -0.103023, 0.0393512, 0.0455868, -0.0735988, 0.018416, 0.0126848, -0.0504843
0.176063, 0.108062, -0.775653, -0.918081, -1.46239, -0.626422, 1.07149, -0.256692, -0.0178829, -0.0553634, 0.00425908, -0.170021, 0.00449945, 0.000746808, 0.000975835, -0.0557783, 15.3864, 18.2209, 14.0872, 1.17847, 2.64377, -0.00999879, -0.000858539, 0.00157469, -0.0023382, -0.00626253, -0.0140577, -0.000655969, 0.0229849, -0.0324995, 0.0257008, 0.0457876, 0.0857304, 0.361399, -0.00882406, -0.441738, 0.630515, -3.12169, -0.0568516, -0.124476, -0.00980639, -0.443385, 0.632753, -3.12899, -0.0581952, -0.10293, 0.0397893, 0.0459565, -0.0743159, 0.0160581, 0.0121918, -0.0510385
0.177063, 0.10804, -0.775704, -0.918067, -1.46258, -0.626418, 1.07149, -0.256698, -0.0191874, -0.0531046, 0.0057324, -0.177654, 0.00355147, 0.000260515, -0.00033226, -0.0914839, 15.3467, 18.1098, 14.0872, 1.17206, 2.65018, 0.0165515, -0.000875882, 0.00160366, -0.00236261, -0.00631257, -0.0143093, -0.000733622, 0.0214725, -0.0320123, 0.0246084, 0.0439813, 0.0943173, 0.36868, -0.00878406, -0.441692, 0.630441, -3.12153, -0.0568764, -0.124755, -0.00978489, -0.44337, 0.6327, -3.1289, -0.0583424, -0.102821, 0.0402292, 0.0463255, -0.0750342, 0.0180699, 0.0131177, -0.0527264
0.178063, 0.108019, -0.775756, -0.918064, -1.46277, -0.626415, 1.07149, -0.256692, -0.0199626, -0.0517159, 0.00517961, -0.183517, 0.00328167, 0.000173679, 0.000999592, -0.131157, 15.311, 18.1852, 14.0872, 1.15375, 2.65018, -0.0164075, -0.000895284, 0.00163502, -0.00238295, -0.00635482, -0.014567, -0.000795435, 0.020835, -0.0320548, 0.0234806, 0.041823, 0.100251, 0.371738, -0.00874361, -0.441646, 0.630365, -3.12136, -0.0569015, -0.125036, -0.00976459, -0.443356, 0.632643, -3.1288, -0.0584658, -0.102705, 0.040671, 0.0466936, -0.0757538, 0.0192349, 0.0134831, -0.0545287
0.179063, 0.107995, -0.775817, -0.918052, -1.46297, -0.62641, 1.07148, -0.256697, -0.0215242, -0.056351, 0.00849869, -0.188558, 0.00260203, -0.00015548, -0.00126609, -0.131157, 15.3864, 18.1098, 14.1229, 1.14734, 2.6575, 0.0357776, -0.000916295, 0.00166388, -0.00240472, -0.00639744, -0.0148203, -0.000873544, 0.0213852, -0.0315051, 0.0235001, 0.0421955, 0.0999217, 0.379998, -0.00870271, -0.441599, 0.630289, -3.12119, -0.056927, -0.12532, -0.00974567, -0.443339, 0.632586, -3.12869, -0.0586149, -0.102598, 0.0411146, 0.0470609, -0.0764746, 0.0191055, 0.0143758, -0.0552748
0.180063, 0.107969, -0.775872, -0.918043, -1.46316, -0.626407, 1.07148, -0.256691, -0.0257144, -0.0538424, 0.0084179, -0.1885, 0.00254552, -0.00037492, 0.00108894, -0.131157, 15.3467, 18.1455, 14.1229, 1.12903, 2.66482, -0.0164075, -0.000937833, 0.00169442, -0.00242785, -0.00644404, -0.0150799, -0.000934102, 0.0229445, -0.0316507, 0.0244778, 0.0437932, 0.102953, 0.376076, -0.00866138, -0.441552, 0.630212, -3.12102, -0.0569528, -0.125606, -0.00972689, -0.443324, 0.632529, -3.12859, -0.0587369, -0.102485, 0.0415602, 0.0474273, -0.0771966, 0.0179218, 0.0145186, -0.0551598
