alisrour97/Franka_experiments/Real_Robot_scripts/servo-franka/Data4/log_dyn_PIw_ki_12.csv
Time,q1,q2,q3,q4,q5,q6,q7,dq1,dq2,dq3,dq4,dq5,dq6,dq7,t1,t2,t3,t4,t5,t6,t7,ex1,ex2,ex3,ex4,ex5,ex6,ev1,ev2,ev3,ev4,ev5,ev6,xd,yd,zd,uxd,uyd,uzd,x,y,z,ux,uy,uz,vxd,vyd,vzd,vx,vy,vz
1.46484e-06, 0.107598, -0.774316, -0.916873, -1.45737, -0.62541, 1.06966, -0.256695, -0.0022144, -0.00110493, -0.0015389, 0.00204458, -0.000680395, 0.000110166, -0.000814076, -0.131157, 16.0846, 21.0138, 17.634, 1.32587, 4.15622, -0.226063, 0.000741508, -0.00167942, 0.000598938, 0.00138507, -0.000983158, 0.00030466, 0.0023539, -0.000489313, 0.0002211, 0.000613274, -0.0019197, -0.0039408, -0.011112, -0.444721, 0.635038, -3.13187, -0.0555627, -0.107532, -0.0103883, -0.443009, 0.634504, -3.13055, -0.0555758, -0.105898, 0, 0, 0, -0.00234455, -0.000573693, 5.58512e-05
0.0121497, 0.107599, -0.774321, -0.916882, -1.45735, -0.625419, 1.06966, -0.256697, 0.000492405, 0.00151348, -0.00291125, 0.00126597, -0.000470706, -8.74038e-05, 0.00117528, -0.131157, 16.0846, 21.1606, 17.6697, 1.34418, 4.16354, -0.232472, 0.000731212, -0.00167571, 0.000595811, 0.00137797, -0.000974194, 0.000323365, 0.000624076, -0.000658076, -0.000405097, -0.000959294, 0.00122758, -0.00376428, -0.011112, -0.444721, 0.635038, -3.13187, -0.0555627, -0.107532, -0.010402, -0.443015, 0.634504, -3.13055, -0.0555383, -0.10592, 1.73063e-06, -1.42215e-06, -3.96181e-06, -0.00056928, -0.000677536, -0.000455023
0.0131497, 0.107599, -0.774321, -0.916882, -1.45735, -0.625419, 1.06966, -0.256697, 0.000492405, 0.00151348, -0.00291125, 0.00126597, -0.000470706, -8.74038e-05, 0.00117528, -0.131157, 16.0846, 21.1606, 17.6697, 1.34418, 4.16354, -0.232472, 0.000731209, -0.00167572, 0.000595802, 0.00137795, -0.000974216, 0.000323372, 0.000628282, -0.000653568, -0.000392955, -0.000935109, 0.00124413, -0.00372078, -0.011112, -0.444721, 0.635038, -3.13187, -0.0555628, -0.107532, -0.010402, -0.443015, 0.634504, -3.13055, -0.0555383, -0.10592, 6.91577e-06, -5.6745e-06, -1.58141e-05, -0.00056928, -0.000677536, -0.000455023
0.0141497, 0.107599, -0.774321, -0.916882, -1.45735, -0.625419, 1.06966, -0.256697, 0.000492405, 0.00151348, -0.00291125, 0.00126597, -0.000470706, -8.74038e-05, 0.00117528, -0.131157, 16.0846, 21.1606, 17.6697, 1.34418, 4.16354, -0.232472, 0.0007312, -0.00167573, 0.000595776, 0.00137789, -0.000974274, 0.000323392, 0.000635285, -0.000646082, -0.000372779, -0.000894946, 0.00127164, -0.0036485, -0.011112, -0.444721, 0.635038, -3.13187, -0.0555628, -0.107532, -0.010402, -0.443015, 0.634504, -3.13055, -0.0555383, -0.10592, 1.55453e-05, -1.2736e-05, -3.55071e-05, -0.00056928, -0.000677536, -0.000455023
0.0151499, 0.107599, -0.774321, -0.916882, -1.45735, -0.625419, 1.06966, -0.256697, 0.000492405, 0.00151348, -0.00291125, 0.00126597, -0.000470706, -8.74038e-05, 0.00117528, -0.131157, 16.0846, 21.1606, 17.6697, 1.34418, 4.16354, -0.232472, 0.000731182, -0.00167574, 0.000595727, 0.00137779, -0.000974388, 0.00032343, 0.000645078, -0.000635639, -0.000344619, -0.000838922, 0.00131003, -0.00354763, -0.011112, -0.444721, 0.635038, -3.13187, -0.0555628, -0.107532, -0.010402, -0.443015, 0.634504, -3.13055, -0.0555383, -0.10592, 2.7609e-05, -2.25855e-05, -6.29913e-05, -0.00056928, -0.000677536, -0.000455023
0.0161499, 0.107599, -0.774321, -0.916882, -1.45735, -0.625419, 1.06966, -0.256697, 0.000492405, 0.00151348, -0.00291125, 0.00126597, -0.000470706, -8.74038e-05, 0.00117528, -0.131157, 16.0846, 21.1606, 17.6697, 1.34418, 4.16354, -0.232472, 0.000731154, -0.00167577, 0.000595645, 0.00137761, -0.000974575, 0.000323493, 0.000657656, -0.000622261, -0.000308525, -0.000767154, 0.00135922, -0.00341835, -0.0111119, -0.444721, 0.635038, -3.13187, -0.0555629, -0.107532, -0.010402, -0.443015, 0.634504, -3.13055, -0.0555383, -0.10592, 4.30968e-05, -3.5202e-05, -9.82172e-05, -0.00056928, -0.000677536, -0.000455023
0.0171499, 0.107599, -0.774321, -0.916882, -1.45735, -0.625419, 1.06966, -0.256697, 0.000492405, 0.00151348, -0.00291125, 0.00126597, -0.000470706, -8.74038e-05, 0.00117528, -0.131157, 16.0846, 21.1606, 17.6697, 1.34418, 4.16354, -0.232472, 0.000731112, -0.00167582, 0.000595524, 0.00137735, -0.000974853, 0.000323586, 0.000673013, -0.00060597, -0.000264547, -0.000679762, 0.00141916, -0.00326084, -0.0111119, -0.444721, 0.635038, -3.13187, -0.0555631, -0.107533, -0.010402, -0.443015, 0.634504, -3.13055, -0.0555383, -0.10592, 6.19987e-05, -5.05647e-05, -0.000141136, -0.00056928, -0.000677536, -0.000455023
0.0181516, 0.107599, -0.774321, -0.916882, -1.45735, -0.625419, 1.06966, -0.256697, 0.000492405, 0.00151348, -0.00291125, 0.00126597, -0.000470706, -8.74038e-05, 0.00117528, -0.131157, 16.0846, 21.1606, 17.6697, 1.34418, 4.16354, -0.232472, 0.000731052, -0.00167588, 0.000595355, 0.00137699, -0.000975241, 0.000323716, 0.000691142, -0.000586786, -0.000212735, -0.000576861, 0.00148976, -0.00307528, -0.0111118, -0.444721, 0.635037, -3.13187, -0.0555633, -0.107533, -0.010402, -0.443015, 0.634504, -3.13055, -0.0555383, -0.10592, 8.43044e-05, -6.86525e-05, -0.000191697, -0.00056928, -0.000677536, -0.000455023
0.0191519, 0.107599, -0.774321, -0.916882, -1.45735, -0.625419, 1.06966, -0.256697, 0.000492405, 0.00151348, -0.00291125, 0.00126597, -0.000470706, -8.74038e-05, 0.00117528, -0.131157, 16.0846, 21.1606, 17.6697, 1.34418, 4.16354, -0.232472, 0.000730974, -0.00167596, 0.00059513, 0.00137652, -0.000975755, 0.000323889, 0.000712039, -0.000564732, -0.000153137, -0.000458568, 0.00157095, -0.00286186, -0.0111117, -0.444721, 0.635037, -3.13187, -0.0555636, -0.107534, -0.010402, -0.443015, 0.634504, -3.13055, -0.0555383, -0.10592, 0.000110004, -8.94448e-05, -0.000249853, -0.00056928, -0.000677536, -0.000455023
0.0201521, 0.107599, -0.774321, -0.916882, -1.45735, -0.625419, 1.06966, -0.256697, 0.000492405, 0.00151348, -0.00291125, 0.00126597, -0.000470706, -8.74038e-05, 0.00117528, -0.131157, 16.0846, 21.1606, 17.6697, 1.34418, 4.16354, -0.232472, 0.000730873, -0.00167607, 0.000594843, 0.0013759, -0.000976415, 0.000324111, 0.000735696, -0.000539828, -8.58037e-05, -0.000325, 0.00166268, -0.00262075, -0.0111116, -0.444721, 0.635037, -3.13187, -0.055564, -0.107535, -0.010402, -0.443015, 0.634504, -3.13055, -0.0555383, -0.10592, 0.000139087, -0.000112921, -0.000315553, -0.00056928, -0.000677536, -0.000455023
0.0211523, 0.107599, -0.774321, -0.916882, -1.45735, -0.625419, 1.06966, -0.256697, 0.000492405, 0.00151348, -0.00291125, 0.00126597, -0.000470706, -8.74038e-05, 0.00117528, -0.131157, 16.0846, 21.1606, 17.6697, 1.34418, 4.16354, -0.232472, 0.000730747, -0.0016762, 0.000594484, 0.00137514, -0.000977237, 0.000324387, 0.000762108, -0.000512097, -1.07838e-05, -0.000176274, 0.00176486, -0.00235213, -0.0111114, -0.444721, 0.635037, -3.13186, -0.0555644, -0.107536, -0.010402, -0.443015, 0.634504, -3.13055, -0.0555383, -0.10592, 0.000171544, -0.000139059, -0.00038875, -0.00056928, -0.000677536, -0.000455023
0.0221523, 0.107599, -0.774321, -0.916882, -1.45735, -0.625419, 1.06966, -0.256697, 0.000492405, 0.00151348, -0.00291125, 0.00126597, -0.000470706, -8.74038e-05, 0.00117528, -0.131157, 16.0846, 21.1606, 17.6697, 1.34418, 4.16354, -0.232472, 0.000730593, -0.00167637, 0.000594048, 0.00137421, -0.000978238, 0.000324723, 0.000791269, -0.000481559, 7.18735e-05, -1.25043e-05, 0.00187743, -0.00205619, -0.0111112, -0.444721, 0.635036, -3.13186, -0.055565, -0.107538, -0.010402, -0.443015, 0.634504, -3.13055, -0.0555383, -0.10592, 0.000207364, -0.00016784, -0.000469394, -0.00056928, -0.000677536, -0.000455023
0.0231523, 0.107599, -0.774321, -0.916882, -1.45735, -0.625419, 1.06966, -0.256697, 0.000492405, 0.00151348, -0.00291125, 0.00126597, -0.000470706, -8.74038e-05, 0.00117528, -0.131157, 16.0846, 21.1606, 17.6697, 1.34418, 4.16354, -0.232472, 0.000730408, -0.00167656, 0.000593525, 0.0013731, -0.000979437, 0.000325126, 0.000823173, -0.000448236, 0.000162119, 0.000166192, 0.00200031, -0.0017331, -0.011111, -0.444722, 0.635036, -3.13186, -0.0555656, -0.10754, -0.010402, -0.443015, 0.634504, -3.13055, -0.0555383, -0.10592, 0.000246538, -0.000199242, -0.000557437, -0.00056928, -0.000677536, -0.000455023
0.0241523, 0.107595, -0.774325, -0.916909, -1.45735, -0.625433, 1.06966, -0.256696, 0.000964529, -0.000420719, -0.00203627, -0.000695458, -0.000593186, -0.000595926, 0.00100111, -0.0914839, 16.16, 21.4225, 17.7054, 1.43024, 4.1846, -0.232472, 0.000716007, -0.00167032, 0.000601454, 0.00138596, -0.000991099, 0.000356986, 0.000626866, -9.7066e-05, -0.000219428, -0.000726642, 0.00179452, 0.000880508, -0.0111107, -0.444722, 0.635035, -3.13186, -0.0555664, -0.107542, -0.0104153, -0.443022, 0.634494, -3.13054, -0.0554901, -0.105903, 0.000289055, -0.000233245, -0.00065283, -0.000317459, -0.000350411, -0.000915403
0.0251523, 0.10759, -0.774319, -0.916914, -1.45735, -0.625433, 1.06966, -0.256704, -0.00112022, 0.00148277, -0.00219264, -0.00138719, -0.000395457, -0.000397284, -0.00201136, -0.0161054, 16.0846, 21.4582, 17.7451, 1.43024, 4.1846, -0.160145, 0.000714444, -0.0016701, 0.000602707, 0.0013887, -0.00100084, 0.000356664, 0.000852514, 3.77102e-05, -0.000218685, -0.000643661, 0.00402756, 0.00251742, -0.0111104, -0.444722, 0.635034, -3.13186, -0.0555673, -0.107544, -0.0104165, -0.443023, 0.634492, -3.13053, -0.0554917, -0.10589, 0.000334905, -0.000269828, -0.000755525, -0.000501444, -0.00026025, -0.00103203
0.0261523, 0.107586, -0.774328, -0.916913, -1.45735, -0.625431, 1.06966, -0.256697, -0.00158203, -0.00294624, -0.00436644, -0.00619249, -0.00404694, -0.00842765, -0.000357563, 0.0196001, 16.1203, 21.3114, 17.7054, 1.40552, 4.14889, -0.186696, 0.000711217, -0.00167094, 0.000602877, 0.00138938, -0.000994, 0.000363991, 0.00371125, 0.000915764, -0.00304316, -0.0101179, 0.00980616, -0.000123596, -0.0111101, -0.444722, 0.635033, -3.13186, -0.0555684, -0.107547, -0.0104193, -0.443022, 0.634491, -3.13053, -0.0554813, -0.105903, 0.000384079, -0.000308971, -0.000865474, -0.00314049, 0.00050183, -0.00415072
0.0271523, 0.10759, -0.774321, -0.916923, -1.45736, -0.625431, 1.06966, -0.256703, -0.000219472, -0.000235, -0.00718908, -0.00560828, -0.00572551, -0.00891655, -0.00145908, -0.0161054, 15.9021, 21.2003, 17.4832, 1.34967, 4.09122, -0.153737, 0.000711598, -0.00166963, 0.000605269, 0.00139547, -0.00100507, 0.000362054, 0.00373787, 0.000298624, -0.00353192, -0.0109576, 0.0139484, -0.000491793, -0.0111097, -0.444723, 0.635033, -3.13186, -0.0555696, -0.10755, -0.0104183, -0.443024, 0.634488, -3.13052, -0.0554858, -0.105889, 0.000436566, -0.000350653, -0.000982628, -0.00305906, -0.000153312, -0.00476111
0.0281523, 0.107599, -0.774325, -0.916943, -1.45736, -0.62544, 1.06966, -0.2567, 0.00254494, -0.00278772, -0.0093015, -0.00567671, -0.00246821, -0.00427933, -0.00195606, -0.131157, 15.8624, 21.0892, 17.2571, 1.29474, 4.0198, -0.127186, 0.00070704, -0.00166554, 0.00061237, 0.00140755, -0.00101589, 0.000372583, 0.00287378, -0.000658141, -0.00379829, -0.00992115, 0.00692856, 0.00321444, -0.0111092, -0.444723, 0.635032, -3.13185, -0.0555709, -0.107554, -0.0104218, -0.443028, 0.634479, -3.13051, -0.0554713, -0.105875, 0.000492356, -0.000394854, -0.00110694, -0.00208937, -0.00112095, -0.00509771
0.0291523, 0.107604, -0.774327, -0.916957, -1.45738, -0.625448, 1.06965, -0.256698, 0.00345987, -0.000786924, -0.01466, -0.0099523, -0.00595792, -0.000942894, 0.0031666, -0.206535, 15.791, 20.8631, 17.0706, 1.27002, 3.94839, -0.133595, 0.000704519, -0.00166369, 0.000620102, 0.00142267, -0.00103545, 0.000378846, 0.00307404, -0.00236378, -0.00615316, -0.0110001, 0.0131073, -0.00407303, -0.0111087, -0.444723, 0.63503, -3.13185, -0.0555724, -0.107558, -0.0104232, -0.443031, 0.63447, -3.13049, -0.0554637, -0.105847, 0.000551439, -0.000441554, -0.00123836, -0.00200787, -0.00285892, -0.0076027
0.0301523, 0.107606, -0.774331, -0.916979, -1.45738, -0.625454, 1.06964, -0.256705, 0.0085372, -0.000973777, -0.0177329, -0.00850483, -0.00808187, -0.00426643, -0.000181016, -0.206535, 15.791, 20.7163, 16.8127, 1.2334, 3.90536, -0.0621838, 0.000696368, -0.00166134, 0.000628188, 0.00144338, -0.0010494, 0.000385415, 0.00299804, -0.0027717, -0.00689605, -0.0141918, 0.0156287, 0.000747203, -0.0111081, -0.444724, 0.635029, -3.13185, -0.0555741, -0.107563, -0.0104301, -0.443034, 0.63446, -3.13047, -0.055456, -0.105829, 0.000613805, -0.000490732, -0.00137684, -0.0018043, -0.00330666, -0.00847961
0.0311523, 0.107615, -0.774335, -0.916997, -1.4574, -0.625465, 1.06964, -0.256693, 0.00880914, -0.000986056, -0.0191635, -0.014106, -0.00659981, -0.00256261, 0.00306003, -0.317619, 15.791, 20.5298, 16.6977, 1.23981, 3.87607, -0.140919, 0.000693735, -0.00165942, 0.000639104, 0.00146623, -0.00107481, 0.000399279, 0.00176106, -0.00279176, -0.008721, -0.0171539, 0.0175548, 0.000810748, -0.0111074, -0.444724, 0.635028, -3.13184, -0.055576, -0.107568, -0.0104312, -0.443036, 0.634448, -3.13045, -0.0554373, -0.105792, 0.000679445, -0.000542368, -0.00152234, -0.000379691, -0.00331907, -0.0103608
0.0321523, 0.107625, -0.774344, -0.91701, -1.45742, -0.625479, 1.06964, -0.256702, 0.00895343, -0.00350848, -0.0177439, -0.0165769, -0.0111896, 0.000605173, -0.000202953, -0.43267, 15.9021, 20.2323, 16.5112, 1.27643, 3.79733, -0.0750012, 0.000690737, -0.0016565, 0.00064602, 0.0014751, -0.00108992, 0.000390492, 0.00211372, -0.00346565, -0.00873394, -0.012735, 0.0186758, 0.00493092, -0.0111067, -0.444725, 0.635026, -3.13184, -0.055578, -0.107574, -0.0104329, -0.44304, 0.634439, -3.13043, -0.0554534, -0.105774, 0.000748347, -0.000596442, -0.0016748, -0.000637417, -0.00405886, -0.0105546
0.0331523, 0.107626, -0.774344, -0.91704, -1.45744, -0.62549, 1.06963, -0.256695, 0.00939703, -0.00252848, -0.0197812, -0.0170384, -0.00795901, -0.00209873, 0.00269229, -0.43267, 15.9021, 20.1926, 16.4001, 1.26453, 3.72592, -0.147328, 0.000682015, -0.0016515, 0.000658415, 0.00149726, -0.00111636, 0.000417434, 0.00189243, -0.00289952, -0.00950525, -0.0177116, 0.0191893, 0.00329705, -0.0111059, -0.444726, 0.635024, -3.13184, -0.0555803, -0.10758, -0.0104398, -0.443046, 0.634425, -3.13041, -0.0554147, -0.105737, 0.000820503, -0.000652933, -0.00183418, -0.000311992, -0.00353512, -0.0114648
0.0341523, 0.107628, -0.774345, -0.917054, -1.45745, -0.625502, 1.06963, -0.256698, 0.00674507, -0.00182777, -0.0159356, -0.0142136, -0.0112075, -0.00428188, -2.63005e-05, -0.43267, 15.9021, 19.9347, 16.2891, 1.27643, 3.65451, -0.0951428, 0.000678201, -0.00164994, 0.000665777, 0.00151015, -0.0011432, 0.000422085, 0.0031302, -0.00215873, -0.00746397, -0.013528, 0.0216476, 0.00389615, -0.0111051, -0.444726, 0.635022, -3.13183, -0.0555828, -0.107587, -0.0104422, -0.443048, 0.634415, -3.13039, -0.0554106, -0.105701, 0.000895902, -0.000711822, -0.00200043, -0.00163683, -0.00291484, -0.00967513
0.0351523, 0.107634, -0.774347, -0.917079, -1.45748, -0.625516, 1.06962, -0.256695, 0.00569221, -0.00216032, -0.0176068, -0.0176568, -0.0133973, -0.00715079, 0.0017616, -0.468376, 15.9378, 19.8594, 16.2891, 1.28284, 3.6188, -0.140919, 0.000672883, -0.00164694, 0.000679079, 0.00153566, -0.00117674, 0.000433807, 0.00431615, -0.00190991, -0.00904341, -0.0176433, 0.0269757, 0.00114004, -0.0111041, -0.444727, 0.63502, -3.13183, -0.0555855, -0.107594, -0.0104456, -0.443052, 0.634399, -3.13037, -0.0553962, -0.105654, 0.000974534, -0.000773089, -0.00217351, -0.0026413, -0.00275551, -0.0115039
0.0361523, 0.107632, -0.774352, -0.917102, -1.45749, -0.62553, 1.06962, -0.256704, 0.00230178, -0.00319059, -0.0199931, -0.0183387, -0.0135388, -0.00478196, -0.00144158, -0.392998, 16.0092, 19.7086, 16.2137, 1.25171, 3.58951, -0.0685925, 0.000662883, -0.00164352, 0.000689169, 0.0015528, -0.0012019, 0.000443729, 0.0065945, -0.00264139, -0.00947408, -0.0169432, 0.0256377, 8.95222e-05, -0.0111031, -0.444728, 0.635018, -3.13182, -0.0555884, -0.107602, -0.0104537, -0.443056, 0.634386, -3.13035, -0.0553844, -0.105622, 0.00105639, -0.000836713, -0.00235336, -0.00477533, -0.00362655, -0.0122746
0.0371523, 0.107633, -0.774347, -0.917125, -1.45751, -0.625544, 1.06961, -0.256699, 0.00173718, -0.00051658, -0.0205288, -0.016556, -0.0145498, -0.00401285, -0.000201885, -0.392998, 15.9378, 19.6372, 16.178, 1.23981, 3.58951, -0.0878186, 0.000656942, -0.00164056, 0.000699088, 0.00157081, -0.00123875, 0.000464779, 0.00675976, -0.00296743, -0.00870796, -0.0145741, 0.0278034, -0.00284251, -0.011102, -0.444729, 0.635016, -3.13182, -0.0555915, -0.107611, -0.0104577, -0.44306, 0.634373, -3.13032, -0.0553557, -0.105572, 0.00114146, -0.000902674, -0.00253994, -0.0048958, -0.00403074, -0.0117103
0.0381523, 0.10763, -0.774345, -0.917146, -1.45754, -0.625552, 1.06961, -0.256699, 0.000474899, 0.000445865, -0.020587, -0.017655, -0.0136927, -0.0041077, -0.000573991, -0.357292, 15.9021, 19.5618, 16.2494, 1.18396, 3.61148, -0.0750012, 0.000652096, -0.00163963, 0.000711081, 0.00159612, -0.00127598, 0.000474961, 0.00672976, -0.00266758, -0.00879574, -0.0151424, 0.0291403, -0.00209134, -0.0111008, -0.44473, 0.635013, -3.13181, -0.0555949, -0.10762, -0.0104605, -0.443062, 0.634359, -3.1303, -0.0553444, -0.105521, 0.00122973, -0.000970953, -0.00273321, -0.00478225, -0.00379751, -0.0119872
0.0391523, 0.107626, -0.774337, -0.917169, -1.45756, -0.625569, 1.0696, -0.256697, -0.000497424, 0.00286197, -0.0213176, -0.017464, -0.014822, -0.00839698, 0.000118545, -0.317619, 15.791, 19.5261, 16.2891, 1.17206, 3.62521, -0.0878186, 0.00064456, -0.00163648, 0.00072098, 0.00161129, -0.00131888, 0.000498703, 0.00745115, -0.00201552, -0.00899678, -0.0180693, 0.0347495, -0.0042219, -0.0110996, -0.444731, 0.63501, -3.1318, -0.0555986, -0.10763, -0.010466, -0.443066, 0.634345, -3.13028, -0.055312, -0.105463, 0.00132119, -0.00104153, -0.00293311, -0.00541947, -0.00324007, -0.0124333
0.0401523, 0.107627, -0.774332, -0.917177, -1.45758, -0.625584, 1.0696, -0.256696, -0.000246119, 0.00901235, -0.0174674, -0.017214, -0.0197789, -0.00687901, 0.000607522, -0.317619, 15.7513, 19.3, 16.3248, 1.14734, 3.63986, -0.101552, 0.000643845, -0.00163669, 0.000726883, 0.00161893, -0.00135987, 0.000503823, 0.00517354, -0.00192317, -0.00725915, -0.0110903, 0.0438272, -0.00329086, -0.0110982, -0.444732, 0.635007, -3.1318, -0.0556025, -0.107641, -0.0104649, -0.443067, 0.634336, -3.13027, -0.0553084, -0.105409, 0.00141584, -0.00111438, -0.0031396, -0.00317628, -0.00315548, -0.0107492
0.0411523, 0.10762, -0.774333, -0.917206, -1.4576, -0.625599, 1.06959, -0.256698, -0.00186319, 0.00650606, -0.0227953, -0.0137754, -0.0145972, -0.00700484, -0.00127551, -0.242241, 15.7513, 19.4111, 16.3644, 1.13544, 3.69021, -0.0557752, 0.000630957, -0.00163351, 0.000738738, 0.00164161, -0.00139588, 0.000528866, 0.0081542, -0.00248459, -0.00756373, -0.0146636, 0.0357502, -0.0055706, -0.0110967, -0.444733, 0.635004, -3.13179, -0.0556067, -0.107652, -0.0104754, -0.443072, 0.63432, -3.13024, -0.0552747, -0.105363, 0.00151366, -0.0011895, -0.00335263, -0.00600922, -0.00389388, -0.0114746
0.0421523, 0.107617, -0.774327, -0.917221, -1.45762, -0.62562, 1.06958, -0.256691, -0.00202926, 0.00638119, -0.0197279, -0.0149046, -0.0158781, -0.0113465, 0.00109362, -0.206535, 15.6799, 19.3754, 16.4359, 1.13544, 3.73324, -0.10796, 0.00062504, -0.00163259, 0.000746575, 0.00165328, -0.00144594, 0.000551858, 0.00783997, -0.00109383, -0.0071891, -0.016047, 0.0396885, -0.00500061, -0.0110952, -0.444734, 0.635, -3.13178, -0.0556111, -0.107664, -0.0104792, -0.443074, 0.634309, -3.13022, -0.0552442, -0.105296, 0.00161465, -0.00126685, -0.00357216, -0.00567022, -0.00257354, -0.0112902
0.0431523, 0.107614, -0.774329, -0.917239, -1.45765, -0.625639, 1.06957, -0.256697, -0.00224479, 0.00369894, -0.0182765, -0.0189317, -0.0164852, -0.0103672, -0.00146659, -0.166862, 15.7156, 19.3754, 16.5112, 1.12903, 3.79001, -0.0484509, 0.000616184, -0.00163107, 0.000756019, 0.00166868, -0.00148722, 0.000562577, 0.00754818, -0.000777873, -0.0077788, -0.0159705, 0.0398475, 0.00106161, -0.0110935, -0.444735, 0.634997, -3.13177, -0.0556159, -0.107677, -0.0104856, -0.443077, 0.634295, -3.1302, -0.0552331, -0.105243, 0.00171879, -0.00134642, -0.00379814, -0.00524597, -0.00232193, -0.0120825
0.0441523, 0.107612, -0.774331, -0.917262, -1.45767, -0.625663, 1.06957, -0.256693, -0.00230469, 0.00184076, -0.0196595, -0.0229374, -0.0176056, -0.00930181, 0.00123261, -0.131157, 15.7513, 19.4864, 16.6223, 1.14093, 3.84036, -0.10796, 0.000605086, -0.00162867, 0.000766723, 0.00168585, -0.00153381, 0.000587752, 0.00794707, -0.00106879, -0.0091286, -0.0173491, 0.0413031, -0.000372584, -0.0110917, -0.444737, 0.634993, -3.13176, -0.0556209, -0.107691, -0.0104941, -0.443081, 0.63428, -3.13018, -0.0551999, -0.105183, 0.00182607, -0.00142819, -0.00403052, -0.0054334, -0.00269668, -0.0136908
0.0451523, 0.107601, -0.77433, -0.917278, -1.45769, -0.625688, 1.06956, -0.256693, -0.00504265, 0.00221991, -0.015574, -0.0208699, -0.0184641, -0.0123152, 0.000351735, 0.0196001, 15.7156, 19.5261, 16.662, 1.15375, 3.86966, -0.0951428, 0.000592473, -0.00162723, 0.000773887, 0.00169404, -0.00158111, 0.000615781, 0.00873514, 0.000211724, -0.00725703, -0.0150812, 0.0426318, 0.000286109, -0.0110899, -0.444738, 0.634989, -3.13175, -0.0556263, -0.107706, -0.0105042, -0.443085, 0.634268, -3.13016, -0.0551623, -0.105123, 0.00193648, -0.00151214, -0.00426926, -0.00628264, -0.00154495, -0.0121087
0.0461523, 0.107594, -0.774326, -0.917291, -1.45772, -0.625711, 1.06955, -0.256692, -0.00510979, 0.00870315, -0.0146807, -0.0201145, -0.0182407, -0.0096718, 0.000238025, 0.0949785, 15.6799, 19.5261, 16.7374, 1.14734, 3.89071, -0.0951428, 0.000584348, -0.00162679, 0.000780718, 0.00170153, -0.00163265, 0.0006359, 0.00643431, 0.000118244, -0.00604695, -0.0109323, 0.0474044, 0.00161668, -0.0110879, -0.44474, 0.634984, -3.13174, -0.0556319, -0.107721, -0.0105099, -0.443087, 0.634256, -3.13015, -0.0551372, -0.105057, 0.00205002, -0.00159825, -0.00451432, -0.0039547, -0.00165395, -0.0109889
0.0471523, 0.107588, -0.774334, -0.917307, -1.45774, -0.625736, 1.06955, -0.25669, -0.00432313, 0.00381474, -0.0125856, -0.0185759, -0.0186242, -0.00695919, 0.000636053, 0.134651, 15.791, 19.5975, 16.7731, 1.15375, 3.89071, -0.10796, 0.000571559, -0.00162474, 0.000786912, 0.00170601, -0.00167063, 0.000660602, 0.00710094, -0.000144169, -0.0046911, -0.0061082, 0.0407112, 0.00355688, -0.0110858, -0.444741, 0.63498, -3.13173, -0.0556379, -0.107738, -0.01052, -0.443091, 0.634244, -3.13014, -0.0551052, -0.105013, 0.00216668, -0.00168649, -0.00476563, -0.0045862, -0.00203972, -0.0099352
0.0481523, 0.107576, -0.774338, -0.917324, -1.45776, -0.625762, 1.06954, -0.256692, -0.0064, 0.00216626, -0.0142237, -0.0217071, -0.0181634, -0.00607412, -4.86935e-05, 0.285408, 15.8267, 19.6729, 16.8484, 1.14093, 3.9191, -0.0951428, 0.000557179, -0.00162354, 0.000795269, 0.00171624, -0.00171862, 0.000686873, 0.00830971, -0.000258442, -0.00576819, -0.00782011, 0.0407281, 0.00370111, -0.0110835, -0.444743, 0.634975, -3.13172, -0.0556442, -0.107755, -0.0105315, -0.443094, 0.63423, -3.13012, -0.0550713, -0.104955, 0.00228643, -0.00177687, -0.00502317, -0.00559358, -0.00227742, -0.0113513
0.0491523, 0.107577, -0.774332, -0.917335, -1.45778, -0.625789, 1.06953, -0.256691, -0.00333223, 0.00355115, -0.0135586, -0.022358, -0.0228304, -0.0054221, 0.000206388, 0.245735, 15.7513, 19.6729, 16.8484, 1.13544, 3.94839, -0.101552, 0.00055158, -0.0016237, 0.00079967, 0.00171982, -0.00177723, 0.000702445, 0.00713257, -0.000692954, -0.00549018, -0.00470505, 0.0461009, 0.00607332, -0.0110812, -0.444745, 0.634969, -3.13171, -0.0556509, -0.107773, -0.0105344, -0.443096, 0.63422, -3.13011, -0.0550543, -0.104881, 0.00240928, -0.00186934, -0.00528689, -0.00430058, -0.00276505, -0.0112594
0.0501523, 0.107571, -0.774331, -0.917347, -1.4578, -0.625814, 1.06952, -0.256698, -0.00314469, 0.00262524, -0.0139866, -0.0188248, -0.0263483, -0.00488161, -0.0023027, 0.285408, 15.7513, 19.7086, 16.8127, 1.12903, 3.97677, -0.0356336, 0.000541338, -0.00162351, 0.000804033, 0.00172326, -0.00182652, 0.00071661, 0.00893759, -0.00142065, -0.00424959, -0.00052755, 0.0456643, 0.00593361, -0.0110787, -0.444747, 0.634964, -3.1317, -0.0556578, -0.107792, -0.0105419, -0.443098, 0.63421, -3.13009, -0.0550396, -0.104823, 0.00253522, -0.00196389, -0.00555673, -0.00603327, -0.00366125, -0.0104206
0.0511523, 0.10757, -0.774321, -0.917364, -1.45783, -0.625845, 1.06951, -0.25669, -0.00209285, 0.00444916, -0.0151408, -0.0237717, -0.0294143, -0.00932007, 0.00114447, 0.285408, 15.6442, 19.784, 16.9595, 1.13544, 4.01248, -0.10796, 0.00053549, -0.00162323, 0.000813635, 0.00173606, -0.00190156, 0.000741611, 0.00844253, -0.000762206, -0.00615454, -0.00589822, 0.0557131, 0.00473467, -0.0110761, -0.444749, 0.634958, -3.13168, -0.0556652, -0.107812, -0.0105444, -0.443101, 0.634194, -3.13007, -0.055009, -0.104724, 0.00266423, -0.00206051, -0.00583265, -0.00530345, -0.00306569, -0.0125588
0.0521523, 0.107562, -0.774323, -0.917382, -1.45785, -0.625876, 1.06949, -0.256694, -0.00315576, 0.00227591, -0.0167888, -0.01888, -0.0309373, -0.0119376, -0.00144044, 0.360787, 15.6799, 19.8951, 16.8842, 1.11713, 4.02713, -0.0484509, 0.00051983, -0.00162166, 0.00081863, 0.00173984, -0.00195426, 0.000770413, 0.0118021, -0.0009977, -0.00511923, -0.00534387, 0.0532908, 0.00279946, -0.0110734, -0.444751, 0.634952, -3.13167, -0.0556729, -0.107834, -0.0105569, -0.443105, 0.634182, -3.13006, -0.0549724, -0.104663, 0.0027963, -0.00215917, -0.00611461, -0.00858335, -0.00352713, -0.012041
0.0531523, 0.107553, -0.774325, -0.917397, -1.45788, -0.625909, 1.06948, -0.256689, -0.00479307, 0.000790814, -0.0162278, -0.022045, -0.0280234, -0.00950551, 0.000260885, 0.475838, 15.7156, 19.9347, 16.9595, 1.11713, 4.04819, -0.0814099, 0.000506109, -0.0016214, 0.000825694, 0.0017464, -0.00201636, 0.000801876, 0.0114212, -0.000682969, -0.00542168, -0.00535714, 0.0508019, 0.00397499, -0.0110705, -0.444753, 0.634946, -3.13166, -0.0556809, -0.107856, -0.0105672, -0.443108, 0.634168, -3.13004, -0.0549322, -0.104587, 0.00293143, -0.00225986, -0.00640257, -0.0080589, -0.00329719, -0.0126026
0.0541523, 0.107554, -0.774323, -0.917409, -1.45789, -0.625942, 1.06947, -0.256689, -0.00226584, 0.00372298, -0.0149268, -0.0177277, -0.0254769, -0.0064038, -6.30817e-05, 0.436165, 15.7156, 19.9347, 16.8842, 1.11072, 4.03445, -0.0750012, 0.000495948, -0.0016207, 0.000828036, 0.0017439, -0.00207462, 0.000823843, 0.00917861, -0.000866958, -0.00313002, 7.51245e-05, 0.0477902, 0.00788512, -0.0110675, -0.444756, 0.63494, -3.13164, -0.0556894, -0.107879, -0.0105742, -0.443111, 0.634158, -3.13003, -0.0549068, -0.104519, 0.00306961, -0.00236255, -0.00669647, -0.00583555, -0.00352489, -0.0104572
0.0551523, 0.10755, -0.774322, -0.917425, -1.45792, -0.625974, 1.06946, -0.256687, -0.00243743, 0.0036379, -0.0149159, -0.020398, -0.0280598, -0.00984067, 0.000704196, 0.475838, 15.6799, 19.9705, 16.9238, 1.0979, 4.04819, -0.0951428, 0.000484748, -0.00162051, 0.00083373, 0.00174867, -0.00213879, 0.000849539, 0.00971035, -0.000253465, -0.00393073, -0.00263011, 0.0535506, 0.00818598, -0.0110644, -0.444758, 0.634933, -3.13162, -0.0556982, -0.107903, -0.0105818, -0.443114, 0.634145, -3.13002, -0.0548762, -0.104442, 0.00321082, -0.00246723, -0.00699628, -0.00619138, -0.00302816, -0.0115887
0.0561523, 0.107547, -0.774315, -0.917435, -1.45795, -0.626006, 1.06945, -0.25669, -0.00245932, 0.00442903, -0.0132684, -0.0231841, -0.0251369, -0.00727006, -0.00075104, 0.511544, 15.6046, 19.9347, 16.9992, 1.07959, 4.04819, -0.0621838, 0.000477768, -0.00162191, 0.000838516, 0.00175199, -0.00221121, 0.000863139, 0.0076457, 0.000236703, -0.00374289, -0.00152655, 0.0529933, 0.0148255, -0.0110611, -0.444761, 0.634926, -3.13161, -0.0557074, -0.107928, -0.0105852, -0.443115, 0.634132, -3.13, -0.0548649, -0.104354, 0.00335505, -0.00257388, -0.00730195, -0.00401906, -0.00257381, -0.0115616
0.0571523, 0.107547, -0.774314, -0.91745, -1.45797, -0.626043, 1.06944, -0.256686, -0.0016389, 0.00313308, -0.0160237, -0.0236302, -0.0286542, -0.010063, -2.5826e-05, 0.511544, 15.6046, 19.9347, 16.9992, 1.086, 4.04819, -0.0750012, 0.000465983, -0.00162077, 0.000842206, 0.00174962, -0.00227685, 0.00089268, 0.00957812, -9.51229e-05, -0.00465881, -0.00394254, 0.0566293, 0.0125083, -0.0110577, -0.444763, 0.634918, -3.13159, -0.055717, -0.107955, -0.0105932, -0.44312, 0.634121, -3.12999, -0.0548289, -0.104278, 0.0035023, -0.00268248, -0.00761342, -0.00572355, -0.00307402, -0.0129223
0.0581523, 0.107546, -0.77431, -0.917469, -1.45799, -0.626077, 1.06942, -0.256686, -0.00340286, 0.00305923, -0.0169614, -0.0207591, -0.0307444, -0.0126937, 0.00072888, 0.475838, 15.5688, 20.0101, 16.9992, 1.07959, 4.06283, -0.0951428, 0.000453954, -0.00162037, 0.000847253, 0.00175457, -0.00234792, 0.000920161, 0.0120896, -5.19859e-05, -0.00390245, -0.00354602, 0.0580678, 0.00796439, -0.0110541, -0.444766, 0.63491, -3.13157, -0.055727, -0.107982, -0.0106013, -0.443123, 0.634107, -3.12997, -0.0547968, -0.104193, 0.00365255, -0.002793, -0.00793067, -0.00813066, -0.00323672, -0.0126582
0.0591523, 0.107549, -0.774311, -0.917478, -1.45801, -0.626111, 1.0694, -0.256689, -0.000767141, 0.00130574, -0.0139325, -0.0216946, -0.0324463, -0.0145299, -0.00049734, 0.400459, 15.6046, 19.9347, 16.9992, 1.07959, 4.07016, -0.0685925, 0.000444474, -0.00162199, 0.000849611, 0.0017557, -0.00241332, 0.000932553, 0.0109455, 0.000742804, -0.00329879, -0.00260515, 0.0594748, 0.0149761, -0.0110504, -0.444769, 0.634902, -3.13155, -0.0557374, -0.108011, -0.0106069, -0.443125, 0.634096, -3.12996, -0.0547884, -0.104119, 0.0038058, -0.00290544, -0.00825364, -0.00690663, -0.00251991, -0.0122951
0.0601523, 0.107542, -0.774314, -0.917494, -1.45803, -0.626143, 1.06939, -0.256684, -0.00560471, -0.000816644, -0.0144195, -0.0210298, -0.032944, -0.0152283, 0.00038058, 0.475838, 15.6799, 19.9705, 17.0706, 1.06128, 4.06283, -0.0878186, 0.000429857, -0.00162226, 0.000854533, 0.00175833, -0.00247776, 0.000965895, 0.0143208, 0.000881565, -0.00288919, -0.00210297, 0.0580989, 0.00953034, -0.0110465, -0.444772, 0.634894, -3.13154, -0.0557483, -0.10804, -0.0106173, -0.443128, 0.634082, -3.12994, -0.0547479, -0.104048, 0.00396204, -0.00301977, -0.00858229, -0.0101486, -0.00261833, -0.0124474
0.0611523, 0.107546, -0.774311, -0.91751, -1.45805, -0.626179, 1.06938, -0.256688, -0.00321686, 0.00346576, -0.0139139, -0.0186504, -0.0295606, -0.0111228, 0.00284702, 0.436165, 15.6442, 19.9705, 17.0706, 1.06128, 4.05551, -0.0420422, 0.000420015, -0.00162194, 0.000857115, 0.00175544, -0.00254956, 0.000983572, 0.0113306, 0.000625492, -0.00123154, 0.00241768, 0.05665, 0.0114475, -0.0110424, -0.444775, 0.634885, -3.13152, -0.0557596, -0.108071, -0.0106228, -0.443131, 0.63407, -3.12993, -0.0547321, -0.103967, 0.00412125, -0.00313597, -0.00891658, -0.0071129, -0.00289976, -0.0109235
0.0621523, 0.107548, -0.774309, -0.917518, -1.45807, -0.626213, 1.06937, -0.25668, -0.00161566, 0.00261314, -0.0118727, -0.0200832, -0.0312356, -0.00780414, 0.00493421, 0.400459, 15.6442, 19.8951, 17.0706, 1.04938, 4.04086, -0.114369, 0.000412096, -0.00162337, 0.000857196, 0.00174827, -0.00261775, 0.00100845, 0.010039, 0.000378954, -0.000527722, 0.0070546, 0.0567245, 0.0136936, -0.0110382, -0.444778, 0.634876, -3.13149, -0.0557713, -0.108103, -0.0106266, -0.443133, 0.63406, -3.12992, -0.0547053, -0.103892, 0.00428343, -0.00325403, -0.00925645, -0.00570257, -0.00322496, -0.0104739
0.0631523, 0.107551, -0.774313, -0.91754, -1.45809, -0.626246, 1.06935, -0.256687, -0.000378814, 0.000298628, -0.0139043, -0.017161, -0.0326556, -0.00987405, 0.00111613, 0.360787, 15.7156, 19.9705, 17.0349, 1.04297, 4.0198, -0.0484509, 0.000396952, -0.00162178, 0.000860388, 0.0017483, -0.0026787, 0.00103022, 0.0120899, 6.39578e-05, -0.00016318, 0.0066412, 0.055211, 0.0162879, -0.0110339, -0.444781, 0.634867, -3.13147, -0.0557834, -0.108137, -0.010637, -0.443139, 0.634046, -3.1299, -0.054684, -0.10383, 0.00444857, -0.00337392, -0.00960188, -0.00759594, -0.00373538, -0.0105996
0.0641523, 0.107551, -0.77431, -0.91755, -1.45811, -0.626279, 1.06935, -0.256677, -0.000424838, 0.000369316, -0.0117412, -0.0167736, -0.0337121, -0.0114957, 0.00314919, 0.360787, 15.7156, 19.8951, 17.0706, 1.03656, 3.99783, -0.10796, 0.000388186, -0.0016229, 0.000860223, 0.00173806, -0.00274788, 0.00105929, 0.0119917, 0.000764781, 0.000794075, 0.0080325, 0.0570397, 0.0164337, -0.0110293, -0.444785, 0.634857, -3.13145, -0.055796, -0.108171, -0.0106413, -0.443141, 0.634036, -3.12989, -0.0546514, -0.103757, 0.00461665, -0.00349563, -0.0099528, -0.00742093, -0.00316197, -0.00998451
0.0651523, 0.107557, -0.774312, -0.91756, -1.45814, -0.62631, 1.06933, -0.256684, 0.00765773, 0.000373883, -0.0103647, -0.0174371, -0.0341386, -0.0126604, -0.000191158, 0.285408, 15.7156, 19.8237, 17.146, 1.01825, 3.97677, -0.0420422, 0.000380628, -0.00162441, 0.000861441, 0.00173279, -0.00281608, 0.00106618, 0.00819086, 0.00115296, 0.00100279, 0.0078908, 0.0588784, 0.0303264, -0.0110246, -0.444788, 0.634847, -3.13143, -0.055809, -0.108207, -0.0106441, -0.443144, 0.634024, -3.12988, -0.054654, -0.103686, 0.00478767, -0.00361914, -0.0103092, -0.00348887, -0.00276531, -0.0098676
0.0661523, 0.107559, -0.774317, -0.917578, -1.45816, -0.626344, 1.06932, -0.256677, 0.00553382, -0.00141823, -0.0119192, -0.0169943, -0.0304045, -0.0135473, 0.0021897, 0.285408, 15.791, 19.8594, 17.1857, 1.01825, 3.95572, -0.101552, 0.000366225, -0.00162413, 0.000863291, 0.00172919, -0.00288002, 0.00109908, 0.00977079, 0.0015644, 0.000987177, 0.00544755, 0.0549804, 0.027536, -0.0110198, -0.444792, 0.634836, -3.1314, -0.0558225, -0.108244, -0.0106534, -0.443148, 0.634011, -3.12986, -0.0546166, -0.103623, 0.00496161, -0.00374443, -0.010671, -0.00490378, -0.00253519, -0.0103517
0.0671523, 0.107568, -0.77432, -0.917589, -1.45818, -0.626374, 1.06931, -0.256683, 0.00670197, -0.00170889, -0.0103585, -0.0189826, -0.0320384, -0.00978519, -0.000659429, 0.170357, 15.8267, 19.784, 17.1857, 1.01276, 3.94107, -0.0420422, 0.000358383, -0.00162589, 0.000862325, 0.00172183, -0.00294424, 0.00110521, 0.00849613, 0.00121715, 0.00148558, 0.00994267, 0.0557753, 0.0343253, -0.0110147, -0.444796, 0.634825, -3.13138, -0.0558365, -0.108282, -0.0106563, -0.44315, 0.634001, -3.12985, -0.0546212, -0.103561, 0.00513848, -0.00387148, -0.0110382, -0.00347802, -0.00296885, -0.010136
0.0681523, 0.10757, -0.774325, -0.917605, -1.45819, -0.626402, 1.0693, -0.256679, 0.00554432, -0.00192061, -0.0111338, -0.0212024, -0.033098, -0.00722433, 0.00108206, 0.134651, 15.8624, 19.784, 17.2214, 0.999938, 3.93374, -0.0814099, 0.000346509, -0.00162612, 0.000862127, 0.0017133, -0.00300381, 0.00113134, 0.00894518, 0.000783103, 0.00122294, 0.0116846, 0.057069, 0.0328391, -0.0110095, -0.4448, 0.634814, -3.13135, -0.055851, -0.108322, -0.0106629, -0.443155, 0.633989, -3.12984, -0.0545951, -0.103508, 0.00531825, -0.00400028, -0.0114107, -0.00371228, -0.00354499, -0.0108047
0.0691523, 0.107575, -0.774326, -0.917621, -1.45821, -0.62643, 1.0693, -0.25668, 0.00480507, -0.00216803, -0.0116297, -0.0187874, -0.0340858, -0.00476543, 0.000294364, 0.0949785, 15.9021, 19.784, 17.2214, 0.993529, 3.91269, -0.0685925, 0.000336609, -0.00162574, 0.000860911, 0.00170014, -0.00306538, 0.00115031, 0.0100907, 0.000130817, 0.00243559, 0.0160514, 0.0553015, 0.0321848, -0.0110041, -0.444804, 0.634803, -3.13133, -0.0558659, -0.108363, -0.0106675, -0.443159, 0.633978, -3.12983, -0.0545805, -0.103453, 0.00550092, -0.0041308, -0.0117885, -0.00473192, -0.00437903, -0.0100567
0.0701523, 0.107578, -0.774328, -0.917634, -1.45823, -0.626451, 1.06929, -0.256679, 0.00333901, -0.00225028, -0.0110908, -0.017862, -0.0288469, -0.00290998, 0.000706743, 0.0949785, 15.9378, 19.7483, 17.2571, 0.951415, 3.89071, -0.0814099, 0.000328024, -0.00162748, 0.000859694, 0.00169141, -0.00312476, 0.00116761, 0.00971144, 0.000616623, 0.00346671, 0.0170516, 0.0502106, 0.0341614, -0.0109985, -0.444808, 0.634791, -3.1313, -0.0558813, -0.108405, -0.0106706, -0.443162, 0.633967, -3.12981, -0.0545691, -0.103403, 0.00568647, -0.00426302, -0.0121715, -0.00425687, -0.00402195, -0.00938183
0.0711523, 0.107582, -0.774326, -0.917653, -1.45825, -0.626479, 1.06929, -0.256673, 0.00316295, -0.000642243, -0.0123919, -0.015696, -0.0265848, -0.00289264, 0.0057777, 0.059273, 15.9021, 19.784, 17.2214, 0.951415, 3.90536, -0.10796, 0.000316859, -0.00162772, 0.000858024, 0.00168061, -0.00319279, 0.00119887, 0.00987992, 0.000669323, 0.00422233, 0.0173362, 0.0492833, 0.0293147, -0.0109927, -0.444812, 0.634778, -3.13127, -0.0558972, -0.108449, -0.010676, -0.443167, 0.633955, -3.1298, -0.0545365, -0.103341, 0.00587491, -0.00439694, -0.0125597, -0.00429053, -0.00411628, -0.00902788
0.0721523, 0.107589, -0.77433, -0.917672, -1.45827, -0.626505, 1.06928, -0.25668, 0.00394816, -0.00208156, -0.0165729, -0.018084, -0.0286882, -0.00115095, 0.00229718, -0.0161054, 15.9735, 19.8237, 17.2214, 0.932189, 3.87607, -0.0557752, 0.000305637, -0.00162752, 0.000856376, 0.00166886, -0.00325213, 0.0012114, 0.0112062, -0.000452553, 0.00278563, 0.0163442, 0.0508588, 0.0320631, -0.0109867, -0.444817, 0.634765, -3.13124, -0.0559137, -0.108494, -0.0106814, -0.443172, 0.633943, -3.12979, -0.0545334, -0.103294, 0.00606621, -0.00453252, -0.0129531, -0.00528202, -0.00540691, -0.0109543
0.0731523, 0.107597, -0.774325, -0.917685, -1.45828, -0.62653, 1.06928, -0.256676, 0.00361735, 0.000295514, -0.0186129, -0.0158465, -0.0263576, -0.00126926, 0.00351049, -0.0557783, 15.9021, 19.8237, 17.1857, 0.932189, 3.88339, -0.101552, 0.000299377, -0.00162778, 0.000851805, 0.00164794, -0.00331844, 0.00123285, 0.011468, -0.000489757, 0.00338498, 0.0161222, 0.0507113, 0.030389, -0.0109806, -0.444821, 0.634752, -3.13121, -0.0559306, -0.108541, -0.0106818, -0.443176, 0.633934, -3.12978, -0.0545166, -0.103238, 0.00626038, -0.00466976, -0.0133516, -0.00538903, -0.00559632, -0.0107736
0.0741523, 0.107599, -0.774328, -0.9177, -1.4583, -0.626554, 1.06927, -0.256679, 0.00245448, -0.000628622, -0.0191447, -0.015757, -0.0243617, -0.001833, 0.000586354, -0.0557783, 15.9378, 19.784, 17.2214, 0.926695, 3.90536, -0.0484509, 0.000288169, -0.00162938, 0.0008486, 0.00163386, -0.00338173, 0.00125151, 0.0122837, -0.000107716, 0.00362747, 0.0152594, 0.0490779, 0.0341397, -0.0109742, -0.444826, 0.634739, -3.13118, -0.055948, -0.108588, -0.0106869, -0.44318, 0.633923, -3.12977, -0.054505, -0.103187, 0.00645739, -0.00480863, -0.0137552, -0.00603582, -0.00538475, -0.0109897
0.0751523, 0.107604, -0.774325, -0.917722, -1.45832, -0.626575, 1.06927, -0.256671, 0.00250372, 0.000423326, -0.0223852, -0.0181134, -0.0230982, -0.00135176, 0.00275449, -0.0914839, 15.9021, 19.8594, 17.2214, 0.926695, 3.90536, -0.10796, 0.000278077, -0.0016298, 0.000846549, 0.00162307, -0.00344786, 0.00128207, 0.0123644, -0.000356689, 0.00248697, 0.0125832, 0.0511789, 0.0328661, -0.0109676, -0.444831, 0.634725, -3.13115, -0.055966, -0.108638, -0.0106905, -0.443185, 0.633911, -3.12975, -0.0544755, -0.103133, 0.00665724, -0.00494912, -0.0141638, -0.00582867, -0.00576654, -0.0125437
0.0761523, 0.107602, -0.774325, -0.917738, -1.45834, -0.626599, 1.06927, -0.256679, -6.99489e-05, 0.00028761, -0.0229632, -0.0158827, -0.0272034, -0.00177839, -0.00072279, -0.0161054, 15.9021, 19.8594, 17.1857, 0.938597, 3.92642, -0.0356336, 0.000264807, -0.00162971, 0.000840479, 0.00159775, -0.00350845, 0.0013045, 0.0152083, -0.000779835, 0.00346715, 0.0158754, 0.053496, 0.0317372, -0.0109609, -0.444836, 0.63471, -3.13111, -0.0559845, -0.108688, -0.0106974, -0.44319, 0.633902, -3.12975, -0.0544586, -0.103091, 0.00685993, -0.0050912, -0.0145774, -0.00851387, -0.00644159, -0.0121804
0.0771523, 0.10761, -0.774328, -0.917754, -1.45836, -0.626618, 1.06927, -0.256671, 0.000899492, -0.000639434, -0.0226387, -0.0159627, -0.0246385, -0.00207239, 0.00228664, -0.0557783, 15.9378, 19.8237, 17.2214, 0.926695, 3.94839, -0.10796, 0.000256974, -0.00163175, 0.000836864, 0.00158387, -0.00357139, 0.00132661, 0.0146399, -0.00025772, 0.00387498, 0.015347, 0.0514065, 0.0327479, -0.0109539, -0.444841, 0.634696, -3.13108, -0.0560035, -0.108741, -0.0106986, -0.443194, 0.63389, -3.12974, -0.0544432, -0.103045, 0.00706543, -0.00523486, -0.0149959, -0.00778874, -0.00604744, -0.0121496
0.0781523, 0.107614, -0.774328, -0.917777, -1.45837, -0.626641, 1.06927, -0.256677, 0.00376044, -0.000423256, -0.021842, -0.0142417, -0.024038, -0.00194496, -0.000341047, -0.0557783, 15.9378, 19.8951, 17.1857, 0.951415, 3.96213, -0.0557752, 0.000243469, -0.0016314, 0.000832723, 0.00156711, -0.00363529, 0.00135046, 0.0134534, -8.10639e-05, 0.00499372, 0.0173171, 0.0505562, 0.0397906, -0.0109468, -0.444846, 0.63468, -3.13105, -0.0560231, -0.108794, -0.0107051, -0.4432, 0.633878, -3.12972, -0.0544255, -0.103, 0.00727374, -0.00538009, -0.0154193, -0.00648144, -0.00598488, -0.0113738
0.0791523, 0.107619, -0.77432, -0.917799, -1.45839, -0.626659, 1.06926, -0.256671, 0.00588262, 0.00148334, -0.0202882, -0.0148525, -0.022498, -0.00242277, 0.00175589, -0.0557783, 15.8624, 19.9347, 17.2214, 0.945006, 3.99142, -0.10796, 0.000235387, -0.00163279, 0.000829498, 0.00155428, -0.00370975, 0.00137789, 0.0112357, 0.000662572, 0.00565338, 0.017727, 0.0524746, 0.0436078, -0.0109394, -0.444852, 0.634665, -3.13101, -0.0560432, -0.10885, -0.0107061, -0.443204, 0.633865, -3.1297, -0.0544031, -0.102939, 0.00748486, -0.00552686, -0.0158476, -0.00413207, -0.00531643, -0.0109851
0.0801523, 0.107626, -0.774322, -0.91782, -1.45841, -0.62668, 1.06926, -0.256675, 0.0052199, 0.000990601, -0.0235863, -0.017318, -0.0219812, -0.00188333, -0.00123295, -0.0914839, 15.8624, 19.8951, 17.2214, 0.956908, 3.99783, -0.0420422, 0.000224704, -0.00163353, 0.000824982, 0.00153617, -0.00377505, 0.00139581, 0.0122477, 0.000307163, 0.00445858, 0.0153049, 0.0536698, 0.0465289, -0.0109318, -0.444858, 0.634649, -3.13097, -0.0560639, -0.108906, -0.0107095, -0.443209, 0.633853, -3.12969, -0.0543957, -0.102895, 0.00769877, -0.00567515, -0.0162807, -0.00483164, -0.00584482, -0.0126834
0.0811523, 0.107634, -0.774318, -0.917843, -1.45842, -0.626695, 1.06926, -0.256673, 0.00475516, 0.0014969, -0.0208245, -0.0133942, -0.02094, -0.00236372, 0.000664488, -0.131157, 15.8267, 19.8951, 17.1103, 0.951415, 4.02713, -0.0814099, 0.000214911, -0.00163467, 0.000818374, 0.00151847, -0.0038395, 0.00142154, 0.0122503, 0.000986657, 0.00688187, 0.0193387, 0.0515566, 0.0463543, -0.010924, -0.444863, 0.634632, -3.13094, -0.0560851, -0.108965, -0.0107119, -0.443214, 0.633842, -3.12967, -0.0543767, -0.102853, 0.00791545, -0.00582496, -0.0167186, -0.00481023, -0.00533901, -0.0106999
0.0821523, 0.107632, -0.774313, -0.917872, -1.45844, -0.626711, 1.06926, -0.256674, 0.000739249, 0.00183411, -0.0267034, -0.0164641, -0.0206052, -0.0018644, 0.000226928, -0.0161054, 15.791, 19.9705, 17.1103, 0.956908, 4.03445, -0.0750012, 0.000200208, -0.00163491, 0.000815196, 0.00150592, -0.00391024, 0.00145579, 0.0152415, 0.000268847, 0.00490929, 0.0152638, 0.0542357, 0.0416703, -0.010916, -0.444869, 0.634615, -3.1309, -0.0561069, -0.109025, -0.0107188, -0.44322, 0.633828, -3.12965, -0.0543453, -0.102803, 0.00813491, -0.00597625, -0.0171612, -0.00741024, -0.00629542, -0.0133242
0.0831523, 0.107639, -0.77431, -0.9179, -1.45846, -0.626725, 1.06925, -0.25667, 0.000688135, 0.00122346, -0.0302664, -0.0164709, -0.015224, -0.00176455, 0.000641975, -0.0161054, 15.791, 20.0101, 17.146, 0.951415, 4.04819, -0.0878186, 0.000188903, -0.00163632, 0.000811844, 0.00149626, -0.00398094, 0.00148556, 0.0157146, 0.00033073, 0.00433984, 0.0114931, 0.050286, 0.0427161, -0.0109077, -0.444875, 0.634598, -3.13086, -0.0561293, -0.109086, -0.0107221, -0.443226, 0.633813, -3.12963, -0.0543215, -0.102754, 0.00835714, -0.00612902, -0.0176085, -0.00762256, -0.00639808, -0.0143727
0.0841523, 0.107648, -0.774309, -0.917923, -1.45847, -0.626741, 1.06925, -0.256676, 0.00153325, 0.00310132, -0.0278523, -0.0137622, -0.0165587, -0.00118611, -0.000746833, -0.0557783, 15.8267, 19.9705, 17.0706, 0.963317, 4.04819, -0.0557752, 0.00017836, -0.00163753, 0.000804387, 0.00147503, -0.00404531, 0.00150277, 0.0149431, 0.000555066, 0.00641279, 0.0166194, 0.0516424, 0.0464042, -0.0108992, -0.444881, 0.63458, -3.13082, -0.0561522, -0.109149, -0.0107247, -0.443231, 0.633802, -3.12961, -0.0543174, -0.102717, 0.00858211, -0.00628324, -0.0180604, -0.00678064, -0.00632103, -0.012702
0.0851523, 0.107656, -0.774301, -0.917956, -1.45849, -0.626757, 1.06925, -0.256674, 0.00744396, 0.0031632, -0.0280638, -0.0159747, -0.0177822, -0.00134058, -0.000760172, -0.0557783, 15.791, 20.0101, 17.0349, 0.981627, 4.06283, -0.0484509, 0.000167139, -0.00163689, 0.000799796, 0.00145824, -0.00411995, 0.00153459, 0.0123705, 0.000551805, 0.00595622, 0.0161512, 0.0548427, 0.0543749, -0.0108905, -0.444888, 0.634562, -3.13078, -0.0561758, -0.109214, -0.0107275, -0.443238, 0.633787, -3.12959, -0.0542914, -0.102666, 0.00880983, -0.00643891, -0.018517, -0.0039566, -0.00638458, -0.0134351
0.0861523, 0.10767, -0.7743, -0.917987, -1.4585, -0.626771, 1.06926, -0.256668, 0.00955097, 0.00146891, -0.0272174, -0.0144553, -0.0132553, -0.000899203, 0.00122929, -0.0914839, 15.8267, 20.0101, 16.9992, 0.981627, 4.06283, -0.0951428, 0.00015653, -0.00163655, 0.000794176, 0.00144049, -0.00418649, 0.00156477, 0.011254, 0.00113277, 0.00704331, 0.0165638, 0.049134, 0.0582154, -0.0108816, -0.444894, 0.634543, -3.13073, -0.0561999, -0.10928, -0.0107295, -0.443246, 0.633773, -3.12957, -0.0542684, -0.102629, 0.00904028, -0.00659599, -0.0189781, -0.00270987, -0.00593235, -0.0127302
0.0871523, 0.107678, -0.774297, -0.918023, -1.45852, -0.626785, 1.06926, -0.256674, 0.00937061, 0.00340598, -0.0296763, -0.0140767, -0.0155016, -0.000603579, -0.00114211, -0.0557783, 15.8624, 20.0101, 16.9992, 1.00635, 4.06283, -0.0420422, 0.000142821, -0.00163607, 0.000790457, 0.00142731, -0.00425854, 0.00159124, 0.0122193, 0.000543379, 0.00704436, 0.0174897, 0.0531293, 0.0589643, -0.0108725, -0.444901, 0.634524, -3.13069, -0.0562246, -0.109348, -0.0107342, -0.443253, 0.633757, -3.12955, -0.0542521, -0.102585, 0.00927346, -0.00675447, -0.0194438, -0.0034181, -0.00671464, -0.013267
0.0881523, 0.107692, -0.774288, -0.918053, -1.45854, -0.626799, 1.06925, -0.25667, 0.0108359, 0.00264014, -0.0306827, -0.0129234, -0.0115138, -0.000676736, 0.000463086, -0.0914839, 15.8624, 19.9705, 16.9595, 1.00635, 4.07016, -0.0750012, 0.000133993, -0.00163733, 0.000783718, 0.00141109, -0.00433537, 0.00161852, 0.0117902, 0.000862547, 0.00751219, 0.0164192, 0.0493432, 0.0610976, -0.0108631, -0.444908, 0.634504, -3.13064, -0.0562499, -0.109417, -0.0107341, -0.443259, 0.633744, -3.12952, -0.0542349, -0.102535, 0.00950935, -0.00691434, -0.0199139, -0.00279879, -0.00654535, -0.0132387
0.0891523, 0.107705, -0.774282, -0.918095, -1.45855, -0.626813, 1.06925, -0.256675, 0.0112029, 0.00420882, -0.0375075, -0.0135656, -0.00967937, -0.000182202, -0.00138385, -0.0914839, 15.9021, 20.0458, 16.8484, 1.03656, 4.06283, -0.0292249, 0.000119687, -0.00163498, 0.000778139, 0.00139315, -0.00440693, 0.00165022, 0.0130041, -9.54269e-05, 0.00595496, 0.0122672, 0.0506558, 0.0610599, -0.0108534, -0.444915, 0.634484, -3.1306, -0.0562758, -0.109488, -0.0107391, -0.443269, 0.633728, -3.1295, -0.0542115, -0.102495, 0.00974794, -0.00707558, -0.0203885, -0.00362752, -0.00769233, -0.0153591
0.0901523, 0.107717, -0.77427, -0.918131, -1.45856, -0.626825, 1.06925, -0.256669, 0.0106819, 0.0073705, -0.036598, -0.0167065, -0.0116167, -0.000665737, 0.00101234, -0.0557783, 15.8624, 20.0101, 16.8484, 1.03107, 4.07748, -0.0814099, 0.000110221, -0.00163551, 0.000772162, 0.0013769, -0.00448996, 0.00168432, 0.0119644, 0.000401258, 0.00584083, 0.0127441, 0.0581913, 0.0612629, -0.0108436, -0.444922, 0.634463, -3.13055, -0.0563023, -0.109561, -0.0107391, -0.443276, 0.633713, -3.12948, -0.054185, -0.102439, 0.00998923, -0.00723817, -0.0208674, -0.00236001, -0.0073209, -0.0158762
0.0911523, 0.107737, -0.774263, -0.918173, -1.45858, -0.626838, 1.06925, -0.256674, 0.015195, 0.00685891, -0.037732, -0.0140115, -0.0140147, 9.74095e-05, -0.00101893, -0.0914839, 15.9378, 20.0458, 16.7731, 1.04938, 4.06283, -0.0356336, 9.85612e-05, -0.00163412, 0.000766508, 0.00136245, -0.00456515, 0.00170881, 0.0116426, -0.000352035, 0.00674959, 0.0158294, 0.0581197, 0.0661726, -0.0108335, -0.444929, 0.634442, -3.1305, -0.0563295, -0.109636, -0.0107409, -0.443285, 0.633697, -3.12945, -0.0541741, -0.102396, 0.0102332, -0.00740209, -0.0213508, -0.00183155, -0.0082356, -0.0154366
0.0921523, 0.107754, -0.774256, -0.918219, -1.4586, -0.626856, 1.06925, -0.256669, 0.0136409, 0.00756616, -0.0384452, -0.014711, -0.0155473, 0.000335232, 0.00101734, -0.0557783, 15.9735, 20.0815, 16.8127, 1.06128, 4.05551, -0.0814099, 8.56192e-05, -0.00163233, 0.000764008, 0.00135101, -0.0046527, 0.00174735, 0.0126803, -0.000427994, 0.00693216, 0.0169708, 0.0610238, 0.0634508, -0.0108231, -0.444937, 0.634421, -3.13045, -0.0563573, -0.109712, -0.0107436, -0.443295, 0.633677, -3.12942, -0.0541423, -0.102336, 0.0104799, -0.00756732, -0.0218384, -0.00262962, -0.00851606, -0.0158161
0.0931523, 0.107777, -0.774241, -0.918263, -1.45861, -0.626867, 1.06926, -0.256669, 0.0165778, 0.00983029, -0.0412442, -0.013386, -0.0205408, 0.000222756, 0.000679123, -0.0557783, 15.9378, 20.0815, 16.7731, 1.04938, 4.05551, -0.0814099, 7.88312e-05, -0.00163092, 0.000758796, 0.00133543, -0.00473793, 0.00177207, 0.0130718, -0.0014477, 0.00703605, 0.0189341, 0.0670958, 0.0633084, -0.0108125, -0.444944, 0.634399, -3.1304, -0.0563857, -0.10979, -0.0107401, -0.443304, 0.633659, -3.12939, -0.0541323, -0.102282, 0.0107292, -0.00773386, -0.0223304, -0.00274122, -0.00971715, -0.0162402
0.0941523, 0.107795, -0.774231, -0.91831, -1.45863, -0.626879, 1.06926, -0.256677, 0.017838, 0.00969246, -0.0434517, -0.0126176, -0.0208052, 0.000419223, -0.00219143, -0.0161054, 15.9735, 20.0815, 16.7374, 1.06769, 4.04819, -0.00999879, 6.64367e-05, -0.00162916, 0.000753392, 0.00131965, -0.00482082, 0.00179831, 0.0136688, -0.00184174, 0.00712867, 0.0190822, 0.0673596, 0.0670517, -0.0108016, -0.444952, 0.634376, -3.13035, -0.0564147, -0.10987, -0.0107419, -0.443314, 0.633641, -3.12936, -0.0541206, -0.102232, 0.0109812, -0.00790168, -0.0228265, -0.00307681, -0.0103015, -0.0166897
0.0951523, 0.107816, -0.774222, -0.918357, -1.45864, -0.626889, 1.06925, -0.256668, 0.018902, 0.0118834, -0.0411012, -0.0158401, -0.0202418, 7.80297e-06, 0.00142177, 0.0196001, 16.0489, 20.0458, 16.7374, 1.06769, 4.05551, -0.0878186, 5.54512e-05, -0.00162879, 0.00074872, 0.00131013, -0.0049064, 0.00183609, 0.0112564, -0.000846329, 0.00734042, 0.0192644, 0.0720292, 0.0700361, -0.0107905, -0.44496, 0.634353, -3.1303, -0.0564444, -0.109952, -0.010742, -0.443323, 0.633622, -3.12932, -0.0540919, -0.10218, 0.0112358, -0.00807076, -0.0233269, -0.000468549, -0.00939253, -0.0168026
0.0961523, 0.107841, -0.774213, -0.91841, -1.45866, -0.626898, 1.06925, -0.256677, 0.0206295, 0.0105464, -0.0434683, -0.0133741, -0.0151276, 4.89335e-06, -0.00193399, 0.0196001, 16.1203, 20.0458, 16.662, 1.06769, 4.05551, -0.00999879, 4.33412e-05, -0.00162671, 0.000744027, 0.00129944, -0.00498868, 0.00185926, 0.0113846, -0.000762793, 0.00783391, 0.0175983, 0.0660389, 0.076349, -0.0107792, -0.444968, 0.634329, -3.13025, -0.0564747, -0.110035, -0.010743, -0.443334, 0.633603, -3.12928, -0.0540865, -0.102136, 0.011493, -0.00824109, -0.0238314, -0.000377009, -0.00948955, -0.0168239
0.0971523, 0.107863, -0.774193, -0.918469, -1.45867, -0.62691, 1.06925, -0.256674, 0.0200384, 0.0161967, -0.0459498, -0.0134211, -0.0158376, 3.03075e-06, 0.000881095, 0.0949785, 16.0489, 20.0815, 16.662, 1.06128, 4.05551, -0.0685925, 3.14562e-05, -0.00162377, 0.000740378, 0.00128964, -0.00508678, 0.00190223, 0.0110794, -0.000992593, 0.00786746, 0.017723, 0.0730625, 0.0725807, -0.0107676, -0.444977, 0.634305, -3.13019, -0.0565057, -0.11012, -0.0107433, -0.443345, 0.633581, -3.12924, -0.0540511, -0.102067, 0.0117529, -0.00841265, -0.0243401, 0.000192847, -0.00988081, -0.0172801
0.0981523, 0.107889, -0.774182, -0.918523, -1.45868, -0.626926, 1.06925, -0.256677, 0.0204729, 0.0136416, -0.0469773, -0.0147653, -0.0172271, 1.8469e-06, -0.00134517, 0.134651, 16.1203, 20.0815, 16.5866, 1.07959, 4.05551, -0.0164075, 1.74513e-05, -0.00162065, 0.000734258, 0.00127306, -0.0051763, 0.00193667, 0.0122072, -0.00114524, 0.00758744, 0.0176923, 0.0732081, 0.0763673, -0.0107557, -0.444985, 0.634281, -3.13014, -0.0565373, -0.110207, -0.0107457, -0.443358, 0.633562, -3.12921, -0.0540293, -0.102015, 0.0120154, -0.00858543, -0.0248528, -0.000644114, -0.0102442, -0.0181535
0.0991523, 0.107917, -0.774172, -0.91858, -1.4587, -0.626941, 1.06925, -0.25667, 0.021764, 0.0109082, -0.0501862, -0.0192392, -0.0176168, -0.000812701, 0.00127352, 0.134651, 16.2314, 20.0458, 16.662, 1.07959, 4.07748, -0.0750012, 6.77233e-06, -0.0016188, 0.000732314, 0.00126665, -0.00527508, 0.0019729, 0.0129592, -0.00128743, 0.00563209, 0.013304, 0.0749796, 0.0766025, -0.0107435, -0.444994, 0.634256, -3.13008, -0.0565696, -0.110296, -0.0107443, -0.443368, 0.633538, -3.12917, -0.0540059, -0.101949, 0.0122806, -0.0087594, -0.0253696, -0.000986603, -0.0105676, -0.0206757
0.100152, 0.107935, -0.774158, -0.918644, -1.45872, -0.626953, 1.06925, -0.256673, 0.0211964, 0.0116897, -0.0555491, -0.0176147, -0.0183719, -0.000270631, -0.00108365, 0.325081, 16.2314, 20.0101, 16.662, 1.09241, 4.07016, -0.0228162, -1.09114e-05, -0.00161523, 0.000729242, 0.00125735, -0.00537244, 0.00201951, 0.0153525, -0.00238334, 0.00523778, 0.01264, 0.0759611, 0.0750188, -0.0107311, -0.445003, 0.63423, -3.13002, -0.0566025, -0.110386, -0.0107496, -0.443381, 0.633514, -3.12913, -0.0539669, -0.101888, 0.0125483, -0.00893455, -0.0258904, -0.00303721, -0.01192, -0.0217681
0.101152, 0.107964, -0.774137, -0.918711, -1.45874, -0.626961, 1.06925, -0.256673, 0.0218208, 0.013748, -0.0615097, -0.016495, -0.0130348, -0.000960388, -0.000247623, 0.360787, 16.16, 20.0458, 16.662, 1.0741, 4.09122, -0.0356336, -2.20592e-05, -0.00161222, 0.000727484, 0.00125508, -0.0054765, 0.00205622, 0.0158597, -0.00264683, 0.00442148, 0.00757321, 0.074593, 0.0741606, -0.0107184, -0.445012, 0.634204, -3.12996, -0.0566361, -0.110479, -0.010748, -0.443394, 0.633489, -3.12908, -0.0539442, -0.101817, 0.0128186, -0.00911087, -0.0264151, -0.00320567, -0.0123699, -0.0231461
0.102152, 0.107993, -0.774127, -0.918782, -1.45876, -0.626976, 1.06925, -0.256672, 0.0212113, 0.0109835, -0.065951, -0.0154272, -0.0104669, -0.000911581, 0.00058097, 0.436165, 16.2671, 20.0815, 16.662, 1.09241, 4.09854, -0.0557752, -3.93975e-05, -0.00160731, 0.000725947, 0.00124951, -0.0055753, 0.0021029, 0.0183396, -0.00313545, 0.00395161, 0.00506397, 0.0701026, 0.0719687, -0.0107055, -0.445021, 0.634177, -3.1299, -0.0566704, -0.110573, -0.0107523, -0.443409, 0.633463, -3.12903, -0.0539066, -0.101757, 0.0130915, -0.00928833, -0.0269437, -0.00535411, -0.0131201, -0.0243238
0.103152, 0.108025, -0.774108, -0.918849, -1.45877, -0.62699, 1.06924, -0.25667, 0.0258069, 0.0156503, -0.0667465, -0.0129753, -0.0124769, -0.00165892, 0.000862082, 0.436165, 16.2314, 20.0101, 16.5866, 1.09241, 4.12692, -0.0685925, -5.24519e-05, -0.00160368, 0.000720948, 0.00123911, -0.00568052, 0.00214497, 0.0163637, -0.00336024, 0.00499107, 0.00722089, 0.075881, 0.0753732, -0.0106922, -0.44503, 0.63415, -3.12984, -0.0567054, -0.110669, -0.0107523, -0.443422, 0.63344, -3.12898, -0.0538768, -0.101689, 0.0133669, -0.00946692, -0.0274763, -0.00317408, -0.0134641, -0.0236828
0.104152, 0.108054, -0.774089, -0.918922, -1.45879, -0.627002, 1.06924, -0.256672, 0.0304704, 0.01498, -0.0698993, -0.0161609, -0.00841007, -0.00110598, 0.000100042, 0.511544, 16.2314, 20.0458, 16.5866, 1.06769, 4.12692, -0.0557752, -6.73705e-05, -0.00159923, 0.000719088, 0.00123401, -0.00578774, 0.00218844, 0.0142427, -0.00335094, 0.00355196, 0.0027427, 0.0748577, 0.0839351, -0.0106787, -0.44504, 0.634122, -3.12978, -0.056741, -0.110767, -0.0107536, -0.443437, 0.633413, -3.12893, -0.0538456, -0.101619, 0.0136449, -0.00964662, -0.0280126, -0.000680806, -0.0135438, -0.0255056
0.105152, 0.108079, -0.774075, -0.918999, -1.4588, -0.627012, 1.06924, -0.256676, 0.0259112, 0.0167994, -0.0688751, -0.0162316, -0.0061251, -0.00209368, -0.00139134, 0.6623, 16.2671, 20.0815, 16.6223, 1.06128, 4.16354, -0.0164075, -8.74893e-05, -0.00159574, 0.000718711, 0.00123759, -0.00589572, 0.00223618, 0.0152527, -0.00234822, 0.00449976, 0.00297868, 0.0761542, 0.084753, -0.0106649, -0.44505, 0.634094, -3.12971, -0.0567774, -0.110867, -0.0107598, -0.44345, 0.633384, -3.12887, -0.0538089, -0.10155, 0.0139255, -0.00982742, -0.0285528, -0.00151061, -0.0127695, -0.025165
0.106152, 0.108111, -0.774054, -0.91907, -1.45882, -0.627024, 1.06923, -0.256665, 0.0294044, 0.0166862, -0.0687869, -0.0135356, -0.00532838, -0.00190443, 0.00171732, 0.6623, 16.2314, 20.0101, 16.5509, 1.07959, 4.17727, -0.0878186, -0.000101057, -0.00159217, 0.000713844, 0.00122806, -0.00600649, 0.00229031, 0.0143343, -0.00233967, 0.00581261, 0.00516497, 0.0743779, 0.0861826, -0.0106509, -0.44506, 0.634065, -3.12965, -0.0568144, -0.110969, -0.0107594, -0.443464, 0.633359, -3.12882, -0.0537625, -0.101479, 0.0142086, -0.0100093, -0.0290967, -0.000405241, -0.0129246, -0.0243354
0.107152, 0.108143, -0.774042, -0.919143, -1.45884, -0.627035, 1.06923, -0.256676, 0.0276385, 0.0178819, -0.0710485, -0.0173502, -0.00798878, -0.00181217, -0.00173732, 0.701973, 16.2671, 19.8951, 16.5866, 1.06128, 4.19192, -0.00999879, -0.000117418, -0.0015893, 0.000711203, 0.00122517, -0.00611416, 0.00232188, 0.015445, -0.0025844, 0.00468196, 0.00407571, 0.0808744, 0.0888338, -0.0106365, -0.44507, 0.634036, -3.12958, -0.0568522, -0.111073, -0.0107615, -0.443478, 0.633331, -3.12877, -0.053752, -0.101414, 0.0144943, -0.0101922, -0.0296444, -0.00113803, -0.0133804, -0.0260929
0.108152, 0.108171, -0.774027, -0.919223, -1.45885, -0.627045, 1.06923, -0.256669, 0.0255742, 0.0179915, -0.0755505, -0.0186603, -0.0105395, -0.00198802, 0.0012493, 0.777352, 16.3425, 19.8951, 16.5509, 1.05578, 4.21298, -0.0750012, -0.000137929, -0.00158492, 0.000708763, 0.0012226, -0.00622219, 0.00238239, 0.0182664, -0.00336888, 0.00363081, 0.00262519, 0.0848141, 0.0818243, -0.0106219, -0.44508, 0.634006, -3.12951, -0.0568906, -0.111178, -0.0107673, -0.443493, 0.633302, -3.12871, -0.0536974, -0.10135, 0.0147825, -0.0103762, -0.0301957, -0.00355936, -0.014439, -0.0279011
0.109152, 0.108205, -0.774008, -0.919297, -1.45887, -0.627056, 1.06922, -0.256676, 0.0226839, 0.0207864, -0.0763554, -0.018053, -0.0129081, -0.00159662, -0.00133727, 0.777352, 16.3068, 19.784, 16.5866, 1.06128, 4.2203, -0.0164075, -0.000151678, -0.00158213, 0.000705189, 0.00121767, -0.0063395, 0.00241733, 0.0197492, -0.00356003, 0.00439237, 0.00528941, 0.0895906, 0.081485, -0.010607, -0.44509, 0.633975, -3.12945, -0.0569298, -0.111286, -0.0107662, -0.443507, 0.633274, -3.12866, -0.0536831, -0.101275, 0.0150731, -0.0105613, -0.0307507, -0.00479367, -0.0148774, -0.0278051
0.110152, 0.10824, -0.773986, -0.919373, -1.4589, -0.627064, 1.06922, -0.256669, 0.0293051, 0.0205224, -0.0745232, -0.0213646, -0.0139493, -0.00133569, 0.00151599, 0.777352, 16.2314, 19.7086, 16.662, 1.04938, 4.22763, -0.0814099, -0.000163904, -0.00158004, 0.000702691, 0.00121622, -0.00646168, 0.00246351, 0.0160525, -0.0031483, 0.00428462, 0.00592051, 0.0929056, 0.0898742, -0.0105917, -0.445101, 0.633944, -3.12938, -0.0569696, -0.111396, -0.0107633, -0.44352, 0.633245, -3.12859, -0.0536523, -0.101193, 0.0153663, -0.0107473, -0.0313093, -0.000823199, -0.0145185, -0.028206
0.111152, 0.108265, -0.773968, -0.919453, -1.45891, -0.62707, 1.06921, -0.256669, 0.0297979, 0.0215245, -0.0743379, -0.0189062, -0.01503, -0.00116173, 0.00101067, 0.85273, 16.2314, 19.6729, 16.662, 1.04297, 4.23495, -0.0814099, -0.000183912, -0.0015774, 0.000698622, 0.00121366, -0.00657547, 0.00251794, 0.0164216, -0.00320538, 0.00570744, 0.00915971, 0.0938206, 0.0912824, -0.0105762, -0.445112, 0.633913, -3.1293, -0.0570102, -0.111507, -0.0107679, -0.443534, 0.633216, -3.12853, -0.0536094, -0.101126, 0.015662, -0.0109343, -0.0318714, -0.000994452, -0.0147923, -0.0273773
0.112152, 0.108294, -0.773951, -0.919528, -1.45893, -0.627078, 1.0692, -0.256671, 0.0280804, 0.0183432, -0.0763771, -0.0154631, -0.0157807, -0.00552525, 0.000199064, 0.888436, 16.2671, 19.5975, 16.5866, 1.03656, 4.23495, -0.0685925, -0.000203221, -0.00157566, 0.000692017, 0.00120672, -0.00668899, 0.00256746, 0.0203745, -0.00291906, 0.00632386, 0.00729301, 0.0920392, 0.08877, -0.0105604, -0.445123, 0.63388, -3.12923, -0.0570515, -0.111621, -0.0107717, -0.443548, 0.633189, -3.12848, -0.0535746, -0.101063, 0.0159602, -0.0111224, -0.0324371, -0.00469102, -0.0148444, -0.0276094
0.113152, 0.108326, -0.773927, -0.919608, -1.45894, -0.627087, 1.0692, -0.256671, 0.0275815, 0.021793, -0.0786954, -0.0140028, -0.0165474, -0.00353686, -0.000104646, 0.888436, 16.1957, 19.5618, 16.5509, 1.03656, 4.2203, -0.0621838, -0.000220252, -0.0015726, 0.000685892, 0.00119784, -0.00681177, 0.00261884, 0.0207924, -0.0036077, 0.00701923, 0.0100431, 0.0950056, 0.0877629, -0.0105443, -0.445134, 0.633848, -3.12916, -0.0570936, -0.111737, -0.0107729, -0.443563, 0.633161, -3.12842, -0.0535377, -0.100986, 0.0162609, -0.0113113, -0.0330063, -0.00483124, -0.0157453, -0.0275226
0.114152, 0.108351, -0.773911, -0.919685, -1.45896, -0.627092, 1.06919, -0.256675, 0.02539, 0.0208189, -0.0796351, -0.0128435, -0.0120053, -0.0029261, -0.00129047, 0.963814, 16.2671, 19.4864, 16.5112, 1.02466, 4.22763, -0.0292249, -0.000241842, -0.00157167, 0.000679435, 0.00119329, -0.00692797, 0.00267058, 0.0218975, -0.0032069, 0.00778053, 0.00976766, 0.0903533, 0.0897237, -0.0105279, -0.445146, 0.633814, -3.12908, -0.0571363, -0.111854, -0.0107785, -0.443576, 0.633133, -3.12836, -0.053501, -0.100922, 0.016564, -0.0115013, -0.033579, -0.00569896, -0.0155842, -0.0274134
0.115152, 0.108387, -0.773884, -0.919761, -1.45898, -0.627094, 1.06918, -0.25667, 0.0304038, 0.0244556, -0.0771706, -0.0177459, -0.00814892, -0.00685197, -0.000148232, 0.888436, 16.16, 19.4111, 16.5866, 0.999938, 4.22763, -0.0484509, -0.000252129, -0.00157208, 0.000674437, 0.00119226, -0.00706042, 0.00271275, 0.0166921, -0.00112052, 0.00720701, 0.0045478, 0.0969732, 0.101896, -0.0105112, -0.445157, 0.633781, -3.12901, -0.0571798, -0.111974, -0.0107724, -0.443588, 0.633104, -3.12829, -0.0534803, -0.100834, 0.0168696, -0.0116921, -0.034155, -0.000241089, -0.0134968, -0.0281724
0.116152, 0.108417, -0.773867, -0.91984, -1.45899, -0.627099, 1.06917, -0.256669, 0.0318257, 0.0227845, -0.0785984, -0.0187488, -0.00599093, -0.00458234, 0.000884524, 0.888436, 16.2314, 19.3397, 16.5509, 0.993529, 4.21298, -0.0750012, -0.000272484, -0.00157084, 0.000667023, 0.00118547, -0.00717778, 0.00276655, 0.0164188, -0.00136454, 0.00718376, 0.00495782, 0.0940727, 0.104871, -0.0104942, -0.445169, 0.633746, -3.12893, -0.0572241, -0.112096, -0.0107761, -0.443601, 0.633075, -3.12823, -0.0534419, -0.100773, 0.0171776, -0.0118839, -0.0347344, 0.000349627, -0.0139232, -0.028759
0.117152, 0.108441, -0.773848, -0.919919, -1.45901, -0.627103, 1.06916, -0.25667, 0.026024, 0.0195022, -0.0795796, -0.0171163, -0.00459072, -0.00812011, 0.000352325, 0.928108, 16.2671, 19.2643, 16.5509, 0.993529, 4.21298, -0.0685925, -0.000293685, -0.00157075, 0.000659723, 0.00117954, -0.00730326, 0.00282139, 0.0209919, -0.000552735, 0.00776026, 0.00282285, 0.0912614, 0.100833, -0.0104768, -0.445181, 0.633711, -3.12885, -0.0572691, -0.112219, -0.0107804, -0.443614, 0.633046, -3.12816, -0.0534028, -0.1007, 0.017488, -0.0120766, -0.0353172, -0.00396983, -0.0134778, -0.0290894
0.118152, 0.108471, -0.773825, -0.919998, -1.45903, -0.627106, 1.06916, -0.25667, 0.0258769, 0.021884, -0.0792983, -0.0199117, -0.00374541, -0.00533406, -0.00074846, 0.928108, 16.2314, 19.1532, 16.5866, 0.999938, 4.19192, -0.0420422, -0.000310598, -0.00157056, 0.000653049, 0.00117443, -0.00743226, 0.00287033, 0.0194702, -0.000466393, 0.00792603, 0.00476996, 0.094223, 0.105975, -0.0104592, -0.445193, 0.633676, -3.12877, -0.0573148, -0.112345, -0.0107801, -0.443627, 0.633016, -3.1281, -0.0533736, -0.100624, 0.0178009, -0.0122702, -0.0359033, -0.0021556, -0.013533, -0.0294019
0.119152, 0.108503, -0.773803, -0.920086, -1.45905, -0.627106, 1.06914, -0.256669, 0.0298277, 0.0226315, -0.0804139, -0.0180396, -0.00729224, -0.00876551, 0.00072173, 0.888436, 16.2314, 19.2246, 16.5866, 0.993529, 4.19192, -0.0750012, -0.000330387, -0.00157016, 0.000647828, 0.00117788, -0.0075613, 0.00292533, 0.019571, -0.000451479, 0.00840154, 0.00461439, 0.0990821, 0.107074, -0.0104412, -0.445205, 0.633639, -3.12869, -0.0573613, -0.112473, -0.0107822, -0.443641, 0.632984, -3.12802, -0.0533362, -0.10055, 0.0181163, -0.0124646, -0.0364926, -0.00197584, -0.0137229, -0.0295258
0.120152, 0.108527, -0.773779, -0.920166, -1.45907, -0.627111, 1.06913, -0.256673, 0.0245266, 0.0209211, -0.0808116, -0.0212252, -0.00621674, -0.00608554, -0.000739549, 0.928108, 16.1957, 19.1532, 16.5112, 1.01276, 4.17727, -0.0420422, -0.000352476, -0.00157006, 0.000637593, 0.00116596, -0.00769334, 0.0029827, 0.0216743, -0.000373827, 0.00826519, 0.0057704, 0.0980837, 0.10727, -0.0104229, -0.445218, 0.633603, -3.12861, -0.0574085, -0.112603, -0.0107867, -0.443654, 0.632956, -3.12796, -0.0532953, -0.100474, 0.018434, -0.0126599, -0.0370852, -0.00374825, -0.0139165, -0.030407
0.121152, 0.108553, -0.773756, -0.920255, -1.45908, -0.627108, 1.06912, -0.25667, 0.027888, 0.0219105, -0.0845496, -0.0183809, -0.00415216, -0.00945026, -0.000493033, 0.928108, 16.1957, 19.2246, 16.4755, 0.999938, 4.17727, -0.0420422, -0.000376041, -0.0015702, 0.000629936, 0.00116666, -0.00782054, 0.00304796, 0.0219065, -0.000273447, 0.00832831, 0.00209879, 0.0983819, 0.109217, -0.0104044, -0.445231, 0.633565, -3.12852, -0.0574565, -0.112735, -0.0107921, -0.443668, 0.632924, -3.12788, -0.0532434, -0.100406, 0.0187541, -0.012856, -0.0376809, -0.0036683, -0.0140228, -0.0309576
0.122152, 0.108576, -0.773732, -0.920335, -1.4591, -0.627108, 1.06911, -0.256666, 0.0223429, 0.0226137, -0.0814968, -0.0179129, -0.00360461, -0.00636191, 0.000654656, 1.00349, 16.1957, 19.1889, 16.5112, 1.01276, 4.15622, -0.0685925, -0.000397151, -0.00157128, 0.00062077, 0.00115824, -0.00795594, 0.00311078, 0.02309, 0.000169844, 0.0104258, 0.00833184, 0.0974633, 0.107075, -0.0103854, -0.445244, 0.633527, -3.12844, -0.0575053, -0.11287, -0.010795, -0.443681, 0.632894, -3.12782, -0.0531957, -0.100329, 0.0190766, -0.013053, -0.0382798, -0.00469309, -0.013846, -0.029548
0.123152, 0.108605, -0.773709, -0.920416, -1.45912, -0.627108, 1.0691, -0.256667, 0.0249232, 0.0254857, -0.0798941, -0.0166247, -0.00267441, -0.00918797, 0.000199079, 0.928108, 16.2314, 19.1889, 16.5112, 1.01276, 4.14889, -0.0621838, -0.000416723, -0.00157302, 0.000611057, 0.00115209, -0.008091, 0.00316358, 0.02122, 0.00123135, 0.011674, 0.00840852, 0.101008, 0.113283, -0.0103662, -0.445257, 0.633489, -3.12835, -0.0575548, -0.113006, -0.010796, -0.443693, 0.632864, -3.12775, -0.0531645, -0.100254, 0.0194015, -0.0132507, -0.0388819, -0.0026342, -0.0129316, -0.0287622
0.124152, 0.108628, -0.773686, -0.920492, -1.45915, -0.627108, 1.06908, -0.256668, 0.0241303, 0.0254045, -0.0775885, -0.0174249, -0.00198644, -0.0119344, 0.000607437, 0.963814, 16.2314, 19.1532, 16.5866, 1.01276, 4.15622, -0.0750012, -0.000436836, -0.00157697, 0.000600826, 0.00114577, -0.00823266, 0.00321566, 0.0211173, 0.00254308, 0.0124913, 0.00796783, 0.103051, 0.116777, -0.0103466, -0.44527, 0.633449, -3.12826, -0.0576051, -0.113144, -0.0107974, -0.443703, 0.632833, -3.12767, -0.0531353, -0.100171, 0.0197288, -0.0134493, -0.039487, -0.00231308, -0.0118271, -0.0285343
0.125152, 0.108651, -0.773666, -0.920569, -1.45916, -0.627108, 1.06907, -0.256671, 0.0244392, 0.0213701, -0.0772231, -0.0144464, -0.00147692, -0.00898822, -0.00129046, 0.963814, 16.2671, 19.1532, 16.5112, 1.01276, 4.15622, -0.0292249, -0.000459722, -0.00157954, 0.000587654, 0.00113157, -0.00836536, 0.00327177, 0.022561, 0.00207526, 0.0142328, 0.0130164, 0.0960621, 0.120226, -0.0103267, -0.445284, 0.63341, -3.12817, -0.0576562, -0.113285, -0.0108013, -0.443715, 0.632805, -3.12761, -0.0531002, -0.100104, 0.0200585, -0.0136486, -0.0400951, -0.00353167, -0.0125694, -0.0275166
0.126152, 0.108671, -0.773639, -0.920654, -1.45918, -0.627109, 1.06906, -0.256662, 0.0237421, 0.0258905, -0.0825706, -0.0173288, -0.0015399, -0.0111826, 0.00205582, 1.00349, 16.2671, 19.2643, 16.5112, 1.02466, 4.14889, -0.10796, -0.000484876, -0.00158137, 0.000576234, 0.00112177, -0.00850916, 0.00334964, 0.0231622, 0.00195827, 0.0124702, 0.00762704, 0.104686, 0.115755, -0.0103065, -0.445298, 0.633369, -3.12808, -0.0577081, -0.113428, -0.0108071, -0.443728, 0.632774, -3.12754, -0.0530324, -0.100022, 0.0203905, -0.0138487, -0.0407063, -0.00366847, -0.0128886, -0.0299324
0.127152, 0.108686, -0.773608, -0.920728, -1.4592, -0.627109, 1.06905, -0.256668, 0.0192827, 0.0274014, -0.0806076, -0.0161751, -0.00111245, -0.0134798, -0.000833504, 1.07887, 16.1957, 19.2643, 16.5112, 1.02466, 4.15622, -0.0484509, -0.000506936, -0.00158577, 0.000561933, 0.00110537, -0.00865877, 0.00340713, 0.0247208, 0.00311029, 0.014013, 0.00893025, 0.107004, 0.117526, -0.010286, -0.445311, 0.633328, -3.12799, -0.0577607, -0.113573, -0.0108097, -0.443738, 0.632746, -3.12747, -0.0529969, -0.099934, 0.0207248, -0.0140495, -0.0413204, -0.005043, -0.012016, -0.0291122
0.128152, 0.108706, -0.773587, -0.920813, -1.45922, -0.627111, 1.06904, -0.256664, 0.0208978, 0.0250076, -0.0825507, -0.0182138, -0.00124683, -0.0148159, 0.000902393, 1.07887, 16.2671, 19.4111, 16.5112, 1.03656, 4.15622, -0.0878186, -0.000533689, -0.00158839, 0.000550666, 0.0010962, -0.00880246, 0.00347878, 0.0253918, 0.0032187, 0.0132245, 0.00632205, 0.107688, 0.119158, -0.0102651, -0.445326, 0.633287, -3.1279, -0.0578142, -0.11372, -0.0108164, -0.443751, 0.632714, -3.1274, -0.0529404, -0.0998565, 0.0210615, -0.0142511, -0.0419374, -0.00532331, -0.012126, -0.0305657
0.129152, 0.108723, -0.773559, -0.920889, -1.45924, -0.627109, 1.06902, -0.256668, 0.0181209, 0.0291094, -0.0813785, -0.019884, -0.000438705, -0.0160678, -0.000856467, 1.11457, 16.2314, 19.4507, 16.5112, 1.02466, 4.16354, -0.0484509, -0.000557331, -0.00159274, 0.000534878, 0.00107776, -0.0089493, 0.00353979, 0.0249157, 0.00425867, 0.0138177, 0.0063554, 0.113674, 0.122514, -0.0102438, -0.44534, 0.633244, -3.1278, -0.0578684, -0.113869, -0.01082, -0.443762, 0.632686, -3.12733, -0.052901, -0.0997769, 0.0214005, -0.0144534, -0.0425574, -0.00459279, -0.0112811, -0.0305514
0.130152, 0.108742, -0.773534, -0.92096, -1.45926, -0.627112, 1.06901, -0.256664, 0.0208894, 0.0281034, -0.0764574, -0.0212085, -0.00124422, -0.0120298, 0.000649725, 1.07887, 16.2314, 19.4507, 16.5112, 1.04938, 4.16354, -0.0814099, -0.000579527, -0.00159817, 0.000518247, 0.00105639, -0.00910066, 0.00360312, 0.0221482, 0.00458792, 0.0156759, 0.0135559, 0.112806, 0.130102, -0.0102223, -0.445355, 0.633201, -3.12771, -0.0579234, -0.114021, -0.010822, -0.443772, 0.632658, -3.12727, -0.0528586, -0.0996925, 0.0217418, -0.0146563, -0.0431802, -0.00164171, -0.0110794, -0.0291181
0.131152, 0.108761, -0.773511, -0.921044, -1.45928, -0.627113, 1.06899, -0.256669, 0.0219889, 0.0264618, -0.0802216, -0.0222401, -0.00129745, -0.0136942, -0.00126227, 1.07887, 16.2671, 19.6372, 16.5112, 1.06128, 4.16354, -0.0356336, -0.000607203, -0.00160235, 0.000505141, 0.00104644, -0.00925299, 0.00366759, 0.0236413, 0.00438648, 0.0147054, 0.0101014, 0.113773, 0.133028, -0.0102004, -0.445369, 0.633158, -3.12761, -0.0579792, -0.114174, -0.0108288, -0.443784, 0.632626, -3.12719, -0.0528158, -0.0996082, 0.0220854, -0.01486, -0.0438058, -0.00270965, -0.0115289, -0.0308247
0.132152, 0.108781, -0.77348, -0.921117, -1.4593, -0.627114, 1.06898, -0.256663, 0.0214335, 0.0269799, -0.0785379, -0.0172361, -0.0011227, -0.00999006, 0.00136253, 1.00349, 16.2314, 19.6372, 16.4001, 1.06769, 4.15622, -0.0951428, -0.000629497, -0.00160758, 0.000485221, 0.00101854, -0.00940523, 0.00373775, 0.0240782, 0.00400186, 0.0177228, 0.0183867, 0.109845, 0.130953, -0.0101781, -0.445384, 0.633114, -3.12751, -0.0580358, -0.11433, -0.0108304, -0.443795, 0.6326, -3.12713, -0.0527643, -0.0995273, 0.0224314, -0.0150643, -0.0444342, -0.00300575, -0.0121743, -0.028482
0.133152, 0.108793, -0.773452, -0.921198, -1.45932, -0.62711, 1.06896, -0.256667, 0.0173113, 0.0242113, -0.0800195, -0.0204355, -0.000526388, -0.00801754, -0.000549706, 1.07887, 16.1957, 19.7483, 16.4359, 1.06128, 4.16995, -0.0557752, -0.00065585, -0.00161419, 0.000471306, 0.00100968, -0.00956605, 0.0038028, 0.0265251, 0.00390475, 0.0171815, 0.0183309, 0.108632, 0.13187, -0.0101555, -0.445399, 0.633069, -3.12741, -0.0580933, -0.114488, -0.0108353, -0.443804, 0.632567, -3.12705, -0.0527224, -0.0994341, 0.0227796, -0.0152693, -0.0450654, -0.00505482, -0.0125616, -0.0298356
0.134152, 0.108817, -0.773428, -0.921271, -1.45935, -0.627116, 1.06895, -0.256661, 0.020659, 0.0235675, -0.0761254, -0.0249076, -0.00151527, -0.0101626, 0.000582965, 1.00349, 16.2314, 19.784, 16.4359, 1.09241, 4.15622, -0.0814099, -0.000678879, -0.00161981, 0.00045363, 0.000985599, -0.00972496, 0.00386824, 0.0237769, 0.00533101, 0.0172545, 0.0178407, 0.113491, 0.141166, -0.0101325, -0.445415, 0.633024, -3.12731, -0.0581515, -0.114649, -0.0108368, -0.443815, 0.632538, -3.12698, -0.0526801, -0.0993471, 0.0231301, -0.0154749, -0.0456993, -0.00202601, -0.0112447, -0.0301829
0.135152, 0.108832, -0.773403, -0.92134, -1.45937, -0.627117, 1.06894, -0.256662, 0.021633, 0.0200223, -0.074823, -0.0255192, -0.00101878, -0.00737212, 0.00089727, 1.00349, 16.2671, 19.7483, 16.3248, 1.09241, 4.14889, -0.0951428, -0.000703754, -0.00162738, 0.00043214, 0.000955957, -0.00988074, 0.0039322, 0.0237734, 0.0052933, 0.0181755, 0.0213955, 0.109427, 0.145718, -0.0101092, -0.44543, 0.632978, -3.12721, -0.0582105, -0.114811, -0.0108402, -0.443824, 0.632512, -3.12692, -0.0526407, -0.0992675, 0.0234829, -0.0156811, -0.0463358, -0.00173745, -0.0115031, -0.0299034
0.136152, 0.108844, -0.773374, -0.921418, -1.4594, -0.627117, 1.06893, -0.256661, 0.0175279, 0.0231019, -0.0772202, -0.0266566, -0.00068563, -0.0094436, -0.000147806, 1.07887, 16.1957, 19.8594, 16.3644, 1.09241, 4.12692, -0.0750012, -0.000729311, -0.00163385, 0.00041609, 0.000936404, -0.0100488, 0.00400128, 0.0256531, 0.00573051, 0.0178789, 0.0189696, 0.114987, 0.143884, -0.0100856, -0.445446, 0.632931, -3.1271, -0.0582704, -0.114976, -0.0108434, -0.443835, 0.632479, -3.12685, -0.0525947, -0.0991703, 0.0238379, -0.015888, -0.046975, -0.00325241, -0.0113409, -0.0309745
0.137152, 0.108869, -0.773346, -0.92149, -1.45942, -0.627118, 1.06891, -0.256661, 0.018951, 0.0274521, -0.0796006, -0.0285261, -0.000902731, -0.0116236, -9.8537e-05, 0.963814, 16.16, 19.8594, 16.3248, 1.10431, 4.12051, -0.0750012, -0.000750274, -0.001641, 0.000396132, 0.000909631, -0.0102136, 0.00405913, 0.0246714, 0.00604948, 0.0172254, 0.0160172, 0.122827, 0.146595, -0.0100616, -0.445462, 0.632884, -3.127, -0.0583311, -0.115144, -0.0108421, -0.443845, 0.632451, -3.12678, -0.0525666, -0.0990811, 0.0241952, -0.0160954, -0.0476168, -0.00188276, -0.0111876, -0.0321947
0.138152, 0.108882, -0.773325, -0.921568, -1.45945, -0.62712, 1.0689, -0.256669, 0.0162721, 0.0259789, -0.0791537, -0.030061, -0.00108016, -0.0127884, -0.00176111, 1.00349, 16.1957, 19.8951, 16.2891, 1.11713, 4.09854, -0.0292249, -0.000780068, -0.00164791, 0.000377561, 0.000887041, -0.0103752, 0.004123, 0.0263019, 0.00669718, 0.0174828, 0.0157844, 0.123936, 0.148977, -0.0100372, -0.445478, 0.632836, -3.12689, -0.0583926, -0.115313, -0.010849, -0.443855, 0.632419, -3.12671, -0.0525302, -0.0989988, 0.0245547, -0.0163034, -0.0482612, -0.00319342, -0.0108146, -0.0326983
0.139152, 0.108908, -0.773295, -0.921651, -1.45948, -0.627122, 1.06888, -0.256659, 0.0202813, 0.0283612, -0.0789007, -0.0290353, -0.00160445, -0.0142565, 0.00126733, 0.928108, 16.0846, 19.9347, 16.2891, 1.14093, 4.09122, -0.0951428, -0.000802747, -0.00165397, 0.000361483, 0.00086877, -0.0105525, 0.00419494, 0.024503, 0.00706724, 0.0183709, 0.016609, 0.12773, 0.151698, -0.0100124, -0.445495, 0.632787, -3.12678, -0.0584549, -0.115485, -0.0108483, -0.443867, 0.632385, -3.12663, -0.0524825, -0.0988941, 0.0249165, -0.016512, -0.0489081, -0.0011201, -0.0106018, -0.0323251
0.140152, 0.10893, -0.773278, -0.921734, -1.4595, -0.627123, 1.06887, -0.256661, 0.022092, 0.0216795, -0.0787239, -0.0263875, -0.00130903, -0.0149352, 9.89023e-05, 0.888436, 16.1957, 19.9705, 16.2137, 1.14734, 4.07748, -0.0750012, -0.000831458, -0.00165986, 0.000343407, 0.000846621, -0.0107123, 0.00426038, 0.0265286, 0.00713508, 0.0195437, 0.0180744, 0.120392, 0.155998, -0.00998734, -0.445511, 0.632738, -3.12667, -0.058518, -0.115659, -0.0108534, -0.443879, 0.632352, -3.12655, -0.0524454, -0.0988191, 0.0252805, -0.0167211, -0.0495576, -0.00286576, -0.0108367, -0.0319566
0.141152, 0.108949, -0.773255, -0.921818, -1.45954, -0.627122, 1.06885, -0.25666, 0.0185722, 0.0194964, -0.0829319, -0.029172, -0.000433407, -0.0158981, 6.59349e-05, 0.928108, 16.1957, 19.9347, 16.2137, 1.13544, 4.07748, -0.0750012, -0.000859184, -0.00166681, 0.000326495, 0.000828475, -0.0108829, 0.00432893, 0.0297745, 0.00705874, 0.0181308, 0.0138669, 0.120909, 0.153537, -0.00996188, -0.445528, 0.632688, -3.12656, -0.058582, -0.115835, -0.0108571, -0.44389, 0.632317, -3.12647, -0.0524046, -0.0987294, 0.0256467, -0.0169307, -0.0502094, -0.00562955, -0.0112263, -0.0342617
0.142152, 0.108971, -0.773229, -0.921906, -1.45957, -0.627124, 1.06884, -0.256664, 0.0209022, 0.0195807, -0.0889373, -0.0315099, -0.000968254, -0.0153406, -0.00117675, 0.888436, 16.1203, 19.8951, 16.2137, 1.15375, 4.04086, -0.0420422, -0.000885226, -0.00167232, 0.000311037, 0.00080911, -0.0110611, 0.0043925, 0.0305423, 0.00606151, 0.0163779, 0.010451, 0.12385, 0.155849, -0.00993605, -0.445545, 0.632638, -3.12645, -0.0586468, -0.116014, -0.0108586, -0.443903, 0.63228, -3.12639, -0.0523724, -0.0986303, 0.0260151, -0.0171409, -0.0508638, -0.00586112, -0.0124403, -0.036735
0.143152, 0.109, -0.773203, -0.922003, -1.4596, -0.627125, 1.06883, -0.256659, 0.0236102, 0.0225078, -0.0937006, -0.0322441, -0.00108717, -0.0114307, 0.000910923, 0.813057, 16.0489, 19.9705, 16.178, 1.16565, 4.03445, -0.0878186, -0.00091246, -0.00167657, 0.000297059, 0.000796257, -0.0112413, 0.00446761, 0.0297756, 0.00469371, 0.0158504, 0.0116569, 0.126538, 0.155538, -0.00990985, -0.445562, 0.632586, -3.12633, -0.0587125, -0.116195, -0.0108608, -0.443917, 0.632241, -3.1263, -0.0523235, -0.0985298, 0.0263857, -0.0173516, -0.0515205, -0.00463731, -0.0139849, -0.0378791
0.144152, 0.10902, -0.773178, -0.922099, -1.45964, -0.627123, 1.06882, -0.256658, 0.0197084, 0.0207015, -0.0911222, -0.032776, -0.00120014, -0.0128502, 0.00087855, 0.85273, 16.0092, 19.9347, 16.1383, 1.17847, 4.0198, -0.0951428, -0.000942799, -0.00168116, 0.000282037, 0.00077972, -0.0114178, 0.00454482, 0.0315883, 0.00577559, 0.0170388, 0.0132023, 0.126659, 0.156265, -0.00988328, -0.44558, 0.632535, -3.12622, -0.058779, -0.116378, -0.0108658, -0.443931, 0.632202, -3.12621, -0.0522721, -0.0984376, 0.0267585, -0.0175627, -0.0521796, -0.00620188, -0.0132018, -0.0374795
0.145152, 0.109055, -0.773157, -0.922198, -1.45967, -0.627129, 1.06881, -0.256662, 0.0259169, 0.0216047, -0.0934337, -0.0355047, -0.000800581, -0.00871717, -0.000872362, 0.777352, 16.0092, 19.9347, 16.0629, 1.17847, 3.99142, -0.0557752, -0.0009709, -0.00168432, 0.000267855, 0.000762594, -0.0115972, 0.0046085, 0.0285599, 0.00487916, 0.0164257, 0.0144278, 0.128066, 0.166453, -0.00985633, -0.445598, 0.632482, -3.1261, -0.0588463, -0.116563, -0.0108681, -0.443947, 0.632162, -3.12613, -0.0522425, -0.0983434, 0.0271335, -0.0177744, -0.052841, -0.00273136, -0.0141913, -0.0385397
0.146152, 0.109076, -0.773135, -0.922301, -1.45971, -0.627128, 1.0688, -0.256662, 0.0237144, 0.02318, -0.0941367, -0.0346103, -0.000974893, -0.0104553, -0.000581575, 0.85273, 15.9735, 19.8951, 15.9915, 1.19037, 3.96213, -0.0557752, -0.00100407, -0.00168762, 0.000253633, 0.000746245, -0.0117753, 0.00468953, 0.0300068, 0.00532324, 0.0171715, 0.0145466, 0.131005, 0.165283, -0.00982901, -0.445615, 0.632429, -3.12598, -0.0589145, -0.116751, -0.010875, -0.443963, 0.63212, -3.12604, -0.0521869, -0.0982534, 0.0275107, -0.0179865, -0.0535047, -0.00387029, -0.0140271, -0.0385661
0.147152, 0.109116, -0.773116, -0.922404, -1.45975, -0.627125, 1.06879, -0.256662, 0.0296942, 0.02354, -0.0982711, -0.0387841, 0.000265326, -0.0122219, -0.000150358, 0.737679, 15.9735, 19.8594, 15.9915, 1.16565, 3.94839, -0.0621838, -0.00102841, -0.00169138, 0.000241248, 0.0007354, -0.011954, 0.00474876, 0.028005, 0.00533157, 0.0150808, 0.00830336, 0.135222, 0.172802, -0.00980131, -0.445634, 0.632375, -3.12586, -0.0589835, -0.116942, -0.0108727, -0.443978, 0.632077, -3.12594, -0.0521662, -0.0981646, 0.02789, -0.018199, -0.0541706, -0.00134296, -0.01413, -0.0411701
0.148152, 0.109148, -0.773094, -0.92251, -1.45979, -0.627127, 1.06879, -0.256657, 0.0305946, 0.0247363, -0.0995792, -0.0391527, -0.000501488, -0.00826171, 0.000374479, 0.777352, 15.9378, 19.7483, 15.8765, 1.18396, 3.9191, -0.0750012, -0.001059, -0.00169317, 0.00022647, 0.000714531, -0.0121343, 0.00482927, 0.0276467, 0.00453817, 0.0156527, 0.0122776, 0.136263, 0.174441, -0.00977323, -0.445652, 0.63232, -3.12574, -0.0590534, -0.117134, -0.0108763, -0.443996, 0.632035, -3.12585, -0.0521131, -0.0980762, 0.0282715, -0.018412, -0.0548388, -0.000618596, -0.0151336, -0.0412535
0.149152, 0.10918, -0.773075, -0.92262, -1.45983, -0.627126, 1.06878, -0.256662, 0.0291663, 0.0246361, -0.10524, -0.0423891, -0.000131028, -0.00616956, -0.00168313, 0.777352, 15.9378, 19.7086, 15.8765, 1.17847, 3.91269, -0.0228162, -0.00108948, -0.00169611, 0.000215227, 0.00070505, -0.0123199, 0.00489676, 0.0295117, 0.00359178, 0.0139875, 0.00976408, 0.138112, 0.175036, -0.00974476, -0.44567, 0.632265, -3.12562, -0.0591241, -0.117329, -0.0108792, -0.444013, 0.631989, -3.12575, -0.0520815, -0.0979814, 0.0286551, -0.0186253, -0.0555092, -0.0019347, -0.0163408, -0.0437389
0.150152, 0.109217, -0.773053, -0.922731, -1.45987, -0.627126, 1.06878, -0.256657, 0.0335832, 0.0254564, -0.106726, -0.0428876, -8.7467e-05, -0.00370231, 0.00155668, 0.813057, 15.9021, 19.6729, 15.8011, 1.17847, 3.88339, -0.0951428, -0.00111841, -0.00169781, 0.000203181, 0.000690392, -0.012507, 0.00497359, 0.0277477, 0.00303173, 0.0142133, 0.0116522, 0.139057, 0.177795, -0.00971592, -0.445689, 0.632209, -3.12549, -0.0591957, -0.117527, -0.0108802, -0.444031, 0.631943, -3.12566, -0.0520362, -0.0978866, 0.0290408, -0.0188391, -0.0561817, 0.000211773, -0.0170546, -0.0440637
0.151152, 0.109257, -0.773032, -0.922848, -1.45992, -0.627128, 1.06877, -0.256662, 0.0346036, 0.022997, -0.107864, -0.0434902, -0.000736566, -0.00324523, -0.00140362, 0.813057, 15.8624, 19.6372, 15.7297, 1.19678, 3.89071, -0.0292249, -0.00114754, -0.0016992, 0.000192736, 0.000680736, -0.0127006, 0.00503994, 0.028692, 0.00285652, 0.0143283, 0.0122307, 0.138281, 0.183375, -0.00968668, -0.445708, 0.632153, -3.12537, -0.0592682, -0.117726, -0.0108809, -0.44405, 0.631895, -3.12556, -0.0520083, -0.097784, 0.0294287, -0.0190533, -0.0568564, -0.000344889, -0.0174837, -0.0447006
0.152152, 0.109298, -0.773012, -0.922961, -1.45996, -0.627127, 1.06877, -0.256657, 0.0376658, 0.0170812, -0.106814, -0.043719, -1.63906e-05, -0.0017629, 0.000284957, 0.85273, 15.8624, 19.5261, 15.6543, 1.18396, 3.86966, -0.0621838, -0.00117566, -0.00170054, 0.000179503, 0.000662278, -0.0128857, 0.00511284, 0.0287662, 0.0029144, 0.0150679, 0.0143442, 0.132199, 0.188516, -0.00965706, -0.445727, 0.632096, -3.12524, -0.0593415, -0.117929, -0.0108804, -0.444069, 0.631849, -3.12547, -0.0514502, -0.0976974, 0.0298187, -0.0192678, -0.0575331, -8.81845e-05, -0.0176573, -0.0446485
0.153152, 0.109339, -0.772991, -0.923077, -1.46001, -0.627129, 1.06878, -0.256659, 0.0393894, 0.0166554, -0.111074, -0.0437091, -0.000723052, -0.00091722, -0.000318655, 0.888436, 15.8267, 19.4864, 15.5789, 1.20318, 3.85501, -0.0484509, -0.00120383, -0.00170124, 0.000167546, 0.000644729, -0.0130799, 0.00518187, 0.0298985, 0.00205154, 0.0145812, 0.013735, 0.133049, 0.189722, -0.00962704, -0.445747, 0.632038, -3.12511, -0.0594156, -0.118133, -0.0108794, -0.444089, 0.6318, -3.12537, -0.0514199, -0.0975991, 0.0302108, -0.0194827, -0.0582119, -0.000756352, -0.0187725, -0.0459126
0.154152, 0.10939, -0.772976, -0.923196, -1.46006, -0.627128, 1.06878, -0.256654, 0.0390616, 0.0146356, -0.112255, -0.0481658, -0.000244712, -0.00109611, 0.00124563, 0.888436, 15.8624, 19.3754, 15.5432, 1.19678, 3.86233, -0.0878186, -0.00122984, -0.00170157, 0.000157464, 0.000631528, -0.0132688, 0.00524671, 0.0303824, 0.00239665, 0.013511, 0.0112301, 0.134681, 0.191925, -0.00959664, -0.445766, 0.631979, -3.12498, -0.0594907, -0.11834, -0.0108758, -0.44411, 0.63175, -3.12527, -0.0513973, -0.0975114, 0.0306049, -0.019698, -0.0588927, -0.000778741, -0.0186479, -0.047697
0.155152, 0.109436, -0.772956, -0.923321, -1.46011, -0.627129, 1.06877, -0.256661, 0.0402132, 0.0140416, -0.117544, -0.0486244, -0.000400528, -0.00116203, -0.00133972, 0.963814, 15.8624, 19.3, 15.3925, 1.20318, 3.86966, -0.0292249, -0.00126032, -0.00170188, 0.000146456, 0.000620301, -0.0134655, 0.00531396, 0.03205, 0.00160762, 0.0125287, 0.00867854, 0.13575, 0.194269, -0.00956583, -0.445786, 0.63192, -3.12485, -0.0595666, -0.11855, -0.0108762, -0.444131, 0.6317, -3.12516, -0.051372, -0.0974137, 0.0310012, -0.0199136, -0.0595756, -0.00194104, -0.0197024, -0.0494998
0.156152, 0.109489, -0.772938, -0.923448, -1.46016, -0.627128, 1.06878, -0.256661, 0.0386652, 0.0136181, -0.121431, -0.0499615, 0.000207679, -0.000623438, -0.000893148, 1.00349, 15.8624, 19.2246, 15.2814, 1.19037, 3.86233, -0.0292249, -0.00128819, -0.00170093, 0.000136473, 0.000607872, -0.0136585, 0.00538082, 0.0340122, 0.00119785, 0.01182, 0.00694331, 0.136588, 0.192781, -0.00953463, -0.445806, 0.63186, -3.12472, -0.0596434, -0.118761, -0.0108736, -0.444153, 0.631647, -3.12506, -0.0513481, -0.0973243, 0.0313996, -0.0201295, -0.0602603, -0.00342975, -0.0203935, -0.0510502
0.157152, 0.109541, -0.772924, -0.923586, -1.46021, -0.627128, 1.06878, -0.256657, 0.044096, 0.0123906, -0.126124, -0.0537118, -9.89216e-05, 3.68966e-05, 0.000625271, 1.03919, 15.9021, 19.2246, 15.2814, 1.19678, 3.84768, -0.0621838, -0.00132005, -0.00169854, 0.000131447, 0.000605531, -0.0138571, 0.00545726, 0.033069, 0.000443043, 0.00989672, 0.00330912, 0.138957, 0.197376, -0.00950303, -0.445826, 0.6318, -3.12458, -0.059721, -0.118976, -0.0108741, -0.444177, 0.631589, -3.12494, -0.0513108, -0.0972279, 0.0318, -0.0203457, -0.060947, -0.00191588, -0.0213014, -0.0535969
0.158152, 0.109598, -0.772901, -0.923719, -1.46027, -0.627128, 1.06878, -0.256664, 0.0466939, 0.0205747, -0.128608, -0.055171, -6.59593e-05, -0.000314179, -0.00104121, 1.00349, 15.8267, 19.1889, 15.2417, 1.19678, 3.85501, -0.0228162, -0.0013458, -0.00169803, 0.000124153, 0.00060083, -0.0140675, 0.0055145, 0.030335, 0.000480708, 0.00964678, 0.00223714, 0.149344, 0.20293, -0.00947103, -0.445847, 0.631738, -3.12445, -0.0597996, -0.119192, -0.0108683, -0.444199, 0.631533, -3.12482, -0.0513044, -0.0971159, 0.0322025, -0.0205621, -0.0616356, 0.00122717, -0.0213762, -0.0543301
0.159152, 0.109646, -0.772882, -0.923848, -1.46033, -0.627129, 1.06878, -0.256664, 0.0502508, 0.0216839, -0.126252, -0.0562295, -0.00028134, 0.000553717, -0.000219425, 1.15424, 15.8267, 19.1135, 15.206, 1.20318, 3.83304, -0.0356336, -0.00137564, -0.00169805, 0.000115062, 0.000589786, -0.0142744, 0.00558609, 0.0277387, 0.000990302, 0.0106993, 0.00510405, 0.151806, 0.210395, -0.00943863, -0.445867, 0.631676, -3.12431, -0.059879, -0.119411, -0.0108664, -0.444221, 0.631478, -3.12471, -0.0512762, -0.097012, 0.032607, -0.0207789, -0.062326, 0.00411772, -0.0210053, -0.0537702
0.160152, 0.109708, -0.77287, -0.923985, -1.46038, -0.627129, 1.06878, -0.256663, 0.0529216, 0.0175322, -0.12972, -0.057205, -0.000187567, 0.00033117, -0.000621001, 1.15424, 15.9021, 19.1135, 15.1703, 1.20318, 3.83304, -0.0228162, -0.00140464, -0.00169682, 0.000107604, 0.000584899, -0.0144755, 0.00565128, 0.0290875, 0.000522121, 0.00988675, 0.00284258, 0.149517, 0.213903, -0.00940582, -0.445888, 0.631614, -3.12417, -0.0599593, -0.119633, -0.0108631, -0.444244, 0.631421, -3.12459, -0.0512591, -0.0969193, 0.0330136, -0.0209959, -0.0630183, 0.00325934, -0.0217307, -0.0553863
0.161152, 0.109769, -0.772854, -0.924119, -1.46044, -0.627131, 1.06878, -0.256656, 0.0513045, 0.0163644, -0.127256, -0.0588197, -0.000565859, 0.000429658, 0.00151878, 1.18995, 15.9021, 19.0421, 15.1703, 1.21509, 3.82663, -0.0750012, -0.0014318, -0.00169637, 9.97738e-05, 0.00057788, -0.0146861, 0.00572062, 0.0294331, 0.00130497, 0.0108278, 0.00507578, 0.150514, 0.215204, -0.0093726, -0.445909, 0.63155, -3.12403, -0.0600404, -0.119857, -0.0108576, -0.444267, 0.631363, -3.12447, -0.0512366, -0.0968143, 0.0334222, -0.0212132, -0.0637123, 0.00322025, -0.0211967, -0.0551628
0.162152, 0.109827, -0.772838, -0.924261, -1.4605, -0.627131, 1.06878, -0.256662, 0.0517448, 0.0178647, -0.133211, -0.0590402, -0.000614602, -0.000243548, -0.000208184, 1.305, 15.9378, 19.0421, 15.1306, 1.2215, 3.84036, -0.0420422, -0.00146491, -0.00169479, 9.15521e-05, 0.000573128, -0.0148944, 0.00578955, 0.0311084, 0.00056821, 0.00979445, 0.00187788, 0.153782, 0.215422, -0.00933897, -0.445931, 0.631486, -3.12389, -0.0601225, -0.120083, -0.0108576, -0.444291, 0.631305, -3.12435, -0.0512157, -0.0967152, 0.0338328, -0.0214307, -0.0644081, 0.00206825, -0.0221998, -0.057032
0.163152, 0.109891, -0.772819, -0.924395, -1.46056, -0.627131, 1.06878, -0.256655, 0.0540431, 0.0166058, -0.133042, -0.0618122, -0.000172378, -0.000449653, 0.00155663, 1.34071, 15.9378, 18.9667, 15.206, 1.21509, 3.84768, -0.0878186, -0.00148918, -0.00169571, 8.367e-05, 0.000567921, -0.0151131, 0.00585362, 0.0301357, 0.00101903, 0.00957514, 0.00107372, 0.155129, 0.220245, -0.00930493, -0.445952, 0.631421, -3.12375, -0.0602054, -0.120312, -0.0108484, -0.444313, 0.631246, -3.12423, -0.0512034, -0.0966027, 0.0342455, -0.0216484, -0.0651057, 0.0034482, -0.0219295, -0.0578718
0.164152, 0.10995, -0.772805, -0.924536, -1.46062, -0.627131, 1.06878, -0.256657, 0.0569017, 0.0180218, -0.13538, -0.0620266, -0.00035228, -0.000583051, 8.83188e-05, 1.45576, 15.9735, 19.0024, 15.206, 1.2215, 3.85501, -0.0621838, -0.00152081, -0.00169522, 7.55899e-05, 0.00056268, -0.0153274, 0.00592214, 0.0295637, 0.000793132, 0.00952501, 0.000566303, 0.158028, 0.225326, -0.00927048, -0.445974, 0.631356, -3.1236, -0.0602893, -0.120544, -0.0108461, -0.444337, 0.631186, -3.12411, -0.0511851, -0.0964992, 0.0346601, -0.0218663, -0.0658049, 0.00444434, -0.0223534, -0.0585845
0.165152, 0.110014, -0.772792, -0.924675, -1.46068, -0.62713, 1.06878, -0.256656, 0.0611603, 0.0150531, -0.135558, -0.0590477, 0.000239863, -0.00066898, 0.000296238, 1.49146, 16.0489, 18.9667, 15.206, 1.20868, 3.86233, -0.0685925, -0.00155036, -0.00169444, 6.5239e-05, 0.000551861, -0.0155364, 0.00598875, 0.0294855, 0.00072998, 0.0108601, 0.00253557, 0.153803, 0.230562, -0.00923561, -0.445996, 0.63129, -3.12346, -0.060374, -0.120777, -0.0108415, -0.444361, 0.631128, -3.12399, -0.0511705, -0.096407, 0.0350768, -0.0220844, -0.0665058, 0.00483758, -0.0226567, -0.0579539
0.166152, 0.110083, -0.772777, -0.924816, -1.46074, -0.627131, 1.06878, -0.256658, 0.0610746, 0.017043, -0.139623, -0.0590483, -0.00031481, -0.000724012, -0.000277226, 1.53114, 16.0846, 18.9667, 15.1703, 1.2215, 3.86966, -0.0557752, -0.0015797, -0.00169419, 5.52729e-05, 0.000544503, -0.0157534, 0.00605209, 0.0307176, 0.000200134, 0.0105235, 0.0015261, 0.157418, 0.230211, -0.00920033, -0.446018, 0.631223, -3.12331, -0.0604596, -0.121014, -0.0108363, -0.444385, 0.631069, -3.12386, -0.0511621, -0.0963046, 0.0354954, -0.0223027, -0.0672083, 0.00407428, -0.0234486, -0.0590996
0.167152, 0.110151, -0.772764, -0.924953, -1.4608, -0.627131, 1.06878, -0.256656, 0.0608697, 0.0184629, -0.136625, -0.0616261, 2.74845e-05, -0.000487744, 0.000289901, 1.57081, 16.1203, 18.8556, 15.2417, 1.21509, 3.86966, -0.0685925, -0.00160592, -0.00169469, 4.56609e-05, 0.000534402, -0.0159725, 0.00611125, 0.0291428, 0.00122044, 0.0113835, 0.00344905, 0.161024, 0.235749, -0.00916462, -0.446041, 0.631155, -3.12316, -0.0605461, -0.121253, -0.0108276, -0.444408, 0.631009, -3.12374, -0.0511611, -0.0962017, 0.0359161, -0.0225212, -0.0679124, 0.00595609, -0.0226053, -0.0588146
0.168152, 0.110213, -0.772748, -0.925104, -1.46086, -0.627131, 1.06878, -0.256652, 0.0622559, 0.0163451, -0.14138, -0.0595811, 1.83224e-05, -0.000328964, 0.00141397, 1.68189, 16.16, 18.8913, 15.2814, 1.21509, 3.86966, -0.101552, -0.00163948, -0.00169312, 3.85048e-05, 0.000531397, -0.0161956, 0.00619024, 0.0314763, 0.000326814, 0.011305, 0.00269696, 0.158747, 0.233908, -0.00912849, -0.446063, 0.631087, -3.12301, -0.0606336, -0.121494, -0.0108255, -0.444433, 0.630945, -3.12361, -0.0511306, -0.0960943, 0.0363387, -0.0227398, -0.068618, 0.00409385, -0.0238076, -0.0597978
0.169152, 0.110291, -0.772737, -0.925256, -1.46093, -0.627129, 1.06878, -0.256657, 0.0641899, 0.0139284, -0.141624, -0.0569521, -0.000665954, -0.000730787, -0.00173612, 1.60651, 16.2314, 18.9271, 15.2814, 1.2334, 3.88339, -0.0292249, -0.00166909, -0.001692, 3.11988e-05, 0.000532713, -0.0164168, 0.00624796, 0.0324995, 0.000266107, 0.0125972, 0.00489999, 0.156411, 0.239717, -0.00909194, -0.446086, 0.631018, -3.12286, -0.0607219, -0.121738, -0.010819, -0.444459, 0.630881, -3.12347, -0.0511344, -0.0959923, 0.0367632, -0.0229586, -0.0693252, 0.00339994, -0.0241517, -0.0593028
0.170152, 0.110357, -0.772723, -0.925403, -1.46099, -0.627126, 1.06878, -0.25665, 0.0622214, 0.0130125, -0.141781, -0.0561019, 0.000471558, -0.000760597, 0.00101273, 1.68189, 16.2671, 18.9667, 15.3171, 1.20868, 3.89071, -0.0878186, -0.00170058, -0.0016926, 2.16363e-05, 0.000528251, -0.0166397, 0.00632372, 0.034011, 0.000612415, 0.0135828, 0.0061059, 0.155103, 0.237572, -0.00905497, -0.446109, 0.630949, -3.12271, -0.0608111, -0.121984, -0.0108142, -0.444483, 0.630818, -3.12334, -0.0511107, -0.0958904, 0.0371897, -0.0231774, -0.0700339, 0.00222901, -0.0241031, -0.0591479
0.171152, 0.110425, -0.772704, -0.92554, -1.46106, -0.627126, 1.06877, -0.256656, 0.0648819, 0.0179855, -0.139932, -0.0592703, 7.70126e-05, -0.0010512, -0.00149499, 1.72157, 16.1957, 18.9271, 15.3925, 1.21509, 3.90536, -0.0292249, -0.00172663, -0.00169523, 1.00005e-05, 0.000517118, -0.0168756, 0.00637648, 0.0305614, 0.00146002, 0.0139317, 0.00687056, 0.163561, 0.248096, -0.00901756, -0.446132, 0.630878, -3.12255, -0.0609012, -0.122233, -0.0108039, -0.444505, 0.630757, -3.12321, -0.0511238, -0.0957715, 0.0376182, -0.0233964, -0.0707441, 0.0060315, -0.023353, -0.0592331
0.172152, 0.110494, -0.772696, -0.925682, -1.46113, -0.62713, 1.06878, -0.256648, 0.0627853, 0.0140972, -0.141585, -0.0625013, -0.000389468, -0.000702005, 0.00168211, 1.79694, 16.3068, 18.8913, 15.5035, 1.22699, 3.90536, -0.101552, -0.00175753, -0.00169552, -5.59875e-07, 0.000503349, -0.0171032, 0.00644781, 0.032958, 0.00145688, 0.0131815, 0.0056458, 0.163034, 0.24561, -0.00897973, -0.446156, 0.630807, -3.12239, -0.0609922, -0.122484, -0.0107978, -0.444529, 0.630694, -3.12309, -0.0511087, -0.0956681, 0.0380486, -0.0236155, -0.0714557, 0.0041312, -0.0236576, -0.0608861
0.173152, 0.110564, -0.772683, -0.92583, -1.46118, -0.627128, 1.06878, -0.256654, 0.0631571, 0.0140091, -0.144404, -0.0627131, -5.61949e-05, -0.000977532, -0.000845284, 1.79694, 16.3068, 19.0421, 15.3925, 1.2215, 3.9191, -0.0484509, -0.00179067, -0.00169561, -1.42609e-05, 0.000490402, -0.0173262, 0.00651397, 0.0340258, 0.00126509, 0.0130309, 0.00453749, 0.164125, 0.249205, -0.00894147, -0.44618, 0.630735, -3.12224, -0.0610841, -0.122738, -0.0107937, -0.444555, 0.630633, -3.12296, -0.0511025, -0.0955743, 0.0384809, -0.0238347, -0.0721687, 0.0035175, -0.0241104, -0.0618418
0.174152, 0.110631, -0.77267, -0.925959, -1.46126, -0.627127, 1.06878, -0.256648, 0.0624311, 0.0137759, -0.139137, -0.0660607, -0.000240914, -0.0011949, 0.00140317, 1.83265, 16.3068, 18.8913, 15.5432, 1.22699, 3.93374, -0.101552, -0.00181532, -0.00170081, -2.76073e-05, 0.000474888, -0.0175655, 0.00657046, 0.0324453, 0.00277083, 0.0142201, 0.00726079, 0.167132, 0.254463, -0.00890277, -0.446204, 0.630663, -3.12208, -0.061177, -0.122995, -0.0107809, -0.444575, 0.630572, -3.12283, -0.0511126, -0.0954579, 0.0389151, -0.0240539, -0.0728831, 0.00537142, -0.0227898, -0.0612293
0.175152, 0.110696, -0.772662, -0.926105, -1.46132, -0.627127, 1.06877, -0.256654, 0.0609439, 0.0119972, -0.141702, -0.0667528, 4.28411e-05, -0.00211954, -0.0012686, 1.90803, 16.3782, 19.0024, 15.6146, 1.2215, 3.96945, -0.0420422, -0.00185052, -0.00170301, -3.94233e-05, 0.000466711, -0.0177969, 0.00663474, 0.0347453, 0.00278667, 0.0139442, 0.00550826, 0.167179, 0.256785, -0.00886363, -0.446228, 0.630589, -3.12192, -0.0612707, -0.123253, -0.0107779, -0.444598, 0.630508, -3.1227, -0.0511117, -0.0953558, 0.0393512, -0.0242732, -0.0735988, 0.00353543, -0.0230808, -0.0624072
0.176152, 0.110765, -0.772649, -0.926241, -1.4614, -0.627126, 1.06877, -0.256651, 0.0625432, 0.0154341, -0.141652, -0.0639974, 2.85607e-05, -0.0014134, 0.000137609, 1.87232, 16.3782, 19.0421, 15.69, 1.2215, 3.96945, -0.0685925, -0.00187922, -0.00170735, -5.37832e-05, 0.000451679, -0.018037, 0.00669683, 0.0338468, 0.00278918, 0.0156841, 0.00913827, 0.169538, 0.258168, -0.00882406, -0.446252, 0.630515, -3.12175, -0.0613653, -0.123515, -0.0107683, -0.44462, 0.630446, -3.12257, -0.051115, -0.0952432, 0.0397893, -0.0244926, -0.0743159, 0.00472955, -0.0232989, -0.0613247
0.177152, 0.110839, -0.772636, -0.926377, -1.46146, -0.627129, 1.06877, -0.256654, 0.0675031, 0.0148324, -0.137293, -0.0628749, 0.000256399, -0.00148509, -0.000891605, 1.79694, 16.3782, 19.0421, 15.69, 1.21509, 3.9841, -0.0420422, -0.00190719, -0.00171045, -7.1033e-05, 0.000427789, -0.0182748, 0.00675241, 0.0309727, 0.00370031, 0.0177983, 0.0132812, 0.16902, 0.269619, -0.00878406, -0.446277, 0.630441, -3.12159, -0.0614609, -0.123779, -0.0107577, -0.444643, 0.630386, -3.12244, -0.0511291, -0.0951374, 0.0402292, -0.0247119, -0.0750342, 0.00782706, -0.0225404, -0.0596991
0.178152, 0.110907, -0.772621, -0.926514, -1.46153, -0.627125, 1.06877, -0.256649, 0.0703115, 0.0152098, -0.140748, -0.067395, 0.000611742, -0.000990274, 0.00110102, 1.75727, 16.3425, 19.0421, 15.7654, 1.20318, 3.9841, -0.0878186, -0.00193457, -0.00171507, -8.62222e-05, 0.000410125, -0.0185181, 0.00681562, 0.030077, 0.00345349, 0.0161489, 0.00989812, 0.173053, 0.272865, -0.00874361, -0.446302, 0.630365, -3.12142, -0.0615574, -0.124045, -0.0107461, -0.444665, 0.630324, -3.12231, -0.0511325, -0.095025, 0.040671, -0.0249313, -0.0757538, 0.00929834, -0.0229456, -0.0620003
0.179152, 0.110971, -0.772608, -0.926658, -1.4616, -0.627125, 1.06877, -0.256653, 0.0674366, 0.0154708, -0.144077, -0.0640172, 0.000407828, -0.00093161, -0.00143613, 1.79694, 16.3068, 19.0778, 15.69, 1.20318, 3.99142, -0.0292249, -0.00196982, -0.00171805, -0.000103038, 0.000390233, -0.018758, 0.00688694, 0.0334525, 0.00292761, 0.0171273, 0.0112679, 0.172381, 0.270782, -0.00870271, -0.446327, 0.630289, -3.12126, -0.0616548, -0.124315, -0.0107418, -0.444688, 0.630262, -3.12219, -0.0511242, -0.0949207, 0.0411146, -0.0251507, -0.0764746, 0.00632096, -0.0238439, -0.0620288
0.180152, 0.111036, -0.772604, -0.926796, -1.46167, -0.627123, 1.06877, -0.256648, 0.0663215, 0.0120382, -0.137438, -0.0677381, 0.000746603, -0.000621194, 0.000263285, 1.79694, 16.4178, 19.0024, 15.7297, 1.19037, 3.99142, -0.0621838, -0.00200364, -0.00172278, -0.000119439, 0.000370291, -0.0189949, 0.00695626, 0.0323293, 0.00462395, 0.0185333, 0.0146677, 0.171736, 0.277755, -0.00866138, -0.446352, 0.630212, -3.12109, -0.0617531, -0.124586, -0.0107358, -0.444711, 0.630198, -3.12205, -0.0511199, -0.0948236, 0.0415602, -0.0253701, -0.0771966, 0.007703, -0.0223563, -0.0612387
