alisrour97/Franka_experiments/Real_Robot_scripts/servo-franka/Data4/log_dyn_PIw_ki_11.csv
Time,q1,q2,q3,q4,q5,q6,q7,dq1,dq2,dq3,dq4,dq5,dq6,dq7,t1,t2,t3,t4,t5,t6,t7,ex1,ex2,ex3,ex4,ex5,ex6,ev1,ev2,ev3,ev4,ev5,ev6,xd,yd,zd,uxd,uyd,uzd,x,y,z,ux,uy,uz,vxd,vyd,vzd,vx,vy,vz
9.76563e-07, 0.10781, -0.774323, -0.91698, -1.45776, -0.625473, 1.07018, -0.256709, 0.000347015, 0.0013605, 0.00238765, 0.000324339, -0.000177808, -0.000758045, 0.00130214, -0.658806, 16.3068, 21.4582, 18.5266, 1.35608, 3.33865, -0.232472, 0.000922561, -0.00157681, 0.00071109, 0.00121731, -0.00102778, -1.13437e-05, -0.00115141, 0.000580209, 0.000751858, 0.00122557, 0.0015573, 0.000606903, -0.011112, -0.444721, 0.635038, -3.13187, -0.0555627, -0.107532, -0.0102045, -0.443109, 0.634395, -3.1307, -0.0560276, -0.105845, 0, 0, 0, 0.00107582, 0.000613865, 0.000832744
0.012302, 0.107804, -0.774312, -0.916975, -1.45774, -0.625471, 1.07017, -0.256702, -0.00176563, 0.00127339, 0.00427353, 0.00281263, -0.000479926, -0.000563699, 0.00102672, -0.543754, 16.2671, 21.3114, 18.4155, 1.3808, 3.3533, -0.21233, 0.000921371, -0.00157833, 0.000704389, 0.00120833, -0.00102914, 4.72844e-06, -0.000242014, 0.0007742, 0.00212937, 0.00428279, -0.000113953, -0.0011984, -0.011112, -0.444721, 0.635038, -3.13187, -0.0555627, -0.107532, -0.0102015, -0.443105, 0.634408, -3.13073, -0.0560277, -0.105846, 1.73063e-06, -1.42215e-06, -3.96181e-06, 6.96743e-05, 0.000762475, 0.00214174
0.013302, 0.107804, -0.774312, -0.916975, -1.45774, -0.625471, 1.07017, -0.256702, -0.00176563, 0.00127339, 0.00427353, 0.00281263, -0.000479926, -0.000563699, 0.00102672, -0.543754, 16.2671, 21.3114, 18.4155, 1.3808, 3.3533, -0.21233, 0.000921368, -0.00157833, 0.00070438, 0.00120831, -0.00102916, 4.73569e-06, -0.000237808, 0.000778708, 0.00214151, 0.00430697, -9.73962e-05, -0.0011549, -0.011112, -0.444721, 0.635038, -3.13187, -0.0555628, -0.107532, -0.0102015, -0.443105, 0.634408, -3.13073, -0.0560277, -0.105846, 6.91577e-06, -5.6745e-06, -1.58141e-05, 6.96743e-05, 0.000762475, 0.00214174
0.0143022, 0.107804, -0.774312, -0.916975, -1.45774, -0.625471, 1.07017, -0.256702, -0.00176563, 0.00127339, 0.00427353, 0.00281263, -0.000479926, -0.000563699, 0.00102672, -0.543754, 16.2671, 21.3114, 18.4155, 1.3808, 3.3533, -0.21233, 0.000921359, -0.00157834, 0.000704354, 0.00120826, -0.00102922, 4.75533e-06, -0.000230806, 0.000786194, 0.00216169, 0.00434714, -6.98888e-05, -0.00108262, -0.011112, -0.444721, 0.635038, -3.13187, -0.0555628, -0.107532, -0.0102015, -0.443105, 0.634408, -3.13073, -0.0560277, -0.105846, 1.55453e-05, -1.2736e-05, -3.55071e-05, 6.96743e-05, 0.000762475, 0.00214174
0.0153022, 0.107804, -0.774312, -0.916975, -1.45774, -0.625471, 1.07017, -0.256702, -0.00176563, 0.00127339, 0.00427353, 0.00281263, -0.000479926, -0.000563699, 0.00102672, -0.543754, 16.2671, 21.3114, 18.4155, 1.3808, 3.3533, -0.21233, 0.000921342, -0.00157836, 0.000704305, 0.00120815, -0.00102934, 4.79349e-06, -0.000221013, 0.000796637, 0.00218985, 0.00440316, -3.15018e-05, -0.000981747, -0.011112, -0.444721, 0.635038, -3.13187, -0.0555628, -0.107532, -0.0102015, -0.443105, 0.634408, -3.13073, -0.0560277, -0.105846, 2.7609e-05, -2.25855e-05, -6.29913e-05, 6.96743e-05, 0.000762475, 0.00214174
0.0163022, 0.107804, -0.774312, -0.916975, -1.45774, -0.625471, 1.07017, -0.256702, -0.00176563, 0.00127339, 0.00427353, 0.00281263, -0.000479926, -0.000563699, 0.00102672, -0.543754, 16.2671, 21.3114, 18.4155, 1.3808, 3.3533, -0.21233, 0.000921313, -0.00157839, 0.000704223, 0.00120798, -0.00102952, 4.85628e-06, -0.000208436, 0.000810015, 0.00222594, 0.00447492, 1.76941e-05, -0.000852464, -0.0111119, -0.444721, 0.635038, -3.13187, -0.0555629, -0.107532, -0.0102015, -0.443105, 0.634408, -3.13073, -0.0560277, -0.105846, 4.30968e-05, -3.5202e-05, -9.82172e-05, 6.96743e-05, 0.000762475, 0.00214174
0.0173022, 0.107804, -0.774312, -0.916975, -1.45774, -0.625471, 1.07017, -0.256702, -0.00176563, 0.00127339, 0.00427353, 0.00281263, -0.000479926, -0.000563699, 0.00102672, -0.543754, 16.2671, 21.3114, 18.4155, 1.3808, 3.3533, -0.21233, 0.000921271, -0.00157844, 0.000704102, 0.00120772, -0.0010298, 4.94975e-06, -0.00019308, 0.000826308, 0.00226992, 0.00456231, 7.76282e-05, -0.00069495, -0.0111119, -0.444721, 0.635038, -3.13187, -0.0555631, -0.107533, -0.0102015, -0.443105, 0.634408, -3.13073, -0.0560277, -0.105846, 6.19987e-05, -5.05647e-05, -0.000141136, 6.96743e-05, 0.000762475, 0.00214174
0.0183022, 0.107804, -0.774312, -0.916975, -1.45774, -0.625471, 1.07017, -0.256702, -0.00176563, 0.00127339, 0.00427353, 0.00281263, -0.000479926, -0.000563699, 0.00102672, -0.543754, 16.2671, 21.3114, 18.4155, 1.3808, 3.3533, -0.21233, 0.000921212, -0.0015785, 0.000703933, 0.00120736, -0.00103019, 5.07991e-06, -0.000174951, 0.000845492, 0.00232173, 0.0046652, 0.00014823, -0.000509388, -0.0111118, -0.444721, 0.635037, -3.13187, -0.0555633, -0.107533, -0.0102015, -0.443105, 0.634408, -3.13073, -0.0560277, -0.105846, 8.43044e-05, -6.86525e-05, -0.000191697, 6.96743e-05, 0.000762475, 0.00214174
0.0193025, 0.107804, -0.774312, -0.916975, -1.45774, -0.625471, 1.07017, -0.256702, -0.00176563, 0.00127339, 0.00427353, 0.00281263, -0.000479926, -0.000563699, 0.00102672, -0.543754, 16.2671, 21.3114, 18.4155, 1.3808, 3.3533, -0.21233, 0.000921133, -0.00157858, 0.000703709, 0.00120688, -0.0010307, 5.25276e-06, -0.000154056, 0.000867547, 0.00238133, 0.00478349, 0.000229429, -0.000295958, -0.0111117, -0.444721, 0.635037, -3.13187, -0.0555636, -0.107534, -0.0102015, -0.443105, 0.634408, -3.13073, -0.0560277, -0.105846, 0.000110004, -8.94448e-05, -0.000249853, 6.96743e-05, 0.000762475, 0.00214174
0.020303, 0.107804, -0.774312, -0.916975, -1.45774, -0.625471, 1.07017, -0.256702, -0.00176563, 0.00127339, 0.00427353, 0.00281263, -0.000479926, -0.000563699, 0.00102672, -0.543754, 16.2671, 21.3114, 18.4155, 1.3808, 3.3533, -0.21233, 0.000921032, -0.00157869, 0.000703421, 0.00120627, -0.00103136, 5.47424e-06, -0.000130401, 0.000892452, 0.00244866, 0.00491704, 0.000321155, -5.48414e-05, -0.0111116, -0.444721, 0.635037, -3.13187, -0.055564, -0.107535, -0.0102015, -0.443105, 0.634408, -3.13073, -0.0560277, -0.105846, 0.000139087, -0.000112921, -0.000315553, 6.96743e-05, 0.000762475, 0.00214174
0.0213035, 0.107804, -0.774312, -0.916975, -1.45774, -0.625471, 1.07017, -0.256702, -0.00176563, 0.00127339, 0.00427353, 0.00281263, -0.000479926, -0.000563699, 0.00102672, -0.543754, 16.2671, 21.3114, 18.4155, 1.3808, 3.3533, -0.21233, 0.000920906, -0.00157882, 0.000703063, 0.00120551, -0.00103218, 5.75023e-06, -0.000103991, 0.000920185, 0.00252368, 0.00506576, 0.000423338, 0.000213783, -0.0111114, -0.444721, 0.635037, -3.13186, -0.0555644, -0.107536, -0.0102015, -0.443105, 0.634408, -3.13073, -0.0560277, -0.105846, 0.000171544, -0.000139059, -0.00038875, 6.96743e-05, 0.000762475, 0.00214174
0.0223037, 0.107804, -0.774312, -0.916975, -1.45774, -0.625471, 1.07017, -0.256702, -0.00176563, 0.00127339, 0.00427353, 0.00281263, -0.000479926, -0.000563699, 0.00102672, -0.543754, 16.2671, 21.3114, 18.4155, 1.3808, 3.3533, -0.21233, 0.000920752, -0.00157898, 0.000702626, 0.00120458, -0.00103319, 6.08662e-06, -7.48335e-05, 0.000950725, 0.00260633, 0.00522952, 0.000535909, 0.000509734, -0.0111112, -0.444721, 0.635036, -3.13186, -0.055565, -0.107538, -0.0102015, -0.443105, 0.634408, -3.13073, -0.0560277, -0.105846, 0.000207364, -0.00016784, -0.000469394, 6.96743e-05, 0.000762475, 0.00214174
0.023304, 0.107804, -0.774312, -0.916975, -1.45774, -0.625471, 1.07017, -0.256702, -0.00176563, 0.00127339, 0.00427353, 0.00281263, -0.000479926, -0.000563699, 0.00102672, -0.543754, 16.2671, 21.3114, 18.4155, 1.3808, 3.3533, -0.21233, 0.000920567, -0.00157918, 0.000702104, 0.00120347, -0.00103439, 6.48922e-06, -4.29335e-05, 0.00098405, 0.00269657, 0.0054082, 0.000658798, 0.000832834, -0.011111, -0.444722, 0.635036, -3.13186, -0.0555656, -0.10754, -0.0102015, -0.443105, 0.634408, -3.13073, -0.0560277, -0.105846, 0.000246538, -0.000199242, -0.000557437, 6.96743e-05, 0.000762475, 0.00214174
0.024304, 0.107804, -0.774312, -0.916975, -1.45774, -0.625471, 1.07017, -0.256702, -0.00176563, 0.00127339, 0.00427353, 0.00281263, -0.000479926, -0.000563699, 0.00102672, -0.543754, 16.2671, 21.3114, 18.4155, 1.3808, 3.3533, -0.21233, 0.000920349, -0.0015794, 0.000701487, 0.00120216, -0.0010358, 6.96382e-06, -8.29755e-06, 0.00102014, 0.00279436, 0.0056017, 0.000791935, 0.0011829, -0.0111107, -0.444722, 0.635035, -3.13186, -0.0555664, -0.107542, -0.0102015, -0.443105, 0.634408, -3.13073, -0.0560277, -0.105846, 0.000289055, -0.000233245, -0.00065283, 6.96743e-05, 0.000762475, 0.00214174
0.0253044, 0.107772, -0.774373, -0.917011, -1.45773, -0.625477, 1.07017, -0.25671, -0.000911429, -0.00537802, -0.00142614, 0.000374427, -0.000553371, -0.000320374, 0.000336935, -0.357292, 16.6718, 21.6843, 18.3401, 1.43024, 3.3533, -0.186696, 0.000872101, -0.00157082, 0.000708902, 0.00121752, -0.000974065, 6.78985e-05, 0.00298764, -0.000113029, 0.000283421, 0.000463334, -0.0039132, -6.68543e-06, -0.0111104, -0.444722, 0.635034, -3.13186, -0.0555673, -0.107544, -0.0102485, -0.443115, 0.634397, -3.1307, -0.0559341, -0.105944, 0.000334905, -0.000269828, -0.000755525, -0.00265918, -0.000490321, -0.000678744
0.0263044, 0.107762, -0.77438, -0.917013, -1.45773, -0.625476, 1.07017, -0.256714, -0.00251608, -0.00707038, -0.00385389, 0.00212435, -0.00013138, -0.000213661, -0.00099608, -0.281914, 16.6718, 21.6843, 18.2648, 1.42383, 3.3533, -0.153737, 0.000863895, -0.00157057, 0.000706954, 0.0012142, -0.000965817, 7.87728e-05, 0.00530013, -0.000617158, 0.000234, -1.55309e-05, -0.00686216, -0.00241248, -0.0111101, -0.444722, 0.635033, -3.13186, -0.0555684, -0.107547, -0.0102564, -0.443116, 0.634397, -3.13071, -0.0559181, -0.10596, 0.000384079, -0.000308971, -0.000865474, -0.00489423, -0.00111419, -0.000999998
0.0273044, 0.107758, -0.774385, -0.917015, -1.45773, -0.625476, 1.07017, -0.256705, -0.0017863, -0.00669745, -0.00333982, -0.00318315, 0.000828072, 0.000128768, 0.00126873, -0.281914, 16.6003, 21.5732, 18.1934, 1.39911, 3.34598, -0.205922, 0.000860505, -0.00157062, 0.0007075, 0.00121432, -0.00096467, 9.16787e-05, 0.00341581, -0.000104998, -0.00109649, -0.0025609, -0.00378725, 5.79668e-05, -0.0111097, -0.444723, 0.635033, -3.13186, -0.0555696, -0.10755, -0.0102593, -0.443117, 0.634396, -3.1307, -0.0558992, -0.105965, 0.000436566, -0.000350653, -0.000982628, -0.00289025, -0.000566307, -0.00231185
0.0283044, 0.107757, -0.774386, -0.917022, -1.45773, -0.625477, 1.07017, -0.256712, -0.00127256, -0.00714039, -0.00550152, -0.00268495, 0.00282401, 8.5801e-05, 0.00680855, -0.281914, 16.4178, 21.4225, 17.9315, 1.33777, 3.34598, -0.101552, 0.000856977, -0.0015696, 0.000708999, 0.00121742, -0.000967484, 9.15597e-05, 0.00378109, -0.000294443, -0.00146829, -0.00441486, -0.00576575, -0.00545689, -0.0111092, -0.444723, 0.635032, -3.13185, -0.0555709, -0.107554, -0.0102623, -0.443118, 0.634393, -3.1307, -0.0559009, -0.105964, 0.000492356, -0.000394854, -0.00110694, -0.00316645, -0.000809478, -0.00283335
0.0293044, 0.107757, -0.774394, -0.917046, -1.45775, -0.625481, 1.07017, -0.25671, -0.000909638, -0.00952198, -0.00850202, -0.00996126, 0.00347644, -0.000485367, 0.00559542, -0.281914, 16.3068, 21.3471, 17.7054, 1.29474, 3.36062, -0.10796, 0.000848295, -0.00156594, 0.00071943, 0.00123857, -0.000976934, 0.000107987, 0.00377913, -0.000253971, -0.00455592, -0.0111342, -0.00328747, -0.0016276, -0.0111087, -0.444723, 0.63503, -3.13185, -0.0555724, -0.107558, -0.0102695, -0.443122, 0.634381, -3.13067, -0.0558777, -0.105952, 0.000551439, -0.000441554, -0.00123836, -0.00289549, -0.000789064, -0.00604468
0.0303044, 0.107764, -0.7744, -0.917059, -1.45776, -0.625487, 1.07017, -0.256713, 0.00194608, -0.00734714, -0.00705316, -0.0108088, 0.00343666, -0.000560962, 0.0021405, -0.392998, 16.16, 21.0892, 17.4078, 1.26453, 3.36703, -0.0484509, 0.000846693, -0.00156381, 0.000726127, 0.00125006, -0.000988225, 0.000104785, 0.00128265, 0.000114281, -0.00427262, -0.0104772, -0.00035355, 0.00669962, -0.0111081, -0.444724, 0.635029, -3.13185, -0.0555741, -0.107563, -0.01027, -0.443125, 0.634373, -3.13066, -0.0558848, -0.105938, 0.000613805, -0.000490732, -0.00137684, -0.000376611, -0.000384832, -0.00572672
0.0313044, 0.107764, -0.774415, -0.917079, -1.45777, -0.625492, 1.07018, -0.256704, 0.000427707, -0.0123614, -0.00929885, -0.0100625, 0.00388484, -0.000373993, 0.00432911, -0.357292, 16.16, 20.8631, 17.0349, 1.2215, 3.36703, -0.114369, 0.000835866, -0.00155954, 0.000733221, 0.00126088, -0.00098416, 0.000128076, 0.00429917, -0.000365581, -0.00465827, -0.0115145, -0.00597847, 0.0016619, -0.0111074, -0.444724, 0.635028, -3.13184, -0.055576, -0.107568, -0.0102795, -0.44313, 0.634363, -3.13065, -0.0558508, -0.105949, 0.000679445, -0.000542368, -0.00152234, -0.00327495, -0.00101881, -0.00646721
0.0323044, 0.107771, -0.774426, -0.917104, -1.45779, -0.625502, 1.07018, -0.256706, 0.00109451, -0.0119294, -0.0161501, -0.0132408, 0.00123359, 0.000259284, 0.00251952, -0.392998, 16.1203, 20.6766, 16.8127, 1.25812, 3.3533, -0.0951428, 0.000830487, -0.00155479, 0.000746152, 0.00128086, -0.00100002, 0.000131634, 0.00592412, -0.00186081, -0.00737047, -0.0157098, -0.00126045, -0.000156276, -0.0111067, -0.444725, 0.635026, -3.13184, -0.055578, -0.107574, -0.0102831, -0.443136, 0.634348, -3.13062, -0.0558481, -0.105928, 0.000748347, -0.000596442, -0.0016748, -0.00458707, -0.0026009, -0.00944635
0.0333044, 0.107776, -0.774447, -0.917128, -1.45782, -0.625512, 1.07018, -0.256708, 0.00163831, -0.0142275, -0.0173517, -0.0173415, -0.00428594, 0.00125791, 0.00241354, -0.43267, 16.1957, 20.4545, 16.662, 1.27002, 3.324, -0.10796, 0.000821497, -0.00154996, 0.00075989, 0.00130188, -0.00100733, 0.000137012, 0.00695079, -0.00265432, -0.00881352, -0.015354, 0.00307763, -0.000370809, -0.0111059, -0.444726, 0.635024, -3.13184, -0.0555803, -0.10758, -0.0102902, -0.443141, 0.634332, -3.1306, -0.0558428, -0.105922, 0.000820503, -0.000652933, -0.00183418, -0.00541137, -0.00347404, -0.0111208
0.0343044, 0.107778, -0.774458, -0.91716, -1.45784, -0.62552, 1.07019, -0.256704, 0.00107767, -0.0162647, -0.0201767, -0.0183157, -0.00392441, 0.00375473, 0.00326145, -0.43267, 16.16, 20.3434, 16.4359, 1.28833, 3.24527, -0.147328, 0.000812903, -0.00154329, 0.000773814, 0.00132102, -0.00101937, 0.000154488, 0.00824858, -0.00351975, -0.00958421, -0.0155038, 0.000503852, -0.00263947, -0.0111051, -0.444726, 0.635022, -3.13183, -0.0555828, -0.107587, -0.0102967, -0.443149, 0.634316, -3.13058, -0.0558189, -0.105908, 0.000895902, -0.000711822, -0.00200043, -0.00654617, -0.00443677, -0.0121506
0.0353044, 0.107776, -0.774468, -0.917188, -1.45787, -0.625533, 1.0702, -0.256704, -0.0010557, -0.0144876, -0.0220072, -0.0210005, -0.00907084, 0.0043342, 0.00157408, -0.357292, 16.1203, 20.1926, 16.2891, 1.32587, 3.19583, -0.127186, 0.00080344, -0.00153727, 0.000787924, 0.00133809, -0.00103905, 0.000171581, 0.00969219, -0.0042394, -0.0105656, -0.0147874, 0.00794126, -0.00492789, -0.0111041, -0.444727, 0.63502, -3.13183, -0.0555855, -0.107594, -0.010304, -0.443156, 0.634299, -3.13056, -0.0557957, -0.105884, 0.000974534, -0.000773089, -0.00217351, -0.0078139, -0.0052595, -0.0134065
0.0363044, 0.107779, -0.774487, -0.917211, -1.4579, -0.625542, 1.0702, -0.256709, -0.000711977, -0.0198169, -0.0194154, -0.0254541, -0.0114175, 0.00903754, -0.00101142, -0.357292, 16.2314, 20.0101, 16.2494, 1.32587, 3.15921, -0.0685925, 0.000796989, -0.00153333, 0.000803544, 0.00136143, -0.00105461, 0.000168526, 0.00942832, -0.0046416, -0.0107968, -0.0105458, 0.0050658, 0.00180849, -0.0111031, -0.444728, 0.635018, -3.13182, -0.0555884, -0.107602, -0.0103082, -0.443161, 0.634281, -3.13053, -0.0558043, -0.105866, 0.00105639, -0.000836713, -0.00235336, -0.0074387, -0.00571374, -0.0138014
0.0373044, 0.107778, -0.774504, -0.917243, -1.45794, -0.625553, 1.07021, -0.256713, -0.000480785, -0.0187655, -0.0224092, -0.0235328, -0.0126667, 0.00879793, -0.00205035, -0.357292, 16.2671, 19.9347, 16.1383, 1.31305, 3.09512, -0.0292249, 0.000785416, -0.00152633, 0.00081923, 0.00138107, -0.00106809, 0.00018173, 0.0107078, -0.00535221, -0.0108614, -0.0106289, 0.00632786, -0.000102647, -0.011102, -0.444729, 0.635016, -3.13182, -0.0555915, -0.107611, -0.0103174, -0.443169, 0.634262, -3.1305, -0.0557877, -0.105852, 0.00114146, -0.000902674, -0.00253994, -0.00859944, -0.00653427, -0.0141448
0.0383044, 0.107773, -0.77451, -0.917265, -1.45797, -0.625565, 1.07022, -0.256705, -0.00208836, -0.0161945, -0.0204157, -0.0271059, -0.00995236, 0.00643603, 0.00610342, -0.281914, 16.2314, 19.784, 16.1026, 1.32587, 3.0878, -0.101552, 0.000778709, -0.00152244, 0.000832188, 0.00139546, -0.0010955, 0.000202088, 0.00904525, -0.00383156, -0.0112487, -0.0138869, 0.0105259, -0.00450185, -0.0111008, -0.44473, 0.635013, -3.13181, -0.0555949, -0.10762, -0.0103218, -0.443174, 0.634246, -3.13049, -0.0557601, -0.105818, 0.00122973, -0.000970953, -0.00273321, -0.00688126, -0.005021, -0.0146008
0.0393044, 0.10777, -0.774522, -0.917299, -1.458, -0.625579, 1.07023, -0.25671, -0.00232371, -0.0152866, -0.0218476, -0.0276581, -0.011452, 0.00529519, 0.00281382, -0.242241, 16.2314, 19.784, 15.9915, 1.30755, 3.06674, -0.0557752, 0.000765769, -0.00151537, 0.000847068, 0.00141416, -0.00111695, 0.000220625, 0.00970883, -0.00393614, -0.0116792, -0.0149616, 0.0138424, -0.00223908, -0.0110996, -0.444731, 0.63501, -3.1318, -0.0555986, -0.10763, -0.0103322, -0.443182, 0.634227, -3.13046, -0.0557358, -0.105793, 0.00132119, -0.00104153, -0.00293311, -0.00741808, -0.00521566, -0.0152765
0.0403044, 0.107767, -0.774529, -0.917319, -1.45804, -0.625592, 1.07024, -0.256704, -0.00238695, -0.0137213, -0.0198305, -0.0342297, -0.0126378, 0.00505492, 0.0033929, -0.206535, 16.1957, 19.6372, 16.1383, 1.28833, 3.03012, -0.0878186, 0.000762482, -0.00151149, 0.000862069, 0.0014289, -0.00114907, 0.000231577, 0.00758385, -0.00311277, -0.0128585, -0.0164764, 0.0208983, 0.00221781, -0.0110982, -0.444732, 0.635007, -3.1318, -0.0556025, -0.107641, -0.0103329, -0.443187, 0.634209, -3.13044, -0.0557234, -0.105752, 0.00141584, -0.00111438, -0.0031396, -0.00515332, -0.0043806, -0.0165083
0.0413044, 0.107759, -0.774539, -0.917343, -1.45808, -0.62561, 1.07025, -0.256711, -0.0042845, -0.0103496, -0.02087, -0.0362486, -0.0141128, 0.00400492, 0.000814175, -0.0914839, 16.1957, 19.5975, 16.178, 1.28284, 3.01639, -0.0420422, 0.000751966, -0.00150627, 0.00087562, 0.00144067, -0.00117844, 0.000243691, 0.00779343, -0.00296073, -0.0134615, -0.017731, 0.0275518, 0.00321876, -0.0110967, -0.444733, 0.635004, -3.13179, -0.0556067, -0.107652, -0.0103408, -0.443194, 0.634191, -3.13042, -0.0557093, -0.105717, 0.00151366, -0.0011895, -0.00335263, -0.00522846, -0.00430585, -0.0173365
0.0423044, 0.107757, -0.774545, -0.917369, -1.45811, -0.625626, 1.07027, -0.256702, -0.00285779, -0.00780127, -0.0219274, -0.0373581, -0.0155794, 0.00408713, 0.00269522, -0.0914839, 16.1957, 19.5975, 16.2137, 1.28833, 2.98068, -0.0951428, 0.000745144, -0.00150034, 0.000889039, 0.00145097, -0.00121034, 0.000266751, 0.00686085, -0.00317667, -0.0138175, -0.0177859, 0.0322511, 0.00262515, -0.0110952, -0.444734, 0.635, -3.13178, -0.0556111, -0.107664, -0.0103449, -0.443201, 0.634174, -3.13041, -0.0556785, -0.105679, 0.00161465, -0.00126685, -0.00357216, -0.00416546, -0.00456299, -0.0178484
0.0433044, 0.10775, -0.774553, -0.917388, -1.45814, -0.625644, 1.07028, -0.256709, -0.00450474, -0.00671221, -0.0182286, -0.0381791, -0.0165584, 0.00721872, 0.000478063, 0.0196001, 16.2314, 19.5261, 16.2494, 1.29474, 2.98709, -0.0557752, 0.000737177, -0.00149594, 0.000900165, 0.00145588, -0.00124173, 0.000274592, 0.0058426, -0.00293943, -0.0124183, -0.0120699, 0.0331682, 0.006795, -0.0110935, -0.444735, 0.634997, -3.13177, -0.0556159, -0.107677, -0.0103503, -0.443207, 0.634159, -3.1304, -0.0556714, -0.105642, 0.00171879, -0.00134642, -0.00379814, -0.00315035, -0.0043817, -0.016607
0.0443044, 0.107749, -0.77456, -0.917406, -1.45818, -0.625666, 1.07029, -0.256703, -0.00300398, -0.00674516, -0.0188068, -0.0398123, -0.0124168, 0.00940119, 0.00259333, 0.0196001, 16.3068, 19.4864, 16.3248, 1.29474, 3.00174, -0.114369, 0.000732187, -0.00149157, 0.000912432, 0.00146121, -0.00128058, 0.00028892, 0.0040821, -0.00282472, -0.0126985, -0.0129426, 0.0303209, 0.00941416, -0.0110917, -0.444737, 0.634993, -3.13176, -0.0556209, -0.107691, -0.0103525, -0.443212, 0.634142, -3.13039, -0.0556546, -0.105595, 0.00182607, -0.00142819, -0.00403052, -0.00127259, -0.00428431, -0.0169973
0.0453044, 0.107738, -0.774566, -0.917434, -1.45822, -0.625691, 1.0703, -0.25671, -0.00552974, -0.00654755, -0.0241796, -0.0384623, -0.019063, 0.0106261, -0.00134623, 0.170357, 16.3782, 19.6372, 16.4359, 1.30755, 3.03012, -0.0292249, 0.000719248, -0.00148543, 0.000926799, 0.00147113, -0.00132393, 0.000310276, 0.00840789, -0.00476984, -0.0133802, -0.0110034, 0.0346145, 0.00374477, -0.0110899, -0.444738, 0.634989, -3.13175, -0.0556263, -0.107706, -0.0103623, -0.44322, 0.634123, -3.13037, -0.0556273, -0.105541, 0.00193648, -0.00151214, -0.00426926, -0.00535867, -0.00645839, -0.0182259
0.0463044, 0.107729, -0.774572, -0.91745, -1.45826, -0.625713, 1.07032, -0.256702, -0.00637821, -0.00641352, -0.0211648, -0.0389353, -0.0232609, 0.0169033, 0.00160269, 0.285408, 16.4536, 19.6372, 16.4755, 1.29474, 3.04477, -0.0951428, 0.000711535, -0.0014814, 0.000936981, 0.00147171, -0.00136368, 0.000334758, 0.00792368, -0.00566169, -0.0118337, -0.00147659, 0.0352734, 0.00137683, -0.0110879, -0.44474, 0.634984, -3.13174, -0.0556319, -0.107721, -0.0103672, -0.443226, 0.634108, -3.13036, -0.0555952, -0.105494, 0.00205002, -0.00159825, -0.00451432, -0.00483637, -0.00743208, -0.0169006
0.0473044, 0.107727, -0.774577, -0.917474, -1.4583, -0.625742, 1.07033, -0.256706, -0.00518051, -0.00708808, -0.0242207, -0.0401065, -0.0226608, 0.0161155, -0.000345523, 0.325081, 16.5646, 19.7483, 16.5509, 1.30755, 3.08047, -0.0557752, 0.000703131, -0.00147448, 0.000949233, 0.00147139, -0.00140751, 0.000349679, 0.00840142, -0.0059187, -0.0129336, -0.00468342, 0.0358011, 0.00400856, -0.0110858, -0.444741, 0.63498, -3.13173, -0.0556379, -0.107738, -0.0103723, -0.443235, 0.63409, -3.13035, -0.0555782, -0.105442, 0.00216668, -0.00168649, -0.00476563, -0.00511127, -0.00778431, -0.0182838
0.0483044, 0.107717, -0.77458, -0.917489, -1.45833, -0.625771, 1.07035, -0.256703, -0.00605239, -0.00655627, -0.0219794, -0.0397452, -0.025676, 0.0163892, 0.000752146, 0.436165, 16.636, 19.784, 16.5866, 1.28833, 3.09512, -0.0814099, 0.000695128, -0.00147001, 0.000957999, 0.00146437, -0.00145597, 0.000372393, 0.00863981, -0.00577148, -0.0118504, -0.000845334, 0.0384955, 0.00306156, -0.0110835, -0.444743, 0.634975, -3.13172, -0.0556442, -0.107755, -0.0103773, -0.443241, 0.634076, -3.13035, -0.0555492, -0.105383, 0.00228643, -0.00177687, -0.00502317, -0.00530855, -0.0077453, -0.0174764
0.0493044, 0.107714, -0.774581, -0.917504, -1.45837, -0.6258, 1.07036, -0.256708, -0.00716875, -0.00532641, -0.0180104, -0.0398602, -0.0238014, 0.0155293, -0.00140655, 0.436165, 16.6718, 19.8594, 16.6223, 1.28284, 3.13815, -0.0292249, 0.000690299, -0.00146495, 0.000967078, 0.0014569, -0.00150508, 0.000380072, 0.00728479, -0.00447139, -0.0104808, 0.000777887, 0.0389875, 0.00904929, -0.0110812, -0.444745, 0.634969, -3.13171, -0.0556509, -0.107773, -0.010379, -0.443248, 0.634062, -3.13035, -0.055544, -0.105325, 0.00240928, -0.00186934, -0.00528689, -0.00397498, -0.00650269, -0.0162724
0.0503044, 0.107705, -0.774584, -0.917517, -1.45841, -0.625829, 1.07038, -0.256703, -0.0077317, -0.00312422, -0.0207011, -0.0367726, -0.0261196, 0.0149867, 0.000776314, 0.551216, 16.7828, 19.9347, 16.662, 1.25171, 3.18118, -0.0750012, 0.000682514, -0.00146082, 0.000974641, 0.00144737, -0.00155248, 0.00040373, 0.00898688, -0.00518658, -0.00997678, 0.0020576, 0.0417002, 0.00254638, -0.0110787, -0.444747, 0.634964, -3.1317, -0.0556578, -0.107792, -0.0103836, -0.443254, 0.634048, -3.13035, -0.0555141, -0.105271, 0.00253522, -0.00196389, -0.00555673, -0.00555489, -0.00737625, -0.0161613
0.0513044, 0.107702, -0.774586, -0.917534, -1.45844, -0.625863, 1.0704, -0.256708, -0.00535043, -0.00281891, -0.0186091, -0.0375618, -0.0246634, 0.0186989, -0.00116393, 0.551216, 16.8225, 20.0815, 16.6977, 1.25812, 3.23886, -0.0292249, 0.000675734, -0.00145504, 0.000982856, 0.00143661, -0.00160537, 0.000416881, 0.00643331, -0.00519389, -0.00907451, 0.00594173, 0.0398477, 0.010571, -0.0110761, -0.444749, 0.634958, -3.13168, -0.0556652, -0.107812, -0.010387, -0.443262, 0.634034, -3.13035, -0.0555009, -0.105208, 0.00266423, -0.00206051, -0.00583265, -0.00294144, -0.00739803, -0.0153615
0.0523044, 0.107695, -0.774588, -0.917544, -1.45847, -0.625897, 1.07041, -0.256703, -0.00454914, -0.00340576, -0.0143651, -0.0405002, -0.0223367, 0.0211367, 0.000929927, 0.586922, 16.8939, 20.1212, 16.6977, 1.2334, 3.31027, -0.0750012, 0.000668529, -0.00145104, 0.00098834, 0.00142015, -0.0016574, 0.000439966, 0.00367729, -0.00429577, -0.00830572, 0.00859062, 0.0383898, 0.0161678, -0.0110734, -0.444751, 0.634952, -3.13167, -0.0556729, -0.107834, -0.0103909, -0.443269, 0.634022, -3.13036, -0.0554725, -0.105149, 0.0027963, -0.00215917, -0.00611461, -0.000146331, -0.0065087, -0.014681
0.0533044, 0.107685, -0.77459, -0.917563, -1.45851, -0.625938, 1.07043, -0.256705, -0.00583425, -0.00299777, -0.0137837, -0.0413733, -0.0262205, 0.0183538, -0.000830266, 0.701973, 16.9296, 20.268, 16.7731, 1.2334, 3.38168, -0.0356336, 0.000656392, -0.00144462, 0.000996628, 0.00140657, -0.00171757, 0.000468988, 0.00492084, -0.0039163, -0.00829977, 0.00848623, 0.0440768, 0.0167331, -0.0110705, -0.444753, 0.634946, -3.13166, -0.0556809, -0.107856, -0.0103994, -0.443278, 0.634006, -3.13036, -0.0554353, -0.105078, 0.00293143, -0.00225986, -0.00640257, -0.00126486, -0.00627395, -0.0150464
0.0543044, 0.107672, -0.774589, -0.917573, -1.45854, -0.625977, 1.07044, -0.256706, -0.00968593, -0.00191754, -0.0146258, -0.0369883, -0.0339751, 0.0165612, -0.000310268, 0.813057, 16.9296, 20.3434, 16.7731, 1.2334, 3.44668, -0.0420422, 0.000644976, -0.00144031, 0.00100023, 0.00138563, -0.00177558, 0.000496831, 0.00929874, -0.00467933, -0.00689858, 0.0132034, 0.0495024, 0.00683871, -0.0110675, -0.444756, 0.63494, -3.13164, -0.0556894, -0.107879, -0.0104073, -0.443285, 0.633995, -3.13037, -0.0554, -0.105011, 0.00306961, -0.00236255, -0.00669647, -0.00556019, -0.00730575, -0.0142492
0.0553044, 0.107669, -0.774592, -0.917591, -1.45858, -0.626015, 1.07046, -0.2567, -0.00594368, -0.00214565, -0.0197195, -0.035526, -0.0346937, 0.0103314, 0.00101827, 0.777352, 16.9693, 20.4941, 16.8484, 1.22699, 3.5181, -0.0750012, 0.000635824, -0.00143452, 0.00100834, 0.00137363, -0.00183466, 0.000525288, 0.0105765, -0.00469526, -0.00826216, 0.0059893, 0.0526845, 0.00537103, -0.0110644, -0.444758, 0.634933, -3.13162, -0.0556982, -0.107903, -0.0104125, -0.443293, 0.63398, -3.13037, -0.0553645, -0.104943, 0.00321082, -0.00246723, -0.00699628, -0.00659852, -0.00745929, -0.0159978
0.0563044, 0.107657, -0.77459, -0.917601, -1.4586, -0.626056, 1.07047, -0.256703, -0.00680212, -0.00138489, -0.0158155, -0.0358954, -0.0353431, 0.00979395, 0.000444798, 0.888436, 16.9693, 20.5655, 16.8484, 1.2215, 3.60415, -0.0685925, 0.000624183, -0.00143069, 0.00101079, 0.00135147, -0.0018974, 0.000552748, 0.00969606, -0.00374115, -0.00694163, 0.00885572, 0.0546892, 0.00905752, -0.0110611, -0.444761, 0.634926, -3.13161, -0.0557074, -0.107928, -0.0104206, -0.4433, 0.633969, -3.13038, -0.0553306, -0.104872, 0.00335505, -0.00257388, -0.00730195, -0.0057012, -0.00659303, -0.0149195
0.0573044, 0.107652, -0.774589, -0.91761, -1.45863, -0.626099, 1.07048, -0.256698, -0.0101526, 3.89187e-05, -0.0159452, -0.0339066, -0.0362021, 0.0103394, 0.00101109, 0.85273, 16.9296, 20.6409, 16.8842, 1.22699, 3.66824, -0.0878186, 0.000615817, -0.00142662, 0.00101385, 0.0013282, -0.00196311, 0.000580049, 0.0114304, -0.00385253, -0.00584915, 0.0116863, 0.055607, 0.00475683, -0.0110577, -0.444763, 0.634918, -3.13159, -0.055717, -0.107955, -0.0104251, -0.443307, 0.633958, -3.13039, -0.0552974, -0.104796, 0.0035023, -0.00268248, -0.00761342, -0.00735398, -0.00688372, -0.0142617
0.0583044, 0.10764, -0.774592, -0.917618, -1.45867, -0.626141, 1.07049, -0.256703, -0.00919, -0.000876455, -0.0114327, -0.034152, -0.0411332, 0.00520453, -0.0010195, 0.928108, 16.9693, 20.6409, 16.9992, 1.2215, 3.7543, -0.0420422, 0.000604073, -0.00142456, 0.00101844, 0.00131202, -0.00203098, 0.000601196, 0.0114165, -0.00252256, -0.00482428, 0.0127177, 0.0614234, 0.0101099, -0.0110541, -0.444766, 0.63491, -3.13157, -0.055727, -0.107982, -0.0104328, -0.443312, 0.633945, -3.1304, -0.0552743, -0.104718, 0.00365255, -0.002793, -0.00793067, -0.00730775, -0.00567373, -0.0135473
0.0593044, 0.107634, -0.774595, -0.917633, -1.4587, -0.626184, 1.07049, -0.256699, -0.00887472, -0.00223552, -0.0108222, -0.0283168, -0.0401133, 0.00738559, 0.000305075, 0.888436, 17.0407, 20.752, 16.9992, 1.21509, 3.80466, -0.0685925, 0.000590989, -0.00141994, 0.00102154, 0.00129195, -0.00209222, 0.000634417, 0.0123997, -0.0029677, -0.00240714, 0.0183287, 0.0548219, 0.00824236, -0.0110504, -0.444769, 0.634902, -3.13155, -0.0557374, -0.108011, -0.0104418, -0.44332, 0.633933, -3.1304, -0.0552328, -0.104652, 0.0038058, -0.00290544, -0.00825364, -0.00828482, -0.00628719, -0.0115299
0.0603044, 0.107627, -0.774597, -0.917644, -1.45873, -0.626224, 1.0705, -0.2567, -0.00887144, -0.00240396, -0.00942944, -0.0337672, -0.038573, 0.00979709, -3.29286e-05, 0.85273, 17.0804, 20.8274, 17.146, 1.19037, 3.83304, -0.0621838, 0.00058083, -0.00141709, 0.00102647, 0.0012765, -0.00216029, 0.000656868, 0.0104417, -0.00250144, -0.00313106, 0.0182273, 0.0562127, 0.0143903, -0.0110465, -0.444772, 0.634894, -3.13154, -0.0557483, -0.10804, -0.0104476, -0.443326, 0.633919, -3.1304, -0.0552086, -0.104576, 0.00396204, -0.00301977, -0.00858229, -0.00614334, -0.00586006, -0.0124428
0.0613044, 0.107618, -0.774597, -0.917651, -1.45876, -0.626265, 1.07051, -0.256698, -0.00978867, -0.00159183, -0.00973294, -0.0320534, -0.0374516, 0.0073034, 0.00069091, 0.85273, 17.0804, 20.8274, 17.1857, 1.16565, 3.84768, -0.0814099, 0.000569876, -0.00141553, 0.00102728, 0.00125465, -0.00222763, 0.000684977, 0.0112306, -0.00191929, -0.00251135, 0.0171242, 0.056787, 0.0133993, -0.0110424, -0.444775, 0.634885, -3.13152, -0.0557596, -0.108071, -0.0104543, -0.443331, 0.633909, -3.13041, -0.0551757, -0.104503, 0.00412125, -0.00313597, -0.00891658, -0.00683406, -0.00542789, -0.0122098
0.0623044, 0.107608, -0.774599, -0.917665, -1.45879, -0.626312, 1.07052, -0.256703, -0.0104889, -0.00188833, -0.00960002, -0.0326058, -0.0379346, 0.00585483, -0.00123423, 0.85273, 17.1161, 20.9385, 17.2968, 1.17206, 3.84768, -0.0356336, 0.000555093, -0.00141137, 0.00103061, 0.00123308, -0.00229867, 0.000713791, 0.0118553, -0.00151234, -0.00240868, 0.0165636, 0.0584081, 0.0160266, -0.0110382, -0.444778, 0.634876, -3.13149, -0.0557713, -0.108103, -0.0104645, -0.443339, 0.633895, -3.13041, -0.0551423, -0.104425, 0.00428343, -0.00325403, -0.00925645, -0.00731624, -0.00516226, -0.0124881
0.0633044, 0.107604, -0.774592, -0.917678, -1.45882, -0.626354, 1.07052, -0.256699, -0.00610352, 0.000510429, -0.0107341, -0.0296418, -0.0418918, 0.00906097, 0.000398328, 0.777352, 17.0407, 20.9742, 17.4078, 1.15375, 3.85501, -0.0685925, 0.000545912, -0.00140932, 0.00103342, 0.00121716, -0.00237945, 0.000743669, 0.0107425, -0.00288648, -0.00123445, 0.0225701, 0.0608196, 0.0157523, -0.0110339, -0.444781, 0.634867, -3.13147, -0.0557834, -0.108137, -0.010469, -0.443344, 0.633883, -3.13041, -0.0551079, -0.104333, 0.00444857, -0.00337392, -0.00960188, -0.00607317, -0.00662667, -0.0115945
0.0643044, 0.107596, -0.774599, -0.917693, -1.45885, -0.626397, 1.07052, -0.256701, -0.00784238, -0.00225361, -0.0156811, -0.0288842, -0.0409941, 0.00620612, -0.000208835, 0.777352, 17.1518, 21.0496, 17.4435, 1.15375, 3.87607, -0.0557752, 0.000528805, -0.00140703, 0.00103619, 0.00120326, -0.00244719, 0.00077579, 0.0143645, -0.00315146, -0.00235003, 0.0175407, 0.0590277, 0.0121927, -0.0110293, -0.444785, 0.634857, -3.13145, -0.055796, -0.108171, -0.0104812, -0.443351, 0.633869, -3.13041, -0.0550705, -0.104262, 0.00461665, -0.00349563, -0.0099528, -0.0094298, -0.00713111, -0.0133107
0.0653044, 0.107593, -0.774608, -0.917703, -1.45888, -0.62644, 1.07052, -0.256698, -0.00728158, -0.00409744, -0.0113829, -0.032323, -0.0410933, 0.00484644, 0.000810461, 0.701973, 17.2629, 21.0496, 17.5189, 1.17847, 3.87607, -0.0814099, 0.000515264, -0.00140576, 0.00103812, 0.00118617, -0.00251381, 0.000802357, 0.0128853, -0.0017934, -0.00201312, 0.0178089, 0.0604939, 0.0180335, -0.0110246, -0.444788, 0.634847, -3.13143, -0.055809, -0.108207, -0.0104898, -0.443356, 0.633856, -3.13041, -0.055042, -0.104194, 0.00478767, -0.00361914, -0.0103092, -0.00785578, -0.0058483, -0.0132202
0.0663044, 0.107591, -0.774601, -0.917715, -1.45891, -0.626484, 1.07052, -0.256704, -0.00391022, -0.000130608, -0.00828523, -0.0301587, -0.0444664, 0.00400009, -0.00139229, 0.626595, 17.1518, 21.0496, 17.5189, 1.16565, 3.86966, -0.0292249, 0.000504773, -0.00140447, 0.00103774, 0.00116641, -0.00259565, 0.000824712, 0.0105404, -0.00142995, -0.000126989, 0.0225589, 0.0664118, 0.024546, -0.0110198, -0.444792, 0.634836, -3.1314, -0.0558225, -0.108244, -0.0104954, -0.443361, 0.633845, -3.13041, -0.0550206, -0.104104, 0.00496161, -0.00374443, -0.010671, -0.00548693, -0.00554466, -0.0115362
0.0673044, 0.107593, -0.774602, -0.91773, -1.45894, -0.626529, 1.07052, -0.256696, -0.00282213, -0.000920366, -0.00697398, -0.0303308, -0.0429429, 0.00333682, 0.000530011, 0.475838, 17.1875, 21.0892, 17.5943, 1.17206, 3.86233, -0.0685925, 0.000493798, -0.00140233, 0.00104023, 0.00115049, -0.0026746, 0.000856491, 0.00976035, -0.000781198, 0.000450743, 0.0226633, 0.0653763, 0.0268722, -0.0110147, -0.444796, 0.634825, -3.13138, -0.0558365, -0.108282, -0.010501, -0.443367, 0.633831, -3.13041, -0.0549851, -0.10402, 0.00513848, -0.00387148, -0.0110382, -0.0045954, -0.00500115, -0.011269
0.0683044, 0.107587, -0.774603, -0.917743, -1.45897, -0.626569, 1.07052, -0.256701, -0.00260277, -0.000612135, -0.00793356, -0.0273501, -0.0406534, 0.00201504, -0.000629899, 0.475838, 17.1875, 21.0892, 17.6697, 1.14734, 3.87607, -0.0420422, 0.000481251, -0.00140118, 0.00104148, 0.00113252, -0.00274999, 0.000878636, 0.010338, -0.000511843, 0.00135871, 0.0222943, 0.0632369, 0.0284484, -0.0110095, -0.4448, 0.634814, -3.13135, -0.055851, -0.108322, -0.0105082, -0.443373, 0.633818, -3.1304, -0.0549649, -0.103942, 0.00531825, -0.00400028, -0.0114107, -0.00506373, -0.00488954, -0.0107742
0.0693044, 0.107589, -0.774607, -0.91776, -1.45899, -0.626612, 1.07051, -0.256693, -0.000512959, -0.00133503, -0.0128827, -0.0271999, -0.03966, 0.0015677, 0.00154683, 0.400459, 17.2272, 21.1249, 17.7054, 1.14093, 3.87607, -0.0951428, 0.000468102, -0.00139933, 0.00104344, 0.00111808, -0.00282617, 0.000913822, 0.0112625, -0.00121267, 0.000254672, 0.0189038, 0.0626565, 0.0263762, -0.0110041, -0.444804, 0.634803, -3.13133, -0.0558659, -0.108363, -0.0105157, -0.443379, 0.633803, -3.1304, -0.0549251, -0.103865, 0.00550092, -0.0041308, -0.0117885, -0.00570151, -0.00574316, -0.0123224
0.0703044, 0.107586, -0.774607, -0.91777, -1.45902, -0.626655, 1.07051, -0.256699, -0.000747733, -0.000889207, -0.0106942, -0.0241588, -0.0380879, 0.000128321, -0.00117277, 0.400459, 17.2272, 21.0496, 17.7451, 1.11072, 3.90536, -0.0356336, 0.000455614, -0.00139944, 0.001043, 0.00109923, -0.00290749, 0.000934786, 0.0111562, -0.000381267, 0.00209704, 0.0208814, 0.0610865, 0.031117, -0.0109985, -0.444808, 0.634791, -3.1313, -0.0558813, -0.108405, -0.0105225, -0.443384, 0.633791, -3.13039, -0.0549078, -0.103781, 0.00568647, -0.00426302, -0.0121715, -0.00556693, -0.00505774, -0.0108549
0.0713044, 0.107584, -0.774609, -0.917789, -1.45905, -0.626691, 1.07051, -0.256694, -0.000802809, -0.00142741, -0.0152778, -0.0241863, -0.0411115, -0.000568155, 0.000676263, 0.400459, 17.2629, 21.0892, 17.7451, 1.06769, 3.92642, -0.0750012, 0.000441497, -0.00139833, 0.00104374, 0.00108554, -0.00298009, 0.000968661, 0.0136362, -0.0013494, 0.00110591, 0.0193701, 0.0639589, 0.0257169, -0.0109927, -0.444812, 0.634778, -3.13127, -0.0558972, -0.108449, -0.0105307, -0.44339, 0.633777, -3.13038, -0.054871, -0.103711, 0.00587491, -0.00439694, -0.0125597, -0.00774778, -0.00623793, -0.0124106
0.0723044, 0.107584, -0.774607, -0.917807, -1.45908, -0.626729, 1.07051, -0.256702, -0.000763446, -0.000115935, -0.0145551, -0.0283088, -0.0449823, -0.000826661, -0.00222789, 0.400459, 17.2272, 21.0892, 17.7808, 1.06128, 3.94107, -0.00267457, 0.000429879, -0.00139744, 0.0010451, 0.0010712, -0.00306298, 0.000987779, 0.0130783, -0.00117388, 0.00048523, 0.0198908, 0.071529, 0.0309156, -0.0109867, -0.444817, 0.634765, -3.13124, -0.0559137, -0.108494, -0.0105362, -0.443395, 0.633762, -3.13037, -0.0548577, -0.103628, 0.00606621, -0.00453252, -0.0129531, -0.00696376, -0.00617283, -0.0133837
0.0733044, 0.107591, -0.774612, -0.917828, -1.4591, -0.626769, 1.07051, -0.256696, 0.00108309, -0.00174738, -0.0174509, -0.0278759, -0.0426219, -0.000751392, 0.000481453, 0.325081, 17.2986, 21.1249, 17.6697, 1.04297, 3.94839, -0.0557752, 0.000416021, -0.0013948, 0.00104446, 0.00105244, -0.00313376, 0.00102142, 0.0134701, -0.00144105, 9.22299e-05, 0.0178239, 0.0684931, 0.0302174, -0.0109806, -0.444821, 0.634752, -3.13121, -0.0559306, -0.108541, -0.0105438, -0.443403, 0.633749, -3.13037, -0.0548221, -0.103564, 0.00626038, -0.00466976, -0.0133516, -0.00712339, -0.00658744, -0.0142037
0.0743044, 0.107594, -0.774612, -0.917849, -1.45913, -0.62681, 1.0705, -0.256697, 0.000593677, -0.00116467, -0.0184394, -0.0298183, -0.0409219, -0.010255, -0.000187639, 0.325081, 17.2986, 21.0892, 17.7808, 1.02466, 3.96213, -0.0420422, 0.000403944, -0.00139408, 0.00104746, 0.00104246, -0.00322193, 0.00104546, 0.014265, 0.000587354, -0.00116182, 0.00800731, 0.0744421, 0.0329255, -0.0109742, -0.444826, 0.634739, -3.13118, -0.055948, -0.108588, -0.0105492, -0.443409, 0.633731, -3.13035, -0.0548024, -0.103475, 0.00645739, -0.00480863, -0.0137552, -0.00770513, -0.00471593, -0.0159001
0.0753044, 0.107593, -0.774612, -0.917879, -1.45916, -0.626848, 1.0705, -0.256694, 0.000299496, 5.89668e-05, -0.0211482, -0.0284075, -0.0406296, -0.00811417, 0.00109562, 0.325081, 17.2629, 21.1606, 17.7808, 1.03656, 3.97677, -0.0750012, 0.000387355, -0.001391, 0.00105076, 0.00103163, -0.0033043, 0.00108667, 0.0150701, -0.00019359, -0.000839905, 0.00967637, 0.0741332, 0.0301996, -0.0109676, -0.444831, 0.634725, -3.13115, -0.055966, -0.108638, -0.0105589, -0.443417, 0.633713, -3.13034, -0.0547564, -0.103395, 0.00665724, -0.00494912, -0.0141638, -0.00830194, -0.00566845, -0.0160493
0.0763044, 0.107597, -0.774612, -0.917907, -1.45919, -0.626884, 1.0705, -0.256698, 0.00326846, 3.94557e-05, -0.0220839, -0.026597, -0.0395567, -0.00674057, -0.000727635, 0.325081, 17.2629, 21.1606, 17.7451, 1.02466, 3.99783, -0.0356336, 0.000372764, -0.00138942, 0.00105324, 0.00102333, -0.00338731, 0.0011132, 0.0142537, -0.000540757, -9.94589e-05, 0.0114012, 0.0720688, 0.0353727, -0.0109609, -0.444836, 0.63471, -3.13111, -0.0559845, -0.108688, -0.0105664, -0.443424, 0.633695, -3.13032, -0.0547339, -0.103317, 0.00685993, -0.0050912, -0.0145774, -0.00732406, -0.0061356, -0.0156704
0.0773044, 0.107604, -0.77461, -0.917929, -1.45922, -0.626918, 1.07049, -0.256695, 0.0042426, 0.00086163, -0.0233359, -0.0294575, -0.0339296, -0.00626346, 0.000735621, 0.245735, 17.2272, 21.0496, 17.7451, 1.01276, 4.03445, -0.0685925, 0.000362126, -0.00138989, 0.00105442, 0.00101557, -0.00347406, 0.00113976, 0.0124016, 9.91095e-05, -0.000858379, 0.00773148, 0.0708916, 0.0396243, -0.0109539, -0.444841, 0.634696, -3.13108, -0.0560035, -0.108741, -0.01057, -0.443429, 0.633678, -3.1303, -0.054712, -0.103233, 0.00706543, -0.00523486, -0.0149959, -0.00524255, -0.00556725, -0.0167134
0.0783044, 0.107603, -0.77461, -0.917966, -1.45925, -0.626956, 1.07048, -0.256697, 0.00569319, 0.000574501, -0.0301406, -0.0288287, -0.0350846, -0.00553687, -0.000492924, 0.285408, 17.2272, 21.0892, 17.634, 1.01825, 4.06283, -0.0420422, 0.000341318, -0.00138647, 0.00105672, 0.00100702, -0.00355734, 0.00118276, 0.0144919, -0.00140514, -0.00215742, 0.00552614, 0.071612, 0.0378008, -0.0109468, -0.444846, 0.63468, -3.13105, -0.0560231, -0.108794, -0.0105832, -0.443439, 0.63366, -3.13028, -0.0546649, -0.103157, 0.00727374, -0.00538009, -0.0154193, -0.00697393, -0.00727772, -0.0185888
0.0793044, 0.107607, -0.774613, -0.918, -1.45927, -0.62699, 1.07048, -0.256692, 0.00514334, -0.000452156, -0.032027, -0.0281883, -0.0355647, -0.00446633, 0.00136681, 0.245735, 17.2629, 21.0892, 17.634, 1.01276, 4.07748, -0.0878186, 0.000323786, -0.00138433, 0.00106023, 0.00100257, -0.00364073, 0.00122401, 0.0159424, -0.00190811, -0.00198473, 0.00660714, 0.0706741, 0.0349717, -0.0109394, -0.444852, 0.634665, -3.13101, -0.0560432, -0.10885, -0.010593, -0.443447, 0.633639, -3.13025, -0.0546213, -0.103082, 0.00748486, -0.00552686, -0.0158476, -0.00820265, -0.00798028, -0.0189498
0.0803044, 0.107605, -0.77461, -0.918031, -1.45931, -0.62702, 1.07048, -0.256695, 0.00281577, 0.000533826, -0.0299463, -0.0308153, -0.035933, -0.00807522, -0.00102157, 0.285408, 17.2272, 20.9742, 17.634, 1.00635, 4.08389, -0.0356336, 0.000307502, -0.00138325, 0.00106218, 0.000994129, -0.00372621, 0.0012586, 0.0160911, -0.000484805, -0.00195578, 0.00460756, 0.0759556, 0.0393741, -0.0109318, -0.444858, 0.634649, -3.13097, -0.0560639, -0.108906, -0.0106015, -0.443454, 0.63362, -3.13023, -0.0545885, -0.103005, 0.00769877, -0.00567515, -0.0162807, -0.00819007, -0.0067119, -0.0193551
0.0813044, 0.107607, -0.77461, -0.91807, -1.45933, -0.627051, 1.07047, -0.256694, 0.00211335, 0.000355918, -0.0290371, -0.0285053, -0.0355823, -0.00590478, 0.0003023, 0.285408, 17.2272, 20.9742, 17.5943, 0.988036, 4.08389, -0.0621838, 0.000289191, -0.0013808, 0.00106545, 0.000989957, -0.00381029, 0.00129939, 0.0165227, -0.000631958, -0.000336358, 0.00910181, 0.0734794, 0.0386287, -0.010924, -0.444863, 0.634632, -3.13094, -0.0560851, -0.108965, -0.0106116, -0.443463, 0.633599, -3.1302, -0.0545468, -0.102932, 0.00791545, -0.00582496, -0.0167186, -0.00851059, -0.00703958, -0.0182093
0.0823044, 0.107605, -0.774607, -0.918106, -1.45936, -0.627079, 1.07047, -0.256691, 0.000658012, 0.00116532, -0.0297364, -0.0300569, -0.0357969, -0.00381887, 0.000438894, 0.325081, 17.1875, 20.9028, 17.5586, 0.975218, 4.07016, -0.0685925, 0.000271545, -0.00137882, 0.00106697, 0.000980135, -0.00389489, 0.00134365, 0.0168274, -0.000853936, -0.00029575, 0.0107039, 0.075045, 0.0388253, -0.010916, -0.444869, 0.634615, -3.1309, -0.0561069, -0.109025, -0.0106209, -0.443471, 0.63358, -3.13018, -0.0545, -0.102859, 0.00813491, -0.00597625, -0.0171612, -0.00858963, -0.00742411, -0.0186348
0.0833044, 0.10761, -0.774605, -0.918149, -1.4594, -0.627108, 1.07047, -0.256692, 0.00149954, 0.00161212, -0.0311796, -0.0291218, -0.0363894, -0.00283914, 0.000767315, 0.285408, 17.1518, 20.9028, 17.5586, 0.975218, 4.07016, -0.0814099, 0.000254336, -0.00137612, 0.00107163, 0.000979534, -0.00398477, 0.00138174, 0.0171764, -0.00128388, 0.000116902, 0.0122524, 0.0755323, 0.039113, -0.0109077, -0.444875, 0.634598, -3.13086, -0.0561293, -0.109086, -0.0106294, -0.443481, 0.633556, -3.13014, -0.0544638, -0.10278, 0.00835714, -0.00612902, -0.0176085, -0.00872834, -0.00802308, -0.0186986
0.0843044, 0.107613, -0.774595, -0.91819, -1.45943, -0.627137, 1.07047, -0.256697, 0.00202735, 0.00450843, -0.0351839, -0.0272361, -0.0365679, -0.00211268, -0.000946518, 0.245735, 17.005, 20.8631, 17.5189, 0.969725, 4.07016, -0.0420422, 0.000239043, -0.00137365, 0.0010739, 0.000972931, -0.00407965, 0.00141718, 0.0178917, -0.00211013, 0.000173995, 0.0124745, 0.0777759, 0.0389009, -0.0108992, -0.444881, 0.63458, -3.13082, -0.0561522, -0.109149, -0.0106359, -0.44349, 0.633535, -3.13012, -0.054432, -0.102695, 0.00858211, -0.00628324, -0.0180604, -0.00919054, -0.00902919, -0.0191501
0.0853044, 0.107619, -0.774587, -0.918233, -1.45946, -0.627161, 1.07047, -0.256693, 0.00318953, 0.00476887, -0.0382097, -0.0299897, -0.0316876, -0.00130213, -0.000122385, 0.170357, 16.9296, 20.8274, 17.5189, 0.956908, 4.06283, -0.0557752, 0.000224918, -0.00137146, 0.00107672, 0.000968021, -0.00417065, 0.00145773, 0.016851, -0.0019688, -0.00101527, 0.00834964, 0.0765007, 0.0423575, -0.0108905, -0.444888, 0.634562, -3.13078, -0.0561758, -0.109214, -0.010641, -0.443499, 0.633513, -3.13009, -0.054393, -0.102617, 0.00880983, -0.00643891, -0.018517, -0.00784773, -0.00899542, -0.0207202
0.0863044, 0.107621, -0.774586, -0.918277, -1.45949, -0.627191, 1.07047, -0.25669, 0.00532342, 0.00317926, -0.0365918, -0.0312573, -0.0338703, -0.00126306, 0.000393129, 0.170357, 16.9296, 20.7917, 17.4832, 0.975218, 4.07016, -0.0685925, 0.000204639, -0.00136842, 0.00107924, 0.000961233, -0.00425944, 0.00150547, 0.0162226, -0.00175553, -0.000586182, 0.0103322, 0.0779619, 0.0465022, -0.0108816, -0.444894, 0.634543, -3.13073, -0.0561999, -0.10928, -0.010652, -0.443509, 0.633491, -3.13006, -0.0543433, -0.102544, 0.00904028, -0.00659599, -0.0189781, -0.00702822, -0.00892139, -0.0207087
0.0873044, 0.107627, -0.774582, -0.918324, -1.45952, -0.627217, 1.07047, -0.25669, 0.00468795, 0.00295473, -0.0393277, -0.0288846, -0.0350344, 0.000150248, 0.000262086, 0.134651, 16.8939, 20.752, 17.4435, 0.981627, 4.04086, -0.0685925, 0.000187098, -0.00136471, 0.00108151, 0.000953018, -0.00434836, 0.00154867, 0.0182174, -0.00263728, -2.42585e-05, 0.0125585, 0.0771311, 0.0438497, -0.0108725, -0.444901, 0.634524, -3.13069, -0.0562246, -0.109348, -0.01066, -0.44352, 0.633468, -3.13003, -0.0543012, -0.102473, 0.00927346, -0.00675447, -0.0194438, -0.00879074, -0.0100376, -0.0207604
0.0883044, 0.107637, -0.774573, -0.918371, -1.45955, -0.627244, 1.07048, -0.256685, 0.00742712, 0.00456828, -0.0422611, -0.0281477, -0.032159, 0.00108174, 0.00163279, 0.0949785, 16.7828, 20.6766, 17.4435, 1.01276, 4.01248, -0.10796, 0.000172937, -0.00136041, 0.00108404, 0.000942256, -0.00444384, 0.00159157, 0.0171508, -0.00295462, -9.4131e-05, 0.0114537, 0.0764203, 0.0456958, -0.0108631, -0.444908, 0.634504, -3.13064, -0.0562499, -0.109417, -0.0106644, -0.443532, 0.633445, -3.13, -0.0542602, -0.102394, 0.00950935, -0.00691434, -0.0199139, -0.0074751, -0.0104763, -0.0212289
0.0893044, 0.107646, -0.774566, -0.918425, -1.45958, -0.627271, 1.07048, -0.256694, 0.00621967, 0.00471596, -0.0478011, -0.0299104, -0.0296573, 0.0019914, -0.0018276, 0.059273, 16.7114, 20.6766, 17.4078, 1.03656, 3.97677, -0.0292249, 0.000155421, -0.00135597, 0.00108818, 0.00093881, -0.00454071, 0.00162707, 0.0186722, -0.00358191, -0.00159822, 0.00756866, 0.0762589, 0.0475787, -0.0108534, -0.444915, 0.634484, -3.1306, -0.0562758, -0.109488, -0.0106718, -0.443544, 0.633419, -3.12996, -0.0542315, -0.102313, 0.00974794, -0.00707558, -0.0203885, -0.00862556, -0.011304, -0.0233158
0.0903044, 0.107655, -0.77456, -0.918479, -1.45962, -0.627299, 1.07048, -0.256687, 0.00539925, 0.00490721, -0.0485713, -0.0337491, -0.0279494, 0.00315342, 0.00122301, 0.0196001, 16.636, 20.6766, 17.4832, 1.06769, 3.92642, -0.0951428, 0.000138302, -0.00135124, 0.001093, 0.000934078, -0.00463914, 0.00167732, 0.0181738, -0.00330457, -0.00236304, 0.00618202, 0.0777648, 0.0476691, -0.0108436, -0.444922, 0.634463, -3.13055, -0.0563023, -0.109561, -0.0106784, -0.443556, 0.633393, -3.12993, -0.0541805, -0.102232, 0.00998923, -0.00723817, -0.0208674, -0.00784391, -0.0111644, -0.0245218
0.0913044, 0.107664, -0.774552, -0.918536, -1.45964, -0.627327, 1.07049, -0.256693, 0.00384309, 0.00494191, -0.0489341, -0.0310735, -0.0270838, 0.00393789, -0.00233815, 0.0196001, 16.5646, 20.7163, 17.3325, 1.11072, 3.87607, -0.00999879, 0.000117157, -0.00134443, 0.0010932, 0.000918044, -0.00472962, 0.00172561, 0.0194733, -0.003365, -0.00103358, 0.00877672, 0.0756824, 0.0502114, -0.0108335, -0.444929, 0.634442, -3.1305, -0.0563295, -0.109636, -0.0106891, -0.443571, 0.63337, -3.1299, -0.0541327, -0.102166, 0.0102332, -0.00740209, -0.0213508, -0.00898577, -0.0114483, -0.0237716
0.0923044, 0.107676, -0.774541, -0.91859, -1.45967, -0.627358, 1.0705, -0.256687, 0.00670991, 0.00904366, -0.0483884, -0.0347372, -0.025946, 0.00470556, 0.00605538, -0.0161054, 16.4536, 20.6766, 17.4078, 1.14093, 3.8193, -0.0878186, 0.000102097, -0.00133877, 0.00109603, 0.000904153, -0.0048339, 0.00177489, 0.0159319, -0.00284859, -0.00136503, 0.0083148, 0.08159, 0.049295, -0.0108231, -0.444937, 0.634421, -3.13045, -0.0563573, -0.109712, -0.0106933, -0.443584, 0.633344, -3.12987, -0.0540842, -0.10208, 0.0104799, -0.00756732, -0.0218384, -0.00520406, -0.0109682, -0.0243387
0.0933044, 0.107685, -0.774534, -0.918647, -1.4597, -0.627391, 1.07051, -0.256691, 0.0040359, 0.00629166, -0.0507048, -0.0347668, -0.0302125, 0.00603665, 0.00226111, 0.0196001, 16.4536, 20.6766, 17.3721, 1.18396, 3.74057, -0.0292249, 8.13452e-05, -0.00133258, 0.00109782, 0.000890118, -0.00493568, 0.00182372, 0.0195918, -0.00382932, -0.00142454, 0.0107674, 0.0821956, 0.0484458, -0.0108125, -0.444944, 0.634399, -3.1304, -0.0563857, -0.10979, -0.010703, -0.443599, 0.633319, -3.12984, -0.0540369, -0.101999, 0.0107292, -0.00773386, -0.0223304, -0.00856336, -0.012245, -0.0251552
0.0943044, 0.1077, -0.774527, -0.918699, -1.45973, -0.627419, 1.07052, -0.256689, 0.00789571, 0.00750433, -0.051251, -0.0355674, -0.027825, 0.00587701, 0.00326121, -0.0557783, 16.4536, 20.5655, 17.3721, 1.20318, 3.69021, -0.0685925, 6.65212e-05, -0.0013273, 0.00109763, 0.000871046, -0.00503203, 0.00186533, 0.0172896, -0.00347778, -0.001403, 0.00956362, 0.0829437, 0.0542468, -0.0108016, -0.444952, 0.634376, -3.13035, -0.0564147, -0.10987, -0.0107068, -0.443612, 0.633296, -3.12982, -0.0540013, -0.101929, 0.0109812, -0.00790168, -0.0228265, -0.00603035, -0.0119798, -0.0254667
0.0953044, 0.107712, -0.774513, -0.91877, -1.45975, -0.627453, 1.07053, -0.256691, 0.00800256, 0.00717322, -0.0548063, -0.0302782, -0.0357032, 0.00604495, 0.00070053, -0.0161054, 16.3782, 20.7163, 17.2571, 1.2334, 3.63254, -0.0228162, 4.21786e-05, -0.00131804, 0.00109961, 0.000857411, -0.00513848, 0.00192915, 0.0213246, -0.00524731, -0.000275537, 0.0147876, 0.0859175, 0.0495564, -0.0107905, -0.44496, 0.634353, -3.1303, -0.0564444, -0.109952, -0.0107194, -0.44363, 0.633269, -3.12979, -0.0539322, -0.101844, 0.0112358, -0.00807076, -0.0233269, -0.00981263, -0.0140729, -0.0251406
0.0963044, 0.107728, -0.774502, -0.918832, -1.45978, -0.62748, 1.07054, -0.256689, 0.0100397, 0.00909565, -0.0553622, -0.0322922, -0.0304864, 0.00588796, 0.0023288, -0.0557783, 16.3425, 20.7163, 17.2571, 1.21509, 3.58218, -0.0685925, 2.47847e-05, -0.00131142, 0.00110128, 0.000844302, -0.00524302, 0.00198049, 0.0188145, -0.00443231, -0.000538414, 0.01184, 0.0860145, 0.0549076, -0.0107792, -0.444968, 0.634329, -3.13025, -0.0564747, -0.110035, -0.010725, -0.443646, 0.633243, -3.12975, -0.0538831, -0.101764, 0.011493, -0.00824109, -0.0238314, -0.00706407, -0.0133368, -0.025726
0.0973044, 0.107743, -0.774495, -0.918892, -1.45981, -0.627514, 1.07055, -0.25669, 0.0137218, 0.00794084, -0.0572104, -0.0306229, -0.0327076, 0.00551378, 0.000219237, -0.0557783, 16.4178, 20.7163, 17.2571, 1.22699, 3.53915, -0.0292249, 4.52534e-06, -0.00130477, 0.00110096, 0.000824498, -0.00534647, 0.00202992, 0.0191721, -0.00501471, -0.000216144, 0.0128845, 0.0864708, 0.0592295, -0.0107676, -0.444977, 0.634305, -3.13019, -0.0565057, -0.11012, -0.0107333, -0.443661, 0.633217, -3.12973, -0.0538373, -0.101688, 0.0117529, -0.00841265, -0.0243401, -0.00716182, -0.0141067, -0.0259441
0.0983044, 0.107755, -0.774478, -0.918954, -1.45983, -0.627546, 1.07055, -0.256691, 0.0147568, 0.00996351, -0.0585407, -0.0254281, -0.034542, 0.0047231, 0.000951811, 0.0196001, 16.3782, 20.7163, 17.2214, 1.2453, 3.51077, -0.0484509, -1.55753e-05, -0.00129884, 0.00109994, 0.000807607, -0.00546122, 0.00208727, 0.0202707, -0.00545513, 0.00149777, 0.0161295, 0.0876806, 0.0568383, -0.0107557, -0.444985, 0.634281, -3.13014, -0.0565373, -0.110207, -0.0107413, -0.443677, 0.633192, -3.12969, -0.0537801, -0.101596, 0.0120154, -0.00858543, -0.0248528, -0.0080985, -0.0147769, -0.0248294
0.0993044, 0.107774, -0.774463, -0.919015, -1.45986, -0.62758, 1.07056, -0.256691, 0.0174437, 0.0127299, -0.0596745, -0.0248341, -0.0347828, 0.00473949, -0.000244713, 0.0196001, 16.4178, 20.7163, 17.1857, 1.23981, 3.46774, -0.0228162, -3.28877e-05, -0.0012923, 0.00109927, 0.000787223, -0.00557773, 0.00213714, 0.0190026, -0.00556281, 0.00191143, 0.0168655, 0.0910212, 0.0613143, -0.0107435, -0.444994, 0.634256, -3.13008, -0.0565696, -0.110296, -0.0107462, -0.443692, 0.633167, -3.12967, -0.0537351, -0.101504, 0.0122806, -0.0087594, -0.0253696, -0.00659423, -0.0150178, -0.0248464
0.100304, 0.107788, -0.774447, -0.919082, -1.45988, -0.627612, 1.07057, -0.256688, 0.0207659, 0.0126682, -0.059044, -0.025142, -0.035477, 0.00845444, 0.00182227, 0.0949785, 16.4178, 20.7917, 17.1857, 1.23981, 3.45309, -0.0750012, -5.29678e-05, -0.00128544, 0.00109903, 0.000769206, -0.00569362, 0.00219841, 0.0172527, -0.00607675, 0.00275383, 0.0214036, 0.0905433, 0.0647818, -0.0107311, -0.445003, 0.63423, -3.13002, -0.0566025, -0.110386, -0.0107535, -0.443709, 0.63314, -3.12963, -0.0536731, -0.101414, 0.0125483, -0.00893455, -0.0258904, -0.00462241, -0.0156531, -0.0244089
0.101304, 0.107809, -0.774431, -0.919141, -1.45991, -0.627644, 1.07058, -0.256691, 0.0220511, 0.0149467, -0.0567318, -0.0251457, -0.035733, 0.0154026, -0.000678453, 0.0949785, 16.4536, 20.7163, 17.1857, 1.2334, 3.45309, -0.0228162, -6.85467e-05, -0.00127968, 0.00109641, 0.000745858, -0.00581001, 0.00224188, 0.0147875, -0.00671731, 0.00460231, 0.0301018, 0.090154, 0.0721317, -0.0107184, -0.445012, 0.634204, -3.12996, -0.0566361, -0.110479, -0.0107563, -0.443724, 0.633115, -3.12961, -0.0536393, -0.101325, 0.0128186, -0.00911087, -0.0264151, -0.00200115, -0.0164011, -0.0229221
0.102304, 0.107823, -0.774413, -0.919213, -1.45994, -0.627678, 1.07058, -0.256688, 0.0203651, 0.0189826, -0.0640609, -0.0259852, -0.0317303, 0.0155964, 0.000526741, 0.21003, 16.525, 20.8274, 17.2214, 1.23981, 3.46774, -0.0484509, -9.1219e-05, -0.0012727, 0.00109749, 0.000732812, -0.00593566, 0.0023093, 0.015926, -0.00732716, 0.00302403, 0.0247152, 0.0926447, 0.0679338, -0.0107055, -0.445021, 0.634177, -3.1299, -0.0566704, -0.110573, -0.0107656, -0.443741, 0.633086, -3.12957, -0.0535694, -0.101223, 0.0130915, -0.00928833, -0.0269437, -0.0027299, -0.0172127, -0.0251117
0.103304, 0.107838, -0.774387, -0.919275, -1.45997, -0.627713, 1.07059, -0.256693, 0.0200532, 0.0192183, -0.0626556, -0.02582, -0.0338303, 0.0157537, -0.00033871, 0.285408, 16.4536, 20.7917, 17.2214, 1.25812, 3.48239, -0.0292249, -0.000108262, -0.00126747, 0.00109442, 0.000708544, -0.00606905, 0.00236049, 0.0162004, -0.00712598, 0.00405846, 0.027849, 0.094964, 0.0704161, -0.0106922, -0.44503, 0.63415, -3.12984, -0.0567054, -0.110669, -0.0107693, -0.443756, 0.633061, -3.12954, -0.053525, -0.101112, 0.0133669, -0.00946692, -0.0274763, -0.00280814, -0.0172115, -0.0246316
0.104304, 0.107861, -0.774366, -0.919346, -1.45999, -0.627749, 1.0706, -0.256689, 0.0216779, 0.0229744, -0.0659012, -0.0263885, -0.0390824, 0.015439, 0.000265566, 0.285408, 16.4893, 20.8631, 17.2571, 1.25171, 3.51077, -0.0420422, -0.000125919, -0.00126041, 0.00109433, 0.000691263, -0.00620157, 0.00241894, 0.0165731, -0.00802128, 0.00358389, 0.0286877, 0.10413, 0.0686928, -0.0106787, -0.44504, 0.634122, -3.12978, -0.056741, -0.110767, -0.0107731, -0.443773, 0.633032, -3.1295, -0.0534704, -0.101003, 0.0136449, -0.00964662, -0.0280126, -0.0028355, -0.0182948, -0.0256765
0.105304, 0.107878, -0.774339, -0.919406, -1.46002, -0.627788, 1.0706, -0.25669, 0.0200528, 0.0235468, -0.063294, -0.0274699, -0.0400237, 0.015236, 0.000698161, 0.400459, 16.4893, 20.7917, 17.1857, 1.28833, 3.53915, -0.0557752, -0.000143098, -0.00125535, 0.00108817, 0.000659899, -0.00633863, 0.00247565, 0.0164958, -0.00726817, 0.00460764, 0.0312088, 0.106845, 0.0707015, -0.0106649, -0.44505, 0.634094, -3.12971, -0.0567774, -0.110867, -0.0107767, -0.443789, 0.633008, -3.12948, -0.0534186, -0.10089, 0.0139255, -0.00982742, -0.0285528, -0.00257756, -0.0177318, -0.0251855
0.106304, 0.107896, -0.77432, -0.919472, -1.46005, -0.627822, 1.07061, -0.256697, 0.0199225, 0.0214583, -0.0626554, -0.0286783, -0.0432223, 0.0104806, -0.00172924, 0.475838, 16.6003, 20.8274, 17.2571, 1.26453, 3.56845, 0.00373412, -0.000162071, -0.00124934, 0.00108614, 0.000636533, -0.00646917, 0.00252418, 0.0181007, -0.0064117, 0.0044979, 0.0291521, 0.111098, 0.0745616, -0.0106509, -0.44506, 0.634065, -3.12965, -0.0568144, -0.110969, -0.0107814, -0.443805, 0.63298, -3.12945, -0.0533805, -0.100789, 0.0142086, -0.0100093, -0.0290967, -0.00391782, -0.0171149, -0.0259473
0.107304, 0.107922, -0.774295, -0.919541, -1.46007, -0.627861, 1.07062, -0.256686, 0.0225481, 0.0226683, -0.0635121, -0.0270761, -0.0384694, 0.0120665, 0.00153297, 0.436165, 16.6003, 20.8631, 17.2214, 1.30115, 3.58951, -0.0685925, -0.000178556, -0.00124247, 0.00108238, 0.000609138, -0.00660862, 0.00259069, 0.0163218, -0.00626723, 0.005406, 0.0297348, 0.107687, 0.0767176, -0.0106365, -0.44507, 0.634036, -3.12958, -0.0568522, -0.111073, -0.0107835, -0.443823, 0.632954, -3.12942, -0.0533151, -0.100676, 0.0144943, -0.0101922, -0.0296444, -0.00192843, -0.0171, -0.0254633
0.108304, 0.107933, -0.774267, -0.919608, -1.4601, -0.627897, 1.07063, -0.256697, 0.0197932, 0.0257261, -0.0632065, -0.0265436, -0.0376628, 0.00764305, -0.00165152, 0.586922, 16.636, 20.8631, 17.2214, 1.28833, 3.63254, 0.00373412, -0.000198949, -0.00123707, 0.00107793, 0.000581381, -0.00675032, 0.00264553, 0.0171807, -0.00500136, 0.00603824, 0.0275109, 0.112737, 0.07949, -0.0106219, -0.44508, 0.634006, -3.12951, -0.0568906, -0.111178, -0.0107893, -0.443839, 0.632927, -3.12939, -0.0532686, -0.100561, 0.0147825, -0.0103762, -0.0301957, -0.00258762, -0.0160575, -0.0254362
0.109304, 0.107956, -0.774238, -0.919668, -1.46013, -0.627937, 1.07064, -0.256687, 0.0183979, 0.0266536, -0.0571051, -0.0229483, -0.0383789, 0.00466726, 0.00134435, 0.586922, 16.6003, 20.7917, 17.2214, 1.31305, 3.66824, -0.0621838, -0.000213165, -0.00123269, 0.00107137, 0.00054766, -0.0068999, 0.00270741, 0.0169912, -0.00333013, 0.00926296, 0.0324585, 0.113857, 0.0795722, -0.010607, -0.44509, 0.633975, -3.12945, -0.0569298, -0.111286, -0.0107888, -0.443855, 0.632902, -3.12936, -0.0532116, -0.100436, 0.0150731, -0.0105613, -0.0307507, -0.00239791, -0.0146017, -0.0227488
0.110304, 0.107978, -0.774212, -0.919736, -1.46016, -0.627971, 1.07064, -0.256691, 0.0203584, 0.0245581, -0.0587328, -0.0234514, -0.0377175, 0.00696906, -0.000796226, 0.586922, 16.6718, 20.7917, 17.2214, 1.30115, 3.71127, -0.0164075, -0.00023061, -0.00122714, 0.00106608, 0.000519327, -0.00703943, 0.00276, 0.0170528, -0.00384994, 0.00928589, 0.0335998, 0.111305, 0.0850608, -0.0105917, -0.445101, 0.633944, -3.12938, -0.0569696, -0.111396, -0.0107911, -0.443871, 0.632875, -3.12933, -0.05317, -0.100329, 0.0153663, -0.0107473, -0.0313093, -0.00214912, -0.0153107, -0.0232948
0.111304, 0.107995, -0.774188, -0.919804, -1.46019, -0.628007, 1.07065, -0.256685, 0.0190268, 0.0238933, -0.0583581, -0.0246519, -0.0371225, 0.00313998, 0.00140419, 0.701973, 16.7114, 20.7917, 17.2571, 1.28833, 3.77627, -0.0685925, -0.000251016, -0.00122301, 0.00106141, 0.000494345, -0.00718595, 0.00282757, 0.0180127, -0.00271124, 0.00928952, 0.030728, 0.113657, 0.0847636, -0.0105762, -0.445112, 0.633913, -3.1293, -0.0570102, -0.111507, -0.010796, -0.443887, 0.632846, -3.12929, -0.053106, -0.100212, 0.015662, -0.0109343, -0.0318714, -0.0028528, -0.0143955, -0.0239137
0.112304, 0.108021, -0.774158, -0.91986, -1.46021, -0.628041, 1.07066, -0.256692, 0.0226693, 0.0243842, -0.0560488, -0.0222746, -0.035952, 0.00693931, -0.00150362, 0.626595, 16.7114, 20.6409, 17.146, 1.25171, 3.79001, -0.00267457, -0.000262687, -0.0012199, 0.00105043, 0.000453877, -0.00733054, 0.00286726, 0.0156165, -0.00285459, 0.0114902, 0.0371807, 0.110521, 0.0944776, -0.0105604, -0.445123, 0.63388, -3.12923, -0.0570515, -0.111621, -0.0107925, -0.443902, 0.632824, -3.12927, -0.0530855, -0.100102, 0.0159602, -0.0111224, -0.0324371, -0.000317693, -0.014666, -0.0221161
0.113304, 0.108045, -0.774136, -0.919929, -1.46024, -0.628077, 1.07066, -0.256689, 0.0234523, 0.0252554, -0.0604501, -0.0233339, -0.0369901, 0.00935869, -1.78154e-05, 0.626595, 16.8225, 20.6052, 17.146, 1.26453, 3.81198, -0.0292249, -0.000281925, -0.00121471, 0.00104402, 0.000422974, -0.00747354, 0.00292803, 0.0164097, -0.00398791, 0.0107261, 0.037398, 0.112649, 0.0925559, -0.0105443, -0.445134, 0.633848, -3.12916, -0.0570936, -0.111737, -0.0107958, -0.443919, 0.632797, -3.12924, -0.0530333, -0.0999954, 0.0162609, -0.0113113, -0.0330063, -0.000712251, -0.0160087, -0.0235154
0.114304, 0.108065, -0.774112, -0.920002, -1.46027, -0.628109, 1.07067, -0.25669, 0.0229602, 0.0215187, -0.0657971, -0.0239066, -0.0315327, 0.00624811, -0.000248298, 0.6623, 16.8582, 20.6052, 17.146, 1.23981, 3.84036, -0.0228162, -0.000302644, -0.00121052, 0.00103855, 0.000399237, -0.00761951, 0.00298921, 0.018882, -0.00365199, 0.00922548, 0.0293659, 0.107755, 0.0932245, -0.0105279, -0.445146, 0.633814, -3.12908, -0.0571363, -0.111854, -0.0108002, -0.443935, 0.632767, -3.12919, -0.0529815, -0.0998858, 0.016564, -0.0115013, -0.033579, -0.00277964, -0.0159364, -0.0257603
0.115304, 0.108088, -0.774083, -0.920072, -1.46029, -0.62814, 1.07068, -0.256686, 0.0236049, 0.0266019, -0.06665, -0.0225941, -0.0323611, 0.00468925, 0.00129323, 0.6623, 16.8225, 20.5298, 17.0706, 1.2215, 3.84768, -0.0621838, -0.000321171, -0.00120591, 0.00102972, 0.000365561, -0.00776567, 0.0030545, 0.0181921, -0.00340408, 0.0100138, 0.0300052, 0.114234, 0.092686, -0.0105112, -0.445157, 0.633781, -3.12901, -0.0571798, -0.111974, -0.0108024, -0.443952, 0.632741, -3.12916, -0.0529237, -0.0997784, 0.0168696, -0.0116921, -0.034155, -0.00185217, -0.0158648, -0.0255003
0.116304, 0.108108, -0.774058, -0.920143, -1.46032, -0.628173, 1.07068, -0.256691, 0.0209226, 0.0286835, -0.0673063, -0.0233597, -0.028859, 0.00317997, -0.000832738, 0.6623, 16.8582, 20.4545, 17.0706, 1.21509, 3.86233, -0.0164075, -0.000341329, -0.00120154, 0.00102224, 0.00033395, -0.0079145, 0.0031115, 0.0185357, -0.00247934, 0.0102179, 0.0277287, 0.115727, 0.0958052, -0.0104942, -0.445169, 0.633746, -3.12893, -0.0572241, -0.112096, -0.0108058, -0.443969, 0.632713, -3.12913, -0.0528797, -0.0996688, 0.0171776, -0.0118839, -0.0347344, -0.00193582, -0.0151484, -0.0258944
0.117304, 0.10813, -0.774034, -0.92022, -1.46035, -0.628203, 1.07069, -0.256693, 0.0188833, 0.0280021, -0.0697364, -0.02797, -0.0309932, 0.00724945, -0.00130075, 0.6623, 16.8582, 20.4545, 17.1103, 1.21509, 3.86233, 0.00373412, -0.000362784, -0.00119685, 0.00101615, 0.000307614, -0.00806303, 0.00317309, 0.0197257, -0.00339032, 0.00911873, 0.0292393, 0.118523, 0.0958821, -0.0104768, -0.445181, 0.633711, -3.12885, -0.0572691, -0.112219, -0.01081, -0.443986, 0.632682, -3.12908, -0.0528294, -0.0995615, 0.017488, -0.0120766, -0.0353172, -0.00269999, -0.0162831, -0.0276688
0.118304, 0.108155, -0.774008, -0.920295, -1.46037, -0.628232, 1.07069, -0.256689, 0.0212481, 0.0291378, -0.0728341, -0.0232256, -0.0278271, 0.00993123, 0.000353834, 0.626595, 16.7828, 20.3791, 17.0706, 1.20868, 3.86966, -0.0292249, -0.000383428, -0.00119266, 0.00100748, 0.00027842, -0.00821042, 0.00323976, 0.0196753, -0.00423371, 0.0104946, 0.0318524, 0.113799, 0.0954491, -0.0104592, -0.445193, 0.633676, -3.12877, -0.0573148, -0.112345, -0.0108134, -0.444003, 0.632654, -3.12904, -0.052772, -0.0994581, 0.0178009, -0.0122702, -0.0359033, -0.00240451, -0.0173348, -0.0268885
0.119304, 0.10818, -0.77398, -0.920376, -1.46039, -0.628256, 1.0707, -0.256695, 0.0198915, 0.0305946, -0.0750438, -0.0228336, -0.0252401, 0.00809457, -0.000747232, 0.586922, 16.6718, 20.3791, 17.0349, 1.19678, 3.85501, -0.00267457, -0.000404531, -0.00118848, 0.00099957, 0.000253784, -0.00835812, 0.00329821, 0.0205839, -0.00376999, 0.0105311, 0.0292253, 0.11487, 0.0966876, -0.0104412, -0.445205, 0.633639, -3.12869, -0.0573613, -0.112473, -0.0108168, -0.444021, 0.632624, -3.129, -0.0527283, -0.0993561, 0.0181163, -0.0124646, -0.0364926, -0.00301521, -0.0171006, -0.0275047
0.120304, 0.108202, -0.773964, -0.920453, -1.46042, -0.628284, 1.0707, -0.256687, 0.0211308, 0.0280521, -0.0736619, -0.0234527, -0.0234835, 0.00663732, 0.0014687, 0.586922, 16.7114, 20.3077, 17.0349, 1.19037, 3.84036, -0.0557752, -0.00042918, -0.00118444, 0.000991063, 0.000224973, -0.0084988, 0.00337159, 0.0203079, -0.00287381, 0.0110844, 0.0286023, 0.112919, 0.100086, -0.0104229, -0.445218, 0.633603, -3.12861, -0.0574085, -0.112603, -0.0108235, -0.444038, 0.632594, -3.12895, -0.0526619, -0.0992673, 0.018434, -0.0126599, -0.0370852, -0.00249584, -0.0163982, -0.0275195
0.121304, 0.108224, -0.773947, -0.920528, -1.46045, -0.628306, 1.07071, -0.256695, 0.0220081, 0.0239797, -0.0724809, -0.0280201, -0.0226151, 0.00572858, -0.000716162, 0.586922, 16.7114, 20.2323, 17.0706, 1.19678, 3.8193, -0.00999879, -0.000452198, -0.00118194, 0.000982342, 0.000198709, -0.00864048, 0.00342512, 0.0200229, -0.00199488, 0.01038, 0.0264045, 0.112418, 0.108995, -0.0104044, -0.445231, 0.633565, -3.12852, -0.0574565, -0.112735, -0.0108284, -0.444054, 0.632564, -3.1289, -0.0526273, -0.099179, 0.0187541, -0.012856, -0.0376809, -0.0018743, -0.0156989, -0.0287913
0.122304, 0.108242, -0.773927, -0.920609, -1.46047, -0.628328, 1.07071, -0.256691, 0.0218313, 0.0228442, -0.0760532, -0.030468, -0.0212142, 0.00529698, 0.00121807, 0.626595, 16.636, 20.3077, 17.0706, 1.18396, 3.79001, -0.0557752, -0.000479595, -0.00117852, 0.000972975, 0.000172124, -0.00878254, 0.0035023, 0.0211382, -0.00209314, 0.00916261, 0.0228039, 0.113028, 0.10828, -0.0103854, -0.445244, 0.633527, -3.12844, -0.0575053, -0.11287, -0.0108373, -0.444072, 0.632533, -3.12885, -0.0525567, -0.0990921, 0.0190766, -0.013053, -0.0382798, -0.00257299, -0.0160214, -0.0306878
0.123304, 0.108263, -0.773909, -0.920685, -1.4605, -0.628352, 1.07071, -0.256696, 0.0195495, 0.0217063, -0.0774406, -0.0301084, -0.0263417, 0.00406332, -0.00186665, 0.626595, 16.5646, 20.2323, 17.1103, 1.20868, 3.7836, 0.0165515, -0.000503637, -0.00117691, 0.000963039, 0.000145166, -0.00892967, 0.00356055, 0.0244257, -0.0024836, 0.00943546, 0.0245148, 0.117053, 0.107597, -0.0103662, -0.445257, 0.633489, -3.12835, -0.0575548, -0.113006, -0.0108426, -0.444088, 0.632503, -3.1288, -0.0525163, -0.0989996, 0.0194015, -0.0132507, -0.0388819, -0.00553055, -0.0167335, -0.0312612
0.124304, 0.108286, -0.773891, -0.92076, -1.46053, -0.628374, 1.07072, -0.256688, 0.0187586, 0.0208855, -0.0766655, -0.0315268, -0.0244826, 0.00347239, 0.00116312, 0.586922, 16.4893, 20.1569, 17.2214, 1.20868, 3.76895, -0.0484509, -0.000525664, -0.00117522, 0.000953688, 0.000116407, -0.00907932, 0.00362806, 0.0244544, -0.00170348, 0.00978826, 0.0240416, 0.116851, 0.108194, -0.0103466, -0.44527, 0.633449, -3.12826, -0.0576051, -0.113144, -0.0108456, -0.444103, 0.632471, -3.12875, -0.0524623, -0.0989053, 0.0197288, -0.0134493, -0.039487, -0.00528679, -0.0161593, -0.0315117
0.125304, 0.108306, -0.77387, -0.920847, -1.46055, -0.628395, 1.07071, -0.256696, 0.0171476, 0.021934, -0.0783705, -0.0288962, -0.0233492, 0.0030232, -0.000919968, 0.586922, 16.3425, 20.2323, 17.1857, 1.21509, 3.7543, -0.00267457, -0.000555387, -0.00117194, 0.000943781, 9.28313e-05, -0.00922719, 0.00369822, 0.0260478, -0.00169444, 0.01079, 0.0248489, 0.116465, 0.108775, -0.0103267, -0.445284, 0.63341, -3.12817, -0.0576562, -0.113285, -0.0108558, -0.444121, 0.632439, -3.1287, -0.0524052, -0.0988156, 0.0200585, -0.0136486, -0.0400951, -0.00661846, -0.0164214, -0.0312388
0.126304, 0.108325, -0.773857, -0.920924, -1.46058, -0.628413, 1.07072, -0.25669, 0.0159245, 0.0199617, -0.0757951, -0.0280187, -0.0226228, 0.00264839, 0.00159077, 0.586922, 16.3068, 20.1569, 17.1857, 1.22699, 3.74057, -0.0621838, -0.000583651, -0.00117087, 0.000931197, 6.35524e-05, -0.00936548, 0.00377249, 0.026709, -0.000890171, 0.0123542, 0.0274656, 0.114297, 0.10914, -0.0103065, -0.445298, 0.633369, -3.12808, -0.0577081, -0.113428, -0.0108646, -0.444137, 0.632409, -3.12865, -0.0523422, -0.0987433, 0.0203905, -0.0138487, -0.0407063, -0.00708911, -0.0158628, -0.0303329
0.127304, 0.108347, -0.773845, -0.921008, -1.46061, -0.628433, 1.07072, -0.256698, 0.0158941, 0.0187234, -0.0808566, -0.0289062, -0.0222031, 0.00240136, -0.00138087, 0.551216, 16.2671, 20.1926, 17.2571, 1.2453, 3.72592, 0.00373412, -0.000611693, -0.00116826, 0.000921475, 3.64375e-05, -0.00951001, 0.00383368, 0.028778, -0.0015169, 0.0112192, 0.0243519, 0.114529, 0.111129, -0.010286, -0.445311, 0.633328, -3.12799, -0.0577607, -0.113573, -0.0108726, -0.444155, 0.632376, -3.12859, -0.0523004, -0.0986635, 0.0207248, -0.0140495, -0.0413204, -0.00871242, -0.0167533, -0.0322381
0.128304, 0.108365, -0.773832, -0.921083, -1.46063, -0.628453, 1.07072, -0.256687, 0.0141422, 0.0185671, -0.0779148, -0.0271164, -0.0167926, 0.00139956, 0.00152084, 0.586922, 16.1957, 20.1212, 17.2214, 1.25171, 3.73324, -0.0621838, -0.000640425, -0.00116798, 0.000907024, 2.89422e-06, -0.00965282, 0.00391333, 0.0283445, 3.98169e-06, 0.0131932, 0.0252777, 0.110328, 0.112633, -0.0102651, -0.445326, 0.633287, -3.1279, -0.0578142, -0.11372, -0.0108813, -0.444171, 0.632347, -3.12854, -0.0522305, -0.0985887, 0.0210615, -0.0142511, -0.0419374, -0.00814408, -0.0154457, -0.0308432
0.129304, 0.108393, -0.773818, -0.921165, -1.46065, -0.62847, 1.07072, -0.256693, 0.0186811, 0.0184246, -0.0804161, -0.026652, -0.0176669, 0.00071421, -0.00119014, 0.511544, 16.1203, 20.1212, 17.2214, 1.26453, 3.74057, -0.00267457, -0.000666139, -0.00116637, 0.000894696, -2.65468e-05, -0.0097979, 0.0039718, 0.0278157, -0.000381577, 0.0130618, 0.0245513, 0.111917, 0.119572, -0.0102438, -0.44534, 0.633244, -3.1278, -0.0578684, -0.113869, -0.0108865, -0.444188, 0.632315, -3.12849, -0.0521945, -0.0985125, 0.0214005, -0.0144534, -0.0425574, -0.00725507, -0.0160144, -0.0315623
0.130304, 0.108411, -0.773806, -0.921246, -1.46068, -0.628485, 1.07073, -0.256687, 0.0201738, 0.0142595, -0.0824333, -0.0261725, -0.0131543, 0.001058, 0.00117327, 0.511544, 16.0846, 20.1212, 17.2214, 1.26453, 3.72592, -0.0557752, -0.000695983, -0.00116574, 0.000881103, -5.76854e-05, -0.00994011, 0.00404957, 0.0285306, -0.000253568, 0.013104, 0.0225879, 0.104834, 0.121364, -0.0102223, -0.445355, 0.633201, -3.12771, -0.0579234, -0.114021, -0.0108956, -0.444204, 0.632283, -3.12843, -0.0521293, -0.0984429, 0.0217418, -0.0146563, -0.0431802, -0.00763518, -0.0161182, -0.0321969
0.131304, 0.108426, -0.773793, -0.921328, -1.46071, -0.6285, 1.07072, -0.256693, 0.019505, 0.0121255, -0.0808353, -0.0259427, -0.00980179, 0.000463566, -0.00142186, 0.586922, 16.0092, 20.1212, 17.2214, 1.26453, 3.73324, 0.00373412, -0.000727601, -0.00116646, 0.000868455, -8.22467e-05, -0.010089, 0.00411743, 0.0286951, 0.000727821, 0.0141604, 0.0228011, 0.101114, 0.128282, -0.0102004, -0.445369, 0.633158, -3.12761, -0.0579792, -0.114174, -0.0109061, -0.444219, 0.63225, -3.12837, -0.0520806, -0.0983648, 0.0220854, -0.01486, -0.0438058, -0.00756998, -0.0153628, -0.0317742
0.132304, 0.108454, -0.773782, -0.921409, -1.46074, -0.628517, 1.07072, -0.256685, 0.0226382, 0.0103961, -0.0807626, -0.0295961, -0.0129107, 5.98998e-05, 0.00173086, 0.511544, 15.9378, 20.1212, 17.2571, 1.28833, 3.74057, -0.0685925, -0.000753452, -0.00116636, 0.000855622, -0.000112065, -0.0102401, 0.00418716, 0.0280001, 0.000792478, 0.0135206, 0.0226875, 0.105239, 0.131, -0.0101781, -0.445384, 0.633114, -3.12751, -0.0580358, -0.11433, -0.0109105, -0.444235, 0.632217, -3.12831, -0.0520297, -0.0982859, 0.0224314, -0.0150643, -0.0444342, -0.00648841, -0.0154712, -0.0329922
0.133304, 0.108478, -0.773778, -0.921487, -1.46076, -0.628533, 1.07073, -0.25669, 0.0200332, 0.00657697, -0.0795107, -0.0276295, -0.0147216, 5.65255e-05, -0.000541508, 0.511544, 15.9735, 20.1212, 17.2214, 1.30115, 3.74057, -0.0228162, -0.000782829, -0.0011663, 0.000839917, -0.000148629, -0.0103794, 0.00424691, 0.0309533, 0.000923983, 0.015079, 0.0264664, 0.102334, 0.132078, -0.0101555, -0.445399, 0.633069, -3.12741, -0.0580933, -0.114488, -0.0109182, -0.444252, 0.632186, -3.12826, -0.0519946, -0.0982281, 0.0227796, -0.0152693, -0.0450654, -0.00920313, -0.0156754, -0.0322873
0.134304, 0.108503, -0.773767, -0.921571, -1.46079, -0.628546, 1.07073, -0.256683, 0.0180935, 0.00558096, -0.0823169, -0.0332974, -0.0116119, 0.000592663, 0.000859701, 0.511544, 15.9378, 20.1569, 17.2214, 1.31946, 3.72592, -0.0557752, -0.000811271, -0.0011667, 0.000826149, -0.000176973, -0.0105293, 0.00432018, 0.0314823, 0.00125331, 0.0132728, 0.0218143, 0.103393, 0.133316, -0.0101325, -0.445415, 0.633024, -3.12731, -0.0581515, -0.114649, -0.0109246, -0.444268, 0.632152, -3.12819, -0.0519399, -0.0981552, 0.0231301, -0.0154749, -0.0456993, -0.00926167, -0.0155504, -0.0347613
0.135304, 0.108534, -0.773749, -0.921645, -1.46082, -0.628558, 1.07073, -0.256687, 0.0215655, 0.00977041, -0.0810842, -0.0337772, -0.0130036, 0.00483386, 6.45098e-05, 0.436165, 15.8267, 20.0458, 17.1857, 1.31305, 3.73324, -0.0420422, -0.000832522, -0.00116876, 0.0008088, -0.000214159, -0.0106846, 0.00437085, 0.0283028, 0.00081559, 0.0145482, 0.027885, 0.107686, 0.140415, -0.0101092, -0.44543, 0.632978, -3.12721, -0.0582105, -0.114811, -0.0109238, -0.444282, 0.632122, -3.12814, -0.0519207, -0.098077, 0.0234829, -0.0156811, -0.0463358, -0.00581809, -0.0160963, -0.0339001
0.136304, 0.108559, -0.77374, -0.921736, -1.46084, -0.62857, 1.07073, -0.256686, 0.0253536, 0.0109862, -0.0825707, -0.0312696, -0.0146895, 0.0044351, 0.000551635, 0.436165, 15.791, 20.1569, 17.0349, 1.31946, 3.71127, -0.0557752, -0.000864881, -0.00116735, 0.000792985, -0.000247183, -0.0108284, 0.00444712, 0.0279299, 0.000410735, 0.0154505, 0.0297604, 0.109752, 0.142808, -0.0100856, -0.445446, 0.632931, -3.1271, -0.0582704, -0.114976, -0.0109334, -0.444301, 0.632089, -3.12808, -0.0518628, -0.0980184, 0.0238379, -0.015888, -0.046975, -0.00514349, -0.0167083, -0.0336195
0.137304, 0.108587, -0.773731, -0.921829, -1.46088, -0.628588, 1.07073, -0.256685, 0.029727, 0.0103257, -0.0865649, -0.0340473, -0.0161043, 0.00298451, 0.000842475, 0.436165, 15.8267, 20.2323, 17.0706, 1.33136, 3.7186, -0.0685925, -0.000896018, -0.00116667, 0.000782261, -0.000270675, -0.0109893, 0.00451853, 0.0276509, 1.72156e-05, 0.0138471, 0.0258481, 0.113827, 0.146925, -0.0100616, -0.445462, 0.632884, -3.127, -0.0583311, -0.115144, -0.0109411, -0.444319, 0.63205, -3.12801, -0.0518138, -0.0979351, 0.0241952, -0.0160954, -0.0476168, -0.00437716, -0.01728, -0.0358469
0.138304, 0.108615, -0.773719, -0.921913, -1.46091, -0.628601, 1.07073, -0.256689, 0.0275696, 0.0115958, -0.0868318, -0.0332165, -0.0219564, 0.00248522, -0.000896411, 0.475838, 15.791, 20.2323, 16.9992, 1.34418, 3.71127, -0.0292249, -0.000924407, -0.00116756, 0.000765559, -0.000305269, -0.0111453, 0.00458111, 0.0299843, -0.000337339, 0.0147814, 0.029738, 0.120143, 0.145431, -0.0100372, -0.445478, 0.632836, -3.12689, -0.0583926, -0.115313, -0.0109463, -0.444335, 0.632017, -3.12794, -0.0517788, -0.0978622, 0.0245547, -0.0163034, -0.0482612, -0.00639958, -0.0179432, -0.035739
0.139304, 0.108639, -0.773707, -0.922005, -1.46094, -0.628613, 1.07073, -0.256691, 0.0282858, 0.0147612, -0.0900029, -0.0346475, -0.0217557, 0.00233365, -0.00130968, 0.551216, 15.791, 20.2323, 16.9992, 1.36249, 3.69754, -0.00999879, -0.000955311, -0.00116785, 0.000752934, -0.000331575, -0.0113074, 0.00465093, 0.0297281, -0.000522746, 0.0141976, 0.0280532, 0.125212, 0.147312, -0.0100124, -0.445495, 0.632787, -3.12678, -0.0584549, -0.115485, -0.0109532, -0.444353, 0.631978, -3.12787, -0.0517339, -0.0977817, 0.0249165, -0.016512, -0.0489081, -0.00573389, -0.0183223, -0.0369548
0.140304, 0.108672, -0.773701, -0.922103, -1.46098, -0.628625, 1.07074, -0.256685, 0.0308091, 0.00929604, -0.0906188, -0.0337472, -0.0166396, 0.00222446, 0.00129702, 0.551216, 15.8624, 20.3434, 16.9238, 1.37439, 3.68289, -0.0685925, -0.000986664, -0.00116611, 0.000740329, -0.000358818, -0.0114596, 0.00472691, 0.0299591, -4.89408e-05, 0.0146705, 0.0264434, 0.116321, 0.151132, -0.00998734, -0.445511, 0.632738, -3.12667, -0.058518, -0.115659, -0.0109602, -0.444372, 0.631939, -3.1278, -0.0516801, -0.0977188, 0.0252805, -0.0167211, -0.0495576, -0.00565405, -0.0180755, -0.0371481
0.141304, 0.108704, -0.773685, -0.922193, -1.46102, -0.628634, 1.07074, -0.256692, 0.0317599, 0.00787682, -0.0896761, -0.0368488, -0.0121608, 0.00157759, -0.000593384, 0.586922, 15.8267, 20.3434, 16.9992, 1.3689, 3.68289, -0.0292249, -0.00101086, -0.00116798, 0.000727272, -0.000384428, -0.0116303, 0.00477863, 0.0285211, 0.00112857, 0.0145136, 0.0237986, 0.114741, 0.160797, -0.00996188, -0.445528, 0.632688, -3.12656, -0.058582, -0.115835, -0.0109599, -0.444388, 0.631901, -3.12773, -0.0516651, -0.0976296, 0.0256467, -0.0169307, -0.0502094, -0.00388911, -0.017056, -0.0378405
0.142304, 0.108734, -0.773677, -0.922293, -1.46105, -0.628648, 1.07075, -0.256692, 0.0316038, 0.00729412, -0.0925655, -0.0343301, -0.00973876, 0.00636121, -0.00110767, 0.6623, 15.9021, 20.4545, 16.8842, 1.38721, 3.66824, -0.00999879, -0.00104445, -0.00116621, 0.000713876, -0.000414923, -0.0117916, 0.0048548, 0.0295471, 5.19231e-05, 0.0155426, 0.0275841, 0.10933, 0.161232, -0.00993605, -0.445545, 0.632638, -3.12645, -0.0586468, -0.116014, -0.0109684, -0.444409, 0.631861, -3.12766, -0.0516127, -0.0975574, 0.0260151, -0.0171409, -0.0508638, -0.00457979, -0.0183968, -0.0375604
0.143304, 0.108768, -0.773664, -0.922387, -1.46109, -0.628659, 1.07075, -0.256688, 0.0284834, 0.0110953, -0.094291, -0.0416546, -0.0119268, 0.00546526, 0.00068571, 0.737679, 15.9378, 20.4545, 16.8842, 1.38721, 3.64718, -0.0484509, -0.0010707, -0.00116701, 0.000701527, -0.000441196, -0.011963, 0.00492123, 0.0296737, 0.000495205, 0.0136597, 0.02428, 0.120963, 0.160088, -0.00990985, -0.445562, 0.632586, -3.12633, -0.0587125, -0.116195, -0.0109693, -0.444426, 0.63182, -3.12758, -0.0515766, -0.0974715, 0.0263857, -0.0173516, -0.0515205, -0.0042144, -0.0181458, -0.0401028
0.144304, 0.108804, -0.773659, -0.922485, -1.46113, -0.628669, 1.07076, -0.256685, 0.0331822, 0.00816785, -0.0954723, -0.0422902, -0.00888079, 0.00502808, -1.75776e-05, 0.777352, 16.0846, 20.4545, 16.8127, 1.38721, 3.6188, -0.0356336, -0.00110002, -0.0011665, 0.000688074, -0.000470987, -0.012124, 0.00498755, 0.0284927, 0.000777489, 0.0135095, 0.0221081, 0.117401, 0.168776, -0.00988328, -0.44558, 0.632535, -3.12622, -0.058779, -0.116378, -0.0109728, -0.444445, 0.63178, -3.12751, -0.0515413, -0.0974045, 0.0267585, -0.0175627, -0.0521796, -0.00266558, -0.0180317, -0.0408242
0.145304, 0.108834, -0.773641, -0.922586, -1.46118, -0.628683, 1.07076, -0.256684, 0.0319793, 0.0105812, -0.0991615, -0.0435164, -0.00797404, 0.00468719, 0.00120898, 0.888436, 16.0489, 20.5298, 16.7731, 1.42383, 3.58951, -0.0685925, -0.00112953, -0.0011654, 0.00067516, -0.000501732, -0.0123037, 0.00506302, 0.0294178, 0.000636801, 0.0128748, 0.0198318, 0.12117, 0.166992, -0.00985633, -0.445598, 0.632482, -3.1261, -0.0588463, -0.116563, -0.0109762, -0.444465, 0.631738, -3.12743, -0.0514928, -0.0973105, 0.0271335, -0.0177744, -0.052841, -0.00316136, -0.0184119, -0.0421927
0.146304, 0.108874, -0.773633, -0.922687, -1.46122, -0.628693, 1.07077, -0.256692, 0.0360035, 0.0109264, -0.0961404, -0.041467, -0.00607626, 0.00409223, -0.00163542, 0.928108, 16.1957, 20.5298, 16.7374, 1.43024, 3.56845, -0.00267457, -0.0011566, -0.00116442, 0.000662389, -0.000532477, -0.0124721, 0.0051162, 0.0269811, 0.00154972, 0.0148695, 0.0225338, 0.119898, 0.17842, -0.00982901, -0.445615, 0.632429, -3.12598, -0.0589145, -0.116751, -0.0109767, -0.444485, 0.631695, -3.12736, -0.0514796, -0.0972367, 0.0275107, -0.0179865, -0.0535047, -0.000540308, -0.0176524, -0.0406784
0.147304, 0.108913, -0.773616, -0.922796, -1.46127, -0.628705, 1.07079, -0.256686, 0.034995, 0.0141165, -0.0987037, -0.0389541, -0.00975425, 0.0083759, 0.00111377, 1.00349, 16.2314, 20.6052, 16.662, 1.44855, 3.54648, -0.0621838, -0.00118438, -0.00116199, 0.000651601, -0.000560124, -0.0126528, 0.00519157, 0.028401, 4.58794e-05, 0.0161395, 0.0291758, 0.123127, 0.1721, -0.00980131, -0.445634, 0.632375, -3.12586, -0.0589835, -0.116942, -0.0109774, -0.444507, 0.63165, -3.12728, -0.0514332, -0.0971458, 0.02789, -0.018199, -0.0541706, -0.00161464, -0.0194414, -0.0402052
0.148304, 0.108955, -0.7736, -0.922904, -1.46132, -0.628718, 1.07079, -0.256691, 0.0383586, 0.0132067, -0.100668, -0.0410597, -0.00830202, 0.00658916, -0.000952908, 1.03919, 16.2671, 20.6766, 16.6223, 1.47876, 3.53274, -0.0164075, -0.00121039, -0.00116073, 0.000641462, -0.000584655, -0.0128409, 0.00525027, 0.0276193, 0.00041793, 0.0153306, 0.0254566, 0.124457, 0.180225, -0.00977323, -0.445652, 0.63232, -3.12574, -0.0590534, -0.117134, -0.0109759, -0.444528, 0.631604, -3.12719, -0.0514137, -0.0970457, 0.0282715, -0.018412, -0.0548388, -0.000409843, -0.0192449, -0.0416207
0.149304, 0.108997, -0.773586, -0.923, -1.46137, -0.628725, 1.0708, -0.256684, 0.0409277, 0.01467, -0.096876, -0.0429391, -0.0100631, 0.00996074, 0.000551523, 1.07887, 16.3425, 20.5298, 16.5866, 1.46045, 3.5181, -0.0484509, -0.00123283, -0.00116194, 0.000626908, -0.000618169, -0.0130212, 0.00531094, 0.0247346, 0.000649633, 0.0167856, 0.0317247, 0.127601, 0.186748, -0.00974476, -0.44567, 0.632265, -3.12562, -0.0591241, -0.117329, -0.0109709, -0.444546, 0.631561, -3.12712, -0.0513917, -0.0969606, 0.0286551, -0.0186253, -0.0555092, 0.00272911, -0.0191434, -0.0406244
0.150304, 0.109034, -0.77357, -0.923109, -1.46142, -0.628734, 1.07082, -0.256693, 0.0406733, 0.0119288, -0.103345, -0.0442213, -0.00839828, 0.0125397, -0.00180246, 1.18995, 16.4536, 20.6052, 16.5509, 1.48517, 3.50345, 0.0101428, -0.00126059, -0.00115977, 0.000614841, -0.000651191, -0.0132039, 0.00537127, 0.0272368, -0.000601248, 0.0153938, 0.0293524, 0.124373, 0.187851, -0.00971592, -0.445689, 0.632209, -3.12549, -0.0591957, -0.117527, -0.0109705, -0.444568, 0.631515, -3.12704, -0.051371, -0.0968741, 0.0290408, -0.0188391, -0.0561817, 0.000771746, -0.020683, -0.0428914
0.151304, 0.109081, -0.773556, -0.923218, -1.46147, -0.628746, 1.07083, -0.256686, 0.0403392, 0.0130314, -0.105703, -0.045027, -0.00709487, 0.0136655, 0.00123977, 1.18995, 16.5646, 20.6052, 16.5112, 1.50989, 3.51077, -0.0557752, -0.00128521, -0.0011579, 0.000602821, -0.000682789, -0.013391, 0.00543843, 0.0276049, -0.000782674, 0.0153282, 0.0291367, 0.125498, 0.186168, -0.00968668, -0.445708, 0.632153, -3.12537, -0.0592682, -0.117726, -0.0109666, -0.44459, 0.631469, -3.12696, -0.0513408, -0.0967829, 0.0294287, -0.0190533, -0.0568564, 0.000803074, -0.0210942, -0.0436653
0.152304, 0.109122, -0.773533, -0.923321, -1.46152, -0.628755, 1.07085, -0.256692, 0.0372308, 0.0164854, -0.104833, -0.0440906, -0.00986968, 0.0114916, -0.00114018, 1.305, 16.5646, 20.4941, 16.4001, 1.50989, 3.47507, -0.00267457, -0.00130747, -0.00115712, 0.000587407, -0.000723724, -0.0135829, 0.00549337, 0.0289548, -0.000183954, 0.0166126, 0.0312712, 0.132419, 0.186736, -0.00965706, -0.445727, 0.632096, -3.12524, -0.0593415, -0.117929, -0.0109602, -0.444611, 0.631425, -3.12689, -0.0513301, -0.0966875, 0.0298187, -0.0192678, -0.0575331, -0.000273107, -0.0207833, -0.0431601
0.153304, 0.109174, -0.773521, -0.923435, -1.46157, -0.628761, 1.07087, -0.25669, 0.0426328, 0.0124442, -0.108303, -0.047519, -0.0119531, 0.0128828, -1.41322e-05, 1.22962, 16.7114, 20.5298, 16.3248, 1.50989, 3.48239, -0.0228162, -0.00133112, -0.00115487, 0.000576422, -0.000752517, -0.0137677, 0.00555205, 0.0287991, -0.00112102, 0.0150873, 0.0298125, 0.13268, 0.191624, -0.00962704, -0.445747, 0.632038, -3.12511, -0.0594156, -0.118133, -0.0109545, -0.444634, 0.631376, -3.1268, -0.051315, -0.0966047, 0.0302108, -0.0194827, -0.0582119, 0.000423128, -0.0219089, -0.0453636
0.154304, 0.109213, -0.773497, -0.923551, -1.46163, -0.628772, 1.07089, -0.256692, 0.0410386, 0.0153464, -0.112694, -0.0509417, -0.00981111, 0.0194096, -0.000755407, 1.38038, 16.7471, 20.5298, 16.2891, 1.53461, 3.46774, -0.00267457, -0.00135774, -0.00115141, 0.00056423, -0.000790352, -0.0139673, 0.00562276, 0.0285761, -0.00234344, 0.014225, 0.0313152, 0.134034, 0.192699, -0.00959664, -0.445766, 0.631979, -3.12498, -0.0594907, -0.11834, -0.0109514, -0.444658, 0.631328, -3.12672, -0.0512819, -0.0965017, 0.0306049, -0.019698, -0.0588927, 0.00114999, -0.0233272, -0.0469066
0.155304, 0.109266, -0.773476, -0.923671, -1.46168, -0.62878, 1.07091, -0.256688, 0.0437569, 0.017446, -0.112019, -0.0516949, -0.0113927, 0.0136406, 0.000954458, 1.38038, 16.7828, 20.4941, 16.178, 1.52179, 3.48971, -0.0420422, -0.00138124, -0.00114835, 0.000552123, -0.000821921, -0.0141637, 0.00568977, 0.0276261, -0.00107842, 0.0143843, 0.0282701, 0.141691, 0.196281, -0.00956583, -0.445786, 0.63192, -3.12485, -0.0595666, -0.11855, -0.0109447, -0.444682, 0.631279, -3.12664, -0.0512556, -0.0964057, 0.0310012, -0.0199136, -0.0595756, 0.0024306, -0.0222487, -0.0473471
0.156304, 0.109312, -0.773461, -0.92379, -1.46173, -0.628789, 1.07093, -0.256692, 0.0440625, 0.0162533, -0.116456, -0.0524278, -0.00918062, 0.0193568, -0.000821757, 1.45576, 16.9296, 20.5298, 16.0629, 1.5401, 3.49612, -0.00267457, -0.00141003, -0.00114453, 0.000538576, -0.000859275, -0.0143522, 0.00575637, 0.0284376, -0.00246043, 0.0140567, 0.0300818, 0.1376, 0.198946, -0.00953463, -0.445806, 0.63186, -3.12472, -0.0596434, -0.118761, -0.0109431, -0.444707, 0.63123, -3.12655, -0.0512306, -0.0963248, 0.0313996, -0.0201295, -0.0602603, 0.00209692, -0.0238739, -0.0484418
0.157304, 0.109363, -0.773435, -0.923905, -1.46179, -0.628796, 1.07096, -0.256689, 0.0449679, 0.0189907, -0.116876, -0.055579, -0.00636008, 0.0233405, -0.000547838, 1.49146, 16.9296, 20.4545, 16.0629, 1.5282, 3.51077, -0.00267457, -0.00142979, -0.00114217, 0.000525308, -0.00089861, -0.0145566, 0.00581739, 0.0260655, -0.00247038, 0.0140903, 0.0316291, 0.139246, 0.204715, -0.00950303, -0.445826, 0.6318, -3.12458, -0.059721, -0.118976, -0.0109321, -0.444731, 0.631181, -3.12647, -0.0512153, -0.0962218, 0.0318, -0.0203457, -0.060947, 0.00485729, -0.0240145, -0.0489187
0.158304, 0.109415, -0.773418, -0.924024, -1.46185, -0.628804, 1.07098, -0.256693, 0.0465866, 0.0182709, -0.119343, -0.0560317, -0.00451305, 0.0217105, -0.000839943, 1.49146, 17.0407, 20.4545, 15.9915, 1.52179, 3.52542, 0.0101428, -0.00145404, -0.00113912, 0.000512258, -0.000936207, -0.0147555, 0.00587613, 0.026427, -0.0022203, 0.0137455, 0.0286377, 0.139347, 0.208352, -0.00947103, -0.445847, 0.631738, -3.12445, -0.0597996, -0.119192, -0.0109251, -0.444755, 0.631131, -3.12639, -0.0512044, -0.0961296, 0.0322025, -0.0205621, -0.0616356, 0.00491456, -0.0239923, -0.0499797
0.159304, 0.109466, -0.773392, -0.924141, -1.46191, -0.62881, 1.071, -0.256688, 0.0467253, 0.0212369, -0.116173, -0.0604224, -0.00318802, 0.0299279, 0.00137282, 1.53114, 17.005, 20.3791, 15.9518, 1.5163, 3.53915, -0.0420422, -0.00147547, -0.00113728, 0.000498076, -0.00097465, -0.0149629, 0.00594237, 0.0227514, -0.00238006, 0.0148165, 0.0362192, 0.140882, 0.214116, -0.00943863, -0.445867, 0.631676, -3.12431, -0.059879, -0.119411, -0.010915, -0.444779, 0.631081, -3.12631, -0.0511829, -0.0960267, 0.032607, -0.0207789, -0.062326, 0.00890467, -0.0242501, -0.0493272
0.160304, 0.109517, -0.773379, -0.924265, -1.46197, -0.628816, 1.07103, -0.256694, 0.0509493, 0.0189501, -0.11467, -0.0595994, -0.00737719, 0.0267117, -0.00125493, 1.53114, 17.1518, 20.3434, 15.8765, 1.52179, 3.5538, 0.0165515, -0.00150229, -0.00113371, 0.00048562, -0.00101104, -0.0151584, 0.00600021, 0.0227578, -0.00194879, 0.015721, 0.0375032, 0.143842, 0.222201, -0.00940582, -0.445888, 0.631614, -3.12417, -0.0599593, -0.119633, -0.0109097, -0.444804, 0.631029, -3.12622, -0.0511753, -0.0959448, 0.0330136, -0.0209959, -0.0630183, 0.00921754, -0.024054, -0.0491164
0.161304, 0.109566, -0.773357, -0.924383, -1.46203, -0.62882, 1.07106, -0.256691, 0.0491967, 0.0209665, -0.116015, -0.060977, -0.00532676, 0.0250925, 0.000384085, 1.60651, 17.1518, 20.268, 15.8765, 1.5163, 3.54648, -0.0164075, -0.00152418, -0.00113111, 0.000471101, -0.00105614, -0.0153637, 0.00606509, 0.0231983, -0.00124949, 0.0156261, 0.0350914, 0.147031, 0.221968, -0.0093726, -0.445909, 0.63155, -3.12403, -0.0600404, -0.119857, -0.0108993, -0.444829, 0.630978, -3.12614, -0.0511574, -0.0958505, 0.0334222, -0.0212132, -0.0637123, 0.00916542, -0.0235908, -0.0499336
0.162304, 0.109622, -0.773335, -0.924504, -1.46209, -0.628824, 1.07109, -0.25669, 0.0526669, 0.0192549, -0.11693, -0.060726, -0.00377288, 0.0273737, 0.000493416, 1.60651, 17.1518, 20.1926, 15.8408, 1.50989, 3.56845, -0.0228162, -0.00154552, -0.00112853, 0.000455911, -0.00109838, -0.0155698, 0.00612473, 0.0223257, -0.00156279, 0.0161825, 0.0368174, 0.143917, 0.227793, -0.00933897, -0.445931, 0.631486, -3.12389, -0.0601225, -0.120083, -0.0108879, -0.444854, 0.630928, -3.12605, -0.0511488, -0.0957573, 0.0338328, -0.0214307, -0.0644081, 0.0104133, -0.0241006, -0.0500155
0.163304, 0.109679, -0.773322, -0.924634, -1.46215, -0.628829, 1.07112, -0.256689, 0.052212, 0.0182609, -0.121423, -0.0606125, -0.00285955, 0.0297365, 0.000566303, 1.60651, 17.2629, 20.268, 15.8011, 1.50989, 3.57577, -0.0292249, -0.00157225, -0.00112409, 0.000443992, -0.00113427, -0.0157702, 0.00618986, 0.0242313, -0.00251294, 0.0158596, 0.0368366, 0.142157, 0.226777, -0.00930493, -0.445952, 0.631421, -3.12375, -0.0602054, -0.120312, -0.0108812, -0.444881, 0.630873, -3.12596, -0.0511327, -0.095675, 0.0342455, -0.0216484, -0.0651057, 0.00898726, -0.0253379, -0.0511986
0.164304, 0.109734, -0.773303, -0.924751, -1.46221, -0.62883, 1.07115, -0.256694, 0.0549138, 0.0202824, -0.124009, -0.0574098, -0.0010117, 0.032256, -0.00108053, 1.60651, 17.2629, 20.1926, 15.7654, 1.47876, 3.56112, 0.0101428, -0.00159307, -0.00112185, 0.000425998, -0.00118532, -0.0159715, 0.00624219, 0.0236434, -0.00323302, 0.017038, 0.0395375, 0.140572, 0.230933, -0.00927048, -0.445974, 0.631356, -3.1236, -0.0602893, -0.120544, -0.0108688, -0.444906, 0.630823, -3.12588, -0.0511368, -0.0955949, 0.0346601, -0.0218663, -0.0658049, 0.00992353, -0.0262758, -0.0506916
0.165304, 0.10979, -0.773289, -0.92488, -1.46228, -0.628831, 1.07118, -0.256691, 0.0528497, 0.0200153, -0.127544, -0.0580571, -0.000664685, 0.0327844, 2.5634e-05, 1.64619, 17.3383, 20.1926, 15.7297, 1.47327, 3.58218, -0.00999879, -0.00161909, -0.00111828, 0.000411147, -0.00122699, -0.0161714, 0.00630842, 0.0258856, -0.00362038, 0.0166793, 0.0385893, 0.141324, 0.228123, -0.00923561, -0.445996, 0.63129, -3.12346, -0.060374, -0.120777, -0.0108608, -0.444933, 0.63077, -3.12579, -0.0511207, -0.0955189, 0.0350768, -0.0220844, -0.0665058, 0.00814707, -0.0269637, -0.0519335
0.166304, 0.109849, -0.773276, -0.925007, -1.46235, -0.628831, 1.07122, -0.256689, 0.0563563, 0.0176401, -0.125686, -0.0603503, -0.000351015, 0.0342836, -0.000254178, 1.60651, 17.374, 20.1212, 15.7654, 1.46686, 3.57577, -0.00267457, -0.00164192, -0.00111517, 0.000398104, -0.0012673, -0.016375, 0.00636653, 0.0241057, -0.00325816, 0.01715, 0.0404954, 0.140434, 0.237225, -0.00920033, -0.446018, 0.631223, -3.12331, -0.0604596, -0.121014, -0.0108492, -0.44496, 0.630714, -3.1257, -0.0511183, -0.0954394, 0.0354954, -0.0223027, -0.0672083, 0.0102865, -0.026764, -0.0520283
0.167304, 0.109903, -0.773255, -0.925142, -1.46241, -0.628835, 1.07125, -0.256685, 0.0569211, 0.0152635, -0.128204, -0.0611788, -0.000342947, 0.0351433, 0.000813892, 1.64619, 17.2986, 20.0815, 15.7654, 1.46686, 3.57577, -0.0292249, -0.0016689, -0.00111051, 0.00038448, -0.00130892, -0.0165886, 0.0064417, 0.0254852, -0.0036575, 0.0168894, 0.0402025, 0.139289, 0.237812, -0.00916462, -0.446041, 0.631155, -3.12316, -0.0605461, -0.121253, -0.0108412, -0.444988, 0.630658, -3.12561, -0.0510904, -0.0953469, 0.0359161, -0.0225212, -0.0679124, 0.00936656, -0.0274332, -0.0531096
0.168304, 0.109965, -0.773247, -0.925284, -1.46247, -0.628835, 1.07128, -0.256693, 0.0563909, 0.00971754, -0.12895, -0.0606811, -7.2976e-05, 0.0306683, -0.00115283, 1.60651, 17.374, 20.1212, 15.7297, 1.46045, 3.58951, 0.0165515, -0.00169911, -0.00110459, 0.000372013, -0.00134485, -0.016788, 0.00650337, 0.0285119, -0.00283431, 0.0169979, 0.03688, 0.136516, 0.241134, -0.00912849, -0.446063, 0.631087, -3.12301, -0.0606336, -0.121494, -0.0108359, -0.445018, 0.630599, -3.12552, -0.0505577, -0.0952784, 0.0363387, -0.0227398, -0.068618, 0.00673114, -0.0269504, -0.0539362
0.169304, 0.110016, -0.77324, -0.925418, -1.46254, -0.628836, 1.07132, -0.25669, 0.0561869, 0.00662199, -0.128295, -0.0622092, -0.000347287, 0.0328061, 0.000452152, 1.68189, 17.4097, 20.1212, 15.7654, 1.46686, 3.58218, -0.0164075, -0.00173119, -0.00110006, 0.000357053, -0.00139076, -0.0169874, 0.00657908, 0.0291918, -0.00284149, 0.0175289, 0.0394744, 0.134544, 0.243092, -0.00909194, -0.446086, 0.631018, -3.12286, -0.0607219, -0.121738, -0.0108323, -0.445047, 0.630543, -3.12543, -0.0505308, -0.0952133, 0.0367632, -0.0229586, -0.0693252, 0.00643537, -0.0272153, -0.0541726
0.170304, 0.110075, -0.773234, -0.925557, -1.46261, -0.628836, 1.07136, -0.256682, 0.0578651, 0.00742158, -0.12845, -0.0642291, -0.000277483, 0.0390036, 0.00199686, 1.68189, 17.4454, 20.1569, 15.8408, 1.46686, 3.57577, -0.0621838, -0.00176008, -0.00109485, 0.000344391, -0.00143209, -0.017191, 0.00665303, 0.0275333, -0.00364217, 0.0181074, 0.0447888, 0.134542, 0.246787, -0.00905497, -0.446109, 0.630949, -3.12271, -0.0608111, -0.121984, -0.0108248, -0.445077, 0.630483, -3.12533, -0.0505079, -0.0951438, 0.0371897, -0.0231774, -0.0700339, 0.00849871, -0.0281849, -0.0541917
0.171304, 0.110131, -0.773221, -0.925684, -1.46268, -0.628836, 1.07139, -0.256688, 0.0591976, 0.0137787, -0.130683, -0.0669448, 1.79018e-05, 0.0339378, 0.000110534, 1.68189, 17.374, 20.0458, 15.8408, 1.46045, 3.57577, -0.0292249, -0.00178642, -0.00109281, 0.000326319, -0.0014819, -0.0173997, 0.00671003, 0.0260506, -0.00258859, 0.0171273, 0.0389371, 0.146097, 0.252314, -0.00901756, -0.446132, 0.630878, -3.12255, -0.0609012, -0.122233, -0.010815, -0.445103, 0.630429, -3.12524, -0.050512, -0.0950697, 0.0376182, -0.0233964, -0.0707441, 0.0104365, -0.0272814, -0.0557527
0.172304, 0.110188, -0.773216, -0.925828, -1.46275, -0.628836, 1.07143, -0.256686, 0.0600574, 0.0111575, -0.134522, -0.0667302, -0.000251276, 0.0390078, -0.00016367, 1.68189, 17.3383, 20.1212, 15.8765, 1.46686, 3.58951, -0.0228162, -0.00181927, -0.00108703, 0.000313682, -0.00152292, -0.0176055, 0.0067852, 0.027631, -0.00411402, 0.0171716, 0.042095, 0.142204, 0.252929, -0.00897973, -0.446156, 0.630807, -3.12239, -0.0609922, -0.122484, -0.0108106, -0.445134, 0.630367, -3.12514, -0.0504892, -0.0950017, 0.0380486, -0.0236155, -0.0714557, 0.00934735, -0.0290899, -0.0565717
0.173304, 0.110248, -0.773213, -0.925969, -1.46282, -0.628836, 1.07147, -0.256691, 0.0576435, 0.00829064, -0.136335, -0.0694962, 5.04531e-05, 0.0382208, -0.00180453, 1.68189, 17.3383, 20.1569, 15.9161, 1.46045, 3.59683, 0.0229602, -0.0018504, -0.00108244, 0.000299762, -0.00156558, -0.0178107, 0.00684853, 0.029979, -0.00384943, 0.0164647, 0.0397583, 0.142379, 0.254948, -0.00894147, -0.44618, 0.630735, -3.12224, -0.0610841, -0.122738, -0.0108043, -0.445164, 0.630307, -3.12504, -0.0504857, -0.0949376, 0.0384809, -0.0238347, -0.0721687, 0.00748335, -0.0291263, -0.0581758
0.174304, 0.110312, -0.773212, -0.926098, -1.4629, -0.628834, 1.07151, -0.25669, 0.0646441, 0.00616634, -0.134183, -0.0694653, 0.000459903, 0.0375354, -0.00120302, 1.57081, 17.3383, 20.0458, 15.9915, 1.44855, 3.61148, 0.0229602, -0.00187619, -0.00107985, 0.000283073, -0.00161574, -0.0180157, 0.00690279, 0.0271777, -0.00325541, 0.0174421, 0.0410089, 0.141317, 0.265762, -0.00890277, -0.446204, 0.630663, -3.12208, -0.061177, -0.122995, -0.0107925, -0.445192, 0.630249, -3.12495, -0.050497, -0.094877, 0.0389151, -0.0240539, -0.0728831, 0.010606, -0.028666, -0.0576919
0.175304, 0.110369, -0.773211, -0.926236, -1.46297, -0.628835, 1.07155, -0.256689, 0.0647993, 0.00551835, -0.135155, -0.0693694, 9.22457e-05, 0.0365493, -0.000327297, 1.53114, 17.2986, 20.0458, 16.0629, 1.45404, 3.63986, 0.0101428, -0.00190883, -0.00107657, 0.000267181, -0.00166162, -0.0182245, 0.00697302, 0.0281853, -0.00306816, 0.0178318, 0.0409602, 0.142458, 0.266676, -0.00886363, -0.446228, 0.630589, -3.12192, -0.0612707, -0.123253, -0.010787, -0.445221, 0.630188, -3.12485, -0.0504845, -0.0948125, 0.0393512, -0.0242732, -0.0735988, 0.00999815, -0.0287483, -0.0581016
0.176304, 0.110421, -0.773212, -0.926374, -1.46304, -0.628832, 1.07158, -0.256689, 0.0599885, 0.0048737, -0.136936, -0.0714084, 5.33176e-05, 0.0370549, 0.000765146, 1.57081, 17.2629, 20.0815, 16.1026, 1.45404, 3.63986, -0.0164075, -0.00194445, -0.00107417, 0.000250327, -0.00170691, -0.0184307, 0.0070469, 0.0310002, -0.0029979, 0.017639, 0.040682, 0.143955, 0.263066, -0.00882406, -0.446252, 0.630515, -3.12175, -0.0613653, -0.123515, -0.0107841, -0.445249, 0.630128, -3.12474, -0.0504674, -0.0947544, 0.0397893, -0.0244926, -0.0743159, 0.0076423, -0.0290068, -0.0592385
0.177304, 0.110483, -0.773215, -0.926514, -1.46311, -0.628832, 1.07162, -0.256691, 0.0625331, 0.000378056, -0.139635, -0.071256, 0.000707579, 0.0372914, -0.000710606, 1.49146, 17.2629, 20.0458, 16.0629, 1.43573, 3.63986, 0.0165515, -0.00197874, -0.00106953, 0.00023194, -0.00175954, -0.0186327, 0.00711594, 0.0323516, -0.00340315, 0.0174463, 0.0396772, 0.139947, 0.267909, -0.00878406, -0.446277, 0.630441, -3.12159, -0.0614609, -0.123779, -0.0107795, -0.44528, 0.630069, -3.12465, -0.0504583, -0.0947061, 0.0402292, -0.0247119, -0.0750342, 0.00676523, -0.0296841, -0.0602687
0.178304, 0.110541, -0.773213, -0.92666, -1.46319, -0.628834, 1.07166, -0.256688, 0.0601174, -0.00214517, -0.141493, -0.0757239, -7.59968e-06, 0.0420715, 0.00122168, 1.45576, 17.2272, 20.0101, 16.2137, 1.44855, 3.63986, -0.0292249, -0.00201298, -0.00106549, 0.000218772, -0.00180186, -0.0188536, 0.00719089, 0.0338813, -0.00416255, 0.0167079, 0.041682, 0.139561, 0.266772, -0.00874361, -0.446302, 0.630365, -3.12142, -0.0615574, -0.124045, -0.0107741, -0.445311, 0.630004, -3.12454, -0.0504418, -0.0946301, 0.040671, -0.0249313, -0.0757538, 0.00576979, -0.0307122, -0.0618644
0.179304, 0.110603, -0.773216, -0.926804, -1.46326, -0.628831, 1.0717, -0.256691, 0.0623496, -0.00173913, -0.145519, -0.073581, 0.00090701, 0.0409703, 0.000102379, 1.38038, 17.2272, 19.9347, 16.1383, 1.42383, 3.63986, -0.00999879, -0.0020482, -0.00106155, 0.000200822, -0.00185058, -0.0190604, 0.00725992, 0.0348337, -0.00455263, 0.0168299, 0.0400624, 0.139675, 0.268992, -0.00870271, -0.446327, 0.630289, -3.12126, -0.0616548, -0.124315, -0.0107695, -0.445342, 0.629942, -3.12444, -0.050435, -0.0945791, 0.0411146, -0.0251507, -0.0764746, 0.0052688, -0.0313651, -0.0625527
0.180304, 0.11066, -0.773221, -0.926955, -1.46334, -0.628829, 1.07174, -0.256687, 0.0620156, -0.00306162, -0.146323, -0.0758075, 0.00128025, 0.0447141, 0.000542971, 1.38038, 17.2986, 19.8951, 16.2137, 1.40552, 3.63986, -0.0228162, -0.00208716, -0.0010565, 0.000186738, -0.00189368, -0.0192708, 0.00734258, 0.0350918, -0.00496782, 0.0169571, 0.0425564, 0.138717, 0.27159, -0.00866138, -0.446352, 0.630212, -3.12109, -0.0617531, -0.124586, -0.0107679, -0.445374, 0.629876, -3.12433, -0.0504083, -0.0945246, 0.0415602, -0.0253701, -0.0771966, 0.00546192, -0.0320164, -0.0631825
0.181304, 0.110713, -0.773214, -0.927112, -1.46341, -0.62883, 1.07178, -0.256691, 0.0580831, 0.000383559, -0.148257, -0.0768169, 0.000614203, 0.0425153, -0.0015708, 1.41608, 17.1875, 19.9347, 16.1383, 1.41192, 3.65451, 0.0293689, -0.00212881, -0.00105104, 0.000170315, -0.0019389, -0.0194947, 0.00743085, 0.0369722, -0.0044997, 0.0169327, 0.0409167, 0.145485, 0.271077, -0.00861959, -0.446377, 0.630135, -3.12092, -0.0618523, -0.12486, -0.0107687, -0.445407, 0.629811, -3.12422, -0.0503738, -0.0944516, 0.0420076, -0.0255895, -0.0779197, 0.00401747, -0.0318454, -0.0640806
