alisrour97/Franka_experiments/Real_Robot_scripts/servo-franka/Data_5_ki/log_dyn_PI_k_ki_12.csv
Time,q1,q2,q3,q4,q5,q6,q7,dq1,dq2,dq3,dq4,dq5,dq6,dq7,t1,t2,t3,t4,t5,t6,t7,ex1,ex2,ex3,ex4,ex5,ex6,ev1,ev2,ev3,ev4,ev5,ev6,xd,yd,zd,uxd,uyd,uzd,x,y,z,ux,uy,uz,vxd,vyd,vzd,vx,vy,vz
9.76563e-07, 1.6914, -1.22374, -1.53661, -0.899769, -1.19183, 1.22872, -1.30273, -0.00411404, 0.00637576, -0.00217748, 0.00461708, 0.000227505, 0.00859625, -0.000908589, -0.317619, 52.9883, 24.2154, 5.79956, 1.89075, 2.59341, -0.0484509, 0.00131783, -0.00136577, -0.00153674, -0.00144971, -0.0022824, -0.000534574, 0.0038803, 0.00224031, 0.00458914, 0.00903909, 0.0100275, -0.00826772, 0.471008, -0.543389, 0.335894, -2.08385, -2.16584, -0.129887, 0.469658, -0.542372, 0.337645, -2.08519, -2.16826, -0.129228, 0, 0, 0, -0.00193302, -0.00462877, 0.00399673
0.0134766, 1.69138, -1.22369, -1.53662, -0.899711, -1.19183, 1.22874, -1.30273, -0.00152192, 0.00764942, -0.000409807, 0.0038771, 0.000308929, 0.00242385, 0.000179914, -0.694511, 52.9169, 24.2908, 5.83527, 1.89075, 2.58609, -0.0685925, 0.00129129, -0.00138945, -0.00157576, -0.00149748, -0.00234277, -0.000455983, 0.00136891, 0.00145783, 0.00517361, 0.0046063, 0.00821174, -0.00530158, 0.471008, -0.543389, 0.335894, -2.08385, -2.16584, -0.129887, 0.469631, -0.542414, 0.337692, -2.08537, -2.16823, -0.129219, 3.52292e-06, 9.08712e-06, 4.70091e-06, -0.00121673, -0.00219829, 0.00494473
0.0144766, 1.69138, -1.22369, -1.53662, -0.899711, -1.19183, 1.22874, -1.30273, -0.00152192, 0.00764942, -0.000409807, 0.0038771, 0.000308929, 0.00242385, 0.000179914, -0.694511, 52.9169, 24.2908, 5.83527, 1.89075, 2.58609, -0.0685925, 0.00129127, -0.00138946, -0.00157576, -0.00149749, -0.00234277, -0.00045597, 0.00139754, 0.00146904, 0.00516354, 0.00459376, 0.00823091, -0.00532526, 0.471008, -0.543389, 0.335894, -2.08385, -2.16584, -0.129887, 0.469631, -0.542414, 0.337692, -2.08537, -2.16823, -0.129219, 1.40551e-05, 3.62649e-05, 1.87583e-05, -0.00121673, -0.00219829, 0.00494473
0.0154766, 1.69138, -1.22369, -1.53662, -0.899711, -1.19183, 1.22874, -1.30273, -0.00152192, 0.00764942, -0.000409807, 0.0038771, 0.000308929, 0.00242385, 0.000179914, -0.694511, 52.9169, 24.2908, 5.83527, 1.89075, 2.58609, -0.0685925, 0.00129121, -0.00138948, -0.00157573, -0.00149752, -0.00234275, -0.000455937, 0.00144511, 0.00148765, 0.0051468, 0.00457293, 0.00826275, -0.00536457, 0.471008, -0.543389, 0.335894, -2.08385, -2.16584, -0.129887, 0.469631, -0.542414, 0.337692, -2.08537, -2.16823, -0.129219, 3.15416e-05, 8.14084e-05, 4.21042e-05, -0.00121673, -0.00219829, 0.00494473
0.0164766, 1.69138, -1.22369, -1.53662, -0.899711, -1.19183, 1.22874, -1.30273, -0.00152192, 0.00764942, -0.000409807, 0.0038771, 0.000308929, 0.00242385, 0.000179914, -0.694511, 52.9169, 24.2908, 5.83527, 1.89075, 2.58609, -0.0685925, 0.00129109, -0.00138953, -0.00157569, -0.00149758, -0.00234273, -0.000455873, 0.00151147, 0.0015136, 0.00512346, 0.00454391, 0.00830716, -0.00541939, 0.471008, -0.543389, 0.335894, -2.08385, -2.16584, -0.129887, 0.469631, -0.542414, 0.337692, -2.08537, -2.16823, -0.129219, 5.59279e-05, 0.000144393, 7.4671e-05, -0.00121673, -0.00219829, 0.00494473
0.0174766, 1.69138, -1.22369, -1.53662, -0.899711, -1.19183, 1.22874, -1.30273, -0.00152192, 0.00764942, -0.000409807, 0.0038771, 0.000308929, 0.00242385, 0.000179914, -0.694511, 52.9169, 24.2908, 5.83527, 1.89075, 2.58609, -0.0685925, 0.0012909, -0.00138961, -0.00157563, -0.00149767, -0.00234268, -0.000455768, 0.0015965, 0.00154683, 0.00509356, 0.00450677, 0.00836404, -0.0054896, 0.471008, -0.543389, 0.335894, -2.08385, -2.16584, -0.129886, 0.469631, -0.542414, 0.337692, -2.08537, -2.16823, -0.129219, 8.71593e-05, 0.000225094, 0.000116391, -0.00121673, -0.00219829, 0.00494473
0.0184766, 1.69138, -1.22369, -1.53662, -0.899711, -1.19183, 1.22874, -1.30273, -0.00152192, 0.00764942, -0.000409807, 0.0038771, 0.000308929, 0.00242385, 0.000179914, -0.694511, 52.9169, 24.2908, 5.83527, 1.89075, 2.58609, -0.0685925, 0.00129061, -0.00138972, -0.00157552, -0.00149781, -0.00234261, -0.000455611, 0.00170006, 0.0015873, 0.00505714, 0.00446158, 0.0084333, -0.00557506, 0.471008, -0.543389, 0.335894, -2.08385, -2.16584, -0.129886, 0.469631, -0.542414, 0.337692, -2.08537, -2.16823, -0.129219, 0.000125182, 0.000323387, 0.000167197, -0.00121673, -0.00219829, 0.00494473
0.0194768, 1.69138, -1.22369, -1.53662, -0.899711, -1.19183, 1.22874, -1.30273, -0.00152192, 0.00764942, -0.000409807, 0.0038771, 0.000308929, 0.00242385, 0.000179914, -0.694511, 52.9169, 24.2908, 5.83527, 1.89075, 2.58609, -0.0685925, 0.00129021, -0.00138987, -0.00157538, -0.00149801, -0.00234252, -0.000455393, 0.00182203, 0.00163493, 0.00501427, 0.00440843, 0.00851485, -0.00567565, 0.471008, -0.543388, 0.335894, -2.08385, -2.16584, -0.129886, 0.469631, -0.542414, 0.337692, -2.08537, -2.16823, -0.129219, 0.00016994, 0.000439148, 0.000227022, -0.00121673, -0.00219829, 0.00494473
0.0204771, 1.69138, -1.22369, -1.53662, -0.899711, -1.19183, 1.22874, -1.30273, -0.00152192, 0.00764942, -0.000409807, 0.0038771, 0.000308929, 0.00242385, 0.000179914, -0.694511, 52.9169, 24.2908, 5.83527, 1.89075, 2.58609, -0.0685925, 0.00128968, -0.00139008, -0.0015752, -0.00149827, -0.00234239, -0.000455103, 0.00196227, 0.00168968, 0.00496499, 0.00434737, 0.00860858, -0.00579125, 0.471009, -0.543388, 0.335895, -2.08385, -2.16584, -0.129886, 0.469631, -0.542414, 0.337692, -2.08537, -2.16823, -0.129219, 0.000221382, 0.000572255, 0.000295798, -0.00121673, -0.00219829, 0.00494473
0.0214773, 1.69138, -1.22369, -1.53662, -0.899711, -1.19183, 1.22874, -1.30273, -0.00152192, 0.00764942, -0.000409807, 0.0038771, 0.000308929, 0.00242385, 0.000179914, -0.694511, 52.9169, 24.2908, 5.83527, 1.89075, 2.58609, -0.0685925, 0.001289, -0.00139035, -0.00157496, -0.0014986, -0.00234223, -0.000454732, 0.00212066, 0.00175149, 0.00490935, 0.00427849, 0.00871441, -0.00592174, 0.471009, -0.543387, 0.335895, -2.08384, -2.16584, -0.129885, 0.469631, -0.542414, 0.337692, -2.08537, -2.16823, -0.129219, 0.000279451, 0.000722584, 0.000373459, -0.00121673, -0.00219829, 0.00494473
0.0224773, 1.69138, -1.22369, -1.53662, -0.899711, -1.19183, 1.22874, -1.30273, -0.00152192, 0.00764942, -0.000409807, 0.0038771, 0.000308929, 0.00242385, 0.000179914, -0.694511, 52.9169, 24.2908, 5.83527, 1.89075, 2.58609, -0.0685925, 0.00128815, -0.00139068, -0.00157466, -0.00149901, -0.00234203, -0.00045427, 0.00229706, 0.0018203, 0.00484739, 0.00420187, 0.00883225, -0.00606699, 0.471009, -0.543386, 0.335895, -2.08384, -2.16584, -0.129884, 0.469631, -0.542414, 0.337692, -2.08537, -2.16823, -0.129219, 0.000344096, 0.000890012, 0.000459939, -0.00121673, -0.00219829, 0.00494473
0.0234775, 1.69138, -1.22369, -1.53662, -0.899711, -1.19183, 1.22874, -1.30273, -0.00152192, 0.00764942, -0.000409807, 0.0038771, 0.000308929, 0.00242385, 0.000179914, -0.694511, 52.9169, 24.2908, 5.83527, 1.89075, 2.58609, -0.0685925, 0.00128712, -0.00139108, -0.00157429, -0.00149952, -0.00234178, -0.000453708, 0.00249135, 0.00189605, 0.00477917, 0.00411758, 0.00896199, -0.00622688, 0.47101, -0.543385, 0.335896, -2.08384, -2.16584, -0.129884, 0.469631, -0.542414, 0.337692, -2.08537, -2.16823, -0.129219, 0.000415261, 0.00107442, 0.00055517, -0.00121673, -0.00219829, 0.00494473
0.0244778, 1.69138, -1.22367, -1.53661, -0.899687, -1.19183, 1.22874, -1.30273, -0.00247569, -0.000173184, 0.000153571, 0.000983572, 0.000549374, 0.000201838, -0.000156511, -0.658806, 52.8415, 24.2512, 5.76385, 1.87244, 2.57144, -0.0621838, 0.00128013, -0.00139792, -0.00159025, -0.00151881, -0.00235831, -0.000431428, 0.0026321, 0.00200434, -0.000234478, 0.000816048, 0.00020605, -0.00399434, 0.47101, -0.543384, 0.335896, -2.08384, -2.16585, -0.129883, 0.469626, -0.542422, 0.337708, -2.08541, -2.16822, -0.12922, 0.000492895, 0.00127568, 0.000659086, -0.0014232, -0.00136874, 7.94725e-05
0.0254778, 1.69139, -1.22367, -1.53661, -0.899691, -1.19183, 1.22875, -1.30272, 0.00265549, 0.000744419, 0.000102377, -0.000953844, 0.000603531, 0.000650843, 0.000370374, -0.845268, 52.8058, 24.2512, 5.83527, 1.86603, 2.55771, -0.0750012, 0.00128585, -0.00138926, -0.00159139, -0.00152028, -0.00236448, -0.000445893, -3.41423e-05, -0.00127984, -0.000294965, -0.000549686, 0.00177652, 0.00203067, 0.471011, -0.543383, 0.335897, -2.08384, -2.16585, -0.129882, 0.469635, -0.542415, 0.33771, -2.0854, -2.16824, -0.129216, 0.000576942, 0.00149367, 0.000771622, 0.00184326, 0.00162513, 0.000447098
0.0264778, 1.69138, -1.22367, -1.53661, -0.899687, -1.19183, 1.22875, -1.30273, -0.000869945, 0.000514772, 0.000903466, -0.00482898, 0.00175863, -0.000340254, -0.000227805, -0.734184, 52.8058, 24.2154, 5.76385, 1.82941, 2.57876, -0.0621838, 0.0012796, -0.00139497, -0.00159025, -0.00152349, -0.00236094, -0.000436363, 0.000154107, -0.000165438, -0.000673826, -0.00160477, 0.000465698, 0.00311173, 0.471011, -0.543381, 0.335898, -2.08384, -2.16585, -0.129881, 0.46963, -0.54242, 0.337709, -2.08541, -2.16823, -0.129221, 0.00066735, 0.00172827, 0.000892711, 0.00081376, 0.00168661, 0.000198456
0.0274778, 1.69138, -1.22367, -1.53661, -0.899695, -1.19183, 1.22875, -1.30272, -0.000611323, 0.00212029, -0.000232909, -0.00451273, -0.000820972, -0.00103633, -0.000660498, -0.734184, 52.7304, 24.2512, 5.79956, 1.75525, 2.60074, -0.0484509, 0.00128017, -0.00139404, -0.00159013, -0.00152143, -0.00236351, -0.000439824, 0.000918056, 0.000508993, -0.00025772, -0.00427335, 0.00406295, 0.00186213, 0.471012, -0.543379, 0.335899, -2.08384, -2.16585, -0.129879, 0.469631, -0.542417, 0.33771, -2.0854, -2.16824, -0.129215, 0.000764066, 0.00197936, 0.00102229, 0.000279258, 0.00109186, 0.000640672
0.0284778, 1.69138, -1.22367, -1.5366, -0.899694, -1.19183, 1.22875, -1.30272, -0.00135909, 0.00502454, 0.0030227, -0.00570215, 0.000651354, -0.00278998, -0.000915052, -0.694511, 52.8415, 24.2512, 5.76385, 1.71222, 2.6575, -0.0356336, 0.00127758, -0.00139444, -0.00159157, -0.0015284, -0.00236651, -0.000436275, -0.000256813, 0.000410325, 0.00221934, -0.00260152, 0.0049455, 0.00420442, 0.471013, -0.543377, 0.3359, -2.08384, -2.16585, -0.129878, 0.469632, -0.542418, 0.337712, -2.08541, -2.16824, -0.129217, 0.000867038, 0.00224682, 0.00116028, 0.000528181, 0.00214198, 0.00340394
0.0294778, 1.69139, -1.22367, -1.5366, -0.899697, -1.19184, 1.22875, -1.30272, -0.000923698, 0.00406545, 0.00285447, -0.00515982, 0.00125694, -0.00372253, -0.000372677, -0.694511, 53.0994, 24.3622, 5.79956, 1.68201, 2.70785, -0.0420422, 0.00127658, -0.00139232, -0.00159172, -0.00153233, -0.00237196, -0.000438625, -7.91015e-05, 0.000517742, 0.00146195, -0.00329358, 0.00320752, 0.00351059, 0.471014, -0.543375, 0.335901, -2.08384, -2.16585, -0.129876, 0.469635, -0.542417, 0.337713, -2.08541, -2.16825, -0.129215, 0.000976211, 0.00253053, 0.00130664, 0.00050909, 0.00236242, 0.00277809
0.0304778, 1.69138, -1.22367, -1.53658, -0.899695, -1.19185, 1.22876, -1.30272, -0.0041555, 0.00354667, 0.00706112, -0.00383226, 0.00129393, -0.00407356, -1.10932e-05, -0.543754, 53.504, 24.4376, 5.79956, 1.66369, 2.75088, -0.0484509, 0.00127088, -0.00139376, -0.00159566, -0.0015511, -0.00237911, -0.000433119, 0.00119203, 0.00206422, 0.00286119, 0.00104483, 0.00221237, 0.000588152, 0.471015, -0.543372, 0.335903, -2.08383, -2.16585, -0.129874, 0.469635, -0.54242, 0.337718, -2.08543, -2.16825, -0.129226, 0.00109153, 0.00283037, 0.00146128, -0.000824081, 0.00112872, 0.00416371
0.0314778, 1.69138, -1.22367, -1.53657, -0.899699, -1.19186, 1.22877, -1.30272, -0.00361548, 0.00380212, 0.0093554, -0.00461236, 0.00117068, 0.000221852, -0.000719473, -0.508049, 53.9087, 24.5487, 5.87494, 1.65088, 2.80124, -0.0292249, 0.00127046, -0.00138934, -0.00160266, -0.00157038, -0.00239442, -0.000443525, 0.00101888, 0.000548131, 0.00395077, 0.00614751, 0.00485017, 0.00330383, 0.471016, -0.543369, 0.335904, -2.08383, -2.16585, -0.129871, 0.469641, -0.542419, 0.337726, -2.08543, -2.16828, -0.12923, 0.00121295, 0.00314621, 0.00162416, 0.000844621, 0.00150984, 0.00538365
0.0324778, 1.69138, -1.22367, -1.53656, -0.899696, -1.19187, 1.22879, -1.30272, 0.00202294, 0.00433069, 0.00989693, -0.0023676, -0.00380045, -0.00104468, 0.000232428, -0.43267, 54.3134, 24.8462, 5.83527, 1.64447, 2.84427, -0.0484509, 0.00126399, -0.00138905, -0.0016073, -0.00158541, -0.00241326, -0.000435942, 0.000216756, -0.00127141, 0.00423477, 0.00330299, 0.00898359, 0.00424965, 0.471017, -0.543366, 0.335906, -2.08383, -2.16586, -0.129869, 0.469643, -0.542422, 0.337731, -2.08546, -2.16829, -0.129225, 0.00134042, 0.00347794, 0.00179519, 0.00277084, 0.00266421, 0.00590474
0.0334778, 1.69137, -1.22365, -1.53654, -0.899699, -1.19189, 1.2288, -1.30272, -0.00259445, 0.00594894, 0.0133373, -0.00267195, -0.00281503, 0.00780084, 0.000154951, -0.242241, 54.6823, 25.0327, 5.87494, 1.63898, 2.87997, -0.0484509, 0.00125802, -0.00138942, -0.001621, -0.00161284, -0.00244353, -0.000432681, 0.00238953, -0.000907312, 0.00725906, 0.0149988, 0.0140751, 0.00170439, 0.471019, -0.543362, 0.335908, -2.08383, -2.16586, -0.129866, 0.469644, -0.542427, 0.337746, -2.08549, -2.16832, -0.129221, 0.00147388, 0.00382545, 0.00197432, 0.00272761, 0.000386309, 0.00874392
0.0344778, 1.69138, -1.22364, -1.53652, -0.899701, -1.1919, 1.22882, -1.30272, -9.07683e-05, 0.0110559, 0.013632, -0.00274067, -0.0114603, 0.0139535, 0.00397453, -0.166862, 55.0156, 25.1835, 5.91064, 1.63257, 2.923, -0.0356336, 0.00125692, -0.00138345, -0.0016355, -0.00164227, -0.00247449, -0.000442378, 0.00343206, -0.00228819, 0.0106322, 0.016428, 0.0295948, -0.00274362, 0.47102, -0.543358, 0.33591, -2.08382, -2.16586, -0.129863, 0.469653, -0.542426, 0.337762, -2.08551, -2.16836, -0.12922, 0.00161328, 0.0041886, 0.00216148, 0.00440523, -0.000742378, 0.0120584
0.0354778, 1.69138, -1.22362, -1.53651, -0.899704, -1.19191, 1.22884, -1.30272, 0.000843385, 0.0104329, 0.0154216, -0.00802078, -0.00826021, 0.0135182, 0.00253713, -0.0557783, 55.2734, 25.4056, 5.91064, 1.62067, 2.98068, -0.0228162, 0.00125458, -0.00137882, -0.00165133, -0.00167215, -0.00250824, -0.00044881, 0.000858289, -0.00444276, 0.00993821, 0.0162172, 0.0267855, 0.0058595, 0.471022, -0.543354, 0.335912, -2.08382, -2.16586, -0.12986, 0.469659, -0.542426, 0.337779, -2.08553, -2.1684, -0.129217, 0.00175856, 0.00456728, 0.0023566, 0.00658519, 0.00237224, 0.0119027
0.0364778, 1.69138, -1.2236, -1.53649, -0.899706, -1.19192, 1.22887, -1.30272, -0.00231288, 0.0141258, 0.0168076, -0.0059254, -0.00514954, 0.0181246, 0.00291248, 0.0949785, 55.3448, 25.6278, 5.91064, 1.58954, 3.03012, -0.0484509, 0.00125109, -0.00137576, -0.00167152, -0.00170308, -0.00255148, -0.000444515, 0.00250963, -0.00340965, 0.0133157, 0.0244935, 0.0301037, 0.0018532, 0.471024, -0.543349, 0.335915, -2.08382, -2.16586, -0.129856, 0.469665, -0.542428, 0.337801, -2.08557, -2.16843, -0.129203, 0.00190969, 0.00496137, 0.00255964, 0.00588563, 0.00057399, 0.0152156
0.0374778, 1.69138, -1.22358, -1.53647, -0.899707, -1.19193, 1.22889, -1.30272, 0.00259375, 0.0147376, 0.0165469, -0.00354871, -0.00812091, 0.0216533, 0.00119593, 0.21003, 55.4916, 25.7786, 5.87494, 1.56482, 3.08047, -0.0228162, 0.00124653, -0.00137181, -0.00168858, -0.00173445, -0.00259159, -0.000451252, 0.00241431, -0.00571718, 0.0138171, 0.0261925, 0.0351282, 0.00485178, 0.471026, -0.543344, 0.335917, -2.08381, -2.16587, -0.129852, 0.469672, -0.542429, 0.337819, -2.0856, -2.16848, -0.129194, 0.0020666, 0.00537076, 0.00277051, 0.00836182, 0.0010948, 0.0158669
0.0384778, 1.69138, -1.22356, -1.53646, -0.89971, -1.19195, 1.22891, -1.30272, 0.00130511, 0.0118757, 0.0162862, -0.00269105, -0.00627871, 0.0193723, 0.000475357, 0.400459, 55.6424, 25.9253, 5.87494, 1.56482, 3.13815, -0.00999879, 0.00124081, -0.00136915, -0.00170401, -0.00176523, -0.00262908, -0.000454513, 0.00341884, -0.00442643, 0.0118739, 0.0250171, 0.029842, 0.00372511, 0.471028, -0.543338, 0.33592, -2.08381, -2.16587, -0.129848, 0.469678, -0.542432, 0.337837, -2.08562, -2.16852, -0.129186, 0.00222924, 0.00579533, 0.00298915, 0.00720119, 0.000773925, 0.0140497
0.0394778, 1.69138, -1.22355, -1.53644, -0.899718, -1.19197, 1.22894, -1.30272, 0.00456228, 0.0138316, 0.0167357, -0.00287319, -0.00439357, 0.0221905, -7.71314e-05, 0.551216, 55.7495, 26.0404, 5.91064, 1.55292, 3.19583, 0.00373412, 0.00123589, -0.00136338, -0.00171539, -0.00178858, -0.00267068, -0.000459319, 0.0020156, -0.00688488, 0.0130713, 0.0281131, 0.0320314, 0.0080977, 0.47103, -0.543332, 0.335923, -2.0838, -2.16587, -0.129843, 0.469686, -0.542432, 0.33785, -2.08565, -2.16856, -0.129166, 0.00239756, 0.00623496, 0.00321551, 0.00981787, 0.0025153, 0.015602
0.0404778, 1.69138, -1.22353, -1.53643, -0.899714, -1.19199, 1.22897, -1.30272, 0.00531829, 0.014585, 0.018152, 0.000500048, -0.00822988, 0.0296032, 0.00101787, 0.777352, 55.7495, 26.1118, 5.79956, 1.55292, 3.23153, -0.0228162, 0.00122571, -0.0013609, -0.00172847, -0.00182149, -0.00271226, -0.000452348, 0.00431651, -0.00752642, 0.0149355, 0.0353605, 0.0395355, 0.00379437, 0.471033, -0.543326, 0.335927, -2.0838, -2.16588, -0.129838, 0.469692, -0.542438, 0.337865, -2.08569, -2.16859, -0.129155, 0.00257152, 0.00668953, 0.00344951, 0.0107823, 0.000437738, 0.0173004
0.0414778, 1.6914, -1.22352, -1.53643, -0.899717, -1.19201, 1.22899, -1.30272, 0.00874391, 0.0115577, 0.0149145, 0.00103137, -0.0110331, 0.0307986, 0.000505675, 0.888436, 55.7495, 26.2229, 5.76385, 1.55292, 3.26724, -0.0164075, 0.00122052, -0.00135258, -0.00173508, -0.00184006, -0.00275066, -0.000457621, 0.00509674, -0.00852997, 0.01184, 0.0315321, 0.0399962, 0.00436829, 0.471035, -0.543319, 0.33593, -2.08379, -2.16588, -0.129833, 0.469703, -0.542436, 0.337874, -2.08571, -2.16863, -0.129131, 0.00275106, 0.00715892, 0.0036911, 0.0118802, 0.000654418, 0.014334
0.0424778, 1.6914, -1.22351, -1.53641, -0.899717, -1.19203, 1.22902, -1.30272, 0.0091851, 0.0115866, 0.0144849, 0.000144945, -0.0130216, 0.0319446, 0.000860178, 1.07887, 55.6424, 26.1118, 5.6488, 1.55292, 3.29562, -0.0292249, 0.00121188, -0.00134693, -0.00174482, -0.00187075, -0.00278999, -0.000456574, 0.00574729, -0.00868827, 0.0114827, 0.0305242, 0.0426768, 0.00393409, 0.471038, -0.543312, 0.335934, -2.08379, -2.16589, -0.129827, 0.469713, -0.542439, 0.337886, -2.08574, -2.16867, -0.12912, 0.00293613, 0.00764302, 0.00394021, 0.0122338, 0.000557809, 0.0141246
0.0434778, 1.69142, -1.22351, -1.53641, -0.899717, -1.19205, 1.22905, -1.30272, 0.0146308, 0.0113547, 0.0101861, 0.00235699, -0.0187545, 0.0328698, -0.00156043, 1.18995, 55.5313, 26.1515, 5.53772, 1.5401, 3.31759, 0.0293689, 0.00120213, -0.00133972, -0.00174615, -0.00188924, -0.00282567, -0.000463368, 0.00666168, -0.0098216, 0.00974503, 0.0248777, 0.0481886, 0.00537257, 0.471041, -0.543304, 0.335938, -2.08378, -2.16589, -0.129821, 0.469723, -0.542441, 0.337889, -2.08576, -2.16871, -0.129099, 0.00312667, 0.00814172, 0.00419678, 0.0135263, 0.000467691, 0.0124893
0.0444778, 1.69142, -1.22351, -1.53641, -0.89971, -1.19208, 1.22909, -1.30272, 0.0159495, 0.0062307, 0.00964718, 0.00257386, -0.0194164, 0.0341652, 0.000444968, 1.41608, 55.4916, 26.0761, 5.35126, 1.55292, 3.324, -0.00999879, 0.00118626, -0.00133727, -0.00174626, -0.00191557, -0.00285703, -0.00044801, 0.00755647, -0.0104659, 0.00643483, 0.0244745, 0.0446762, 0.00364396, 0.471044, -0.543295, 0.335942, -2.08378, -2.16589, -0.129815, 0.469729, -0.542448, 0.337891, -2.0858, -2.16872, -0.129088, 0.00332265, 0.00865489, 0.00446074, 0.0142782, 0.000633374, 0.00932634
0.0454778, 1.69144, -1.22352, -1.53641, -0.899709, -1.19211, 1.22912, -1.30271, 0.0165018, 0.0021493, 0.00587014, 0.00386538, -0.0204107, 0.0354863, 0.00126648, 1.53114, 55.4559, 26.0007, 5.24017, 1.58313, 3.31759, -0.0356336, 0.00117605, -0.00132622, -0.00174073, -0.00193447, -0.00288678, -0.000450522, 0.00977024, -0.009816, 0.00277589, 0.0218194, 0.0425904, -0.000300992, 0.471048, -0.543286, 0.335947, -2.08377, -2.1659, -0.129808, 0.469744, -0.542448, 0.337888, -2.08581, -2.16875, -0.129073, 0.003524, 0.00918243, 0.00473204, 0.0137776, -0.000488103, 0.00566078
0.0464778, 1.69146, -1.22352, -1.53641, -0.899702, -1.19213, 1.22915, -1.30272, 0.01703, 0.00401268, 0.00602954, 0.00576666, -0.0201124, 0.0361269, -0.000835808, 1.64619, 55.3448, 25.9253, 5.08942, 1.58954, 3.31759, 0.0101428, 0.00116418, -0.00131798, -0.0017388, -0.00195017, -0.00292255, -0.000454435, 0.0104624, -0.00961125, 0.00402029, 0.0233899, 0.0447365, 0.000344375, 0.471051, -0.543277, 0.335952, -2.08376, -2.1659, -0.129801, 0.469756, -0.542449, 0.337889, -2.08583, -2.16879, -0.129047, 0.00373068, 0.00972421, 0.00501061, 0.0138496, -0.000829453, 0.00706686
0.0474778, 1.69149, -1.22353, -1.53641, -0.899701, -1.19217, 1.22918, -1.30271, 0.0193612, 0.00433158, 0.00454381, 0.00535513, -0.0257919, 0.0321239, 0.00114969, 1.79694, 55.2734, 25.7786, 5.01404, 1.63257, 3.31027, -0.0356336, 0.00115261, -0.00130713, -0.00173474, -0.00196731, -0.00296034, -0.000453932, 0.0108791, -0.00914874, 0.00294414, 0.0151983, 0.0483121, -0.00208939, 0.471055, -0.543267, 0.335957, -2.08375, -2.16591, -0.129793, 0.469771, -0.54245, 0.337888, -2.08585, -2.16882, -0.12902, 0.00394263, 0.0102801, 0.00529638, 0.0135757, -0.000538246, 0.0062393
0.0484778, 1.69151, -1.22352, -1.53641, -0.899694, -1.1922, 1.22922, -1.30271, 0.0245143, 0.00406472, 0.00556164, 0.00681435, -0.0287664, 0.0336205, 0.00552792, 1.9477, 55.087, 25.6675, 4.86725, 1.63898, 3.31027, -0.0420422, 0.00114124, -0.0012959, -0.00173436, -0.00198652, -0.00300262, -0.000456161, 0.0101786, -0.0116036, 0.00300457, 0.0156396, 0.0515696, -0.00364445, 0.471059, -0.543256, 0.335962, -2.08375, -2.16592, -0.129785, 0.469787, -0.54245, 0.337891, -2.08587, -2.16886, -0.128991, 0.00415982, 0.0108501, 0.00558931, 0.0162218, 0.000814672, 0.00662647
0.0494778, 1.69154, -1.22353, -1.53641, -0.899682, -1.19224, 1.22925, -1.30271, 0.0243838, 0.00191628, 0.0062567, 0.00792731, -0.0314659, 0.0342413, 0.00383067, 2.13416, 54.9799, 25.5564, 4.71649, 1.65729, 3.324, -0.0356336, 0.00112747, -0.00128582, -0.00173077, -0.00200561, -0.00303922, -0.000452565, 0.011843, -0.0110153, 0.00199379, 0.0156415, 0.0522072, -0.00408412, 0.471064, -0.543245, 0.335968, -2.08374, -2.16592, -0.129777, 0.469802, -0.542451, 0.337891, -2.0859, -2.16889, -0.128966, 0.00438218, 0.0114339, 0.00588931, 0.0158797, -0.000113147, 0.00568788
0.0504778, 1.69156, -1.22353, -1.53641, -0.899681, -1.19227, 1.22928, -1.30271, 0.0183778, 0.00434748, 0.00285618, 0.00601355, -0.0323586, 0.0351033, 0.00260348, 2.43568, 54.8291, 25.481, 4.68079, 1.64447, 3.324, -0.0292249, 0.00111373, -0.0012765, -0.00172669, -0.00202015, -0.00308025, -0.000457402, 0.0153157, -0.00724878, 0.00212355, 0.012952, 0.05642, -0.00960381, 0.471068, -0.543234, 0.335974, -2.08373, -2.16593, -0.129768, 0.469816, -0.542452, 0.337891, -2.08591, -2.16893, -0.128932, 0.00460967, 0.0120315, 0.00619634, 0.0124749, -0.00311825, 0.00569794
0.0514778, 1.69159, -1.22353, -1.53641, -0.899672, -1.19231, 1.22931, -1.30271, 0.0229912, 0.00461061, 0.00338608, 0.00662038, -0.0336155, 0.0312857, 0.00218831, 2.62611, 54.6109, 25.4056, 4.56573, 1.64447, 3.31759, -0.0356336, 0.00110144, -0.00126398, -0.00172516, -0.00203489, -0.00312672, -0.00045805, 0.0138053, -0.00870216, 0.00174515, 0.0088435, 0.056297, -0.00585763, 0.471073, -0.543221, 0.335981, -2.08372, -2.16594, -0.129759, 0.469833, -0.542451, 0.337893, -2.08593, -2.16897, -0.128892, 0.00484224, 0.0126428, 0.00651033, 0.0140912, -0.000897913, 0.00582875
0.0524778, 1.69162, -1.22352, -1.53641, -0.899669, -1.19236, 1.22935, -1.30271, 0.0238397, 0.00730516, 0.00075302, 0.0107046, -0.0342973, 0.0296089, 0.0018577, 2.92762, 54.2776, 25.3303, 4.56573, 1.63257, 3.28097, -0.0420422, 0.0010865, -0.00125447, -0.00172719, -0.00205206, -0.00318355, -0.000456608, 0.0155469, -0.00711823, 0.00253962, 0.00653217, 0.0589804, -0.0103378, 0.471078, -0.543208, 0.335987, -2.08371, -2.16594, -0.129749, 0.469848, -0.542453, 0.337899, -2.08596, -2.16902, -0.128843, 0.00507984, 0.0132677, 0.00683122, 0.0128383, -0.00217961, 0.00671173
0.0534778, 1.69165, -1.22353, -1.53641, -0.899668, -1.19239, 1.22938, -1.30271, 0.0239932, 0.00215798, -0.00222877, 0.0084559, -0.033698, 0.0311981, 0.000647493, 3.11805, 54.0952, 25.2945, 4.53003, 1.58954, 3.2883, -0.0228162, 0.00107507, -0.00124137, -0.00171971, -0.0020621, -0.00321904, -0.00046846, 0.0166546, -0.00737937, -0.00195165, 0.00378188, 0.0549904, -0.00870164, 0.471083, -0.543195, 0.335994, -2.0837, -2.16595, -0.129738, 0.469867, -0.542449, 0.337897, -2.08596, -2.16906, -0.128809, 0.00532241, 0.013906, 0.00715894, 0.0132189, -0.00193307, 0.00242491
0.0544778, 1.69168, -1.22353, -1.5364, -0.899664, -1.19244, 1.22941, -1.30271, 0.0253161, -0.000764112, 0.00230339, 0.00683571, -0.0346047, 0.03324, 0.000522489, 3.37989, 53.873, 25.1081, 4.49432, 1.58313, 3.27456, -0.0228162, 0.00106088, -0.00122917, -0.00171805, -0.00208395, -0.00326536, -0.000474554, 0.0159985, -0.00933777, -0.00241258, 0.00758962, 0.0541726, -0.00447502, 0.471088, -0.54318, 0.336002, -2.08369, -2.16596, -0.129728, 0.469885, -0.542448, 0.3379, -2.08598, -2.16911, -0.128776, 0.00556992, 0.0145576, 0.00749345, 0.0153822, -0.00048232, 0.0023469
0.0554778, 1.69172, -1.22354, -1.5364, -0.899658, -1.19248, 1.22945, -1.30272, 0.0289371, -0.00268949, 0.00286948, 0.00659279, -0.0388338, 0.0393338, -0.000804257, 3.53065, 53.6508, 25.0327, 4.41894, 1.54651, 3.26724, 0.0101428, 0.00104732, -0.00121435, -0.00171118, -0.00209762, -0.00330881, -0.000486781, 0.0165545, -0.0119266, -0.00326736, 0.0102877, 0.059284, -0.00103564, 0.471094, -0.543166, 0.336009, -2.08368, -2.16597, -0.129716, 0.469906, -0.542445, 0.337898, -2.08599, -2.16916, -0.128737, 0.00582231, 0.0152225, 0.00783467, 0.0182091, -0.000128439, 0.00167957
0.0564778, 1.69175, -1.22354, -1.5364, -0.899652, -1.19252, 1.22948, -1.30271, 0.0333478, -0.00178969, 0.00418944, 0.00719796, -0.0430697, 0.0397449, 0.000972981, 3.75678, 53.3215, 24.9216, 4.30786, 1.53461, 3.24527, -0.0292249, 0.00103239, -0.00120231, -0.00170953, -0.0021153, -0.00335783, -0.000487392, 0.0160043, -0.0138044, -0.00262926, 0.00921951, 0.064311, -0.000363138, 0.4711, -0.54315, 0.336017, -2.08367, -2.16597, -0.129705, 0.469924, -0.542443, 0.337902, -2.08601, -2.1692, -0.128696, 0.00607953, 0.0159004, 0.00818254, 0.0203452, 0.00107169, 0.00268608
0.0574778, 1.69179, -1.22355, -1.53639, -0.899645, -1.19257, 1.22951, -1.30271, 0.0319666, -0.00558721, 0.00598513, 0.00671511, -0.0411779, 0.0397925, -2.5105e-05, 3.90754, 53.1747, 24.7748, 4.23248, 1.50989, 3.22421, -0.00999879, 0.00101698, -0.00118741, -0.00170155, -0.00213273, -0.00340014, -0.000497953, 0.0168255, -0.0134637, -0.00446558, 0.0110715, 0.0593694, 0.000672633, 0.471106, -0.543134, 0.336026, -2.08366, -2.16598, -0.129692, 0.469945, -0.54244, 0.337899, -2.08602, -2.16926, -0.128661, 0.00634154, 0.0165914, 0.00853701, 0.02023, 0.00122064, 0.00111019
0.0584778, 1.69182, -1.22355, -1.53639, -0.899634, -1.19262, 1.22955, -1.30271, 0.0309143, -0.00343447, 0.00335454, 0.00811814, -0.0402096, 0.0396996, -0.000259266, 4.06226, 52.9526, 24.6598, 4.08173, 1.50348, 3.20224, -0.00267457, 0.000999647, -0.00117409, -0.00169723, -0.0021529, -0.00344879, -0.00049891, 0.01859, -0.0118672, -0.00414974, 0.00984375, 0.0611812, -0.00293412, 0.471113, -0.543117, 0.336034, -2.08364, -2.16599, -0.129679, 0.469966, -0.542439, 0.337901, -2.08604, -2.1693, -0.128621, 0.00660828, 0.0172953, 0.00889802, 0.0189773, 6.8459e-05, 0.00155759
0.0594778, 1.69186, -1.22356, -1.53639, -0.899626, -1.19267, 1.22958, -1.30271, 0.0351551, -0.00891036, 0.00183837, 0.00809675, -0.0446004, 0.0353469, -0.000388649, 4.13764, 52.7701, 24.6598, 3.97064, 1.50989, 3.17386, 0.00373412, 0.000983169, -0.001159, -0.00168757, -0.00216202, -0.00349537, -0.000505812, 0.0187202, -0.012508, -0.00877381, 0.00126259, 0.0578913, -0.00132525, 0.471119, -0.543099, 0.336043, -2.08363, -2.166, -0.129666, 0.469988, -0.542436, 0.337897, -2.08605, -2.16935, -0.128571, 0.00687971, 0.0180119, 0.00926549, 0.0197259, 0.00139436, -0.00268049
0.0604778, 1.6919, -1.22357, -1.53638, -0.899616, -1.19272, 1.22962, -1.30271, 0.0323039, -0.0108258, 0.006124, 0.00806093, -0.0481054, 0.0375434, 0.00074041, 4.3241, 52.6193, 24.4376, 3.85956, 1.5282, 3.1235, -0.0228162, 0.000963187, -0.00114576, -0.00168293, -0.00219541, -0.00354072, -0.000506054, 0.0209547, -0.0114138, -0.00830437, 0.00523005, 0.0600851, -0.00493481, 0.471126, -0.543081, 0.336053, -2.08362, -2.16601, -0.129652, 0.470009, -0.542436, 0.337899, -2.08607, -2.1694, -0.128548, 0.00715578, 0.0187412, 0.00963939, 0.0190066, -0.000199426, -0.0021566
0.0614778, 1.69194, -1.22358, -1.53637, -0.899603, -1.19277, 1.22966, -1.30271, 0.0359279, -0.00883586, 0.00562204, 0.00894891, -0.0514342, 0.0391007, 0.000268372, 4.39948, 52.4725, 24.3622, 3.7088, 1.55932, 3.07315, -0.0164075, 0.000943038, -0.00113087, -0.00167443, -0.00221749, -0.00358817, -0.000509731, 0.0211196, -0.0127346, -0.00751284, 0.00430514, 0.0661386, -0.00367932, 0.471134, -0.543062, 0.336063, -2.0836, -2.16602, -0.129638, 0.470031, -0.542435, 0.337897, -2.08609, -2.16945, -0.128511, 0.00743644, 0.0194831, 0.0100196, 0.0206412, 0.000312264, -0.00106034
0.0624778, 1.69197, -1.22359, -1.53637, -0.89959, -1.19282, 1.2297, -1.30271, 0.0336892, -0.0112201, 0.00358013, 0.00860076, -0.0533339, 0.0394896, -0.000320619, 4.55024, 52.3615, 24.3622, 3.59772, 1.57764, 3.04477, -0.00267457, 0.000918672, -0.00112048, -0.00166484, -0.0022386, -0.00363477, -0.000506171, 0.0238809, -0.0107964, -0.0098067, 0.00162448, 0.0661343, -0.0072171, 0.471141, -0.543042, 0.336073, -2.08359, -2.16603, -0.129623, 0.47005, -0.542437, 0.337893, -2.08612, -2.16949, -0.128471, 0.00772164, 0.0202374, 0.0104062, 0.0190069, -0.00138621, -0.00330848
0.0634778, 1.69202, -1.22359, -1.53637, -0.899575, -1.19287, 1.22975, -1.30271, 0.0377953, -0.00905409, 0.00485928, 0.0123158, -0.0497753, 0.0397291, -0.000444285, 4.58991, 52.2147, 24.2512, 3.44696, 1.58313, 3.01639, 0.00373412, 0.000899839, -0.0011029, -0.00165951, -0.00226652, -0.0036859, -0.00051493, 0.0228053, -0.0125879, -0.00804197, 0.00559212, 0.0657355, -0.00515677, 0.471149, -0.543021, 0.336083, -2.08357, -2.16604, -0.129607, 0.470076, -0.542433, 0.337895, -2.08613, -2.16955, -0.128436, 0.00801134, 0.0210041, 0.0107989, 0.0211113, 0.000244652, -0.00106056
0.0644778, 1.69206, -1.22359, -1.53636, -0.899569, -1.19292, 1.22979, -1.30271, 0.0398937, -0.00164192, 0.00398029, 0.012441, -0.0525045, 0.0402097, 0.000217551, 4.66529, 51.9568, 24.2154, 3.41125, 1.61426, 2.98068, -0.00999879, 0.000879279, -0.00108817, -0.00165739, -0.00228722, -0.00375193, -0.000519038, 0.0227828, -0.0129139, -0.00433512, 0.00399192, 0.0762402, -0.00597419, 0.471157, -0.543, 0.336094, -2.08356, -2.16606, -0.129591, 0.470099, -0.542431, 0.3379, -2.08616, -2.16961, -0.128376, 0.00830549, 0.021783, 0.0111979, 0.0218649, 0.000489129, 0.00299226
0.0654778, 1.6921, -1.2236, -1.53635, -0.899559, -1.19297, 1.22983, -1.30271, 0.0394933, -0.000652662, 0.00518115, 0.0127743, -0.0482915, 0.045024, 0.00014887, 4.81605, 51.8854, 24.1044, 3.37158, 1.59595, 2.95138, -0.00999879, 0.00085683, -0.00107326, -0.00165133, -0.00232097, -0.0038015, -0.00052399, 0.0232089, -0.0138415, -0.0031244, 0.0111458, 0.0765849, -0.00527452, 0.471166, -0.542978, 0.336106, -2.08354, -2.16607, -0.129574, 0.470123, -0.54243, 0.337902, -2.08618, -2.16967, -0.128347, 0.00860403, 0.0225739, 0.011603, 0.0231494, 0.000711582, 0.00449863
0.0664778, 1.69215, -1.2236, -1.53634, -0.89955, -1.19304, 1.22987, -1.30271, 0.045209, -0.00181226, 0.00609223, 0.0099573, -0.0518405, 0.0476792, 0.000814201, 4.85175, 51.7743, 23.9893, 3.33588, 1.63898, 2.95138, -0.0292249, 0.00083609, -0.00105602, -0.00164894, -0.00234841, -0.00386568, -0.000531085, 0.0215765, -0.0176221, -0.00422951, 0.00994008, 0.0805612, 0.00076296, 0.471175, -0.542955, 0.336118, -2.08352, -2.16608, -0.129557, 0.47015, -0.542426, 0.337908, -2.0862, -2.16973, -0.128296, 0.00890693, 0.0233769, 0.0120141, 0.0271293, 0.00345201, 0.00395709
0.0674778, 1.69219, -1.2236, -1.53634, -0.899531, -1.19309, 1.22992, -1.30271, 0.0460608, -0.0013185, 0.00485686, 0.013587, -0.057077, 0.0455663, -0.000438386, 4.89143, 51.7386, 23.9536, 3.18512, 1.62616, 2.93765, -0.00267457, 0.00081078, -0.00104021, -0.00164311, -0.00238066, -0.00392389, -0.000533834, 0.0241594, -0.0157595, -0.00439969, 0.0058716, 0.0846458, -0.00337034, 0.471184, -0.542931, 0.33613, -2.0835, -2.16609, -0.129539, 0.470175, -0.542426, 0.33791, -2.08623, -2.1698, -0.128255, 0.00921413, 0.0241918, 0.0124312, 0.0256634, 0.00166664, 0.003862
0.0684778, 1.69224, -1.2236, -1.53634, -0.899529, -1.19315, 1.22997, -1.30271, 0.045756, 0.000175082, 0.00320803, 0.00788291, -0.0571983, 0.0441969, 0.000930064, 4.9668, 51.6632, 23.9536, 3.2605, 1.63257, 2.91568, -0.0356336, 0.000788398, -0.00102297, -0.00163907, -0.00240765, -0.00399136, -0.000540326, 0.0235552, -0.0159528, -0.00530622, 0.00028775, 0.0867334, -0.00160399, 0.471193, -0.542906, 0.336143, -2.08349, -2.16611, -0.12952, 0.470202, -0.542422, 0.337914, -2.08625, -2.16986, -0.128198, 0.0095256, 0.0250185, 0.0128543, 0.0261134, 0.00323742, 0.00347774
0.0694778, 1.69228, -1.2236, -1.53633, -0.899517, -1.19321, 1.23002, -1.30271, 0.0456519, 0.000420071, 0.00387951, 0.00966928, -0.0574073, 0.0474376, -0.00107416, 5.04218, 51.6275, 23.8782, 3.22479, 1.64447, 2.90835, 0.0101428, 0.00076202, -0.0010078, -0.00163884, -0.00244363, -0.00406432, -0.000543834, 0.0252253, -0.0158392, -0.00468753, 0.00411603, 0.089128, -0.00171578, 0.471203, -0.542881, 0.336156, -2.08347, -2.16612, -0.129501, 0.470228, -0.542422, 0.337923, -2.08629, -2.16994, -0.128145, 0.00984127, 0.0258569, 0.0132832, 0.0263986, 0.00232735, 0.004262
0.0704778, 1.69233, -1.22359, -1.53632, -0.899511, -1.19326, 1.23008, -1.30271, 0.0462574, -0.000118854, 0.00340475, 0.00620327, -0.0571932, 0.0452693, -0.00047784, 5.07789, 51.6275, 23.8425, 3.2605, 1.64447, 2.89462, 0.00373412, 0.000737091, -0.000990315, -0.00163724, -0.00247817, -0.00413733, -0.000552625, 0.0247067, -0.016168, -0.00618757, -0.000234886, 0.0882883, 0.00045621, 0.471213, -0.542854, 0.336169, -2.08345, -2.16613, -0.129481, 0.470257, -0.542419, 0.33793, -2.08631, -2.17002, -0.128091, 0.0101611, 0.0267069, 0.013718, 0.0269739, 0.00393375, 0.00328599
0.0714778, 1.69238, -1.22359, -1.53632, -0.899501, -1.19333, 1.23013, -1.30271, 0.0482117, -0.000378412, 0.00457879, 0.00541496, -0.0584233, 0.0488047, -8.05186e-05, 5.04218, 51.6275, 23.8782, 3.22479, 1.6756, 2.86532, -0.00267457, 0.000710628, -0.000971881, -0.00163339, -0.00250995, -0.00421279, -0.00055834, 0.0248984, -0.0178129, -0.00613438, 0.00222779, 0.0914306, 0.00211885, 0.471223, -0.542827, 0.336183, -2.08343, -2.16615, -0.129461, 0.470286, -0.542417, 0.337936, -2.08634, -2.17009, -0.12803, 0.0104851, 0.0275683, 0.0141585, 0.0289497, 0.0046658, 0.00369931
0.0724778, 1.69242, -1.22359, -1.53632, -0.899494, -1.19339, 1.2302, -1.30271, 0.0519457, -0.000476657, 0.00414135, 0.00618206, -0.0586978, 0.0471255, -5.3167e-05, 5.04218, 51.6275, 23.8425, 3.2605, 1.70032, 2.82962, -0.00267457, 0.000683441, -0.00095203, -0.00162984, -0.00255177, -0.00428844, -0.000563984, 0.0243642, -0.0189739, -0.00690306, -0.000329761, 0.0914002, 0.00407538, 0.471234, -0.542799, 0.336197, -2.08341, -2.16616, -0.12944, 0.470317, -0.542415, 0.337942, -2.08638, -2.17017, -0.127979, 0.0108131, 0.0284411, 0.0146048, 0.0303902, 0.0062324, 0.00343405
0.0734778, 1.69247, -1.22358, -1.53631, -0.899482, -1.19345, 1.23026, -1.30271, 0.0496735, -0.000486058, 0.00378633, 0.00546265, -0.0540129, 0.0495746, -0.00027242, 5.11756, 51.6275, 23.8068, 3.22479, 1.70581, 2.82229, 0.00373412, 0.000652271, -0.000935919, -0.0016276, -0.00259596, -0.00436497, -0.000563453, 0.0254921, -0.018418, -0.00712086, 0.00329416, 0.0893976, 0.00334758, 0.471245, -0.54277, 0.336212, -2.08339, -2.16618, -0.129418, 0.470346, -0.542415, 0.337949, -2.08642, -2.17025, -0.127928, 0.0111452, 0.0293251, 0.0150567, 0.0302002, 0.00601372, 0.00351279
0.0744778, 1.69252, -1.22358, -1.53631, -0.899478, -1.19351, 1.23033, -1.30271, 0.0509594, -0.000450253, 6.84174e-05, 0.0062213, -0.0550829, 0.0566887, -0.000893402, 5.07789, 51.6275, 23.9179, 3.2605, 1.71863, 2.80124, 0.0229602, 0.000622668, -0.00091544, -0.00162152, -0.00263302, -0.00444716, -0.000572833, 0.0278096, -0.0191397, -0.00807129, 0.00551507, 0.0946591, 0.00168616, 0.471256, -0.542741, 0.336228, -2.08336, -2.16619, -0.129396, 0.470378, -0.542413, 0.337953, -2.08645, -2.17033, -0.127865, 0.0114812, 0.0302203, 0.0155142, 0.0313064, 0.00479726, 0.00265046
0.0754778, 1.69257, -1.22357, -1.53631, -0.899468, -1.19358, 1.23039, -1.30271, 0.0504449, 0.00136841, -0.000682615, 0.00866601, -0.0606264, 0.0561262, -0.000595385, 5.07789, 51.5521, 23.9536, 3.22479, 1.73053, 2.80856, 0.0229602, 0.000590549, -0.000896555, -0.00161922, -0.00267595, -0.00453531, -0.000578578, 0.0307355, -0.0170493, -0.00727811, 0.00279863, 0.101176, -0.00426981, 0.471268, -0.54271, 0.336243, -2.08334, -2.16621, -0.129373, 0.47041, -0.542413, 0.337961, -2.08649, -2.17042, -0.1278, 0.0118212, 0.0311266, 0.0159772, 0.0296937, 0.0026068, 0.00350657
0.0764778, 1.69262, -1.22357, -1.53631, -0.899464, -1.19365, 1.23046, -1.30271, 0.0504551, 0.000841276, -0.00121005, 0.00875559, -0.0600391, 0.0642635, -0.000159403, 5.07789, 51.5521, 23.9893, 3.2605, 1.74335, 2.82962, 0.0165515, 0.000559522, -0.000875487, -0.00161333, -0.00271509, -0.00462116, -0.000587711, 0.0326093, -0.0181379, -0.00737162, 0.00929188, 0.104852, -0.00557509, 0.47128, -0.542678, 0.33626, -2.08332, -2.16623, -0.129349, 0.470444, -0.54241, 0.337966, -2.08652, -2.17051, -0.127734, 0.012165, 0.0320437, 0.0164457, 0.0311895, 0.00173378, 0.00355908
0.0774778, 1.69267, -1.22357, -1.53631, -0.899456, -1.19372, 1.23054, -1.30271, 0.0495189, 0.000507604, -0.00167454, 0.0105356, -0.0641452, 0.067189, -0.000580865, 5.11756, 51.5521, 24.029, 3.22479, 1.75525, 2.82229, 0.0293689, 0.00052225, -0.000859145, -0.00160863, -0.00275928, -0.00471132, -0.000582786, 0.0357744, -0.0168401, -0.00750898, 0.0100845, 0.109815, -0.0100018, 0.471292, -0.542646, 0.336276, -2.08329, -2.16625, -0.129324, 0.470474, -0.542413, 0.337972, -2.08657, -2.17059, -0.127667, 0.0125127, 0.0329717, 0.0169196, 0.0303511, -0.00049532, 0.00344615
0.0784778, 1.69272, -1.22357, -1.5363, -0.899452, -1.19379, 1.23061, -1.30271, 0.0507432, 0.000298467, -0.000143201, 0.01012, -0.0712004, 0.0685978, -0.000624511, 5.07789, 51.5521, 23.9893, 3.2605, 1.75525, 2.83694, 0.0357776, 0.000489121, -0.00083712, -0.00160413, -0.00280639, -0.00480247, -0.000592198, 0.0373349, -0.01698, -0.00742121, 0.00856489, 0.116702, -0.0107923, 0.471305, -0.542612, 0.336293, -2.08327, -2.16626, -0.129299, 0.470509, -0.542411, 0.337979, -2.08661, -2.17069, -0.127602, 0.0128642, 0.0339105, 0.0173989, 0.0309025, -0.00110461, 0.00376595
0.0794778, 1.69278, -1.22357, -1.5363, -0.899443, -1.19387, 1.23068, -1.30271, 0.0475085, -0.00159421, -0.000989635, 0.00846253, -0.0732322, 0.0695397, -0.000416272, 5.07789, 51.6275, 24.029, 3.22479, 1.77356, 2.85892, 0.0357776, 0.000451413, -0.00081796, -0.0015953, -0.00285018, -0.00488986, -0.000592851, 0.040141, -0.0149869, -0.00915177, 0.00684315, 0.11771, -0.0145911, 0.471318, -0.542578, 0.336311, -2.08324, -2.16628, -0.129273, 0.470543, -0.542412, 0.337981, -2.08665, -2.17078, -0.127536, 0.0132194, 0.0348598, 0.0178835, 0.0293063, -0.00274181, 0.00216749
0.0804778, 1.69283, -1.22356, -1.5363, -0.899441, -1.19394, 1.23076, -1.30271, 0.0465471, 0.000677967, -0.000634367, 0.00842706, -0.0735817, 0.0658474, -0.00102345, 5.15327, 51.5521, 24.029, 3.2605, 1.77356, 2.87265, 0.0559192, 0.000414066, -0.000798702, -0.00159258, -0.00289993, -0.00498891, -0.000602372, 0.0409584, -0.0133778, -0.00832129, 0.00369314, 0.11905, -0.015687, 0.471331, -0.542543, 0.336329, -2.08322, -2.1663, -0.129247, 0.470577, -0.542412, 0.33799, -2.08669, -2.17088, -0.127465, 0.0135784, 0.0358197, 0.0183733, 0.0281189, -0.00278304, 0.0033998
0.0814778, 1.69288, -1.22356, -1.5363, -0.899445, -1.19402, 1.23084, -1.30271, 0.0444201, -0.000400088, 0.000977335, 0.00376162, -0.0739586, 0.0678193, -0.000207543, 5.15327, 51.5878, 24.1044, 3.37158, 1.76166, 2.8873, 0.0431018, 0.00037773, -0.000775703, -0.00158397, -0.00294409, -0.00508665, -0.000609915, 0.0415861, -0.0134611, -0.00909477, 0.00424877, 0.120175, -0.0146541, 0.471345, -0.542506, 0.336348, -2.08319, -2.16632, -0.12922, 0.470614, -0.542409, 0.337994, -2.08673, -2.17098, -0.127389, 0.013941, 0.03679, 0.0188684, 0.0285599, -0.00230984, 0.00303136
0.0824778, 1.69294, -1.22356, -1.53629, -0.899442, -1.19409, 1.23092, -1.30271, 0.0469667, -0.000279361, 0.000927875, 0.00389949, -0.0744893, 0.0693512, 0.000370293, 5.11756, 51.5878, 24.1044, 3.33588, 1.76807, 2.90103, 0.0293689, 0.000340751, -0.000752773, -0.0015804, -0.00299586, -0.00518778, -0.000616529, 0.041786, -0.0146772, -0.00937352, 0.00456528, 0.122227, -0.01385, 0.471359, -0.542469, 0.336367, -2.08316, -2.16634, -0.129192, 0.470653, -0.542407, 0.338003, -2.08677, -2.17108, -0.127316, 0.0143072, 0.0377706, 0.0193685, 0.0301383, -0.00143316, 0.00318828
0.0834778, 1.69299, -1.22355, -1.53629, -0.899441, -1.19417, 1.231, -1.30271, 0.0477765, 0.000639501, -9.3955e-06, 0.00301705, -0.0802897, 0.0742995, 0.000721602, 5.11756, 51.5521, 24.1401, 3.33588, 1.76807, 2.93765, 0.0165515, 0.000302058, -0.000732143, -0.00157572, -0.00304154, -0.0052905, -0.000625007, 0.0439719, -0.0150047, -0.00924399, 0.00446697, 0.131185, -0.0158539, 0.471373, -0.542431, 0.336386, -2.08313, -2.16636, -0.129163, 0.470689, -0.542405, 0.338012, -2.08681, -2.17119, -0.127235, 0.014677, 0.0387614, 0.0198738, 0.0309199, -0.00260646, 0.00347277
0.0844778, 1.69305, -1.22354, -1.53629, -0.899446, -1.19425, 1.23108, -1.30271, 0.0526208, 0.00125444, -0.00161407, 0.00148919, -0.0791118, 0.0735136, -0.00050226, 5.07789, 51.5164, 24.2154, 3.37158, 1.76807, 2.97336, 0.0431018, 0.000264315, -0.000709325, -0.00157135, -0.00308505, -0.00539976, -0.000637445, 0.0423758, -0.0173637, -0.01035, 0.0010923, 0.131518, -0.00972086, 0.471388, -0.542392, 0.336407, -2.0831, -2.16638, -0.129134, 0.470728, -0.542402, 0.338021, -2.08685, -2.1713, -0.127144, 0.0150503, 0.0397623, 0.0203841, 0.0335514, 0.000238445, 0.00306629
0.0854778, 1.6931, -1.22354, -1.53628, -0.899446, -1.19434, 1.23116, -1.30271, 0.048809, 0.00231483, 0.00126678, 0.00122758, -0.0832078, 0.0732196, -0.000334828, 5.07789, 51.5878, 24.2512, 3.37158, 1.77997, 3.00174, 0.0431018, 0.000223858, -0.000687948, -0.00156434, -0.00313098, -0.0055027, -0.000644774, 0.04513, -0.0148495, -0.00893028, 0.00157092, 0.136204, -0.0142656, 0.471403, -0.542351, 0.336427, -2.08308, -2.1664, -0.129103, 0.470766, -0.542399, 0.338028, -2.08689, -2.17141, -0.127061, 0.0154271, 0.0407732, 0.0208993, 0.0315702, -0.00179206, 0.00463359
0.0864778, 1.69317, -1.22353, -1.53628, -0.899449, -1.19442, 1.23125, -1.30271, 0.0509007, 0.00639981, -0.000576162, -0.00524105, -0.0824002, 0.0779586, 0.000522776, 5.00251, 51.6632, 24.3265, 3.37158, 1.81018, 3.02371, 0.0229602, 0.000184282, -0.000663891, -0.0015567, -0.00317879, -0.00560659, -0.00065507, 0.0436706, -0.0176245, -0.00813804, 0.000981243, 0.143413, -0.00890921, 0.471419, -0.54231, 0.336448, -2.08304, -2.16642, -0.129072, 0.470806, -0.542395, 0.338034, -2.08693, -2.17152, -0.126979, 0.0158074, 0.041794, 0.0214195, 0.0346985, 0.000663545, 0.00607747
0.0874778, 1.69322, -1.22353, -1.53627, -0.899454, -1.1945, 1.23132, -1.30271, 0.048804, 0.00322753, -0.000127194, -0.00480962, -0.0812944, 0.0764449, -0.00063482, 5.07789, 51.7386, 24.3265, 3.41125, 1.82941, 3.05209, 0.0495105, 0.000142174, -0.000645098, -0.0015508, -0.00322459, -0.00570987, -0.000665883, 0.0456531, -0.0159263, -0.0101802, 0.000394614, 0.139181, -0.0104132, 0.471435, -0.542268, 0.33647, -2.08301, -2.16645, -0.129041, 0.470843, -0.542393, 0.338043, -2.08696, -2.17163, -0.126894, 0.016191, 0.0428246, 0.0219445, 0.0333844, -1.96974e-05, 0.00433076
0.0884778, 1.69328, -1.22351, -1.53627, -0.899457, -1.19459, 1.23141, -1.30271, 0.0530448, 0.00503135, 0.000681143, -0.00349708, -0.0804989, 0.0751584, -0.000185849, 5.04218, 51.7743, 24.4376, 3.41125, 1.85321, 3.08047, 0.0431018, 0.000100476, -0.000621663, -0.00154624, -0.00327028, -0.00582663, -0.000679341, 0.0446116, -0.0175608, -0.00936407, 4.9378e-05, 0.140358, -0.00805251, 0.471451, -0.542224, 0.336492, -2.08298, -2.16647, -0.129008, 0.470884, -0.542389, 0.338054, -2.087, -2.17175, -0.126796, 0.016578, 0.0438649, 0.0224743, 0.0353965, 0.00199186, 0.00577799
0.0894778, 1.69334, -1.22351, -1.53627, -0.89946, -1.19467, 1.23149, -1.30271, 0.0581273, 0.006118, 0.00329499, -0.00467976, -0.0802107, 0.0788524, -0.000123896, 5.04218, 51.9568, 24.4733, 3.37158, 1.87793, 3.10245, 0.0431018, 5.93475e-05, -0.000597293, -0.00153761, -0.00332075, -0.00592769, -0.000695423, 0.0427716, -0.0214046, -0.00827881, 0.00399897, 0.143832, -0.00157835, 0.471468, -0.54218, 0.336515, -2.08295, -2.16649, -0.128975, 0.470926, -0.542383, 0.338061, -2.08703, -2.17187, -0.126718, 0.0169683, 0.0449148, 0.0230089, 0.0395991, 0.00485207, 0.00755157
0.0904778, 1.6934, -1.2235, -1.53626, -0.899464, -1.19476, 1.23157, -1.30271, 0.0554119, 0.0103521, 0.00419405, -0.00353821, -0.0838441, 0.0829013, 0.00137547, 5.07789, 51.9965, 24.5487, 3.37158, 1.89075, 3.10245, 0.00373412, 1.7156e-05, -0.000574381, -0.00153575, -0.00337133, -0.00604447, -0.000700695, 0.0459684, -0.0196125, -0.0051881, 0.00749029, 0.153513, -0.00847803, 0.471485, -0.542135, 0.336538, -2.08291, -2.16652, -0.128941, 0.470968, -0.542378, 0.338075, -2.08707, -2.17198, -0.126622, 0.0173618, 0.0459742, 0.0235482, 0.0384339, 0.00220642, 0.0107025
0.0914778, 1.69347, -1.22349, -1.53625, -0.899467, -1.19484, 1.23165, -1.30271, 0.0623089, 0.0108368, 0.00173211, -0.00267258, -0.0832098, 0.080861, 0.000916981, 5.00251, 52.1432, 24.6241, 3.37158, 1.90265, 3.11618, 0.00373412, -2.17822e-05, -0.000545529, -0.00152874, -0.00342269, -0.00615133, -0.000725857, 0.0444081, -0.0221246, -0.00658453, 0.00281791, 0.153487, -0.00382276, 0.471503, -0.542088, 0.336562, -2.08288, -2.16654, -0.128906, 0.471015, -0.542367, 0.338085, -2.08709, -2.17211, -0.126538, 0.0177586, 0.047043, 0.0240921, 0.0412322, 0.0051354, 0.0100322
0.0924778, 1.69353, -1.22348, -1.53625, -0.89947, -1.19492, 1.23173, -1.30271, 0.0604944, 0.0114979, 0.00226126, -0.00118184, -0.0814257, 0.079456, -0.000338114, 5.07789, 52.29, 24.7352, 3.33588, 1.90906, 3.1235, 0.0293689, -6.72403e-05, -0.000524601, -0.00152267, -0.00346834, -0.00626373, -0.000735496, 0.0461161, -0.0203681, -0.00622102, 0.0034766, 0.152512, -0.00570985, 0.471521, -0.542041, 0.336586, -2.08285, -2.16657, -0.128871, 0.471056, -0.542363, 0.338096, -2.08713, -2.17223, -0.12644, 0.0181585, 0.048121, 0.0246406, 0.0399547, 0.0043986, 0.010729
0.0934778, 1.6936, -1.22347, -1.53625, -0.899476, -1.19501, 1.23181, -1.30271, 0.0674553, 0.00805971, -0.000432547, -0.00096439, -0.0854764, 0.0781837, 0.000486669, 5.07789, 52.4725, 24.8462, 3.33588, 1.92737, 3.13083, 0.0101428, -0.000109029, -0.000498952, -0.00151316, -0.00351159, -0.00636959, -0.000756068, 0.0457916, -0.022701, -0.0100324, -0.00355896, 0.15288, -0.00333916, 0.471539, -0.541992, 0.336611, -2.08281, -2.16659, -0.128834, 0.471101, -0.542353, 0.338104, -2.08715, -2.17236, -0.126346, 0.0185616, 0.0492083, 0.0251936, 0.0425365, 0.00648958, 0.00749712
0.0944778, 1.69367, -1.22346, -1.53624, -0.89948, -1.19509, 1.23188, -1.30271, 0.06846, 0.00974963, 0.0015965, -0.00296136, -0.0826927, 0.077477, -0.00113362, 5.11756, 52.6193, 24.9216, 3.30017, 1.92096, 3.13815, 0.0495105, -0.000150086, -0.000472248, -0.00150554, -0.00355999, -0.00647347, -0.000783633, 0.0446875, -0.0237844, -0.00910981, -0.00252134, 0.152761, 0.00200497, 0.471558, -0.541942, 0.336637, -2.08277, -2.16662, -0.128797, 0.471147, -0.542341, 0.338115, -2.08716, -2.17249, -0.12626, 0.0189677, 0.0503046, 0.0257511, 0.0440192, 0.00858014, 0.00910334
0.0954778, 1.69374, -1.22345, -1.53623, -0.899481, -1.19518, 1.23196, -1.30271, 0.0675392, 0.0118444, 0.00134403, -0.000562055, -0.0816812, 0.0764874, 0.00168566, 5.22865, 52.7304, 25.0724, 3.22479, 1.94568, 3.1528, -0.0164075, -0.000196221, -0.000450816, -0.00149964, -0.00360643, -0.00658331, -0.000788055, 0.0465159, -0.0221412, -0.00807342, -0.00212359, 0.154059, -0.00454743, 0.471577, -0.541891, 0.336663, -2.08274, -2.16665, -0.128759, 0.471189, -0.542334, 0.338127, -2.0872, -2.1726, -0.126163, 0.0193769, 0.05141, 0.0263131, 0.0428935, 0.00765308, 0.010456
0.0964778, 1.69382, -1.22344, -1.53623, -0.89949, -1.19526, 1.23204, -1.30271, 0.0706597, 0.00937053, 0.00312789, -0.00147321, -0.0809985, 0.0717345, -0.00131763, 5.19294, 52.8772, 25.1438, 3.2605, 1.9823, 3.14548, 0.0495105, -0.000234152, -0.000418517, -0.00149079, -0.00365373, -0.0066893, -0.000826932, 0.0452646, -0.0232221, -0.010011, -0.00596127, 0.149507, 0.00254286, 0.471597, -0.541839, 0.33669, -2.0827, -2.16667, -0.128721, 0.471242, -0.542317, 0.338138, -2.0872, -2.17275, -0.126073, 0.0197891, 0.0525242, 0.0268794, 0.044269, 0.010346, 0.00926957
0.0974778, 1.69389, -1.22343, -1.53622, -0.899489, -1.19533, 1.23211, -1.30271, 0.0692649, 0.0066289, 0.00574286, -0.00166255, -0.0793455, 0.0724384, -0.00087842, 5.30799, 53.0637, 25.2945, 3.14941, 1.97681, 3.1528, 0.0495105, -0.000281871, -0.000396382, -0.00147992, -0.00370243, -0.00678767, -0.000837785, 0.046472, -0.0228594, -0.0109912, -0.00286484, 0.14634, 0.00183027, 0.471617, -0.541786, 0.336717, -2.08266, -2.1667, -0.128681, 0.471286, -0.542308, 0.338147, -2.08723, -2.17286, -0.125989, 0.0202043, 0.0536472, 0.02745, 0.0443311, 0.0104128, 0.00869645
0.0984778, 1.69397, -1.22342, -1.53622, -0.899495, -1.19541, 1.23218, -1.30271, 0.070325, 0.00871527, 0.00555591, -0.00369401, -0.0795625, 0.068044, 0.000160372, 5.3437, 53.2104, 25.4056, 3.11371, 2.01343, 3.16653, 0.0293689, -0.000324064, -0.00036897, -0.00146895, -0.00374658, -0.0068866, -0.000865251, 0.0460087, -0.0225631, -0.0109684, -0.00835936, 0.147421, 0.00248775, 0.471637, -0.541732, 0.336744, -2.08262, -2.16673, -0.128641, 0.471335, -0.542293, 0.338156, -2.08723, -2.17299, -0.1259, 0.0206224, 0.0547789, 0.0280249, 0.0444381, 0.0119866, 0.0093747
0.0994778, 1.69405, -1.22341, -1.53621, -0.899496, -1.19549, 1.23226, -1.30271, 0.0750239, 0.0111731, 0.00714004, -0.00125443, -0.0794005, 0.0655858, 0.000818992, 5.3437, 53.3215, 25.4413, 3.03833, 2.03174, 3.15921, 0.0101428, -0.000364482, -0.000338469, -0.00146123, -0.00380038, -0.00698467, -0.00089552, 0.044978, -0.024002, -0.00949915, -0.00884743, 0.149113, 0.00417478, 0.471658, -0.541677, 0.336773, -2.08258, -2.16676, -0.128599, 0.471387, -0.542275, 0.33817, -2.08724, -2.17313, -0.125822, 0.0210433, 0.0559192, 0.028604, 0.0463135, 0.01398, 0.0115198
0.100478, 1.69412, -1.2234, -1.53621, -0.899502, -1.19557, 1.23233, -1.30271, 0.0725693, 0.00820833, 0.00627791, -0.00343259, -0.0792668, 0.0636594, -0.000674708, 5.45875, 53.504, 25.5564, 2.99866, 2.06195, 3.1528, 0.0431018, -0.00041016, -0.000313528, -0.00144759, -0.00384358, -0.00707939, -0.000922932, 0.0468736, -0.0222266, -0.0123073, -0.0126021, 0.146065, 0.00388782, 0.471679, -0.54162, 0.336802, -2.08254, -2.16679, -0.128557, 0.471435, -0.54226, 0.338177, -2.08724, -2.17326, -0.125735, 0.0214671, 0.057068, 0.0291872, 0.0449313, 0.0136143, 0.00909147
0.101478, 1.69421, -1.22339, -1.5362, -0.899507, -1.19564, 1.2324, -1.30271, 0.0776127, 0.00845667, 0.00688609, -0.00202436, -0.0745293, 0.0622571, -0.000449805, 5.41908, 53.5794, 25.6278, 2.96295, 2.08118, 3.13815, 0.0431018, -0.000449992, -0.000281359, -0.00143643, -0.00388868, -0.00717629, -0.000959598, 0.0450233, -0.0246622, -0.0125601, -0.011633, 0.142506, 0.00834255, 0.471701, -0.541563, 0.336831, -2.08249, -2.16682, -0.128514, 0.47149, -0.542239, 0.338189, -2.08723, -2.1734, -0.125647, 0.0218936, 0.0582252, 0.0297746, 0.0477137, 0.0167401, 0.00964035
0.102478, 1.69429, -1.22338, -1.5362, -0.899516, -1.19571, 1.23247, -1.30271, 0.0738575, 0.0117546, 0.00624312, -0.00486177, -0.0712369, 0.0660807, -2.86028e-05, 5.53413, 53.6508, 25.7389, 2.96295, 2.1178, 3.1235, 0.0357776, -0.000495621, -0.000256062, -0.00142343, -0.00393178, -0.00727102, -0.00098195, 0.0466324, -0.0236239, -0.0111272, -0.00831376, 0.145965, 0.00649604, 0.471723, -0.541504, 0.336861, -2.08245, -2.16685, -0.128471, 0.471538, -0.542222, 0.338198, -2.08723, -2.17353, -0.125557, 0.0223229, 0.0593907, 0.030366, 0.0472195, 0.0160541, 0.0114296
0.103478, 1.69437, -1.22337, -1.53619, -0.899517, -1.19579, 1.23253, -1.30271, 0.0769341, 0.00601583, 0.00664836, -0.00416129, -0.0731843, 0.0683757, 0.000930367, 5.56983, 53.7976, 25.8143, 2.85187, 2.15442, 3.1235, 0.0101428, -0.000541902, -0.000228812, -0.00140671, -0.00397675, -0.0073578, -0.00100512, 0.0477966, -0.0251094, -0.0146356, -0.00796222, 0.143775, 0.00664754, 0.471746, -0.541444, 0.336892, -2.08241, -2.16688, -0.128426, 0.471589, -0.542204, 0.338204, -2.08723, -2.17365, -0.125477, 0.022755, 0.0605644, 0.0309614, 0.049049, 0.01668, 0.00833446
0.104478, 1.69446, -1.22336, -1.53619, -0.899527, -1.19586, 1.2326, -1.30271, 0.078539, 0.00734783, 0.0068964, -0.00662589, -0.0695301, 0.0704082, -0.000329191, 5.49445, 53.8373, 25.8896, 2.85187, 2.17273, 3.11618, 0.0357776, -0.000581785, -0.000194956, -0.0013921, -0.00402056, -0.00744881, -0.00105086, 0.0468921, -0.0268962, -0.0144372, -0.00606362, 0.144168, 0.012017, 0.471769, -0.541383, 0.336923, -2.08236, -2.16691, -0.128381, 0.471647, -0.542179, 0.338214, -2.08721, -2.1738, -0.125393, 0.0231896, 0.0617462, 0.0315607, 0.0512431, 0.0188004, 0.00921425
0.105478, 1.69455, -1.22336, -1.53619, -0.899526, -1.19593, 1.23267, -1.30271, 0.0838508, 0.00567992, 0.00306765, -0.00563475, -0.0676229, 0.0719002, 0.000255257, 5.45875, 53.9841, 26.0007, 2.73682, 2.20935, 3.10977, 0.0229602, -0.000630419, -0.000167326, -0.00137193, -0.00406534, -0.00753217, -0.00107903, 0.0468081, -0.0290361, -0.0172114, -0.00818367, 0.142809, 0.0136766, 0.471792, -0.54132, 0.336955, -2.08231, -2.16694, -0.128334, 0.471699, -0.54216, 0.338217, -2.0872, -2.17393, -0.125314, 0.0236269, 0.0629361, 0.0321639, 0.0537124, 0.0205898, 0.00702464
0.106478, 1.69464, -1.22336, -1.53618, -0.899533, -1.196, 1.23273, -1.30271, 0.0825118, 0.00491254, 0.00108324, -0.00687808, -0.0700527, 0.0693382, 0.000644889, 5.41908, 53.9841, 26.0761, 2.70111, 2.22858, 3.07315, 0.0101428, -0.000674347, -0.000136949, -0.00135527, -0.0041109, -0.00761554, -0.00111278, 0.0489982, -0.027018, -0.0191264, -0.0142126, 0.143788, 0.0103194, 0.471816, -0.541257, 0.336987, -2.08227, -2.16698, -0.128287, 0.471754, -0.542136, 0.338226, -2.08718, -2.17406, -0.125237, 0.0240668, 0.0641338, 0.032771, 0.0521477, 0.0198346, 0.00546435
0.107478, 1.69472, -1.22335, -1.53617, -0.899548, -1.19607, 1.2328, -1.30271, 0.0846704, 0.00457044, 0.00518521, -0.00807449, -0.0678834, 0.0667892, 0.000192567, 5.49445, 54.0952, 26.0404, 2.81219, 2.25879, 3.04477, 0.0165515, -0.000721002, -0.000108948, -0.00133542, -0.0041558, -0.00769692, -0.00115364, 0.0474246, -0.0285233, -0.0188154, -0.0132448, 0.141127, 0.0156704, 0.47184, -0.541192, 0.337021, -2.08222, -2.16701, -0.128239, 0.471808, -0.542113, 0.338231, -2.08716, -2.1742, -0.12516, 0.0245092, 0.0653394, 0.0333819, 0.0540479, 0.0226105, 0.00657894
0.108478, 1.69481, -1.22335, -1.53617, -0.899559, -1.19614, 1.23286, -1.30271, 0.0873107, 0.00226398, 0.00650634, -0.0101239, -0.0642141, 0.0653003, -0.000583699, 5.41908, 54.1666, 26.0761, 2.85187, 2.24689, 3.00906, 0.0357776, -0.000765629, -7.70687e-05, -0.00131464, -0.00420257, -0.00777476, -0.00119622, 0.0459771, -0.0304014, -0.0206986, -0.0137371, 0.136084, 0.0217644, 0.471865, -0.541126, 0.337054, -2.08217, -2.16705, -0.12819, 0.471865, -0.542087, 0.338236, -2.08713, -2.17435, -0.125088, 0.0249541, 0.0665526, 0.0339965, 0.0562456, 0.0256219, 0.00549936
0.109478, 1.69489, -1.22334, -1.53616, -0.899566, -1.19621, 1.23293, -1.30271, 0.0864145, 0.00527812, 0.00758652, -0.00971721, -0.0722801, 0.0647459, 0.000322944, 5.45875, 54.1666, 26.1118, 2.81219, 2.2652, 2.95871, 0.0165515, -0.000816019, -5.14413e-05, -0.00129767, -0.00425012, -0.00785985, -0.00122285, 0.0487967, -0.0284502, -0.0189194, -0.0169289, 0.146117, 0.0163923, 0.47189, -0.541059, 0.337088, -2.08212, -2.16708, -0.12814, 0.471917, -0.542066, 0.338245, -2.08712, -2.17448, -0.125008, 0.0254015, 0.0677736, 0.0346148, 0.0549162, 0.0237045, 0.00749886
0.110478, 1.69498, -1.22334, -1.53616, -0.899578, -1.19628, 1.23299, -1.30271, 0.0903183, 0.0025133, 0.00499827, -0.00823953, -0.0729851, 0.0630258, 0.000690014, 5.30799, 54.2419, 26.1515, 2.85187, 2.2652, 2.94406, 0.00373412, -0.000860249, -1.87787e-05, -0.00127472, -0.00429089, -0.0079342, -0.00126806, 0.0495562, -0.0290337, -0.0220562, -0.021632, 0.144076, 0.0161553, 0.471916, -0.54099, 0.337123, -2.08207, -2.16712, -0.128089, 0.471976, -0.542036, 0.33825, -2.08708, -2.17462, -0.124932, 0.0258513, 0.069002, 0.0352367, 0.055861, 0.0246896, 0.00488743
0.111478, 1.69507, -1.22334, -1.53615, -0.899588, -1.19635, 1.23305, -1.30271, 0.0829991, -0.0011898, 0.00715786, -0.00611805, -0.0739824, 0.0618929, 0.000460009, 5.30799, 54.3887, 26.1515, 2.85187, 2.2771, 2.923, 0.00373412, -0.000912557, 6.38541e-06, -0.00125071, -0.00433423, -0.00800811, -0.00130323, 0.0547335, -0.0240916, -0.0233361, -0.0198953, 0.140939, 0.00705395, 0.471942, -0.540921, 0.337159, -2.08202, -2.16715, -0.128038, 0.472029, -0.542013, 0.338253, -2.08705, -2.17475, -0.124857, 0.0263034, 0.0702379, 0.0358623, 0.0515235, 0.0208013, 0.00360217
0.112478, 1.69516, -1.22334, -1.53614, -0.899595, -1.19641, 1.23311, -1.30271, 0.0865887, -0.000366938, 0.0046898, -0.00765432, -0.0744458, 0.0611798, -0.000405404, 5.19294, 54.3887, 26.1872, 2.85187, 2.2771, 2.90103, 0.0229602, -0.00096082, 3.58071e-05, -0.00123178, -0.0043829, -0.0080851, -0.00134316, 0.0544346, -0.0253337, -0.0246377, -0.024592, 0.143036, 0.0104521, 0.471968, -0.54085, 0.337195, -2.08197, -2.16719, -0.127985, 0.472086, -0.541986, 0.338262, -2.08703, -2.17489, -0.124784, 0.0267579, 0.0714811, 0.0364913, 0.0531598, 0.0225926, 0.00295348
0.113478, 1.69524, -1.22334, -1.53613, -0.899618, -1.19648, 1.23317, -1.30271, 0.0852445, -0.00335861, 0.00369137, -0.0122611, -0.0701568, 0.060471, 0.000204449, 5.11756, 54.5355, 26.1872, 2.99866, 2.28351, 2.87997, 0.0101428, -0.00100943, 6.53505e-05, -0.00120583, -0.00442355, -0.00815844, -0.00138852, 0.0545534, -0.0253561, -0.0278377, -0.0268216, 0.137476, 0.0125441, 0.471995, -0.540778, 0.337232, -2.08192, -2.16723, -0.127932, 0.472143, -0.541956, 0.338265, -2.08698, -2.17504, -0.124706, 0.0272147, 0.0727316, 0.0371239, 0.053525, 0.0242178, 0.000407028
0.114478, 1.69533, -1.22333, -1.53612, -0.89963, -1.19655, 1.23323, -1.3027, 0.0860731, 0.00200763, 0.00533721, -0.0129874, -0.0713332, 0.0599216, 0.000611017, 5.07789, 54.4998, 26.2229, 3.03833, 2.2771, 2.85892, -0.00267457, -0.00106132, 9.05143e-05, -0.00118644, -0.00446929, -0.00823501, -0.00142272, 0.054594, -0.0254425, -0.0247414, -0.0269217, 0.144345, 0.0128847, 0.472023, -0.540705, 0.337269, -2.08186, -2.16726, -0.127878, 0.472197, -0.54193, 0.338274, -2.08696, -2.17517, -0.124629, 0.0276737, 0.0739892, 0.0377598, 0.0541888, 0.0249651, 0.00409158
0.115478, 1.69542, -1.22332, -1.53611, -0.899641, -1.19662, 1.23328, -1.3027, 0.0906525, 0.00328508, 0.0080357, -0.012514, -0.0680421, 0.0595938, 0.000915971, 4.89143, 54.5712, 26.1872, 3.03833, 2.28992, 2.83694, -0.0164075, -0.00111041, 0.000120775, -0.00116509, -0.00451736, -0.00830785, -0.00146704, 0.0526406, -0.0281657, -0.0236926, -0.0241775, 0.143523, 0.0180454, 0.472051, -0.54063, 0.337307, -2.08181, -2.1673, -0.127822, 0.472256, -0.5419, 0.338283, -2.08692, -2.17532, -0.124558, 0.028135, 0.0752539, 0.0383992, 0.0573372, 0.0281145, 0.00598344
0.116478, 1.69551, -1.22333, -1.5361, -0.899661, -1.19668, 1.23334, -1.3027, 0.0872757, -0.00240934, 0.00605513, -0.0117971, -0.0649362, 0.0551833, -0.000135338, 4.85175, 54.7934, 26.1872, 3.14941, 2.28351, 2.80124, 0.00373412, -0.0011643, 0.000146629, -0.0011362, -0.00456304, -0.00837025, -0.00151118, 0.0555925, -0.0249173, -0.0283244, -0.0284502, 0.133958, 0.0142779, 0.472079, -0.540554, 0.337346, -2.08175, -2.16734, -0.127766, 0.472312, -0.541871, 0.338284, -2.08687, -2.17546, -0.124494, 0.0285984, 0.0765256, 0.0390419, 0.0544944, 0.0270436, 0.00169757
0.117478, 1.6956, -1.22332, -1.53608, -0.899685, -1.19675, 1.23339, -1.30271, 0.0913014, 0.00201988, 0.00687687, -0.0152049, -0.0633584, 0.0561172, -0.00154829, 4.66529, 54.7934, 26.2229, 3.30017, 2.28992, 2.77926, 0.0431018, -0.00121076, 0.000178566, -0.00111459, -0.00460373, -0.0084451, -0.0015719, 0.0533022, -0.0278454, -0.0264869, -0.0285453, 0.138772, 0.022478, 0.472108, -0.540477, 0.337386, -2.0817, -2.16738, -0.127709, 0.472373, -0.541835, 0.338293, -2.08681, -2.17562, -0.124412, 0.0290639, 0.0778042, 0.0396878, 0.0578686, 0.0304275, 0.00442028
0.118478, 1.69568, -1.22331, -1.53607, -0.899699, -1.19681, 1.23344, -1.3027, 0.0881838, 0.00240571, 0.0106955, -0.0161853, -0.0656628, 0.056997, 0.000663229, 4.58991, 54.9045, 26.2626, 3.2605, 2.27161, 2.75088, -0.00267457, -0.00126664, 0.000201696, -0.00109318, -0.00465157, -0.00851672, -0.00160369, 0.0554563, -0.0263718, -0.0252584, -0.0259743, 0.142086, 0.0180661, 0.472137, -0.540398, 0.337426, -2.08164, -2.16742, -0.127651, 0.472427, -0.541808, 0.338303, -2.08678, -2.17575, -0.124338, 0.0295316, 0.0790895, 0.040337, 0.0569927, 0.0293358, 0.00599587
0.119478, 1.69578, -1.22331, -1.53605, -0.899718, -1.19688, 1.23349, -1.30271, 0.0901355, 0.0060617, 0.011328, -0.0190297, -0.0687561, 0.0570226, -0.000269924, 4.47486, 55.0156, 26.2626, 3.30017, 2.2771, 2.73623, 0.0165515, -0.00131756, 0.000230407, -0.00107101, -0.00469897, -0.00858542, -0.00165663, 0.0552191, -0.0272961, -0.0238369, -0.0286823, 0.14942, 0.0215891, 0.472167, -0.540319, 0.337466, -2.08158, -2.16746, -0.127592, 0.472487, -0.541774, 0.338313, -2.08672, -2.17591, -0.124268, 0.0300013, 0.0803815, 0.0409894, 0.0584314, 0.0306847, 0.0080595
0.120478, 1.69586, -1.2233, -1.53603, -0.899736, -1.19694, 1.23354, -1.3027, 0.08587, 0.00342901, 0.0172304, -0.0170926, -0.0700609, 0.0524587, 0.000294769, 4.47486, 55.087, 26.2983, 3.30017, 2.2652, 2.7225, 0.00373412, -0.00137302, 0.000253113, -0.00105168, -0.00475227, -0.00865242, -0.00169627, 0.0578647, -0.0240578, -0.0236745, -0.0272706, 0.145796, 0.0164932, 0.472197, -0.540238, 0.337508, -2.08152, -2.1675, -0.127533, 0.472541, -0.541743, 0.338326, -2.08668, -2.17605, -0.124203, 0.030473, 0.0816802, 0.0416449, 0.0557762, 0.0292084, 0.00856844
0.121478, 1.69595, -1.22329, -1.53602, -0.899765, -1.197, 1.23359, -1.30271, 0.0885754, 0.00586187, 0.015873, -0.0211823, -0.0720227, 0.0435763, -4.08465e-05, 4.36378, 55.2377, 26.449, 3.41125, 2.28351, 2.72983, 0.0101428, -0.00142461, 0.00028184, -0.00102502, -0.00478889, -0.00872155, -0.00175262, 0.0563298, -0.0238565, -0.0246956, -0.0397471, 0.146859, 0.0206672, 0.472228, -0.540155, 0.33755, -2.08146, -2.16755, -0.127472, 0.472601, -0.541707, 0.338333, -2.08662, -2.17621, -0.124119, 0.0309467, 0.0829853, 0.0423035, 0.0559543, 0.0321773, 0.00846232
0.122478, 1.69604, -1.22329, -1.53599, -0.899794, -1.19706, 1.23363, -1.3027, 0.0889772, 0.00227386, 0.0208392, -0.0203357, -0.0729083, 0.0414403, 0.000210128, 4.3241, 55.4916, 26.4847, 3.48663, 2.28351, 2.74356, 0.00373412, -0.00147628, 0.000308803, -0.00100008, -0.004836, -0.00877923, -0.00180899, 0.0570384, -0.0238229, -0.025608, -0.038152, 0.143442, 0.0211563, 0.472259, -0.540072, 0.337592, -2.0814, -2.16759, -0.12741, 0.472661, -0.541669, 0.338342, -2.08655, -2.17636, -0.124057, 0.0314223, 0.0842969, 0.0429652, 0.0563901, 0.0329283, 0.00811463
0.123478, 1.69612, -1.22327, -1.53597, -0.899816, -1.19712, 1.23367, -1.3027, 0.0892553, 0.00721222, 0.0195918, -0.0200998, -0.0696955, 0.0404403, 0.000140085, 4.2884, 55.567, 26.5958, 3.44696, 2.30182, 2.74356, 0.00373412, -0.00153093, 0.000332726, -0.000983166, -0.00488676, -0.00885064, -0.00185721, 0.0574057, -0.0232756, -0.0236933, -0.0386508, 0.146192, 0.020632, 0.472291, -0.539987, 0.337635, -2.08134, -2.16763, -0.127348, 0.472718, -0.541634, 0.338359, -2.0865, -2.17652, -0.123983, 0.0318998, 0.0856148, 0.0436298, 0.0564088, 0.0335676, 0.0106306
0.124478, 1.69621, -1.22327, -1.53594, -0.899847, -1.19718, 1.23372, -1.30271, 0.0901938, 0.00719132, 0.022881, -0.0221149, -0.0665194, 0.0390967, -0.000143969, 4.21302, 55.7892, 26.6712, 3.48663, 2.30823, 2.75821, 0.0101428, -0.00158072, 0.000362003, -0.000961782, -0.00493868, -0.00890947, -0.00192186, 0.0563178, -0.0244199, -0.0234653, -0.037085, 0.143784, 0.0251854, 0.472323, -0.5399, 0.337679, -2.08127, -2.16768, -0.127284, 0.47278, -0.541593, 0.338374, -2.08643, -2.17669, -0.123924, 0.0323792, 0.0869389, 0.0442973, 0.058, 0.0359809, 0.0116553
0.125478, 1.6963, -1.22325, -1.53591, -0.89988, -1.19723, 1.23376, -1.30271, 0.0931027, 0.0114533, 0.0234004, -0.0265564, -0.0641346, 0.0386386, -9.59792e-05, 4.17335, 55.9717, 26.822, 3.52234, 2.31372, 2.75821, 0.0101428, -0.00163098, 0.000390018, -0.000942907, -0.00498999, -0.0089721, -0.0019859, 0.0540467, -0.0267197, -0.0220611, -0.03862, 0.147191, 0.0318158, 0.472355, -0.539813, 0.337724, -2.08121, -2.16772, -0.127219, 0.472842, -0.541551, 0.338391, -2.08635, -2.17686, -0.12386, 0.0328604, 0.0882692, 0.0449678, 0.0607467, 0.0394384, 0.0139904
0.126478, 1.69639, -1.22324, -1.53589, -0.899913, -1.19729, 1.2338, -1.30271, 0.0882874, 0.0105492, 0.0231848, -0.0289666, -0.0576124, 0.0385137, -0.000538704, 4.17335, 56.1938, 27.0084, 3.52234, 2.32013, 2.75821, 0.0229602, -0.00168628, 0.000414698, -0.000920534, -0.0050399, -0.00903407, -0.00204437, 0.0557065, -0.024724, -0.0232514, -0.0369099, 0.141872, 0.0306378, 0.472389, -0.539724, 0.337769, -2.08114, -2.16777, -0.127154, 0.472901, -0.541512, 0.338405, -2.08628, -2.17702, -0.123793, 0.0333434, 0.0896055, 0.045641, 0.0592561, 0.0392329, 0.0132952
0.127478, 1.69647, -1.22323, -1.53585, -0.899946, -1.19734, 1.23384, -1.30271, 0.0879268, 0.00848283, 0.0241014, -0.0268658, -0.05755, 0.0377375, -0.00110512, 4.17335, 56.4874, 27.1552, 3.48663, 2.32654, 2.77286, 0.0431018, -0.00173947, 0.000440754, -0.000900045, -0.00509775, -0.00908748, -0.00210925, 0.0578137, -0.0235899, -0.0243819, -0.03641, 0.140021, 0.0284257, 0.472422, -0.539634, 0.337815, -2.08108, -2.16781, -0.127088, 0.472962, -0.54147, 0.338422, -2.08621, -2.17719, -0.123744, 0.0338281, 0.0909478, 0.0463171, 0.0586468, 0.0386195, 0.0125656
0.128478, 1.69655, -1.22321, -1.53582, -0.899987, -1.19739, 1.23387, -1.30271, 0.0877117, 0.0118674, 0.0278189, -0.030368, -0.0584241, 0.0377564, -0.00046548, 4.17335, 56.7096, 27.306, 3.52234, 2.35675, 2.77286, 0.0357776, -0.00179062, 0.00046722, -0.000883157, -0.00515188, -0.00914911, -0.00217456, 0.0573436, -0.024214, -0.0220256, -0.0354077, 0.145082, 0.0309999, 0.472456, -0.539542, 0.337862, -2.08101, -2.16786, -0.12702, 0.473024, -0.541425, 0.338443, -2.08613, -2.17736, -0.123681, 0.0343145, 0.092296, 0.0469959, 0.05983, 0.0400992, 0.0156241
0.129478, 1.69664, -1.22319, -1.53578, -0.900026, -1.19744, 1.23391, -1.3027, 0.0867309, 0.0152866, 0.0268417, -0.0338139, -0.053907, 0.0327682, -0.00031032, 4.21302, 56.8921, 27.4885, 3.48663, 2.37598, 2.77926, 0.0357776, -0.0018435, 0.00049145, -0.000869959, -0.0052086, -0.00921364, -0.00223856, 0.056637, -0.0232661, -0.0217265, -0.0402244, 0.143577, 0.0327895, 0.472491, -0.539449, 0.337909, -2.08094, -2.16791, -0.126952, 0.473085, -0.541381, 0.338468, -2.08606, -2.17753, -0.123617, 0.0348026, 0.09365, 0.0476774, 0.0593579, 0.0420647, 0.0167402
0.130478, 1.69673, -1.22318, -1.53575, -0.900071, -1.19749, 1.23394, -1.3027, 0.0918938, 0.0174649, 0.0282047, -0.0385049, -0.0506901, 0.0285168, -0.000478147, 4.13764, 57.2253, 27.7146, 3.52234, 2.39978, 2.80124, 0.0431018, -0.00189214, 0.000522447, -0.000847272, -0.00526198, -0.00926298, -0.00231984, 0.052785, -0.0264619, -0.0217514, -0.0445745, 0.142404, 0.0427698, 0.472526, -0.539355, 0.337957, -2.08087, -2.16796, -0.126882, 0.473152, -0.54133, 0.338485, -2.08596, -2.17772, -0.123565, 0.0352924, 0.0950097, 0.0483616, 0.0628932, 0.0473709, 0.0178928
0.131478, 1.69681, -1.22316, -1.5357, -0.900115, -1.19754, 1.23397, -1.30271, 0.0908665, 0.0140184, 0.0341334, -0.040397, -0.0483995, 0.0255101, -0.00103084, 4.13764, 57.5189, 27.8614, 3.48663, 2.43091, 2.82229, 0.0623279, -0.00194435, 0.000548165, -0.000829826, -0.00531854, -0.00931716, -0.00239831, 0.052437, -0.0265817, -0.0226443, -0.0425066, 0.136269, 0.0465345, 0.472561, -0.539259, 0.338006, -2.0808, -2.168, -0.126812, 0.473214, -0.541282, 0.338508, -2.08586, -2.1779, -0.123511, 0.0357837, 0.096375, 0.0490484, 0.0634585, 0.0492224, 0.0177476
0.132478, 1.69689, -1.22314, -1.53567, -0.900165, -1.19758, 1.234, -1.30271, 0.0851684, 0.0139359, 0.0331427, -0.0469442, -0.0466789, 0.0280405, 0.000296116, 4.21302, 57.7054, 28.1232, 3.52234, 2.46753, 2.83694, 0.0357776, -0.00199816, 0.000570567, -0.000814134, -0.00537098, -0.00937552, -0.00246719, 0.0546028, -0.0248014, -0.0239218, -0.0431519, 0.13743, 0.0443327, 0.472597, -0.539162, 0.338055, -2.08073, -2.16805, -0.126741, 0.473274, -0.541234, 0.338533, -2.08577, -2.17808, -0.123446, 0.0362765, 0.0977458, 0.0497377, 0.062209, 0.0485738, 0.0168979
0.133478, 1.69697, -1.22312, -1.53562, -0.900217, -1.19763, 1.23402, -1.30271, 0.0838025, 0.0144952, 0.0341797, -0.0473858, -0.0450539, 0.0248044, -0.000311215, 4.17335, 57.999, 28.3097, 3.52234, 2.49225, 2.86532, 0.0495105, -0.00204831, 0.000596668, -0.000796134, -0.00542418, -0.00942355, -0.0025475, 0.0555937, -0.0233562, -0.0240005, -0.0447988, 0.135911, 0.0439054, 0.472634, -0.539064, 0.338106, -2.08066, -2.1681, -0.126669, 0.473338, -0.541181, 0.338557, -2.08567, -2.17826, -0.123393, 0.0367709, 0.0991221, 0.0504295, 0.0612967, 0.0489216, 0.0174053
0.134478, 1.69705, -1.2231, -1.53558, -0.900276, -1.19766, 1.23404, -1.30271, 0.0775394, 0.0156478, 0.0392621, -0.0513382, -0.0438214, 0.0231934, -0.000682195, 4.21302, 58.2568, 28.4565, 3.55804, 2.51697, 2.87265, 0.0623279, -0.00209967, 0.000621239, -0.000777686, -0.00548147, -0.00946771, -0.00263085, 0.0570706, -0.0208935, -0.0223826, -0.0425522, 0.136014, 0.0432774, 0.472671, -0.538964, 0.338156, -2.08059, -2.16815, -0.126595, 0.473401, -0.541128, 0.33858, -2.08556, -2.17845, -0.123347, 0.0372668, 0.100504, 0.0511238, 0.0594537, 0.0484911, 0.0195483
0.135478, 1.69714, -1.22307, -1.53552, -0.900335, -1.1977, 1.23406, -1.30271, 0.0789167, 0.0231232, 0.0433269, -0.0541717, -0.0431013, 0.0219475, -0.000692155, 4.13764, 58.3679, 28.5715, 3.55804, 2.54169, 2.87997, 0.0687366, -0.0021466, 0.000649053, -0.000766966, -0.00554221, -0.00951999, -0.00272312, 0.0552083, -0.0221721, -0.0176153, -0.041193, 0.143209, 0.0480936, 0.472708, -0.538862, 0.338208, -2.08052, -2.16821, -0.126521, 0.473468, -0.541071, 0.338613, -2.08545, -2.17866, -0.123297, 0.0377641, 0.101891, 0.0518204, 0.0613413, 0.0510448, 0.0251993
0.136478, 1.69721, -1.22305, -1.53547, -0.900397, -1.19773, 1.23408, -1.30271, 0.0803237, 0.0173253, 0.0441159, -0.0554488, -0.0369791, 0.016305, 1.32809e-05, 4.17335, 58.6972, 28.7937, 3.52234, 2.54718, 2.8873, 0.0559192, -0.0021978, 0.000673251, -0.000744303, -0.00559375, -0.00955343, -0.00281239, 0.0542621, -0.0226089, -0.022007, -0.0444117, 0.130661, 0.0513014, 0.472746, -0.53876, 0.33826, -2.08044, -2.16826, -0.126446, 0.473532, -0.541014, 0.338634, -2.08532, -2.17884, -0.123255, 0.0382628, 0.103283, 0.0525195, 0.0620732, 0.054062, 0.0216935
0.137478, 1.69729, -1.22302, -1.53541, -0.900465, -1.19777, 1.23409, -1.30271, 0.078043, 0.0212185, 0.0480998, -0.0579114, -0.0336839, 0.0160578, -0.000703223, 4.21302, 58.8083, 28.8691, 3.55804, 2.57831, 2.91568, 0.0751453, -0.00224694, 0.000695857, -0.000733337, -0.00565522, -0.0095968, -0.00290479, 0.0541135, -0.0222746, -0.0190516, -0.0406477, 0.132542, 0.0537627, 0.472785, -0.538656, 0.338313, -2.08036, -2.16831, -0.12637, 0.473594, -0.540956, 0.338668, -2.0852, -2.17904, -0.123213, 0.0387628, 0.10468, 0.0532208, 0.0623494, 0.0551406, 0.0253471
0.138478, 1.69736, -1.223, -1.53535, -0.900529, -1.1978, 1.2341, -1.30271, 0.0788843, 0.0239107, 0.0531676, -0.0603755, -0.0344556, 0.0124687, 0.000989247, 4.13764, 58.9194, 28.9802, 3.48663, 2.57831, 2.90835, 0.0357776, -0.00229695, 0.000719623, -0.000720795, -0.00571691, -0.00963823, -0.00299485, 0.0529268, -0.0228354, -0.016876, -0.0412882, 0.134928, 0.0560666, 0.472824, -0.538551, 0.338366, -2.08029, -2.16836, -0.126293, 0.473659, -0.540897, 0.338701, -2.08508, -2.17924, -0.123172, 0.0392642, 0.106082, 0.0539245, 0.0634509, 0.0574076, 0.0283643
0.139478, 1.69743, -1.22297, -1.53529, -0.900603, -1.19783, 1.23411, -1.30271, 0.0789012, 0.0257938, 0.0570074, -0.0664096, -0.0364328, 0.00888912, -0.00154455, 4.09797, 59.0305, 29.0912, 3.48663, 2.60852, 2.923, 0.0952869, -0.00234624, 0.000741486, -0.000706578, -0.00577217, -0.00967454, -0.00309569, 0.0516276, -0.023401, -0.0160632, -0.0452103, 0.137898, 0.0639286, 0.472864, -0.538444, 0.338421, -2.08021, -2.16842, -0.126215, 0.473722, -0.540835, 0.338733, -2.08494, -2.17944, -0.123129, 0.0397669, 0.107489, 0.0546303, 0.0645017, 0.0599992, 0.0300549
0.140478, 1.69751, -1.22294, -1.53523, -0.900676, -1.19786, 1.23412, -1.30271, 0.0836637, 0.0247842, 0.0566409, -0.0672006, -0.032985, 0.00703672, -4.63554e-05, 3.98292, 59.1019, 29.2023, 3.44696, 2.63965, 2.91568, 0.0687366, -0.00239305, 0.000767796, -0.00069221, -0.00582967, -0.00971015, -0.0031994, 0.0500403, -0.0256997, -0.0178166, -0.0472506, 0.134325, 0.0677055, 0.472904, -0.538336, 0.338476, -2.08013, -2.16847, -0.126136, 0.473789, -0.54077, 0.338766, -2.0848, -2.17965, -0.123089, 0.0402709, 0.108901, 0.0553384, 0.0671741, 0.0633483, 0.029202
0.141478, 1.69758, -1.22291, -1.53516, -0.900759, -1.19788, 1.23412, -1.30271, 0.0781768, 0.02486, 0.0581065, -0.072008, -0.0290315, 0.00477815, -0.00053953, 3.98292, 59.1415, 29.238, 3.44696, 2.63324, 2.93033, 0.0824695, -0.00244028, 0.000790703, -0.00067909, -0.00589094, -0.00973922, -0.00330476, 0.0512101, -0.0234277, -0.0183485, -0.048094, 0.13117, 0.0678897, 0.472944, -0.538226, 0.338531, -2.08005, -2.16853, -0.126055, 0.473854, -0.540704, 0.3388, -2.08466, -2.17986, -0.123058, 0.040776, 0.110318, 0.0560486, 0.0654372, 0.0635921, 0.0292799
0.142478, 1.69766, -1.22289, -1.53509, -0.900845, -1.1979, 1.23412, -1.30271, 0.0765082, 0.0219753, 0.0588477, -0.0792038, -0.0318317, 0.00392885, -8.84193e-05, 3.87183, 59.2883, 29.2777, 3.48663, 2.65155, 2.923, 0.0751453, -0.00248585, 0.000817705, -0.00065951, -0.00594994, -0.00975926, -0.00341853, 0.0518914, -0.0232644, -0.0212711, -0.0534246, 0.131676, 0.0704368, 0.472985, -0.538115, 0.338588, -2.07997, -2.16858, -0.125974, 0.473923, -0.540634, 0.33883, -2.0845, -2.18007, -0.123035, 0.0412824, 0.111739, 0.0567608, 0.0656956, 0.0647807, 0.0270063
0.143478, 1.69773, -1.22286, -1.53502, -0.90093, -1.19792, 1.23412, -1.30271, 0.0733405, 0.02338, 0.0634112, -0.0839299, -0.0292094, 0.00378715, 0.000415772, 3.83216, 59.2883, 29.2777, 3.48663, 2.66437, 2.90103, 0.0623279, -0.00253429, 0.00083986, -0.000646492, -0.00601311, -0.00978585, -0.00352543, 0.0517587, -0.0230199, -0.0198393, -0.0505249, 0.131838, 0.0728617, 0.473027, -0.538002, 0.338645, -2.07989, -2.16864, -0.125892, 0.473988, -0.540566, 0.338866, -2.08435, -2.18028, -0.123007, 0.0417899, 0.113165, 0.0574751, 0.0660113, 0.0661093, 0.0291629
0.144478, 1.69779, -1.22283, -1.53495, -0.901027, -1.19794, 1.23412, -1.30271, 0.072095, 0.0211274, 0.0641947, -0.089477, -0.0219765, 0.00384151, -0.000943522, 3.75678, 59.2883, 29.3888, 3.55804, 2.66986, 2.87265, 0.0952869, -0.00258087, 0.000863286, -0.000630399, -0.00606796, -0.00981177, -0.00364581, 0.0507835, -0.0240034, -0.0221028, -0.0496213, 0.125063, 0.0795623, 0.473069, -0.537889, 0.338703, -2.07981, -2.1687, -0.125809, 0.474055, -0.540495, 0.3389, -2.08418, -2.1805, -0.122971, 0.0422985, 0.114595, 0.0581914, 0.0673781, 0.0688924, 0.0277623
0.145478, 1.69786, -1.22281, -1.53487, -0.901123, -1.19795, 1.23412, -1.30271, 0.0709783, 0.0213901, 0.0668783, -0.0927028, -0.0163761, 0.00326882, 0.00106641, 3.6814, 59.4708, 29.2777, 3.59772, 2.66986, 2.85892, 0.0495105, -0.00262614, 0.000891576, -0.000611729, -0.00614166, -0.00982267, -0.00377003, 0.0500603, -0.0245187, -0.0219526, -0.0470493, 0.121482, 0.0813046, 0.473111, -0.537773, 0.338761, -2.07972, -2.16875, -0.125725, 0.474127, -0.54042, 0.338932, -2.084, -2.18073, -0.122971, 0.0428082, 0.11603, 0.0589097, 0.0683818, 0.0710422, 0.0287235
0.146478, 1.69793, -1.22278, -1.53479, -0.901222, -1.19797, 1.23412, -1.30271, 0.0654508, 0.0287045, 0.0683014, -0.0966909, -0.0122112, 0.00232861, -1.13926e-06, 3.6814, 59.3597, 29.3134, 3.59772, 2.66986, 2.85892, 0.0687366, -0.00267322, 0.000914213, -0.000599582, -0.00620634, -0.00984613, -0.00389277, 0.0509098, -0.022144, -0.0180185, -0.0456901, 0.12596, 0.0812276, 0.473154, -0.537657, 0.338821, -2.07964, -2.16881, -0.12564, 0.474195, -0.540347, 0.338971, -2.08383, -2.18096, -0.122947, 0.0433189, 0.117469, 0.0596298, 0.0667097, 0.0709382, 0.0332751
0.147478, 1.698, -1.22275, -1.53471, -0.901321, -1.19798, 1.23412, -1.30271, 0.0631292, 0.0319669, 0.0702693, -0.09744, -0.0138268, 0.00166445, -0.000509386, 3.60603, 59.324, 29.3134, 3.59772, 2.66986, 2.85892, 0.0824695, -0.00271973, 0.00093931, -0.000586457, -0.0062778, -0.00986479, -0.00401932, 0.0527503, -0.020418, -0.015958, -0.0455812, 0.131043, 0.0793108, 0.473198, -0.537538, 0.338881, -2.07955, -2.16887, -0.125554, 0.474265, -0.540271, 0.33901, -2.08366, -2.18119, -0.122935, 0.0438306, 0.118913, 0.0603519, 0.0656523, 0.0701745, 0.0358048
0.148478, 1.69806, -1.22272, -1.53462, -0.901439, -1.19798, 1.23412, -1.30271, 0.0610744, 0.0334006, 0.0778719, -0.104704, -0.00966041, 0.00119367, 0.000406395, 3.53065, 59.324, 29.3134, 3.74451, 2.65155, 2.85892, 0.0623279, -0.0027598, 0.000970528, -0.000569557, -0.00634825, -0.00987601, -0.00416028, 0.0504012, -0.0219917, -0.0138749, -0.0409617, 0.129882, 0.0866101, 0.473242, -0.537419, 0.338941, -2.07946, -2.16893, -0.125467, 0.474341, -0.540187, 0.339047, -2.08347, -2.18144, -0.12293, 0.0443433, 0.12036, 0.0610757, 0.0677283, 0.0736949, 0.0388963
0.149478, 1.69813, -1.22269, -1.53454, -0.901549, -1.19798, 1.23412, -1.30271, 0.0620292, 0.0344653, 0.0800262, -0.105254, -0.00660266, 0.000858802, -0.000475055, 3.49494, 59.324, 29.3134, 3.7088, 2.63324, 2.85892, 0.0824695, -0.00280685, 0.000995409, -0.000553607, -0.00642272, -0.00988699, -0.00429274, 0.0501259, -0.022712, -0.0131584, -0.0388217, 0.129176, 0.0898203, 0.473287, -0.537298, 0.339003, -2.07938, -2.16899, -0.125378, 0.474412, -0.540109, 0.339085, -2.08328, -2.18167, -0.122928, 0.044857, 0.121812, 0.0618013, 0.0689808, 0.0753425, 0.0403484
0.150478, 1.69819, -1.22267, -1.53444, -0.901661, -1.19799, 1.23412, -1.30271, 0.0593869, 0.0298674, 0.083856, -0.103543, -0.00526955, 0.00089107, -0.000316704, 3.45527, 59.2883, 29.238, 3.7088, 2.63965, 2.85159, 0.0824695, -0.00285249, 0.00102259, -0.000539282, -0.00650549, -0.00989588, -0.00443032, 0.0527176, -0.0211854, -0.0146419, -0.0345618, 0.124002, 0.0867718, 0.473332, -0.537175, 0.339065, -2.07929, -2.16905, -0.125289, 0.474486, -0.540028, 0.339125, -2.08309, -2.18192, -0.122936, 0.0453715, 0.123267, 0.0625286, 0.0680169, 0.0743983, 0.0392617
0.151478, 1.69825, -1.22264, -1.53435, -0.901784, -1.19799, 1.23412, -1.30271, 0.0608518, 0.0253969, 0.0857122, -0.108826, -0.00398585, 0.00117203, -0.000685854, 3.41956, 59.2883, 29.2023, 3.74451, 2.63965, 2.83694, 0.0952869, -0.00289762, 0.00104862, -0.000525012, -0.00658777, -0.00990272, -0.00457487, 0.0518299, -0.0232206, -0.0179076, -0.0357476, 0.120009, 0.0934747, 0.473377, -0.537051, 0.339128, -2.0792, -2.16911, -0.125199, 0.474559, -0.539945, 0.339166, -2.0829, -2.18217, -0.122946, 0.0458869, 0.124727, 0.0632577, 0.0704038, 0.0773242, 0.0368357
0.152478, 1.69831, -1.22261, -1.53425, -0.901909, -1.19799, 1.23412, -1.30271, 0.0590253, 0.0292633, 0.0901744, -0.113746, -0.0032492, 0.00135048, 1.74821e-05, 3.37989, 59.2487, 29.1666, 3.7088, 2.64606, 2.82229, 0.0824695, -0.00294256, 0.00107636, -0.000511089, -0.00667163, -0.00991249, -0.00472029, 0.0512604, -0.0235321, -0.0151397, -0.0336269, 0.12442, 0.0964584, 0.473423, -0.536926, 0.339191, -2.07911, -2.16918, -0.125108, 0.474634, -0.53986, 0.339208, -2.0827, -2.18243, -0.122953, 0.0464031, 0.12619, 0.0639883, 0.0713198, 0.0789434, 0.0403773
0.153478, 1.69836, -1.22258, -1.53415, -0.902034, -1.19799, 1.23412, -1.30271, 0.057414, 0.0257352, 0.0892201, -0.1159, -0.00175392, 0.00170015, -0.000225704, 3.34419, 59.213, 29.1666, 3.6731, 2.62775, 2.80124, 0.0888782, -0.00298944, 0.00110312, -0.000496411, -0.00675872, -0.00991976, -0.00486642, 0.0531521, -0.0226711, -0.0182572, -0.0350971, 0.121041, 0.0959583, 0.47347, -0.536799, 0.339256, -2.07902, -2.16924, -0.125016, 0.474709, -0.539776, 0.33925, -2.0825, -2.18268, -0.122966, 0.0469202, 0.127658, 0.0647206, 0.0709313, 0.0789802, 0.0377681
0.154478, 1.69842, -1.22256, -1.53405, -0.902168, -1.19798, 1.23412, -1.30271, 0.0522184, 0.0245507, 0.0905466, -0.120684, -0.00180956, 0.00141966, -0.000387828, 3.34419, 59.2487, 29.238, 3.6731, 2.63965, 2.79391, 0.0952869, -0.00303709, 0.00112914, -0.000477508, -0.00683948, -0.00992412, -0.00501583, 0.0554016, -0.0204485, -0.0194235, -0.0363506, 0.120947, 0.0946697, 0.473517, -0.53667, 0.339321, -2.07892, -2.1693, -0.124922, 0.474783, -0.539691, 0.339288, -2.08229, -2.18294, -0.122974, 0.047438, 0.129128, 0.0654544, 0.0692752, 0.0783087, 0.0370775
0.155478, 1.69847, -1.22253, -1.53394, -0.902312, -1.19798, 1.23412, -1.30271, 0.0523812, 0.0255636, 0.0948217, -0.129299, -0.00111862, 0.000957657, 0.000724792, 3.30451, 59.213, 29.1666, 3.74451, 2.63324, 2.79391, 0.0687366, -0.00307929, 0.00115929, -0.000464678, -0.00692928, -0.00993094, -0.00517669, 0.0531118, -0.0225977, -0.0190707, -0.0372562, 0.122653, 0.102385, 0.473565, -0.53654, 0.339387, -2.07883, -2.16937, -0.124828, 0.474863, -0.539599, 0.339334, -2.08208, -2.18322, -0.12299, 0.0479565, 0.130603, 0.0661897, 0.0718654, 0.0820881, 0.0384427
0.156478, 1.69852, -1.2225, -1.53383, -0.902458, -1.19797, 1.23412, -1.30271, 0.0515999, 0.0255511, 0.0983167, -0.134156, 5.75831e-05, 0.00142674, -0.00050015, 3.30451, 59.213, 29.2023, 3.74451, 2.60852, 2.77286, 0.0952869, -0.00312444, 0.00118827, -0.000448203, -0.00702183, -0.0099329, -0.00534237, 0.0526315, -0.0234852, -0.0189464, -0.0359887, 0.123089, 0.108018, 0.473613, -0.536409, 0.339453, -2.07873, -2.16943, -0.124733, 0.474941, -0.539508, 0.339376, -2.08185, -2.1835, -0.123014, 0.0484757, 0.132081, 0.0669265, 0.0732591, 0.0840626, 0.0393467
0.157478, 1.69857, -1.22248, -1.53371, -0.902606, -1.19797, 1.23412, -1.30271, 0.0470592, 0.0253857, 0.103872, -0.141812, 0.000395048, 0.00122874, -0.000333433, 3.34419, 59.213, 29.1269, 3.6731, 2.59662, 2.76553, 0.0952869, -0.00317089, 0.00121463, -0.000434379, -0.00711767, -0.00993441, -0.0055044, 0.0526819, -0.0230348, -0.0184335, -0.034657, 0.123744, 0.111702, 0.473662, -0.536276, 0.33952, -2.07864, -2.1695, -0.124636, 0.475018, -0.539418, 0.339422, -2.08164, -2.18377, -0.12304, 0.0489955, 0.133562, 0.0676647, 0.073354, 0.0853969, 0.0405987
0.158478, 1.69862, -1.22243, -1.5336, -0.902759, -1.19797, 1.23413, -1.30271, 0.0478206, 0.0312497, 0.106631, -0.145278, 0.000437611, 0.00136643, 0.000761055, 3.34419, 58.9551, 29.238, 3.63342, 2.59021, 2.75088, 0.0687366, -0.00321562, 0.00124359, -0.000429099, -0.00721434, -0.00995859, -0.00566807, 0.0517013, -0.0240384, -0.0150382, -0.0339189, 0.130766, 0.114487, 0.473711, -0.536142, 0.339588, -2.07854, -2.16956, -0.124539, 0.475098, -0.539326, 0.339477, -2.08143, -2.18407, -0.123043, 0.049516, 0.135047, 0.0684043, 0.0749749, 0.0873801, 0.0448088
0.159478, 1.69867, -1.22242, -1.53347, -0.902916, -1.19797, 1.23413, -1.30271, 0.0461998, 0.0247565, 0.115542, -0.148141, -0.000230312, 0.00145704, -0.000475974, 3.30451, 59.1415, 29.2023, 3.55804, 2.60303, 2.73623, 0.0952869, -0.00326123, 0.00127384, -0.000410339, -0.00731766, -0.00995028, -0.00584607, 0.0520219, -0.0247946, -0.0165032, -0.0285664, 0.125523, 0.119635, 0.473761, -0.536006, 0.339657, -2.07844, -2.16963, -0.124441, 0.475179, -0.539231, 0.339519, -2.08119, -2.18436, -0.123087, 0.0500371, 0.136535, 0.0691452, 0.0762081, 0.0888101, 0.0440285
0.160478, 1.69871, -1.22239, -1.53333, -0.903079, -1.19797, 1.23413, -1.30271, 0.0451718, 0.0247829, 0.124613, -0.152379, 4.83167e-05, 0.00121138, -0.000554675, 3.37989, 59.1415, 29.2023, 3.55804, 2.59662, 2.72983, 0.101696, -0.00330645, 0.00130223, -0.000400322, -0.00742612, -0.00995316, -0.00602267, 0.0507752, -0.0261269, -0.014336, -0.0231193, 0.125966, 0.125699, 0.473811, -0.535869, 0.339727, -2.07834, -2.1697, -0.124341, 0.475259, -0.539135, 0.339571, -2.08096, -2.18466, -0.123124, 0.0505588, 0.138026, 0.0698875, 0.078099, 0.0912647, 0.0470581
0.161478, 1.69875, -1.22237, -1.53319, -0.903248, -1.19797, 1.23412, -1.30271, 0.0464004, 0.0240906, 0.130967, -0.158873, -0.000909942, 0.000572222, 0.000342294, 3.37989, 59.1772, 29.2023, 3.48663, 2.62134, 2.73623, 0.0824695, -0.0033511, 0.00133266, -0.000387342, -0.00753353, -0.00995417, -0.00620031, 0.0486948, -0.0285605, -0.0140175, -0.0224206, 0.126966, 0.133288, 0.473862, -0.53573, 0.339797, -2.07824, -2.16977, -0.124241, 0.475342, -0.539037, 0.33962, -2.08073, -2.18496, -0.123161, 0.0510809, 0.13952, 0.0706309, 0.0809832, 0.0948773, 0.0483544
0.162478, 1.69879, -1.22235, -1.53305, -0.903424, -1.19797, 1.23412, -1.30271, 0.0402093, 0.0252791, 0.132544, -0.16484, 0.00402275, 0.00143414, 0.000974181, 3.41956, 59.1415, 29.3531, 3.44696, 2.62134, 2.70785, 0.0623279, -0.00339565, 0.00136228, -0.000375665, -0.00764013, -0.00995778, -0.00638599, 0.0499008, -0.0267891, -0.0137199, -0.0203652, 0.125794, 0.133007, 0.473913, -0.53559, 0.339868, -2.07814, -2.16984, -0.12414, 0.475425, -0.538937, 0.339672, -2.08048, -2.18527, -0.123194, 0.0516036, 0.141018, 0.0713756, 0.0798, 0.0950596, 0.0492666
0.163478, 1.69883, -1.22231, -1.53289, -0.903604, -1.19797, 1.23412, -1.30271, 0.0378299, 0.0277542, 0.139279, -0.168155, 0.00281694, 0.000957216, -0.000808608, 3.49494, 59.0305, 29.2777, 3.37158, 2.62775, 2.70785, 0.101696, -0.00343851, 0.00139222, -0.000373917, -0.007763, -0.00996771, -0.00658318, 0.0500635, -0.0264903, -0.0107704, -0.0170202, 0.12983, 0.136969, 0.473965, -0.535448, 0.33994, -2.07804, -2.16991, -0.124037, 0.475508, -0.538836, 0.339734, -2.08024, -2.1856, -0.123239, 0.0521267, 0.142518, 0.0721215, 0.0801522, 0.095939, 0.05291
0.164478, 1.69886, -1.22229, -1.53274, -0.903786, -1.19797, 1.23412, -1.30271, 0.037208, 0.0251414, 0.140618, -0.16943, 0.00127569, 0.00141888, 0.00091899, 3.53065, 59.1019, 29.3531, 3.2605, 2.65155, 2.6868, 0.0623279, -0.00348531, 0.00142242, -0.000360362, -0.00787964, -0.00996693, -0.00676984, 0.0518483, -0.026028, -0.0124513, -0.0174348, 0.129733, 0.134758, 0.474018, -0.535305, 0.340012, -2.07793, -2.16998, -0.123934, 0.475592, -0.538735, 0.339785, -2.08, -2.18592, -0.123286, 0.0526502, 0.144021, 0.0728685, 0.0802214, 0.0959161, 0.0517382
0.165478, 1.69889, -1.22227, -1.53258, -0.903988, -1.19797, 1.23413, -1.30271, 0.0334025, 0.0210659, 0.146739, -0.18133, 0.00014445, 0.00148909, 0.000850019, 3.57032, 59.1415, 29.3531, 3.2605, 2.67627, 2.67215, 0.0559192, -0.00352864, 0.0014543, -0.000347556, -0.00799203, -0.00997115, -0.00697382, 0.0509045, -0.0269818, -0.0146256, -0.018494, 0.128241, 0.14296, 0.474071, -0.53516, 0.340086, -2.07783, -2.17005, -0.123829, 0.475679, -0.53863, 0.339838, -2.07974, -2.18625, -0.123324, 0.0531742, 0.145527, 0.0736165, 0.0815751, 0.0987299, 0.0504516
0.166478, 1.69892, -1.22224, -1.53242, -0.904182, -1.19797, 1.23413, -1.30271, 0.0297439, 0.0238518, 0.15083, -0.181853, 0.000253435, 0.00126447, -0.000891383, 3.6457, 59.0662, 29.3531, 3.18512, 2.67627, 2.66482, 0.0952869, -0.00357651, 0.00148114, -0.000340696, -0.00811433, -0.00997782, -0.00717197, 0.0527721, -0.0250699, -0.0119649, -0.0150983, 0.131518, 0.142337, 0.474124, -0.535014, 0.34016, -2.07772, -2.17012, -0.123723, 0.475761, -0.538528, 0.339897, -2.07949, -2.18659, -0.123369, 0.0536985, 0.147036, 0.0743657, 0.080376, 0.0979044, 0.0536058
0.167478, 1.69894, -1.22222, -1.53226, -0.904386, -1.19797, 1.23413, -1.30271, 0.0303301, 0.0222524, 0.158421, -0.185463, -0.000628719, -0.00423098, -0.00106897, 3.72108, 59.1415, 29.3888, 3.14941, 2.70099, 2.67215, 0.108104, -0.00362476, 0.00150792, -0.000326948, -0.00823176, -0.00997501, -0.00737296, 0.0511723, -0.0258381, -0.0117435, -0.0161311, 0.128831, 0.148455, 0.474178, -0.534866, 0.340234, -2.07762, -2.17019, -0.123617, 0.475843, -0.538425, 0.33995, -2.07922, -2.18692, -0.123418, 0.0542231, 0.148547, 0.0751158, 0.0816149, 0.100999, 0.0547941
0.168478, 1.69897, -1.22219, -1.53208, -0.904592, -1.19798, 1.23413, -1.30271, 0.0293811, 0.021706, 0.163826, -0.192023, -0.00100893, -0.00189821, -0.000712649, 3.72108, 59.0662, 29.3531, 3.14941, 2.7193, 2.63644, 0.108104, -0.00366953, 0.00153876, -0.000323031, -0.00836173, -0.00998482, -0.00758208, 0.0504346, -0.0274927, -0.011305, -0.013105, 0.130999, 0.154229, 0.474232, -0.534717, 0.34031, -2.07751, -2.17026, -0.123509, 0.47593, -0.538318, 0.340014, -2.07897, -2.18727, -0.123467, 0.054748, 0.150061, 0.0758669, 0.0837826, 0.103253, 0.0560354
0.169478, 1.69899, -1.22218, -1.5319, -0.904804, -1.19797, 1.23413, -1.30271, 0.0270942, 0.0153501, 0.170946, -0.196964, -0.000843685, -0.00183673, -0.00023774, 3.6457, 59.1019, 29.3134, 3.07404, 2.72571, 2.64377, 0.101696, -0.00371143, 0.00157265, -0.000313984, -0.00849552, -0.00997794, -0.00780237, 0.0506506, -0.028094, -0.0135727, -0.00981299, 0.12552, 0.158241, 0.474287, -0.534566, 0.340386, -2.0774, -2.17034, -0.123401, 0.476021, -0.538205, 0.340074, -2.07869, -2.18763, -0.123538, 0.0552732, 0.151577, 0.0766189, 0.084828, 0.10493, 0.054494
0.170478, 1.69901, -1.22215, -1.53171, -0.90502, -1.19797, 1.23413, -1.30271, 0.0225411, 0.0164457, 0.176255, -0.205658, 0.00016543, -0.000906947, 0.000553583, 3.6814, 59.0305, 29.2777, 2.96295, 2.7074, 2.62912, 0.0824695, -0.00375681, 0.0016024, -0.000310526, -0.00863556, -0.00998013, -0.00801567, 0.0503335, -0.0280513, -0.0124442, -0.00778593, 0.127603, 0.162276, 0.474343, -0.534414, 0.340463, -2.07729, -2.17041, -0.123291, 0.476108, -0.538095, 0.340139, -2.07842, -2.18798, -0.123605, 0.0557986, 0.153096, 0.0773717, 0.0853467, 0.106591, 0.0564111
0.171478, 1.69902, -1.22213, -1.53152, -0.90524, -1.19797, 1.23413, -1.30271, 0.0169796, 0.0185481, 0.181438, -0.208905, -0.00120876, -0.000502109, -0.000817739, 3.6814, 59.0305, 29.3134, 2.85187, 2.74402, 2.62179, 0.114513, -0.00380548, 0.00163004, -0.000303815, -0.00877476, -0.00998065, -0.00823324, 0.0524462, -0.0258249, -0.0100131, -0.00462957, 0.131873, 0.161824, 0.474399, -0.53426, 0.340541, -2.07718, -2.17049, -0.12318, 0.476194, -0.537987, 0.340202, -2.07815, -2.18834, -0.123672, 0.0563242, 0.154618, 0.0781255, 0.0838375, 0.105556, 0.059317
0.172478, 1.69903, -1.22211, -1.53132, -0.905475, -1.19797, 1.23413, -1.30271, 0.0140857, 0.0168731, 0.185697, -0.218977, -9.97055e-05, 0.000589863, 0.000166917, 3.75678, 59.0305, 29.3531, 2.81219, 2.72571, 2.59341, 0.0952869, -0.00385113, 0.00165966, -0.000298403, -0.00891963, -0.00997956, -0.00845423, 0.0514663, -0.0269311, -0.0111393, -0.0044552, 0.131445, 0.16809, 0.474456, -0.534104, 0.340619, -2.07707, -2.17056, -0.123068, 0.476282, -0.537875, 0.340267, -2.07788, -2.18871, -0.123746, 0.05685, 0.156141, 0.07888, 0.0853852, 0.108271, 0.0590717
0.173478, 1.69904, -1.22209, -1.53112, -0.905711, -1.19797, 1.23413, -1.30271, 0.0138897, 0.0165749, 0.19061, -0.225035, -0.00140183, 0.00138339, 0.000348637, 3.75678, 58.9908, 29.3134, 2.73682, 2.76233, 2.56412, 0.0888782, -0.003896, 0.00169121, -0.000295054, -0.0090684, -0.00998183, -0.00868672, 0.0506532, -0.0284096, -0.0108318, -0.00347647, 0.133893, 0.173788, 0.474513, -0.533947, 0.340699, -2.07696, -2.17064, -0.122956, 0.476373, -0.53776, 0.340335, -2.0776, -2.18909, -0.123821, 0.0573759, 0.157667, 0.0796352, 0.0873697, 0.110624, 0.0602047
0.174478, 1.69905, -1.22206, -1.53091, -0.905962, -1.19797, 1.23413, -1.30271, 0.0118651, 0.0163321, 0.192949, -0.231637, -0.000478014, 0.00163097, 0.000741051, 3.83216, 58.9551, 29.3134, 2.73682, 2.75043, 2.54306, 0.0751453, -0.00393986, 0.0017212, -0.000290019, -0.00921322, -0.00997936, -0.00892415, 0.0505374, -0.0286895, -0.0114453, -0.00417982, 0.134465, 0.177457, 0.47457, -0.533789, 0.340779, -2.07684, -2.17071, -0.122842, 0.476462, -0.537642, 0.340402, -2.0773, -2.18948, -0.123897, 0.0579019, 0.159194, 0.0803912, 0.0881485, 0.112375, 0.0603626
0.175478, 1.69905, -1.22204, -1.5307, -0.906212, -1.19797, 1.23413, -1.30271, 0.0113731, 0.0169236, 0.198461, -0.239696, -0.00142586, 0.00157645, -0.000251951, 3.87183, 58.8837, 29.3134, 2.70111, 2.78064, 2.52841, 0.0952869, -0.00398748, 0.00174875, -0.000285115, -0.00936016, -0.00997929, -0.00915948, 0.0488909, -0.0304127, -0.0107385, -0.00408615, 0.137248, 0.186179, 0.474629, -0.533629, 0.340859, -2.07673, -2.17079, -0.122727, 0.47655, -0.537527, 0.34047, -2.07701, -2.18986, -0.123971, 0.0584279, 0.160724, 0.0811479, 0.0903594, 0.115506, 0.0620101
0.176478, 1.69904, -1.22203, -1.53048, -0.906464, -1.19797, 1.23413, -1.30271, 0.00699512, 0.0171059, 0.202357, -0.241309, -0.00117908, 0.00151955, -0.000167967, 3.94721, 58.9551, 29.3134, 2.70111, 2.78705, 2.51468, 0.0952869, -0.00403558, 0.00177729, -0.000278922, -0.00951649, -0.00997243, -0.00939738, 0.0510588, -0.0283887, -0.00976526, -0.00125923, 0.138028, 0.183969, 0.474687, -0.533468, 0.340941, -2.07661, -2.17087, -0.122611, 0.476639, -0.537411, 0.340537, -2.07672, -2.19025, -0.124061, 0.0589541, 0.162256, 0.0819052, 0.0889974, 0.114657, 0.0634653
0.177478, 1.69904, -1.222, -1.53026, -0.906732, -1.19797, 1.23414, -1.30271, 0.00378241, 0.0202483, 0.209718, -0.24974, -0.00145759, 0.00125427, 0.000871366, 4.02259, 58.7726, 29.3888, 2.77649, 2.80536, 2.50735, 0.0687366, -0.00407968, 0.00180754, -0.00028103, -0.00967465, -0.00998125, -0.00964389, 0.0497264, -0.0289659, -0.00683644, 0.00102101, 0.142543, 0.189362, 0.474746, -0.533304, 0.341023, -2.07649, -2.17095, -0.122494, 0.476731, -0.53729, 0.340614, -2.07642, -2.19066, -0.124138, 0.0594802, 0.16379, 0.0826631, 0.0901686, 0.117092, 0.0672996
0.178478, 1.69902, -1.22198, -1.53002, -0.907, -1.19797, 1.23414, -1.30271, 0.00142003, 0.0210167, 0.215093, -0.258931, -0.00140756, 0.00108492, 0.00105563, 4.09797, 58.7726, 29.3531, 2.73682, 2.81726, 2.50003, 0.0559192, -0.00412607, 0.00183528, -0.000280485, -0.0098398, -0.00997603, -0.00989125, 0.0483833, -0.0299492, -0.00614321, 0.00111942, 0.144701, 0.196316, 0.474806, -0.53314, 0.341106, -2.07637, -2.17103, -0.122376, 0.476821, -0.53717, 0.340688, -2.07612, -2.19106, -0.124236, 0.0600063, 0.165325, 0.0834216, 0.0916529, 0.119898, 0.068914
0.179478, 1.69902, -1.22196, -1.52978, -0.907274, -1.19797, 1.23414, -1.30271, -0.00249541, 0.0235257, 0.226193, -0.261416, -0.000731187, 0.00986928, -0.00075431, 4.13764, 58.6972, 29.3888, 2.73682, 2.81177, 2.50003, 0.0952869, -0.00416842, 0.00186695, -0.000283373, -0.010012, -0.00997114, -0.0101561, 0.0491463, -0.0312155, -0.000567669, 0.0178517, 0.151454, 0.200794, 0.474866, -0.532974, 0.34119, -2.07626, -2.17111, -0.122257, 0.476915, -0.537044, 0.340767, -2.07581, -2.19149, -0.124342, 0.0605324, 0.166863, 0.0841806, 0.0937086, 0.1199, 0.0750184
0.180478, 1.699, -1.22194, -1.52952, -0.907559, -1.19797, 1.23414, -1.30271, -0.00635976, 0.0244724, 0.234508, -0.266754, -9.94013e-06, 0.0076017, 0.000243112, 4.21302, 58.6615, 29.3134, 2.70111, 2.79895, 2.4927, 0.0751453, -0.00420951, 0.00189973, -0.000287328, -0.0101893, -0.00996693, -0.0104232, 0.0486452, -0.0306819, 0.00170045, 0.0210667, 0.151632, 0.203703, 0.474927, -0.532806, 0.341275, -2.07613, -2.17119, -0.122137, 0.477011, -0.536916, 0.340848, -2.07549, -2.19192, -0.124452, 0.0610583, 0.168402, 0.0849401, 0.093779, 0.121568, 0.0781124
0.181478, 1.69899, -1.22192, -1.52928, -0.907841, -1.19797, 1.23414, -1.3027, -0.0113703, 0.0212605, 0.236967, -0.273859, 0.000198924, 0.00590224, 0.000399434, 4.24873, 58.6615, 29.3888, 2.6654, 2.79346, 2.48538, 0.0687366, -0.00425359, 0.0019315, -0.000287758, -0.0103622, -0.00996226, -0.010685, 0.0499355, -0.0290378, -0.000693639, 0.0184147, 0.148868, 0.204962, 0.474989, -0.532637, 0.34136, -2.07601, -2.17127, -0.122016, 0.477106, -0.536789, 0.340926, -2.07518, -2.19235, -0.124556, 0.0615842, 0.169942, 0.0857, 0.0926224, 0.122122, 0.0763667
0.182478, 1.69897, -1.22189, -1.52902, -0.908139, -1.19797, 1.23414, -1.3027, -0.0109051, 0.0238801, 0.243845, -0.276304, 0.000134191, 0.00459457, 0.000503648, 4.36378, 58.5861, 29.3888, 2.70111, 2.79346, 2.47897, 0.0623279, -0.004296, 0.0019629, -0.000292441, -0.0105378, -0.00996424, -0.0109575, 0.0487508, -0.0300825, 0.00230924, 0.0216987, 0.151786, 0.20953, 0.47505, -0.532466, 0.341446, -2.07589, -2.17135, -0.121894, 0.477201, -0.536659, 0.341009, -2.07486, -2.19279, -0.124657, 0.0621099, 0.171484, 0.0864603, 0.0942706, 0.124432, 0.0802372
0.183478, 1.69895, -1.22187, -1.52875, -0.908447, -1.19796, 1.23414, -1.30271, -0.0134161, 0.0239388, 0.24913, -0.288804, 0.00056536, 0.00392237, -0.000884938, 4.47486, 58.5861, 29.3888, 2.73682, 2.78064, 2.46432, 0.0952869, -0.00433369, 0.00199858, -0.000295457, -0.0107177, -0.00995646, -0.0112507, 0.0464446, -0.0316515, 0.00207136, 0.0198505, 0.153033, 0.220907, 0.475113, -0.532294, 0.341533, -2.07577, -2.17143, -0.121771, 0.477301, -0.536522, 0.341092, -2.07451, -2.19325, -0.124774, 0.0626355, 0.173028, 0.087221, 0.0962604, 0.128367, 0.0810606
0.184478, 1.69893, -1.22186, -1.52848, -0.908757, -1.19796, 1.23414, -1.3027, -0.014489, 0.0209521, 0.254104, -0.297394, 0.00416109, 0.00339504, 0.00110546, 4.55024, 58.5861, 29.4642, 2.70111, 2.80536, 2.44967, 0.0495105, -0.00437344, 0.00203345, -0.000299031, -0.0109036, -0.00994967, -0.0115356, 0.0444141, -0.0335389, 0.000421241, 0.0207273, 0.148396, 0.227873, 0.475176, -0.53212, 0.34162, -2.07564, -2.17152, -0.121646, 0.477401, -0.536386, 0.341176, -2.07417, -2.1937, -0.124894, 0.0631608, 0.174573, 0.087982, 0.0985202, 0.13226, 0.0804359
0.185478, 1.69891, -1.22184, -1.52819, -0.909076, -1.19796, 1.23414, -1.3027, -0.0170124, 0.0209019, 0.27411, -0.305963, 0.00272549, 0.00271282, 0.000499616, 4.701, 58.6258, 29.4642, 2.6654, 2.81726, 2.44235, 0.0559192, -0.00441082, 0.00207012, -0.000304337, -0.011097, -0.00994007, -0.0118365, 0.0405642, -0.0365144, 0.00594823, 0.0327608, 0.149806, 0.241435, 0.475239, -0.531945, 0.341709, -2.07552, -2.1716, -0.121521, 0.477504, -0.536247, 0.341262, -2.07382, -2.19417, -0.125026, 0.0636859, 0.176119, 0.0887433, 0.102089, 0.136917, 0.0871395
0.186478, 1.69889, -1.22183, -1.5279, -0.909401, -1.19796, 1.23413, -1.3027, -0.015286, 0.0220172, 0.278988, -0.312217, 0.00211117, 0.00112839, 0.000570436, 4.701, 58.6258, 29.4245, 2.70111, 2.81726, 2.46432, 0.0495105, -0.00444244, 0.00211251, -0.000312432, -0.0112939, -0.00993158, -0.012152, 0.0383214, -0.0386714, 0.00675673, 0.0316969, 0.152091, 0.249504, 0.475303, -0.531768, 0.341798, -2.07539, -2.17169, -0.121395, 0.477612, -0.5361, 0.341353, -2.07345, -2.19467, -0.125162, 0.0642108, 0.177667, 0.0895048, 0.10471, 0.140665, 0.0889656
0.187478, 1.69886, -1.22181, -1.52761, -0.909724, -1.19795, 1.23414, -1.30271, -0.0191502, 0.0213383, 0.277402, -0.307535, 0.00206888, 0.00112376, 0.00299055, 4.77637, 58.5504, 29.4642, 2.59003, 2.80536, 2.457, 0.101696, -0.00448193, 0.00214815, -0.000319095, -0.0114887, -0.00992704, -0.0124592, 0.0434552, -0.0345745, 0.00611912, 0.0324812, 0.152069, 0.237248, 0.475368, -0.53159, 0.341888, -2.07526, -2.17177, -0.121268, 0.477714, -0.53596, 0.341442, -2.07309, -2.19515, -0.125289, 0.0647353, 0.179216, 0.0902666, 0.101339, 0.137048, 0.088455
0.188478, 1.69884, -1.22179, -1.52732, -0.910058, -1.19795, 1.23413, -1.3027, -0.0220634, 0.0229797, 0.286255, -0.318234, 0.00130737, 0.000553082, 0.00454242, 4.85175, 58.5147, 29.4999, 2.55035, 2.81177, 2.46432, 0.0431018, -0.00451935, 0.00218368, -0.000322833, -0.0116742, -0.00991714, -0.012762, 0.0412051, -0.0359604, 0.00837586, 0.0343512, 0.155546, 0.244992, 0.475433, -0.53141, 0.341978, -2.07513, -2.17186, -0.121139, 0.477817, -0.535815, 0.34153, -2.07273, -2.19562, -0.12541, 0.0652596, 0.180765, 0.0910285, 0.103251, 0.14055, 0.0917398
