alisrour97/Franka_experiments/Real_Robot_scripts/servo-franka/Data_5_ki/log_dyn_PI0_11.csv
Time,q1,q2,q3,q4,q5,q6,q7,dq1,dq2,dq3,dq4,dq5,dq6,dq7,t1,t2,t3,t4,t5,t6,t7,ex1,ex2,ex3,ex4,ex5,ex6,ev1,ev2,ev3,ev4,ev5,ev6,xd,yd,zd,uxd,uyd,uzd,x,y,z,ux,uy,uz,vxd,vyd,vzd,vx,vy,vz
4.88281e-07, 1.69127, -1.22806, -1.53978, -0.900473, -1.19264, 1.22781, -1.30254, -0.00478177, 0.00292919, -0.000874533, 0.00619819, -9.32561e-05, -0.00239362, -0.00359204, 0.285408, 63.3746, 32.3285, 7.51739, 3.38214, 4.23495, -0.278248, 0.000329605, -0.00202155, 0.00229171, 0.00316832, 0.00153702, 0.000897037, 0.00377023, 0.00468635, 0.00226728, 0.000979456, 0.00125879, -0.00718295, 0.471008, -0.543389, 0.335894, -2.08385, -2.16584, -0.129887, 0.468901, -0.542791, 0.333735, -2.08231, -2.1628, -0.127844, -4.06186e-05, 0.000124715, 6.6488e-05, -0.00450427, -0.00413808, 0.00186135
0.0131375, 1.69122, -1.22801, -1.53979, -0.900445, -1.19264, 1.22781, -1.30258, -0.000781831, 0.00616897, -0.00181936, 0.00288599, -0.000268683, 0.000345237, -0.00721779, 0.134651, 63.5214, 32.4793, 7.40631, 3.40137, 4.2203, -0.218739, 0.000300318, -0.00205978, 0.00226358, 0.00315569, 0.00149689, 0.00093774, 0.00133032, 0.00142141, 0.00337344, 0.00048527, 0.00652359, 0.00263677, 0.471008, -0.543389, 0.335894, -2.08385, -2.16584, -0.129887, 0.468859, -0.542829, 0.333767, -2.08239, -2.16277, -0.127808, -6.68636e-05, 0.000218577, 0.000115026, -0.0013171, -0.00167214, 0.00328242
0.0141375, 1.69122, -1.22801, -1.53979, -0.900445, -1.19264, 1.22781, -1.30258, -0.000781831, 0.00616897, -0.00181936, 0.00288599, -0.000268683, 0.000345237, -0.00721779, 0.134651, 63.5214, 32.4793, 7.40631, 3.40137, 4.2203, -0.218739, 0.000300295, -0.00205977, 0.00226358, 0.00315568, 0.00149689, 0.000937752, 0.00144119, 0.00139532, 0.00333779, 0.000438136, 0.00659594, 0.002547, 0.471008, -0.543389, 0.335894, -2.08385, -2.16584, -0.129887, 0.468859, -0.542829, 0.333767, -2.08239, -2.16277, -0.127808, -9.5592e-05, 0.000321476, 0.000168224, -0.0013171, -0.00167214, 0.00328242
0.0151375, 1.69122, -1.22801, -1.53979, -0.900445, -1.19264, 1.22781, -1.30258, -0.000781831, 0.00616897, -0.00181936, 0.00288599, -0.000268683, 0.000345237, -0.00721779, 0.134651, 63.5214, 32.4793, 7.40631, 3.40137, 4.2203, -0.218739, 0.000300233, -0.00205976, 0.0022636, 0.00315565, 0.00149691, 0.000937785, 0.00156217, 0.00136691, 0.0032989, 0.000386793, 0.00667486, 0.00244913, 0.471008, -0.543389, 0.335894, -2.08385, -2.16584, -0.129887, 0.468859, -0.542829, 0.333767, -2.08239, -2.16277, -0.127808, -0.000126895, 0.000433757, 0.000226255, -0.0013171, -0.00167214, 0.00328242
0.0161375, 1.69122, -1.22801, -1.53979, -0.900445, -1.19264, 1.22781, -1.30258, -0.000781831, 0.00616897, -0.00181936, 0.00288599, -0.000268683, 0.000345237, -0.00721779, 0.134651, 63.5214, 32.4793, 7.40631, 3.40137, 4.2203, -0.218739, 0.000300113, -0.00205973, 0.00226364, 0.00315559, 0.00149694, 0.000937849, 0.00169361, 0.00133608, 0.00325666, 0.000331095, 0.00676056, 0.00234286, 0.471008, -0.543389, 0.335894, -2.08385, -2.16584, -0.129887, 0.468859, -0.542829, 0.333767, -2.08239, -2.16277, -0.127808, -0.000160861, 0.000555757, 0.000289294, -0.0013171, -0.00167214, 0.00328242
0.0171375, 1.69122, -1.22801, -1.53979, -0.900445, -1.19264, 1.22781, -1.30258, -0.000781831, 0.00616897, -0.00181936, 0.00288599, -0.000268683, 0.000345237, -0.00721779, 0.134651, 63.5214, 32.4793, 7.40631, 3.40137, 4.2203, -0.218739, 0.000299916, -0.00205968, 0.00226371, 0.0031555, 0.00149698, 0.000937954, 0.00183587, 0.00130275, 0.00321095, 0.000270898, 0.0068533, 0.00222793, 0.471008, -0.543389, 0.335894, -2.08385, -2.16584, -0.129886, 0.468859, -0.542829, 0.333767, -2.08239, -2.16277, -0.127808, -0.000197581, 0.000687809, 0.000357511, -0.0013171, -0.00167214, 0.00328242
0.0181375, 1.69122, -1.22801, -1.53979, -0.900445, -1.19264, 1.22781, -1.30258, -0.000781831, 0.00616897, -0.00181936, 0.00288599, -0.000268683, 0.000345237, -0.00721779, 0.134651, 63.5214, 32.4793, 7.40631, 3.40137, 4.2203, -0.218739, 0.000299623, -0.00205961, 0.0022638, 0.00315536, 0.00149705, 0.000938111, 0.00198932, 0.00126685, 0.00316166, 0.000206063, 0.00695328, 0.00210404, 0.471008, -0.543389, 0.335894, -2.08385, -2.16584, -0.129886, 0.468859, -0.542829, 0.333767, -2.08239, -2.16277, -0.127808, -0.000237139, 0.000830243, 0.000431075, -0.0013171, -0.00167214, 0.00328242
0.0191375, 1.69122, -1.22801, -1.53979, -0.900445, -1.19264, 1.22781, -1.30258, -0.000781831, 0.00616897, -0.00181936, 0.00288599, -0.000268683, 0.000345237, -0.00721779, 0.134651, 63.5214, 32.4793, 7.40631, 3.40137, 4.2203, -0.218739, 0.000299214, -0.00205951, 0.00226393, 0.00315516, 0.00149715, 0.000938328, 0.0021543, 0.00122831, 0.00310868, 0.000136451, 0.00706074, 0.00197093, 0.471008, -0.543388, 0.335894, -2.08385, -2.16584, -0.129886, 0.468859, -0.542829, 0.333767, -2.08239, -2.16277, -0.127808, -0.000279621, 0.000983381, 0.00051015, -0.0013171, -0.00167214, 0.00328242
0.0201375, 1.69122, -1.22801, -1.53979, -0.900445, -1.19264, 1.22781, -1.30258, -0.000781831, 0.00616897, -0.00181936, 0.00288599, -0.000268683, 0.000345237, -0.00721779, 0.134651, 63.5214, 32.4793, 7.40631, 3.40137, 4.2203, -0.218739, 0.000298672, -0.00205939, 0.00226411, 0.0031549, 0.00149727, 0.000938617, 0.00233114, 0.00118704, 0.00305191, 6.19285e-05, 0.0071759, 0.00182833, 0.471008, -0.543388, 0.335895, -2.08385, -2.16584, -0.129886, 0.468859, -0.542829, 0.333767, -2.08239, -2.16277, -0.127808, -0.00032511, 0.00114754, 0.000594898, -0.0013171, -0.00167214, 0.00328242
0.0211375, 1.69122, -1.22801, -1.53979, -0.900445, -1.19264, 1.22781, -1.30258, -0.000781831, 0.00616897, -0.00181936, 0.00288599, -0.000268683, 0.000345237, -0.00721779, 0.134651, 63.5214, 32.4793, 7.40631, 3.40137, 4.2203, -0.218739, 0.000297977, -0.00205922, 0.00226433, 0.00315457, 0.00149744, 0.000938987, 0.00252018, 0.00114298, 0.00299123, -1.76366e-05, 0.00729896, 0.00167598, 0.471007, -0.543387, 0.335895, -2.08384, -2.16584, -0.129885, 0.468859, -0.542829, 0.333767, -2.08239, -2.16277, -0.127808, -0.000373687, 0.00132303, 0.000685479, -0.0013171, -0.00167214, 0.00328242
0.0221375, 1.69122, -1.22801, -1.53979, -0.900445, -1.19264, 1.22781, -1.30258, -0.000781831, 0.00616897, -0.00181936, 0.00288599, -0.000268683, 0.000345237, -0.00721779, 0.134651, 63.5214, 32.4793, 7.40631, 3.40137, 4.2203, -0.218739, 0.000297111, -0.00205902, 0.00226461, 0.00315415, 0.00149764, 0.000939448, 0.00272176, 0.00109605, 0.00292655, -0.000102371, 0.00743014, 0.00151363, 0.471007, -0.543386, 0.335895, -2.08384, -2.16584, -0.129884, 0.468859, -0.542829, 0.333767, -2.08239, -2.16277, -0.127808, -0.000425431, 0.00151016, 0.000782046, -0.0013171, -0.00167214, 0.00328242
0.0231375, 1.69122, -1.22801, -1.53979, -0.900445, -1.19264, 1.22781, -1.30258, -0.000781831, 0.00616897, -0.00181936, 0.00288599, -0.000268683, 0.000345237, -0.00721779, 0.134651, 63.5214, 32.4793, 7.40631, 3.40137, 4.2203, -0.218739, 0.000296056, -0.00205877, 0.00226495, 0.00315365, 0.00149789, 0.000940009, 0.00293618, 0.00104619, 0.00285776, -0.000192399, 0.00756964, 0.00134102, 0.471007, -0.543385, 0.335896, -2.08384, -2.16584, -0.129884, 0.468859, -0.542829, 0.333767, -2.08239, -2.16277, -0.127808, -0.000480419, 0.00170921, 0.00088475, -0.0013171, -0.00167214, 0.00328242
0.0241375, 1.69115, -1.22802, -1.53981, -0.900446, -1.19265, 1.22781, -1.30259, -0.00267964, -0.00211967, -0.00181797, 0.000448003, -3.28906e-05, 0.00964576, -0.00352613, 0.0949785, 63.819, 32.6261, 7.40631, 3.40686, 4.22763, -0.238881, 0.000260407, -0.00209779, 0.00227209, 0.00315451, 0.00150312, 0.00100268, 0.00497803, -0.000364234, -0.00151167, 0.00634798, 0.00402777, -0.00203531, 0.471007, -0.543384, 0.335896, -2.08384, -2.16585, -0.129883, 0.46882, -0.542863, 0.333757, -2.08246, -2.1627, -0.127805, -0.000538724, 0.00192048, 0.000993739, -5.15182e-05, -0.00274644, -0.00128245
0.0251375, 1.69115, -1.22801, -1.53981, -0.900448, -1.19264, 1.22781, -1.30259, -0.00114806, 0.00301675, -0.00304288, -0.000527929, 0.000418886, 0.00779471, -0.00338456, 0.059273, 63.6325, 32.7015, 7.44202, 3.39496, 4.21298, -0.218739, 0.00026135, -0.00209687, 0.00226716, 0.00315719, 0.00149356, 0.00099667, 0.00374397, -0.00090123, 0.000617773, 0.00350468, 0.00822899, -0.000538659, 0.471006, -0.543383, 0.335897, -2.08384, -2.16585, -0.129882, 0.468821, -0.542862, 0.333762, -2.08245, -2.16272, -0.127792, -0.000600418, 0.00214425, 0.00110915, 0.000455834, -0.00161015, 0.00111096
0.0261375, 1.69114, -1.22802, -1.53981, -0.900445, -1.19265, 1.22781, -1.3026, -0.00351147, -0.00569323, -0.00450943, -0.00168666, -0.00250064, -0.00284645, -0.00440502, 0.170357, 63.5611, 32.4039, 7.36664, 3.34003, 4.1846, -0.166554, 0.000252892, -0.00210337, 0.00227403, 0.0031572, 0.00150616, 0.00100373, 0.00528586, 0.0024871, -0.00606677, -0.00940119, -0.00303989, -0.00256047, 0.471006, -0.543381, 0.335898, -2.08384, -2.16585, -0.129881, 0.468814, -0.542868, 0.333755, -2.08245, -2.1627, -0.127803, -0.00066557, 0.00238079, 0.00123113, -0.00317944, -0.0020056, -0.00550472
0.0271375, 1.69114, -1.22803, -1.53983, -0.900446, -1.19265, 1.22781, -1.30259, -0.00245171, -0.00629925, -0.0144635, -0.00188302, 0.00123811, -0.00827813, -0.00333594, 0.170357, 63.1168, 32.1818, 7.25555, 3.12488, 4.07748, -0.160145, 0.000243407, -0.0021071, 0.00228937, 0.00317259, 0.00151387, 0.00102312, 0.00584155, 0.0041058, -0.0105954, -0.0215055, -0.0085269, -0.00614941, 0.471005, -0.543379, 0.335899, -2.08384, -2.16585, -0.129879, 0.46881, -0.542873, 0.33374, -2.08246, -2.16267, -0.12779, -0.000734245, 0.00263035, 0.0013598, -0.00500834, -0.00167386, -0.00988515
0.0281375, 1.69114, -1.22804, -1.53986, -0.90045, -1.19266, 1.22781, -1.30259, -0.00218904, -0.00268244, -0.0186875, -0.0022164, 0.00314596, -0.00233995, 0.000439259, 0.059273, 62.4542, 31.8088, 7.14447, 2.91614, 3.96213, -0.10796, 0.000236121, -0.00210874, 0.00230285, 0.00320197, 0.00150708, 0.00103234, 0.00669109, 0.00332748, -0.00960021, -0.0191681, -0.00304832, -0.0110597, 0.471005, -0.543377, 0.3359, -2.08384, -2.16585, -0.129878, 0.468807, -0.542876, 0.333726, -2.08246, -2.16266, -0.127748, -0.000806507, 0.00289319, 0.0014953, -0.00423697, -0.00237105, -0.00892231
0.0291375, 1.69115, -1.22805, -1.53989, -0.900454, -1.19267, 1.22781, -1.30259, -0.000849455, -0.0067015, -0.0226207, -0.0016576, -0.00169371, -0.00932112, 0.00130697, 0.0196001, 61.9028, 31.3248, 6.99371, 2.73761, 3.88339, -0.127186, 0.000224862, -0.00211468, 0.00232232, 0.00324448, 0.00150369, 0.00105373, 0.0079792, 0.00507815, -0.0140536, -0.0313355, -0.0061035, -0.0147679, 0.471004, -0.543375, 0.335901, -2.08384, -2.16585, -0.129876, 0.4688, -0.542882, 0.333707, -2.08246, -2.16262, -0.127693, -0.000882416, 0.00316954, 0.00163773, -0.006176, -0.00275259, -0.0133243
0.0301375, 1.69115, -1.22806, -1.53994, -0.900462, -1.1927, 1.22781, -1.30259, -0.000804891, -0.00819861, -0.0271515, -0.00234499, -0.00555243, -0.00554836, -8.89468e-05, 0.0196001, 61.5338, 30.8765, 6.88263, 2.56549, 3.82663, -0.0951428, 0.000209739, -0.00212244, 0.00235108, 0.00330276, 0.00150065, 0.00107303, 0.010304, 0.00534614, -0.0164078, -0.034407, -0.0020153, -0.0164158, 0.471003, -0.543372, 0.335903, -2.08383, -2.16585, -0.129874, 0.468791, -0.54289, 0.333678, -2.08244, -2.16258, -0.127622, -0.000962028, 0.00345964, 0.00178723, -0.00652511, -0.0044063, -0.0158522
0.0311375, 1.69116, -1.22807, -1.53999, -0.90047, -1.19273, 1.2278, -1.30259, 0.00281094, -0.00447506, -0.0331685, -0.00594047, -0.0110603, -0.00236886, -0.000398021, -0.131157, 61.0934, 30.3925, 6.77154, 2.45563, 3.76163, -0.0814099, 0.000196867, -0.00212561, 0.00237771, 0.00337093, 0.00147942, 0.00108901, 0.0102856, 0.00360779, -0.0168676, -0.0415711, 0.0088065, -0.0144547, 0.471002, -0.543369, 0.335904, -2.08383, -2.16585, -0.129871, 0.468787, -0.542896, 0.333651, -2.08243, -2.16255, -0.127521, -0.0010454, 0.0037637, 0.0019439, -0.00488965, -0.00394215, -0.0161991
0.0321375, 1.69116, -1.22809, -1.54005, -0.900481, -1.19278, 1.22781, -1.30259, -0.000951503, -0.00678575, -0.0406091, -0.00724632, -0.0216373, -0.00432964, 0.00108278, -0.0161054, 60.8713, 30.0236, 6.73187, 2.39978, 3.67557, -0.114369, 0.00017015, -0.00214057, 0.00241379, 0.00344946, 0.00145634, 0.00113527, 0.0155549, 0.00817603, -0.021126, -0.0550857, 0.0148918, -0.0258504, 0.471002, -0.543366, 0.335906, -2.08383, -2.16586, -0.129869, 0.468771, -0.542914, 0.333613, -2.08245, -2.16249, -0.127403, -0.00113257, 0.00408193, 0.00210783, -0.00950444, -0.00835759, -0.02092
0.0331375, 1.69117, -1.22811, -1.54011, -0.900491, -1.19282, 1.2278, -1.30259, 0.00195627, -0.00723026, -0.044193, -0.00725606, -0.0285213, -0.00127511, 0.00251285, -0.131157, 60.6134, 29.5752, 6.65649, 2.32013, 3.60415, -0.160145, 0.000152884, -0.0021454, 0.00244604, 0.00352902, 0.00142962, 0.00116385, 0.0170858, 0.00730315, -0.0226588, -0.0594219, 0.0221571, -0.0287024, 0.471001, -0.543362, 0.335908, -2.08383, -2.16586, -0.129866, 0.468764, -0.542923, 0.333581, -2.08245, -2.16244, -0.127282, -0.0012236, 0.00441451, 0.00227914, -0.00872431, -0.00926476, -0.0225261
0.0341375, 1.69117, -1.22812, -1.54018, -0.900511, -1.19287, 1.22781, -1.30259, 0.00171289, -0.0078328, -0.0526637, -0.0100665, -0.0385232, -0.00404597, 0.00150955, -0.0161054, 60.5023, 29.238, 6.69617, 2.24689, 3.53915, -0.153737, 0.000129501, -0.00215533, 0.00248532, 0.0036189, 0.00140037, 0.0011948, 0.0202362, 0.00985008, -0.0267516, -0.0754047, 0.0293981, -0.03318, 0.470999, -0.543358, 0.33591, -2.08382, -2.16586, -0.129863, 0.468753, -0.542936, 0.333541, -2.08245, -2.16239, -0.127147, -0.00131852, 0.00476163, 0.0024579, -0.011398, -0.0115022, -0.0268008
0.0351375, 1.69118, -1.22813, -1.54025, -0.900523, -1.19293, 1.22781, -1.30258, 0.00134993, -0.00980472, -0.0608062, -0.0122322, -0.0419896, -0.00262987, 0.000822766, -0.0161054, 60.3555, 28.8691, 6.62079, 2.19745, 3.51077, -0.147328, 0.000104667, -0.00216563, 0.00251842, 0.00370981, 0.00135609, 0.00123488, 0.0228497, 0.0110186, -0.0310776, -0.084211, 0.031925, -0.0362974, 0.470998, -0.543354, 0.335912, -2.08382, -2.16586, -0.12986, 0.468741, -0.542952, 0.333507, -2.08246, -2.16234, -0.126994, -0.00141737, 0.00512346, 0.00264421, -0.0127266, -0.0131026, -0.0312563
0.0361375, 1.69119, -1.22813, -1.54033, -0.900531, -1.19298, 1.22781, -1.30258, 0.00422767, -0.00874396, -0.0645702, -0.0122884, -0.0530808, -0.00221977, -0.000869233, -0.0161054, 60.0977, 28.6429, 6.47003, 2.12421, 3.50345, -0.10796, 7.94799e-05, -0.0021767, 0.00254727, 0.00380691, 0.00130046, 0.00127645, 0.0248813, 0.0111609, -0.0320377, -0.0928738, 0.0428665, -0.0375749, 0.470997, -0.543349, 0.335915, -2.08382, -2.16586, -0.129856, 0.468728, -0.542968, 0.333477, -2.08248, -2.1623, -0.126822, -0.00152019, 0.00550014, 0.00283813, -0.0129335, -0.0145897, -0.0323214
0.0371375, 1.6912, -1.22813, -1.5404, -0.900544, -1.19304, 1.22782, -1.30258, 0.0094159, -0.00530043, -0.066293, -0.0111218, -0.0562479, -0.0012533, 0.00114617, -0.0161054, 59.9866, 28.3851, 6.39465, 2.03815, 3.48239, -0.153737, 5.74149e-05, -0.00218265, 0.00257659, 0.00389847, 0.00124523, 0.00131392, 0.0241132, 0.00896125, -0.0307834, -0.0951606, 0.0498229, -0.0377765, 0.470995, -0.543344, 0.335917, -2.08381, -2.16587, -0.129852, 0.468721, -0.54298, 0.333448, -2.08249, -2.16225, -0.126657, -0.00162701, 0.00589181, 0.00303974, -0.0108257, -0.0135428, -0.0308284
0.0381375, 1.69122, -1.22811, -1.54049, -0.900558, -1.1931, 1.22783, -1.30258, 0.00624605, 0.000111111, -0.0717956, -0.0134209, -0.0597283, 0.000614425, -0.000433909, 0.0196001, 59.7644, 28.3097, 6.32324, 1.9823, 3.43204, -0.120778, 3.18904e-05, -0.00219009, 0.00260072, 0.00399199, 0.00116779, 0.00135218, 0.0267975, 0.0112513, -0.0296792, -0.100299, 0.0597226, -0.0415698, 0.470994, -0.543338, 0.33592, -2.08381, -2.16587, -0.129848, 0.468712, -0.542996, 0.333423, -2.08252, -2.16222, -0.126466, -0.00173785, 0.0062986, 0.00324909, -0.0130877, -0.0160498, -0.0298761
0.0391375, 1.69123, -1.2281, -1.54055, -0.900575, -1.19317, 1.22784, -1.30258, 0.0117124, 0.00141559, -0.069665, -0.0158705, -0.0622702, 0.00196332, -0.00173033, 0.134651, 59.6573, 28.1232, 6.28357, 1.92737, 3.38168, -0.0814099, 8.36212e-06, -0.00219648, 0.00262217, 0.00408077, 0.00109228, 0.00138147, 0.0241835, 0.00721954, -0.0288086, -0.100541, 0.064317, -0.0329416, 0.470992, -0.543332, 0.335923, -2.0838, -2.16587, -0.129843, 0.468704, -0.543011, 0.333402, -2.08253, -2.16221, -0.126284, -0.00185274, 0.00672061, 0.00346625, -0.00923813, -0.0130162, -0.0285152
0.0401375, 1.69125, -1.22809, -1.54063, -0.900596, -1.19324, 1.22785, -1.30257, 0.0137157, 0.00500183, -0.0715866, -0.0185505, -0.0643685, 0.0029404, 0.00576023, 0.21003, 59.5819, 28.0875, 6.28357, 1.88434, 3.33133, -0.140919, -1.26206e-05, -0.00219831, 0.00264866, 0.00418078, 0.00101528, 0.00141321, 0.0235553, 0.00585328, -0.0279205, -0.103833, 0.0708358, -0.038173, 0.470991, -0.543326, 0.335927, -2.0838, -2.16588, -0.129838, 0.4687, -0.543021, 0.333376, -2.08255, -2.16218, -0.126087, -0.0019717, 0.00715794, 0.00369125, -0.00798299, -0.0120395, -0.027357
0.0411375, 1.69126, -1.22806, -1.5407, -0.900621, -1.19331, 1.22786, -1.30257, 0.0132384, 0.0122611, -0.0694506, -0.0213073, -0.0719094, 0.00283635, 0.00471585, 0.511544, 59.324, 28.0478, 6.32324, 1.88434, 3.30295, -0.153737, -3.72435e-05, -0.0022065, 0.00266222, 0.00427367, 0.00091718, 0.00145229, 0.0238026, 0.00601935, -0.0234129, -0.106397, 0.0845946, -0.0372077, 0.470989, -0.543319, 0.33593, -2.08379, -2.16588, -0.129833, 0.46869, -0.543036, 0.333362, -2.08259, -2.16216, -0.125875, -0.00209472, 0.00761066, 0.00392413, -0.00810016, -0.0125315, -0.0227065
0.0421375, 1.69127, -1.22807, -1.54077, -0.900645, -1.19339, 1.22786, -1.30257, 0.0148355, 0.00774787, -0.0685092, -0.0223357, -0.0734424, 0.000165893, 0.00705356, 0.737679, 59.4708, 28.0478, 6.32324, 1.89075, 3.34598, -0.120778, -6.0905e-05, -0.00221064, 0.00269264, 0.00437433, 0.000848305, 0.00147898, 0.0235419, 0.00519423, -0.0263496, -0.109932, 0.0804449, -0.0374402, 0.470987, -0.543312, 0.335934, -2.08379, -2.16589, -0.129827, 0.468684, -0.543048, 0.333332, -2.08259, -2.16214, -0.125686, -0.00222183, 0.00807884, 0.00416491, -0.00751866, -0.0113203, -0.0253499
0.0431375, 1.69128, -1.22804, -1.54084, -0.900664, -1.19347, 1.22786, -1.30257, 0.0127689, 0.0147204, -0.0719384, -0.0203336, -0.0741333, 0.00315287, 0.00461832, 1.11457, 59.213, 28.2343, 6.20819, 1.89075, 3.39633, -0.101552, -8.81311e-05, -0.00222237, 0.00270689, 0.00447753, 0.00075105, 0.00152024, 0.0260857, 0.00694953, -0.0229817, -0.109015, 0.0897465, -0.0412241, 0.470984, -0.543304, 0.335938, -2.08378, -2.16589, -0.129821, 0.46867, -0.543065, 0.333319, -2.08262, -2.16211, -0.125462, -0.00235303, 0.00856251, 0.00441363, -0.00919008, -0.0139382, -0.0221173
0.0441375, 1.69129, -1.22802, -1.54089, -0.900693, -1.19355, 1.22786, -1.30256, 0.0115281, 0.0133991, -0.0697388, -0.0218491, -0.0755231, 7.16014e-05, 0.00524532, 1.49146, 59.213, 28.2343, 6.20819, 1.91546, 3.46042, -0.147328, -0.000110443, -0.00222767, 0.00272631, 0.00457476, 0.00066783, 0.00154954, 0.0263441, 0.00749523, -0.0235608, -0.111273, 0.0883433, -0.0415591, 0.470982, -0.543295, 0.335942, -2.08378, -2.16589, -0.129815, 0.468663, -0.543076, 0.3333, -2.08264, -2.1621, -0.125261, -0.00248832, 0.00906169, 0.00467028, -0.00988201, -0.0136275, -0.022456
0.0451375, 1.6913, -1.22801, -1.54095, -0.900711, -1.19363, 1.22786, -1.30256, 0.0117625, 0.0124613, -0.0665861, -0.0226341, -0.0810001, -0.0012885, 0.00239208, 1.83265, 59.213, 28.3097, 6.0614, 1.93927, 3.50345, -0.10796, -0.000136219, -0.00223419, 0.00274266, 0.00466633, 0.000578767, 0.00158071, 0.0269365, 0.00735639, -0.0234061, -0.112965, 0.0914474, -0.0385249, 0.47098, -0.543286, 0.335947, -2.08377, -2.1659, -0.129808, 0.468654, -0.54309, 0.333285, -2.08266, -2.16208, -0.125059, -0.00262768, 0.00957641, 0.00493487, -0.00985586, -0.0137158, -0.0221347
0.0461375, 1.69131, -1.22799, -1.54101, -0.900734, -1.19372, 1.22786, -1.30257, 0.00904243, 0.0112757, -0.0643713, -0.0210412, -0.0849529, -0.00253087, 0.00111368, 2.17384, 59.2487, 28.5319, 5.95032, 1.95758, 3.5538, -0.0878186, -0.000162398, -0.00224068, 0.00276232, 0.00476459, 0.000490651, 0.00161051, 0.0294876, 0.00937237, -0.0232401, -0.113105, 0.0928849, -0.0420141, 0.470977, -0.543277, 0.335952, -2.08376, -2.1659, -0.129801, 0.468645, -0.543104, 0.333267, -2.08268, -2.16207, -0.124851, -0.00277111, 0.0101066, 0.00520739, -0.0119152, -0.0158124, -0.0220332
0.0471375, 1.69133, -1.22799, -1.54104, -0.90075, -1.19382, 1.22786, -1.30256, 0.0121438, 0.00944836, -0.0589185, -0.0235904, -0.0829765, -0.00313612, 0.00144979, 2.43568, 59.4708, 28.6072, 5.72418, 1.9704, 3.59683, -0.101552, -0.000186349, -0.00224142, 0.00278108, 0.00484693, 0.0004094, 0.00163532, 0.0265299, 0.0058178, -0.0231371, -0.110024, 0.0895013, -0.0342054, 0.470974, -0.543267, 0.335957, -2.08375, -2.16591, -0.129793, 0.468642, -0.543115, 0.33325, -2.08269, -2.16206, -0.124667, -0.00291859, 0.0106523, 0.00548782, -0.00861494, -0.012217, -0.0212994
0.0481375, 1.69134, -1.22798, -1.54109, -0.900771, -1.19391, 1.22786, -1.30255, 0.00899278, 0.0109627, -0.0568186, -0.0212134, -0.086684, -0.00411836, 0.0032857, 2.77686, 59.5819, 28.9048, 5.57739, 2.00061, 3.65451, -0.160145, -0.000213615, -0.00224726, 0.00279608, 0.00494042, 0.000311979, 0.00167614, 0.0292898, 0.00823701, -0.0212807, -0.109271, 0.0935107, -0.0419743, 0.470971, -0.543256, 0.335962, -2.08375, -2.16592, -0.129785, 0.468634, -0.543129, 0.333236, -2.08273, -2.16204, -0.124453, -0.0030701, 0.0112135, 0.00577613, -0.0110164, -0.0147655, -0.019533
0.0491375, 1.69137, -1.22796, -1.54112, -0.900787, -1.19401, 1.22785, -1.30256, 0.0149782, 0.00832214, -0.0492191, -0.0206867, -0.0893686, -0.00476643, 0.000369459, 2.92762, 59.7287, 29.0912, 5.35126, 2.02533, 3.71127, -0.10796, -0.000233687, -0.00224447, 0.00280807, 0.0050219, 0.000222645, 0.00168666, 0.0265458, 0.00388113, -0.020632, -0.105592, 0.0928149, -0.0312979, 0.470968, -0.543245, 0.335968, -2.08374, -2.16592, -0.129777, 0.468634, -0.543136, 0.333227, -2.08274, -2.16206, -0.124262, -0.0032256, 0.01179, 0.00607228, -0.00689654, -0.0114014, -0.018302
0.0501375, 1.69139, -1.22795, -1.54116, -0.900802, -1.19411, 1.22785, -1.30255, 0.0176806, 0.00562971, -0.0428963, -0.0183409, -0.0960345, -0.00525276, 0.000567496, 3.11805, 59.9152, 29.3888, 5.16479, 2.05005, 3.76895, -0.114369, -0.00025872, -0.00224484, 0.00282016, 0.0051071, 0.000124014, 0.00171539, 0.0268858, 0.00241721, -0.0200301, -0.103383, 0.095243, -0.0305254, 0.470965, -0.543234, 0.335974, -2.08373, -2.16593, -0.129768, 0.46863, -0.543147, 0.333217, -2.08276, -2.16205, -0.124056, -0.00338507, 0.0123818, 0.00637623, -0.00555997, -0.0111779, -0.0175007
0.0511375, 1.69141, -1.22795, -1.54119, -0.90082, -1.19422, 1.22785, -1.30255, 0.0166359, -0.00219811, -0.0401145, -0.0153214, -0.10074, -0.00504971, 0.000915922, 3.30451, 60.3555, 29.6506, 5.05371, 2.06195, 3.81198, -0.127186, -0.000284885, -0.00224362, 0.00284016, 0.00518828, 3.95268e-05, 0.0017385, 0.0299963, 0.00339218, -0.0233592, -0.102296, 0.0913468, -0.0351467, 0.470962, -0.543221, 0.335981, -2.08372, -2.16594, -0.129759, 0.468629, -0.543157, 0.3332, -2.08278, -2.16205, -0.123869, -0.00354847, 0.0129888, 0.00668792, -0.00670593, -0.0131695, -0.0209293
0.0521375, 1.69143, -1.22794, -1.54121, -0.900829, -1.19433, 1.22785, -1.30254, 0.0178786, -0.000144491, -0.033951, -0.0120332, -0.10027, -0.00465454, 0.00187847, 3.53065, 60.6134, 29.8728, 4.90295, 2.09949, 3.84768, -0.160145, -0.00031322, -0.00224516, 0.00284928, 0.00526165, -5.8745e-05, 0.001775, 0.0295687, 0.00209756, -0.0197532, -0.0950734, 0.0929972, -0.0352171, 0.470958, -0.543208, 0.335987, -2.08371, -2.16594, -0.129749, 0.468624, -0.543171, 0.333193, -2.08282, -2.16205, -0.123674, -0.00371575, 0.0136108, 0.00700727, -0.00546504, -0.0126273, -0.0170219
0.0531375, 1.69145, -1.22794, -1.54123, -0.900852, -1.19444, 1.22785, -1.30255, 0.0195891, -0.0011474, -0.0293392, -0.0148153, -0.104055, -0.00412841, 0.00413091, 3.72108, 60.9824, 30.095, 4.97833, 2.12421, 3.87607, -0.10796, -0.000338283, -0.00224261, 0.00286186, 0.00533963, -0.00015655, 0.00178957, 0.0286123, -0.000143617, -0.0193524, -0.0942931, 0.0958119, -0.0329154, 0.470955, -0.543195, 0.335994, -2.0837, -2.16595, -0.129738, 0.468623, -0.54318, 0.333184, -2.08283, -2.16207, -0.123477, -0.00388686, 0.0142477, 0.0073342, -0.00341759, -0.0110159, -0.0162184
0.0541375, 1.69146, -1.22793, -1.54126, -0.900866, -1.19456, 1.22784, -1.30254, 0.0169934, 0.000802499, -0.0276508, -0.0146619, -0.107457, -0.00541171, 0.00365319, 3.94721, 61.2402, 30.3925, 4.97833, 2.16083, 3.94839, -0.120778, -0.00037013, -0.00224747, 0.00287391, 0.00542511, -0.000258367, 0.0018261, 0.0305175, 0.00154649, -0.0177795, -0.0951617, 0.10015, -0.0360568, 0.470951, -0.54318, 0.336002, -2.08369, -2.16596, -0.129728, 0.468615, -0.543196, 0.333174, -2.08287, -2.16206, -0.123264, -0.00406174, 0.0148993, 0.00766863, -0.005155, -0.0125566, -0.0145754
0.0551375, 1.69148, -1.22792, -1.54128, -0.900883, -1.19468, 1.22783, -1.30254, 0.0168212, 0.00147611, -0.024572, -0.0138914, -0.109604, -0.00569563, 0.00397456, 4.09797, 61.5338, 30.6186, 5.08942, 2.18555, 4.00516, -0.153737, -0.000398617, -0.0022476, 0.00288402, 0.00550495, -0.000361017, 0.00185754, 0.031233, 0.00141537, -0.0164251, -0.093556, 0.102632, -0.0370437, 0.470947, -0.543166, 0.336009, -2.08368, -2.16597, -0.129716, 0.468612, -0.543208, 0.333168, -2.0829, -2.16206, -0.123057, -0.00424034, 0.0155655, 0.00801045, -0.00512779, -0.0128, -0.013011
0.0561375, 1.6915, -1.22793, -1.54129, -0.9009, -1.1948, 1.22783, -1.30254, 0.0205802, -0.004408, -0.0222146, -0.0161243, -0.115961, -0.00565117, 0.00589006, 4.21302, 61.9742, 30.8408, 5.2005, 2.21576, 4.05551, -0.10796, -0.000429763, -0.0022464, 0.00290232, 0.00558191, -0.000452895, 0.00188062, 0.0309559, -0.00117358, -0.0197795, -0.0968505, 0.102647, -0.0347432, 0.470942, -0.54315, 0.336017, -2.08367, -2.16597, -0.129705, 0.468609, -0.54322, 0.333153, -2.08292, -2.16207, -0.122865, -0.00442257, 0.0162459, 0.00835954, -0.00285573, -0.0112237, -0.0160093
0.0571375, 1.69152, -1.22792, -1.54131, -0.900925, -1.19493, 1.22782, -1.30253, 0.0233414, -0.000279244, -0.0187206, -0.0171538, -0.116538, -0.00640415, 0.00833968, 4.3241, 62.1964, 30.9876, 5.42664, 2.25238, 4.12692, -0.0814099, -0.000458005, -0.00224545, 0.00291194, 0.00566806, -0.000563654, 0.00190108, 0.029104, -0.00346446, -0.0167004, -0.095584, 0.107307, -0.0327561, 0.470938, -0.543134, 0.336026, -2.08366, -2.16598, -0.129692, 0.468606, -0.54323, 0.333147, -2.08294, -2.16208, -0.122643, -0.00460838, 0.0169405, 0.00871578, -0.000708461, -0.00908053, -0.0123945
0.0581375, 1.69153, -1.22792, -1.54132, -0.900943, -1.19506, 1.22782, -1.30253, 0.0230244, 0.00312145, -0.0203655, -0.0190237, -0.124572, -0.00561965, 0.00761053, 4.39948, 62.5296, 31.1741, 5.57739, 2.25238, 4.16354, -0.114369, -0.000492528, -0.00224672, 0.00292718, 0.0057499, -0.000667881, 0.00193571, 0.0311502, -0.0027579, -0.0156896, -0.100945, 0.118414, -0.0348448, 0.470933, -0.543117, 0.336034, -2.08364, -2.16599, -0.129679, 0.468601, -0.543245, 0.333135, -2.08297, -2.16208, -0.12243, -0.00479766, 0.0176488, 0.00907903, -0.00149314, -0.0105769, -0.0113292
0.0591375, 1.69156, -1.22791, -1.54134, -0.900965, -1.19519, 1.22781, -1.30253, 0.027295, 0.00525763, -0.0176357, -0.0211564, -0.130275, -0.00479301, 0.00569621, 4.39948, 62.7478, 31.3248, 5.76385, 2.25238, 4.19192, -0.114369, -0.000522665, -0.00224206, 0.00294157, 0.00583222, -0.000775334, 0.00195739, 0.0298535, -0.00576047, -0.0141525, -0.1023, 0.126273, -0.0280953, 0.470929, -0.543099, 0.336043, -2.08363, -2.166, -0.129666, 0.468602, -0.543255, 0.333126, -2.08299, -2.1621, -0.122214, -0.00499035, 0.0183707, 0.00944913, 0.00132213, -0.00868795, -0.00933093
0.0601375, 1.69157, -1.22791, -1.54135, -0.900979, -1.19532, 1.2278, -1.30253, 0.0231951, 0.00670474, -0.0139195, -0.0222227, -0.130173, -0.0047856, 0.00182296, 4.43916, 62.97, 31.4002, 5.79956, 2.24048, 4.23495, -0.0484509, -0.000559242, -0.00224417, 0.00295454, 0.00591146, -0.000880905, 0.00198415, 0.0312217, -0.00451808, -0.0121652, -0.0990625, 0.127852, -0.0261729, 0.470924, -0.543081, 0.336053, -2.08362, -2.16601, -0.129652, 0.468595, -0.543271, 0.333117, -2.08302, -2.16211, -0.122003, -0.00518633, 0.0191057, 0.00982594, 6.76178e-06, -0.00966047, -0.0071663
0.0611375, 1.69159, -1.22792, -1.54136, -0.900999, -1.19547, 1.2278, -1.30252, 0.0239938, 0.00281191, -0.0121775, -0.0217757, -0.131532, -0.00423898, 0.00329481, 4.43916, 63.2635, 31.5113, 5.91064, 2.2652, 4.26333, -0.0951428, -0.00059514, -0.00224174, 0.00297457, 0.00599491, -0.000984174, 0.00201779, 0.03213, -0.00537215, -0.0140211, -0.0982573, 0.125758, -0.0274198, 0.470918, -0.543062, 0.336063, -2.0836, -2.16602, -0.129638, 0.468593, -0.543284, 0.333101, -2.08305, -2.16211, -0.121788, -0.00538552, 0.0198537, 0.0102093, 0.000626109, -0.00948864, -0.00878229
0.0621375, 1.69161, -1.22792, -1.54138, -0.901019, -1.1956, 1.2278, -1.30252, 0.0214082, 0.00338924, -0.0165965, -0.0205755, -0.13155, -0.00309532, 0.00269653, 4.43916, 63.4103, 31.7335, 5.98602, 2.2652, 4.27066, -0.101552, -0.000633949, -0.00224164, 0.00299387, 0.00607993, -0.00109142, 0.00205444, 0.0354351, -0.00324632, -0.0151006, -0.100449, 0.127533, -0.0332051, 0.470913, -0.543042, 0.336073, -2.08359, -2.16603, -0.129623, 0.468588, -0.543299, 0.333086, -2.08308, -2.16211, -0.121566, -0.0055878, 0.0206142, 0.0105989, -0.00161933, -0.0119124, -0.00990676
0.0631375, 1.69164, -1.22793, -1.5414, -0.901035, -1.19575, 1.2278, -1.30252, 0.025259, -0.00131189, -0.0163085, -0.0179723, -0.137327, -0.00206209, 0.00199465, 4.3241, 63.6325, 31.8088, 5.98602, 2.29541, 4.27066, -0.101552, -0.000672731, -0.00223637, 0.00301596, 0.00616015, -0.00119888, 0.00208294, 0.0369562, -0.00468512, -0.0177698, -0.102084, 0.12851, -0.0333281, 0.470907, -0.543021, 0.336083, -2.08357, -2.16604, -0.129607, 0.468589, -0.543313, 0.333069, -2.08311, -2.16212, -0.12135, -0.00579309, 0.0213869, 0.0109948, -0.000429573, -0.0121717, -0.012426
0.0641375, 1.69166, -1.22794, -1.54141, -0.901057, -1.19589, 1.2278, -1.30252, 0.0268303, -0.00308912, -0.0154527, -0.0202481, -0.14121, -0.000831105, -0.00048919, 4.24873, 63.7793, 31.8445, 6.02173, 2.31372, 4.25601, -0.0484509, -0.000709809, -0.00223056, 0.00303638, 0.00624135, -0.00130694, 0.00209895, 0.037314, -0.00623539, -0.0190635, -0.103885, 0.131264, -0.0288092, 0.470902, -0.543, 0.336094, -2.08356, -2.16606, -0.129591, 0.468589, -0.543325, 0.333054, -2.08312, -2.16214, -0.121132, -0.00600136, 0.0221719, 0.0113968, 0.000876569, -0.0114772, -0.0134037
0.0651375, 1.69169, -1.22795, -1.54143, -0.90107, -1.19603, 1.2278, -1.30251, 0.0269691, -0.00374351, -0.0166182, -0.0195304, -0.144556, -0.000315895, 0.00175136, 4.21302, 63.8904, 31.9556, 5.95032, 2.33844, 4.2496, -0.101552, -0.000753174, -0.00222859, 0.00305871, 0.00631891, -0.00141138, 0.00214402, 0.0393397, -0.0058642, -0.0199889, -0.106094, 0.134184, -0.0338758, 0.470896, -0.542978, 0.336106, -2.08354, -2.16607, -0.129574, 0.468586, -0.543342, 0.333036, -2.08316, -2.16214, -0.120919, -0.00621258, 0.0229689, 0.0118049, 0.000334224, -0.0125531, -0.0142122
0.0661375, 1.69171, -1.22797, -1.54144, -0.901091, -1.19617, 1.2278, -1.30251, 0.0273241, -0.00700681, -0.0167091, -0.0207865, -0.14574, 6.12831e-05, 0.00125067, 4.17335, 64.1125, 32.031, 5.95032, 2.33844, 4.24228, -0.101552, -0.000794421, -0.00222383, 0.003087, 0.00640458, -0.00150904, 0.00217149, 0.0402749, -0.00651544, -0.022372, -0.10767, 0.132778, -0.0329763, 0.470889, -0.542955, 0.336118, -2.08352, -2.16608, -0.129557, 0.468585, -0.543356, 0.333014, -2.08318, -2.16214, -0.120705, -0.0064267, 0.0237778, 0.012219, 0.000717901, -0.0122741, -0.0163159
0.0671375, 1.69173, -1.22798, -1.54145, -0.901112, -1.19633, 1.2278, -1.30252, 0.0283844, -0.00675534, -0.0129045, -0.0216747, -0.147296, 4.13147e-05, -0.00130795, 4.09797, 64.2236, 32.0707, 5.95032, 2.35126, 4.24228, -0.0420422, -0.000835732, -0.00221835, 0.00310902, 0.00648984, -0.00162227, 0.0021912, 0.0399188, -0.00799663, -0.0213314, -0.105998, 0.134722, -0.0279851, 0.470883, -0.542931, 0.33613, -2.0835, -2.16609, -0.129539, 0.468585, -0.543369, 0.332998, -2.08319, -2.16216, -0.120476, -0.00664368, 0.0245986, 0.0126391, 0.00200541, -0.0112008, -0.0148579
0.0681375, 1.69176, -1.22799, -1.54147, -0.901131, -1.19648, 1.2278, -1.30251, 0.0290962, -0.00755149, -0.013107, -0.0207293, -0.147897, 0.000299155, 0.000632841, 4.02259, 64.3704, 32.1064, 5.87494, 2.34485, 4.23495, -0.0814099, -0.000878349, -0.00221155, 0.00313273, 0.00657582, -0.00173654, 0.00222262, 0.0410403, -0.00834075, -0.0220342, -0.106315, 0.135087, -0.0310332, 0.470876, -0.542906, 0.336143, -2.08349, -2.16611, -0.12952, 0.468585, -0.543383, 0.33298, -2.08322, -2.16217, -0.120243, -0.00686349, 0.0254311, 0.0130651, 0.00214443, -0.0113532, -0.01531
0.0691375, 1.69178, -1.22799, -1.54148, -0.901156, -1.19663, 1.2278, -1.30251, 0.0267846, -0.00558023, -0.0108708, -0.0250105, -0.151845, 0.0010135, 0.000694309, 4.06226, 64.4061, 32.031, 5.87494, 2.30182, 4.21298, -0.0878186, -0.00092149, -0.00220646, 0.00314973, 0.00665333, -0.00185731, 0.00225329, 0.0419146, -0.00824605, -0.0207718, -0.10744, 0.141378, -0.0306221, 0.470869, -0.542881, 0.336156, -2.08347, -2.16612, -0.129501, 0.468585, -0.543397, 0.33297, -2.08326, -2.16219, -0.120012, -0.00708609, 0.0262753, 0.013497, 0.00190496, -0.0115702, -0.0137642
0.0701375, 1.69181, -1.22799, -1.54149, -0.901177, -1.1968, 1.22781, -1.30251, 0.0282461, -0.00433839, -0.00981791, -0.024173, -0.155467, 0.00199829, 0.000997792, 3.98292, 64.4418, 32.1064, 5.83527, 2.27161, 4.17727, -0.101552, -0.000967399, -0.00220025, 0.00317046, 0.00674147, -0.00198614, 0.00228719, 0.0429213, -0.00901837, -0.0198254, -0.107438, 0.146572, -0.0316645, 0.470862, -0.542854, 0.336169, -2.08345, -2.16613, -0.129481, 0.468585, -0.543413, 0.332955, -2.08329, -2.16221, -0.11976, -0.00731145, 0.027131, 0.0139346, 0.00252198, -0.0118222, -0.0125715
0.0711375, 1.69184, -1.228, -1.54151, -0.901194, -1.19696, 1.22781, -1.30251, 0.0279416, -0.0112438, -0.0133719, -0.0249628, -0.152866, 0.00211223, -0.00128177, 3.94721, 64.5529, 32.1064, 5.72418, 2.23407, 4.15622, -0.0484509, -0.00101622, -0.00219444, 0.00319199, 0.00682399, -0.00211348, 0.00231646, 0.0446275, -0.00903794, -0.0255247, -0.11052, 0.138498, -0.0304106, 0.470855, -0.542827, 0.336183, -2.08343, -2.16615, -0.129461, 0.468584, -0.54343, 0.33294, -2.08332, -2.16223, -0.119516, -0.00753952, 0.0279981, 0.014378, 0.00216806, -0.0117622, -0.0180208
0.0721375, 1.69187, -1.22801, -1.54152, -0.901215, -1.19712, 1.22782, -1.30251, 0.0264617, -0.00963004, -0.0148222, -0.0244105, -0.155953, 0.00273069, -0.000331101, 3.83216, 64.6283, 32.1818, 5.68848, 2.19745, 4.12051, -0.0621838, -0.0010607, -0.00218311, 0.0032145, 0.00691006, -0.00224006, 0.00234206, 0.0472176, -0.0077679, -0.0251712, -0.112437, 0.143546, -0.0358015, 0.470847, -0.542799, 0.336197, -2.08341, -2.16616, -0.12944, 0.468589, -0.543442, 0.332925, -2.08335, -2.16226, -0.119269, -0.00777026, 0.0288765, 0.0148271, 0.000775633, -0.0135477, -0.0175856
0.0731375, 1.69191, -1.22801, -1.54153, -0.901237, -1.19729, 1.22783, -1.3025, 0.0274537, -0.005863, -0.0130966, -0.0238543, -0.15882, 0.00368551, 0.000739794, 3.75678, 64.5926, 32.1421, 5.6488, 2.17914, 4.07016, -0.0878186, -0.00110556, -0.00217098, 0.00323243, 0.00699434, -0.00237815, 0.00237129, 0.0478604, -0.00850014, -0.0225288, -0.111379, 0.150613, -0.0373341, 0.47084, -0.54277, 0.336212, -2.08339, -2.16618, -0.129418, 0.468594, -0.543455, 0.332915, -2.08338, -2.16229, -0.119011, -0.00800365, 0.0297661, 0.0152818, 0.00139333, -0.0136689, -0.0146434
0.0741375, 1.69194, -1.22801, -1.54155, -0.901257, -1.19747, 1.22783, -1.30251, 0.0314134, -0.00578776, -0.0137199, -0.019607, -0.161852, 0.00432203, 2.67974e-05, 3.6814, 64.664, 32.1818, 5.57739, 2.17914, 4.0198, -0.0750012, -0.00115523, -0.00216119, 0.00325563, 0.00708513, -0.00251543, 0.00239836, 0.0491202, -0.00964909, -0.0225651, -0.111761, 0.153908, -0.0384996, 0.470832, -0.542741, 0.336228, -2.08336, -2.16619, -0.129396, 0.468597, -0.54347, 0.332899, -2.08341, -2.16232, -0.118746, -0.00823965, 0.0306668, 0.015742, 0.00234943, -0.0139588, -0.0144491
0.0751375, 1.69198, -1.22802, -1.54157, -0.901275, -1.19764, 1.22784, -1.30251, 0.0325532, -0.00744866, -0.0142684, -0.0203517, -0.163712, 0.00420383, -0.00190868, 3.6814, 64.8108, 32.2175, 5.53772, 2.17273, 3.9841, -0.0228162, -0.00120867, -0.00215323, 0.0032812, 0.00717304, -0.00264891, 0.00243125, 0.0499977, -0.0103716, -0.0242122, -0.114267, 0.15448, -0.0363973, 0.470823, -0.54271, 0.336243, -2.08334, -2.16621, -0.129373, 0.468597, -0.543488, 0.332881, -2.08344, -2.16234, -0.118486, -0.00847821, 0.0315785, 0.0162078, 0.00280463, -0.0136303, -0.0157676
0.0761375, 1.69202, -1.22804, -1.54158, -0.901297, -1.19782, 1.22785, -1.3025, 0.0391975, -0.0126178, -0.013726, -0.0218801, -0.170383, 0.00493882, 0.000902368, 3.57032, 64.9973, 32.2175, 5.53772, 2.19104, 3.92642, -0.0814099, -0.00125831, -0.00213758, 0.00330969, 0.00726042, -0.00278237, 0.00246155, 0.0493541, -0.0142363, -0.0278574, -0.118829, 0.156136, -0.0339331, 0.470815, -0.542678, 0.33626, -2.08332, -2.16623, -0.129349, 0.468605, -0.5435, 0.332861, -2.08347, -2.16237, -0.118227, -0.0087193, 0.0325011, 0.016679, 0.00626752, -0.0113522, -0.0189134
0.0771375, 1.69202, -1.22804, -1.54158, -0.901297, -1.19782, 1.22785, -1.3025, 0.0391975, -0.0126178, -0.013726, -0.0218801, -0.170383, 0.00493882, 0.000902368, 3.57032, 64.9973, 32.2175, 5.53772, 2.19104, 3.92642, -0.0814099, -0.00129324, -0.00212967, 0.00332089, 0.00724379, -0.0027746, 0.0024797, 0.0503583, -0.0144551, -0.0281757, -0.119226, 0.156775, -0.0347183, 0.470806, -0.542646, 0.336276, -2.08329, -2.16625, -0.129324, 0.468605, -0.5435, 0.332861, -2.08347, -2.16237, -0.118227, -0.00896288, 0.0334345, 0.0171556, 0.00626752, -0.0113522, -0.0189134
0.0781375, 1.69202, -1.22804, -1.54158, -0.901297, -1.19782, 1.22785, -1.3025, 0.0391975, -0.0126178, -0.013726, -0.0218801, -0.170383, 0.00493882, 0.000902368, 3.57032, 64.9973, 32.2175, 5.53772, 2.19104, 3.92642, -0.0814099, -0.00132917, -0.00212155, 0.00333241, 0.00722668, -0.0027666, 0.00249836, 0.0513739, -0.0146759, -0.0284977, -0.119627, 0.157422, -0.0355118, 0.470797, -0.542612, 0.336293, -2.08327, -2.16626, -0.129299, 0.468605, -0.5435, 0.332861, -2.08347, -2.16237, -0.118227, -0.00920893, 0.0343785, 0.0176375, 0.00626752, -0.0113522, -0.0189134
0.0791375, 1.69214, -1.22806, -1.54163, -0.901344, -1.19835, 1.22786, -1.30251, 0.0450885, -0.00864171, -0.018997, -0.0163395, -0.178424, 0.00300811, -0.00083125, 3.41956, 65.3265, 32.3285, 5.42664, 2.19745, 3.87607, -0.0356336, -0.00141648, -0.00209835, 0.00338929, 0.00753172, -0.00318506, 0.00254953, 0.053543, -0.0146991, -0.0280229, -0.128011, 0.167727, -0.0389029, 0.470788, -0.542578, 0.336311, -2.08324, -2.16628, -0.129273, 0.46862, -0.543542, 0.332809, -2.08355, -2.16245, -0.117434, -0.00945739, 0.0353331, 0.0181247, 0.00613861, -0.0126109, -0.0182942
0.0801375, 1.69219, -1.22808, -1.54164, -0.901357, -1.19852, 1.22787, -1.3025, 0.048822, -0.0132784, -0.0172788, -0.0146581, -0.17618, 0.00701115, 0.00138009, 3.30451, 65.513, 32.3285, 5.38696, 2.19104, 3.86966, -0.0878186, -0.00146774, -0.00207895, 0.00341871, 0.0076132, -0.00331017, 0.00257819, 0.0534694, -0.0180241, -0.0300845, -0.122554, 0.163796, -0.0380208, 0.470779, -0.542543, 0.336329, -2.08322, -2.1663, -0.129247, 0.468631, -0.543553, 0.332789, -2.08358, -2.16248, -0.117187, -0.00970824, 0.0362982, 0.0186171, 0.00913087, -0.0111184, -0.0199273
0.0811375, 1.69224, -1.22809, -1.54166, -0.901376, -1.1987, 1.22788, -1.30251, 0.0495905, -0.0139832, -0.0168422, -0.0184885, -0.174335, 0.00507147, -0.00124897, 3.26881, 65.5844, 32.3682, 5.42664, 2.18555, 3.86966, -0.0292249, -0.00151931, -0.00206063, 0.0034453, 0.00770371, -0.00344662, 0.00259476, 0.052452, -0.0194851, -0.0314124, -0.125398, 0.161622, -0.0312528, 0.470769, -0.542506, 0.336348, -2.08319, -2.16632, -0.12922, 0.46864, -0.543562, 0.332773, -2.08359, -2.16252, -0.116919, -0.00996144, 0.0372736, 0.0191147, 0.0102518, -0.00887386, -0.0206276
0.0821375, 1.69229, -1.2281, -1.54168, -0.901392, -1.19887, 1.22789, -1.30251, 0.0482273, -0.0132856, -0.0156676, -0.0179939, -0.173419, 0.00367901, -0.00181516, 3.30451, 65.7312, 32.3682, 5.46234, 2.18555, 3.86966, -0.00267457, -0.00157278, -0.00204192, 0.00347492, 0.00778659, -0.00357295, 0.00261941, 0.0536281, -0.0188817, -0.0308979, -0.125063, 0.161387, -0.0324389, 0.470759, -0.542469, 0.336367, -2.08316, -2.16634, -0.129192, 0.46865, -0.543573, 0.332754, -2.08361, -2.16255, -0.116669, -0.010217, 0.0382593, 0.0196175, 0.00945574, -0.00915318, -0.0197807
0.0831375, 1.69234, -1.22811, -1.5417, -0.901406, -1.19904, 1.2279, -1.30251, 0.0495603, -0.0118528, -0.0186405, -0.0183469, -0.175952, 0.0026762, 0.000757209, 3.26881, 65.8423, 32.4039, 5.53772, 2.14801, 3.86966, -0.0557752, -0.00162667, -0.00202158, 0.00350445, 0.0078702, -0.00370191, 0.00264729, 0.0548836, -0.0189172, -0.03164, -0.130378, 0.165357, -0.0365154, 0.470749, -0.542431, 0.336386, -2.08313, -2.16636, -0.129163, 0.468661, -0.543582, 0.332736, -2.08363, -2.16258, -0.116414, -0.0104747, 0.0392552, 0.0201252, 0.00925237, -0.00928118, -0.0202012
0.0841375, 1.69239, -1.22811, -1.54171, -0.901412, -1.19921, 1.22791, -1.30251, 0.0525048, -0.00819987, -0.0161155, -0.0149682, -0.173809, 0.00117188, 0.000505275, 3.26881, 65.8423, 32.3682, 5.46234, 2.13611, 3.89071, -0.0557752, -0.00168203, -0.00200124, 0.00352496, 0.00794382, -0.00384343, 0.00267524, 0.0542206, -0.0203983, -0.0287503, -0.127438, 0.166826, -0.0353173, 0.470738, -0.542392, 0.336407, -2.0831, -2.16638, -0.129134, 0.468672, -0.543594, 0.332726, -2.08366, -2.16262, -0.116156, -0.0107348, 0.0402611, 0.020638, 0.0105537, -0.00800312, -0.0167774
0.0851375, 1.69245, -1.22812, -1.54173, -0.90142, -1.19939, 1.22792, -1.30251, 0.0544844, -0.00912375, -0.0179516, -0.0104322, -0.17307, 0.0054542, -0.00162949, 3.15376, 65.9891, 32.4793, 5.42664, 2.13611, 3.89804, -0.00267457, -0.00173751, -0.00197762, 0.00355685, 0.00802804, -0.00397246, 0.00269686, 0.0565432, -0.0212894, -0.0293871, -0.123649, 0.167896, -0.0366445, 0.470727, -0.542351, 0.336427, -2.08308, -2.1664, -0.129103, 0.468685, -0.543602, 0.332706, -2.08368, -2.16266, -0.1159, -0.010997, 0.0412769, 0.0211557, 0.0112431, -0.00914521, -0.0172756
0.0861375, 1.6925, -1.22813, -1.54174, -0.901433, -1.19956, 1.22793, -1.30251, 0.055474, -0.00884858, -0.0153522, -0.0127913, -0.167369, 0.00860878, -0.00132342, 3.19343, 66.1002, 32.4396, 5.50201, 2.1297, 3.91269, 0.00373412, -0.00179351, -0.00195531, 0.00358362, 0.0081011, -0.00410194, 0.00272072, 0.0551474, -0.024292, -0.0287612, -0.117643, 0.165845, -0.031604, 0.470716, -0.54231, 0.336448, -2.08304, -2.16642, -0.129072, 0.468698, -0.543612, 0.332692, -2.0837, -2.1627, -0.115654, -0.0112614, 0.0423026, 0.0216783, 0.0139501, -0.00671258, -0.0160104
0.0871375, 1.69256, -1.22813, -1.54176, -0.90144, -1.19973, 1.22794, -1.3025, 0.0539536, -0.00685998, -0.0174185, -0.012657, -0.168329, 0.0106471, 0.00203404, 3.19343, 66.1359, 32.5547, 5.50201, 2.13611, 3.93374, -0.0750012, -0.00185167, -0.00193282, 0.00360927, 0.00817883, -0.00423999, 0.00275542, 0.0576204, -0.0235074, -0.0283894, -0.118087, 0.170416, -0.0387835, 0.470705, -0.542268, 0.33647, -2.08301, -2.16645, -0.129041, 0.46871, -0.543622, 0.332678, -2.08373, -2.16274, -0.115392, -0.011528, 0.0433381, 0.0222057, 0.0130043, -0.00820803, -0.0154749
0.0881375, 1.69262, -1.22815, -1.54177, -0.901449, -1.1999, 1.22795, -1.30251, 0.0557233, -0.0090293, -0.0127898, -0.0133824, -0.168918, 0.0120996, -0.000101886, 3.07838, 66.3223, 32.5547, 5.53772, 2.13611, 3.95572, -0.0356336, -0.00190529, -0.00190403, 0.00363902, 0.00825188, -0.00436305, 0.0027682, 0.0572539, -0.0259683, -0.028444, -0.11428, 0.169995, -0.0330608, 0.470694, -0.542224, 0.336492, -2.08298, -2.16647, -0.129008, 0.468728, -0.543626, 0.332662, -2.08374, -2.16279, -0.115153, -0.0117966, 0.0443832, 0.0227379, 0.0151787, -0.00668999, -0.0150151
0.0891375, 1.69268, -1.22815, -1.54179, -0.901459, -1.20007, 1.22796, -1.30251, 0.0553814, -0.00609025, -0.0128433, -0.0116939, -0.169915, 0.0141431, -0.000305172, 3.003, 66.3223, 32.7015, 5.6131, 2.16083, 3.96213, -0.0292249, -0.00196257, -0.0018773, 0.00366454, 0.00833101, -0.00450579, 0.00279091, 0.0591887, -0.0258389, -0.0266517, -0.112354, 0.175316, -0.0359646, 0.470682, -0.54218, 0.336515, -2.08295, -2.16649, -0.128975, 0.468744, -0.543633, 0.33265, -2.08376, -2.16284, -0.114885, -0.0120673, 0.0454378, 0.0232748, 0.0149158, -0.00782581, -0.0130042
0.0901375, 1.69274, -1.22816, -1.5418, -0.901459, -1.20024, 1.22797, -1.3025, 0.0560409, -0.0083821, -0.0132202, -0.00990004, -0.169473, 0.0094003, 3.39944e-05, 3.04267, 66.5048, 32.7372, 5.53772, 2.14801, 3.99783, -0.0356336, -0.00202364, -0.0018546, 0.00369327, 0.0083969, -0.00462301, 0.00282236, 0.060279, -0.0252073, -0.0286901, -0.116487, 0.170938, -0.0381088, 0.47067, -0.542135, 0.336538, -2.08291, -2.16652, -0.128941, 0.468756, -0.543643, 0.332635, -2.08378, -2.16287, -0.114656, -0.0123401, 0.0465019, 0.0238164, 0.013978, -0.00755093, -0.0146248
0.0911375, 1.69281, -1.22817, -1.54182, -0.901466, -1.20041, 1.22798, -1.3025, 0.0590223, -0.00655586, -0.0131, -0.00835486, -0.166095, 0.0110641, 0.000260084, 2.85224, 66.5445, 32.8879, 5.57739, 2.17914, 4.02713, -0.0420422, -0.00207988, -0.00182331, 0.0037232, 0.00847736, -0.00475638, 0.00284012, 0.0598818, -0.027459, -0.0277324, -0.113375, 0.17151, -0.0364825, 0.470657, -0.542088, 0.336562, -2.08288, -2.16654, -0.128906, 0.468776, -0.543646, 0.332619, -2.08379, -2.16292, -0.114394, -0.0126148, 0.0475753, 0.0243626, 0.0159736, -0.00613813, -0.0131404
0.0921375, 1.69287, -1.22817, -1.54183, -0.901472, -1.20057, 1.22798, -1.30251, 0.0612663, -0.00690606, -0.0123457, -0.00702523, -0.166898, 0.00691958, -0.00175934, 2.77686, 66.6516, 32.8879, 5.6131, 2.17914, 4.07016, 0.0101428, -0.00213507, -0.00179166, 0.00375065, 0.00854511, -0.00487799, 0.00284778, 0.0600478, -0.0279607, -0.0283249, -0.116883, 0.170409, -0.0342266, 0.470645, -0.542041, 0.336586, -2.08285, -2.16657, -0.128871, 0.468796, -0.543647, 0.332607, -2.08379, -2.16298, -0.11416, -0.0128915, 0.048658, 0.0249134, 0.0161831, -0.00510702, -0.0132158
0.0931375, 1.69293, -1.22818, -1.54184, -0.901478, -1.20073, 1.22799, -1.30251, 0.0621415, -0.00815289, -0.0137314, -0.00691181, -0.162534, 0.00468606, -0.00117286, 2.73719, 66.8024, 32.9633, 5.68848, 2.17273, 4.09122, 0.0101428, -0.00219469, -0.00176369, 0.0037799, 0.00861167, -0.00499577, 0.0028658, 0.0601739, -0.0285376, -0.0301468, -0.118639, 0.165343, -0.0341385, 0.470632, -0.541992, 0.336611, -2.08281, -2.16659, -0.128834, 0.468812, -0.543652, 0.332593, -2.0838, -2.16302, -0.113928, -0.0131701, 0.0497497, 0.0254687, 0.016419, -0.00383538, -0.0144969
0.0941375, 1.693, -1.22819, -1.54186, -0.901479, -1.20089, 1.22799, -1.30251, 0.0630704, -0.00628726, -0.0116831, -0.00495668, -0.1601, 0.00267865, -0.000307163, 2.55073, 66.8381, 33.0387, 5.68848, 2.19104, 4.12051, -0.00267457, -0.00225227, -0.00173216, 0.00380738, 0.00868194, -0.00511701, 0.00288741, 0.060238, -0.02911, -0.0286475, -0.116963, 0.164694, -0.0349722, 0.470619, -0.541942, 0.336637, -2.08277, -2.16662, -0.128797, 0.468831, -0.543654, 0.332582, -2.08381, -2.16307, -0.113688, -0.0134506, 0.0508506, 0.0260284, 0.0167685, -0.0030036, -0.0124842
0.0951375, 1.69307, -1.22819, -1.54187, -0.901489, -1.20105, 1.228, -1.3025, 0.064182, -0.00503931, -0.0132025, -0.00699974, -0.15629, 0.000943095, 0.00199929, 2.47535, 66.8738, 33.1101, 5.83527, 2.17273, 4.15622, -0.0621838, -0.00230871, -0.00170075, 0.00383407, 0.00875316, -0.00523701, 0.0029076, 0.0596003, -0.0302657, -0.0293187, -0.119501, 0.163043, -0.0347959, 0.470605, -0.541891, 0.336663, -2.08274, -2.16665, -0.128759, 0.46885, -0.543653, 0.332572, -2.08382, -2.16311, -0.113447, -0.013733, 0.0519604, 0.0265925, 0.0175932, -0.0011123, -0.0125196
0.0961375, 1.69314, -1.22819, -1.54189, -0.901492, -1.20121, 1.228, -1.30251, 0.0629551, -0.0042042, -0.0162838, -0.00579072, -0.15573, 0.000988549, -0.000362545, 2.3603, 66.9095, 33.2609, 5.87494, 2.19104, 4.15622, -0.0164075, -0.00236938, -0.0016695, 0.00386239, 0.00882408, -0.00536046, 0.00292317, 0.0621588, -0.0290668, -0.0300557, -0.121538, 0.164238, -0.0369333, 0.470592, -0.541839, 0.33669, -2.0827, -2.16667, -0.128721, 0.468869, -0.543655, 0.33256, -2.08382, -2.16317, -0.113203, -0.0140172, 0.053079, 0.027161, 0.0161791, -0.00245613, -0.0130383
0.0971375, 1.69321, -1.22819, -1.54189, -0.9015, -1.20137, 1.22799, -1.30251, 0.0645981, -0.00457312, -0.0134118, -0.00660609, -0.160223, -0.000393532, -0.000241685, 2.13416, 66.9849, 33.3362, 5.98602, 2.22217, 4.19192, -0.0164075, -0.00242404, -0.00163299, 0.00389223, 0.00890134, -0.00547669, 0.00292863, 0.0625849, -0.030185, -0.0299424, -0.123441, 0.167584, -0.0357743, 0.470578, -0.541786, 0.336717, -2.08266, -2.1667, -0.128681, 0.468892, -0.54365, 0.332548, -2.0838, -2.16322, -0.112959, -0.0143032, 0.0542063, 0.0277337, 0.0170306, -0.00171942, -0.0124541
0.0981375, 1.69328, -1.22821, -1.54191, -0.901513, -1.20153, 1.228, -1.3025, 0.0629049, -0.00732294, -0.0121343, -0.00887612, -0.15962, 0.00021131, 0.00078832, 2.02308, 67.1674, 33.4473, 6.17248, 2.27161, 4.1846, -0.0420422, -0.00248573, -0.00159989, 0.00392774, 0.00897608, -0.0055916, 0.00294527, 0.0638163, -0.0304554, -0.031665, -0.123023, 0.16549, -0.0365456, 0.470563, -0.541732, 0.336744, -2.08262, -2.16673, -0.128641, 0.468912, -0.54365, 0.33253, -2.0838, -2.16327, -0.112717, -0.0145909, 0.0553423, 0.0283107, 0.0169956, -0.00152283, -0.0137771
0.0991375, 1.69334, -1.2282, -1.54192, -0.90152, -1.2017, 1.228, -1.3025, 0.063565, -0.00405073, -0.0143006, -0.00859864, -0.163069, 0.000563939, 0.000288194, 1.9477, 67.1317, 33.5584, 6.28357, 2.30182, 4.17727, -0.0356336, -0.00255033, -0.00157033, 0.00395403, 0.00904842, -0.00572092, 0.00296766, 0.0657021, -0.0302519, -0.0308412, -0.12638, 0.172666, -0.038838, 0.470549, -0.541677, 0.336773, -2.08258, -2.16676, -0.128599, 0.468928, -0.543654, 0.332522, -2.08381, -2.16332, -0.112462, -0.0148804, 0.0564869, 0.0288918, 0.0166036, -0.00237444, -0.0126681
0.100137, 1.69342, -1.22821, -1.54194, -0.901523, -1.20187, 1.228, -1.30251, 0.0642874, -0.00353869, -0.0135658, -0.00579451, -0.165896, 0.00154097, -0.00150329, 1.75727, 67.1674, 33.7052, 6.28357, 2.33844, 4.14889, 0.0101428, -0.00261447, -0.001536, 0.00398345, 0.00911929, -0.00584712, 0.002982, 0.0679119, -0.0302693, -0.0302222, -0.125424, 0.176481, -0.0403433, 0.470534, -0.54162, 0.336802, -2.08254, -2.16679, -0.128557, 0.468949, -0.543655, 0.332511, -2.08381, -2.16338, -0.112212, -0.0151716, 0.0576399, 0.0294771, 0.0164351, -0.00349672, -0.0118141
0.101137, 1.69348, -1.22821, -1.54195, -0.901541, -1.20203, 1.228, -1.3025, 0.0659613, -0.00328939, -0.0135577, -0.0122952, -0.163976, 0.00165523, 0.000693233, 1.64619, 67.207, 33.7449, 6.5097, 2.39429, 4.13424, -0.0356336, -0.00267698, -0.0015027, 0.0040143, 0.00919503, -0.00596801, 0.00299864, 0.0661036, -0.0331658, -0.0314384, -0.128183, 0.176655, -0.0354988, 0.470519, -0.541563, 0.336831, -2.08249, -2.16682, -0.128514, 0.468968, -0.543653, 0.332499, -2.08381, -2.16343, -0.111961, -0.0154644, 0.0588012, 0.0300665, 0.0189245, -0.000241116, -0.0122353
0.102137, 1.69355, -1.22822, -1.54196, -0.901554, -1.20219, 1.228, -1.3025, 0.0669299, -0.00562828, -0.0122349, -0.0110881, -0.161571, 0.0014388, 0.00120814, 1.53114, 67.3538, 33.8559, 6.62079, 2.43732, 4.12692, -0.0557752, -0.00274209, -0.00146843, 0.0040499, 0.00926906, -0.00608136, 0.00301533, 0.0667317, -0.0342133, -0.0326467, -0.126342, 0.172886, -0.0355917, 0.470503, -0.541504, 0.336861, -2.08245, -2.16685, -0.128471, 0.468988, -0.543651, 0.332483, -2.0838, -2.16348, -0.111718, -0.0157588, 0.0599708, 0.0306599, 0.0196557, 0.000538569, -0.0129647
0.103137, 1.69361, -1.22822, -1.54197, -0.901573, -1.20235, 1.228, -1.30251, 0.0680293, 0.00240312, -0.0112036, -0.0111383, -0.159497, 0.000464693, -0.00116126, 1.41608, 67.3538, 33.967, 6.77154, 2.46112, 4.14157, -0.00267457, -0.00280575, -0.00143439, 0.0040814, 0.00934869, -0.00620143, 0.00302093, 0.0660333, -0.0351983, -0.0280918, -0.125304, 0.17947, -0.0320659, 0.470487, -0.541444, 0.336892, -2.08241, -2.16688, -0.128426, 0.469007, -0.543648, 0.332472, -2.08378, -2.16354, -0.111463, -0.0160548, 0.0611486, 0.0312573, 0.0204876, 0.00174931, -0.00779193
0.104137, 1.69368, -1.22822, -1.54198, -0.90159, -1.20251, 1.228, -1.30251, 0.0717359, 0.00127896, -0.00864063, -0.0133529, -0.163132, 0.000345818, -0.000265544, 1.18995, 67.3895, 34.0027, 6.88263, 2.49866, 4.14157, -0.0164075, -0.00286956, -0.00139583, 0.00411319, 0.00941999, -0.00632351, 0.00303003, 0.0652892, -0.0380894, -0.0287427, -0.127031, 0.182246, -0.0282963, 0.470471, -0.541383, 0.336923, -2.08236, -2.16691, -0.128381, 0.469031, -0.543643, 0.332461, -2.08377, -2.1636, -0.111214, -0.0163524, 0.0623344, 0.0318586, 0.0230269, 0.00389234, -0.00780783
0.105137, 1.69376, -1.22823, -1.542, -0.901607, -1.20268, 1.228, -1.3025, 0.0699505, -0.00136174, -0.0117534, -0.0142539, -0.159727, 0.000528829, 0.00151839, 1.00349, 67.5006, 34.1178, 6.95801, 2.49866, 4.13424, -0.0621838, -0.00293483, -0.00135692, 0.00414798, 0.0094928, -0.00644141, 0.00304329, 0.0673295, -0.0374673, -0.0318214, -0.128869, 0.177953, -0.0323191, 0.470455, -0.54132, 0.336955, -2.08231, -2.16694, -0.128334, 0.469054, -0.543639, 0.332447, -2.08376, -2.16366, -0.110965, -0.0166515, 0.0635282, 0.0324637, 0.0220689, 0.00351879, -0.0105395
0.106137, 1.69382, -1.22823, -1.54201, -0.901622, -1.20283, 1.228, -1.3025, 0.0690686, -0.000619768, -0.0129928, -0.0171723, -0.158331, 0.000372816, -0.00020844, 0.928108, 67.5006, 34.1892, 6.99371, 2.52338, 4.13424, -0.0292249, -0.00300444, -0.00132283, 0.00417944, 0.0095605, -0.00655968, 0.0030572, 0.0680448, -0.0377888, -0.032596, -0.131107, 0.178588, -0.0300307, 0.470438, -0.541257, 0.336987, -2.08227, -2.16698, -0.128287, 0.469073, -0.543638, 0.332437, -2.08375, -2.16372, -0.110722, -0.0169521, 0.0647298, 0.0330727, 0.0220882, 0.00414753, -0.0108162
0.107137, 1.69388, -1.22823, -1.54202, -0.901654, -1.203, 1.228, -1.30251, 0.0691861, 0.000638082, -0.0124172, -0.0238923, -0.156433, 0.000535008, -0.00135966, 0.813057, 67.4649, 34.1892, 7.21588, 2.52887, 4.12692, 0.00373412, -0.00306918, -0.00128475, 0.00420967, 0.00963659, -0.0066857, 0.00305572, 0.0667124, -0.0399556, -0.0329771, -0.13314, 0.179752, -0.0229772, 0.470421, -0.541192, 0.337021, -2.08222, -2.16701, -0.128239, 0.469095, -0.543631, 0.332429, -2.08372, -2.16379, -0.110462, -0.0172541, 0.0659392, 0.0336855, 0.0238879, 0.00682342, -0.010441
0.108137, 1.69395, -1.22823, -1.54202, -0.901678, -1.20315, 1.228, -1.30251, 0.0661556, -0.000247798, -0.0121423, -0.0244384, -0.15853, 0.00114796, 7.69028e-05, 0.701973, 67.5006, 34.1892, 7.25555, 2.52338, 4.10586, -0.0228162, -0.0031374, -0.00124693, 0.00424112, 0.00969915, -0.00680107, 0.0030667, 0.069704, -0.0385833, -0.0336673, -0.133701, 0.181646, -0.0284692, 0.470404, -0.541126, 0.337054, -2.08217, -2.16705, -0.12819, 0.469117, -0.543626, 0.33242, -2.08371, -2.16386, -0.110225, -0.0175576, 0.0671563, 0.0343019, 0.0223003, 0.00513586, -0.0109266
0.109137, 1.69401, -1.22823, -1.54203, -0.901702, -1.2033, 1.228, -1.3025, 0.0644989, -0.00264213, -0.00888602, -0.0247939, -0.150859, 0.000773857, 0.000763346, 0.586922, 67.6117, 34.1892, 7.29126, 2.49866, 4.10586, -0.0420422, -0.00320631, -0.00120868, 0.00427568, 0.00976232, -0.00690884, 0.00307597, 0.06964, -0.0394251, -0.0343504, -0.128209, 0.173383, -0.0273161, 0.470387, -0.541059, 0.337088, -2.08212, -2.16708, -0.12814, 0.469139, -0.54362, 0.332408, -2.08369, -2.16392, -0.109995, -0.0178624, 0.068381, 0.034922, 0.0228096, 0.00656504, -0.0109974
0.110137, 1.69407, -1.22824, -1.54203, -0.901739, -1.20346, 1.228, -1.30251, 0.061973, -0.00250549, -0.00651737, -0.031009, -0.146193, 0.000251049, -0.000677897, 0.511544, 67.6474, 34.1892, 7.44202, 2.49866, 4.11319, -0.00999879, -0.00327429, -0.00116932, 0.00431148, 0.00983215, -0.00702054, 0.00307265, 0.0687662, -0.040522, -0.0346269, -0.127442, 0.170578, -0.021242, 0.470369, -0.54099, 0.337123, -2.08207, -2.16712, -0.128089, 0.469162, -0.543612, 0.332396, -2.08366, -2.16399, -0.109754, -0.0181686, 0.0696132, 0.0355458, 0.0235574, 0.00874988, -0.0105459
0.111137, 1.69413, -1.22823, -1.54204, -0.901769, -1.20361, 1.228, -1.30251, 0.0640916, -0.000766755, -0.00571795, -0.0329151, -0.146355, 0.000985976, -0.000960558, 0.400459, 67.6117, 34.2289, 7.47772, 2.46753, 4.09122, 0.00373412, -0.00334467, -0.00113024, 0.0043433, 0.00989391, -0.00713604, 0.00307681, 0.0683794, -0.0426419, -0.0340392, -0.127741, 0.173841, -0.017915, 0.470351, -0.540921, 0.337159, -2.08202, -2.16715, -0.128038, 0.469184, -0.543605, 0.332388, -2.08364, -2.16407, -0.109516, -0.0184762, 0.0708527, 0.036173, 0.0253757, 0.0103723, -0.00934477
0.112137, 1.69419, -1.22823, -1.54204, -0.901805, -1.20376, 1.228, -1.3025, 0.0626525, -0.000459902, -0.00414573, -0.0314173, -0.146779, -0.0041105, 0.00105505, 0.285408, 67.6117, 34.2289, 7.51739, 2.44922, 4.08389, -0.0420422, -0.00341565, -0.0010919, 0.00437531, 0.00996021, -0.00725275, 0.00308609, 0.0700007, -0.041061, -0.0338777, -0.130526, 0.172531, -0.0231133, 0.470332, -0.54085, 0.337195, -2.08197, -2.16719, -0.127985, 0.469205, -0.543598, 0.33238, -2.08362, -2.16413, -0.10927, -0.018785, 0.0720996, 0.0368038, 0.0235559, 0.00992781, -0.00875619
0.113137, 1.69425, -1.22823, -1.54203, -0.901852, -1.20391, 1.22799, -1.3025, 0.0635567, 0.00149509, 0.000512335, -0.0360804, -0.146957, -0.0029205, 0.000703366, 0.0949785, 67.5363, 34.0781, 7.66418, 2.4245, 4.07748, -0.0420422, -0.00347966, -0.00104637, 0.00440271, 0.0100213, -0.00737316, 0.00307091, 0.0685843, -0.0438825, -0.0320807, -0.128151, 0.176213, -0.0166782, 0.470313, -0.540778, 0.337232, -2.08192, -2.16723, -0.127932, 0.469233, -0.543583, 0.332379, -2.08358, -2.16423, -0.109028, -0.0190951, 0.0733536, 0.0374381, 0.0260793, 0.012426, -0.0062168
0.114137, 1.6943, -1.22822, -1.54204, -0.901889, -1.20407, 1.228, -1.30251, 0.0620259, 0.00186078, 0.000153815, -0.0350801, -0.146787, -0.00144634, -0.000480525, -0.0161054, 67.5006, 34.0781, 7.62848, 2.38788, 4.05551, -0.0164075, -0.00355494, -0.00100773, 0.0044335, 0.0100794, -0.0074952, 0.0030718, 0.0710742, -0.0432916, -0.0320658, -0.126878, 0.177891, -0.0190269, 0.470294, -0.540705, 0.337269, -2.08186, -2.16726, -0.127878, 0.469254, -0.543578, 0.332373, -2.08356, -2.16431, -0.108786, -0.0194064, 0.0746148, 0.0380757, 0.0252728, 0.0112029, -0.00593132
0.115137, 1.69436, -1.22823, -1.54203, -0.901941, -1.20423, 1.228, -1.30251, 0.0595412, -0.00133631, 0.00605323, -0.0419306, -0.15228, -0.000927811, -0.00130369, -0.206535, 67.6117, 34.0781, 7.77924, 2.38147, 4.04819, 0.0101428, -0.00362695, -0.00096513, 0.00447265, 0.01015, -0.00760863, 0.00306378, 0.0717238, -0.044291, -0.0330445, -0.127438, 0.180466, -0.0146219, 0.470275, -0.54063, 0.337307, -2.08181, -2.1673, -0.127822, 0.469279, -0.543567, 0.33236, -2.08351, -2.1644, -0.108538, -0.0197189, 0.075883, 0.0387168, 0.0259475, 0.0120236, -0.00638875
0.116137, 1.69441, -1.22823, -1.54203, -0.901989, -1.2044, 1.228, -1.3025, 0.0535398, -0.00604294, 0.00759924, -0.0440483, -0.156256, -0.000523414, 0.00106365, -0.357292, 67.576, 34.0781, 7.81494, 2.36316, 4.04086, -0.0420422, -0.00370369, -0.000926736, 0.00450444, 0.0102171, -0.0077364, 0.00307421, 0.0760663, -0.041654, -0.0356343, -0.128572, 0.179982, -0.0225729, 0.470255, -0.540554, 0.337346, -2.08175, -2.16734, -0.127766, 0.469299, -0.54356, 0.332355, -2.0835, -2.16447, -0.108277, -0.0200326, 0.0771581, 0.0393611, 0.0230671, 0.00929714, -0.00889081
0.117137, 1.69446, -1.22823, -1.54203, -0.90204, -1.20456, 1.228, -1.30251, 0.0541605, -0.00535197, 0.00470314, -0.0460782, -0.154197, -0.00472896, -0.000748962, -0.583427, 67.6117, 34.1178, 7.85065, 2.34485, 4.0198, -0.00267457, -0.00377887, -0.000883986, 0.0045414, 0.0102832, -0.00785477, 0.00306592, 0.0762608, -0.0416715, -0.0373589, -0.135307, 0.178145, -0.0201398, 0.470235, -0.540477, 0.337386, -2.0817, -2.16738, -0.127709, 0.469323, -0.54355, 0.332345, -2.08346, -2.16456, -0.108027, -0.0203474, 0.07844, 0.0400087, 0.022714, 0.0106533, -0.00997706
0.118137, 1.69451, -1.22822, -1.54202, -0.902096, -1.20472, 1.228, -1.30251, 0.0516599, 0.00562178, 0.00625043, -0.0508197, -0.158172, -0.00339944, -0.000974026, -0.694511, 67.4649, 34.0027, 7.89032, 2.34485, 4.01248, 0.0101428, -0.0038579, -0.000846878, 0.00456696, 0.0103433, -0.00799129, 0.00306854, 0.0769492, -0.0414729, -0.0311637, -0.136061, 0.194098, -0.0201136, 0.470215, -0.540398, 0.337426, -2.08164, -2.16742, -0.127651, 0.469342, -0.543544, 0.332346, -2.08344, -2.16465, -0.107763, -0.0206634, 0.0797287, 0.0406595, 0.0224602, 0.0103061, -0.00330902
0.119137, 1.69455, -1.22822, -1.54202, -0.902154, -1.20488, 1.228, -1.3025, 0.0455843, 0.00231303, 0.00448476, -0.0544188, -0.161232, -0.00238357, 0.000808712, -0.884941, 67.5363, 34.0027, 7.92602, 2.34485, 4.00516, -0.0292249, -0.00393766, -0.000807751, 0.00460683, 0.0104142, -0.00810627, 0.00307303, 0.0813476, -0.0387298, -0.034256, -0.139714, 0.194912, -0.0275664, 0.470194, -0.540319, 0.337466, -2.08158, -2.16746, -0.127592, 0.469362, -0.543535, 0.332334, -2.08341, -2.16472, -0.107509, -0.0209804, 0.081024, 0.0413134, 0.0194544, 0.00761644, -0.0063024
0.120137, 1.69459, -1.22822, -1.54201, -0.902216, -1.20504, 1.228, -1.30251, 0.0419407, 0.00171873, 0.00582665, -0.0561597, -0.157613, -0.000286762, 0.000301782, -0.996025, 67.5363, 33.8917, 7.92602, 2.32013, 3.96213, -0.0228162, -0.00401847, -0.000769736, 0.00463948, 0.0104708, -0.00822485, 0.00307286, 0.0831259, -0.0383952, -0.0344441, -0.135865, 0.193202, -0.0283127, 0.470173, -0.540238, 0.337508, -2.08152, -2.1675, -0.127533, 0.46938, -0.543528, 0.332329, -2.08338, -2.16481, -0.107266, -0.0212984, 0.0823259, 0.0419705, 0.0188641, 0.00717832, -0.00609532
0.121137, 1.69463, -1.22821, -1.54201, -0.902286, -1.20519, 1.228, -1.30251, 0.0430503, 0.00294879, 0.00666166, -0.0633703, -0.154434, -0.000172374, -0.00101951, -1.26183, 67.4649, 33.7806, 8.03711, 2.2771, 3.95572, 0.0101428, -0.00409481, -0.000725811, 0.00467127, 0.0105301, -0.0083486, 0.00305635, 0.0810062, -0.0414277, -0.0349068, -0.13752, 0.193392, -0.0191939, 0.470152, -0.540155, 0.33755, -2.08146, -2.16755, -0.127472, 0.469405, -0.543514, 0.332327, -2.08333, -2.16492, -0.107015, -0.0216174, 0.0836343, 0.0426306, 0.0214784, 0.0107816, -0.00566012
0.122138, 1.69467, -1.2282, -1.542, -0.902352, -1.20535, 1.228, -1.30251, 0.0397387, 0.0078008, 0.00771349, -0.0628768, -0.158397, -0.000278834, -0.000204959, -1.48797, 67.3538, 33.7806, 8.03711, 2.27161, 3.95572, -0.00267457, -0.0041781, -0.000687975, 0.00470235, 0.0105921, -0.00847691, 0.00305981, 0.0841425, -0.0393632, -0.0318673, -0.137898, 0.202073, -0.0257181, 0.47013, -0.540072, 0.337592, -2.0814, -2.16759, -0.12741, 0.469423, -0.543506, 0.332325, -2.0833, -2.16501, -0.106754, -0.0219375, 0.084949, 0.0432937, 0.0193317, 0.00844729, -0.00241508
0.123138, 1.6947, -1.22819, -1.54199, -0.902426, -1.20551, 1.22801, -1.3025, 0.0370891, 0.0105837, 0.00726765, -0.0634367, -0.156458, 0.00104751, 0.00155878, -1.7141, 67.2784, 33.7052, 8.07678, 2.2652, 3.9191, -0.0484509, -0.00426167, -0.000648544, 0.00473429, 0.0106497, -0.0086046, 0.00306191, 0.0861625, -0.0386118, -0.0306517, -0.136368, 0.20479, -0.0303004, 0.470108, -0.539987, 0.337635, -2.08134, -2.16763, -0.127348, 0.469442, -0.543497, 0.332323, -2.08328, -2.1651, -0.106498, -0.0222584, 0.08627, 0.0439598, 0.0183849, 0.00755683, -0.000836881
0.124138, 1.69474, -1.22818, -1.54198, -0.902504, -1.20565, 1.228, -1.30251, 0.0349424, 0.00925191, 0.00595188, -0.0688471, -0.154942, 0.000843494, -0.000384966, -1.94024, 67.207, 33.6695, 8.18787, 2.25238, 3.91269, -0.00999879, -0.0043431, -0.000608684, 0.00476706, 0.0107103, -0.00872259, 0.00304951, 0.0870136, -0.0388276, -0.033, -0.139853, 0.203495, -0.0268885, 0.470086, -0.5399, 0.337679, -2.08127, -2.16768, -0.127284, 0.469461, -0.543485, 0.33232, -2.08323, -2.1652, -0.106248, -0.0225803, 0.0875972, 0.0446288, 0.0182243, 0.00841384, -0.002625
0.125138, 1.69477, -1.22817, -1.54197, -0.902586, -1.2058, 1.228, -1.30251, 0.0335129, 0.0121868, 0.00500681, -0.0740249, -0.154851, 0.00130698, -0.00076527, -2.16637, 67.0959, 33.6338, 8.22754, 2.2771, 3.89071, 0.00373412, -0.00442476, -0.000566926, 0.00479737, 0.0107663, -0.00884657, 0.00303691, 0.0875055, -0.0393423, -0.0326443, -0.142723, 0.207943, -0.0249379, 0.470063, -0.539813, 0.337724, -2.08121, -2.16772, -0.127219, 0.469482, -0.543472, 0.332321, -2.08318, -2.1653, -0.105997, -0.0229031, 0.0889305, 0.0453006, 0.0184502, 0.00923056, -0.00169407
0.126138, 1.69479, -1.22816, -1.54196, -0.902673, -1.20595, 1.228, -1.3025, 0.0314151, 0.00950762, 0.00770006, -0.0787646, -0.153903, 0.00136199, 0.000710523, -2.3568, 67.0602, 33.5941, 8.29895, 2.29541, 3.87607, -0.0292249, -0.00450945, -0.000528176, 0.00483211, 0.0108262, -0.00896242, 0.00303249, 0.0879795, -0.040158, -0.0342596, -0.142526, 0.205611, -0.0237414, 0.47004, -0.539724, 0.337769, -2.08114, -2.16777, -0.127154, 0.4695, -0.543459, 0.332318, -2.08314, -2.16539, -0.105748, -0.0232267, 0.0902698, 0.0459753, 0.0189004, 0.0103857, -0.00271354
0.127138, 1.69482, -1.22813, -1.54195, -0.902757, -1.2061, 1.22801, -1.3025, 0.0317293, 0.0142347, 0.00950105, -0.0807516, -0.154281, 0.00192025, 0.000711041, -2.62261, 66.8738, 33.5584, 8.29895, 2.32654, 3.84768, -0.0356336, -0.00459423, -0.000487106, 0.00485634, 0.0108745, -0.0090969, 0.00302483, 0.0880258, -0.0413575, -0.031519, -0.141732, 0.211883, -0.0221527, 0.470017, -0.539634, 0.337815, -2.08108, -2.16781, -0.127088, 0.46952, -0.543448, 0.332326, -2.08311, -2.16551, -0.105492, -0.0235512, 0.0916151, 0.0466527, 0.0198822, 0.0113193, 0.000625107
0.128138, 1.69484, -1.22812, -1.54194, -0.902856, -1.20624, 1.22801, -1.30251, 0.0268254, 0.017832, 0.0100538, -0.0856211, -0.149683, 0.00152226, -0.000746676, -2.80907, 66.8024, 33.5584, 8.44971, 2.35675, 3.84036, -0.00267457, -0.00467962, -0.000447225, 0.00488606, 0.0109323, -0.00922555, 0.00300849, 0.0888166, -0.0404542, -0.0301167, -0.141226, 0.21262, -0.0206455, 0.469994, -0.539542, 0.337862, -2.08101, -2.16786, -0.12702, 0.469539, -0.543434, 0.332329, -2.08306, -2.16562, -0.105232, -0.0238765, 0.0929661, 0.0473329, 0.0187411, 0.0116375, 0.00259662
0.129138, 1.69485, -1.22809, -1.54192, -0.902949, -1.20639, 1.22801, -1.30251, 0.0223932, 0.0167695, 0.0113623, -0.087989, -0.150189, 0.00204412, -0.000735143, -2.95983, 66.7627, 33.5187, 8.414, 2.36316, 3.81198, 0.00373412, -0.00476829, -0.000410183, 0.00491351, 0.0109814, -0.00934874, 0.00300228, 0.091519, -0.0390683, -0.0307825, -0.140925, 0.213109, -0.0235664, 0.46997, -0.539449, 0.337909, -2.08094, -2.16791, -0.126952, 0.469554, -0.543423, 0.332334, -2.08302, -2.16572, -0.104984, -0.0242025, 0.094323, 0.0480157, 0.0171114, 0.0103696, 0.00224893
0.130138, 1.69487, -1.22807, -1.54191, -0.903054, -1.20653, 1.22801, -1.3025, 0.0191926, 0.0168485, 0.009743, -0.0925196, -0.145792, 0.00266877, 0.000730608, -3.11059, 66.6913, 33.5941, 8.48541, 2.37598, 3.77627, -0.0292249, -0.00485712, -0.000371477, 0.00494207, 0.0110387, -0.00948269, 0.00299511, 0.0925849, -0.0388937, -0.0321792, -0.141918, 0.211207, -0.0246104, 0.469946, -0.539355, 0.337957, -2.08087, -2.16796, -0.126882, 0.469571, -0.54341, 0.332339, -2.08298, -2.16583, -0.104716, -0.0245292, 0.0956855, 0.0487012, 0.0166008, 0.0108872, 0.0013963
0.131138, 1.69489, -1.22805, -1.54189, -0.903149, -1.20668, 1.22802, -1.3025, 0.0195658, 0.0162392, 0.0105011, -0.0947587, -0.147244, 0.00258067, 0.000487072, -3.3764, 66.6516, 33.5941, 8.37433, 2.37598, 3.7543, -0.0292249, -0.00494523, -0.0003287, 0.00496699, 0.0110846, -0.00961679, 0.00298235, 0.0934043, -0.0398598, -0.0330538, -0.143693, 0.212829, -0.0232401, 0.469921, -0.539259, 0.338006, -2.0808, -2.168, -0.126812, 0.469591, -0.543396, 0.332348, -2.08294, -2.16595, -0.10446, -0.0248567, 0.0970535, 0.0493892, 0.017239, 0.0116233, 0.00106359
0.132138, 1.6949, -1.22803, -1.54187, -0.903259, -1.20683, 1.22802, -1.3025, 0.0160571, 0.0207953, 0.0159493, -0.0971857, -0.143755, 0.00276238, 0.000324715, -3.48748, 66.8024, 33.5187, 8.414, 2.38788, 3.72592, -0.0292249, -0.00503595, -0.000289209, 0.00499768, 0.0111329, -0.00974003, 0.00296755, 0.0935023, -0.0400275, -0.0290433, -0.137884, 0.215255, -0.0218736, 0.469896, -0.539162, 0.338055, -2.08073, -2.16805, -0.126741, 0.469608, -0.543382, 0.332352, -2.08289, -2.16607, -0.104211, -0.0251848, 0.0984271, 0.0500798, 0.0172385, 0.0122959, 0.00569424
0.133138, 1.6949, -1.228, -1.54185, -0.903372, -1.20697, 1.22802, -1.3025, 0.0066237, 0.0260996, 0.0183365, -0.104761, -0.140761, 0.00315709, 0.00167454, -3.56683, 66.7627, 33.6338, 8.44971, 2.39429, 3.69021, -0.0685925, -0.00513082, -0.000253587, 0.00502116, 0.0111818, -0.00988217, 0.00296969, 0.0953921, -0.0374411, -0.0260632, -0.136268, 0.219391, -0.0249921, 0.469871, -0.539064, 0.338106, -2.08066, -2.1681, -0.126669, 0.469621, -0.543373, 0.332364, -2.08287, -2.16618, -0.10394, -0.0255136, 0.099806, 0.0507728, 0.0145168, 0.0112425, 0.00912136
0.134138, 1.69491, -1.22798, -1.54183, -0.90348, -1.20712, 1.22802, -1.3025, 0.00849011, 0.0203987, 0.0232615, -0.109687, -0.144005, 0.0023708, 0.00135372, -3.75329, 66.9849, 33.6338, 8.33862, 2.4126, 3.68289, -0.0750012, -0.00522292, -0.000212726, 0.00505107, 0.0112296, -0.0100052, 0.00295666, 0.0946588, -0.0403599, -0.0289735, -0.137749, 0.217113, -0.0182149, 0.469845, -0.538964, 0.338156, -2.08059, -2.16815, -0.126595, 0.469639, -0.543358, 0.332369, -2.08282, -2.16629, -0.10369, -0.025843, 0.10119, 0.0514683, 0.0169662, 0.0139245, 0.00696294
0.135138, 1.69491, -1.22795, -1.54181, -0.903604, -1.20727, 1.22803, -1.3025, 0.00544454, 0.0211143, 0.0213748, -0.114638, -0.145996, 0.00371287, 0.000190402, -3.75329, 67.0206, 33.7449, 8.37433, 2.4245, 3.62521, -0.0557752, -0.00532078, -0.000178104, 0.00507503, 0.0112831, -0.0101537, 0.00294836, 0.096894, -0.0397179, -0.0300813, -0.141511, 0.2215, -0.0183939, 0.46982, -0.538862, 0.338208, -2.08052, -2.16821, -0.126521, 0.469651, -0.543348, 0.332381, -2.08278, -2.16642, -0.103407, -0.026173, 0.10258, 0.0521662, 0.0160418, 0.0132499, 0.00624284
0.136138, 1.69491, -1.22792, -1.54178, -0.903727, -1.20742, 1.22803, -1.3025, 0.00439606, 0.020338, 0.0258072, -0.116453, -0.148409, 0.00298095, -0.000381692, -3.79296, 67.2427, 33.7449, 8.33862, 2.45563, 3.61148, -0.0420422, -0.00541643, -0.000139469, 0.00510071, 0.0113288, -0.0102899, 0.00293157, 0.0978752, -0.0402195, -0.0296837, -0.140677, 0.223114, -0.0170645, 0.469793, -0.53876, 0.33826, -2.08044, -2.16826, -0.126446, 0.469666, -0.543334, 0.332392, -2.08273, -2.16654, -0.103144, -0.0265036, 0.103974, 0.0528664, 0.0162687, 0.0136387, 0.00716846
0.137138, 1.69491, -1.22789, -1.54175, -0.903854, -1.20757, 1.22803, -1.30249, 0.00540792, 0.0256344, 0.0262287, -0.117848, -0.144466, 0.00279891, 0.00171223, -3.90404, 67.3538, 33.8559, 8.29895, 2.46112, 3.58951, -0.0951428, -0.00551061, -9.86357e-05, 0.00512363, 0.0113776, -0.010433, 0.00291858, 0.0971487, -0.0417773, -0.0271446, -0.139508, 0.226151, -0.0166722, 0.469767, -0.538656, 0.338313, -2.08036, -2.16831, -0.12637, 0.469683, -0.543318, 0.332407, -2.08269, -2.16667, -0.10287, -0.0268347, 0.105374, 0.0535689, 0.0175667, 0.0154378, 0.0104405
0.138138, 1.6949, -1.22785, -1.54173, -0.903988, -1.20772, 1.22804, -1.30249, 0.00142383, 0.0290749, 0.0277401, -0.122756, -0.146489, 0.00318673, 0.00137884, -3.94372, 67.5006, 33.9313, 8.29895, 2.48584, 3.5538, -0.101552, -0.00560712, -5.84051e-05, 0.00514648, 0.0114207, -0.0105778, 0.00290274, 0.098783, -0.0409708, -0.0254768, -0.140737, 0.232565, -0.0171274, 0.46974, -0.538551, 0.338366, -2.08029, -2.16836, -0.126293, 0.469699, -0.543303, 0.332421, -2.08265, -2.16681, -0.102599, -0.0271662, 0.106779, 0.0542736, 0.016561, 0.0149407, 0.0125664
0.139138, 1.6949, -1.22781, -1.54171, -0.904128, -1.20786, 1.22804, -1.30249, 0.000629478, 0.0291977, 0.0253383, -0.127644, -0.15272, 0.00239452, -6.4115e-05, -3.94372, 67.6117, 34.1535, 8.33862, 2.49866, 3.54648, -0.0750012, -0.00570623, -2.25442e-05, 0.00517017, 0.0114806, -0.0107273, 0.00288683, 0.100839, -0.0406309, -0.0273999, -0.149139, 0.238902, -0.0165317, 0.469713, -0.538444, 0.338421, -2.08021, -2.16842, -0.126215, 0.469711, -0.543289, 0.332436, -2.0826, -2.16694, -0.102304, -0.0274983, 0.108188, 0.0549806, 0.0158988, 0.0146012, 0.0110685
0.140138, 1.69488, -1.22778, -1.54167, -0.904264, -1.20801, 1.22804, -1.30249, -0.00395145, 0.0307991, 0.0281635, -0.131688, -0.148329, 0.00210405, -0.00075482, -3.90404, 67.7942, 34.1892, 8.26324, 2.52338, 3.53274, -0.0557752, -0.00580718, 1.37187e-05, 0.00518979, 0.0115199, -0.0108721, 0.00287408, 0.101562, -0.0401643, -0.0262866, -0.146491, 0.237709, -0.0151781, 0.469685, -0.538336, 0.338476, -2.08013, -2.16847, -0.126136, 0.469723, -0.543276, 0.332455, -2.08256, -2.16707, -0.102036, -0.0278308, 0.109602, 0.0556897, 0.0151755, 0.015113, 0.0127809
0.141138, 1.69487, -1.22774, -1.54164, -0.904411, -1.20816, 1.22804, -1.30248, -0.00215307, 0.0318999, 0.0268002, -0.133057, -0.149689, 0.00089338, 0.00605257, -3.94372, 67.9807, 34.3757, 8.26324, 2.54718, 3.54648, -0.101552, -0.00590455, 5.41669e-05, 0.00521511, 0.011571, -0.0110116, 0.0028544, 0.10221, -0.0411334, -0.0269683, -0.150689, 0.240583, -0.0212763, 0.469658, -0.538226, 0.338531, -2.08005, -2.16853, -0.126055, 0.469738, -0.543257, 0.33247, -2.0825, -2.16721, -0.101759, -0.0281637, 0.111021, 0.0564009, 0.0158134, 0.0160409, 0.012688
0.142138, 1.69485, -1.2277, -1.54161, -0.90456, -1.2083, 1.22804, -1.30248, -0.00586272, 0.0337911, 0.0289911, -0.140709, -0.146174, 0.00110369, 0.00444008, -3.90404, 68.1274, 34.5621, 8.26324, 2.57831, 3.53274, -0.101552, -0.00600521, 9.20384e-05, 0.0052374, 0.0116154, -0.0111534, 0.00283717, 0.10182, -0.0418425, -0.0264068, -0.150372, 0.241049, -0.0155738, 0.469629, -0.538115, 0.338588, -2.07997, -2.16858, -0.125974, 0.469751, -0.54324, 0.332487, -2.08245, -2.16734, -0.101487, -0.028497, 0.112445, 0.0571142, 0.0161993, 0.0177973, 0.0139934
0.143138, 1.69483, -1.22766, -1.54157, -0.904717, -1.20844, 1.22804, -1.30248, -0.011436, 0.03868, 0.0285594, -0.147334, -0.138109, 0.000735406, 0.00129714, -3.86834, 68.2385, 34.7129, 8.29895, 2.59021, 3.53274, -0.0484509, -0.00610433, 0.000131853, 0.00525609, 0.0116541, -0.0112981, 0.0028082, 0.101872, -0.0411551, -0.0248384, -0.149745, 0.240476, -0.0108959, 0.469601, -0.538002, 0.338645, -2.07989, -2.16864, -0.125892, 0.469765, -0.543221, 0.33251, -2.08239, -2.1675, -0.101217, -0.0288307, 0.113873, 0.0578295, 0.0152468, 0.018906, 0.016272
0.144138, 1.69481, -1.22762, -1.54153, -0.904877, -1.20857, 1.22804, -1.30247, -0.0133843, 0.0347057, 0.0306078, -0.148973, -0.136799, 0.000489978, 0.00183857, -3.79296, 68.421, 34.8993, 8.33862, 2.61493, 3.53274, -0.0685925, -0.00620681, 0.000169248, 0.00527913, 0.0116955, -0.0114363, 0.00279053, 0.103444, -0.0412587, -0.0270838, -0.148907, 0.236223, -0.0115501, 0.469572, -0.537889, 0.338703, -2.07981, -2.1687, -0.125809, 0.469777, -0.543204, 0.332528, -2.08233, -2.16764, -0.10095, -0.0291647, 0.115306, 0.0585467, 0.0149946, 0.0191359, 0.0145266
0.145138, 1.69478, -1.22757, -1.5415, -0.905026, -1.20872, 1.22804, -1.30247, -0.0153879, 0.0393056, 0.0319827, -0.152043, -0.132669, 8.90738e-05, 0.00237993, -3.82867, 68.421, 35.0858, 8.18787, 2.66437, 3.53915, -0.0951428, -0.00631262, 0.00020406, 0.00529383, 0.0117356, -0.0115879, 0.00278122, 0.103403, -0.0416578, -0.0247299, -0.147423, 0.238296, -0.0106073, 0.469543, -0.537773, 0.338761, -2.07972, -2.16875, -0.125725, 0.469786, -0.543189, 0.332554, -2.08229, -2.16777, -0.100668, -0.029499, 0.116743, 0.0592659, 0.0151536, 0.0202737, 0.0175639
0.146138, 1.69475, -1.22753, -1.54145, -0.905194, -1.20885, 1.22804, -1.30246, -0.0187653, 0.0373655, 0.031749, -0.157687, -0.133011, 5.9218e-05, 0.00242685, -3.79296, 68.6432, 35.1969, 8.18787, 2.68909, 3.53915, -0.114369, -0.00641869, 0.000239673, 0.00532026, 0.0117749, -0.0117173, 0.00276292, 0.105068, -0.0412645, -0.0270405, -0.150665, 0.23799, -0.0103515, 0.469513, -0.537657, 0.338821, -2.07964, -2.16881, -0.12564, 0.469795, -0.543172, 0.33257, -2.08223, -2.16791, -0.100409, -0.0298335, 0.118184, 0.059987, 0.0144061, 0.0204087, 0.0157599
0.147138, 1.69471, -1.22749, -1.54141, -0.905365, -1.20899, 1.22804, -1.30247, -0.0242735, 0.0395697, 0.036282, -0.164602, -0.138911, 0.000819249, -0.00072739, -3.75329, 68.7146, 35.2326, 8.15216, 2.73212, 3.5181, -0.0484509, -0.00652545, 0.000275633, 0.00533843, 0.0118083, -0.0118623, 0.00273575, 0.107118, -0.0402402, -0.0251989, -0.15157, 0.246484, -0.00758147, 0.469484, -0.537538, 0.338881, -2.07955, -2.16887, -0.125554, 0.469805, -0.543155, 0.332595, -2.08218, -2.16807, -0.100142, -0.0301683, 0.119629, 0.0607099, 0.0132053, 0.0195055, 0.0180195
0.148138, 1.69468, -1.22744, -1.54137, -0.905541, -1.20913, 1.22804, -1.30246, -0.0256598, 0.0414992, 0.0367592, -0.166667, -0.137315, 0.000817341, 0.000807863, -3.82867, 68.7543, 35.3834, 8.11249, 2.75043, 3.51077, -0.0814099, -0.00663165, 0.00031287, 0.00536026, 0.0118537, -0.0120073, 0.00271578, 0.108087, -0.0404385, -0.0245913, -0.151548, 0.248172, -0.00911279, 0.469453, -0.537419, 0.338941, -2.07946, -2.16893, -0.125467, 0.469815, -0.543135, 0.332617, -2.08212, -2.16821, -0.0998587, -0.0305034, 0.121079, 0.0614347, 0.0131352, 0.0199173, 0.0191892
0.149138, 1.69463, -1.2274, -1.54133, -0.905724, -1.20927, 1.22804, -1.30245, -0.0328261, 0.0422163, 0.0391917, -0.173626, -0.136942, 0.000273557, 0.00133863, -3.79296, 68.8257, 35.4548, 8.03711, 2.78064, 3.5181, -0.101552, -0.00674401, 0.000345224, 0.00538456, 0.0118943, -0.0121483, 0.00270548, 0.110062, -0.0386151, -0.0244324, -0.152395, 0.249492, -0.0105057, 0.469423, -0.537298, 0.339003, -2.07938, -2.16899, -0.125378, 0.469821, -0.54312, 0.332636, -2.08207, -2.16835, -0.0995833, -0.0308386, 0.122533, 0.0621611, 0.0110683, 0.0193167, 0.0198285
0.15014, 1.69459, -1.22736, -1.54129, -0.905913, -1.20941, 1.22804, -1.30244, -0.0343971, 0.0396823, 0.0408233, -0.17914, -0.137252, 0.00123348, 0.00164504, -3.90404, 68.9011, 35.5301, 7.9657, 2.83008, 3.48971, -0.120778, -0.00685416, 0.000381675, 0.00541105, 0.0119389, -0.0122896, 0.0026802, 0.110747, -0.0397377, -0.0264246, -0.153382, 0.249013, -0.00792685, 0.469392, -0.537175, 0.339065, -2.07929, -2.16905, -0.125289, 0.46983, -0.543101, 0.332654, -2.082, -2.1685, -0.0993036, -0.031174, 0.12399, 0.0628893, 0.0118082, 0.0204544, 0.0184478
0.15114, 1.69453, -1.22732, -1.54124, -0.906112, -1.20954, 1.22804, -1.30244, -0.0407165, 0.0413138, 0.0447832, -0.187618, -0.141155, 0.00136482, 0.00041503, -3.94372, 68.9368, 35.6055, 7.9657, 2.8548, 3.47507, -0.101552, -0.00696817, 0.000413713, 0.0054389, 0.0119818, -0.0124266, 0.00265887, 0.112422, -0.038626, -0.0253647, -0.15506, 0.255159, -0.00611412, 0.469361, -0.537051, 0.339128, -2.0792, -2.16911, -0.125199, 0.469834, -0.543084, 0.332671, -2.08193, -2.16864, -0.0990287, -0.0315095, 0.125452, 0.0636192, 0.0104757, 0.0200532, 0.0200036
0.15214, 1.69448, -1.22729, -1.54119, -0.906312, -1.20968, 1.22804, -1.30243, -0.0454118, 0.0388853, 0.0467769, -0.197464, -0.13952, 0.00118112, -0.000921208, -4.09447, 69.0121, 35.6055, 7.89032, 2.87952, 3.46774, -0.0685925, -0.00708175, 0.000447501, 0.00546831, 0.0120262, -0.0125595, 0.00263415, 0.112628, -0.0390349, -0.0277143, -0.157387, 0.252877, -0.00036706, 0.469329, -0.536926, 0.339191, -2.07911, -2.16918, -0.125108, 0.46984, -0.543064, 0.332687, -2.08186, -2.16879, -0.0987557, -0.0318451, 0.126917, 0.0643506, 0.0104698, 0.021693, 0.0183702
0.15314, 1.69441, -1.22723, -1.54115, -0.906522, -1.20982, 1.22804, -1.30242, -0.0526472, 0.04651, 0.0462998, -0.200467, -0.133183, 0.00210982, 0.00604014, -4.13018, 68.8257, 35.6809, 7.9657, 2.89142, 3.43204, -0.120778, -0.00719972, 0.0004761, 0.00549035, 0.0120696, -0.0127107, 0.00262359, 0.114762, -0.0365732, -0.0238682, -0.154264, 0.256773, -0.0113042, 0.469298, -0.536799, 0.339256, -2.07902, -2.16924, -0.125016, 0.46984, -0.543049, 0.33271, -2.08181, -2.16893, -0.0984628, -0.0321808, 0.128386, 0.0650837, 0.00791771, 0.0203606, 0.0226548
0.15414, 1.69434, -1.22719, -1.54111, -0.906737, -1.20996, 1.22804, -1.30241, -0.0584002, 0.0471643, 0.047826, -0.204359, -0.133757, 0.0016778, 0.00914718, -4.28094, 68.8257, 35.6809, 8.0014, 2.92163, 3.42471, -0.120778, -0.00731876, 0.000505986, 0.00551938, 0.0121172, -0.0128535, 0.00260521, 0.117429, -0.0346071, -0.0237106, -0.155016, 0.258716, -0.0173261, 0.469265, -0.53667, 0.339321, -2.07892, -2.1693, -0.124922, 0.469842, -0.543033, 0.332728, -2.08174, -2.16908, -0.0981734, -0.0325166, 0.129859, 0.0658182, 0.00573669, 0.0190891, 0.0232003
0.15514, 1.69426, -1.22715, -1.54105, -0.906957, -1.21009, 1.22804, -1.30241, -0.0637862, 0.0455728, 0.0495214, -0.209337, -0.134838, 0.00166105, 0.00486195, -4.39599, 68.79, 35.6412, 8.11249, 2.96466, 3.41006, -0.0685925, -0.0074392, 0.000533946, 0.00554647, 0.0121592, -0.0129924, 0.0025856, 0.11993, -0.0331847, -0.0249478, -0.156293, 0.259105, -0.0146657, 0.469233, -0.53654, 0.339387, -2.07883, -2.16937, -0.124828, 0.469841, -0.543017, 0.332747, -2.08167, -2.16922, -0.0978934, -0.0328524, 0.131335, 0.0665543, 0.0040372, 0.0182222, 0.0223781
0.15614, 1.69418, -1.22711, -1.541, -0.907178, -1.21024, 1.22804, -1.30239, -0.0721348, 0.0460576, 0.0498314, -0.212272, -0.134048, 0.00242979, 0.00905667, -4.58245, 68.6789, 35.6412, 8.07678, 2.97748, 3.37436, -0.0814099, -0.00756414, 0.000559702, 0.00557145, 0.0121996, -0.0131417, 0.00257776, 0.124157, -0.029702, -0.0249633, -0.155617, 0.26025, -0.0252912, 0.4692, -0.536409, 0.339453, -2.07873, -2.16943, -0.124733, 0.469838, -0.543004, 0.332769, -2.08162, -2.16936, -0.0976023, -0.0331882, 0.132814, 0.0672918, 0.000397746, 0.0153753, 0.0225666
0.15714, 1.69409, -1.22706, -1.54096, -0.907419, -1.21038, 1.22804, -1.30238, -0.0795644, 0.0445957, 0.0501012, -0.222513, -0.138083, 0.00239975, 0.00805185, -4.65783, 68.6432, 35.6412, 8.22754, 2.97748, 3.3533, -0.114369, -0.00768933, 0.000584819, 0.00560302, 0.0122488, -0.0132848, 0.00256421, 0.126877, -0.027719, -0.0272435, -0.161661, 0.263703, -0.024974, 0.469167, -0.536276, 0.33952, -2.07864, -2.1695, -0.124636, 0.469834, -0.542989, 0.332786, -2.08156, -2.16951, -0.0973074, -0.033524, 0.134297, 0.0680307, -0.00189327, 0.0144314, 0.0207027
0.15814, 1.694, -1.22701, -1.5409, -0.907663, -1.21051, 1.22804, -1.30237, -0.08327, 0.0460396, 0.0532405, -0.228709, -0.136269, 0.00159982, 0.010555, -4.88793, 68.4964, 35.6412, 8.33862, 2.97107, 3.3533, -0.114369, -0.00781308, 0.000611092, 0.00562859, 0.0122962, -0.0134358, 0.00254601, 0.127054, -0.0278954, -0.0265157, -0.161529, 0.264494, -0.0248126, 0.469133, -0.536142, 0.339588, -2.07854, -2.16956, -0.124539, 0.46983, -0.542972, 0.332809, -2.08149, -2.16966, -0.0970058, -0.0338597, 0.135784, 0.0687709, -0.00200972, 0.0156418, 0.0221304
0.15914, 1.6939, -1.22697, -1.54085, -0.907918, -1.21066, 1.22805, -1.30236, -0.0888116, 0.0432984, 0.0564965, -0.235664, -0.13184, 0.00188035, 0.00617015, -4.99902, 68.4964, 35.6055, 8.44971, 3.00769, 3.33133, -0.0685925, -0.00794209, 0.000634095, 0.00566093, 0.0123438, -0.0135801, 0.0025265, 0.127775, -0.027805, -0.0281417, -0.15962, 0.259457, -0.0178584, 0.469099, -0.536006, 0.339657, -2.07844, -2.16963, -0.124441, 0.469824, -0.542958, 0.332825, -2.08142, -2.16981, -0.09671, -0.0341954, 0.137273, 0.0695125, -0.0024642, 0.0166642, 0.02116
0.16014, 1.69379, -1.22693, -1.54078, -0.908169, -1.21079, 1.22804, -1.30234, -0.0994701, 0.0441392, 0.0557106, -0.240088, -0.131396, 0.00176219, 0.0061932, -5.11407, 68.3853, 35.5698, 8.48541, 2.99579, 3.31759, -0.10796, -0.00807113, 0.000655145, 0.00568536, 0.0123794, -0.0137211, 0.00251931, 0.132764, -0.0229487, -0.0285086, -0.161198, 0.260895, -0.0259462, 0.469065, -0.535869, 0.339727, -2.07834, -2.1697, -0.124341, 0.469815, -0.542943, 0.33285, -2.08136, -2.16995, -0.0964286, -0.0345309, 0.138766, 0.0702554, -0.00745646, 0.0130664, 0.0209372
0.16114, 1.69369, -1.22688, -1.54072, -0.908434, -1.21092, 1.22804, -1.30233, -0.104455, 0.0447071, 0.0583542, -0.246481, -0.12997, -0.00390011, 0.0095424, -5.3402, 68.3853, 35.5301, 8.52509, 2.95917, 3.31759, -0.114369, -0.00819781, 0.000680186, 0.0057155, 0.0124176, -0.0138545, 0.00249577, 0.133214, -0.0214379, -0.0288617, -0.165877, 0.258733, -0.0281112, 0.469031, -0.53573, 0.339797, -2.07824, -2.16977, -0.124241, 0.469809, -0.542924, 0.33287, -2.08129, -2.1701, -0.0961526, -0.0348663, 0.140262, 0.0709994, -0.00928847, 0.0141037, 0.021316
0.16214, 1.69357, -1.22684, -1.54065, -0.908704, -1.21105, 1.22805, -1.30231, -0.1091, 0.0433795, 0.0625318, -0.253461, -0.129751, -0.00166664, 0.0111335, -5.41558, 68.3496, 35.5301, 8.52509, 2.95276, 3.28097, -0.0951428, -0.00833058, 0.000700041, 0.00574216, 0.012451, -0.0139978, 0.00247855, 0.134252, -0.0218747, -0.0291923, -0.163405, 0.259554, -0.0272193, 0.468996, -0.53559, 0.339868, -2.07814, -2.16984, -0.12414, 0.469799, -0.54291, 0.332894, -2.08122, -2.17026, -0.0958701, -0.0352016, 0.141761, 0.0717447, -0.00915137, 0.0146486, 0.021563
0.16314, 1.69345, -1.22679, -1.54058, -0.908985, -1.21118, 1.22805, -1.3023, -0.113479, 0.044584, 0.0704675, -0.262944, -0.129732, -0.00119092, 0.0118597, -5.60204, 68.3496, 35.4548, 8.56079, 2.93445, 3.27456, -0.0621838, -0.00845815, 0.000725883, 0.00576979, 0.0124852, -0.0141371, 0.0024468, 0.133284, -0.0232947, -0.0272079, -0.160257, 0.262213, -0.0213728, 0.468961, -0.535448, 0.33994, -2.07804, -2.16991, -0.124037, 0.469794, -0.542889, 0.332918, -2.08114, -2.17043, -0.0955913, -0.0355366, 0.143262, 0.0724911, -0.00802005, 0.0168708, 0.0243727
0.16414, 1.69332, -1.22675, -1.5405, -0.909282, -1.21131, 1.22805, -1.30228, -0.117029, 0.0456989, 0.0729077, -0.269428, -0.129948, -0.000489298, 0.0197765, -5.64172, 68.3496, 35.5301, 8.60046, 2.92804, 3.25992, -0.101552, -0.00858788, 0.000747007, 0.00579887, 0.0125251, -0.0142746, 0.00242076, 0.134053, -0.0235467, -0.0268362, -0.160526, 0.265213, -0.0272145, 0.468925, -0.535305, 0.340012, -2.07793, -2.16998, -0.123934, 0.469783, -0.542868, 0.332942, -2.08105, -2.17059, -0.0953065, -0.0358715, 0.144767, 0.0732387, -0.00804926, 0.0175718, 0.025363
0.16514, 1.69319, -1.2267, -1.54042, -0.909583, -1.21144, 1.22805, -1.30226, -0.118069, 0.0493849, 0.0790443, -0.281077, -0.126557, 3.79213e-05, 0.0200249, -5.71709, 68.3496, 35.5698, 8.63617, 2.94635, 3.24527, -0.114369, -0.00871604, 0.000772086, 0.00582435, 0.0125592, -0.014419, 0.0023869, 0.130457, -0.0273541, -0.0245038, -0.158652, 0.268053, -0.0154853, 0.468889, -0.53516, 0.340086, -2.07783, -2.17005, -0.123829, 0.469777, -0.542845, 0.33297, -2.08097, -2.17076, -0.0950207, -0.0362061, 0.146274, 0.0739872, -0.00462545, 0.0224512, 0.0288414
0.16614, 1.69305, -1.22664, -1.54033, -0.909899, -1.21157, 1.22805, -1.30224, -0.124984, 0.0509765, 0.0844634, -0.293872, -0.122934, 0.000400096, 0.019416, -5.79247, 68.2742, 35.5698, 8.71155, 2.94635, 3.23153, -0.101552, -0.00884309, 0.000796739, 0.00584665, 0.0125933, -0.0145678, 0.00234703, 0.129397, -0.0280179, -0.0235422, -0.1573, 0.268451, -0.00790406, 0.468853, -0.535014, 0.34016, -2.07772, -2.17012, -0.123723, 0.46977, -0.54282, 0.333001, -2.08087, -2.17095, -0.0947303, -0.0365405, 0.147784, 0.0747369, -0.00429283, 0.0248938, 0.0306829
0.16714, 1.69289, -1.2266, -1.54025, -0.910217, -1.2117, 1.22805, -1.30222, -0.131802, 0.0499018, 0.0859518, -0.302936, -0.125789, 0.00125144, 0.0172496, -5.67742, 68.421, 35.6809, 8.63617, 2.95917, 3.20224, -0.0484509, -0.00898078, 0.000812584, 0.0058787, 0.0126242, -0.0146985, 0.00231807, 0.131788, -0.0266095, -0.0249678, -0.160479, 0.271623, -0.00589805, 0.468816, -0.534866, 0.340234, -2.07762, -2.17019, -0.123617, 0.469754, -0.542803, 0.333023, -2.08079, -2.17111, -0.0944594, -0.0368746, 0.149297, 0.0754875, -0.00598544, 0.0241985, 0.0297079
0.16814, 1.69275, -1.22655, -1.54014, -0.910548, -1.21183, 1.22805, -1.30221, -0.134302, 0.0525293, 0.0906639, -0.312235, -0.128561, 0.00153892, 0.0176744, -5.67742, 68.4567, 35.6412, 8.63617, 2.98938, 3.18118, -0.0420422, -0.00910668, 0.000840848, 0.00590044, 0.0126452, -0.014842, 0.00226335, 0.131123, -0.0280894, -0.0233646, -0.161699, 0.278169, -0.000565006, 0.46878, -0.534717, 0.34031, -2.07751, -2.17026, -0.123509, 0.46975, -0.542773, 0.333057, -2.08068, -2.17132, -0.0941881, -0.0372084, 0.150812, 0.076239, -0.00479538, 0.026197, 0.0320969
0.16914, 1.69259, -1.22651, -1.54005, -0.910899, -1.21195, 1.22805, -1.30218, -0.141167, 0.0495256, 0.094585, -0.321013, -0.120792, 0.00151203, 0.0202679, -5.52666, 68.5678, 35.8277, 8.63617, 3.02051, 3.16653, -0.0951428, -0.00923727, 0.000862776, 0.00593021, 0.0126775, -0.0149772, 0.00221823, 0.131104, -0.0280966, -0.0251441, -0.158556, 0.270138, 0.00113442, 0.468742, -0.534566, 0.340386, -2.0774, -2.17034, -0.123401, 0.469739, -0.542746, 0.333083, -2.08057, -2.1715, -0.0939109, -0.0375418, 0.15233, 0.0769914, -0.0051858, 0.0280056, 0.0310966
0.170141, 1.69242, -1.22646, -1.53994, -0.91125, -1.21206, 1.22805, -1.30216, -0.148386, 0.0470068, 0.101867, -0.337265, -0.11566, 0.00147431, 0.0198613, -5.45129, 68.6789, 35.8674, 8.56079, 3.06354, 3.1528, -0.0951428, -0.00936425, 0.000887834, 0.00595275, 0.0126949, -0.0151084, 0.00215886, 0.128813, -0.0298698, -0.0264424, -0.157117, 0.265233, 0.0127475, 0.468705, -0.534414, 0.340463, -2.07729, -2.17041, -0.123291, 0.469731, -0.542715, 0.333118, -2.08046, -2.17171, -0.0936546, -0.0378749, 0.15385, 0.0777447, -0.00388599, 0.0320683, 0.0308609
0.171141, 1.69226, -1.22641, -1.53983, -0.911607, -1.21217, 1.22805, -1.30214, -0.15267, 0.047718, 0.102328, -0.343967, -0.11031, 0.00149365, 0.0218475, -5.41558, 68.8257, 35.9784, 8.414, 3.06903, 3.13815, -0.0292249, -0.00948993, 0.000915567, 0.00597483, 0.0127083, -0.0152389, 0.00209127, 0.129129, -0.0299074, -0.0270944, -0.15721, 0.263024, 0.0132255, 0.468667, -0.53426, 0.340541, -2.07718, -2.17049, -0.12318, 0.469725, -0.54268, 0.333154, -2.08033, -2.17192, -0.0934032, -0.0382076, 0.155372, 0.0784988, -0.00418635, 0.0333806, 0.0309231
0.172141, 1.69208, -1.22635, -1.53971, -0.911983, -1.21228, 1.22805, -1.30212, -0.162599, 0.049104, 0.106149, -0.354162, -0.107542, 0.00124322, 0.0271795, -5.22515, 68.9368, 36.0895, 8.37433, 3.10657, 3.13083, -0.0621838, -0.00961923, 0.000937589, 0.0059979, 0.0127248, -0.0153695, 0.00203564, 0.130632, -0.0277887, -0.0263713, -0.156514, 0.263405, 0.00855354, 0.468629, -0.534104, 0.340619, -2.07707, -2.17056, -0.123068, 0.469713, -0.542648, 0.333189, -2.08022, -2.17212, -0.0931461, -0.0385399, 0.156897, 0.0792537, -0.0065345, 0.0332149, 0.0322356
0.173141, 1.6919, -1.22629, -1.5396, -0.91236, -1.21238, 1.22805, -1.30209, -0.169408, 0.0505167, 0.108874, -0.362099, -0.105167, 0.000810952, 0.0306372, -5.07439, 69.0479, 36.2006, 8.18787, 3.13678, 3.13083, -0.0814099, -0.00974626, 0.000961054, 0.00601766, 0.0127379, -0.0154965, 0.00197312, 0.131709, -0.0266456, -0.025881, -0.156535, 0.264013, 0.00619968, 0.46859, -0.533947, 0.340699, -2.07696, -2.17064, -0.122956, 0.469703, -0.542613, 0.333229, -2.0801, -2.17233, -0.092896, -0.0388718, 0.158424, 0.0800094, -0.00793473, 0.0335518, 0.0333513
0.174141, 1.69171, -1.22624, -1.53948, -0.912753, -1.21248, 1.22805, -1.30207, -0.176756, 0.0529726, 0.109328, -0.370649, -0.0985411, 0.000798506, 0.0271887, -4.92364, 69.2303, 36.3871, 8.11249, 3.16791, 3.1235, -0.0685925, -0.00987374, 0.000985126, 0.00604268, 0.0127536, -0.0156186, 0.00189998, 0.132421, -0.0254674, -0.0256279, -0.156399, 0.2625, 0.0110769, 0.468551, -0.533789, 0.340779, -2.07684, -2.17071, -0.122842, 0.469693, -0.542575, 0.333264, -2.07996, -2.17255, -0.0926482, -0.0392032, 0.159952, 0.0807657, -0.00939382, 0.0342857, 0.0342908
0.175141, 1.69152, -1.22618, -1.53936, -0.913158, -1.21257, 1.22804, -1.30205, -0.183737, 0.0570455, 0.115346, -0.380334, -0.0943516, 0.00103092, 0.0231309, -4.81255, 69.3057, 36.4625, 8.03711, 3.21643, 3.10977, -0.0164075, -0.00999696, 0.00101253, 0.00606202, 0.012765, -0.0157458, 0.00180995, 0.131842, -0.0254726, -0.0225869, -0.152755, 0.264532, 0.0196982, 0.468512, -0.533629, 0.340859, -2.07673, -2.17079, -0.122727, 0.469685, -0.542533, 0.333306, -2.0798, -2.17279, -0.0924005, -0.0395341, 0.161483, 0.0815227, -0.00960963, 0.0359284, 0.0381417
0.176141, 1.69131, -1.22611, -1.53923, -0.913564, -1.21266, 1.22804, -1.30202, -0.191026, 0.0604718, 0.116973, -0.391158, -0.0900478, 0.00122228, 0.02819, -4.54675, 69.3771, 36.6489, 7.9657, 3.23566, 3.09512, -0.0557752, -0.0101269, 0.00103271, 0.00607934, 0.0127672, -0.0158694, 0.00174238, 0.132004, -0.024799, -0.0216372, -0.153423, 0.266206, 0.017877, 0.468473, -0.533468, 0.340941, -2.07661, -2.17087, -0.122611, 0.469671, -0.542496, 0.33335, -2.07968, -2.17301, -0.0921635, -0.0398646, 0.163016, 0.0822803, -0.0105576, 0.0371273, 0.0398378
0.177141, 1.6911, -1.22605, -1.53911, -0.913984, -1.21274, 1.22804, -1.302, -0.193161, 0.058006, 0.117991, -0.400312, -0.091577, 0.00108047, 0.026061, -4.39599, 69.5279, 36.8711, 7.73956, 3.25397, 3.0878, -0.0621838, -0.0102545, 0.00105532, 0.00610344, 0.012779, -0.0159838, 0.00166072, 0.132171, -0.0259457, -0.0243933, -0.158108, 0.266671, 0.0248007, 0.468433, -0.533304, 0.341023, -2.07649, -2.17095, -0.122494, 0.469658, -0.542455, 0.333388, -2.07952, -2.17324, -0.0919256, -0.0401944, 0.164551, 0.0830385, -0.00983956, 0.0389705, 0.0378115
0.178141, 1.69089, -1.22599, -1.53896, -0.914411, -1.21282, 1.22804, -1.30197, -0.199699, 0.0563747, 0.123258, -0.411632, -0.0887184, -0.00438539, 0.0229435, -4.16985, 69.6747, 36.9068, 7.62848, 3.29059, 3.09512, -0.0228162, -0.0103783, 0.00108197, 0.00612094, 0.0127723, -0.0160961, 0.0015641, 0.131269, -0.0253464, -0.0257105, -0.161966, 0.261529, 0.0336647, 0.468392, -0.53314, 0.341106, -2.07637, -2.17103, -0.122376, 0.46965, -0.542409, 0.333434, -2.07936, -2.17349, -0.0917108, -0.0405238, 0.166087, 0.0837972, -0.0108494, 0.0415699, 0.0374303
0.179141, 1.69066, -1.22594, -1.53883, -0.914855, -1.21289, 1.22804, -1.30195, -0.211292, 0.0568439, 0.127437, -0.417437, -0.0865291, -0.00360056, 0.0220113, -3.90404, 69.8572, 37.0575, 7.5531, 3.33362, 3.10245, -0.0228162, -0.0105049, 0.00110461, 0.00614553, 0.0127763, -0.0162006, 0.00146917, 0.135037, -0.0214945, -0.024629, -0.158166, 0.261468, 0.0297602, 0.468352, -0.532974, 0.34119, -2.07626, -2.17111, -0.122257, 0.469636, -0.542363, 0.333474, -2.07919, -2.17372, -0.0914909, -0.0408525, 0.167625, 0.0845564, -0.0148133, 0.0390431, 0.0388157
0.180141, 1.69044, -1.22588, -1.53869, -0.915304, -1.21296, 1.22803, -1.30192, -0.2182, 0.0554905, 0.130736, -0.425079, -0.0851062, -0.00707796, 0.0231811, -3.71758, 70.004, 37.2043, 7.47772, 3.38855, 3.0878, -0.0750012, -0.0106316, 0.00112827, 0.00616955, 0.0127774, -0.016305, 0.00137293, 0.136257, -0.0197057, -0.0257818, -0.160862, 0.258541, 0.0293385, 0.468311, -0.532806, 0.341275, -2.07613, -2.17119, -0.122137, 0.469624, -0.542316, 0.333515, -2.07902, -2.17397, -0.0912734, -0.0411807, 0.169165, 0.0853161, -0.0169143, 0.0394693, 0.0383147
0.181141, 1.69021, -1.22583, -1.53854, -0.915759, -1.21303, 1.22803, -1.3019, -0.220348, 0.0576406, 0.137599, -0.43542, -0.0792296, -0.00508523, 0.0203819, -3.56683, 70.1508, 37.2797, 7.33093, 3.43158, 3.08047, -0.0292249, -0.0107544, 0.00115674, 0.0061931, 0.0127705, -0.0164012, 0.00125533, 0.133202, -0.0232696, -0.0237514, -0.155324, 0.258396, 0.0430904, 0.46827, -0.532637, 0.34136, -2.07601, -2.17127, -0.122016, 0.469616, -0.542263, 0.333557, -2.07882, -2.17423, -0.0910744, -0.0415082, 0.170706, 0.0860762, -0.0137172, 0.0438898, 0.041427
0.182141, 1.68997, -1.22576, -1.53839, -0.916228, -1.21309, 1.22802, -1.30188, -0.226036, 0.0612266, 0.138282, -0.443447, -0.0747217, -0.00386854, 0.0194321, -3.33672, 70.2261, 37.4305, 7.25555, 3.47461, 3.08047, -0.00999879, -0.01088, 0.00117982, 0.00621455, 0.012765, -0.0165, 0.0011437, 0.133731, -0.0228959, -0.0226574, -0.154814, 0.260402, 0.0460258, 0.468228, -0.532466, 0.341446, -2.07589, -2.17135, -0.121894, 0.469602, -0.542212, 0.333603, -2.07863, -2.17449, -0.0908695, -0.0418351, 0.172249, 0.0868367, -0.0143397, 0.0447285, 0.0432025
0.183141, 1.68973, -1.2257, -1.53823, -0.9167, -1.21314, 1.22802, -1.30185, -0.233697, 0.0620551, 0.145289, -0.463414, -0.0658595, -0.00188666, 0.0190799, -3.11059, 70.2261, 37.4305, 7.18018, 3.49292, 3.05209, -0.00267457, -0.0110033, 0.00120601, 0.0062283, 0.0127455, -0.0166041, 0.00102953, 0.129756, -0.0258966, -0.0224239, -0.151567, 0.257194, 0.0614495, 0.468187, -0.532294, 0.341533, -2.07577, -2.17143, -0.121771, 0.469591, -0.542158, 0.333656, -2.07845, -2.17476, -0.0906738, -0.0421613, 0.173793, 0.0875976, -0.0118168, 0.0503064, 0.0447002
0.184141, 1.68949, -1.22563, -1.53807, -0.917181, -1.21319, 1.22802, -1.30183, -0.237634, 0.0637457, 0.148678, -0.468692, -0.0602736, -0.000204444, 0.0261237, -3.07488, 70.3015, 37.5019, 6.95801, 3.54236, 3.01639, -0.0621838, -0.0111275, 0.00123314, 0.0062484, 0.0127295, -0.0167, 0.000913625, 0.129772, -0.0266117, -0.0211487, -0.146825, 0.256383, 0.0574112, 0.468144, -0.53212, 0.34162, -2.07564, -2.17152, -0.121646, 0.469581, -0.542103, 0.333704, -2.07826, -2.17503, -0.0904819, -0.0424869, 0.175339, 0.0883587, -0.0113647, 0.0516787, 0.0466956
0.185141, 1.68922, -1.22558, -1.53792, -0.917672, -1.21324, 1.22802, -1.3018, -0.241682, 0.0594325, 0.148027, -0.470927, -0.0609146, -6.68506e-05, 0.0229477, -2.88445, 70.484, 37.5773, 6.80725, 3.5918, 3.00906, -0.0292249, -0.0112585, 0.00125195, 0.00627472, 0.0127208, -0.0167869, 0.00080177, 0.133199, -0.0250037, -0.0245195, -0.14896, 0.253788, 0.0569777, 0.468102, -0.531945, 0.341709, -2.07552, -2.1716, -0.121521, 0.469562, -0.542052, 0.333746, -2.07806, -2.17528, -0.0902896, -0.0428117, 0.176886, 0.0891202, -0.0132817, 0.0502769, 0.0436623
0.186141, 1.68896, -1.22551, -1.53776, -0.918171, -1.21328, 1.22802, -1.30178, -0.249061, 0.0600047, 0.15247, -0.481464, -0.0503107, -0.00399857, 0.0218018, -2.77337, 70.5197, 37.6883, 6.73187, 3.59729, 2.98068, -0.0228162, -0.0113863, 0.00127362, 0.00629579, 0.0127057, -0.0168764, 0.000686066, 0.131491, -0.0246966, -0.0245972, -0.147968, 0.245223, 0.0645024, 0.468059, -0.531768, 0.341798, -2.07539, -2.17169, -0.121395, 0.469546, -0.541998, 0.333795, -2.07787, -2.17555, -0.090101, -0.0431357, 0.178434, 0.0898818, -0.0139773, 0.0535098, 0.0446215
0.187141, 1.68868, -1.22544, -1.5376, -0.918689, -1.21332, 1.22801, -1.30175, -0.259159, 0.0626816, 0.158229, -0.490553, -0.0429189, -0.00745781, 0.0203445, -2.58294, 70.5951, 37.8034, 6.65649, 3.6156, 2.95871, -0.00267457, -0.0115158, 0.00129116, 0.00631864, 0.0126952, -0.0169639, 0.000565916, 0.131628, -0.0224426, -0.0225842, -0.145674, 0.241315, 0.0678637, 0.468016, -0.53159, 0.341888, -2.07526, -2.17177, -0.121268, 0.469525, -0.541943, 0.333842, -2.07766, -2.17581, -0.089909, -0.043459, 0.179984, 0.0906437, -0.0164503, 0.0545127, 0.0474319
0.188141, 1.6884, -1.22538, -1.53743, -0.919205, -1.21336, 1.22801, -1.30172, -0.265442, 0.0602582, 0.164186, -0.49436, -0.0431634, -0.00391941, 0.0220232, -2.47185, 70.7062, 37.7637, 6.39465, 3.66504, 2.90835, -0.0557752, -0.0116448, 0.00131336, 0.00633727, 0.0126648, -0.0170522, 0.000445505, 0.134301, -0.02172, -0.0222961, -0.139087, 0.241721, 0.0649882, 0.467972, -0.53141, 0.341978, -2.07513, -2.17186, -0.121139, 0.469509, -0.541886, 0.333894, -2.07746, -2.17609, -0.0897372, -0.0437815, 0.181534, 0.0914057, -0.0173586, 0.0533473, 0.0480981
0.189141, 1.68812, -1.2253, -1.53726, -0.919742, -1.21339, 1.22801, -1.3017, -0.272308, 0.063278, 0.16459, -0.50442, -0.0427822, -0.00722882, 0.0237169, -2.39648, 70.6308, 37.8748, 6.43433, 3.70166, 2.87997, 0.00373412, -0.0117714, 0.00133319, 0.00635149, 0.0126489, -0.0171517, 0.000307947, 0.135204, -0.0197849, -0.0222447, -0.145494, 0.244511, 0.0643572, 0.467929, -0.531228, 0.34207, -2.075, -2.17194, -0.12101, 0.469491, -0.541827, 0.333951, -2.07724, -2.17639, -0.0895386, -0.0441032, 0.183085, 0.0921678, -0.0195608, 0.0539071, 0.0488439
