alisrour97/Franka_experiments/Real_Robot_scripts/servo-franka/Data_5_ki/log_dyn_PI0_4.csv
Time,q1,q2,q3,q4,q5,q6,q7,dq1,dq2,dq3,dq4,dq5,dq6,dq7,t1,t2,t3,t4,t5,t6,t7,ex1,ex2,ex3,ex4,ex5,ex6,ev1,ev2,ev3,ev4,ev5,ev6,xd,yd,zd,uxd,uyd,uzd,x,y,z,ux,uy,uz,vxd,vyd,vzd,vx,vy,vz
4.88281e-07, 1.69121, -1.22691, -1.5393, -0.900222, -1.19232, 1.22804, -1.30263, -0.00271856, -0.00360755, -0.00433005, 0.00688621, 0.000798367, 0.00129335, -0.000228432, 0.701973, 63.6682, 31.9199, 6.84296, 2.80536, 3.93374, -0.186696, 0.000473938, -0.0019693, 0.00139051, 0.00217704, 0.000594583, 0.00077089, 0.00459738, 0.00339834, -0.00248764, 0.00103676, -0.00392545, -0.0103525, 0.471008, -0.543389, 0.335894, -2.08385, -2.16584, -0.129887, 0.468982, -0.542785, 0.334663, -2.08321, -2.16387, -0.127995, -4.06186e-05, 0.000124715, 6.6488e-05, -0.00335997, -0.00417012, -0.00300095
0.0121663, 1.69119, -1.22697, -1.53935, -0.900174, -1.19231, 1.22801, -1.30263, -0.00377602, -0.00291096, -0.00875248, 0.00261635, 0.00173672, 0.00131203, -0.000809166, 0.170357, 63.2635, 31.7731, 6.84296, 2.75043, 3.87607, -0.160145, 0.000440468, -0.00200134, 0.00143752, 0.00221574, 0.000677083, 0.000846478, 0.00457232, 0.00369759, -0.00421363, -0.00422584, -0.00329947, -0.00898606, 0.471008, -0.543389, 0.335894, -2.08385, -2.16584, -0.129887, 0.468942, -0.542815, 0.334603, -2.08322, -2.1637, -0.128028, -6.68636e-05, 0.000218577, 0.000115026, -0.00374828, -0.0037981, -0.0046438
0.0131663, 1.69119, -1.22697, -1.53935, -0.900174, -1.19231, 1.22801, -1.30263, -0.00377602, -0.00291096, -0.00875248, 0.00261635, 0.00173672, 0.00131203, -0.000809166, 0.170357, 63.2635, 31.7731, 6.84296, 2.75043, 3.87607, -0.160145, 0.000440445, -0.00200134, 0.00143753, 0.00221573, 0.000677088, 0.00084649, 0.00468319, 0.00367151, -0.00424928, -0.00427301, -0.00322707, -0.00907578, 0.471008, -0.543389, 0.335894, -2.08385, -2.16584, -0.129887, 0.468942, -0.542815, 0.334603, -2.08322, -2.1637, -0.128028, -9.5592e-05, 0.000321476, 0.000168224, -0.00374828, -0.0037981, -0.0046438
0.0141663, 1.69119, -1.22697, -1.53935, -0.900174, -1.19231, 1.22801, -1.30263, -0.00377602, -0.00291096, -0.00875248, 0.00261635, 0.00173672, 0.00131203, -0.000809166, 0.170357, 63.2635, 31.7731, 6.84296, 2.75043, 3.87607, -0.160145, 0.000440383, -0.00200132, 0.00143755, 0.0022157, 0.000677103, 0.000846523, 0.00480416, 0.00364309, -0.00428817, -0.0043244, -0.00314812, -0.0091736, 0.471008, -0.543389, 0.335894, -2.08385, -2.16584, -0.129887, 0.468942, -0.542815, 0.334603, -2.08322, -2.1637, -0.128028, -0.000126895, 0.000433757, 0.000226255, -0.00374828, -0.0037981, -0.0046438
0.0151675, 1.69119, -1.22697, -1.53935, -0.900174, -1.19231, 1.22801, -1.30263, -0.00377602, -0.00291096, -0.00875248, 0.00261635, 0.00173672, 0.00131203, -0.000809166, 0.170357, 63.2635, 31.7731, 6.84296, 2.75043, 3.87607, -0.160145, 0.000440264, -0.0020013, 0.00143759, 0.00221565, 0.000677131, 0.000846587, 0.0049356, 0.00361226, -0.00433042, -0.00438014, -0.00306236, -0.0092798, 0.471008, -0.543389, 0.335894, -2.08385, -2.16584, -0.129887, 0.468942, -0.542815, 0.334603, -2.08322, -2.1637, -0.128028, -0.000160861, 0.000555757, 0.000289294, -0.00374828, -0.0037981, -0.0046438
0.0161675, 1.69119, -1.22697, -1.53935, -0.900174, -1.19231, 1.22801, -1.30263, -0.00377602, -0.00291096, -0.00875248, 0.00261635, 0.00173672, 0.00131203, -0.000809166, 0.170357, 63.2635, 31.7731, 6.84296, 2.75043, 3.87607, -0.160145, 0.000440066, -0.00200125, 0.00143765, 0.00221555, 0.000677177, 0.000846692, 0.00507787, 0.00357893, -0.00437613, -0.00444039, -0.00296958, -0.00939467, 0.471008, -0.543389, 0.335894, -2.08385, -2.16584, -0.129886, 0.468942, -0.542815, 0.334603, -2.08322, -2.1637, -0.128028, -0.000197581, 0.000687809, 0.000357511, -0.00374828, -0.0037981, -0.0046438
0.0171677, 1.69119, -1.22697, -1.53935, -0.900174, -1.19231, 1.22801, -1.30263, -0.00377602, -0.00291096, -0.00875248, 0.00261635, 0.00173672, 0.00131203, -0.000809166, 0.170357, 63.2635, 31.7731, 6.84296, 2.75043, 3.87607, -0.160145, 0.000439773, -0.00200118, 0.00143775, 0.00221541, 0.000677246, 0.000846848, 0.00523131, 0.00354304, -0.00442542, -0.00450528, -0.00286954, -0.00951848, 0.471008, -0.543389, 0.335894, -2.08385, -2.16584, -0.129886, 0.468942, -0.542815, 0.334603, -2.08322, -2.1637, -0.128028, -0.000237139, 0.000830243, 0.000431075, -0.00374828, -0.0037981, -0.0046438
0.0181677, 1.69119, -1.22697, -1.53935, -0.900174, -1.19231, 1.22801, -1.30263, -0.00377602, -0.00291096, -0.00875248, 0.00261635, 0.00173672, 0.00131203, -0.000809166, 0.170357, 63.2635, 31.7731, 6.84296, 2.75043, 3.87607, -0.160145, 0.000439364, -0.00200108, 0.00143788, 0.00221522, 0.000677342, 0.000847066, 0.00539629, 0.00350449, -0.00447839, -0.00457495, -0.00276202, -0.00965151, 0.471008, -0.543388, 0.335894, -2.08385, -2.16584, -0.129886, 0.468942, -0.542815, 0.334603, -2.08322, -2.1637, -0.128028, -0.000279621, 0.000983381, 0.00051015, -0.00374828, -0.0037981, -0.0046438
0.0191677, 1.69119, -1.22697, -1.53935, -0.900174, -1.19231, 1.22801, -1.30263, -0.00377602, -0.00291096, -0.00875248, 0.00261635, 0.00173672, 0.00131203, -0.000809166, 0.170357, 63.2635, 31.7731, 6.84296, 2.75043, 3.87607, -0.160145, 0.000438822, -0.00200095, 0.00143806, 0.00221496, 0.000677469, 0.000847355, 0.00557313, 0.00346322, -0.00453517, -0.00464954, -0.00264681, -0.00979402, 0.471008, -0.543388, 0.335895, -2.08385, -2.16584, -0.129886, 0.468942, -0.542815, 0.334603, -2.08322, -2.1637, -0.128028, -0.00032511, 0.00114754, 0.000594898, -0.00374828, -0.0037981, -0.0046438
0.0201677, 1.69119, -1.22697, -1.53935, -0.900174, -1.19231, 1.22801, -1.30263, -0.00377602, -0.00291096, -0.00875248, 0.00261635, 0.00173672, 0.00131203, -0.000809166, 0.170357, 63.2635, 31.7731, 6.84296, 2.75043, 3.87607, -0.160145, 0.000438127, -0.00200079, 0.00143828, 0.00221462, 0.000677631, 0.000847725, 0.00576217, 0.00341916, -0.00459585, -0.00472917, -0.00252368, -0.00994628, 0.471007, -0.543387, 0.335895, -2.08384, -2.16584, -0.129885, 0.468942, -0.542815, 0.334603, -2.08322, -2.1637, -0.128028, -0.000373687, 0.00132303, 0.000685479, -0.00374828, -0.0037981, -0.0046438
0.0211677, 1.69117, -1.22701, -1.53938, -0.90019, -1.1923, 1.22801, -1.30263, 0.000315784, -0.00701972, -0.00265271, -0.000988626, 0.00203396, 0.000210121, 0.000739144, -0.206535, 62.7478, 31.4002, 6.99371, 2.62134, 3.87607, -0.186696, 0.000423454, -0.00201394, 0.00147586, 0.00223876, 0.000733293, 0.000870477, 0.00202459, -0.000711537, -0.00572411, -0.00299357, -0.00722203, -0.00135092, 0.471007, -0.543386, 0.335895, -2.08384, -2.16584, -0.129884, 0.468927, -0.542824, 0.334564, -2.0832, -2.16363, -0.128055, -0.000425431, 0.00151016, 0.000782046, 0.000150958, 0.000421546, -0.00520572
0.0221677, 1.69116, -1.22702, -1.53938, -0.900185, -1.19229, 1.22802, -1.30263, -0.0039926, -0.00626522, -0.00127223, 0.000191122, 0.00294976, 0.000376747, -1.58636e-05, -0.166862, 62.7875, 31.3605, 6.95801, 2.57831, 3.86966, -0.172963, 0.000419194, -0.00201652, 0.00148072, 0.00223178, 0.000749172, 0.000876066, 0.00397782, 0.00155685, -0.00445569, -1.07593e-05, -0.00732595, -0.00509789, 0.471007, -0.543385, 0.335896, -2.08384, -2.16584, -0.129884, 0.468925, -0.542826, 0.33456, -2.0832, -2.16362, -0.128078, -0.000480419, 0.00170921, 0.00088475, -0.00205386, -0.00159573, -0.00408532
0.0231677, 1.69116, -1.22702, -1.53938, -0.900186, -1.19229, 1.22802, -1.30263, -0.00394248, -0.0117125, -0.0046246, 0.00106668, 0.00423843, 0.00133571, -0.00119737, -0.131157, 62.4185, 31.2137, 6.91833, 2.51697, 3.84036, -0.140919, 0.000416634, -0.0020166, 0.00148124, 0.00223047, 0.000746003, 0.000874974, 0.00549599, 0.00184349, -0.00871443, -0.00164899, -0.0130465, -0.00589697, 0.471007, -0.543384, 0.335896, -2.08384, -2.16585, -0.129883, 0.468924, -0.542827, 0.334559, -2.0832, -2.16362, -0.128075, -0.000538724, 0.00192048, 0.000993739, -0.00249788, -0.0022395, -0.00840849
0.0241677, 1.69116, -1.22703, -1.53939, -0.900186, -1.19229, 1.22802, -1.30263, -0.00119923, -0.0122887, -0.00709809, 0.00248279, 0.00221106, -0.00169349, -0.000798247, -0.206535, 61.8671, 30.9162, 6.84296, 2.39429, 3.7836, -0.140919, 0.000416059, -0.00201391, 0.00148784, 0.00223628, 0.000752687, 0.000875744, 0.00559338, 0.00177287, -0.0102196, -0.0072919, -0.0131812, -0.00688036, 0.471006, -0.543383, 0.335897, -2.08384, -2.16585, -0.129882, 0.468926, -0.542826, 0.334553, -2.0832, -2.16362, -0.128074, -0.000600418, 0.00214425, 0.00110915, -0.0025399, -0.00187732, -0.0097966
0.0251677, 1.69118, -1.22704, -1.5394, -0.900192, -1.19229, 1.22802, -1.30262, 0.00247638, -0.0110071, -0.00956608, 0.00249673, 0.00161795, -0.00380371, -0.000532165, -0.357292, 61.2006, 30.5036, 6.80725, 2.24048, 3.7186, -0.140919, 0.00041791, -0.002006, 0.00149882, 0.00224703, 0.000757608, 0.000868771, 0.00451191, 0.000565253, -0.0107992, -0.0121249, -0.0120242, -0.00514445, 0.471006, -0.543381, 0.335898, -2.08384, -2.16585, -0.129881, 0.468933, -0.54282, 0.334543, -2.08318, -2.16362, -0.128067, -0.00066557, 0.00238079, 0.00123113, -0.00145859, -0.000434523, -0.0101154
0.0261677, 1.69118, -1.22705, -1.53942, -0.900196, -1.1923, 1.22802, -1.30262, 0.00146296, -0.0112704, -0.00927529, -0.00285469, -0.000148012, -0.00686197, -0.000626044, -0.357292, 60.4309, 30.095, 6.73187, 2.11139, 3.69021, -0.133595, 0.000411949, -0.00200758, 0.00151183, 0.00227146, 0.000757697, 0.000879902, 0.00363909, 0.000579247, -0.0118934, -0.017872, -0.0117612, -0.00202948, 0.471005, -0.543379, 0.335899, -2.08384, -2.16585, -0.129879, 0.468931, -0.542822, 0.334531, -2.08318, -2.1636, -0.128037, -0.000734245, 0.00263035, 0.0013598, -0.00161196, 0.000844568, -0.0109314
0.0271677, 1.69119, -1.22708, -1.53945, -0.9002, -1.19231, 1.22802, -1.30262, 0.00581366, -0.0176497, -0.0130888, -0.000660265, 0.0018512, -0.00415635, -0.0013668, -0.43267, 60.0223, 29.722, 6.65649, 2.03174, 3.65451, -0.10796, 0.000404069, -0.00200693, 0.00154275, 0.00230569, 0.000781557, 0.000883895, 0.00392016, -0.00160109, -0.0167715, -0.0182076, -0.0180424, -0.000187686, 0.471005, -0.543377, 0.3359, -2.08384, -2.16585, -0.129878, 0.46893, -0.542823, 0.3345, -2.08315, -2.16357, -0.128021, -0.000806507, 0.00289319, 0.0014953, 0.000327232, 0.00166992, -0.0157219
0.0281677, 1.6912, -1.2271, -1.53948, -0.900204, -1.19232, 1.22802, -1.30262, 0.00804498, -0.0175988, -0.0175668, -0.00550094, 0.00343405, -0.0026352, -0.00165718, -0.468376, 59.5462, 29.3888, 6.58508, 1.95209, 3.63254, -0.0878186, 0.000395046, -0.00200725, 0.00157112, 0.00234263, 0.00079618, 0.000890588, 0.00256449, -0.00366948, -0.0190802, -0.022831, -0.0175601, 0.00468048, 0.471004, -0.543375, 0.335901, -2.08384, -2.16585, -0.129876, 0.468929, -0.542825, 0.334472, -2.08313, -2.16354, -0.127993, -0.000882416, 0.00316954, 0.00163773, 0.00218519, 0.0037246, -0.0177111
0.0291677, 1.6912, -1.22714, -1.53952, -0.900214, -1.19233, 1.22803, -1.30262, 0.00574934, -0.0216088, -0.0234892, -0.00764519, -0.00232144, -0.00121422, -0.000121445, -0.468376, 59.2487, 29.0159, 6.58508, 1.92096, 3.60415, -0.114369, 0.000384832, -0.00200679, 0.00160534, 0.00238563, 0.000812121, 0.000900464, 0.00615268, -0.00157021, -0.0236873, -0.0305856, -0.0154378, -0.00219667, 0.471003, -0.543372, 0.335903, -2.08383, -2.16585, -0.129874, 0.468927, -0.542827, 0.334438, -2.0831, -2.16351, -0.127958, -0.000962028, 0.00345964, 0.00178723, -2.90069e-05, 0.00109549, -0.0226043
0.0301677, 1.69121, -1.22717, -1.53955, -0.900228, -1.19235, 1.22804, -1.30262, 0.00552464, -0.0229756, -0.0270774, -0.0138623, -0.00630971, 0.00145395, 0.000156395, -0.392998, 59.0305, 28.6429, 6.65649, 1.89075, 3.53274, -0.120778, 0.000373567, -0.00200556, 0.00163828, 0.00242071, 0.000823378, 0.000906737, 0.00667758, -0.00233805, -0.026484, -0.0364343, -0.0112328, -0.000550577, 0.471002, -0.543369, 0.335904, -2.08383, -2.16585, -0.129871, 0.468927, -0.54283, 0.334405, -2.08308, -2.16348, -0.127928, -0.0010454, 0.0037637, 0.0019439, 0.000572249, 0.0013432, -0.0253139
0.0311677, 1.69122, -1.22721, -1.53958, -0.90023, -1.19236, 1.22804, -1.30262, 0.00637224, -0.0286952, -0.0239783, -0.0100992, -0.00950622, 0.00254819, -0.000370454, -0.357292, 59.0305, 28.274, 6.5097, 1.85962, 3.48239, -0.10796, 0.000360308, -0.00200443, 0.00167571, 0.00245241, 0.000849168, 0.000915967, 0.00839678, -0.00254162, -0.0282827, -0.0332283, -0.0140526, -0.00222796, 0.471002, -0.543366, 0.335906, -2.08383, -2.16586, -0.129869, 0.468926, -0.542834, 0.334368, -2.08306, -2.16345, -0.127915, -0.00113257, 0.00408193, 0.00210783, 0.000684897, 0.00024931, -0.0271989
0.0321677, 1.69123, -1.22723, -1.53962, -0.900237, -1.19238, 1.22805, -1.30262, 0.00694713, -0.0270608, -0.0279549, -0.0100334, -0.0169088, 0.00229804, 0.00344456, -0.317619, 58.8083, 28.0478, 6.47003, 1.82941, 3.46042, -0.0814099, 0.000350129, -0.002002, 0.00170358, 0.00249187, 0.000850603, 0.000919569, 0.0106301, -0.00131978, -0.028889, -0.0404464, -0.00598083, -0.0102404, 0.471001, -0.543362, 0.335908, -2.08383, -2.16586, -0.129866, 0.468927, -0.542836, 0.33434, -2.08304, -2.16343, -0.12787, -0.0012236, 0.00441451, 0.00227914, -0.000568428, -0.00157966, -0.027936
0.0331677, 1.69124, -1.22726, -1.53965, -0.900237, -1.1924, 1.22805, -1.30262, 0.00854776, -0.0278765, -0.0283147, -0.00436927, -0.0163837, 0.002151, 0.00319457, -0.317619, 58.8083, 27.8614, 6.32324, 1.77997, 3.43936, -0.0951428, 0.000339041, -0.00199959, 0.00173387, 0.00252548, 0.000864925, 0.000930041, 0.0120034, -0.00102214, -0.0289271, -0.0384253, -0.00747545, -0.0136491, 0.470999, -0.543358, 0.33591, -2.08382, -2.16586, -0.129863, 0.468928, -0.542839, 0.334311, -2.08302, -2.1634, -0.127843, -0.00131852, 0.00476163, 0.0024579, -0.00091288, -0.00259462, -0.0279991
0.0341677, 1.69125, -1.22728, -1.53968, -0.900249, -1.19241, 1.22806, -1.30262, 0.00792421, -0.0230948, -0.0298721, -0.00374834, -0.0163338, 0.00212712, 0.00191327, -0.242241, 58.7329, 27.7146, 6.32324, 1.73694, 3.41739, -0.0814099, 0.000331855, -0.00199479, 0.00175684, 0.00256005, 0.000862862, 0.000931273, 0.0127163, -0.000262696, -0.0266777, -0.0391543, -0.00248624, -0.0146589, 0.470998, -0.543354, 0.335912, -2.08382, -2.16586, -0.12986, 0.468931, -0.542838, 0.334289, -2.083, -2.16339, -0.127799, -0.00141737, 0.00512346, 0.00264421, -0.00166349, -0.00331395, -0.0256793
0.0351677, 1.69127, -1.2273, -1.53971, -0.900256, -1.19243, 1.22806, -1.30262, 0.00740916, -0.0212323, -0.0292586, -0.0054356, -0.0158529, 0.00210745, 0.00078257, -0.166862, 58.7329, 27.6749, 6.28357, 1.6875, 3.39633, -0.0621838, 0.000323766, -0.0019899, 0.00178165, 0.00259778, 0.000862704, 0.000931884, 0.0124506, -0.000568508, -0.0257045, -0.0391447, -0.000680406, -0.0124611, 0.470997, -0.543349, 0.335915, -2.08382, -2.16586, -0.129856, 0.468934, -0.542837, 0.334266, -2.08298, -2.16338, -0.127753, -0.00152019, 0.00550014, 0.00283813, -0.00143528, -0.00281227, -0.0244924
0.0361677, 1.69129, -1.22731, -1.53974, -0.900266, -1.19244, 1.22806, -1.30262, 0.0134608, -0.0173503, -0.0322924, -0.00669878, -0.015923, 0.00187962, 0.000177438, -0.0914839, 58.7726, 27.6392, 6.24786, 1.64447, 3.38168, -0.0484509, 0.00031914, -0.00198218, 0.00180188, 0.00263355, 0.000857804, 0.000925512, 0.0100705, -0.00368886, -0.025147, -0.0434199, 0.0039015, -0.0066662, 0.470995, -0.543344, 0.335917, -2.08381, -2.16587, -0.129852, 0.468939, -0.542833, 0.334247, -2.08295, -2.16338, -0.127705, -0.00162701, 0.00589181, 0.00303974, 0.00150916, -2.89812e-05, -0.023465
0.0371677, 1.6913, -1.22731, -1.53976, -0.900275, -1.19246, 1.22807, -1.30262, 0.0115879, -0.0132673, -0.0325056, -0.010636, -0.0163962, 0.00252459, 0.0012249, 0.134651, 58.7726, 27.6749, 6.20819, 1.61426, 3.34598, -0.0750012, 0.000313163, -0.00197526, 0.00181344, 0.00266268, 0.00083504, 0.000926687, 0.00999533, -0.00357046, -0.0233547, -0.044686, 0.00926054, -0.00680144, 0.470994, -0.543338, 0.33592, -2.08381, -2.16587, -0.129848, 0.468945, -0.542831, 0.334238, -2.08295, -2.16338, -0.127646, -0.00173785, 0.0062986, 0.00324909, 0.00134207, 0.000171363, -0.0214707
0.0381677, 1.69131, -1.2273, -1.53979, -0.900289, -1.19248, 1.22807, -1.30262, 0.0107839, -0.00955077, -0.0332694, -0.0155071, -0.0166061, 0.00634556, 0.000434329, 0.475838, 58.8837, 27.7503, 6.24786, 1.57764, 3.34598, -0.0621838, 0.000307571, -0.00197065, 0.00182547, 0.00269323, 0.000821024, 0.00092297, 0.00961356, -0.00478458, -0.0218863, -0.0441974, 0.0157692, -0.00340774, 0.470992, -0.543332, 0.335923, -2.0838, -2.16587, -0.129843, 0.468947, -0.542828, 0.334228, -2.08293, -2.16338, -0.127593, -0.00185274, 0.00672061, 0.00346625, 0.00247908, 0.000793977, -0.019781
0.0391677, 1.69133, -1.2273, -1.53981, -0.900305, -1.19249, 1.22807, -1.30262, 0.00846692, -0.00486814, -0.0311239, -0.0125557, -0.0171625, 0.00354229, -0.000861815, 0.777352, 58.9194, 27.8614, 6.28357, 1.55292, 3.37436, -0.0292249, 0.000303898, -0.0019643, 0.00183373, 0.00272377, 0.000799554, 0.000915462, 0.0109207, -0.00265056, -0.0182386, -0.0430562, 0.0193371, -0.00660142, 0.470991, -0.543326, 0.335927, -2.0838, -2.16588, -0.129838, 0.468952, -0.542824, 0.334222, -2.08291, -2.16339, -0.127534, -0.0019717, 0.00715794, 0.00369125, 0.000407399, -0.000707887, -0.0160926
0.0401677, 1.69134, -1.22729, -1.53982, -0.900324, -1.19251, 1.22808, -1.30262, 0.00813411, -0.00213839, -0.0291025, -0.0174088, -0.0187937, 0.00621267, -0.0007599, 1.15424, 58.9908, 27.9725, 6.35895, 1.56482, 3.40365, -0.0228162, 0.000298958, -0.00195729, 0.00184191, 0.00275006, 0.000775019, 0.000908355, 0.0100433, -0.0042712, -0.016496, -0.0419554, 0.0253133, -0.00279501, 0.470989, -0.543319, 0.33593, -2.08379, -2.16588, -0.129833, 0.468957, -0.542821, 0.334217, -2.0829, -2.16341, -0.127475, -0.00209472, 0.00761066, 0.00392413, 0.00193445, 0.000409153, -0.0140518
0.0411677, 1.69134, -1.22729, -1.53984, -0.900341, -1.19253, 1.22808, -1.30261, 0.00747196, 8.95122e-06, -0.0268117, -0.0192467, -0.0193903, 0.00368351, 0.00170254, 1.57081, 59.0662, 28.1986, 6.35895, 1.55932, 3.43204, -0.0814099, 0.000291873, -0.00195356, 0.00185136, 0.00278058, 0.000754847, 0.000913262, 0.0094739, -0.0042603, -0.0150245, -0.0432272, 0.0270118, -0.00384244, 0.470987, -0.543312, 0.335934, -2.08379, -2.16589, -0.129827, 0.468958, -0.542819, 0.33421, -2.08289, -2.16341, -0.127415, -0.00222183, 0.00807884, 0.00416491, 0.00182922, 0.00121254, -0.0122693
0.0421677, 1.69135, -1.22729, -1.53985, -0.90036, -1.19255, 1.22808, -1.30262, 0.00899383, -7.50316e-05, -0.0228983, -0.0174872, -0.0208517, 0.00184918, 0.00068956, 1.90803, 59.213, 28.3454, 6.35895, 1.58313, 3.46042, -0.0685925, 0.000287508, -0.00194429, 0.00185926, 0.00280151, 0.000732864, 0.0009005, 0.00913375, -0.00503199, -0.0138491, -0.041702, 0.0271952, -0.00188822, 0.470984, -0.543304, 0.335938, -2.08378, -2.16589, -0.129821, 0.468965, -0.542813, 0.334205, -2.08287, -2.16343, -0.127364, -0.00235303, 0.00856251, 0.00441363, 0.00249899, 0.00188274, -0.0108305
0.0431677, 1.69137, -1.22729, -1.53986, -0.900368, -1.19257, 1.22809, -1.30262, 0.00864017, 0.00145241, -0.0208199, -0.0157105, -0.0212738, 0.00583626, 6.9268e-06, 2.17384, 59.4351, 28.5319, 6.20819, 1.59595, 3.47507, -0.0557752, 0.000281138, -0.00193436, 0.00187074, 0.00281964, 0.000719438, 0.000892031, 0.010279, -0.00558048, -0.0117729, -0.0358103, 0.0310825, -0.00270673, 0.470982, -0.543295, 0.335942, -2.08378, -2.16589, -0.129815, 0.468973, -0.542809, 0.334197, -2.08285, -2.16344, -0.127325, -0.00248832, 0.00906169, 0.00467028, 0.00302752, 0.000954228, -0.00871796
0.0441677, 1.69138, -1.22729, -1.53988, -0.900382, -1.19259, 1.22809, -1.30262, 0.0117848, 0.0034223, -0.0174339, -0.0157863, -0.0172823, 0.00846651, -0.00119963, 2.43568, 59.5065, 28.7937, 6.09711, 1.63257, 3.49612, -0.0228162, 0.000274479, -0.00192528, 0.00187804, 0.00284263, 0.00069256, 0.000882414, 0.00801268, -0.00898232, -0.00953875, -0.0292904, 0.031323, 0.00415872, 0.47098, -0.543286, 0.335947, -2.08377, -2.1659, -0.129808, 0.468979, -0.542805, 0.334193, -2.08284, -2.16347, -0.127267, -0.00262768, 0.00957641, 0.00493487, 0.00628518, 0.00350193, -0.00599832
0.0451677, 1.6914, -1.2273, -1.53989, -0.90039, -1.19261, 1.22809, -1.30262, 0.0104897, -0.00153244, -0.0163664, -0.0141887, -0.0135073, 0.0087848, 0.000433289, 2.70148, 59.8398, 28.9802, 5.91064, 1.65088, 3.56112, -0.0557752, 0.000265447, -0.00191787, 0.0018943, 0.00286673, 0.000687819, 0.000882924, 0.00915936, -0.00879011, -0.0119372, -0.026009, 0.0235748, 0.00126447, 0.470977, -0.543277, 0.335952, -2.08376, -2.1659, -0.129801, 0.468984, -0.542802, 0.33418, -2.08282, -2.16346, -0.127228, -0.00277111, 0.0101066, 0.00520739, 0.00590414, 0.00326137, -0.00826627
0.0461677, 1.69142, -1.2273, -1.5399, -0.900392, -1.19264, 1.22809, -1.30261, 0.0141046, -0.00306122, -0.0146312, -0.00740768, -0.0166155, 0.00504084, 2.68471e-05, 2.77686, 60.0977, 29.1269, 5.6131, 1.6875, 3.61148, -0.0484509, 0.000259741, -0.00190382, 0.00190465, 0.00288382, 0.000671759, 0.000875788, 0.01016, -0.00873613, -0.0119838, -0.0269029, 0.022534, -0.00134289, 0.470974, -0.543267, 0.335957, -2.08375, -2.16591, -0.129793, 0.468995, -0.542795, 0.334174, -2.08281, -2.16348, -0.127186, -0.00291859, 0.0106523, 0.00548782, 0.00573692, 0.00282414, -0.00818547
0.0471677, 1.69144, -1.2273, -1.53991, -0.900396, -1.19266, 1.2281, -1.30262, 0.0168571, 0.00100576, -0.0143307, -0.00441254, -0.0180718, 0.00231646, -0.000687237, 2.96729, 60.2802, 29.3134, 5.38696, 1.70032, 3.66092, -0.0292249, 0.000250844, -0.00189371, 0.00191382, 0.00290108, 0.000653303, 0.000871635, 0.00999219, -0.00906581, -0.00964706, -0.0285982, 0.0266262, -0.00143405, 0.470971, -0.543256, 0.335962, -2.08375, -2.16592, -0.129785, 0.469002, -0.542792, 0.334169, -2.08279, -2.16349, -0.12714, -0.0030701, 0.0112135, 0.00577613, 0.00599314, 0.00320496, -0.00557374
0.0481677, 1.69147, -1.22731, -1.53993, -0.900401, -1.19268, 1.2281, -1.30262, 0.0183014, -0.00269132, -0.0132415, -0.0040922, -0.0241168, 0.00477692, -0.00191101, 3.04267, 60.6134, 29.4642, 5.24017, 1.71863, 3.7186, 0.0101428, 0.000244188, -0.00187931, 0.00192962, 0.00292347, 0.000644574, 0.000856295, 0.0116389, -0.0099732, -0.0114467, -0.0289606, 0.0294579, -0.000986262, 0.470968, -0.543245, 0.335968, -2.08374, -2.16592, -0.129777, 0.469013, -0.542784, 0.334157, -2.08276, -2.16351, -0.1271, -0.0032256, 0.01179, 0.00607228, 0.00673779, 0.00246993, -0.00733749
0.0491677, 1.69149, -1.22732, -1.53994, -0.900402, -1.19271, 1.2281, -1.30261, 0.0174862, -0.00360213, -0.0123822, 0.000271563, -0.0245079, 0.0024318, 0.0011713, 3.19343, 60.8713, 29.611, 5.05371, 1.75525, 3.76163, -0.0557752, 0.000231612, -0.00186955, 0.00194438, 0.00294032, 0.000633734, 0.000864823, 0.0136703, -0.00837993, -0.0114371, -0.028567, 0.027664, -0.00890138, 0.470965, -0.543234, 0.335974, -2.08373, -2.16593, -0.129768, 0.469019, -0.542782, 0.334147, -2.08276, -2.16351, -0.12706, -0.00338507, 0.0123818, 0.00637623, 0.00506028, 0.000989504, -0.00729121
0.0501677, 1.69151, -1.22732, -1.53994, -0.900403, -1.19274, 1.22811, -1.30261, 0.0208405, -0.00467929, -0.0109439, -0.00222043, -0.0255651, 0.00198059, 3.78107e-05, 3.30451, 61.0181, 29.722, 4.97833, 1.81659, 3.76895, -0.0356336, 0.000221346, -0.00185651, 0.00195246, 0.00295321, 0.000609718, 0.000858182, 0.0120612, -0.0110386, -0.0123298, -0.0302557, 0.0278855, -0.00243438, 0.470962, -0.543221, 0.335981, -2.08372, -2.16594, -0.129759, 0.469029, -0.542778, 0.334143, -2.08275, -2.16353, -0.127013, -0.00354847, 0.0129888, 0.00668792, 0.0074621, 0.00343146, -0.00769161
0.0511677, 1.69153, -1.22733, -1.53995, -0.900409, -1.19277, 1.22811, -1.30262, 0.0229229, -0.00744959, -0.0100552, -0.00250835, -0.0255897, 0.00101349, -0.000447314, 3.41956, 61.2402, 29.8371, 4.97833, 1.85962, 3.79001, -0.0228162, 0.00021018, -0.00184404, 0.00196502, 0.00297241, 0.000589977, 0.000851277, 0.0117, -0.0124501, -0.01409, -0.0312953, 0.0251328, 0.000299136, 0.470958, -0.543208, 0.335987, -2.08371, -2.16594, -0.129749, 0.469038, -0.542774, 0.334135, -2.08273, -2.16355, -0.126963, -0.00371575, 0.0136108, 0.00700727, 0.00862788, 0.00473889, -0.00909697
0.0521677, 1.69156, -1.22733, -1.53995, -0.900414, -1.1928, 1.22811, -1.30262, 0.0224555, -0.00457572, -0.00675448, -0.0032785, -0.0245363, 0.000216607, -0.00077128, 3.49494, 61.387, 29.8371, 5.01404, 1.87244, 3.81198, -0.00999879, 0.000201174, -0.00182906, 0.00197306, 0.00298307, 0.000569674, 0.000839682, 0.0111186, -0.0130181, -0.0116019, -0.0289416, 0.0270212, 0.00217777, 0.470955, -0.543195, 0.335994, -2.0837, -2.16595, -0.129738, 0.469049, -0.542767, 0.334132, -2.08271, -2.16358, -0.126921, -0.00388686, 0.0142477, 0.0073342, 0.00909326, 0.00559025, -0.00624025
0.0531677, 1.69158, -1.22733, -1.53996, -0.900415, -1.19283, 1.22811, -1.30261, 0.0210904, -0.00184137, -0.00890293, -0.00369197, -0.0242728, -0.000911964, 0.000436484, 3.60603, 61.4981, 30.0236, 5.05371, 1.90265, 3.84768, -0.0356336, 0.000185454, -0.00182033, 0.00198436, 0.00300496, 0.000546179, 0.000847613, 0.0123241, -0.0118965, -0.0110642, -0.0317187, 0.029557, -0.00156809, 0.470951, -0.54318, 0.336002, -2.08369, -2.16596, -0.129728, 0.469054, -0.542767, 0.334126, -2.08271, -2.16358, -0.126861, -0.00406174, 0.0148993, 0.00766863, 0.00786094, 0.00492314, -0.00552807
0.0541677, 1.69159, -1.22734, -1.53997, -0.900421, -1.19286, 1.22811, -1.30262, 0.0191642, -0.00467776, -0.0067992, 0.000859956, -0.0279221, -0.00200213, -0.00065752, 3.75678, 61.6806, 30.0593, 5.16479, 1.89075, 3.89071, -0.00999879, 0.000171148, -0.00180982, 0.00199639, 0.00302124, 0.000529638, 0.00084369, 0.0156811, -0.00977159, -0.0115756, -0.0305944, 0.0290464, -0.00708623, 0.470947, -0.543166, 0.336009, -2.08368, -2.16597, -0.129716, 0.469061, -0.542764, 0.334119, -2.0827, -2.1636, -0.126816, -0.00424034, 0.0155655, 0.00801045, 0.00566212, 0.00226665, -0.00614784
0.0551677, 1.69162, -1.22734, -1.53998, -0.90042, -1.19289, 1.22811, -1.30261, 0.0181719, -0.00333969, -0.00715277, 0.00308301, -0.0245551, -0.00277879, 0.000749143, 3.75678, 61.7163, 30.1703, 5.2005, 1.85321, 3.93374, -0.0420422, 0.00015826, -0.001796, 0.00200552, 0.00303758, 0.00050629, 0.000844227, 0.0167137, -0.00903355, -0.010856, -0.0289841, 0.0275091, -0.0110675, 0.470942, -0.54315, 0.336017, -2.08367, -2.16597, -0.129705, 0.46907, -0.542759, 0.334116, -2.08269, -2.16361, -0.126762, -0.00442257, 0.0162459, 0.00835954, 0.00480599, 0.00178664, -0.00522605
0.0561677, 1.69164, -1.22734, -1.53997, -0.900432, -1.19292, 1.22811, -1.30262, 0.0186841, -0.00529241, -0.00394943, -0.00189149, -0.0269651, -0.00255408, -0.00167019, 3.83216, 61.8671, 30.1346, 5.38696, 1.80469, 3.95572, 0.0165515, 0.000147662, -0.00177997, 0.00201827, 0.00305412, 0.000490189, 0.00082399, 0.0157769, -0.0109701, -0.011803, -0.0300189, 0.0283717, -0.00360709, 0.470938, -0.543134, 0.336026, -2.08366, -2.16598, -0.129692, 0.469082, -0.542751, 0.334109, -2.08265, -2.16364, -0.126717, -0.00460838, 0.0169405, 0.00871578, 0.00648637, 0.00363131, -0.00571816
0.0571677, 1.69167, -1.22735, -1.53998, -0.900427, -1.19295, 1.22811, -1.30261, 0.0216478, -0.00568854, -0.00348028, -0.000114636, -0.034845, -0.0018559, 0.00105707, 3.79646, 61.9742, 30.1703, 5.35126, 1.76807, 3.96213, -0.0420422, 0.000132498, -0.00176581, 0.00202978, 0.00306498, 0.000474996, 0.000829656, 0.0173225, -0.0117369, -0.0119584, -0.0326336, 0.0351802, -0.00797017, 0.470933, -0.543117, 0.336034, -2.08364, -2.16599, -0.129679, 0.469092, -0.542746, 0.334104, -2.08265, -2.16365, -0.126676, -0.00479766, 0.0176488, 0.00907903, 0.00711276, 0.00286923, -0.0057713
0.0581677, 1.6917, -1.22736, -1.53998, -0.900434, -1.19299, 1.22811, -1.30261, 0.0268066, -0.00705979, -0.00232926, -0.0016063, -0.0295462, -0.0014454, 0.00527258, 3.75678, 62.1249, 30.1703, 5.42664, 1.71863, 3.96945, -0.0356336, 0.000120897, -0.00174742, 0.00204492, 0.00307809, 0.000464666, 0.000814983, 0.0142521, -0.0160403, -0.0130468, -0.0307398, 0.0304051, -0.00404677, 0.470929, -0.543099, 0.336043, -2.08363, -2.166, -0.129666, 0.469105, -0.542737, 0.334096, -2.08262, -2.16368, -0.126639, -0.00499035, 0.0183707, 0.00944913, 0.0110682, 0.00696673, -0.00612983
0.0591677, 1.69172, -1.22737, -1.53998, -0.900432, -1.19302, 1.22811, -1.30261, 0.0256146, -0.00794592, -0.0041581, -0.000895852, -0.0315889, -0.000916244, 0.00367833, 3.79646, 62.2717, 30.2814, 5.42664, 1.68201, 3.96945, -0.0292249, 9.94224e-05, -0.00173739, 0.00206177, 0.0030973, 0.00044841, 0.000825801, 0.0167046, -0.0149491, -0.0142595, -0.0327019, 0.0319821, -0.00642153, 0.470924, -0.543081, 0.336053, -2.08362, -2.16601, -0.129652, 0.46911, -0.542737, 0.334085, -2.08262, -2.16368, -0.126587, -0.00518633, 0.0191057, 0.00982594, 0.00982658, 0.00542241, -0.00729801
0.0601677, 1.69175, -1.22739, -1.53999, -0.900438, -1.19306, 1.22811, -1.30262, 0.0267223, -0.00942046, -0.00454041, -0.00130119, -0.0293076, -0.000846582, 0.00227797, 3.75678, 62.4542, 30.3568, 5.46234, 1.68201, 3.97677, -0.0164075, 8.46104e-05, -0.00171966, 0.00207927, 0.0031185, 0.000432845, 0.000812855, 0.0166709, -0.0160702, -0.0156265, -0.0327244, 0.0292906, -0.00359966, 0.470918, -0.543062, 0.336063, -2.0836, -2.16602, -0.129638, 0.469122, -0.542729, 0.334075, -2.08258, -2.1637, -0.126534, -0.00538552, 0.0198537, 0.0102093, 0.0106963, 0.00646013, -0.00829326
0.0611677, 1.69177, -1.2274, -1.53999, -0.90044, -1.1931, 1.22811, -1.30261, 0.0246098, -0.0168937, -0.00386599, -0.000769012, -0.03197, -0.000537752, 0.00245608, 3.83216, 62.6407, 30.3925, 5.46234, 1.66369, 3.97677, -0.0356336, 6.35446e-05, -0.00170647, 0.00209661, 0.00312949, 0.000420505, 0.00082002, 0.019701, -0.0149588, -0.0198276, -0.0334824, 0.024548, -0.00739933, 0.470913, -0.543042, 0.336073, -2.08359, -2.16603, -0.129623, 0.46913, -0.542727, 0.334064, -2.08258, -2.16371, -0.126494, -0.0055878, 0.0206142, 0.0105989, 0.00934067, 0.00482982, -0.0124883
0.0621677, 1.6918, -1.22742, -1.54, -0.900445, -1.19313, 1.22811, -1.30261, 0.0268141, -0.0177427, -0.00350822, -0.00136686, -0.0349539, -0.000338524, 0.00204376, 3.75678, 62.8986, 30.4322, 5.50201, 1.66919, 3.97677, -0.0420422, 4.64995e-05, -0.0016881, 0.00211896, 0.00315203, 0.000411614, 0.000812878, 0.0199933, -0.0162933, -0.0206446, -0.0354188, 0.0268786, -0.00575223, 0.470907, -0.543021, 0.336083, -2.08357, -2.16604, -0.129607, 0.469143, -0.542719, 0.334049, -2.08255, -2.16372, -0.126445, -0.00579309, 0.0213869, 0.0109948, 0.010449, 0.00549467, -0.012985
0.0631677, 1.69182, -1.22743, -1.54001, -0.900441, -1.19317, 1.22811, -1.30261, 0.0254036, -0.013835, -0.00493942, 7.2157e-05, -0.0318672, 0.000331834, 0.00101455, 3.79646, 62.97, 30.5433, 5.46234, 1.6756, 3.96213, -0.0292249, 2.27965e-05, -0.00167615, 0.00213421, 0.00316662, 0.000393364, 0.000820685, 0.0212816, -0.0155153, -0.0187924, -0.0337579, 0.0290383, -0.00776938, 0.470902, -0.543, 0.336094, -2.08356, -2.16606, -0.129591, 0.469149, -0.542718, 0.334041, -2.08254, -2.16373, -0.126393, -0.00600136, 0.0221719, 0.0113968, 0.00957734, 0.00469087, -0.0109304
0.0641677, 1.69186, -1.22743, -1.54001, -0.900445, -1.19321, 1.22811, -1.30261, 0.0300098, -0.0112386, -0.0094244, -0.000838383, -0.0343973, 0.00023246, 0.000296722, 3.72108, 63.0453, 30.6544, 5.50201, 1.6756, 3.96213, -0.0164075, 4.99977e-06, -0.00165615, 0.00215035, 0.00318486, 0.000370783, 0.000811514, 0.0210052, -0.017352, -0.0195043, -0.0402192, 0.0347142, -0.0054323, 0.470896, -0.542978, 0.336106, -2.08354, -2.16607, -0.129574, 0.469163, -0.54271, 0.334034, -2.08252, -2.16376, -0.126334, -0.00621258, 0.0229689, 0.0118049, 0.0111647, 0.005946, -0.0112381
0.0651677, 1.69188, -1.22745, -1.54002, -0.900448, -1.19324, 1.22811, -1.30261, 0.0277614, -0.0119504, -0.00741364, -0.00136299, -0.0311943, 0.000163401, 0.00121855, 3.75678, 63.2278, 30.6901, 5.53772, 1.6756, 3.96213, -0.0420422, -1.70139e-05, -0.00164054, 0.00217093, 0.00320364, 0.000360149, 0.000810496, 0.0217253, -0.0171166, -0.0194483, -0.037336, 0.0317531, -0.0067472, 0.470889, -0.542955, 0.336118, -2.08352, -2.16608, -0.129557, 0.469173, -0.542705, 0.334021, -2.08249, -2.16377, -0.126285, -0.0064267, 0.0237778, 0.012219, 0.0107435, 0.00602582, -0.0108733
0.0661677, 1.69191, -1.22745, -1.54002, -0.900446, -1.19328, 1.22811, -1.30261, 0.027834, -0.00727348, -0.00516405, -5.00803e-05, -0.0336406, 0.000623881, 0.00039113, 3.72108, 63.1921, 30.6901, 5.50201, 1.6756, 3.94839, -0.0292249, -3.64532e-05, -0.00162168, 0.00217965, 0.00321136, 0.000334241, 0.000807947, 0.0225935, -0.0171804, -0.0159633, -0.0354567, 0.0389522, -0.00751817, 0.470883, -0.542931, 0.33613, -2.0835, -2.16609, -0.129539, 0.469185, -0.542698, 0.334021, -2.08248, -2.1638, -0.126233, -0.00664368, 0.0245986, 0.0126391, 0.0107482, 0.00545623, -0.00714868
0.0671677, 1.69194, -1.22745, -1.54004, -0.900451, -1.19331, 1.22811, -1.30261, 0.0262995, -0.00755378, -0.0104696, -0.0017791, -0.0350534, 0.000149394, -0.000173857, 3.75678, 63.3032, 30.8408, 5.57739, 1.65729, 3.95572, -0.0164075, -6.04185e-05, -0.00160641, 0.0022004, 0.00323649, 0.000317637, 0.000809318, 0.0250158, -0.0157253, -0.018493, -0.0421312, 0.040614, -0.0106745, 0.470876, -0.542906, 0.336143, -2.08349, -2.16611, -0.12952, 0.469194, -0.542694, 0.334009, -2.08246, -2.16381, -0.126169, -0.00686349, 0.0254311, 0.0130651, 0.00907061, 0.0042266, -0.00955221
0.0681677, 1.69198, -1.22746, -1.54004, -0.900452, -1.19335, 1.22811, -1.30262, 0.0286187, -0.00762126, -0.0124788, -0.00117293, -0.0368168, -0.000405475, -0.000831808, 3.6457, 63.4103, 30.9162, 5.57739, 1.65729, 3.96945, 0.00373412, -8.18038e-05, -0.00158511, 0.00221857, 0.00325391, 0.000297688, 0.000799092, 0.0257894, -0.0164381, -0.0196185, -0.0456324, 0.042449, -0.0105246, 0.470869, -0.542881, 0.336156, -2.08347, -2.16612, -0.129501, 0.469209, -0.542686, 0.334, -2.08243, -2.16384, -0.126112, -0.00708609, 0.0262753, 0.013497, 0.00954694, 0.00450963, -0.0103733
0.0691677, 1.69201, -1.22746, -1.54006, -0.900454, -1.19339, 1.22811, -1.30261, 0.0267767, -0.00606868, -0.0114973, -0.00160731, -0.0383769, -0.00026765, -2.33516e-05, 3.6814, 63.45, 31.0273, 5.6131, 1.66369, 3.96945, -0.00999879, -0.000105581, -0.00156679, 0.00223508, 0.00327212, 0.000275046, 0.000802617, 0.0273728, -0.0156984, -0.0186012, -0.0455376, 0.0458496, -0.0135732, 0.470862, -0.542854, 0.336169, -2.08345, -2.16613, -0.129481, 0.46922, -0.54268, 0.333993, -2.08242, -2.16386, -0.126048, -0.00731145, 0.027131, 0.0139346, 0.00867707, 0.00361528, -0.00915431
0.0701677, 1.69201, -1.22746, -1.54006, -0.900454, -1.19339, 1.22811, -1.30261, 0.0267767, -0.00606868, -0.0114973, -0.00160731, -0.0383769, -0.00026765, -2.33516e-05, 3.6814, 63.45, 31.0273, 5.6131, 1.66369, 3.96945, -0.00999879, -0.000134759, -0.00156016, 0.00224442, 0.0032582, 0.000281539, 0.000817806, 0.028306, -0.0159037, -0.0188974, -0.0459084, 0.0464474, -0.0143045, 0.470855, -0.542827, 0.336183, -2.08343, -2.16615, -0.129461, 0.46922, -0.54268, 0.333993, -2.08242, -2.16386, -0.126048, -0.00753952, 0.0279981, 0.014378, 0.00867707, 0.00361528, -0.00915431
0.0711677, 1.69201, -1.22746, -1.54006, -0.900454, -1.19339, 1.22811, -1.30261, 0.0267767, -0.00606868, -0.0114973, -0.00160731, -0.0383769, -0.00026765, -2.33516e-05, 3.6814, 63.45, 31.0273, 5.6131, 1.66369, 3.96945, -0.00999879, -0.000164868, -0.00155331, 0.00225406, 0.00324384, 0.000288233, 0.000833473, 0.0292513, -0.0161114, -0.0191973, -0.0462834, 0.0470527, -0.0150448, 0.470847, -0.542799, 0.336197, -2.08341, -2.16616, -0.12944, 0.46922, -0.54268, 0.333993, -2.08242, -2.16386, -0.126048, -0.00777026, 0.0288765, 0.0148271, 0.00867707, 0.00361528, -0.00915431
0.0721677, 1.69201, -1.22746, -1.54006, -0.900454, -1.19339, 1.22811, -1.30261, 0.0267767, -0.00606868, -0.0114973, -0.00160731, -0.0383769, -0.00026765, -2.33516e-05, 3.6814, 63.45, 31.0273, 5.6131, 1.66369, 3.96945, -0.00999879, -0.000195922, -0.00154626, 0.00226401, 0.00322903, 0.000295129, 0.000849623, 0.0302086, -0.0163213, -0.019501, -0.0466627, 0.0476655, -0.015794, 0.47084, -0.54277, 0.336212, -2.08339, -2.16618, -0.129418, 0.46922, -0.54268, 0.333993, -2.08242, -2.16386, -0.126048, -0.00800365, 0.0297661, 0.0152818, 0.00867707, 0.00361528, -0.00915431
0.0731677, 1.69217, -1.22749, -1.5401, -0.900447, -1.19355, 1.22811, -1.30261, 0.0390366, -0.0131353, -0.0107221, 0.00211621, -0.0339395, -0.000411706, 0.000459078, 3.37989, 63.7793, 31.2137, 5.46234, 1.77356, 3.97677, -0.0292249, -0.000200528, -0.00147367, 0.00231167, 0.00335135, 0.000186121, 0.000787871, 0.0264455, -0.0233226, -0.0238266, -0.0451537, 0.0375597, -0.006196, 0.470832, -0.542741, 0.336228, -2.08336, -2.16619, -0.129396, 0.469283, -0.542644, 0.333959, -2.08232, -2.16395, -0.125786, -0.00823965, 0.0306668, 0.015742, 0.0151398, 0.0091856, -0.0125948
0.0741677, 1.69221, -1.2275, -1.54011, -0.900449, -1.1936, 1.22811, -1.30261, 0.0383051, -0.0127344, -0.00953298, 0.00677477, -0.0371865, -2.5705e-06, 0.000548765, 3.37989, 63.9261, 31.2891, 5.50201, 1.81659, 3.96945, -0.0356336, -0.000225906, -0.00144907, 0.00233667, 0.00337964, 0.00016747, 0.000782006, 0.0295321, -0.0219972, -0.0227593, -0.043301, 0.0409403, -0.012377, 0.470823, -0.54271, 0.336243, -2.08334, -2.16621, -0.129373, 0.469299, -0.542634, 0.333945, -2.08229, -2.16398, -0.125713, -0.00847821, 0.0315785, 0.0162078, 0.0137281, 0.00683144, -0.0115135
0.0751677, 1.69227, -1.22751, -1.54013, -0.900444, -1.19364, 1.22811, -1.30261, 0.0448948, -0.0155476, -0.00849204, 0.00680564, -0.0396721, -1.23906e-06, 0.000844577, 3.22913, 64.0768, 31.3605, 5.42664, 1.85321, 3.96945, -0.0484509, -0.000252263, -0.00142139, 0.00236314, 0.00340846, 0.000146083, 0.000777759, 0.0281474, -0.0258608, -0.0246984, -0.0451837, 0.040952, -0.00724555, 0.470815, -0.542678, 0.33626, -2.08332, -2.16623, -0.129349, 0.469318, -0.542623, 0.33393, -2.08226, -2.164, -0.125637, -0.0087193, 0.0325011, 0.016679, 0.0172249, 0.00957917, -0.0128601
0.0761677, 1.69231, -1.22753, -1.54015, -0.900437, -1.19369, 1.22811, -1.30261, 0.0416051, -0.014365, -0.0150936, 0.00669475, -0.0407473, 0.000270797, 0.000328704, 3.26881, 64.2236, 31.4716, 5.35126, 1.87793, 3.96213, -0.0420422, -0.000285981, -0.0014001, 0.00239118, 0.00343833, 0.000123941, 0.000789291, 0.0320798, -0.022999, -0.0264795, -0.0510614, 0.0441175, -0.0142173, 0.470806, -0.542646, 0.336276, -2.08329, -2.16625, -0.129324, 0.469331, -0.542619, 0.333913, -2.08224, -2.164, -0.125555, -0.00896288, 0.0334345, 0.0171556, 0.0142007, 0.00678604, -0.0146649
0.0771677, 1.69236, -1.22754, -1.54016, -0.900429, -1.19374, 1.22812, -1.30261, 0.0452955, -0.013435, -0.0144114, 0.00652222, -0.0415841, 0.000689425, 0.000730021, 3.19343, 64.3704, 31.4716, 5.27588, 1.90265, 3.94839, -0.0557752, -0.000315491, -0.00137125, 0.00241649, 0.00345781, 9.98488e-05, 0.000785608, 0.0313869, -0.0254159, -0.0261928, -0.0514666, 0.0466768, -0.011585, 0.470797, -0.542612, 0.336293, -2.08327, -2.16626, -0.129299, 0.469351, -0.542609, 0.3339, -2.08221, -2.16403, -0.125485, -0.00920893, 0.0343785, 0.0176375, 0.0163539, 0.0084703, -0.0138661
0.0781677, 1.69242, -1.22755, -1.54018, -0.900428, -1.19379, 1.22812, -1.30261, 0.0479589, -0.0101104, -0.014903, 0.00457001, -0.0411184, 0.00100235, 0.000963092, 3.11805, 64.4061, 31.5113, 5.27588, 1.89624, 3.93374, -0.0685925, -0.00034222, -0.00133957, 0.00244134, 0.0034877, 6.81089e-05, 0.000776067, 0.0303855, -0.0275324, -0.0251199, -0.0528702, 0.0507087, -0.00842229, 0.470788, -0.542578, 0.336311, -2.08324, -2.16628, -0.129273, 0.469374, -0.542596, 0.333888, -2.08218, -2.16407, -0.125394, -0.00945739, 0.0353331, 0.0181247, 0.0182222, 0.0103367, -0.0122289
0.0791677, 1.69247, -1.22756, -1.54021, -0.900422, -1.19385, 1.22812, -1.3026, 0.0480409, -0.0113408, -0.0182222, 0.0049763, -0.0474845, 0.000939652, 0.000168614, 3.11805, 64.5926, 31.547, 5.2005, 1.92737, 3.92642, -0.0557752, -0.000375281, -0.00131259, 0.00247105, 0.00351794, 4.44861e-05, 0.000778873, 0.0335641, -0.0264198, -0.0272988, -0.0591258, 0.0555101, -0.0124109, 0.470779, -0.542543, 0.336329, -2.08322, -2.1663, -0.129247, 0.469391, -0.542588, 0.333871, -2.08215, -2.16408, -0.12531, -0.00970824, 0.0362982, 0.0186171, 0.0168958, 0.00845278, -0.014347
0.0801677, 1.69252, -1.22756, -1.54023, -0.90042, -1.1939, 1.22812, -1.3026, 0.0484852, -0.00857493, -0.0185167, 0.00661154, -0.0461164, 0.00113517, -0.000157905, 3.11805, 64.6283, 31.6224, 5.2005, 1.92737, 3.91269, -0.0484509, -0.000407556, -0.00128439, 0.00249612, 0.00355205, 7.25848e-06, 0.000778347, 0.0344537, -0.0266186, -0.0258884, -0.0580467, 0.0578016, -0.013631, 0.470769, -0.542506, 0.336348, -2.08319, -2.16632, -0.12922, 0.46941, -0.542578, 0.333859, -2.08212, -2.16411, -0.125207, -0.00996144, 0.0372736, 0.0191147, 0.0169251, 0.00834187, -0.0126009
0.0811677, 1.69258, -1.22758, -1.54026, -0.900426, -1.19396, 1.22812, -1.3026, 0.0509585, -0.0110479, -0.0177371, 0.00300216, -0.0450457, 0.00102813, 0.000404071, 3.15376, 64.8505, 31.6581, 5.27588, 1.93378, 3.90536, -0.0621838, -0.000438756, -0.00125277, 0.00253236, 0.00359343, -1.49703e-05, 0.00077025, 0.0331913, -0.0293262, -0.0280404, -0.0596775, 0.055433, -0.00863254, 0.470759, -0.542469, 0.336367, -2.08316, -2.16634, -0.129192, 0.469431, -0.542565, 0.333837, -2.08208, -2.16414, -0.125112, -0.010217, 0.0382593, 0.0196175, 0.0192493, 0.0110173, -0.0141102
0.0821677, 1.69264, -1.22758, -1.54028, -0.900425, -1.19401, 1.22813, -1.3026, 0.0527397, -0.00830126, -0.0206339, 0.00226971, -0.0494429, 0.00177056, -0.00023871, 3.19343, 64.8862, 31.6977, 5.27588, 1.93927, 3.87607, -0.0484509, -0.00047326, -0.0012227, 0.00255724, 0.00362475, -5.77498e-05, 0.000768434, 0.0345475, -0.0297991, -0.027918, -0.0644253, 0.0631306, -0.00933573, 0.470749, -0.542431, 0.336386, -2.08313, -2.16636, -0.129163, 0.469451, -0.542556, 0.333825, -2.08205, -2.16417, -0.125005, -0.0104747, 0.0392552, 0.0201252, 0.0195177, 0.0106754, -0.0137064
0.0831677, 1.6927, -1.22759, -1.54031, -0.900422, -1.19407, 1.22813, -1.3026, 0.0522581, -0.00904343, -0.0212773, 0.00254956, -0.0533053, 0.00250285, -0.000396097, 3.19343, 65.033, 31.8088, 5.24017, 1.95209, 3.84036, -0.0420422, -0.000509211, -0.00119134, 0.00259189, 0.00366929, -9.18326e-05, 0.000770424, 0.0369687, -0.0292976, -0.0287941, -0.0664286, 0.0666095, -0.0123241, 0.470738, -0.542392, 0.336407, -2.0831, -2.16638, -0.129134, 0.469472, -0.542546, 0.333805, -2.08202, -2.16419, -0.124892, -0.0107348, 0.0402611, 0.020638, 0.0188129, 0.00940525, -0.0144189
0.0841677, 1.69276, -1.22759, -1.54034, -0.900429, -1.19413, 1.22813, -1.3026, 0.0517512, -0.00525042, -0.0180328, 8.73752e-05, -0.0553703, 0.00217723, -0.000263763, 3.19343, 64.9973, 31.7731, 5.31555, 1.95758, 3.82663, -0.0420422, -0.000540787, -0.00115682, 0.00261634, 0.00370502, -0.000138675, 0.000756736, 0.0369038, -0.0300093, -0.0261007, -0.0660297, 0.0726059, -0.0108543, 0.470727, -0.542351, 0.336427, -2.08308, -2.1664, -0.129103, 0.469496, -0.542531, 0.333795, -2.08198, -2.16424, -0.124776, -0.010997, 0.0412769, 0.0211557, 0.0193579, 0.0101013, -0.0112535
0.0851677, 1.69282, -1.22761, -1.54037, -0.900432, -1.19419, 1.22814, -1.3026, 0.0562871, -0.00864691, -0.0176357, -0.00066379, -0.0571787, 0.00304521, 0.00033301, 3.11805, 65.2155, 31.8088, 5.35126, 1.95758, 3.7836, -0.0557752, -0.000575567, -0.00112035, 0.00265362, 0.00374666, -0.000170588, 0.000750901, 0.0364524, -0.0330471, -0.0285695, -0.0675445, 0.0720257, -0.00751563, 0.470716, -0.54231, 0.336448, -2.08304, -2.16642, -0.129072, 0.469521, -0.542517, 0.333773, -2.08194, -2.16427, -0.124667, -0.0112614, 0.0423026, 0.0216783, 0.0220207, 0.0120788, -0.0131919
0.0861677, 1.69289, -1.22761, -1.5404, -0.900432, -1.19426, 1.22815, -1.3026, 0.0558211, -0.0110317, -0.0247056, -0.000357643, -0.0592128, 0.0076489, -0.00028645, 3.07838, 65.1797, 31.8842, 5.35126, 1.97681, 3.76163, -0.0420422, -0.00061365, -0.00108604, 0.00268162, 0.00378585, -0.000224712, 0.000748593, 0.0404348, -0.0323643, -0.0323579, -0.0710923, 0.0747186, -0.0125091, 0.470705, -0.542268, 0.33647, -2.08301, -2.16645, -0.129041, 0.469545, -0.542507, 0.33376, -2.08191, -2.16431, -0.124537, -0.011528, 0.0433381, 0.0222057, 0.0210785, 0.0097368, -0.0170017
0.0871677, 1.69295, -1.22761, -1.54043, -0.90044, -1.19433, 1.22816, -1.3026, 0.0572823, -0.0104827, -0.0281803, -0.00277322, -0.0600323, 0.00709339, -0.000665557, 3.07838, 65.2908, 31.8842, 5.46234, 1.9823, 3.7186, -0.0292249, -0.000650784, -0.00104909, 0.0027156, 0.00382502, -0.000268095, 0.000738226, 0.040968, -0.0331465, -0.0340793, -0.0767573, 0.0768627, -0.011393, 0.470694, -0.542224, 0.336492, -2.08298, -2.16647, -0.129008, 0.46957, -0.542493, 0.333742, -2.08187, -2.16436, -0.124418, -0.0117966, 0.0443832, 0.0227379, 0.0215475, 0.0105529, -0.0182762
0.0881677, 1.69301, -1.22761, -1.54046, -0.900441, -1.19439, 1.22817, -1.3026, 0.0594838, -0.0073858, -0.026973, -0.00272909, -0.060536, 0.00475798, -0.000680968, 3.04267, 65.2908, 31.8445, 5.50201, 1.97681, 3.72592, -0.0228162, -0.000690298, -0.00101465, 0.00274251, 0.003861, -0.000320479, 0.000736142, 0.0404554, -0.0342866, -0.0324997, -0.0784617, 0.0799173, -0.00977063, 0.470682, -0.54218, 0.336515, -2.08295, -2.16649, -0.128975, 0.469593, -0.542483, 0.333731, -2.08184, -2.1644, -0.124292, -0.0120673, 0.0454378, 0.0232748, 0.0224549, 0.0119191, -0.0161353
0.0891677, 1.69308, -1.22762, -1.54049, -0.90045, -1.19445, 1.22817, -1.30259, 0.0596521, -0.00782033, -0.0333168, -0.00354682, -0.0596393, 0.00751677, 0.00100415, 2.92762, 65.4019, 31.8445, 5.57739, 1.95209, 3.74057, -0.0621838, -0.000725988, -0.000973555, 0.00277779, 0.00390446, -0.000363918, 0.000728214, 0.0427491, -0.0343011, -0.0352447, -0.0820878, 0.0813359, -0.0141897, 0.47067, -0.542135, 0.336538, -2.08291, -2.16652, -0.128941, 0.469622, -0.542465, 0.333713, -2.0818, -2.16444, -0.124167, -0.0123401, 0.0465019, 0.0238164, 0.0221797, 0.0111415, -0.0186603
0.0901677, 1.69315, -1.22762, -1.54052, -0.900457, -1.19453, 1.22819, -1.3026, 0.0596553, -0.00543705, -0.0351715, -0.00493614, -0.0606223, 0.00505999, -0.000551213, 2.81654, 65.4019, 31.8445, 5.68848, 1.95758, 3.7543, -0.0292249, -0.000764609, -0.000933274, 0.00280771, 0.00394388, -0.00042149, 0.000715126, 0.0435916, -0.0339266, -0.0352697, -0.0872059, 0.0842743, -0.0135725, 0.470657, -0.542088, 0.336562, -2.08288, -2.16654, -0.128906, 0.46965, -0.542451, 0.3337, -2.08176, -2.16449, -0.124031, -0.0126148, 0.0475753, 0.0243626, 0.021561, 0.0113719, -0.0182581
0.0911677, 1.69321, -1.22762, -1.54055, -0.900458, -1.19459, 1.22819, -1.30259, 0.0608207, 0.00311331, -0.0342108, -0.00327062, -0.060606, 0.00821157, 0.00109063, 2.77686, 65.3662, 31.8842, 5.68848, 1.94568, 3.76163, -0.0685925, -0.000808033, -0.000897528, 0.00283727, 0.00398248, -0.000476943, 0.000720478, 0.0440623, -0.0350478, -0.029821, -0.0827328, 0.0949118, -0.0161181, 0.470645, -0.542041, 0.336586, -2.08285, -2.16657, -0.128871, 0.469674, -0.54244, 0.333687, -2.08174, -2.16453, -0.123896, -0.0128915, 0.048658, 0.0249134, 0.0226217, 0.0112005, -0.0124346
0.0921677, 1.69328, -1.22762, -1.54058, -0.900467, -1.19466, 1.2282, -1.30259, 0.0605951, 0.00245569, -0.032051, -0.00476376, -0.0668416, 0.0108796, 0.00120183, 2.66181, 65.3662, 31.8842, 5.79956, 1.95758, 3.76163, -0.0814099, -0.000847609, -0.000856109, 0.00286753, 0.00401969, -0.000531604, 0.000709716, 0.0460175, -0.0356827, -0.02977, -0.0826088, 0.101416, -0.0170804, 0.470632, -0.541992, 0.336611, -2.08281, -2.16659, -0.128834, 0.469702, -0.542424, 0.333675, -2.0817, -2.16458, -0.123764, -0.0131701, 0.0497497, 0.0254687, 0.0230509, 0.0103813, -0.0121516
0.0931677, 1.69335, -1.22762, -1.54061, -0.900478, -1.19473, 1.22822, -1.30259, 0.063619, 0.00192224, -0.0308064, -0.00669099, -0.0661894, 0.012445, 0.00514112, 2.55073, 65.3662, 31.8842, 5.95032, 1.95758, 3.77627, -0.0685925, -0.000890174, -0.000816649, 0.00289716, 0.00405685, -0.000590291, 0.000703317, 0.0451121, -0.0386509, -0.0303026, -0.0817338, 0.102073, -0.0164279, 0.470619, -0.541942, 0.336637, -2.08277, -2.16662, -0.128797, 0.469729, -0.54241, 0.333663, -2.08167, -2.16463, -0.123627, -0.0134506, 0.0508506, 0.0260284, 0.0256824, 0.0125827, -0.0120691
0.0941677, 1.69341, -1.22762, -1.54064, -0.900475, -1.1948, 1.22823, -1.30258, 0.0645501, -0.000175112, -0.0328879, -0.00352414, -0.0655687, 0.00911669, 0.00454072, 2.47535, 65.4376, 31.8842, 5.91064, 1.96399, 3.7836, -0.0878186, -0.000939524, -0.000781255, 0.00293126, 0.00409022, -0.000637171, 0.000712897, 0.0469881, -0.0378491, -0.0325491, -0.0854353, 0.0984724, -0.0193537, 0.470605, -0.541891, 0.336663, -2.08274, -2.16665, -0.128759, 0.469752, -0.542401, 0.333647, -2.08164, -2.16466, -0.123504, -0.013733, 0.0519604, 0.0265925, 0.0245856, 0.0121525, -0.0139895
0.0951677, 1.69347, -1.22761, -1.54066, -0.900488, -1.19487, 1.22824, -1.30259, 0.0640147, 0.00347731, -0.0338391, -0.00586953, -0.0649614, 0.0105513, 0.00285335, 2.32459, 65.2908, 31.8445, 6.0614, 1.9704, 3.81198, -0.0750012, -0.000982675, -0.000740963, 0.00295613, 0.00412465, -0.000703084, 0.000702279, 0.0476202, -0.038422, -0.0312869, -0.0859167, 0.103334, -0.0173882, 0.470592, -0.541839, 0.33669, -2.0827, -2.16667, -0.128721, 0.469779, -0.542387, 0.333641, -2.08161, -2.16473, -0.123361, -0.0140172, 0.053079, 0.027161, 0.0249437, 0.0124781, -0.0122906
0.0961677, 1.69353, -1.2276, -1.5407, -0.900494, -1.19494, 1.22825, -1.30258, 0.0615851, 0.00736719, -0.0348542, -0.00567148, -0.0649576, 0.0124697, 0.00260265, 2.24921, 65.2155, 31.9556, 6.13678, 1.9823, 3.8193, -0.0878186, -0.00103258, -0.000705079, 0.00298518, 0.00416425, -0.000767358, 0.000708141, 0.0500177, -0.0373697, -0.0294166, -0.0847988, 0.108892, -0.0212012, 0.470578, -0.541786, 0.336717, -2.08266, -2.1667, -0.128681, 0.469801, -0.542377, 0.333631, -2.08159, -2.16477, -0.123212, -0.0143032, 0.0542063, 0.0277337, 0.0237642, 0.0109081, -0.0102102
0.0971677, 1.6936, -1.22759, -1.54071, -0.900498, -1.19502, 1.22825, -1.30258, 0.0625988, 0.00869914, -0.0299689, -0.00773051, -0.0650086, 0.00708578, 0.00190437, 2.05878, 65.0687, 31.8445, 6.17248, 2.00061, 3.88339, -0.0878186, -0.00107673, -0.000663946, 0.00300559, 0.00419551, -0.00083604, 0.00070323, 0.0484899, -0.0385019, -0.0280931, -0.0867105, 0.108268, -0.0163426, 0.470563, -0.541732, 0.336744, -2.08262, -2.16673, -0.128641, 0.469829, -0.542362, 0.33363, -2.08156, -2.16483, -0.123067, -0.0145909, 0.0553423, 0.0283107, 0.0246006, 0.0133977, -0.00812488
0.0981677, 1.69367, -1.22759, -1.54074, -0.900512, -1.1951, 1.22826, -1.30258, 0.0622974, 0.0107434, -0.0286496, -0.0128818, -0.0705844, 0.00946671, 0.000921814, 1.90803, 64.9973, 31.9556, 6.35895, 2.01984, 3.90536, -0.0750012, -0.00112418, -0.000623389, 0.00303577, 0.00423691, -0.000899407, 0.000695822, 0.0492141, -0.0397443, -0.0272947, -0.0887729, 0.117187, -0.0133567, 0.470549, -0.541677, 0.336773, -2.08258, -2.16676, -0.128599, 0.469855, -0.542347, 0.33362, -2.08152, -2.16489, -0.122917, -0.0148804, 0.0564869, 0.0288918, 0.0256086, 0.0137578, -0.00690623
0.0991677, 1.69373, -1.22758, -1.54076, -0.900519, -1.19517, 1.22826, -1.30258, 0.0628752, 0.00854005, -0.0271705, -0.00987504, -0.073898, 0.00602489, 0.000709757, 1.72157, 64.9576, 31.9199, 6.39465, 2.02533, 3.94107, -0.0750012, -0.00117313, -0.000584096, 0.00306217, 0.00426901, -0.000958872, 0.000692432, 0.0512832, -0.0389539, -0.028367, -0.0913349, 0.116446, -0.0165181, 0.470534, -0.54162, 0.336802, -2.08254, -2.16679, -0.128557, 0.46988, -0.542333, 0.333614, -2.08149, -2.16494, -0.122779, -0.0151716, 0.0576399, 0.0294771, 0.0245653, 0.0130003, -0.00767602
0.100168, 1.69379, -1.22757, -1.54077, -0.900531, -1.19525, 1.22826, -1.30258, 0.0660967, 0.00853636, -0.0229213, -0.00961359, -0.0715447, 0.00762759, 0.00571628, 1.53114, 64.8505, 31.8842, 6.5097, 2.04364, 3.99142, -0.0878186, -0.00122009, -0.000543106, 0.00308589, 0.00430219, -0.00102147, 0.000687746, 0.0499979, -0.0422742, -0.0272477, -0.0859706, 0.115916, -0.0167016, 0.470519, -0.541563, 0.336831, -2.08249, -2.16682, -0.128514, 0.469907, -0.542316, 0.333612, -2.08146, -2.165, -0.122636, -0.0154644, 0.0588012, 0.0300665, 0.027583, 0.0153994, -0.00588534
0.101168, 1.69385, -1.22756, -1.54079, -0.900539, -1.19532, 1.22826, -1.30257, 0.0647753, 0.00854237, -0.0214194, -0.0074985, -0.0754759, 0.00527959, 0.00452709, 1.38038, 64.7394, 31.9199, 6.54541, 2.06836, 4.01248, -0.0951428, -0.00127326, -0.000506263, 0.0031106, 0.00433135, -0.00108307, 0.000691705, 0.0526899, -0.0407137, -0.0269461, -0.0877971, 0.118446, -0.0202308, 0.470503, -0.541504, 0.336861, -2.08245, -2.16685, -0.128471, 0.469929, -0.542305, 0.333608, -2.08144, -2.16505, -0.122497, -0.0157588, 0.0599708, 0.0306599, 0.0258413, 0.0138004, -0.00536301
0.102168, 1.69391, -1.22755, -1.54081, -0.900548, -1.1954, 1.22826, -1.30257, 0.0647008, 0.00848313, -0.0200502, -0.0092319, -0.0773897, 0.00370801, 0.00308052, 1.18995, 64.6283, 31.9556, 6.58508, 2.08118, 4.02713, -0.0878186, -0.00132557, -0.000467492, 0.003135, 0.00436293, -0.00114613, 0.000693036, 0.0534115, -0.0410617, -0.0272638, -0.0901489, 0.120037, -0.0182923, 0.470487, -0.541444, 0.336892, -2.08241, -2.16688, -0.128426, 0.469953, -0.542291, 0.333605, -2.08141, -2.1651, -0.122354, -0.0160548, 0.0611486, 0.0312573, 0.0259085, 0.0143303, -0.00520229
0.103168, 1.69397, -1.22754, -1.54083, -0.900559, -1.19547, 1.22826, -1.30257, 0.0652269, 0.00988623, -0.0211001, -0.00822755, -0.0797974, 0.00274885, 0.00182926, 0.963814, 64.5926, 32.0707, 6.65649, 2.09949, 4.03445, -0.0750012, -0.0013782, -0.000428576, 0.00316389, 0.00440073, -0.00120119, 0.000690132, 0.0552147, -0.0407383, -0.0271791, -0.0929894, 0.123732, -0.019715, 0.470471, -0.541383, 0.336923, -2.08236, -2.16691, -0.128381, 0.469977, -0.542276, 0.333599, -2.08137, -2.16515, -0.122211, -0.0163524, 0.0623344, 0.0318586, 0.0253586, 0.0137104, -0.00478673
0.104168, 1.69403, -1.22753, -1.54084, -0.900573, -1.19555, 1.22826, -1.30257, 0.0637981, 0.01359, -0.0199301, -0.0106376, -0.0763095, 0.00278618, 0.00188195, 0.813057, 64.4418, 32.1064, 6.73187, 2.12421, 4.0198, -0.0878186, -0.00143249, -0.000389887, 0.00318583, 0.00442605, -0.00126628, 0.000692746, 0.0551449, -0.0412787, -0.0252453, -0.0913969, 0.125482, -0.0183951, 0.470455, -0.54132, 0.336955, -2.08231, -2.16694, -0.128334, 0.47, -0.542262, 0.333599, -2.08135, -2.16521, -0.12207, -0.0166515, 0.0635282, 0.0324637, 0.0256693, 0.0147003, -0.00227841
0.105168, 1.69409, -1.22753, -1.54083, -0.900593, -1.19563, 1.22826, -1.30257, 0.0597126, 0.00783805, -0.0111601, -0.0142161, -0.0732279, 0.00243704, 0.00139542, 0.6623, 64.5172, 31.9556, 6.88263, 2.13611, 4.01248, -0.0878186, -0.00148484, -0.000347222, 0.00321187, 0.00444346, -0.00131807, 0.000680625, 0.0552562, -0.0419915, -0.026243, -0.0846302, 0.117479, -0.0144412, 0.470438, -0.541257, 0.336987, -2.08227, -2.16698, -0.128287, 0.470027, -0.542245, 0.333597, -2.0813, -2.16528, -0.121952, -0.0169521, 0.0647298, 0.0330727, 0.0260486, 0.0159764, -0.0026943
0.106168, 1.69414, -1.22752, -1.54086, -0.900604, -1.19571, 1.22826, -1.30256, 0.0576654, 0.00822979, -0.0181013, -0.0100997, -0.071526, 0.00158466, 0.00519785, 0.475838, 64.4061, 32.2175, 6.88263, 2.16083, 4.0198, -0.0750012, -0.00154569, -0.000311775, 0.0032393, 0.00448272, -0.00138565, 0.000691736, 0.0596651, -0.0389923, -0.0282769, -0.0888389, 0.1169, -0.0276332, 0.470421, -0.541192, 0.337021, -2.08222, -2.16701, -0.128239, 0.470047, -0.542234, 0.333592, -2.08128, -2.16532, -0.121791, -0.0172541, 0.0659392, 0.0336855, 0.02284, 0.0130194, -0.00467944
0.107168, 1.69419, -1.22751, -1.54086, -0.900625, -1.19578, 1.22826, -1.30256, 0.0571091, 0.00895771, -0.0123103, -0.01297, -0.069442, 0.00044997, 0.00369346, 0.245735, 64.4061, 32.1818, 6.99371, 2.16724, 4.04086, -0.0685925, -0.00160112, -0.000270688, 0.00326577, 0.00450466, -0.00143787, 0.000683311, 0.0585691, -0.0406274, -0.0266754, -0.085489, 0.116036, -0.0217034, 0.470404, -0.541126, 0.337054, -2.08217, -2.16705, -0.12819, 0.470072, -0.542217, 0.33359, -2.08124, -2.16539, -0.121666, -0.0175576, 0.0671563, 0.0343019, 0.0241895, 0.0151433, -0.00236316
0.108168, 1.69425, -1.22751, -1.54086, -0.900645, -1.19586, 1.22825, -1.30256, 0.0554718, 0.00470082, -0.0090153, -0.0180854, -0.0733646, 0.000158782, 0.0028115, 0.059273, 64.4815, 32.1818, 7.1048, 2.17914, 4.04819, -0.0685925, -0.00166013, -0.000230631, 0.00329378, 0.0045254, -0.00149158, 0.000678572, 0.0595527, -0.0412875, -0.0290699, -0.0877104, 0.115875, -0.0186038, 0.470387, -0.541059, 0.337088, -2.08212, -2.16708, -0.12814, 0.470095, -0.542203, 0.333586, -2.0812, -2.16545, -0.121539, -0.0178624, 0.068381, 0.034922, 0.0244923, 0.0157932, -0.00428051
0.109168, 1.69425, -1.22751, -1.54086, -0.900645, -1.19586, 1.22825, -1.30256, 0.0554718, 0.00470082, -0.0090153, -0.0180854, -0.0733646, 0.000158782, 0.0028115, 0.059273, 64.4815, 32.1818, 7.1048, 2.17914, 4.04819, -0.0685925, -0.00173365, -0.000214551, 0.00331715, 0.00449051, -0.00147591, 0.000716078, 0.0608781, -0.0415593, -0.0294849, -0.088206, 0.116707, -0.0196125, 0.470369, -0.54099, 0.337123, -2.08207, -2.16712, -0.128089, 0.470095, -0.542203, 0.333586, -2.0812, -2.16545, -0.121539, -0.0181686, 0.0696132, 0.0355458, 0.0244923, 0.0157932, -0.00428051
0.110168, 1.69425, -1.22751, -1.54086, -0.900645, -1.19586, 1.22825, -1.30256, 0.0554718, 0.00470082, -0.0090153, -0.0180854, -0.0733646, 0.000158782, 0.0028115, 0.059273, 64.4815, 32.1818, 7.1048, 2.17914, 4.04819, -0.0685925, -0.0018085, -0.000198201, 0.00334093, 0.00445499, -0.00145998, 0.000754239, 0.0622114, -0.041832, -0.0299023, -0.0887036, 0.117544, -0.0206264, 0.470351, -0.540921, 0.337159, -2.08202, -2.16715, -0.128038, 0.470095, -0.542203, 0.333586, -2.0812, -2.16545, -0.121539, -0.0184762, 0.0708527, 0.036173, 0.0244923, 0.0157932, -0.00428051
0.111168, 1.69439, -1.22749, -1.54086, -0.900722, -1.19609, 1.22825, -1.30255, 0.0489982, 0.00517079, -0.00506976, -0.0198607, -0.0727636, 4.3348e-05, 0.00157055, -0.543754, 64.4815, 32.2532, 7.47772, 2.19104, 4.06283, -0.0750012, -0.00184112, -0.000111354, 0.00337297, 0.00459071, -0.00165919, 0.00067049, 0.0649042, -0.0396022, -0.0285647, -0.0853713, 0.117988, -0.0231572, 0.470332, -0.54085, 0.337195, -2.08197, -2.16719, -0.127985, 0.470163, -0.542155, 0.333583, -2.08109, -2.16564, -0.121143, -0.018785, 0.0720996, 0.0368038, 0.0221082, 0.0140831, -0.0026761
0.112168, 1.69443, -1.22748, -1.54086, -0.900749, -1.19616, 1.22824, -1.30255, 0.0484517, 0.00893091, -0.00196521, -0.022348, -0.0745157, 7.00534e-05, 0.000682798, -0.694511, 64.4061, 32.1818, 7.5531, 2.16724, 4.06283, -0.0621838, -0.00190552, -7.44211e-05, 0.00339458, 0.00460668, -0.00172064, 0.000669987, 0.0651138, -0.0404115, -0.0259851, -0.0847216, 0.124027, -0.0208282, 0.470313, -0.540778, 0.337232, -2.08192, -2.16723, -0.127932, 0.470183, -0.542142, 0.333588, -2.08106, -2.1657, -0.121009, -0.0190951, 0.0733536, 0.0374381, 0.022712, 0.0147704, 0.000447488
0.113168, 1.69448, -1.22747, -1.54086, -0.900778, -1.19624, 1.22824, -1.30255, 0.0499461, 0.00830774, -0.00825786, -0.0243121, -0.0762865, -0.0039737, 0.000775422, -0.920646, 64.3347, 32.1818, 7.62848, 2.15442, 4.04819, -0.0685925, -0.00196923, -3.47516e-05, 0.00341813, 0.00462697, -0.00178311, 0.000669946, 0.0665179, -0.0399241, -0.0297047, -0.0962826, 0.12434, -0.0223557, 0.470294, -0.540705, 0.337269, -2.08186, -2.16726, -0.127878, 0.470205, -0.542126, 0.333591, -2.08103, -2.16577, -0.120869, -0.0194064, 0.0746148, 0.0380757, 0.0218286, 0.015196, -0.00279003
0.114168, 1.69452, -1.22747, -1.54085, -0.900813, -1.19632, 1.22824, -1.30255, 0.0503389, 0.00410616, -0.0052841, -0.0257259, -0.0776772, -0.00355134, 0.000104378, -1.11108, 64.5529, 32.1421, 7.70386, 2.13611, 4.06283, -0.0557752, -0.00203535, 5.36036e-06, 0.00345205, 0.00464884, -0.00182927, 0.000663167, 0.0673788, -0.0412613, -0.0317266, -0.0955524, 0.122302, -0.0200431, 0.470275, -0.54063, 0.337307, -2.08181, -2.1673, -0.127822, 0.470227, -0.54211, 0.333584, -2.08098, -2.16583, -0.120743, -0.0197189, 0.075883, 0.0387168, 0.0228092, 0.0159822, -0.0043208
0.115168, 1.69456, -1.22746, -1.54086, -0.900841, -1.1964, 1.22824, -1.30255, 0.0475013, 0.0073833, -0.00581613, -0.0273307, -0.0727307, -0.00158615, 0.000590915, -1.30151, 64.5172, 32.2175, 7.66418, 2.11139, 4.03445, -0.0685925, -0.00210662, 4.09967e-05, 0.00347745, 0.00466802, -0.00189264, 0.000675322, 0.068566, -0.0410665, -0.0303219, -0.0925569, 0.123427, -0.0216282, 0.470255, -0.540554, 0.337346, -2.08175, -2.16734, -0.127766, 0.470244, -0.542099, 0.333585, -2.08096, -2.16589, -0.1206, -0.0200326, 0.0771581, 0.0393611, 0.0223996, 0.015863, -0.0024671
0.116168, 1.69459, -1.22745, -1.54085, -0.90088, -1.19648, 1.22824, -1.30255, 0.0443511, 0.00703684, -0.00343982, -0.0314433, -0.0754827, -0.00595857, -4.58163e-05, -1.45226, 64.5926, 32.1818, 7.73956, 2.09949, 4.03445, -0.0557752, -0.00217635, 7.89661e-05, 0.00350478, 0.00468747, -0.00195331, 0.000673092, 0.0697523, -0.0398101, -0.0308989, -0.097559, 0.12414, -0.0213237, 0.470235, -0.540477, 0.337386, -2.0817, -2.16738, -0.127709, 0.470264, -0.542085, 0.333586, -2.08092, -2.16596, -0.120461, -0.0203474, 0.07844, 0.0400087, 0.0208545, 0.0160098, -0.00253356
0.117168, 1.69463, -1.22744, -1.54085, -0.900925, -1.19656, 1.22824, -1.30254, 0.0429593, 0.0078355, -0.00166341, -0.0374945, -0.077232, -0.00292199, 0.000233034, -1.63873, 64.6283, 32.1421, 7.81494, 2.08667, 3.99142, -0.0621838, -0.00224593, 0.000119153, 0.00353328, 0.00470686, -0.00201511, 0.000670939, 0.0701808, -0.0413182, -0.0307295, -0.0972709, 0.129114, -0.018465, 0.470215, -0.540398, 0.337426, -2.08164, -2.16742, -0.127651, 0.470285, -0.542069, 0.333586, -2.08088, -2.16603, -0.120319, -0.0206634, 0.0797287, 0.0406595, 0.0220686, 0.0169153, -0.00182923
0.118168, 1.69466, -1.22743, -1.54085, -0.90097, -1.19664, 1.22824, -1.30254, 0.0399312, 0.00926426, -0.00226062, -0.0380688, -0.0789775, -0.0012704, 0.000412379, -1.75378, 64.6283, 32.1818, 7.85065, 2.08667, 3.96213, -0.0685925, -0.00231866, 0.000156588, 0.00355906, 0.00472449, -0.00208149, 0.000672109, 0.0732561, -0.0399996, -0.0303111, -0.0973677, 0.133643, -0.0230791, 0.470194, -0.540319, 0.337466, -2.08158, -2.16746, -0.127592, 0.470303, -0.542056, 0.333588, -2.08085, -2.1661, -0.120173, -0.0209804, 0.081024, 0.0413134, 0.0205677, 0.0150553, -0.00119625
0.119168, 1.69469, -1.22742, -1.54085, -0.901014, -1.19672, 1.22824, -1.30254, 0.0395811, 0.0106978, -0.00334526, -0.0408811, -0.079559, -0.00037265, -0.000185051, -1.94024, 64.7394, 32.2532, 7.85065, 2.06195, 3.94107, -0.0557752, -0.00239316, 0.000195697, 0.0035912, 0.00474801, -0.00214327, 0.000670421, 0.074278, -0.0405924, -0.0305794, -0.0994766, 0.137172, -0.0221607, 0.470173, -0.540238, 0.337508, -2.08152, -2.1675, -0.127533, 0.470323, -0.542042, 0.333585, -2.0808, -2.16617, -0.120024, -0.0212984, 0.0823259, 0.0419705, 0.0208718, 0.0154161, -0.000980844
0.120168, 1.69472, -1.22741, -1.54086, -0.901062, -1.1968, 1.22824, -1.30254, 0.0345439, 0.00667041, -0.00504724, -0.0390762, -0.0806863, 6.48953e-05, -0.00109565, -2.05529, 64.8108, 32.3682, 7.81494, 2.07477, 3.92642, -0.0292249, -0.00247215, 0.000229489, 0.00362498, 0.00477789, -0.002204, 0.00067807, 0.0794511, -0.0373699, -0.0334413, -0.100343, 0.134955, -0.0299741, 0.470152, -0.540155, 0.33755, -2.08146, -2.16755, -0.127472, 0.470337, -0.542031, 0.333581, -2.08077, -2.16622, -0.119868, -0.0216174, 0.0836343, 0.0426306, 0.0174232, 0.0119183, -0.00384486
0.121168, 1.69475, -1.2274, -1.54085, -0.901121, -1.19688, 1.22824, -1.30254, 0.0348877, 0.0058923, -0.000767926, -0.0475915, -0.0812173, 0.000142626, 0.000261206, -2.20605, 64.9219, 32.2532, 7.92602, 2.06195, 3.9191, -0.0557752, -0.0025457, 0.000270197, 0.00365294, 0.00479348, -0.00226874, 0.000671969, 0.0774842, -0.0404733, -0.0340108, -0.101439, 0.136031, -0.0227027, 0.47013, -0.540072, 0.337592, -2.0814, -2.16759, -0.12741, 0.470358, -0.542014, 0.333583, -2.08072, -2.1663, -0.119724, -0.0219375, 0.084949, 0.0432937, 0.0201088, 0.0153967, -0.00353807
0.122168, 1.69477, -1.22738, -1.54086, -0.901179, -1.19696, 1.22824, -1.30254, 0.0300823, 0.0110594, -0.00234596, -0.0488214, -0.0814127, 0.000474782, -9.09079e-05, -2.28143, 64.9219, 32.3285, 7.9657, 2.05005, 3.90536, -0.0484509, -0.00262481, 0.00030481, 0.00368078, 0.00482009, -0.0023398, 0.00067421, 0.0805953, -0.0379952, -0.0318642, -0.102547, 0.142435, -0.0280164, 0.470108, -0.539987, 0.337635, -2.08134, -2.16763, -0.127348, 0.470372, -0.542002, 0.333586, -2.08069, -2.16637, -0.11956, -0.0222584, 0.08627, 0.0439598, 0.0175137, 0.0132123, -0.00115482
0.123168, 1.6948, -1.22735, -1.54086, -0.901233, -1.19703, 1.22824, -1.30253, 0.0302854, 0.0164595, -0.00338028, -0.0511836, -0.0812092, 0.000491092, -0.000530657, -2.50756, 64.8505, 32.4039, 7.92602, 2.02533, 3.89804, -0.0356336, -0.00270036, 0.00034537, 0.00370662, 0.00484225, -0.00240985, 0.000670976, 0.0809073, -0.0386614, -0.0298327, -0.104554, 0.148827, -0.02692, 0.470086, -0.5399, 0.337679, -2.08127, -2.16768, -0.127284, 0.470392, -0.541984, 0.333591, -2.08064, -2.16645, -0.119401, -0.0225803, 0.0875972, 0.0446288, 0.017948, 0.0139505, 0.00145102
0.124168, 1.69482, -1.22734, -1.54085, -0.901293, -1.1971, 1.22825, -1.30254, 0.0284721, 0.0138759, 0.000305126, -0.0532743, -0.0821238, 0.00130603, -0.00106235, -2.65832, 64.9219, 32.2928, 7.89032, 2.01984, 3.86966, -0.0164075, -0.00277876, 0.00038482, 0.00373225, 0.00485141, -0.0024751, 0.000664521, 0.0822656, -0.03914, -0.0306164, -0.102498, 0.148184, -0.0259071, 0.470063, -0.539813, 0.337724, -2.08121, -2.16772, -0.127219, 0.470411, -0.541969, 0.333597, -2.0806, -2.16654, -0.119261, -0.0229031, 0.0889305, 0.0453006, 0.0181272, 0.0140848, 0.00112406
0.125168, 1.69485, -1.22731, -1.54085, -0.901368, -1.19718, 1.22825, -1.30253, 0.0311625, 0.0177605, 0.00160168, -0.0582644, -0.082809, 0.00190137, 0.00446794, -2.84875, 64.8862, 32.3682, 8.0014, 2.02533, 3.84036, -0.0292249, -0.00285309, 0.000427306, 0.00375805, 0.0048797, -0.00255215, 0.000649773, 0.0805999, -0.0422374, -0.0290944, -0.104123, 0.154271, -0.0251764, 0.47004, -0.539724, 0.337769, -2.08114, -2.16777, -0.127154, 0.470432, -0.541947, 0.333604, -2.08054, -2.16663, -0.119087, -0.0232267, 0.0902698, 0.0459753, 0.0208938, 0.016971, 0.00346087
0.126168, 1.69487, -1.22729, -1.54085, -0.901435, -1.19725, 1.22825, -1.30253, 0.0272029, 0.0193593, 0.00131134, -0.0615655, -0.0775805, 0.00254921, 0.00360952, -2.92413, 65.033, 32.3682, 7.9657, 2.01984, 3.80466, -0.0356336, -0.0029353, 0.000464961, 0.00378752, 0.00489283, -0.00261379, 0.000650486, 0.0817701, -0.041663, -0.0289077, -0.102725, 0.152975, -0.0248421, 0.470017, -0.539634, 0.337815, -2.08108, -2.16781, -0.127088, 0.470449, -0.541932, 0.333607, -2.0805, -2.16671, -0.118943, -0.0235512, 0.0916151, 0.0466527, 0.0200497, 0.0171091, 0.00416
0.127168, 1.69488, -1.22726, -1.54085, -0.901512, -1.19732, 1.22825, -1.30253, 0.023128, 0.02118, 0.000221674, -0.0665314, -0.0743162, 0.00194015, 0.0027015, -3.07488, 65.033, 32.4039, 8.03711, 2.03174, 3.79733, -0.0356336, -0.00301393, 0.000504537, 0.00381245, 0.00491832, -0.00268916, 0.000640035, 0.0829075, -0.0407993, -0.029208, -0.104787, 0.153086, -0.0241646, 0.469994, -0.539542, 0.337862, -2.08101, -2.16786, -0.12702, 0.470467, -0.541913, 0.333616, -2.08045, -2.1668, -0.118772, -0.0238765, 0.0929661, 0.0473329, 0.0188963, 0.0173474, 0.00439533
0.128168, 1.6949, -1.22724, -1.54085, -0.901583, -1.19739, 1.22825, -1.30254, 0.0214396, 0.0236883, 0.00196122, -0.0682162, -0.0771107, 0.00286418, 0.000801663, -3.15026, 65.1083, 32.4793, 8.03711, 2.04364, 3.7543, -0.00267457, -0.00309903, 0.000541302, 0.00384124, 0.00493234, -0.00275332, 0.000632592, 0.0846716, -0.0406271, -0.0276314, -0.104618, 0.159212, -0.0237003, 0.46997, -0.539449, 0.337909, -2.08094, -2.16791, -0.126952, 0.470482, -0.541898, 0.333621, -2.0804, -2.16688, -0.118624, -0.0242025, 0.094323, 0.0480157, 0.018528, 0.0167156, 0.00636814
0.129168, 1.69491, -1.22721, -1.54084, -0.901664, -1.19745, 1.22825, -1.30253, 0.0210277, 0.0249535, 0.0032851, -0.0708416, -0.0738989, 0.00240087, 0.00120909, -3.26134, 65.2155, 32.5547, 8.07678, 2.05005, 3.74057, -0.0164075, -0.00317997, 0.000581858, 0.00386901, 0.00495109, -0.00282, 0.000623326, 0.0844648, -0.0417549, -0.0272589, -0.103966, 0.158656, -0.021629, 0.469946, -0.539355, 0.337957, -2.08087, -2.16796, -0.126882, 0.4705, -0.541877, 0.333627, -2.08035, -2.16697, -0.118467, -0.0245292, 0.0956855, 0.0487012, 0.0193367, 0.0182759, 0.00741736
0.130168, 1.69491, -1.22719, -1.54084, -0.901754, -1.19752, 1.22825, -1.30253, 0.0150885, 0.0232915, 0.00712815, -0.0767667, -0.0670781, 0.00267274, 0.00069322, -3.26134, 65.4376, 32.515, 8.15216, 2.08118, 3.71127, -0.00999879, -0.00326528, 0.000618301, 0.00389809, 0.00496747, -0.00288423, 0.000614216, 0.0848499, -0.0415594, -0.0278302, -0.0997566, 0.152534, -0.0187259, 0.469921, -0.539259, 0.338006, -2.0808, -2.168, -0.126812, 0.470514, -0.54186, 0.333633, -2.08029, -2.16706, -0.118315, -0.0248567, 0.0970535, 0.0493892, 0.0188099, 0.0193443, 0.00748794
0.131168, 1.69493, -1.22716, -1.54084, -0.901834, -1.19759, 1.22825, -1.30253, 0.0135527, 0.0237747, 0.00628263, -0.0743973, -0.0615165, 0.00228077, 0.000792894, -3.3764, 65.4733, 32.6261, 8.07678, 2.10498, 3.69754, -0.0164075, -0.00334979, 0.000657856, 0.0039237, 0.00498547, -0.00295527, 0.000607045, 0.0866995, -0.0408496, -0.0279391, -0.097385, 0.148968, -0.0220778, 0.469896, -0.539162, 0.338055, -2.08073, -2.16805, -0.126741, 0.470531, -0.541841, 0.333643, -2.08024, -2.16715, -0.118152, -0.0251848, 0.0984271, 0.0500798, 0.0178424, 0.0188792, 0.00780815
0.132168, 1.69493, -1.22714, -1.54084, -0.901926, -1.19764, 1.22825, -1.30253, 0.0114003, 0.0233632, 0.00590777, -0.0816604, -0.057645, -0.00218404, -0.000384707, -3.45177, 65.6598, 32.7372, 8.11249, 2.13611, 3.66824, 0.0101428, -0.0034345, 0.000698581, 0.00395542, 0.0050025, -0.00301569, 0.000589022, 0.0858698, -0.0411111, -0.0300637, -0.103468, 0.144689, -0.0166519, 0.469871, -0.539064, 0.338106, -2.08066, -2.1681, -0.126669, 0.470548, -0.541819, 0.333647, -2.08017, -2.16725, -0.118002, -0.0255136, 0.099806, 0.0507728, 0.0176648, 0.0214151, 0.00652281
0.133168, 1.69493, -1.22711, -1.54083, -0.902025, -1.1977, 1.22825, -1.30253, 0.00805157, 0.027462, 0.00723023, -0.0873461, -0.0534167, -0.00158874, 0.000542045, -3.45177, 65.8066, 32.7768, 8.15216, 2.13611, 3.66092, -0.00999879, -0.00352041, 0.000736882, 0.00398497, 0.00501653, -0.00307391, 0.000576635, 0.0857295, -0.0415294, -0.0282138, -0.102188, 0.146832, -0.0150509, 0.469845, -0.538964, 0.338156, -2.08059, -2.16815, -0.126595, 0.470563, -0.541798, 0.333654, -2.08011, -2.16734, -0.117855, -0.025843, 0.10119, 0.0514683, 0.0178216, 0.0226752, 0.00905327
0.134168, 1.69494, -1.22707, -1.54083, -0.902118, -1.19775, 1.22825, -1.30253, 0.00839752, 0.0289664, 0.00141478, -0.0888201, -0.056779, -0.000853514, 0.000400762, -3.56683, 65.878, 32.9633, 8.07678, 2.16083, 3.64718, -0.00999879, -0.00360752, 0.000776091, 0.00401381, 0.00503642, -0.00313796, 0.000565079, 0.0884417, -0.0410401, -0.0300084, -0.109365, 0.152886, -0.0183287, 0.46982, -0.538862, 0.338208, -2.08052, -2.16821, -0.126521, 0.470579, -0.541777, 0.333663, -2.08004, -2.16743, -0.117695, -0.026173, 0.10258, 0.0521662, 0.0170412, 0.0216415, 0.00757621
0.135168, 1.69494, -1.22704, -1.54083, -0.902221, -1.19781, 1.22825, -1.30253, 0.00531485, 0.0282207, 0.00425953, -0.0946417, -0.0592709, -0.000253711, 0.000296723, -3.67791, 66.0287, 32.999, 8.07678, 2.19104, 3.63254, -0.00999879, -0.00369229, 0.000818842, 0.00404271, 0.00504854, -0.00319749, 0.000542358, 0.0896166, -0.0412431, -0.0304967, -0.110395, 0.155639, -0.0167355, 0.469793, -0.53876, 0.33826, -2.08044, -2.16826, -0.126446, 0.470597, -0.541752, 0.333672, -2.07997, -2.16754, -0.117548, -0.0265036, 0.103974, 0.0528664, 0.016943, 0.0219614, 0.0076065
0.136168, 1.69493, -1.22701, -1.54082, -0.902335, -1.19785, 1.22826, -1.30253, 0.00263713, 0.030415, 0.00439178, -0.101108, -0.049923, 0.000440325, -0.00100073, -3.6422, 66.0645, 33.1101, 8.15216, 2.20386, 3.61148, 0.0229602, -0.003779, 0.000858336, 0.00406902, 0.00506169, -0.00326188, 0.000517592, 0.0883837, -0.042634, -0.0303351, -0.108332, 0.151909, -0.0103887, 0.469767, -0.538656, 0.338313, -2.08036, -2.16831, -0.12637, 0.470613, -0.541728, 0.333684, -2.07989, -2.16765, -0.117395, -0.0268347, 0.105374, 0.0535689, 0.017963, 0.0246163, 0.00861396
0.137168, 1.69492, -1.22697, -1.54081, -0.902441, -1.1979, 1.22825, -1.30253, -0.00250194, 0.0325941, 0.00814326, -0.103162, -0.0487319, 0.000436997, -0.000413171, -3.60253, 66.2112, 33.0744, 8.11249, 2.22858, 3.60415, 0.0165515, -0.00386749, 0.000897099, 0.00409503, 0.00506514, -0.00331438, 0.000500383, 0.090348, -0.0412484, -0.0282163, -0.105038, 0.153801, -0.0132263, 0.46974, -0.538551, 0.338366, -2.08029, -2.16836, -0.126293, 0.470627, -0.541704, 0.333697, -2.07982, -2.16775, -0.117263, -0.0271662, 0.106779, 0.0542736, 0.0164083, 0.0236991, 0.0111527
0.138168, 1.69491, -1.22693, -1.54081, -0.902559, -1.19794, 1.22825, -1.30253, -0.00596936, 0.0385787, 0.00616824, -0.108804, -0.046709, 0.00100927, 0.000449095, -3.56683, 66.1755, 33.2212, 8.11249, 2.23407, 3.58218, -0.00267457, -0.00395618, 0.000936114, 0.00411941, 0.00507848, -0.00338083, 0.000486008, 0.0912438, -0.0407187, -0.0264244, -0.107505, 0.159832, -0.0140915, 0.469713, -0.538444, 0.338421, -2.08021, -2.16842, -0.126215, 0.470641, -0.54168, 0.333713, -2.07975, -2.16785, -0.117104, -0.0274983, 0.108188, 0.0549806, 0.0156545, 0.0239292, 0.0135083
0.139168, 1.6949, -1.22689, -1.5408, -0.902681, -1.19798, 1.22825, -1.30253, -0.00857065, 0.0391257, 0.00417315, -0.114144, -0.0455803, 0.000838305, 0.000308746, -3.52715, 66.2866, 33.2609, 8.15216, 2.24048, 3.57577, -0.00267457, -0.00404414, 0.000977887, 0.00414887, 0.00508695, -0.00343387, 0.000455913, 0.0924566, -0.0404718, -0.0279061, -0.111501, 0.160815, -0.0135566, 0.469685, -0.538336, 0.338476, -2.08013, -2.16847, -0.126136, 0.470658, -0.541652, 0.333724, -2.07967, -2.16796, -0.116964, -0.0278308, 0.109602, 0.0556897, 0.0150689, 0.0243632, 0.0125752
0.140168, 1.69488, -1.22685, -1.54079, -0.902806, -1.19801, 1.22826, -1.30254, -0.0134657, 0.0433922, 0.00510197, -0.115862, -0.0449068, 0.00131875, -0.00121131, -3.48748, 66.358, 33.3362, 8.11249, 2.25238, 3.5538, 0.0357776, -0.00413381, 0.00101924, 0.00417693, 0.00509355, -0.00348977, 0.000424633, 0.0949727, -0.0386391, -0.0254899, -0.110213, 0.165608, -0.0159195, 0.469658, -0.538226, 0.338531, -2.08005, -2.16853, -0.126055, 0.470673, -0.541625, 0.333737, -2.07958, -2.16808, -0.116824, -0.0281637, 0.111021, 0.0564009, 0.0131005, 0.0228503, 0.015344
0.141168, 1.69486, -1.22682, -1.54079, -0.902933, -1.19805, 1.22825, -1.30253, -0.0149718, 0.0469195, 0.00412883, -0.120753, -0.0448327, 0.00110999, -9.02046e-05, -3.4121, 66.4334, 33.483, 8.07678, 2.27161, 3.54648, 0.0165515, -0.00422662, 0.00105713, 0.00420872, 0.00510665, -0.0035388, 0.000408337, 0.0955594, -0.0389039, -0.024856, -0.113543, 0.170347, -0.0158939, 0.469629, -0.538115, 0.338588, -2.07997, -2.16858, -0.125974, 0.470685, -0.541599, 0.333746, -2.0795, -2.16818, -0.11668, -0.028497, 0.112445, 0.0571142, 0.013083, 0.0236114, 0.0165846
0.142168, 1.69484, -1.22677, -1.54078, -0.903067, -1.19808, 1.22826, -1.30253, -0.0167624, 0.0442327, 0.00538354, -0.124322, -0.0346077, 0.00176082, 0.000181167, -3.30102, 66.4691, 33.5584, 8.03711, 2.30182, 3.5181, 0.0101428, -0.00431873, 0.00109696, 0.00423701, 0.0051115, -0.0035915, 0.000379888, 0.0948616, -0.0405274, -0.0268289, -0.109309, 0.160731, -0.0118573, 0.469601, -0.538002, 0.338645, -2.07989, -2.16864, -0.125892, 0.470699, -0.541571, 0.33376, -2.07941, -2.16829, -0.116542, -0.0288307, 0.113873, 0.0578295, 0.0142711, 0.0261033, 0.0154067
0.143168, 1.69482, -1.22673, -1.54077, -0.903207, -1.1981, 1.22826, -1.30254, -0.0206563, 0.0462076, 0.00692143, -0.128017, -0.0309913, 0.0014224, -0.00109697, -3.33672, 66.4691, 33.5941, 8.03711, 2.30182, 3.51077, 0.0431018, -0.0044064, 0.00114128, 0.00426283, 0.0051134, -0.00364193, 0.000337212, 0.0957794, -0.0400312, -0.0259502, -0.108115, 0.160605, -0.0104239, 0.469572, -0.537889, 0.338703, -2.07981, -2.1687, -0.125809, 0.470717, -0.541538, 0.333777, -2.07931, -2.16842, -0.11641, -0.0291647, 0.115306, 0.0585467, 0.0135156, 0.0264758, 0.0168666
0.144168, 1.69479, -1.22668, -1.54076, -0.903341, -1.19812, 1.22826, -1.30253, -0.027299, 0.0475368, 0.00811641, -0.13133, -0.0281006, 0.0017111, 0.000254251, -3.22564, 66.4691, 33.6338, 7.92602, 2.29541, 3.48971, 0.0165515, -0.00450205, 0.00117762, 0.00428753, 0.0051107, -0.00368957, 0.00031856, 0.0983739, -0.0378916, -0.0253267, -0.106465, 0.160641, -0.015062, 0.469543, -0.537773, 0.338761, -2.07972, -2.16875, -0.125725, 0.470727, -0.541512, 0.333795, -2.07923, -2.16853, -0.116282, -0.029499, 0.116743, 0.0592659, 0.0111744, 0.025163, 0.0178716
0.145168, 1.69475, -1.22663, -1.54075, -0.903488, -1.19813, 1.22826, -1.30253, -0.028363, 0.047667, 0.00896847, -0.134482, -0.0267122, 0.00167047, 0.000171165, -3.15026, 66.5048, 33.6695, 7.85065, 2.30823, 3.47507, 0.0165515, -0.00459678, 0.00121605, 0.00431529, 0.00511045, -0.00373514, 0.000289081, 0.0989908, -0.0385813, -0.0258192, -0.106977, 0.160751, -0.0135409, 0.469513, -0.537657, 0.338821, -2.07964, -2.16881, -0.12564, 0.470738, -0.541483, 0.333812, -2.07914, -2.16864, -0.116154, -0.0298335, 0.118184, 0.059987, 0.0115379, 0.0261029, 0.0179892
0.146168, 1.69472, -1.2266, -1.54074, -0.903631, -1.19815, 1.22826, -1.30254, -0.0294347, 0.0410333, 0.00786518, -0.139646, -0.0264338, 0.00215521, -0.000867986, -3.18597, 66.6913, 33.7806, 7.73956, 2.33844, 3.44668, 0.0431018, -0.00469387, 0.00125517, 0.00434977, 0.00510958, -0.00376728, 0.00025814, 0.100325, -0.0394745, -0.0312139, -0.110778, 0.155593, -0.0104626, 0.469484, -0.537538, 0.338881, -2.07955, -2.16887, -0.125554, 0.47075, -0.541453, 0.333821, -2.07903, -2.16875, -0.11604, -0.0301683, 0.119629, 0.0607099, 0.0119411, 0.0270954, 0.0131505
0.147168, 1.69468, -1.22656, -1.54073, -0.903789, -1.19816, 1.22825, -1.30254, -0.033041, 0.045156, 0.012247, -0.145399, -0.020153, 0.00142961, -0.000306454, -3.11059, 66.7627, 33.8202, 7.70386, 2.35126, 3.44668, 0.0357776, -0.00479017, 0.00129254, 0.0043801, 0.00510673, -0.00380211, 0.00022581, 0.0991657, -0.040288, -0.0284064, -0.107029, 0.155262, -0.00658663, 0.469453, -0.537419, 0.338941, -2.07946, -2.16893, -0.125467, 0.47076, -0.541423, 0.333836, -2.07893, -2.16887, -0.115924, -0.0305034, 0.121079, 0.0614347, 0.0124873, 0.0292998, 0.0168
0.148168, 1.69463, -1.2265, -1.54071, -0.903951, -1.19816, 1.22826, -1.30253, -0.0381792, 0.0486351, 0.0128445, -0.149276, -0.0206372, 0.00176148, 0.000983194, -3.07488, 66.6913, 33.8202, 7.66418, 2.36316, 3.42471, 0.00373412, -0.00488642, 0.00133075, 0.0044033, 0.00509565, -0.00384688, 0.000194344, 0.10154, -0.0385982, -0.0268845, -0.107758, 0.160375, -0.0106561, 0.469423, -0.537298, 0.339003, -2.07938, -2.16899, -0.125378, 0.47077, -0.541391, 0.333859, -2.07884, -2.16899, -0.115806, -0.0308386, 0.122533, 0.0621611, 0.0106218, 0.0281042, 0.0187195
0.149168, 1.69458, -1.22647, -1.54069, -0.904119, -1.19817, 1.22826, -1.30253, -0.0399948, 0.0450273, 0.0165337, -0.159629, -0.0158241, 0.00144154, 0.000655989, -3.11059, 66.8738, 33.8202, 7.66418, 2.37598, 3.41739, 0.00373412, -0.00498378, 0.00137064, 0.00443943, 0.00508714, -0.00386825, 0.00015388, 0.0994214, -0.0413824, -0.0295591, -0.10804, 0.154267, -0.000740221, 0.469392, -0.537175, 0.339065, -2.07929, -2.16905, -0.125289, 0.470782, -0.541358, 0.333869, -2.07872, -2.16911, -0.115708, -0.031174, 0.12399, 0.0628893, 0.0128834, 0.0321873, 0.0170416
0.150168, 1.69453, -1.22641, -1.54068, -0.904289, -1.19816, 1.22826, -1.30253, -0.0438298, 0.0502594, 0.0185945, -0.162125, -0.0115055, 0.00173788, -3.69969e-05, -3.18597, 66.727, 33.8559, 7.59277, 2.36957, 3.39633, 0.0165515, -0.00507987, 0.00140929, 0.004462, 0.00507494, -0.00390775, 0.000112553, 0.100214, -0.0408724, -0.0263754, -0.104692, 0.157002, -0.00048776, 0.469361, -0.537051, 0.339128, -2.0792, -2.16911, -0.125199, 0.470792, -0.541323, 0.333893, -2.07862, -2.16924, -0.115596, -0.0315095, 0.125452, 0.0636192, 0.0121995, 0.0323604, 0.0208104
0.151168, 1.69446, -1.22638, -1.54066, -0.904466, -1.19816, 1.22826, -1.30253, -0.052667, 0.0491676, 0.0188718, -0.168225, 0.00165876, 0.00115631, -2.43685e-05, -3.15026, 66.9095, 33.9313, 7.5531, 2.37598, 3.39633, 0.0165515, -0.00518573, 0.00143982, 0.00449837, 0.00506442, -0.00392425, 8.50398e-05, 0.101274, -0.0390033, -0.0278775, -0.101021, 0.146014, -0.000475117, 0.469329, -0.536926, 0.339191, -2.07911, -2.16918, -0.125108, 0.470794, -0.541296, 0.333904, -2.07851, -2.16935, -0.115503, -0.0318451, 0.126917, 0.0643506, 0.00998522, 0.0329261, 0.019957
0.152168, 1.69439, -1.22633, -1.54063, -0.904648, -1.19816, 1.22825, -1.30253, -0.0558009, 0.0504869, 0.0222976, -0.173564, 0.00130632, 0.000769165, 0.00120468, -3.26134, 66.8738, 33.8917, 7.5531, 2.37598, 3.39633, -0.0164075, -0.00528503, 0.00147638, 0.00452207, 0.00504807, -0.00395837, 4.71199e-05, 0.101852, -0.0391875, -0.0269936, -0.101017, 0.148547, 0.000213432, 0.469298, -0.536799, 0.339256, -2.07902, -2.16924, -0.125016, 0.470802, -0.541262, 0.333928, -2.0784, -2.16948, -0.115398, -0.0321808, 0.128386, 0.0650837, 0.00989604, 0.0336999, 0.0214684
0.153168, 1.69432, -1.22627, -1.5406, -0.904837, -1.19816, 1.22825, -1.30253, -0.0588632, 0.0515313, 0.0226729, -0.177985, 0.00173332, 0.0013253, 0.00029466, -3.33672, 66.8381, 33.9313, 7.59277, 2.35675, 3.37436, -0.00267457, -0.00539036, 0.00150834, 0.00454868, 0.00503202, -0.00399271, 1.17962e-05, 0.103277, -0.0389345, -0.0271516, -0.102108, 0.150738, 0.00111535, 0.469265, -0.53667, 0.339321, -2.07892, -2.1693, -0.124922, 0.470805, -0.541232, 0.33395, -2.0783, -2.1696, -0.115291, -0.0325166, 0.129859, 0.0658182, 0.00936285, 0.0337808, 0.0218364
0.154168, 1.69424, -1.22623, -1.54057, -0.905029, -1.19815, 1.22825, -1.30253, -0.0647626, 0.0510237, 0.0280965, -0.184003, 0.00214993, 0.000611304, -0.000278153, -3.4121, 66.9849, 33.8917, 7.59277, 2.33295, 3.38168, 0.0101428, -0.00549576, 0.00154031, 0.00457896, 0.0050132, -0.00401187, -2.71803e-05, 0.104455, -0.0381315, -0.0266178, -0.100338, 0.1505, 0.00272169, 0.469233, -0.53654, 0.339387, -2.07883, -2.16937, -0.124828, 0.470807, -0.5412, 0.333969, -2.07818, -2.16973, -0.115202, -0.0328524, 0.131335, 0.0665543, 0.00829827, 0.0339786, 0.0229455
0.155168, 1.69415, -1.22618, -1.54053, -0.905232, -1.19814, 1.22825, -1.30253, -0.0683371, 0.05015, 0.031425, -0.190054, 0.00290811, 0.00118671, -0.000422701, -3.52715, 67.0206, 33.8917, 7.66418, 2.29541, 3.36062, 0.0165515, -0.00560036, 0.00157302, 0.00460552, 0.00499419, -0.00403973, -7.06822e-05, 0.10513, -0.038553, -0.0270543, -0.0995229, 0.150472, 0.00534655, 0.4692, -0.536409, 0.339453, -2.07873, -2.16943, -0.124733, 0.47081, -0.541166, 0.333992, -2.07807, -2.16986, -0.115104, -0.0331882, 0.132814, 0.0672918, 0.0083983, 0.0348791, 0.0231346
0.156168, 1.69406, -1.22613, -1.5405, -0.905435, -1.19814, 1.22825, -1.30253, -0.0748709, 0.0525536, 0.032628, -0.19335, 0.00268034, 0.0016044, -4.43711e-05, -3.60253, 67.0602, 33.9313, 7.5531, 2.2771, 3.33865, 0.0101428, -0.00571367, 0.00159869, 0.00463185, 0.00497001, -0.00407033, -9.78431e-05, 0.108255, -0.0361174, -0.0258046, -0.099143, 0.154221, 0.000685095, 0.469167, -0.536276, 0.33952, -2.07864, -2.1695, -0.124636, 0.470806, -0.54114, 0.334015, -2.07797, -2.16998, -0.115007, -0.033524, 0.134297, 0.0680307, 0.00580984, 0.0329786, 0.0247084
0.157168, 1.69396, -1.22608, -1.54046, -0.905648, -1.19813, 1.22825, -1.30253, -0.0813834, 0.0504088, 0.033923, -0.197926, 0.00319081, 0.00161173, 0.000716457, -3.75329, 67.1317, 33.967, 7.51739, 2.24048, 3.324, -0.00999879, -0.00582254, 0.0016292, 0.00466015, 0.00494917, -0.00409592, -0.000133977, 0.111206, -0.0340929, -0.0274107, -0.0996775, 0.152742, -0.00282098, 0.469133, -0.536142, 0.339588, -2.07854, -2.16956, -0.124539, 0.470806, -0.541108, 0.334037, -2.07786, -2.17011, -0.11491, -0.0338597, 0.135784, 0.0687709, 0.00351227, 0.0317057, 0.0234768
0.158168, 1.69386, -1.22603, -1.54042, -0.905879, -1.19813, 1.22825, -1.30253, -0.0880539, 0.0516299, 0.0341312, -0.207942, 0.00192553, 0.00239661, 0.00020641, -3.82867, 67.0959, 34.0424, 7.51739, 2.24689, 3.2883, -0.00267457, -0.00593263, 0.00165738, 0.00468533, 0.00493269, -0.00413448, -0.000181727, 0.112964, -0.0328786, -0.0281028, -0.103593, 0.157003, -0.00163815, 0.469099, -0.536006, 0.339657, -2.07844, -2.16963, -0.124441, 0.470804, -0.541076, 0.334063, -2.07774, -2.17026, -0.114796, -0.0341954, 0.137273, 0.0695125, 0.00201292, 0.0315116, 0.023306
0.159168, 1.69373, -1.22598, -1.54037, -0.906114, -1.19812, 1.22824, -1.30253, -0.0980514, 0.0486537, 0.0405753, -0.216632, 0.00110699, -0.00217904, 0.000137637, -3.82867, 67.207, 34.1178, 7.5531, 2.25238, 3.25992, -0.00267457, -0.00604967, 0.00167864, 0.00471346, 0.00491106, -0.00416324, -0.000216952, 0.115041, -0.0297494, -0.0291625, -0.105708, 0.153456, -0.00212782, 0.469065, -0.535869, 0.339727, -2.07834, -2.1697, -0.124341, 0.470795, -0.541049, 0.334086, -2.07763, -2.17039, -0.114695, -0.0345309, 0.138766, 0.0702554, -0.00139995, 0.0309742, 0.0227884
0.160168, 1.69362, -1.22592, -1.54032, -0.906358, -1.19812, 1.22824, -1.30253, -0.10542, 0.052346, 0.0470786, -0.222362, 0.00623393, -0.000532748, 0.000363047, -3.97942, 67.207, 34.1535, 7.5531, 2.24689, 3.22421, -0.00999879, -0.00616125, 0.00170612, 0.00473595, 0.00488553, -0.00420023, -0.000262609, 0.115671, -0.0291212, -0.025473, -0.0980572, 0.154586, -0.00102926, 0.469031, -0.53573, 0.339797, -2.07824, -2.16977, -0.124241, 0.470791, -0.541015, 0.334117, -2.07751, -2.17054, -0.11459, -0.0348663, 0.140262, 0.0709994, -0.00218367, 0.0312599, 0.0271015
0.161168, 1.69349, -1.22587, -1.54026, -0.906603, -1.19811, 1.22824, -1.30253, -0.112063, 0.0512734, 0.0514176, -0.228852, 0.00393221, -0.000114491, -0.000978655, -4.0548, 67.2427, 34.1892, 7.51739, 2.2652, 3.20956, 0.0229602, -0.00627739, 0.00172877, 0.0047593, 0.00485375, -0.00422766, -0.000307813, 0.117989, -0.0277222, -0.0255899, -0.0976827, 0.156674, -0.000396386, 0.468996, -0.53559, 0.339868, -2.07814, -2.16984, -0.12414, 0.470783, -0.540985, 0.334146, -2.07739, -2.17068, -0.114501, -0.0352016, 0.141761, 0.0717447, -0.00382063, 0.0304248, 0.0274234
0.162168, 1.69335, -1.22582, -1.5402, -0.906861, -1.1981, 1.22824, -1.30253, -0.11838, 0.0477344, 0.0533375, -0.236387, 0.00296229, 0.000477171, -0.000415065, -4.09447, 67.3895, 34.3043, 7.59277, 2.2652, 3.18851, 0.0165515, -0.00639389, 0.0017535, 0.00478755, 0.00482654, -0.00425561, -0.000359544, 0.120341, -0.0265429, -0.0281634, -0.0993955, 0.155555, -0.00108587, 0.468961, -0.535448, 0.33994, -2.07804, -2.16991, -0.124037, 0.470776, -0.540953, 0.334171, -2.07726, -2.17083, -0.114406, -0.0355366, 0.143262, 0.0724911, -0.00533481, 0.0299432, 0.0253081
0.163168, 1.69322, -1.22576, -1.54014, -0.907127, -1.1981, 1.22824, -1.30253, -0.124497, 0.0480321, 0.0561405, -0.242945, 0.00702043, 0.00147075, 0.000198017, -4.20556, 67.4252, 34.3757, 7.59277, 2.2771, 3.1528, 0.00373412, -0.00651017, 0.00177799, 0.00481068, 0.00479509, -0.00428967, -0.000411806, 0.121404, -0.0259745, -0.0280185, -0.096908, 0.154206, -0.000468649, 0.468925, -0.535305, 0.340012, -2.07793, -2.16998, -0.123934, 0.470769, -0.54092, 0.334202, -2.07714, -2.17099, -0.114308, -0.0358715, 0.144767, 0.0732387, -0.00618147, 0.0303514, 0.0260561
0.164168, 1.69307, -1.22571, -1.54007, -0.907403, -1.19809, 1.22824, -1.30254, -0.126633, 0.0501392, 0.0631453, -0.2556, 0.00439237, 0.00112442, -0.0015634, -4.28094, 67.5006, 34.4867, 7.62848, 2.30182, 3.14548, 0.0495105, -0.00662637, 0.00180185, 0.00483682, 0.00476755, -0.00431707, -0.000474906, 0.119042, -0.0287097, -0.0264671, -0.0983609, 0.159918, 0.0115246, 0.468889, -0.53516, 0.340086, -2.07783, -2.17005, -0.123829, 0.470761, -0.540885, 0.334231, -2.077, -2.17115, -0.114213, -0.0362061, 0.146274, 0.0739872, -0.00381093, 0.0340821, 0.0286094
0.165168, 1.69292, -1.22566, -1.54, -0.90769, -1.19808, 1.22824, -1.30253, -0.136217, 0.048718, 0.069266, -0.264065, 0.00751615, 0.000925368, -0.000804904, -4.28094, 67.576, 34.6018, 7.62848, 2.33295, 3.13815, 0.0431018, -0.00674332, 0.00182557, 0.00486152, 0.00473333, -0.00434538, -0.000532997, 0.120609, -0.026913, -0.0263453, -0.0949555, 0.156892, 0.0115562, 0.468853, -0.535014, 0.34016, -2.07772, -2.17012, -0.123723, 0.470752, -0.540849, 0.334262, -2.07686, -2.17132, -0.114122, -0.0365405, 0.147784, 0.0747369, -0.00586365, 0.0339449, 0.0293006
0.166168, 1.69276, -1.22561, -1.53991, -0.907988, -1.19806, 1.22823, -1.30254, -0.142897, 0.0469349, 0.0772606, -0.270223, 0.00559952, -0.00356698, -0.000536599, -4.28094, 67.6831, 34.5621, 7.62848, 2.33844, 3.1235, 0.0431018, -0.00685869, 0.0018494, 0.00488109, 0.00468776, -0.00437172, -0.000604999, 0.121774, -0.025213, -0.025962, -0.0953625, 0.155309, 0.012128, 0.468816, -0.534866, 0.340234, -2.07762, -2.17019, -0.123617, 0.470743, -0.540811, 0.334299, -2.07672, -2.1715, -0.114047, -0.0368746, 0.149297, 0.0754875, -0.00782491, 0.0341727, 0.0303101
0.167168, 1.6926, -1.22555, -1.53983, -0.908295, -1.19805, 1.22823, -1.30253, -0.15094, 0.0446811, 0.0817071, -0.279103, 0.00921163, -0.00336215, 0.000388256, -4.35632, 67.8339, 34.7129, 7.66418, 2.35126, 3.13815, 0.0229602, -0.00697393, 0.00187554, 0.00490775, 0.00465742, -0.00439791, -0.000678276, 0.122908, -0.024222, -0.027025, -0.093342, 0.151453, 0.0132609, 0.46878, -0.534717, 0.34031, -2.07751, -2.17026, -0.123509, 0.470736, -0.54077, 0.33433, -2.07656, -2.17168, -0.113954, -0.0372084, 0.150812, 0.076239, -0.00913742, 0.0346844, 0.029873
0.168168, 1.6926, -1.22555, -1.53983, -0.908295, -1.19805, 1.22823, -1.30253, -0.15094, 0.0446811, 0.0817071, -0.279103, 0.00921163, -0.00336215, 0.000388256, -4.35632, 67.8339, 34.7129, 7.66418, 2.35126, 3.13815, 0.0229602, -0.00713603, 0.0019081, 0.00495872, 0.00458127, -0.00436602, -0.000598476, 0.124537, -0.0245023, -0.0275263, -0.0938764, 0.152436, 0.0120929, 0.468742, -0.534566, 0.340386, -2.0774, -2.17034, -0.123401, 0.470736, -0.54077, 0.33433, -2.07656, -2.17168, -0.113954, -0.0375418, 0.15233, 0.0769914, -0.00913742, 0.0346844, 0.029873
0.169168, 1.69226, -1.22544, -1.53965, -0.90894, -1.19802, 1.22823, -1.30253, -0.160337, 0.0493632, 0.085862, -0.301566, 0.012784, -0.00537102, -0.000143917, -4.28094, 68.0164, 34.8597, 7.59277, 2.40619, 3.13815, 0.0357776, -0.00720732, 0.00192263, 0.00495205, 0.0045823, -0.00445648, -0.000835344, 0.121432, -0.0251685, -0.0266433, -0.0997708, 0.155641, 0.0249127, 0.468705, -0.534414, 0.340463, -2.07729, -2.17041, -0.123291, 0.470717, -0.540689, 0.334402, -2.07624, -2.17205, -0.113776, -0.0378749, 0.15385, 0.0777447, -0.00888799, 0.0391681, 0.0319539
0.170168, 1.69208, -1.22537, -1.53956, -0.909276, -1.198, 1.22822, -1.30253, -0.166422, 0.0554978, 0.0897064, -0.310725, 0.00887196, -0.00351595, 0.000141415, -4.32061, 68.0521, 34.9708, 7.5531, 2.43091, 3.1235, 0.0293689, -0.00732153, 0.00194855, 0.00497154, 0.00454441, -0.00448877, -0.000920543, 0.12263, -0.0245151, -0.0229887, -0.100115, 0.167266, 0.0258522, 0.468667, -0.53426, 0.340541, -2.07718, -2.17049, -0.12318, 0.470709, -0.540644, 0.334442, -2.07608, -2.17225, -0.113683, -0.0382076, 0.155372, 0.0784988, -0.00966768, 0.0389234, 0.0361576
0.171168, 1.6919, -1.22532, -1.53946, -0.90963, -1.19798, 1.22822, -1.30253, -0.166433, 0.0553181, 0.0935394, -0.319776, 0.0154257, -0.00748282, 9.42778e-05, -4.28094, 68.2742, 35.0461, 7.51739, 2.48584, 3.1235, 0.0293689, -0.00743533, 0.00197522, 0.00499708, 0.00450921, -0.00451213, -0.0010215, 0.119084, -0.0274818, -0.0238481, -0.102033, 0.161358, 0.0366675, 0.468629, -0.534104, 0.340619, -2.07707, -2.17056, -0.123068, 0.470701, -0.540595, 0.334477, -2.07589, -2.17246, -0.113597, -0.0385399, 0.156897, 0.0792537, -0.00720991, 0.0442194, 0.0365085
0.172168, 1.69171, -1.22525, -1.53937, -0.909984, -1.19795, 1.22822, -1.30253, -0.174622, 0.0602252, 0.0936075, -0.329588, 0.0162051, -0.00433325, 0.000774929, -4.16985, 68.3099, 35.1969, 7.44202, 2.51056, 3.0878, 0.0101428, -0.00755447, 0.00199712, 0.00501547, 0.00446813, -0.00454931, -0.00110705, 0.121125, -0.0259138, -0.0221437, -0.102476, 0.168758, 0.0354997, 0.46859, -0.533947, 0.340699, -2.07696, -2.17064, -0.122956, 0.470688, -0.540552, 0.334519, -2.07573, -2.17267, -0.113501, -0.0388718, 0.158424, 0.0800094, -0.00894606, 0.0434005, 0.0386895
0.173168, 1.6915, -1.22519, -1.53928, -0.910356, -1.19793, 1.22822, -1.30253, -0.181317, 0.0601477, 0.0950975, -0.343186, 0.0207419, -0.0026093, 0.000279261, -4.0191, 68.4964, 35.3437, 7.36664, 2.5719, 3.06674, 0.0165515, -0.0076722, 0.00201981, 0.00503994, 0.00443446, -0.00457805, -0.00120243, 0.120656, -0.0265404, -0.0235813, -0.103576, 0.167718, 0.0423601, 0.468551, -0.533789, 0.340779, -2.07684, -2.17071, -0.122842, 0.470676, -0.540505, 0.334556, -2.07554, -2.17287, -0.113406, -0.0392032, 0.159952, 0.0807657, -0.00872161, 0.0456414, 0.0380784
0.174168, 1.6913, -1.22513, -1.53916, -0.910745, -1.1979, 1.22822, -1.30253, -0.189085, 0.0596098, 0.103365, -0.356036, 0.0253594, -0.00157226, 0.000423533, -3.86834, 68.7146, 35.4191, 7.25555, 2.60303, 3.05209, 0.0101428, -0.00778439, 0.00204739, 0.00506388, 0.00439362, -0.00459901, -0.00131728, 0.11943, -0.0274786, -0.0227724, -0.0988183, 0.165336, 0.0501478, 0.468512, -0.533629, 0.340859, -2.07673, -2.17079, -0.122727, 0.470669, -0.540451, 0.334595, -2.07534, -2.1731, -0.113327, -0.0395341, 0.161483, 0.0815227, -0.00812489, 0.0483053, 0.0397919
0.175168, 1.6911, -1.22506, -1.53905, -0.911138, -1.19787, 1.22822, -1.30253, -0.191914, 0.0616193, 0.106162, -0.369882, 0.0287329, -0.000515823, 0.000519715, -3.71758, 68.8257, 35.5301, 7.18018, 2.63324, 3.03012, 0.00373412, -0.0078967, 0.00207537, 0.00508391, 0.00435384, -0.00462938, -0.00143426, 0.116874, -0.0302598, -0.0228046, -0.10044, 0.1671, 0.0606333, 0.468473, -0.533468, 0.340941, -2.07661, -2.17087, -0.122611, 0.470661, -0.540396, 0.334639, -2.07513, -2.17334, -0.113236, -0.0398646, 0.163016, 0.0822803, -0.00577722, 0.0524989, 0.0408155
0.176168, 1.69088, -1.22499, -1.53894, -0.911542, -1.19783, 1.22822, -1.30252, -0.195612, 0.066012, 0.112176, -0.379234, 0.0313282, -4.63426e-05, 0.00255052, -3.48748, 68.9368, 35.6412, 7.1048, 2.66437, 3.01639, -0.0557752, -0.00800881, 0.00210349, 0.00510344, 0.00430848, -0.00465639, -0.00155105, 0.11524, -0.0318696, -0.019679, -0.0976718, 0.170981, 0.0656068, 0.468433, -0.533304, 0.341023, -2.07649, -2.17095, -0.122494, 0.470653, -0.54034, 0.334684, -2.07493, -2.17357, -0.113154, -0.0401944, 0.164551, 0.0830385, -0.00443084, 0.0552512, 0.0448571
0.177168, 1.69066, -1.22493, -1.53881, -0.911947, -1.1978, 1.22822, -1.30253, -0.199298, 0.0679991, 0.12033, -0.387658, 0.0326722, 0.000353324, 4.92857e-06, -3.22564, 69.1193, 35.6809, 6.91833, 2.7074, 3.00174, -0.00999879, -0.00812306, 0.0021314, 0.00512339, 0.00425137, -0.00467523, -0.0016797, 0.113895, -0.0335482, -0.0170709, -0.0934286, 0.173254, 0.0750208, 0.468392, -0.53314, 0.341106, -2.07637, -2.17103, -0.122376, 0.470645, -0.540284, 0.334729, -2.07472, -2.17382, -0.113094, -0.0405238, 0.166087, 0.0837972, -0.00302434, 0.0578019, 0.048341
0.178168, 1.69045, -1.22486, -1.53869, -0.912379, -1.19775, 1.22821, -1.30253, -0.206198, 0.0693416, 0.119498, -0.396877, 0.0402086, 0.000116813, 3.28584e-06, -3.03521, 69.3057, 35.792, 6.84296, 2.72571, 3.00174, -0.00999879, -0.00822847, 0.0021664, 0.00514695, 0.0042137, -0.00469717, -0.00182901, 0.11437, -0.0326077, -0.0180729, -0.0946791, 0.169945, 0.0771964, 0.468352, -0.532974, 0.34119, -2.07626, -2.17111, -0.122257, 0.470643, -0.540216, 0.334772, -2.07447, -2.17409, -0.11301, -0.0408525, 0.167625, 0.0845564, -0.00430516, 0.0589807, 0.0480715
0.179168, 1.69022, -1.22479, -1.53857, -0.912818, -1.19771, 1.22821, -1.30253, -0.21204, 0.0682663, 0.122125, -0.403856, 0.0452104, -0.000282444, -0.000506436, -2.65832, 69.4525, 35.9784, 6.77154, 2.75043, 3.00906, 0.00373412, -0.00834134, 0.00219282, 0.00516896, 0.00417193, -0.00471988, -0.00196701, 0.115032, -0.032104, -0.0190059, -0.0935023, 0.165873, 0.0798307, 0.468311, -0.532806, 0.341275, -2.07613, -2.17119, -0.122137, 0.470633, -0.540156, 0.334817, -2.07424, -2.17434, -0.112928, -0.0411807, 0.169165, 0.0853161, -0.00513883, 0.059987, 0.0478271
0.180168, 1.69, -1.22472, -1.53844, -0.913259, -1.19766, 1.22821, -1.30252, -0.214624, 0.0736815, 0.128804, -0.414163, 0.0489264, -0.00511486, 0.0013578, -2.50756, 69.5993, 36.0142, 6.65649, 2.78064, 3.01639, -0.0420422, -0.00844472, 0.00223072, 0.00518702, 0.00412154, -0.00474004, -0.00212148, 0.11162, -0.0337878, -0.015701, -0.0948035, 0.16735, 0.0875577, 0.46827, -0.532637, 0.34136, -2.07601, -2.17127, -0.122016, 0.470633, -0.540084, 0.334867, -2.07399, -2.17462, -0.112858, -0.0415082, 0.170706, 0.0860762, -0.003782, 0.0644792, 0.0523164
0.181168, 1.68976, -1.22464, -1.5383, -0.913713, -1.19761, 1.22821, -1.30252, -0.224141, 0.0794338, 0.125829, -0.425406, 0.0522431, -0.0035711, 0.00114256, -2.16637, 69.6747, 36.1252, 6.47003, 2.79895, 3.00906, -0.0484509, -0.00855311, 0.00226148, 0.00519999, 0.00406317, -0.00476521, -0.00227025, 0.113708, -0.0312079, -0.0148891, -0.0985901, 0.172986, 0.0865862, 0.468228, -0.532466, 0.341446, -2.07589, -2.17135, -0.121894, 0.470627, -0.540017, 0.334923, -2.07375, -2.1749, -0.112791, -0.0418351, 0.172249, 0.0868367, -0.00655492, 0.0637174, 0.0536497
0.182168, 1.68952, -1.22456, -1.53817, -0.914177, -1.19755, 1.22821, -1.30252, -0.228387, 0.0791804, 0.13208, -0.43927, 0.05527, -0.00165392, 0.000286987, -1.94024, 69.6747, 36.2363, 6.32324, 2.79895, 2.98068, -0.0356336, -0.00865635, 0.00229894, 0.00521306, 0.00400506, -0.00479149, -0.00243902, 0.11142, -0.0339479, -0.0148747, -0.0965947, 0.172993, 0.0982357, 0.468187, -0.532294, 0.341533, -2.07577, -2.17143, -0.121771, 0.470626, -0.539943, 0.33498, -2.07349, -2.1752, -0.112723, -0.0421613, 0.173793, 0.0875976, -0.00423211, 0.0676521, 0.054681
0.183168, 1.68928, -1.22448, -1.53803, -0.914661, -1.19749, 1.22821, -1.30251, -0.234919, 0.0789109, 0.130762, -0.451231, 0.0622101, -0.000532077, 0.000428684, -1.7141, 69.7858, 36.3871, 6.24786, 2.81726, 2.95871, -0.0420422, -0.00875909, 0.00233617, 0.00523232, 0.00395672, -0.00481147, -0.00261175, 0.111424, -0.033941, -0.0172808, -0.0988606, 0.169531, 0.102644, 0.468144, -0.53212, 0.34162, -2.07564, -2.17152, -0.121646, 0.470625, -0.539866, 0.335032, -2.07322, -2.17549, -0.11265, -0.0424869, 0.175339, 0.0883587, -0.00465591, 0.0695598, 0.0530665
0.184168, 1.68903, -1.2244, -1.53788, -0.915143, -1.19743, 1.22821, -1.30251, -0.240721, 0.0760485, 0.132127, -0.457268, 0.0609179, 0.000785263, 0.00456992, -1.48797, 69.8929, 36.4228, 6.0614, 2.86029, 2.923, -0.0292249, -0.00886699, 0.00237008, 0.00525011, 0.00389779, -0.00483039, -0.0027812, 0.114198, -0.0326612, -0.019426, -0.0999089, 0.16969, 0.0971782, 0.468102, -0.531945, 0.341709, -2.07552, -2.1716, -0.121521, 0.470621, -0.539792, 0.335085, -2.07295, -2.17579, -0.112589, -0.0428117, 0.176886, 0.0891202, -0.00622287, 0.0686337, 0.0513309
0.185168, 1.68878, -1.22432, -1.53775, -0.915634, -1.19737, 1.22821, -1.30251, -0.249083, 0.0753962, 0.136888, -0.465386, 0.0653137, 0.000929208, 0.00415526, -1.26183, 69.9326, 36.5735, 5.87494, 2.90332, 2.90835, -0.0484509, -0.00897535, 0.00240248, 0.0052707, 0.0038515, -0.00484846, -0.0029424, 0.115326, -0.0313773, -0.0193405, -0.0968149, 0.166717, 0.0990365, 0.468059, -0.531768, 0.341798, -2.07539, -2.17169, -0.121395, 0.470614, -0.539718, 0.335136, -2.07269, -2.17607, -0.112512, -0.0431357, 0.178434, 0.0898818, -0.00776878, 0.0689965, 0.0520507
0.186168, 1.68851, -1.22425, -1.5376, -0.916139, -1.1973, 1.22821, -1.3025, -0.251843, 0.072397, 0.140957, -0.479046, 0.0684217, 0.00129674, 0.00283025, -1.11108, 70.0793, 36.6092, 5.76385, 2.95917, 2.8873, -0.0420422, -0.00908153, 0.00243791, 0.00529227, 0.00379046, -0.00485538, -0.00312478, 0.11297, -0.0342926, -0.0218874, -0.0983682, 0.163321, 0.111494, 0.468016, -0.53159, 0.341888, -2.07526, -2.17177, -0.121268, 0.470611, -0.539639, 0.335187, -2.0724, -2.17638, -0.112465, -0.043459, 0.179984, 0.0906437, -0.00537935, 0.0733993, 0.0505564
