alisrour97/Franka_experiments/Real_Robot_scripts/servo-franka/Data_5_ki/log_dyn_PI_k_ki_11.csv
Time,q1,q2,q3,q4,q5,q6,q7,dq1,dq2,dq3,dq4,dq5,dq6,dq7,t1,t2,t3,t4,t5,t6,t7,ex1,ex2,ex3,ex4,ex5,ex6,ev1,ev2,ev3,ev4,ev5,ev6,xd,yd,zd,uxd,uyd,uzd,x,y,z,ux,uy,uz,vxd,vyd,vzd,vx,vy,vz
4.88281e-07, 1.69109, -1.22809, -1.5399, -0.900468, -1.19263, 1.22757, -1.30259, 0.0032603, 7.76834e-05, -0.00034062, -0.0015776, 0.0148774, 0.00103582, -0.00033431, -0.0914839, 64.2236, 32.5904, 7.62848, 3.1496, 4.4208, -0.238881, 0.000246806, -0.00218669, 0.00236387, 0.00344451, 0.00169471, 0.00107594, -0.00468475, -0.00398881, -0.000375349, 0.0062887, -0.011329, 0.00974906, 0.471008, -0.543389, 0.335894, -2.08385, -2.16584, -0.129887, 0.468725, -0.542878, 0.333667, -2.08231, -2.16239, -0.127644, 0, 0, 0, 0.0038026, 0.0048459, 0.000236227
0.0131001, 1.69113, -1.2281, -1.5399, -0.900485, -1.19255, 1.22758, -1.30259, 0.00105952, -0.00228898, 0.000814624, -0.00444152, 0.00983039, 0.000401065, 0.000482242, -0.281914, 64.3704, 32.5547, 7.70386, 3.08826, 4.4144, -0.258107, 0.000285535, -0.00214923, 0.00237406, 0.00341982, 0.00176664, 0.000995395, -0.00363557, -0.00295004, -0.00169582, 0.00317454, -0.00975439, 0.00817057, 0.471008, -0.543389, 0.335894, -2.08385, -2.16584, -0.129887, 0.468766, -0.54283, 0.333659, -2.08218, -2.16246, -0.127783, 3.52292e-06, 9.08712e-06, 4.70091e-06, 0.00275855, 0.00397995, -0.00119446
0.0141001, 1.69113, -1.2281, -1.5399, -0.900485, -1.19255, 1.22758, -1.30259, 0.00105952, -0.00228898, 0.000814624, -0.00444152, 0.00983039, 0.000401065, 0.000482242, -0.281914, 64.3704, 32.5547, 7.70386, 3.08826, 4.4144, -0.258107, 0.000285512, -0.00214924, 0.00237407, 0.0034198, 0.00176665, 0.000995407, -0.00360694, -0.00293884, -0.0017059, 0.00316205, -0.00973526, 0.00814682, 0.471008, -0.543389, 0.335894, -2.08385, -2.16584, -0.129887, 0.468766, -0.54283, 0.333659, -2.08218, -2.16246, -0.127783, 1.40551e-05, 3.62649e-05, 1.87583e-05, 0.00275855, 0.00397995, -0.00119446
0.0151001, 1.69113, -1.2281, -1.5399, -0.900485, -1.19255, 1.22758, -1.30259, 0.00105952, -0.00228898, 0.000814624, -0.00444152, 0.00983039, 0.000401065, 0.000482242, -0.281914, 64.3704, 32.5547, 7.70386, 3.08826, 4.4144, -0.258107, 0.000285452, -0.00214926, 0.00237409, 0.00341977, 0.00176666, 0.00099544, -0.00355937, -0.00292023, -0.00172263, 0.00314133, -0.00970351, 0.00810739, 0.471008, -0.543389, 0.335894, -2.08385, -2.16584, -0.129887, 0.468766, -0.54283, 0.333659, -2.08218, -2.16246, -0.127783, 3.15416e-05, 8.14084e-05, 4.21042e-05, 0.00275855, 0.00397995, -0.00119446
0.0161001, 1.69113, -1.2281, -1.5399, -0.900485, -1.19255, 1.22758, -1.30259, 0.00105952, -0.00228898, 0.000814624, -0.00444152, 0.00983039, 0.000401065, 0.000482242, -0.281914, 64.3704, 32.5547, 7.70386, 3.08826, 4.4144, -0.258107, 0.000285335, -0.00214931, 0.00237413, 0.00341972, 0.00176669, 0.000995504, -0.00349301, -0.00289428, -0.00174598, 0.00311246, -0.00965921, 0.0080524, 0.471008, -0.543389, 0.335894, -2.08385, -2.16584, -0.129887, 0.468766, -0.54283, 0.333659, -2.08218, -2.16246, -0.127783, 5.59279e-05, 0.000144393, 7.4671e-05, 0.00275855, 0.00397995, -0.00119446
0.0171001, 1.69113, -1.2281, -1.5399, -0.900485, -1.19255, 1.22758, -1.30259, 0.00105952, -0.00228898, 0.000814624, -0.00444152, 0.00983039, 0.000401065, 0.000482242, -0.281914, 64.3704, 32.5547, 7.70386, 3.08826, 4.4144, -0.258107, 0.000285142, -0.00214938, 0.0023742, 0.00341962, 0.00176674, 0.000995609, -0.00340798, -0.00286105, -0.00177588, 0.0030755, -0.00960248, 0.00798198, 0.471008, -0.543389, 0.335894, -2.08385, -2.16584, -0.129886, 0.468766, -0.54283, 0.333659, -2.08218, -2.16246, -0.127783, 8.71593e-05, 0.000225094, 0.000116391, 0.00275855, 0.00397995, -0.00119446
0.0181001, 1.69113, -1.2281, -1.5399, -0.900485, -1.19255, 1.22758, -1.30259, 0.00105952, -0.00228898, 0.000814624, -0.00444152, 0.00983039, 0.000401065, 0.000482242, -0.281914, 64.3704, 32.5547, 7.70386, 3.08826, 4.4144, -0.258107, 0.000284855, -0.00214949, 0.0023743, 0.00341948, 0.00176681, 0.000995766, -0.00330442, -0.00282058, -0.00181229, 0.00303055, -0.00953339, 0.00789626, 0.471008, -0.543389, 0.335894, -2.08385, -2.16584, -0.129886, 0.468766, -0.54283, 0.333659, -2.08218, -2.16246, -0.127783, 0.000125182, 0.000323387, 0.000167197, 0.00275855, 0.00397995, -0.00119446
0.0191001, 1.69113, -1.2281, -1.5399, -0.900485, -1.19255, 1.22758, -1.30259, 0.00105952, -0.00228898, 0.000814624, -0.00444152, 0.00983039, 0.000401065, 0.000482242, -0.281914, 64.3704, 32.5547, 7.70386, 3.08826, 4.4144, -0.258107, 0.000284456, -0.00214965, 0.00237444, 0.00341929, 0.0017669, 0.000995983, -0.00318245, -0.00277295, -0.00185516, 0.00297766, -0.00945206, 0.00779536, 0.471008, -0.543388, 0.335894, -2.08385, -2.16584, -0.129886, 0.468766, -0.54283, 0.333659, -2.08218, -2.16246, -0.127783, 0.00016994, 0.000439148, 0.000227022, 0.00275855, 0.00397995, -0.00119446
0.0201001, 1.69113, -1.2281, -1.5399, -0.900485, -1.19255, 1.22758, -1.30259, 0.00105952, -0.00228898, 0.000814624, -0.00444152, 0.00983039, 0.000401065, 0.000482242, -0.281914, 64.3704, 32.5547, 7.70386, 3.08826, 4.4144, -0.258107, 0.000283925, -0.00214986, 0.00237463, 0.00341903, 0.00176703, 0.000996272, -0.0030422, -0.0027182, -0.00190444, 0.00291691, -0.00935856, 0.0076794, 0.471009, -0.543388, 0.335895, -2.08385, -2.16584, -0.129886, 0.468766, -0.54283, 0.333659, -2.08218, -2.16246, -0.127783, 0.000221382, 0.000572255, 0.000295798, 0.00275855, 0.00397995, -0.00119446
0.0211001, 1.69118, -1.2281, -1.5399, -0.900498, -1.19247, 1.22758, -1.30259, 0.00705099, -0.000144693, 0.000860126, 0.00106629, 0.00796172, 0.000510494, 0.000448523, -0.468376, 64.3704, 32.4793, 7.70386, 2.97748, 4.3851, -0.251698, 0.000322668, -0.00211023, 0.00237793, 0.00338531, 0.00182549, 0.000907555, -0.00373609, -0.00456799, -0.000226272, 0.00397128, -0.00582639, 0.00802975, 0.471009, -0.543387, 0.335895, -2.08384, -2.16584, -0.129885, 0.468804, -0.542789, 0.333661, -2.08207, -2.16253, -0.127888, 0.000279451, 0.000722584, 0.000373459, 0.00469978, 0.00463269, 0.000592205
0.0221001, 1.69118, -1.2281, -1.5399, -0.900503, -1.19247, 1.22759, -1.30259, 0.00763987, 0.00166672, 0.000573735, -0.000150235, 0.0061063, 0.000849168, 0.000293967, -0.43267, 64.295, 32.4793, 7.73956, 2.97107, 4.37137, -0.251698, 0.000326206, -0.00210647, 0.00237711, 0.0033834, 0.00182606, 0.000897256, -0.00388804, -0.00487083, 0.000504666, 0.0025555, -0.00207387, 0.00889222, 0.471009, -0.543386, 0.335895, -2.08384, -2.16584, -0.129884, 0.468808, -0.542785, 0.333662, -2.08206, -2.16255, -0.127891, 0.000344096, 0.000890012, 0.000459939, 0.00508782, 0.00485001, 0.00141488
0.0231001, 1.69119, -1.22811, -1.53989, -0.900506, -1.19246, 1.22759, -1.30259, 0.0087476, -0.00788751, -0.000271409, -0.00238632, -0.00631259, -0.00676412, -0.000282525, -0.43267, 64.1483, 32.2175, 7.70386, 2.88501, 4.31369, -0.238881, 0.000329962, -0.00210105, 0.00238185, 0.00337873, 0.00183989, 0.000886293, -0.00212107, -0.00314401, -0.0065085, -0.0127064, -0.00477716, 0.00797794, 0.47101, -0.543385, 0.335896, -2.08384, -2.16584, -0.129884, 0.468813, -0.542779, 0.333658, -2.08204, -2.16255, -0.12791, 0.000415261, 0.00107442, 0.00055517, 0.00324442, 0.0042988, -0.00563704
0.0241001, 1.6912, -1.22812, -1.5399, -0.900513, -1.19247, 1.22759, -1.30259, 0.00915544, -0.00690199, -0.00876522, -0.00638785, -0.0100764, -0.00520299, -0.00188661, -0.543754, 63.6325, 31.8842, 7.62848, 2.76874, 4.1846, -0.193104, 0.000332365, -0.00209459, 0.00239186, 0.00339144, 0.00184228, 0.00087355, -0.000698051, -0.00252696, -0.00945489, -0.0225046, 0.00110604, 0.00795251, 0.47101, -0.543384, 0.335896, -2.08384, -2.16585, -0.129883, 0.46882, -0.542774, 0.333649, -2.08202, -2.16256, -0.127899, 0.000492895, 0.00127568, 0.000659086, 0.00265032, 0.00352345, -0.00864472
0.0251001, 1.69121, -1.22812, -1.53992, -0.900522, -1.19247, 1.22759, -1.30259, 0.0123644, -0.00338634, -0.0135515, -0.00953513, -0.00620979, 5.90938e-05, -0.00200586, -0.658806, 62.8232, 31.4716, 7.5531, 2.59021, 4.06283, -0.172963, 0.000334846, -0.0020885, 0.00240174, 0.00341311, 0.00183773, 0.000865099, -0.00237425, -0.00543187, -0.00931273, -0.0221154, 0.00488386, 0.0127334, 0.471011, -0.543383, 0.335897, -2.08384, -2.16585, -0.129882, 0.468826, -0.542768, 0.333641, -2.082, -2.16256, -0.12787, 0.000576942, 0.00149367, 0.000771622, 0.00558071, 0.00549321, -0.00821921
0.0261001, 1.69123, -1.22813, -1.53994, -0.900528, -1.19248, 1.22759, -1.30259, 0.0155925, -0.000234503, -0.0177059, -0.00850957, -0.0108982, 0.000354007, -0.00133883, -0.809562, 62.0853, 30.9876, 7.33093, 2.48035, 4.03445, -0.172963, 0.000334667, -0.00208503, 0.00241864, 0.00345117, 0.00183713, 0.000864205, -0.00172751, -0.005653, -0.00902216, -0.0275387, 0.0124552, 0.0105258, 0.471011, -0.543381, 0.335898, -2.08384, -2.16585, -0.129881, 0.46883, -0.542764, 0.333625, -2.08198, -2.16255, -0.127826, 0.00066735, 0.00172827, 0.000892711, 0.00592557, 0.00505365, -0.00791825
0.0271001, 1.69124, -1.22815, -1.53998, -0.900543, -1.1925, 1.22758, -1.30258, 0.0151606, -0.00203877, -0.0252773, -0.00738224, -0.0090664, 0.000768662, 0.00343646, -0.845268, 61.4981, 30.6186, 7.21588, 2.35126, 4.00516, -0.160145, 0.000328819, -0.00208609, 0.00244712, 0.00350218, 0.00184394, 0.000869821, 0.000481744, -0.00403311, -0.0126445, -0.032612, 0.00992081, 0.00112737, 0.471012, -0.543379, 0.335899, -2.08384, -2.16585, -0.129879, 0.468828, -0.542764, 0.333597, -2.08195, -2.16252, -0.127775, 0.000764066, 0.00197936, 0.00102229, 0.00435272, 0.00361494, -0.0116595
0.0281001, 1.69126, -1.22816, -1.54002, -0.900557, -1.19252, 1.22758, -1.30258, 0.0188857, -0.00119567, -0.0284734, -0.00895319, -0.0155993, 0.00114929, 0.00170714, -0.920646, 60.9427, 30.206, 7.06909, 2.30823, 3.97677, -0.133595, 0.000323844, -0.00208419, 0.0024755, 0.0035629, 0.00183693, 0.000868073, 0.000562805, -0.00511748, -0.0137609, -0.0394989, 0.0169454, 0.00394015, 0.471013, -0.543377, 0.3359, -2.08384, -2.16585, -0.129878, 0.46883, -0.542762, 0.333569, -2.08192, -2.16251, -0.127699, 0.000867038, 0.00224682, 0.00116028, 0.00550124, 0.00401857, -0.0126692
0.0291001, 1.69127, -1.22819, -1.54007, -0.900574, -1.19254, 1.22758, -1.30259, 0.0170764, -0.00589902, -0.0359267, -0.0110771, -0.0212672, 0.00310032, 0.000725654, -0.920646, 60.6134, 29.7974, 6.95801, 2.28992, 3.90536, -0.114369, 0.000316426, -0.00208237, 0.00251095, 0.00362176, 0.00183889, 0.000866578, 0.00434208, -0.00294504, -0.0193007, -0.0482113, 0.01867, -0.000638443, 0.471014, -0.543375, 0.335901, -2.08384, -2.16585, -0.129876, 0.468832, -0.542761, 0.333534, -2.08188, -2.16249, -0.127634, 0.000976211, 0.00253053, 0.00130664, 0.00337592, 0.00133498, -0.018514
0.0301001, 1.69128, -1.22822, -1.54012, -0.900591, -1.19258, 1.22758, -1.30258, 0.0130802, -0.0106607, -0.0393286, -0.0117801, -0.0228557, 0.00424133, 0.00216656, -0.809562, 60.3555, 29.4245, 6.80725, 2.33295, 3.84036, -0.153737, 0.00030203, -0.00208662, 0.00254834, 0.00369324, 0.00182774, 0.000885123, 0.00780217, -0.000249792, -0.0232032, -0.0511807, 0.0161564, -0.00774199, 0.471015, -0.543372, 0.335903, -2.08383, -2.16585, -0.129874, 0.468828, -0.542767, 0.333496, -2.08187, -2.16245, -0.12754, 0.00109153, 0.00283037, 0.00146128, 0.000782323, -0.00129077, -0.0226684
0.0311001, 1.6913, -1.22824, -1.54017, -0.900617, -1.19262, 1.22759, -1.30259, 0.0113431, -0.0114977, -0.0396098, -0.0157882, -0.0306452, 0.00475509, 0.0011382, -0.734184, 60.1334, 29.0159, 6.80725, 2.30823, 3.7836, -0.140919, 0.000294831, -0.00208403, 0.0025819, 0.00376051, 0.00181287, 0.000877105, 0.0094474, 0.000779668, -0.02433, -0.0564557, 0.022488, -0.00791494, 0.471016, -0.543369, 0.335904, -2.08383, -2.16585, -0.129871, 0.468831, -0.542766, 0.333463, -2.08183, -2.16244, -0.127449, 0.00121295, 0.00314621, 0.00162416, -0.000106246, -0.00246788, -0.0238425
0.0321001, 1.69132, -1.22826, -1.54022, -0.900642, -1.19265, 1.2276, -1.30259, 0.0140756, -0.0143181, -0.0407516, -0.0168401, -0.0322017, 0.0051752, 0.000376581, -0.694511, 60.0223, 28.7183, 6.73187, 2.29541, 3.72592, -0.127186, 0.000286234, -0.00208021, 0.00261859, 0.00382921, 0.0017966, 0.000875404, 0.00912298, -0.000602355, -0.0267671, -0.0591256, 0.0216447, -0.00483424, 0.471017, -0.543366, 0.335906, -2.08383, -2.16586, -0.129869, 0.468835, -0.542765, 0.333427, -2.0818, -2.16243, -0.127354, 0.00134042, 0.00347794, 0.00179519, 0.00130183, -0.00138422, -0.0260693
0.0331001, 1.69133, -1.22827, -1.54027, -0.900656, -1.19269, 1.2276, -1.30258, 0.017537, -0.0142443, -0.0421746, -0.0170851, -0.0368074, 0.00494551, -0.000366217, -0.583427, 59.8398, 28.4565, 6.5097, 2.24689, 3.68289, -0.10796, 0.00027343, -0.00208139, 0.00264971, 0.00390065, 0.0017696, 0.000889068, 0.00905647, -0.00164236, -0.0275916, -0.0635234, 0.0258429, -0.00298341, 0.471019, -0.543362, 0.335908, -2.08383, -2.16586, -0.129866, 0.468834, -0.54277, 0.333397, -2.08179, -2.1624, -0.127243, 0.00147388, 0.00382545, 0.00197432, 0.00244177, -0.000801624, -0.0267253
0.0341001, 1.69136, -1.22827, -1.54033, -0.900679, -1.19273, 1.22761, -1.30258, 0.0208929, -0.00687616, -0.0477224, -0.0180651, -0.0394779, 0.0053595, 0.000301678, -0.508049, 59.6176, 28.274, 6.43433, 2.17914, 3.62521, -0.120778, 0.000265164, -0.00207761, 0.00267635, 0.00397287, 0.00172815, 0.000891428, 0.00869891, -0.00225657, -0.0256376, -0.0697968, 0.0363816, -0.00349203, 0.47102, -0.543358, 0.33591, -2.08382, -2.16586, -0.129863, 0.468839, -0.54277, 0.333371, -2.08177, -2.1624, -0.127118, 0.00161328, 0.0041886, 0.00216148, 0.00325231, -0.000361104, -0.0245717
0.0351001, 1.69138, -1.22829, -1.54038, -0.900703, -1.19278, 1.22762, -1.30258, 0.0226947, -0.00651675, -0.0495647, -0.0218179, -0.041931, 0.00511139, 0.00123779, -0.392998, 59.6176, 28.1232, 6.35895, 2.1178, 3.58218, -0.147328, 0.000255813, -0.00207554, 0.00270698, 0.00405212, 0.00169277, 0.000895636, 0.00799431, -0.00329536, -0.0268546, -0.0749705, 0.0393979, -0.00139966, 0.471022, -0.543354, 0.335912, -2.08382, -2.16586, -0.12986, 0.468842, -0.54277, 0.333341, -2.08175, -2.16238, -0.12699, 0.00175856, 0.00456728, 0.0023566, 0.00436586, 0.000942978, -0.0255002
0.0361001, 1.69141, -1.22828, -1.54043, -0.900735, -1.19283, 1.22763, -1.30258, 0.0212196, -0.00236031, -0.0454708, -0.0249792, -0.0441613, 0.00495981, -0.00106759, -0.281914, 59.4708, 27.9725, 6.43433, 2.06836, 3.53915, -0.0951428, 0.000252126, -0.00206768, 0.00272618, 0.00412239, 0.00163613, 0.000877734, 0.00731768, -0.00338104, -0.0234786, -0.0736578, 0.045528, 0.00302128, 0.471024, -0.543349, 0.335915, -2.08382, -2.16586, -0.129856, 0.468851, -0.542765, 0.333324, -2.08171, -2.16241, -0.126853, 0.00190969, 0.00496137, 0.00255964, 0.00470023, 0.00148898, -0.0218613
0.0371001, 1.69142, -1.22827, -1.54049, -0.900765, -1.19288, 1.22763, -1.30258, 0.0220708, -0.000459585, -0.047375, -0.0283787, -0.0495416, 0.00459786, 3.03479e-05, 0.0196001, 59.5065, 28.0875, 6.43433, 1.98871, 3.50345, -0.114369, 0.000241122, -0.00206821, 0.00275087, 0.00420663, 0.00158138, 0.000884189, 0.00760945, -0.00340523, -0.0237332, -0.079917, 0.0523848, 0.00263942, 0.471026, -0.543344, 0.335917, -2.08381, -2.16587, -0.129852, 0.468852, -0.542767, 0.333301, -2.0817, -2.16241, -0.1267, 0.0020666, 0.00537076, 0.00277051, 0.0048825, 0.00165046, -0.0219478
0.0381001, 1.69145, -1.22825, -1.54053, -0.900805, -1.19294, 1.22763, -1.30258, 0.0214866, 0.00788013, -0.0453996, -0.0312452, -0.0500846, 0.00331318, -0.000669347, 0.245735, 59.3994, 28.0875, 6.58508, 1.93927, 3.49612, -0.0951428, 0.00023882, -0.0020624, 0.0027633, 0.00429011, 0.00150596, 0.000870777, 0.0062575, -0.00344581, -0.0187652, -0.0803175, 0.0609035, 0.0055138, 0.471028, -0.543338, 0.33592, -2.08381, -2.16587, -0.129848, 0.46886, -0.542762, 0.333291, -2.08168, -2.16243, -0.126528, 0.00222924, 0.00579533, 0.00298915, 0.0052167, 0.00264679, -0.0166151
0.0391001, 1.69146, -1.22824, -1.54058, -0.900844, -1.193, 1.22763, -1.30258, 0.0156748, 0.0107476, -0.0430579, -0.0352533, -0.0502685, -0.000216211, -0.000429358, 0.701973, 59.4351, 28.1589, 6.69617, 1.88434, 3.56112, -0.0951428, 0.000229271, -0.00206554, 0.00278059, 0.00437728, 0.00144087, 0.000872214, 0.0070272, -0.000593553, -0.0169681, -0.0823737, 0.0624841, 0.00367529, 0.47103, -0.543332, 0.335923, -2.0838, -2.16587, -0.129843, 0.468859, -0.542763, 0.333275, -2.08166, -2.16244, -0.126361, 0.00239756, 0.00623496, 0.00321551, 0.00262888, 0.00193315, -0.0146476
0.0401001, 1.69147, -1.22822, -1.54062, -0.900888, -1.19306, 1.22763, -1.30258, 0.0163043, 0.0158276, -0.0440171, -0.0388891, -0.0574315, -0.00147969, -0.00125693, 1.11457, 59.3597, 28.3851, 6.84296, 1.89624, 3.59683, -0.0685925, 0.000222296, -0.00206621, 0.00279302, 0.00446866, 0.00136037, 0.000867191, 0.0071638, -0.000271645, -0.0151341, -0.089249, 0.0735024, 0.00496274, 0.471033, -0.543326, 0.335927, -2.0838, -2.16588, -0.129838, 0.46886, -0.542761, 0.333265, -2.08164, -2.16246, -0.126173, 0.00257152, 0.00668953, 0.00344951, 0.00255247, 0.0019574, -0.0126141
0.0411001, 1.6915, -1.22821, -1.54065, -0.900922, -1.19314, 1.22763, -1.30258, 0.0196402, 0.0144443, -0.0377896, -0.0380946, -0.0628286, -0.00231873, -0.00082846, 1.41608, 59.5065, 28.4565, 6.84296, 1.91546, 3.63254, -0.0685925, 0.000216387, -0.00206173, 0.00280609, 0.00454424, 0.00128761, 0.000854036, 0.00623159, -0.00213907, -0.0140478, -0.087513, 0.076099, 0.00794307, 0.471035, -0.543319, 0.33593, -2.08379, -2.16588, -0.129833, 0.468867, -0.542758, 0.333255, -2.08162, -2.16249, -0.126012, 0.00275106, 0.00715892, 0.0036911, 0.00460287, 0.00325637, -0.0112115
0.0421001, 1.6915, -1.22819, -1.54069, -0.900962, -1.19321, 1.22763, -1.30258, 0.0120978, 0.0154497, -0.0382107, -0.0385831, -0.0715661, -0.0015532, -0.000307829, 1.87232, 59.5819, 28.754, 6.88263, 1.93378, 3.63254, -0.0750012, 0.000202063, -0.00206777, 0.00281776, 0.00462674, 0.00120417, 0.000864332, 0.0117449, 0.00312073, -0.013385, -0.0904759, 0.0848004, -0.00315364, 0.471038, -0.543312, 0.335934, -2.08379, -2.16589, -0.129827, 0.468864, -0.542763, 0.333245, -2.08163, -2.1625, -0.125829, 0.00293613, 0.00764302, 0.00394021, -0.000243748, -0.00201989, -0.0110048
0.0431001, 1.69152, -1.22818, -1.54073, -0.901002, -1.19329, 1.22763, -1.30258, 0.0166146, 0.0145391, -0.0379154, -0.0380109, -0.0699748, -0.00209217, -0.00043724, 2.17384, 59.8755, 29.0555, 6.88263, 1.98871, 3.66092, -0.0685925, 0.000192713, -0.00206658, 0.00283558, 0.0047124, 0.00113095, 0.000857133, 0.0100893, 0.00076769, -0.0142025, -0.0906718, 0.0827495, 0.00119791, 0.471041, -0.543304, 0.335938, -2.08378, -2.16589, -0.129821, 0.468868, -0.542762, 0.33323, -2.0816, -2.16252, -0.125655, 0.00312667, 0.00814172, 0.00419678, 0.00220797, 0.00033541, -0.0113696
0.0441001, 1.69155, -1.22818, -1.54076, -0.901036, -1.19337, 1.22763, -1.30258, 0.0209747, 0.0108643, -0.0377552, -0.038221, -0.0738407, -0.00194147, -5.01301e-05, 2.43568, 60.173, 29.3531, 6.77154, 2.05646, 3.67557, -0.0750012, 0.000181759, -0.00206403, 0.00285167, 0.00478967, 0.00105384, 0.00085298, 0.00972203, -0.00120313, -0.0167363, -0.0935148, 0.0828397, 0.00371753, 0.471044, -0.543295, 0.335942, -2.08378, -2.16589, -0.129815, 0.468873, -0.542762, 0.333217, -2.08159, -2.16254, -0.125485, 0.00332265, 0.00865489, 0.00446074, 0.00426747, 0.0016818, -0.01361
0.0451001, 1.69157, -1.22818, -1.54079, -0.901064, -1.19346, 1.22762, -1.30257, 0.025521, 0.00504551, -0.0356049, -0.0367686, -0.0771617, -0.00234859, 0.000715568, 2.62611, 60.6134, 29.722, 6.58508, 2.14252, 3.70395, -0.0951428, 0.000167017, -0.00206569, 0.00287071, 0.00487473, 0.000979525, 0.000858802, 0.0093996, -0.0032518, -0.0196578, -0.0942736, 0.0798164, 0.00575436, 0.471048, -0.543286, 0.335947, -2.08377, -2.1659, -0.129808, 0.468875, -0.542764, 0.333201, -2.08158, -2.16255, -0.125308, 0.003524, 0.00918243, 0.00473204, 0.00639765, 0.00306113, -0.0162352
0.0461001, 1.69159, -1.22818, -1.54081, -0.90109, -1.19354, 1.22762, -1.30258, 0.0242824, -0.000403055, -0.0312146, -0.0327701, -0.0771718, -0.00397556, -0.000266687, 2.73719, 61.1292, 29.9839, 6.39465, 2.16724, 3.76895, -0.0750012, 0.000154943, -0.00206377, 0.00288778, 0.00494835, 0.00091076, 0.000852887, 0.0111307, -0.00201961, -0.0210234, -0.0904555, 0.0732967, 0.00375997, 0.471051, -0.543277, 0.335952, -2.08376, -2.1659, -0.129801, 0.46888, -0.542764, 0.333187, -2.08157, -2.16257, -0.12515, 0.00373068, 0.00972421, 0.00501061, 0.00538634, 0.00205355, -0.0175366
0.0471001, 1.69162, -1.22817, -1.54083, -0.901121, -1.19364, 1.22761, -1.30257, 0.0216169, 0.00108759, -0.0297128, -0.0312051, -0.0866935, -0.00638205, 0.000569883, 2.77686, 61.4227, 30.3211, 6.24786, 2.19104, 3.86966, -0.0951428, 0.000144878, -0.00206146, 0.00289884, 0.00503513, 0.000821185, 0.000851622, 0.014546, 0.00132755, -0.0196653, -0.0946319, 0.0814623, -0.00404737, 0.471055, -0.543267, 0.335957, -2.08375, -2.16591, -0.129793, 0.468886, -0.542762, 0.333179, -2.08156, -2.16259, -0.124956, 0.00394263, 0.0102801, 0.00529638, 0.00242689, -0.00110847, -0.0163386
0.0481001, 1.69164, -1.22816, -1.54085, -0.901142, -1.19374, 1.2276, -1.30257, 0.0206576, 0.000341604, -0.0266018, -0.028234, -0.0890855, -0.00690087, 0.000855907, 2.89191, 61.7917, 30.579, 6.02173, 2.20935, 3.94107, -0.10796, 0.000128167, -0.00206442, 0.00290795, 0.0051096, 0.000732946, 0.000861264, 0.0162953, 0.00256126, -0.0187896, -0.0922292, 0.0823305, -0.00766153, 0.471059, -0.543256, 0.335962, -2.08375, -2.16592, -0.129785, 0.468888, -0.542767, 0.333173, -2.08157, -2.16261, -0.124775, 0.00415982, 0.0108501, 0.00558931, 0.00150631, -0.00245096, -0.0154152
0.0491001, 1.69167, -1.22815, -1.54086, -0.901164, -1.19386, 1.22759, -1.30257, 0.023072, 0.00315989, -0.0244303, -0.02406, -0.0957123, -0.00670389, 0.00128363, 3.003, 62.1606, 30.8408, 5.83527, 2.23407, 3.99783, -0.127186, 0.000107607, -0.00206933, 0.00291975, 0.00519233, 0.000635912, 0.000876269, 0.0176973, 0.00275226, -0.0161025, -0.0916606, 0.0906484, -0.0110886, 0.471064, -0.543245, 0.335968, -2.08374, -2.16592, -0.129777, 0.468887, -0.542775, 0.333164, -2.08158, -2.16262, -0.124575, 0.00438218, 0.0114339, 0.00588931, 0.00168535, -0.00367256, -0.0126736
0.0501001, 1.69169, -1.22815, -1.54088, -0.901193, -1.19397, 1.22759, -1.30257, 0.0243006, 0.00510673, -0.0264821, -0.0244173, -0.0954368, -0.00714876, 0.00390475, 3.003, 62.5296, 30.9876, 5.79956, 2.24048, 4.07016, -0.0814099, 9.20475e-05, -0.00206901, 0.00293144, 0.00527311, 0.000541176, 0.000873001, 0.0178208, 0.00267423, -0.0160545, -0.094172, 0.0927697, -0.0136267, 0.471068, -0.543234, 0.335974, -2.08373, -2.16593, -0.129768, 0.468892, -0.542776, 0.333156, -2.08157, -2.16266, -0.124381, 0.00460967, 0.0120315, 0.00619634, 0.00199696, -0.00320113, -0.0123406
0.0511001, 1.69172, -1.22814, -1.54089, -0.901228, -1.19409, 1.22758, -1.30256, 0.0239781, 0.00957424, -0.0228653, -0.0278339, -0.100654, -0.00768252, 0.00350764, 3.04267, 62.8986, 31.1741, 5.91064, 2.2652, 4.14889, -0.0951428, 7.57816e-05, -0.00206958, 0.00294516, 0.00536259, 0.000442208, 0.000873415, 0.0174084, 0.00246692, -0.0128683, -0.0953638, 0.101714, -0.0111742, 0.471073, -0.543221, 0.335981, -2.08372, -2.16594, -0.129759, 0.468897, -0.542778, 0.333147, -2.08157, -2.16268, -0.124172, 0.00484224, 0.0126428, 0.00651033, 0.00253709, -0.00266462, -0.00882269
0.0521001, 1.69174, -1.22814, -1.5409, -0.901253, -1.19422, 1.22757, -1.30257, 0.0257969, 0.00698703, -0.0202419, -0.025228, -0.10953, -0.00644452, 0.00334738, 3.11805, 63.2635, 31.3605, 5.95032, 2.29541, 4.1846, -0.114369, 5.0626e-05, -0.00207547, 0.00295859, 0.00544743, 0.000334388, 0.000888043, 0.0196129, 0.00254397, -0.0133067, -0.0956643, 0.10712, -0.013688, 0.471078, -0.543208, 0.335987, -2.08371, -2.16594, -0.129749, 0.468896, -0.542788, 0.333136, -2.08158, -2.1627, -0.123957, 0.00507984, 0.0132677, 0.00683122, 0.00276097, -0.00415186, -0.0092744
0.0531001, 1.69176, -1.22813, -1.54091, -0.901288, -1.19435, 1.22757, -1.30256, 0.0261108, 0.00670906, -0.019614, -0.0265778, -0.12013, -0.00589036, 0.00734822, 3.11805, 63.5611, 31.4716, 6.13678, 2.30823, 4.22763, -0.120778, 2.98278e-05, -0.00207762, 0.00296854, 0.00553509, 0.0002163, 0.000897146, 0.0217966, 0.00330259, -0.0136271, -0.100561, 0.116347, -0.0199755, 0.471083, -0.543195, 0.335994, -2.0837, -2.16595, -0.129738, 0.468899, -0.542794, 0.33313, -2.08159, -2.16273, -0.123729, 0.00532241, 0.013906, 0.00715894, 0.00231271, -0.0056513, -0.00957879
0.0541001, 1.69178, -1.22811, -1.54092, -0.901314, -1.1945, 1.22756, -1.30256, 0.0243006, 0.00768892, -0.016379, -0.0285089, -0.12384, -0.0057921, 0.00423316, 3.19343, 63.6682, 31.5867, 6.24786, 2.33844, 4.27798, -0.0878186, 3.68312e-06, -0.00208478, 0.00297262, 0.00562308, 8.38395e-05, 0.000912587, 0.0226962, 0.00399662, -0.0123008, -0.100207, 0.120759, -0.0172185, 0.471088, -0.54318, 0.336002, -2.08369, -2.16596, -0.129728, 0.468899, -0.542805, 0.33313, -2.08162, -2.16277, -0.123485, 0.00556992, 0.0145576, 0.00749345, 0.00194746, -0.00612037, -0.00805318
0.0551001, 1.69181, -1.22812, -1.54093, -0.901338, -1.19464, 1.22755, -1.30256, 0.0259269, 0.00183445, -0.0148118, -0.0266574, -0.13569, -0.00572654, 0.00350966, 3.15376, 64.0372, 31.7335, 6.35895, 2.35126, 4.32834, -0.0951428, -2.30373e-05, -0.00209012, 0.00298914, 0.00571589, -2.73042e-05, 0.000928025, 0.025792, 0.00470757, -0.0152419, -0.104454, 0.124921, -0.0201676, 0.471094, -0.543166, 0.336009, -2.08368, -2.16597, -0.129716, 0.468899, -0.542814, 0.333117, -2.08163, -2.16278, -0.123257, 0.00582231, 0.0152225, 0.00783467, 0.00149452, -0.00808858, -0.0110748
0.0561001, 1.69184, -1.22811, -1.54094, -0.901365, -1.19479, 1.22755, -1.30256, 0.0267025, 0.00425431, -0.0119819, -0.0252675, -0.13818, -0.00486899, 0.00265199, 3.11805, 64.2593, 31.8088, 6.47003, 2.32013, 4.35672, -0.0951428, -4.86796e-05, -0.00209351, 0.00299936, 0.0058009, -0.000149758, 0.000938602, 0.0263451, 0.00452247, -0.0128316, -0.101943, 0.129989, -0.0198606, 0.4711, -0.54315, 0.336017, -2.08367, -2.16597, -0.129705, 0.468902, -0.542823, 0.333111, -2.08165, -2.16282, -0.123026, 0.00607953, 0.0159004, 0.00818254, 0.00204387, -0.00832001, -0.00843827
0.0571001, 1.69187, -1.22811, -1.54094, -0.901394, -1.19495, 1.22755, -1.30256, 0.0280574, 0.00452857, -0.00908123, -0.0289758, -0.145198, -0.00561968, 0.00200215, 3.04267, 64.4061, 31.8445, 6.65649, 2.29541, 4.4208, -0.0951428, -7.26539e-05, -0.00209399, 0.00300819, 0.00588978, -0.000282372, 0.000945992, 0.0260566, 0.00363337, -0.012536, -0.105568, 0.136307, -0.0161725, 0.471106, -0.543134, 0.336026, -2.08366, -2.16598, -0.129692, 0.468909, -0.542829, 0.333107, -2.08167, -2.16286, -0.12278, 0.00634154, 0.0165914, 0.00853701, 0.00319431, -0.00735332, -0.00777388
0.0581001, 1.69191, -1.2281, -1.54094, -0.901411, -1.19511, 1.22754, -1.30256, 0.0266466, 0.00269289, -0.00624771, -0.0241358, -0.150037, -0.00561149, -0.0004563, 2.92762, 64.6283, 31.8445, 6.65649, 2.25238, 4.47116, -0.0420422, -0.000100273, -0.00209631, 0.00301866, 0.00597573, -0.000408947, 0.000954044, 0.0293979, 0.00579942, -0.0121142, -0.10328, 0.138276, -0.0201671, 0.471113, -0.543117, 0.336034, -2.08364, -2.16599, -0.129679, 0.468913, -0.542837, 0.333101, -2.08168, -2.1629, -0.122543, 0.00660828, 0.0172953, 0.00889802, 0.00143324, -0.0101021, -0.00744914
0.0591001, 1.69194, -1.22811, -1.54096, -0.901429, -1.19527, 1.22753, -1.30256, 0.0259376, 0.00132766, -0.008672, -0.0238162, -0.154059, -0.00506348, 0.00622362, 2.92762, 64.8505, 32.031, 6.65649, 2.22858, 4.50686, -0.0878186, -0.000133608, -0.0021032, 0.00303682, 0.00607544, -0.00053501, 0.000982172, 0.0320435, 0.00731629, -0.0139001, -0.106958, 0.141105, -0.0309141, 0.471119, -0.543099, 0.336043, -2.08363, -2.166, -0.129666, 0.468914, -0.54285, 0.333088, -2.08171, -2.16291, -0.122288, 0.00687971, 0.0180119, 0.00926549, 0.000220282, -0.0117849, -0.0092094
0.0601001, 1.69198, -1.22811, -1.54096, -0.901448, -1.19543, 1.22753, -1.30256, 0.0304805, 0.00109575, -0.00589021, -0.0207058, -0.157017, -0.00524066, 0.00416487, 2.85224, 65.033, 32.031, 6.65649, 2.19104, 4.55722, -0.0750012, -0.000162822, -0.00210439, 0.00304985, 0.0061603, -0.000662922, 0.000992094, 0.0317297, 0.0056236, -0.0131323, -0.105617, 0.143412, -0.0273643, 0.471126, -0.543081, 0.336053, -2.08362, -2.16601, -0.129652, 0.46892, -0.542859, 0.33308, -2.08173, -2.16295, -0.122049, 0.00715578, 0.0187412, 0.00963939, 0.00220361, -0.0107946, -0.0080797
0.0611001, 1.69201, -1.22811, -1.54097, -0.901467, -1.1956, 1.22752, -1.30256, 0.0340315, 0.000295561, -0.0116503, -0.0215203, -0.159222, -0.00481623, 0.00266975, 2.89191, 65.1083, 32.2175, 6.65649, 2.15442, 4.59292, -0.0621838, -0.000197214, -0.00211144, 0.00306488, 0.00625929, -0.000797828, 0.00101695, 0.0324441, 0.00492451, -0.0161688, -0.112637, 0.145703, -0.0257611, 0.471134, -0.543062, 0.336063, -2.0836, -2.16602, -0.129638, 0.468921, -0.542872, 0.33307, -2.08175, -2.16297, -0.121786, 0.00743644, 0.0194831, 0.0100196, 0.00309824, -0.0102623, -0.0108296
0.0621001, 1.69205, -1.22812, -1.54097, -0.901486, -1.19577, 1.22751, -1.30255, 0.0356782, -0.00483887, -0.00893667, -0.0222763, -0.156057, -0.00375338, 0.0022931, 2.85224, 65.3662, 32.2532, 6.65649, 2.12421, 4.60757, -0.0685925, -0.000227402, -0.00211119, 0.00308624, 0.00635014, -0.000915597, 0.00102722, 0.0316805, 0.00300989, -0.0185989, -0.109232, 0.138993, -0.0212684, 0.471141, -0.543042, 0.336073, -2.08359, -2.16603, -0.129623, 0.468929, -0.542878, 0.333054, -2.08176, -2.163, -0.12155, 0.00772164, 0.0202374, 0.0104062, 0.00518018, -0.00830173, -0.012782
0.0631001, 1.69209, -1.22812, -1.54098, -0.901505, -1.19593, 1.22751, -1.30255, 0.0357468, -0.00414918, -0.00797196, -0.022048, -0.159776, -0.0030448, 0.00271901, 3.003, 65.4376, 32.3285, 6.62079, 2.12421, 4.62222, -0.0951428, -0.000263548, -0.00211833, 0.0031008, 0.00643732, -0.00104594, 0.00105323, 0.0330705, 0.0034622, -0.018033, -0.109675, 0.143533, -0.0232687, 0.471149, -0.543021, 0.336083, -2.08357, -2.16604, -0.129607, 0.468931, -0.542892, 0.333045, -2.08179, -2.16303, -0.121303, 0.00801134, 0.0210041, 0.0107989, 0.00508887, -0.00901313, -0.0120322
0.0641001, 1.69213, -1.22812, -1.54097, -0.901532, -1.1961, 1.22751, -1.30255, 0.0378417, -0.00220574, -0.00466763, -0.0244492, -0.161303, -0.00280978, 0.00220523, 3.07838, 65.4376, 32.2928, 6.69617, 2.09308, 4.64328, -0.101552, -0.000292302, -0.00211709, 0.00311432, 0.00652342, -0.00117857, 0.00105679, 0.031712, 0.00164173, -0.016419, -0.108919, 0.147448, -0.0182075, 0.471157, -0.543, 0.336094, -2.08356, -2.16606, -0.129591, 0.46894, -0.542896, 0.333038, -2.0818, -2.16308, -0.121056, 0.00830549, 0.021783, 0.0111979, 0.00721101, -0.00706659, -0.0098838
0.0651001, 1.69217, -1.22812, -1.54098, -0.901549, -1.19626, 1.2275, -1.30255, 0.0418425, -0.000214995, -0.00501614, -0.0227417, -0.162906, -0.002687, 0.000603212, 3.19343, 65.4019, 32.3682, 6.62079, 2.06836, 4.66525, -0.0750012, -0.000325406, -0.00211987, 0.00312793, 0.00661316, -0.00131163, 0.00106875, 0.0314947, 0.000350824, -0.0156152, -0.109843, 0.151356, -0.0155645, 0.471166, -0.542978, 0.336106, -2.08354, -2.16607, -0.129574, 0.468947, -0.542905, 0.333031, -2.08182, -2.16312, -0.120804, 0.00860403, 0.0225739, 0.011603, 0.00882035, -0.00613163, -0.00869028
0.0661001, 1.69221, -1.22812, -1.54098, -0.901568, -1.19643, 1.2275, -1.30255, 0.0416916, -0.00604182, -0.00344996, -0.0216532, -0.164737, -0.00179134, 0.00147279, 3.30451, 65.4019, 32.3682, 6.54541, 2.05646, 4.66525, -0.101552, -0.000357719, -0.00211907, 0.0031426, 0.00669768, -0.00144585, 0.00108349, 0.0333986, 0.000661034, -0.0185367, -0.108839, 0.147855, -0.0179541, 0.471175, -0.542955, 0.336118, -2.08352, -2.16608, -0.129557, 0.468957, -0.542912, 0.333023, -2.08184, -2.16316, -0.120555, 0.00890693, 0.0233769, 0.0120141, 0.00877614, -0.00677185, -0.0114496
0.0671001, 1.69226, -1.22812, -1.54099, -0.901596, -1.1966, 1.2275, -1.30255, 0.0439469, -0.00347406, -0.00497783, -0.0236677, -0.164997, -0.00119423, 0.000809973, 3.45527, 65.3662, 32.4793, 6.58508, 2.03174, 4.66525, -0.0951428, -0.000388056, -0.00211778, 0.00315826, 0.00679272, -0.00158284, 0.00108716, 0.0328528, -0.000490977, -0.0182037, -0.111209, 0.151838, -0.0148582, 0.471184, -0.542931, 0.33613, -2.0835, -2.16609, -0.129539, 0.468968, -0.542915, 0.333015, -2.08185, -2.1632, -0.120293, 0.00921413, 0.0241918, 0.0124312, 0.0102265, -0.005422, -0.0106539
0.0681001, 1.6923, -1.22811, -1.54098, -0.901616, -1.19677, 1.2275, -1.30255, 0.04272, 7.13643e-05, -0.00245008, -0.0213289, -0.170722, -0.000796158, 8.04624e-05, 3.60603, 65.2551, 32.4396, 6.47003, 2.01343, 4.66525, -0.0814099, -0.000420051, -0.00211671, 0.00316527, 0.00687456, -0.00173115, 0.00109344, 0.0352821, 0.00124116, -0.0150888, -0.11007, 0.16042, -0.0188636, 0.471193, -0.542906, 0.336143, -2.08349, -2.16611, -0.12952, 0.468979, -0.542921, 0.333016, -2.08187, -2.16326, -0.120033, 0.0095256, 0.0250185, 0.0128543, 0.00900907, -0.00754412, -0.00747908
0.0691001, 1.69236, -1.22811, -1.54099, -0.901634, -1.19695, 1.2275, -1.30255, 0.0473638, -0.000110711, -0.00260607, -0.0191597, -0.175172, 0.000554294, -0.000621605, 3.6457, 65.2551, 32.4793, 6.32324, 2.00061, 4.63595, -0.0621838, -0.00045157, -0.00211095, 0.00317888, 0.00696, -0.00187654, 0.00109384, 0.0358177, -0.000266895, -0.0153707, -0.111164, 0.165108, -0.0177387, 0.471203, -0.542881, 0.336156, -2.08347, -2.16612, -0.129501, 0.468995, -0.542925, 0.333011, -2.08188, -2.16333, -0.119771, 0.00984127, 0.0258569, 0.0132832, 0.0108402, -0.00712913, -0.00745705
0.0701001, 1.69241, -1.2281, -1.54098, -0.901652, -1.19712, 1.2275, -1.30254, 0.0489235, 0.00545656, -0.00177088, -0.0175583, -0.169326, 0.00114942, 0.000833922, 3.75678, 65.144, 32.4793, 6.17248, 2.00061, 4.6149, -0.0951428, -0.000484979, -0.0021092, 0.00318646, 0.00704342, -0.00202885, 0.00110823, 0.0347126, -0.00126008, -0.0119176, -0.106562, 0.166611, -0.0175367, 0.471213, -0.542854, 0.336169, -2.08345, -2.16613, -0.129481, 0.469008, -0.54293, 0.333012, -2.08191, -2.16338, -0.119503, 0.0101611, 0.0267069, 0.013718, 0.012238, -0.00567834, -0.0034712
0.0711001, 1.69247, -1.22809, -1.54098, -0.901665, -1.1973, 1.2275, -1.30254, 0.0511847, 0.00612941, -0.000277687, -0.0178641, -0.169443, 0.000495011, 6.80384e-05, 3.83216, 65.1797, 32.4396, 5.95032, 1.99512, 4.62222, -0.0814099, -0.000517598, -0.00210474, 0.00319832, 0.00712359, -0.00216914, 0.00111182, 0.034109, -0.00237226, -0.0115181, -0.106676, 0.167656, -0.0143364, 0.471223, -0.542827, 0.336183, -2.08343, -2.16615, -0.129461, 0.469023, -0.542933, 0.333009, -2.08192, -2.16344, -0.119251, 0.0104851, 0.0275683, 0.0141585, 0.0136658, -0.00423656, -0.00257619
0.0721001, 1.69253, -1.22809, -1.54099, -0.901683, -1.19747, 1.2275, -1.30254, 0.0558746, 0.00447364, 0.000585151, -0.0178864, -0.169789, 0.000872541, -0.000176462, 3.90754, 65.1797, 32.5547, 5.83527, 2.00702, 4.60757, -0.0750012, -0.000550989, -0.00209906, 0.00321373, 0.00721353, -0.00231652, 0.00111372, 0.0330228, -0.00487445, -0.0127135, -0.106993, 0.167188, -0.00984247, 0.471234, -0.542799, 0.336197, -2.08341, -2.16616, -0.12944, 0.46904, -0.542936, 0.333002, -2.08193, -2.1635, -0.118981, 0.0108131, 0.0284411, 0.0146048, 0.0164104, -0.00200439, -0.00321774
0.0731001, 1.69259, -1.22809, -1.54099, -0.901694, -1.19765, 1.2275, -1.30254, 0.0596019, 0.00559575, 0.000666, -0.0121965, -0.173622, 0.00112423, 0.00433153, 3.98292, 65.2155, 32.5547, 5.6131, 2.00702, 4.59292, -0.0685925, -0.000585838, -0.00209358, 0.00322858, 0.00729381, -0.00245681, 0.00111843, 0.0346494, -0.00494989, -0.0117205, -0.106641, 0.171818, -0.0176671, 0.471245, -0.54277, 0.336212, -2.08339, -2.16618, -0.129418, 0.469057, -0.542939, 0.332997, -2.08194, -2.16356, -0.118727, 0.0111452, 0.0293251, 0.0150567, 0.016913, -0.00287578, -0.00203969
0.0741001, 1.69265, -1.2281, -1.54098, -0.901707, -1.19782, 1.2275, -1.30254, 0.0620783, -0.000150132, 0.00241416, -0.0128964, -0.172369, 0.00125811, 0.00376072, 4.06226, 65.4019, 32.4793, 5.46234, 2.00061, 4.57919, -0.0814099, -0.000618329, -0.00208401, 0.00324648, 0.00736969, -0.00258942, 0.00111868, 0.0342198, -0.00671884, -0.0150192, -0.105983, 0.165785, -0.0134121, 0.471256, -0.542741, 0.336228, -2.08336, -2.16619, -0.129396, 0.469079, -0.542938, 0.332989, -2.08195, -2.16362, -0.118486, 0.0114812, 0.0302203, 0.0155142, 0.0188804, -0.000976208, -0.00482643
0.0751001, 1.69272, -1.22809, -1.54098, -0.901722, -1.198, 1.2275, -1.30254, 0.0601903, 0.0017545, 0.000929418, -0.0111704, -0.172543, 0.00192381, 0.00233116, 4.17335, 65.4733, 32.515, 5.35126, 2.01984, 4.54989, -0.0685925, -0.000652778, -0.00207619, 0.00326278, 0.00745174, -0.00273258, 0.00111795, 0.0367573, -0.00471493, -0.0143516, -0.105899, 0.168655, -0.0169295, 0.471268, -0.54271, 0.336243, -2.08334, -2.16621, -0.129373, 0.469099, -0.542939, 0.332983, -2.08195, -2.16368, -0.118227, 0.0118212, 0.0311266, 0.0159772, 0.0173355, -0.00276062, -0.00403659
0.0761001, 1.69279, -1.2281, -1.54098, -0.901727, -1.19817, 1.22751, -1.30254, 0.0613377, -0.000894508, 0.000736007, -0.0110605, -0.167384, 0.00311359, 0.00177816, 4.17335, 65.5844, 32.515, 5.16479, 2.02533, 4.50046, -0.0685925, -0.00068601, -0.00206342, 0.00328054, 0.007518, -0.00286338, 0.00111374, 0.0366333, -0.00578212, -0.0162559, -0.103365, 0.163051, -0.0144179, 0.47128, -0.542678, 0.33626, -2.08332, -2.16623, -0.129349, 0.469124, -0.542937, 0.332977, -2.08196, -2.16375, -0.117997, 0.012165, 0.0320437, 0.0164457, 0.0186717, -0.00138418, -0.00546151
0.0771001, 1.69286, -1.2281, -1.54098, -0.901738, -1.19833, 1.22752, -1.30254, 0.0632154, 0.00132902, 0.00141319, -0.0105522, -0.168245, 0.00394069, 0.00111612, 4.24873, 65.6598, 32.4793, 5.08942, 2.03815, 4.4501, -0.0621838, -0.000717354, -0.00205072, 0.00329767, 0.00758934, -0.00299385, 0.00110346, 0.0368375, -0.00648656, -0.0149944, -0.102702, 0.166996, -0.0131345, 0.471292, -0.542646, 0.336276, -2.08329, -2.16625, -0.129324, 0.46915, -0.542932, 0.332971, -2.08195, -2.16383, -0.117763, 0.0125127, 0.0329717, 0.0169196, 0.0197767, -0.000822526, -0.00379488
0.0781001, 1.69294, -1.22812, -1.54098, -0.901751, -1.19849, 1.22752, -1.30253, 0.0639579, -0.00364357, 0.000172378, -0.00960277, -0.164322, 0.00449209, 0.00134482, 4.36378, 65.878, 32.515, 5.12909, 2.05005, 4.39975, -0.0750012, -0.000751062, -0.00203856, 0.00332333, 0.00766144, -0.00310992, 0.00109929, 0.0377743, -0.00673041, -0.018562, -0.101962, 0.159771, -0.0134236, 0.471305, -0.542612, 0.336293, -2.08327, -2.16626, -0.129299, 0.469175, -0.542928, 0.332957, -2.08194, -2.16389, -0.11754, 0.0128642, 0.0339105, 0.0173989, 0.0202759, -0.0002502, -0.00699083
0.0791001, 1.69302, -1.22811, -1.54098, -0.901759, -1.19865, 1.22752, -1.30253, 0.0682155, 0.000507498, -0.000763997, -0.00763182, -0.162254, 0.00431716, 0.000991071, 4.3241, 65.7709, 32.5547, 5.12909, 2.08667, 4.36404, -0.0750012, -0.000778336, -0.0020208, 0.00333568, 0.00773088, -0.00324554, 0.00108299, 0.036851, -0.00826187, -0.0167582, -0.101736, 0.162809, -0.0112354, 0.471318, -0.542578, 0.336311, -2.08324, -2.16628, -0.129273, 0.469206, -0.542918, 0.332958, -2.08193, -2.16397, -0.117301, 0.0132194, 0.0348598, 0.0178835, 0.0221933, 0.00139686, -0.00462851
0.0801001, 1.6931, -1.22811, -1.54098, -0.90176, -1.19881, 1.22753, -1.30253, 0.0685022, -0.000173716, -0.00214294, -0.00508234, -0.158952, 0.00314937, 0.00147759, 4.39948, 65.8066, 32.6261, 5.08942, 2.08118, 4.35672, -0.0951428, -0.000811988, -0.0020076, 0.00335518, 0.00779922, -0.0033682, 0.00108253, 0.0380623, -0.00739592, -0.0177599, -0.101717, 0.159382, -0.0140236, 0.471331, -0.542543, 0.336329, -2.08322, -2.1663, -0.129247, 0.469233, -0.542912, 0.332951, -2.08193, -2.16404, -0.117075, 0.0135784, 0.0358197, 0.0183733, 0.0216952, 0.00127893, -0.00528903
0.0811001, 1.69318, -1.22811, -1.54099, -0.901766, -1.19896, 1.22753, -1.30253, 0.0728246, 0.00326488, -0.00232902, -0.00408009, -0.158553, 0.00315074, 0.000292244, 4.43916, 65.8066, 32.6658, 5.08942, 2.12421, 4.32834, -0.0750012, -0.000844201, -0.00199289, 0.00337248, 0.00786692, -0.00349536, 0.00107023, 0.0371041, -0.00916218, -0.0162371, -0.101996, 0.163217, -0.0102902, 0.471345, -0.542506, 0.336348, -2.08319, -2.16632, -0.12922, 0.469262, -0.542904, 0.332948, -2.08192, -2.16411, -0.116845, 0.013941, 0.03679, 0.0188684, 0.0238431, 0.00303444, -0.00319541
0.0821001, 1.69326, -1.22811, -1.54098, -0.901777, -1.19911, 1.22754, -1.30252, 0.0745215, 0.00345511, -0.000603947, -0.00676543, -0.156912, 0.0029143, 0.00121805, 4.39948, 65.7709, 32.6261, 5.24017, 2.13611, 4.30636, -0.101552, -0.000871407, -0.00197371, 0.0033891, 0.00792743, -0.00361351, 0.00105244, 0.035862, -0.0107686, -0.0163496, -0.101843, 0.162812, -0.00663737, 0.471359, -0.542469, 0.336367, -2.08316, -2.16634, -0.129192, 0.469296, -0.542891, 0.332945, -2.0819, -2.1642, -0.116632, 0.0143072, 0.0377706, 0.0193685, 0.0257649, 0.00532522, -0.00266271
0.0831001, 1.69334, -1.22811, -1.54098, -0.901779, -1.19926, 1.22754, -1.30253, 0.0752698, 0.00180067, -0.000387095, 0.000576405, -0.156525, 0.00194286, 0.000333314, 4.51453, 65.8066, 32.6261, 5.27588, 2.16724, 4.30636, -0.0878186, -0.000906539, -0.00196169, 0.00340757, 0.00799229, -0.00373317, 0.00104173, 0.0386765, -0.00908648, -0.0167102, -0.099518, 0.1604, -0.012015, 0.471373, -0.542431, 0.336386, -2.08313, -2.16636, -0.129163, 0.469323, -0.542884, 0.332941, -2.08189, -2.16427, -0.116411, 0.014677, 0.0387614, 0.0198738, 0.0245442, 0.0035231, -0.00289826
0.0841001, 1.69343, -1.22811, -1.54098, -0.901787, -1.19941, 1.22753, -1.30253, 0.0778309, 0.00144981, 0.0019898, -0.00198014, -0.156458, 0.000752708, -0.000467437, 4.55024, 65.8066, 32.6658, 5.38696, 2.20386, 4.32101, -0.0685925, -0.000937234, -0.00194559, 0.00342717, 0.00805886, -0.00384781, 0.00102361, 0.0372375, -0.0109147, -0.0170255, -0.100485, 0.160256, -0.00611717, 0.471388, -0.542392, 0.336407, -2.0831, -2.16638, -0.129134, 0.469354, -0.542871, 0.332937, -2.08186, -2.16435, -0.116193, 0.0150503, 0.0397623, 0.0203841, 0.02668, 0.00606906, -0.00253202
0.0851001, 1.69352, -1.22811, -1.54099, -0.90179, -1.19956, 1.22753, -1.30252, 0.0814922, 0.00265234, -0.0009995, -0.00207258, -0.151347, 0.000773073, 0.000688542, 4.51453, 65.878, 32.7768, 5.42664, 2.24689, 4.31369, -0.0951428, -0.000969684, -0.0019278, 0.0034521, 0.00812834, -0.00395929, 0.00101028, 0.036148, -0.0126173, -0.0179488, -0.101624, 0.158303, -0.00416801, 0.471403, -0.542351, 0.336427, -2.08308, -2.1664, -0.129103, 0.469387, -0.542858, 0.332927, -2.08184, -2.16442, -0.115974, 0.0154271, 0.0407732, 0.0208993, 0.0286842, 0.00836835, -0.00281162
0.0861001, 1.69361, -1.22811, -1.54099, -0.901795, -1.19971, 1.22753, -1.30252, 0.0842325, 0.000409352, -0.00222525, -0.00384853, -0.148694, 0.000244114, 0.000200378, 4.47486, 65.9534, 32.8522, 5.53772, 2.31372, 4.32101, -0.0878186, -0.00100211, -0.00191043, 0.00347616, 0.00819787, -0.00407132, 0.00099417, 0.0353603, -0.0141726, -0.0205086, -0.103795, 0.154666, 7.94182e-05, 0.471419, -0.54231, 0.336448, -2.08304, -2.16642, -0.129072, 0.46942, -0.542845, 0.332919, -2.08181, -2.1645, -0.115754, 0.0158074, 0.041794, 0.0214195, 0.0304958, 0.0106249, -0.00474449
0.0871001, 1.69369, -1.22812, -1.541, -0.901799, -1.19985, 1.22753, -1.30252, 0.0849625, -0.000259042, -0.00216548, -0.00339497, -0.145315, 0.00043401, 0.000143048, 4.47486, 65.9891, 32.8879, 5.57739, 2.34485, 4.31369, -0.0878186, -0.00103644, -0.00189514, 0.00349992, 0.008264, -0.0041796, 0.000979551, 0.0356541, -0.0145099, -0.0212155, -0.102385, 0.152013, 0.000773573, 0.471435, -0.542268, 0.33647, -2.08301, -2.16645, -0.129041, 0.469452, -0.542832, 0.332911, -2.08178, -2.16457, -0.115541, 0.016191, 0.0428246, 0.0219445, 0.0312013, 0.0114882, -0.00497327
0.0881001, 1.69379, -1.22813, -1.541, -0.901808, -1.2, 1.22753, -1.30251, 0.0900697, -0.00254369, -0.00309196, -0.00478771, -0.143767, 0.000560608, 0.000848448, 4.39948, 66.1002, 32.9633, 5.68848, 2.39978, 4.30636, -0.10796, -0.00106966, -0.00187514, 0.0035281, 0.00833245, -0.00428957, 0.000961807, 0.034178, -0.0173512, -0.0237128, -0.104426, 0.149611, 0.00559259, 0.471451, -0.542224, 0.336492, -2.08298, -2.16647, -0.129008, 0.469488, -0.542817, 0.3329, -2.08175, -2.16465, -0.115323, 0.016578, 0.0438649, 0.0224743, 0.0342809, 0.0144879, -0.00676766
0.0891001, 1.69388, -1.22813, -1.54101, -0.90181, -1.20015, 1.22753, -1.30251, 0.092521, -0.00412366, -0.00373835, -0.00313627, -0.142001, -0.000168796, 0.00104567, 4.39948, 66.2112, 33.0387, 5.68848, 2.44281, 4.32101, -0.120778, -0.00110655, -0.00185975, 0.00355574, 0.00839813, -0.00439341, 0.00094989, 0.034537, -0.0179209, -0.0252148, -0.104967, 0.14693, 0.00580729, 0.471468, -0.54218, 0.336515, -2.08295, -2.16649, -0.128975, 0.469521, -0.542804, 0.332889, -2.08173, -2.16472, -0.115112, 0.0169683, 0.0449148, 0.0230089, 0.0351983, 0.015438, -0.00778935
0.0901001, 1.69397, -1.22813, -1.54101, -0.90181, -1.2003, 1.22753, -1.30251, 0.089849, -0.00262116, -0.00409802, -0.00422436, -0.145289, 0.000158736, 0.00504877, 4.3241, 66.2112, 33.1101, 5.6488, 2.48584, 4.31369, -0.10796, -0.00114201, -0.00184187, 0.00357683, 0.00845952, -0.00450973, 0.00093448, 0.0371335, -0.0158407, -0.0248136, -0.106929, 0.152055, -0.00206361, 0.471485, -0.542135, 0.336538, -2.08291, -2.16652, -0.128941, 0.469556, -0.54279, 0.332886, -2.0817, -2.1648, -0.114894, 0.0173618, 0.0459742, 0.0235482, 0.0336242, 0.0137858, -0.00719238
0.0911001, 1.69406, -1.22814, -1.54101, -0.901814, -1.20044, 1.22753, -1.3025, 0.0900499, -0.00341472, -0.00268353, -0.00397162, -0.147075, -0.000165443, 0.0092893, 4.2884, 66.2866, 33.1101, 5.68848, 2.52338, 4.32101, -0.133595, -0.00117962, -0.00182665, 0.00360126, 0.00851853, -0.00461559, 0.00092219, 0.0383415, -0.0154771, -0.0251641, -0.107211, 0.153212, -0.00712033, 0.471503, -0.542088, 0.336562, -2.08288, -2.16654, -0.128906, 0.469589, -0.542776, 0.332879, -2.08168, -2.16487, -0.114687, 0.0177586, 0.047043, 0.0240921, 0.0336894, 0.0137008, -0.00717055
0.0921001, 1.69415, -1.22814, -1.54102, -0.901822, -1.20059, 1.22753, -1.3025, 0.0892033, -0.00387495, -0.00435111, -0.0045815, -0.149232, -0.000110295, 0.00663991, 4.2884, 66.358, 33.2212, 5.76385, 2.56549, 4.32101, -0.127186, -0.00122025, -0.00181278, 0.00363086, 0.00858848, -0.00472513, 0.000911461, 0.0404901, -0.0141898, -0.0264427, -0.110273, 0.155411, -0.00717444, 0.471521, -0.542041, 0.336586, -2.08285, -2.16657, -0.128871, 0.469622, -0.542763, 0.332868, -2.08165, -2.16494, -0.114464, 0.0181585, 0.048121, 0.0246406, 0.0328356, 0.0128004, -0.00817782
0.0931001, 1.69424, -1.22814, -1.54103, -0.901829, -1.20074, 1.22753, -1.30249, 0.0947188, -0.00252932, -0.00639994, -0.00713042, -0.150129, -0.000344798, 0.00592326, 4.17335, 66.358, 33.3719, 5.79956, 2.59021, 4.32834, -0.153737, -0.00125714, -0.00179473, 0.00365745, 0.00866029, -0.00484031, 0.000897509, 0.0388829, -0.0168941, -0.0274229, -0.115062, 0.158668, -0.000985572, 0.471539, -0.541992, 0.336611, -2.08281, -2.16659, -0.128834, 0.469658, -0.542746, 0.33286, -2.08162, -2.16502, -0.114233, 0.0185616, 0.0492083, 0.0251936, 0.035845, 0.0157379, -0.0084267
0.0941001, 1.69434, -1.22815, -1.54102, -0.901838, -1.20088, 1.22753, -1.30249, 0.095317, -0.00424419, -0.00341096, -0.00994997, -0.145916, -0.000501132, 0.00287576, 4.06226, 66.4691, 33.3362, 5.87494, 2.60303, 4.33566, -0.114369, -0.00129182, -0.00177372, 0.00368523, 0.00871928, -0.00494166, 0.000867579, 0.0376218, -0.0184335, -0.0282111, -0.112643, 0.154248, 0.00709005, 0.471558, -0.541942, 0.336637, -2.08277, -2.16662, -0.128797, 0.469698, -0.542726, 0.332852, -2.08157, -2.16511, -0.114031, 0.0189677, 0.0503046, 0.0257511, 0.0377136, 0.0182649, -0.00849949
0.0951001, 1.69443, -1.22815, -1.54103, -0.901836, -1.20103, 1.22753, -1.30248, 0.094699, -0.00363432, -0.00067579, -0.00862096, -0.146952, -0.000842715, 0.00751888, 3.98292, 66.5048, 33.4076, 5.79956, 2.60852, 4.34939, -0.133595, -0.00133408, -0.00175972, 0.00370947, 0.00877857, -0.00505227, 0.000866044, 0.0389967, -0.0176454, -0.0270917, -0.11069, 0.155994, 0.000700147, 0.471577, -0.541891, 0.336663, -2.08274, -2.16665, -0.128759, 0.469732, -0.542712, 0.332848, -2.08156, -2.16518, -0.113815, 0.0193769, 0.05141, 0.0263131, 0.0374278, 0.0178082, -0.00702098
0.0961001, 1.69453, -1.22814, -1.54103, -0.901845, -1.20117, 1.22753, -1.30248, 0.0951973, -0.00072967, -0.00109593, -0.012109, -0.148487, -0.000833077, 0.00588381, 3.87183, 66.4334, 33.4473, 5.91064, 2.62134, 4.35672, -0.140919, -0.00137281, -0.00174262, 0.0037318, 0.00884053, -0.00516936, 0.000847013, 0.0390364, -0.017965, -0.0264321, -0.113692, 0.161265, 0.00418634, 0.471597, -0.541839, 0.33669, -2.0827, -2.16667, -0.128721, 0.469769, -0.542695, 0.332846, -2.08152, -2.16527, -0.11359, 0.0197891, 0.0525242, 0.0268794, 0.0381852, 0.0187956, -0.00581927
0.0971001, 1.69462, -1.22814, -1.54103, -0.901855, -1.20133, 1.22753, -1.30248, 0.0936195, 0.000458652, -0.0021891, -0.0105903, -0.149188, -0.00133528, 0.00770967, 3.83216, 66.3937, 33.5187, 5.98602, 2.62775, 4.37778, -0.101552, -0.00141593, -0.00172917, 0.00375593, 0.00890955, -0.0052919, 0.00083121, 0.0415698, -0.0159079, -0.0262703, -0.114804, 0.163429, -0.00224442, 0.471617, -0.541786, 0.336717, -2.08266, -2.1667, -0.128681, 0.469803, -0.54268, 0.332842, -2.08149, -2.16536, -0.113352, 0.0202043, 0.0536472, 0.02745, 0.0366453, 0.0173066, -0.0054178
0.0981001, 1.69472, -1.22814, -1.54103, -0.901864, -1.20148, 1.22752, -1.30247, 0.0942506, 0.00171832, -0.00130043, -0.00938925, -0.144704, -0.00275515, 0.0068263, 3.72108, 66.4691, 33.5187, 6.0614, 2.62775, 4.42813, -0.127186, -0.00145709, -0.00171321, 0.00378276, 0.00897354, -0.00540142, 0.000819413, 0.041499, -0.015925, -0.0256183, -0.113057, 0.160931, -0.000839758, 0.471637, -0.541732, 0.336744, -2.08262, -2.16673, -0.128641, 0.46984, -0.542662, 0.332836, -2.08146, -2.16544, -0.11313, 0.0206224, 0.0547789, 0.0280249, 0.0371025, 0.018409, -0.00418861
0.0991001, 1.69481, -1.22814, -1.54103, -0.901872, -1.20163, 1.22751, -1.30246, 0.091628, 0.00141874, -0.00251096, -0.0106488, -0.151404, -0.00315919, 0.0056123, 3.60603, 66.4691, 33.5941, 6.09711, 2.63324, 4.46383, -0.140919, -0.00150199, -0.00170109, 0.0038071, 0.0090437, -0.00552239, 0.000815524, 0.0450504, -0.0132442, -0.0266889, -0.118268, 0.166799, -0.00486597, 0.471658, -0.541677, 0.336773, -2.08258, -2.16676, -0.128599, 0.469874, -0.542647, 0.332833, -2.08144, -2.16551, -0.112889, 0.0210433, 0.0559192, 0.028604, 0.0349377, 0.0160951, -0.0051337
0.1001, 1.69481, -1.22814, -1.54103, -0.901872, -1.20163, 1.22751, -1.30246, 0.091628, 0.00141874, -0.00251096, -0.0106488, -0.151404, -0.00315919, 0.0056123, 3.60603, 66.4691, 33.5941, 6.09711, 2.63324, 4.46383, -0.140919, -0.00156135, -0.00172374, 0.00382782, 0.0090149, -0.00550922, 0.000846711, 0.0462594, -0.0127901, -0.0271044, -0.118741, 0.167577, -0.00581616, 0.471679, -0.54162, 0.336802, -2.08254, -2.16679, -0.128557, 0.469874, -0.542647, 0.332833, -2.08144, -2.16551, -0.112889, 0.0214671, 0.057068, 0.0291872, 0.0349377, 0.0160951, -0.0051337
0.1011, 1.69481, -1.22814, -1.54103, -0.901872, -1.20163, 1.22751, -1.30246, 0.091628, 0.00141874, -0.00251096, -0.0106488, -0.151404, -0.00315919, 0.0056123, 3.60603, 66.4691, 33.5941, 6.09711, 2.63324, 4.46383, -0.140919, -0.00162192, -0.00174684, 0.00384896, 0.00898552, -0.00549579, 0.000878516, 0.0474771, -0.012333, -0.0275228, -0.119217, 0.16836, -0.00677252, 0.471701, -0.541563, 0.336831, -2.08249, -2.16682, -0.128514, 0.469874, -0.542647, 0.332833, -2.08144, -2.16551, -0.112889, 0.0218936, 0.0582252, 0.0297746, 0.0349377, 0.0160951, -0.0051337
0.1021, 1.69481, -1.22814, -1.54103, -0.901872, -1.20163, 1.22751, -1.30246, 0.091628, 0.00141874, -0.00251096, -0.0106488, -0.151404, -0.00315919, 0.0056123, 3.60603, 66.4691, 33.5941, 6.09711, 2.63324, 4.46383, -0.140919, -0.00168371, -0.0017704, 0.00387052, 0.00895556, -0.00548211, 0.000910943, 0.0487035, -0.0118728, -0.0279442, -0.119696, 0.169148, -0.00773497, 0.471723, -0.541504, 0.336861, -2.08245, -2.16685, -0.128471, 0.469874, -0.542647, 0.332833, -2.08144, -2.16551, -0.112889, 0.0223229, 0.0593907, 0.030366, 0.0349377, 0.0160951, -0.0051337
0.1031, 1.69481, -1.22814, -1.54103, -0.901872, -1.20163, 1.22751, -1.30246, 0.091628, 0.00141874, -0.00251096, -0.0106488, -0.151404, -0.00315919, 0.0056123, 3.60603, 66.4691, 33.5941, 6.09711, 2.63324, 4.46383, -0.140919, -0.00174673, -0.00179442, 0.00389251, 0.008925, -0.00546817, 0.000943998, 0.0499385, -0.0114096, -0.0283684, -0.120177, 0.169941, -0.00870339, 0.471746, -0.541444, 0.336892, -2.08241, -2.16688, -0.128426, 0.469874, -0.542647, 0.332833, -2.08144, -2.16551, -0.112889, 0.022755, 0.0605644, 0.0309614, 0.0349377, 0.0160951, -0.0051337
0.1041, 1.69525, -1.22812, -1.54105, -0.901946, -1.20243, 1.22748, -1.3024, 0.087728, -0.000237178, -0.00370714, -0.0146154, -0.15734, -0.00364654, 0.00965761, 2.96729, 66.8381, 33.9313, 6.58508, 2.70099, 4.63595, -0.127186, -0.00174826, -0.00165326, 0.00394703, 0.00940722, -0.00612335, 0.000808029, 0.0532526, -0.00870069, -0.030541, -0.126249, 0.174068, -0.0166085, 0.471769, -0.541383, 0.336923, -2.08236, -2.16691, -0.128381, 0.470036, -0.542573, 0.332806, -2.08133, -2.16587, -0.111658, 0.0231896, 0.0617462, 0.0315607, 0.0327097, 0.014224, -0.00710841
0.1051, 1.69533, -1.22812, -1.54105, -0.901965, -1.20259, 1.22747, -1.30238, 0.0824347, 0.000866535, -0.00504866, -0.0153042, -0.160603, -0.0081582, 0.0134592, 2.89191, 66.9492, 34.0424, 6.65649, 2.7074, 4.66525, -0.166554, -0.00180276, -0.00164678, 0.00397722, 0.00948084, -0.00624547, 0.000817138, 0.0570037, -0.00395835, -0.0309938, -0.132752, 0.1764, -0.0277914, 0.471792, -0.54132, 0.336955, -2.08231, -2.16694, -0.128334, 0.470066, -0.542559, 0.3328, -2.08131, -2.16593, -0.111405, 0.0236269, 0.0629361, 0.0321639, 0.0285337, 0.0115797, -0.00738531
0.1061, 1.69542, -1.22812, -1.54105, -0.901978, -1.20274, 1.22746, -1.30237, 0.0862991, 0.00258797, -0.00334986, -0.0141344, -0.157297, -0.00660554, 0.0173171, 2.73719, 67.0206, 34.0424, 6.65649, 2.68268, 4.68631, -0.101552, -0.00185665, -0.00164017, 0.00400409, 0.00954729, -0.00636307, 0.000814379, 0.0558881, -0.00632232, -0.0297175, -0.128731, 0.176926, -0.0279601, 0.471816, -0.541257, 0.336987, -2.08227, -2.16698, -0.128287, 0.470098, -0.542545, 0.332797, -2.08129, -2.16601, -0.111165, 0.0240668, 0.0641338, 0.032771, 0.0313415, 0.0137826, -0.00541811
0.1071, 1.69551, -1.22811, -1.54105, -0.901998, -1.2029, 1.22745, -1.30236, 0.0839233, 0.00376005, -0.00305652, -0.0142732, -0.155426, -0.0101954, 0.0180942, 2.55073, 67.0959, 34.0781, 6.69617, 2.66986, 4.70828, -0.10796, -0.00190851, -0.00163228, 0.00403303, 0.00962406, -0.00648137, 0.000816224, 0.0572574, -0.00412602, -0.0295649, -0.130806, 0.175516, -0.031234, 0.47184, -0.541192, 0.337021, -2.08222, -2.16701, -0.128239, 0.470131, -0.542527, 0.332793, -2.08126, -2.16608, -0.110912, 0.0245092, 0.0653394, 0.0333819, 0.029648, 0.0135197, -0.0047996
0.1081, 1.69559, -1.2281, -1.54105, -0.902029, -1.20306, 1.22744, -1.30234, 0.0857585, 0.00631193, -0.00295675, -0.0178691, -0.153455, -0.0168866, 0.0192419, 2.47535, 67.0959, 34.1178, 6.88263, 2.65155, 4.70828, -0.127186, -0.00196039, -0.00162513, 0.00406082, 0.00970345, -0.00660636, 0.000813137, 0.0553132, -0.00444716, -0.0296354, -0.137847, 0.174349, -0.0277981, 0.471865, -0.541126, 0.337054, -2.08217, -2.16705, -0.12819, 0.470163, -0.542508, 0.332791, -2.08123, -2.16615, -0.110648, 0.0249541, 0.0665526, 0.0339965, 0.0303401, 0.0166765, -0.00396321
0.1091, 1.69568, -1.22809, -1.54105, -0.902056, -1.20321, 1.22742, -1.30232, 0.0860162, 0.00735428, -0.00103643, -0.017757, -0.15631, -0.0178309, 0.0227247, 2.32459, 67.1317, 34.0781, 6.95801, 2.63965, 4.72201, -0.0951428, -0.00200916, -0.00161524, 0.00408746, 0.00977632, -0.00672051, 0.000800634, 0.0564874, -0.00391196, -0.0288502, -0.13868, 0.177982, -0.0321963, 0.47189, -0.541059, 0.337088, -2.08212, -2.16708, -0.12814, 0.470199, -0.542484, 0.332792, -2.08119, -2.16624, -0.110403, 0.0254015, 0.0677736, 0.0346148, 0.0303269, 0.0165947, -0.00273389
0.1101, 1.69577, -1.22808, -1.54105, -0.902074, -1.20337, 1.2274, -1.30231, 0.0851946, 0.0102406, -0.000130072, -0.0163778, -0.154961, -0.0182641, 0.0219093, 2.20954, 67.207, 34.1892, 6.84296, 2.63324, 4.72934, -0.0951428, -0.00206587, -0.00161214, 0.00411687, 0.00985402, -0.00683478, 0.000806694, 0.0577857, -0.00283815, -0.027074, -0.137102, 0.180152, -0.0335984, 0.471916, -0.54099, 0.337123, -2.08207, -2.16712, -0.128089, 0.470229, -0.542467, 0.332789, -2.08116, -2.1663, -0.110149, 0.0258513, 0.069002, 0.0352367, 0.0298199, 0.0162231, -0.000524739
0.1111, 1.69586, -1.22807, -1.54106, -0.902112, -1.20351, 1.22738, -1.30229, 0.0846226, 0.00774061, -0.00251134, -0.0218915, -0.15366, -0.0181677, 0.0169703, 2.09846, 67.3538, 34.3043, 6.99371, 2.62134, 4.72934, -0.10796, -0.00211568, -0.00160262, 0.00414972, 0.00993915, -0.00694797, 0.00079177, 0.0581813, -0.00305313, -0.0305555, -0.141731, 0.178094, -0.0260421, 0.471942, -0.540921, 0.337159, -2.08202, -2.16715, -0.128038, 0.470265, -0.542442, 0.332784, -2.08111, -2.16638, -0.10989, 0.0263034, 0.0702379, 0.0358623, 0.0303728, 0.0176109, -0.0034043
0.1121, 1.69595, -1.22806, -1.54105, -0.902145, -1.20367, 1.22736, -1.30227, 0.0874202, 0.0067308, 0.00169122, -0.0222698, -0.153105, -0.0182356, 0.0178986, 1.98341, 67.4649, 34.3043, 6.99371, 2.62134, 4.72934, -0.120778, -0.002166, -0.00159272, 0.00417619, 0.0100136, -0.00706677, 0.00078032, 0.057237, -0.005034, -0.0303118, -0.139024, 0.17731, -0.0226826, 0.471968, -0.54085, 0.337195, -2.08197, -2.16719, -0.127985, 0.470302, -0.542416, 0.332786, -2.08106, -2.16647, -0.109636, 0.0267579, 0.0714811, 0.0364913, 0.0327806, 0.0198328, -0.00244967
0.1131, 1.69603, -1.22804, -1.54105, -0.90218, -1.20382, 1.22734, -1.30226, 0.085749, 0.00710164, 0.00312409, -0.0287111, -0.152019, -0.0180059, 0.0159299, 2.02308, 67.5363, 34.3757, 6.99371, 2.60852, 4.72201, -0.0621838, -0.00222059, -0.00158844, 0.00420187, 0.0100904, -0.00718694, 0.000767144, 0.0568625, -0.00545706, -0.0308162, -0.14031, 0.178173, -0.0166981, 0.471995, -0.540778, 0.337232, -2.08192, -2.16723, -0.127932, 0.470335, -0.542394, 0.332789, -2.08102, -2.16656, -0.109377, 0.0272147, 0.0727316, 0.0371239, 0.0336282, 0.021548, -0.00226987
0.1141, 1.69612, -1.22803, -1.54105, -0.902224, -1.20397, 1.22731, -1.30224, 0.0876111, 0.0100372, 0.00229323, -0.0325446, -0.152173, -0.0222335, 0.017844, 1.9477, 67.7585, 34.5264, 7.06909, 2.61493, 4.70096, -0.0878186, -0.00227051, -0.00157766, 0.00423675, 0.0101813, -0.00730073, 0.000749526, 0.0557157, -0.00587049, -0.0308191, -0.147101, 0.180468, -0.0149783, 0.472023, -0.540705, 0.337269, -2.08186, -2.16726, -0.127878, 0.470373, -0.542364, 0.332784, -2.08095, -2.16665, -0.109108, 0.0276737, 0.0739892, 0.0377598, 0.0344584, 0.0239555, -0.00147165
0.1151, 1.69622, -1.228, -1.54105, -0.902259, -1.20413, 1.22729, -1.30223, 0.0922233, 0.0191296, -0.00120582, -0.0340807, -0.15252, -0.0205884, 0.0183778, 1.87232, 67.8339, 34.6732, 6.95801, 2.63324, 4.67898, -0.0951428, -0.00232109, -0.00156789, 0.00425975, 0.0102653, -0.00743132, 0.000729672, 0.0546675, -0.0077812, -0.0274526, -0.150024, 0.192018, -0.0126315, 0.472051, -0.54063, 0.337307, -2.08181, -2.1673, -0.127822, 0.470412, -0.542336, 0.332791, -2.0809, -2.16675, -0.108829, 0.028135, 0.0752539, 0.0383992, 0.0369159, 0.0258203, 0.00259496
0.1161, 1.6963, -1.22798, -1.54105, -0.902303, -1.20429, 1.22726, -1.30221, 0.0903611, 0.0179153, -0.00204284, -0.0350387, -0.153805, -0.01972, 0.0140146, 2.02308, 67.9807, 34.7486, 6.95801, 2.68268, 4.66525, -0.101552, -0.00237694, -0.00156504, 0.00428442, 0.0103566, -0.00756496, 0.000721105, 0.0571764, -0.00633975, -0.0288725, -0.151388, 0.193206, -0.0111041, 0.472079, -0.540554, 0.337346, -2.08175, -2.16734, -0.127766, 0.470444, -0.542311, 0.332797, -2.08085, -2.16683, -0.108537, 0.0285984, 0.0765256, 0.0390419, 0.0359815, 0.0247709, 0.00149338
0.1171, 1.6964, -1.22796, -1.54104, -0.902354, -1.20445, 1.22723, -1.3022, 0.0906125, 0.0174442, -0.000288298, -0.0418655, -0.150379, -0.0280089, 0.00950371, 1.98341, 68.2385, 34.8597, 6.95801, 2.73761, 4.63595, -0.0750012, -0.00242462, -0.00155044, 0.00431554, 0.0104481, -0.00768882, 0.000686589, 0.0545291, -0.00668898, -0.0306676, -0.159269, 0.187192, 0.000545393, 0.472108, -0.540477, 0.337386, -2.0817, -2.16738, -0.127709, 0.470488, -0.542276, 0.332798, -2.08077, -2.16695, -0.108256, 0.0290639, 0.0778042, 0.0396878, 0.0366307, 0.0289526, 0.000765656
0.1181, 1.6965, -1.22794, -1.54103, -0.902399, -1.20461, 1.2272, -1.30218, 0.0879133, 0.0204753, 0.000908472, -0.0413217, -0.152452, -0.0344182, 0.0120063, 2.05878, 68.4964, 34.9708, 6.84296, 2.79346, 4.6149, -0.0750012, -0.00247755, -0.00154279, 0.00434279, 0.0105397, -0.00781607, 0.000665177, 0.0564594, -0.00329105, -0.0292504, -0.164318, 0.189399, -0.00638624, 0.472137, -0.540398, 0.337426, -2.08164, -2.16742, -0.127651, 0.470526, -0.542245, 0.332803, -2.08071, -2.16704, -0.10797, 0.0295316, 0.0790895, 0.040337, 0.0338319, 0.0279695, 0.00262324
0.1191, 1.69659, -1.22791, -1.54103, -0.902455, -1.20477, 1.22716, -1.30216, 0.0845867, 0.023538, 0.00315447, -0.0452559, -0.157856, -0.035229, 0.00979475, 2.20954, 68.6035, 35.1572, 6.77154, 2.83008, 4.60757, -0.0951428, -0.00252949, -0.001536, 0.00436494, 0.0106377, -0.00795756, 0.000641795, 0.0583671, -0.00137902, -0.0275349, -0.167155, 0.197436, -0.00588043, 0.472167, -0.540319, 0.337466, -2.08158, -2.16746, -0.127592, 0.470564, -0.542213, 0.332813, -2.08064, -2.16715, -0.107661, 0.0300013, 0.0803815, 0.0409894, 0.0325297, 0.0270331, 0.00473565
0.1201, 1.69668, -1.22788, -1.54103, -0.902512, -1.20494, 1.22713, -1.30215, 0.0872355, 0.0229506, 0.00590913, -0.0512044, -0.162155, -0.0312526, 0.0161539, 2.28492, 68.8257, 35.308, 6.69617, 2.87311, 4.60757, -0.0750012, -0.00258052, -0.00152711, 0.00439271, 0.0107384, -0.00808911, 0.000610638, 0.0575369, -0.00443391, -0.0279668, -0.167003, 0.203721, -0.00555065, 0.472197, -0.540238, 0.337508, -2.08152, -2.1675, -0.127533, 0.470604, -0.542178, 0.332819, -2.08056, -2.16726, -0.107359, 0.030473, 0.0816802, 0.0416449, 0.036006, 0.0293479, 0.00499768
0.1211, 1.69677, -1.22784, -1.54102, -0.902574, -1.2051, 1.22709, -1.30213, 0.0904105, 0.0283945, 0.00600293, -0.0558386, -0.169365, -0.0326256, 0.0168675, 2.43568, 68.9368, 35.4191, 6.62079, 2.90973, 4.60025, -0.0750012, -0.00263182, -0.00151962, 0.0044155, 0.0108387, -0.00822979, 0.000578977, 0.056889, -0.0055921, -0.0260879, -0.174143, 0.215803, -0.00263262, 0.472228, -0.540155, 0.33755, -2.08146, -2.16755, -0.127472, 0.470643, -0.542143, 0.33283, -2.08049, -2.16738, -0.107048, 0.0309467, 0.0829853, 0.0423035, 0.0376842, 0.0310543, 0.00757615
0.1221, 1.69687, -1.22781, -1.54101, -0.902648, -1.20526, 1.22705, -1.30212, 0.090866, 0.0322467, 0.00757764, -0.0579445, -0.170783, -0.0339366, 0.0181615, 2.55073, 69.0479, 35.4548, 6.62079, 2.95276, 4.60025, -0.0951428, -0.00267723, -0.00150634, 0.00443666, 0.0109395, -0.00837375, 0.000531604, 0.0569036, -0.00561056, -0.0241478, -0.175782, 0.221157, -0.00252544, 0.472259, -0.540072, 0.337592, -2.0814, -2.16759, -0.12741, 0.470688, -0.5421, 0.332845, -2.0804, -2.16751, -0.106733, 0.0314223, 0.0842969, 0.0429652, 0.0382536, 0.032055, 0.0101515
0.1231, 1.69697, -1.22776, -1.54101, -0.902714, -1.20543, 1.22701, -1.3021, 0.094069, 0.035148, 0.00556539, -0.0568091, -0.167328, -0.0344188, 0.0133056, 2.66181, 69.1589, 35.7523, 6.5097, 3.0022, 4.58652, -0.0878186, -0.00272946, -0.00149836, 0.00446122, 0.011053, -0.00852317, 0.000499525, 0.0566174, -0.00652786, -0.0236751, -0.176585, 0.221985, 0.00354457, 0.472291, -0.539987, 0.337635, -2.08134, -2.16763, -0.127348, 0.470729, -0.542063, 0.332856, -2.08031, -2.16763, -0.106396, 0.0318998, 0.0856148, 0.0436298, 0.0396559, 0.0336223, 0.0112989
0.1241, 1.69706, -1.22772, -1.541, -0.902781, -1.2056, 1.22697, -1.30208, 0.0969929, 0.0355336, 0.00470207, -0.0583104, -0.16416, -0.0394977, 0.0146841, 2.73719, 69.3414, 35.9031, 6.35895, 3.03882, 4.57919, -0.0878186, -0.00278152, -0.00149001, 0.00448369, 0.0111596, -0.00867116, 0.000462573, 0.0552557, -0.00724947, -0.025029, -0.1819, 0.218466, 0.00589691, 0.472323, -0.5399, 0.337679, -2.08127, -2.16768, -0.127284, 0.47077, -0.542025, 0.332869, -2.08023, -2.16776, -0.106068, 0.0323792, 0.0869389, 0.0442973, 0.0407549, 0.0365289, 0.0108178
0.1251, 1.69715, -1.22768, -1.54099, -0.902863, -1.20576, 1.22693, -1.30207, 0.0916779, 0.039716, 0.00889032, -0.0629165, -0.162822, -0.0385248, 0.0140987, 2.89191, 69.4882, 35.9784, 6.35895, 3.09375, 4.56454, -0.0420422, -0.00283142, -0.00148114, 0.00450534, 0.0112628, -0.00881635, 0.000410288, 0.0562314, -0.00576655, -0.0218337, -0.178276, 0.222866, 0.00653517, 0.472355, -0.539813, 0.337724, -2.08121, -2.16772, -0.127219, 0.470813, -0.541983, 0.332885, -2.08013, -2.1679, -0.105747, 0.0328604, 0.0882692, 0.0449678, 0.0399147, 0.0363428, 0.0145405
0.1261, 1.69724, -1.22763, -1.54099, -0.902937, -1.20593, 1.22689, -1.30206, 0.0876561, 0.0446098, 0.0100162, -0.0636988, -0.166241, -0.0371373, 0.0109496, 3.04267, 69.5636, 36.1649, 6.24786, 3.15509, 4.52884, -0.0484509, -0.00288564, -0.00147478, 0.00452595, 0.0113692, -0.00897017, 0.000376478, 0.0593256, -0.00313728, -0.0187927, -0.177531, 0.231963, 0.00458884, 0.472389, -0.539724, 0.337769, -2.08114, -2.16777, -0.127154, 0.470853, -0.541944, 0.332901, -2.08005, -2.16802, -0.105411, 0.0333434, 0.0896055, 0.045641, 0.0380063, 0.0340453, 0.0178229
0.1271, 1.69733, -1.22758, -1.54097, -0.903027, -1.2061, 1.22685, -1.30204, 0.089052, 0.0491701, 0.00987558, -0.0710095, -0.168562, -0.0366109, 0.0144138, 3.15376, 69.5993, 36.2363, 6.28357, 3.22925, 4.50686, -0.0878186, -0.00293641, -0.00146751, 0.00454223, 0.0114805, -0.00913367, 0.000329775, 0.0580722, -0.00475512, -0.0176547, -0.182016, 0.240333, 0.0068742, 0.472422, -0.539634, 0.337815, -2.08108, -2.16781, -0.127088, 0.470895, -0.541901, 0.332923, -2.07996, -2.16817, -0.10506, 0.0338281, 0.0909478, 0.0463171, 0.0401044, 0.0365206, 0.019766
0.1281, 1.69742, -1.22753, -1.54097, -0.90311, -1.20627, 1.2268, -1.30203, 0.0875575, 0.0497515, 0.00598903, -0.0737122, -0.169776, -0.0365631, 0.00978767, 3.22913, 69.7461, 36.4625, 6.20819, 3.26587, 4.49313, -0.0621838, -0.00299317, -0.0014631, 0.00456735, 0.0115962, -0.00928717, 0.000287017, 0.0603499, -0.00316571, -0.0194492, -0.187476, 0.243261, 0.00902606, 0.472456, -0.539542, 0.337862, -2.08101, -2.16786, -0.12702, 0.470935, -0.541862, 0.332936, -2.07986, -2.1683, -0.104713, 0.0343145, 0.092296, 0.0469959, 0.039024, 0.0358255, 0.0183723
0.1291, 1.6975, -1.22748, -1.54096, -0.903197, -1.20644, 1.22676, -1.30201, 0.0864582, 0.0518172, 0.0113963, -0.0790868, -0.165714, -0.0369812, 0.00638769, 3.30451, 69.8215, 36.4982, 6.13678, 3.30249, 4.49313, -0.0356336, -0.00304924, -0.00145976, 0.00458609, 0.0117033, -0.00944291, 0.000244631, 0.0585084, -0.00451963, -0.0175314, -0.183926, 0.242779, 0.0188338, 0.472491, -0.539449, 0.337909, -2.08094, -2.16791, -0.126952, 0.470974, -0.541821, 0.332956, -2.07977, -2.16844, -0.104372, 0.0348026, 0.09365, 0.0476774, 0.0408693, 0.0387627, 0.0211899
0.1301, 1.69759, -1.22743, -1.54094, -0.903291, -1.20662, 1.22671, -1.302, 0.0874022, 0.0511845, 0.0155758, -0.0844835, -0.173259, -0.0417328, 0.00587624, 3.30451, 69.8572, 36.4982, 6.13678, 3.35834, 4.48581, -0.0621838, -0.00310447, -0.00145351, 0.00460456, 0.0118148, -0.00961079, 0.000195899, 0.0581123, -0.00475411, -0.0180872, -0.191138, 0.247171, 0.0233542, 0.472526, -0.539355, 0.337957, -2.08087, -2.16796, -0.126882, 0.471017, -0.541779, 0.332977, -2.07967, -2.16859, -0.104014, 0.0352924, 0.0950097, 0.0483616, 0.0415591, 0.0406084, 0.0213798
0.1311, 1.69767, -1.22738, -1.54093, -0.903386, -1.2068, 1.22667, -1.30198, 0.0868325, 0.0496882, 0.0116214, -0.0887589, -0.17788, -0.0398732, 0.00946031, 3.34419, 69.9326, 36.6489, 6.13678, 3.39496, 4.46383, -0.0685925, -0.00316691, -0.0014535, 0.00462791, 0.0119388, -0.00978318, 0.00015924, 0.0605984, -0.00400758, -0.021231, -0.197682, 0.251965, 0.0184703, 0.472561, -0.539259, 0.338006, -2.0808, -2.168, -0.126812, 0.471054, -0.541741, 0.332994, -2.07958, -2.16873, -0.103635, 0.0357837, 0.096375, 0.0490484, 0.0412818, 0.0399672, 0.0186031
0.1321, 1.69775, -1.22733, -1.54091, -0.903484, -1.20699, 1.22663, -1.30197, 0.0820891, 0.0486081, 0.0181169, -0.0886694, -0.180526, -0.0382106, 0.00754093, 3.30451, 70.004, 36.5378, 6.13678, 3.40137, 4.42813, -0.0814099, -0.00322883, -0.00145199, 0.00464453, 0.0120445, -0.00995936, 0.000118275, 0.0636184, -0.00196856, -0.0196456, -0.191636, 0.254186, 0.0167539, 0.472597, -0.539162, 0.338055, -2.08073, -2.16805, -0.126741, 0.471093, -0.541703, 0.333017, -2.0795, -2.16888, -0.103271, 0.0362765, 0.0977458, 0.0497377, 0.0399165, 0.038025, 0.020458
0.1331, 1.69782, -1.22728, -1.5409, -0.90359, -1.20719, 1.22659, -1.30196, 0.0774235, 0.0485286, 0.0152564, -0.0924588, -0.183688, -0.0374369, 0.00907122, 3.30451, 70.0436, 36.6092, 6.17248, 3.43799, 4.40707, -0.0484509, -0.00329544, -0.00145443, 0.00466815, 0.0121672, -0.010139, 7.81246e-05, 0.067322, 0.0010581, -0.0213924, -0.196538, 0.25838, 0.0104101, 0.472634, -0.539064, 0.338106, -2.08066, -2.1681, -0.126669, 0.471129, -0.541667, 0.333034, -2.07941, -2.16903, -0.102885, 0.0367709, 0.0991221, 0.0504295, 0.0374656, 0.0358793, 0.0189512
0.1341, 1.6979, -1.22723, -1.54088, -0.90369, -1.20739, 1.22655, -1.30194, 0.0781715, 0.05181, 0.0177661, -0.096787, -0.189704, -0.0361588, 0.0119227, 3.11805, 70.0793, 36.6489, 6.13678, 3.4563, 4.36404, -0.0557752, -0.00336239, -0.00145459, 0.00469049, 0.0122901, -0.0103256, 4.14879e-05, 0.0676578, 0.000268204, -0.0195592, -0.198374, 0.268433, 0.0100828, 0.472671, -0.538964, 0.338156, -2.08059, -2.16815, -0.126595, 0.471167, -0.54163, 0.333052, -2.07933, -2.16917, -0.10249, 0.0372668, 0.100504, 0.0511238, 0.0388359, 0.0366831, 0.0213801
0.1351, 1.69798, -1.22718, -1.54087, -0.903803, -1.20759, 1.2265, -1.30193, 0.0757947, 0.0477655, 0.0176692, -0.102454, -0.193959, -0.0357297, 0.0138751, 3.04267, 70.1151, 36.6092, 6.20819, 3.44989, 4.33566, -0.0621838, -0.00342945, -0.001456, 0.0047139, 0.0124109, -0.0105088, -9.96265e-07, 0.0697716, 0.00121465, -0.0230717, -0.203224, 0.2695, 0.00826733, 0.472708, -0.538862, 0.338208, -2.08052, -2.16821, -0.126521, 0.471205, -0.541592, 0.33307, -2.07924, -2.16932, -0.1021, 0.0377641, 0.101891, 0.0518204, 0.0383371, 0.0364778, 0.0183138
0.1361, 1.69804, -1.22713, -1.54084, -0.903917, -1.20781, 1.22647, -1.30191, 0.0731057, 0.0492383, 0.0181557, -0.103698, -0.202565, -0.0344875, 0.0103993, 3.003, 70.0793, 36.5378, 6.28357, 3.46271, 4.28531, -0.0621838, -0.00350296, -0.00146138, 0.004734, 0.0125259, -0.0107062, -3.46156e-05, 0.0736553, 0.0036683, -0.0224149, -0.206295, 0.279539, 0.00637206, 0.472746, -0.53876, 0.33826, -2.08044, -2.16826, -0.126446, 0.47124, -0.541559, 0.333092, -2.07917, -2.16948, -0.1017, 0.0382628, 0.103283, 0.0525195, 0.0365626, 0.033827, 0.0191426
0.1371, 1.69812, -1.22707, -1.54082, -0.90403, -1.20802, 1.22643, -1.3019, 0.0771936, 0.0515216, 0.0205408, -0.10891, -0.203182, -0.0401227, 0.0122655, 2.81654, 70.004, 36.4982, 6.28357, 3.4444, 4.27798, -0.0557752, -0.0035749, -0.00146494, 0.00475562, 0.0126513, -0.010905, -7.30088e-05, 0.0705978, 0.001479, -0.0221289, -0.212755, 0.280979, 0.0128156, 0.472785, -0.538656, 0.338313, -2.08036, -2.16831, -0.12637, 0.471277, -0.541523, 0.333112, -2.07908, -2.16963, -0.101287, 0.0387628, 0.10468, 0.0532208, 0.0391454, 0.0382942, 0.0205292
0.1381, 1.69818, -1.22702, -1.54081, -0.904159, -1.20823, 1.22639, -1.30188, 0.0724345, 0.0513526, 0.0214819, -0.115331, -0.209238, -0.0395756, 0.00969045, 2.70148, 69.8572, 36.4982, 6.39465, 3.44989, 4.27066, -0.0685925, -0.00364913, -0.00147182, 0.00477922, 0.0127794, -0.0111049, -0.000110402, 0.0733599, 0.00366987, -0.0229582, -0.217112, 0.287337, 0.0136186, 0.472824, -0.538551, 0.338366, -2.08029, -2.16836, -0.126293, 0.471311, -0.541488, 0.333132, -2.079, -2.16979, -0.100869, 0.0392642, 0.106082, 0.0539245, 0.0375364, 0.0369991, 0.02006
0.1391, 1.69824, -1.22696, -1.54078, -0.904281, -1.20844, 1.22635, -1.30187, 0.0666055, 0.0567891, 0.0289443, -0.11854, -0.207607, -0.0384769, 0.0116561, 2.55073, 69.5993, 36.3871, 6.43433, 3.43158, 4.2496, -0.0557752, -0.0037238, -0.00147829, 0.00479555, 0.0128918, -0.0113075, -0.000149556, 0.0742164, 0.00516876, -0.017663, -0.209533, 0.292509, 0.011537, 0.472864, -0.538444, 0.338421, -2.08021, -2.16842, -0.126215, 0.471346, -0.541453, 0.333159, -2.07892, -2.16996, -0.100464, 0.0397669, 0.107489, 0.0546303, 0.0367827, 0.0366852, 0.0259129
0.1401, 1.6983, -1.22692, -1.54076, -0.904413, -1.20866, 1.22632, -1.30186, 0.0612986, 0.0521698, 0.0276378, -0.122591, -0.207617, -0.0382898, 0.014146, 2.43568, 69.5636, 36.3871, 6.54541, 3.42517, 4.24228, -0.0750012, -0.003803, -0.00148669, 0.00482609, 0.0130145, -0.0114972, -0.000188229, 0.0775769, 0.00789895, -0.0216125, -0.212545, 0.289234, 0.00571594, 0.472904, -0.538336, 0.338476, -2.08013, -2.16847, -0.126136, 0.471379, -0.541419, 0.333172, -2.07883, -2.17011, -0.10006, 0.0402709, 0.108901, 0.0553384, 0.034541, 0.0352612, 0.0222926
0.1411, 1.69835, -1.22686, -1.54073, -0.904547, -1.20888, 1.22629, -1.30185, 0.060316, 0.0532835, 0.0324354, -0.126983, -0.207734, -0.0374703, 0.0147861, 2.32459, 69.3414, 36.276, 6.58508, 3.42517, 4.2203, -0.0621838, -0.00388346, -0.0014969, 0.00484449, 0.0131253, -0.0117053, -0.000226271, 0.0772082, 0.00705203, -0.020239, -0.210016, 0.291867, 0.00903851, 0.472944, -0.538226, 0.338531, -2.08005, -2.16853, -0.126055, 0.471412, -0.541387, 0.333197, -2.07876, -2.17028, -0.0996498, 0.040776, 0.110318, 0.0560486, 0.0359343, 0.0368684, 0.0243906
0.1421, 1.69841, -1.22681, -1.54069, -0.90468, -1.2091, 1.22625, -1.30183, 0.060315, 0.0537191, 0.0332624, -0.129435, -0.213039, -0.0375574, 0.0113361, 2.17384, 69.1193, 36.1649, 6.58508, 3.43799, 4.2203, -0.0685925, -0.00396596, -0.00150715, 0.0048656, 0.013241, -0.011916, -0.000260839, 0.0788042, 0.00752914, -0.0205111, -0.213477, 0.297721, 0.0120973, 0.472985, -0.538115, 0.338588, -2.07997, -2.16858, -0.125974, 0.471445, -0.541355, 0.33322, -2.07868, -2.17044, -0.0992299, 0.0412824, 0.111739, 0.0567608, 0.036019, 0.0367333, 0.0246057
0.1431, 1.69846, -1.22676, -1.54067, -0.904819, -1.20933, 1.22622, -1.30182, 0.0566909, 0.0496055, 0.0330302, -0.128053, -0.21623, -0.0372519, 0.0134339, 2.05878, 69.0836, 36.2006, 6.58508, 3.43158, 4.20657, -0.0750012, -0.00405423, -0.00152152, 0.0048961, 0.0133639, -0.0121181, -0.000288562, 0.0834122, 0.010688, -0.0231019, -0.214577, 0.297108, 0.00298745, 0.473027, -0.538002, 0.338645, -2.07989, -2.16864, -0.125892, 0.471475, -0.541325, 0.333234, -2.07861, -2.1706, -0.098809, 0.0417899, 0.113165, 0.0574751, 0.0334542, 0.0338642, 0.0221559
0.1441, 1.6985, -1.22671, -1.54063, -0.904965, -1.20956, 1.22619, -1.3018, 0.0559009, 0.052751, 0.0365535, -0.134413, -0.223134, -0.0324553, 0.0146925, 1.98341, 68.79, 36.0895, 6.62079, 3.43158, 4.19925, -0.0750012, -0.00413957, -0.00153379, 0.00491445, 0.0134766, -0.0123399, -0.000325718, 0.0842194, 0.00959209, -0.020893, -0.213616, 0.309588, 0.0047025, 0.473069, -0.537889, 0.338703, -2.07981, -2.1687, -0.125809, 0.471507, -0.541294, 0.333262, -2.07854, -2.17077, -0.0983793, 0.0422985, 0.114595, 0.0581914, 0.0351781, 0.0342078, 0.024896
0.1451, 1.69855, -1.22666, -1.54059, -0.905115, -1.2098, 1.22616, -1.30179, 0.0524409, 0.0506395, 0.0342121, -0.140548, -0.23269, -0.0328605, 0.0107627, 1.90803, 68.6789, 36.0538, 6.58508, 3.44989, 4.16995, -0.0685925, -0.00422875, -0.00154815, 0.00494128, 0.0135925, -0.0125503, -0.000364367, 0.087979, 0.0122385, -0.0241305, -0.223541, 0.316659, 0.00518486, 0.473111, -0.537773, 0.338761, -2.07972, -2.16875, -0.125725, 0.471538, -0.541263, 0.333281, -2.07846, -2.17095, -0.0979569, 0.0428082, 0.11603, 0.0589097, 0.0330698, 0.0323058, 0.0219263
0.1461, 1.69858, -1.22661, -1.54056, -0.905271, -1.21003, 1.22614, -1.30178, 0.0459143, 0.0532147, 0.0322244, -0.14438, -0.235032, -0.0284081, 0.012464, 1.87232, 68.5321, 36.1649, 6.5097, 3.43158, 4.14157, -0.0557752, -0.00432088, -0.00156415, 0.00496758, 0.0137098, -0.0127704, -0.000399255, 0.0923523, 0.0154454, -0.023616, -0.22362, 0.324553, -0.00251266, 0.473154, -0.537657, 0.338821, -2.07964, -2.16881, -0.12564, 0.471567, -0.541235, 0.3333, -2.07838, -2.17112, -0.0975217, 0.0433189, 0.117469, 0.0596298, 0.0305731, 0.0292045, 0.0225879
0.1471, 1.69863, -1.22656, -1.54051, -0.905428, -1.21027, 1.22611, -1.30176, 0.0461659, 0.0518569, 0.0398904, -0.148933, -0.237346, -0.0304598, 0.0149358, 1.75727, 68.3853, 36.0895, 6.35895, 3.42517, 4.12692, -0.0750012, -0.00440981, -0.00157601, 0.00498967, 0.0138178, -0.0129919, -0.000440109, 0.0911863, 0.0140978, -0.0230162, -0.222545, 0.325026, 0.000991023, 0.473198, -0.537538, 0.338881, -2.07955, -2.16887, -0.125554, 0.471602, -0.541202, 0.333325, -2.07831, -2.1713, -0.0970948, 0.0438306, 0.118913, 0.0603519, 0.0324129, 0.0317657, 0.0240408
0.1481, 1.69867, -1.22651, -1.54046, -0.905595, -1.21052, 1.22609, -1.30175, 0.0452303, 0.0508722, 0.0431604, -0.156272, -0.240198, -0.0266457, 0.0156187, 1.68189, 68.2385, 36.0538, 6.24786, 3.43799, 4.09854, -0.0685925, -0.00449957, -0.00158804, 0.00501193, 0.0139252, -0.0132182, -0.000487518, 0.091315, 0.0125598, -0.0235631, -0.221584, 0.329696, 0.00532983, 0.473242, -0.537419, 0.338941, -2.07946, -2.16893, -0.125467, 0.471636, -0.541168, 0.333351, -2.07822, -2.1715, -0.0966634, 0.0443433, 0.12036, 0.0610757, 0.0344494, 0.0332364, 0.0241574
0.1491, 1.6987, -1.22647, -1.54041, -0.905767, -1.21076, 1.22607, -1.30174, 0.0427193, 0.0507663, 0.0456872, -0.164168, -0.236336, -0.0241621, 0.0121886, 1.68189, 68.1989, 36.0142, 6.13678, 3.43158, 4.07748, -0.0814099, -0.00459266, -0.00160311, 0.00503701, 0.0140288, -0.0134377, -0.000533927, 0.0905902, 0.0114224, -0.0239961, -0.219308, 0.329088, 0.0145751, 0.473287, -0.537298, 0.339003, -2.07938, -2.16899, -0.125378, 0.471668, -0.541136, 0.333374, -2.07814, -2.17169, -0.096242, 0.044857, 0.121812, 0.0618013, 0.0360581, 0.0355188, 0.0245325
0.1501, 1.69872, -1.22641, -1.54036, -0.905957, -1.211, 1.22605, -1.30172, 0.0353418, 0.0502526, 0.0498748, -0.170748, -0.234429, -0.0231214, 0.00933913, 1.79694, 68.0521, 36.0142, 6.13678, 3.4444, 4.07748, -0.0878186, -0.00468441, -0.00161873, 0.00505917, 0.0141379, -0.0136687, -0.000586365, 0.0923532, 0.0134963, -0.0237734, -0.216433, 0.328549, 0.0174037, 0.473332, -0.537175, 0.339065, -2.07929, -2.16905, -0.125289, 0.471701, -0.541102, 0.333401, -2.07805, -2.17189, -0.0958024, 0.0453715, 0.123267, 0.0625286, 0.0345844, 0.0351054, 0.025279
0.1511, 1.69875, -1.22636, -1.5403, -0.906141, -1.21124, 1.22603, -1.30171, 0.031899, 0.048016, 0.0513331, -0.17409, -0.232431, -0.021739, 0.0121229, 1.83265, 67.9807, 36.0895, 5.95032, 3.4444, 4.06283, -0.0951428, -0.00477624, -0.00163215, 0.00508111, 0.0142362, -0.0138933, -0.000639885, 0.0940728, 0.0144627, -0.0252576, -0.214789, 0.326452, 0.0144267, 0.473377, -0.537051, 0.339128, -2.0792, -2.16911, -0.125199, 0.471736, -0.541066, 0.333428, -2.07797, -2.1721, -0.0953803, 0.0458869, 0.124727, 0.0632577, 0.0341489, 0.0350482, 0.0243123
0.1521, 1.69877, -1.22631, -1.54024, -0.906339, -1.21148, 1.22601, -1.3017, 0.0285446, 0.0488412, 0.0550464, -0.181442, -0.235582, -0.0208458, 0.00876745, 1.90803, 67.941, 36.1252, 5.95032, 3.46271, 4.05551, -0.0878186, -0.00486717, -0.00164492, 0.00510506, 0.0143446, -0.0141242, -0.000703088, 0.0947885, 0.0148138, -0.0247165, -0.215637, 0.331593, 0.020452, 0.473423, -0.536926, 0.339191, -2.07911, -2.16918, -0.125108, 0.471772, -0.541027, 0.333455, -2.07787, -2.17232, -0.0949407, 0.0464031, 0.12619, 0.0639883, 0.034369, 0.0357048, 0.0254817
0.1531, 1.69879, -1.22626, -1.54017, -0.906536, -1.21173, 1.22599, -1.30168, 0.0252409, 0.049541, 0.0601112, -0.187599, -0.238372, -0.0207092, 0.010874, 2.02308, 67.9053, 36.1252, 5.87494, 3.47461, 4.06283, -0.0750012, -0.00496171, -0.00166049, 0.00512371, 0.0144419, -0.0143619, -0.000758095, 0.0954205, 0.0152618, -0.0236776, -0.21521, 0.335787, 0.0207729, 0.47347, -0.536799, 0.339256, -2.07902, -2.16924, -0.125016, 0.471806, -0.540992, 0.333487, -2.07778, -2.17254, -0.0945044, 0.0469202, 0.127658, 0.0647206, 0.0345095, 0.0363677, 0.0271605
0.1541, 1.69881, -1.2262, -1.5401, -0.906746, -1.21199, 1.22597, -1.30166, 0.0228279, 0.0552617, 0.0589946, -0.194826, -0.242786, -0.0203404, 0.0135851, 2.13416, 67.9053, 36.2006, 5.87494, 3.54236, 4.06283, -0.0878186, -0.00505619, -0.00167444, 0.00514396, 0.0145448, -0.0146093, -0.000820124, 0.09651, 0.016303, -0.0220313, -0.22095, 0.346966, 0.0186935, 0.473517, -0.53667, 0.339321, -2.07892, -2.1693, -0.124922, 0.471842, -0.540955, 0.333518, -2.07769, -2.17276, -0.0940519, 0.047438, 0.129128, 0.0654544, 0.034101, 0.0364632, 0.02939
0.1551, 1.69883, -1.22616, -1.54002, -0.906948, -1.21225, 1.22596, -1.30165, 0.0148825, 0.054169, 0.0672764, -0.196162, -0.244287, -0.0197232, 0.0153115, 2.24921, 68.0164, 36.276, 5.72418, 3.57257, 4.05551, -0.101552, -0.0051545, -0.00168899, 0.00516585, 0.0146341, -0.014848, -0.00087772, 0.09993, 0.0195998, -0.0199782, -0.213904, 0.347708, 0.0125807, 0.473565, -0.53654, 0.339387, -2.07883, -2.16937, -0.124828, 0.471878, -0.540919, 0.333548, -2.07761, -2.17299, -0.0936217, 0.0479565, 0.130603, 0.0661897, 0.0315496, 0.0340976, 0.031739
0.1561, 1.69884, -1.2261, -1.53995, -0.90717, -1.2125, 1.22595, -1.30163, 0.0157812, 0.0523069, 0.0701089, -0.206216, -0.245539, -0.0148382, 0.0208088, 2.47535, 68.0521, 36.3871, 5.68848, 3.6037, 4.05551, -0.0951428, -0.00525121, -0.0017055, 0.00518572, 0.0147298, -0.0150921, -0.000942372, 0.0984318, 0.016117, -0.021583, -0.213228, 0.351149, 0.0166591, 0.473613, -0.536409, 0.339453, -2.07873, -2.16943, -0.124733, 0.471913, -0.540881, 0.333581, -2.07752, -2.17322, -0.0931787, 0.0484757, 0.132081, 0.0669265, 0.0354292, 0.0374541, 0.0310098
0.1571, 1.69885, -1.22605, -1.53986, -0.90739, -1.21276, 1.22594, -1.30162, 0.0122715, 0.0526113, 0.0740687, -0.208128, -0.25109, -0.0111592, 0.0197762, 2.62611, 68.1631, 36.4228, 5.53772, 3.64673, 4.05551, -0.0814099, -0.00534657, -0.00171804, 0.00520472, 0.0148132, -0.0153321, -0.00101707, 0.101601, 0.0174791, -0.0202553, -0.210001, 0.358612, 0.0147751, 0.473662, -0.536276, 0.33952, -2.07864, -2.1695, -0.124636, 0.471952, -0.540841, 0.333615, -2.07742, -2.17347, -0.0927533, 0.0489955, 0.133562, 0.0676647, 0.0347733, 0.0355408, 0.0326204
0.1581, 1.69886, -1.226, -1.53978, -0.907626, -1.21301, 1.22593, -1.30159, 0.0137477, 0.0520583, 0.0782576, -0.215348, -0.251706, -0.0122994, 0.0201679, 2.73719, 68.3099, 36.5378, 5.50201, 3.70807, 4.03445, -0.101552, -0.00543897, -0.00172636, 0.00522773, 0.0149054, -0.0155768, -0.00109937, 0.0995452, 0.0151342, -0.0207749, -0.211759, 0.359503, 0.0227973, 0.473711, -0.536142, 0.339588, -2.07854, -2.16956, -0.124539, 0.471996, -0.540795, 0.333647, -2.07731, -2.17372, -0.0923132, 0.049516, 0.135047, 0.0684043, 0.0375387, 0.0392384, 0.0330887
0.1591, 1.69887, -1.22595, -1.53969, -0.907864, -1.21326, 1.22592, -1.30157, 0.0127906, 0.052802, 0.078413, -0.218827, -0.251152, -0.00930312, 0.0205084, 2.92762, 68.421, 36.6489, 5.38696, 3.74469, 4.03445, -0.120778, -0.00553316, -0.00173811, 0.00524958, 0.0149911, -0.0158135, -0.00117828, 0.100592, 0.0148373, -0.0209687, -0.210705, 0.362559, 0.0236638, 0.473761, -0.536006, 0.339657, -2.07844, -2.16963, -0.124441, 0.472037, -0.54075, 0.33368, -2.0772, -2.17397, -0.0918872, 0.0500371, 0.136535, 0.0691452, 0.0383962, 0.0397339, 0.033471
0.1601, 1.69888, -1.2259, -1.5396, -0.908104, -1.21351, 1.22591, -1.30155, 0.0109404, 0.0539569, 0.0828478, -0.22807, -0.251159, -0.00753834, 0.0201031, 3.04267, 68.4964, 36.7957, 5.27588, 3.79413, 4.04819, -0.120778, -0.00562603, -0.00174682, 0.00527022, 0.0150749, -0.0160551, -0.00126557, 0.0993886, 0.0132964, -0.0202579, -0.209758, 0.36613, 0.0312735, 0.473811, -0.535869, 0.339727, -2.07834, -2.1697, -0.124341, 0.472082, -0.540702, 0.333716, -2.07708, -2.17424, -0.0914579, 0.0505588, 0.138026, 0.0698875, 0.0404426, 0.0423732, 0.0350522
0.1611, 1.69888, -1.22586, -1.53951, -0.908351, -1.21375, 1.2259, -1.30154, 0.00991638, 0.0452801, 0.085984, -0.236411, -0.245572, -0.010871, 0.0193207, 3.26881, 68.7146, 36.8711, 5.12909, 3.81885, 4.06283, -0.10796, -0.00572148, -0.00175914, 0.00529711, 0.0151562, -0.0162783, -0.00135354, 0.0976371, 0.0118413, -0.0261866, -0.21235, 0.352831, 0.0407699, 0.473862, -0.53573, 0.339797, -2.07824, -2.16977, -0.124241, 0.472123, -0.540654, 0.333745, -2.07695, -2.17449, -0.0910493, 0.0510809, 0.13952, 0.0706309, 0.042117, 0.0465628, 0.0301647
0.1621, 1.69888, -1.2258, -1.53942, -0.908606, -1.214, 1.2259, -1.30152, 0.00846894, 0.0496378, 0.0856156, -0.242081, -0.246897, -0.011955, 0.019746, 3.53065, 68.7543, 37.0575, 5.05371, 3.88019, 4.04086, -0.120778, -0.00581946, -0.00177338, 0.0053186, 0.0152435, -0.0165255, -0.00143654, 0.0979918, 0.0124605, -0.0250615, -0.216814, 0.359253, 0.0419647, 0.473913, -0.53559, 0.339868, -2.07814, -2.16984, -0.12414, 0.472163, -0.540608, 0.333781, -2.07684, -2.17476, -0.090608, 0.0516036, 0.141018, 0.0713756, 0.0420862, 0.0475086, 0.03199
0.1631, 1.69888, -1.22576, -1.53932, -0.908878, -1.21426, 1.22589, -1.30149, 0.00727156, 0.0469578, 0.0956431, -0.253498, -0.252685, -0.00900061, 0.0193193, 3.6814, 68.9011, 37.0933, 5.01404, 3.92871, 4.04086, -0.114369, -0.0059102, -0.00177814, 0.0053433, 0.0153236, -0.0167667, -0.00154424, 0.0963202, 0.00943606, -0.0248285, -0.214016, 0.364249, 0.052982, 0.473965, -0.535448, 0.33994, -2.07804, -2.16991, -0.124037, 0.472213, -0.540553, 0.333815, -2.0767, -2.17504, -0.0901824, 0.0521267, 0.142518, 0.0721215, 0.045577, 0.0507604, 0.0331248
0.1641, 1.69888, -1.22571, -1.53922, -0.909156, -1.21451, 1.22588, -1.30147, 0.00123444, 0.0488881, 0.0911721, -0.260917, -0.251911, -0.0073159, 0.0193074, 3.90754, 69.0121, 37.3551, 4.94263, 3.96625, 4.05551, -0.120778, -0.00600425, -0.00178748, 0.00537444, 0.0154214, -0.0170051, -0.00164806, 0.0991465, 0.0121733, -0.026367, -0.219065, 0.368133, 0.050472, 0.474018, -0.535305, 0.340012, -2.07793, -2.16998, -0.123934, 0.472259, -0.540498, 0.333843, -2.07655, -2.17532, -0.0897384, 0.0526502, 0.144021, 0.0728685, 0.0434253, 0.0495796, 0.0320133
0.1651, 1.69888, -1.22566, -1.53911, -0.909429, -1.21477, 1.22587, -1.30145, -0.000984365, 0.0499072, 0.0962526, -0.264001, -0.252247, -0.0115806, 0.0196339, 4.17335, 69.0121, 37.3908, 4.75616, 4.03308, 4.09122, -0.133595, -0.00610013, -0.00179957, 0.00539294, 0.0154998, -0.0172532, -0.00174446, 0.099272, 0.0132552, -0.025167, -0.220017, 0.368246, 0.0516983, 0.474071, -0.53516, 0.340086, -2.07783, -2.17005, -0.123829, 0.472303, -0.540446, 0.333884, -2.07643, -2.1756, -0.0893044, 0.0531742, 0.145527, 0.0736165, 0.0429283, 0.0507276, 0.033967
0.1661, 1.69888, -1.22562, -1.53901, -0.909719, -1.21502, 1.22587, -1.30143, -0.00297696, 0.0453289, 0.0985063, -0.271727, -0.251716, -0.00882653, 0.0233544, 4.3241, 69.2303, 37.5019, 4.68079, 4.08252, 4.09854, -0.114369, -0.00619109, -0.00180375, 0.00542468, 0.0155856, -0.017486, -0.00186492, 0.0995732, 0.0121684, -0.0283077, -0.21959, 0.366194, 0.0530288, 0.474124, -0.535014, 0.34016, -2.07772, -2.17012, -0.123723, 0.472355, -0.540386, 0.333913, -2.07627, -2.1759, -0.0888791, 0.0536985, 0.147036, 0.0743657, 0.0444293, 0.0524638, 0.0315352
0.1671, 1.69887, -1.22557, -1.53889, -0.910013, -1.21527, 1.22587, -1.3014, -0.00416097, 0.0495563, 0.0998249, -0.285521, -0.251907, -0.00651052, 0.0278144, 4.58991, 69.27, 37.6169, 4.60541, 4.14386, 4.09854, -0.133595, -0.00628444, -0.00181094, 0.00544887, 0.0156613, -0.0177285, -0.00197711, 0.097198, 0.00977628, -0.0275042, -0.222892, 0.37398, 0.0588069, 0.474178, -0.534866, 0.340234, -2.07762, -2.17019, -0.123617, 0.472404, -0.540327, 0.33395, -2.07612, -2.1762, -0.0884533, 0.0542231, 0.148547, 0.0751158, 0.0472844, 0.0563065, 0.0333661
0.1681, 1.69886, -1.22552, -1.53878, -0.910318, -1.21551, 1.22586, -1.30137, -0.00479004, 0.0486197, 0.104371, -0.287408, -0.251343, -0.00508123, 0.0304816, 4.85175, 69.3414, 37.728, 4.49432, 4.18048, 4.10586, -0.140919, -0.00637556, -0.00181653, 0.00547595, 0.0157438, -0.0179691, -0.00209705, 0.0976712, 0.00914154, -0.0270714, -0.218755, 0.374223, 0.0583814, 0.474232, -0.534717, 0.34031, -2.07751, -2.17026, -0.123509, 0.472456, -0.540264, 0.333985, -2.07596, -2.1765, -0.0880217, 0.054748, 0.150061, 0.0758669, 0.0484855, 0.0573149, 0.0344539
0.1691, 1.69884, -1.22548, -1.53867, -0.910638, -1.21576, 1.22586, -1.30134, -0.0054, 0.0468929, 0.111704, -0.292643, -0.24283, -0.00401097, 0.0320829, 5.11756, 69.4525, 37.8034, 4.41894, 4.25464, 4.11319, -0.133595, -0.00646351, -0.00182021, 0.00550456, 0.0158248, -0.0182038, -0.00222739, 0.0950256, 0.00641938, -0.0266502, -0.210461, 0.367126, 0.0659911, 0.474287, -0.534566, 0.340386, -2.0774, -2.17034, -0.123401, 0.47251, -0.540196, 0.33402, -2.07579, -2.17681, -0.0875976, 0.0552732, 0.151577, 0.0766189, 0.0516439, 0.0615037, 0.0359389
0.1701, 1.69884, -1.22542, -1.53854, -0.910952, -1.21599, 1.22586, -1.30132, -0.00614632, 0.053244, 0.11121, -0.301502, -0.239313, -0.00212434, 0.029103, 5.26832, 69.3771, 37.8391, 4.26819, 4.29126, 4.09122, -0.140919, -0.00654829, -0.00181923, 0.00552253, 0.0158859, -0.0184452, -0.0023666, 0.0933225, 0.00491757, -0.0246453, -0.211671, 0.373369, 0.0756219, 0.474343, -0.534414, 0.340463, -2.07729, -2.17041, -0.123291, 0.472569, -0.540125, 0.334066, -2.07562, -2.17715, -0.0871886, 0.0557986, 0.153096, 0.0773717, 0.0536865, 0.0644679, 0.0388853
0.1711, 1.69882, -1.22537, -1.53843, -0.911275, -1.21622, 1.22586, -1.30128, -0.0104154, 0.0509772, 0.111841, -0.308428, -0.232319, -0.00614613, 0.0317435, 5.56983, 69.4525, 37.9859, 4.1571, 4.32788, 4.08389, -0.153737, -0.00663878, -0.00182429, 0.00555172, 0.0159543, -0.0186701, -0.00249507, 0.0930332, 0.00615458, -0.0274056, -0.214697, 0.364906, 0.0763349, 0.474399, -0.53426, 0.340541, -2.07718, -2.17049, -0.12318, 0.472623, -0.540057, 0.334102, -2.07544, -2.17746, -0.0867864, 0.0563242, 0.154618, 0.0781255, 0.0528589, 0.0666346, 0.0370023
0.1721, 1.6988, -1.22533, -1.5383, -0.911606, -1.21645, 1.22586, -1.30126, -0.011682, 0.0495647, 0.117067, -0.314286, -0.226998, -0.00413764, 0.032528, 5.79597, 69.635, 38.0613, 4.04602, 4.3526, 4.07016, -0.133595, -0.00672586, -0.0018249, 0.005583, 0.0160212, -0.0188906, -0.00264195, 0.0916366, 0.00422903, -0.0275031, -0.209086, 0.361371, 0.0825923, 0.474456, -0.534104, 0.340619, -2.07707, -2.17056, -0.123068, 0.472681, -0.539983, 0.334136, -2.07525, -2.17779, -0.086391, 0.05685, 0.156141, 0.07888, 0.0552516, 0.0696398, 0.0378123
0.1731, 1.69879, -1.22527, -1.53817, -0.911949, -1.21668, 1.22585, -1.30122, -0.011829, 0.0512391, 0.125136, -0.323939, -0.232533, -0.00367869, 0.0349203, 5.9864, 69.5993, 38.0613, 4.04602, 4.38373, 4.08389, -0.160145, -0.00680967, -0.001824, 0.00560502, 0.0160924, -0.0191341, -0.00278668, 0.0897362, 0.00189125, -0.0254266, -0.20897, 0.369341, 0.0892708, 0.474513, -0.533947, 0.340699, -2.07696, -2.17064, -0.122956, 0.472742, -0.539906, 0.334181, -2.07506, -2.17812, -0.0859662, 0.0573759, 0.157667, 0.0796352, 0.0581239, 0.0728346, 0.0408328
0.1741, 1.69876, -1.22522, -1.53805, -0.912301, -1.21692, 1.22585, -1.30118, -0.0168737, 0.0504714, 0.122925, -0.329566, -0.232131, -0.00330372, 0.0354083, 6.24824, 69.635, 38.1724, 4.00635, 4.42035, 4.09854, -0.153737, -0.00689695, -0.00182647, 0.00563241, 0.0161692, -0.0193734, -0.00293445, 0.0923889, 0.00431407, -0.0276799, -0.212876, 0.369957, 0.0866753, 0.47457, -0.533789, 0.340779, -2.07684, -2.17071, -0.122842, 0.4728, -0.53983, 0.334221, -2.07487, -2.17846, -0.0855388, 0.0579019, 0.159194, 0.0803912, 0.0562535, 0.0719703, 0.0390424
0.1751, 1.69873, -1.22516, -1.53791, -0.912654, -1.21715, 1.22585, -1.30115, -0.0184267, 0.0511664, 0.122855, -0.332388, -0.23041, -0.00243402, 0.0365286, 6.55372, 69.7461, 38.212, 4.00635, 4.43225, 4.09854, -0.166554, -0.00698637, -0.00183076, 0.00565944, 0.0162347, -0.019605, -0.00307583, 0.0935291, 0.00481861, -0.0280664, -0.212927, 0.370938, 0.0858535, 0.474629, -0.533629, 0.340859, -2.07673, -2.17079, -0.122727, 0.472856, -0.539755, 0.334262, -2.07468, -2.17879, -0.0851301, 0.0584279, 0.160724, 0.0811479, 0.0563126, 0.0724079, 0.0392629
0.1761, 1.69871, -1.22511, -1.53778, -0.913014, -1.21737, 1.22585, -1.30111, -0.0184333, 0.0536577, 0.125398, -0.338755, -0.228263, -0.00261014, 0.0420779, 6.81556, 69.7858, 38.2834, 3.93494, 4.40845, 4.12051, -0.186696, -0.00707271, -0.00183279, 0.0056861, 0.0163021, -0.0198352, -0.00322473, 0.0920308, 0.00338879, -0.0271268, -0.213077, 0.373142, 0.0865585, 0.474687, -0.533468, 0.340941, -2.07661, -2.17087, -0.122611, 0.472916, -0.539675, 0.334305, -2.07449, -2.17913, -0.0847204, 0.0589541, 0.162256, 0.0819052, 0.0582489, 0.0753421, 0.0411317
0.1771, 1.69867, -1.22505, -1.53765, -0.913387, -1.21759, 1.22585, -1.30107, -0.0257551, 0.0522161, 0.130782, -0.346143, -0.22771, -0.00265023, 0.0402054, 7.11707, 69.8215, 38.3231, 3.97064, 4.40204, 4.14157, -0.153737, -0.00715759, -0.00183428, 0.00571113, 0.0163683, -0.0200693, -0.00338151, 0.0935859, 0.00540877, -0.0272481, -0.211169, 0.372377, 0.0892769, 0.474746, -0.533304, 0.341023, -2.07649, -2.17095, -0.122494, 0.472976, -0.539593, 0.334349, -2.07428, -2.17948, -0.0843078, 0.0594802, 0.16379, 0.0826631, 0.0568235, 0.0752623, 0.0416041
0.1781, 1.69865, -1.225, -1.5375, -0.913764, -1.21782, 1.22584, -1.30102, -0.0253439, 0.0566644, 0.134686, -0.356329, -0.232052, -0.00267831, 0.0348956, 7.3075, 69.8929, 38.3588, 3.93494, 4.40845, 4.16354, -0.153737, -0.00723947, -0.00183145, 0.00573549, 0.0164292, -0.0203024, -0.00354652, 0.091608, 0.00339362, -0.0251682, -0.214756, 0.382177, 0.103016, 0.474806, -0.53314, 0.341106, -2.07637, -2.17103, -0.122376, 0.473041, -0.539505, 0.334396, -2.07407, -2.17985, -0.0839018, 0.0600063, 0.165325, 0.0834216, 0.0593712, 0.0785291, 0.0446533
0.1791, 1.69861, -1.22495, -1.53735, -0.91415, -1.21804, 1.22584, -1.30097, -0.0299112, 0.0525626, 0.140368, -0.362974, -0.23046, -0.00290996, 0.0411156, 7.56934, 70.1508, 38.4342, 3.89526, 4.40204, 4.19192, -0.172963, -0.0073252, -0.00183287, 0.00576707, 0.0164933, -0.0205232, -0.00370395, 0.0921191, 0.00384966, -0.0268028, -0.212457, 0.377917, 0.100281, 0.474866, -0.532974, 0.34119, -2.07626, -2.17111, -0.122257, 0.473102, -0.53942, 0.334436, -2.07386, -2.18019, -0.0835031, 0.0605324, 0.166863, 0.0841806, 0.0594018, 0.0797863, 0.0437385
0.1801, 1.69857, -1.22489, -1.5372, -0.914536, -1.21826, 1.22584, -1.30093, -0.0373944, 0.0548267, 0.142975, -0.368813, -0.224348, -0.00277481, 0.045376, 7.87482, 70.1904, 38.4342, 3.85956, 4.39563, 4.21298, -0.186696, -0.00740937, -0.00183548, 0.0057886, 0.0165455, -0.0207483, -0.00386659, 0.0933574, 0.00622253, -0.0255301, -0.209172, 0.376422, 0.095788, 0.474927, -0.532806, 0.341275, -2.07613, -2.17119, -0.122137, 0.473163, -0.539332, 0.334487, -2.07365, -2.18055, -0.0831127, 0.0610583, 0.168402, 0.0849401, 0.0576691, 0.0797962, 0.0456504
0.1811, 1.69852, -1.22483, -1.53705, -0.914933, -1.21846, 1.22584, -1.30088, -0.0371512, 0.0589471, 0.147494, -0.377176, -0.220876, -0.00607944, 0.047102, 8.06129, 70.2618, 38.4699, 3.85956, 4.41394, 4.19925, -0.160145, -0.00749082, -0.00183429, 0.00580867, 0.0165937, -0.0209776, -0.00403828, 0.090016, 0.00433456, -0.0235004, -0.210571, 0.37771, 0.103603, 0.474989, -0.532637, 0.34136, -2.07601, -2.17127, -0.122016, 0.473229, -0.539241, 0.33454, -2.07343, -2.18093, -0.0827223, 0.0615842, 0.169942, 0.0857, 0.060031, 0.0844166, 0.0488642
0.1821, 1.69848, -1.22476, -1.53688, -0.915336, -1.21867, 1.22583, -1.30083, -0.0362877, 0.0626646, 0.150864, -0.386513, -0.217509, -0.00447528, 0.0502024, 8.21204, 70.3015, 38.5096, 3.74451, 4.41394, 4.19925, -0.172963, -0.00756888, -0.00183169, 0.00582516, 0.0166356, -0.0212032, -0.00421365, 0.0869028, 0.00118207, -0.0218526, -0.209313, 0.381302, 0.111011, 0.47505, -0.532466, 0.341446, -2.07589, -2.17135, -0.121894, 0.473296, -0.539145, 0.334598, -2.07321, -2.1813, -0.082342, 0.0621099, 0.171484, 0.0864603, 0.0636485, 0.0889316, 0.0516219
0.1831, 1.69844, -1.22469, -1.53672, -0.915736, -1.21887, 1.22583, -1.30078, -0.0412403, 0.0653638, 0.156695, -0.39446, -0.209859, -0.00330026, 0.0515005, 8.3271, 70.3372, 38.585, 3.63342, 4.40845, 4.19925, -0.166554, -0.00764881, -0.00183082, 0.00584058, 0.0166741, -0.0214266, -0.00438695, 0.0854772, 0.000752166, -0.0195153, -0.202928, 0.379606, 0.115875, 0.475113, -0.532294, 0.341533, -2.07577, -2.17143, -0.121771, 0.473362, -0.53905, 0.334658, -2.07299, -2.18168, -0.0819665, 0.0626355, 0.173028, 0.087221, 0.0646469, 0.0915487, 0.0548969
0.1841, 1.69839, -1.22463, -1.53654, -0.916149, -1.21906, 1.22583, -1.30072, -0.0410613, 0.0645145, 0.167567, -0.403617, -0.206086, -0.0018952, 0.0533287, 8.40247, 70.484, 38.4699, 3.55804, 4.44507, 4.1846, -0.180287, -0.00772527, -0.00182608, 0.00585744, 0.0167051, -0.0216441, -0.00457044, 0.0814794, -0.00339039, -0.0178414, -0.195263, 0.377742, 0.12754, 0.475176, -0.53212, 0.34162, -2.07564, -2.17152, -0.121646, 0.473432, -0.538949, 0.334717, -2.07276, -2.18207, -0.0816052, 0.0631608, 0.174573, 0.087982, 0.0692161, 0.0969847, 0.057781
0.1851, 1.69833, -1.22456, -1.53638, -0.916562, -1.21926, 1.22582, -1.30066, -0.0479836, 0.0642224, 0.161821, -0.412861, -0.202155, -0.000899096, 0.0500622, 8.51356, 70.6308, 38.6564, 3.52234, 4.45697, 4.16995, -0.199513, -0.00781096, -0.00183006, 0.00587995, 0.0167475, -0.0218613, -0.00473368, 0.0839566, -0.000586616, -0.0214545, -0.201538, 0.376713, 0.129537, 0.475239, -0.531945, 0.341709, -2.07552, -2.1716, -0.121521, 0.473495, -0.538856, 0.334771, -2.07255, -2.18243, -0.0812286, 0.0636859, 0.176119, 0.0887433, 0.0669013, 0.0964968, 0.0546953
0.1861, 1.69827, -1.22449, -1.53621, -0.916983, -1.21945, 1.22582, -1.3006, -0.0496474, 0.0636864, 0.164901, -0.419314, -0.195906, -0.000495664, 0.0512622, 8.58894, 70.6665, 38.696, 3.37158, 4.5, 4.16354, -0.180287, -0.00789184, -0.001832, 0.00589211, 0.016778, -0.0220853, -0.00491264, 0.0825837, -0.00180763, -0.0220129, -0.19893, 0.372727, 0.134761, 0.475303, -0.531768, 0.341798, -2.07539, -2.17169, -0.121395, 0.47356, -0.538757, 0.334836, -2.07233, -2.18282, -0.0808586, 0.0642108, 0.177667, 0.0895048, 0.0685698, 0.099542, 0.0550752
0.1871, 1.69821, -1.22441, -1.53602, -0.917417, -1.21964, 1.22582, -1.30054, -0.0507982, 0.0661295, 0.169425, -0.421154, -0.194628, -0.000430662, 0.057348, 8.66431, 70.7062, 38.7674, 3.37158, 4.51831, 4.16354, -0.180287, -0.00796911, -0.00183105, 0.00590128, 0.0167976, -0.0223073, -0.00509955, 0.0827269, -0.00186086, -0.0196992, -0.195252, 0.375157, 0.130461, 0.475368, -0.53159, 0.341888, -2.07526, -2.17177, -0.121268, 0.473628, -0.538654, 0.334906, -2.0721, -2.18322, -0.0805028, 0.0647353, 0.179216, 0.0902666, 0.0692565, 0.100601, 0.0581008
0.1881, 1.69815, -1.22435, -1.53583, -0.917831, -1.21982, 1.22581, -1.30048, -0.0531985, 0.0614493, 0.176918, -0.417177, -0.188558, -0.00504817, 0.0518987, 8.66431, 70.8887, 38.9182, 3.11371, 4.53113, 4.16354, -0.166554, -0.00805245, -0.00183457, 0.00591366, 0.0168057, -0.0225086, -0.00527293, 0.0837728, -0.000253953, -0.0200853, -0.188668, 0.36335, 0.13452, 0.475433, -0.53141, 0.341978, -2.07513, -2.17186, -0.121139, 0.473693, -0.538555, 0.334972, -2.07188, -2.1836, -0.0801783, 0.0652596, 0.180765, 0.0910285, 0.0682108, 0.101099, 0.0583806
0.1891, 1.69807, -1.22427, -1.53563, -0.918269, -1.22, 1.22581, -1.30042, -0.0601209, 0.0645549, 0.183916, -0.419056, -0.19009, -0.00354105, 0.0565501, 8.73969, 70.9244, 39.0293, 3.07404, 4.57416, 4.15622, -0.120778, -0.00813489, -0.00184004, 0.0059209, 0.0168144, -0.0227236, -0.00545452, 0.0866001, 0.00254645, -0.0160791, -0.182005, 0.369072, 0.1262, 0.475498, -0.531228, 0.34207, -2.075, -2.17194, -0.12101, 0.473757, -0.538455, 0.335044, -2.07166, -2.184, -0.0798389, 0.0657834, 0.182316, 0.0917906, 0.0662343, 0.099117, 0.0627687
