alisrour97/Franka_experiments/Real_Robot_scripts/servo-franka/Data_5_ki/log_dyn_PI_k_ki_13.csv
Time,q1,q2,q3,q4,q5,q6,q7,dq1,dq2,dq3,dq4,dq5,dq6,dq7,t1,t2,t3,t4,t5,t6,t7,ex1,ex2,ex3,ex4,ex5,ex6,ev1,ev2,ev3,ev4,ev5,ev6,xd,yd,zd,uxd,uyd,uzd,x,y,z,ux,uy,uz,vxd,vyd,vzd,vx,vy,vz
1.46484e-06, 1.69119, -1.22751, -1.53894, -0.900219, -1.19191, 1.22842, -1.30271, -0.00689968, -0.0047648, -0.00303848, -0.00133625, 0.00372908, -0.00213511, 0.00120037, -0.131157, 63.2635, 30.3568, 7.02942, 1.77356, 3.31027, -0.0292249, 0.000527076, -0.00178859, 0.0015802, 0.00138491, 0.00136765, 0.000381629, 0.00278313, 0.00399317, -0.00388531, -0.00273079, -0.00875673, -0.00696891, 0.471008, -0.543389, 0.335894, -2.08385, -2.16584, -0.129887, 0.469153, -0.542699, 0.334476, -2.08282, -2.16415, -0.129688, 0, 0, 0, -0.00402874, -0.00231295, -0.00414805
0.0121282, 1.69117, -1.22754, -1.53895, -0.900225, -1.19187, 1.22838, -1.30272, -0.00269736, -0.00315874, -0.00292834, 0.000183091, 0.001907, -0.00102546, -0.000170135, -0.0161054, 63.45, 30.3925, 6.99371, 1.76166, 3.33865, -0.0356336, 0.000528129, -0.00180102, 0.00160452, 0.00140616, 0.00145324, 0.000375637, 0.00168116, 0.00198987, -0.00281982, -0.00232201, -0.00512054, -0.00337396, 0.471008, -0.543389, 0.335894, -2.08385, -2.16584, -0.129887, 0.469133, -0.542695, 0.334446, -2.08276, -2.16407, -0.129761, 3.52292e-06, 9.08712e-06, 4.70091e-06, -0.00202545, -0.001298, -0.00298061
0.0131282, 1.69117, -1.22754, -1.53895, -0.900225, -1.19187, 1.22838, -1.30272, -0.00269736, -0.00315874, -0.00292834, 0.000183091, 0.001907, -0.00102546, -0.000170135, -0.0161054, 63.45, 30.3925, 6.99371, 1.76166, 3.33865, -0.0356336, 0.000528107, -0.00180103, 0.00160453, 0.00140615, 0.00145325, 0.000375649, 0.0017098, 0.00200107, -0.0028299, -0.0023345, -0.0051014, -0.00339769, 0.471008, -0.543389, 0.335894, -2.08385, -2.16584, -0.129887, 0.469133, -0.542695, 0.334446, -2.08276, -2.16407, -0.129761, 1.40551e-05, 3.62649e-05, 1.87583e-05, -0.00202545, -0.001298, -0.00298061
0.0141282, 1.69117, -1.22754, -1.53895, -0.900225, -1.19187, 1.22838, -1.30272, -0.00269736, -0.00315874, -0.00292834, 0.000183091, 0.001907, -0.00102546, -0.000170135, -0.0161054, 63.45, 30.3925, 6.99371, 1.76166, 3.33865, -0.0356336, 0.000528047, -0.00180105, 0.00160455, 0.00140612, 0.00145326, 0.000375682, 0.00175736, 0.00201968, -0.00284664, -0.00235524, -0.00506961, -0.00343709, 0.471008, -0.543389, 0.335894, -2.08385, -2.16584, -0.129887, 0.469133, -0.542695, 0.334446, -2.08276, -2.16407, -0.129761, 3.15416e-05, 8.14084e-05, 4.21042e-05, -0.00202545, -0.001298, -0.00298061
0.0151282, 1.69117, -1.22754, -1.53895, -0.900225, -1.19187, 1.22838, -1.30272, -0.00269736, -0.00315874, -0.00292834, 0.000183091, 0.001907, -0.00102546, -0.000170135, -0.0161054, 63.45, 30.3925, 6.99371, 1.76166, 3.33865, -0.0356336, 0.000527929, -0.0018011, 0.00160459, 0.00140606, 0.00145329, 0.000375746, 0.00182373, 0.00204563, -0.00286998, -0.00238413, -0.00502527, -0.00349203, 0.471008, -0.543389, 0.335894, -2.08385, -2.16584, -0.129887, 0.469133, -0.542695, 0.334446, -2.08276, -2.16407, -0.129761, 5.59279e-05, 0.000144393, 7.4671e-05, -0.00202545, -0.001298, -0.00298061
0.0161282, 1.69117, -1.22754, -1.53895, -0.900225, -1.19187, 1.22838, -1.30272, -0.00269736, -0.00315874, -0.00292834, 0.000183091, 0.001907, -0.00102546, -0.000170135, -0.0161054, 63.45, 30.3925, 6.99371, 1.76166, 3.33865, -0.0356336, 0.000527737, -0.00180118, 0.00160466, 0.00140597, 0.00145334, 0.000375851, 0.00190875, 0.00207887, -0.00289988, -0.00242112, -0.00496848, -0.00356239, 0.471008, -0.543389, 0.335894, -2.08385, -2.16584, -0.129886, 0.469133, -0.542695, 0.334446, -2.08276, -2.16407, -0.129761, 8.71593e-05, 0.000225094, 0.000116391, -0.00202545, -0.001298, -0.00298061
0.0171282, 1.69117, -1.22754, -1.53895, -0.900225, -1.19187, 1.22838, -1.30272, -0.00269736, -0.00315874, -0.00292834, 0.000183091, 0.001907, -0.00102546, -0.000170135, -0.0161054, 63.45, 30.3925, 6.99371, 1.76166, 3.33865, -0.0356336, 0.00052745, -0.00180129, 0.00160476, 0.00140583, 0.00145341, 0.000376008, 0.00201232, 0.00211933, -0.00293629, -0.00246611, -0.00489932, -0.00364803, 0.471008, -0.543389, 0.335894, -2.08385, -2.16584, -0.129886, 0.469133, -0.542695, 0.334446, -2.08276, -2.16407, -0.129761, 0.000125182, 0.000323387, 0.000167197, -0.00202545, -0.001298, -0.00298061
0.0181282, 1.69117, -1.22754, -1.53895, -0.900225, -1.19187, 1.22838, -1.30272, -0.00269736, -0.00315874, -0.00292834, 0.000183091, 0.001907, -0.00102546, -0.000170135, -0.0161054, 63.45, 30.3925, 6.99371, 1.76166, 3.33865, -0.0356336, 0.00052705, -0.00180144, 0.0016049, 0.00140563, 0.0014535, 0.000376225, 0.00213428, 0.00216696, -0.00297916, -0.00251905, -0.0048179, -0.00374884, 0.471008, -0.543388, 0.335894, -2.08385, -2.16584, -0.129886, 0.469133, -0.542695, 0.334446, -2.08276, -2.16407, -0.129761, 0.00016994, 0.000439148, 0.000227022, -0.00202545, -0.001298, -0.00298061
0.0191282, 1.69117, -1.22754, -1.53895, -0.900225, -1.19187, 1.22838, -1.30272, -0.00269736, -0.00315874, -0.00292834, 0.000183091, 0.001907, -0.00102546, -0.000170135, -0.0161054, 63.45, 30.3925, 6.99371, 1.76166, 3.33865, -0.0356336, 0.000526519, -0.00180165, 0.00160509, 0.00140537, 0.00145363, 0.000376514, 0.00227453, 0.00222171, -0.00302844, -0.00257984, -0.00472431, -0.00386469, 0.471009, -0.543388, 0.335895, -2.08385, -2.16584, -0.129886, 0.469133, -0.542695, 0.334446, -2.08276, -2.16407, -0.129761, 0.000221382, 0.000572255, 0.000295798, -0.00202545, -0.001298, -0.00298061
0.0201282, 1.69117, -1.22754, -1.53895, -0.900225, -1.19187, 1.22838, -1.30272, -0.00269736, -0.00315874, -0.00292834, 0.000183091, 0.001907, -0.00102546, -0.000170135, -0.0161054, 63.45, 30.3925, 6.99371, 1.76166, 3.33865, -0.0356336, 0.00052584, -0.00180192, 0.00160533, 0.00140504, 0.00145379, 0.000376884, 0.00243291, 0.00228352, -0.00308409, -0.00264842, -0.00461864, -0.00399546, 0.471009, -0.543387, 0.335895, -2.08384, -2.16584, -0.129885, 0.469133, -0.542695, 0.334446, -2.08276, -2.16407, -0.129761, 0.000279451, 0.000722584, 0.000373459, -0.00202545, -0.001298, -0.00298061
0.0211282, 1.69117, -1.22754, -1.53895, -0.900225, -1.19187, 1.22838, -1.30272, -0.00269736, -0.00315874, -0.00292834, 0.000183091, 0.001907, -0.00102546, -0.000170135, -0.0161054, 63.45, 30.3925, 6.99371, 1.76166, 3.33865, -0.0356336, 0.000524993, -0.00180225, 0.00160563, 0.00140462, 0.00145399, 0.000377345, 0.00260931, 0.00235232, -0.00314605, -0.00272472, -0.00450099, -0.00414103, 0.471009, -0.543386, 0.335895, -2.08384, -2.16584, -0.129884, 0.469133, -0.542695, 0.334446, -2.08276, -2.16407, -0.129761, 0.000344096, 0.000890012, 0.000459939, -0.00202545, -0.001298, -0.00298061
0.0221282, 1.69117, -1.22754, -1.53895, -0.900225, -1.19187, 1.22838, -1.30272, -0.00269736, -0.00315874, -0.00292834, 0.000183091, 0.001907, -0.00102546, -0.000170135, -0.0161054, 63.45, 30.3925, 6.99371, 1.76166, 3.33865, -0.0356336, 0.000523961, -0.00180265, 0.00160599, 0.00140412, 0.00145424, 0.000377907, 0.00280359, 0.00242807, -0.00321427, -0.00280865, -0.00437144, -0.00430126, 0.47101, -0.543385, 0.335896, -2.08384, -2.16584, -0.129884, 0.469133, -0.542695, 0.334446, -2.08276, -2.16407, -0.129761, 0.000415261, 0.00107442, 0.00055517, -0.00202545, -0.001298, -0.00298061
0.0231282, 1.69117, -1.22756, -1.53896, -0.900226, -1.1918, 1.22837, -1.30272, 0.000411472, -0.00109957, -0.000162643, 0.00171992, 0.00837559, -0.00117229, -0.00163834, -0.0161054, 63.5214, 30.3925, 6.95801, 1.66919, 3.38168, -0.0228162, 0.000533654, -0.00179971, 0.00162115, 0.00139565, 0.00153126, 0.000362968, 2.8733e-05, -4.28611e-05, -0.00106063, 0.00282462, -0.00776531, 0.00217518, 0.47101, -0.543384, 0.335896, -2.08384, -2.16585, -0.129883, 0.469135, -0.542682, 0.334433, -2.0827, -2.16405, -0.129849, 0.000492895, 0.00127568, 0.000659086, 0.000498441, 0.00141231, -0.000393961
0.0241282, 1.69117, -1.22756, -1.53896, -0.900231, -1.1918, 1.22836, -1.30272, -0.000564134, -0.00313661, -0.00104289, -0.000523808, 0.00638202, -0.00589147, -0.00183821, 0.0196001, 63.4857, 30.4322, 7.02942, 1.66369, 3.38901, -0.00267457, 0.000533002, -0.00180151, 0.00162411, 0.00140208, 0.00153663, 0.000360322, 0.000302307, 0.00129939, -0.00332313, -0.00415821, -0.0101215, 0.00213429, 0.471011, -0.543383, 0.335897, -2.08384, -2.16585, -0.129882, 0.469134, -0.54268, 0.334431, -2.08269, -2.16405, -0.129846, 0.000576942, 0.00149367, 0.000771622, -0.000829918, 0.00165353, -0.00251748
0.0251282, 1.69117, -1.22756, -1.53896, -0.90023, -1.19179, 1.22836, -1.30272, -0.000378513, -0.0108646, -0.00397426, -0.00167709, 0.00653186, -0.00385039, -0.000954207, 0.0196001, 63.3032, 30.206, 6.95801, 1.61426, 3.37436, -0.00999879, 0.000531691, -0.00180173, 0.00162706, 0.00139343, 0.00154998, 0.000360292, 0.0016418, 0.00102049, -0.0089797, -0.0062049, -0.0164738, 0.00101833, 0.471011, -0.543381, 0.335898, -2.08384, -2.16585, -0.129881, 0.469134, -0.54268, 0.334428, -2.08269, -2.16404, -0.129868, 0.00066735, 0.00172827, 0.000892711, -0.000617273, 0.00144777, -0.00819811
0.0261282, 1.69118, -1.22757, -1.53897, -0.90023, -1.19179, 1.22836, -1.30272, 0.00150908, -0.00505558, -0.00757124, -0.00257594, 0.00696104, -0.00264461, -0.00161948, -0.0557783, 62.7478, 29.9839, 6.88263, 1.55292, 3.36703, 0.0165515, 0.000530987, -0.0018006, 0.00163404, 0.00140419, 0.00155561, 0.000355566, 0.00104557, 0.000332948, -0.00705454, -0.00845316, -0.00989675, 0.00242517, 0.471012, -0.543379, 0.335899, -2.08384, -2.16585, -0.129879, 0.469136, -0.542677, 0.334422, -2.08268, -2.16404, -0.129861, 0.000764066, 0.00197936, 0.00102229, 0.000214266, 0.0020193, -0.00609577
0.0271282, 1.69118, -1.22757, -1.53898, -0.900238, -1.19179, 1.22836, -1.30272, 0.00360314, -0.00252847, -0.00884945, -0.00439973, 0.00831639, -0.00178743, -0.00155437, -0.166862, 61.9742, 29.6863, 6.84296, 1.46045, 3.36062, 0.0293689, 0.00053281, -0.00179691, 0.00164048, 0.00141719, 0.00155665, 0.000345126, -0.000292982, -0.00117856, -0.00641, -0.0092979, -0.00757061, 0.00558573, 0.471013, -0.543377, 0.3359, -2.08384, -2.16585, -0.129878, 0.46914, -0.542672, 0.334417, -2.08266, -2.16405, -0.129847, 0.000867038, 0.00224682, 0.00116028, 0.00180219, 0.00357087, -0.00515915
0.0281282, 1.69119, -1.22758, -1.539, -0.900243, -1.19179, 1.22836, -1.30272, 0.00968253, -0.00516723, -0.0093882, -0.00185359, 0.00752962, -0.00243907, -0.000324172, -0.206535, 61.3513, 29.3888, 6.77154, 1.41192, 3.38901, 0.0101428, 0.000529212, -0.00179747, 0.00165766, 0.00143895, 0.0015718, 0.00035085, -0.00148975, -0.00365005, -0.00828016, -0.0107892, -0.00967838, 0.00740783, 0.471014, -0.543375, 0.335901, -2.08384, -2.16585, -0.129876, 0.46914, -0.542671, 0.334401, -2.08264, -2.16403, -0.129836, 0.000976211, 0.00253053, 0.00130664, 0.00426933, 0.00542504, -0.0067482
0.0291282, 1.69119, -1.22759, -1.53902, -0.900244, -1.19179, 1.22836, -1.30272, 0.00698371, -0.00591454, -0.013914, -0.00125803, 0.00607643, -0.0023158, -0.00143682, -0.206535, 60.6491, 29.0912, 6.62079, 1.38721, 3.40365, 0.0431018, 0.000521455, -0.00180068, 0.00167363, 0.00146025, 0.00157877, 0.000357925, 0.00151094, -0.000954698, -0.0102002, -0.0148096, -0.00880677, 0.00242506, 0.471015, -0.543372, 0.335903, -2.08383, -2.16585, -0.129874, 0.469137, -0.542674, 0.334385, -2.08263, -2.16401, -0.129817, 0.00109153, 0.00283037, 0.00146128, 0.00173077, 0.00294771, -0.00887392
0.0301282, 1.6912, -1.22762, -1.53904, -0.900254, -1.19179, 1.22836, -1.30271, 0.010815, -0.0122688, -0.0170018, -0.00142985, 0.00395337, 0.00817336, 0.000500184, -0.317619, 60.173, 28.8294, 6.62079, 1.3927, 3.40365, 0.00373412, 0.000518477, -0.00179739, 0.0016987, 0.0014886, 0.00159713, 0.000356543, 0.0028429, -0.00426413, -0.0144519, -0.0107361, -0.0076555, 0.00206314, 0.471016, -0.543369, 0.335904, -2.08383, -2.16585, -0.129871, 0.469141, -0.542669, 0.334362, -2.0826, -2.16399, -0.129802, 0.00121295, 0.00314621, 0.00162416, 0.00505146, 0.0027384, -0.0132158
0.0311282, 1.69121, -1.22765, -1.53906, -0.900256, -1.1918, 1.22836, -1.30271, 0.010949, -0.0164838, -0.0181052, 0.00120185, 0.000883928, 0.00777877, 0.00107944, -0.317619, 59.9509, 28.4565, 6.5097, 1.44214, 3.36062, -0.0164075, 0.000510552, -0.00179648, 0.00172454, 0.00150552, 0.00161955, 0.000361777, 0.0051032, -0.0030794, -0.0171193, -0.0127465, -0.00945878, -0.00245664, 0.471017, -0.543366, 0.335906, -2.08383, -2.16586, -0.129869, 0.469142, -0.54267, 0.334336, -2.08258, -2.16397, -0.129803, 0.00134042, 0.00347794, 0.00179519, 0.00398025, 0.00120072, -0.0159936
0.0321282, 1.69121, -1.22768, -1.53909, -0.900263, -1.1918, 1.22837, -1.30271, 0.00937483, -0.0181715, -0.0173383, 0.00223194, -0.00118222, 0.00814546, 0.000956986, -0.242241, 59.693, 28.274, 6.43433, 1.49158, 3.29562, -0.0228162, 0.000498959, -0.00179883, 0.00175244, 0.00152711, 0.00163783, 0.000372147, 0.00691862, -0.00182349, -0.0177098, -0.0122827, -0.00921174, -0.00538269, 0.471019, -0.543362, 0.335908, -2.08383, -2.16586, -0.129866, 0.469141, -0.542674, 0.334309, -2.08257, -2.16394, -0.129793, 0.00147388, 0.00382545, 0.00197432, 0.00290302, -0.000204554, -0.0166414
0.0331282, 1.69122, -1.22772, -1.53912, -0.900268, -1.19181, 1.22839, -1.30271, 0.00843409, -0.0252946, -0.0178181, -0.000158699, -0.00165901, 0.00821799, 0.000400632, -0.166862, 59.693, 28.0478, 6.35895, 1.5163, 3.23153, -0.0164075, 0.000488737, -0.00179696, 0.00178637, 0.00154523, 0.00166749, 0.000374075, 0.00787715, -0.0016843, -0.0224739, -0.0146069, -0.015418, -0.00423682, 0.47102, -0.543358, 0.33591, -2.08382, -2.16586, -0.129863, 0.469143, -0.542674, 0.334276, -2.08255, -2.16392, -0.1298, 0.00161328, 0.0041886, 0.00216148, 0.00276564, -6.01726e-05, -0.021303
0.0341282, 1.69123, -1.22774, -1.53913, -0.900272, -1.19181, 1.22839, -1.30271, 0.0119877, -0.0245897, -0.0127729, -0.00195846, -0.00175068, 0.0068743, 0.000267088, -0.131157, 59.4708, 27.8257, 6.28357, 1.53461, 3.20224, -0.0164075, 0.000482328, -0.00179412, 0.00180654, 0.00156089, 0.00167698, 0.000373122, 0.004929, -0.00454563, -0.0209639, -0.0129268, -0.0150979, 0.00303772, 0.471022, -0.543354, 0.335912, -2.08382, -2.16586, -0.12986, 0.469147, -0.542673, 0.334257, -2.08253, -2.16391, -0.129789, 0.00175856, 0.00456728, 0.0023566, 0.00571758, 0.00311372, -0.0192456
0.0351282, 1.69124, -1.22776, -1.53916, -0.900277, -1.19181, 1.2284, -1.30271, 0.0143175, -0.0234216, -0.0185557, -0.00328477, -0.00469536, 0.00532442, 0.00412535, -0.0914839, 59.3597, 27.7503, 6.20819, 1.50348, 3.18851, 0.00373412, 0.000476326, -0.00179098, 0.00183151, 0.00158009, 0.0016973, 0.000372083, 0.00542909, -0.00433263, -0.022917, -0.0217798, -0.0114503, -0.00148568, 0.471024, -0.543349, 0.335915, -2.08382, -2.16586, -0.129856, 0.469152, -0.54267, 0.334234, -2.0825, -2.16389, -0.129785, 0.00190969, 0.00496137, 0.00255964, 0.00560329, 0.00330599, -0.0210424
0.0361282, 1.69125, -1.22779, -1.53917, -0.900279, -1.19181, 1.22841, -1.30272, 0.0152944, -0.0243659, -0.013795, -0.000304323, -0.00796691, 0.00372431, 0.00144592, -0.0161054, 59.4708, 27.5638, 6.09711, 1.49707, 3.18851, 0.0495105, 0.000470812, -0.0017858, 0.00185402, 0.00158578, 0.00171969, 0.000359147, 0.00589032, -0.00424261, -0.0217131, -0.0195294, -0.010756, 0.000407877, 0.471026, -0.543344, 0.335917, -2.08381, -2.16587, -0.129852, 0.469158, -0.542667, 0.334213, -2.08247, -2.16389, -0.129799, 0.0020666, 0.00537076, 0.00277051, 0.00573024, 0.00307103, -0.0197116
0.0371282, 1.69125, -1.22779, -1.53917, -0.900279, -1.19181, 1.22841, -1.30272, 0.0152944, -0.0243659, -0.013795, -0.000304323, -0.00796691, 0.00372431, 0.00144592, -0.0161054, 59.4708, 27.5638, 6.09711, 1.49707, 3.18851, 0.0495105, 0.00046494, -0.00178808, 0.00185609, 0.00158291, 0.00172107, 0.00036232, 0.00633756, -0.00406943, -0.0218695, -0.0197191, -0.0104593, 4.21107e-05, 0.471028, -0.543338, 0.33592, -2.08381, -2.16587, -0.129848, 0.469158, -0.542667, 0.334213, -2.08247, -2.16389, -0.129799, 0.00222924, 0.00579533, 0.00298915, 0.00573024, 0.00307103, -0.0197116
0.0381282, 1.69125, -1.22779, -1.53917, -0.900279, -1.19181, 1.22841, -1.30272, 0.0152944, -0.0243659, -0.013795, -0.000304323, -0.00796691, 0.00372431, 0.00144592, -0.0161054, 59.4708, 27.5638, 6.09711, 1.49707, 3.18851, 0.0495105, 0.000458613, -0.00179053, 0.00185831, 0.00157981, 0.00172255, 0.000365737, 0.00680066, -0.00389019, -0.0220314, -0.0199153, -0.010152, -0.000336401, 0.47103, -0.543332, 0.335923, -2.0838, -2.16587, -0.129843, 0.469158, -0.542667, 0.334213, -2.08247, -2.16389, -0.129799, 0.00239756, 0.00623496, 0.00321551, 0.00573024, 0.00307103, -0.0197116
0.0391282, 1.69125, -1.22779, -1.53917, -0.900279, -1.19181, 1.22841, -1.30272, 0.0152944, -0.0243659, -0.013795, -0.000304323, -0.00796691, 0.00372431, 0.00144592, -0.0161054, 59.4708, 27.5638, 6.09711, 1.49707, 3.18851, 0.0495105, 0.000451816, -0.00179317, 0.00186071, 0.00157648, 0.00172414, 0.000369407, 0.0072795, -0.00370495, -0.0221988, -0.0201179, -0.0098345, -0.000727541, 0.471033, -0.543326, 0.335927, -2.0838, -2.16588, -0.129838, 0.469158, -0.542667, 0.334213, -2.08247, -2.16389, -0.129799, 0.00257152, 0.00668953, 0.00344951, 0.00573024, 0.00307103, -0.0197116
0.0401282, 1.69125, -1.22779, -1.53917, -0.900279, -1.19181, 1.22841, -1.30272, 0.0152944, -0.0243659, -0.013795, -0.000304323, -0.00796691, 0.00372431, 0.00144592, -0.0161054, 59.4708, 27.5638, 6.09711, 1.49707, 3.18851, 0.0495105, 0.000444533, -0.00179599, 0.00186327, 0.00157292, 0.00172585, 0.000373337, 0.00777394, -0.00351376, -0.0223716, -0.0203269, -0.00950671, -0.00113119, 0.471035, -0.543319, 0.33593, -2.08379, -2.16588, -0.129833, 0.469158, -0.542667, 0.334213, -2.08247, -2.16389, -0.129799, 0.00275106, 0.00715892, 0.0036911, 0.00573024, 0.00307103, -0.0197116
0.0411282, 1.69131, -1.22782, -1.53923, -0.90034, -1.19182, 1.22846, -1.30272, 0.00990584, -0.00944922, -0.00559913, -0.0115191, -0.0033173, 0.0127875, 0.000717069, 1.15424, 59.7287, 27.9011, 6.17248, 1.38721, 3.26724, 0.0431018, 0.000460993, -0.00175264, 0.00191155, 0.00161938, 0.00171985, 0.000293804, 0.00427494, -0.00615379, -0.0113561, -0.0065748, 0.00665368, 0.00890627, 0.471038, -0.543312, 0.335934, -2.08379, -2.16589, -0.129827, 0.469202, -0.542634, 0.334171, -2.08236, -2.16397, -0.129743, 0.00293613, 0.00764302, 0.00394021, 0.00882464, 0.00542234, -0.00812205
0.0421282, 1.69133, -1.22781, -1.53924, -0.90035, -1.19182, 1.22846, -1.30272, 0.0104639, -0.00757842, -0.004913, -0.0105913, -0.00267184, 0.0167727, -0.000401781, 1.49146, 59.7644, 28.0875, 6.13678, 1.38721, 3.33865, 0.0687366, 0.000457961, -0.0017481, 0.00191677, 0.00162486, 0.0017109, 0.00028344, 0.00479798, -0.00694586, -0.00974911, -0.00192141, 0.0101996, 0.00984616, 0.471041, -0.543304, 0.335938, -2.08378, -2.16589, -0.129821, 0.46921, -0.542628, 0.334169, -2.08235, -2.16399, -0.129723, 0.00312667, 0.00814172, 0.00419678, 0.00988301, 0.00518982, -0.00638381
0.0431282, 1.69134, -1.22781, -1.53924, -0.900365, -1.19181, 1.22847, -1.30272, 0.00856845, -0.00714831, -0.00391553, -0.0148319, -0.00165174, 0.0107931, 0.000496429, 1.79694, 59.8398, 28.1232, 6.17248, 1.37439, 3.39633, 0.0495105, 0.000459795, -0.00173983, 0.00192037, 0.00162073, 0.00171116, 0.000260505, 0.00384898, -0.0058089, -0.0103424, -0.00768159, 0.00744062, 0.0111644, 0.471044, -0.543295, 0.335942, -2.08378, -2.16589, -0.129815, 0.469221, -0.542617, 0.33417, -2.08232, -2.16402, -0.129724, 0.00332265, 0.00865489, 0.00446074, 0.00888806, 0.00668461, -0.00652408
0.0441282, 1.69135, -1.22781, -1.53924, -0.900375, -1.19181, 1.22848, -1.30271, 0.0095851, -0.00677837, -0.00599056, -0.0156, -0.000444552, 0.0107692, 0.00182817, 2.13416, 59.9152, 28.274, 6.09711, 1.34967, 3.46042, 0.0101428, 0.000454401, -0.00173679, 0.00192983, 0.00162435, 0.00171199, 0.00025944, 0.00388044, -0.00609555, -0.0112171, -0.00968153, 0.00740977, 0.0104559, 0.471048, -0.543286, 0.335947, -2.08377, -2.1659, -0.129808, 0.469227, -0.542612, 0.334164, -2.08231, -2.16402, -0.129714, 0.003524, 0.00918243, 0.00473204, 0.00934516, 0.00732746, -0.00713006
0.0451282, 1.69136, -1.22782, -1.53925, -0.900391, -1.19181, 1.22849, -1.30272, 0.0116648, -0.00721177, -0.00555444, -0.018011, -0.000727919, 0.00800628, 0.00029871, 2.28492, 60.0223, 28.3454, 6.09711, 1.35608, 3.47507, 0.0357776, 0.000455762, -0.00172463, 0.00194172, 0.00162381, 0.00171787, 0.00022714, 0.00253051, -0.00712757, -0.0122014, -0.0135777, 0.00646644, 0.015809, 0.471051, -0.543277, 0.335952, -2.08376, -2.1659, -0.129801, 0.469242, -0.542599, 0.334157, -2.08226, -2.16406, -0.129717, 0.00373068, 0.00972421, 0.00501061, 0.0104985, 0.00939572, -0.00764518
0.0461282, 1.69137, -1.22783, -1.53926, -0.900393, -1.19181, 1.2285, -1.30271, 0.010133, -0.00930993, -0.00621914, -0.01556, -0.000393564, 0.00504213, 0.0011706, 2.55073, 60.2087, 28.4565, 5.91064, 1.34967, 3.51077, 0.0101428, 0.00044521, -0.0017227, 0.00195507, 0.00162015, 0.00172313, 0.000232029, 0.0044818, -0.00491097, -0.0137134, -0.015597, 0.00280525, 0.0106337, 0.471055, -0.543267, 0.335957, -2.08375, -2.16591, -0.129793, 0.469248, -0.542597, 0.334148, -2.08226, -2.16406, -0.129718, 0.00394263, 0.0102801, 0.00529638, 0.00851197, 0.00816707, -0.00908826
0.0471282, 1.6914, -1.22785, -1.53927, -0.900399, -1.19182, 1.2285, -1.30271, 0.0146571, -0.00916859, -0.00761086, -0.0115889, -0.00128714, 0.00308053, 0.00103428, 2.58643, 60.4666, 28.6072, 5.76385, 1.37439, 3.53915, 0.00373412, 0.000441244, -0.00171356, 0.00197346, 0.00162885, 0.00173351, 0.000217479, 0.00450003, -0.005624, -0.0141932, -0.0179945, 0.00298768, 0.0103014, 0.471059, -0.543256, 0.335962, -2.08375, -2.16592, -0.129785, 0.469261, -0.542587, 0.334134, -2.08223, -2.16407, -0.129712, 0.00415982, 0.0108501, 0.00558931, 0.00942451, 0.00882205, -0.00929345
0.0481282, 1.69142, -1.22787, -1.53927, -0.900402, -1.19182, 1.22852, -1.30271, 0.0185915, -0.00879465, -0.00762608, -0.00802854, -0.00141473, 0.00685532, 0.000939266, 2.70148, 60.7245, 28.7183, 5.57739, 1.38721, 3.5538, -0.00267457, 0.000435448, -0.00170354, 0.00199008, 0.00162304, 0.00174373, 0.000203751, 0.00481149, -0.00746673, -0.0135767, -0.0139353, 0.00555055, 0.0106055, 0.471064, -0.543245, 0.335968, -2.08374, -2.16592, -0.129777, 0.469275, -0.542579, 0.334122, -2.0822, -2.16409, -0.129722, 0.00438218, 0.0114339, 0.00588931, 0.0115206, 0.0090791, -0.00848871
0.0491282, 1.69144, -1.22789, -1.53928, -0.900405, -1.19182, 1.22852, -1.30271, 0.0145321, -0.014926, -0.00941104, -0.00540952, -0.00168277, 0.00407827, 0.000635469, 2.85224, 61.1292, 28.9048, 5.38696, 1.40552, 3.58951, -0.00267457, 0.000426708, -0.00169758, 0.0020115, 0.00162623, 0.00176124, 0.000195183, 0.00872639, -0.00361949, -0.0176982, -0.0169311, -0.00153634, 0.0032615, 0.471068, -0.543234, 0.335974, -2.08373, -2.16593, -0.129768, 0.469285, -0.542572, 0.334105, -2.08217, -2.16409, -0.129728, 0.00460967, 0.0120315, 0.00619634, 0.00789705, 0.00628821, -0.0127426
0.0501282, 1.69146, -1.2279, -1.53929, -0.900408, -1.19182, 1.22854, -1.30271, 0.016417, -0.010887, -0.00801123, -0.00457256, -0.00228691, 0.00739796, 0.000193256, 2.92762, 61.3116, 28.9802, 5.24017, 1.43573, 3.61148, 0.00373412, 0.000422591, -0.00168575, 0.00202195, 0.00161917, 0.00175939, 0.000175975, 0.00857916, -0.00495548, -0.0147461, -0.0129319, 0.00494493, 0.00470581, 0.471073, -0.543221, 0.335981, -2.08372, -2.16594, -0.129759, 0.469301, -0.542562, 0.334101, -2.08215, -2.16412, -0.129727, 0.00484224, 0.0126428, 0.00651033, 0.00956536, 0.00664537, -0.00953111
0.0511282, 1.69149, -1.22791, -1.5393, -0.900406, -1.19183, 1.22856, -1.30271, 0.0210705, -0.013739, -0.00968299, -0.000761928, -0.00362758, 0.0100975, -0.00105273, 3.11805, 61.6092, 29.1666, 5.08942, 1.49158, 3.62521, 0.0357776, 0.000411906, -0.00167801, 0.00203842, 0.00161395, 0.00176222, 0.000165974, 0.00946224, -0.00656253, -0.0167248, -0.0120998, 0.00488967, 0.0054742, 0.471078, -0.543208, 0.335987, -2.08371, -2.16594, -0.129749, 0.469313, -0.542557, 0.334089, -2.08213, -2.16414, -0.129727, 0.00507984, 0.0132677, 0.00683122, 0.0113679, 0.00676881, -0.0113497
0.0521282, 1.6915, -1.22792, -1.53931, -0.900408, -1.19183, 1.22858, -1.30271, 0.019798, -0.0125006, -0.00987436, -0.00184536, -0.00380064, 0.00802386, -0.000969168, 3.37989, 61.9028, 29.3134, 4.97833, 1.5282, 3.6188, 0.0431018, 0.000400168, -0.00167155, 0.00205257, 0.00160279, 0.0017634, 0.000159267, 0.0101197, -0.00537673, -0.0165642, -0.0146429, 0.00575099, 0.00436676, 0.471083, -0.543195, 0.335994, -2.0837, -2.16595, -0.129738, 0.469325, -0.542552, 0.33408, -2.08212, -2.16416, -0.129731, 0.00532241, 0.013906, 0.00715894, 0.0104556, 0.00668463, -0.0109295
0.0531282, 1.69154, -1.22793, -1.53931, -0.900418, -1.19184, 1.2286, -1.30271, 0.0233687, -0.0129972, -0.0100984, -0.00301346, -0.0041469, 0.0155332, -0.000134546, 3.45527, 62.1249, 29.4642, 5.01404, 1.57123, 3.63254, 0.0293689, 0.000397178, -0.00165426, 0.00206683, 0.00159842, 0.00175619, 0.00013263, 0.00981807, -0.00868167, -0.0168669, -0.00991323, 0.00993465, 0.00730733, 0.471088, -0.54318, 0.336002, -2.08369, -2.16596, -0.129728, 0.469347, -0.542538, 0.334072, -2.08209, -2.1642, -0.12972, 0.00556992, 0.0145576, 0.00749345, 0.0139819, 0.0078163, -0.010947
0.0541282, 1.69156, -1.22794, -1.53932, -0.900417, -1.19185, 1.22862, -1.30271, 0.0232446, -0.0101959, -0.0101577, -0.00104954, -0.00505104, 0.0208524, -0.000596119, 3.6457, 62.3431, 29.611, 4.94263, 1.63257, 3.63986, 0.0431018, 0.000386784, -0.00164317, 0.00207936, 0.00158735, 0.00174694, 0.000119647, 0.0116397, -0.00871499, -0.0147421, -0.0048683, 0.0163873, 0.00497646, 0.471094, -0.543166, 0.336009, -2.08368, -2.16597, -0.129716, 0.469364, -0.542531, 0.334066, -2.08207, -2.16423, -0.129713, 0.00582231, 0.0152225, 0.00783467, 0.0144099, 0.00635723, -0.00879139
0.0551282, 1.69159, -1.22795, -1.53932, -0.900424, -1.19186, 1.22864, -1.30271, 0.021665, -0.0105945, -0.00936408, -0.00206816, -0.00520935, 0.0193235, -0.000395759, 3.90754, 62.5296, 29.722, 4.97833, 1.68201, 3.67557, 0.0431018, 0.000376479, -0.00163283, 0.00209064, 0.00157508, 0.00173606, 0.000105805, 0.0124967, -0.00763122, -0.0151352, -0.00614375, 0.0158233, 0.00386767, 0.4711, -0.54315, 0.336017, -2.08367, -2.16597, -0.129705, 0.46938, -0.542524, 0.334061, -2.08206, -2.16427, -0.129705, 0.00607953, 0.0159004, 0.00818254, 0.0136012, 0.0062052, -0.00893184
0.0561282, 1.69159, -1.22795, -1.53932, -0.900424, -1.19186, 1.22864, -1.30271, 0.021665, -0.0105945, -0.00936408, -0.00206816, -0.00520935, 0.0193235, -0.000395759, 3.90754, 62.5296, 29.722, 4.97833, 1.68201, 3.67557, 0.0431018, 0.00035939, -0.00163942, 0.00209663, 0.00156673, 0.00173999, 0.000114958, 0.0132244, -0.00735191, -0.0153884, -0.00644499, 0.0163031, 0.00327936, 0.471106, -0.543134, 0.336026, -2.08366, -2.16598, -0.129692, 0.46938, -0.542524, 0.334061, -2.08206, -2.16427, -0.129705, 0.00634154, 0.0165914, 0.00853701, 0.0136012, 0.0062052, -0.00893184
0.0571282, 1.69165, -1.22794, -1.53934, -0.900438, -1.19188, 1.22868, -1.30272, 0.0275772, -0.00547949, -0.00404848, -0.00380581, -0.00809746, 0.0191904, 0.00302736, 4.3241, 62.7478, 29.9839, 5.08942, 1.72504, 3.79733, 0.0559192, 0.00036315, -0.00160605, 0.00210846, 0.00155996, 0.00170652, 6.2299e-05, 0.00980057, -0.0112668, -0.0113187, -0.00488886, 0.0241822, 0.00811329, 0.471113, -0.543117, 0.336034, -2.08364, -2.16599, -0.129679, 0.469419, -0.5425, 0.334057, -2.08201, -2.16435, -0.129671, 0.00660828, 0.0172953, 0.00889802, 0.0178023, 0.00982397, -0.00413961
0.0581282, 1.69168, -1.22794, -1.53934, -0.900441, -1.19188, 1.2287, -1.30271, 0.0292435, -0.00365689, -0.00401507, -0.00276217, -0.00579526, 0.0215914, 0.00280754, 4.55024, 62.8986, 30.0593, 5.08942, 1.72504, 3.87607, 0.0431018, 0.00035536, -0.00159247, 0.00211684, 0.00154615, 0.0016943, 4.34081e-05, 0.00974204, -0.0123508, -0.010231, -0.00162302, 0.0257554, 0.00920744, 0.471119, -0.543099, 0.336043, -2.08363, -2.166, -0.129666, 0.46944, -0.542488, 0.334056, -2.08199, -2.1644, -0.129663, 0.00687971, 0.0180119, 0.00926549, 0.0191936, 0.0104757, -0.00272183
0.0591282, 1.69172, -1.22794, -1.53935, -0.90045, -1.19189, 1.22872, -1.30271, 0.0313848, -0.00206609, -0.0049398, -0.00685481, -0.00861345, 0.0187137, 0.00332833, 4.74067, 63.0453, 30.1703, 5.16479, 1.71863, 3.94839, 0.0101428, 0.000349798, -0.00157498, 0.00212552, 0.00153369, 0.00167667, 1.89912e-05, 0.00864563, -0.0131353, -0.0108235, -0.00870838, 0.0292144, 0.0123505, 0.471126, -0.543081, 0.336053, -2.08362, -2.16601, -0.129652, 0.469464, -0.542473, 0.334056, -2.08197, -2.16445, -0.129647, 0.00715578, 0.0187412, 0.00963939, 0.0201923, 0.0124109, -0.00278667
0.0601282, 1.69176, -1.22794, -1.53935, -0.90045, -1.1919, 1.22875, -1.30271, 0.0366766, 0.00216349, -0.00564013, -0.00411798, -0.011623, 0.0175208, 0.00314183, 4.89143, 63.1921, 30.2814, 5.12909, 1.73053, 3.99783, -0.00999879, 0.000341485, -0.0015575, 0.00213354, 0.00151731, 0.00165504, -1.29603e-06, 0.00811069, -0.0144367, -0.00886244, -0.0112544, 0.035788, 0.0133162, 0.471134, -0.543062, 0.336063, -2.0836, -2.16602, -0.129638, 0.469489, -0.54246, 0.334056, -2.08195, -2.1645, -0.129631, 0.00743644, 0.0194831, 0.0100196, 0.0218244, 0.0134328, -0.000426541
0.0611282, 1.69179, -1.22795, -1.53935, -0.900446, -1.19191, 1.22878, -1.30271, 0.0338821, 0.000700788, -0.00357144, -0.00126958, -0.0135383, 0.01764, 0.00148128, 5.07789, 63.4103, 30.2814, 5.05371, 1.73694, 4.02713, 0.0101428, 0.000331119, -0.00154172, 0.0021417, 0.00148874, 0.00164486, -2.29635e-05, 0.0110888, -0.0121257, -0.00871205, -0.0088934, 0.0360108, 0.00946407, 0.471141, -0.543042, 0.336073, -2.08359, -2.16603, -0.129623, 0.469512, -0.542449, 0.334056, -2.08193, -2.16455, -0.12964, 0.00772164, 0.0202374, 0.0104062, 0.0199142, 0.011129, -0.000283564
0.0621282, 1.69183, -1.22796, -1.53937, -0.900445, -1.19192, 1.22881, -1.30271, 0.0373555, -0.00235924, -0.00836441, 0.000701233, -0.0150089, 0.0222921, 0.00156177, 5.26832, 63.7079, 30.5433, 4.97833, 1.74335, 4.04819, -0.00267457, 0.000316967, -0.00152672, 0.00216131, 0.00147833, 0.00163611, -3.66471e-05, 0.0129949, -0.013222, -0.0119935, -0.00991983, 0.0372433, 0.00769573, 0.471149, -0.543021, 0.336083, -2.08357, -2.16604, -0.129607, 0.469535, -0.542439, 0.334045, -2.08191, -2.16458, -0.129628, 0.00801134, 0.0210041, 0.0107989, 0.0212483, 0.0105638, -0.00345998
0.0631282, 1.69188, -1.22797, -1.53937, -0.900439, -1.19193, 1.22884, -1.30271, 0.0399217, -0.00654163, -0.00630538, 0.00290423, -0.0113801, 0.0258282, 0.000878476, 5.3437, 63.9658, 30.579, 4.86725, 1.74884, 4.07016, 0.00373412, 0.000306898, -0.00150709, 0.00217532, 0.0014551, 0.001629, -6.13772e-05, 0.0129413, -0.0153503, -0.0135244, -0.00339311, 0.0321457, 0.0106013, 0.471157, -0.543, 0.336094, -2.08356, -2.16606, -0.129591, 0.469562, -0.542424, 0.33404, -2.08189, -2.16463, -0.129633, 0.00830549, 0.021783, 0.0111979, 0.0236105, 0.0117188, -0.00462886
0.0641282, 1.69192, -1.22798, -1.53938, -0.900437, -1.19194, 1.22886, -1.30271, 0.0416271, -0.0086677, -0.00588724, 0.0035781, -0.00893947, 0.0288666, -0.000545155, 5.41908, 64.184, 30.6544, 4.79187, 1.76166, 4.07748, 0.0357776, 0.000295272, -0.00148884, 0.00218982, 0.00143493, 0.00161845, -8.42347e-05, 0.013161, -0.0167809, -0.0146441, 0.000287632, 0.0300441, 0.0135034, 0.471166, -0.542978, 0.336106, -2.08354, -2.16607, -0.129574, 0.469589, -0.542411, 0.334034, -2.08186, -2.16468, -0.12963, 0.00860403, 0.0225739, 0.011603, 0.0253051, 0.0125242, -0.00540695
0.0651282, 1.69196, -1.22798, -1.53939, -0.900435, -1.19195, 1.2289, -1.30271, 0.039612, -0.00954204, -0.00906205, 0.00229444, -0.00773716, 0.0312884, 0.00110271, 5.6095, 64.3704, 30.8765, 4.79187, 1.79187, 4.08389, -0.00267457, 0.000279699, -0.00147312, 0.00220736, 0.00142022, 0.00160439, -9.83896e-05, 0.0152747, -0.0156487, -0.0164377, -0.00053907, 0.030197, 0.00920256, 0.471175, -0.542955, 0.336118, -2.08352, -2.16608, -0.129557, 0.469613, -0.5424, 0.334026, -2.08185, -2.16472, -0.129617, 0.00890693, 0.0233769, 0.0120141, 0.0244882, 0.0114698, -0.00706048
0.0661282, 1.692, -1.22799, -1.53939, -0.90043, -1.19196, 1.22892, -1.30271, 0.0387818, -0.0075832, -0.00692462, 0.00322464, -0.0105845, 0.0277096, 0.000766633, 5.79597, 64.4418, 30.9162, 4.71649, 1.79828, 4.10586, -0.00267457, 0.000264336, -0.00145881, 0.00221855, 0.00139635, 0.00159065, -0.000114144, 0.0163408, -0.0140128, -0.0149673, -0.00272306, 0.0330294, 0.00725672, 0.471184, -0.542931, 0.33613, -2.0835, -2.16609, -0.129539, 0.469637, -0.542389, 0.334024, -2.08183, -2.16477, -0.129613, 0.00921413, 0.0241918, 0.0124312, 0.0232534, 0.0109388, -0.00530728
0.0671282, 1.69205, -1.22799, -1.5394, -0.900425, -1.19198, 1.22895, -1.30271, 0.0448177, -0.00648226, -0.00625327, 0.00293381, -0.0136642, 0.0295159, -0.000177368, 5.83564, 64.5172, 30.9876, 4.68079, 1.82941, 4.12692, 0.0165515, 0.000252708, -0.00143825, 0.00222928, 0.00137423, 0.00157004, -0.000138484, 0.0149987, -0.0172134, -0.0145837, -0.00334252, 0.0382818, 0.0129892, 0.471193, -0.542906, 0.336143, -2.08349, -2.16611, -0.12952, 0.469666, -0.542373, 0.334024, -2.08181, -2.16483, -0.1296, 0.0095256, 0.0250185, 0.0128543, 0.026727, 0.0131635, -0.00439442
0.0681282, 1.6921, -1.22798, -1.53941, -0.900419, -1.19199, 1.22898, -1.30271, 0.0441735, -0.00323396, -0.00683493, 0.00368073, -0.01075, 0.0263913, -0.00108387, 5.94672, 64.4815, 31.1027, 4.60541, 1.84772, 4.14889, 0.0431018, 0.00023824, -0.0014217, 0.00223835, 0.00135389, 0.00154752, -0.0001587, 0.0153036, -0.0159431, -0.0133235, -0.0048408, 0.038117, 0.0125353, 0.471203, -0.542881, 0.336156, -2.08347, -2.16612, -0.129501, 0.469693, -0.54236, 0.334025, -2.08179, -2.16489, -0.129583, 0.00984127, 0.0258569, 0.0132832, 0.0258307, 0.0134548, -0.00272993
0.0691282, 1.69214, -1.22798, -1.53942, -0.900409, -1.192, 1.22901, -1.30271, 0.0428625, -0.0010387, -0.00713619, 0.0050235, -0.0085666, 0.0238842, 0.000274048, 6.09748, 64.4418, 31.2137, 4.49432, 1.86603, 4.16995, 0.0165515, 0.000219483, -0.00140858, 0.00224575, 0.00132772, 0.00152311, -0.000165047, 0.016343, -0.0142604, -0.012415, -0.00560506, 0.0377257, 0.00853674, 0.471213, -0.542854, 0.336169, -2.08345, -2.16613, -0.129481, 0.469716, -0.542351, 0.334028, -2.08179, -2.16493, -0.129568, 0.0101611, 0.0267069, 0.013718, 0.0245406, 0.0130697, -0.00150832
0.0701282, 1.69219, -1.22798, -1.53942, -0.90041, -1.19202, 1.22904, -1.30271, 0.0452467, -0.00147855, -0.00557851, 0.00249219, -0.0116368, 0.0222112, -0.000790681, 6.09748, 64.4815, 31.2494, 4.53003, 1.88434, 4.1846, 0.0431018, 0.000208674, -0.00138599, 0.00225831, 0.00130761, 0.00150334, -0.000200983, 0.0155892, -0.0154472, -0.0130579, -0.00910547, 0.0397628, 0.0131773, 0.471223, -0.542827, 0.336183, -2.08343, -2.16615, -0.129461, 0.469749, -0.542331, 0.334028, -2.08176, -2.165, -0.129554, 0.0104851, 0.0275683, 0.0141585, 0.0259994, 0.0148233, -0.00162176
0.0711282, 1.69224, -1.22798, -1.53943, -0.900403, -1.19204, 1.22906, -1.30271, 0.0446872, 4.87715e-05, -0.00723486, 0.00647039, -0.0156499, 0.0212158, -0.000757006, 6.17286, 64.4418, 31.4002, 4.45465, 1.94568, 4.19925, 0.0495105, 0.000188879, -0.00137307, 0.00226937, 0.00129613, 0.00147434, -0.000212195, 0.018829, -0.0129415, -0.0125738, -0.0115588, 0.044425, 0.00620788, 0.471234, -0.542799, 0.336197, -2.08341, -2.16616, -0.12944, 0.469773, -0.542321, 0.334028, -2.08174, -2.16505, -0.129517, 0.0108131, 0.0284411, 0.0146048, 0.0239596, 0.0123199, -0.00112393
0.0721282, 1.69229, -1.22798, -1.53943, -0.900397, -1.19205, 1.22909, -1.30271, 0.0456124, 0.00152083, -0.00481527, 0.00850112, -0.0132648, 0.0254411, 0.000484279, 6.21253, 64.5172, 31.4002, 4.41894, 1.99512, 4.19925, 0.0229602, 0.000170587, -0.00135853, 0.00227978, 0.00127251, 0.00145477, -0.000226263, 0.0192786, -0.0140937, -0.0105692, -0.0040928, 0.0463323, 0.00528959, 0.471245, -0.54277, 0.336212, -2.08339, -2.16618, -0.129418, 0.469799, -0.542308, 0.334029, -2.08173, -2.1651, -0.129503, 0.0111452, 0.0293251, 0.0150567, 0.0255316, 0.0124996, 0.00120266
0.0731282, 1.69233, -1.22797, -1.53944, -0.900401, -1.19207, 1.22912, -1.30271, 0.0439743, 0.00851421, -0.00663788, 0.00527357, -0.0160951, 0.0245126, -0.000418929, 6.21253, 64.4815, 31.547, 4.45465, 2.04364, 4.1846, 0.0431018, 0.000153262, -0.00134175, 0.00228919, 0.001258, 0.00141881, -0.00025068, 0.0201791, -0.0125992, -0.00787568, -0.00888481, 0.0561248, 0.00470213, 0.471256, -0.542741, 0.336228, -2.08336, -2.16619, -0.129396, 0.469827, -0.542293, 0.334032, -2.08171, -2.16517, -0.129463, 0.0114812, 0.0302203, 0.0155142, 0.024506, 0.01203, 0.00422557
0.0741282, 1.69239, -1.22796, -1.53944, -0.900389, -1.1921, 1.22915, -1.3027, 0.0491926, 0.00737571, -0.00534879, 0.00728041, -0.0184044, 0.0229445, 0.00118193, 6.17286, 64.4418, 31.5867, 4.30786, 2.09949, 4.19192, 0.00373412, 0.000133401, -0.00132498, 0.00229311, 0.00123048, 0.00137905, -0.000261253, 0.0195419, -0.0144162, -0.00855074, -0.0105378, 0.0566356, 0.00560353, 0.471268, -0.54271, 0.336243, -2.08334, -2.16621, -0.129373, 0.469856, -0.542281, 0.33404, -2.08171, -2.16523, -0.129431, 0.0118212, 0.0311266, 0.0159772, 0.0266131, 0.0137445, 0.00406552
0.0751282, 1.69243, -1.22796, -1.53944, -0.900378, -1.19212, 1.22918, -1.3027, 0.0464198, 0.00595279, -0.0035625, 0.00779314, -0.019206, 0.022719, 0.00129894, 6.17286, 64.5529, 31.5867, 4.19281, 2.1297, 4.16995, -0.00999879, 0.000111161, -0.00130997, 0.00230363, 0.00120176, 0.0013543, -0.000273391, 0.0217873, -0.0125876, -0.00889027, -0.00937815, 0.0561483, 0.00214619, 0.47128, -0.542678, 0.33626, -2.08332, -2.16623, -0.129349, 0.469883, -0.542269, 0.334042, -2.0817, -2.16528, -0.129415, 0.012165, 0.0320437, 0.0164457, 0.0251998, 0.0124216, 0.0039062
0.0761282, 1.69248, -1.22796, -1.53945, -0.900375, -1.19215, 1.2292, -1.3027, 0.0443887, 0.00331753, -0.00497093, 0.00538163, -0.0197469, 0.0277492, 0.00157981, 6.17286, 64.7394, 31.6977, 4.19281, 2.15442, 4.14889, -0.0292249, 8.76676e-05, -0.00129589, 0.00232058, 0.00118633, 0.0013306, -0.000285983, 0.024119, -0.0122743, -0.0110633, -0.00793219, 0.0573309, 0.000382527, 0.471292, -0.542646, 0.336276, -2.08329, -2.16625, -0.129324, 0.46991, -0.542256, 0.334038, -2.08168, -2.16534, -0.129385, 0.0125127, 0.0329717, 0.0169196, 0.02524, 0.0113689, 0.00188241
0.0771282, 1.69254, -1.22796, -1.53944, -0.900364, -1.19217, 1.22923, -1.3027, 0.0477758, 0.00130955, -0.00154883, 0.00632586, -0.0198392, 0.0262119, 0.00526756, 6.09748, 64.8108, 31.6224, 4.08173, 2.17273, 4.12692, -0.0164075, 6.60946e-05, -0.00127842, 0.00232836, 0.00115335, 0.00130035, -0.000305812, 0.023216, -0.0139353, -0.011552, -0.0069652, 0.0550944, 7.52804e-05, 0.471305, -0.542612, 0.336293, -2.08327, -2.16626, -0.129299, 0.46994, -0.542242, 0.334043, -2.08167, -2.1654, -0.129368, 0.0128642, 0.0339105, 0.0173989, 0.0272, 0.0133432, 0.00196848
0.0781282, 1.6926, -1.22796, -1.53945, -0.900358, -1.1922, 1.22926, -1.3027, 0.0506212, 0.00119482, -0.00186635, 0.00838129, -0.024679, 0.0307676, 0.00437807, 5.9864, 64.9576, 31.6581, 4.04602, 2.19104, 4.08389, -0.0292249, 4.53776e-05, -0.00125812, 0.00234252, 0.00113221, 0.00126995, -0.000328598, 0.025069, -0.014928, -0.0115434, -0.0054158, 0.061779, -0.000590074, 0.471318, -0.542578, 0.336311, -2.08324, -2.16628, -0.129273, 0.469974, -0.542225, 0.334043, -2.08165, -2.16547, -0.129337, 0.0132194, 0.0348598, 0.0178835, 0.0286143, 0.0125032, 0.00214406
0.0791282, 1.69265, -1.22796, -1.53945, -0.900348, -1.19223, 1.22929, -1.3027, 0.0498849, 0.00289588, -0.00300641, 0.00769799, -0.0231992, 0.0337558, 0.00250037, 5.87135, 65.033, 31.7335, 3.97064, 2.19745, 4.05551, -0.00999879, 2.07381e-05, -0.00124113, 0.0023551, 0.00110922, 0.00123637, -0.000343012, 0.0262987, -0.0147652, -0.0110913, -0.00359636, 0.0645085, 0.000271516, 0.471331, -0.542543, 0.336329, -2.08322, -2.1663, -0.129247, 0.470005, -0.542212, 0.334045, -2.08164, -2.16553, -0.129304, 0.0135784, 0.0358197, 0.0183733, 0.028872, 0.0121731, 0.00289466
0.0801282, 1.69271, -1.22796, -1.53945, -0.900339, -1.19226, 1.22932, -1.3027, 0.0543859, 0.00188199, -0.00200347, 0.0092234, -0.0264055, 0.0355419, 0.00307401, 5.79597, 65.0687, 31.7335, 3.93494, 2.19104, 4.02713, -0.0420422, -3.13418e-06, -0.00122349, 0.00236661, 0.00108521, 0.00120235, -0.000357508, 0.0264783, -0.0167228, -0.0115524, -0.00313087, 0.0676163, 0.0014229, 0.471345, -0.542506, 0.336348, -2.08319, -2.16632, -0.12922, 0.470037, -0.542197, 0.334048, -2.08163, -2.1656, -0.12927, 0.013941, 0.03679, 0.0188684, 0.0311796, 0.0131183, 0.00284678
0.0811282, 1.69277, -1.22796, -1.53945, -0.900333, -1.19229, 1.22936, -1.3027, 0.0555753, 0.00240295, -0.00133505, 0.0065939, -0.0286495, 0.0366816, 0.00221456, 5.79597, 65.1797, 31.7335, 3.93494, 2.17914, 4.01248, -0.0420422, -2.91711e-05, -0.00120614, 0.00238073, 0.00105858, 0.00117011, -0.000375592, 0.0265749, -0.0176493, -0.0116922, -0.00440204, 0.0714332, 0.00450244, 0.471359, -0.542469, 0.336367, -2.08316, -2.16634, -0.129192, 0.470068, -0.542182, 0.334048, -2.08161, -2.16567, -0.129241, 0.0143072, 0.0377706, 0.0193685, 0.0324698, 0.0140636, 0.00316561
0.0821282, 1.69283, -1.22795, -1.53945, -0.900332, -1.19233, 1.22939, -1.3027, 0.0527847, 0.00314272, -0.00181761, 0.00305922, -0.0308903, 0.0327696, 0.000888216, 5.72059, 65.144, 31.7731, 4.00635, 2.17914, 3.99142, -0.0228162, -5.15973e-05, -0.00118366, 0.00239331, 0.00103563, 0.00112803, -0.000406176, 0.0278742, -0.0154106, -0.0124751, -0.0108648, 0.0730049, 0.00435016, 0.471373, -0.542431, 0.336386, -2.08313, -2.16636, -0.129163, 0.470106, -0.542163, 0.334051, -2.08158, -2.16575, -0.129198, 0.014677, 0.0387614, 0.0198738, 0.0306227, 0.0137994, 0.00276468
0.0831282, 1.69289, -1.22796, -1.53946, -0.900327, -1.19236, 1.22942, -1.3027, 0.0551851, 0.000953865, -0.00288184, 0.00228977, -0.0275364, 0.0348013, -0.000298262, 5.68488, 65.2155, 31.8445, 4.00635, 2.16724, 3.96945, 0.00373412, -7.83694e-05, -0.00116448, 0.00241142, 0.00101789, 0.00109236, -0.00043021, 0.0276035, -0.0171313, -0.0145566, -0.00980754, 0.069978, 0.00839475, 0.471388, -0.542392, 0.336407, -2.0831, -2.16638, -0.129134, 0.47014, -0.542147, 0.334049, -2.08156, -2.16582, -0.129154, 0.0150503, 0.0397623, 0.0203841, 0.0326288, 0.0154591, 0.00120893
0.0841282, 1.69295, -1.22795, -1.53946, -0.900325, -1.1924, 1.22946, -1.3027, 0.0601399, 0.00406787, -0.00192097, 0.003864, -0.0344429, 0.030926, -0.000366496, 5.68488, 65.2155, 31.8445, 4.04602, 2.15442, 3.96945, 0.0101428, -0.000105094, -0.00114573, 0.00242463, 0.000994478, 0.00105139, -0.000453248, 0.0274049, -0.0177818, -0.0131345, -0.0157389, 0.0774702, 0.00923261, 0.471403, -0.542351, 0.336427, -2.08308, -2.1664, -0.129103, 0.470174, -0.54213, 0.334052, -2.08154, -2.1659, -0.129111, 0.0154271, 0.0407732, 0.0208993, 0.0337004, 0.0164749, 0.00313931
0.0851282, 1.69302, -1.22796, -1.53946, -0.900323, -1.19244, 1.22949, -1.3027, 0.0635352, 0.00233447, -0.00128046, 0.00213806, -0.0406153, 0.0324997, 0.000282665, 5.68488, 65.2551, 31.8445, 4.08173, 2.16724, 3.96945, -0.00267457, -0.00013163, -0.00112467, 0.00244119, 0.000972628, 0.0010121, -0.000478301, 0.0278698, -0.0194025, -0.0145758, -0.0186056, 0.0824927, 0.0108746, 0.471419, -0.54231, 0.336448, -2.08304, -2.16642, -0.129072, 0.470211, -0.542112, 0.334052, -2.08151, -2.16598, -0.129067, 0.0158074, 0.041794, 0.0214195, 0.0356636, 0.0173259, 0.00211456
0.0861282, 1.69309, -1.22795, -1.53946, -0.900325, -1.19248, 1.22952, -1.3027, 0.0632679, 0.00289726, -0.00178152, -3.99127e-05, -0.0402749, 0.0340848, -0.000247066, 5.68488, 65.2155, 31.8842, 4.1571, 2.17914, 3.96213, 0.0101428, -0.000157324, -0.00110242, 0.00245587, 0.000951194, 0.000967308, -0.000509756, 0.0285734, -0.0195578, -0.0149452, -0.0188808, 0.0844787, 0.012054, 0.471435, -0.542268, 0.33647, -2.08301, -2.16645, -0.129041, 0.47025, -0.542092, 0.334054, -2.08148, -2.16607, -0.129017, 0.016191, 0.0428246, 0.0219445, 0.0362147, 0.0177254, 0.002161
0.0871282, 1.69315, -1.22795, -1.53947, -0.900327, -1.19252, 1.22956, -1.3027, 0.0650902, 0.00224121, -0.00462125, 0.00152708, -0.0399035, 0.035237, 0.000102055, 5.72059, 65.2155, 32.031, 4.23248, 2.19104, 3.95572, 0.00373412, -0.000186919, -0.00108178, 0.00247636, 0.000936501, 0.000923328, -0.000533536, 0.0300192, -0.0195806, -0.0164932, -0.020218, 0.0849079, 0.0100395, 0.471451, -0.542224, 0.336492, -2.08298, -2.16647, -0.129008, 0.470287, -0.542074, 0.334051, -2.08145, -2.16615, -0.128959, 0.016578, 0.0438649, 0.0224743, 0.0366207, 0.0175774, 0.000937402
0.0881282, 1.69322, -1.22796, -1.53948, -0.900328, -1.19255, 1.22959, -1.3027, 0.0642401, -0.000872045, -0.00308075, 0.00144344, -0.0392901, 0.0346835, -0.000384627, 5.72059, 65.3265, 32.031, 4.23248, 2.19745, 3.9841, 0.0165515, -0.000213236, -0.00105845, 0.00249715, 0.000915349, 0.000892011, -0.000568115, 0.0312662, -0.0190003, -0.0181727, -0.0196712, 0.0816291, 0.00988932, 0.471468, -0.54218, 0.336515, -2.08295, -2.16649, -0.128975, 0.470327, -0.542051, 0.334049, -2.08141, -2.16624, -0.128921, 0.0169683, 0.0449148, 0.0230089, 0.0364156, 0.0176304, -0.000361932
0.0891282, 1.69329, -1.22795, -1.53948, -0.900333, -1.19259, 1.22963, -1.3027, 0.0661949, 0.000428059, -0.00465223, -0.00556882, -0.0443207, 0.0356764, -2.51772e-06, 5.76026, 65.2908, 32.1421, 4.26819, 2.21576, 3.99142, 0.0101428, -0.000242216, -0.00103626, 0.00251588, 0.000900211, 0.000843515, -0.000597048, 0.0307312, -0.0205558, -0.0193366, -0.0264865, 0.0890382, 0.0142431, 0.471485, -0.542135, 0.336538, -2.08291, -2.16652, -0.128941, 0.470367, -0.542031, 0.334048, -2.08138, -2.16632, -0.128857, 0.0173618, 0.0459742, 0.0235482, 0.0383007, 0.0194619, -0.000936888
0.0901282, 1.69337, -1.22795, -1.53949, -0.900336, -1.19264, 1.22966, -1.3027, 0.0686339, -0.000419191, -0.00402946, -0.00717593, -0.0429933, 0.0355215, 0.00123143, 5.76026, 65.3265, 32.1818, 4.26819, 2.22858, 4.01248, -0.0228162, -0.000269423, -0.00101159, 0.00253546, 0.000884152, 0.000799777, -0.000628521, 0.0299621, -0.0221036, -0.0203645, -0.0271128, 0.0879373, 0.0166975, 0.471503, -0.542088, 0.336562, -2.08288, -2.16654, -0.128906, 0.470409, -0.542007, 0.334048, -2.08134, -2.16641, -0.128799, 0.0177586, 0.047043, 0.0240921, 0.0401776, 0.0215128, -0.00133636
0.0911282, 1.69344, -1.22796, -1.53949, -0.900339, -1.19268, 1.22969, -1.30269, 0.0680668, -0.00194471, -0.00352149, -0.011456, -0.0422199, 0.0354799, 0.00644177, 5.83564, 65.4019, 32.2175, 4.26819, 2.24689, 4.03445, -0.0484509, -0.000298738, -0.000988302, 0.00255922, 0.000867405, 0.000765137, -0.000659141, 0.0299538, -0.0225091, -0.0220379, -0.0288619, 0.0868262, 0.0143137, 0.471521, -0.542041, 0.336586, -2.08285, -2.16657, -0.128871, 0.470451, -0.541984, 0.334043, -2.0813, -2.1665, -0.12875, 0.0181585, 0.048121, 0.0246406, 0.0409209, 0.0228734, -0.00245166
0.0921282, 1.69352, -1.22797, -1.53949, -0.900344, -1.19272, 1.22972, -1.30269, 0.071082, -0.00289342, -0.00151242, -0.0117086, -0.0414203, 0.035843, 0.00374056, 5.79597, 65.4733, 32.1818, 4.26819, 2.25879, 4.05551, -0.0228162, -0.000324597, -0.000960405, 0.00258157, 0.000848706, 0.00072811, -0.000702331, 0.0292293, -0.0243517, -0.022437, -0.0275314, 0.0861316, 0.0205624, 0.471539, -0.541992, 0.336611, -2.08281, -2.16659, -0.128834, 0.470497, -0.541956, 0.334041, -2.08125, -2.1666, -0.128702, 0.0185616, 0.0492083, 0.0251936, 0.0431232, 0.0248146, -0.00223725
0.0931282, 1.6936, -1.22797, -1.53949, -0.900351, -1.19277, 1.22975, -1.30269, 0.0743146, -0.00280184, -0.00184348, -0.00964961, -0.0409342, 0.0308746, 0.0035024, 5.83564, 65.513, 32.2175, 4.30786, 2.27161, 4.07748, -0.0420422, -0.000353589, -0.000935799, 0.00260329, 0.000833942, 0.000685681, -0.000736832, 0.0290015, -0.0243551, -0.0232176, -0.0318825, 0.0840599, 0.0212845, 0.471558, -0.541942, 0.336637, -2.08277, -2.16662, -0.128797, 0.470541, -0.541931, 0.33404, -2.08121, -2.16669, -0.128641, 0.0189677, 0.0503046, 0.0257511, 0.0434958, 0.0262562, -0.00241561
0.0941282, 1.69368, -1.22797, -1.5395, -0.900356, -1.19281, 1.22978, -1.30269, 0.0747785, -0.00182656, -0.00382743, -0.0102892, -0.0451289, 0.0329202, 0.00184532, 5.83564, 65.513, 32.3285, 4.30786, 2.28351, 4.07748, -0.0228162, -0.000383511, -0.000911144, 0.00262655, 0.000823912, 0.00064199, -0.00077539, 0.0311299, -0.0238547, -0.0236819, -0.0345408, 0.0904338, 0.0206759, 0.471577, -0.541891, 0.336663, -2.08274, -2.16665, -0.128759, 0.470585, -0.541905, 0.334038, -2.08116, -2.16679, -0.128574, 0.0193769, 0.05141, 0.0263131, 0.0434663, 0.0253111, -0.0026266
0.0951282, 1.69376, -1.22796, -1.5395, -0.90036, -1.19285, 1.22981, -1.30269, 0.0748399, 0.00224697, -0.00255161, -0.0108092, -0.0487813, 0.0341826, 0.00065107, 5.83564, 65.3662, 32.3285, 4.30786, 2.30823, 4.07748, -0.00267457, -0.000411029, -0.000884784, 0.00264166, 0.000805425, 0.000591266, -0.000818768, 0.0323267, -0.0235327, -0.0212017, -0.034398, 0.0988328, 0.0207855, 0.471597, -0.541839, 0.33669, -2.0827, -2.16667, -0.128721, 0.470631, -0.541877, 0.334045, -2.08111, -2.1669, -0.128509, 0.0197891, 0.0525242, 0.0268794, 0.0436925, 0.02485, 0.000213149
0.0961282, 1.69384, -1.22797, -1.5395, -0.900376, -1.1929, 1.22984, -1.30269, 0.0731353, -0.00358287, -0.0034643, -0.0106532, -0.0457171, 0.0306099, 0.00154252, 5.91102, 65.5844, 32.4039, 4.41894, 2.30182, 4.07748, -0.0292249, -0.000441024, -0.000859832, 0.0026746, 0.000800199, 0.000565777, -0.000857147, 0.0340649, -0.0217337, -0.0255622, -0.0374888, 0.0895075, 0.0178389, 0.471617, -0.541786, 0.336717, -2.08266, -2.1667, -0.128681, 0.470676, -0.541847, 0.334034, -2.08104, -2.16698, -0.128453, 0.0202043, 0.0536472, 0.02745, 0.0422142, 0.0248514, -0.00373595
0.0971282, 1.69392, -1.22797, -1.5395, -0.90038, -1.19294, 1.22986, -1.30269, 0.0748339, -0.00237114, -0.00147431, -0.00681061, -0.04903, 0.0227704, 0.000410123, 5.87135, 65.5844, 32.3682, 4.37927, 2.32013, 4.08389, -0.00999879, -0.000469114, -0.000833426, 0.00269437, 0.000787769, 0.000523203, -0.000902656, 0.0349533, -0.0199001, -0.0247979, -0.0429087, 0.0899132, 0.0161759, 0.471637, -0.541732, 0.336744, -2.08262, -2.16673, -0.128641, 0.470723, -0.541817, 0.334037, -2.08098, -2.16709, -0.128388, 0.0206224, 0.0547789, 0.0280249, 0.0408623, 0.0249121, -0.00248747
0.0981282, 1.694, -1.22796, -1.53949, -0.900387, -1.19299, 1.22988, -1.3027, 0.0748814, -0.00156768, -5.48491e-05, -0.00594579, -0.045961, 0.0264335, -0.0008769, 5.87135, 65.5844, 32.3285, 4.41894, 2.31372, 4.08389, 0.0229602, -0.000497845, -0.000808084, 0.00271517, 0.000775376, 0.000484553, -0.0009541, 0.0357888, -0.0205321, -0.023795, -0.0370483, 0.0906178, 0.017504, 0.471658, -0.541677, 0.336773, -2.08258, -2.16676, -0.128599, 0.470769, -0.541785, 0.334039, -2.08092, -2.1672, -0.128327, 0.0210433, 0.0559192, 0.028604, 0.0419825, 0.0251006, -0.001067
0.0991282, 1.69409, -1.22796, -1.5395, -0.900395, -1.19303, 1.2299, -1.3027, 0.078256, -0.00196333, -0.0017998, -0.0051571, -0.0440547, 0.0248779, -0.00100653, 5.87135, 65.6241, 32.4039, 4.45465, 2.32013, 4.07748, 0.0357776, -0.000530029, -0.000783914, 0.00274085, 0.000767934, 0.000445887, -0.000997367, 0.0355878, -0.0214233, -0.0252659, -0.0396911, 0.0888252, 0.0191354, 0.471679, -0.54162, 0.336802, -2.08254, -2.16679, -0.128557, 0.470815, -0.541756, 0.334037, -2.08085, -2.1673, -0.128258, 0.0214671, 0.057068, 0.0291872, 0.0432349, 0.0267113, -0.00193273
0.100128, 1.69417, -1.22796, -1.5395, -0.900404, -1.19308, 1.22992, -1.3027, 0.0821399, 0.0018627, 0.0042884, -0.00463461, -0.0472973, 0.0228433, -0.000156707, 5.79597, 65.6241, 32.4396, 4.49432, 2.32654, 4.09122, 0.0229602, -0.000560577, -0.000759595, 0.00276408, 0.000766153, 0.000403868, -0.00104051, 0.0340377, -0.0232895, -0.0215823, -0.0381463, 0.0947542, 0.0224798, 0.471701, -0.541563, 0.336831, -2.08249, -2.16682, -0.128514, 0.470861, -0.541724, 0.334038, -2.08079, -2.1674, -0.128179, 0.0218936, 0.0582252, 0.0297746, 0.0456048, 0.0289125, 0.00247418
0.101128, 1.69426, -1.22795, -1.5395, -0.900418, -1.19312, 1.22994, -1.3027, 0.085077, 0.00373002, 0.00505633, -0.00900624, -0.0439015, 0.0218323, -0.000312135, 5.72059, 65.6598, 32.3682, 4.60541, 2.30182, 4.09122, 0.0293689, -0.000587041, -0.000730126, 0.00278674, 0.000755173, 0.000367043, -0.00109843, 0.0315425, -0.0257474, -0.02148, -0.0396153, 0.0945489, 0.0298758, 0.471723, -0.541504, 0.336861, -2.08245, -2.16685, -0.128471, 0.470912, -0.541686, 0.334041, -2.08071, -2.16752, -0.128116, 0.0223229, 0.0593907, 0.030366, 0.048401, 0.0326296, 0.00347672
0.102128, 1.69435, -1.22795, -1.5395, -0.900422, -1.19317, 1.22995, -1.30269, 0.0864124, 0.00441343, 0.00209567, -0.00857553, -0.047438, 0.0166755, 0.000288899, 5.64521, 65.7312, 32.4396, 4.56573, 2.30823, 4.08389, 0.0165515, -0.000621739, -0.00070814, 0.00281277, 0.000752458, 0.000330779, -0.00113232, 0.0330243, -0.0240607, -0.0230158, -0.0487571, 0.0965765, 0.0266374, 0.471746, -0.541444, 0.336892, -2.08241, -2.16688, -0.128426, 0.470957, -0.541656, 0.33404, -2.08065, -2.16761, -0.128041, 0.022755, 0.0605644, 0.0309614, 0.0471466, 0.0325056, 0.00237811
0.103128, 1.69444, -1.22795, -1.5395, -0.900434, -1.19321, 1.22997, -1.30269, 0.0878588, 0.00261831, 0.000765505, -0.0111634, -0.0445256, 0.0174162, 0.00068402, 5.56983, 65.7709, 32.4793, 4.64111, 2.29541, 4.07748, 0.00373412, -0.000653339, -0.000683365, 0.00283747, 0.000749071, 0.00029298, -0.00118101, 0.0327951, -0.0252437, -0.0253385, -0.0500018, 0.0939297, 0.0293347, 0.471769, -0.541383, 0.336923, -2.08236, -2.16691, -0.128381, 0.471005, -0.541621, 0.334041, -2.08057, -2.16771, -0.127966, 0.0231896, 0.0617462, 0.0315607, 0.0486684, 0.0343205, 0.000682466
0.104128, 1.69453, -1.22794, -1.53949, -0.900435, -1.19326, 1.22998, -1.30269, 0.0863225, 0.00590907, 0.00166067, -0.00636289, -0.0436458, 0.0135832, -0.000480895, 5.49445, 65.878, 32.4396, 4.56573, 2.31372, 4.06283, 0.0293689, -0.000688247, -0.000660668, 0.00285781, 0.000736262, 0.000252737, -0.00122217, 0.0350888, -0.022334, -0.0231075, -0.0498313, 0.0948734, 0.0244634, 0.471792, -0.54132, 0.336955, -2.08231, -2.16694, -0.128334, 0.471052, -0.541589, 0.334047, -2.08051, -2.16782, -0.127898, 0.0236269, 0.0629361, 0.0321639, 0.0463678, 0.0327814, 0.00322377
0.105128, 1.69462, -1.22794, -1.53949, -0.900451, -1.1933, 1.22999, -1.30269, 0.0857249, 0.0086596, 0.000345825, -0.0105844, -0.0420309, 0.0106704, 0.000638235, 5.38337, 65.9891, 32.4793, 4.68079, 2.31372, 4.04819, 0.00373412, -0.000718989, -0.000634189, 0.00288572, 0.000735626, 0.000220406, -0.00127667, 0.0347508, -0.021833, -0.0231981, -0.0549215, 0.0961024, 0.0253289, 0.471816, -0.541257, 0.336987, -2.08227, -2.16698, -0.128287, 0.471102, -0.541551, 0.334046, -2.08042, -2.16793, -0.127824, 0.0240668, 0.0641338, 0.032771, 0.046292, 0.034306, 0.00380905
0.106128, 1.69471, -1.22792, -1.5395, -0.900461, -1.19334, 1.22999, -1.30269, 0.08749, 0.0101228, 0.00165263, -0.0108742, -0.0406181, 0.00737534, 0.000432537, 5.30799, 65.9891, 32.5547, 4.68079, 2.30823, 4.06283, 0.00373412, -0.000752616, -0.000612679, 0.00290665, 0.000735102, 0.00018054, -0.00131947, 0.0341136, -0.0221688, -0.0227302, -0.056758, 0.0955876, 0.0276152, 0.47184, -0.541192, 0.337021, -2.08222, -2.16701, -0.128239, 0.471148, -0.541515, 0.334053, -2.08035, -2.16803, -0.12774, 0.0245092, 0.0653394, 0.0333819, 0.047064, 0.0360835, 0.00496997
0.107128, 1.69479, -1.22792, -1.53949, -0.900478, -1.19338, 1.23, -1.30269, 0.0858605, 0.010873, 0.000615346, -0.01286, -0.0398882, 0.0104319, 5.62839e-05, 5.22865, 66.1359, 32.5904, 4.75616, 2.30823, 4.06283, 0.0101428, -0.000787674, -0.000591667, 0.00293353, 0.000736256, 0.000148578, -0.00136749, 0.03584, -0.021664, -0.0230162, -0.0557817, 0.0982604, 0.0268617, 0.471865, -0.541126, 0.337054, -2.08217, -2.16705, -0.12819, 0.471194, -0.541479, 0.334054, -2.08027, -2.16813, -0.127663, 0.0249541, 0.0665526, 0.0339965, 0.0470586, 0.0356155, 0.00505066
0.108128, 1.69488, -1.22791, -1.53949, -0.900493, -1.19342, 1.23001, -1.30269, 0.0846472, 0.0108878, 0.000671838, -0.0141547, -0.039061, 0.0122126, 0.000787472, 5.15327, 66.1755, 32.5904, 4.82758, 2.30182, 4.07016, -0.00999879, -0.000821216, -0.00056869, 0.00295453, 0.000728628, 0.000111543, -0.00141668, 0.0372835, -0.0212189, -0.023387, -0.0547139, 0.0993763, 0.0253715, 0.47189, -0.541059, 0.337088, -2.08212, -2.16708, -0.12814, 0.471243, -0.541441, 0.334062, -2.08019, -2.16824, -0.127589, 0.0254015, 0.0677736, 0.0346148, 0.0471016, 0.0354497, 0.00509312
0.109128, 1.69497, -1.2279, -1.53949, -0.900513, -1.19347, 1.23001, -1.30269, 0.0853001, 0.0121978, 0.000382133, -0.0161108, -0.0344721, 0.009177, -0.000218031, 5.00251, 66.2866, 32.7372, 4.94263, 2.31372, 4.07016, 0.0101428, -0.000854984, -0.000545437, 0.00298149, 0.000736015, 7.52517e-05, -0.00147628, 0.0364138, -0.0214204, -0.023734, -0.0568808, 0.0964636, 0.0291003, 0.471916, -0.54099, 0.337123, -2.08207, -2.16712, -0.128089, 0.471292, -0.541401, 0.334064, -2.08009, -2.16836, -0.127499, 0.0258513, 0.069002, 0.0352367, 0.047708, 0.037599, 0.00550061
0.110128, 1.69505, -1.22787, -1.53948, -0.900532, -1.19351, 1.23001, -1.30269, 0.0821586, 0.0167762, 0.000666219, -0.0164193, -0.0399458, 0.00638582, 9.42344e-05, 5.00251, 66.2469, 32.7372, 5.01404, 2.31372, 4.08389, 0.00373412, -0.000891324, -0.000528588, 0.00299656, 0.00073081, 3.1687e-05, -0.00152011, 0.0393262, -0.018079, -0.0215104, -0.0613743, 0.104879, 0.0231705, 0.471942, -0.540921, 0.337159, -2.08202, -2.16715, -0.128038, 0.471335, -0.541364, 0.334079, -2.08002, -2.16847, -0.127414, 0.0263034, 0.0702379, 0.0358623, 0.0450151, 0.0354774, 0.00797545
0.111128, 1.69513, -1.22785, -1.53948, -0.900551, -1.19355, 1.23001, -1.30269, 0.0814175, 0.0182418, 0.00203534, -0.0168118, -0.0394747, 0.00483954, 6.44951e-05, 4.92713, 66.2866, 32.8126, 5.08942, 2.31372, 4.08389, 0.00373412, -0.000927675, -0.000509231, 0.00301669, 0.000729151, -7.28116e-06, -0.00156916, 0.0401685, -0.0172436, -0.020762, -0.061746, 0.105952, 0.0225843, 0.471968, -0.54085, 0.337195, -2.08197, -2.16719, -0.127985, 0.471382, -0.541325, 0.334089, -2.07993, -2.16858, -0.127329, 0.0267579, 0.0714811, 0.0364913, 0.0446953, 0.0357392, 0.0092393
0.112128, 1.69521, -1.22783, -1.53947, -0.900581, -1.19359, 1.23001, -1.30269, 0.0821175, 0.0184132, 0.00310927, -0.0188779, -0.0395973, 0.00417174, -0.000193108, 4.81605, 66.358, 32.8879, 5.24017, 2.32654, 4.07016, 0.0101428, -0.000962678, -0.000488491, 0.00303723, 0.000730977, -5.07594e-05, -0.00162696, 0.0402696, -0.017653, -0.0211112, -0.0630161, 0.106872, 0.0247946, 0.471995, -0.540778, 0.337232, -2.08192, -2.16723, -0.127932, 0.47143, -0.541284, 0.334099, -2.07984, -2.16871, -0.127235, 0.0272147, 0.0727316, 0.0371239, 0.0455525, 0.0369611, 0.00949861
0.113128, 1.6953, -1.22781, -1.53947, -0.9006, -1.19362, 1.23001, -1.30269, 0.0854122, 0.0184362, 0.00092609, -0.0199135, -0.0390888, 0.00365125, -0.000602516, 4.701, 66.4334, 32.9633, 5.24017, 2.32654, 4.05551, 0.0229602, -0.0010001, -0.00046827, 0.00305668, 0.000725099, -9.09083e-05, -0.00168029, 0.0401106, -0.018813, -0.022686, -0.0666419, 0.107408, 0.0274623, 0.472023, -0.540705, 0.337269, -2.08186, -2.16726, -0.127878, 0.471478, -0.541243, 0.334111, -2.07975, -2.16883, -0.127152, 0.0276737, 0.0739892, 0.0377598, 0.0471058, 0.0386668, 0.00856793
0.114128, 1.6953, -1.22781, -1.53947, -0.9006, -1.19362, 1.23001, -1.30269, 0.0854122, 0.0184362, 0.00092609, -0.0199135, -0.0390888, 0.00365125, -0.000602516, 4.701, 66.4334, 32.9633, 5.24017, 2.32654, 4.05551, 0.0229602, -0.00107855, -0.00049805, 0.00308393, 0.000687005, -7.40368e-05, -0.00163948, 0.0414413, -0.0183177, -0.0231408, -0.067146, 0.108263, 0.0264323, 0.472051, -0.54063, 0.337307, -2.08181, -2.1673, -0.127822, 0.471478, -0.541243, 0.334111, -2.07975, -2.16883, -0.127152, 0.028135, 0.0752539, 0.0383992, 0.0471058, 0.0386668, 0.00856793
0.115128, 1.69546, -1.22776, -1.53946, -0.900651, -1.1937, 1.23001, -1.3027, 0.073689, 0.0208727, 0.00367028, -0.0228145, -0.0433924, 0.00188039, -0.00132925, 4.47486, 66.6159, 33.1101, 5.31555, 2.33295, 4.05551, 0.0559192, -0.00107923, -0.000433782, 0.00309441, 0.000719714, -0.000176906, -0.00178525, 0.047, -0.0115186, -0.0211392, -0.068148, 0.113907, 0.0169238, 0.472079, -0.540554, 0.337346, -2.08175, -2.16734, -0.127766, 0.47157, -0.541164, 0.334137, -2.07958, -2.16907, -0.12697, 0.0285984, 0.0765256, 0.0390419, 0.0410632, 0.033854, 0.0105408
0.116128, 1.69554, -1.22773, -1.53944, -0.900686, -1.19373, 1.23001, -1.30269, 0.0720157, 0.0237944, 0.00632653, -0.0245507, -0.0414626, 0.00166305, -0.000411051, 4.39948, 66.6913, 33.1101, 5.38696, 2.32013, 4.04819, 0.0431018, -0.00111538, -0.000414006, 0.00311045, 0.000712841, -0.000219526, -0.00184581, 0.0473399, -0.011053, -0.0191112, -0.0659386, 0.115917, 0.0166996, 0.472108, -0.540477, 0.337386, -2.0817, -2.16738, -0.127709, 0.471619, -0.541119, 0.334155, -2.07948, -2.1692, -0.126884, 0.0290639, 0.0778042, 0.0396878, 0.0411539, 0.0344665, 0.0131518
0.117128, 1.69562, -1.2277, -1.53944, -0.900719, -1.19378, 1.23001, -1.3027, 0.0749222, 0.0270731, 0.00547292, -0.0282812, -0.0416803, 0.000941077, -0.000511096, 4.2884, 66.727, 33.2212, 5.42664, 2.35126, 4.05551, 0.0495105, -0.00115641, -0.000397013, 0.00312708, 0.000711835, -0.000273339, -0.00190035, 0.0461242, -0.0126403, -0.0186793, -0.0698619, 0.120347, 0.0213514, 0.472137, -0.540398, 0.337426, -2.08164, -2.16742, -0.127651, 0.471666, -0.541078, 0.334171, -2.0794, -2.16933, -0.126778, 0.0295316, 0.0790895, 0.040337, 0.0431785, 0.036954, 0.014366
0.118128, 1.6957, -1.22766, -1.53943, -0.900758, -1.19381, 1.23001, -1.3027, 0.0771935, 0.0270297, 0.0041492, -0.0311974, -0.0403893, 0.000433849, -0.00128994, 4.17335, 66.727, 33.3719, 5.46234, 2.34485, 4.06283, 0.0751453, -0.00119547, -0.000380339, 0.00314125, 0.000713091, -0.000326494, -0.00196134, 0.0455711, -0.0138756, -0.0202057, -0.0731082, 0.120281, 0.0256768, 0.472167, -0.540319, 0.337466, -2.08158, -2.16746, -0.127592, 0.471714, -0.541034, 0.334191, -2.0793, -2.16946, -0.12667, 0.0300013, 0.0803815, 0.0409894, 0.0448048, 0.039079, 0.013558
0.119128, 1.69578, -1.22764, -1.53942, -0.900798, -1.19385, 1.23001, -1.3027, 0.0767265, 0.0238975, 0.00767182, -0.0367161, -0.0361109, 7.62644e-05, -0.000622436, 4.13764, 66.9849, 33.3362, 5.50201, 2.37598, 4.07016, 0.0687366, -0.00123739, -0.0003636, 0.00316193, 0.000705123, -0.000365928, -0.00202069, 0.0441736, -0.0154259, -0.0220345, -0.0716669, 0.114593, 0.031508, 0.472197, -0.540238, 0.337508, -2.08152, -2.1675, -0.127533, 0.471761, -0.540991, 0.334205, -2.0792, -2.16959, -0.126585, 0.030473, 0.0816802, 0.0416449, 0.0467045, 0.0421041, 0.012575
0.120128, 1.69586, -1.2276, -1.53941, -0.900838, -1.19389, 1.23001, -1.3027, 0.0792169, 0.0280187, 0.00659693, -0.0389201, -0.0366751, -0.00428483, -0.000414832, 3.98292, 66.9849, 33.4473, 5.46234, 2.38147, 4.05551, 0.0687366, -0.00127671, -0.000344441, 0.0031772, 0.000704452, -0.000419736, -0.00208382, 0.0432759, -0.0156713, -0.0212799, -0.0782562, 0.11823, 0.0338512, 0.472228, -0.540155, 0.33755, -2.08146, -2.16755, -0.127472, 0.471812, -0.540944, 0.334226, -2.0791, -2.16973, -0.126477, 0.0309467, 0.0829853, 0.0423035, 0.047419, 0.0441908, 0.0141099
0.121128, 1.69593, -1.22758, -1.5394, -0.900889, -1.19392, 1.23001, -1.3027, 0.076345, 0.0296606, 0.00687141, -0.0434564, -0.0381005, -0.00269139, -3.91012e-05, 4.02259, 67.1674, 33.5187, 5.53772, 2.4126, 4.04086, 0.0623279, -0.00131942, -0.000327449, 0.00319839, 0.000698838, -0.000464594, -0.00214729, 0.0448183, -0.0147069, -0.0210269, -0.079376, 0.122995, 0.0331784, 0.472259, -0.540072, 0.337592, -2.0814, -2.16759, -0.12741, 0.471861, -0.540899, 0.33424, -2.079, -2.16987, -0.126383, 0.0314223, 0.0842969, 0.0429652, 0.0470002, 0.0438997, 0.0148136
0.122128, 1.69601, -1.22753, -1.53938, -0.900929, -1.19395, 1.23001, -1.3027, 0.0797907, 0.0323018, 0.00792916, -0.0392202, -0.0382683, -0.00156866, 0.000448721, 3.98292, 67.1674, 33.5584, 5.42664, 2.4245, 4.02713, 0.0495105, -0.00136134, -0.000310227, 0.00320944, 0.000686341, -0.000518924, -0.0022107, 0.0456074, -0.015498, -0.0190662, -0.0763713, 0.126869, 0.0317179, 0.472291, -0.539987, 0.337635, -2.08134, -2.16763, -0.127348, 0.471911, -0.540853, 0.334266, -2.07891, -2.17002, -0.126285, 0.0318998, 0.0856148, 0.0436298, 0.0483727, 0.0441729, 0.0172678
0.123128, 1.6961, -1.2275, -1.53937, -0.900975, -1.19399, 1.23001, -1.30269, 0.0810821, 0.0323197, 0.0109008, -0.0401719, -0.0390493, -0.000715508, 0.00104519, 3.87183, 67.2427, 33.6338, 5.35126, 2.45563, 4.01248, 0.0293689, -0.00140151, -0.000289158, 0.00322637, 0.00067944, -0.000569649, -0.00227725, 0.045759, -0.0165031, -0.0185997, -0.0745598, 0.128768, 0.0333252, 0.472323, -0.5399, 0.337679, -2.08127, -2.16768, -0.127284, 0.471965, -0.540803, 0.334286, -2.0788, -2.17016, -0.126185, 0.0323792, 0.0869389, 0.0442973, 0.0498805, 0.0453195, 0.0183411
0.124128, 1.69617, -1.22746, -1.53936, -0.901031, -1.19402, 1.23001, -1.3027, 0.0750792, 0.0373747, 0.0126498, -0.0459425, -0.0393239, -0.000907475, 0.000188204, 3.90754, 67.2427, 33.5941, 5.35126, 2.48035, 4.0198, 0.0431018, -0.00144284, -0.000271687, 0.00323953, 0.000670178, -0.000623384, -0.00234903, 0.0473099, -0.0140485, -0.0159893, -0.075225, 0.135032, 0.032889, 0.472355, -0.539813, 0.337724, -2.08121, -2.16772, -0.127219, 0.472016, -0.540753, 0.334311, -2.07869, -2.17032, -0.126084, 0.0328604, 0.0882692, 0.0449678, 0.0480694, 0.0446137, 0.0214276
0.125128, 1.69625, -1.22742, -1.53935, -0.901088, -1.19405, 1.23001, -1.30269, 0.0767988, 0.0391573, 0.0115959, -0.0503182, -0.0395754, 0.000326776, 0.000396766, 3.83216, 67.3181, 33.7806, 5.35126, 2.50415, 3.99142, 0.0357776, -0.00148448, -0.000251021, 0.00325891, 0.000667434, -0.000676314, -0.00242232, 0.0468726, -0.0154416, -0.0163815, -0.0779, 0.13903, 0.0365126, 0.472389, -0.539724, 0.337769, -2.08114, -2.16777, -0.127154, 0.47207, -0.540702, 0.33433, -2.07858, -2.17047, -0.125975, 0.0333434, 0.0896055, 0.045641, 0.0499136, 0.0465025, 0.0217373
0.126128, 1.69633, -1.22737, -1.53933, -0.901136, -1.19408, 1.23001, -1.30269, 0.0757806, 0.040852, 0.0129998, -0.052216, -0.0351924, 0.000399567, 0.00097661, 3.83216, 67.2427, 33.7449, 5.16479, 2.52887, 3.9841, 0.0165515, -0.00152745, -0.000232869, 0.00326637, 0.000649168, -0.000737485, -0.00248928, 0.0468558, -0.015486, -0.0155735, -0.0756929, 0.138105, 0.0376147, 0.472422, -0.539634, 0.337815, -2.08108, -2.16781, -0.127088, 0.472123, -0.540652, 0.334361, -2.07848, -2.17063, -0.125874, 0.0338281, 0.0909478, 0.0463171, 0.0504743, 0.0477401, 0.0232127
0.127128, 1.69641, -1.22733, -1.53931, -0.901194, -1.19411, 1.23001, -1.30269, 0.0806587, 0.0383691, 0.0112871, -0.0536148, -0.0322502, -0.0046018, 0.000176372, 3.87183, 67.3181, 33.8202, 5.08942, 2.56549, 3.9841, 0.0293689, -0.00156963, -0.000213776, 0.00328483, 0.000640547, -0.000780905, -0.00256735, 0.0451649, -0.0171617, -0.0190121, -0.0823252, 0.132045, 0.0435787, 0.472456, -0.539542, 0.337862, -2.08101, -2.16786, -0.12702, 0.472177, -0.540598, 0.334383, -2.07836, -2.17079, -0.12578, 0.0343145, 0.092296, 0.0469959, 0.0524407, 0.0513567, 0.020704
0.128128, 1.69649, -1.22729, -1.5393, -0.901255, -1.19414, 1.23001, -1.30269, 0.0803522, 0.0388896, 0.00922538, -0.0575757, -0.0293029, -0.00324706, 0.000592312, 3.83216, 67.4252, 33.9313, 5.01404, 2.58472, 3.97677, 0.0165515, -0.00161277, -0.000193694, 0.00330439, 0.000634248, -0.000829334, -0.00264398, 0.0454775, -0.0175482, -0.0203384, -0.0838929, 0.132198, 0.0452288, 0.472491, -0.539449, 0.337909, -2.08094, -2.16791, -0.126952, 0.472233, -0.540544, 0.334403, -2.07824, -2.17095, -0.125677, 0.0348026, 0.09365, 0.0476774, 0.0532775, 0.0526221, 0.0200154
0.129128, 1.69657, -1.22725, -1.53929, -0.901319, -1.19416, 1.23001, -1.30269, 0.0804227, 0.042109, 0.00969091, -0.0585203, -0.0271309, -0.00223128, 0.000157525, 3.90754, 67.4252, 33.967, 4.97833, 2.60303, 3.96945, 0.0229602, -0.00165806, -0.000176525, 0.00332083, 0.000623525, -0.000880727, -0.00272025, 0.0458659, -0.0177145, -0.0188146, -0.0823073, 0.13509, 0.046357, 0.472526, -0.539355, 0.337957, -2.08087, -2.16796, -0.126882, 0.472286, -0.540492, 0.334428, -2.07812, -2.17111, -0.125576, 0.0352924, 0.0950097, 0.0483616, 0.0540075, 0.0533731, 0.0221392
0.130128, 1.69665, -1.2272, -1.53927, -0.901381, -1.19419, 1.23001, -1.30269, 0.0829925, 0.0450922, 0.0108908, -0.0613383, -0.0302026, -0.00123228, 0.000579742, 3.87183, 67.3895, 33.967, 4.90295, 2.62134, 3.95572, 0.0101428, -0.00169917, -0.000153543, 0.00333242, 0.000605806, -0.00093726, -0.0028045, 0.0454943, -0.0192383, -0.0175593, -0.0838241, 0.14224, 0.0493392, 0.472561, -0.539259, 0.338006, -2.0808, -2.168, -0.126812, 0.472346, -0.540434, 0.334458, -2.078, -2.17129, -0.125477, 0.0357837, 0.096375, 0.0490484, 0.0560555, 0.0549802, 0.0240745
0.131128, 1.69673, -1.22716, -1.53925, -0.901449, -1.19422, 1.23001, -1.3027, 0.0825448, 0.0448204, 0.0115808, -0.0612457, -0.0333877, -0.00124891, -0.002021, 3.94721, 67.4649, 33.967, 4.86725, 2.66437, 3.96213, 0.0751453, -0.00174412, -0.000134983, 0.00334946, 0.000592356, -0.000985725, -0.00289381, 0.0476674, -0.0181953, -0.017931, -0.0851591, 0.14542, 0.049589, 0.472597, -0.539162, 0.338055, -2.08073, -2.16805, -0.126741, 0.472401, -0.540378, 0.334483, -2.07787, -2.17147, -0.12538, 0.0362765, 0.0977458, 0.0497377, 0.055577, 0.0542177, 0.0240948
0.132128, 1.69681, -1.22712, -1.53924, -0.901519, -1.19424, 1.23001, -1.30269, 0.0839449, 0.0416583, 0.0115424, -0.0641945, -0.0303967, -0.000195243, 0.00106017, 3.94721, 67.5363, 34.1178, 4.82758, 2.68909, 3.94107, 0.0101428, -0.00178932, -0.000113696, 0.00337131, 0.000585037, -0.00103481, -0.00297176, 0.047425, -0.0196786, -0.0206855, -0.0852969, 0.141565, 0.0504137, 0.472634, -0.539064, 0.338106, -2.08066, -2.1681, -0.126669, 0.47246, -0.54032, 0.334504, -2.07774, -2.17163, -0.125274, 0.0367709, 0.0991221, 0.0504295, 0.0574395, 0.0563195, 0.0220567
0.133128, 1.69689, -1.22706, -1.53921, -0.901595, -1.19427, 1.23001, -1.30269, 0.082918, 0.0444105, 0.0162774, -0.0681265, -0.0281257, 0.000305477, 0.000232065, 3.90754, 67.3895, 34.0781, 4.86725, 2.71289, 3.92642, 0.0229602, -0.00183015, -9.02161e-05, 0.00337961, 0.00056692, -0.00110013, -0.00306818, 0.0465154, -0.0205604, -0.0183296, -0.0816694, 0.143621, 0.0555456, 0.472671, -0.538964, 0.338156, -2.08059, -2.16815, -0.126595, 0.472521, -0.540258, 0.334539, -2.07761, -2.17183, -0.125165, 0.0372668, 0.100504, 0.0511238, 0.0588729, 0.0582782, 0.0251896
0.134128, 1.69697, -1.22701, -1.53919, -0.901663, -1.19429, 1.23001, -1.3027, 0.0840993, 0.0458862, 0.0194725, -0.0702234, -0.0262728, 0.00012348, -0.000828632, 3.90754, 67.3895, 34.0424, 4.75616, 2.73212, 3.92642, 0.0495105, -0.00187602, -6.98934e-05, 0.00339433, 0.000544824, -0.00114895, -0.00315759, 0.0456254, -0.0218509, -0.0171923, -0.0797572, 0.144422, 0.060625, 0.472708, -0.538862, 0.338208, -2.08052, -2.16821, -0.126521, 0.47258, -0.540199, 0.334569, -2.07748, -2.17201, -0.125075, 0.0377641, 0.101891, 0.0518204, 0.0606699, 0.0604273, 0.0271054
0.135128, 1.69705, -1.22697, -1.53917, -0.901742, -1.19431, 1.23002, -1.3027, 0.0810099, 0.0477403, 0.0151174, -0.0751025, -0.019925, 0.000802085, -0.0012645, 3.94721, 67.3538, 34.1535, 4.79187, 2.74402, 3.90536, 0.0687366, -0.00192299, -5.02317e-05, 0.00341329, 0.000532763, -0.00120056, -0.0032484, 0.0465526, -0.0206982, -0.018608, -0.0822456, 0.142944, 0.0611712, 0.472746, -0.53876, 0.33826, -2.08044, -2.16826, -0.126446, 0.472639, -0.540139, 0.334594, -2.07734, -2.17219, -0.12497, 0.0382628, 0.103283, 0.0525195, 0.0600003, 0.0610706, 0.0263004
0.136128, 1.69712, -1.22693, -1.53915, -0.901815, -1.19434, 1.23002, -1.3027, 0.0787868, 0.0425037, 0.0179354, -0.0735959, -0.0196668, 0.00103216, -0.000368279, 3.98292, 67.4649, 34.1535, 4.71649, 2.75043, 3.89071, 0.0559192, -0.00197305, -3.17046e-05, 0.00343456, 0.000510972, -0.00124181, -0.00333274, 0.0493279, -0.0192359, -0.0208423, -0.0793849, 0.13817, 0.0571834, 0.472785, -0.538656, 0.338313, -2.08036, -2.16831, -0.12637, 0.472697, -0.540081, 0.334618, -2.07721, -2.17237, -0.124885, 0.0387628, 0.10468, 0.0532208, 0.0590625, 0.0600057, 0.0244144
0.137128, 1.6972, -1.22688, -1.53911, -0.9019, -1.19435, 1.23002, -1.3027, 0.0787474, 0.0471702, 0.0224428, -0.0729396, -0.0190842, 0.000654285, -0.000482877, 3.94721, 67.3538, 34.0424, 4.79187, 2.74402, 3.89071, 0.0623279, -0.00201515, -7.49443e-06, 0.0034461, 0.000485504, -0.00129509, -0.0034377, 0.049476, -0.0192131, -0.0169425, -0.0753276, 0.142735, 0.0578335, 0.472824, -0.538551, 0.338366, -2.08029, -2.16836, -0.126293, 0.472761, -0.540014, 0.334653, -2.07706, -2.17257, -0.124793, 0.0392642, 0.106082, 0.0539245, 0.0596988, 0.0606657, 0.0289471
0.138128, 1.69727, -1.22684, -1.53909, -0.901974, -1.19437, 1.23002, -1.30269, 0.0767587, 0.0398578, 0.0230321, -0.0708353, -0.0245513, 0.000953358, 0.00039016, 3.98292, 67.4252, 34.0424, 4.68079, 2.76874, 3.87607, 0.0431018, -0.00206928, 6.82496e-06, 0.00346853, 0.000463735, -0.00133144, -0.00351616, 0.0541365, -0.0167679, -0.021113, -0.0769465, 0.140727, 0.0506282, 0.472864, -0.538444, 0.338421, -2.08021, -2.16842, -0.126215, 0.472816, -0.539957, 0.334676, -2.07693, -2.17274, -0.124711, 0.0397669, 0.107489, 0.0546303, 0.0577803, 0.0580016, 0.024895
0.139128, 1.69735, -1.22679, -1.53906, -0.90206, -1.19439, 1.23002, -1.30269, 0.0791549, 0.0418461, 0.0276406, -0.0761919, -0.0223189, 0.00166771, 0.00148081, 3.87183, 67.3181, 34.0027, 4.71649, 2.75043, 3.84768, 0.0101428, -0.00211501, 2.99022e-05, 0.00348389, 0.000436651, -0.00137961, -0.00361464, 0.0514331, -0.0198984, -0.0196151, -0.0745332, 0.142422, 0.0583939, 0.472904, -0.538336, 0.338476, -2.08013, -2.16847, -0.126136, 0.47288, -0.539891, 0.334708, -2.07678, -2.17294, -0.124623, 0.0402709, 0.108901, 0.0553384, 0.0613657, 0.0619922, 0.0273984
0.140128, 1.69743, -1.22674, -1.53904, -0.902145, -1.19441, 1.23002, -1.30269, 0.0767775, 0.0462689, 0.0283365, -0.076982, -0.022337, 0.0013688, 0.000512489, 3.79646, 67.207, 34.0781, 4.75616, 2.77515, 3.84036, 0.0229602, -0.00216512, 4.91085e-05, 0.00350235, 0.000417169, -0.00142883, -0.00371092, 0.0531532, -0.0181682, -0.0172908, -0.0743714, 0.147585, 0.0568229, 0.472944, -0.538226, 0.338531, -2.08005, -2.16853, -0.126055, 0.472941, -0.539827, 0.334737, -2.07664, -2.17313, -0.124524, 0.040776, 0.110318, 0.0560486, 0.0603016, 0.0612803, 0.0301948
0.141128, 1.6975, -1.2267, -1.53901, -0.90223, -1.19442, 1.23002, -1.30269, 0.0770706, 0.0397595, 0.0315573, -0.0788774, -0.0161833, 0.00168173, 0.0012911, 3.75678, 67.2427, 34.0424, 4.75616, 2.76233, 3.8193, -0.00267457, -0.00221706, 6.77862e-05, 0.00352321, 0.000383924, -0.00146342, -0.0038037, 0.052692, -0.0196338, -0.0207312, -0.0704586, 0.13712, 0.0605959, 0.472985, -0.538115, 0.338588, -2.07997, -2.16858, -0.125974, 0.473002, -0.539763, 0.334765, -2.07649, -2.17332, -0.124455, 0.0412824, 0.111739, 0.0567608, 0.0621224, 0.0637475, 0.0275335
0.142128, 1.69757, -1.22665, -1.53897, -0.902319, -1.19444, 1.23002, -1.30269, 0.0740006, 0.0457744, 0.0339634, -0.0819916, -0.0168369, 0.00165566, 0.00136936, 3.72108, 67.0959, 34.0027, 4.79187, 2.76233, 3.80466, -0.0164075, -0.00226933, 8.54064e-05, 0.00353712, 0.000351855, -0.00151387, -0.00389774, 0.0536871, -0.0182771, -0.0171286, -0.0697198, 0.144604, 0.0599031, 0.473027, -0.538002, 0.338645, -2.07989, -2.16864, -0.125892, 0.473063, -0.539699, 0.334799, -2.07635, -2.17351, -0.124367, 0.0417899, 0.113165, 0.0574751, 0.0614555, 0.0635819, 0.0316963
0.143128, 1.69764, -1.22661, -1.53893, -0.902412, -1.19445, 1.23002, -1.30269, 0.0758221, 0.0440926, 0.0356794, -0.0842046, -0.0130866, 0.00109775, 0.000675546, 3.6457, 67.0602, 33.967, 4.82758, 2.77515, 3.80466, -0.00999879, -0.00231947, 0.000105979, 0.0035555, 0.000317933, -0.00155234, -0.00400338, 0.0527073, -0.0198794, -0.0184688, -0.0689785, 0.140671, 0.065312, 0.473069, -0.537889, 0.338703, -2.07981, -2.1687, -0.125809, 0.473126, -0.539631, 0.334831, -2.0762, -2.17372, -0.124293, 0.0422985, 0.114595, 0.0581914, 0.0634762, 0.0662559, 0.0311884
0.144128, 1.69771, -1.22656, -1.53889, -0.902509, -1.19447, 1.23002, -1.30269, 0.0753046, 0.0439067, 0.036653, -0.0892341, -0.0139724, 0.000727321, 0.000687723, 3.49494, 66.9849, 33.9313, 4.86725, 2.76233, 3.80466, -0.0164075, -0.00236934, 0.000127395, 0.00357484, 0.000285222, -0.00159053, -0.00410805, 0.0528905, -0.0201543, -0.0194472, -0.0717249, 0.142349, 0.0682348, 0.473111, -0.537773, 0.338761, -2.07972, -2.16875, -0.125725, 0.473191, -0.539562, 0.334862, -2.07604, -2.17392, -0.124218, 0.0428082, 0.11603, 0.0589097, 0.0642315, 0.0676721, 0.0309035
0.145128, 1.69778, -1.22652, -1.53886, -0.902604, -1.19447, 1.23002, -1.30268, 0.0734611, 0.0460869, 0.0367218, -0.0920421, -0.0104855, 0.000752762, 0.000221123, 3.41956, 66.9492, 33.9313, 4.86725, 2.76233, 3.79733, -0.00999879, -0.00242294, 0.000145082, 0.00359305, 0.000245717, -0.0016254, -0.00420987, 0.0534724, -0.0195484, -0.0189505, -0.0714356, 0.142813, 0.0693609, 0.473154, -0.537657, 0.338821, -2.07964, -2.16881, -0.12564, 0.473253, -0.539494, 0.334894, -2.07588, -2.17412, -0.124152, 0.0433189, 0.117469, 0.0596298, 0.0641814, 0.0684349, 0.0320445
0.146128, 1.69784, -1.22647, -1.53881, -0.902709, -1.19448, 1.23002, -1.30269, 0.0703775, 0.0475686, 0.0409959, -0.0988357, -0.00786825, 0.000499302, -0.000835929, 3.41956, 66.9095, 33.8917, 4.94263, 2.76233, 3.79733, 0.0165515, -0.00247648, 0.000161432, 0.00361267, 0.000208181, -0.00165656, -0.00432277, 0.0527568, -0.0197337, -0.0178822, -0.0698719, 0.143204, 0.0750819, 0.473198, -0.537538, 0.338881, -2.07955, -2.16887, -0.125554, 0.473315, -0.539425, 0.334926, -2.07571, -2.17434, -0.124087, 0.0438306, 0.118913, 0.0603519, 0.0648942, 0.070431, 0.0339258
0.147128, 1.69791, -1.22643, -1.53877, -0.902821, -1.19449, 1.23002, -1.30269, 0.0678076, 0.0464548, 0.0423782, -0.101635, -0.00637866, 0.00111086, -0.00154063, 3.30451, 66.8381, 33.9313, 5.05371, 2.77515, 3.77627, 0.0431018, -0.00252738, 0.00018278, 0.00363398, 0.000174905, -0.00169313, -0.00444024, 0.0541637, -0.0188935, -0.0187658, -0.0690157, 0.142209, 0.0757437, 0.473242, -0.537419, 0.338941, -2.07946, -2.16893, -0.125467, 0.473381, -0.539352, 0.334957, -2.07554, -2.17455, -0.124012, 0.0443433, 0.12036, 0.0610757, 0.0645907, 0.0705877, 0.0335881
0.148128, 1.69797, -1.22638, -1.53872, -0.902927, -1.19449, 1.23002, -1.30268, 0.0636622, 0.0479242, 0.048462, -0.101121, -0.00427155, 0.00101041, 0.00141432, 3.26881, 66.8024, 33.8917, 5.05371, 2.76233, 3.76895, -0.0228162, -0.0025813, 0.000200563, 0.00365072, 0.000126439, -0.00172462, -0.00454357, 0.0558464, -0.0171428, -0.0159853, -0.0623469, 0.142283, 0.0706954, 0.473287, -0.537298, 0.339003, -2.07938, -2.16899, -0.125378, 0.473445, -0.539281, 0.334994, -2.07538, -2.17476, -0.123956, 0.044857, 0.121812, 0.0618013, 0.0635333, 0.0698767, 0.0368581
0.149128, 1.69803, -1.22633, -1.53866, -0.903048, -1.1945, 1.23002, -1.30269, 0.0632382, 0.0461118, 0.0498274, -0.106442, -0.00345543, 0.00148634, -4.04644e-05, 3.26881, 66.7627, 33.8559, 5.16479, 2.76874, 3.74698, 0.00373412, -0.00263327, 0.000220049, 0.0036675, 7.7307e-05, -0.00175748, -0.00466758, 0.0557408, -0.0179717, -0.0177574, -0.0635206, 0.141379, 0.0762127, 0.473332, -0.537175, 0.339065, -2.07929, -2.16905, -0.125289, 0.473511, -0.539206, 0.335031, -2.0752, -2.17499, -0.123901, 0.0453715, 0.123267, 0.0625286, 0.0648045, 0.0717444, 0.035825
0.150128, 1.69809, -1.22628, -1.53861, -0.903156, -1.1945, 1.23003, -1.30269, 0.0641263, 0.0455066, 0.0529811, -0.1084, -0.00234404, 0.00176998, -0.00121377, 3.19343, 66.6913, 33.8559, 5.05371, 2.76233, 3.72592, 0.0357776, -0.00268748, 0.000239207, 0.00368238, 2.22232e-05, -0.0017896, -0.00478664, 0.0554903, -0.0190721, -0.0178043, -0.0616663, 0.14097, 0.0807298, 0.473377, -0.537051, 0.339128, -2.0792, -2.16911, -0.125199, 0.473577, -0.539133, 0.33507, -2.07503, -2.17522, -0.123852, 0.0458869, 0.124727, 0.0632577, 0.0664095, 0.0735086, 0.0365105
0.151128, 1.69815, -1.22623, -1.53855, -0.903277, -1.1945, 1.23003, -1.30269, 0.0634234, 0.0481564, 0.0584578, -0.110694, -0.00153367, 0.00117939, -0.00131781, 3.19343, 66.6159, 33.8559, 5.01404, 2.75592, 3.72592, 0.0495105, -0.00274123, 0.000256802, 0.00369614, -3.12855e-05, -0.00182316, -0.00490588, 0.0550334, -0.0195026, -0.0151571, -0.0583223, 0.143452, 0.0838477, 0.473423, -0.536926, 0.339191, -2.07911, -2.16918, -0.125108, 0.473642, -0.539058, 0.335111, -2.07486, -2.17545, -0.123799, 0.0464031, 0.12619, 0.0639883, 0.0674443, 0.07504, 0.0399119
0.152128, 1.6982, -1.22619, -1.53849, -0.903411, -1.1945, 1.23003, -1.30268, 0.0607423, 0.046666, 0.0612834, -0.120723, -0.000975245, 0.000785805, 0.000104806, 3.15376, 66.6913, 33.7806, 5.08942, 2.75043, 3.72592, 0.0229602, -0.00279175, 0.000278444, 0.00371481, -8.65015e-05, -0.00184716, -0.00503774, 0.0541694, -0.02017, -0.0168359, -0.0609514, 0.142916, 0.0889857, 0.47347, -0.536799, 0.339256, -2.07902, -2.16924, -0.125016, 0.473712, -0.538977, 0.335149, -2.07467, -2.17569, -0.123757, 0.0469202, 0.127658, 0.0647206, 0.0685302, 0.0776468, 0.0390975
0.153128, 1.69825, -1.22614, -1.53843, -0.903541, -1.19449, 1.23002, -1.30269, 0.0578727, 0.0493616, 0.0597486, -0.12362, -0.000292634, 0.000523531, -0.000913473, 3.15376, 66.6159, 33.8559, 5.05371, 2.73761, 3.72592, 0.0495105, -0.0028463, 0.000294474, 0.00372926, -0.000136995, -0.00187898, -0.00516797, 0.0560261, -0.0183397, -0.0166035, -0.0634704, 0.146148, 0.0879946, 0.473517, -0.53667, 0.339321, -2.07892, -2.1693, -0.124922, 0.473776, -0.538899, 0.33519, -2.07448, -2.17593, -0.123701, 0.047438, 0.129128, 0.0654544, 0.0673056, 0.0771677, 0.0398358
0.154128, 1.6983, -1.22609, -1.53836, -0.903681, -1.19449, 1.23002, -1.30269, 0.0573867, 0.0476333, 0.0606682, -0.126215, -0.00028298, 0.000620034, -0.000608982, 3.19343, 66.6913, 33.8559, 5.05371, 2.73761, 3.7186, 0.0495105, -0.00290093, 0.000311629, 0.00374535, -0.000195023, -0.00190721, -0.00530105, 0.0569837, -0.0182809, -0.018143, -0.0644325, 0.145598, 0.0888102, 0.473565, -0.53654, 0.339387, -2.07883, -2.16937, -0.124828, 0.473843, -0.53882, 0.335231, -2.07429, -2.17617, -0.123657, 0.0479565, 0.130603, 0.0661897, 0.0677452, 0.0779292, 0.0389059
0.155128, 1.69835, -1.22605, -1.53829, -0.903818, -1.19449, 1.23002, -1.30269, 0.05158, 0.0480649, 0.0618683, -0.131436, -0.000254572, 0.000684432, 0.00105207, 3.22913, 66.8381, 33.967, 4.97833, 2.73761, 3.71127, 0.0101428, -0.00295967, 0.000326859, 0.00376629, -0.000251992, -0.00192997, -0.00542365, 0.0592711, -0.0158309, -0.0184109, -0.0654151, 0.147215, 0.0854098, 0.473613, -0.536409, 0.339453, -2.07873, -2.16943, -0.124733, 0.473908, -0.538743, 0.335268, -2.0741, -2.1764, -0.123614, 0.0484757, 0.132081, 0.0669265, 0.0659011, 0.0770796, 0.0391077
0.156128, 1.69839, -1.22599, -1.53821, -0.903966, -1.19448, 1.23002, -1.30269, 0.0472571, 0.0496267, 0.0722696, -0.13631, 0.000221656, 0.00123604, -1.06942e-05, 3.26881, 66.8024, 33.9313, 4.97833, 2.72571, 3.69021, 0.0293689, -0.00301361, 0.000344435, 0.00377451, -0.000324352, -0.00196412, -0.00556185, 0.0589346, -0.0158532, -0.0147263, -0.0576889, 0.149265, 0.0904376, 0.473662, -0.536276, 0.33952, -2.07864, -2.1695, -0.124636, 0.473976, -0.538662, 0.335318, -2.07392, -2.17666, -0.123578, 0.0489955, 0.133562, 0.0676647, 0.0665789, 0.0783342, 0.0435363
0.157128, 1.69843, -1.22594, -1.53813, -0.904124, -1.19448, 1.23002, -1.30268, 0.0447498, 0.0500214, 0.0755331, -0.143209, 0.000110692, 0.000315292, 0.000230229, 3.26881, 66.8024, 33.967, 4.97833, 2.72571, 3.70395, 0.0229602, -0.0030668, 0.000362885, 0.0037886, -0.000384296, -0.00199617, -0.00570616, 0.0587521, -0.0157814, -0.0147704, -0.0590961, 0.150608, 0.0941274, 0.473711, -0.536142, 0.339588, -2.07854, -2.16956, -0.124539, 0.474045, -0.538577, 0.335364, -2.07371, -2.17692, -0.12353, 0.049516, 0.135047, 0.0684043, 0.0670219, 0.0800033, 0.0442634
0.158128, 1.69846, -1.22589, -1.53805, -0.90428, -1.19448, 1.23002, -1.30268, 0.039576, 0.052505, 0.0794316, -0.145805, 4.59854e-05, 0.000447473, 0.000865563, 3.41956, 66.8381, 34.0781, 4.90295, 2.72571, 3.69754, 0.00373412, -0.00312693, 0.000374767, 0.00380085, -0.000450901, -0.00203023, -0.00583699, 0.0608177, -0.0135294, -0.0125403, -0.0563891, 0.154002, 0.0912972, 0.473761, -0.536006, 0.339657, -2.07844, -2.16963, -0.124441, 0.474108, -0.538498, 0.335411, -2.07353, -2.17717, -0.123484, 0.0500371, 0.136535, 0.0691452, 0.0654688, 0.079011, 0.0469646
0.159128, 1.6985, -1.22584, -1.53796, -0.904449, -1.19448, 1.23002, -1.30268, 0.0360469, 0.0494252, 0.0849523, -0.149914, 0.00443999, 0.000569523, 0.000577042, 3.41956, 66.9492, 34.0781, 4.94263, 2.73212, 3.69021, 0.00373412, -0.00318023, 0.000393657, 0.00381604, -0.000516217, -0.00205798, -0.00599187, 0.0609955, -0.013419, -0.013292, -0.0516393, 0.148279, 0.0947228, 0.473811, -0.535869, 0.339727, -2.07834, -2.1697, -0.124341, 0.474179, -0.538411, 0.335456, -2.07331, -2.17745, -0.123446, 0.0505588, 0.138026, 0.0698875, 0.065861, 0.0804366, 0.0469417
0.160128, 1.69853, -1.22579, -1.53786, -0.904605, -1.19448, 1.23002, -1.30268, 0.0319176, 0.0482578, 0.0891899, -0.15159, 0.00289251, -0.00425705, 0.000147336, 3.49494, 67.0206, 34.0781, 4.79187, 2.74402, 3.69021, 0.0101428, -0.00324157, 0.00040585, 0.00382897, -0.000592691, -0.00208295, -0.00612945, 0.062931, -0.0106011, -0.0134472, -0.0536693, 0.146748, 0.0929172, 0.473862, -0.53573, 0.339797, -2.07824, -2.16977, -0.124241, 0.474244, -0.53833, 0.335504, -2.07312, -2.1777, -0.123419, 0.0510809, 0.13952, 0.0706309, 0.0636445, 0.0799156, 0.0473294
0.161128, 1.69856, -1.22574, -1.53778, -0.90478, -1.19448, 1.23002, -1.30268, 0.0287309, 0.0480706, 0.0885772, -0.160426, 0.00176752, -0.00322446, -0.000139135, 3.57032, 67.0602, 34.2289, 4.75616, 2.75592, 3.69021, 0.0165515, -0.00330146, 0.000418268, 0.0038464, -0.000653196, -0.00211161, -0.00627622, 0.0637533, -0.0101563, -0.0152771, -0.0581024, 0.149715, 0.095969, 0.473913, -0.53559, 0.339868, -2.07814, -2.16984, -0.12414, 0.474309, -0.538246, 0.335548, -2.07291, -2.17797, -0.123371, 0.0516036, 0.141018, 0.0713756, 0.0636865, 0.0808593, 0.0461565
0.162128, 1.69858, -1.2257, -1.53768, -0.904961, -1.19448, 1.23002, -1.30268, 0.0280923, 0.0470654, 0.0944931, -0.166939, 0.00570349, -0.00243946, -9.27567e-05, 3.57032, 67.1317, 34.2289, 4.71649, 2.76874, 3.69021, 0.0165515, -0.00335868, 0.000434384, 0.00386235, -0.000722911, -0.0021393, -0.00643072, 0.061813, -0.012289, -0.0150919, -0.05405, 0.147056, 0.104014, 0.473965, -0.535448, 0.33994, -2.07804, -2.16991, -0.124037, 0.474379, -0.538157, 0.335595, -2.07269, -2.17824, -0.123334, 0.0521267, 0.142518, 0.0721215, 0.0662722, 0.0843451, 0.047313
0.163128, 1.69861, -1.22565, -1.53758, -0.905136, -1.19448, 1.23002, -1.30268, 0.0256978, 0.0465791, 0.0914027, -0.168356, 0.00503714, -0.00184367, -0.00128254, 3.6457, 67.207, 34.3043, 4.53003, 2.75043, 3.69021, 0.0495105, -0.00342069, 0.000446191, 0.00387663, -0.000801074, -0.00216277, -0.00658373, 0.0649084, -0.0101837, -0.0170345, -0.0574517, 0.148651, 0.101222, 0.474018, -0.535305, 0.340012, -2.07793, -2.16998, -0.123934, 0.474445, -0.538073, 0.335644, -2.07248, -2.17852, -0.12331, 0.0526502, 0.144021, 0.0728685, 0.064744, 0.0829912, 0.0457376
0.164128, 1.69862, -1.22561, -1.53747, -0.905329, -1.19448, 1.23001, -1.30268, 0.0201554, 0.0453773, 0.093957, -0.174892, 0.00241925, -0.00139214, -0.000617668, 3.75678, 67.3181, 34.3043, 4.45465, 2.78705, 3.69021, 0.0431018, -0.00348175, 0.000457838, 0.003894, -0.000876788, -0.00218381, -0.0067391, 0.0671466, -0.00820616, -0.0179454, -0.0589432, 0.15107, 0.100018, 0.474071, -0.53516, 0.340086, -2.07783, -2.17005, -0.123829, 0.474511, -0.537985, 0.33569, -2.07226, -2.1788, -0.123284, 0.0531742, 0.145527, 0.0736165, 0.0633509, 0.082335, 0.0453101
0.165128, 1.69864, -1.22556, -1.53737, -0.905526, -1.19448, 1.23001, -1.30268, 0.0169462, 0.0480066, 0.0996678, -0.183486, 0.00101042, -0.000779091, -0.000649138, 3.83216, 67.2784, 34.4153, 4.37927, 2.81177, 3.68289, 0.0495105, -0.00354323, 0.000468473, 0.00390749, -0.000946162, -0.0022178, -0.00689696, 0.0664873, -0.008624, -0.0158751, -0.05799, 0.156461, 0.105458, 0.474124, -0.535014, 0.34016, -2.07772, -2.17012, -0.123723, 0.474577, -0.537897, 0.335741, -2.07204, -2.17908, -0.123237, 0.0536985, 0.147036, 0.0743657, 0.064353, 0.0841996, 0.0481923
0.166128, 1.69865, -1.2255, -1.53725, -0.90574, -1.19448, 1.23001, -1.30268, 0.0183728, 0.0527345, 0.107549, -0.193132, -7.0777e-06, -6.85594e-05, -0.00138219, 3.87183, 67.2427, 34.3757, 4.30786, 2.83649, 3.66824, 0.0751453, -0.00359736, 0.000486817, 0.00391915, -0.00102578, -0.00224995, -0.00708118, 0.0627238, -0.0122581, -0.0121712, -0.0559072, 0.163786, 0.118231, 0.474178, -0.534866, 0.340234, -2.07762, -2.17019, -0.123617, 0.474651, -0.5378, 0.335795, -2.07179, -2.1794, -0.123206, 0.0542231, 0.148547, 0.0751158, 0.0685071, 0.0890321, 0.0530567
0.167128, 1.69866, -1.22546, -1.53714, -0.905954, -1.19448, 1.23001, -1.30268, 0.0106139, 0.0514835, 0.106579, -0.199167, 0.00461731, 0.000394145, -0.000684104, 4.02259, 67.2784, 34.4867, 4.19281, 2.84198, 3.65451, 0.0687366, -0.00366005, 0.000496153, 0.00393539, -0.0010995, -0.00227752, -0.007246, 0.0654114, -0.00912281, -0.0141909, -0.0565527, 0.16033, 0.1151, 0.474232, -0.534717, 0.34031, -2.07751, -2.17026, -0.123509, 0.474717, -0.53771, 0.335845, -2.07156, -2.17969, -0.123169, 0.054748, 0.150061, 0.0758669, 0.0659332, 0.0880548, 0.0515076
0.168128, 1.69867, -1.22541, -1.53701, -0.906174, -1.19448, 1.23, -1.30269, 0.0067316, 0.0527548, 0.110837, -0.205429, 0.00268222, -0.00456558, -0.000693428, 4.09797, 67.3538, 34.5264, 4.1214, 2.8667, 3.65451, 0.0751453, -0.00371866, 0.000509905, 0.00395227, -0.00117727, -0.00229917, -0.00742919, 0.0657179, -0.00733433, -0.0135718, -0.0608747, 0.161932, 0.116959, 0.474287, -0.534566, 0.340386, -2.0774, -2.17034, -0.123401, 0.474787, -0.537614, 0.335895, -2.07131, -2.18, -0.123144, 0.0552732, 0.151577, 0.0766189, 0.0647145, 0.089092, 0.0528858
0.169128, 1.69867, -1.22535, -1.53689, -0.906396, -1.19448, 1.23, -1.30269, 0.00508691, 0.0558436, 0.113834, -0.212094, 0.00640377, -0.00866764, -0.000733553, 4.24873, 67.207, 34.5621, 4.04602, 2.87952, 3.66824, 0.0824695, -0.00377995, 0.000518359, 0.00395949, -0.00125747, -0.00233495, -0.00760282, 0.0639629, -0.00741428, -0.012434, -0.0633231, 0.161315, 0.122666, 0.474343, -0.534414, 0.340463, -2.07729, -2.17041, -0.123291, 0.474854, -0.537521, 0.335955, -2.07108, -2.18031, -0.123106, 0.0557986, 0.153096, 0.0773717, 0.0652988, 0.0921748, 0.0550302
0.170128, 1.69867, -1.2253, -1.53677, -0.906626, -1.19448, 1.22999, -1.30269, 0.00493375, 0.0502986, 0.114654, -0.216729, 0.00451233, -0.0070384, 0.00025695, 4.36378, 67.2427, 34.6732, 3.97064, 2.89142, 3.68289, 0.0623279, -0.00384259, 0.00052825, 0.00397575, -0.00133369, -0.00236294, -0.00777813, 0.0651184, -0.0081025, -0.0164162, -0.0652481, 0.159519, 0.124291, 0.474399, -0.53426, 0.340541, -2.07718, -2.17049, -0.12318, 0.474921, -0.537426, 0.336007, -2.07083, -2.18062, -0.123069, 0.0563242, 0.154618, 0.0781255, 0.0664009, 0.0931915, 0.0516519
0.171128, 1.69866, -1.22525, -1.53663, -0.906871, -1.19448, 1.22999, -1.30269, 0.000817669, 0.0501429, 0.121065, -0.227665, 0.00260567, -0.00495908, 0.000408659, 4.51453, 67.2427, 34.6732, 4.04602, 2.91614, 3.67557, 0.0559192, -0.00389985, 0.000541803, 0.00398611, -0.00141847, -0.0023953, -0.00797187, 0.064538, -0.00891164, -0.0158769, -0.0638392, 0.163429, 0.130927, 0.474456, -0.534104, 0.340619, -2.07707, -2.17056, -0.123068, 0.474994, -0.537325, 0.336066, -2.07058, -2.18095, -0.123039, 0.05685, 0.156141, 0.07888, 0.0677368, 0.0952441, 0.0530018
0.172128, 1.69866, -1.2252, -1.5365, -0.907116, -1.19448, 1.22998, -1.30268, -0.00302535, 0.050899, 0.12402, -0.234086, 0.00100287, -0.00425215, 0.000272439, 4.701, 67.3538, 34.7486, 3.93494, 2.94635, 3.69021, 0.0559192, -0.00396219, 0.000551315, 0.00400292, -0.00149566, -0.00242156, -0.00815555, 0.0656219, -0.00803607, -0.0155488, -0.064336, 0.167139, 0.132589, 0.474513, -0.533947, 0.340699, -2.07696, -2.17064, -0.122956, 0.475062, -0.537227, 0.336119, -2.07032, -2.18127, -0.123005, 0.0573759, 0.157667, 0.0796352, 0.0674505, 0.095609, 0.0539461
0.173128, 1.69865, -1.22515, -1.53637, -0.90737, -1.19448, 1.22997, -1.30268, -0.00411473, 0.0518022, 0.12718, -0.240426, 0.000278956, -0.00364606, 0.000656344, 4.81605, 67.3181, 34.7883, 3.85956, 2.96466, 3.70395, 0.0431018, -0.00401941, 0.000563752, 0.00401356, -0.00157125, -0.00245631, -0.00835187, 0.0652578, -0.00878939, -0.0151988, -0.0647063, 0.170297, 0.13677, 0.47457, -0.533789, 0.340779, -2.07684, -2.17071, -0.122842, 0.475134, -0.537123, 0.336179, -2.07005, -2.1816, -0.12296, 0.0579019, 0.159194, 0.0803912, 0.0687322, 0.0974786, 0.0550792
0.174128, 1.69865, -1.22509, -1.53623, -0.907634, -1.19448, 1.22997, -1.30269, -0.00178853, 0.0519906, 0.129224, -0.247924, 0.000843191, -0.00242035, -0.0010205, 4.92713, 67.4252, 34.824, 3.78418, 2.95276, 3.69754, 0.0824695, -0.00407617, 0.000578303, 0.00402817, -0.00165057, -0.00248578, -0.0085633, 0.0631293, -0.0117825, -0.0159417, -0.0660464, 0.172281, 0.147311, 0.474629, -0.533629, 0.340859, -2.07673, -2.17079, -0.122727, 0.475208, -0.537016, 0.336237, -2.06977, -2.18195, -0.122926, 0.0584279, 0.160724, 0.0811479, 0.0721327, 0.101363, 0.0553273
0.175128, 1.69864, -1.22504, -1.5361, -0.907898, -1.19448, 1.22997, -1.30268, -0.00204371, 0.05198, 0.130729, -0.254477, -0.000428451, -0.00151255, 0.00176107, 5.11756, 67.4252, 34.9708, 3.59772, 2.98389, 3.69021, 0.0165515, -0.0041382, 0.000588068, 0.00404237, -0.00172396, -0.002524, -0.00875318, 0.0629032, -0.0127731, -0.0167629, -0.0681533, 0.175277, 0.149145, 0.474687, -0.533468, 0.340941, -2.07661, -2.17087, -0.122611, 0.475279, -0.536913, 0.336294, -2.06951, -2.18228, -0.122872, 0.0589541, 0.162256, 0.0819052, 0.0736089, 0.10329, 0.0552753
0.176128, 1.69862, -1.22498, -1.53596, -0.908178, -1.19448, 1.22996, -1.30268, -0.00419349, 0.0563419, 0.135161, -0.263788, -0.00196105, -0.00620255, -0.000758731, 5.26832, 67.5006, 35.1572, 3.59772, 3.03241, 3.69754, 0.0687366, -0.00419658, 0.000600136, 0.00405972, -0.0017908, -0.00255835, -0.00897047, 0.0611568, -0.0126732, -0.0147611, -0.073371, 0.180118, 0.158045, 0.474746, -0.533304, 0.341023, -2.07649, -2.17095, -0.122494, 0.475352, -0.536805, 0.33635, -2.06921, -2.18263, -0.122818, 0.0594802, 0.16379, 0.0826631, 0.0740496, 0.10624, 0.0582822
0.177128, 1.69861, -1.22493, -1.53579, -0.908466, -1.19448, 1.22995, -1.30268, 0.000552899, 0.0526051, 0.142407, -0.271348, -0.00189424, -0.00918122, -3.11028e-05, 5.41908, 67.6117, 35.0461, 3.52234, 3.05072, 3.68289, 0.0559192, -0.0042476, 0.000619473, 0.00406912, -0.00188194, -0.00258973, -0.00920261, 0.056878, -0.0171764, -0.0164408, -0.0747616, 0.176317, 0.171035, 0.474806, -0.53314, 0.341106, -2.07637, -2.17103, -0.122376, 0.475433, -0.536688, 0.336416, -2.06891, -2.18301, -0.122793, 0.0600063, 0.165325, 0.0834216, 0.078829, 0.112468, 0.0578829
0.178128, 1.69859, -1.22487, -1.53565, -0.908756, -1.19447, 1.22994, -1.30268, -0.00492848, 0.0508304, 0.143437, -0.282376, -0.00143171, -0.00610298, 0.00119997, 5.68488, 67.6831, 35.2326, 3.37158, 3.05713, 3.66092, 0.0229602, -0.00430781, 0.000630509, 0.00408374, -0.00196238, -0.00262394, -0.0094147, 0.0577959, -0.016779, -0.0186281, -0.0760607, 0.177476, 0.173569, 0.474866, -0.532974, 0.34119, -2.07626, -2.17111, -0.122257, 0.475506, -0.536579, 0.336475, -2.06862, -2.18337, -0.122751, 0.0605324, 0.166863, 0.0841806, 0.0789096, 0.113412, 0.0563554
0.179128, 1.69857, -1.22482, -1.53548, -0.909059, -1.19447, 1.22994, -1.30268, -0.00788488, 0.0514614, 0.147921, -0.285633, -0.002056, -0.00466564, 0.00103734, 5.91102, 67.7942, 35.2683, 3.22479, 3.08826, 3.66092, 0.0165515, -0.00436037, 0.00064778, 0.00409518, -0.00205057, -0.00265457, -0.00965239, 0.0590046, -0.0161932, -0.0173688, -0.0727792, 0.18029, 0.174426, 0.474927, -0.532806, 0.341275, -2.07613, -2.17119, -0.122137, 0.475586, -0.536461, 0.33654, -2.06831, -2.18375, -0.122723, 0.0610583, 0.168402, 0.0849401, 0.0789566, 0.11354, 0.0581944
0.180128, 1.69855, -1.22476, -1.53531, -0.909378, -1.19447, 1.22993, -1.30268, -0.0100284, 0.0557985, 0.160703, -0.292515, 0.00246845, -0.00410069, 0.00021684, 6.13715, 67.8696, 35.308, 3.18512, 3.11206, 3.67557, 0.0293689, -0.00440867, 0.000667638, 0.00410638, -0.00213178, -0.00268912, -0.00990613, 0.0555646, -0.0186255, -0.0115932, -0.0621674, 0.18201, 0.185551, 0.474989, -0.532637, 0.34136, -2.07601, -2.17127, -0.122016, 0.475668, -0.536337, 0.336606, -2.06798, -2.18415, -0.122684, 0.0615842, 0.169942, 0.0857, 0.0820105, 0.11772, 0.0651013
0.181128, 1.69853, -1.2247, -1.53514, -0.909695, -1.19447, 1.22992, -1.30268, -0.0115869, 0.0562339, 0.165302, -0.300111, 0.00562365, -0.00828981, 0.000619278, 6.36329, 67.941, 35.4191, 3.11371, 3.14319, 3.68289, 0.0165515, -0.00445925, 0.000685959, 0.00411372, -0.0022191, -0.00272945, -0.0101544, 0.0535192, -0.0191824, -0.0115756, -0.0642322, 0.179215, 0.19235, 0.47505, -0.532466, 0.341446, -2.07589, -2.17135, -0.121894, 0.47575, -0.536214, 0.336677, -2.06766, -2.18455, -0.122644, 0.0621099, 0.171484, 0.0864603, 0.0830115, 0.121307, 0.066173
0.182128, 1.69851, -1.22464, -1.53495, -0.910023, -1.19447, 1.22991, -1.30267, -0.0176567, 0.0563896, 0.170484, -0.307397, 0.00377789, -0.00591954, 0.000412852, 6.6648, 68.0164, 35.4548, 2.99866, 3.1615, 3.67557, 0.0165515, -0.00450817, 0.000705107, 0.00411821, -0.00231621, -0.00276809, -0.0104093, 0.0551527, -0.0179095, -0.0106613, -0.0615682, 0.183258, 0.19364, 0.475113, -0.532294, 0.341533, -2.07577, -2.17143, -0.121771, 0.475834, -0.536089, 0.336751, -2.06733, -2.18497, -0.122616, 0.0626355, 0.173028, 0.087221, 0.0823765, 0.12104, 0.0676314
0.183128, 1.69848, -1.22458, -1.53478, -0.910365, -1.19447, 1.22989, -1.30268, -0.020223, 0.0616158, 0.171133, -0.324628, 0.00213328, -0.0101342, 0.000512594, 6.89094, 68.0164, 35.6412, 2.88757, 3.18622, 3.70395, 0.0101428, -0.00455475, 0.000725613, 0.00412841, -0.00239189, -0.00281028, -0.0106783, 0.052006, -0.0187104, -0.0105411, -0.0733674, 0.190264, 0.204574, 0.475176, -0.53212, 0.34162, -2.07564, -2.17152, -0.121646, 0.475919, -0.535958, 0.336821, -2.06698, -2.18539, -0.122562, 0.0631608, 0.174573, 0.087982, 0.0835785, 0.125713, 0.0689649
0.184128, 1.69845, -1.22452, -1.53459, -0.91071, -1.19447, 1.22988, -1.30267, -0.0232933, 0.0642481, 0.176073, -0.331416, 0.00158249, -0.0118262, 0.00010437, 7.15675, 68.1989, 35.6412, 2.85187, 3.19263, 3.69021, 0.0165515, -0.00460205, 0.000746278, 0.00413838, -0.00248444, -0.00284117, -0.0109481, 0.051592, -0.0182984, -0.00870743, -0.0738855, 0.193799, 0.208856, 0.475239, -0.531945, 0.341709, -2.07552, -2.1716, -0.121521, 0.476004, -0.535827, 0.336892, -2.06663, -2.18581, -0.122536, 0.0636859, 0.176119, 0.0887433, 0.0837554, 0.127373, 0.0716151
0.185128, 1.69843, -1.22445, -1.5344, -0.911061, -1.19446, 1.22987, -1.30267, -0.0265853, 0.0685713, 0.18343, -0.338375, 0.00525025, -0.0127114, 0.000306939, 7.34321, 68.1631, 35.7523, 2.77649, 3.21643, 3.66824, 0.0101428, -0.00464725, 0.000768697, 0.00414602, -0.0025676, -0.00288425, -0.0112237, 0.0498005, -0.0187933, -0.00496472, -0.0695584, 0.195818, 0.215001, 0.475303, -0.531768, 0.341798, -2.07539, -2.17169, -0.121395, 0.476092, -0.535693, 0.336966, -2.06627, -2.18624, -0.122488, 0.0642108, 0.177667, 0.0895048, 0.0848596, 0.130149, 0.07633
0.186128, 1.6984, -1.22439, -1.53421, -0.911408, -1.19446, 1.22986, -1.30267, -0.0269259, 0.0624322, 0.189096, -0.339926, 0.00273183, -0.00932087, 0.00374658, 7.56934, 68.2385, 35.8674, 2.6654, 3.25397, 3.66092, 0.0431018, -0.00469713, 0.000787537, 0.00415393, -0.00265748, -0.00292395, -0.0114948, 0.0513167, -0.0197706, -0.00695289, -0.0645298, 0.194282, 0.213423, 0.475368, -0.53159, 0.341888, -2.07526, -2.17177, -0.121268, 0.476178, -0.535562, 0.33704, -2.06592, -2.18667, -0.122448, 0.0647353, 0.179216, 0.0902666, 0.0863443, 0.13055, 0.0748623
0.187128, 1.69836, -1.22433, -1.53401, -0.91177, -1.19446, 1.22984, -1.30267, -0.0284844, 0.0571506, 0.19463, -0.346464, 0.00184684, -0.0117401, 0.00194517, 7.7201, 68.3496, 35.9031, 2.55035, 3.26587, 3.66092, 0.0687366, -0.00474097, 0.000811651, 0.00416213, -0.00275378, -0.002956, -0.011787, 0.0509151, -0.0202374, -0.00962813, -0.0660469, 0.189858, 0.220715, 0.475433, -0.53141, 0.341978, -2.07513, -2.17186, -0.121139, 0.476268, -0.535423, 0.337115, -2.06555, -2.18712, -0.122425, 0.0652596, 0.180765, 0.0910285, 0.0872091, 0.132924, 0.0730273
