alisrour97/Franka_experiments/Real_Robot_scripts/servo-franka/Data_5_ki/log_dyn_PI0_0.csv
Time,q1,q2,q3,q4,q5,q6,q7,dq1,dq2,dq3,dq4,dq5,dq6,dq7,t1,t2,t3,t4,t5,t6,t7,ex1,ex2,ex3,ex4,ex5,ex6,ev1,ev2,ev3,ev4,ev5,ev6,xd,yd,zd,uxd,uyd,uzd,x,y,z,ux,uy,uz,vxd,vyd,vzd,vx,vy,vz
9.76563e-07, 1.69142, -1.22457, -1.53836, -0.89987, -1.19213, 1.22848, -1.30262, 0.00232943, -0.00041982, -0.000886442, 0.00347933, 0.00276147, 0.00222407, -0.000173927, -0.884941, 56.9675, 28.4208, 6.47003, 2.21576, 3.06674, -0.193104, 0.000874623, -0.00170296, -0.000392997, 0.000547265, -0.00170579, 0.000393745, 4.14418e-05, -0.00113685, -4.89848e-05, 0.00363807, -0.00166467, -0.000179349, 0.471008, -0.543389, 0.335894, -2.08385, -2.16584, -0.129887, 0.469289, -0.542657, 0.336474, -2.08486, -2.16618, -0.127488, -4.06186e-05, 0.000124715, 6.6488e-05, 0.00109448, 0.000137849, -2.25674e-05
0.0121306, 1.69142, -1.22462, -1.53835, -0.899898, -1.1921, 1.22849, -1.30263, -0.000454294, -0.00399427, 0.000805455, -0.00260881, 0.0030273, 0.00038156, 0.00050997, -0.884941, 56.6739, 28.3454, 6.58508, 2.19745, 3.05942, -0.180287, 0.000883926, -0.00169069, -0.000366688, 0.000536407, -0.00164619, 0.000352894, -0.0006802, -0.00101455, -0.00244421, 0.000827672, -0.00594742, 0.00259877, 0.471008, -0.543389, 0.335894, -2.08385, -2.16584, -0.129887, 0.469301, -0.542642, 0.336444, -2.08479, -2.16619, -0.127585, -6.68636e-05, 0.000218577, 0.000115026, 0.000833824, 0.0013078, -0.00222346
0.0131306, 1.69142, -1.22462, -1.53835, -0.899898, -1.1921, 1.22849, -1.30263, -0.000454294, -0.00399427, 0.000805455, -0.00260881, 0.0030273, 0.00038156, 0.00050997, -0.884941, 56.6739, 28.3454, 6.58508, 2.19745, 3.05942, -0.180287, 0.000883903, -0.00169069, -0.000366681, 0.000536396, -0.00164619, 0.000352906, -0.000569331, -0.00104063, -0.00247987, 0.000780376, -0.00587496, 0.00250916, 0.471008, -0.543389, 0.335894, -2.08385, -2.16584, -0.129887, 0.469301, -0.542642, 0.336444, -2.08479, -2.16619, -0.127585, -9.5592e-05, 0.000321476, 0.000168224, 0.000833824, 0.0013078, -0.00222346
0.0141309, 1.69142, -1.22462, -1.53835, -0.899898, -1.1921, 1.22849, -1.30263, -0.000454294, -0.00399427, 0.000805455, -0.00260881, 0.0030273, 0.00038156, 0.00050997, -0.884941, 56.6739, 28.3454, 6.58508, 2.19745, 3.05942, -0.180287, 0.000883841, -0.00169067, -0.000366661, 0.000536367, -0.00164617, 0.000352939, -0.000448358, -0.00106905, -0.00251876, 0.000728857, -0.00579594, 0.00241147, 0.471008, -0.543389, 0.335894, -2.08385, -2.16584, -0.129887, 0.469301, -0.542642, 0.336444, -2.08479, -2.16619, -0.127585, -0.000126895, 0.000433757, 0.000226255, 0.000833824, 0.0013078, -0.00222346
0.0151309, 1.69142, -1.22462, -1.53835, -0.899898, -1.1921, 1.22849, -1.30263, -0.000454294, -0.00399427, 0.000805455, -0.00260881, 0.0030273, 0.00038156, 0.00050997, -0.884941, 56.6739, 28.3454, 6.58508, 2.19745, 3.05942, -0.180287, 0.000883721, -0.00169064, -0.000366622, 0.000536309, -0.00164614, 0.000353003, -0.000316917, -0.00109988, -0.002561, 0.000672967, -0.00571011, 0.00230541, 0.471008, -0.543389, 0.335894, -2.08385, -2.16584, -0.129887, 0.469301, -0.542642, 0.336444, -2.08479, -2.16619, -0.127585, -0.000160861, 0.000555757, 0.000289294, 0.000833824, 0.0013078, -0.00222346
0.0161309, 1.69142, -1.22462, -1.53835, -0.899898, -1.1921, 1.22849, -1.30263, -0.000454294, -0.00399427, 0.000805455, -0.00260881, 0.0030273, 0.00038156, 0.00050997, -0.884941, 56.6739, 28.3454, 6.58508, 2.19745, 3.05942, -0.180287, 0.000883524, -0.0016906, -0.000366559, 0.000536215, -0.0016461, 0.000353109, -0.00017465, -0.0011332, -0.00260671, 0.000612564, -0.00561724, 0.00219069, 0.471008, -0.543389, 0.335894, -2.08385, -2.16584, -0.129886, 0.469301, -0.542642, 0.336444, -2.08479, -2.16619, -0.127585, -0.000197581, 0.000687809, 0.000357511, 0.000833824, 0.0013078, -0.00222346
0.0171309, 1.69142, -1.22462, -1.53835, -0.899898, -1.1921, 1.22849, -1.30263, -0.000454294, -0.00399427, 0.000805455, -0.00260881, 0.0030273, 0.00038156, 0.00050997, -0.884941, 56.6739, 28.3454, 6.58508, 2.19745, 3.05942, -0.180287, 0.00088323, -0.00169053, -0.000366464, 0.000536075, -0.00164603, 0.000353265, -2.12037e-05, -0.0011691, -0.00265599, 0.000547506, -0.00551711, 0.00206704, 0.471008, -0.543389, 0.335894, -2.08385, -2.16584, -0.129886, 0.469301, -0.542642, 0.336444, -2.08479, -2.16619, -0.127585, -0.000237139, 0.000830243, 0.000431075, 0.000833824, 0.0013078, -0.00222346
0.0181309, 1.69142, -1.22462, -1.53835, -0.899898, -1.1921, 1.22849, -1.30263, -0.000454294, -0.00399427, 0.000805455, -0.00260881, 0.0030273, 0.00038156, 0.00050997, -0.884941, 56.6739, 28.3454, 6.58508, 2.19745, 3.05942, -0.180287, 0.000882821, -0.00169043, -0.000366332, 0.000535879, -0.00164593, 0.000353484, 0.000143771, -0.00120765, -0.00270897, 0.000477655, -0.0054095, 0.00193418, 0.471008, -0.543388, 0.335894, -2.08385, -2.16584, -0.129886, 0.469301, -0.542642, 0.336444, -2.08479, -2.16619, -0.127585, -0.000279621, 0.000983381, 0.00051015, 0.000833824, 0.0013078, -0.00222346
0.0191309, 1.69142, -1.22462, -1.53835, -0.899898, -1.1921, 1.22849, -1.30263, -0.000454294, -0.00399427, 0.000805455, -0.00260881, 0.0030273, 0.00038156, 0.00050997, -0.884941, 56.6739, 28.3454, 6.58508, 2.19745, 3.05942, -0.180287, 0.000882279, -0.0016903, -0.000366157, 0.00053562, -0.00164581, 0.000353773, 0.000320613, -0.00124892, -0.00276575, 0.000402876, -0.00529418, 0.00179185, 0.471008, -0.543388, 0.335895, -2.08385, -2.16584, -0.129886, 0.469301, -0.542642, 0.336444, -2.08479, -2.16619, -0.127585, -0.00032511, 0.00114754, 0.000594898, 0.000833824, 0.0013078, -0.00222346
0.0201309, 1.69142, -1.22462, -1.53835, -0.899898, -1.1921, 1.22849, -1.30263, -0.000454294, -0.00399427, 0.000805455, -0.00260881, 0.0030273, 0.00038156, 0.00050997, -0.884941, 56.6739, 28.3454, 6.58508, 2.19745, 3.05942, -0.180287, 0.000881583, -0.00169014, -0.000365933, 0.000535287, -0.00164564, 0.000354144, 0.000509658, -0.00129298, -0.00282642, 0.000323038, -0.00517094, 0.00163979, 0.471007, -0.543387, 0.335895, -2.08384, -2.16584, -0.129885, 0.469301, -0.542642, 0.336444, -2.08479, -2.16619, -0.127585, -0.000373687, 0.00132303, 0.000685479, 0.000833824, 0.0013078, -0.00222346
0.0211309, 1.69143, -1.22466, -1.53831, -0.899913, -1.19206, 1.2285, -1.30264, 0.000968111, -0.00765806, 0.00760003, -0.000973337, 0.00878306, 0.00155243, -0.0036711, -0.996025, 56.3406, 27.9368, 6.54541, 2.08118, 3.03012, -0.147328, 0.000904443, -0.00166344, -0.000351518, 0.000483987, -0.00156586, 0.000283079, -0.00152139, -0.00389628, -0.00238167, 0.0101227, -0.0133644, 0.0109069, 0.471007, -0.543386, 0.335895, -2.08384, -2.16584, -0.129884, 0.469326, -0.542616, 0.336433, -2.0847, -2.16624, -0.12773, -0.000425431, 0.00151016, 0.000782046, 0.00332544, 0.0035381, -0.00145097
0.0221309, 1.69144, -1.22467, -1.5383, -0.89992, -1.19205, 1.2285, -1.30264, 0.000664604, -0.00905055, 0.0071808, -0.00251924, 0.0114148, 0.00112844, -0.00250229, -0.996025, 56.3406, 27.8614, 6.62079, 2.07477, 3.03012, -0.153737, 0.000907996, -0.00165778, -0.000349291, 0.000475886, -0.00155707, 0.000267515, -0.00197427, -0.0042918, -0.00365389, 0.00971835, -0.0168226, 0.0113243, 0.471007, -0.543385, 0.335896, -2.08384, -2.16584, -0.129884, 0.469331, -0.542611, 0.336432, -2.08468, -2.16625, -0.127748, -0.000480419, 0.00170921, 0.00088475, 0.00360334, 0.00439625, -0.00254612
0.0231309, 1.69143, -1.22467, -1.5383, -0.899922, -1.19205, 1.2285, -1.30264, -0.00130577, -0.00988432, 0.00672079, -0.0040483, 0.0105108, 0.00133103, -0.00310808, -0.920646, 56.1938, 27.79, 6.58508, 2.01984, 3.01639, -0.120778, 0.00090466, -0.00165978, -0.000347392, 0.000471907, -0.00155211, 0.000269989, -0.000949055, -0.00345024, -0.00447018, 0.00848187, -0.0165604, 0.0106287, 0.471007, -0.543384, 0.335896, -2.08384, -2.16585, -0.129883, 0.469329, -0.542613, 0.33643, -2.08468, -2.16625, -0.127757, -0.000538724, 0.00192048, 0.000993739, 0.00271176, 0.00368661, -0.00337691
0.0241309, 1.69144, -1.22466, -1.53829, -0.899923, -1.19204, 1.2285, -1.30264, 0.000903522, -0.00545738, 0.00459401, -0.00431136, 0.0115226, 0.000431309, -0.00294852, -0.996025, 55.8249, 27.5281, 6.5097, 1.91546, 3.03012, -0.101552, 0.000911126, -0.00165264, -0.000353516, 0.000464335, -0.00155353, 0.000257725, -0.00204023, -0.00429952, -0.00293414, 0.00611439, -0.0130383, 0.0119233, 0.471006, -0.543383, 0.335897, -2.08384, -2.16585, -0.129882, 0.469336, -0.542605, 0.336437, -2.08467, -2.16627, -0.127764, -0.000600418, 0.00214425, 0.00110915, 0.00351467, 0.00478595, -0.00160102
0.0251309, 1.69144, -1.22467, -1.53829, -0.899924, -1.19205, 1.2285, -1.30264, 0.00366589, -0.00549167, 0.00648174, -0.00467783, 0.0106783, 0.000326977, -0.00283496, -0.996025, 55.7138, 27.2306, 6.43433, 1.84772, 3.03012, -0.0814099, 0.000911759, -0.00164751, -0.000351275, 0.000458647, -0.0015511, 0.000249534, -0.00335506, -0.00620865, -0.0025726, 0.00656904, -0.0122728, 0.0152811, 0.471006, -0.543381, 0.335898, -2.08384, -2.16585, -0.129881, 0.469341, -0.542603, 0.336436, -2.08466, -2.16628, -0.127772, -0.00066557, 0.00238079, 0.00123113, 0.00532221, 0.00634301, -0.000975535
0.0261309, 1.69145, -1.22467, -1.53829, -0.899927, -1.19205, 1.2285, -1.30264, 0.0018694, -0.00413345, 0.00427594, -0.00500384, 0.00622875, 0.00279723, -0.00367786, -0.960319, 55.6781, 27.0798, 6.35895, 1.75525, 3.0878, -0.0356336, 0.000911504, -0.00164554, -0.000347855, 0.000460313, -0.00154527, 0.000244054, -0.000917317, -0.00487375, -0.00237422, 0.004839, -0.00576315, 0.0118398, 0.471005, -0.543379, 0.335899, -2.08384, -2.16585, -0.129879, 0.469342, -0.5426, 0.336434, -2.08465, -2.16628, -0.127775, -0.000734245, 0.00263035, 0.0013598, 0.00401469, 0.00410079, -0.000989074
0.0271309, 1.69145, -1.22469, -1.53829, -0.899931, -1.19205, 1.22851, -1.30264, 0.00260366, -0.00285344, 0.00302731, -0.00322288, -0.000184659, 0.000955068, -0.00130056, -0.884941, 55.9003, 27.0441, 6.32324, 1.74335, 3.1235, -0.0685925, 0.000907893, -0.00164311, -0.000336991, 0.000466145, -0.00153816, 0.000247594, 0.000783365, -0.00365111, -0.00210647, -0.000114415, -1.66489e-05, 0.00562289, 0.471005, -0.543377, 0.3359, -2.08384, -2.16585, -0.129878, 0.469343, -0.5426, 0.336423, -2.08465, -2.16627, -0.127774, -0.000806507, 0.00289319, 0.0014953, 0.00279185, 0.00259343, -0.000816291
0.0281309, 1.69145, -1.22469, -1.53829, -0.899935, -1.19206, 1.22852, -1.30263, 0.00346017, -0.00380158, 0.00235952, -0.00176222, -0.000598533, 0.00669621, -0.000444336, -0.809562, 55.9717, 27.0084, 6.28357, 1.74335, 3.09512, -0.0814099, 0.000905032, -0.00163919, -0.000337814, 0.000458702, -0.00155033, 0.000247686, 0.00204235, -0.00477742, -0.00233108, 0.00445962, 0.00235153, 0.00365648, 0.471004, -0.543375, 0.335901, -2.08384, -2.16585, -0.129876, 0.469347, -0.542601, 0.336425, -2.08466, -2.16628, -0.127768, -0.000882416, 0.00316954, 0.00163773, 0.00387772, 0.00170752, -0.00112496
0.0291309, 1.69146, -1.22468, -1.53829, -0.899942, -1.19206, 1.22853, -1.30263, 0.00494821, -0.00130628, 0.000367373, -0.00461627, -0.000280874, 0.00641027, -9.78756e-05, -0.76989, 56.0471, 27.0441, 6.28357, 1.73053, 3.05942, -0.0878186, 0.000905285, -0.00163164, -0.000338489, 0.00045056, -0.00156088, 0.000239368, 0.000933183, -0.00591002, -0.00217257, 0.0011072, 0.00506444, 0.00612841, 0.471003, -0.543372, 0.335903, -2.08383, -2.16585, -0.129874, 0.469354, -0.542597, 0.336427, -2.08465, -2.1663, -0.127765, -0.000962028, 0.00345964, 0.00178723, 0.0048953, 0.00311459, -0.00068096
0.0301309, 1.69146, -1.22469, -1.5383, -0.899941, -1.19206, 1.22855, -1.30264, 0.00465685, -0.000992958, -0.00263136, -0.00187189, -0.00595871, 0.0110375, -0.00178993, -0.658806, 56.1938, 27.1552, 6.20819, 1.75525, 3.01639, -0.0420422, 0.000899348, -0.00162709, -0.000336016, 0.000439984, -0.00157127, 0.000233735, 0.0044039, -0.00488275, -0.00234881, 0.00110512, 0.0124703, 0.00151556, 0.471002, -0.543369, 0.335904, -2.08383, -2.16585, -0.129871, 0.469357, -0.5426, 0.336425, -2.08466, -2.16632, -0.127765, -0.0010454, 0.0037637, 0.0019439, 0.00390376, -2.26746e-05, -0.00120598
0.0311309, 1.69147, -1.22468, -1.53829, -0.899947, -1.19206, 1.22857, -1.30264, 0.00908718, -0.00196654, -0.0019626, -0.00259416, -0.00387725, 0.0136155, -0.000977871, -0.619133, 56.2653, 27.1552, 6.24786, 1.73694, 2.99441, -0.0484509, 0.000899899, -0.00161739, -0.000336514, 0.000426516, -0.00158011, 0.000224608, 0.00237523, -0.00845024, -0.00290069, 0.00364769, 0.0114487, 0.00647705, 0.471002, -0.543366, 0.335906, -2.08383, -2.16586, -0.129869, 0.469366, -0.542596, 0.336427, -2.08466, -2.16634, -0.127769, -0.00113257, 0.00408193, 0.00210783, 0.00728697, 0.00252927, -0.00137969
0.0321309, 1.69147, -1.22468, -1.53829, -0.899947, -1.19206, 1.22857, -1.30264, 0.00908718, -0.00196654, -0.0019626, -0.00259416, -0.00387725, 0.0136155, -0.000977871, -0.619133, 56.2653, 27.1552, 6.24786, 1.73694, 2.99441, -0.0484509, 0.00089597, -0.00161648, -0.00033525, 0.000424639, -0.00157921, 0.000226692, 0.00273342, -0.0085327, -0.00301535, 0.0034984, 0.0116815, 0.00619072, 0.471001, -0.543362, 0.335908, -2.08383, -2.16586, -0.129866, 0.469366, -0.542596, 0.336427, -2.08466, -2.16634, -0.127769, -0.0012236, 0.00441451, 0.00227914, 0.00728697, 0.00252927, -0.00137969
0.0331309, 1.69147, -1.22468, -1.53829, -0.899947, -1.19206, 1.22857, -1.30264, 0.00908718, -0.00196654, -0.0019626, -0.00259416, -0.00387725, 0.0136155, -0.000977871, -0.619133, 56.2653, 27.1552, 6.24786, 1.73694, 2.99441, -0.0484509, 0.000891658, -0.00161547, -0.000333863, 0.000422579, -0.00157822, 0.000228977, 0.00310727, -0.00861868, -0.003135, 0.00334275, 0.0119243, 0.00589203, 0.470999, -0.543358, 0.33591, -2.08382, -2.16586, -0.129863, 0.469366, -0.542596, 0.336427, -2.08466, -2.16634, -0.127769, -0.00131852, 0.00476163, 0.0024579, 0.00728697, 0.00252927, -0.00137969
0.0341309, 1.69148, -1.22467, -1.53829, -0.899953, -1.19207, 1.22861, -1.30264, 0.00907701, 0.00462271, -0.00466215, -0.000272041, -0.00658857, 0.0122089, -0.00260901, -0.206535, 56.1581, 27.0441, 6.17248, 1.69391, 3.07315, -0.00999879, 0.00088996, -0.00159901, -0.000345186, 0.000389805, -0.00162453, 0.000216092, 0.00451249, -0.00702644, -0.000146307, -6.97731e-06, 0.0202366, 0.00284185, 0.470998, -0.543354, 0.335912, -2.08382, -2.16586, -0.12986, 0.469382, -0.542594, 0.336439, -2.08468, -2.1664, -0.127757, -0.00141737, 0.00512346, 0.00264421, 0.00575615, 0.000978681, 0.00158764
0.0351309, 1.69148, -1.22467, -1.53829, -0.899953, -1.19207, 1.22861, -1.30264, 0.00907701, 0.00462271, -0.00466215, -0.000272041, -0.00658857, 0.0122089, -0.00260901, -0.206535, 56.1581, 27.0441, 6.17248, 1.69391, 3.07315, -0.00999879, 0.000884833, -0.00159782, -0.000343537, 0.000387357, -0.00162335, 0.000218807, 0.00491815, -0.00711955, -0.000276093, -0.000175546, 0.0205, 0.00251805, 0.470997, -0.543349, 0.335915, -2.08382, -2.16586, -0.129856, 0.469382, -0.542594, 0.336439, -2.08468, -2.1664, -0.127757, -0.00152019, 0.00550014, 0.00283813, 0.00575615, 0.000978681, 0.00158764
0.0361309, 1.69149, -1.22466, -1.53829, -0.899961, -1.19208, 1.22864, -1.30263, 0.00818949, 0.00415415, -0.0026149, -0.00114358, -0.00133838, 0.0184767, 9.65183e-05, 0.0949785, 56.0828, 27.0441, 6.20819, 1.60785, 3.1235, -0.0484509, 0.000883441, -0.00158316, -0.000348525, 0.000367465, -0.00165566, 0.000210812, 0.00470524, -0.00901912, 0.000514879, 0.00901551, 0.0190256, 0.00212553, 0.470995, -0.543344, 0.335917, -2.08381, -2.16587, -0.129852, 0.469395, -0.54259, 0.336446, -2.0847, -2.16643, -0.127743, -0.00162701, 0.00589181, 0.00303974, 0.0075674, 0.0015366, 0.00254603
0.0371309, 1.6915, -1.22465, -1.53829, -0.899959, -1.19209, 1.22866, -1.30263, 0.0104287, 0.00620882, -0.00290456, -0.002237, -0.00512871, 0.0227481, 0.00104378, 0.21003, 56.0828, 27.0798, 6.13678, 1.58313, 3.14548, -0.0750012, 0.000878266, -0.00157342, -0.000350156, 0.000350479, -0.00167383, 0.000211087, 0.00488288, -0.0108861, 0.00158634, 0.00983432, 0.0267561, 0.00255231, 0.470994, -0.543338, 0.33592, -2.08381, -2.16587, -0.129848, 0.469404, -0.54259, 0.33645, -2.08471, -2.16645, -0.127739, -0.00173785, 0.0062986, 0.00324909, 0.00936617, 0.00167959, 0.00372951
0.0381309, 1.69151, -1.22466, -1.53829, -0.899959, -1.19209, 1.22867, -1.30263, 0.00715424, 0.00116308, -0.00134571, -3.98039e-05, -0.00720751, 0.020195, -0.00123985, 0.400459, 56.2296, 27.0441, 6.0614, 1.5401, 3.19583, -0.0228162, 0.000870202, -0.0015674, -0.000344286, 0.000336927, -0.00167457, 0.000206265, 0.0077458, -0.00832663, -0.000715289, 0.00895, 0.0220694, -0.000542119, 0.470992, -0.543332, 0.335923, -2.0838, -2.16587, -0.129843, 0.469408, -0.54259, 0.336446, -2.08471, -2.16647, -0.127749, -0.00185274, 0.00672061, 0.00346625, 0.00671449, -0.000475314, 0.00130686
0.0391309, 1.69151, -1.22466, -1.53829, -0.899961, -1.1921, 1.22869, -1.30264, 0.00887789, -0.000644699, -0.0028438, -0.000260318, -0.00527313, 0.0234387, -0.00130348, 0.551216, 56.3049, 27.1195, 6.0614, 1.5282, 3.23153, -0.00999879, 0.000862774, -0.00155917, -0.000341366, 0.000326393, -0.00168904, 0.000203889, 0.00782625, -0.0100315, -0.0022942, 0.0106441, 0.0207625, 0.00100335, 0.470991, -0.543326, 0.335927, -2.0838, -2.16588, -0.129838, 0.469415, -0.542591, 0.336445, -2.08471, -2.16648, -0.127741, -0.0019717, 0.00715794, 0.00369125, 0.00824403, 0.000195432, -9.11131e-05
0.0401309, 1.69153, -1.22466, -1.53829, -0.899955, -1.19211, 1.22872, -1.30263, 0.00893381, -0.00184287, -0.00203343, 0.00224957, -0.00487529, 0.0219197, 0.0012995, 0.626595, 56.3763, 27.1195, 5.95032, 1.54651, 3.25259, -0.0685925, 0.000855043, -0.00154762, -0.000340529, 0.000306333, -0.00170752, 0.00020888, 0.0087413, -0.00954464, -0.00265399, 0.0111046, 0.0185368, -0.00358426, 0.470989, -0.543319, 0.33593, -2.08379, -2.16588, -0.129833, 0.469425, -0.542591, 0.336446, -2.08473, -2.1665, -0.127739, -0.00209472, 0.00761066, 0.00392413, 0.00765458, -0.000219748, -0.000340822
0.0411309, 1.69154, -1.22466, -1.5383, -0.899956, -1.19213, 1.22875, -1.30263, 0.0110487, -0.00103556, -0.00145879, 0.00229623, -0.00892947, 0.0216819, 0.00062774, 0.737679, 56.3763, 27.1195, 5.91064, 1.55932, 3.24527, -0.0621838, 0.000847206, -0.00153491, -0.000341046, 0.000287615, -0.00173547, 0.000204644, 0.00890044, -0.010422, -0.00226163, 0.00906676, 0.0228928, -0.00236399, 0.470987, -0.543312, 0.335934, -2.08379, -2.16589, -0.129827, 0.469436, -0.542591, 0.336448, -2.08475, -2.16653, -0.127726, -0.00222183, 0.00807884, 0.00416491, 0.0084236, 6.69053e-05, 0.000236213
0.0421309, 1.69156, -1.22467, -1.5383, -0.899951, -1.19214, 1.22877, -1.30263, 0.00934742, -0.00147362, -0.00364836, 0.00319543, -0.0115713, 0.026393, -0.00178648, 0.85273, 56.416, 27.2306, 5.83527, 1.56482, 3.23153, -0.00267457, 0.000836498, -0.00152384, -0.000335363, 0.000273241, -0.00175287, 0.000203504, 0.0119546, -0.00957227, -0.00282991, 0.0104552, 0.0272979, -0.00476123, 0.470984, -0.543304, 0.335938, -2.08378, -2.16589, -0.129821, 0.469445, -0.542592, 0.336445, -2.08476, -2.16655, -0.127719, -0.00235303, 0.00856251, 0.00441363, 0.00753261, -0.00241195, -0.000524527
0.0431309, 1.69157, -1.22467, -1.5383, -0.899947, -1.19216, 1.2288, -1.30263, 0.0114417, -0.000873839, -0.00156226, 0.00372676, -0.00983469, 0.029274, 2.9021e-05, 0.963814, 56.416, 27.1909, 5.76385, 1.59595, 3.23153, -0.0356336, 0.000825448, -0.00151119, -0.000335031, 0.000251054, -0.00178192, 0.000209218, 0.0111821, -0.0118293, -0.00169325, 0.0153506, 0.0281287, -0.00381978, 0.470982, -0.543295, 0.335942, -2.08378, -2.16589, -0.129815, 0.469455, -0.542594, 0.336447, -2.08479, -2.16658, -0.127707, -0.00248832, 0.00906169, 0.00467028, 0.00966487, -0.00123247, 0.000906266
0.0441309, 1.69159, -1.22466, -1.53831, -0.899947, -1.19218, 1.22883, -1.30262, 0.0158733, -0.000501127, -0.00201305, 0.00242903, -0.0130815, 0.0297511, 0.00147689, 1.07887, 56.416, 27.2306, 5.76385, 1.62616, 3.27456, -0.0750012, 0.00081655, -0.00149658, -0.000332521, 0.000238578, -0.00181145, 0.000209604, 0.0101344, -0.0143675, -0.00218146, 0.0123623, 0.0320314, -0.00150879, 0.47098, -0.543286, 0.335947, -2.08377, -2.1659, -0.129808, 0.469468, -0.542593, 0.336447, -2.0848, -2.1666, -0.127684, -0.00262768, 0.00957641, 0.00493487, 0.0120053, 0.000495738, 0.000774743
0.0451309, 1.69161, -1.22467, -1.53832, -0.899939, -1.1922, 1.22886, -1.30262, 0.0131515, -0.00194345, -0.00397313, 0.004269, -0.0153607, 0.0304127, 0.00122156, 1.18995, 56.4874, 27.3417, 5.6488, 1.65088, 3.31759, -0.0814099, 0.000802523, -0.00148442, -0.000325055, 0.00022572, -0.00183413, 0.00021601, 0.0135262, -0.0121048, -0.00344633, 0.0111039, 0.0330405, -0.00768803, 0.470977, -0.543277, 0.335952, -2.08376, -2.1659, -0.129801, 0.469478, -0.542596, 0.336442, -2.08482, -2.16662, -0.127667, -0.00277111, 0.0101066, 0.00520739, 0.00967791, -0.00222059, -0.000659769
0.0461309, 1.69163, -1.22467, -1.53832, -0.899934, -1.19222, 1.22889, -1.30263, 0.0173546, -0.00208504, -0.000910002, 0.00448523, -0.016377, 0.0303587, -0.0011187, 1.305, 56.5231, 27.2663, 5.57739, 1.65729, 3.37436, -0.0292249, 0.00079238, -0.00146804, -0.000323208, 0.000201709, -0.00185962, 0.000205825, 0.0118806, -0.0149649, -0.0028272, 0.0124594, 0.033995, -0.000714273, 0.470974, -0.543267, 0.335957, -2.08375, -2.16591, -0.129793, 0.469491, -0.542595, 0.336443, -2.08483, -2.16666, -0.127662, -0.00291859, 0.0106523, 0.00548782, 0.0123503, -2.81766e-05, 0.000401018
0.0471309, 1.69165, -1.22468, -1.53832, -0.899931, -1.19224, 1.22892, -1.30263, 0.0188271, -0.00228369, -0.00238827, 0.00389477, -0.0163229, 0.0353303, -0.00074602, 1.49146, 56.5628, 27.3417, 5.53772, 1.64447, 3.42471, -0.0292249, 0.000779792, -0.00145343, -0.000316834, 0.000189858, -0.00188632, 0.000205707, 0.0124893, -0.0167192, -0.00338156, 0.0147415, 0.036795, -0.000281273, 0.470971, -0.543256, 0.335962, -2.08375, -2.16592, -0.129785, 0.469503, -0.542595, 0.33644, -2.08484, -2.16669, -0.12764, -0.0030701, 0.0112135, 0.00577613, 0.0139526, 8.93015e-05, -5.51575e-06
0.0481309, 1.69167, -1.22467, -1.53833, -0.899923, -1.19226, 1.22895, -1.30262, 0.023738, 0.00026654, -0.00420441, 0.00517741, -0.0172588, 0.0354637, 0.000723192, 1.64619, 56.4874, 27.4528, 5.42664, 1.65729, 3.44668, -0.0621838, 0.00076407, -0.00144069, -0.000315046, 0.000176712, -0.00192526, 0.000220365, 0.0116433, -0.018882, -0.00279288, 0.0126483, 0.040724, 0.000251853, 0.470968, -0.543245, 0.335968, -2.08374, -2.16592, -0.129777, 0.469514, -0.542598, 0.336441, -2.08487, -2.1667, -0.127605, -0.0032256, 0.01179, 0.00607228, 0.0159482, 0.0014992, 0.000937829
0.0491309, 1.69169, -1.22468, -1.53833, -0.899918, -1.19229, 1.22899, -1.30262, 0.0224466, -0.00156622, -0.00338277, 0.00436646, -0.022098, 0.0308349, 0.00119408, 1.75727, 56.5628, 27.3417, 5.38696, 1.65088, 3.46774, -0.0814099, 0.00075324, -0.00142022, -0.000311169, 0.000151273, -0.00195331, 0.000212404, 0.0130939, -0.017269, -0.00423216, 0.00648953, 0.0409625, -0.00248893, 0.470965, -0.543234, 0.335974, -2.08373, -2.16593, -0.129768, 0.469531, -0.542596, 0.336441, -2.08488, -2.16674, -0.127596, -0.00338507, 0.0123818, 0.00637623, 0.0141778, 0.000814396, -0.000355826
0.0501309, 1.69171, -1.22467, -1.53834, -0.89991, -1.19231, 1.22903, -1.30263, 0.0222891, -0.000101634, -0.00664615, 0.00549956, -0.0205361, 0.0325458, -0.00161154, 1.9477, 56.5231, 27.3774, 5.27588, 1.63257, 3.47507, -0.0164075, 0.000736857, -0.00140383, -0.000311112, 0.000126047, -0.00199588, 0.000212659, 0.0145628, -0.0169636, -0.00441997, 0.00626826, 0.0425187, -0.00241941, 0.470962, -0.543221, 0.335981, -2.08372, -2.16594, -0.129759, 0.469545, -0.542599, 0.336444, -2.08491, -2.16678, -0.127572, -0.00354847, 0.0129888, 0.00668792, 0.0137553, -1.22864e-05, -0.000448331
0.0511309, 1.69171, -1.22467, -1.53834, -0.89991, -1.19231, 1.22903, -1.30263, 0.0222891, -0.000101634, -0.00664615, 0.00549956, -0.0205361, 0.0325458, -0.00161154, 1.9477, 56.5231, 27.3774, 5.27588, 1.63257, 3.47507, -0.0164075, 0.000722915, -0.00140062, -0.00030664, 0.000119398, -0.00199273, 0.00021999, 0.0152325, -0.0171147, -0.00463348, 0.00599458, 0.0429516, -0.00294961, 0.470958, -0.543208, 0.335987, -2.08371, -2.16594, -0.129749, 0.469545, -0.542599, 0.336444, -2.08491, -2.16678, -0.127572, -0.00371575, 0.0136108, 0.00700727, 0.0137553, -1.22864e-05, -0.000448331
0.0521309, 1.69173, -1.22468, -1.53835, -0.899907, -1.19234, 1.22906, -1.30263, 0.0202887, -0.000984906, -0.00900922, 0.00365897, -0.0201297, 0.0332427, -0.00107443, 2.09846, 56.5628, 27.417, 5.27588, 1.63257, 3.49612, -0.0164075, 0.000704939, -0.00138445, -0.000296661, 0.00010978, -0.00202664, 0.000224107, 0.0168311, -0.016332, -0.00629727, 0.00380364, 0.0427814, -0.00537946, 0.470955, -0.543195, 0.335994, -2.0837, -2.16595, -0.129738, 0.469557, -0.542601, 0.336438, -2.08493, -2.16681, -0.127537, -0.00388686, 0.0142477, 0.0073342, 0.0127998, -0.000729487, -0.00198869
0.0531309, 1.69173, -1.22468, -1.53835, -0.899907, -1.19234, 1.22906, -1.30263, 0.0202887, -0.000984906, -0.00900922, 0.00365897, -0.0201297, 0.0332427, -0.00107443, 2.09846, 56.5628, 27.417, 5.27588, 1.63257, 3.49612, -0.0164075, 0.000689624, -0.00138093, -0.00029175, 0.000102478, -0.00202318, 0.000232153, 0.0175326, -0.01649, -0.00652085, 0.00351761, 0.0432346, -0.00593426, 0.470951, -0.54318, 0.336002, -2.08369, -2.16596, -0.129728, 0.469557, -0.542601, 0.336438, -2.08493, -2.16681, -0.127537, -0.00406174, 0.0148993, 0.00766863, 0.0127998, -0.000729487, -0.00198869
0.0541309, 1.69181, -1.22469, -1.53837, -0.899894, -1.19244, 1.22918, -1.30262, 0.0263212, -0.00349667, -0.00576357, 0.00297305, -0.0196749, 0.0251413, -8.10686e-05, 2.51106, 56.7453, 27.306, 5.12909, 1.63898, 3.50345, -0.0356336, 0.000668504, -0.00132796, -0.000278941, 6.36282e-05, -0.00214475, 0.000217228, 0.0139969, -0.0193761, -0.00820146, -0.00223262, 0.0368492, 0.000820286, 0.470947, -0.543166, 0.336009, -2.08368, -2.16597, -0.129716, 0.469606, -0.542603, 0.336428, -2.08498, -2.16692, -0.127447, -0.00424034, 0.0155655, 0.00801045, 0.0153159, 0.0038045, -0.00284509
0.0551309, 1.69184, -1.22469, -1.53838, -0.899885, -1.19247, 1.22921, -1.30262, 0.0249007, -0.000657241, -0.0117493, 0.00467095, -0.0237796, 0.0272182, 0.000929276, 2.73719, 56.6739, 27.3417, 5.01404, 1.63257, 3.53274, -0.0621838, 0.0006463, -0.00131317, -0.000275489, 4.98627e-05, -0.0021931, 0.000235523, 0.0178698, -0.0171775, -0.00839132, -0.00660157, 0.0447367, -0.0079646, 0.470942, -0.54315, 0.336017, -2.08367, -2.16597, -0.129705, 0.469618, -0.542608, 0.336429, -2.08502, -2.16694, -0.1274, -0.00442257, 0.0162459, 0.00835954, 0.0130701, 0.000600569, -0.00321792
0.0561309, 1.69187, -1.22469, -1.5384, -0.899882, -1.19251, 1.22925, -1.30261, 0.0281003, -0.000435581, -0.0158914, 0.00700852, -0.0279946, 0.0291795, 0.00133158, 2.77686, 56.6739, 27.3774, 4.97833, 1.65088, 3.5538, -0.0814099, 0.000629153, -0.00129021, -0.000266571, 4.4927e-05, -0.00224126, 0.000235419, 0.0197705, -0.01777, -0.00963434, -0.010144, 0.050023, -0.0112526, 0.470938, -0.543134, 0.336026, -2.08366, -2.16598, -0.129692, 0.469636, -0.542607, 0.336425, -2.08504, -2.16698, -0.127344, -0.00460838, 0.0169405, 0.00871578, 0.0134993, -0.000365678, -0.00440194
0.0571309, 1.6919, -1.22469, -1.53841, -0.899878, -1.19256, 1.22929, -1.30261, 0.032555, -0.000288453, -0.0149003, 0.00576134, -0.0313589, 0.026174, 0.00112507, 2.85224, 56.6739, 27.3774, 4.94263, 1.6756, 3.56845, -0.0878186, 0.000607701, -0.00127048, -0.000257861, 3.99539e-05, -0.00229291, 0.000241315, 0.0183169, -0.0199625, -0.0101106, -0.0150334, 0.0521112, -0.00681141, 0.470933, -0.543117, 0.336034, -2.08364, -2.16599, -0.129679, 0.469652, -0.542609, 0.336422, -2.08506, -2.16701, -0.127284, -0.00479766, 0.0176488, 0.00907903, 0.0154304, 0.00194124, -0.00434982
0.0581309, 1.69194, -1.22469, -1.53842, -0.89988, -1.1926, 1.22933, -1.30262, 0.0303258, -0.0026965, -0.0133989, 0.0054748, -0.0370216, 0.0342444, -0.0014201, 2.89191, 56.781, 27.3417, 5.01404, 1.66369, 3.56112, -0.0292249, 0.000588765, -0.00124559, -0.00024602, 2.74784e-05, -0.00233755, 0.000228563, 0.0218745, -0.0200953, -0.010448, -0.00965619, 0.0587026, -0.00795336, 0.470929, -0.543099, 0.336043, -2.08363, -2.166, -0.129666, 0.469672, -0.542607, 0.336415, -2.08506, -2.16706, -0.12724, -0.00499035, 0.0183707, 0.00944913, 0.0154859, -0.000791574, -0.00486884
0.0591309, 1.69196, -1.22469, -1.53844, -0.899869, -1.19264, 1.22937, -1.30262, 0.0261736, -0.000961364, -0.0139823, 0.00976459, -0.0423739, 0.0399866, -0.000472026, 3.04267, 56.7453, 27.3774, 4.90295, 1.6756, 3.56112, -0.0420422, 0.0005606, -0.00123041, -0.00023889, 1.75718e-05, -0.00239232, 0.000251655, 0.0273926, -0.0172956, -0.00856198, -0.00516074, 0.0677011, -0.019478, 0.470924, -0.543081, 0.336053, -2.08362, -2.16601, -0.129652, 0.469683, -0.542615, 0.336413, -2.08511, -2.16708, -0.12718, -0.00518633, 0.0191057, 0.00982594, 0.0127606, -0.00590926, -0.00340108
0.0601309, 1.692, -1.22469, -1.53845, -0.899863, -1.19268, 1.22941, -1.30261, 0.0264677, 0.00103034, -0.010447, 0.0109367, -0.0405813, 0.0400549, 0.000906014, 3.04267, 56.6739, 27.3774, 4.86725, 1.66369, 3.54648, -0.0750012, 0.000539858, -0.00120522, -0.000233216, 3.65892e-06, -0.00244986, 0.000255706, 0.0271371, -0.0181776, -0.00624219, -0.000821332, 0.0684469, -0.0199534, 0.470918, -0.543062, 0.336063, -2.0836, -2.16602, -0.129638, 0.469704, -0.542614, 0.336413, -2.08513, -2.16713, -0.127122, -0.00538552, 0.0198537, 0.0102093, 0.0135175, -0.00522952, -0.000714219
0.0611309, 1.69203, -1.22469, -1.53846, -0.899862, -1.19273, 1.22945, -1.30261, 0.0275581, -0.000147711, -0.0101465, 0.00796456, -0.0441827, 0.0397219, 0.000604006, 3.11805, 56.7096, 27.3417, 4.86725, 1.65088, 3.53915, -0.0750012, 0.000516242, -0.0011829, -0.000223298, -7.06207e-06, -0.00250087, 0.000258008, 0.0273181, -0.0192443, -0.00758604, -0.00453651, 0.0708606, -0.017658, 0.470913, -0.543042, 0.336073, -2.08359, -2.16603, -0.129623, 0.469721, -0.542615, 0.336409, -2.08515, -2.16717, -0.127067, -0.0055878, 0.0206142, 0.0105989, 0.0143385, -0.00439692, -0.00171193
0.0621309, 1.69206, -1.22469, -1.53847, -0.899857, -1.19278, 1.22949, -1.30262, 0.0254995, -0.00324861, -0.010691, 0.00674281, -0.0420867, 0.0397519, 0.00326916, 3.19343, 56.7096, 27.3417, 4.82758, 1.63898, 3.52542, -0.0228162, 0.000488166, -0.00116319, -0.000214043, -1.91874e-05, -0.00255644, 0.000263531, 0.0287006, -0.0187499, -0.00992446, -0.00486705, 0.0666863, -0.0214436, 0.470907, -0.543021, 0.336083, -2.08357, -2.16604, -0.129607, 0.469736, -0.54262, 0.336406, -2.08518, -2.16721, -0.127008, -0.00579309, 0.0213869, 0.0109948, 0.0136045, -0.00464952, -0.00382462
0.0631309, 1.69209, -1.22469, -1.53849, -0.899861, -1.19282, 1.22954, -1.30262, 0.0281205, -0.00326317, -0.0103931, 0.00617187, -0.0400681, 0.0437338, 0.00281674, 3.22913, 56.7453, 27.306, 4.90295, 1.61426, 3.53274, -0.0292249, 0.000464386, -0.0011387, -0.000201955, -2.68544e-05, -0.00260867, 0.000262254, 0.0281646, -0.0215444, -0.00996223, -0.0012226, 0.0676425, -0.0177392, 0.470902, -0.543, 0.336094, -2.08356, -2.16606, -0.129591, 0.469755, -0.542619, 0.3364, -2.08519, -2.16726, -0.126947, -0.00600136, 0.0221719, 0.0113968, 0.0161667, -0.00321437, -0.00346146
0.0641309, 1.69212, -1.22469, -1.5385, -0.899856, -1.19287, 1.22958, -1.30261, 0.0300561, -0.00153688, -0.00837173, 0.00548899, -0.0385044, 0.0468947, 0.00434792, 3.26881, 56.7096, 27.1909, 4.86725, 1.58313, 3.53274, -0.0878186, 0.00043716, -0.00111641, -0.000195938, -4.44762e-05, -0.00266707, 0.000278804, 0.0273909, -0.0240517, -0.00842238, 0.0031992, 0.0701848, -0.015961, 0.470896, -0.542978, 0.336106, -2.08354, -2.16607, -0.129574, 0.469772, -0.542622, 0.336401, -2.08523, -2.16729, -0.126889, -0.00621258, 0.0229689, 0.0118049, 0.0184878, -0.00178695, -0.00148892
0.0651309, 1.69216, -1.22469, -1.53851, -0.899853, -1.19292, 1.22962, -1.3026, 0.0330727, -0.00200729, -0.0106447, 0.00406373, -0.0431278, 0.0402084, 0.00312358, 3.22913, 56.7453, 27.2306, 4.86725, 1.58313, 3.52542, -0.0878186, 0.000411484, -0.00108939, -0.000183691, -5.41511e-05, -0.00272286, 0.00027989, 0.0272388, -0.0241221, -0.0107247, -0.0082836, 0.0711214, -0.0138346, 0.470889, -0.542955, 0.336118, -2.08352, -2.16608, -0.129557, 0.469793, -0.542621, 0.336396, -2.08525, -2.16734, -0.126826, -0.0064267, 0.0237778, 0.012219, 0.0182551, -0.000470496, -0.0033268
0.0661309, 1.69219, -1.22469, -1.53852, -0.899847, -1.19297, 1.22966, -1.30261, 0.0335091, 0.000221621, -0.0143131, 0.00477569, -0.0462801, 0.0345603, 0.000318328, 3.26881, 56.6739, 27.2306, 4.79187, 1.57123, 3.53274, -0.0356336, 0.000381156, -0.00106886, -0.000176031, -6.29126e-05, -0.0027839, 0.000286782, 0.0287291, -0.0223298, -0.0114154, -0.017766, 0.0738892, -0.0147804, 0.470883, -0.542931, 0.33613, -2.0835, -2.16609, -0.129539, 0.469808, -0.542626, 0.336395, -2.08528, -2.16738, -0.126755, -0.00664368, 0.0245986, 0.0126391, 0.016277, -0.0010884, -0.00376561
0.0671309, 1.69223, -1.22468, -1.53853, -0.89985, -1.19301, 1.2297, -1.30261, 0.0353081, 0.00182802, -0.0122226, 0.00164803, -0.0483098, 0.0348335, -0.000135957, 3.22913, 56.5985, 27.1552, 4.86725, 1.55292, 3.54648, -0.0228162, 0.000357396, -0.00104068, -0.000169067, -7.51555e-05, -0.0028438, 0.000279669, 0.0277377, -0.0243964, -0.0105193, -0.0186347, 0.0780569, -0.010213, 0.470876, -0.542906, 0.336143, -2.08349, -2.16611, -0.12952, 0.46983, -0.542622, 0.336396, -2.08529, -2.16744, -0.12669, -0.00686349, 0.0254311, 0.0130651, 0.0181181, 0.000670558, -0.00236378
0.0681309, 1.69226, -1.22469, -1.53854, -0.899846, -1.19307, 1.22974, -1.3026, 0.035966, -0.001442, -0.010784, 0.00219731, -0.0513723, 0.0352989, 0.00268303, 3.22913, 56.7096, 27.0798, 4.82758, 1.57764, 3.5538, -0.0951428, 0.000327395, -0.00101584, -0.000155108, -8.55709e-05, -0.00289483, 0.000292305, 0.0291829, -0.0248963, -0.0121338, -0.0188718, 0.0779999, -0.0138479, 0.470869, -0.542881, 0.336156, -2.08347, -2.16612, -0.129501, 0.469849, -0.542623, 0.33639, -2.08531, -2.16747, -0.126629, -0.00708609, 0.0262753, 0.013497, 0.0183884, 0.000357169, -0.00376562
0.0691309, 1.6923, -1.22468, -1.53856, -0.899841, -1.19312, 1.22978, -1.3026, 0.0381316, 0.00159046, -0.0141404, 0.00637247, -0.0523562, 0.0356672, 0.00573824, 3.15376, 56.5985, 27.1909, 4.75616, 1.57123, 3.56112, -0.0685925, 0.000298198, -0.000990239, -0.000146093, -8.88285e-05, -0.00295933, 0.00029837, 0.0310225, -0.0246917, -0.0113321, -0.0203986, 0.0825193, -0.0211348, 0.470862, -0.542854, 0.336169, -2.08345, -2.16613, -0.129481, 0.469868, -0.542623, 0.33639, -2.08534, -2.16752, -0.126547, -0.00731145, 0.027131, 0.0139346, 0.0180545, -0.000734694, -0.00281543
0.0701309, 1.69234, -1.22469, -1.53857, -0.899844, -1.19317, 1.22982, -1.30261, 0.034902, -0.000737933, -0.0128935, 0.00293294, -0.0538717, 0.0369272, 0.00306332, 3.15376, 56.6739, 27.1552, 4.82758, 1.58313, 3.53915, -0.0356336, 0.000269265, -0.000962871, -0.000131251, -9.44482e-05, -0.00301244, 0.000294342, 0.0327634, -0.0241752, -0.0127506, -0.0206302, 0.0827869, -0.0192312, 0.470855, -0.542827, 0.336183, -2.08343, -2.16615, -0.129461, 0.469888, -0.542621, 0.336384, -2.08534, -2.16757, -0.126479, -0.00753952, 0.0279981, 0.014378, 0.0173221, -0.00138914, -0.00402711
0.0711309, 1.69238, -1.22469, -1.53857, -0.899843, -1.19323, 1.22986, -1.3026, 0.0331495, -0.00135342, -0.0102924, 0.0022216, -0.0552834, 0.0372163, 0.00360681, 3.11805, 56.7096, 27.0441, 4.82758, 1.60144, 3.53274, -0.0685925, 0.000239965, -0.000934664, -0.000119972, -0.000106558, -0.00306832, 0.000297306, 0.0341007, -0.0239207, -0.0124703, -0.0192586, 0.0839199, -0.0208287, 0.470847, -0.542799, 0.336197, -2.08341, -2.16616, -0.12944, 0.46991, -0.542619, 0.336381, -2.08536, -2.16762, -0.126414, -0.00777026, 0.0288765, 0.0148271, 0.016896, -0.00188421, -0.00350107
0.0721309, 1.69242, -1.22469, -1.53859, -0.899841, -1.19328, 1.22989, -1.3026, 0.0350951, 0.000841268, -0.0136285, 0.00168079, -0.0516024, 0.0375415, 0.00388317, 3.07838, 56.6342, 27.1552, 4.82758, 1.62067, 3.52542, -0.101552, 0.000207054, -0.000909703, -0.000106872, -0.00010617, -0.00312931, 0.000308878, 0.0338248, -0.0251911, -0.0128161, -0.0209292, 0.0841917, -0.019865, 0.47084, -0.54277, 0.336212, -2.08339, -2.16618, -0.129418, 0.469928, -0.54262, 0.336378, -2.08538, -2.16766, -0.126329, -0.00800365, 0.0297661, 0.0152818, 0.0179091, -0.000616323, -0.00338372
0.0731309, 1.69245, -1.22469, -1.5386, -0.899838, -1.19333, 1.22992, -1.3026, 0.0324794, 0.00054608, -0.010171, 0.00210554, -0.0468258, 0.037204, 0.00227359, 3.07838, 56.6342, 27.1552, 4.79187, 1.58954, 3.53274, -0.0878186, 0.000175292, -0.000883469, -9.41735e-05, -0.000114458, -0.00317978, 0.000314485, 0.0344073, -0.0249297, -0.0119075, -0.0157848, 0.0800981, -0.0186951, 0.470832, -0.542741, 0.336228, -2.08336, -2.16619, -0.129396, 0.469946, -0.542619, 0.336375, -2.08539, -2.1677, -0.126264, -0.00823965, 0.0306668, 0.015742, 0.0174666, -0.000440809, -0.00210876
0.0741309, 1.69249, -1.22468, -1.53861, -0.899837, -1.19339, 1.22996, -1.3026, 0.0345975, 0.000352979, -0.00759462, 0.00151604, -0.0494129, 0.0336842, -0.000509329, 3.04267, 56.6342, 27.1552, 4.79187, 1.59595, 3.50345, -0.0292249, 0.000143702, -0.000855166, -8.4636e-05, -0.000125298, -0.0032402, 0.000310027, 0.0338986, -0.0259866, -0.0119209, -0.0188113, 0.0808615, -0.013695, 0.470823, -0.54271, 0.336243, -2.08334, -2.16621, -0.129373, 0.469967, -0.542617, 0.336375, -2.0854, -2.16776, -0.126192, -0.00847821, 0.0315785, 0.0162078, 0.018265, 0.00101925, -0.00160962
0.0751309, 1.69253, -1.22468, -1.53862, -0.899837, -1.19344, 1.22999, -1.3026, 0.0360438, 0.000227013, -0.00881555, 0.00109495, -0.0509947, 0.0338188, 0.00146468, 3.003, 56.6342, 27.1552, 4.79187, 1.58954, 3.52542, -0.0750012, 0.000111044, -0.000828789, -6.99242e-05, -0.000126057, -0.00329029, 0.000318257, 0.0347174, -0.0267434, -0.0128629, -0.02132, 0.0828956, -0.0157586, 0.470815, -0.542678, 0.33626, -2.08332, -2.16623, -0.129349, 0.469986, -0.542614, 0.336371, -2.08542, -2.16779, -0.126117, -0.0087193, 0.0325011, 0.016679, 0.0187754, 0.00130997, -0.00221862
0.0761309, 1.69257, -1.22467, -1.53862, -0.899837, -1.19349, 1.23002, -1.30259, 0.038961, 0.00274357, -0.00483349, -4.20573e-05, -0.052439, 0.0295741, 0.00180405, 3.003, 56.5231, 27.0798, 4.82758, 1.58954, 3.53915, -0.0951428, 8.02633e-05, -0.000799566, -6.49033e-05, -0.000137708, -0.0033546, 0.000321843, 0.0328602, -0.0285692, -0.0109758, -0.0233725, 0.0850588, -0.011619, 0.470806, -0.542646, 0.336276, -2.08329, -2.16625, -0.129324, 0.470007, -0.54261, 0.336377, -2.08543, -2.16785, -0.12604, -0.00896288, 0.0334345, 0.0171556, 0.0203572, 0.0038628, 0.000353517
0.0771309, 1.69262, -1.22468, -1.53864, -0.899837, -1.19355, 1.23005, -1.30259, 0.0410985, 0.00182437, -0.00953352, 1.93574e-05, -0.0535107, 0.0311061, 0.000992636, 2.89191, 56.5231, 27.1909, 4.82758, 1.58954, 3.5538, -0.0878186, 4.72845e-05, -0.000768646, -4.73048e-05, -0.000136175, -0.00340728, 0.000321289, 0.0343845, -0.0293264, -0.0134694, -0.0274263, 0.0867963, -0.0121405, 0.470797, -0.542612, 0.336293, -2.08327, -2.16626, -0.129299, 0.47003, -0.542605, 0.336371, -2.08544, -2.1679, -0.12596, -0.00920893, 0.0343785, 0.0176375, 0.020832, 0.00371711, -0.00188632
0.0781309, 1.69265, -1.22468, -1.53864, -0.899842, -1.1936, 1.23008, -1.3026, 0.0390016, 0.000284725, -0.0061897, -0.00171479, -0.0584212, 0.0324573, 0.00318869, 2.92762, 56.5628, 27.1552, 4.90295, 1.57764, 3.56112, -0.0292249, 1.31108e-05, -0.000741167, -3.29794e-05, -0.000139039, -0.00345786, 0.000314947, 0.0363894, -0.0290706, -0.0135226, -0.0266482, 0.0904808, -0.0156932, 0.470788, -0.542578, 0.336311, -2.08324, -2.16628, -0.129273, 0.470049, -0.542601, 0.336368, -2.08543, -2.16795, -0.125887, -0.00945739, 0.0353331, 0.0181247, 0.0203991, 0.00269042, -0.00175479
0.0791309, 1.69269, -1.22467, -1.53865, -0.899837, -1.19367, 1.23011, -1.30259, 0.0386519, 0.00111521, -0.0046284, -0.000281313, -0.0582858, 0.029668, 0.00302253, 2.92762, 56.5231, 27.1552, 4.86725, 1.59595, 3.54648, -0.0420422, -2.60502e-05, -0.000714327, -2.20432e-05, -0.00014762, -0.00352136, 0.000329642, 0.0372857, -0.0285432, -0.0128377, -0.027248, 0.090244, -0.0171539, 0.470779, -0.542543, 0.336329, -2.08322, -2.1663, -0.129247, 0.470067, -0.542601, 0.336369, -2.08546, -2.16799, -0.125804, -0.00970824, 0.0362982, 0.0186171, 0.0196795, 0.00264405, -0.000709147
0.0801309, 1.69274, -1.22468, -1.53865, -0.899836, -1.19373, 1.23014, -1.30258, 0.0399634, -0.000186518, -0.00169881, -0.000167547, -0.0633122, 0.031483, 0.00402696, 2.85224, 56.5628, 27.0798, 4.86725, 1.61426, 3.5538, -0.0878186, -5.96828e-05, -0.000681962, -8.41451e-06, -0.000154255, -0.00357377, 0.000331268, 0.0384808, -0.0297859, -0.0127851, -0.0261159, 0.094472, -0.0180241, 0.470769, -0.542506, 0.336348, -2.08319, -2.16632, -0.12922, 0.47009, -0.542595, 0.336368, -2.08546, -2.16804, -0.125731, -0.00996144, 0.0372736, 0.0191147, 0.0207131, 0.00248356, -0.000382904
0.0811309, 1.69278, -1.22467, -1.53866, -0.899836, -1.19379, 1.23016, -1.30259, 0.0442198, 0.00163741, -0.00494135, -9.67017e-05, -0.0671553, 0.0338108, 0.0019726, 2.77686, 56.4874, 27.2306, 4.86725, 1.63898, 3.53274, -0.0621838, -9.80258e-05, -0.000652933, 6.102e-06, -0.000148604, -0.00363822, 0.000334194, 0.039175, -0.0317778, -0.0132008, -0.0296007, 0.101603, -0.0155239, 0.470759, -0.542469, 0.336367, -2.08316, -2.16634, -0.129192, 0.47011, -0.542592, 0.336366, -2.08547, -2.16809, -0.125631, -0.010217, 0.0382593, 0.0196175, 0.0224573, 0.002931, -0.000459228
0.0821309, 1.69282, -1.22468, -1.53866, -0.899839, -1.19385, 1.23019, -1.30259, 0.0460816, -0.00150796, -0.00174275, -0.000888438, -0.0650145, 0.0301334, 0.00518647, 2.73719, 56.5985, 27.1552, 4.90295, 1.65729, 3.53274, -0.0356336, -0.000133546, -0.000620255, 2.27804e-05, -0.000156159, -0.00368448, 0.000328929, 0.0380108, -0.0334206, -0.0147886, -0.0303433, 0.0954985, -0.0147287, 0.470749, -0.542431, 0.336386, -2.08313, -2.16636, -0.129163, 0.470133, -0.542585, 0.336362, -2.08546, -2.16815, -0.125564, -0.0104747, 0.0392552, 0.0201252, 0.0237404, 0.00538901, -0.00138922
0.0831309, 1.69286, -1.22468, -1.53866, -0.899839, -1.19392, 1.23021, -1.30259, 0.0413083, -0.000170917, -0.00308389, -0.000583857, -0.0639298, 0.02804, 0.0039809, 2.70148, 56.5628, 27.2306, 4.90295, 1.69391, 3.51077, -0.0356336, -0.000174364, -0.000591401, 3.73429e-05, -0.000155828, -0.00374608, 0.000333297, 0.0410246, -0.030385, -0.0147122, -0.032267, 0.0955138, -0.0196494, 0.470738, -0.542392, 0.336407, -2.0831, -2.16638, -0.129134, 0.470153, -0.542583, 0.336361, -2.08547, -2.1682, -0.125471, -0.0107348, 0.0402611, 0.020638, 0.0205615, 0.00328238, -0.00117558
0.0841309, 1.69291, -1.22468, -1.53867, -0.899844, -1.19398, 1.23024, -1.30258, 0.0451997, -0.001785, -0.00393827, -0.00214615, -0.0666011, 0.0259051, 0.00525043, 2.62611, 56.6342, 27.306, 4.97833, 1.69391, 3.50345, -0.0951428, -0.000211457, -0.000558315, 5.67082e-05, -0.000152925, -0.00379515, 0.000337237, 0.0405639, -0.0323427, -0.0169161, -0.0380105, 0.0960484, -0.0178321, 0.470727, -0.542351, 0.336427, -2.08308, -2.1664, -0.129103, 0.470176, -0.542575, 0.336356, -2.08547, -2.16824, -0.125388, -0.010997, 0.0412769, 0.0211557, 0.0221576, 0.00517363, -0.00282268
0.0851309, 1.69296, -1.22468, -1.53867, -0.899844, -1.19404, 1.23026, -1.30258, 0.0434014, -0.000355253, -0.00355007, -0.00142602, -0.0645432, 0.0245615, 0.00304863, 2.47535, 56.5985, 27.3417, 4.97833, 1.71222, 3.48971, -0.0750012, -0.000249202, -0.000523649, 7.0528e-05, -0.000156138, -0.00385433, 0.000332184, 0.0419149, -0.0314369, -0.0162116, -0.0375768, 0.0956834, -0.0180401, 0.470716, -0.54231, 0.336448, -2.08304, -2.16642, -0.129072, 0.4702, -0.542567, 0.336356, -2.08546, -2.16831, -0.125301, -0.0112614, 0.0423026, 0.0216783, 0.0210641, 0.00472033, -0.00178635
0.0861309, 1.693, -1.22468, -1.53867, -0.899846, -1.19411, 1.23028, -1.30259, 0.0423753, 0.000598032, -0.00326893, -0.000947122, -0.0625551, 0.0227928, 0.000557749, 2.43568, 56.5628, 27.3774, 4.97833, 1.71863, 3.49612, -0.0292249, -0.000289537, -0.000492563, 8.51811e-05, -0.000156042, -0.00390996, 0.000328364, 0.0428994, -0.0309249, -0.01594, -0.037916, 0.0947486, -0.01706, 0.470705, -0.542268, 0.33647, -2.08301, -2.16645, -0.129041, 0.470221, -0.542561, 0.336356, -2.08546, -2.16836, -0.125213, -0.011528, 0.0433381, 0.0222057, 0.0203325, 0.0047214, -0.0011278
0.0871309, 1.69305, -1.22467, -1.53867, -0.899849, -1.19417, 1.2303, -1.30258, 0.0425012, 0.00132644, -0.00222954, -0.00146396, -0.061087, 0.021984, 0.0017581, 2.3603, 56.5231, 27.3774, 5.01404, 1.72504, 3.48971, -0.0621838, -0.000327886, -0.000457561, 9.95384e-05, -0.000157855, -0.003966, 0.000329614, 0.0431525, -0.0315385, -0.0156487, -0.0376641, 0.0945699, -0.0175729, 0.470694, -0.542224, 0.336492, -2.08298, -2.16647, -0.129008, 0.470245, -0.542552, 0.336357, -2.08545, -2.16842, -0.125125, -0.0117966, 0.0443832, 0.0227379, 0.0206972, 0.00549808, -0.00036613
0.0881309, 1.6931, -1.22467, -1.53867, -0.89985, -1.19424, 1.23032, -1.30258, 0.0417453, 0.000884099, -0.00152404, -0.00190199, -0.0602765, 0.0169807, 0.00200831, 2.32459, 56.5231, 27.3774, 5.05371, 1.73694, 3.47507, -0.0814099, -0.00037113, -0.000425765, 0.000112833, -0.000159267, -0.00402898, 0.000336046, 0.043708, -0.0307632, -0.0164803, -0.0415874, 0.0916832, -0.0184502, 0.470682, -0.54218, 0.336515, -2.08295, -2.16649, -0.128975, 0.470266, -0.542547, 0.336359, -2.08546, -2.16847, -0.125029, -0.0120673, 0.0454378, 0.0232748, 0.0196427, 0.00610039, -0.000712873
0.0891309, 1.69315, -1.22467, -1.53867, -0.899852, -1.1943, 1.23034, -1.30258, 0.0467046, -0.000338768, -0.000209077, -0.00210171, -0.0589471, 0.0175311, 0.00119465, 2.17384, 56.5628, 27.3417, 5.08942, 1.73053, 3.46774, -0.0750012, -0.000410068, -0.000387873, 0.000131164, -0.000158598, -0.00407967, 0.000326639, 0.0422244, -0.0343403, -0.0173332, -0.0407417, 0.0904605, -0.0123442, 0.47067, -0.542135, 0.336538, -2.08291, -2.16652, -0.128941, 0.470293, -0.542535, 0.336357, -2.08544, -2.16853, -0.124944, -0.0123401, 0.0465019, 0.0238164, 0.0228575, 0.00890997, -0.000893499
0.0901309, 1.6932, -1.22468, -1.53867, -0.899855, -1.19438, 1.23035, -1.30258, 0.0448081, -0.000491667, -0.000995802, -0.00232804, -0.0639379, 0.0133447, -0.000829145, 2.13416, 56.7096, 27.3774, 5.12909, 1.75525, 3.46042, -0.0292249, -0.000456358, -0.00035615, 0.000155456, -0.000152208, -0.00412533, 0.00032847, 0.0448868, -0.0321089, -0.0183638, -0.0476725, 0.0930751, -0.0149385, 0.470657, -0.542088, 0.336562, -2.08288, -2.16654, -0.128906, 0.470313, -0.54253, 0.336349, -2.08543, -2.16858, -0.124856, -0.0126148, 0.0475753, 0.0243626, 0.0204143, 0.00742088, -0.00170915
0.0911309, 1.69324, -1.22468, -1.53868, -0.899854, -1.19444, 1.23037, -1.30258, 0.0443454, 0.00169937, -0.00244301, -0.00155118, -0.0617602, 0.0148932, -0.000263019, 2.05878, 56.6342, 27.4528, 5.12909, 1.75525, 3.45309, -0.0356336, -0.000501152, -0.000324381, 0.000169867, -0.00014656, -0.00418433, 0.00033437, 0.0463094, -0.032156, -0.0176871, -0.0464019, 0.0949931, -0.0175404, 0.470645, -0.542041, 0.336586, -2.08285, -2.16657, -0.128871, 0.470333, -0.542523, 0.336351, -2.08543, -2.16863, -0.124753, -0.0128915, 0.048658, 0.0249134, 0.0202621, 0.00699784, -0.000712203
0.0921309, 1.6933, -1.22468, -1.53867, -0.899864, -1.19451, 1.23038, -1.30257, 0.0466003, -0.000432387, 0.000122643, -0.00363194, -0.0605593, 0.0165832, 0.000847287, 1.87232, 56.7096, 27.3774, 5.24017, 1.76166, 3.43204, -0.0621838, -0.000541656, -0.000285073, 0.000189248, -0.000143936, -0.00423617, 0.000324846, 0.0454691, -0.0350715, -0.0186593, -0.0440933, 0.0935528, -0.0138269, 0.470632, -0.541992, 0.336611, -2.08281, -2.16659, -0.128834, 0.47036, -0.542509, 0.336349, -2.08541, -2.16869, -0.124662, -0.0131701, 0.0497497, 0.0254687, 0.0228294, 0.00919112, -0.0010766
0.0931309, 1.69334, -1.22467, -1.53867, -0.899868, -1.19458, 1.23039, -1.30257, 0.0477647, 0.00374364, 7.28187e-05, -0.00325604, -0.064521, 0.0128677, 0.000356965, 1.83265, 56.6739, 27.3774, 5.27588, 1.77356, 3.41739, -0.0557752, -0.000587826, -0.000252001, 0.000204116, -0.000141764, -0.00429396, 0.000325957, 0.0462562, -0.0346797, -0.0169279, -0.0493134, 0.0998799, -0.0148571, 0.470619, -0.541942, 0.336637, -2.08277, -2.16662, -0.128797, 0.470381, -0.542502, 0.336352, -2.0854, -2.16875, -0.124564, -0.0134506, 0.0508506, 0.0260284, 0.0222509, 0.0092334, 0.00108273
0.0941309, 1.6934, -1.22468, -1.53868, -0.899873, -1.19465, 1.23041, -1.30257, 0.0482245, 0.00119068, -0.0017214, -0.00309836, -0.0673919, 0.0103106, -1.11907e-05, 1.68189, 56.7453, 27.4528, 5.31555, 1.77997, 3.39633, -0.0484509, -0.00063472, -0.000215198, 0.000227587, -0.000133161, -0.00434646, 0.000322968, 0.0482134, -0.0340958, -0.0196654, -0.0551115, 0.0993003, -0.0168717, 0.470605, -0.541891, 0.336663, -2.08274, -2.16665, -0.128759, 0.470405, -0.542492, 0.336347, -2.08538, -2.16881, -0.124464, -0.013733, 0.0519604, 0.0265925, 0.021357, 0.0088077, -0.00134172
0.0951309, 1.69344, -1.22468, -1.53868, -0.899871, -1.19472, 1.23042, -1.30258, 0.0467051, -0.00236587, -0.00115263, -0.00113728, -0.0697784, 0.00758788, -0.000465603, 1.60651, 56.8921, 27.4528, 5.27588, 1.79187, 3.39633, -0.0356336, -0.000685379, -0.000183217, 0.000250097, -0.000127344, -0.00439073, 0.000328743, 0.051084, -0.0324569, -0.0218198, -0.0576917, 0.0968726, -0.0210255, 0.470592, -0.541839, 0.33669, -2.0827, -2.16667, -0.128721, 0.470425, -0.542485, 0.336342, -2.08537, -2.16885, -0.124373, -0.0140172, 0.053079, 0.027161, 0.0194626, 0.00735517, -0.00329503
0.0961309, 1.69349, -1.22467, -1.53867, -0.899874, -1.19479, 1.23043, -1.30257, 0.0442493, 0.00122673, -0.000772193, -0.00168601, -0.0663007, 0.0107934, 0.000448014, 1.45576, 56.781, 27.4528, 5.31555, 1.79187, 3.38168, -0.0557752, -0.000731926, -0.000146478, 0.00026296, -0.000124162, -0.00445467, 0.000332133, 0.0524463, -0.0324338, -0.0196208, -0.0529981, 0.0999056, -0.0235245, 0.470578, -0.541786, 0.336717, -2.08266, -2.1667, -0.128681, 0.470448, -0.542475, 0.336348, -2.08536, -2.16891, -0.124264, -0.0143032, 0.0542063, 0.0277337, 0.0192855, 0.0067998, -0.000761197
0.0971309, 1.69354, -1.22468, -1.53867, -0.899876, -1.19486, 1.23044, -1.30257, 0.0476891, 0.00154646, -0.000517625, -0.00195907, -0.0679403, 0.0132341, -0.000675345, 1.34071, 56.8921, 27.4528, 5.35126, 1.78638, 3.36703, -0.0292249, -0.000783269, -0.000111278, 0.000286529, -0.00011799, -0.00450304, 0.000333176, 0.0525512, -0.0349831, -0.0197262, -0.0525148, 0.103663, -0.0201275, 0.470563, -0.541732, 0.336744, -2.08262, -2.16673, -0.128641, 0.47047, -0.542466, 0.336344, -2.08535, -2.16896, -0.124168, -0.0145909, 0.0553423, 0.0283107, 0.0215446, 0.00795623, -0.0003833
0.0981309, 1.6936, -1.22467, -1.53868, -0.899882, -1.19494, 1.23045, -1.30257, 0.0485236, 0.000482966, -0.00294566, -0.00306917, -0.0698587, 0.00953601, -0.00142658, 1.15424, 56.9318, 27.5638, 5.42664, 1.79187, 3.37436, -0.00267457, -0.000833906, -7.44048e-05, 0.000308904, -0.000102616, -0.00456156, 0.000330966, 0.0536863, -0.0346591, -0.0221211, -0.0599611, 0.10341, -0.020319, 0.470549, -0.541677, 0.336773, -2.08258, -2.16676, -0.128599, 0.470494, -0.542456, 0.336341, -2.08533, -2.16902, -0.124051, -0.0148804, 0.0564869, 0.0288918, 0.0208858, 0.00833493, -0.00233302
0.0991309, 1.69365, -1.22467, -1.53868, -0.899894, -1.19501, 1.23046, -1.30257, 0.0467633, 0.00383338, -0.00196537, -0.00557251, -0.0662787, 0.0115177, 0.0014956, 1.07887, 56.9318, 27.5638, 5.57739, 1.78638, 3.38168, -0.0685925, -0.000882721, -3.6064e-05, 0.000328018, -9.2514e-05, -0.00462093, 0.000332084, 0.0539381, -0.035366, -0.0202765, -0.0568166, 0.105683, -0.0221221, 0.470534, -0.54162, 0.336802, -2.08254, -2.16679, -0.128557, 0.470518, -0.542443, 0.336342, -2.08531, -2.16908, -0.123937, -0.0151716, 0.0576399, 0.0294771, 0.021379, 0.00898685, 1.28007e-05
0.100131, 1.6937, -1.22466, -1.53868, -0.899892, -1.19508, 1.23046, -1.30257, 0.0487065, 0.0053747, -0.00047622, -0.00278692, -0.068551, 0.00916592, 0.000255012, 1.00349, 56.9675, 27.5281, 5.53772, 1.78638, 3.36703, -0.0484509, -0.000937053, -1.37055e-06, 0.00034527, -9.48733e-05, -0.00467293, 0.000336783, 0.0548962, -0.0356408, -0.0191545, -0.0579381, 0.108424, -0.022434, 0.470519, -0.541563, 0.336831, -2.08249, -2.16682, -0.128514, 0.470539, -0.542435, 0.336345, -2.0853, -2.16914, -0.123843, -0.0154644, 0.0588012, 0.0300665, 0.0214385, 0.00904269, 0.00155306
0.101131, 1.69375, -1.22466, -1.53868, -0.8999, -1.19515, 1.23048, -1.30257, 0.0520379, 0.00568342, -0.00208161, -0.00362114, -0.065584, 0.00681929, -0.000539119, 0.85273, 57.0389, 27.6035, 5.6131, 1.79187, 3.36703, -0.0292249, -0.000989695, 3.82102e-05, 0.000367775, -8.60991e-05, -0.00472992, 0.000332485, 0.0539003, -0.0375775, -0.0204358, -0.0613581, 0.106219, -0.0183664, 0.470503, -0.541504, 0.336861, -2.08245, -2.16685, -0.128471, 0.470564, -0.542423, 0.336344, -2.08528, -2.1692, -0.123732, -0.0157588, 0.0599708, 0.0306599, 0.0229951, 0.0114746, 0.000975276
0.102131, 1.6938, -1.22466, -1.53867, -0.899906, -1.19522, 1.23049, -1.30257, 0.0526929, 0.00664811, 0.000374824, -0.00417729, -0.0630568, 0.0103, -0.000831918, 0.777352, 57.0786, 27.5281, 5.68848, 1.78638, 3.3533, -0.0164075, -0.00104364, 7.61647e-05, 0.000386385, -8.58707e-05, -0.00478456, 0.000330788, 0.0539655, -0.0396677, -0.0192007, -0.0557714, 0.107541, -0.0158895, 0.470487, -0.541444, 0.336892, -2.08241, -2.16688, -0.128426, 0.470588, -0.542412, 0.336346, -2.08526, -2.16926, -0.123632, -0.0160548, 0.0611486, 0.0312573, 0.0248358, 0.0124876, 0.00271717
0.103131, 1.69385, -1.22465, -1.53868, -0.899914, -1.19529, 1.23049, -1.30257, 0.0541716, 0.00571067, -0.00234908, -0.00454807, -0.0667622, 0.00820065, 0.000396483, 0.6623, 57.1896, 27.6392, 5.76385, 1.80469, 3.33865, -0.0420422, -0.00109985, 0.000113421, 0.00041171, -7.58069e-05, -0.00483292, 0.00033594, 0.055647, -0.0395832, -0.0214272, -0.0626631, 0.109668, -0.0188415, 0.470471, -0.541383, 0.336923, -2.08236, -2.16691, -0.128381, 0.47061, -0.5424, 0.336343, -2.08524, -2.16931, -0.123526, -0.0163524, 0.0623344, 0.0318586, 0.0244344, 0.0123525, 0.000861912
0.104131, 1.6939, -1.22464, -1.53868, -0.899927, -1.19535, 1.2305, -1.30257, 0.0550466, 0.00864929, -0.00156643, -0.00563048, -0.068805, 0.00606068, 0.000502926, 0.551216, 57.15, 27.6392, 5.87494, 1.80469, 3.33865, -0.0484509, -0.0011525, 0.000153353, 0.000429628, -6.87048e-05, -0.00489035, 0.000330811, 0.0559583, -0.0400437, -0.020207, -0.0656718, 0.114094, -0.0184797, 0.470455, -0.54132, 0.336955, -2.08231, -2.16694, -0.128334, 0.470635, -0.542386, 0.336348, -2.08521, -2.16938, -0.123414, -0.0166515, 0.0635282, 0.0324637, 0.0246531, 0.0130724, 0.00260922
0.105131, 1.69395, -1.22464, -1.53867, -0.899938, -1.19542, 1.2305, -1.30257, 0.0539974, 0.00547486, -0.000209351, -0.0063521, -0.0655559, 0.00421437, -0.000613219, 0.511544, 57.3364, 27.6035, 5.98602, 1.79828, 3.34598, -0.0228162, -0.00120963, 0.000189841, 0.000454288, -6.27438e-05, -0.00493113, 0.00033113, 0.0566881, -0.0402094, -0.0222097, -0.0655191, 0.108115, -0.016958, 0.470438, -0.541257, 0.336987, -2.08227, -2.16698, -0.128287, 0.470656, -0.542373, 0.336346, -2.08518, -2.16944, -0.123319, -0.0169521, 0.0647298, 0.0330727, 0.0244718, 0.0138689, 0.00112215
0.106131, 1.694, -1.22463, -1.53868, -0.899939, -1.19549, 1.23051, -1.30257, 0.059116, 0.00784783, -0.000308724, -0.00645325, -0.0636174, 0.00419463, -0.00139146, 0.360787, 57.3364, 27.7503, 5.95032, 1.81018, 3.31759, 0.00373412, -0.00126916, 0.000227897, 0.000474731, -5.53634e-05, -0.00498796, 0.00033363, 0.0550907, -0.0435271, -0.02154, -0.0658393, 0.109876, -0.0114655, 0.470421, -0.541192, 0.337021, -2.08222, -2.16701, -0.128239, 0.470678, -0.542363, 0.336348, -2.08516, -2.1695, -0.123205, -0.0172541, 0.0659392, 0.0336855, 0.0274499, 0.0166942, 0.00253994
0.107131, 1.69406, -1.22463, -1.53868, -0.89995, -1.19555, 1.23051, -1.30257, 0.0555726, 0.00678551, -0.000861934, -0.00622707, -0.0617479, 0.0033181, 0.00029359, 0.245735, 57.4475, 27.79, 6.02173, 1.81018, 3.31027, -0.0292249, -0.00132709, 0.000268607, 0.000499413, -4.97785e-05, -0.00503494, 0.000337344, 0.0577976, -0.0417289, -0.0226339, -0.0661457, 0.107585, -0.0174657, 0.470404, -0.541126, 0.337054, -2.08217, -2.16705, -0.12819, 0.470703, -0.542348, 0.336347, -2.08514, -2.16955, -0.123102, -0.0175576, 0.0671563, 0.0343019, 0.0254114, 0.0153319, 0.00171285
0.108131, 1.6941, -1.22462, -1.53868, -0.899964, -1.19561, 1.23052, -1.30257, 0.0521782, 0.0101979, 0.00373154, -0.00703349, -0.060736, 0.00239988, 0.000670839, 0.170357, 57.5189, 27.7503, 6.13678, 1.81659, 3.31027, -0.0420422, -0.00138482, 0.000309216, 0.000521427, -5.10964e-05, -0.00507914, 0.000334738, 0.0588033, -0.0409625, -0.0194294, -0.0625252, 0.110196, -0.0190093, 0.470387, -0.541059, 0.337088, -2.08212, -2.16708, -0.12814, 0.470727, -0.542333, 0.33635, -2.08511, -2.16962, -0.123009, -0.0178624, 0.068381, 0.034922, 0.0244993, 0.0150412, 0.0053652
0.109131, 1.69416, -1.22461, -1.53868, -0.899969, -1.19567, 1.23052, -1.30257, 0.0544584, 0.0104151, 0.00197713, -0.00698475, -0.0601463, 0.00228331, -0.000264556, 0.0196001, 57.5546, 27.79, 6.09711, 1.8349, 3.29562, -0.0228162, -0.00144485, 0.000348638, 0.000543349, -4.63525e-05, -0.00512467, 0.000334991, 0.0593452, -0.0422359, -0.0204601, -0.064691, 0.110888, -0.0175191, 0.470369, -0.54099, 0.337123, -2.08207, -2.16712, -0.128089, 0.47075, -0.542319, 0.336353, -2.08508, -2.16967, -0.122906, -0.0181686, 0.0696132, 0.0355458, 0.0254478, 0.0159517, 0.00484733
0.110131, 1.6942, -1.2246, -1.53869, -0.899984, -1.19573, 1.23051, -1.30257, 0.0514368, 0.0102854, -0.00180249, -0.0128476, -0.0594909, 0.00162785, -0.00187157, -0.0557783, 57.5943, 27.9368, 6.17248, 1.84131, 3.29562, 0.0229602, -0.00150842, 0.000384705, 0.000568595, -3.27837e-05, -0.00517192, 0.000335919, 0.060887, -0.0414174, -0.0230077, -0.0710966, 0.111411, -0.0163674, 0.470351, -0.540921, 0.337159, -2.08202, -2.16715, -0.128038, 0.47077, -0.542307, 0.336352, -2.08505, -2.16973, -0.122792, -0.0184762, 0.0708527, 0.036173, 0.0242865, 0.0160263, 0.00274559
0.111131, 1.69425, -1.2246, -1.53868, -0.899996, -1.19579, 1.23052, -1.30257, 0.0523197, 0.00951362, -0.000131619, -0.0132569, -0.0592745, 0.00221563, -0.00053547, -0.131157, 57.6657, 27.9011, 6.20819, 1.85962, 3.26724, 0.00373412, -0.00157072, 0.000425319, 0.000589769, -4.0181e-05, -0.00521579, 0.00033768, 0.061456, -0.0427181, -0.0233394, -0.0699146, 0.111553, -0.0165977, 0.470332, -0.54085, 0.337195, -2.08197, -2.16719, -0.127985, 0.470793, -0.542292, 0.336357, -2.08502, -2.16979, -0.122703, -0.018785, 0.0720996, 0.0368038, 0.0252868, 0.0168189, 0.00291988
0.112131, 1.6943, -1.22459, -1.53868, -0.900007, -1.19585, 1.23052, -1.30257, 0.0573879, 0.00572001, -0.000746847, -0.0158871, -0.0583746, 0.00207905, 0.000626489, -0.392998, 57.7411, 27.9368, 6.20819, 1.85962, 3.25259, -0.0228162, -0.00163103, 0.000468922, 0.000615015, -3.52803e-05, -0.00525604, 0.000335203, 0.0600688, -0.0464674, -0.0268508, -0.0729917, 0.10825, -0.0113943, 0.470313, -0.540778, 0.337232, -2.08192, -2.16723, -0.127932, 0.470819, -0.542274, 0.336358, -2.08499, -2.16985, -0.122603, -0.0190951, 0.0733536, 0.0374381, 0.0285393, 0.0201415, 0.000183677
0.113131, 1.69434, -1.22457, -1.5387, -0.900026, -1.1959, 1.23052, -1.30257, 0.0526208, 0.00775729, -0.0047275, -0.0174737, -0.0583322, 0.0014306, -0.000802951, -0.43267, 57.7411, 28.1232, 6.32324, 1.87244, 3.25259, 0.0101428, -0.00169795, 0.000504413, 0.000640464, -2.28467e-05, -0.0053005, 0.000339458, 0.0636351, -0.0435697, -0.0275167, -0.077381, 0.111029, -0.0162464, 0.470294, -0.540705, 0.337269, -2.08186, -2.16726, -0.127878, 0.470837, -0.542261, 0.336359, -2.08495, -2.16991, -0.12249, -0.0194064, 0.0746148, 0.0380757, 0.0254436, 0.0178621, -0.000297593
0.114131, 1.69439, -1.22457, -1.53868, -0.900038, -1.19596, 1.23052, -1.30257, 0.0507718, 0.00180171, 0.000473872, -0.0158242, -0.0529467, 0.00125843, -6.05125e-05, -0.543754, 57.9236, 27.9725, 6.32324, 1.87244, 3.24527, -0.00267457, -0.00176438, 0.000543995, 0.000664646, -3.48714e-05, -0.00533144, 0.000342462, 0.0647081, -0.0440394, -0.0292986, -0.0704214, 0.10091, -0.0168791, 0.470275, -0.54063, 0.337307, -2.08181, -2.1673, -0.127822, 0.470859, -0.542247, 0.336361, -2.08492, -2.16997, -0.122416, -0.0197189, 0.075883, 0.0387168, 0.0255748, 0.0183653, -0.00159722
0.115131, 1.69443, -1.22457, -1.53869, -0.900055, -1.19601, 1.23052, -1.30257, 0.0503241, 0.00321042, -0.00230104, -0.0184808, -0.0542321, 0.00110138, 0.000943055, -0.694511, 57.999, 28.0875, 6.35895, 1.89075, 3.23886, -0.0292249, -0.00183165, 0.000584007, 0.000692498, -3.06522e-05, -0.0053685, 0.000344346, 0.0661731, -0.0439726, -0.0302392, -0.0751615, 0.104553, -0.0188222, 0.470255, -0.540554, 0.337346, -2.08175, -2.16734, -0.127766, 0.470881, -0.542231, 0.336361, -2.08489, -2.17002, -0.122318, -0.0200326, 0.0771581, 0.0393611, 0.0252154, 0.0183368, -0.00210656
0.116131, 1.69447, -1.22455, -1.53869, -0.900071, -1.19606, 1.23052, -1.30257, 0.046812, 0.00826561, -0.000910044, -0.0205809, -0.0495821, 0.00102432, 0.000391384, -0.845268, 58.0347, 28.1986, 6.39465, 1.87793, 3.23153, -0.0228162, -0.00189964, 0.000623613, 0.000716183, -3.15255e-05, -0.00540797, 0.000349469, 0.0667886, -0.0434069, -0.0273246, -0.0723933, 0.106592, -0.0188086, 0.470235, -0.540477, 0.337386, -2.0817, -2.16738, -0.127709, 0.470902, -0.542216, 0.336365, -2.08486, -2.17008, -0.122221, -0.0203474, 0.07844, 0.0400087, 0.0244696, 0.0185419, 0.0013414
0.117131, 1.69451, -1.22454, -1.53869, -0.900099, -1.19611, 1.23052, -1.30257, 0.0400562, 0.00805386, 0.00146223, -0.0248938, -0.0518491, 0.000968251, -0.00119711, -0.960319, 58.11, 28.1232, 6.54541, 1.89624, 3.22421, 0.0165515, -0.00196731, 0.00066453, 0.000741131, -3.45193e-05, -0.00544667, 0.000341695, 0.0698662, -0.0410129, -0.0272923, -0.0729753, 0.109095, -0.0207772, 0.470215, -0.540398, 0.337426, -2.08164, -2.16742, -0.127651, 0.470924, -0.542199, 0.336369, -2.08481, -2.17015, -0.122128, -0.0206634, 0.0797287, 0.0406595, 0.0218812, 0.0166863, 0.00162311
0.118131, 1.69451, -1.22454, -1.53869, -0.900099, -1.19611, 1.23052, -1.30257, 0.0400562, 0.00805386, 0.00146223, -0.0248938, -0.0518491, 0.000968251, -0.00119711, -0.960319, 58.11, 28.1232, 6.54541, 1.89624, 3.22421, 0.0165515, -0.00205311, 0.000682974, 0.000768304, -7.50671e-05, -0.0054287, 0.000385319, 0.0712593, -0.0412926, -0.0277274, -0.0734895, 0.109968, -0.0218261, 0.470194, -0.540319, 0.337466, -2.08158, -2.16746, -0.127592, 0.470924, -0.542199, 0.336369, -2.08481, -2.17015, -0.122128, -0.0209804, 0.081024, 0.0413134, 0.0218812, 0.0166863, 0.00162311
0.119131, 1.69451, -1.22454, -1.53869, -0.900099, -1.19611, 1.23052, -1.30257, 0.0400562, 0.00805386, 0.00146223, -0.0248938, -0.0518491, 0.000968251, -0.00119711, -0.960319, 58.11, 28.1232, 6.54541, 1.89624, 3.22421, 0.0165515, -0.0021403, 0.000701694, 0.000795915, -0.000116268, -0.00541047, 0.000429626, 0.0726594, -0.041573, -0.0281645, -0.0740052, 0.110844, -0.0228794, 0.470173, -0.540238, 0.337508, -2.08152, -2.1675, -0.127533, 0.470924, -0.542199, 0.336369, -2.08481, -2.17015, -0.122128, -0.0212984, 0.0823259, 0.0419705, 0.0218812, 0.0166863, 0.00162311
0.120131, 1.69462, -1.22451, -1.5387, -0.90016, -1.19625, 1.23052, -1.30257, 0.0328885, 0.00712712, -0.000915247, -0.0226979, -0.0461699, 0.00135399, 0.000564629, -1.41259, 58.3282, 28.3851, 6.58508, 1.89624, 3.18851, -0.0228162, -0.002188, 0.000778229, 0.000819893, -4.05837e-05, -0.00555427, 0.000367989, 0.0774034, -0.0376459, -0.0292866, -0.0715699, 0.106073, -0.033923, 0.470152, -0.540155, 0.33755, -2.08146, -2.16755, -0.127472, 0.47098, -0.542157, 0.336377, -2.08472, -2.17031, -0.121844, -0.0216174, 0.0836343, 0.0426306, 0.0177786, 0.0133158, 0.00056553
0.121131, 1.69466, -1.22449, -1.53869, -0.900189, -1.1963, 1.23052, -1.30257, 0.0294692, 0.0113027, 0.00151421, -0.0246153, -0.0490089, 0.000907121, -0.000606915, -1.52764, 58.3679, 28.3097, 6.65649, 1.90265, 3.18851, 0.00373412, -0.00226073, 0.000818734, 0.000840463, -5.66812e-05, -0.00559266, 0.00036496, 0.0793776, -0.0363821, -0.0265365, -0.071713, 0.113125, -0.0353754, 0.47013, -0.540072, 0.337592, -2.0814, -2.16759, -0.12741, 0.471001, -0.54214, 0.336387, -2.08468, -2.17039, -0.121761, -0.0219375, 0.084949, 0.0432937, 0.0163769, 0.0122073, 0.00367913
0.122131, 1.69469, -1.22447, -1.53869, -0.90022, -1.19634, 1.23052, -1.30257, 0.0328451, 0.0137036, 0.00268754, -0.0300499, -0.0504041, 0.00115063, 0.000104023, -1.75378, 58.4393, 28.3851, 6.77154, 1.89075, 3.17386, -0.00999879, -0.00233372, 0.000860316, 0.000866509, -5.96755e-05, -0.00562799, 0.000364938, 0.0775121, -0.0398254, -0.0260564, -0.0745278, 0.118181, -0.0290053, 0.470108, -0.539987, 0.337635, -2.08134, -2.16763, -0.127348, 0.471022, -0.542121, 0.336392, -2.08464, -2.17045, -0.121666, -0.0222584, 0.08627, 0.0439598, 0.0194447, 0.0154461, 0.00499883
0.123131, 1.69472, -1.22446, -1.53869, -0.900249, -1.19638, 1.23052, -1.30257, 0.026265, 0.00945953, -0.000339416, -0.0281805, -0.0474165, 0.00104086, 0.000306713, -1.86486, 58.6258, 28.4961, 6.77154, 1.89624, 3.16653, -0.0164075, -0.00241345, 0.000896918, 0.000896902, -6.55151e-05, -0.00565437, 0.000375191, 0.0828531, -0.0358595, -0.0294845, -0.0748786, 0.112165, -0.0387882, 0.470086, -0.5399, 0.337679, -2.08127, -2.16768, -0.127284, 0.471039, -0.542107, 0.336393, -2.0846, -2.1705, -0.121581, -0.0225803, 0.0875972, 0.0446288, 0.0152367, 0.0118555, 0.0015829
0.124131, 1.69472, -1.22446, -1.53869, -0.900249, -1.19638, 1.23052, -1.30257, 0.026265, 0.00945953, -0.000339416, -0.0281805, -0.0474165, 0.00104086, 0.000306713, -1.86486, 58.6258, 28.4961, 6.77154, 1.89624, 3.16653, -0.0164075, -0.00250771, 0.000917026, 0.000926722, -0.000110022, -0.00563479, 0.000422954, 0.0842865, -0.036143, -0.0299317, -0.0754017, 0.113059, -0.0398619, 0.470063, -0.539813, 0.337724, -2.08121, -2.16772, -0.127219, 0.471039, -0.542107, 0.336393, -2.0846, -2.1705, -0.121581, -0.0229031, 0.0889305, 0.0453006, 0.0152367, 0.0118555, 0.0015829
0.125131, 1.69477, -1.22441, -1.53869, -0.900322, -1.19646, 1.23052, -1.30258, 0.0289385, 0.0204939, 0.000190058, -0.0312731, -0.0441351, 0.000883476, -0.00206772, -2.091, 58.5504, 28.6072, 6.88263, 1.93378, 3.1528, 0.0431018, -0.00256946, 0.000973208, 0.000938445, -8.10262e-05, -0.00574157, 0.000377053, 0.0817907, -0.0388435, -0.0242865, -0.0750193, 0.122508, -0.0320698, 0.47004, -0.539724, 0.337769, -2.08114, -2.16777, -0.127154, 0.471074, -0.542075, 0.336415, -2.08453, -2.17065, -0.12138, -0.0232267, 0.0902698, 0.0459753, 0.0177321, 0.0149131, 0.00813222
0.126131, 1.69479, -1.2244, -1.53869, -0.900359, -1.1965, 1.23053, -1.30257, 0.0250792, 0.0158607, 0.0028727, -0.0331688, -0.0419004, 0.00113258, -0.00110721, -2.13067, 58.8083, 28.6429, 6.91833, 1.92096, 3.13815, 0.0357776, -0.00265341, 0.00100931, 0.000969077, -9.32174e-05, -0.00576598, 0.000387375, 0.0838558, -0.0382419, -0.0265561, -0.072646, 0.116957, -0.0341389, 0.470017, -0.539634, 0.337815, -2.08108, -2.16781, -0.127088, 0.471089, -0.542061, 0.336417, -2.08449, -2.1707, -0.121301, -0.0235512, 0.0916151, 0.0466527, 0.0168018, 0.0145422, 0.00626866
0.127131, 1.69482, -1.22438, -1.53869, -0.9004, -1.19653, 1.23053, -1.30257, 0.0265366, 0.017221, 0.00375973, -0.0307549, -0.0411754, 0.00102711, 0.000448654, -2.3568, 58.8837, 28.7183, 6.91833, 1.93378, 3.13083, 0.00373412, -0.00273086, 0.00105315, 0.00099509, -0.000101217, -0.00580157, 0.000385614, 0.0849061, -0.0389957, -0.0256445, -0.0711099, 0.118343, -0.036812, 0.469994, -0.539542, 0.337862, -2.08101, -2.16786, -0.12702, 0.471111, -0.54204, 0.336424, -2.08445, -2.17077, -0.121207, -0.0238765, 0.0929661, 0.0473329, 0.0173066, 0.0147511, 0.00766298
0.128131, 1.69483, -1.22436, -1.53868, -0.900449, -1.19657, 1.23053, -1.30257, 0.022077, 0.0172081, 0.00882007, -0.0388542, -0.0355234, 0.0017365, 0.000299104, -2.3568, 58.9908, 28.754, 6.95801, 1.93378, 3.10245, 0.00373412, -0.002815, 0.00108924, 0.00102043, -0.00011701, -0.0058326, 0.000390988, 0.083845, -0.0402464, -0.0251502, -0.0671307, 0.11521, -0.0307367, 0.46997, -0.539449, 0.337909, -2.08094, -2.16791, -0.126952, 0.471125, -0.542025, 0.336432, -2.08441, -2.17084, -0.121124, -0.0242025, 0.094323, 0.0480157, 0.018211, 0.0171357, 0.00895802
0.129131, 1.69485, -1.22433, -1.53869, -0.900501, -1.1966, 1.23053, -1.30257, 0.0218428, 0.0220524, 0.00571896, -0.0419729, -0.0319699, 0.00142938, -0.000750032, -2.47185, 59.0305, 28.9405, 6.99371, 1.95209, 3.09512, 0.0293689, -0.00289729, 0.00112877, 0.00104593, -0.000120099, -0.00587376, 0.000388158, 0.083939, -0.0408058, -0.024308, -0.0700249, 0.118355, -0.0286696, 0.469946, -0.539355, 0.337957, -2.08087, -2.16796, -0.126882, 0.471143, -0.542006, 0.336441, -2.08436, -2.17091, -0.121017, -0.0245292, 0.0956855, 0.0487012, 0.0184816, 0.0183026, 0.0104428
0.130131, 1.69487, -1.22433, -1.53869, -0.900548, -1.19663, 1.23053, -1.30257, 0.0157957, 0.0188619, 0.00527061, -0.0447968, -0.0286807, 0.00122452, 0.000958041, -2.47185, 59.3597, 29.0555, 6.91833, 1.95209, 3.0878, -0.00999879, -0.00298651, 0.00116391, 0.00108015, -0.000132993, -0.00589046, 0.000402283, 0.0869861, -0.0386439, -0.0269041, -0.0702838, 0.113383, -0.0340261, 0.469921, -0.539259, 0.338006, -2.0808, -2.168, -0.126812, 0.471156, -0.541992, 0.336441, -2.08432, -2.17096, -0.120943, -0.0248567, 0.0970535, 0.0493892, 0.0160153, 0.0169668, 0.00816576
0.131131, 1.69488, -1.22429, -1.53868, -0.900607, -1.19666, 1.23054, -1.30257, 0.012291, 0.0245896, 0.00512921, -0.0468207, -0.0312728, 0.00159649, 0.00111341, -2.50756, 59.3597, 29.1666, 6.95801, 1.96399, 3.06674, -0.0228162, -0.00307184, 0.00120163, 0.00110227, -0.000144871, -0.00593226, 0.000404777, 0.0894545, -0.0370557, -0.0241102, -0.0717685, 0.122392, -0.0380154, 0.469896, -0.539162, 0.338055, -2.08073, -2.16805, -0.126741, 0.471171, -0.541974, 0.336455, -2.08428, -2.17104, -0.120842, -0.0251848, 0.0984271, 0.0500798, 0.0143053, 0.0154087, 0.0112852
0.132131, 1.69489, -1.22428, -1.53868, -0.90067, -1.19669, 1.23053, -1.30258, 0.0129556, 0.0240701, 0.00279667, -0.0510765, -0.0287076, 0.00187832, -0.000715787, -2.54723, 59.5462, 29.238, 6.99371, 1.9823, 3.04477, 0.0165515, -0.00315585, 0.00124241, 0.00113177, -0.000156672, -0.00595722, 0.000389651, 0.0894371, -0.0386103, -0.0263063, -0.0750733, 0.121383, -0.0331526, 0.469871, -0.539064, 0.338106, -2.08066, -2.1681, -0.126669, 0.471189, -0.541952, 0.336461, -2.08421, -2.17112, -0.120759, -0.0255136, 0.099806, 0.0507728, 0.0154477, 0.0172099, 0.00976274
0.133131, 1.6949, -1.22425, -1.53867, -0.900733, -1.19671, 1.23054, -1.30258, 0.0129457, 0.0257494, 0.0089861, -0.055367, -0.0268125, 0.00152362, -0.00193525, -2.69799, 59.6573, 29.238, 6.95801, 2.00061, 3.03744, 0.0559192, -0.00323752, 0.00128749, 0.00115505, -0.000179959, -0.00598726, 0.000373511, 0.0877921, -0.0410552, -0.0242158, -0.071515, 0.122232, -0.0257173, 0.469845, -0.538964, 0.338156, -2.08059, -2.16815, -0.126595, 0.471211, -0.541927, 0.336475, -2.08415, -2.17122, -0.120683, -0.025843, 0.10119, 0.0514683, 0.0175802, 0.0200071, 0.0126983
0.134131, 1.6949, -1.22422, -1.53866, -0.900799, -1.19674, 1.23054, -1.30257, 0.0105921, 0.0309328, 0.00991498, -0.0582085, -0.0254867, 0.00128712, 0.00115124, -2.62261, 59.7287, 29.3888, 6.88263, 2.01984, 3.03012, -0.00999879, -0.00332805, 0.00132207, 0.00117919, -0.000191508, -0.00602225, 0.000386461, 0.0885136, -0.0408256, -0.021599, -0.0713723, 0.127237, -0.0289591, 0.46982, -0.538862, 0.338208, -2.08052, -2.16821, -0.126521, 0.471222, -0.54191, 0.336488, -2.08411, -2.17128, -0.120585, -0.026173, 0.10258, 0.0521662, 0.0171525, 0.0202762, 0.0158764
0.135131, 1.69491, -1.2242, -1.53866, -0.900875, -1.19676, 1.23054, -1.30257, 0.00952612, 0.0233043, 0.0107023, -0.0622525, -0.0292789, 0.00136679, 0.00100485, -2.69799, 60.0223, 29.5395, 6.88263, 2.04364, 3.01639, -0.0164075, -0.00341368, 0.00136484, 0.00121203, -0.000202741, -0.00604251, 0.000373488, 0.0906085, -0.0412934, -0.026767, -0.0753158, 0.123987, -0.0281809, 0.469793, -0.53876, 0.33826, -2.08044, -2.16826, -0.126446, 0.471241, -0.541885, 0.336493, -2.08404, -2.17136, -0.120503, -0.0265036, 0.103974, 0.0528664, 0.0171745, 0.0204145, 0.011135
0.136131, 1.69491, -1.22417, -1.53866, -0.900951, -1.19677, 1.23054, -1.30257, 0.00771207, 0.0222254, 0.00758686, -0.069861, -0.0271669, 0.00145379, -0.000788161, -2.7337, 60.1334, 29.722, 6.84296, 2.06195, 3.00174, 0.0229602, -0.00350205, 0.00140497, 0.00123937, -0.000215209, -0.00607239, 0.000361775, 0.0910071, -0.0419954, -0.0299311, -0.0809511, 0.122979, -0.0233952, 0.469767, -0.538656, 0.338313, -2.08036, -2.16831, -0.12637, 0.471257, -0.541863, 0.336504, -2.08397, -2.17145, -0.120412, -0.0268347, 0.105374, 0.0535689, 0.0174415, 0.0219366, 0.0086289
0.137131, 1.6949, -1.22413, -1.53865, -0.90103, -1.19679, 1.23054, -1.30257, 0.00293751, 0.0235053, 0.0117405, -0.0712574, -0.02558, 0.000697968, -0.0007628, -2.62261, 60.2802, 29.7617, 6.73187, 2.08118, 3.00906, 0.0293689, -0.00359354, 0.00144061, 0.00126207, -0.000239482, -0.00609822, 0.000358571, 0.0928424, -0.0406581, -0.0281938, -0.0776086, 0.123217, -0.0255334, 0.46974, -0.538551, 0.338366, -2.08029, -2.16836, -0.126293, 0.471268, -0.541842, 0.33652, -2.08392, -2.17153, -0.120336, -0.0271662, 0.106779, 0.0542736, 0.0159157, 0.021207, 0.0108093
0.138131, 1.69491, -1.2241, -1.53864, -0.901118, -1.1968, 1.23054, -1.30257, 0.00084455, 0.0275543, 0.0122075, -0.0747367, -0.0203691, 0.00127915, 0.000440903, -2.69799, 60.4309, 29.9085, 6.73187, 2.1178, 2.98709, 0.00373412, -0.00367987, 0.001485, 0.00128884, -0.000254451, -0.00612865, 0.000342128, 0.0928002, -0.0412458, -0.026449, -0.0758011, 0.124418, -0.0249835, 0.469713, -0.538444, 0.338421, -2.08021, -2.16842, -0.126215, 0.471288, -0.541815, 0.336533, -2.08385, -2.17162, -0.120245, -0.0274983, 0.108188, 0.0549806, 0.0162398, 0.0224194, 0.013227
0.139131, 1.69489, -1.22406, -1.53863, -0.901206, -1.19681, 1.23054, -1.30257, -0.00532994, 0.0299696, 0.0130218, -0.0790646, -0.0199704, 0.00109015, 0.000531294, -2.58294, 60.6134, 29.9085, 6.65649, 2.12421, 2.98068, -0.00267457, -0.00377181, 0.00152179, 0.00131014, -0.000283971, -0.00615346, 0.000334945, 0.0952813, -0.039141, -0.0255153, -0.0765256, 0.127479, -0.0280289, 0.469685, -0.538336, 0.338476, -2.08013, -2.16847, -0.126136, 0.4713, -0.541792, 0.336551, -2.08379, -2.17171, -0.120175, -0.0278308, 0.109602, 0.0556897, 0.0139413, 0.0211509, 0.0145437
0.140131, 1.69488, -1.22402, -1.53862, -0.901306, -1.19682, 1.23054, -1.30257, -0.00384841, 0.0359761, 0.0090385, -0.0849562, -0.0156877, -0.00342766, -0.000832599, -2.58294, 60.6134, 30.095, 6.69617, 2.14801, 2.96603, 0.0293689, -0.00386185, 0.00156212, 0.00133319, -0.000294225, -0.00619403, 0.000316007, 0.0933437, -0.0404215, -0.0251701, -0.085007, 0.129491, -0.0217712, 0.469658, -0.538226, 0.338531, -2.08005, -2.16853, -0.126055, 0.471315, -0.541766, 0.336569, -2.08371, -2.17181, -0.120067, -0.0281637, 0.111021, 0.0564009, 0.0148296, 0.0244884, 0.0158533
0.141131, 1.69487, -1.22399, -1.53861, -0.901401, -1.19683, 1.23054, -1.30257, -0.00362217, 0.0309776, 0.00873736, -0.0860537, -0.0120526, -0.00294777, 0.00114036, -2.54723, 60.8713, 30.1703, 6.62079, 2.16083, 2.97336, -0.0164075, -0.00395487, 0.00160188, 0.0013628, -0.000314105, -0.00621215, 0.000307591, 0.0943167, -0.0416237, -0.0288174, -0.0846751, 0.122837, -0.0225141, 0.469629, -0.538115, 0.338588, -2.07997, -2.16858, -0.125974, 0.471329, -0.541741, 0.336581, -2.08364, -2.1719, -0.11999, -0.028497, 0.112445, 0.0571142, 0.0155972, 0.0255631, 0.0127761
0.142131, 1.69485, -1.22395, -1.5386, -0.90151, -1.19683, 1.23054, -1.30257, -0.0115438, 0.0340358, 0.0085253, -0.0908319, -0.00999357, -0.0017162, 0.000997596, -2.43218, 60.9824, 30.2457, 6.69617, 2.19104, 2.95871, -0.0228162, -0.00404699, 0.00164057, 0.0013868, -0.000331147, -0.00624156, 0.000290464, 0.0974264, -0.0388919, -0.0277253, -0.0841923, 0.125937, -0.0266117, 0.469601, -0.538002, 0.338645, -2.07989, -2.16864, -0.125892, 0.471342, -0.541714, 0.336599, -2.08357, -2.17199, -0.119899, -0.0288307, 0.113873, 0.0578295, 0.0127027, 0.0236355, 0.0141793
0.143131, 1.69484, -1.2239, -1.53859, -0.901609, -1.19684, 1.23054, -1.30257, -0.0143727, 0.039955, 0.0112672, -0.0922123, -0.00776675, -0.00109303, -0.00150507, -2.43218, 61.0538, 30.3211, 6.54541, 2.20386, 2.95138, 0.0357776, -0.00414023, 0.0016815, 0.00140786, -0.000354376, -0.0062742, 0.000268767, 0.0982992, -0.0386286, -0.0237476, -0.0805041, 0.131121, -0.0248809, 0.469572, -0.537889, 0.338703, -2.07981, -2.1687, -0.125809, 0.471357, -0.541687, 0.33662, -2.08349, -2.1721, -0.119811, -0.0291647, 0.115306, 0.0585467, 0.0122985, 0.0235898, 0.018699
0.144131, 1.69482, -1.22386, -1.53859, -0.901723, -1.19684, 1.23054, -1.30257, -0.0137376, 0.0389639, 0.0101006, -0.0979892, -0.00676905, -0.000893807, -0.000766024, -2.43218, 61.2402, 30.5433, 6.58508, 2.23407, 2.95138, 0.0293689, -0.00423541, 0.0017225, 0.0014379, -0.000365395, -0.00630389, 0.000250862, 0.0980084, -0.0405307, -0.0260424, -0.0843514, 0.130975, -0.0212732, 0.469543, -0.537773, 0.338761, -2.07972, -2.16875, -0.125725, 0.471372, -0.541659, 0.336633, -2.08341, -2.1722, -0.119711, -0.029499, 0.116743, 0.0592659, 0.0137675, 0.0257502, 0.0171354
0.145131, 1.6948, -1.22382, -1.53858, -0.901843, -1.19684, 1.23054, -1.30257, -0.0127617, 0.0400768, 0.00975612, -0.104978, -0.00510424, -0.000211087, 0.0014221, -2.3211, 61.3513, 30.6186, 6.62079, 2.24048, 2.93765, -0.0228162, -0.00433003, 0.00176193, 0.00146324, -0.000384748, -0.00632962, 0.000234923, 0.0967572, -0.0431621, -0.0269534, -0.0871948, 0.132687, -0.0171411, 0.469513, -0.537657, 0.338821, -2.07964, -2.16881, -0.12564, 0.471384, -0.54163, 0.336651, -2.08333, -2.1723, -0.119623, -0.0298335, 0.118184, 0.059987, 0.0159805, 0.0286848, 0.0170641
0.146131, 1.69477, -1.22377, -1.53857, -0.901955, -1.19684, 1.23054, -1.30257, -0.0195027, 0.0378375, 0.0102039, -0.108119, -0.00322765, 0.000308929, 0.000473347, -2.28143, 61.4584, 30.6544, 6.47003, 2.22858, 2.923, -0.00999879, -0.00442631, 0.00180158, 0.0014873, -0.000411105, -0.00635029, 0.000215265, 0.100175, -0.0407949, -0.0286444, -0.0866915, 0.130163, -0.0203506, 0.469484, -0.537538, 0.338881, -2.07955, -2.16887, -0.125554, 0.471397, -0.541601, 0.336671, -2.08325, -2.1724, -0.119547, -0.0301683, 0.119629, 0.0607099, 0.0133539, 0.0269107, 0.0156681
0.147131, 1.69475, -1.22373, -1.53856, -0.902081, -1.19684, 1.23054, -1.30257, -0.0227211, 0.0372514, 0.00954733, -0.112119, -0.00302916, 0.000407559, -0.00137986, -2.3211, 61.6449, 30.7297, 6.47003, 2.24689, 2.91568, 0.0357776, -0.00452175, 0.00184512, 0.00151442, -0.000432277, -0.0063782, 0.000182107, 0.102138, -0.0401064, -0.0300903, -0.0891054, 0.130716, -0.0195523, 0.469453, -0.537419, 0.338941, -2.07946, -2.16893, -0.125467, 0.471413, -0.54157, 0.336689, -2.08315, -2.17252, -0.119459, -0.0305034, 0.121079, 0.0614347, 0.0123562, 0.0266134, 0.0146853
0.148131, 1.69471, -1.22368, -1.53855, -0.902212, -1.19684, 1.23054, -1.30257, -0.0317614, 0.0413613, 0.0113929, -0.115019, -0.00284703, 0.000999354, 2.95315e-05, -2.20605, 61.6449, 30.8408, 6.47003, 2.2652, 2.89462, 0.0101428, -0.00462341, 0.00188031, 0.0015377, -0.000448183, -0.00641551, 0.000169861, 0.106103, -0.0363349, -0.0273993, -0.0871097, 0.135759, -0.0276325, 0.469423, -0.537298, 0.339003, -2.07938, -2.16899, -0.125378, 0.471421, -0.541544, 0.336711, -2.08308, -2.17262, -0.119352, -0.0308386, 0.122533, 0.0621611, 0.00852054, 0.0235762, 0.0175826
0.149131, 1.69468, -1.22364, -1.53852, -0.902349, -1.19684, 1.23054, -1.30257, -0.0329273, 0.0399762, 0.0162424, -0.121114, -0.0024509, 0.000389693, 0.000765673, -2.20605, 61.8274, 30.8051, 6.5097, 2.2771, 2.90103, -0.00999879, -0.00472111, 0.00192199, 0.00156432, -0.000472267, -0.00643967, 0.000141893, 0.105355, -0.0381424, -0.0278207, -0.0865914, 0.134912, -0.0228416, 0.469392, -0.537175, 0.339065, -2.07929, -2.16905, -0.125289, 0.471435, -0.541512, 0.33673, -2.08298, -2.17274, -0.119268, -0.031174, 0.12399, 0.0628893, 0.00994922, 0.0259188, 0.0179511
0.150131, 1.69464, -1.22359, -1.53851, -0.902488, -1.19684, 1.23054, -1.30257, -0.0352277, 0.0415273, 0.0130204, -0.126351, -0.0021927, 0.000230407, 1.82229e-06, -2.28143, 61.9028, 30.9162, 6.47003, 2.28992, 2.90103, 0.00373412, -0.00482124, 0.00196181, 0.00159217, -0.000482764, -0.00647174, 0.000114506, 0.10685, -0.0377135, -0.0291676, -0.0919933, 0.137725, -0.0224042, 0.469361, -0.537051, 0.339128, -2.0792, -2.16911, -0.125199, 0.471446, -0.541481, 0.336749, -2.08288, -2.17285, -0.11916, -0.0315095, 0.125452, 0.0636192, 0.00919642, 0.0260921, 0.0171354
0.151131, 1.6946, -1.22354, -1.5385, -0.902639, -1.19684, 1.23054, -1.30257, -0.0390868, 0.0449035, 0.0155718, -0.134907, -0.00105012, 0.00064019, -0.000948221, -2.28143, 62.0139, 30.9519, 6.5097, 2.2771, 2.8873, 0.0293689, -0.00492219, 0.00200165, 0.00161954, -0.000502162, -0.00650094, 8.12695e-05, 0.106561, -0.0383321, -0.027726, -0.092627, 0.141797, -0.0173821, 0.469329, -0.536926, 0.339191, -2.07911, -2.16918, -0.125108, 0.471458, -0.541449, 0.336769, -2.08278, -2.17297, -0.119064, -0.0318451, 0.126917, 0.0643506, 0.00952898, 0.0276533, 0.0193152
0.152131, 1.69455, -1.2235, -1.53848, -0.90279, -1.19684, 1.23053, -1.30257, -0.0416094, 0.0457642, 0.0125918, -0.137997, -0.000747355, 0.000952797, 0.000554647, -2.28143, 62.1964, 31.063, 6.5097, 2.2771, 2.87265, -0.00267457, -0.00502736, 0.00203805, 0.00165061, -0.000517538, -0.00652469, 6.09673e-05, 0.108854, -0.0374438, -0.0290452, -0.0963868, 0.143905, -0.0211687, 0.469298, -0.536799, 0.339256, -2.07902, -2.16924, -0.125016, 0.471465, -0.541419, 0.336785, -2.08269, -2.17308, -0.118967, -0.0321808, 0.128386, 0.0650837, 0.00835013, 0.0270213, 0.0184225
0.153131, 1.6945, -1.22344, -1.53846, -0.902949, -1.19684, 1.23053, -1.30257, -0.0455715, 0.0477995, 0.0130686, -0.143385, 0.00365184, 0.000894067, 0.00111575, -2.3211, 62.1964, 31.063, 6.5097, 2.28992, 2.86532, -0.0228162, -0.00513047, 0.00207683, 0.00167348, -0.00053799, -0.00656325, 3.21224e-05, 0.109425, -0.0372371, -0.0287328, -0.0963209, 0.143588, -0.0204165, 0.469265, -0.53667, 0.339321, -2.07892, -2.1693, -0.124922, 0.471475, -0.541387, 0.336811, -2.0826, -2.1732, -0.118861, -0.0325166, 0.129859, 0.0658182, 0.00784836, 0.027875, 0.0193852
0.154131, 1.69445, -1.22339, -1.53844, -0.903108, -1.19683, 1.23053, -1.30257, -0.0473904, 0.0503798, 0.0163244, -0.15159, 0.00279632, 0.000586746, -0.000239511, -2.43218, 62.2717, 31.063, 6.47003, 2.28992, 2.86532, 0.00373412, -0.00523408, 0.00211576, 0.00169717, -0.000560156, -0.0065951, -2.75248e-06, 0.108594, -0.0387044, -0.027629, -0.0981038, 0.148147, -0.0136047, 0.469233, -0.53654, 0.339387, -2.07883, -2.16937, -0.124828, 0.471485, -0.541354, 0.336836, -2.08249, -2.17333, -0.118762, -0.0328524, 0.131335, 0.0665543, 0.00899404, 0.0300716, 0.0212914
0.155131, 1.69439, -1.22333, -1.53841, -0.90328, -1.19683, 1.23053, -1.30257, -0.0492837, 0.0509213, 0.015587, -0.15747, 0.00659781, 0.000621549, -0.000397033, -2.50756, 62.2717, 31.063, 6.5097, 2.29541, 2.85892, 0.0101428, -0.00533856, 0.00215401, 0.00171877, -0.00058397, -0.0066332, -3.55371e-05, 0.108631, -0.0395357, -0.0287921, -0.0999708, 0.147069, -0.0104147, 0.4692, -0.536409, 0.339453, -2.07873, -2.16943, -0.124733, 0.471494, -0.541321, 0.336864, -2.08239, -2.17346, -0.118658, -0.0331882, 0.132814, 0.0672918, 0.00944932, 0.0317312, 0.0208476
0.156131, 1.69433, -1.22327, -1.53839, -0.903455, -1.19683, 1.23053, -1.30256, -0.0575375, 0.0520378, 0.0186289, -0.164087, 0.00566901, 0.00176547, 0.00190545, -2.58294, 62.2321, 31.1741, 6.43433, 2.2771, 2.82229, -0.0484509, -0.00544821, 0.00218914, 0.00174154, -0.0006058, -0.00667627, -5.85886e-05, 0.111485, -0.0372795, -0.0279544, -0.0991037, 0.150609, -0.0151073, 0.469167, -0.536276, 0.33952, -2.07864, -2.1695, -0.124636, 0.4715, -0.541291, 0.336891, -2.08231, -2.17358, -0.118545, -0.033524, 0.134297, 0.0680307, 0.007013, 0.0301697, 0.0220504
0.157131, 1.69426, -1.22323, -1.53835, -0.903628, -1.19682, 1.23053, -1.30256, -0.0613846, 0.0506501, 0.0223026, -0.166549, 0.00442702, 0.00117306, 0.000320864, -2.62261, 62.4185, 31.1027, 6.32324, 2.27161, 2.82229, -0.0228162, -0.00556092, 0.0022211, 0.00176754, -0.000636666, -0.00669977, -8.39049e-05, 0.113605, -0.0363752, -0.0281618, -0.0982494, 0.15079, -0.0149538, 0.469133, -0.536142, 0.339588, -2.07854, -2.16956, -0.124539, 0.471502, -0.541263, 0.336914, -2.08221, -2.1737, -0.118461, -0.0338597, 0.135784, 0.0687709, 0.00585657, 0.0295549, 0.0222906
0.158131, 1.69418, -1.22316, -1.53832, -0.903823, -1.19682, 1.23053, -1.30256, -0.0636715, 0.0549171, 0.0253717, -0.175015, 0.00328451, 0.00155899, -2.34493e-05, -2.69799, 62.3828, 31.1384, 6.35895, 2.27161, 2.80124, -0.0164075, -0.00566943, 0.00225588, 0.00178841, -0.00065525, -0.00674421, -0.000121454, 0.112924, -0.0376627, -0.0260909, -0.0996456, 0.157636, -0.00961358, 0.469099, -0.536006, 0.339657, -2.07844, -2.16963, -0.124441, 0.471506, -0.541229, 0.336945, -2.0821, -2.17384, -0.118342, -0.0341954, 0.137273, 0.0695125, 0.00686788, 0.0314623, 0.02514
0.159131, 1.6941, -1.22311, -1.53829, -0.904028, -1.19681, 1.23053, -1.30256, -0.0700005, 0.0522726, 0.0309876, -0.18902, 0.00199874, 0.00157966, 0.00144243, -2.69799, 62.601, 31.1741, 6.39465, 2.28351, 2.78659, -0.0557752, -0.00578114, 0.00229145, 0.00181988, -0.000677357, -0.00677343, -0.000158169, 0.112516, -0.0384219, -0.0277707, -0.101773, 0.157741, -0.00390983, 0.469065, -0.535869, 0.339727, -2.07834, -2.1697, -0.124341, 0.471511, -0.541196, 0.336965, -2.08199, -2.17397, -0.118242, -0.0345309, 0.138766, 0.0702554, 0.00721345, 0.0336507, 0.0242623
0.160131, 1.69402, -1.22305, -1.53826, -0.904229, -1.19681, 1.23053, -1.30256, -0.0741176, 0.058552, 0.0279304, -0.190801, 0.00128254, 0.00210261, 0.000961619, -2.84875, 62.601, 31.2494, 6.28357, 2.28992, 2.75821, -0.0557752, -0.00589321, 0.00232603, 0.00184076, -0.000700509, -0.00681914, -0.000195206, 0.115653, -0.0361406, -0.0256686, -0.104608, 0.166032, -0.00893977, 0.469031, -0.53573, 0.339797, -2.07824, -2.16977, -0.124241, 0.471515, -0.541163, 0.336996, -2.08189, -2.17412, -0.118125, -0.0348663, 0.140262, 0.0709994, 0.00481597, 0.0316271, 0.0266771
0.161131, 1.69392, -1.22298, -1.53822, -0.904445, -1.1968, 1.23053, -1.30256, -0.0821075, 0.0626635, 0.0326472, -0.195557, 0.0061562, -0.00331133, 0.00321688, -2.88445, 62.601, 31.2891, 6.28357, 2.2771, 2.75821, 0.00373412, -0.00600564, 0.00235777, 0.00186205, -0.000722107, -0.00686019, -0.000240231, 0.116492, -0.0332978, -0.0228307, -0.104202, 0.16431, -0.0122913, 0.468996, -0.53559, 0.339868, -2.07814, -2.16984, -0.12414, 0.471516, -0.541129, 0.337028, -2.08177, -2.17427, -0.11801, -0.0352016, 0.141761, 0.0717447, 0.0017964, 0.0317387, 0.030192
0.162131, 1.69383, -1.22293, -1.53817, -0.904664, -1.1968, 1.23053, -1.30256, -0.0884668, 0.0603559, 0.0357263, -0.198712, 0.00392188, -0.00178734, 0.00400097, -2.95983, 62.7121, 31.3605, 6.28357, 2.29541, 2.73623, -0.0356336, -0.00612084, 0.00239034, 0.00188704, -0.000750363, -0.00689576, -0.000276805, 0.120163, -0.0313228, -0.0235774, -0.102514, 0.165459, -0.0169818, 0.468961, -0.535448, 0.33994, -2.07804, -2.16991, -0.124037, 0.471517, -0.541095, 0.337056, -2.08166, -2.17441, -0.117907, -0.0355366, 0.143262, 0.0724911, -0.000386013, 0.0296412, 0.0297045
0.163131, 1.69372, -1.22286, -1.53812, -0.904892, -1.19679, 1.23053, -1.30255, -0.0930232, 0.0622015, 0.0386027, -0.206145, 0.00230835, -0.000978118, 0.0039494, -3.03521, 62.6764, 31.4002, 6.24786, 2.31372, 2.7225, -0.0621838, -0.00623508, 0.00242261, 0.00190398, -0.000783124, -0.00694261, -0.000319524, 0.121216, -0.0311382, -0.0227086, -0.103305, 0.170344, -0.0152873, 0.468925, -0.535305, 0.340012, -2.07793, -2.16998, -0.123934, 0.471518, -0.54106, 0.337093, -2.08155, -2.17456, -0.117797, -0.0358715, 0.144767, 0.0732387, -0.000820574, 0.029967, 0.0311558
0.164131, 1.69361, -1.2228, -1.53807, -0.905128, -1.19678, 1.23053, -1.30255, -0.101438, 0.0640684, 0.0441344, -0.219773, 0.00134313, -0.00530659, 0.00163628, -3.03521, 62.7478, 31.4359, 6.20819, 2.32654, 2.71518, -0.0292249, -0.00635125, 0.00245216, 0.00192377, -0.000816044, -0.00697949, -0.000366011, 0.120931, -0.0297703, -0.022008, -0.108302, 0.172451, -0.00824358, 0.468889, -0.53516, 0.340086, -2.07783, -2.17005, -0.123829, 0.471516, -0.541026, 0.337128, -2.08144, -2.17472, -0.117697, -0.0362061, 0.146274, 0.0739872, -0.00249658, 0.0315882, 0.0326874
0.165131, 1.69349, -1.22273, -1.53802, -0.905363, -1.19677, 1.23053, -1.30256, -0.102723, 0.0614659, 0.0446724, -0.224972, 0.000426462, -0.00355327, 0.000546819, -3.07488, 62.8589, 31.6224, 6.02173, 2.34485, 2.70053, -0.00999879, -0.00647357, 0.00247926, 0.00194528, -0.000852332, -0.00701945, -0.00040416, 0.122072, -0.0308533, -0.024353, -0.10979, 0.172853, -0.00502876, 0.468853, -0.535014, 0.34016, -2.07772, -2.17012, -0.123723, 0.471511, -0.540996, 0.337161, -2.08133, -2.17487, -0.117595, -0.0365405, 0.147784, 0.0747369, -0.00179035, 0.0323791, 0.0309111
0.166131, 1.69336, -1.22267, -1.53796, -0.90562, -1.19676, 1.23053, -1.30255, -0.114344, 0.0620096, 0.0520343, -0.23278, 0.00446373, -0.00251614, 0.00242336, -3.03521, 63.0057, 31.6581, 5.98602, 2.36316, 2.6932, -0.0621838, -0.00659268, 0.00250616, 0.00196364, -0.000889228, -0.00705968, -0.000445261, 0.124247, -0.0282689, -0.0223416, -0.10305, 0.17146, -0.00783952, 0.468816, -0.534866, 0.340234, -2.07762, -2.17019, -0.123617, 0.471506, -0.540961, 0.337199, -2.08122, -2.17502, -0.117493, -0.0368746, 0.149297, 0.0754875, -0.00452783, 0.0313221, 0.033403
0.167131, 1.69323, -1.2226, -1.5379, -0.90588, -1.19675, 1.23052, -1.30255, -0.115672, 0.0651229, 0.0556571, -0.244173, 0.0074856, -0.00253388, 0.00147274, -3.07488, 63.0453, 31.7731, 5.87494, 2.38147, 2.70785, -0.0557752, -0.00671014, 0.00253448, 0.00198153, -0.000919505, -0.00710034, -0.000499078, 0.121422, -0.031255, -0.0212586, -0.104024, 0.173831, 0.0032922, 0.46878, -0.534717, 0.34031, -2.07751, -2.17026, -0.123509, 0.471502, -0.540924, 0.337238, -2.08109, -2.17519, -0.117384, -0.0372084, 0.150812, 0.076239, -0.00194296, 0.0356019, 0.0355584
0.168131, 1.6931, -1.22253, -1.53783, -0.906166, -1.19674, 1.23052, -1.30255, -0.122781, 0.065437, 0.0592355, -0.255148, 0.004406, -0.00498397, -0.000167987, -3.15026, 63.1564, 31.8445, 5.95032, 2.41809, 2.66482, -0.0228162, -0.00682278, 0.0025688, 0.0020001, -0.000950468, -0.00714693, -0.00057478, 0.122519, -0.0298157, -0.0216971, -0.109151, 0.176986, 0.00701747, 0.468742, -0.534566, 0.340386, -2.0774, -2.17034, -0.123401, 0.471503, -0.54088, 0.337277, -2.08094, -2.17538, -0.11727, -0.0375418, 0.15233, 0.0769914, -0.00367851, 0.0360379, 0.0357596
0.169131, 1.69296, -1.22246, -1.53775, -0.906454, -1.19673, 1.23052, -1.30254, -0.135002, 0.0635121, 0.0628964, -0.266512, 0.00662942, -0.00388697, 0.00607699, -3.07488, 63.2278, 31.8842, 5.95032, 2.46112, 2.66482, -0.0557752, -0.00694028, 0.00259739, 0.00201544, -0.000988688, -0.00719196, -0.000636855, 0.125282, -0.0268956, -0.0229118, -0.108227, 0.175178, 2.46018e-05, 0.468705, -0.534414, 0.340463, -2.07729, -2.17041, -0.123291, 0.471498, -0.540839, 0.33732, -2.08081, -2.17556, -0.117164, -0.0378749, 0.15385, 0.0777447, -0.00685557, 0.03488, 0.03499
0.170131, 1.69281, -1.22238, -1.53768, -0.906744, -1.19671, 1.23052, -1.30254, -0.141958, 0.070173, 0.067054, -0.274197, 0.00786539, -0.00328583, 0.00918117, -3.07488, 63.2278, 31.9953, 5.98602, 2.51697, 2.67215, -0.0557752, -0.00706, 0.00262264, 0.00202686, -0.0010254, -0.00724218, -0.000695478, 0.126024, -0.0258175, -0.0187124, -0.106135, 0.182309, -0.00212794, 0.468667, -0.53426, 0.340541, -2.07718, -2.17049, -0.12318, 0.471491, -0.540801, 0.337367, -2.08068, -2.17574, -0.117049, -0.0382076, 0.155372, 0.0784988, -0.0080552, 0.0349843, 0.0398161
0.171131, 1.69265, -1.22231, -1.53761, -0.907046, -1.19669, 1.23051, -1.30253, -0.144528, 0.0715661, 0.0692955, -0.278267, 0.0102216, -0.00693925, 0.00633929, -3.03521, 63.3746, 32.1421, 5.95032, 2.53528, 2.66482, -0.0420422, -0.00718155, 0.00264708, 0.00204617, -0.00106163, -0.00727773, -0.000758488, 0.126137, -0.0255125, -0.0183795, -0.108281, 0.181109, 0.00239039, 0.468629, -0.534104, 0.340619, -2.07707, -2.17056, -0.123068, 0.471481, -0.540761, 0.337407, -2.08054, -2.17592, -0.116948, -0.0385399, 0.156897, 0.0792537, -0.00866495, 0.0363346, 0.0408949
0.172131, 1.69248, -1.22223, -1.53753, -0.907366, -1.19667, 1.23051, -1.30253, -0.149129, 0.0722742, 0.0711709, -0.297205, 0.0114024, -0.00471359, 0.00895513, -3.03521, 63.4103, 32.2928, 6.02173, 2.5719, 2.65018, -0.0228162, -0.00730116, 0.00267336, 0.00206554, -0.00108977, -0.00732148, -0.000831795, 0.123723, -0.0282875, -0.0200199, -0.11297, 0.184385, 0.0119235, 0.46859, -0.533947, 0.340699, -2.07696, -2.17064, -0.122956, 0.471474, -0.540718, 0.337448, -2.08038, -2.17611, -0.11683, -0.0388718, 0.158424, 0.0800094, -0.00638326, 0.0406243, 0.0403078
0.173131, 1.69231, -1.22216, -1.53744, -0.90769, -1.19665, 1.23051, -1.30253, -0.157438, 0.0756782, 0.0751132, -0.301352, 0.0119451, -0.0033775, 0.00800777, -2.95983, 63.45, 32.3285, 5.98602, 2.61493, 2.64377, -0.0557752, -0.00742332, 0.00269608, 0.00208019, -0.00113315, -0.00736043, -0.000900478, 0.126685, -0.0257372, -0.017186, -0.109149, 0.188862, 0.0091218, 0.468551, -0.533789, 0.340779, -2.07684, -2.17071, -0.122842, 0.471462, -0.540677, 0.337494, -2.08024, -2.1763, -0.116732, -0.0392032, 0.159952, 0.0807657, -0.00901461, 0.0386812, 0.0434978
0.174131, 1.69213, -1.22208, -1.53735, -0.908021, -1.19662, 1.2305, -1.30252, -0.161263, 0.0718928, 0.0833948, -0.31329, 0.0126361, -0.00798503, 0.00449319, -2.9995, 63.4857, 32.4039, 5.87494, 2.65155, 2.66482, -0.0164075, -0.00754216, 0.00272332, 0.00209822, -0.00117103, -0.00739467, -0.000983201, 0.124487, -0.0272843, -0.0188483, -0.111572, 0.18372, 0.0224125, 0.468512, -0.533629, 0.340859, -2.07673, -2.17079, -0.122727, 0.471455, -0.54063, 0.337538, -2.08007, -2.1765, -0.116634, -0.0395341, 0.161483, 0.0815227, -0.00795022, 0.0427089, 0.042899
0.175131, 1.69194, -1.22202, -1.53726, -0.908364, -1.1966, 1.2305, -1.30253, -0.167543, 0.0708371, 0.082427, -0.321009, 0.0133359, -0.0109536, 0.00703533, -2.95983, 63.5968, 32.515, 5.87494, 2.68268, 2.67215, 0.0165515, -0.00766749, 0.00274352, 0.00211872, -0.00121063, -0.00742504, -0.00106205, 0.12647, -0.025134, -0.0213584, -0.118054, 0.182174, 0.019032, 0.468473, -0.533468, 0.340941, -2.07661, -2.17087, -0.122611, 0.47144, -0.540588, 0.33758, -2.07991, -2.17669, -0.116539, -0.0398646, 0.163016, 0.0822803, -0.0104396, 0.042565, 0.0409496
0.176131, 1.69175, -1.22193, -1.53716, -0.908723, -1.19656, 1.23049, -1.30252, -0.172757, 0.0763121, 0.0875013, -0.329515, 0.0140431, -0.00818167, 0.00713039, -2.95983, 63.5611, 32.515, 5.87494, 2.7074, 2.67215, -0.0292249, -0.0077834, 0.00277035, 0.00212852, -0.0012578, -0.00746363, -0.00115322, 0.12645, -0.0257275, -0.0175424, -0.114295, 0.189732, 0.0226171, 0.468433, -0.533304, 0.341023, -2.07649, -2.17095, -0.122494, 0.471432, -0.540536, 0.337634, -2.07974, -2.17691, -0.116445, -0.0401944, 0.164551, 0.0830385, -0.0100118, 0.0435703, 0.0454611
0.177131, 1.69156, -1.22187, -1.53705, -0.909098, -1.19653, 1.23048, -1.30251, -0.182926, 0.0730792, 0.092508, -0.341913, 0.0197395, -0.010678, 0.0110023, -2.95983, 63.7079, 32.5904, 5.83527, 2.7193, 2.66482, -0.0557752, -0.0079019, 0.00279654, 0.0021522, -0.001295, -0.0074853, -0.00124715, 0.126786, -0.0241717, -0.0196203, -0.114624, 0.182108, 0.0227584, 0.468392, -0.53314, 0.341106, -2.07637, -2.17103, -0.122376, 0.471422, -0.540484, 0.337674, -2.07955, -2.17712, -0.116357, -0.0405238, 0.166087, 0.0837972, -0.0119565, 0.0450179, 0.0441719
0.178131, 1.69135, -1.22178, -1.53695, -0.909477, -1.1965, 1.23047, -1.3025, -0.186992, 0.0780655, 0.0946005, -0.351047, 0.0273958, -0.00747366, 0.0111182, -2.95983, 63.6682, 32.7372, 5.83527, 2.76874, 2.65018, -0.00999879, -0.00802155, 0.00282021, 0.00216617, -0.00133434, -0.00752358, -0.00134805, 0.125411, -0.0258945, -0.0172731, -0.110387, 0.183967, 0.0289197, 0.468352, -0.532974, 0.34119, -2.07626, -2.17111, -0.122257, 0.47141, -0.540433, 0.337725, -2.07936, -2.17734, -0.116253, -0.0408525, 0.167625, 0.0845564, -0.0105161, 0.0476413, 0.0474025
0.179131, 1.69113, -1.22171, -1.53683, -0.909868, -1.19646, 1.23046, -1.3025, -0.202141, 0.0801402, 0.10475, -0.357288, 0.0292269, -0.00514696, 0.00790083, -2.88445, 63.7079, 32.6658, 5.79956, 2.79895, 2.63644, 0.00373412, -0.00814162, 0.00284168, 0.00217933, -0.00138466, -0.00754993, -0.00145078, 0.129459, -0.0213943, -0.0128765, -0.0997759, 0.186185, 0.0269055, 0.468311, -0.532806, 0.341275, -2.07613, -2.17119, -0.122137, 0.471396, -0.54038, 0.337778, -2.07917, -2.17757, -0.116173, -0.0411807, 0.169165, 0.0853161, -0.0149771, 0.0443073, 0.0520423
0.180131, 1.69092, -1.22162, -1.53672, -0.910266, -1.19642, 1.23045, -1.30249, -0.202647, 0.0841241, 0.107598, -0.366948, 0.0300105, -0.00890256, 0.00747328, -2.84875, 63.6325, 32.7768, 5.72418, 2.84198, 2.64377, -0.0356336, -0.00825919, 0.00286706, 0.00219276, -0.00142392, -0.00758584, -0.00155609, 0.126932, -0.0233376, -0.0117071, -0.10499, 0.189375, 0.0356426, 0.46827, -0.532637, 0.34136, -2.07601, -2.17127, -0.122016, 0.471385, -0.540324, 0.337831, -2.07898, -2.1778, -0.116071, -0.0415082, 0.170706, 0.0860762, -0.0134109, 0.0482603, 0.0542793
0.181131, 1.6907, -1.22154, -1.5366, -0.910685, -1.19638, 1.23044, -1.30249, -0.208116, 0.0811222, 0.1067, -0.374198, 0.0299601, -0.0111049, 0.00970877, -2.7337, 63.6682, 32.8879, 5.6488, 2.90332, 2.63644, -0.0228162, -0.00837759, 0.00289079, 0.00221028, -0.00145904, -0.00761797, -0.00167087, 0.129095, -0.0216339, -0.0152453, -0.111157, 0.186876, 0.0327849, 0.468228, -0.532466, 0.341446, -2.07589, -2.17135, -0.121894, 0.471372, -0.540266, 0.337881, -2.07877, -2.17803, -0.115967, -0.0418351, 0.172249, 0.0868367, -0.015485, 0.0481241, 0.051276
0.182131, 1.69047, -1.22146, -1.53648, -0.911116, -1.19634, 1.23042, -1.30248, -0.214176, 0.0766188, 0.112111, -0.39373, 0.0316936, -0.0122587, 0.00558453, -2.62261, 63.6682, 32.8879, 5.6131, 2.91614, 2.61447, 0.0229602, -0.00849214, 0.00291869, 0.00222887, -0.00150083, -0.00764061, -0.0018056, 0.126453, -0.0238667, -0.0189918, -0.115942, 0.182683, 0.0501232, 0.468187, -0.532294, 0.341533, -2.07577, -2.17143, -0.121771, 0.471363, -0.540202, 0.337931, -2.07853, -2.17829, -0.115882, -0.0421613, 0.173793, 0.0875976, -0.0138384, 0.0529513, 0.0486657
0.183131, 1.69024, -1.22138, -1.53635, -0.911544, -1.19629, 1.23041, -1.30247, -0.219055, 0.0772121, 0.118046, -0.400118, 0.0363382, -0.0139808, 0.0105916, -2.50756, 63.6325, 32.9236, 5.50201, 2.96466, 2.61447, -0.0164075, -0.00860936, 0.00294376, 0.00224274, -0.00154854, -0.00766561, -0.00192315, 0.125956, -0.0240288, -0.0178565, -0.112928, 0.179729, 0.0491055, 0.468144, -0.53212, 0.34162, -2.07564, -2.17152, -0.121646, 0.47135, -0.540141, 0.337986, -2.07832, -2.17853, -0.115798, -0.0424869, 0.175339, 0.0883587, -0.0139658, 0.0548253, 0.0506207
0.184131, 1.69, -1.22131, -1.53622, -0.911993, -1.19625, 1.2304, -1.30246, -0.228063, 0.0776696, 0.121865, -0.411053, 0.0358309, -0.0140621, 0.00984841, -2.39648, 63.5968, 32.999, 5.38696, 2.99579, 2.57876, -0.0685925, -0.00872255, 0.00297425, 0.00226079, -0.0015942, -0.00768768, -0.00205917, 0.127583, -0.0222402, -0.017836, -0.114307, 0.182066, 0.0509959, 0.468102, -0.531945, 0.341709, -2.07552, -2.1716, -0.121521, 0.471343, -0.540073, 0.338038, -2.07809, -2.17879, -0.115715, -0.0428117, 0.176886, 0.0891202, -0.0159968, 0.0546788, 0.0512183
0.185131, 1.68976, -1.22122, -1.53608, -0.912446, -1.1962, 1.23039, -1.30245, -0.232854, 0.0798357, 0.126341, -0.426162, 0.0405877, -0.0104279, 0.0104436, -2.24175, 63.4857, 32.999, 5.27588, 3.0141, 2.57144, -0.0292249, -0.00883959, 0.00299931, 0.00227628, -0.00164095, -0.00771053, -0.00219316, 0.125142, -0.0251003, -0.0170447, -0.111919, 0.184113, 0.0614272, 0.468059, -0.531768, 0.341798, -2.07539, -2.17169, -0.121395, 0.47133, -0.540008, 0.338093, -2.07785, -2.17905, -0.115632, -0.0431357, 0.178434, 0.0898818, -0.0135252, 0.0586563, 0.053037
