alisrour97/Franka_experiments/Real_Robot_scripts/servo-franka/Data_5_ki/log_dyn_PI0_14.csv
Time,q1,q2,q3,q4,q5,q6,q7,dq1,dq2,dq3,dq4,dq5,dq6,dq7,t1,t2,t3,t4,t5,t6,t7,ex1,ex2,ex3,ex4,ex5,ex6,ev1,ev2,ev3,ev4,ev5,ev6,xd,yd,zd,uxd,uyd,uzd,x,y,z,ux,uy,uz,vxd,vyd,vzd,vx,vy,vz
4.88281e-07, 1.69163, -1.22732, -1.53882, -0.900045, -1.1915, 1.22839, -1.3027, 0.00353753, 0.00228357, 0.0141195, 0.000515085, 0.00187635, 0.00602566, -0.000442135, -1.26183, 60.907, 29.0555, 6.77154, 1.16015, 3.1235, -0.0356336, 0.00079661, -0.00152454, 0.00142809, 0.00107908, 0.00154711, -8.3133e-05, -0.0041776, -0.00566411, 0.0067179, 0.0182709, 0.00296051, 0.0107447, 0.471008, -0.543389, 0.335894, -2.08385, -2.16584, -0.129887, 0.469399, -0.542446, 0.334636, -2.08237, -2.16461, -0.130246, -4.06186e-05, 0.000124715, 6.6488e-05, 0.00570929, 0.00344671, 0.00717758
0.0121877, 1.69164, -1.2273, -1.53877, -0.900049, -1.19151, 1.22842, -1.3027, -0.00211584, 0.00362141, 0.00516888, -0.00146095, -0.00886314, 0.00757046, 0.000483759, -1.33721, 61.387, 29.2023, 6.77154, 1.20868, 3.0878, -0.0685925, 0.000811211, -0.0015017, 0.00139757, 0.00101228, 0.00150676, -0.000119954, 0.00186982, -0.000431828, 0.00445377, 0.00679398, 0.0144972, -0.00204357, 0.471008, -0.543389, 0.335894, -2.08385, -2.16584, -0.129887, 0.469429, -0.542435, 0.334685, -2.08241, -2.16472, -0.130302, -6.68636e-05, 0.000218577, 0.000115026, 0.000592027, -0.00229522, 0.00420959
0.0131877, 1.69164, -1.2273, -1.53877, -0.900049, -1.19151, 1.22842, -1.3027, -0.00211584, 0.00362141, 0.00516888, -0.00146095, -0.00886314, 0.00757046, 0.000483759, -1.33721, 61.387, 29.2023, 6.77154, 1.20868, 3.0878, -0.0685925, 0.000811188, -0.00150169, 0.00139758, 0.00101227, 0.00150677, -0.000119942, 0.00198069, -0.000457913, 0.00441811, 0.00674681, 0.0145697, -0.00213327, 0.471008, -0.543389, 0.335894, -2.08385, -2.16584, -0.129887, 0.469429, -0.542435, 0.334685, -2.08241, -2.16472, -0.130302, -9.5592e-05, 0.000321476, 0.000168224, 0.000592027, -0.00229522, 0.00420959
0.0141877, 1.69164, -1.2273, -1.53877, -0.900049, -1.19151, 1.22842, -1.3027, -0.00211584, 0.00362141, 0.00516888, -0.00146095, -0.00886314, 0.00757046, 0.000483759, -1.33721, 61.387, 29.2023, 6.77154, 1.20868, 3.0878, -0.0685925, 0.000811127, -0.00150168, 0.0013976, 0.00101224, 0.00150678, -0.000119909, 0.00210166, -0.00048633, 0.00437922, 0.00669543, 0.0146487, -0.00223106, 0.471008, -0.543389, 0.335894, -2.08385, -2.16584, -0.129887, 0.469429, -0.542435, 0.334685, -2.08241, -2.16472, -0.130302, -0.000126895, 0.000433757, 0.000226255, 0.000592027, -0.00229522, 0.00420959
0.0151877, 1.69164, -1.2273, -1.53877, -0.900049, -1.19151, 1.22842, -1.3027, -0.00211584, 0.00362141, 0.00516888, -0.00146095, -0.00886314, 0.00757046, 0.000483759, -1.33721, 61.387, 29.2023, 6.77154, 1.20868, 3.0878, -0.0685925, 0.000811007, -0.00150165, 0.00139764, 0.00101218, 0.00150681, -0.000119845, 0.0022331, -0.000517161, 0.00433698, 0.00663968, 0.0147345, -0.00233723, 0.471008, -0.543389, 0.335894, -2.08385, -2.16584, -0.129887, 0.469429, -0.542435, 0.334685, -2.08241, -2.16472, -0.130302, -0.000160861, 0.000555757, 0.000289294, 0.000592027, -0.00229522, 0.00420959
0.0161877, 1.69164, -1.2273, -1.53877, -0.900049, -1.19151, 1.22842, -1.3027, -0.00211584, 0.00362141, 0.00516888, -0.00146095, -0.00886314, 0.00757046, 0.000483759, -1.33721, 61.387, 29.2023, 6.77154, 1.20868, 3.0878, -0.0685925, 0.000810809, -0.0015016, 0.0013977, 0.00101209, 0.00150686, -0.000119739, 0.00237537, -0.000550486, 0.00429127, 0.00657944, 0.0148273, -0.00245207, 0.471008, -0.543389, 0.335894, -2.08385, -2.16584, -0.129886, 0.469429, -0.542435, 0.334685, -2.08241, -2.16472, -0.130302, -0.000197581, 0.000687809, 0.000357511, 0.000592027, -0.00229522, 0.00420959
0.0171877, 1.69164, -1.2273, -1.53877, -0.900049, -1.19151, 1.22842, -1.3027, -0.00211584, 0.00362141, 0.00516888, -0.00146095, -0.00886314, 0.00757046, 0.000483759, -1.33721, 61.387, 29.2023, 6.77154, 1.20868, 3.0878, -0.0685925, 0.000810516, -0.00150153, 0.0013978, 0.00101195, 0.00150693, -0.000119583, 0.00252881, -0.000586382, 0.00424198, 0.00651455, 0.0149274, -0.00257585, 0.471008, -0.543389, 0.335894, -2.08385, -2.16584, -0.129886, 0.469429, -0.542435, 0.334685, -2.08241, -2.16472, -0.130302, -0.000237139, 0.000830243, 0.000431075, 0.000592027, -0.00229522, 0.00420959
0.0181877, 1.69164, -1.2273, -1.53877, -0.900049, -1.19151, 1.22842, -1.3027, -0.00211584, 0.00362141, 0.00516888, -0.00146095, -0.00886314, 0.00757046, 0.000483759, -1.33721, 61.387, 29.2023, 6.77154, 1.20868, 3.0878, -0.0685925, 0.000810107, -0.00150143, 0.00139793, 0.00101175, 0.00150702, -0.000119365, 0.00269379, -0.000624926, 0.00418901, 0.00644488, 0.0150349, -0.00270885, 0.471008, -0.543388, 0.335894, -2.08385, -2.16584, -0.129886, 0.469429, -0.542435, 0.334685, -2.08241, -2.16472, -0.130302, -0.000279621, 0.000983381, 0.00051015, 0.000592027, -0.00229522, 0.00420959
0.0191877, 1.69164, -1.2273, -1.53877, -0.900049, -1.19151, 1.22842, -1.3027, -0.00211584, 0.00362141, 0.00516888, -0.00146095, -0.00886314, 0.00757046, 0.000483759, -1.33721, 61.387, 29.2023, 6.77154, 1.20868, 3.0878, -0.0685925, 0.000809564, -0.00150131, 0.0013981, 0.00101149, 0.00150715, -0.000119076, 0.00287063, -0.000666192, 0.00413223, 0.00637029, 0.0151502, -0.00285133, 0.471008, -0.543388, 0.335895, -2.08385, -2.16584, -0.129886, 0.469429, -0.542435, 0.334685, -2.08241, -2.16472, -0.130302, -0.00032511, 0.00114754, 0.000594898, 0.000592027, -0.00229522, 0.00420959
0.0201877, 1.69164, -1.2273, -1.53877, -0.900049, -1.19151, 1.22842, -1.3027, -0.00211584, 0.00362141, 0.00516888, -0.00146095, -0.00886314, 0.00757046, 0.000483759, -1.33721, 61.387, 29.2023, 6.77154, 1.20868, 3.0878, -0.0685925, 0.000808869, -0.00150114, 0.00139833, 0.00101116, 0.00150731, -0.000118706, 0.00305968, -0.000710254, 0.00407155, 0.00629066, 0.0152734, -0.00300355, 0.471007, -0.543387, 0.335895, -2.08384, -2.16584, -0.129885, 0.469429, -0.542435, 0.334685, -2.08241, -2.16472, -0.130302, -0.000373687, 0.00132303, 0.000685479, 0.000592027, -0.00229522, 0.00420959
0.0211892, 1.69164, -1.22728, -1.53877, -0.900051, -1.19152, 1.22844, -1.30271, -0.00339723, -0.00171987, -0.000234617, -0.000634146, -0.00146426, 0.000831445, -0.00112865, -1.33721, 61.9028, 29.5395, 6.80725, 1.28284, 3.08047, -0.0164075, 0.000805158, -0.00149939, 0.00138567, 0.00100153, 0.00146504, -0.000123801, 0.0035348, 0.00140041, -0.00145409, -0.000779161, 0.00092863, -0.00356668, 0.471007, -0.543386, 0.335895, -2.08384, -2.16584, -0.129884, 0.469431, -0.54244, 0.334697, -2.08244, -2.16476, -0.13027, -0.000425431, 0.00151016, 0.000782046, -0.00175013, -0.00181302, -0.00116013
0.0221892, 1.69164, -1.22728, -1.53878, -0.900052, -1.19152, 1.22844, -1.30271, -0.00254338, -0.00102426, -0.00169878, -0.000423598, -0.000786373, 0.0006368, 0.000942985, -1.33721, 61.9028, 29.611, 6.80725, 1.27643, 3.08047, -0.0621838, 0.000801983, -0.00150124, 0.00138728, 0.00100396, 0.00146425, -0.000113617, 0.00351715, 0.00114808, -0.0016664, -0.00197902, 0.00121341, -0.00564182, 0.471007, -0.543385, 0.335896, -2.08384, -2.16584, -0.129884, 0.469429, -0.542442, 0.334696, -2.08244, -2.16475, -0.130265, -0.000480419, 0.00170921, 0.00088475, -0.0015614, -0.00155354, -0.00127194
0.0231892, 1.69164, -1.22729, -1.53878, -0.900057, -1.19152, 1.22844, -1.30271, -0.00190451, -0.00667631, -0.00557964, -0.00739242, -0.00562311, 0.000757679, -0.00157539, -1.33721, 61.756, 29.5395, 6.84296, 1.27002, 3.07315, -0.00267457, 0.000800263, -0.00150013, 0.00139418, 0.00101147, 0.00146761, -0.000118362, 0.00370214, 0.000284798, -0.00742534, -0.0114987, 0.000629956, 3.76366e-05, 0.471007, -0.543384, 0.335896, -2.08384, -2.16585, -0.129883, 0.46943, -0.542441, 0.334689, -2.08243, -2.16475, -0.13026, -0.000538724, 0.00192048, 0.000993739, -0.00095881, -0.000603188, -0.00690418
0.0241892, 1.69164, -1.2273, -1.53879, -0.900059, -1.19152, 1.22844, -1.30271, 0.00160517, -0.00994436, -0.00709184, -0.00773427, -0.00309823, 0.000551528, 0.000407801, -1.33721, 61.4227, 29.3888, 6.80725, 1.23981, 3.07315, -0.0420422, 0.000798798, -0.00149789, 0.00140586, 0.00102124, 0.00148075, -0.000115077, 0.00238361, -0.00185565, -0.0102083, -0.0129082, -0.00440267, 0.0018013, 0.471006, -0.543383, 0.335897, -2.08384, -2.16585, -0.129882, 0.469431, -0.542439, 0.334678, -2.08242, -2.16473, -0.130261, -0.000600418, 0.00214425, 0.00110915, 0.000969564, 0.00143819, -0.00939662
0.0251892, 1.69165, -1.2273, -1.53881, -0.900065, -1.19152, 1.22845, -1.30271, 0.00438194, -0.00549809, -0.0092103, -0.00902121, -0.00150131, -0.000140043, -0.00142355, -1.33721, 60.907, 29.2777, 6.80725, 1.21509, 3.0878, 0.00373412, 0.000796553, -0.0014962, 0.0014166, 0.00104121, 0.00148104, -0.00011661, 0.000657981, -0.00335961, -0.00881501, -0.0153961, -0.00112289, 0.00673319, 0.471006, -0.543381, 0.335898, -2.08384, -2.16585, -0.129881, 0.469432, -0.542438, 0.334668, -2.08241, -2.16473, -0.130238, -0.00066557, 0.00238079, 0.00123113, 0.00239501, 0.00322541, -0.00767638
0.0261892, 1.69166, -1.22732, -1.53882, -0.900066, -1.19152, 1.22845, -1.30271, 0.00245213, -0.00653627, -0.00748716, -0.0104082, -0.000586213, -0.00088106, -0.0011864, -1.30151, 60.538, 29.0159, 6.69617, 1.19678, 3.10977, 0.0101428, 0.000793359, -0.0014938, 0.00142864, 0.00105091, 0.00149065, -0.000115903, 0.000853045, -0.0029383, -0.00905513, -0.0146649, -0.00314734, 0.00674365, 0.471005, -0.543379, 0.335899, -2.08384, -2.16585, -0.129879, 0.469433, -0.542437, 0.334656, -2.0824, -2.16472, -0.130235, -0.000734245, 0.00263035, 0.0013598, 0.00190387, 0.00330212, -0.00780239
0.0271892, 1.69166, -1.22732, -1.53882, -0.900066, -1.19152, 1.22845, -1.30271, 0.00245213, -0.00653627, -0.00748716, -0.0104082, -0.000586213, -0.00088106, -0.0011864, -1.30151, 60.538, 29.0159, 6.69617, 1.19678, 3.10977, 0.0101428, 0.000791086, -0.00149327, 0.00142937, 0.00104982, 0.00149118, -0.000114697, 0.00113614, -0.00300381, -0.00914585, -0.0147832, -0.00296325, 0.00651656, 0.471005, -0.543377, 0.3359, -2.08384, -2.16585, -0.129878, 0.469433, -0.542437, 0.334656, -2.0824, -2.16472, -0.130235, -0.000806507, 0.00289319, 0.0014953, 0.00190387, 0.00330212, -0.00780239
0.0281892, 1.69166, -1.22732, -1.53882, -0.900066, -1.19152, 1.22845, -1.30271, 0.00245213, -0.00653627, -0.00748716, -0.0104082, -0.000586213, -0.00088106, -0.0011864, -1.30151, 60.538, 29.0159, 6.69617, 1.19678, 3.10977, 0.0101428, 0.000788517, -0.00149266, 0.0014302, 0.00104859, 0.00149177, -0.000113334, 0.00143379, -0.00307262, -0.00924122, -0.0149075, -0.00276974, 0.00627792, 0.471004, -0.543375, 0.335901, -2.08384, -2.16585, -0.129876, 0.469433, -0.542437, 0.334656, -2.0824, -2.16472, -0.130235, -0.000882416, 0.00316954, 0.00163773, 0.00190387, 0.00330212, -0.00780239
0.0291895, 1.69166, -1.22732, -1.53882, -0.900066, -1.19152, 1.22845, -1.30271, 0.00245213, -0.00653627, -0.00748716, -0.0104082, -0.000586213, -0.00088106, -0.0011864, -1.30151, 60.538, 29.0159, 6.69617, 1.19678, 3.10977, 0.0101428, 0.000785635, -0.00149198, 0.00143113, 0.00104721, 0.00149244, -0.000111805, 0.00174623, -0.00314477, -0.00934131, -0.0150377, -0.00256667, 0.00602755, 0.471003, -0.543372, 0.335903, -2.08383, -2.16585, -0.129874, 0.469433, -0.542437, 0.334656, -2.0824, -2.16472, -0.130235, -0.000962028, 0.00345964, 0.00178723, 0.00190387, 0.00330212, -0.00780239
0.0301895, 1.69166, -1.22732, -1.53882, -0.900066, -1.19152, 1.22845, -1.30271, 0.00245213, -0.00653627, -0.00748716, -0.0104082, -0.000586213, -0.00088106, -0.0011864, -1.30151, 60.538, 29.0159, 6.69617, 1.19678, 3.10977, 0.0101428, 0.00078242, -0.00149123, 0.00143216, 0.00104567, 0.00149318, -0.000110101, 0.0020737, -0.00322032, -0.0094462, -0.0151741, -0.00235389, 0.00576525, 0.471002, -0.543369, 0.335904, -2.08383, -2.16585, -0.129871, 0.469433, -0.542437, 0.334656, -2.0824, -2.16472, -0.130235, -0.0010454, 0.0037637, 0.0019439, 0.00190387, 0.00330212, -0.00780239
0.0311895, 1.69169, -1.22742, -1.53894, -0.900078, -1.19154, 1.22851, -1.30271, 0.0029026, -0.0237058, -0.0171481, -0.00166079, -0.00299347, 0.0110595, 0.000942651, -0.809562, 60.2802, 28.7183, 6.32324, 1.33136, 3.02371, -0.0164075, 0.000755123, -0.00147843, 0.00153073, 0.00112273, 0.00154024, -9.41351e-05, 0.0101514, -0.00212266, -0.0208333, -0.0118544, -0.0114873, -0.00900396, 0.471002, -0.543366, 0.335906, -2.08383, -2.16586, -0.129869, 0.469443, -0.542445, 0.334556, -2.08235, -2.16465, -0.130193, -0.00113257, 0.00408193, 0.00210783, 0.000598221, -0.0026466, -0.0201029
0.0321895, 1.6917, -1.22743, -1.53896, -0.900085, -1.19154, 1.22852, -1.30271, 0.00639196, -0.0211922, -0.0175846, -0.00490194, -0.00251726, 0.00787666, -0.00106699, -0.694511, 60.2802, 28.6429, 6.32324, 1.34418, 3.03012, 0.0293689, 0.000749831, -0.00147069, 0.00154727, 0.00113182, 0.00154072, -9.98672e-05, 0.0074271, -0.00423472, -0.0205385, -0.0168029, -0.0102966, -0.00109206, 0.471001, -0.543362, 0.335908, -2.08383, -2.16586, -0.129866, 0.469449, -0.542444, 0.334541, -2.08233, -2.16465, -0.130181, -0.0012236, 0.00441451, 0.00227914, 0.0025297, 0.000416572, -0.0192813
0.0331895, 1.69171, -1.22744, -1.53897, -0.900079, -1.19155, 1.22854, -1.30271, 0.00955159, -0.017435, -0.0203352, -0.000481369, -0.0067275, 0.00936751, -0.000711325, -0.619133, 60.2087, 28.5319, 6.17248, 1.33777, 3.05942, 0.0293689, 0.000743129, -0.00146299, 0.00155714, 0.0011287, 0.00153678, -9.61674e-05, 0.00891704, -0.00435311, -0.0188509, -0.0181078, -0.00223625, -0.0052974, 0.470999, -0.543358, 0.33591, -2.08382, -2.16586, -0.129863, 0.469456, -0.542445, 0.334532, -2.08234, -2.16465, -0.130178, -0.00131852, 0.00476163, 0.0024579, 0.00266723, -0.000962143, -0.0176709
0.0341895, 1.69173, -1.22744, -1.539, -0.900082, -1.19155, 1.22856, -1.30271, 0.0159244, -0.00988728, -0.0205327, -0.00320235, -0.00538982, 0.0114539, -0.000982843, -0.583427, 60.062, 28.6072, 6.13678, 1.34967, 3.06674, 0.0431018, 0.000738978, -0.00145175, 0.00156832, 0.00113715, 0.00152235, -0.000101886, 0.00495448, -0.00898595, -0.015142, -0.0176617, 0.00591935, 0.00355485, 0.470998, -0.543354, 0.335912, -2.08382, -2.16586, -0.12986, 0.469465, -0.542442, 0.334522, -2.08233, -2.16467, -0.130151, -0.00141737, 0.00512346, 0.00264421, 0.00718738, 0.00293046, -0.0133471
0.0351895, 1.69175, -1.22744, -1.53902, -0.900084, -1.19155, 1.22859, -1.30271, 0.0166807, -0.00829308, -0.0211233, -0.00592264, -0.00394122, 0.0128299, -0.00136731, -0.508049, 59.9509, 28.5715, 6.13678, 1.34967, 3.08047, 0.0623279, 0.000734638, -0.00143915, 0.00157812, 0.00113772, 0.00150797, -0.000109688, 0.00404677, -0.0103924, -0.014841, -0.0177523, 0.00756415, 0.00691574, 0.470997, -0.543349, 0.335915, -2.08382, -2.16586, -0.129856, 0.469476, -0.54244, 0.334514, -2.08233, -2.16469, -0.130133, -0.00152019, 0.00550014, 0.00283813, 0.00846757, 0.00421453, -0.0127575
0.0361895, 1.69176, -1.22744, -1.53905, -0.900089, -1.19156, 1.22861, -1.30271, 0.0146206, -0.00497263, -0.024432, -0.0055524, -0.0083143, 0.0135294, 0.000309166, -0.317619, 59.8755, 28.6429, 6.17248, 1.34967, 3.10245, 0.0293689, 0.00072524, -0.00143203, 0.00159024, 0.00114356, 0.00149257, -0.000102068, 0.00680792, -0.00824381, -0.0139788, -0.0214765, 0.0151932, -0.000569981, 0.470995, -0.543344, 0.335917, -2.08381, -2.16587, -0.129852, 0.469482, -0.542442, 0.334503, -2.08234, -2.16469, -0.130106, -0.00162701, 0.00589181, 0.00303974, 0.00634485, 0.00165965, -0.0120683
0.0371895, 1.69178, -1.22744, -1.53907, -0.900085, -1.19156, 1.22864, -1.30271, 0.0153718, -0.00572297, -0.024631, -0.00251493, -0.00619077, 0.0192779, -3.12482e-05, -0.206535, 59.8041, 28.6429, 6.09711, 1.34967, 3.11618, 0.0357776, 0.000718109, -0.00141949, 0.00159895, 0.00113591, 0.00147786, -0.000103258, 0.00810365, -0.00935703, -0.0137446, -0.0145815, 0.0156039, -0.00187007, 0.470994, -0.543338, 0.33592, -2.08381, -2.16587, -0.129848, 0.469493, -0.542441, 0.334496, -2.08234, -2.1647, -0.130095, -0.00173785, 0.0062986, 0.00324909, 0.00740059, 0.000796787, -0.0118624
0.0381895, 1.6918, -1.22745, -1.5391, -0.90009, -1.19156, 1.22867, -1.30271, 0.0109098, -0.00475875, -0.0257054, -0.00387228, -0.0105445, 0.0218769, 0.000691245, -0.0161054, 59.8041, 28.6826, 6.17248, 1.3689, 3.17386, 0.0165515, 0.000711419, -0.00140745, 0.00161065, 0.00113998, 0.00146103, -0.000105214, 0.0114022, -0.00703953, -0.0134308, -0.0153482, 0.021762, -0.00816355, 0.470992, -0.543332, 0.335923, -2.0838, -2.16587, -0.129843, 0.469503, -0.54244, 0.334486, -2.08234, -2.16472, -0.130069, -0.00185274, 0.00672061, 0.00346625, 0.00510057, -0.00218081, -0.0117774
0.0391895, 1.69181, -1.22746, -1.53913, -0.900085, -1.19157, 1.2287, -1.30271, 0.0122021, -0.00814897, -0.0280182, -0.0011426, -0.00782906, 0.0237298, -0.000997232, 0.245735, 59.9866, 28.7937, 6.09711, 1.3689, 3.23153, 0.0559192, 0.000697789, -0.00139938, 0.00162887, 0.00113811, 0.00145835, -9.95373e-05, 0.0125633, -0.00756146, -0.0159202, -0.0138753, 0.0173324, -0.0081081, 0.470991, -0.543326, 0.335927, -2.0838, -2.16588, -0.129838, 0.469509, -0.542444, 0.334469, -2.08235, -2.16472, -0.130063, -0.0019717, 0.00715794, 0.00369125, 0.0054545, -0.0024853, -0.0142063
0.0401895, 1.69183, -1.22747, -1.53915, -0.900088, -1.19157, 1.22873, -1.30271, 0.0103524, -0.010325, -0.0247105, -0.00193299, -0.0119382, 0.0245904, -0.00164817, 0.511544, 60.173, 28.8294, 6.13678, 1.3927, 3.31027, 0.0824695, 0.000688537, -0.00138587, 0.00164439, 0.00113435, 0.00144792, -0.00010218, 0.0140568, -0.00712802, -0.0161185, -0.0126205, 0.019069, -0.00872468, 0.470989, -0.543319, 0.33593, -2.08379, -2.16588, -0.129833, 0.46952, -0.542443, 0.334455, -2.08235, -2.16473, -0.130052, -0.00209472, 0.00761066, 0.00392413, 0.00494488, -0.00349424, -0.014388
0.0411895, 1.69184, -1.22748, -1.53918, -0.900088, -1.19157, 1.22877, -1.30271, 0.00898583, -0.00978701, -0.0280285, -0.00147109, -0.0146178, 0.0264586, 0.000867911, 0.777352, 60.2802, 28.9802, 6.13678, 1.40552, 3.36062, 0.0293689, 0.000675713, -0.00137548, 0.00166027, 0.00113361, 0.00143528, -9.23979e-05, 0.0166691, -0.00581918, -0.0168413, -0.0148789, 0.0231848, -0.015898, 0.470987, -0.543312, 0.335934, -2.08379, -2.16589, -0.129827, 0.469529, -0.542445, 0.334441, -2.08236, -2.16473, -0.130033, -0.00222183, 0.00807884, 0.00416491, 0.00357802, -0.00554739, -0.0152268
0.0421895, 1.69186, -1.22749, -1.53921, -0.900083, -1.19158, 1.22881, -1.30271, 0.0112364, -0.00942164, -0.0269016, 0.000645689, -0.010614, 0.0292055, -0.000642096, 1.03919, 60.3912, 28.9802, 6.0614, 1.39911, 3.37436, 0.0623279, 0.000662766, -0.00136231, 0.00167187, 0.00111579, 0.00142102, -9.21676e-05, 0.0160433, -0.00787314, -0.015977, -0.0091678, 0.0217764, -0.012559, 0.470984, -0.543304, 0.335938, -2.08378, -2.16589, -0.129821, 0.46954, -0.542448, 0.334431, -2.08237, -2.16475, -0.130032, -0.00235303, 0.00856251, 0.00441363, 0.00550696, -0.00449478, -0.0140895
0.0431895, 1.69186, -1.22749, -1.53921, -0.900083, -1.19158, 1.22881, -1.30271, 0.0112364, -0.00942164, -0.0269016, 0.000645689, -0.010614, 0.0292055, -0.000642096, 1.03919, 60.3912, 28.9802, 6.0614, 1.39911, 3.37436, 0.0623279, 0.000653732, -0.00136021, 0.00167477, 0.00111147, 0.00142308, -8.7406e-05, 0.0165808, -0.00799553, -0.0161488, -0.00938872, 0.0221244, -0.0129868, 0.470982, -0.543295, 0.335942, -2.08378, -2.16589, -0.129815, 0.46954, -0.542448, 0.334431, -2.08237, -2.16475, -0.130032, -0.00248832, 0.00906169, 0.00467028, 0.00550696, -0.00449478, -0.0140895
0.0441895, 1.69191, -1.2275, -1.53927, -0.900077, -1.19159, 1.22889, -1.30271, 0.0227056, -0.00911373, -0.0292195, 0.0015955, -0.0118269, 0.0355576, -0.00132523, 1.305, 60.6134, 29.2023, 5.98602, 1.41742, 3.42471, 0.0751453, 0.000641982, -0.00132352, 0.00170286, 0.00109608, 0.00138321, -0.000101935, 0.013677, -0.0149551, -0.0168827, -0.00799779, 0.0273452, -0.00377871, 0.47098, -0.543286, 0.335947, -2.08377, -2.1659, -0.129808, 0.469573, -0.542445, 0.334405, -2.08238, -2.1648, -0.130004, -0.00262768, 0.00957641, 0.00493487, 0.0121876, -0.000715203, -0.0143091
0.0451895, 1.69194, -1.22752, -1.5393, -0.900065, -1.1916, 1.22894, -1.30271, 0.0248928, -0.0113987, -0.0312515, 0.00453242, -0.00970477, 0.0347231, 0.00152401, 1.41608, 60.8356, 29.3531, 5.83527, 1.44214, 3.46774, 0.0101428, 0.000626999, -0.001306, 0.00172222, 0.00108412, 0.00137193, -8.95987e-05, 0.0142772, -0.0154258, -0.0189091, -0.00888392, 0.0232329, -0.00771949, 0.470977, -0.543277, 0.335952, -2.08376, -2.1659, -0.129801, 0.469588, -0.542446, 0.334388, -2.08239, -2.1648, -0.129997, -0.00277111, 0.0101066, 0.00520739, 0.0124625, -0.000446341, -0.0161449
0.0461895, 1.69197, -1.22752, -1.53932, -0.900054, -1.1916, 1.22898, -1.30271, 0.0244724, -0.00936399, -0.0260691, 0.006412, -0.0128991, 0.0341279, -0.00115413, 1.60651, 60.907, 29.3531, 5.68848, 1.45404, 3.51077, 0.0687366, 0.000614101, -0.00128759, 0.00173241, 0.00106267, 0.00135183, -9.14698e-05, 0.014911, -0.0153111, -0.0158327, -0.00546924, 0.0274487, -0.00618005, 0.470974, -0.543267, 0.335957, -2.08375, -2.16591, -0.129793, 0.469604, -0.542447, 0.334381, -2.08241, -2.16483, -0.129993, -0.00291859, 0.0106523, 0.00548782, 0.0123344, -0.00100438, -0.0129216
0.0471895, 1.692, -1.22753, -1.53935, -0.900044, -1.19161, 1.22903, -1.30271, 0.0235969, -0.00974717, -0.0320796, 0.00684065, -0.0104663, 0.0382197, 0.00116336, 1.68189, 61.0538, 29.4999, 5.57739, 1.47876, 3.56112, 0.0165515, 0.000600452, -0.00126684, 0.00174952, 0.00105254, 0.00133151, -8.70683e-05, 0.017261, -0.0148319, -0.0179181, -0.00597529, 0.0278168, -0.0122874, 0.470971, -0.543256, 0.335962, -2.08375, -2.16592, -0.129785, 0.469621, -0.542446, 0.334366, -2.08242, -2.16484, -0.129975, -0.0030701, 0.0112135, 0.00577613, 0.0117131, -0.00246196, -0.0150427
0.0481895, 1.69203, -1.22753, -1.53939, -0.900025, -1.19162, 1.22908, -1.30271, 0.0243786, -0.00571603, -0.0334196, 0.0098258, -0.0140862, 0.042076, 0.00101293, 1.83265, 61.0181, 29.6506, 5.35126, 1.50989, 3.58951, 0.0101428, 0.000581844, -0.00125054, 0.00175797, 0.00103252, 0.00129862, -7.28453e-05, 0.0194393, -0.0147334, -0.0155122, -0.00410233, 0.0369589, -0.0163982, 0.470968, -0.543245, 0.335968, -2.08374, -2.16592, -0.129777, 0.469635, -0.542452, 0.33436, -2.08245, -2.16486, -0.129954, -0.0032256, 0.01179, 0.00607228, 0.0116244, -0.00441016, -0.0127059
0.0491895, 1.69206, -1.22754, -1.53942, -0.900022, -1.19163, 1.22913, -1.30271, 0.0208647, -0.00811942, -0.0322861, 0.00569705, -0.0114818, 0.045851, -0.000545416, 2.02308, 61.2006, 29.722, 5.38696, 1.5401, 3.59683, 0.0431018, 0.000565658, -0.00122842, 0.00177705, 0.00101619, 0.00127487, -7.455e-05, 0.0202787, -0.0150547, -0.0167818, -0.000491277, 0.034888, -0.0137404, 0.470965, -0.543234, 0.335974, -2.08373, -2.16593, -0.129768, 0.469654, -0.542452, 0.334344, -2.08246, -2.16489, -0.12994, -0.00338507, 0.0123818, 0.00637623, 0.01177, -0.00443844, -0.0137956
0.0501895, 1.6921, -1.22755, -1.53945, -0.900016, -1.19164, 1.22918, -1.3027, 0.0272861, -0.00896931, -0.0316573, 0.00461955, -0.00997723, 0.047969, -9.23433e-05, 2.09846, 61.3513, 29.7974, 5.35126, 1.58313, 3.6188, 0.0357776, 0.000550435, -0.00120348, 0.00179559, 0.00100169, 0.00124727, -7.58873e-05, 0.0176309, -0.0197282, -0.017568, 0.000750056, 0.0345298, -0.00660688, 0.470962, -0.543221, 0.335981, -2.08372, -2.16594, -0.129759, 0.469675, -0.542451, 0.334329, -2.08247, -2.16492, -0.129919, -0.00354847, 0.0129888, 0.00668792, 0.0161506, -0.000904764, -0.0139906
0.0511895, 1.69213, -1.22755, -1.53949, -0.900008, -1.19166, 1.22924, -1.30271, 0.0306046, -0.00767239, -0.0351831, 0.00390465, -0.0133583, 0.0501668, -0.00104491, 2.20954, 61.4227, 29.9085, 5.31555, 1.60785, 3.6188, 0.0623279, 0.000532636, -0.00118126, 0.00181053, 0.000988594, 0.00121119, -7.81369e-05, 0.0181234, -0.0212772, -0.0183515, -0.00301911, 0.0405051, -0.0051299, 0.470958, -0.543208, 0.335987, -2.08371, -2.16594, -0.129749, 0.469694, -0.542452, 0.334318, -2.08249, -2.16495, -0.129887, -0.00371575, 0.0136108, 0.00700727, 0.0175196, -0.000584743, -0.0145682
0.0521895, 1.69215, -1.22756, -1.53951, -0.899999, -1.19167, 1.22929, -1.30271, 0.0276991, -0.00773019, -0.0312526, 0.00352341, -0.0157947, 0.0558871, 0.00028674, 2.43568, 61.5338, 29.8728, 5.27588, 1.62616, 3.62521, 0.0357776, 0.000510822, -0.0011627, 0.00182378, 0.000963497, 0.00117934, -6.62102e-05, 0.0202524, -0.0213524, -0.0166081, 0.00424021, 0.0454049, -0.00846271, 0.470955, -0.543195, 0.335994, -2.0837, -2.16595, -0.129738, 0.469709, -0.542457, 0.334308, -2.08252, -2.16498, -0.129871, -0.00388686, 0.0142477, 0.0073342, 0.0175631, -0.0023147, -0.0128524
0.0531895, 1.69218, -1.22757, -1.53955, -0.899995, -1.19169, 1.22935, -1.30271, 0.0263953, -0.010363, -0.0302572, 0.00141514, -0.0170872, 0.0511889, 0.000665878, 2.62611, 61.756, 29.9085, 5.31555, 1.63257, 3.63254, 0.0229602, 0.000490864, -0.00113994, 0.00184494, 0.000945699, 0.00115539, -6.34678e-05, 0.0207128, -0.0204673, -0.0186618, -0.000880617, 0.0420498, -0.00874178, 0.470951, -0.54318, 0.336002, -2.08369, -2.16596, -0.129728, 0.469728, -0.542459, 0.33429, -2.08253, -2.165, -0.129855, -0.00406174, 0.0148993, 0.00766863, 0.0164465, -0.00183782, -0.0145906
0.0541895, 1.69222, -1.22758, -1.53958, -0.899986, -1.19171, 1.22941, -1.3027, 0.0305026, -0.00858854, -0.0297683, 0.00584309, -0.0195363, 0.0572918, 0.00020656, 2.73719, 61.8274, 29.9482, 5.24017, 1.6756, 3.63254, 0.0293689, 0.000469701, -0.00111606, 0.00186009, 0.000924962, 0.00111596, -5.57053e-05, 0.0217714, -0.022839, -0.0167406, 0.00503105, 0.0490151, -0.00928618, 0.470947, -0.543166, 0.336009, -2.08368, -2.16597, -0.129716, 0.469748, -0.542461, 0.334279, -2.08256, -2.16503, -0.129826, -0.00424034, 0.0155655, 0.00801045, 0.0187441, -0.00241487, -0.0125878
0.0551895, 1.69225, -1.22758, -1.53961, -0.899983, -1.19173, 1.22947, -1.3027, 0.0312713, -0.00573279, -0.0291169, 0.0063527, -0.0194072, 0.0566101, 0.000137706, 2.81654, 61.8274, 29.9839, 5.27588, 1.66919, 3.64718, 0.0293689, 0.000451831, -0.00108918, 0.00187297, 0.00090462, 0.00107327, -5.77847e-05, 0.0218136, -0.0232738, -0.0150937, 0.0051333, 0.051828, -0.00917548, 0.470942, -0.54315, 0.336017, -2.08367, -2.16597, -0.129705, 0.469771, -0.54246, 0.334271, -2.08258, -2.16507, -0.129794, -0.00442257, 0.0162459, 0.00835954, 0.0190573, -0.00201146, -0.0106322
0.0561895, 1.69229, -1.22759, -1.53964, -0.899973, -1.19174, 1.22953, -1.30271, 0.0285647, -0.00726085, -0.0288186, 0.00644507, -0.0144085, 0.0550699, -0.00089154, 2.89191, 61.9742, 30.0236, 5.2005, 1.66919, 3.69021, 0.0559192, 0.000431332, -0.00106355, 0.00189021, 0.000883299, 0.00104191, -5.86477e-05, 0.0227219, -0.0222635, -0.0161031, 0.00641985, 0.0458217, -0.00964744, 0.470938, -0.543134, 0.336026, -2.08366, -2.16598, -0.129692, 0.469792, -0.542461, 0.334258, -2.0826, -2.16511, -0.129774, -0.00460838, 0.0169405, 0.00871578, 0.0178586, -0.00209968, -0.0113831
0.0571895, 1.69232, -1.2276, -1.53967, -0.89997, -1.19176, 1.22959, -1.3027, 0.0240094, -0.00920625, -0.0284665, 0.00370371, -0.015745, 0.0593808, 0.00157578, 3.07838, 62.1606, 30.0593, 5.24017, 1.66369, 3.7186, -0.00267457, 0.000406712, -0.0010402, 0.00191011, 0.000861603, 0.00100803, -4.96182e-05, 0.0255164, -0.0212258, -0.0171267, 0.008785, 0.0476794, -0.0150554, 0.470933, -0.543117, 0.336034, -2.08364, -2.16599, -0.129679, 0.469811, -0.542464, 0.334243, -2.08262, -2.16514, -0.12975, -0.00479766, 0.0176488, 0.00907903, 0.0166964, -0.00403513, -0.0124328
0.0581895, 1.69236, -1.2276, -1.5397, -0.899962, -1.19178, 1.22965, -1.30271, 0.0320638, -0.00697571, -0.0273915, 0.00675895, -0.0217519, 0.0571307, -0.00111962, 3.04267, 62.1964, 30.0593, 5.2005, 1.65088, 3.76163, 0.0559192, 0.000387755, -0.00101072, 0.00192357, 0.0008379, 0.000968134, -5.76333e-05, 0.0241431, -0.0242974, -0.0158792, 0.00504092, 0.0541223, -0.00922286, 0.470929, -0.543099, 0.336043, -2.08363, -2.166, -0.129666, 0.469835, -0.542462, 0.334235, -2.08263, -2.16519, -0.129723, -0.00499035, 0.0183707, 0.00944913, 0.0195672, -0.00202307, -0.0107109
0.0591895, 1.69239, -1.22761, -1.53974, -0.899953, -1.1918, 1.22971, -1.3027, 0.0303869, -0.00641596, -0.0292023, 0.00578885, -0.0216007, 0.0606133, 0.00142373, 3.19343, 62.2717, 30.1703, 5.16479, 1.65088, 3.79733, -0.00267457, 0.000359491, -0.000989609, 0.00193881, 0.000815806, 0.000924246, -3.6032e-05, 0.0260479, -0.0240746, -0.0161847, 0.00608135, 0.0569417, -0.0140242, 0.470924, -0.543081, 0.336053, -2.08362, -2.16601, -0.129652, 0.469852, -0.542468, 0.334224, -2.08268, -2.16521, -0.129687, -0.00518633, 0.0191057, 0.00982594, 0.0192062, -0.00313048, -0.0109245
0.0601895, 1.69243, -1.22761, -1.53977, -0.899944, -1.19183, 1.22977, -1.3027, 0.0336297, -0.00771266, -0.0298198, 0.00503019, -0.0221166, 0.0592169, 0.000474433, 3.15376, 62.4185, 30.2457, 5.12909, 1.66919, 3.81198, 0.0101428, 0.000336482, -0.000959792, 0.00195722, 0.000796447, 0.000881997, -3.71785e-05, 0.0253924, -0.0258441, -0.0178201, 0.00278897, 0.0561071, -0.0102863, 0.470918, -0.543062, 0.336063, -2.0836, -2.16602, -0.129638, 0.469877, -0.542468, 0.334211, -2.08269, -2.16525, -0.129651, -0.00538552, 0.0198537, 0.0102093, 0.0206915, -0.00141079, -0.012108
0.0611895, 1.69246, -1.22762, -1.53981, -0.899937, -1.19185, 1.22983, -1.3027, 0.0299992, -0.00857671, -0.0308126, 0.00677199, -0.0219978, 0.058741, 0.000316288, 3.22913, 62.5653, 30.3568, 5.12909, 1.6756, 3.81198, 0.0101428, 0.00030664, -0.00093784, 0.00197914, 0.00078017, 0.000845968, -2.39911e-05, 0.0285551, -0.0233673, -0.0185493, 0.00255145, 0.0552445, -0.0163024, 0.470913, -0.543042, 0.336073, -2.08359, -2.16603, -0.129623, 0.469894, -0.542473, 0.334195, -2.08272, -2.16527, -0.129616, -0.0055878, 0.0206142, 0.0105989, 0.018103, -0.00376211, -0.0128541
0.0621895, 1.69249, -1.22763, -1.53983, -0.899926, -1.19188, 1.22989, -1.3027, 0.0273619, -0.00748199, -0.0280293, 0.00589543, -0.0217038, 0.05781, 0.000956844, 3.30451, 62.6407, 30.3211, 5.08942, 1.6756, 3.82663, -0.00999879, 0.000277661, -0.000914474, 0.00199209, 0.00074916, 0.000803511, -1.01369e-05, 0.0294618, -0.0226017, -0.017247, 0.00406437, 0.0559844, -0.0180149, 0.470907, -0.543021, 0.336083, -2.08357, -2.16604, -0.129607, 0.469912, -0.542478, 0.334187, -2.08276, -2.16531, -0.129591, -0.00579309, 0.0213869, 0.0109948, 0.017213, -0.00411614, -0.0112899
0.0631895, 1.69252, -1.22763, -1.53986, -0.899918, -1.19191, 1.22995, -1.3027, 0.028551, -0.0049887, -0.0286594, 0.00656592, -0.0272974, 0.0572213, -0.000108089, 3.37989, 62.6407, 30.3925, 5.12909, 1.6875, 3.84036, 0.0101428, 0.000246804, -0.000892926, 0.00200634, 0.000730961, 0.000753925, 6.30822e-06, 0.0309204, -0.0224128, -0.0162944, 0.000397793, 0.0633242, -0.0192388, 0.470902, -0.543, 0.336094, -2.08356, -2.16606, -0.129591, 0.469928, -0.542484, 0.334179, -2.08279, -2.16533, -0.129543, -0.00600136, 0.0221719, 0.0113968, 0.0169033, -0.0049253, -0.0101678
0.0641895, 1.69256, -1.22763, -1.53989, -0.89991, -1.19194, 1.23001, -1.3027, 0.0304021, -0.00416155, -0.0283851, 0.00723212, -0.0307718, 0.0562018, 0.001386, 3.41956, 62.6764, 30.4322, 5.16479, 1.68201, 3.86233, -0.0292249, 0.000218182, -0.000868305, 0.00202116, 0.000713439, 0.000706868, 1.79618e-05, 0.0315999, -0.0229485, -0.0160774, -0.00211477, 0.0670254, -0.0212024, 0.470896, -0.542978, 0.336106, -2.08354, -2.16607, -0.129574, 0.469947, -0.542487, 0.33417, -2.08282, -2.16537, -0.129497, -0.00621258, 0.0229689, 0.0118049, 0.0172596, -0.00481028, -0.00966718
0.0651895, 1.69259, -1.22763, -1.53992, -0.8999, -1.19197, 1.23006, -1.3027, 0.0356878, -0.00277477, -0.0290158, 0.00864329, -0.0276237, 0.0559422, -0.0014835, 3.41956, 62.6764, 30.5036, 5.16479, 1.66369, 3.87607, 0.0357776, 0.000187653, -0.000845145, 0.00203559, 0.00069757, 0.000658796, 2.32934e-05, 0.0298914, -0.0259626, -0.0158666, -0.00180741, 0.0663408, -0.0143078, 0.470889, -0.542955, 0.336118, -2.08352, -2.16608, -0.129557, 0.469965, -0.542491, 0.334162, -2.08284, -2.16541, -0.129448, -0.0064267, 0.0237778, 0.012219, 0.020002, -0.00222263, -0.00887128
0.0661895, 1.69262, -1.22763, -1.53995, -0.899896, -1.19199, 1.23011, -1.3027, 0.0377109, -0.00185014, -0.0285474, 0.00791927, -0.026423, 0.0505969, -3.95616e-05, 3.49494, 62.6764, 30.5433, 5.24017, 1.6756, 3.89804, 0.0101428, 0.00015555, -0.0008237, 0.00204937, 0.00068021, 0.000610014, 4.34909e-05, 0.0286822, -0.0266781, -0.0161129, -0.00641774, 0.0642986, -0.0132007, 0.470883, -0.542931, 0.33613, -2.0835, -2.16609, -0.129539, 0.46998, -0.542496, 0.334155, -2.08288, -2.16543, -0.129397, -0.00664368, 0.0245986, 0.0126391, 0.0204472, -0.00014047, -0.00852865
0.0671895, 1.69265, -1.22763, -1.53998, -0.899889, -1.19202, 1.23016, -1.30269, 0.0340707, 0.00104394, -0.0264189, 0.00834686, -0.0290054, 0.0509353, 0.00095697, 3.53065, 62.7121, 30.5036, 5.27588, 1.63898, 3.93374, -0.0164075, 0.000124295, -0.000801044, 0.00206289, 0.000660548, 0.000566503, 5.95397e-05, 0.0311557, -0.0248314, -0.0136597, -0.00481168, 0.0697544, -0.0187566, 0.470876, -0.542906, 0.336143, -2.08349, -2.16611, -0.12952, 0.469997, -0.542499, 0.334149, -2.08291, -2.16546, -0.129355, -0.00686349, 0.0254311, 0.0130651, 0.0185617, -0.00220289, -0.00600806
0.0681895, 1.69268, -1.22763, -1.54002, -0.899884, -1.19205, 1.23021, -1.3027, 0.0393557, 0.00413066, -0.0320328, 0.0109502, -0.0280323, 0.0523446, -0.00105744, 3.49494, 62.7121, 30.6186, 5.35126, 1.66369, 3.94107, 0.0293689, 9.32917e-05, -0.000776, 0.00208037, 0.000653685, 0.00051778, 6.41207e-05, 0.0313208, -0.0267374, -0.0139168, -0.00773007, 0.0736177, -0.0169405, 0.470869, -0.542881, 0.336156, -2.08347, -2.16612, -0.129501, 0.470015, -0.542501, 0.334139, -2.08293, -2.1655, -0.129294, -0.00708609, 0.0262753, 0.013497, 0.0202394, -0.00140332, -0.0059136
0.0691895, 1.69272, -1.22763, -1.54004, -0.899865, -1.19209, 1.23026, -1.30269, 0.0407921, 0.000614364, -0.0282923, 0.0142396, -0.0266029, 0.052736, 0.00170254, 3.41956, 62.8232, 30.5433, 5.24017, 1.66919, 3.96213, -0.0356336, 5.88005e-05, -0.000753013, 0.00209445, 0.000631764, 0.000476491, 8.97297e-05, 0.0318882, -0.0279673, -0.0145333, -0.00277762, 0.0692449, -0.0195463, 0.470862, -0.542854, 0.336169, -2.08345, -2.16613, -0.129481, 0.470032, -0.542505, 0.334133, -2.08297, -2.16552, -0.129254, -0.00731145, 0.027131, 0.0139346, 0.0212406, -0.000962004, -0.0062101
0.0701895, 1.69275, -1.22763, -1.54007, -0.899855, -1.19212, 1.2303, -1.3027, 0.0415866, 0.000753861, -0.0292712, 0.0137398, -0.0255519, 0.0533245, -0.000560396, 3.34419, 62.8232, 30.6186, 5.24017, 1.6756, 3.97677, 0.0101428, 2.4297e-05, -0.000730733, 0.00211069, 0.000624009, 0.000429983, 0.000101211, 0.0323632, -0.0287807, -0.0151532, -0.00335188, 0.0695454, -0.0169111, 0.470855, -0.542827, 0.336183, -2.08343, -2.16615, -0.129461, 0.470048, -0.542509, 0.334125, -2.08299, -2.16555, -0.129193, -0.00753952, 0.0279981, 0.014378, 0.0218197, -0.000434565, -0.00647734
0.0711946, 1.69279, -1.22762, -1.5401, -0.899839, -1.19215, 1.23034, -1.30269, 0.0420528, 0.000760788, -0.0297219, 0.0151527, -0.0248205, 0.0491381, 0.00179654, 3.26881, 62.8232, 30.6901, 5.16479, 1.6875, 3.99142, -0.0484509, -1.11509e-05, -0.000708558, 0.00212538, 0.000614666, 0.000383359, 0.000127096, 0.033033, -0.028171, -0.0158041, -0.00682057, 0.067413, -0.0207549, 0.470847, -0.542799, 0.336197, -2.08341, -2.16616, -0.12944, 0.470063, -0.542513, 0.334119, -2.08302, -2.16557, -0.129133, -0.00777026, 0.0288765, 0.0148271, 0.0209809, -0.000142076, -0.00675649
0.0721946, 1.69283, -1.22763, -1.54013, -0.89983, -1.19219, 1.23038, -1.30269, 0.042412, -0.00106239, -0.0297005, 0.0135116, -0.0254412, 0.0465537, 1.08995e-05, 3.19343, 62.8986, 30.7297, 5.2005, 1.73053, 3.99142, -0.0164075, -4.69523e-05, -0.000685129, 0.00214571, 0.000611283, 0.00034117, 0.000138723, 0.0333626, -0.0284433, -0.0176452, -0.0107055, 0.0655936, -0.0180874, 0.47084, -0.54277, 0.336212, -2.08339, -2.16618, -0.129418, 0.470079, -0.542515, 0.334107, -2.08304, -2.1656, -0.129071, -0.00800365, 0.0297661, 0.0152818, 0.0209646, 0.000716869, -0.00817935
0.0731946, 1.69286, -1.22762, -1.54016, -0.899815, -1.19222, 1.23043, -1.30269, 0.0385345, -0.000563012, -0.0274416, 0.0139671, -0.0295384, 0.0454976, -0.000230093, 3.15376, 62.8986, 30.6901, 5.16479, 1.73053, 3.96213, -0.00999879, -8.37169e-05, -0.000662085, 0.00215885, 0.000593731, 0.000296175, 0.000159365, 0.0363747, -0.026112, -0.0166826, -0.0110817, 0.0692419, -0.0231194, 0.470832, -0.542741, 0.336228, -2.08336, -2.16619, -0.129396, 0.470095, -0.542519, 0.334103, -2.08307, -2.16562, -0.12902, -0.00823965, 0.0306668, 0.015742, 0.0185444, -0.00160007, -0.00716487
0.0741946, 1.6929, -1.22762, -1.54019, -0.899799, -1.19226, 1.23047, -1.30269, 0.0344873, 0.000661613, -0.0309176, 0.0183954, -0.0338215, 0.0396103, 0.000321323, 3.04267, 62.8589, 30.7297, 5.08942, 1.76166, 3.94107, -0.0228162, -0.000121351, -0.000638, 0.00217445, 0.000584933, 0.000247487, 0.000177569, 0.0413125, -0.0208707, -0.0171957, -0.0187915, 0.0714104, -0.0354292, 0.470823, -0.54271, 0.336243, -2.08334, -2.16621, -0.129373, 0.470111, -0.542522, 0.334097, -2.0831, -2.16565, -0.128956, -0.00847821, 0.0315785, 0.0162078, 0.0132316, -0.00570061, -0.00781197
0.0751946, 1.69294, -1.22762, -1.54022, -0.899783, -1.19229, 1.2305, -1.30269, 0.0339462, 0.000522775, -0.0278716, 0.017574, -0.0362313, 0.0399641, 0.000214215, 3.07838, 62.8589, 30.8051, 5.05371, 1.77356, 3.91269, -0.0228162, -0.000162432, -0.00061821, 0.00219271, 0.000579331, 0.00020701, 0.000202696, 0.0421948, -0.0212996, -0.0165651, -0.0176535, 0.0739136, -0.0352475, 0.470815, -0.542678, 0.33626, -2.08332, -2.16623, -0.129349, 0.470124, -0.542527, 0.334088, -2.08312, -2.16567, -0.128895, -0.0087193, 0.0325011, 0.016679, 0.0134742, -0.00572806, -0.00686793
0.0761946, 1.69298, -1.22763, -1.54025, -0.899769, -1.19233, 1.23053, -1.30268, 0.0348631, -0.00135345, -0.0270034, 0.0129704, -0.0327295, 0.0352794, 0.00160087, 2.92762, 62.9343, 30.8051, 5.05371, 1.78638, 3.89071, -0.0621838, -0.000198877, -0.000592311, 0.0022136, 0.000574149, 0.000173489, 0.000222464, 0.040238, -0.0227866, -0.0187771, -0.0222139, 0.0678721, -0.0308592, 0.470806, -0.542646, 0.336276, -2.08329, -2.16625, -0.129324, 0.470141, -0.542527, 0.334078, -2.08314, -2.16568, -0.12884, -0.00896288, 0.0334345, 0.0171556, 0.0145647, -0.002461, -0.00831748
0.0771946, 1.69302, -1.22763, -1.54027, -0.899757, -1.19237, 1.23056, -1.30269, 0.0358129, -0.00252678, -0.0271595, 0.0119526, -0.0305697, 0.0355195, -0.00137416, 2.89191, 63.0057, 30.8408, 5.08942, 1.81018, 3.89804, 0.00373412, -0.000238348, -0.000569559, 0.00223459, 0.000575664, 0.000136047, 0.000234398, 0.0402686, -0.024049, -0.0200138, -0.0222643, 0.0658301, -0.0261779, 0.470797, -0.542612, 0.336293, -2.08327, -2.16626, -0.129299, 0.470156, -0.542528, 0.334067, -2.08315, -2.16571, -0.128774, -0.00920893, 0.0343785, 0.0176375, 0.0155357, -0.00130449, -0.00909994
0.0781946, 1.69306, -1.22762, -1.5403, -0.899741, -1.19241, 1.23059, -1.30269, 0.0375641, 2.03856e-05, -0.0232823, 0.0160507, -0.0332677, 0.0351281, 0.000304598, 2.81654, 62.9343, 30.8408, 5.05371, 1.81018, 3.9191, -0.0292249, -0.000275513, -0.000545338, 0.00224882, 0.000576129, 9.21721e-05, 0.000254264, 0.0411828, -0.0246007, -0.017022, -0.0189868, 0.070488, -0.0295985, 0.470788, -0.542578, 0.336311, -2.08324, -2.16628, -0.129273, 0.470171, -0.542527, 0.334064, -2.08316, -2.16573, -0.128701, -0.00945739, 0.0353331, 0.0181247, 0.015981, -0.00168912, -0.00581712
0.0791946, 1.6931, -1.22762, -1.54033, -0.899726, -1.19244, 1.23061, -1.30269, 0.0430582, -0.00163099, -0.0243764, 0.0143364, -0.0359249, 0.0302026, -0.000509012, 2.70148, 63.0057, 30.8765, 5.08942, 1.823, 3.94107, -0.00999879, -0.000313358, -0.000519525, 0.00227116, 0.000582458, 5.94907e-05, 0.000265938, 0.0396642, -0.0269295, -0.0196684, -0.0276762, 0.0696379, -0.0240466, 0.470779, -0.542543, 0.336329, -2.08322, -2.1663, -0.129247, 0.470188, -0.542525, 0.334054, -2.08316, -2.16575, -0.128633, -0.00970824, 0.0362982, 0.0186171, 0.0179047, 0.0012789, -0.00777354
0.0801946, 1.69314, -1.22762, -1.54036, -0.899707, -1.19248, 1.23063, -1.30269, 0.0381634, -0.000232724, -0.0244706, 0.0169907, -0.0372126, 0.0266778, -0.000339341, 2.70148, 62.97, 30.8765, 5.08942, 1.81659, 3.96213, -0.00999879, -0.000355338, -0.000498253, 0.00228716, 0.000581616, 2.04159e-05, 0.000289548, 0.0434544, -0.0229839, -0.0188953, -0.0296976, 0.0706403, -0.0326891, 0.470769, -0.542506, 0.336348, -2.08319, -2.16632, -0.12922, 0.470201, -0.542526, 0.334049, -2.08318, -2.16577, -0.128565, -0.00996144, 0.0372736, 0.0191147, 0.0138772, -0.00176957, -0.00697972
0.0811946, 1.69319, -1.22762, -1.54038, -0.899693, -1.19252, 1.23065, -1.30269, 0.039389, -0.00190385, -0.0255209, 0.0149976, -0.0335634, 0.0249576, 0.000723208, 2.62611, 63.0453, 30.9162, 5.12909, 1.82941, 3.96213, -0.0356336, -0.000395031, -0.000472884, 0.00231025, 0.000591179, -1.17705e-05, 0.000307092, 0.042851, -0.0242881, -0.0210781, -0.0321017, 0.0660924, -0.0308758, 0.470759, -0.542469, 0.336367, -2.08316, -2.16634, -0.129192, 0.470217, -0.542524, 0.334039, -2.08319, -2.16578, -0.128492, -0.010217, 0.0382593, 0.0196175, 0.0148229, 0.000201705, -0.00857873
0.0821946, 1.69323, -1.22762, -1.54042, -0.89968, -1.19255, 1.23066, -1.30269, 0.0417354, -0.00209354, -0.0271623, 0.0127712, -0.0295914, 0.0225121, -0.000975923, 2.62611, 63.0811, 30.9876, 5.2005, 1.80469, 3.99142, 0.00373412, -0.000436332, -0.000449335, 0.00233365, 0.000603679, -4.25056e-05, 0.000320657, 0.0415362, -0.026048, -0.0227574, -0.0356653, 0.0624967, -0.0252004, 0.470749, -0.542431, 0.336386, -2.08313, -2.16636, -0.129163, 0.47023, -0.542522, 0.334028, -2.08318, -2.1658, -0.128417, -0.0104747, 0.0392552, 0.0201252, 0.016214, 0.00282703, -0.00957922
0.0831946, 1.69328, -1.22761, -1.54044, -0.899659, -1.1926, 1.23068, -1.30268, 0.0410994, 0.00251039, -0.0248052, 0.0137101, -0.0336463, 0.0217332, 0.000807447, 2.58643, 63.0453, 30.9162, 5.16479, 1.82941, 3.99142, -0.0356336, -0.000476938, -0.000424078, 0.00234899, 0.000605209, -7.9647e-05, 0.000345517, 0.0429809, -0.0254463, -0.0194589, -0.035659, 0.0704569, -0.0295751, 0.470738, -0.542392, 0.336407, -2.0831, -2.16638, -0.129134, 0.470246, -0.542519, 0.334026, -2.0832, -2.16582, -0.128345, -0.0107348, 0.0402611, 0.020638, 0.0155268, 0.00187529, -0.00601501
0.0841946, 1.69332, -1.22761, -1.54047, -0.899644, -1.19263, 1.23069, -1.30269, 0.037753, 0.000264517, -0.0283142, 0.0126729, -0.036269, 0.0161566, -0.00163184, 2.55073, 63.1168, 31.063, 5.2005, 1.84131, 3.99783, 0.0229602, -0.000520314, -0.00040084, 0.0023759, 0.000624167, -0.000105605, 0.00035657, 0.0461307, -0.0221411, -0.0228281, -0.0453882, 0.0685243, -0.0328974, 0.470727, -0.542351, 0.336427, -2.08308, -2.1664, -0.129103, 0.470259, -0.542517, 0.334013, -2.08318, -2.16583, -0.128267, -0.010997, 0.0412769, 0.0211557, 0.0119553, 0.000162161, -0.00921135
0.0851946, 1.69338, -1.22761, -1.5405, -0.899626, -1.19267, 1.23069, -1.30269, 0.0392029, 0.000372363, -0.0290448, 0.0158885, -0.0324093, 0.0124373, 0.00108224, 2.47535, 63.1168, 31.1384, 5.2005, 1.84131, 3.99142, -0.0356336, -0.000561976, -0.000374424, 0.00239905, 0.000639569, -0.000135702, 0.000377948, 0.046535, -0.0220964, -0.0233287, -0.0465789, 0.0641494, -0.0369176, 0.470716, -0.54231, 0.336448, -2.08304, -2.16642, -0.129072, 0.470275, -0.542512, 0.334004, -2.08318, -2.16585, -0.128186, -0.0112614, 0.0423026, 0.0216783, 0.0116433, 0.000864067, -0.00924434
0.0861946, 1.69342, -1.22761, -1.54053, -0.899612, -1.19271, 1.2307, -1.30269, 0.0436948, -0.000532763, -0.028053, 0.0140943, -0.0349964, 0.00885451, -0.001686, 2.51106, 63.1564, 31.1384, 5.24017, 1.84772, 4.00516, 0.0293689, -0.000605363, -0.000350704, 0.00242207, 0.000656759, -0.000164065, 0.000391356, 0.0451361, -0.0245023, -0.0246595, -0.0520876, 0.0645337, -0.0293742, 0.470705, -0.542268, 0.33647, -2.08301, -2.16645, -0.129041, 0.470288, -0.542508, 0.333995, -2.08317, -2.16586, -0.128105, -0.011528, 0.0433381, 0.0222057, 0.0136803, 0.00358554, -0.00988787
0.0871946, 1.69347, -1.22761, -1.54055, -0.899601, -1.19275, 1.2307, -1.30268, 0.0461834, -0.00108013, -0.0310535, 0.0120295, -0.0379515, 0.00589293, 0.00104614, 2.47535, 63.1921, 31.1741, 5.31555, 1.87793, 4.02713, -0.0292249, -0.000646526, -0.000324047, 0.00244677, 0.000680322, -0.000191582, 0.00040962, 0.0454917, -0.0252072, -0.0270769, -0.0605106, 0.066116, -0.031125, 0.470694, -0.542224, 0.336492, -2.08298, -2.16647, -0.129008, 0.470304, -0.5425, 0.333986, -2.08316, -2.16587, -0.128017, -0.0117966, 0.0443832, 0.0227379, 0.0140404, 0.0046806, -0.0118195
0.0881946, 1.69353, -1.22761, -1.54058, -0.899585, -1.19279, 1.2307, -1.30269, 0.0486332, 0.000751233, -0.0311687, 0.00925308, -0.0390795, 0.00402279, -0.000523278, 2.39997, 63.2635, 31.2494, 5.31555, 1.88434, 4.04086, 0.00373412, -0.000687444, -0.000294698, 0.00247331, 0.000704332, -0.000215608, 0.000415962, 0.0445938, -0.026922, -0.0270754, -0.0647423, 0.0689861, -0.0260451, 0.470682, -0.54218, 0.336515, -2.08295, -2.16649, -0.128975, 0.470322, -0.542491, 0.333975, -2.08313, -2.16589, -0.127932, -0.0120673, 0.0454378, 0.0232748, 0.01545, 0.00669334, -0.0111945
0.0891946, 1.69358, -1.22761, -1.54062, -0.899576, -1.19283, 1.2307, -1.30268, 0.0502507, 0.00137114, -0.0311478, 0.00859008, -0.0402649, 0.00364258, 0.000159774, 2.43568, 63.3746, 31.3248, 5.38696, 1.89624, 4.02713, -0.00999879, -0.000731018, -0.000266591, 0.00250332, 0.000728986, -0.000237415, 0.000428021, 0.0449547, -0.0280112, -0.0272736, -0.0665614, 0.0712226, -0.0258296, 0.47067, -0.542135, 0.336538, -2.08291, -2.16652, -0.128941, 0.470338, -0.542483, 0.333961, -2.08311, -2.16591, -0.127847, -0.0123401, 0.0465019, 0.0238164, 0.0162713, 0.00747738, -0.010938
0.0901946, 1.69364, -1.2276, -1.54064, -0.899563, -1.19287, 1.23069, -1.30269, 0.0518539, 0.00401291, -0.0278969, 0.00668442, -0.0417548, 0.00249619, 0.00337148, 2.3603, 63.2635, 31.4002, 5.38696, 1.92096, 4.03445, 0.0293689, -0.000771798, -0.000237431, 0.00252457, 0.000757244, -0.000270502, 0.000432125, 0.0440835, -0.0297301, -0.0253783, -0.0667806, 0.075245, -0.0256638, 0.470657, -0.542088, 0.336562, -2.08288, -2.16654, -0.128906, 0.470356, -0.542472, 0.333957, -2.08308, -2.16594, -0.127747, -0.0126148, 0.0475753, 0.0243626, 0.0177516, 0.00919203, -0.00843826
0.0911946, 1.69369, -1.2276, -1.54066, -0.899555, -1.19292, 1.23068, -1.30268, 0.0540144, 0.00529173, -0.0258394, 0.00734616, -0.0425316, 0.00191843, 0.00481138, 2.3603, 63.3032, 31.3605, 5.42664, 1.94568, 4.03445, -0.0292249, -0.000812043, -0.000205708, 0.0025487, 0.000778761, -0.000295341, 0.000440281, 0.04403, -0.0311883, -0.0243344, -0.0662045, 0.0774858, -0.0257427, 0.470645, -0.542041, 0.336586, -2.08285, -2.16657, -0.128871, 0.470375, -0.542459, 0.33395, -2.08305, -2.16596, -0.127662, -0.0128915, 0.048658, 0.0249134, 0.0189681, 0.0102286, -0.00689334
0.0921946, 1.69374, -1.2276, -1.54069, -0.899547, -1.19296, 1.23068, -1.30268, 0.0488391, 0.00240294, -0.0281932, 0.00802595, -0.0424967, 0.000418521, 0.0027907, 2.39997, 63.3746, 31.4716, 5.46234, 1.95209, 4.06283, -0.00999879, -0.000859622, -0.000179927, 0.00257859, 0.000808302, -0.000318037, 0.000453126, 0.0483025, -0.027747, -0.0270052, -0.0691249, 0.0745186, -0.0313992, 0.470632, -0.541992, 0.336611, -2.08281, -2.16659, -0.128834, 0.470389, -0.542452, 0.333938, -2.08303, -2.16597, -0.127568, -0.0131701, 0.0497497, 0.0254687, 0.0153112, 0.0073693, -0.00953161
0.0931946, 1.69379, -1.2276, -1.54072, -0.899535, -1.193, 1.23067, -1.30269, 0.0479856, -0.00142255, -0.0290675, 0.0070475, -0.0441257, -0.000357834, 0.000861156, 2.43568, 63.5214, 31.547, 5.42664, 2.00061, 4.08389, 0.0229602, -0.000906619, -0.000150978, 0.0026087, 0.000836244, -0.000340063, 0.000461751, 0.0503549, -0.0273274, -0.0300977, -0.0724362, 0.0725258, -0.03126, 0.470619, -0.541942, 0.336637, -2.08277, -2.16662, -0.128797, 0.470405, -0.542443, 0.333925, -2.083, -2.16599, -0.127477, -0.0134506, 0.0508506, 0.0260284, 0.0145735, 0.00690171, -0.0123307
0.0941946, 1.69385, -1.2276, -1.54075, -0.899527, -1.19304, 1.23067, -1.30268, 0.0517515, -0.00156951, -0.0288027, 0.00857247, -0.0439861, -0.000402539, 0.00196085, 2.43568, 63.5611, 31.5867, 5.42664, 2.01343, 4.09122, -0.00999879, -0.000951674, -0.000119849, 0.00263574, 0.000862024, -0.000365416, 0.000472106, 0.050253, -0.0294093, -0.0304547, -0.0725073, 0.0729697, -0.0307191, 0.470605, -0.541891, 0.336663, -2.08274, -2.16665, -0.128759, 0.470423, -0.542431, 0.333917, -2.08297, -2.16601, -0.127383, -0.013733, 0.0519604, 0.0265925, 0.0163539, 0.00825441, -0.0121674
0.0951946, 1.69391, -1.22759, -1.54077, -0.899528, -1.19309, 1.23066, -1.30269, 0.0523396, 0.00247949, -0.0285803, 0.00470541, -0.0444955, -0.000459163, -0.00100964, 2.39997, 63.5611, 31.6224, 5.50201, 2.04364, 4.09854, 0.0559192, -0.000994061, -8.47492e-05, 0.00266237, 0.000892493, -0.000397697, 0.000461825, 0.0497171, -0.0307543, -0.0289433, -0.0746401, 0.0784937, -0.024841, 0.470592, -0.541839, 0.33669, -2.0827, -2.16667, -0.128721, 0.470445, -0.542416, 0.333909, -2.08292, -2.16606, -0.127279, -0.0140172, 0.053079, 0.027161, 0.0174496, 0.00972693, -0.0100651
0.0961946, 1.69396, -1.22759, -1.5408, -0.899527, -1.19313, 1.23066, -1.30269, 0.0508469, 0.00360528, -0.0286003, 0.00286698, -0.043904, -0.00553905, 0.000166292, 2.43568, 63.6325, 31.6581, 5.53772, 2.05005, 4.11319, 0.0357776, -0.00104109, -5.33203e-05, 0.00269178, 0.000920641, -0.000422348, 0.000468955, 0.0503004, -0.0296955, -0.0292924, -0.0798039, 0.0775012, -0.0266464, 0.470578, -0.541786, 0.336717, -2.08266, -2.1667, -0.128681, 0.470463, -0.542403, 0.333899, -2.08289, -2.16608, -0.127183, -0.0143032, 0.0542063, 0.0277337, 0.0161153, 0.0102883, -0.00989493
0.0971946, 1.69402, -1.22759, -1.54083, -0.899521, -1.19318, 1.23065, -1.30268, 0.0547457, 0.00216836, -0.0300834, 0.00317047, -0.0443946, -0.00404334, 0.00160506, 2.39997, 63.6682, 31.7731, 5.50201, 2.08118, 4.11319, -0.00267457, -0.00109019, -2.12336e-05, 0.00272016, 0.000950876, -0.00045475, 0.000482076, 0.0505735, -0.0320556, -0.0310773, -0.0810767, 0.0781812, -0.0262872, 0.470563, -0.541732, 0.336744, -2.08262, -2.16673, -0.128641, 0.470482, -0.542392, 0.33389, -2.08286, -2.1661, -0.127075, -0.0145909, 0.0553423, 0.0283107, 0.0181293, 0.0115282, -0.0111956
0.0981946, 1.69407, -1.22758, -1.54085, -0.899519, -1.19322, 1.23065, -1.30269, 0.0560338, 0.000967605, -0.0284407, 0.00335962, -0.0494497, -0.00757726, 0.000173145, 2.43568, 63.7079, 31.7731, 5.46234, 2.09308, 4.11319, 0.0229602, -0.00113938, 1.17116e-05, 0.00274506, 0.000969032, -0.000486838, 0.000484665, 0.0516902, -0.0320901, -0.0319383, -0.0857484, 0.0800739, -0.0255693, 0.470549, -0.541677, 0.336773, -2.08258, -2.16676, -0.128599, 0.470501, -0.54238, 0.333885, -2.08283, -2.16614, -0.12698, -0.0148804, 0.0564869, 0.0288918, 0.0178842, 0.0117045, -0.0116388
0.0991951, 1.69413, -1.22758, -1.54087, -0.899525, -1.19327, 1.23064, -1.30269, 0.0563197, 0.00237002, -0.0231847, 0.000714977, -0.0476371, -0.0111105, 0.000392192, 2.3603, 63.7793, 31.7335, 5.53772, 2.09949, 4.13424, 0.0165515, -0.00118598, 4.81225e-05, 0.00277439, 0.000993215, -0.000512893, 0.000480638, 0.0500676, -0.0335607, -0.030331, -0.0850246, 0.0789146, -0.0210402, 0.470534, -0.54162, 0.336802, -2.08254, -2.16679, -0.128557, 0.470523, -0.542363, 0.333877, -2.08278, -2.16618, -0.126885, -0.0151716, 0.0576399, 0.0294771, 0.019062, 0.0142753, -0.00926077
0.100195, 1.69418, -1.22757, -1.54089, -0.899527, -1.19332, 1.23064, -1.30269, 0.0556373, 0.00208799, -0.0245455, 0.000655501, -0.0526371, -0.0127442, -0.00092969, 2.32459, 63.7793, 31.7731, 5.53772, 2.1297, 4.12692, 0.0495105, -0.00123596, 8.15231e-05, 0.00279963, 0.00101965, -0.000548635, 0.00048083, 0.0527303, -0.0323541, -0.0314863, -0.0903872, 0.0827859, -0.0236119, 0.470519, -0.541563, 0.336831, -2.08249, -2.16682, -0.128514, 0.470542, -0.54235, 0.333873, -2.08275, -2.16622, -0.126777, -0.0154644, 0.0588012, 0.0300665, 0.0176201, 0.0129351, -0.0101873
0.101195, 1.69424, -1.22757, -1.54091, -0.899533, -1.19336, 1.23063, -1.30269, 0.0535942, 0.00330151, -0.0240333, -0.000356882, -0.0498005, -0.00846438, 0.00109779, 2.20954, 63.8547, 31.8842, 5.57739, 2.1297, 4.09854, 0.00373412, -0.00128535, 0.000118327, 0.0028306, 0.00104752, -0.000576738, 0.000483669, 0.0542602, -0.0328656, -0.0306435, -0.0854331, 0.0845746, -0.0265613, 0.470503, -0.541504, 0.336861, -2.08245, -2.16685, -0.128471, 0.470564, -0.542333, 0.333863, -2.08271, -2.16625, -0.126673, -0.0157588, 0.0599708, 0.0306599, 0.0179248, 0.0124872, -0.00901445
0.102195, 1.69428, -1.22757, -1.54093, -0.899534, -1.19341, 1.23062, -1.30269, 0.0521756, 0.00331443, -0.0215689, -0.000137319, -0.048563, -0.00640746, -0.000946936, 2.20954, 63.9658, 31.9199, 5.57739, 2.14801, 4.09854, 0.0495105, -0.00134211, 0.00014871, 0.00286119, 0.00106896, -0.000602256, 0.000490494, 0.0556781, -0.0332336, -0.0298743, -0.0810676, 0.0851641, -0.0254826, 0.470487, -0.541444, 0.336892, -2.08241, -2.16688, -0.128426, 0.470579, -0.542324, 0.333854, -2.08267, -2.16628, -0.126578, -0.0160548, 0.0611486, 0.0312573, 0.0180778, 0.0121633, -0.00788858
0.103195, 1.69434, -1.22756, -1.54094, -0.899544, -1.19346, 1.23062, -1.30269, 0.0519913, 0.0051615, -0.0191881, -0.00581597, -0.0469225, -0.00954943, 0.0010766, 2.05878, 64.0015, 31.9199, 5.68848, 2.14801, 4.09854, 0.00373412, -0.00139227, 0.000185742, 0.00288707, 0.00109336, -0.000637544, 0.000490984, 0.0540302, -0.0346605, -0.0293973, -0.0839357, 0.0852421, -0.0220332, 0.470471, -0.541383, 0.336923, -2.08236, -2.16691, -0.128381, 0.470601, -0.542306, 0.333851, -2.08263, -2.16632, -0.12647, -0.0163524, 0.0623344, 0.0318586, 0.019163, 0.0149638, -0.00660555
0.104195, 1.69438, -1.22756, -1.54096, -0.899553, -1.19352, 1.23061, -1.30269, 0.0518576, 0.00478622, -0.0191446, -0.00668597, -0.0519147, -0.00664584, -0.00073098, 2.02308, 64.1125, 31.9953, 5.79956, 2.17273, 4.08389, 0.0431018, -0.00144909, 0.000218073, 0.00291786, 0.00111936, -0.000667517, 0.000493433, 0.0564307, -0.0350286, -0.0298622, -0.08461, 0.0912734, -0.0222103, 0.470455, -0.54132, 0.336955, -2.08231, -2.16694, -0.128334, 0.470618, -0.542294, 0.333843, -2.08259, -2.16636, -0.126364, -0.0166515, 0.0635282, 0.0324637, 0.0193038, 0.0138753, -0.00684262
0.105195, 1.69443, -1.22755, -1.54098, -0.899562, -1.19356, 1.2306, -1.30269, 0.050628, 0.00486849, -0.0205541, -0.0063782, -0.0540478, -0.00947184, 0.000977755, 1.90803, 64.0768, 31.9953, 5.87494, 2.15442, 4.07748, 0.00373412, -0.00150394, 0.000253403, 0.00294259, 0.00113734, -0.000703963, 0.000499211, 0.0587738, -0.0335287, -0.0308593, -0.089436, 0.092549, -0.027779, 0.470438, -0.541257, 0.336987, -2.08227, -2.16698, -0.128287, 0.470638, -0.542279, 0.333841, -2.08256, -2.1664, -0.12626, -0.0169521, 0.0647298, 0.0330727, 0.0175559, 0.0128541, -0.00753453
0.106195, 1.69447, -1.22754, -1.54099, -0.899582, -1.19362, 1.23059, -1.30269, 0.045439, 0.0078583, -0.0193021, -0.0136683, -0.0564495, -0.0115902, -0.00103832, 1.83265, 64.184, 32.031, 6.13678, 2.15442, 4.07016, 0.0495105, -0.00156054, 0.000286516, 0.00297316, 0.00116531, -0.000734155, 0.000494475, 0.0599329, -0.032021, -0.0299894, -0.094189, 0.0976522, -0.0257474, 0.470421, -0.541192, 0.337021, -2.08222, -2.16701, -0.128239, 0.470655, -0.542265, 0.333834, -2.08251, -2.16644, -0.12615, -0.0172541, 0.0659392, 0.0336855, 0.0158245, 0.0127229, -0.00619548
0.107195, 1.69452, -1.22754, -1.541, -0.899587, -1.19367, 1.23058, -1.30269, 0.0472685, 0.00681037, -0.018358, -0.00946526, -0.0581993, -0.0090276, -0.00116299, 1.64619, 64.295, 32.0707, 6.13678, 2.15442, 4.07748, 0.0623279, -0.00162114, 0.000319115, 0.00300215, 0.00118578, -0.000764129, 0.000502673, 0.0621902, -0.0328347, -0.0299677, -0.0908224, 0.099765, -0.0286058, 0.470404, -0.541126, 0.337054, -2.08217, -2.16705, -0.12819, 0.470671, -0.542253, 0.333829, -2.08247, -2.16648, -0.126047, -0.0175576, 0.0671563, 0.0343019, 0.0164191, 0.0117433, -0.00593216
0.108195, 1.69457, -1.22753, -1.541, -0.899598, -1.19373, 1.23057, -1.30269, 0.0455911, 0.00781146, -0.0126367, -0.0113292, -0.0584164, -0.010648, 0.00116041, 1.45576, 64.3347, 32.031, 6.20819, 2.12421, 4.05551, 0.0101428, -0.00167949, 0.000354225, 0.00302726, 0.00120086, -0.000796982, 0.000510562, 0.0622911, -0.0332501, -0.0280754, -0.088356, 0.100701, -0.0293026, 0.470387, -0.541059, 0.337088, -2.08212, -2.16708, -0.12814, 0.47069, -0.542238, 0.333828, -2.08244, -2.16652, -0.125947, -0.0178624, 0.068381, 0.034922, 0.0166046, 0.0125967, -0.00347214
0.109195, 1.6946, -1.22753, -1.541, -0.899612, -1.19378, 1.23056, -1.30269, 0.0429135, 0.0109256, -0.00858372, -0.0106997, -0.0595645, -0.0112972, -0.00115695, 1.305, 64.4061, 31.9953, 6.32324, 2.1178, 4.01248, 0.0623279, -0.00174236, 0.000386301, 0.00305167, 0.0012096, -0.000831519, 0.000512749, 0.0640206, -0.0322862, -0.0250502, -0.0854281, 0.104848, -0.0296864, 0.470369, -0.54099, 0.337123, -2.08207, -2.16712, -0.128089, 0.470705, -0.542226, 0.333828, -2.0824, -2.16657, -0.125851, -0.0181686, 0.0696132, 0.0355458, 0.0155142, 0.0116175, -9.86864e-05
0.110195, 1.69464, -1.22752, -1.54102, -0.899631, -1.19384, 1.23056, -1.30269, 0.0399783, 0.0068245, -0.0121465, -0.0141212, -0.0550232, -0.012495, 0.00116314, 1.18995, 64.4815, 32.1064, 6.47003, 2.11139, 3.99142, 0.0101428, -0.00180754, 0.000418054, 0.00308376, 0.00123294, -0.000864071, 0.000527866, 0.0657414, -0.0314163, -0.0295729, -0.0894831, 0.0977272, -0.0330383, 0.470351, -0.540921, 0.337159, -2.08202, -2.16715, -0.128038, 0.47072, -0.542215, 0.333821, -2.08237, -2.1666, -0.125739, -0.0184762, 0.0708527, 0.036173, 0.0142345, 0.0118155, -0.00417654
0.111201, 1.69468, -1.22752, -1.54102, -0.899648, -1.19389, 1.23055, -1.30269, 0.0406967, 0.002094, -0.0071505, -0.014847, -0.0516493, -0.0128482, -0.0011561, 0.963814, 64.6283, 32.031, 6.54541, 2.10498, 3.95572, 0.0623279, -0.00187045, 0.000453004, 0.00311124, 0.0012402, -0.000890609, 0.000524357, 0.0652442, -0.0335408, -0.0311752, -0.085204, 0.0906729, -0.0267818, 0.470332, -0.54085, 0.337195, -2.08197, -2.16719, -0.127985, 0.470738, -0.5422, 0.333819, -2.08233, -2.16665, -0.125652, -0.018785, 0.0720996, 0.0368038, 0.0159703, 0.0138899, -0.0051174
0.112201, 1.69471, -1.22751, -1.54102, -0.899665, -1.19394, 1.23054, -1.30269, 0.0384965, 0.00434491, -0.00714227, -0.0154806, -0.0483846, -0.00800774, -5.77229e-05, 0.85273, 64.664, 32.1064, 6.62079, 2.07477, 3.90536, 0.0431018, -0.00193916, 0.000483076, 0.00313595, 0.00124809, -0.000927555, 0.000540362, 0.0670293, -0.0339344, -0.0298184, -0.0797374, 0.093467, -0.0294668, 0.470313, -0.540778, 0.337232, -2.08192, -2.16723, -0.127932, 0.470751, -0.542191, 0.33382, -2.08231, -2.16669, -0.125551, -0.0190951, 0.0733536, 0.0374381, 0.0161718, 0.0131913, -0.00343174
0.113201, 1.69475, -1.22751, -1.54101, -0.899686, -1.194, 1.23054, -1.30269, 0.0382423, 0.00427421, -0.0034573, -0.019856, -0.0471786, -0.00991608, 0.000470846, 0.551216, 64.7751, 32.031, 6.73187, 2.07477, 3.87607, 0.0293689, -0.00200322, 0.00052057, 0.00316202, 0.00125167, -0.000959599, 0.000540614, 0.0660025, -0.035484, -0.0297387, -0.0801512, 0.092446, -0.0252703, 0.470294, -0.540705, 0.337269, -2.08186, -2.16726, -0.127878, 0.47077, -0.542176, 0.333821, -2.08227, -2.16674, -0.12546, -0.0194064, 0.0746148, 0.0380757, 0.0173742, 0.0155209, -0.00260507
0.114201, 1.69478, -1.2275, -1.541, -0.89971, -1.19405, 1.23053, -1.30269, 0.0302129, 0.00677007, 0.00229082, -0.0232069, -0.0500261, -0.0110979, 0.000314424, 0.436165, 64.7751, 31.9556, 6.84296, 2.03815, 3.84036, 0.0293689, -0.00207084, 0.000553241, 0.00318403, 0.00124972, -0.000993257, 0.000546087, 0.0689544, -0.0324317, -0.0268086, -0.0781178, 0.0971931, -0.0293802, 0.470275, -0.54063, 0.337307, -2.08181, -2.1673, -0.127822, 0.470785, -0.542163, 0.333826, -2.08224, -2.1668, -0.125372, -0.0197189, 0.075883, 0.0387168, 0.0142352, 0.0132967, 0.000568282
0.115201, 1.69481, -1.22749, -1.541, -0.899735, -1.1941, 1.23053, -1.30269, 0.030126, 0.00867556, 0.00376002, -0.0227117, -0.0530152, -0.0117142, 0.000684729, 0.21003, 64.7751, 31.9953, 6.95801, 2.02533, 3.79733, 0.0165515, -0.00213949, 0.000587103, 0.00320818, 0.00125283, -0.00102832, 0.000553567, 0.0705556, -0.0323228, -0.0255745, -0.0788575, 0.101953, -0.0316365, 0.470255, -0.540554, 0.337346, -2.08175, -2.16734, -0.127766, 0.470801, -0.54215, 0.333829, -2.0822, -2.16685, -0.125276, -0.0200326, 0.0771581, 0.0393611, 0.0139206, 0.0127982, 0.00218719
0.116201, 1.69483, -1.22748, -1.541, -0.899755, -1.19415, 1.23052, -1.30269, 0.0303984, 0.0113392, 0.00277443, -0.0217566, -0.0504711, -0.00780248, -0.00171336, 0.0949785, 64.8505, 31.9953, 6.91833, 2.01984, 3.76163, 0.0751453, -0.00221477, 0.000616008, 0.00323434, 0.00125378, -0.00105958, 0.000565319, 0.0719572, -0.0333183, -0.0243255, -0.0750069, 0.105309, -0.0305203, 0.470235, -0.540477, 0.337386, -2.0817, -2.16738, -0.127709, 0.470811, -0.542142, 0.33383, -2.08218, -2.16689, -0.125185, -0.0203474, 0.07844, 0.0400087, 0.0147011, 0.0125486, 0.00382031
0.117201, 1.69486, -1.22747, -1.541, -0.899785, -1.1942, 1.23051, -1.30269, 0.0301824, 0.00796767, 0.00381367, -0.0249036, -0.0484076, -0.0048658, 0.000790764, -0.131157, 64.8862, 31.9199, 7.02942, 2.00702, 3.72592, 0.0229602, -0.00228399, 0.00065205, 0.00326056, 0.00125419, -0.00108944, 0.000571699, 0.072499, -0.0351959, -0.0265419, -0.0728371, 0.102781, -0.0302734, 0.470215, -0.540398, 0.337426, -2.08164, -2.16742, -0.127651, 0.470829, -0.542126, 0.333832, -2.08214, -2.16694, -0.125096, -0.0206634, 0.0797287, 0.0406595, 0.0161992, 0.0137232, 0.00213984
0.118201, 1.69488, -1.22746, -1.541, -0.899811, -1.19424, 1.23051, -1.30269, 0.0273177, 0.00846334, 0.000929821, -0.0245253, -0.0463017, -0.00344126, -0.000930719, -0.242241, 64.9219, 31.9953, 7.02942, 1.98871, 3.71127, 0.0623279, -0.00236028, 0.000680393, 0.00328655, 0.0012559, -0.00111743, 0.000583996, 0.0755622, -0.0337618, -0.0273827, -0.0729917, 0.103189, -0.0334524, 0.470194, -0.540319, 0.337466, -2.08158, -2.16746, -0.127592, 0.470838, -0.542116, 0.333835, -2.08211, -2.16698, -0.125006, -0.0209804, 0.081024, 0.0413134, 0.0145354, 0.0120628, 0.00153513
0.119201, 1.6949, -1.22745, -1.54099, -0.899847, -1.19428, 1.23051, -1.30269, 0.0279871, 0.00893641, 0.00333129, -0.0292633, -0.0450986, -0.000746797, 0.000837708, -0.468376, 64.9576, 31.8842, 7.1048, 1.97681, 3.65451, 0.0229602, -0.00243042, 0.000718677, 0.00331004, 0.00124446, -0.00114789, 0.00058484, 0.0747567, -0.036521, -0.0271442, -0.0708073, 0.105161, -0.0299163, 0.470173, -0.540238, 0.337508, -2.08152, -2.1675, -0.127533, 0.470857, -0.542099, 0.333841, -2.08207, -2.16705, -0.124928, -0.0212984, 0.0823259, 0.0419705, 0.0169535, 0.0142429, 0.0024654
0.120201, 1.69492, -1.22745, -1.54099, -0.899873, -1.19432, 1.23051, -1.30269, 0.0257621, 0.0034112, 0.00382952, -0.0283848, -0.0385097, 0.000408354, 0.000558565, -0.583427, 65.1083, 31.9556, 6.99371, 1.95758, 3.6188, 0.0229602, -0.00251154, 0.000748309, 0.00334189, 0.00123911, -0.00116776, 0.000604169, 0.0766397, -0.0365019, -0.0303231, -0.0665233, 0.0955281, -0.0311206, 0.470152, -0.540155, 0.33755, -2.08146, -2.16755, -0.127472, 0.470867, -0.542091, 0.333838, -2.08204, -2.16708, -0.124851, -0.0216174, 0.0836343, 0.0426306, 0.0165683, 0.0141793, -0.000303929
0.121201, 1.69494, -1.22743, -1.54098, -0.899908, -1.19436, 1.2305, -1.30269, 0.025899, 0.0101365, 0.00371797, -0.0314174, -0.0400026, 0.00155377, -0.000610897, -0.76989, 65.0687, 31.9199, 7.02942, 1.96399, 3.57577, 0.0495105, -0.00258696, 0.000783061, 0.00336254, 0.00122858, -0.00120536, 0.000607065, 0.0769044, -0.0374335, -0.0271709, -0.0677238, 0.105176, -0.0289006, 0.47013, -0.540072, 0.337592, -2.0814, -2.16759, -0.12741, 0.470882, -0.542077, 0.333847, -2.08201, -2.16715, -0.124762, -0.0219375, 0.084949, 0.0432937, 0.0173097, 0.0147914, 0.00340162
0.122201, 1.69496, -1.22742, -1.54097, -0.899944, -1.1944, 1.2305, -1.30269, 0.0225384, 0.009345, 0.00684646, -0.0349863, -0.0362875, 0.00215807, 0.000101414, -0.809562, 65.144, 31.8842, 6.99371, 1.98871, 3.53915, 0.0357776, -0.00266575, 0.000815544, 0.00338796, 0.00121391, -0.00122889, 0.000617911, 0.07751, -0.0377231, -0.0272394, -0.0644873, 0.102528, -0.0281165, 0.470108, -0.539987, 0.337635, -2.08134, -2.16763, -0.127348, 0.470895, -0.542065, 0.333852, -2.08198, -2.1672, -0.124691, -0.0222584, 0.08627, 0.0439598, 0.0173005, 0.0155388, 0.00389732
0.123201, 1.69497, -1.2274, -1.54097, -0.899984, -1.19443, 1.2305, -1.30269, 0.0196951, 0.014351, 0.00723777, -0.038807, -0.038176, 0.00204302, 6.76491e-05, -0.960319, 65.1083, 31.9199, 6.99371, 2.00061, 3.5181, 0.0357776, -0.00274251, 0.000851418, 0.0034104, 0.00120261, -0.00126266, 0.000621269, 0.0788811, -0.0370044, -0.0249911, -0.0665914, 0.110112, -0.0291522, 0.470086, -0.5399, 0.337679, -2.08127, -2.16768, -0.127284, 0.47091, -0.542049, 0.333861, -2.08194, -2.16726, -0.124605, -0.0225803, 0.0875972, 0.0446288, 0.0164001, 0.0151386, 0.00659741
0.124201, 1.69499, -1.22738, -1.54096, -0.900024, -1.19446, 1.2305, -1.30269, 0.0166786, 0.0194606, 0.00852194, -0.0398935, -0.033403, 0.00177286, -0.00141293, -1.07537, 65.144, 31.9199, 6.91833, 1.98871, 3.50345, 0.0751453, -0.00282016, 0.000886531, 0.00343289, 0.00118571, -0.00128753, 0.000623679, 0.0796183, -0.0364548, -0.0219958, -0.0636158, 0.111964, -0.028665, 0.470063, -0.539813, 0.337724, -2.08121, -2.16772, -0.127219, 0.470925, -0.542034, 0.333871, -2.0819, -2.16732, -0.124534, -0.0229031, 0.0889305, 0.0453006, 0.0156725, 0.0152634, 0.0101307
0.125201, 1.695, -1.22736, -1.54096, -0.900069, -1.19449, 1.2305, -1.30268, 0.0125973, 0.0232904, 0.00705212, -0.0426245, -0.0314647, 0.000811868, 0.00194028, -1.11108, 65.1797, 32.031, 6.91833, 2.01984, 3.51077, -0.00267457, -0.00290131, 0.000918716, 0.0034581, 0.00117421, -0.0013116, 0.000638636, 0.0815271, -0.0347684, -0.0209654, -0.0656945, 0.114817, -0.0348679, 0.47004, -0.539724, 0.337769, -2.08114, -2.16777, -0.127154, 0.470936, -0.54202, 0.333877, -2.08187, -2.16737, -0.124455, -0.0232267, 0.0902698, 0.0459753, 0.0137789, 0.0144891, 0.0115815
0.126201, 1.69501, -1.22734, -1.54095, -0.900116, -1.19451, 1.2305, -1.30269, 0.0098084, 0.0198679, 0.00776994, -0.0436685, -0.0290142, 0.000738436, -0.00135132, -1.15075, 65.2155, 32.0707, 6.88263, 2.02533, 3.50345, 0.0687366, -0.0029816, 0.000954106, 0.00348019, 0.00115072, -0.00133614, 0.000633392, 0.0835788, -0.0341739, -0.0231849, -0.0648726, 0.110216, -0.0332708, 0.470017, -0.539634, 0.337815, -2.08108, -2.16781, -0.127088, 0.470951, -0.542004, 0.333888, -2.08183, -2.16745, -0.124391, -0.0235512, 0.0916151, 0.0466527, 0.0128572, 0.014124, 0.00976948
0.127201, 1.69501, -1.22734, -1.54095, -0.900116, -1.19451, 1.2305, -1.30269, 0.0098084, 0.0198679, 0.00776994, -0.0436685, -0.0290142, 0.000738436, -0.00135132, -1.15075, 65.2155, 32.0707, 6.88263, 2.02533, 3.50345, 0.0687366, -0.00308013, 0.000975154, 0.00351137, 0.00110409, -0.0013157, 0.000683143, 0.0850313, -0.0344587, -0.0236376, -0.0653968, 0.111121, -0.0343574, 0.469994, -0.539542, 0.337862, -2.08101, -2.16786, -0.12702, 0.470951, -0.542004, 0.333888, -2.08183, -2.16745, -0.124391, -0.0238765, 0.0929661, 0.0473329, 0.0128572, 0.014124, 0.00976948
0.128201, 1.69501, -1.22734, -1.54095, -0.900116, -1.19451, 1.2305, -1.30269, 0.0098084, 0.0198679, 0.00776994, -0.0436685, -0.0290142, 0.000738436, -0.00135132, -1.15075, 65.2155, 32.0707, 6.88263, 2.02533, 3.50345, 0.0687366, -0.00318011, 0.000996482, 0.003543, 0.00105677, -0.00129498, 0.000733597, 0.0864899, -0.034744, -0.0240921, -0.0659221, 0.112028, -0.0354475, 0.46997, -0.539449, 0.337909, -2.08094, -2.16791, -0.126952, 0.470951, -0.542004, 0.333888, -2.08183, -2.16745, -0.124391, -0.0242025, 0.094323, 0.0480157, 0.0128572, 0.014124, 0.00976948
0.129201, 1.69501, -1.22734, -1.54095, -0.900116, -1.19451, 1.2305, -1.30269, 0.0098084, 0.0198679, 0.00776994, -0.0436685, -0.0290142, 0.000738436, -0.00135132, -1.15075, 65.2155, 32.0707, 6.88263, 2.02533, 3.50345, 0.0687366, -0.00328155, 0.00101809, 0.00357509, 0.00100877, -0.00127399, 0.000784756, 0.0879545, -0.0350296, -0.0245484, -0.0664485, 0.112939, -0.0365411, 0.469946, -0.539355, 0.337957, -2.08087, -2.16796, -0.126882, 0.470951, -0.542004, 0.333888, -2.08183, -2.16745, -0.124391, -0.0245292, 0.0956855, 0.0487012, 0.0128572, 0.014124, 0.00976948
0.130201, 1.69501, -1.22734, -1.54095, -0.900116, -1.19451, 1.2305, -1.30269, 0.0098084, 0.0198679, 0.00776994, -0.0436685, -0.0290142, 0.000738436, -0.00135132, -1.15075, 65.2155, 32.0707, 6.88263, 2.02533, 3.50345, 0.0687366, -0.00338445, 0.00103998, 0.00360764, 0.000960089, -0.00125272, 0.000836623, 0.0894251, -0.0353157, -0.0250063, -0.0669759, 0.113853, -0.0376382, 0.469921, -0.539259, 0.338006, -2.0808, -2.168, -0.126812, 0.470951, -0.542004, 0.333888, -2.08183, -2.16745, -0.124391, -0.0248567, 0.0970535, 0.0493892, 0.0128572, 0.014124, 0.00976948
0.131201, 1.69503, -1.22721, -1.54091, -0.900397, -1.19458, 1.23051, -1.30269, 0.00458077, 0.0263884, 0.0095873, -0.0542356, -0.014056, 0.00120232, 0.000522001, -1.33721, 65.6241, 32.3682, 6.80725, 2.12421, 3.45309, 0.0229602, -0.00339047, 0.00113408, 0.00359063, 0.00102853, -0.00144013, 0.000633946, 0.0861901, -0.0369953, -0.0221463, -0.0621989, 0.109873, -0.0307794, 0.469896, -0.539162, 0.338055, -2.08073, -2.16805, -0.126741, 0.471021, -0.541911, 0.33395, -2.0816, -2.16779, -0.124074, -0.0251848, 0.0984271, 0.0500798, 0.0141956, 0.0183288, 0.0137302
0.132201, 1.69503, -1.22718, -1.54091, -0.900461, -1.19459, 1.23051, -1.30269, 0.000916083, 0.0240191, 0.0088711, -0.0555622, -0.0107993, 0.000788363, 0.000822722, -1.37688, 65.7312, 32.5904, 6.77154, 2.13611, 3.45309, 0.0101428, -0.0034756, 0.00117062, 0.00361583, 0.00100522, -0.00145681, 0.000633639, 0.0885879, -0.0357304, -0.0242904, -0.0624667, 0.105602, -0.0338513, 0.469871, -0.539064, 0.338106, -2.08066, -2.1681, -0.126669, 0.471034, -0.541891, 0.333961, -2.08155, -2.16786, -0.124011, -0.0255136, 0.099806, 0.0507728, 0.0126167, 0.0176146, 0.0119765
0.133201, 1.69502, -1.22716, -1.54089, -0.900527, -1.19459, 1.23051, -1.30269, -0.000445246, 0.0213147, 0.0120935, -0.0597546, -0.0081778, -0.000298115, -0.0013843, -1.33721, 65.878, 32.515, 6.73187, 2.14252, 3.47507, 0.0623279, -0.00355944, 0.00120783, 0.00363767, 0.000966433, -0.00146247, 0.000623304, 0.0883854, -0.036907, -0.0258093, -0.0619097, 0.101257, -0.0279496, 0.469845, -0.538964, 0.338156, -2.08059, -2.16815, -0.126595, 0.471048, -0.541869, 0.333976, -2.08149, -2.16794, -0.123976, -0.025843, 0.10119, 0.0514683, 0.0133997, 0.0194838, 0.0111659
0.134201, 1.69502, -1.22712, -1.54088, -0.900604, -1.19459, 1.23051, -1.30268, -0.000392792, 0.0253726, 0.0122007, -0.0654848, -0.00600753, 6.51082e-05, 0.00124728, -1.33721, 65.7709, 32.6658, 6.80725, 2.14252, 3.46774, 0.00373412, -0.00364165, 0.00124669, 0.00365459, 0.000941724, -0.00149119, 0.000616065, 0.0873626, -0.0387576, -0.0246141, -0.0634012, 0.105123, -0.0259212, 0.46982, -0.538862, 0.338208, -2.08052, -2.16821, -0.126521, 0.471064, -0.541845, 0.333997, -2.08144, -2.16803, -0.123901, -0.026173, 0.10258, 0.0521662, 0.0149278, 0.0217829, 0.0131427
0.135201, 1.69501, -1.22709, -1.54087, -0.900672, -1.19459, 1.23051, -1.30269, -0.00209707, 0.0243923, 0.012602, -0.0661288, -0.00533729, 3.78435e-05, 0.000119442, -1.26183, 65.9534, 32.8126, 6.73187, 2.16724, 3.46774, 0.0229602, -0.00373175, 0.00128183, 0.00368176, 0.000914798, -0.00150118, 0.000614272, 0.0892992, -0.0383914, -0.0255201, -0.0634248, 0.104486, -0.02659, 0.469793, -0.53876, 0.33826, -2.08044, -2.16826, -0.126446, 0.471075, -0.541826, 0.334008, -2.08138, -2.1681, -0.123846, -0.0265036, 0.103974, 0.0528664, 0.0142744, 0.0213896, 0.0126614
0.136201, 1.69501, -1.22705, -1.54086, -0.900747, -1.19459, 1.23051, -1.30269, -0.00145202, 0.0314855, 0.0139661, -0.0709258, -0.00363339, -0.00025021, -0.000395089, -1.26183, 65.9534, 32.7768, 6.69617, 2.16083, 3.47507, 0.0357776, -0.00381415, 0.00132364, 0.00369842, 0.000876635, -0.001518, 0.000596014, 0.0877822, -0.0403574, -0.0220542, -0.0639972, 0.111297, -0.0212677, 0.469767, -0.538656, 0.338313, -2.08036, -2.16831, -0.12637, 0.471093, -0.541799, 0.33403, -2.08131, -2.16819, -0.123797, -0.0268347, 0.105374, 0.0535689, 0.0159852, 0.0238455, 0.0169574
0.137201, 1.695, -1.22703, -1.54085, -0.900825, -1.19459, 1.23051, -1.30269, -0.00277174, 0.0281697, 0.0136117, -0.0767295, 0.0078348, -0.000441203, 0.000448685, -1.18645, 66.1755, 32.9236, 6.62079, 2.16724, 3.48239, 0.0165515, -0.0039036, 0.00136164, 0.0037298, 0.000849302, -0.00151808, 0.000590057, 0.0862476, -0.0424612, -0.0253584, -0.0624908, 0.099924, -0.0157247, 0.46974, -0.538551, 0.338366, -2.08029, -2.16836, -0.126293, 0.471106, -0.541775, 0.334037, -2.08124, -2.16826, -0.123751, -0.0271662, 0.106779, 0.0542736, 0.0175717, 0.0273642, 0.0145682
0.138201, 1.695, -1.227, -1.54083, -0.900908, -1.19459, 1.23051, -1.3027, -0.00187819, 0.0303789, 0.0152081, -0.0789675, 0.005738, 0.000517321, -0.00237964, -1.18645, 66.2112, 32.999, 6.58508, 2.17273, 3.46042, 0.0888782, -0.00398969, 0.00140301, 0.00375062, 0.000818723, -0.00153685, 0.000566203, 0.0866775, -0.0439284, -0.024234, -0.0627919, 0.105373, -0.0111516, 0.469713, -0.538444, 0.338421, -2.08021, -2.16842, -0.126215, 0.471123, -0.541748, 0.334057, -2.08117, -2.16836, -0.12369, -0.0274983, 0.108188, 0.0549806, 0.0187681, 0.0282441, 0.0162718
0.139201, 1.69499, -1.22696, -1.54082, -0.900987, -1.19459, 1.23051, -1.30268, -0.0062111, 0.0318767, 0.0133074, -0.0807882, 0.00412667, 0.000343121, 0.00109234, -1.11108, 66.2469, 33.0744, 6.43433, 2.17914, 3.46042, 0.0165515, -0.00408063, 0.00144125, 0.00377255, 0.000787847, -0.00155481, 0.000570231, 0.0901374, -0.041612, -0.0245467, -0.0659673, 0.10918, -0.0199105, 0.469685, -0.538336, 0.338476, -2.08013, -2.16847, -0.126136, 0.471136, -0.541725, 0.334075, -2.08112, -2.16844, -0.123626, -0.0278308, 0.109602, 0.0556897, 0.0162477, 0.0261904, 0.0162134
0.140201, 1.69498, -1.22693, -1.5408, -0.901079, -1.19458, 1.23051, -1.30269, -0.00442222, 0.0311, 0.0176484, -0.0856761, 0.00291777, 0.000736053, -0.000492478, -1.11108, 66.358, 33.0387, 6.43433, 2.18555, 3.44668, 0.0495105, -0.00416639, 0.00148618, 0.00379449, 0.000749375, -0.00156827, 0.000539263, 0.0888654, -0.0447129, -0.0246697, -0.0655884, 0.110739, -0.0117087, 0.469658, -0.538226, 0.338531, -2.08005, -2.16853, -0.126055, 0.471156, -0.541695, 0.334094, -2.08103, -2.16855, -0.123579, -0.0281637, 0.111021, 0.0564009, 0.0189609, 0.0290227, 0.016899
0.141201, 1.69496, -1.22689, -1.54079, -0.901175, -1.19458, 1.23051, -1.30269, -0.0111681, 0.0338472, 0.0154233, -0.0887184, 0.00180739, 0.00103225, 0.000417667, -1.0357, 66.4691, 33.2212, 6.39465, 2.19745, 3.43204, 0.0293689, -0.00425977, 0.00152468, 0.00382161, 0.000724059, -0.00158555, 0.000529021, 0.0929455, -0.0413757, -0.0243711, -0.0685137, 0.115664, -0.0192369, 0.469629, -0.538115, 0.338588, -2.07997, -2.16858, -0.125974, 0.471169, -0.54167, 0.334108, -2.08096, -2.16863, -0.123509, -0.028497, 0.112445, 0.0571142, 0.0154687, 0.0262274, 0.0173862
0.142201, 1.69495, -1.22687, -1.54077, -0.901271, -1.19459, 1.23051, -1.30269, -0.0122004, 0.0350733, 0.0183147, -0.0901364, 0.000516657, 0.000687422, 4.1086e-05, -0.996025, 66.6159, 33.2212, 6.32324, 2.22217, 3.43204, 0.0357776, -0.00435062, 0.00156769, 0.00384673, 0.00068789, -0.0015982, 0.000506806, 0.0940212, -0.0416769, -0.0232742, -0.0678387, 0.118623, -0.0188387, 0.469601, -0.538002, 0.338645, -2.07989, -2.16864, -0.125892, 0.471186, -0.541642, 0.334125, -2.08088, -2.16874, -0.123457, -0.0288307, 0.113873, 0.0578295, 0.0155242, 0.0264415, 0.0190093
0.143201, 1.69493, -1.22683, -1.54075, -0.901376, -1.19459, 1.23051, -1.30269, -0.0159731, 0.0363208, 0.0185105, -0.0970053, -0.000400644, 0.000457725, -0.000481236, -0.960319, 66.6159, 33.2966, 6.35895, 2.24689, 3.43204, 0.0495105, -0.00444236, 0.00160883, 0.00387021, 0.000662227, -0.00161992, 0.00048766, 0.0951971, -0.0412468, -0.0237291, -0.0714106, 0.121917, -0.0173953, 0.469572, -0.537889, 0.338703, -2.07981, -2.1687, -0.125809, 0.471201, -0.541613, 0.334144, -2.08081, -2.16883, -0.123382, -0.0291647, 0.115306, 0.0585467, 0.0147931, 0.0267657, 0.0191102
0.144201, 1.69492, -1.22679, -1.54073, -0.901474, -1.19459, 1.23051, -1.30269, -0.0126748, 0.0322726, 0.0179825, -0.0983834, -0.00125824, 0.00111853, 0.00089988, -0.920646, 66.6913, 33.4076, 6.24786, 2.2771, 3.41006, 0.0165515, -0.00453904, 0.00164971, 0.00389411, 0.000625585, -0.0016418, 0.000475321, 0.0955898, -0.0437046, -0.0270779, -0.0737401, 0.120127, -0.0159051, 0.469543, -0.537773, 0.338761, -2.07972, -2.16875, -0.125725, 0.471215, -0.541587, 0.334163, -2.08074, -2.16893, -0.123318, -0.029499, 0.116743, 0.0592659, 0.0168022, 0.028437, 0.0163822
0.145201, 1.69489, -1.22676, -1.5407, -0.901584, -1.19459, 1.23051, -1.30269, -0.0132154, 0.0274291, 0.0204008, -0.102323, -0.00098031, 0.000745376, -0.00207885, -0.884941, 66.8381, 33.4076, 6.24786, 2.28351, 3.41006, 0.0888782, -0.00463219, 0.00169246, 0.00392032, 0.000587041, -0.00164875, 0.000443459, 0.0960612, -0.0450525, -0.0300995, -0.0745556, 0.116015, -0.00979708, 0.469513, -0.537657, 0.338821, -2.07964, -2.16881, -0.12564, 0.471231, -0.541557, 0.334181, -2.08064, -2.16904, -0.123272, -0.0298335, 0.118184, 0.059987, 0.0177183, 0.0299358, 0.0140029
0.146201, 1.69487, -1.22672, -1.54067, -0.9017, -1.19459, 1.23051, -1.30268, -0.0176809, 0.0328953, 0.0240088, -0.106034, -0.00149716, 0.00100531, 0.00105551, -0.809562, 66.8738, 33.4473, 6.28357, 2.30823, 3.39633, 0.0229602, -0.00472817, 0.00173358, 0.00394311, 0.000551633, -0.0016705, 0.000428661, 0.0973662, -0.0441792, -0.0263498, -0.0725722, 0.122917, -0.0137838, 0.469484, -0.537538, 0.338881, -2.07955, -2.16887, -0.125554, 0.471245, -0.541528, 0.334202, -2.08057, -2.16914, -0.123204, -0.0301683, 0.119629, 0.0607099, 0.016713, 0.0294845, 0.0182562
0.147201, 1.69485, -1.22669, -1.54064, -0.901819, -1.19459, 1.23051, -1.30269, -0.0184472, 0.032892, 0.026836, -0.110831, -0.00162235, 0.00226373, -0.000991748, -0.845268, 66.9492, 33.483, 6.28357, 2.32654, 3.3533, 0.0687366, -0.00482155, 0.0017798, 0.00396805, 0.000512255, -0.0016854, 0.000387735, 0.0974063, -0.0458223, -0.0263454, -0.0717672, 0.124811, -0.00811729, 0.469453, -0.537419, 0.338941, -2.07946, -2.16893, -0.125467, 0.471264, -0.541495, 0.334222, -2.08047, -2.16927, -0.12315, -0.0305034, 0.121079, 0.0614347, 0.0180248, 0.0309695, 0.0189255
0.148201, 1.69481, -1.22665, -1.54061, -0.901944, -1.19459, 1.23051, -1.30269, -0.0198222, 0.0408905, 0.029818, -0.112445, -0.000362948, 0.00123775, -0.000898524, -0.845268, 66.9492, 33.483, 6.32324, 2.30823, 3.36062, 0.0751453, -0.00491693, 0.00182248, 0.00399009, 0.000472186, -0.00170174, 0.000358508, 0.0973791, -0.0460193, -0.0213125, -0.0698967, 0.132108, -0.00761249, 0.469423, -0.537298, 0.339003, -2.07938, -2.16899, -0.125378, 0.471279, -0.541463, 0.334246, -2.08038, -2.16939, -0.123093, -0.0308386, 0.122533, 0.0621611, 0.018087, 0.0316942, 0.0246199
0.149201, 1.69478, -1.2266, -1.54057, -0.90207, -1.19459, 1.23051, -1.30269, -0.0250682, 0.0429895, 0.0303112, -0.113908, -0.000889798, 0.00191014, 0.000587779, -0.809562, 66.8381, 33.5584, 6.24786, 2.32654, 3.33133, 0.0431018, -0.00501678, 0.0018627, 0.00400632, 0.000428237, -0.00173383, 0.000339982, 0.100715, -0.0437947, -0.0202676, -0.0693904, 0.13585, -0.0141268, 0.469392, -0.537175, 0.339065, -2.07929, -2.16905, -0.125289, 0.471291, -0.541434, 0.334275, -2.08031, -2.1695, -0.123022, -0.031174, 0.12399, 0.0628893, 0.0157071, 0.0296021, 0.0259393
0.150201, 1.69474, -1.22657, -1.54054, -0.902205, -1.19458, 1.23051, -1.30269, -0.0300012, 0.0383369, 0.0348299, -0.117815, -9.5729e-05, 0.00205324, 0.000391852, -0.845268, 66.9849, 33.5941, 6.28357, 2.31372, 3.31027, 0.0431018, -0.0051148, 0.00190716, 0.0040345, 0.000383933, -0.00174124, 0.000304648, 0.102665, -0.0431852, -0.0221634, -0.0669737, 0.131493, -0.0140016, 0.469361, -0.537051, 0.339128, -2.0792, -2.16911, -0.125199, 0.471308, -0.541401, 0.334294, -2.08021, -2.16963, -0.122977, -0.0315095, 0.125452, 0.0636192, 0.0147704, 0.0294028, 0.024517
0.151203, 1.6947, -1.22654, -1.54049, -0.902339, -1.19458, 1.23051, -1.30268, -0.0342249, 0.0374983, 0.0347668, -0.123023, 0.00524908, 0.00218258, 0.00100722, -0.884941, 67.0206, 33.6338, 6.28357, 2.31372, 3.2883, 0.0229602, -0.00521445, 0.00194952, 0.00405591, 0.000335631, -0.00175605, 0.000275339, 0.103613, -0.0428942, -0.0236657, -0.0668663, 0.127632, -0.0136027, 0.469329, -0.536926, 0.339191, -2.07911, -2.16918, -0.125108, 0.471321, -0.541369, 0.33432, -2.08012, -2.16975, -0.122927, -0.0318451, 0.126917, 0.0643506, 0.0141278, 0.0301505, 0.0236288
0.152203, 1.69466, -1.2265, -1.54044, -0.902479, -1.19457, 1.23051, -1.30268, -0.0363954, 0.0352895, 0.0395307, -0.128748, 0.00415696, 0.00277744, 0.000434121, -0.960319, 67.1317, 33.6338, 6.24786, 2.30823, 3.25259, 0.0293689, -0.00531426, 0.00199337, 0.00408018, 0.000283144, -0.00176332, 0.000237582, 0.103945, -0.0441079, -0.0243895, -0.0658023, 0.127721, -0.00934294, 0.469298, -0.536799, 0.339256, -2.07902, -2.16924, -0.125016, 0.471336, -0.541334, 0.334343, -2.08002, -2.16987, -0.12289, -0.0321808, 0.128386, 0.0650837, 0.0149939, 0.0314585, 0.0235562
0.153203, 1.69461, -1.22647, -1.5404, -0.902635, -1.19457, 1.23051, -1.30269, -0.039833, 0.0329601, 0.0406973, -0.137701, 0.00311189, 0.00212286, -0.000931289, -1.11108, 67.2784, 33.7052, 6.39465, 2.30823, 3.24527, 0.0623279, -0.00541181, 0.00204021, 0.00410819, 0.000239259, -0.00177117, 0.000185499, 0.104505, -0.044478, -0.0269572, -0.0702974, 0.127503, -0.0044233, 0.469265, -0.53667, 0.339321, -2.07892, -2.1693, -0.124922, 0.471354, -0.541296, 0.334364, -2.0799, -2.17001, -0.122843, -0.0325166, 0.129859, 0.0658182, 0.0149538, 0.0327885, 0.0216569
0.154203, 1.69456, -1.22643, -1.54034, -0.902782, -1.19456, 1.23051, -1.30268, -0.0475599, 0.0346495, 0.0454831, -0.138102, 0.00233004, 0.00246638, 0.000837203, -1.15075, 67.2784, 33.7449, 6.28357, 2.30823, 3.21689, 0.0229602, -0.00551627, 0.0020798, 0.00412592, 0.000181113, -0.00178779, 0.000158178, 0.108438, -0.0412941, -0.0243894, -0.0655929, 0.130451, -0.0126276, 0.469233, -0.53654, 0.339387, -2.07883, -2.16937, -0.124828, 0.471364, -0.541265, 0.334395, -2.07982, -2.17014, -0.122799, -0.0328524, 0.131335, 0.0665543, 0.0117016, 0.0298495, 0.0244291
0.155203, 1.6945, -1.2264, -1.54028, -0.902948, -1.19455, 1.23051, -1.30269, -0.0538124, 0.0372877, 0.0524089, -0.146202, 0.00832124, 0.00242413, -0.00137464, -1.18645, 67.3538, 33.7806, 6.35895, 2.2771, 3.19583, 0.0751453, -0.00561806, 0.00212243, 0.00414891, 0.000122414, -0.00179356, 0.000106678, 0.10752, -0.0417101, -0.02168, -0.0599936, 0.129198, -0.00538145, 0.4692, -0.536409, 0.339453, -2.07873, -2.16943, -0.124733, 0.471377, -0.541228, 0.334422, -2.0797, -2.17029, -0.122769, -0.0331882, 0.132814, 0.0672918, 0.0118579, 0.0318442, 0.0279702
0.156203, 1.69443, -1.22636, -1.54021, -0.903112, -1.19455, 1.23051, -1.30268, -0.056025, 0.0359895, 0.0603711, -0.154454, 0.00590577, 0.00137871, 0.000778991, -1.30151, 67.4252, 33.7052, 6.39465, 2.28351, 3.20224, 0.0293689, -0.00571974, 0.00216539, 0.00416696, 5.82881e-05, -0.00180227, 6.39716e-05, 0.106476, -0.043558, -0.0212246, -0.0592863, 0.130504, -0.000610147, 0.469167, -0.536276, 0.33952, -2.07864, -2.1695, -0.124636, 0.471391, -0.541191, 0.334454, -2.0796, -2.17043, -0.122739, -0.033524, 0.134297, 0.0680307, 0.0133498, 0.0343745, 0.0292585
0.157203, 1.69437, -1.22633, -1.54014, -0.903283, -1.19454, 1.23051, -1.30269, -0.0586383, 0.0382161, 0.0624421, -0.15851, 0.0039431, 0.00142776, -0.00144736, -1.41259, 67.5006, 33.7806, 6.35895, 2.29541, 3.18851, 0.0824695, -0.00582289, 0.00220885, 0.00418678, -4.89271e-06, -0.00181205, 9.53483e-06, 0.107781, -0.0433864, -0.0200981, -0.0602398, 0.135479, 0.00172115, 0.469133, -0.536142, 0.339588, -2.07854, -2.16956, -0.124539, 0.471404, -0.541154, 0.334485, -2.07948, -2.17058, -0.122708, -0.0338597, 0.135784, 0.0687709, 0.0129453, 0.0343966, 0.0309167
0.158203, 1.6943, -1.22629, -1.54007, -0.903463, -1.19453, 1.2305, -1.30268, -0.0667621, 0.0408234, 0.0683238, -0.16879, 0.00316723, 0.00149437, 0.00123914, -1.52764, 67.5363, 33.8202, 6.39465, 2.28992, 3.17386, 0.0229602, -0.00592677, 0.00225057, 0.00420668, -6.48765e-05, -0.00182064, -3.47055e-05, 0.108625, -0.0423107, -0.0179761, -0.0593607, 0.140002, 0.00136572, 0.469099, -0.536006, 0.339657, -2.07844, -2.16963, -0.124441, 0.471415, -0.541116, 0.334517, -2.07937, -2.17072, -0.122672, -0.0341954, 0.137273, 0.0695125, 0.0116601, 0.0346834, 0.0336601
0.159203, 1.69421, -1.22625, -1.53999, -0.903654, -1.19452, 1.2305, -1.30269, -0.07577, 0.0378153, 0.0694987, -0.174454, 0.00777417, 0.00153877, -0.00161531, -1.52764, 67.6474, 33.8559, 6.43433, 2.28992, 3.15921, 0.0888782, -0.00603404, 0.00228895, 0.00422647, -0.000136691, -0.00182333, -9.25037e-05, 0.111668, -0.0395909, -0.0201493, -0.0582585, 0.134369, 0.00129076, 0.469065, -0.535869, 0.339727, -2.07834, -2.1697, -0.124341, 0.471423, -0.541079, 0.33455, -2.07925, -2.17088, -0.122656, -0.0345309, 0.138766, 0.0702554, 0.00865048, 0.0333813, 0.0318802
0.160203, 1.69412, -1.22622, -1.53991, -0.903854, -1.1945, 1.2305, -1.30269, -0.0805649, 0.0397614, 0.0752146, -0.177725, 0.0103736, -0.00345272, -9.35311e-05, -1.60302, 67.7228, 33.967, 6.43433, 2.31372, 3.1528, 0.0623279, -0.00613875, 0.00232937, 0.00424749, -0.000199694, -0.0018248, -0.000147872, 0.112024, -0.038253, -0.0181212, -0.0575947, 0.132477, 0.000301985, 0.469031, -0.53573, 0.339797, -2.07824, -2.16977, -0.124241, 0.471432, -0.541039, 0.334582, -2.07913, -2.17103, -0.122629, -0.0348663, 0.140262, 0.0709994, 0.00708129, 0.0341587, 0.0346177
0.161211, 1.69403, -1.22617, -1.53981, -0.904059, -1.19449, 1.23049, -1.30268, -0.0832511, 0.0396335, 0.0818412, -0.186649, 0.0138244, -0.00269481, 0.00139571, -1.7141, 67.7228, 33.967, 6.43433, 2.29541, 3.1528, 0.0229602, -0.00624257, 0.00237152, 0.00426017, -0.000277049, -0.00183505, -0.000207336, 0.1102, -0.0407115, -0.0173675, -0.0539111, 0.131182, 0.00715052, 0.468996, -0.53559, 0.339868, -2.07814, -2.16984, -0.12414, 0.471443, -0.540997, 0.334623, -2.07901, -2.1712, -0.12261, -0.0352016, 0.141761, 0.0717447, 0.00916465, 0.0374588, 0.0363061
0.162211, 1.69393, -1.22614, -1.53973, -0.904279, -1.19447, 1.23049, -1.30269, -0.0870898, 0.0368466, 0.0845316, -0.19797, 0.0149841, -0.00100622, -0.000764949, -1.75378, 67.8339, 34.0781, 6.5097, 2.31372, 3.1235, 0.0687366, -0.00634884, 0.00241271, 0.00428251, -0.000344544, -0.0018378, -0.000279297, 0.109794, -0.0423322, -0.0197679, -0.0551106, 0.129993, 0.0160133, 0.468961, -0.535448, 0.33994, -2.07804, -2.16991, -0.124037, 0.471453, -0.540955, 0.334655, -2.07887, -2.17138, -0.122587, -0.0355366, 0.143262, 0.0724911, 0.0103422, 0.0398039, 0.0346907
0.163211, 1.69382, -1.2261, -1.53962, -0.904509, -1.19445, 1.23049, -1.30268, -0.0924936, 0.0390854, 0.0929577, -0.205761, 0.0165782, -0.0050988, 0.000710737, -1.78948, 67.9053, 34.0424, 6.54541, 2.31372, 3.10977, 0.0357776, -0.00645321, 0.00245239, 0.00429769, -0.00042437, -0.00183567, -0.000348816, 0.108786, -0.0421802, -0.017118, -0.0537896, 0.129889, 0.0193856, 0.468925, -0.535305, 0.340012, -2.07793, -2.16998, -0.123934, 0.47146, -0.540911, 0.334695, -2.07873, -2.17155, -0.122581, -0.0358715, 0.144767, 0.0732387, 0.0099281, 0.0418964, 0.0382154
0.164211, 1.69372, -1.22606, -1.53953, -0.904731, -1.19443, 1.23048, -1.30268, -0.0999043, 0.0391626, 0.0914713, -0.214369, 0.0175225, -0.00368669, 0.000711184, -1.90453, 67.9053, 34.1892, 6.43433, 2.32013, 3.10245, 0.0293689, -0.00656293, 0.00248983, 0.00431315, -0.000501464, -0.00183909, -0.000406812, 0.111391, -0.04032, -0.018797, -0.0569219, 0.131499, 0.018045, 0.468889, -0.53516, 0.340086, -2.07783, -2.17005, -0.123829, 0.471466, -0.54087, 0.334735, -2.07861, -2.17172, -0.122565, -0.0362061, 0.146274, 0.0739872, 0.00778069, 0.0410047, 0.0369689
0.165211, 1.69359, -1.22603, -1.53942, -0.904971, -1.19441, 1.23048, -1.30269, -0.106703, 0.0387944, 0.0931584, -0.223345, 0.0231442, -0.00676745, -0.00172992, -1.90453, 68.0521, 34.2289, 6.43433, 2.33844, 3.08047, 0.0888782, -0.00667335, 0.00252649, 0.00433352, -0.000581793, -0.00183185, -0.000484967, 0.111605, -0.039155, -0.0200863, -0.0593097, 0.126473, 0.0231645, 0.468853, -0.535014, 0.34016, -2.07772, -2.17012, -0.123723, 0.47147, -0.540828, 0.334771, -2.07846, -2.1719, -0.122564, -0.0365405, 0.147784, 0.0747369, 0.00624715, 0.0424477, 0.0364521
0.166211, 1.69347, -1.22599, -1.53931, -0.905214, -1.19438, 1.23047, -1.30268, -0.109327, 0.0403578, 0.0995096, -0.231816, 0.0228782, -0.00443808, 0.00105076, -2.01562, 68.1274, 34.1892, 6.35895, 2.33844, 3.05942, 0.0293689, -0.00678148, 0.0025643, 0.00435068, -0.000664791, -0.00182114, -0.000554493, 0.110698, -0.0413268, -0.0182385, -0.0558913, 0.130687, 0.0269732, 0.468816, -0.534866, 0.340234, -2.07762, -2.17019, -0.123617, 0.471475, -0.540783, 0.33481, -2.07832, -2.17207, -0.122568, -0.0368746, 0.149297, 0.0754875, 0.00812624, 0.0446788, 0.0390943
0.167211, 1.69335, -1.22595, -1.5392, -0.90547, -1.19435, 1.23046, -1.30269, -0.116585, 0.0384786, 0.102359, -0.239693, 0.0274689, -0.00816518, -4.54759e-05, -2.13067, 68.1989, 34.2289, 6.20819, 2.35126, 3.05942, 0.0495105, -0.00688908, 0.00260302, 0.00436749, -0.000746058, -0.00181417, -0.00063836, 0.111482, -0.0396551, -0.0198832, -0.0578357, 0.124505, 0.0295747, 0.46878, -0.534717, 0.34031, -2.07751, -2.17026, -0.123509, 0.471481, -0.540735, 0.334852, -2.07816, -2.17226, -0.122566, -0.0372084, 0.150812, 0.076239, 0.00609603, 0.0455951, 0.0381582
0.168211, 1.69321, -1.2259, -1.53909, -0.90574, -1.19432, 1.23045, -1.30268, -0.125063, 0.0460241, 0.107418, -0.248975, 0.0350434, -0.00490806, 0.000715668, -2.13067, 68.1631, 34.3043, 6.0614, 2.39429, 3.02371, 0.0293689, -0.00699732, 0.00263943, 0.00438168, -0.000827838, -0.00181076, -0.000720869, 0.111189, -0.03942, -0.0147302, -0.0501121, 0.128678, 0.0322053, 0.468742, -0.534566, 0.340386, -2.0774, -2.17034, -0.123401, 0.471484, -0.540687, 0.334896, -2.07801, -2.17245, -0.12256, -0.0375418, 0.15233, 0.0769914, 0.00573199, 0.0466113, 0.0440532
0.169211, 1.69306, -1.22587, -1.53897, -0.906017, -1.19428, 1.23045, -1.30269, -0.133238, 0.0415883, 0.109327, -0.260171, 0.0363991, -0.00800384, -0.000743591, -2.13067, 68.2742, 34.4153, 5.95032, 2.4126, 3.00906, 0.0623279, -0.0071077, 0.00267576, 0.00440221, -0.000911176, -0.00179613, -0.000811102, 0.112537, -0.0376104, -0.0185674, -0.0554755, 0.123238, 0.0356922, 0.468705, -0.534414, 0.340463, -2.07729, -2.17041, -0.123291, 0.471487, -0.540639, 0.334935, -2.07784, -2.17265, -0.122568, -0.0378749, 0.15385, 0.0777447, 0.00349913, 0.0473024, 0.0408723
0.170211, 1.69291, -1.22581, -1.53885, -0.90631, -1.19425, 1.23044, -1.30268, -0.140788, 0.0465806, 0.110386, -0.266563, 0.0362919, -0.00457525, 0.000724976, -2.01562, 68.1631, 34.4867, 5.91064, 2.46112, 2.96603, 0.0293689, -0.007217, 0.00270971, 0.00441346, -0.000996498, -0.00179398, -0.000895004, 0.1153, -0.0357649, -0.0159716, -0.0536628, 0.131266, 0.0315655, 0.468667, -0.53426, 0.340541, -2.07718, -2.17049, -0.12318, 0.471487, -0.54059, 0.334983, -2.07768, -2.17284, -0.122563, -0.0382076, 0.155372, 0.0784988, 0.0015498, 0.0456195, 0.0438296
0.171211, 1.69275, -1.22577, -1.53871, -0.906603, -1.19421, 1.23044, -1.30268, -0.143565, 0.0468312, 0.11957, -0.273062, 0.0365477, -0.00757112, 0.00143275, -2.091, 68.1989, 34.4153, 5.79956, 2.50415, 2.94406, 0.00373412, -0.00732424, 0.00274938, 0.00442576, -0.00109626, -0.00178224, -0.00099256, 0.11393, -0.0370076, -0.0140732, -0.0513073, 0.13079, 0.0371246, 0.468629, -0.534104, 0.340619, -2.07707, -2.17056, -0.123068, 0.471492, -0.540536, 0.335032, -2.07751, -2.17305, -0.122584, -0.0385399, 0.156897, 0.0792537, 0.00248761, 0.0482693, 0.0466282
0.172211, 1.69258, -1.22573, -1.53859, -0.906914, -1.19417, 1.23043, -1.30268, -0.150579, 0.0451586, 0.122298, -0.283574, 0.0314347, -0.00972241, -0.00168969, -2.01562, 68.3099, 34.5264, 5.79956, 2.54718, 2.923, 0.0751453, -0.00743593, 0.00278223, 0.00444572, -0.00117968, -0.00176394, -0.00109757, 0.115921, -0.035225, -0.015877, -0.0577806, 0.133814, 0.0409897, 0.46859, -0.533947, 0.340699, -2.07696, -2.17064, -0.122956, 0.471491, -0.540485, 0.335073, -2.07732, -2.17326, -0.122593, -0.0388718, 0.158424, 0.0800094, 0.000392242, 0.0480237, 0.0453589
0.173211, 1.69241, -1.22568, -1.53846, -0.907242, -1.19412, 1.23042, -1.30268, -0.15687, 0.0461336, 0.121745, -0.29876, 0.0392162, -0.0108866, 0.00128104, -1.97991, 68.1989, 34.6018, 5.83527, 2.56549, 2.8873, 0.0101428, -0.00754418, 0.00281747, 0.00446032, -0.00126534, -0.00175442, -0.00119908, 0.114186, -0.0358925, -0.0179003, -0.0623823, 0.13003, 0.0462567, 0.468551, -0.533789, 0.340779, -2.07684, -2.17071, -0.122842, 0.471491, -0.54043, 0.335121, -2.07714, -2.17348, -0.122595, -0.0392032, 0.159952, 0.0807657, 0.000581645, 0.0516056, 0.0443611
0.174211, 1.69223, -1.22564, -1.53832, -0.907574, -1.19407, 1.23041, -1.30268, -0.168831, 0.0421431, 0.127019, -0.305053, 0.0443328, -0.00814954, -0.00155347, -1.94024, 68.2742, 34.7129, 5.79956, 2.60303, 2.87997, 0.0751453, -0.00765254, 0.00285348, 0.00447782, -0.0013553, -0.00173346, -0.0013196, 0.117791, -0.0329217, -0.0188956, -0.0550447, 0.124096, 0.0459506, 0.468512, -0.533629, 0.340859, -2.07673, -2.17079, -0.122727, 0.471492, -0.540372, 0.335167, -2.07693, -2.1737, -0.122613, -0.0395341, 0.161483, 0.0815227, -0.00259956, 0.0495911, 0.0436854
0.175212, 1.69205, -1.22559, -1.53816, -0.907915, -1.19401, 1.2304, -1.30268, -0.1732, 0.046657, 0.133042, -0.315369, 0.04333, -0.00552541, 0.000151147, -1.90453, 68.3099, 34.6018, 5.76385, 2.62775, 2.85892, 0.0431018, -0.00775904, 0.00289056, 0.00448703, -0.00146285, -0.00171474, -0.00143775, 0.117089, -0.0343591, -0.0155794, -0.0523942, 0.132171, 0.0502543, 0.468473, -0.533468, 0.340941, -2.07661, -2.17087, -0.122611, 0.471494, -0.540313, 0.335222, -2.07674, -2.17394, -0.122648, -0.0398646, 0.163016, 0.0822803, -0.00137935, 0.051385, 0.0477777
0.176212, 1.69185, -1.22554, -1.53802, -0.908258, -1.19395, 1.23039, -1.30268, -0.180829, 0.043748, 0.135639, -0.329242, 0.0483848, -0.00926661, 0.000372032, -1.86486, 68.3496, 34.7129, 5.6488, 2.63965, 2.86532, 0.0357776, -0.00787275, 0.00291891, 0.00450119, -0.00155834, -0.00168927, -0.00154035, 0.116318, -0.0338293, -0.0187316, -0.0572279, 0.125147, 0.0564819, 0.468433, -0.533304, 0.341023, -2.07649, -2.17095, -0.122494, 0.471486, -0.540258, 0.335272, -2.07655, -2.17415, -0.122674, -0.0401944, 0.164551, 0.0830385, -0.00239099, 0.0541355, 0.0455602
0.177212, 1.69165, -1.22548, -1.53787, -0.908619, -1.19389, 1.23038, -1.30268, -0.189014, 0.0486819, 0.137273, -0.339687, 0.0525104, -0.0117233, -0.000735323, -1.90453, 68.3496, 34.824, 5.57739, 2.63965, 2.86532, 0.0623279, -0.00797861, 0.00295527, 0.0045117, -0.00165403, -0.00167128, -0.00167117, 0.116599, -0.0320187, -0.0170237, -0.0599124, 0.127073, 0.0595422, 0.468392, -0.53314, 0.341106, -2.07637, -2.17103, -0.122376, 0.471487, -0.540195, 0.335327, -2.07634, -2.17439, -0.122694, -0.0405238, 0.166087, 0.0837972, -0.00443734, 0.0550527, 0.0480261
0.178212, 1.69145, -1.22543, -1.53773, -0.909, -1.19382, 1.23037, -1.30267, -0.191553, 0.0539257, 0.138475, -0.348029, 0.0593869, -0.00835674, 0.000493129, -1.90453, 68.421, 34.9351, 5.53772, 2.67627, 2.85159, 0.0357776, -0.00808587, 0.00298944, 0.00452826, -0.00174078, -0.00164865, -0.00180166, 0.115123, -0.0341973, -0.0147625, -0.0564712, 0.129955, 0.0647076, 0.468352, -0.532974, 0.34119, -2.07626, -2.17111, -0.122257, 0.471484, -0.54013, 0.335377, -2.07611, -2.17463, -0.122708, -0.0408525, 0.167625, 0.0845564, -0.00255039, 0.0578112, 0.0511708
0.179212, 1.69124, -1.22538, -1.53757, -0.909384, -1.19375, 1.23036, -1.30268, -0.193262, 0.0507968, 0.141092, -0.358092, 0.0607739, -0.0110611, -0.00187529, -1.90453, 68.5321, 34.9708, 5.50201, 2.68909, 2.85159, 0.0952869, -0.00819352, 0.00302309, 0.00454263, -0.00183619, -0.00161999, -0.00194373, 0.113712, -0.0359177, -0.0177099, -0.0612153, 0.126101, 0.0748211, 0.468311, -0.532806, 0.341275, -2.07613, -2.17119, -0.122137, 0.471481, -0.540065, 0.335429, -2.07588, -2.17489, -0.122738, -0.0411807, 0.169165, 0.0853161, -0.00133294, 0.0612744, 0.0491773
0.180212, 1.69102, -1.22532, -1.53741, -0.909787, -1.19368, 1.23034, -1.30267, -0.204809, 0.053521, 0.145984, -0.369732, 0.0664846, -0.0129824, 0.00166593, -1.90453, 68.5678, 35.0461, 5.53772, 2.7074, 2.85159, 0.0165515, -0.00829439, 0.00306194, 0.00455377, -0.00193043, -0.00159541, -0.00209032, 0.114397, -0.033367, -0.0160858, -0.0600766, 0.124606, 0.0730987, 0.46827, -0.532637, 0.34136, -2.07601, -2.17127, -0.122016, 0.471483, -0.539992, 0.335487, -2.07564, -2.17515, -0.122762, -0.0415082, 0.170706, 0.0860762, -0.00410239, 0.0617753, 0.0515259
0.181212, 1.6908, -1.22526, -1.53725, -0.910196, -1.1936, 1.23032, -1.30267, -0.209744, 0.0566934, 0.14955, -0.383618, 0.0643134, -0.0144835, 0.00087326, -1.75378, 68.6789, 35.2326, 5.50201, 2.75592, 2.85159, 0.0229602, -0.00840197, 0.00309372, 0.00456858, -0.00202069, -0.00156565, -0.00223245, 0.113324, -0.0339804, -0.0152711, -0.0654414, 0.13073, 0.080922, 0.468228, -0.532466, 0.341446, -2.07589, -2.17135, -0.121894, 0.471478, -0.539924, 0.335541, -2.07539, -2.1754, -0.122785, -0.0418351, 0.172249, 0.0868367, -0.00381906, 0.0642864, 0.053235
0.182212, 1.69057, -1.22521, -1.53707, -0.910613, -1.19352, 1.23031, -1.30267, -0.220942, 0.0550422, 0.155735, -0.392965, 0.0745705, -0.0155498, -0.00135061, -1.63873, 68.8257, 35.2683, 5.42664, 2.77515, 2.85159, 0.0751453, -0.00850401, 0.00313156, 0.00457677, -0.0021283, -0.0015352, -0.00239881, 0.113861, -0.0320907, -0.0153667, -0.0596211, 0.121326, 0.0855445, 0.468187, -0.532294, 0.341533, -2.07577, -2.17143, -0.121771, 0.471478, -0.539849, 0.335603, -2.07514, -2.17568, -0.122829, -0.0421613, 0.173793, 0.0875976, -0.00600447, 0.065228, 0.0538863
0.183212, 1.69033, -1.22515, -1.53691, -0.911048, -1.19344, 1.23029, -1.30267, -0.224678, 0.0541455, 0.161146, -0.403913, 0.080757, -0.0161191, 0.000795016, -1.45226, 68.9725, 35.4191, 5.42664, 2.83008, 2.84427, 0.0293689, -0.00860896, 0.00316583, 0.00459331, -0.00221928, -0.00150075, -0.00255494, 0.111564, -0.0342281, -0.0158401, -0.0577734, 0.116688, 0.0928176, 0.468144, -0.53212, 0.34162, -2.07564, -2.17152, -0.121646, 0.471474, -0.539774, 0.335657, -2.07488, -2.17595, -0.122857, -0.0424869, 0.175339, 0.0883587, -0.00430336, 0.0692172, 0.0544579
0.184212, 1.69009, -1.22509, -1.53672, -0.911477, -1.19335, 1.23027, -1.30267, -0.229181, 0.0535943, 0.171817, -0.407365, 0.0821073, -0.0164911, -0.000690692, -1.37688, 69.1193, 35.4191, 5.31555, 2.84839, 2.83694, 0.0623279, -0.00871008, 0.00320353, 0.00459919, -0.00233691, -0.00145922, -0.00272774, 0.111689, -0.0346626, -0.0131306, -0.0497031, 0.115489, 0.0972983, 0.468102, -0.531945, 0.341709, -2.07552, -2.1716, -0.121521, 0.471473, -0.539696, 0.335723, -2.07461, -2.17623, -0.122923, -0.0428117, 0.176886, 0.0891202, -0.00406723, 0.070255, 0.0578621
0.185212, 1.68985, -1.22503, -1.53653, -0.911933, -1.19325, 1.23025, -1.30267, -0.232891, 0.0549406, 0.174869, -0.41909, 0.0878247, -0.0170962, 0.000760242, -1.15075, 69.1946, 35.4944, 5.31555, 2.8667, 2.83694, 0.0293689, -0.00880762, 0.00324162, 0.00460742, -0.00243958, -0.00141992, -0.00290766, 0.109519, -0.036462, -0.0132491, -0.050385, 0.113671, 0.104635, 0.468059, -0.531768, 0.341798, -2.07539, -2.17169, -0.121395, 0.471473, -0.539612, 0.335787, -2.07432, -2.17653, -0.122969, -0.0431357, 0.178434, 0.0898818, -0.00268227, 0.0740531, 0.0587766
0.186212, 1.6896, -1.22496, -1.53636, -0.912405, -1.19314, 1.23023, -1.30267, -0.236865, 0.0568872, 0.175683, -0.433476, 0.0974659, -0.0179288, -1.79853e-06, -0.960319, 69.2303, 35.6412, 5.31555, 2.88501, 2.84427, 0.0431018, -0.00890314, 0.0032807, 0.00461883, -0.00253277, -0.00137781, -0.00310142, 0.106281, -0.0386982, -0.014197, -0.0525863, 0.109476, 0.116482, 0.468016, -0.53159, 0.341888, -2.07526, -2.17177, -0.121268, 0.471473, -0.539524, 0.33585, -2.07402, -2.17683, -0.123009, -0.043459, 0.179984, 0.0906437, -0.00094094, 0.0790534, 0.0590196
