alisrour97/Franka_experiments/Real_Robot_scripts/servo-franka/Data_5_ki/log_dyn_PI_k_ki_9.csv
Time,q1,q2,q3,q4,q5,q6,q7,dq1,dq2,dq3,dq4,dq5,dq6,dq7,t1,t2,t3,t4,t5,t6,t7,ex1,ex2,ex3,ex4,ex5,ex6,ev1,ev2,ev3,ev4,ev5,ev6,xd,yd,zd,uxd,uyd,uzd,x,y,z,ux,uy,uz,vxd,vyd,vzd,vx,vy,vz
1.2207e-06, 1.6912, -1.22757, -1.5395, -0.900288, -1.19249, 1.22802, -1.3026, -0.0102848, -0.00251397, -0.0077279, 0.0049996, 0.00694377, -0.00559326, -0.000100336, 0.511544, 63.4103, 31.8842, 7.14447, 2.89783, 4.04086, -0.180287, 0.000357034, -0.0020023, 0.00185965, 0.0025266, 0.00110909, 0.000885492, 0.00592591, 0.00844863, -0.00347248, -0.00461374, -0.0112224, -0.0157767, 0.471008, -0.543389, 0.335894, -2.08385, -2.16584, -0.129887, 0.468957, -0.542814, 0.334198, -2.08286, -2.16339, -0.128105, 0, 0, 0, -0.00835117, -0.00566142, -0.00409391
0.0140125, 1.69114, -1.2276, -1.53956, -0.900274, -1.19244, 1.22795, -1.3026, -0.0149968, -0.00329256, -0.00364672, 0.0015564, 0.00113008, -0.00885345, -0.00259759, 0.360787, 63.6325, 31.9953, 7.1048, 2.87311, 4.07748, -0.238881, 0.000328886, -0.00205568, 0.00190001, 0.00260294, 0.00121582, 0.000962546, 0.00703953, 0.0108466, -0.00300047, -0.00755729, -0.00895804, -0.0148943, 0.471008, -0.543389, 0.335894, -2.08385, -2.16584, -0.129887, 0.468875, -0.542856, 0.334131, -2.08286, -2.16312, -0.128133, 3.52292e-06, 9.08712e-06, 4.70091e-06, -0.0106857, -0.0069225, -0.00372371
0.0150125, 1.69114, -1.2276, -1.53956, -0.900274, -1.19244, 1.22795, -1.3026, -0.0149968, -0.00329256, -0.00364672, 0.0015564, 0.00113008, -0.00885345, -0.00259759, 0.360787, 63.6325, 31.9953, 7.1048, 2.87311, 4.07748, -0.238881, 0.000328863, -0.00205569, 0.00190002, 0.00260293, 0.00121582, 0.000962558, 0.00706817, 0.0108579, -0.00301055, -0.00756979, -0.0089389, -0.014918, 0.471008, -0.543389, 0.335894, -2.08385, -2.16584, -0.129887, 0.468875, -0.542856, 0.334131, -2.08286, -2.16312, -0.128133, 1.40551e-05, 3.62649e-05, 1.87583e-05, -0.0106857, -0.0069225, -0.00372371
0.0160125, 1.69114, -1.2276, -1.53956, -0.900274, -1.19244, 1.22795, -1.3026, -0.0149968, -0.00329256, -0.00364672, 0.0015564, 0.00113008, -0.00885345, -0.00259759, 0.360787, 63.6325, 31.9953, 7.1048, 2.87311, 4.07748, -0.238881, 0.000328803, -0.00205571, 0.00190004, 0.0026029, 0.00121584, 0.000962591, 0.00711573, 0.0108765, -0.00302729, -0.00759052, -0.00890713, -0.0149574, 0.471008, -0.543389, 0.335894, -2.08385, -2.16584, -0.129887, 0.468875, -0.542856, 0.334131, -2.08286, -2.16312, -0.128133, 3.15416e-05, 8.14084e-05, 4.21042e-05, -0.0106857, -0.0069225, -0.00372371
0.0170127, 1.69114, -1.2276, -1.53956, -0.900274, -1.19244, 1.22795, -1.3026, -0.0149968, -0.00329256, -0.00364672, 0.0015564, 0.00113008, -0.00885345, -0.00259759, 0.360787, 63.6325, 31.9953, 7.1048, 2.87311, 4.07748, -0.238881, 0.000328686, -0.00205575, 0.00190008, 0.00260284, 0.00121587, 0.000962655, 0.0071821, 0.0109024, -0.00305063, -0.00761941, -0.00886282, -0.0150124, 0.471008, -0.543389, 0.335894, -2.08385, -2.16584, -0.129887, 0.468875, -0.542856, 0.334131, -2.08286, -2.16312, -0.128133, 5.59279e-05, 0.000144393, 7.4671e-05, -0.0106857, -0.0069225, -0.00372371
0.0180129, 1.69114, -1.2276, -1.53956, -0.900274, -1.19244, 1.22795, -1.3026, -0.0149968, -0.00329256, -0.00364672, 0.0015564, 0.00113008, -0.00885345, -0.00259759, 0.360787, 63.6325, 31.9953, 7.1048, 2.87311, 4.07748, -0.238881, 0.000328493, -0.00205583, 0.00190015, 0.00260274, 0.00121591, 0.00096276, 0.00726712, 0.0109356, -0.00308053, -0.00765638, -0.00880606, -0.0150828, 0.471008, -0.543389, 0.335894, -2.08385, -2.16584, -0.129886, 0.468875, -0.542856, 0.334131, -2.08286, -2.16312, -0.128133, 8.71593e-05, 0.000225094, 0.000116391, -0.0106857, -0.0069225, -0.00372371
0.0190134, 1.69114, -1.2276, -1.53956, -0.900274, -1.19244, 1.22795, -1.3026, -0.0149968, -0.00329256, -0.00364672, 0.0015564, 0.00113008, -0.00885345, -0.00259759, 0.360787, 63.6325, 31.9953, 7.1048, 2.87311, 4.07748, -0.238881, 0.000328206, -0.00205594, 0.00190025, 0.0026026, 0.00121598, 0.000962916, 0.00737069, 0.0109761, -0.00311695, -0.00770137, -0.00873694, -0.0151685, 0.471008, -0.543389, 0.335894, -2.08385, -2.16584, -0.129886, 0.468875, -0.542856, 0.334131, -2.08286, -2.16312, -0.128133, 0.000125182, 0.000323387, 0.000167197, -0.0106857, -0.0069225, -0.00372371
0.0200137, 1.69114, -1.2276, -1.53956, -0.900274, -1.19244, 1.22795, -1.3026, -0.0149968, -0.00329256, -0.00364672, 0.0015564, 0.00113008, -0.00885345, -0.00259759, 0.360787, 63.6325, 31.9953, 7.1048, 2.87311, 4.07748, -0.238881, 0.000327807, -0.0020561, 0.00190039, 0.00260241, 0.00121608, 0.000963134, 0.00749265, 0.0110237, -0.00315982, -0.00775429, -0.00865557, -0.0152693, 0.471008, -0.543388, 0.335894, -2.08385, -2.16584, -0.129886, 0.468875, -0.542856, 0.334131, -2.08286, -2.16312, -0.128133, 0.00016994, 0.000439148, 0.000227022, -0.0106857, -0.0069225, -0.00372371
0.0210139, 1.69114, -1.2276, -1.53956, -0.900274, -1.19244, 1.22795, -1.3026, -0.0149968, -0.00329256, -0.00364672, 0.0015564, 0.00113008, -0.00885345, -0.00259759, 0.360787, 63.6325, 31.9953, 7.1048, 2.87311, 4.07748, -0.238881, 0.000327276, -0.0020563, 0.00190058, 0.00260215, 0.00121621, 0.000963423, 0.00763289, 0.0110785, -0.00320911, -0.00781507, -0.00856203, -0.0153852, 0.471009, -0.543388, 0.335895, -2.08385, -2.16584, -0.129886, 0.468875, -0.542856, 0.334131, -2.08286, -2.16312, -0.128133, 0.000221382, 0.000572255, 0.000295798, -0.0106857, -0.0069225, -0.00372371
0.0220142, 1.69114, -1.2276, -1.53956, -0.900274, -1.19244, 1.22795, -1.3026, -0.0149968, -0.00329256, -0.00364672, 0.0015564, 0.00113008, -0.00885345, -0.00259759, 0.360787, 63.6325, 31.9953, 7.1048, 2.87311, 4.07748, -0.238881, 0.000326597, -0.00205657, 0.00190082, 0.00260182, 0.00121637, 0.000963793, 0.00779127, 0.0111403, -0.00326475, -0.00788363, -0.00845642, -0.015516, 0.471009, -0.543387, 0.335895, -2.08384, -2.16584, -0.129885, 0.468875, -0.542856, 0.334131, -2.08286, -2.16312, -0.128133, 0.000279451, 0.000722584, 0.000373459, -0.0106857, -0.0069225, -0.00372371
0.0230144, 1.69114, -1.2276, -1.53956, -0.900274, -1.19244, 1.22795, -1.3026, -0.0149968, -0.00329256, -0.00364672, 0.0015564, 0.00113008, -0.00885345, -0.00259759, 0.360787, 63.6325, 31.9953, 7.1048, 2.87311, 4.07748, -0.238881, 0.00032575, -0.0020569, 0.00190112, 0.0026014, 0.00121657, 0.000964254, 0.00796767, 0.0112091, -0.00332671, -0.00795991, -0.00833884, -0.0156617, 0.471009, -0.543386, 0.335895, -2.08384, -2.16584, -0.129884, 0.468875, -0.542856, 0.334131, -2.08286, -2.16312, -0.128133, 0.000344096, 0.000890012, 0.000459939, -0.0106857, -0.0069225, -0.00372371
0.0240149, 1.69114, -1.2276, -1.53956, -0.900274, -1.19244, 1.22795, -1.3026, -0.0149968, -0.00329256, -0.00364672, 0.0015564, 0.00113008, -0.00885345, -0.00259759, 0.360787, 63.6325, 31.9953, 7.1048, 2.87311, 4.07748, -0.238881, 0.000324718, -0.0020573, 0.00190148, 0.0026009, 0.00121682, 0.000964815, 0.00816194, 0.0112849, -0.00339494, -0.00804383, -0.00820937, -0.015822, 0.47101, -0.543385, 0.335896, -2.08384, -2.16584, -0.129884, 0.468875, -0.542856, 0.334131, -2.08286, -2.16312, -0.128133, 0.000415261, 0.00107442, 0.00055517, -0.0106857, -0.0069225, -0.00372371
0.0250151, 1.69114, -1.2276, -1.53956, -0.900274, -1.19244, 1.22795, -1.3026, -0.0149968, -0.00329256, -0.00364672, 0.0015564, 0.00113008, -0.00885345, -0.00259759, 0.360787, 63.6325, 31.9953, 7.1048, 2.87311, 4.07748, -0.238881, 0.000323483, -0.00205778, 0.00190192, 0.00260029, 0.00121711, 0.000965486, 0.00837398, 0.0113675, -0.00346939, -0.00813531, -0.00806811, -0.0159968, 0.47101, -0.543384, 0.335896, -2.08384, -2.16585, -0.129883, 0.468875, -0.542856, 0.334131, -2.08286, -2.16312, -0.128133, 0.000492895, 0.00127568, 0.000659086, -0.0106857, -0.0069225, -0.00372371
0.0260154, 1.69108, -1.22766, -1.5396, -0.900305, -1.19235, 1.22787, -1.30261, -0.00601857, -0.00420484, -0.0019253, 0.000218344, 0.004949, -0.00429699, -0.00145816, 0.285408, 64.0015, 32.0707, 7.29126, 2.7193, 4.1846, -0.199513, 0.000315429, -0.00209873, 0.00195521, 0.00266634, 0.00138462, 0.000983058, 0.00367242, 0.00453342, -0.00373485, -0.00309889, -0.00940605, -0.00516552, 0.471011, -0.543383, 0.335897, -2.08384, -2.16585, -0.129882, 0.468833, -0.542856, 0.334079, -2.08276, -2.16298, -0.128227, 0.000576942, 0.00149367, 0.000771622, -0.00395412, -0.00174251, -0.00334958
0.0270156, 1.69107, -1.22767, -1.5396, -0.900311, -1.19234, 1.22787, -1.30261, -0.00447707, -0.00767143, -0.00232155, -0.00394462, 0.00427904, -0.00397361, 0.00035306, 0.285408, 64.0768, 32.1064, 7.33093, 2.70099, 4.20657, -0.238881, 0.000313514, -0.00210162, 0.00196605, 0.00267834, 0.00140384, 0.000986851, 0.00257462, 0.00285839, -0.00662843, -0.00609168, -0.0115462, -0.00236363, 0.471011, -0.543381, 0.335898, -2.08384, -2.16585, -0.129881, 0.46883, -0.542855, 0.334069, -2.08274, -2.16296, -0.128232, 0.00066735, 0.00172827, 0.000892711, -0.00233456, 8.97653e-05, -0.00596578
0.0280156, 1.69107, -1.22767, -1.5396, -0.900311, -1.19233, 1.22786, -1.30261, -0.00333323, -0.0136667, -0.00566227, -0.00201668, 0.00579153, -0.00581769, -0.000847642, 0.285408, 63.819, 31.8842, 7.29126, 2.62775, 4.16995, -0.21233, 0.000312625, -0.00210259, 0.00196967, 0.00267719, 0.00141664, 0.000985828, 0.00366523, 0.00339833, -0.0113821, -0.00978556, -0.019414, -0.00292785, 0.471012, -0.543379, 0.335899, -2.08384, -2.16585, -0.129879, 0.46883, -0.542854, 0.334066, -2.08273, -2.16296, -0.128244, 0.000764066, 0.00197936, 0.00102229, -0.0029097, -2.62797e-05, -0.0106831
0.0290159, 1.69107, -1.22768, -1.53962, -0.900321, -1.19233, 1.22785, -1.30261, -0.00155552, -0.0128384, -0.0141881, -0.00469242, -0.000468875, -0.00631917, 0.00707909, 0.245735, 63.3032, 31.6224, 7.29126, 2.49866, 4.10586, -0.172963, 0.00031016, -0.0021052, 0.00198609, 0.00270304, 0.00143467, 0.000985295, 0.0052443, 0.00423017, -0.0145248, -0.0222016, -0.0126749, -0.0131999, 0.471013, -0.543377, 0.3359, -2.08384, -2.16585, -0.129878, 0.468827, -0.542852, 0.334051, -2.08271, -2.16294, -0.128232, 0.000867038, 0.00224682, 0.00116028, -0.00369449, -0.00086808, -0.0138682
0.0300159, 1.69108, -1.22769, -1.53964, -0.900327, -1.19233, 1.22784, -1.30261, 0.000530181, -0.0106221, -0.0164792, -0.00723369, 0.00083709, -0.00632035, 0.00495336, 0.170357, 62.4542, 31.1741, 7.18018, 2.32013, 4.02713, -0.160145, 0.000306812, -0.00210884, 0.00199821, 0.00273165, 0.00144153, 0.000989015, 0.00387517, 0.00290541, -0.0146016, -0.0250712, -0.0109055, -0.00774142, 0.471014, -0.543375, 0.335901, -2.08384, -2.16585, -0.129876, 0.468824, -0.542851, 0.334039, -2.08269, -2.16292, -0.128206, 0.000976211, 0.00253053, 0.00130664, -0.00231401, 0.000833291, -0.0136251
0.0310159, 1.69109, -1.22771, -1.53968, -0.900334, -1.19234, 1.22783, -1.30261, 0.0037329, -0.0111599, -0.0197513, -0.00943964, -0.000176324, -0.00756217, 0.00166362, 0.0196001, 61.756, 30.7654, 7.06909, 2.19104, 3.97677, -0.101552, 0.000301254, -0.00211221, 0.00202444, 0.00278324, 0.00145557, 0.000991228, 0.00291716, 0.00164752, -0.0167708, -0.0312094, -0.0105165, -0.00152036, 0.471015, -0.543372, 0.335903, -2.08383, -2.16585, -0.129874, 0.468821, -0.54285, 0.334014, -2.08266, -2.16289, -0.12816, 0.00109153, 0.00283037, 0.00146128, -0.00105502, 0.00246423, -0.0155017
0.0320159, 1.69109, -1.22771, -1.53971, -0.900336, -1.19235, 1.22781, -1.3026, 0.00414156, -0.00856269, -0.0220737, -0.00526457, -0.00340248, -0.0137429, 0.00296578, -0.0557783, 60.907, 30.206, 6.84296, 2.12421, 3.94839, -0.140919, 0.000294027, -0.00211876, 0.00204154, 0.00283118, 0.00145614, 0.00101223, 0.00453874, 0.00443211, -0.0161671, -0.0381222, -0.00832582, -0.00859379, 0.471016, -0.543369, 0.335904, -2.08383, -2.16585, -0.129871, 0.468816, -0.542851, 0.333998, -2.08265, -2.16285, -0.128103, 0.00121295, 0.00314621, 0.00162416, -0.00363482, 0.000972325, -0.0149105
0.0330159, 1.6911, -1.22774, -1.53976, -0.900345, -1.19236, 1.2278, -1.3026, 0.00662637, -0.0130104, -0.0299139, -0.00527529, -0.0063163, -0.0166713, 0.000580739, -0.0914839, 60.4309, 29.8728, 6.73187, 2.07477, 3.87607, -0.0951428, 0.000280843, -0.00212653, 0.00208233, 0.00290035, 0.00147713, 0.00102536, 0.00609588, 0.00533999, -0.0220698, -0.049793, -0.0110088, -0.00869482, 0.471017, -0.543366, 0.335906, -2.08383, -2.16586, -0.129869, 0.468808, -0.542855, 0.333957, -2.08262, -2.1628, -0.128044, 0.00134042, 0.00347794, 0.00179519, -0.0045715, 0.000638088, -0.0207821
0.0340159, 1.69111, -1.22777, -1.53981, -0.900356, -1.19238, 1.22779, -1.3026, 0.00774191, -0.01919, -0.0338517, -0.00838122, -0.00548759, -0.0131272, 0.000340124, -0.0914839, 60.0977, 29.4642, 6.62079, 2.07477, 3.76163, -0.0878186, 0.000267559, -0.00213391, 0.00212214, 0.00296499, 0.00149736, 0.00104009, 0.00664555, 0.00400479, -0.0274045, -0.0520922, -0.0152879, -0.00643242, 0.471019, -0.543362, 0.335908, -2.08383, -2.16586, -0.129866, 0.468801, -0.542859, 0.333918, -2.08258, -2.16275, -0.127989, 0.00147388, 0.00382545, 0.00197432, -0.00327757, 0.0013186, -0.0259961
0.0350159, 1.69111, -1.22781, -1.53986, -0.900369, -1.1924, 1.22779, -1.3026, 0.00380665, -0.0217093, -0.0358415, -0.0105903, -0.00931292, -0.00982155, 0.00137827, -0.0161054, 59.8041, 29.0159, 6.5097, 2.07477, 3.62521, -0.114369, 0.000251936, -0.00214194, 0.00216291, 0.00302827, 0.00151318, 0.00106011, 0.00986666, 0.00600223, -0.0295347, -0.0535541, -0.012578, -0.0119233, 0.47102, -0.543358, 0.33591, -2.08382, -2.16586, -0.129863, 0.468794, -0.542864, 0.333878, -2.08256, -2.1627, -0.127929, 0.00161328, 0.0041886, 0.00216148, -0.00509476, -0.00125218, -0.0283521
0.0360159, 1.69112, -1.22784, -1.53991, -0.900388, -1.19242, 1.22779, -1.3026, 0.00588873, -0.0246758, -0.0424824, -0.0140412, -0.0176203, -0.00399168, 0.00151969, -0.0161054, 59.693, 28.6429, 6.47003, 2.09949, 3.51077, -0.127186, 0.000238941, -0.00214448, 0.00220915, 0.00309767, 0.00152843, 0.00106544, 0.0122247, 0.00520804, -0.0338503, -0.0605519, -0.00478696, -0.0132293, 0.471022, -0.543354, 0.335912, -2.08382, -2.16586, -0.12986, 0.468792, -0.542866, 0.333833, -2.08252, -2.16266, -0.127864, 0.00175856, 0.00456728, 0.0023566, -0.00422784, -0.0025048, -0.0328082
0.0370159, 1.69112, -1.22787, -1.53997, -0.900403, -1.19245, 1.22779, -1.3026, 0.000882893, -0.0200678, -0.0477653, -0.0148128, -0.0227505, -0.00502528, 0.000870368, 0.134651, 59.4351, 28.4208, 6.35895, 2.09949, 3.42471, -0.120778, 0.000221082, -0.00215305, 0.00224683, 0.00316397, 0.00152766, 0.00108818, 0.0162034, 0.00979206, -0.0330946, -0.06784, 0.00401512, -0.0215284, 0.471024, -0.543349, 0.335915, -2.08382, -2.16586, -0.129856, 0.468784, -0.542873, 0.333795, -2.0825, -2.16262, -0.127784, 0.00190969, 0.00496137, 0.00255964, -0.00848521, -0.00634266, -0.0323381
0.0380159, 1.69115, -1.22789, -1.54002, -0.900415, -1.19247, 1.22779, -1.3026, 0.00811752, -0.0205803, -0.0471964, -0.0154198, -0.0202728, -0.00360292, 0.000651194, 0.0949785, 59.3597, 28.1589, 6.24786, 2.05646, 3.39633, -0.120778, 0.000211456, -0.00215196, 0.00228631, 0.00323345, 0.00153221, 0.00109208, 0.0128339, 0.00511392, -0.0336852, -0.0665939, 0.00271219, -0.0128737, 0.471026, -0.543344, 0.335917, -2.08381, -2.16587, -0.129852, 0.468786, -0.542871, 0.333757, -2.08246, -2.16258, -0.127707, 0.0020666, 0.00537076, 0.00277051, -0.00379814, -0.0023244, -0.0323285
0.0390159, 1.69116, -1.22792, -1.54007, -0.900429, -1.19249, 1.22779, -1.30259, 0.00985319, -0.0194555, -0.0485727, -0.0158652, -0.0234098, -0.00283733, 0.00690205, 0.21003, 59.3597, 27.9725, 6.13678, 2.01984, 3.38168, -0.166554, 0.000197808, -0.00215499, 0.00232178, 0.00329153, 0.00153322, 0.00111093, 0.0132598, 0.0046916, -0.0337545, -0.0691783, 0.00727023, -0.0191175, 0.471028, -0.543338, 0.33592, -2.08381, -2.16587, -0.129848, 0.468785, -0.542874, 0.333723, -2.08245, -2.16254, -0.127637, 0.00222924, 0.00579533, 0.00298915, -0.00320104, -0.00229245, -0.0322571
0.0400159, 1.69117, -1.22792, -1.54013, -0.900446, -1.19251, 1.22779, -1.30259, 0.0136958, -0.017468, -0.0495796, -0.0169773, -0.0253651, 0.00590519, 0.00455983, 0.360787, 59.324, 27.9368, 6.0614, 1.9704, 3.38168, -0.153737, 0.000185042, -0.00215812, 0.00235111, 0.00335579, 0.00151669, 0.00112102, 0.0130122, 0.00130053, -0.0326985, -0.06453, 0.015766, -0.0135593, 0.47103, -0.543332, 0.335923, -2.0838, -2.16587, -0.129843, 0.468783, -0.542876, 0.333695, -2.08243, -2.16252, -0.127544, 0.00239756, 0.00623496, 0.00321551, 0.000383197, -0.00163212, -0.0310519
0.0410159, 1.69119, -1.22793, -1.54018, -0.900463, -1.19254, 1.2278, -1.30259, 0.0149454, -0.0137574, -0.0468204, -0.0177598, -0.0221945, 0.00541999, 0.00336478, 0.586922, 59.324, 27.9011, 5.98602, 1.92096, 3.34598, -0.153737, 0.000173558, -0.00215839, 0.0023753, 0.00341108, 0.00149099, 0.00113051, 0.0111091, -7.91649e-05, -0.0299238, -0.0615181, 0.0168732, -0.00851833, 0.471033, -0.543326, 0.335927, -2.0838, -2.16588, -0.129838, 0.468785, -0.542877, 0.333673, -2.08242, -2.16251, -0.127451, 0.00257152, 0.00668953, 0.00344951, 0.00196713, 0.000330693, -0.0278243
0.0420159, 1.6912, -1.22793, -1.54023, -0.900487, -1.19256, 1.22781, -1.30259, 0.014438, -0.0104957, -0.0469599, -0.0200623, -0.0253418, 0.00400517, 0.00224949, 0.888436, 59.4351, 27.9725, 5.98602, 1.89075, 3.33865, -0.147328, 0.000162055, -0.00216059, 0.00239923, 0.00347209, 0.00146303, 0.00113583, 0.0113464, 0.000581167, -0.0286447, -0.065287, 0.0225193, -0.00747234, 0.471035, -0.543319, 0.33593, -2.08379, -2.16588, -0.129833, 0.468785, -0.542878, 0.333651, -2.0824, -2.1625, -0.127349, 0.00275106, 0.00715892, 0.0036911, 0.00154184, 0.000341874, -0.0263366
0.0430159, 1.69121, -1.22791, -1.54027, -0.900515, -1.19259, 1.22781, -1.30259, 0.0133504, -0.00513936, -0.0411062, -0.0225159, -0.0218267, 0.00194674, 0.000224347, 1.22962, 59.4351, 27.9368, 6.02173, 1.8349, 3.36062, -0.10796, 0.000156944, -0.00215882, 0.00240845, 0.00351914, 0.00142091, 0.00112503, 0.00898873, -0.000116343, -0.0240629, -0.0610784, 0.024096, -0.000900902, 0.471038, -0.543312, 0.335934, -2.08379, -2.16589, -0.129827, 0.468789, -0.542874, 0.333645, -2.08238, -2.16252, -0.12725, 0.00293613, 0.00764302, 0.00394021, 0.00250461, 0.00247694, -0.0212185
0.0440159, 1.69122, -1.2279, -1.5403, -0.90055, -1.19262, 1.22782, -1.30259, 0.0142374, 0.00123407, -0.0409195, -0.0260377, -0.0259639, -0.000736671, 0.000523985, 1.64619, 59.5819, 28.0875, 6.13678, 1.82941, 3.41739, -0.114369, 0.000152286, -0.00215579, 0.00242431, 0.0035792, 0.00137941, 0.0011169, 0.00798424, -0.000157101, -0.021203, -0.0666753, 0.0331778, 0.000914689, 0.471041, -0.543304, 0.335938, -2.08378, -2.16589, -0.129821, 0.468795, -0.542869, 0.333633, -2.08235, -2.16253, -0.127136, 0.00312667, 0.00814172, 0.00419678, 0.0028032, 0.00352881, -0.0179833
0.0450159, 1.69123, -1.22788, -1.54034, -0.900578, -1.19265, 1.22781, -1.30259, 0.0130014, 0.00500625, -0.0419725, -0.0277922, -0.0296095, -0.0038989, -2.2598e-05, 2.17384, 59.6573, 28.3097, 6.09711, 1.84131, 3.51077, -0.101552, 0.000140992, -0.00216343, 0.00243442, 0.00364232, 0.00133339, 0.00112386, 0.00881223, 0.00159884, -0.0200013, -0.0725961, 0.0388939, -0.000461998, 0.471044, -0.543295, 0.335942, -2.08378, -2.16589, -0.129815, 0.468791, -0.54287, 0.333626, -2.08235, -2.16253, -0.127012, 0.00332265, 0.00865489, 0.00446074, 0.00131854, 0.00296764, -0.0166082
0.0460159, 1.69124, -1.22787, -1.54038, -0.90061, -1.19269, 1.22781, -1.30259, 0.0116011, 0.00832217, -0.0417748, -0.0301023, -0.0281105, -0.00574851, -0.000683953, 2.58643, 59.8398, 28.6429, 6.09711, 1.86603, 3.59683, -0.0814099, 0.000133651, -0.0021627, 0.00244748, 0.00370217, 0.00128556, 0.00111558, 0.00846565, 0.00227869, -0.0185844, -0.0741658, 0.0405646, 0.000919636, 0.471048, -0.543286, 0.335947, -2.08377, -2.1659, -0.129808, 0.468795, -0.542866, 0.333616, -2.08232, -2.16255, -0.126891, 0.003524, 0.00918243, 0.00473204, 0.000879684, 0.00359139, -0.0148636
0.0470159, 1.69125, -1.22785, -1.5404, -0.900638, -1.19273, 1.22781, -1.30259, 0.00914677, 0.0108518, -0.0364878, -0.0263285, -0.0327644, -0.00617732, -0.00185621, 3.07838, 60.0223, 28.9048, 5.98602, 1.92737, 3.66092, -0.0420422, 0.000125924, -0.00216347, 0.00245331, 0.00374846, 0.00123611, 0.0011062, 0.0107868, 0.00443422, -0.0148069, -0.0699374, 0.0463117, -0.0031649, 0.471051, -0.543277, 0.335952, -2.08376, -2.1659, -0.129801, 0.468797, -0.542864, 0.333614, -2.08231, -2.16258, -0.126784, 0.00373068, 0.00972421, 0.00501061, -0.000846705, 0.00117193, -0.01115
0.0480159, 1.69126, -1.22784, -1.54042, -0.900665, -1.19277, 1.22781, -1.30259, 0.00841035, 0.00776864, -0.0340053, -0.0257857, -0.0313782, -0.00569045, -0.000956746, 3.53065, 60.4309, 29.238, 5.83527, 1.98871, 3.70395, -0.0484509, 0.000116121, -0.00216496, 0.00246426, 0.0037991, 0.00119169, 0.00110376, 0.011408, 0.0044551, -0.0157865, -0.066828, 0.0425039, -0.00402679, 0.471055, -0.543267, 0.335957, -2.08375, -2.16591, -0.129793, 0.4688, -0.542862, 0.333607, -2.08229, -2.16259, -0.126675, 0.00394263, 0.0102801, 0.00529638, -0.00066878, 0.00126442, -0.0119273
0.0490159, 1.69128, -1.22783, -1.54045, -0.900695, -1.19281, 1.22781, -1.30259, 0.0117782, 0.00526529, -0.0319719, -0.0258111, -0.0389483, -0.00134976, -0.000605305, 3.94721, 60.8713, 29.5752, 5.68848, 2.03815, 3.7543, -0.0484509, 0.000108557, -0.00216339, 0.00247521, 0.00384944, 0.0011461, 0.00109377, 0.012269, 0.00244527, -0.0165464, -0.0658049, 0.0487354, -0.00302344, 0.471059, -0.543256, 0.335962, -2.08375, -2.16592, -0.129785, 0.468805, -0.542857, 0.3336, -2.08227, -2.16261, -0.126566, 0.00415982, 0.0108501, 0.00558931, 0.00155899, 0.00118357, -0.0125789
0.0500159, 1.69129, -1.22781, -1.54047, -0.900715, -1.19286, 1.2278, -1.30259, 0.0128726, 0.00548222, -0.0319334, -0.0222589, -0.0406537, -0.00320881, 0.000604201, 4.2884, 61.2402, 29.9839, 5.38696, 2.09949, 3.82663, -0.0750012, 9.92564e-05, -0.00216387, 0.00248309, 0.00390225, 0.00109639, 0.00109402, 0.0135668, 0.00339136, -0.0163453, -0.0669045, 0.0495597, -0.00731995, 0.471064, -0.543245, 0.335968, -2.08374, -2.16592, -0.129777, 0.468809, -0.542854, 0.333597, -2.08226, -2.16263, -0.126449, 0.00438218, 0.0114339, 0.00588931, 0.000890261, 0.000416309, -0.0122532
0.0510159, 1.69132, -1.22781, -1.54049, -0.900738, -1.1929, 1.22779, -1.30259, 0.0159071, 0.00409356, -0.025875, -0.0211103, -0.0450052, -0.00555787, 0.000895814, 4.51453, 61.7917, 30.2814, 5.12909, 2.12421, 3.92642, -0.0878186, 9.32957e-05, -0.00215954, 0.00249576, 0.00395255, 0.00105803, 0.00108447, 0.0126789, 0.00201174, -0.0154366, -0.0659816, 0.0506035, -0.00465065, 0.471068, -0.543234, 0.335974, -2.08373, -2.16593, -0.129768, 0.468818, -0.542846, 0.33359, -2.08223, -2.16265, -0.126346, 0.00460967, 0.0120315, 0.00619634, 0.00249663, 0.00180717, -0.0109527
0.0520159, 1.69134, -1.2278, -1.54051, -0.900759, -1.19295, 1.22778, -1.30259, 0.0140279, 0.00452969, -0.0254704, -0.0203193, -0.0483392, -0.00343376, 0.000136213, 4.77637, 62.3074, 30.6186, 4.86725, 2.14801, 4.04086, -0.0750012, 8.47396e-05, -0.00215849, 0.00250778, 0.00400927, 0.00101506, 0.00107647, 0.0151472, 0.00341494, -0.0148662, -0.0648994, 0.0550881, -0.00788969, 0.471073, -0.543221, 0.335981, -2.08372, -2.16594, -0.129759, 0.468823, -0.54284, 0.333583, -2.08221, -2.16266, -0.126231, 0.00484224, 0.0126428, 0.00651033, 0.00143694, -0.000163685, -0.010416
0.0530159, 1.69136, -1.22779, -1.54053, -0.900775, -1.193, 1.22777, -1.30258, 0.0157299, 0.00695153, -0.0250248, -0.0166963, -0.0505061, -0.00577585, 0.00155916, 5.04218, 62.7478, 30.9519, 4.60541, 2.16083, 4.14889, -0.114369, 7.32469e-05, -0.0021604, 0.0025167, 0.0040645, 0.000966994, 0.00108135, 0.0159913, 0.00416022, -0.0133035, -0.0661712, 0.0582644, -0.0118982, 0.471078, -0.543208, 0.335987, -2.08371, -2.16594, -0.129749, 0.468826, -0.542837, 0.333579, -2.0822, -2.16267, -0.126111, 0.00507984, 0.0132677, 0.00683122, 0.00101706, -0.000643271, -0.00866051
0.0540159, 1.69138, -1.22778, -1.54055, -0.900795, -1.19305, 1.22776, -1.30258, 0.0134968, 0.00796875, -0.022067, -0.0166503, -0.0515066, -0.00638081, 0.000572442, 5.30799, 63.2278, 31.1741, 4.45465, 2.15442, 4.22763, -0.101552, 6.30958e-05, -0.00215956, 0.00252605, 0.00411559, 0.000918906, 0.00107369, 0.0170939, 0.00540173, -0.0118195, -0.0644006, 0.0599739, -0.0126351, 0.471083, -0.543195, 0.335994, -2.0837, -2.16595, -0.129738, 0.468832, -0.542832, 0.333575, -2.08218, -2.16269, -0.125996, 0.00532241, 0.013906, 0.00715894, 0.000113035, -0.00137289, -0.0070009
0.0550159, 1.69141, -1.22777, -1.54057, -0.900815, -1.1931, 1.22775, -1.30258, 0.0138777, 0.00584639, -0.0201412, -0.0142694, -0.0532924, -0.00688058, 0.000150058, 5.49445, 63.7079, 31.4002, 4.34357, 2.17273, 4.30636, -0.0951428, 4.96814e-05, -0.0021606, 0.00253805, 0.00417257, 0.000867191, 0.00107171, 0.0184157, 0.00589771, -0.012355, -0.063374, 0.0592076, -0.0141088, 0.471088, -0.54318, 0.336002, -2.08369, -2.16596, -0.129728, 0.468837, -0.54283, 0.333568, -2.08216, -2.16271, -0.12587, 0.00556992, 0.0145576, 0.00749345, -0.000106697, -0.00196421, -0.00738515
0.0560159, 1.69143, -1.22775, -1.54059, -0.900844, -1.19316, 1.22774, -1.30258, 0.0168394, 0.0085533, -0.022256, -0.0206619, -0.0593691, -0.00701485, -0.000166887, 5.68488, 64.0015, 31.7731, 4.45465, 2.19104, 4.37778, -0.0878186, 3.76228e-05, -0.00216121, 0.00254801, 0.00423939, 0.000802286, 0.00106852, 0.0172845, 0.00421028, -0.0128083, -0.0717319, 0.0680663, -0.00893828, 0.471094, -0.543166, 0.336009, -2.08368, -2.16597, -0.129716, 0.468842, -0.542825, 0.333564, -2.08214, -2.16273, -0.125719, 0.00582231, 0.0152225, 0.00783467, 0.00177399, -4.36233e-05, -0.00736691
0.0570159, 1.69145, -1.22773, -1.54061, -0.90087, -1.19322, 1.22773, -1.30258, 0.0199752, 0.0102792, -0.0191851, -0.0216724, -0.0592375, -0.00746381, -0.00058272, 5.83564, 64.295, 31.9556, 4.56573, 2.20935, 4.45743, -0.0750012, 2.79754e-05, -0.00216002, 0.00255319, 0.00429743, 0.000739215, 0.00105784, 0.0154384, 0.00205409, -0.0112968, -0.0704923, 0.0699192, -0.00363434, 0.4711, -0.54315, 0.336017, -2.08367, -2.16597, -0.129705, 0.468849, -0.542818, 0.333566, -2.08212, -2.16277, -0.12558, 0.00607953, 0.0159004, 0.00818254, 0.00417313, 0.00231278, -0.00530524
0.0580159, 1.69147, -1.22771, -1.54063, -0.900895, -1.19329, 1.22772, -1.30258, 0.0188624, 0.0142055, -0.0189741, -0.0190371, -0.0642583, -0.00668483, -0.000148679, 5.9864, 64.5926, 32.2175, 4.68079, 2.24048, 4.50686, -0.0814099, 1.38743e-05, -0.00216068, 0.00256043, 0.00435518, 0.000671649, 0.00105532, 0.0181065, 0.00400407, -0.00867254, -0.0705187, 0.0785297, -0.00971811, 0.471106, -0.543134, 0.336026, -2.08366, -2.16598, -0.129692, 0.468855, -0.542815, 0.333565, -2.08211, -2.16279, -0.125436, 0.00634154, 0.0165914, 0.00853701, 0.0026786, -0.000114242, -0.00271442
0.0590159, 1.6915, -1.22769, -1.54064, -0.900922, -1.19336, 1.22772, -1.30258, 0.0197744, 0.0160799, -0.0170555, -0.0215942, -0.0632892, -0.00622994, -0.00131799, 6.06178, 64.8108, 32.4039, 4.86725, 2.27161, 4.55722, -0.0484509, 7.34889e-07, -0.00215946, 0.00256654, 0.00441237, 0.000599414, 0.00104379, 0.0169693, 0.00270759, -0.00751077, -0.0694972, 0.0804448, -0.00479901, 0.471113, -0.543117, 0.336034, -2.08364, -2.16599, -0.129679, 0.468863, -0.54281, 0.333565, -2.08209, -2.16283, -0.125287, 0.00660828, 0.0172953, 0.00889802, 0.0042415, 0.00158679, -0.00106895
0.0600159, 1.69151, -1.22768, -1.54066, -0.900945, -1.19342, 1.22771, -1.30258, 0.0179271, 0.0124655, -0.0157653, -0.0222761, -0.0622299, -0.00594958, -0.00111465, 6.24824, 65.1083, 32.5904, 5.01404, 2.29541, 4.60757, -0.0420422, -2.01168e-05, -0.00216533, 0.00257746, 0.00446697, 0.000536711, 0.00105276, 0.0182289, 0.00341762, -0.00941267, -0.0682814, 0.0765296, -0.00579356, 0.471119, -0.543099, 0.336043, -2.08363, -2.166, -0.129666, 0.468864, -0.542811, 0.333561, -2.08209, -2.16285, -0.125149, 0.00687971, 0.0180119, 0.00926549, 0.00378025, 0.00132324, -0.0027533
0.0610159, 1.69154, -1.22765, -1.54068, -0.900969, -1.19349, 1.22771, -1.30258, 0.0198011, 0.0185629, -0.0148968, -0.0187973, -0.0644153, -0.00418614, -0.000504708, 6.28791, 65.144, 32.7768, 5.12909, 2.28351, 4.6149, -0.0484509, -3.35743e-05, -0.00216367, 0.00257792, 0.00451861, 0.000456613, 0.00104449, 0.0190663, 0.00331689, -0.00524775, -0.0654527, 0.0854755, -0.00865261, 0.471126, -0.543081, 0.336053, -2.08362, -2.16601, -0.129652, 0.468873, -0.542806, 0.333568, -2.08208, -2.16289, -0.124998, 0.00715578, 0.0187412, 0.00963939, 0.0043381, 0.000589163, 0.00160031
0.0620159, 1.69157, -1.22765, -1.54069, -0.900995, -1.19356, 1.22771, -1.30258, 0.0242438, 0.0188021, -0.0165453, -0.0263267, -0.0713574, -0.0022096, -0.000335699, 6.32362, 65.4733, 32.9236, 5.27588, 2.27161, 4.60025, -0.0484509, -5.01926e-05, -0.0021593, 0.00259193, 0.0045674, 0.000391893, 0.00103709, 0.0175464, 0.000158375, -0.00706414, -0.0729771, 0.0938021, -0.0015877, 0.471134, -0.543062, 0.336063, -2.0836, -2.16602, -0.129638, 0.468885, -0.542801, 0.333561, -2.08207, -2.16293, -0.124864, 0.00743644, 0.0194831, 0.0100196, 0.00765282, 0.00324072, 0.000327261
0.0630159, 1.6916, -1.22763, -1.5407, -0.901015, -1.19364, 1.22771, -1.30258, 0.021953, 0.0185684, -0.013071, -0.0262591, -0.0718504, -0.00117282, 0.000522765, 6.32362, 65.5844, 32.999, 5.31555, 2.25879, 4.59292, -0.0685925, -6.68319e-05, -0.00215595, 0.00259693, 0.00461092, 0.000315632, 0.00103301, 0.0188826, 0.00101042, -0.00602467, -0.0692237, 0.0947084, -0.00389757, 0.471141, -0.543042, 0.336073, -2.08359, -2.16603, -0.129623, 0.468896, -0.542797, 0.333563, -2.08207, -2.16297, -0.124724, 0.00772164, 0.0202374, 0.0104062, 0.00717296, 0.00248093, 0.00155881
0.0640159, 1.69163, -1.22762, -1.54071, -0.901034, -1.19372, 1.22771, -1.30258, 0.0261469, 0.0172412, -0.0115206, -0.0222664, -0.0729703, -0.000760152, 0.000111586, 6.32362, 65.7312, 33.1101, 5.31555, 2.2652, 4.59292, -0.0621838, -8.64235e-05, -0.00215325, 0.00260729, 0.00466371, 0.000238093, 0.00102917, 0.0190794, -0.00039095, -0.00616339, -0.0672276, 0.0947265, -0.00309591, 0.471149, -0.543021, 0.336083, -2.08357, -2.16604, -0.129607, 0.468907, -0.542794, 0.333561, -2.08206, -2.16301, -0.124572, 0.00801134, 0.0210041, 0.0107989, 0.0088644, 0.00313226, 0.00174175
0.0650159, 1.69167, -1.22763, -1.54073, -0.901055, -1.1938, 1.22771, -1.30258, 0.0279115, 0.010674, -0.0137048, -0.0216876, -0.0773195, -0.000253111, 0.0047707, 6.24824, 65.9891, 33.2212, 5.27588, 2.24689, 4.58652, -0.0621838, -0.000105945, -0.00214918, 0.00262779, 0.00471984, 0.000179924, 0.00102146, 0.0212653, -0.000272964, -0.0110466, -0.0716092, 0.092695, -0.00955271, 0.471157, -0.543, 0.336094, -2.08356, -2.16606, -0.129591, 0.468919, -0.542789, 0.333548, -2.08203, -2.16304, -0.124435, 0.00830549, 0.021783, 0.0111979, 0.00894231, 0.00249931, -0.00301651
0.0660159, 1.6917, -1.22763, -1.54073, -0.901079, -1.19389, 1.22772, -1.30258, 0.0294023, 0.00486909, -0.00785565, -0.0254939, -0.082375, 0.00011475, 0.00404676, 6.28791, 66.1755, 33.1498, 5.27588, 2.2652, 4.57919, -0.0750012, -0.000126569, -0.00214432, 0.00264454, 0.00476805, 0.000110833, 0.00101284, 0.0206728, -0.00227846, -0.0132453, -0.0713925, 0.091789, -0.0034578, 0.471166, -0.542978, 0.336106, -2.08354, -2.16607, -0.129574, 0.468933, -0.542784, 0.33354, -2.08202, -2.16308, -0.124296, 0.00860403, 0.0225739, 0.011603, 0.0111427, 0.00429591, -0.00475135
0.0670159, 1.69174, -1.22764, -1.54074, -0.901097, -1.19398, 1.22772, -1.30257, 0.0324234, 0.00139846, -0.00869225, -0.0227753, -0.0852302, 0.0014081, 0.0049243, 6.24824, 66.3223, 33.1498, 5.16479, 2.2652, 4.54349, -0.127186, -0.000149036, -0.0021383, 0.00266546, 0.0048193, 4.40237e-05, 0.00101187, 0.0221796, -0.00287391, -0.0155405, -0.072144, 0.0917835, -0.00569845, 0.471175, -0.542955, 0.336118, -2.08352, -2.16608, -0.129557, 0.468948, -0.54278, 0.333527, -2.08201, -2.16311, -0.124154, 0.00890693, 0.0233769, 0.0120141, 0.0120113, 0.00398882, -0.00685824
0.0680159, 1.69178, -1.22765, -1.54075, -0.901114, -1.19407, 1.22772, -1.30257, 0.0369697, -0.000476597, -0.00850383, -0.0199556, -0.0889027, 0.00281057, 0.00374049, 6.24824, 66.4334, 33.1101, 5.01404, 2.30182, 4.49313, -0.133595, -0.000171197, -0.00213136, 0.00268564, 0.00486893, -2.35153e-05, 0.00100655, 0.0228644, -0.00437888, -0.0165947, -0.0723442, 0.0940698, -0.00428229, 0.471184, -0.542931, 0.33613, -2.0835, -2.16609, -0.129539, 0.468964, -0.542775, 0.333516, -2.08199, -2.16315, -0.124013, 0.00921413, 0.0241918, 0.0124312, 0.013808, 0.00435171, -0.00763385
0.0690159, 1.69182, -1.22764, -1.54076, -0.901147, -1.19417, 1.22773, -1.30257, 0.0361103, 0.0013007, -0.0103913, -0.0258117, -0.0899437, 0.00374383, 0.00265886, 6.28791, 66.2866, 33.1498, 5.05371, 2.30182, 4.44278, -0.133595, -0.000191108, -0.00212341, 0.00270228, 0.00492549, -0.000106659, 0.000991024, 0.0229105, -0.00455911, -0.0172042, -0.0765178, 0.0983313, -0.000905984, 0.471193, -0.542906, 0.336143, -2.08349, -2.16611, -0.12952, 0.468981, -0.542767, 0.333509, -2.08197, -2.16321, -0.123849, 0.0095256, 0.0250185, 0.0128543, 0.0142791, 0.00523402, -0.00782519
0.0700159, 1.69186, -1.22765, -1.54077, -0.901176, -1.19427, 1.22773, -1.30256, 0.0378942, -0.00315862, -0.0108283, -0.0312311, -0.0915286, 0.00463599, 0.00240509, 6.36329, 66.358, 33.1498, 5.01404, 2.32654, 4.3851, -0.147328, -0.000214305, -0.00211676, 0.00272482, 0.00498501, -0.000182498, 0.000980205, 0.0223073, -0.00642201, -0.0210513, -0.0804417, 0.0967704, 0.00450017, 0.471203, -0.542881, 0.336156, -2.08347, -2.16612, -0.129501, 0.468997, -0.542761, 0.333496, -2.08195, -2.16325, -0.123688, 0.00984127, 0.0258569, 0.0132832, 0.0162937, 0.00733635, -0.0111578
0.0710159, 1.69191, -1.22765, -1.54076, -0.901197, -1.19437, 1.22775, -1.30256, 0.0421172, -0.00117114, -0.00274272, -0.0295599, -0.0921454, 0.00628095, 0.00145896, 6.32362, 66.3223, 32.9236, 4.86725, 2.32654, 4.29904, -0.140919, -0.000234681, -0.0021026, 0.00273664, 0.00502032, -0.000273504, 0.00096177, 0.0202544, -0.00970539, -0.0171717, -0.0722812, 0.100131, 0.0110751, 0.471213, -0.542854, 0.336169, -2.08345, -2.16613, -0.129481, 0.469022, -0.542752, 0.333494, -2.08194, -2.16332, -0.123539, 0.0101611, 0.0267069, 0.013718, 0.0199597, 0.00975181, -0.00667354
0.0720159, 1.69196, -1.22764, -1.54078, -0.901224, -1.19448, 1.22776, -1.30256, 0.0445657, 0.00189224, -0.00243866, -0.0302855, -0.0978791, 0.0157765, 0.00423362, 6.43867, 66.2112, 32.9236, 4.79187, 2.33844, 4.2203, -0.101552, -0.000259266, -0.0020949, 0.00275178, 0.00507476, -0.000368714, 0.000950599, 0.021636, -0.011988, -0.0149731, -0.0672656, 0.113307, 0.00880966, 0.471223, -0.542827, 0.336183, -2.08343, -2.16615, -0.129461, 0.46904, -0.542747, 0.333489, -2.08192, -2.16338, -0.123363, 0.0104851, 0.0275683, 0.0141585, 0.0226932, 0.00900535, -0.00434555
0.0730159, 1.69201, -1.22764, -1.54078, -0.901245, -1.19459, 1.22777, -1.30256, 0.0455143, 0.00215262, 0.000515045, -0.0290187, -0.102249, 0.0136155, 0.00326213, 6.47437, 66.1755, 32.8126, 4.64111, 2.36316, 4.15622, -0.101552, -0.000282091, -0.002084, 0.00276454, 0.00512308, -0.000464223, 0.000938992, 0.022511, -0.011517, -0.0141485, -0.0684881, 0.11641, 0.00882273, 0.471234, -0.542799, 0.336197, -2.08341, -2.16616, -0.12944, 0.469062, -0.542739, 0.333487, -2.08191, -2.16345, -0.123192, 0.0108131, 0.0284411, 0.0146048, 0.0226126, 0.00886821, -0.00320649
0.0740159, 1.69207, -1.22764, -1.54079, -0.90127, -1.19469, 1.22778, -1.30255, 0.0477574, -0.00484647, -0.000927883, -0.0260944, -0.099462, 0.0117564, 0.00250454, 6.43867, 66.2112, 32.8522, 4.53003, 2.34485, 4.09854, -0.101552, -0.000302566, -0.00206812, 0.00278611, 0.00517973, -0.000550528, 0.000915865, 0.0235164, -0.0116142, -0.0189703, -0.069989, 0.106753, 0.00886824, 0.471245, -0.54277, 0.336212, -2.08339, -2.16618, -0.129418, 0.469089, -0.542726, 0.333477, -2.08188, -2.16351, -0.123023, 0.0111452, 0.0293251, 0.0150567, 0.0229026, 0.00950516, -0.0076747
0.0750159, 1.69212, -1.22763, -1.54079, -0.901294, -1.1948, 1.22779, -1.30256, 0.0507722, -0.00105843, -0.00310725, -0.0278293, -0.103356, 0.0106185, 0.00167967, 6.47437, 66.1002, 32.8126, 4.45465, 2.35675, 4.03445, -0.0951428, -0.000325277, -0.00205493, 0.00279919, 0.00522934, -0.000651559, 0.000895413, 0.0233595, -0.0122335, -0.018334, -0.0760466, 0.114163, 0.0110122, 0.471256, -0.542741, 0.336228, -2.08336, -2.16619, -0.129396, 0.469113, -0.542716, 0.333476, -2.08186, -2.16359, -0.122845, 0.0114812, 0.0302203, 0.0155142, 0.0238747, 0.010483, -0.00658334
0.0760159, 1.69218, -1.22762, -1.54079, -0.901311, -1.19491, 1.2278, -1.30255, 0.0539764, 0.00157341, 7.06224e-05, -0.0242729, -0.105878, 0.00874089, 0.00103402, 6.47437, 65.9891, 32.7015, 4.30786, 2.35675, 3.99783, -0.0878186, -0.00034883, -0.00204151, 0.00281081, 0.00527601, -0.000752474, 0.000879874, 0.0233449, -0.0127615, -0.0158242, -0.0750419, 0.118137, 0.0115711, 0.471268, -0.54271, 0.336243, -2.08334, -2.16621, -0.129373, 0.469139, -0.542707, 0.333476, -2.08185, -2.16366, -0.122669, 0.0118212, 0.0311266, 0.0159772, 0.0248331, 0.0110398, -0.00365592
0.0770159, 1.69225, -1.22762, -1.5408, -0.901329, -1.19503, 1.2278, -1.30255, 0.0570532, 0.00804542, 0.00146807, -0.0225234, -0.107485, 0.00656503, 0.00157446, 6.43867, 65.9177, 32.6261, 4.19281, 2.35675, 3.9841, -0.10796, -0.000371066, -0.0020259, 0.00282543, 0.00532754, -0.000850684, 0.0008633, 0.0226638, -0.0132809, -0.0119617, -0.0759447, 0.125319, 0.011765, 0.47128, -0.542678, 0.33626, -2.08332, -2.16623, -0.129349, 0.469167, -0.542694, 0.333474, -2.08183, -2.16373, -0.122491, 0.012165, 0.0320437, 0.0164457, 0.0258119, 0.0120572, 0.000716359
0.0780159, 1.69231, -1.22762, -1.5408, -0.901347, -1.19514, 1.22781, -1.30255, 0.0577705, 0.00564774, 0.000722022, -0.0222367, -0.108462, 0.00857311, 0.000916627, 6.47437, 65.9177, 32.6261, 4.1214, 2.35126, 3.99142, -0.101552, -0.000397599, -0.00201338, 0.00284403, 0.00538153, -0.000946602, 0.000847087, 0.024186, -0.0134179, -0.0137929, -0.0758728, 0.125409, 0.0114694, 0.471292, -0.542646, 0.336276, -2.08329, -2.16625, -0.129324, 0.469192, -0.542685, 0.333468, -2.08181, -2.1638, -0.122311, 0.0125127, 0.0329717, 0.0169196, 0.0262849, 0.0117697, -0.000858113
0.0790159, 1.69238, -1.22761, -1.5408, -0.90136, -1.19526, 1.22782, -1.30254, 0.0591061, 0.00490627, 0.000288831, -0.0207564, -0.109759, 0.00569366, 0.00140142, 6.47437, 65.878, 32.6261, 4.00635, 2.35675, 4.00516, -0.120778, -0.00042416, -0.00199955, 0.00286043, 0.0054313, -0.00104421, 0.00083308, 0.025135, -0.0127246, -0.0148355, -0.0793179, 0.1249, 0.009588, 0.471305, -0.542612, 0.336293, -2.08327, -2.16626, -0.129299, 0.469219, -0.542674, 0.333464, -2.0818, -2.16387, -0.122133, 0.0128642, 0.0339105, 0.0173989, 0.0259406, 0.0119032, -0.00153438
0.0800159, 1.69244, -1.22762, -1.5408, -0.901377, -1.19538, 1.22783, -1.30254, 0.0578152, 0.00166743, 0.0017186, -0.0193526, -0.112108, 0.00882593, 0.00173896, 6.43867, 65.9534, 32.5547, 4.00635, 2.39429, 3.99783, -0.140919, -0.000450255, -0.00198165, 0.00288041, 0.00547724, -0.00114172, 0.000814268, 0.0279162, -0.0119283, -0.0160391, -0.0762431, 0.125546, 0.00592343, 0.471318, -0.542578, 0.336311, -2.08324, -2.16628, -0.129273, 0.46925, -0.542662, 0.333457, -2.08178, -2.16394, -0.121959, 0.0132194, 0.0348598, 0.0178835, 0.0255575, 0.010259, -0.00264511
0.0810159, 1.69251, -1.22762, -1.5408, -0.901382, -1.19551, 1.22785, -1.30254, 0.059228, 0.0020667, 0.000202226, -0.0154172, -0.117806, 0.0108105, 0.00514877, 6.43867, 65.9177, 32.5904, 3.89526, 2.41809, 3.99783, -0.120778, -0.00048203, -0.00196886, 0.00289525, 0.00551756, -0.00124539, 0.000807515, 0.0310765, -0.0109051, -0.016038, -0.0772171, 0.132063, -0.00297882, 0.471331, -0.542543, 0.336329, -2.08322, -2.1663, -0.129247, 0.469276, -0.542655, 0.333456, -2.08177, -2.16401, -0.121784, 0.0135784, 0.0358197, 0.0183733, 0.0250094, 0.00805647, -0.00261289
0.0820159, 1.69258, -1.22762, -1.54081, -0.901395, -1.19563, 1.22786, -1.30253, 0.0641374, 0.00063248, -0.00170964, -0.0161025, -0.122069, 0.0125883, 0.00885386, 6.39899, 65.9534, 32.6658, 3.93494, 2.44281, 3.99142, -0.127186, -0.000511986, -0.00195237, 0.00291602, 0.00556644, -0.00134848, 0.0007947, 0.0312738, -0.01296, -0.0181016, -0.0809351, 0.136033, -0.00435539, 0.471345, -0.542506, 0.336348, -2.08319, -2.16632, -0.12922, 0.469307, -0.542645, 0.333449, -2.08176, -2.16409, -0.121599, 0.013941, 0.03679, 0.0188684, 0.0273563, 0.00923444, -0.0042487
0.0830159, 1.69266, -1.22763, -1.54081, -0.901406, -1.19575, 1.22787, -1.30253, 0.0674686, -0.00210938, -0.00287111, -0.013995, -0.120115, 0.0134375, 0.00760056, 6.36329, 66.0645, 32.7372, 4.00635, 2.46112, 3.99783, -0.153737, -0.000543548, -0.00193638, 0.00294127, 0.00561404, -0.00144083, 0.0007823, 0.0316481, -0.0141887, -0.0202889, -0.080459, 0.132793, -0.0023235, 0.471359, -0.542469, 0.336367, -2.08316, -2.16634, -0.129192, 0.469337, -0.542634, 0.333437, -2.08174, -2.16415, -0.121426, 0.0143072, 0.0377706, 0.0193685, 0.0288835, 0.0102327, -0.00600381
0.0840159, 1.69273, -1.22763, -1.54082, -0.901413, -1.19588, 1.22789, -1.30252, 0.0720794, -0.000520467, -0.003723, -0.0114502, -0.127658, 0.013782, 0.00560302, 6.24824, 66.0287, 32.8126, 4.04602, 2.48035, 4.01248, -0.153737, -0.000573778, -0.00191921, 0.00295948, 0.00566185, -0.00154598, 0.000768621, 0.0329556, -0.0148468, -0.0198642, -0.0842015, 0.141388, -0.0017909, 0.471373, -0.542431, 0.336386, -2.08313, -2.16636, -0.129163, 0.469369, -0.542622, 0.333434, -2.08173, -2.16423, -0.121239, 0.014677, 0.0387614, 0.0198738, 0.0299738, 0.00989485, -0.00530189
0.0850159, 1.69281, -1.22762, -1.54082, -0.901422, -1.196, 1.2279, -1.30252, 0.0743627, 0.00145419, -0.00251626, -0.0111261, -0.124099, 0.0127919, 0.00366262, 6.17286, 65.9534, 32.8126, 4.1571, 2.49225, 4.06283, -0.140919, -0.000603404, -0.00190185, 0.00297531, 0.00570223, -0.00164881, 0.00075069, 0.0318495, -0.0160547, -0.0187998, -0.0827969, 0.140603, 0.0030112, 0.471388, -0.542392, 0.336407, -2.0831, -2.16638, -0.129134, 0.469402, -0.542609, 0.333433, -2.08171, -2.16431, -0.121062, 0.0150503, 0.0397623, 0.0203841, 0.0315525, 0.0118745, -0.00360606
0.0860159, 1.6929, -1.22762, -1.54082, -0.901431, -1.19612, 1.22791, -1.30251, 0.0787056, 0.000997901, -0.00346644, -0.0116145, -0.12167, 0.0124658, 0.00247197, 5.9864, 65.9534, 32.8879, 4.30786, 2.50415, 4.10586, -0.133595, -0.000632065, -0.00188043, 0.00299524, 0.00574895, -0.00175366, 0.000728662, 0.0305647, -0.0182533, -0.0200941, -0.084139, 0.138939, 0.00844145, 0.471403, -0.542351, 0.336427, -2.08308, -2.1664, -0.129103, 0.469439, -0.542593, 0.333429, -2.08169, -2.1644, -0.120876, 0.0154271, 0.0407732, 0.0208993, 0.0340312, 0.0144443, -0.00423699
0.0870159, 1.69297, -1.22762, -1.54082, -0.901435, -1.19625, 1.22792, -1.30251, 0.0790007, 0.00152182, -0.00149502, -0.00991637, -0.122727, 0.0112365, 0.00139938, 5.91102, 65.9177, 32.8522, 4.37927, 2.49866, 4.17727, -0.120778, -0.000664604, -0.00186442, 0.00301283, 0.00579171, -0.00185534, 0.000714686, 0.0316328, -0.0176282, -0.0193411, -0.0835935, 0.14015, 0.00804565, 0.471419, -0.54231, 0.336448, -2.08304, -2.16642, -0.129072, 0.469471, -0.542581, 0.333427, -2.08167, -2.16447, -0.120696, 0.0158074, 0.041794, 0.0214195, 0.0338539, 0.0142692, -0.00311971
0.0880159, 1.69306, -1.22762, -1.54082, -0.901443, -1.19638, 1.22793, -1.3025, 0.0780267, 0.00103055, -0.00184635, -0.0105146, -0.125239, 0.0110863, 0.00157723, 5.76026, 65.9177, 32.8879, 4.53003, 2.51056, 4.23495, -0.133595, -0.00069653, -0.00184598, 0.00303422, 0.00584228, -0.00195934, 0.000701974, 0.0335703, -0.0164411, -0.0201677, -0.0858001, 0.142397, 0.00557445, 0.471435, -0.542268, 0.33647, -2.08301, -2.16645, -0.129041, 0.469506, -0.542566, 0.333423, -2.08165, -2.16455, -0.120504, 0.016191, 0.0428246, 0.0219445, 0.0330925, 0.0134648, -0.00367489
0.0890159, 1.69314, -1.22762, -1.54083, -0.901451, -1.19651, 1.22793, -1.3025, 0.0804963, 0.00162705, -0.00300498, -0.0108191, -0.12677, 0.00688586, 0.00527532, 5.6095, 65.878, 32.9633, 4.68079, 2.50415, 4.28531, -0.114369, -0.000731382, -0.00183087, 0.00305392, 0.00589839, -0.00207099, 0.000689827, 0.0335287, -0.0163231, -0.0211365, -0.0920757, 0.143079, 0.00262738, 0.471451, -0.542224, 0.336492, -2.08298, -2.16647, -0.129008, 0.469538, -0.542554, 0.333419, -2.08163, -2.16463, -0.120297, 0.016578, 0.0438649, 0.0224743, 0.033325, 0.0146903, -0.00409166
0.0900159, 1.69323, -1.22762, -1.54083, -0.901458, -1.19665, 1.22794, -1.3025, 0.0790444, 0.0010937, -0.00201145, -0.0100234, -0.128614, 0.00789414, 0.00208022, 5.45875, 65.878, 32.9633, 4.79187, 2.51697, 4.34207, -0.0621838, -0.000765691, -0.00181327, 0.00307448, 0.00594922, -0.00217972, 0.000668898, 0.0358248, -0.0150755, -0.0211996, -0.0910684, 0.145086, 0.00269183, 0.471468, -0.54218, 0.336515, -2.08295, -2.16649, -0.128975, 0.469572, -0.542539, 0.333416, -2.08161, -2.16471, -0.1201, 0.0169683, 0.0449148, 0.0230089, 0.0325511, 0.0134313, -0.00393689
0.0910159, 1.69331, -1.22762, -1.54083, -0.901461, -1.19679, 1.22794, -1.3025, 0.0796925, -0.00102735, -0.00218228, -0.00860463, -0.133324, 0.00881791, 0.00125027, 5.26832, 65.9534, 32.999, 4.86725, 2.51056, 4.39242, -0.0484509, -0.000801855, -0.00179647, 0.00309976, 0.00600708, -0.00228318, 0.000654608, 0.0383307, -0.0143486, -0.0226399, -0.0926514, 0.147922, 0.000428335, 0.471485, -0.542135, 0.336538, -2.08291, -2.16652, -0.128941, 0.469607, -0.542525, 0.333408, -2.08158, -2.16479, -0.119898, 0.0173618, 0.0459742, 0.0235482, 0.0322576, 0.0122078, -0.00518576
0.0920159, 1.6934, -1.22761, -1.54083, -0.90147, -1.19693, 1.22795, -1.30249, 0.0795301, 0.00191862, -0.00238745, -0.00845423, -0.137354, 0.0100388, 0.00548666, 5.19294, 65.8423, 33.0387, 4.97833, 2.49866, 4.42813, -0.0356336, -0.000839124, -0.00178166, 0.00311825, 0.00606389, -0.00240236, 0.000644877, 0.040264, -0.0134789, -0.0212224, -0.0937322, 0.155504, -0.00649083, 0.471503, -0.542088, 0.336562, -2.08288, -2.16654, -0.128906, 0.46964, -0.542512, 0.333408, -2.08157, -2.16487, -0.11968, 0.0177586, 0.047043, 0.0240921, 0.0319089, 0.011114, -0.00351483
0.0930159, 1.69349, -1.22762, -1.54083, -0.901475, -1.19708, 1.22795, -1.30248, 0.0813372, -0.000480364, 0.000168175, -0.00656089, -0.144858, 0.0063593, 0.00403378, 5.04218, 65.9177, 32.9633, 5.01404, 2.49225, 4.47116, -0.0292249, -0.000875942, -0.0017648, 0.00314359, 0.00612129, -0.00250568, 0.000629115, 0.0419499, -0.0126183, -0.0222594, -0.0982134, 0.157907, -0.00705089, 0.471521, -0.542041, 0.336586, -2.08285, -2.16657, -0.128871, 0.469675, -0.542496, 0.333401, -2.08154, -2.16495, -0.119478, 0.0181585, 0.048121, 0.0246406, 0.0314734, 0.0106511, -0.00422488
0.0940159, 1.69359, -1.22763, -1.54083, -0.901483, -1.19723, 1.22795, -1.30248, 0.0855101, -0.00291585, 0.00472175, -0.0062043, -0.14637, 0.00491359, 0.00267449, 4.77637, 66.0287, 33.0387, 5.08942, 2.48584, 4.47848, -0.0164075, -0.000910904, -0.0017435, 0.00317325, 0.00618932, -0.00261321, 0.000604961, 0.0407743, -0.0148648, -0.022762, -0.0973118, 0.156562, -0.00106134, 0.471539, -0.541992, 0.336611, -2.08281, -2.16659, -0.128834, 0.469715, -0.542477, 0.33339, -2.08149, -2.16503, -0.11926, 0.0185616, 0.0492083, 0.0251936, 0.0340591, 0.0130701, -0.00405491
0.0950159, 1.69367, -1.22762, -1.54083, -0.901484, -1.19738, 1.22795, -1.30247, 0.0826594, 0.000656691, 0.00544043, -0.00418655, -0.148165, 0.00425599, 0.00406079, 4.74067, 65.9177, 32.9633, 5.08942, 2.49866, 4.47116, -0.0685925, -0.000954112, -0.00173248, 0.00318819, 0.00624012, -0.00273826, 0.000608016, 0.0435961, -0.012118, -0.0204248, -0.0968379, 0.161699, -0.00827313, 0.471558, -0.541942, 0.336637, -2.08277, -2.16662, -0.128797, 0.469745, -0.542467, 0.333394, -2.0815, -2.16511, -0.119039, 0.0189677, 0.0503046, 0.0257511, 0.0319119, 0.010907, -0.00154209
0.0960159, 1.69377, -1.22762, -1.54083, -0.901494, -1.19753, 1.22795, -1.30247, 0.0876899, -0.000395822, 0.00402397, -0.00542725, -0.148229, 0.00414897, 0.00221997, 4.55024, 65.9534, 32.9633, 5.2005, 2.49225, 4.4501, -0.0484509, -0.00099197, -0.00171263, 0.00321288, 0.00630356, -0.00285876, 0.000581501, 0.0425494, -0.0145229, -0.0223848, -0.100102, 0.161774, -0.00197061, 0.471577, -0.541891, 0.336663, -2.08274, -2.16665, -0.128759, 0.469785, -0.542449, 0.333389, -2.08146, -2.16521, -0.118811, 0.0193769, 0.05141, 0.0263131, 0.0346129, 0.0134475, -0.00282724
0.0970159, 1.69387, -1.22761, -1.54083, -0.901505, -1.19769, 1.22795, -1.30246, 0.0913844, 0.000572538, 0.00342659, -0.00633775, -0.148363, 0.00316479, 0.0014367, 4.36378, 65.9177, 33.0744, 5.31555, 2.48035, 4.4501, -0.0420422, -0.00103067, -0.00169479, 0.00323946, 0.00637758, -0.00297845, 0.00056403, 0.0417679, -0.0160399, -0.0228293, -0.10291, 0.163367, 0.00198329, 0.471597, -0.541839, 0.33669, -2.0827, -2.16667, -0.128721, 0.469823, -0.542431, 0.333383, -2.08142, -2.16529, -0.118571, 0.0197891, 0.0525242, 0.0268794, 0.0364957, 0.0154652, -0.00262544
0.0980159, 1.69397, -1.22761, -1.54083, -0.901514, -1.19784, 1.22794, -1.30246, 0.0935969, 0.00214583, 0.00192622, -0.00591685, -0.153721, 0.00162907, 0.00578006, 4.21302, 65.8423, 33.1101, 5.38696, 2.47394, 4.47116, -0.0420422, -0.00107032, -0.00167719, 0.00326216, 0.00644493, -0.00310208, 0.00054667, 0.0431564, -0.0155634, -0.0230199, -0.108505, 0.169485, -0.0040207, 0.471617, -0.541786, 0.336717, -2.08266, -2.1667, -0.128681, 0.469861, -0.542412, 0.333381, -2.08139, -2.16538, -0.118333, 0.0202043, 0.0536472, 0.02745, 0.0364794, 0.0152268, -0.00244326
0.0990159, 1.69406, -1.22761, -1.54083, -0.901525, -1.198, 1.22794, -1.30245, 0.0971991, 0.00226645, 0.00331237, -0.0106388, -0.152632, 0.00103911, 0.0103874, 4.09797, 65.8066, 33.0387, 5.53772, 2.46112, 4.47848, -0.0750012, -0.00111172, -0.00166027, 0.00328493, 0.00650728, -0.00322613, 0.000528796, 0.04077, -0.0184504, -0.0237568, -0.110521, 0.169664, -0.000843145, 0.471637, -0.541732, 0.336744, -2.08262, -2.16673, -0.128641, 0.469899, -0.542395, 0.33338, -2.08137, -2.16548, -0.118099, 0.0206224, 0.0547789, 0.0280249, 0.0396665, 0.018949, -0.00231541
0.100016, 1.69406, -1.22761, -1.54083, -0.901525, -1.198, 1.22794, -1.30245, 0.0971991, 0.00226645, 0.00331237, -0.0106388, -0.152632, 0.00103911, 0.0103874, 4.09797, 65.8066, 33.0387, 5.53772, 2.46112, 4.47848, -0.0750012, -0.00116989, -0.00168246, 0.00330522, 0.00647903, -0.00321325, 0.000559351, 0.0419702, -0.0179995, -0.0241692, -0.110991, 0.170437, -0.00178671, 0.471658, -0.541677, 0.336773, -2.08258, -2.16676, -0.128599, 0.469899, -0.542395, 0.33338, -2.08137, -2.16548, -0.118099, 0.0210433, 0.0559192, 0.028604, 0.0396665, 0.018949, -0.00231541
0.101016, 1.69416, -1.2276, -1.54083, -0.90154, -1.19816, 1.22794, -1.30245, 0.0979503, 0.00234669, 0.00164136, -0.0140804, -0.152329, 4.71878e-05, 0.0118587, 4.06226, 65.7709, 33.0744, 5.68848, 2.46112, 4.50046, -0.0621838, -0.00121458, -0.00166822, 0.0033309, 0.00654951, -0.00333871, 0.00054187, 0.0419997, -0.0182912, -0.025726, -0.11537, 0.17101, -0.00115066, 0.471679, -0.54162, 0.336802, -2.08254, -2.16679, -0.128557, 0.469935, -0.542378, 0.333376, -2.08133, -2.16557, -0.117853, 0.0214671, 0.057068, 0.0291872, 0.0403257, 0.0203201, -0.00328299
0.102016, 1.69416, -1.2276, -1.54083, -0.90154, -1.19816, 1.22794, -1.30245, 0.0979503, 0.00234669, 0.00164136, -0.0140804, -0.152329, 4.71878e-05, 0.0118587, 4.06226, 65.7709, 33.0744, 5.68848, 2.46112, 4.50046, -0.0621838, -0.00127516, -0.00169133, 0.00335204, 0.0065201, -0.00332533, 0.00057366, 0.0432176, -0.0178341, -0.0261442, -0.115845, 0.171794, -0.00210664, 0.471701, -0.541563, 0.336831, -2.08249, -2.16682, -0.128514, 0.469935, -0.542378, 0.333376, -2.08133, -2.16557, -0.117853, 0.0218936, 0.0582252, 0.0297746, 0.0403257, 0.0203201, -0.00328299
0.103016, 1.69446, -1.22758, -1.54083, -0.901582, -1.19862, 1.22793, -1.30245, 0.0965142, 0.00485136, 0.000232794, -0.0128528, -0.154336, -0.00438889, 0.00281298, 3.75678, 65.5844, 33.1101, 5.95032, 2.46112, 4.51419, 0.00373412, -0.0012785, -0.00158837, 0.00338285, 0.00677302, -0.00372106, 0.000427062, 0.0454336, -0.0149576, -0.0257134, -0.121315, 0.174452, 0.00207406, 0.471723, -0.541504, 0.336861, -2.08245, -2.16685, -0.128471, 0.470059, -0.542314, 0.333372, -2.0812, -2.16588, -0.117143, 0.0223229, 0.0593907, 0.030366, 0.0379806, 0.0191109, -0.00252014
0.104016, 1.69456, -1.22757, -1.54083, -0.901601, -1.19878, 1.22793, -1.30244, 0.0987043, 0.00490483, -0.000687921, -0.0179201, -0.153196, -0.00296032, 0.00890775, 3.6814, 65.513, 33.1498, 6.0614, 2.45563, 4.50686, -0.0484509, -0.00132035, -0.00156955, 0.00340736, 0.00684098, -0.00384682, 0.00040506, 0.0442999, -0.0170826, -0.0271189, -0.123531, 0.175687, 0.00156293, 0.471746, -0.541444, 0.336892, -2.08241, -2.16688, -0.128426, 0.470101, -0.542291, 0.333371, -2.08116, -2.16598, -0.116897, 0.022755, 0.0605644, 0.0309614, 0.0404415, 0.0217092, -0.00320279
0.105016, 1.69466, -1.22757, -1.54083, -0.901621, -1.19893, 1.22793, -1.30244, 0.100159, 0.00243479, -0.00123015, -0.017696, -0.153114, -0.00196543, 0.00639825, 3.60603, 65.5487, 33.1855, 6.13678, 2.46753, 4.50046, -0.0420422, -0.00136237, -0.00154893, 0.00343442, 0.00690538, -0.00396765, 0.000370784, 0.0453891, -0.0175241, -0.0291446, -0.123908, 0.174515, 0.00416452, 0.471769, -0.541383, 0.336923, -2.08236, -2.16691, -0.128381, 0.470145, -0.542266, 0.333369, -2.08111, -2.16609, -0.116662, 0.0231896, 0.0617462, 0.0315607, 0.0412827, 0.0221452, -0.00478586
0.106016, 1.69476, -1.22756, -1.54082, -0.901641, -1.19908, 1.22793, -1.30243, 0.101512, 0.00441628, 0.000990893, -0.0198356, -0.152642, -0.00171958, 0.00478834, 3.6457, 65.5487, 33.1101, 6.17248, 2.47394, 4.50686, -0.0420422, -0.00140566, -0.00153106, 0.003459, 0.00696552, -0.00408572, 0.000341601, 0.0446901, -0.0187469, -0.027962, -0.123056, 0.177123, 0.00918694, 0.471792, -0.54132, 0.336955, -2.08231, -2.16694, -0.128334, 0.470187, -0.542242, 0.333369, -2.08106, -2.1662, -0.116432, 0.0236269, 0.0629361, 0.0321639, 0.0429599, 0.0238955, -0.0029445
0.107016, 1.69486, -1.22754, -1.54083, -0.901665, -1.19923, 1.22793, -1.30244, 0.0988615, 0.00860679, -0.00190204, -0.0183507, -0.153192, -0.00103797, 0.00188893, 3.60603, 65.4376, 33.2212, 6.20819, 2.49866, 4.50046, 0.00373412, -0.00144957, -0.00151222, 0.00348282, 0.00703393, -0.00421738, 0.000304707, 0.0479566, -0.015929, -0.0265424, -0.124271, 0.182854, 0.00552751, 0.471816, -0.541257, 0.336987, -2.08227, -2.16698, -0.128287, 0.47023, -0.542218, 0.333371, -2.081, -2.16632, -0.116179, 0.0240668, 0.0641338, 0.032771, 0.0407598, 0.0215319, -0.00135355
0.108016, 1.69497, -1.22753, -1.54082, -0.901689, -1.19938, 1.22793, -1.30244, 0.0997127, 0.0111072, 0.000429272, -0.0237306, -0.152884, -0.00410527, 0.00206201, 3.57032, 65.4733, 33.1498, 6.24786, 2.50415, 4.47116, -0.00999879, -0.00149278, -0.00149153, 0.0035069, 0.0070916, -0.00434147, 0.000267572, 0.0461542, -0.0169718, -0.0257311, -0.127688, 0.184758, 0.0110758, 0.47184, -0.541192, 0.337021, -2.08222, -2.16701, -0.128239, 0.470275, -0.542191, 0.333373, -2.08095, -2.16644, -0.115945, 0.0245092, 0.0653394, 0.0333819, 0.0422079, 0.0244367, 0.000305138
0.109016, 1.69507, -1.22753, -1.54082, -0.901716, -1.19954, 1.22793, -1.30243, 0.104695, 0.0083361, 0.000306329, -0.0246093, -0.152987, -0.00266755, 0.0018326, 3.49494, 65.5844, 33.1498, 6.28357, 2.53528, 4.45743, -0.0164075, -0.00153636, -0.00146816, 0.003536, 0.00715191, -0.00446392, 0.000225559, 0.0454048, -0.0197687, -0.0280933, -0.128487, 0.183877, 0.0159744, 0.471865, -0.541126, 0.337054, -2.08217, -2.16705, -0.12819, 0.470324, -0.542163, 0.33337, -2.08089, -2.16656, -0.115709, 0.0249541, 0.0665526, 0.0339965, 0.045331, 0.0268707, -0.00138368
0.110016, 1.69518, -1.22752, -1.54082, -0.901743, -1.19968, 1.22793, -1.30243, 0.101921, 0.0119939, -0.000615887, -0.0276298, -0.152624, -0.00156534, 0.0011498, 3.41956, 65.5844, 33.1855, 6.28357, 2.54169, 4.44278, -0.00999879, -0.00157953, -0.00144674, 0.00356069, 0.00721363, -0.00458887, 0.000183, 0.0469178, -0.0184179, -0.0268793, -0.129343, 0.188832, 0.0151708, 0.47189, -0.541059, 0.337088, -2.08212, -2.16708, -0.12814, 0.470371, -0.542134, 0.333373, -2.08082, -2.16669, -0.115468, 0.0254015, 0.0677736, 0.0346148, 0.0445315, 0.0263549, 0.000241387
0.111016, 1.69527, -1.22751, -1.54081, -0.901771, -1.19983, 1.22793, -1.30243, 0.0972574, 0.0129913, 0.0034806, -0.0291619, -0.158363, -0.00101942, 0.00282339, 3.45527, 65.6598, 33.1498, 6.24786, 2.57831, 4.43545, -0.0621838, -0.00162723, -0.00142999, 0.00358581, 0.00727237, -0.00471161, 0.000150233, 0.0500742, -0.0158193, -0.0251916, -0.128357, 0.195351, 0.00924895, 0.471916, -0.54099, 0.337123, -2.08207, -2.16712, -0.128089, 0.470414, -0.542108, 0.333375, -2.08077, -2.16681, -0.115231, 0.0258513, 0.069002, 0.0352367, 0.0425671, 0.0240985, 0.00212264
0.112016, 1.69538, -1.22749, -1.54081, -0.901797, -1.19998, 1.22793, -1.30243, 0.0998288, 0.0146849, 0.00311636, -0.0294636, -0.162069, -8.50637e-05, 0.00146668, 3.37989, 65.6955, 33.2609, 6.17248, 2.60303, 4.4144, -0.0484509, -0.00167627, -0.00141144, 0.00360987, 0.00733144, -0.00484506, 0.000116854, 0.0508881, -0.0165023, -0.02485, -0.130466, 0.201514, 0.0109528, 0.471942, -0.540921, 0.337159, -2.08202, -2.16715, -0.128038, 0.47046, -0.542082, 0.333379, -2.08072, -2.16693, -0.114982, 0.0263034, 0.0702379, 0.0358623, 0.0437454, 0.0245076, 0.00293855
0.113016, 1.69538, -1.22749, -1.54081, -0.901797, -1.19998, 1.22793, -1.30243, 0.0998288, 0.0146849, 0.00311636, -0.0294636, -0.162069, -8.50637e-05, 0.00146668, 3.37989, 65.6955, 33.2609, 6.17248, 2.60303, 4.4144, -0.0484509, -0.00175072, -0.00143976, 0.0036358, 0.00729535, -0.00482882, 0.00015571, 0.0521962, -0.0160142, -0.0252978, -0.130968, 0.20235, 0.00993479, 0.471968, -0.54085, 0.337195, -2.08197, -2.16719, -0.127985, 0.47046, -0.542082, 0.333379, -2.08072, -2.16693, -0.114982, 0.0267579, 0.0714811, 0.0364913, 0.0437454, 0.0245076, 0.00293855
0.114016, 1.69538, -1.22749, -1.54081, -0.901797, -1.19998, 1.22793, -1.30243, 0.0998288, 0.0146849, 0.00311636, -0.0294636, -0.162069, -8.50637e-05, 0.00146668, 3.37989, 65.6955, 33.2609, 6.17248, 2.60303, 4.4144, -0.0484509, -0.00182648, -0.00146856, 0.00366219, 0.00725864, -0.00481232, 0.000195226, 0.0535117, -0.0155234, -0.0257482, -0.131472, 0.203191, 0.00891171, 0.471995, -0.540778, 0.337232, -2.08192, -2.16723, -0.127932, 0.47046, -0.542082, 0.333379, -2.08072, -2.16693, -0.114982, 0.0272147, 0.0727316, 0.0371239, 0.0437454, 0.0245076, 0.00293855
0.115016, 1.69568, -1.22742, -1.54078, -0.901904, -1.20043, 1.22793, -1.30243, 0.0988162, 0.0216893, 0.00745436, -0.0315679, -0.1486, 0.00060926, 0.0050731, 3.07838, 65.9177, 33.2966, 6.20819, 2.66437, 4.3851, -0.0484509, -0.00181336, -0.00135009, 0.00367061, 0.00749581, -0.00524395, -1.9637e-05, 0.0505048, -0.0172099, -0.0207272, -0.121506, 0.20022, 0.011552, 0.472023, -0.540705, 0.337269, -2.08186, -2.16726, -0.127878, 0.470605, -0.54199, 0.333407, -2.08053, -2.16735, -0.114249, 0.0276737, 0.0739892, 0.0377598, 0.0459657, 0.0280365, 0.00894516
0.116016, 1.69577, -1.22739, -1.54078, -0.901939, -1.20058, 1.22793, -1.30243, 0.0974253, 0.027916, 0.00717845, -0.033175, -0.1495, 0.00139869, 0.00407311, 3.003, 65.9177, 33.3719, 6.20819, 2.67627, 4.35672, -0.0557752, -0.00186453, -0.00133485, 0.00368357, 0.00754582, -0.00539179, -5.13316e-05, 0.0517135, -0.0161704, -0.0176872, -0.121989, 0.208518, 0.0109888, 0.472051, -0.54063, 0.337307, -2.08181, -2.1673, -0.127822, 0.470649, -0.541963, 0.333424, -2.08049, -2.16749, -0.113991, 0.028135, 0.0752539, 0.0383992, 0.0455491, 0.0275982, 0.0124323
0.117016, 1.69587, -1.22736, -1.54077, -0.901981, -1.20073, 1.22793, -1.30243, 0.098267, 0.0289136, 0.0132996, -0.0360536, -0.144941, 0.000108583, 0.00275898, 2.85224, 66.0645, 33.4473, 6.28357, 2.67627, 4.37778, -0.0484509, -0.00191229, -0.00131592, 0.00370169, 0.00760392, -0.00553322, -9.88035e-05, 0.0494193, -0.0181266, -0.0159481, -0.117531, 0.205883, 0.0190439, 0.472079, -0.540554, 0.337346, -2.08175, -2.16734, -0.127766, 0.470697, -0.541931, 0.333436, -2.08043, -2.16764, -0.113732, 0.0285984, 0.0765256, 0.0390419, 0.0479471, 0.0309523, 0.015086
0.118016, 1.69597, -1.22732, -1.54075, -0.902021, -1.20087, 1.22793, -1.30243, 0.0959519, 0.0306956, 0.015913, -0.0394782, -0.14187, 0.00136183, 0.00207544, 2.81654, 66.1755, 33.483, 6.28357, 2.68268, 4.34207, -0.0484509, -0.00196318, -0.00130054, 0.00371453, 0.00764925, -0.005675, -0.000139604, 0.0495875, -0.018095, -0.0146787, -0.114338, 0.20668, 0.0216433, 0.472108, -0.540477, 0.337386, -2.0817, -2.16738, -0.127709, 0.470743, -0.541902, 0.333455, -2.08037, -2.16778, -0.113485, 0.0290639, 0.0778042, 0.0396878, 0.0484365, 0.0318695, 0.0169606
0.119016, 1.69606, -1.22728, -1.54074, -0.902068, -1.20102, 1.22793, -1.30243, 0.0971109, 0.0364703, 0.0127837, -0.0407382, -0.139356, 0.000611878, 0.000611289, 2.77686, 66.2112, 33.5941, 6.35895, 2.68909, 4.34939, -0.0228162, -0.00201411, -0.00128561, 0.00372737, 0.00770305, -0.00582335, -0.000185836, 0.0495864, -0.0180065, -0.013147, -0.117343, 0.21122, 0.0235241, 0.472137, -0.540398, 0.337426, -2.08164, -2.16742, -0.127651, 0.470789, -0.541871, 0.333474, -2.08031, -2.16793, -0.113221, 0.0295316, 0.0790895, 0.040337, 0.0488748, 0.0329181, 0.0191255
0.120016, 1.69615, -1.22725, -1.54074, -0.902111, -1.20117, 1.22793, -1.30243, 0.0962844, 0.0374945, 0.0094897, -0.0396404, -0.146552, 0.00144052, 0.00523547, 2.70148, 66.3937, 33.7449, 6.35895, 2.7074, 4.32101, -0.0228162, -0.00206957, -0.0012725, 0.00374373, 0.00775417, -0.00596891, -0.000222829, 0.0537341, -0.0155318, -0.0138873, -0.122609, 0.219526, 0.0120704, 0.472167, -0.540319, 0.337466, -2.08158, -2.16746, -0.127592, 0.470833, -0.541843, 0.333489, -2.08026, -2.16808, -0.112962, 0.0300013, 0.0803815, 0.0409894, 0.0470025, 0.0301232, 0.0184838
0.121016, 1.69625, -1.2272, -1.54072, -0.902166, -1.20132, 1.22793, -1.30243, 0.0941317, 0.0372763, 0.00908333, -0.0457146, -0.147682, 0.000675166, 0.00398119, 2.55073, 66.5048, 33.8202, 6.5097, 2.7193, 4.32834, -0.0228162, -0.00211781, -0.00125342, 0.00375539, 0.00780637, -0.00612156, -0.000275391, 0.0545008, -0.0148363, -0.0154135, -0.12722, 0.221231, 0.0148992, 0.472197, -0.540238, 0.337508, -2.08152, -2.1675, -0.127533, 0.470883, -0.541807, 0.333511, -2.0802, -2.16824, -0.112694, 0.030473, 0.0816802, 0.0416449, 0.0467528, 0.0308692, 0.017536
0.122016, 1.69633, -1.22716, -1.54071, -0.902211, -1.20147, 1.22793, -1.30242, 0.089765, 0.04005, 0.00789035, -0.0465409, -0.149344, 0.00152474, 0.00302229, 2.51106, 66.6159, 33.9313, 6.5097, 2.74402, 4.29904, -0.0228162, -0.00217764, -0.0012442, 0.00376667, 0.00785352, -0.00627754, -0.000305414, 0.0579735, -0.0117655, -0.0144762, -0.128297, 0.226651, 0.0100256, 0.472228, -0.540155, 0.33755, -2.08146, -2.16755, -0.127472, 0.470925, -0.541782, 0.333533, -2.08016, -2.16838, -0.112426, 0.0309467, 0.0829853, 0.0423035, 0.0443277, 0.0284709, 0.0186806
0.123016, 1.69642, -1.22712, -1.54071, -0.902262, -1.20162, 1.22793, -1.30242, 0.0874079, 0.0384109, 0.00749098, -0.0480665, -0.150025, 0.00124603, 0.00351168, 2.43568, 66.7627, 34.1535, 6.54541, 2.76874, 4.29263, -0.0557752, -0.00223462, -0.00123286, 0.00378058, 0.0079129, -0.00643374, -0.000340787, 0.0602855, -0.0101027, -0.01616, -0.130215, 0.226406, 0.00709796, 0.472259, -0.540072, 0.337592, -2.0814, -2.16759, -0.12741, 0.470969, -0.541752, 0.333553, -2.08011, -2.16853, -0.112143, 0.0314223, 0.0842969, 0.0429652, 0.0431683, 0.0276864, 0.0173753
0.124016, 1.69651, -1.22707, -1.5407, -0.90231, -1.20177, 1.22793, -1.30242, 0.0907666, 0.0415304, 0.010027, -0.0452203, -0.150608, 0.00136735, 0.00254821, 2.28492, 66.8381, 34.2646, 6.54541, 2.78705, 4.27798, -0.0557752, -0.00229281, -0.00122148, 0.00378804, 0.00796218, -0.00659899, -0.000378679, 0.0603292, -0.0111822, -0.0136608, -0.127569, 0.230631, 0.00875997, 0.472291, -0.539987, 0.337635, -2.08134, -2.16763, -0.127348, 0.471014, -0.541723, 0.333579, -2.08006, -2.16869, -0.111862, 0.0318998, 0.0856148, 0.0436298, 0.044822, 0.0286252, 0.0204677
0.125016, 1.6966, -1.22702, -1.54068, -0.902366, -1.20193, 1.22793, -1.30242, 0.090084, 0.0403276, 0.00953124, -0.0471965, -0.15204, 0.000635894, 0.00232884, 2.13416, 66.9492, 34.34, 6.58508, 2.84198, 4.28531, -0.0685925, -0.00235128, -0.00121018, 0.00379663, 0.00801402, -0.00676563, -0.00041916, 0.0618574, -0.0103628, -0.0153124, -0.130748, 0.231324, 0.00827304, 0.472323, -0.5399, 0.337679, -2.08127, -2.16768, -0.127284, 0.471059, -0.541693, 0.333605, -2.08002, -2.16885, -0.111576, 0.0323792, 0.0869389, 0.0442973, 0.0444805, 0.0286583, 0.0192948
0.126016, 1.69669, -1.22696, -1.54068, -0.902424, -1.20208, 1.22793, -1.30241, 0.0891487, 0.044129, 0.00564889, -0.0486121, -0.15256, 0.000963162, 0.00312711, 1.98341, 66.9849, 34.5621, 6.62079, 2.87311, 4.27066, -0.10796, -0.00241109, -0.00120076, 0.00380787, 0.0080748, -0.00693128, -0.000451074, 0.0638398, -0.00887798, -0.0150365, -0.134815, 0.236945, 0.0046024, 0.472355, -0.539813, 0.337724, -2.08121, -2.16772, -0.127219, 0.471103, -0.541662, 0.333629, -2.07997, -2.169, -0.111279, 0.0328604, 0.0882692, 0.0449678, 0.0435666, 0.0279253, 0.0199792
0.127016, 1.69677, -1.22691, -1.54066, -0.902494, -1.20223, 1.22793, -1.30241, 0.0876856, 0.0447094, 0.00977133, -0.0556049, -0.152592, 0.000368364, 0.00240946, 1.87232, 67.0959, 34.6375, 6.77154, 2.90332, 4.27798, -0.114369, -0.00246954, -0.00119024, 0.00382002, 0.00813075, -0.00709233, -0.000498175, 0.0628521, -0.00970212, -0.0146523, -0.135277, 0.238468, 0.0108691, 0.472389, -0.539724, 0.337769, -2.08114, -2.16777, -0.127154, 0.471148, -0.541629, 0.333653, -2.07991, -2.16916, -0.110993, 0.0333434, 0.0896055, 0.045641, 0.0448522, 0.0302137, 0.0211591
0.128016, 1.69686, -1.22686, -1.54065, -0.902548, -1.20238, 1.22793, -1.30241, 0.0883007, 0.0462163, 0.00861577, -0.0543248, -0.152649, -2.75492e-05, 0.00119712, 1.68189, 67.1674, 34.7486, 6.65649, 2.92163, 4.28531, -0.101552, -0.00253004, -0.00117884, 0.00383001, 0.00818077, -0.00725467, -0.000538666, 0.0644355, -0.00892531, -0.0145386, -0.13654, 0.240696, 0.00987373, 0.472422, -0.539634, 0.337815, -2.08108, -2.16781, -0.127088, 0.471195, -0.541597, 0.33368, -2.07985, -2.16932, -0.11071, 0.0338281, 0.0909478, 0.0463171, 0.0446279, 0.0299418, 0.0217284
0.129016, 1.69694, -1.2268, -1.54064, -0.902616, -1.20253, 1.22792, -1.3024, 0.0850558, 0.0492654, 0.00844564, -0.0573678, -0.152909, -0.00376842, 0.00108458, 1.64619, 67.1674, 34.824, 6.69617, 2.94635, 4.27066, -0.10796, -0.00259283, -0.00117164, 0.00384005, 0.0082351, -0.00742084, -0.000576046, 0.0658074, -0.00645386, -0.0138598, -0.141262, 0.243176, 0.00810287, 0.472456, -0.539542, 0.337862, -2.08101, -2.16786, -0.12702, 0.471239, -0.541565, 0.333707, -2.0798, -2.16948, -0.110418, 0.0343145, 0.092296, 0.0469959, 0.0427268, 0.0297249, 0.022945
0.130016, 1.69702, -1.22674, -1.54063, -0.902685, -1.20268, 1.22792, -1.3024, 0.0804927, 0.0503314, 0.00843029, -0.0584638, -0.152222, -0.00287092, 0.000997269, 1.57081, 67.0959, 34.8993, 6.69617, 2.94635, 4.27066, -0.114369, -0.00265519, -0.00116425, 0.00384939, 0.00829234, -0.00758788, -0.000614702, 0.068792, -0.00382882, -0.0135572, -0.140433, 0.244964, 0.00375235, 0.472491, -0.539449, 0.337909, -2.08094, -2.16791, -0.126952, 0.471282, -0.541532, 0.333735, -2.07975, -2.16964, -0.11012, 0.0348026, 0.09365, 0.0476774, 0.0407212, 0.0279721, 0.023549
0.131016, 1.69711, -1.22669, -1.54062, -0.902758, -1.20283, 1.22792, -1.3024, 0.0789187, 0.0516769, 0.0129844, -0.0609233, -0.151832, -0.0016404, -0.00124029, 1.41608, 67.0959, 34.8993, 6.77154, 2.94635, 4.25601, -0.0621838, -0.00271697, -0.00115365, 0.00386163, 0.00834224, -0.00774937, -0.000670452, 0.0691654, -0.00401358, -0.0117875, -0.136528, 0.247366, 0.00777582, 0.472526, -0.539355, 0.337957, -2.08087, -2.16796, -0.126882, 0.47133, -0.541497, 0.333761, -2.07967, -2.16982, -0.109837, 0.0352924, 0.0950097, 0.0483616, 0.04148, 0.0287004, 0.0259183
0.132016, 1.69719, -1.22664, -1.5406, -0.902836, -1.20298, 1.22792, -1.3024, 0.0789614, 0.0453958, 0.0141913, -0.0644668, -0.147158, -0.00596507, -0.000331411, 1.34071, 67.1674, 34.8597, 6.77154, 2.96466, 4.26333, -0.0750012, -0.0027794, -0.00114397, 0.00387783, 0.00839984, -0.00790698, -0.000718856, 0.068487, -0.00436094, -0.0164249, -0.139799, 0.236306, 0.0111783, 0.472561, -0.539259, 0.338006, -2.0808, -2.168, -0.126812, 0.471377, -0.54146, 0.333784, -2.0796, -2.16999, -0.109548, 0.0357837, 0.096375, 0.0490484, 0.0421184, 0.0314595, 0.0221204
0.133016, 1.69727, -1.22659, -1.54059, -0.902912, -1.20313, 1.22791, -1.30239, 0.0801303, 0.043427, 0.0130284, -0.0684352, -0.147003, -0.00398593, 0.00449714, 1.22962, 67.1317, 34.8993, 6.69617, 2.95917, 4.2496, -0.0750012, -0.00284346, -0.00113588, 0.00389527, 0.00845866, -0.00806034, -0.000761776, 0.0688256, -0.00558271, -0.0189182, -0.141744, 0.236615, 0.00943533, 0.472597, -0.539162, 0.338055, -2.08073, -2.16805, -0.126741, 0.471423, -0.541423, 0.333806, -2.07953, -2.17015, -0.10926, 0.0362765, 0.0977458, 0.0497377, 0.0437517, 0.0329301, 0.0202575
0.134016, 1.69735, -1.22654, -1.54058, -0.902996, -1.20327, 1.22791, -1.30238, 0.0801633, 0.0455967, 0.0132433, -0.0734719, -0.143319, -0.0019606, 0.00808202, 1.15424, 67.0602, 34.8993, 6.69617, 2.96466, 4.2203, -0.0750012, -0.00290772, -0.00112654, 0.00391095, 0.00851152, -0.00822004, -0.000811547, 0.0679929, -0.00697347, -0.0185827, -0.140786, 0.238139, 0.0104921, 0.472634, -0.539064, 0.338106, -2.08066, -2.1681, -0.126669, 0.47147, -0.541386, 0.333831, -2.07946, -2.17032, -0.108972, 0.0367709, 0.0991221, 0.0504295, 0.0456186, 0.0351377, 0.0213658
0.135016, 1.69743, -1.2265, -1.54057, -0.903079, -1.20342, 1.22791, -1.30238, 0.0815914, 0.0454276, 0.0118227, -0.0753192, -0.146391, -0.000818459, 0.00536862, 1.15424, 67.0602, 34.824, 6.62079, 3.0022, 4.19925, -0.0557752, -0.00297618, -0.00112024, 0.0039311, 0.00856372, -0.00837132, -0.000858738, 0.0692953, -0.00726704, -0.0198956, -0.144099, 0.24228, 0.0134321, 0.472671, -0.538964, 0.338156, -2.08059, -2.16815, -0.126595, 0.471515, -0.54135, 0.333851, -2.07939, -2.17049, -0.108692, 0.0372668, 0.100504, 0.0511238, 0.0464098, 0.0354468, 0.0205543
0.136016, 1.69751, -1.22645, -1.54056, -0.903162, -1.20356, 1.22791, -1.30238, 0.0822991, 0.0477126, 0.00796955, -0.0792325, -0.148448, -0.00346934, 0.00382733, 1.03919, 66.9492, 34.8597, 6.5097, 3.026, 4.15622, -0.0484509, -0.0030435, -0.0011127, 0.00395264, 0.00862055, -0.00852009, -0.000907745, 0.0699972, -0.00655661, -0.0212081, -0.15302, 0.246488, 0.0153974, 0.472708, -0.538862, 0.338208, -2.08052, -2.16821, -0.126521, 0.471562, -0.541312, 0.333871, -2.0793, -2.17065, -0.108409, 0.0377641, 0.101891, 0.0518204, 0.0461771, 0.0363101, 0.0198704
0.137016, 1.69758, -1.2264, -1.54054, -0.903254, -1.20371, 1.22791, -1.30237, 0.0832795, 0.0473153, 0.00767569, -0.0840456, -0.14864, -0.000427486, 0.00814309, 1.03919, 66.9095, 34.7883, 6.47003, 3.03882, 4.09122, -0.0621838, -0.00311362, -0.00110645, 0.00397491, 0.00867245, -0.00867177, -0.000952134, 0.0700424, -0.00813425, -0.0224885, -0.153678, 0.249198, 0.0149806, 0.472746, -0.53876, 0.33826, -2.08044, -2.16826, -0.126446, 0.471608, -0.541275, 0.33389, -2.07923, -2.17082, -0.108126, 0.0382628, 0.103283, 0.0525195, 0.0482064, 0.037922, 0.0192486
0.138016, 1.69766, -1.22636, -1.54053, -0.903348, -1.20385, 1.2279, -1.30236, 0.0828804, 0.0445413, 0.0119031, -0.0857347, -0.14984, 0.000917136, 0.0109227, 0.963814, 66.8738, 34.7883, 6.35895, 3.05713, 4.04819, -0.0621838, -0.00318083, -0.00109682, 0.00400036, 0.00873118, -0.00881923, -0.00100891, 0.070937, -0.00865647, -0.0232133, -0.15085, 0.248897, 0.0138587, 0.472785, -0.538656, 0.338313, -2.08036, -2.16831, -0.12637, 0.471658, -0.541233, 0.333907, -2.07914, -2.17099, -0.107841, 0.0387628, 0.10468, 0.0532208, 0.0492372, 0.0385695, 0.0190805
0.139016, 1.69773, -1.22632, -1.54051, -0.903439, -1.204, 1.22791, -1.30235, 0.0787469, 0.0478413, 0.0137708, -0.089523, -0.146397, 0.00218271, 0.0149212, 1.03919, 66.727, 34.7129, 6.20819, 3.10016, 3.99783, -0.114369, -0.00325454, -0.00109216, 0.00402158, 0.00877793, -0.00897362, -0.00104619, 0.0718748, -0.00752489, -0.0213158, -0.147906, 0.251015, 0.0099523, 0.472824, -0.538551, 0.338366, -2.08029, -2.16836, -0.126293, 0.471704, -0.541198, 0.333928, -2.07908, -2.17115, -0.107559, 0.0392642, 0.106082, 0.0539245, 0.0487207, 0.0387062, 0.0215509
0.140016, 1.69781, -1.22628, -1.5405, -0.903548, -1.20415, 1.22791, -1.30234, 0.0850108, 0.0412135, 0.0164412, -0.0928809, -0.152913, 0.00255731, 0.0105573, 1.00349, 66.727, 34.7129, 6.20819, 3.12488, 3.96213, -0.101552, -0.00332267, -0.00108028, 0.00405416, 0.00884387, -0.00912234, -0.00111364, 0.0709551, -0.0111794, -0.0255058, -0.151898, 0.25123, 0.0215804, 0.472864, -0.538444, 0.338421, -2.08021, -2.16842, -0.126215, 0.471756, -0.541153, 0.33394, -2.07897, -2.17134, -0.107264, 0.0397669, 0.107489, 0.0546303, 0.0526784, 0.0418216, 0.0181442
0.141016, 1.69788, -1.22624, -1.54048, -0.903653, -1.20431, 1.22791, -1.30233, 0.0789844, 0.0406464, 0.0161627, -0.0958428, -0.152699, 0.00313338, 0.00785153, 1.15424, 66.6516, 34.6732, 6.09711, 3.14319, 3.9191, -0.101552, -0.00339738, -0.00107559, 0.0040817, 0.00889955, -0.00927423, -0.00116395, 0.0743647, -0.008004, -0.0264889, -0.152625, 0.251775, 0.0197603, 0.472904, -0.538336, 0.338476, -2.08013, -2.16847, -0.126136, 0.471803, -0.541114, 0.333956, -2.07888, -2.17151, -0.106974, 0.0402709, 0.108901, 0.0553384, 0.050108, 0.0398775, 0.0174593
0.142016, 1.69796, -1.22621, -1.54046, -0.903765, -1.20447, 1.22791, -1.30233, 0.0815909, 0.0372571, 0.0181595, -0.0999088, -0.158078, 0.00274492, 0.00509839, 1.15424, 66.5802, 34.6732, 6.0614, 3.18622, 3.89804, -0.0814099, -0.00346964, -0.00106588, 0.00411332, 0.008963, -0.00942952, -0.00122993, 0.0744075, -0.00956815, -0.0289922, -0.156843, 0.253895, 0.0267588, 0.472944, -0.538226, 0.338531, -2.08005, -2.16853, -0.126055, 0.471855, -0.541071, 0.333969, -2.07878, -2.1717, -0.106672, 0.040776, 0.110318, 0.0560486, 0.0520828, 0.0417028, 0.0156414
0.143016, 1.69802, -1.22616, -1.54044, -0.903876, -1.20462, 1.22791, -1.30231, 0.0757426, 0.0404324, 0.0196547, -0.103974, -0.155846, 0.00227956, 0.010017, 1.34071, 66.3937, 34.6732, 5.95032, 3.19812, 3.88339, -0.120778, -0.00354637, -0.00106329, 0.00413696, 0.0090158, -0.00958844, -0.00127273, 0.0761967, -0.00701204, -0.0274052, -0.156176, 0.256032, 0.0198783, 0.472985, -0.538115, 0.338588, -2.07997, -2.16858, -0.125974, 0.4719, -0.541032, 0.33399, -2.0787, -2.17187, -0.106376, 0.0412824, 0.111739, 0.0567608, 0.0501704, 0.0410022, 0.017729
0.144016, 1.6981, -1.22612, -1.54041, -0.903993, -1.20478, 1.22791, -1.3023, 0.0773086, 0.0405743, 0.0257426, -0.108246, -0.15551, 0.00145001, 0.00693832, 1.41608, 66.2866, 34.6018, 5.87494, 3.22284, 3.88339, -0.10796, -0.00361811, -0.00105289, 0.00416576, 0.00907222, -0.0097434, -0.00134018, 0.074293, -0.0092493, -0.0264137, -0.154182, 0.256485, 0.0301259, 0.473027, -0.538002, 0.338645, -2.07989, -2.16864, -0.125892, 0.471954, -0.540986, 0.334008, -2.0786, -2.17206, -0.10608, 0.0417899, 0.113165, 0.0574751, 0.0528796, 0.0442551, 0.0196446
0.145016, 1.69817, -1.22609, -1.54038, -0.904124, -1.20494, 1.22791, -1.30229, 0.074534, 0.0398029, 0.0302461, -0.116218, -0.153856, 0.00142303, 0.00588889, 1.57081, 66.2112, 34.5264, 5.87494, 3.22925, 3.86966, -0.127186, -0.00368968, -0.0010434, 0.00419406, 0.00912523, -0.00989732, -0.00141009, 0.0734641, -0.00990967, -0.0267459, -0.153431, 0.255641, 0.0370126, 0.473069, -0.537889, 0.338703, -2.07981, -2.1687, -0.125809, 0.472007, -0.540938, 0.334026, -2.07849, -2.17226, -0.105789, 0.0422985, 0.114595, 0.0581914, 0.0540056, 0.0465836, 0.0201403
0.146016, 1.69824, -1.22605, -1.54035, -0.904254, -1.20509, 1.22791, -1.30229, 0.0728392, 0.0357692, 0.0270842, -0.118001, -0.148911, 0.000400862, 0.0116907, 1.68189, 66.1755, 34.6018, 5.83527, 3.24756, 3.88339, -0.0685925, -0.00376349, -0.00103514, 0.00422782, 0.0091871, -0.0100469, -0.00148654, 0.0751397, -0.00868903, -0.0310118, -0.156239, 0.248348, 0.0302006, 0.473111, -0.537773, 0.338761, -2.07972, -2.16875, -0.125725, 0.472059, -0.54089, 0.33404, -2.07837, -2.17246, -0.105492, 0.0428082, 0.11603, 0.0589097, 0.0531986, 0.0469605, 0.0164286
0.147016, 1.6983, -1.22601, -1.54032, -0.904383, -1.20525, 1.22791, -1.30228, 0.0706038, 0.0401314, 0.0328082, -0.121848, -0.150107, 0.000509108, 0.00815138, 1.83265, 66.0645, 34.6018, 5.76385, 3.26587, 3.87607, -0.0484509, -0.00383878, -0.00102761, 0.00425487, 0.00923666, -0.0102039, -0.00155454, 0.0751503, -0.00854789, -0.027329, -0.153333, 0.254578, 0.0359896, 0.473154, -0.537657, 0.338821, -2.07964, -2.16881, -0.12564, 0.472112, -0.540843, 0.334061, -2.07826, -2.17266, -0.1052, 0.0433189, 0.117469, 0.0596298, 0.0537153, 0.0478209, 0.0207897
0.148016, 1.69837, -1.22598, -1.54028, -0.904521, -1.20541, 1.22791, -1.30227, 0.0712429, 0.0372528, 0.0349003, -0.125169, -0.150297, 0.000317355, 0.0112413, 1.90803, 66.1002, 34.5621, 5.72418, 3.26587, 3.87607, -0.0557752, -0.00391264, -0.00101896, 0.00428719, 0.00928911, -0.01035, -0.00163019, 0.075241, -0.00945789, -0.0293002, -0.154174, 0.252945, 0.0363039, 0.473198, -0.537538, 0.338881, -2.07955, -2.16887, -0.125554, 0.472166, -0.540793, 0.334077, -2.07814, -2.17286, -0.104915, 0.0438306, 0.118913, 0.0603519, 0.0550654, 0.0495157, 0.0195228
0.149016, 1.69842, -1.22594, -1.54024, -0.904656, -1.20557, 1.2279, -1.30226, 0.0688263, 0.0403772, 0.0383284, -0.13037, -0.145922, -7.62356e-05, 0.0132654, 2.09846, 66.0287, 34.5621, 5.6488, 3.27228, 3.88339, -0.0557752, -0.0039913, -0.00101566, 0.00431238, 0.00933513, -0.0105069, -0.00169691, 0.0743767, -0.00966636, -0.0274007, -0.151827, 0.253419, 0.0383306, 0.473242, -0.537419, 0.338941, -2.07946, -2.16893, -0.125467, 0.472215, -0.540747, 0.334101, -2.07804, -2.17306, -0.104624, 0.0443433, 0.12036, 0.0610757, 0.0558299, 0.051536, 0.02225
0.150016, 1.69848, -1.2259, -1.54019, -0.904793, -1.20572, 1.22791, -1.30225, 0.0656626, 0.0429225, 0.0404033, -0.133319, -0.147544, 0.000445399, 0.0104747, 2.20954, 66.0645, 34.6018, 5.53772, 3.297, 3.86966, -0.0685925, -0.00407093, -0.00101022, 0.00434007, 0.00937499, -0.0106615, -0.00176561, 0.0761349, -0.00821916, -0.0258751, -0.151551, 0.25852, 0.0398226, 0.473287, -0.537298, 0.339003, -2.07938, -2.16899, -0.125378, 0.472267, -0.540701, 0.334123, -2.07793, -2.17327, -0.104342, 0.044857, 0.121812, 0.0618013, 0.0550302, 0.0509545, 0.0242601
0.151016, 1.69854, -1.22587, -1.54014, -0.904938, -1.20587, 1.22791, -1.30224, 0.0621506, 0.0387464, 0.0420811, -0.136379, -0.151601, 5.02711e-05, 0.011898, 2.3603, 66.1359, 34.6375, 5.46234, 3.28418, 3.87607, -0.0484509, -0.00414805, -0.00100436, 0.00436974, 0.00941089, -0.0108009, -0.00184359, 0.0791149, -0.00621947, -0.0285196, -0.154105, 0.258517, 0.0360054, 0.473332, -0.537175, 0.339065, -2.07929, -2.16905, -0.125289, 0.47232, -0.54065, 0.334144, -2.07781, -2.17348, -0.104079, 0.0453715, 0.123267, 0.0625286, 0.0535648, 0.0497812, 0.021984
0.152016, 1.69859, -1.22582, -1.54009, -0.905085, -1.20602, 1.22791, -1.30222, 0.0617098, 0.0375072, 0.0464306, -0.138001, -0.15195, 2.65371e-05, 0.0146567, 2.43568, 66.1359, 34.6732, 5.35126, 3.297, 3.87607, -0.0750012, -0.00422435, -0.000997844, 0.00439149, 0.00944215, -0.0109539, -0.00192134, 0.0796318, -0.00651777, -0.0284262, -0.151796, 0.258399, 0.0350683, 0.473377, -0.537051, 0.339128, -2.0792, -2.16911, -0.125199, 0.472374, -0.540597, 0.334174, -2.0777, -2.17369, -0.103807, 0.0458869, 0.124727, 0.0632577, 0.0544055, 0.0507292, 0.0227175
0.153016, 1.69864, -1.22579, -1.54003, -0.905239, -1.20617, 1.22791, -1.30221, 0.0529533, 0.0358376, 0.0536832, -0.142347, -0.151358, -0.000530076, 0.0102374, 2.58643, 66.2866, 34.6732, 5.24017, 3.30249, 3.89071, -0.0557752, -0.00430212, -0.000993421, 0.00441768, 0.00946798, -0.0110918, -0.00200446, 0.0822402, -0.00328629, -0.0275627, -0.147094, 0.256545, 0.0371859, 0.473423, -0.536926, 0.339191, -2.07911, -2.16918, -0.125108, 0.472427, -0.540545, 0.334199, -2.07758, -2.17391, -0.103555, 0.0464031, 0.12619, 0.0639883, 0.0518354, 0.0493402, 0.0240073
0.154016, 1.69868, -1.22575, -1.53997, -0.905402, -1.20632, 1.22791, -1.3022, 0.0489615, 0.0386053, 0.0548495, -0.147404, -0.152045, -8.60412e-05, 0.0101162, 2.62611, 66.3937, 34.8597, 5.2005, 3.3208, 3.88339, -0.120778, -0.00438029, -0.00098826, 0.00444418, 0.00950369, -0.0112422, -0.00208639, 0.0837322, -0.00176545, -0.0264923, -0.148087, 0.261307, 0.0369052, 0.47347, -0.536799, 0.339256, -2.07902, -2.16924, -0.125016, 0.472481, -0.540491, 0.334226, -2.07745, -2.17413, -0.103279, 0.0469202, 0.127658, 0.0647206, 0.0509388, 0.0491022, 0.0256189
0.155016, 1.69873, -1.22571, -1.53989, -0.905567, -1.20646, 1.22791, -1.30219, 0.0450445, 0.0414928, 0.0603904, -0.154295, -0.146663, 0.000210963, 0.0112852, 2.70148, 66.5802, 34.8597, 5.16479, 3.33362, 3.87607, -0.101552, -0.0044573, -0.000982436, 0.0044664, 0.00951989, -0.0113844, -0.00218003, 0.0825093, -0.00211588, -0.0240923, -0.143422, 0.261041, 0.0411281, 0.473517, -0.53667, 0.339321, -2.07892, -2.1693, -0.124922, 0.472536, -0.540435, 0.334257, -2.07732, -2.17437, -0.103033, 0.047438, 0.129128, 0.0654544, 0.0518571, 0.0514299, 0.0289014
0.156016, 1.69875, -1.22566, -1.53982, -0.905742, -1.20661, 1.22791, -1.30218, 0.0394204, 0.042401, 0.0664556, -0.158987, -0.143761, -0.0004041, 0.0124734, 2.89191, 66.6159, 34.8993, 5.12909, 3.35193, 3.89071, -0.0814099, -0.00453766, -0.000983481, 0.00448225, 0.00953883, -0.0115385, -0.00226905, 0.0831752, -0.000701883, -0.0223549, -0.139123, 0.26009, 0.0411731, 0.473565, -0.53654, 0.339387, -2.07883, -2.16937, -0.124828, 0.472585, -0.540383, 0.334295, -2.0772, -2.17461, -0.10277, 0.0479565, 0.130603, 0.0661897, 0.051063, 0.0519179, 0.0312986
0.157016, 1.69879, -1.22563, -1.53975, -0.90592, -1.20676, 1.22791, -1.30216, 0.0380202, 0.0339428, 0.0655412, -0.166779, -0.145328, -0.000271056, 0.0142652, 2.96729, 66.9095, 35.0461, 5.12909, 3.35834, 3.89071, -0.0878186, -0.0046202, -0.000981807, 0.00451232, 0.00956755, -0.0116813, -0.00235677, 0.0843322, -0.000941218, -0.0291655, -0.145237, 0.254745, 0.0429294, 0.473613, -0.536409, 0.339453, -2.07873, -2.16943, -0.124733, 0.472637, -0.540328, 0.334319, -2.07707, -2.17484, -0.102507, 0.0484757, 0.132081, 0.0669265, 0.0516018, 0.0533002, 0.0251257
0.158016, 1.69882, -1.22558, -1.53967, -0.906108, -1.20691, 1.22791, -1.30215, 0.0283089, 0.0364979, 0.071269, -0.169492, -0.146804, -0.000453213, 0.0161347, 3.003, 67.0602, 35.1969, 5.12909, 3.37024, 3.89804, -0.10796, -0.00470037, -0.00097994, 0.00453458, 0.00959123, -0.0118331, -0.00244884, 0.0882409, 0.00371237, -0.0260478, -0.141201, 0.258934, 0.0348492, 0.473662, -0.536276, 0.33952, -2.07864, -2.1695, -0.124636, 0.47269, -0.540271, 0.334352, -2.07694, -2.17508, -0.10224, 0.0489955, 0.133562, 0.0676647, 0.0477583, 0.0502364, 0.0284981
0.159016, 1.69883, -1.22554, -1.53958, -0.906296, -1.20706, 1.2279, -1.30213, 0.0243836, 0.0378433, 0.0774336, -0.175392, -0.147748, -0.000574341, 0.0120353, 3.15376, 67.2427, 35.2683, 5.16479, 3.37665, 3.90536, -0.10796, -0.00478367, -0.000983741, 0.00455202, 0.00960428, -0.0119808, -0.00253709, 0.0885536, 0.00423914, -0.0242166, -0.138977, 0.261977, 0.0416674, 0.473711, -0.536142, 0.339588, -2.07854, -2.16956, -0.124539, 0.472738, -0.540217, 0.33439, -2.07682, -2.17532, -0.101987, 0.049516, 0.135047, 0.0684043, 0.0478428, 0.0511086, 0.031018
0.160016, 1.69885, -1.22549, -1.5395, -0.906488, -1.20721, 1.22791, -1.30212, 0.0210495, 0.0424763, 0.0792747, -0.182837, -0.144369, -0.000383592, 0.0135559, 3.19343, 67.3895, 35.4548, 5.2005, 3.39496, 3.90536, -0.101552, -0.0048693, -0.000986901, 0.00457, 0.00962164, -0.0121412, -0.00262852, 0.0879174, 0.00437547, -0.0222151, -0.138775, 0.265366, 0.0441145, 0.473761, -0.536006, 0.339657, -2.07844, -2.16963, -0.124441, 0.472788, -0.540163, 0.334429, -2.07669, -2.17556, -0.101715, 0.0500371, 0.136535, 0.0691452, 0.0482869, 0.0529128, 0.0338403
0.161016, 1.69887, -1.22544, -1.5394, -0.906684, -1.20737, 1.2279, -1.30211, 0.0154424, 0.0428125, 0.0832134, -0.184042, -0.141877, -0.00103615, 0.014606, 3.22913, 67.6831, 35.5301, 5.2005, 3.42517, 3.92642, -0.0951428, -0.00495489, -0.000990363, 0.00458706, 0.00963131, -0.0122957, -0.00272224, 0.0902, 0.00698108, -0.0210943, -0.134979, 0.263987, 0.0401092, 0.473811, -0.535869, 0.339727, -2.07834, -2.1697, -0.124341, 0.472837, -0.540108, 0.334468, -2.07657, -2.17582, -0.101458, 0.0505588, 0.138026, 0.0698875, 0.0463479, 0.0518601, 0.0354279
0.162016, 1.69888, -1.22539, -1.53931, -0.906888, -1.20752, 1.2279, -1.3021, 0.0102152, 0.0457702, 0.0831566, -0.189161, -0.143829, -0.000419889, 0.0131723, 3.30451, 67.8696, 35.7523, 5.24017, 3.41968, 3.9191, -0.0292249, -0.00504295, -0.000997508, 0.00460469, 0.00964463, -0.0124515, -0.00281885, 0.0927549, 0.00952003, -0.0202827, -0.137329, 0.270114, 0.0389504, 0.473862, -0.53573, 0.339797, -2.07824, -2.16977, -0.124241, 0.472884, -0.540054, 0.334508, -2.07643, -2.17607, -0.101194, 0.0510809, 0.13952, 0.0706309, 0.044475, 0.0505913, 0.0366679
0.163016, 1.69889, -1.22534, -1.53922, -0.907103, -1.20766, 1.2279, -1.30209, 0.0123378, 0.0467564, 0.0847732, -0.195965, -0.145493, -0.000822756, 0.0105664, 3.26881, 68.0917, 35.9031, 5.27588, 3.42517, 3.93374, -0.0420422, -0.00512495, -0.000998271, 0.0046224, 0.00965643, -0.0126055, -0.00292525, 0.091212, 0.00738493, -0.0207306, -0.141013, 0.273871, 0.048641, 0.473913, -0.53559, 0.339868, -2.07814, -2.16984, -0.12414, 0.472937, -0.539993, 0.334549, -2.07629, -2.17633, -0.100934, 0.0516036, 0.141018, 0.0713756, 0.0470553, 0.053776, 0.0371389
0.164016, 1.69889, -1.22529, -1.53911, -0.907332, -1.20781, 1.2279, -1.30207, 0.00862277, 0.0496545, 0.0881696, -0.205176, -0.142678, -0.00109126, 0.00778952, 3.30451, 68.2385, 36.0895, 5.35126, 3.43799, 3.94839, -0.0356336, -0.00520474, -0.00100019, 0.00463683, 0.00966964, -0.0127616, -0.00304154, 0.0901332, 0.00718752, -0.0194663, -0.14106, 0.275819, 0.057144, 0.473965, -0.535448, 0.33994, -2.07804, -2.16991, -0.124037, 0.47299, -0.539928, 0.334595, -2.07613, -2.17661, -0.10067, 0.0521267, 0.142518, 0.0721215, 0.0477884, 0.0561569, 0.0392953
0.165016, 1.69889, -1.22524, -1.53901, -0.907555, -1.20795, 1.2279, -1.30206, 0.00398185, 0.051169, 0.0919594, -0.2096, -0.140142, -0.000998939, 0.0106048, 3.41956, 68.5321, 36.2363, 5.31555, 3.4563, 3.95572, -0.0356336, -0.00529224, -0.00100789, 0.00465243, 0.00967435, -0.0129141, -0.00314355, 0.0910294, 0.00844614, -0.0181377, -0.138275, 0.276313, 0.0550685, 0.474018, -0.535305, 0.340012, -2.07793, -2.16998, -0.123934, 0.473037, -0.539869, 0.334639, -2.076, -2.17687, -0.100417, 0.0526502, 0.144021, 0.0728685, 0.0471503, 0.0565143, 0.0412618
0.166016, 1.69889, -1.22519, -1.5389, -0.907795, -1.2081, 1.2279, -1.30204, 0.00158478, 0.0513428, 0.0926258, -0.219666, -0.138727, -0.000666084, 0.013687, 3.49494, 68.7543, 36.4625, 5.31555, 3.47461, 3.95572, -0.0621838, -0.00537503, -0.00101098, 0.004669, 0.00968243, -0.0130687, -0.00325885, 0.0902765, 0.00779289, -0.0195726, -0.141628, 0.277328, 0.0580705, 0.474071, -0.53516, 0.340086, -2.07783, -2.17005, -0.123829, 0.47309, -0.539804, 0.334683, -2.07584, -2.17715, -0.100158, 0.0531742, 0.145527, 0.0736165, 0.0482443, 0.0590102, 0.0406894
0.167016, 1.69888, -1.22514, -1.53879, -0.908031, -1.20823, 1.22789, -1.30203, 0.00212382, 0.0524736, 0.101656, -0.229298, -0.137299, -0.000952775, 0.0151054, 3.60603, 69.0479, 36.5735, 5.24017, 3.48102, 3.96945, -0.0685925, -0.00545711, -0.00101453, 0.00468383, 0.00967749, -0.0132089, -0.00337902, 0.0864473, 0.00425456, -0.0176183, -0.138335, 0.278531, 0.0692102, 0.474124, -0.535014, 0.34016, -2.07772, -2.17012, -0.123723, 0.473143, -0.539737, 0.33473, -2.07568, -2.17743, -0.0999281, 0.0536985, 0.147036, 0.0743657, 0.052231, 0.0641642, 0.0438402
0.168016, 1.69888, -1.22508, -1.53867, -0.908287, -1.20836, 1.22789, -1.30201, 0.00171707, 0.0567328, 0.105125, -0.235732, -0.132039, -0.000126627, 0.0158709, 3.75678, 69.1946, 36.7203, 5.27588, 3.51123, 3.95572, -0.0685925, -0.00553658, -0.0010158, 0.00469605, 0.00967777, -0.0133642, -0.00351142, 0.0842114, 0.0023693, -0.0152277, -0.135286, 0.280257, 0.075827, 0.474178, -0.534866, 0.340234, -2.07762, -2.17019, -0.123617, 0.473198, -0.539666, 0.334781, -2.07551, -2.17773, -0.0996768, 0.0542231, 0.148547, 0.0751158, 0.0546494, 0.067606, 0.0472335
0.169016, 1.69887, -1.22502, -1.53856, -0.908547, -1.20849, 1.22789, -1.302, -0.00255601, 0.0554212, 0.106554, -0.240208, -0.132715, -0.000593097, 0.0118709, 3.94721, 69.4168, 36.9068, 5.16479, 3.55426, 3.96945, -0.0685925, -0.0056171, -0.00101957, 0.00471224, 0.00967994, -0.0135069, -0.00364118, 0.0862716, 0.00423721, -0.0164659, -0.136907, 0.280445, 0.0788403, 0.474232, -0.534717, 0.34031, -2.07751, -2.17026, -0.123509, 0.473252, -0.539594, 0.334829, -2.07534, -2.17802, -0.0994351, 0.054748, 0.150061, 0.0758669, 0.0533485, 0.0671866, 0.0465113
0.170016, 1.69884, -1.22496, -1.53843, -0.908819, -1.20862, 1.22789, -1.30198, -0.00819162, 0.0563617, 0.113672, -0.254983, -0.134553, -0.00441227, 0.0103398, 4.24873, 69.5636, 36.9822, 5.12909, 3.61011, 3.96213, -0.10796, -0.00569777, -0.0010229, 0.00472244, 0.00966968, -0.0136605, -0.00377477, 0.0843733, 0.00436706, -0.0160004, -0.141417, 0.282774, 0.0893099, 0.474287, -0.534566, 0.340386, -2.0774, -2.17034, -0.123401, 0.473306, -0.539522, 0.334883, -2.07517, -2.17833, -0.0991954, 0.0552732, 0.151577, 0.0766189, 0.0536916, 0.0704996, 0.0480213
0.171016, 1.69883, -1.22491, -1.5383, -0.9091, -1.20875, 1.22789, -1.30196, -0.00949158, 0.055511, 0.11455, -0.261011, -0.124953, -0.00329889, 0.0122036, 4.43916, 69.7461, 37.0933, 5.01404, 3.64032, 3.96213, -0.101552, -0.00577261, -0.00102055, 0.00473904, 0.00966613, -0.0138009, -0.00393158, 0.0828453, 0.00289324, -0.0174268, -0.138491, 0.276089, 0.093946, 0.474343, -0.534414, 0.340463, -2.07729, -2.17041, -0.123291, 0.473367, -0.539441, 0.334932, -2.07496, -2.17865, -0.0989631, 0.0557986, 0.153096, 0.0773717, 0.055574, 0.0738109, 0.0475526
0.172016, 1.69881, -1.22484, -1.53817, -0.909399, -1.20886, 1.22789, -1.30194, -0.0112994, 0.0549021, 0.117605, -0.270884, -0.127651, -0.00222993, 0.0143278, 4.66529, 69.8215, 37.244, 4.97833, 3.67145, 3.95572, -0.114369, -0.00584405, -0.00101693, 0.00475137, 0.00966405, -0.0139503, -0.0040942, 0.0823614, 0.00185362, -0.0184013, -0.141076, 0.279944, 0.0980982, 0.474399, -0.53426, 0.340541, -2.07718, -2.17049, -0.12318, 0.473429, -0.539356, 0.334987, -2.07475, -2.17898, -0.0987196, 0.0563242, 0.154618, 0.0781255, 0.0570837, 0.0760051, 0.0473854
0.173016, 1.69879, -1.22478, -1.53805, -0.909688, -1.20898, 1.22788, -1.30192, -0.0161106, 0.0578325, 0.117802, -0.276116, -0.124312, -0.001925, 0.0155879, 5.04218, 69.9683, 37.3551, 4.71649, 3.69617, 3.96213, -0.120778, -0.00592253, -0.00102106, 0.00476435, 0.00965518, -0.0140877, -0.00424073, 0.0835864, 0.00357219, -0.017613, -0.141144, 0.281602, 0.0966378, 0.474456, -0.534104, 0.340619, -2.07707, -2.17056, -0.123068, 0.473484, -0.539277, 0.335041, -2.07456, -2.1793, -0.0984931, 0.05685, 0.156141, 0.07888, 0.0559814, 0.0761185, 0.0487915
0.174016, 1.69877, -1.22471, -1.53792, -0.909994, -1.20909, 1.22788, -1.30191, -0.0158513, 0.0611696, 0.117549, -0.282246, -0.119021, -0.00119674, 0.0152033, 5.26832, 69.9683, 37.4662, 4.56573, 3.763, 3.95572, -0.0878186, -0.0059932, -0.00101623, 0.00477611, 0.00965162, -0.0142375, -0.00441498, 0.0819979, 0.00204332, -0.0170946, -0.141484, 0.282573, 0.103055, 0.474513, -0.533947, 0.340699, -2.07696, -2.17064, -0.122956, 0.473549, -0.539188, 0.335098, -2.07434, -2.17964, -0.0982499, 0.0573759, 0.157667, 0.0796352, 0.0579954, 0.0792043, 0.0502528
0.175016, 1.69874, -1.22464, -1.53779, -0.910304, -1.2092, 1.22788, -1.30189, -0.0206283, 0.0624207, 0.124113, -0.294727, -0.113415, -0.000368366, 0.0164041, 5.56983, 70.004, 37.5773, 4.30786, 3.79413, 3.94107, -0.0951428, -0.00606741, -0.00101552, 0.00478835, 0.00965122, -0.0143882, -0.00457885, 0.0794866, 0.000631364, -0.0159965, -0.138013, 0.281267, 0.111889, 0.47457, -0.533789, 0.340779, -2.07684, -2.17071, -0.122842, 0.47361, -0.539101, 0.335154, -2.07412, -2.17998, -0.0980003, 0.0579019, 0.159194, 0.0803912, 0.0598785, 0.0831103, 0.0524325
0.176016, 1.69871, -1.22458, -1.53766, -0.910628, -1.20931, 1.22788, -1.30186, -0.0227296, 0.0647983, 0.123408, -0.299834, -0.109486, 0.000483419, 0.0177173, 5.94672, 70.0793, 37.6526, 4.00635, 3.83075, 3.9191, -0.114369, -0.00614003, -0.00101287, 0.00480504, 0.00964703, -0.0145297, -0.0047498, 0.0797225, 0.00084578, -0.0159303, -0.138513, 0.282313, 0.112731, 0.474629, -0.533629, 0.340859, -2.07673, -2.17079, -0.122727, 0.473673, -0.53901, 0.335208, -2.0739, -2.18032, -0.0977639, 0.0584279, 0.160724, 0.0811479, 0.0602084, 0.0843864, 0.0532281
0.177016, 1.69868, -1.22451, -1.53753, -0.910968, -1.20941, 1.22788, -1.30184, -0.023255, 0.0640474, 0.125033, -0.307858, -0.106829, 0.00130984, 0.018215, 6.28791, 70.1508, 37.7637, 3.85956, 3.89209, 3.89071, -0.120778, -0.00620777, -0.00100659, 0.00482312, 0.00964566, -0.0146676, -0.00493994, 0.0784449, -0.000796213, -0.0173515, -0.13944, 0.281472, 0.119273, 0.474687, -0.533468, 0.340941, -2.07661, -2.17087, -0.122611, 0.47374, -0.538913, 0.335261, -2.07365, -2.18068, -0.097529, 0.0589541, 0.162256, 0.0819052, 0.0622684, 0.0874713, 0.0527237
0.178016, 1.69866, -1.22444, -1.5374, -0.911298, -1.20951, 1.22788, -1.30182, -0.0226469, 0.064043, 0.123156, -0.314061, -0.105331, 0.00160541, 0.0116739, 6.58942, 70.1904, 37.8748, 3.59772, 3.94794, 3.86966, -0.0685925, -0.00627856, -0.00100221, 0.00483945, 0.00964107, -0.0148061, -0.00512402, 0.0780432, -0.0018111, -0.0194281, -0.14374, 0.282114, 0.130296, 0.474746, -0.533304, 0.341023, -2.07649, -2.17095, -0.122494, 0.473806, -0.538818, 0.335316, -2.07341, -2.18104, -0.0972953, 0.0594802, 0.16379, 0.0826631, 0.0637111, 0.0897634, 0.0514597
0.179016, 1.69862, -1.22437, -1.53725, -0.911639, -1.20961, 1.22788, -1.3018, -0.0281224, 0.0661497, 0.127873, -0.324356, -0.104187, 0.00130577, 0.0187414, 7.00599, 70.1508, 37.8391, 3.33588, 4.00928, 3.86233, -0.0814099, -0.0063492, -0.000999313, 0.00485066, 0.00962552, -0.0149465, -0.0053069, 0.0775713, -0.0012891, -0.0182323, -0.143691, 0.284692, 0.128243, 0.474806, -0.53314, 0.341106, -2.07637, -2.17103, -0.122376, 0.473871, -0.538721, 0.335378, -2.07317, -2.18139, -0.0970708, 0.0600063, 0.165325, 0.0834216, 0.0637511, 0.0915585, 0.0534916
0.180016, 1.69859, -1.22431, -1.53711, -0.911992, -1.2097, 1.22788, -1.30177, -0.0323552, 0.0675892, 0.133137, -0.341818, -0.102625, 0.00192875, 0.0182561, 7.3075, 70.2261, 37.8391, 3.14941, 4.0459, 3.83304, -0.0685925, -0.00641599, -0.000991295, 0.00487174, 0.00961877, -0.0150743, -0.00550851, 0.074374, -0.00338162, -0.0182039, -0.145819, 0.287385, 0.14169, 0.474866, -0.532974, 0.34119, -2.07626, -2.17111, -0.122257, 0.473942, -0.538618, 0.33543, -2.07291, -2.18176, -0.0968502, 0.0605324, 0.166863, 0.0841806, 0.06624, 0.0963466, 0.0546983
0.181016, 1.69854, -1.22424, -1.53697, -0.912353, -1.2098, 1.22788, -1.30175, -0.0351519, 0.070903, 0.135971, -0.345581, -0.0983232, 0.00177433, 0.0189269, 7.7201, 70.0793, 37.9145, 2.99866, 4.12555, 3.8193, -0.0814099, -0.00648758, -0.000988704, 0.00488583, 0.00961167, -0.0152226, -0.00569642, 0.0743191, -0.00292547, -0.0162054, -0.143122, 0.288205, 0.14308, 0.474927, -0.532806, 0.341275, -2.07613, -2.17119, -0.122137, 0.474008, -0.538519, 0.33549, -2.07266, -2.18213, -0.0966068, 0.0610583, 0.168402, 0.0849401, 0.0663962, 0.0976152, 0.0574577
0.182016, 1.69851, -1.22417, -1.53683, -0.912721, -1.20989, 1.22788, -1.30171, -0.0358862, 0.0689947, 0.138141, -0.351246, -0.0932828, 0.00143906, 0.0209859, 7.9502, 70.1151, 37.9859, 2.85187, 4.15668, 3.81198, -0.133595, -0.00655327, -0.00097846, 0.00490842, 0.00960357, -0.0153505, -0.00589796, 0.073241, -0.00408558, -0.0178899, -0.142431, 0.283437, 0.146864, 0.474989, -0.532637, 0.34136, -2.07601, -2.17127, -0.122016, 0.474081, -0.538411, 0.335543, -2.07239, -2.1825, -0.0963856, 0.0615842, 0.169942, 0.0857, 0.0679707, 0.10053, 0.0566808
0.183016, 1.69848, -1.2241, -1.53668, -0.913082, -1.20999, 1.22788, -1.30169, -0.0397524, 0.0719113, 0.142342, -0.354585, -0.0903642, 0.000948055, 0.0195655, 8.17634, 69.9683, 37.9502, 2.6654, 4.21161, 3.81198, -0.114369, -0.00662021, -0.000970889, 0.00492226, 0.00959196, -0.0154891, -0.00610229, 0.0737813, -0.00296312, -0.0155513, -0.139161, 0.284666, 0.149109, 0.47505, -0.532466, 0.341446, -2.07589, -2.17135, -0.121894, 0.474153, -0.538304, 0.335605, -2.07213, -2.18288, -0.0961567, 0.0621099, 0.171484, 0.0864603, 0.0675007, 0.101131, 0.0597091
0.184016, 1.69843, -1.22403, -1.53654, -0.913464, -1.21008, 1.22788, -1.30165, -0.0405382, 0.071368, 0.146608, -0.365296, -0.0871129, 0.000894814, 0.0237707, 8.43818, 69.9326, 37.9859, 2.59003, 4.23633, 3.80466, -0.10796, -0.00668695, -0.000962101, 0.00494373, 0.00958302, -0.0156213, -0.00631229, 0.0710444, -0.00540382, -0.0163497, -0.139441, 0.283246, 0.155487, 0.475113, -0.532294, 0.341533, -2.07577, -2.17143, -0.121771, 0.474226, -0.538194, 0.335661, -2.07185, -2.18327, -0.0959308, 0.0626355, 0.173028, 0.087221, 0.0703204, 0.105614, 0.0600172
0.185016, 1.6984, -1.22397, -1.53639, -0.913849, -1.21016, 1.22789, -1.30162, -0.0416114, 0.0708689, 0.14776, -0.372089, -0.084556, 0.00137007, 0.0274772, 8.58894, 69.8929, 37.9502, 2.43927, 4.25464, 3.7836, -0.114369, -0.00675092, -0.000949817, 0.00496484, 0.00956994, -0.0157505, -0.00653201, 0.0704386, -0.0062852, -0.0176284, -0.140433, 0.282492, 0.156932, 0.475176, -0.53212, 0.34162, -2.07564, -2.17152, -0.121646, 0.474303, -0.53808, 0.335718, -2.07156, -2.18366, -0.0957125, 0.0631608, 0.174573, 0.087982, 0.0716519, 0.107992, 0.0595791
0.186016, 1.69836, -1.2239, -1.53624, -0.914233, -1.21025, 1.22789, -1.30159, -0.0364661, 0.0711436, 0.149408, -0.374852, -0.0880831, 0.00172241, 0.03056, 8.73969, 69.8215, 37.9145, 2.32819, 4.29767, 3.76163, -0.133595, -0.00681946, -0.000941319, 0.00498579, 0.0095598, -0.0158857, -0.00674008, 0.0692818, -0.00912319, -0.0180135, -0.142849, 0.287275, 0.159779, 0.475239, -0.531945, 0.341709, -2.07552, -2.1716, -0.121521, 0.474378, -0.537969, 0.335775, -2.07129, -2.18405, -0.0954828, 0.0636859, 0.176119, 0.0887433, 0.0749503, 0.110874, 0.0600396
0.187016, 1.69831, -1.22382, -1.53609, -0.914629, -1.21034, 1.22789, -1.30155, -0.0391327, 0.0706008, 0.149852, -0.378102, -0.0859044, 0.00192458, 0.0320833, 8.89045, 69.6747, 38.0256, 2.29248, 4.32788, 3.74057, -0.127186, -0.00688868, -0.000935044, 0.00500582, 0.00955359, -0.016026, -0.00694971, 0.0706415, -0.00810889, -0.0190274, -0.143002, 0.286282, 0.158257, 0.475303, -0.531768, 0.341798, -2.07539, -2.17169, -0.121395, 0.47445, -0.537858, 0.335834, -2.07101, -2.18444, -0.0952426, 0.0642108, 0.177667, 0.0895048, 0.0744823, 0.111184, 0.059629
0.188016, 1.69826, -1.22376, -1.53592, -0.915012, -1.21043, 1.22789, -1.30152, -0.0405988, 0.0684954, 0.156991, -0.381655, -0.0830404, 0.0018229, 0.0332824, 9.0055, 69.7104, 37.8748, 2.14172, 4.32788, 3.72592, -0.120778, -0.00695985, -0.000928227, 0.00502548, 0.00952134, -0.0161459, -0.00715655, 0.0699552, -0.00905338, -0.0186946, -0.137666, 0.282718, 0.161966, 0.475368, -0.53159, 0.341888, -2.07526, -2.17177, -0.121268, 0.474524, -0.537747, 0.335893, -2.07074, -2.18482, -0.0950507, 0.0647353, 0.179216, 0.0902666, 0.0759396, 0.113406, 0.0607929
0.189016, 1.69821, -1.22368, -1.53576, -0.915412, -1.21052, 1.22789, -1.30148, -0.040795, 0.076393, 0.156538, -0.381877, -0.0825805, 0.00202706, 0.0341171, 9.08088, 69.4525, 37.9502, 2.03064, 4.37732, 3.70395, -0.114369, -0.00702751, -0.000919348, 0.00503749, 0.00950405, -0.0162972, -0.00737325, 0.0708545, -0.00822167, -0.0147806, -0.137666, 0.291407, 0.159678, 0.475433, -0.53141, 0.341978, -2.07513, -2.17186, -0.121139, 0.4746, -0.537632, 0.335962, -2.07046, -2.18523, -0.0948102, 0.0652596, 0.180765, 0.0910285, 0.0758412, 0.113436, 0.0653138
0.190016, 1.69817, -1.22363, -1.53559, -0.915808, -1.21061, 1.2279, -1.30144, -0.0416667, 0.0715172, 0.161556, -0.382419, -0.0814973, 0.00240102, 0.0337065, 9.04517, 69.5279, 37.9502, 1.91559, 4.40204, 3.67557, -0.0814099, -0.00709681, -0.000908218, 0.00506165, 0.00947433, -0.0164168, -0.00759398, 0.0719046, -0.00840558, -0.0163904, -0.133501, 0.286629, 0.161417, 0.475498, -0.531228, 0.34207, -2.075, -2.17194, -0.12101, 0.474679, -0.537515, 0.336018, -2.07017, -2.18563, -0.0946153, 0.0657834, 0.182316, 0.0917906, 0.0765307, 0.114203, 0.0643208
