alisrour97/Franka_experiments/Real_Robot_scripts/servo-franka/Data_5_ki/log_dyn_PI0_10.csv
Time,q1,q2,q3,q4,q5,q6,q7,dq1,dq2,dq3,dq4,dq5,dq6,dq7,t1,t2,t3,t4,t5,t6,t7,ex1,ex2,ex3,ex4,ex5,ex6,ev1,ev2,ev3,ev4,ev5,ev6,xd,yd,zd,uxd,uyd,uzd,x,y,z,ux,uy,uz,vxd,vyd,vzd,vx,vy,vz
4.88281e-07, 1.69125, -1.22893, -1.53984, -0.90055, -1.19225, 1.22813, -1.30265, -0.00809542, 0.00790632, -0.00151642, 0.0103909, -0.000409802, 6.47374e-05, -0.000897076, 1.45576, 65.4376, 32.7768, 6.65649, 2.83649, 3.7186, -0.140919, 0.000295521, -0.00190445, 0.00280784, 0.00286365, 0.00255695, 0.000608244, 0.00647784, 0.00727007, 0.00593209, 0.00532835, 0.00727158, -0.0173281, 0.471008, -0.543389, 0.335894, -2.08385, -2.16584, -0.129887, 0.469006, -0.542729, 0.333219, -2.0816, -2.16268, -0.129226, -4.06186e-05, 0.000124715, 6.6488e-05, -0.00685555, -0.00748089, 0.00513771
0.0121165, 1.69118, -1.22886, -1.53986, -0.900439, -1.19227, 1.22814, -1.30266, -0.0066925, 0.00278646, -0.00105835, 0.0133733, -0.00109104, -3.98856e-05, 0.000279304, 1.15424, 65.4733, 32.8126, 6.73187, 2.87952, 3.7186, -0.120778, 0.000231318, -0.00197355, 0.00275283, 0.00281281, 0.00248225, 0.000785586, 0.00734378, 0.00704859, 0.00338301, 0.00604432, 0.00249927, -0.019726, 0.471008, -0.543389, 0.335894, -2.08385, -2.16584, -0.129887, 0.468929, -0.542818, 0.333271, -2.08191, -2.16251, -0.129202, -6.68636e-05, 0.000218577, 0.000115026, -0.00672165, -0.00784052, 0.00252816
0.0131165, 1.69118, -1.22886, -1.53986, -0.900439, -1.19227, 1.22814, -1.30266, -0.0066925, 0.00278646, -0.00105835, 0.0133733, -0.00109104, -3.98856e-05, 0.000279304, 1.15424, 65.4733, 32.8126, 6.73187, 2.87952, 3.7186, -0.120778, 0.000231295, -0.00197355, 0.00275284, 0.0028128, 0.00248225, 0.000785598, 0.00745465, 0.0070225, 0.00334735, 0.00599722, 0.00257163, -0.0198158, 0.471008, -0.543389, 0.335894, -2.08385, -2.16584, -0.129887, 0.468929, -0.542818, 0.333271, -2.08191, -2.16251, -0.129202, -9.5592e-05, 0.000321476, 0.000168224, -0.00672165, -0.00784052, 0.00252816
0.0141165, 1.69118, -1.22886, -1.53986, -0.900439, -1.19227, 1.22814, -1.30266, -0.0066925, 0.00278646, -0.00105835, 0.0133733, -0.00109104, -3.98856e-05, 0.000279304, 1.15424, 65.4733, 32.8126, 6.73187, 2.87952, 3.7186, -0.120778, 0.000231234, -0.00197353, 0.00275286, 0.00281277, 0.00248227, 0.000785631, 0.00757562, 0.00699409, 0.00330846, 0.00594592, 0.00265056, -0.0199137, 0.471008, -0.543389, 0.335894, -2.08385, -2.16584, -0.129887, 0.468929, -0.542818, 0.333271, -2.08191, -2.16251, -0.129202, -0.000126895, 0.000433757, 0.000226255, -0.00672165, -0.00784052, 0.00252816
0.0151167, 1.69118, -1.22886, -1.53986, -0.900439, -1.19227, 1.22814, -1.30266, -0.0066925, 0.00278646, -0.00105835, 0.0133733, -0.00109104, -3.98856e-05, 0.000279304, 1.15424, 65.4733, 32.8126, 6.73187, 2.87952, 3.7186, -0.120778, 0.000231114, -0.0019735, 0.0027529, 0.00281271, 0.00248229, 0.000785695, 0.00770706, 0.00696326, 0.00326622, 0.00589027, 0.00273628, -0.0200199, 0.471008, -0.543389, 0.335894, -2.08385, -2.16584, -0.129887, 0.468929, -0.542818, 0.333271, -2.08191, -2.16251, -0.129202, -0.000160861, 0.000555757, 0.000289294, -0.00672165, -0.00784052, 0.00252816
0.0161167, 1.69118, -1.22886, -1.53986, -0.900439, -1.19227, 1.22814, -1.30266, -0.0066925, 0.00278646, -0.00105835, 0.0133733, -0.00109104, -3.98856e-05, 0.000279304, 1.15424, 65.4733, 32.8126, 6.73187, 2.87952, 3.7186, -0.120778, 0.000230917, -0.00197346, 0.00275296, 0.00281262, 0.00248234, 0.0007858, 0.00784933, 0.00692993, 0.00322051, 0.00583012, 0.00282903, -0.0201349, 0.471008, -0.543389, 0.335894, -2.08385, -2.16584, -0.129886, 0.468929, -0.542818, 0.333271, -2.08191, -2.16251, -0.129202, -0.000197581, 0.000687809, 0.000357511, -0.00672165, -0.00784052, 0.00252816
0.0171167, 1.69118, -1.22886, -1.53986, -0.900439, -1.19227, 1.22814, -1.30266, -0.0066925, 0.00278646, -0.00105835, 0.0133733, -0.00109104, -3.98856e-05, 0.000279304, 1.15424, 65.4733, 32.8126, 6.73187, 2.87952, 3.7186, -0.120778, 0.000230623, -0.00197339, 0.00275306, 0.00281247, 0.00248241, 0.000785956, 0.00800277, 0.00689404, 0.00317122, 0.00576534, 0.00292903, -0.0202588, 0.471008, -0.543389, 0.335894, -2.08385, -2.16584, -0.129886, 0.468929, -0.542818, 0.333271, -2.08191, -2.16251, -0.129202, -0.000237139, 0.000830243, 0.000431075, -0.00672165, -0.00784052, 0.00252816
0.0181167, 1.69118, -1.22886, -1.53986, -0.900439, -1.19227, 1.22814, -1.30266, -0.0066925, 0.00278646, -0.00105835, 0.0133733, -0.00109104, -3.98856e-05, 0.000279304, 1.15424, 65.4733, 32.8126, 6.73187, 2.87952, 3.7186, -0.120778, 0.000230215, -0.00197329, 0.00275319, 0.00281228, 0.0024825, 0.000786174, 0.00816774, 0.00685549, 0.00311824, 0.00569579, 0.0030365, -0.0203919, 0.471008, -0.543388, 0.335894, -2.08385, -2.16584, -0.129886, 0.468929, -0.542818, 0.333271, -2.08191, -2.16251, -0.129202, -0.000279621, 0.000983381, 0.00051015, -0.00672165, -0.00784052, 0.00252816
0.0191167, 1.69118, -1.22886, -1.53986, -0.900439, -1.19227, 1.22814, -1.30266, -0.0066925, 0.00278646, -0.00105835, 0.0133733, -0.00109104, -3.98856e-05, 0.000279304, 1.15424, 65.4733, 32.8126, 6.73187, 2.87952, 3.7186, -0.120778, 0.000229672, -0.00197316, 0.00275336, 0.00281202, 0.00248263, 0.000786462, 0.00834459, 0.00681423, 0.00306146, 0.00562132, 0.00315168, -0.0205345, 0.471008, -0.543388, 0.335895, -2.08385, -2.16584, -0.129886, 0.468929, -0.542818, 0.333271, -2.08191, -2.16251, -0.129202, -0.00032511, 0.00114754, 0.000594898, -0.00672165, -0.00784052, 0.00252816
0.0201167, 1.69115, -1.2288, -1.53987, -0.900377, -1.19227, 1.22814, -1.30266, -0.00308557, 0.00492166, -0.00449391, 0.00539849, 0.000888426, 0.000940016, -0.001489, 0.511544, 65.4733, 32.8522, 6.99371, 2.8548, 3.66824, -0.0685925, 0.000197633, -0.00200734, 0.00271493, 0.00278212, 0.00242679, 0.000875322, 0.00479297, 0.0032077, 0.00182975, 0.000143581, 0.005294, -0.00940136, 0.471007, -0.543387, 0.335895, -2.08384, -2.16584, -0.129885, 0.468898, -0.542856, 0.333305, -2.08205, -2.16246, -0.129169, -0.000373687, 0.00132303, 0.000685479, -0.00333981, -0.00382162, 0.00184504
0.0211167, 1.69115, -1.2288, -1.53987, -0.900372, -1.19227, 1.22814, -1.30267, -0.0051202, 0.00195353, -0.00153489, 0.00560102, 0.00015152, 0.000626662, -0.000517946, 0.475838, 65.5487, 32.7768, 7.06909, 2.8667, 3.66824, -0.0814099, 0.000193979, -0.00201018, 0.00271272, 0.0027771, 0.00242532, 0.000881443, 0.00573185, 0.00391273, 0.00117799, 0.00219645, 0.0026455, -0.0114903, 0.471007, -0.543386, 0.335895, -2.08384, -2.16584, -0.129884, 0.468895, -0.54286, 0.333307, -2.08206, -2.16246, -0.129172, -0.000425431, 0.00151016, 0.000782046, -0.00408562, -0.00448992, 0.00117358
0.0221167, 1.69114, -1.2288, -1.53988, -0.900367, -1.19227, 1.22814, -1.30266, -0.00737876, -0.00106454, -0.00709154, 0.00754471, -0.00141039, 0.00174019, 0.00135012, 0.475838, 65.2551, 32.6261, 7.06909, 2.78064, 3.63254, -0.127186, 0.000188265, -0.00201527, 0.00271162, 0.00277514, 0.00242454, 0.000901957, 0.00938087, 0.00646434, -0.00215123, -0.00149372, 0.00172738, -0.0205984, 0.471007, -0.543385, 0.335896, -2.08384, -2.16584, -0.129884, 0.46889, -0.542865, 0.333308, -2.08208, -2.16244, -0.12917, -0.000480419, 0.00170921, 0.00088475, -0.00667861, -0.00748528, -0.00250048
0.0231167, 1.69114, -1.2288, -1.53989, -0.900363, -1.19226, 1.22815, -1.30266, -0.00615972, -0.00315637, -0.00944555, 0.00677614, -0.00528133, -0.00244351, -0.00055798, 0.360787, 64.664, 32.2532, 7.02942, 2.63324, 3.60415, -0.0878186, 0.000184144, -0.00201645, 0.00271549, 0.00277986, 0.00242511, 0.000909333, 0.00985051, 0.0071361, -0.00482474, -0.00981727, 0.001145, -0.019381, 0.471007, -0.543384, 0.335896, -2.08384, -2.16585, -0.129883, 0.468888, -0.542867, 0.333304, -2.08208, -2.16243, -0.129164, -0.000538724, 0.00192048, 0.000993739, -0.00748752, -0.00735366, -0.00508402
0.0241167, 1.69115, -1.22881, -1.53992, -0.900364, -1.19227, 1.22815, -1.30267, 0.00027375, -0.00498663, -0.0182441, 0.00596638, -0.00824755, -0.000423219, 0.000372248, 0.134651, 64.0372, 31.8842, 6.99371, 2.47394, 3.56112, 0.0165515, 0.000178582, -0.00201597, 0.00273227, 0.00280906, 0.00242529, 0.000905496, 0.00978887, 0.00477395, -0.00937347, -0.0187872, 0.0037481, -0.0186289, 0.471006, -0.543383, 0.335897, -2.08384, -2.16585, -0.129882, 0.468888, -0.542869, 0.333288, -2.08206, -2.16242, -0.129131, -0.000600418, 0.00214425, 0.00110915, -0.00535652, -0.00627228, -0.00952174
0.0251167, 1.69115, -1.22881, -1.53992, -0.900364, -1.19227, 1.22815, -1.30267, 0.00027375, -0.00498663, -0.0182441, 0.00596638, -0.00824755, -0.000423219, 0.000372248, 0.134651, 64.0372, 31.8842, 6.99371, 2.47394, 3.56112, 0.0165515, 0.000176851, -0.00201557, 0.00273283, 0.00280823, 0.00242569, 0.000906415, 0.0100436, 0.00471488, -0.00945517, -0.0188937, 0.00391373, -0.0188337, 0.471006, -0.543381, 0.335898, -2.08384, -2.16585, -0.129881, 0.468888, -0.542869, 0.333288, -2.08206, -2.16242, -0.129131, -0.00066557, 0.00238079, 0.00123113, -0.00535652, -0.00627228, -0.00952174
0.0261167, 1.69115, -1.22881, -1.53992, -0.900364, -1.19227, 1.22815, -1.30267, 0.00027375, -0.00498663, -0.0182441, 0.00596638, -0.00824755, -0.000423219, 0.000372248, 0.134651, 64.0372, 31.8842, 6.99371, 2.47394, 3.56112, 0.0165515, 0.000174858, -0.0020151, 0.00273347, 0.00280728, 0.00242615, 0.000907473, 0.0103124, 0.00465263, -0.00954134, -0.019006, 0.00408843, -0.0190496, 0.471005, -0.543379, 0.335899, -2.08384, -2.16585, -0.129879, 0.468888, -0.542869, 0.333288, -2.08206, -2.16242, -0.129131, -0.000734245, 0.00263035, 0.0013598, -0.00535652, -0.00627228, -0.00952174
0.0271167, 1.69115, -1.22881, -1.53992, -0.900364, -1.19227, 1.22815, -1.30267, 0.00027375, -0.00498663, -0.0182441, 0.00596638, -0.00824755, -0.000423219, 0.000372248, 0.134651, 64.0372, 31.8842, 6.99371, 2.47394, 3.56112, 0.0165515, 0.000172587, -0.00201456, 0.0027342, 0.00280619, 0.00242668, 0.000908678, 0.0105955, 0.00458714, -0.00963208, -0.0191241, 0.00427237, -0.0192769, 0.471005, -0.543377, 0.3359, -2.08384, -2.16585, -0.129878, 0.468888, -0.542869, 0.333288, -2.08206, -2.16242, -0.129131, -0.000806507, 0.00289319, 0.0014953, -0.00535652, -0.00627228, -0.00952174
0.0281167, 1.69118, -1.22883, -1.54005, -0.900368, -1.19234, 1.22816, -1.30265, 0.0055081, -0.00236157, -0.0334205, 0.000229577, -0.021881, 0.001482, 0.00333028, -0.242241, 61.9385, 30.4322, 6.73187, 2.08667, 3.49612, -0.0685925, 0.000137997, -0.00202927, 0.00279534, 0.00294976, 0.00238176, 0.000983664, 0.0126678, 0.00421759, -0.0144724, -0.0405546, 0.0208358, -0.0241758, 0.471004, -0.543375, 0.335901, -2.08384, -2.16585, -0.129876, 0.468872, -0.542891, 0.333224, -2.08209, -2.16231, -0.128917, -0.000882416, 0.00316954, 0.00163773, -0.00516399, -0.00728169, -0.0144915
0.0291167, 1.69119, -1.22887, -1.54018, -0.900374, -1.19242, 1.22819, -1.30267, 0.01116, -0.0115074, -0.0453271, -0.00225693, -0.0375701, 0.0150928, -0.000166553, -0.281914, 61.2402, 29.611, 6.58508, 2.01343, 3.25259, -0.00267457, 9.40373e-05, -0.00204482, 0.00286325, 0.00307775, 0.00233291, 0.00104252, 0.0175742, 0.00163808, -0.023627, -0.0494192, 0.0326692, -0.0239607, 0.471003, -0.543372, 0.335903, -2.08383, -2.16585, -0.129874, 0.468854, -0.542922, 0.333152, -2.0821, -2.16223, -0.128717, -0.000962028, 0.00345964, 0.00178723, -0.00282246, -0.0103208, -0.0242206
0.0301167, 1.6912, -1.22889, -1.54024, -0.900381, -1.19246, 1.22821, -1.30266, 0.0111545, -0.0133186, -0.0429246, -0.00805739, -0.0362695, 0.0194126, 0.00167555, -0.281914, 61.0538, 29.0912, 6.58508, 1.95758, 3.13815, -0.0484509, 7.10109e-05, -0.00204904, 0.00290104, 0.00313961, 0.00230882, 0.00108063, 0.0160467, -0.0011233, -0.0243698, -0.0459993, 0.0325047, -0.0193647, 0.471002, -0.543369, 0.335904, -2.08383, -2.16585, -0.129871, 0.468849, -0.542936, 0.333112, -2.08212, -2.16218, -0.128618, -0.0010454, 0.0037637, 0.0019439, -0.000229481, -0.00828145, -0.0246435
0.0311167, 1.69121, -1.2289, -1.54031, -0.90039, -1.1925, 1.22823, -1.30265, 0.013049, -0.0111767, -0.0480875, -0.00935956, -0.0394626, 0.0224806, 0.00216875, -0.357292, 60.6134, 28.7183, 6.58508, 1.89075, 3.03012, -0.0750012, 5.16217e-05, -0.00205037, 0.00292943, 0.00320901, 0.00226046, 0.0011107, 0.0169864, -0.00180556, -0.0250638, -0.0502183, 0.0395027, -0.0207051, 0.471002, -0.543366, 0.335906, -2.08383, -2.16586, -0.129869, 0.468846, -0.542948, 0.333083, -2.08214, -2.16215, -0.128487, -0.00113257, 0.00408193, 0.00210783, 0.000373265, -0.00875624, -0.0253313
0.0321167, 1.69123, -1.22891, -1.54038, -0.900394, -1.19255, 1.22825, -1.30266, 0.0135629, -0.010778, -0.0558678, -0.00854938, -0.0414072, 0.0230203, 0.000513764, -0.392998, 60.3555, 28.3851, 6.5097, 1.80469, 2.96603, -0.0484509, 2.90182e-05, -0.00205508, 0.00296212, 0.00327766, 0.00222541, 0.00114096, 0.0193724, -0.000490703, -0.0275711, -0.0572734, 0.0424372, -0.0239285, 0.471001, -0.543362, 0.335908, -2.08383, -2.16586, -0.129866, 0.46884, -0.542962, 0.333049, -2.08215, -2.16211, -0.128369, -0.0012236, 0.00441451, 0.00227914, -0.00103611, -0.0104471, -0.0279664
0.0331167, 1.69125, -1.22891, -1.54045, -0.900399, -1.19259, 1.22826, -1.30266, 0.0156951, -0.00933201, -0.057499, -0.00575338, -0.0475976, 0.0186064, -0.000805827, -0.508049, 60.062, 28.1589, 6.47003, 1.72504, 2.90835, -0.0164075, 7.38581e-06, -0.00205706, 0.00299333, 0.00335346, 0.00217706, 0.00117153, 0.0205971, 0.000673449, -0.0275282, -0.0644644, 0.0469345, -0.026126, 0.470999, -0.543358, 0.33591, -2.08382, -2.16586, -0.129863, 0.468837, -0.542974, 0.333017, -2.08216, -2.16208, -0.12823, -0.00131852, 0.00476163, 0.0024579, -0.00224833, -0.0113633, -0.0279003
0.0341167, 1.69127, -1.22892, -1.54052, -0.900407, -1.19264, 1.22828, -1.30266, 0.0193488, -0.00992003, -0.0571124, -0.00373673, -0.0467815, 0.0196624, -0.000745733, -0.583427, 59.8398, 27.8614, 6.43433, 1.62067, 2.86532, -0.00999879, -8.44176e-06, -0.00205334, 0.00302009, 0.0034195, 0.00212961, 0.0011886, 0.0198873, -0.00137995, -0.0276812, -0.0626533, 0.0463739, -0.0241845, 0.470998, -0.543354, 0.335912, -2.08382, -2.16586, -0.12986, 0.468839, -0.542981, 0.332991, -2.08217, -2.16207, -0.128104, -0.00141737, 0.00512346, 0.00264421, -0.000327367, -0.0101932, -0.0278167
0.0351167, 1.69129, -1.22891, -1.54059, -0.90042, -1.19268, 1.2283, -1.30265, 0.0175791, -0.00615444, -0.0632525, -0.00686451, -0.0466444, 0.0201669, -0.000238164, -0.468376, 59.5819, 27.7146, 6.47003, 1.5282, 2.82962, -0.0164075, -2.66145e-05, -0.00205293, 0.00304453, 0.00348781, 0.00207535, 0.001212, 0.0210998, -0.000130526, -0.0280697, -0.0685834, 0.0511392, -0.0269935, 0.470997, -0.543349, 0.335915, -2.08382, -2.16586, -0.129856, 0.468838, -0.542991, 0.332966, -2.08218, -2.16205, -0.127967, -0.00152019, 0.00550014, 0.00283813, -0.00164866, -0.0110049, -0.0281569
0.0361167, 1.69131, -1.22891, -1.54066, -0.900424, -1.19273, 1.22833, -1.30265, 0.0186085, -0.00542267, -0.0677209, -0.00347613, -0.0434141, 0.0203286, 0.00202759, -0.43267, 59.5462, 27.7146, 6.39465, 1.47327, 2.80124, -0.0750012, -4.87125e-05, -0.00205214, 0.00307475, 0.00355935, 0.0020221, 0.00124783, 0.0223055, 0.000363235, -0.0289285, -0.0695142, 0.0496087, -0.0326247, 0.470995, -0.543344, 0.335917, -2.08381, -2.16587, -0.129852, 0.468837, -0.543003, 0.332935, -2.0822, -2.16202, -0.127826, -0.00162701, 0.00589181, 0.00303974, -0.00223648, -0.0116917, -0.0289755
0.0371167, 1.69132, -1.22891, -1.54073, -0.900444, -1.19276, 1.22835, -1.30265, 0.0132251, 0.000950776, -0.0657492, -0.00867142, -0.0354797, 0.0197904, 0.00160125, -0.131157, 59.5462, 27.6392, 6.5097, 1.40552, 2.79391, -0.0814099, -6.68462e-05, -0.00205149, 0.00309748, 0.00361974, 0.00196892, 0.00126708, 0.0209676, 0.00109531, -0.0251047, -0.0658248, 0.0496295, -0.0298342, 0.470994, -0.543338, 0.33592, -2.08381, -2.16587, -0.129848, 0.468836, -0.543012, 0.332913, -2.08221, -2.16201, -0.127699, -0.00173785, 0.0062986, 0.00324909, -0.00298822, -0.0105826, -0.0247607
0.0381167, 1.69133, -1.2289, -1.5408, -0.900464, -1.19281, 1.22838, -1.30265, 0.014834, 0.00541274, -0.0676249, -0.0141682, -0.0409403, 0.0175784, -0.000144075, 0.21003, 59.5819, 27.7146, 6.58508, 1.38721, 2.83694, -0.0484509, -8.63819e-05, -0.00205163, 0.00312211, 0.00368802, 0.00191278, 0.00128455, 0.0199046, 0.00029504, -0.0243291, -0.0746064, 0.0583938, -0.0248533, 0.470992, -0.543332, 0.335923, -2.0838, -2.16587, -0.129843, 0.468834, -0.543021, 0.332889, -2.08222, -2.162, -0.12756, -0.00185274, 0.00672061, 0.00346625, -0.0023139, -0.00919779, -0.0236368
0.0391167, 1.69135, -1.22889, -1.54086, -0.900484, -1.19285, 1.22841, -1.30266, 0.0136021, 0.00665872, -0.066363, -0.0173873, -0.0410868, 0.0162045, 0.00243578, 0.551216, 59.5819, 27.8257, 6.62079, 1.39911, 2.87997, 0.0101428, -0.000103666, -0.0020472, 0.00314117, 0.00374445, 0.00184824, 0.00129271, 0.0194766, 0.000228613, -0.0237993, -0.0761911, 0.0595438, -0.0256689, 0.470991, -0.543326, 0.335927, -2.0838, -2.16588, -0.129838, 0.468836, -0.543029, 0.332871, -2.08223, -2.16201, -0.127427, -0.0019717, 0.00715794, 0.00369125, -0.0023627, -0.00841678, -0.0228243
0.0401167, 1.69136, -1.22888, -1.54092, -0.9005, -1.19289, 1.22843, -1.30265, 0.0122312, 0.00711606, -0.063664, -0.0188611, -0.0420345, 0.018913, 0.00395303, 0.928108, 59.6176, 28.0121, 6.62079, 1.42383, 2.95138, -0.0420422, -0.000124204, -0.00204516, 0.00316042, 0.00379743, 0.00178537, 0.0013193, 0.0200042, -0.0002991, -0.0226242, -0.0725675, 0.0623459, -0.0266631, 0.470989, -0.543319, 0.33593, -2.08379, -2.16588, -0.129833, 0.468836, -0.543039, 0.332852, -2.08225, -2.162, -0.127296, -0.00209472, 0.00761066, 0.00392413, -0.00189736, -0.00864413, -0.0215288
0.0411167, 1.69137, -1.22888, -1.54097, -0.900521, -1.19293, 1.22847, -1.30265, 0.00923479, 0.00565977, -0.058137, -0.0170369, -0.038184, 0.0220294, 0.00293265, 1.38038, 59.7287, 28.1986, 6.62079, 1.47327, 3.00174, -0.0420422, -0.000144106, -0.00204085, 0.00318043, 0.00383714, 0.00173052, 0.00133787, 0.020931, -0.000332698, -0.0209998, -0.0622234, 0.0589982, -0.026631, 0.470987, -0.543312, 0.335934, -2.08379, -2.16589, -0.129827, 0.468839, -0.543048, 0.332833, -2.08228, -2.162, -0.127189, -0.00222183, 0.00807884, 0.00416491, -0.00189904, -0.00933962, -0.0198288
0.0421167, 1.69139, -1.22888, -1.54102, -0.900539, -1.19298, 1.22851, -1.30265, 0.0103271, 0.00565766, -0.0593428, -0.0171659, -0.0409654, 0.0283505, 0.000991276, 1.72157, 59.8041, 28.4961, 6.54541, 1.54651, 3.06674, -0.00999879, -0.000163, -0.00203191, 0.00319803, 0.00387507, 0.00166319, 0.00134696, 0.0223895, -0.00172229, -0.0211185, -0.0595285, 0.0648615, -0.0254149, 0.470984, -0.543304, 0.335938, -2.08378, -2.16589, -0.129821, 0.468845, -0.543056, 0.332816, -2.08229, -2.16201, -0.127072, -0.00235303, 0.00856251, 0.00441363, -0.000594494, -0.0102207, -0.0199655
0.0431167, 1.69141, -1.22887, -1.54108, -0.900554, -1.19302, 1.22855, -1.30265, 0.0154023, 0.00421504, -0.0583949, -0.0153764, -0.042002, 0.0374677, -0.000392624, 2.02308, 59.9509, 28.8691, 6.39465, 1.60144, 3.1528, 0.0229602, -0.000180882, -0.00202112, 0.00321857, 0.00391348, 0.00160518, 0.00135317, 0.0223009, -0.00603975, -0.0210258, -0.0515452, 0.0690802, -0.0208732, 0.470982, -0.543295, 0.335942, -2.08378, -2.16589, -0.129815, 0.468854, -0.543061, 0.332797, -2.0823, -2.16203, -0.126964, -0.00248832, 0.00906169, 0.00467028, 0.00358228, -0.00947151, -0.0197339
0.0441167, 1.69143, -1.22888, -1.54112, -0.900566, -1.19307, 1.22859, -1.30265, 0.0150805, 0.000740343, -0.0546534, -0.0128763, -0.0454, 0.0332904, 0.00250853, 2.3603, 60.2087, 29.1269, 6.17248, 1.72504, 3.28097, -0.0484509, -0.000201308, -0.00201079, 0.00323747, 0.00394, 0.00154718, 0.00137254, 0.0235199, -0.00500259, -0.0219188, -0.052772, 0.0662309, -0.0259914, 0.47098, -0.543286, 0.335947, -2.08377, -2.1659, -0.129808, 0.468862, -0.543069, 0.33278, -2.08233, -2.16204, -0.126867, -0.00262768, 0.00957641, 0.00493487, 0.0024185, -0.0100653, -0.0205089
0.0451167, 1.69146, -1.22888, -1.54115, -0.900576, -1.19311, 1.22863, -1.30265, 0.0172776, -0.00070846, -0.0456978, -0.0114271, -0.0462683, 0.0351688, 0.0012917, 2.58643, 60.4309, 29.3888, 5.95032, 1.823, 3.41006, -0.0356336, -0.000216658, -0.00199452, 0.0032522, 0.00395672, 0.0014907, 0.00137188, 0.0221919, -0.00790013, -0.0195277, -0.0437194, 0.0661645, -0.020289, 0.470977, -0.543277, 0.335952, -2.08376, -2.1659, -0.129801, 0.468875, -0.543072, 0.332767, -2.08234, -2.16207, -0.126784, -0.00277111, 0.0101066, 0.00520739, 0.00520775, -0.0084733, -0.0177567
0.0461167, 1.69148, -1.22888, -1.54119, -0.900586, -1.19316, 1.22867, -1.30265, 0.015526, 0.000707659, -0.0433047, -0.00944391, -0.0515099, 0.0308912, 0.000931684, 2.81654, 60.6848, 29.8371, 5.68848, 1.90906, 3.56845, -0.0356336, -0.000236764, -0.00198318, 0.00327154, 0.00398862, 0.00143301, 0.00138293, 0.0241077, -0.0056298, -0.0180379, -0.0466961, 0.0697489, -0.0244879, 0.470974, -0.543267, 0.335957, -2.08375, -2.16591, -0.129793, 0.468884, -0.543079, 0.33275, -2.08236, -2.16208, -0.126681, -0.00291859, 0.0106523, 0.00548782, 0.00291541, -0.0101412, -0.016234
0.0471167, 1.6915, -1.22889, -1.54122, -0.900597, -1.19321, 1.22871, -1.30265, 0.0182662, -0.00296361, -0.0406501, -0.0068911, -0.0512875, 0.0376509, -0.00125875, 3.003, 61.0181, 30.1346, 5.50201, 2.01343, 3.7186, 0.0165515, -0.000255612, -0.00196719, 0.00328978, 0.00400795, 0.00137431, 0.00138058, 0.0247035, -0.00853388, -0.0186491, -0.0381673, 0.0693391, -0.0208835, 0.470971, -0.543256, 0.335962, -2.08375, -2.16592, -0.129785, 0.468897, -0.543083, 0.332734, -2.08237, -2.16212, -0.126593, -0.0030701, 0.0112135, 0.00577613, 0.00566351, -0.00995514, -0.0167292
0.0481167, 1.69152, -1.22889, -1.54125, -0.900612, -1.19326, 1.22876, -1.30265, 0.0197092, -0.00367982, -0.0356384, -0.00963476, -0.0493119, 0.0390677, 0.000421224, 3.34419, 61.2759, 30.4322, 5.38696, 2.07477, 3.84036, -0.0164075, -0.000276803, -0.00195455, 0.00330484, 0.00402329, 0.0013127, 0.0013954, 0.0226551, -0.0114809, -0.0178236, -0.0334694, 0.0680751, -0.0161458, 0.470968, -0.543245, 0.335968, -2.08374, -2.16592, -0.129777, 0.468907, -0.54309, 0.332721, -2.0824, -2.16214, -0.126503, -0.0032256, 0.01179, 0.00607228, 0.00840766, -0.00736256, -0.0153891
0.0491167, 1.69155, -1.2289, -1.54129, -0.900617, -1.19332, 1.2288, -1.30265, 0.0223935, -0.00856269, -0.0357825, -0.00685314, -0.053563, 0.0407005, 7.32201e-05, 3.49494, 61.7163, 30.7654, 5.2005, 2.16083, 3.94107, -0.00999879, -0.000300073, -0.00193904, 0.00332617, 0.00403941, 0.0012562, 0.00140276, 0.0244171, -0.0123919, -0.0205616, -0.0339305, 0.0677684, -0.017478, 0.470965, -0.543234, 0.335974, -2.08373, -2.16593, -0.129768, 0.468919, -0.543097, 0.332702, -2.08242, -2.16216, -0.126418, -0.00338507, 0.0123818, 0.00637623, 0.00912222, -0.00805159, -0.0180895
0.0501167, 1.69157, -1.22891, -1.5413, -0.900636, -1.19338, 1.22885, -1.30265, 0.0229696, -0.00695898, -0.0339085, -0.0123843, -0.050951, 0.0428587, 0.00125793, 3.6814, 62.0853, 30.8765, 5.2005, 2.21576, 4.0198, -0.0420422, -0.000319234, -0.00192115, 0.00334094, 0.00404759, 0.00119341, 0.00140284, 0.0223468, -0.0150925, -0.0197711, -0.0320401, 0.0690969, -0.0120214, 0.470962, -0.543221, 0.335981, -2.08372, -2.16594, -0.129759, 0.468934, -0.543101, 0.33269, -2.08244, -2.1622, -0.126336, -0.00354847, 0.0129888, 0.00668792, 0.0116103, -0.00541163, -0.0167577
0.0511167, 1.69159, -1.22892, -1.54133, -0.900646, -1.19344, 1.22889, -1.30265, 0.0225369, -0.00488317, -0.0340838, -0.0113124, -0.0575396, 0.0398526, -0.000840059, 3.90754, 62.4185, 31.1741, 5.12909, 2.24689, 4.09122, 0.00373412, -0.000345128, -0.00190882, 0.00335736, 0.00406356, 0.00112681, 0.0014118, 0.0243601, -0.0133984, -0.0189141, -0.0374015, 0.0754077, -0.0141386, 0.470958, -0.543208, 0.335987, -2.08371, -2.16594, -0.129749, 0.468943, -0.543111, 0.332676, -2.08247, -2.16223, -0.12624, -0.00371575, 0.0136108, 0.00700727, 0.00985438, -0.00697852, -0.0158533
0.0521167, 1.6916, -1.22892, -1.54135, -0.900654, -1.1935, 1.22894, -1.30265, 0.0240733, -0.00321839, -0.0314305, -0.0111841, -0.0634351, 0.0430946, -0.0010222, 4.06226, 62.7478, 31.3605, 5.08942, 2.28992, 4.14157, 0.0165515, -0.000372351, -0.00189607, 0.00337173, 0.00407276, 0.00105695, 0.00142838, 0.0252033, -0.0147555, -0.0169904, -0.0353309, 0.0838119, -0.0138136, 0.470955, -0.543195, 0.335994, -2.0837, -2.16595, -0.129738, 0.468952, -0.543121, 0.332664, -2.0825, -2.16225, -0.126147, -0.00388686, 0.0142477, 0.0073342, 0.0111385, -0.0074143, -0.0137987
0.0531167, 1.69163, -1.22893, -1.54137, -0.900678, -1.19357, 1.22898, -1.30265, 0.0259922, -0.00744024, -0.0247796, -0.014144, -0.0662342, 0.0448667, -0.000909409, 4.17335, 63.0453, 31.4716, 5.31555, 2.29541, 4.20657, 0.0229602, -0.000392975, -0.00187756, 0.00338829, 0.00409311, 0.000985836, 0.00142506, 0.0239246, -0.017916, -0.017694, -0.0316178, 0.0831192, -0.00764897, 0.470951, -0.54318, 0.336002, -2.08369, -2.16596, -0.129728, 0.468967, -0.543124, 0.332652, -2.08252, -2.1623, -0.126042, -0.00406174, 0.0148993, 0.00766863, 0.0140487, -0.00526228, -0.0140562
0.0541167, 1.69164, -1.22894, -1.5414, -0.900687, -1.19364, 1.22903, -1.30265, 0.0231254, -0.00752294, -0.0257711, -0.010478, -0.0677235, 0.04186, 0.00157093, 4.3241, 63.3389, 31.6977, 5.31555, 2.2771, 4.2496, -0.0356336, -0.000423284, -0.00186664, 0.0034066, 0.00411003, 0.000918128, 0.00144783, 0.0271936, -0.0147548, -0.0179246, -0.0339085, 0.0828909, -0.0177072, 0.470947, -0.543166, 0.336009, -2.08368, -2.16597, -0.129716, 0.468974, -0.543136, 0.332636, -2.08255, -2.16231, -0.125941, -0.00424034, 0.0155655, 0.00801045, 0.0108221, -0.00791754, -0.0143537
0.0551167, 1.69167, -1.22895, -1.54141, -0.900703, -1.19372, 1.22906, -1.30265, 0.0205308, -0.00670289, -0.0204716, -0.0112055, -0.0680121, 0.044393, -0.000405479, 4.36378, 63.5968, 31.6581, 5.46234, 2.24048, 4.29904, 0.00373412, -0.000446292, -0.00184938, 0.00341937, 0.00412419, 0.000846365, 0.00144357, 0.0280084, -0.0149806, -0.015539, -0.0273722, 0.0853045, -0.0157993, 0.470942, -0.54315, 0.336017, -2.08367, -2.16597, -0.129705, 0.468988, -0.54314, 0.332628, -2.08257, -2.16236, -0.125841, -0.00442257, 0.0162459, 0.00835954, 0.0109811, -0.00839922, -0.0117822
0.0561167, 1.69169, -1.22895, -1.54143, -0.900712, -1.1938, 1.2291, -1.30265, 0.0223384, -0.00545972, -0.018155, -0.0089882, -0.0730494, 0.0418644, -0.000741064, 4.36378, 63.819, 31.8088, 5.50201, 2.19104, 4.33566, 0.0165515, -0.000475321, -0.00183587, 0.00343419, 0.00414696, 0.000767163, 0.00146011, 0.0287493, -0.0150247, -0.0142292, -0.0293205, 0.0896174, -0.0168023, 0.470938, -0.543134, 0.336026, -2.08366, -2.16598, -0.129692, 0.468997, -0.54315, 0.332616, -2.0826, -2.16239, -0.125722, -0.00460838, 0.0169405, 0.00871578, 0.0109135, -0.00863576, -0.010249
0.0571167, 1.69171, -1.22896, -1.54145, -0.900726, -1.19388, 1.22914, -1.30265, 0.0203955, -0.0053913, -0.0209207, -0.00903299, -0.0765487, 0.0357991, -0.000965781, 4.36378, 64.0768, 31.8842, 5.6131, 2.14252, 4.35672, 0.0293689, -0.000503944, -0.00182187, 0.00345229, 0.00417411, 0.000692629, 0.00147053, 0.0309853, -0.0121173, -0.0158428, -0.0386647, 0.0901608, -0.0215523, 0.470933, -0.543117, 0.336034, -2.08364, -2.16599, -0.129679, 0.469007, -0.543158, 0.332602, -2.08262, -2.16242, -0.125602, -0.00479766, 0.0176488, 0.00907903, 0.00784258, -0.010006, -0.011738
0.0581167, 1.69173, -1.22898, -1.54146, -0.900737, -1.19397, 1.22917, -1.30265, 0.0217841, -0.00705414, -0.0190274, -0.00718901, -0.0760819, 0.0366444, -0.00040426, 4.36378, 64.4061, 31.9199, 5.6488, 2.10498, 4.35672, 0.0229602, -0.00053579, -0.00180842, 0.00347178, 0.00419358, 0.000621232, 0.00148636, 0.0314494, -0.013232, -0.0161396, -0.0358516, 0.088806, -0.0218718, 0.470929, -0.543099, 0.336043, -2.08363, -2.166, -0.129666, 0.469016, -0.543168, 0.332587, -2.08265, -2.16244, -0.125493, -0.00499035, 0.0183707, 0.00944913, 0.00876929, -0.00965079, -0.0117666
0.0591167, 1.69177, -1.22899, -1.54147, -0.900739, -1.19405, 1.22921, -1.30264, 0.0265397, -0.00880992, -0.0169143, -0.00721951, -0.0790933, 0.0337181, 0.00166495, 4.21302, 64.6283, 31.9199, 5.6131, 2.05646, 4.32101, -0.0292249, -0.000563234, -0.00178866, 0.00348713, 0.00420909, 0.000547023, 0.00149941, 0.0301357, -0.0156177, -0.0171815, -0.03917, 0.0886108, -0.0197978, 0.470924, -0.543081, 0.336053, -2.08362, -2.16601, -0.129652, 0.469031, -0.543174, 0.332576, -2.08268, -2.16248, -0.125386, -0.00518633, 0.0191057, 0.00982594, 0.010871, -0.00736031, -0.012287
0.0601167, 1.69179, -1.22901, -1.54149, -0.900753, -1.19414, 1.22925, -1.30265, 0.0228038, -0.0119233, -0.0181039, -0.0078492, -0.082077, 0.0319295, 0.000636505, 4.21302, 64.9219, 32.031, 5.72418, 2.01984, 4.27066, -0.0164075, -0.000598048, -0.00177606, 0.00351104, 0.00423875, 0.000473758, 0.00151538, 0.0333465, -0.0130204, -0.0197362, -0.0434614, 0.0875953, -0.0240411, 0.470918, -0.543062, 0.336063, -2.0836, -2.16602, -0.129638, 0.469039, -0.543185, 0.332557, -2.08271, -2.1625, -0.125263, -0.00538552, 0.0198537, 0.0102093, 0.00810086, -0.00949594, -0.0148457
0.0611167, 1.69181, -1.22903, -1.5415, -0.900761, -1.19424, 1.22928, -1.30265, 0.0202915, -0.0151312, -0.0171948, -0.0055611, -0.0837271, 0.035747, -0.000558065, 4.21302, 65.2551, 32.0707, 5.72418, 1.9704, 4.20657, 0.0101428, -0.00063365, -0.00176242, 0.00353487, 0.00425962, 0.000406667, 0.00153042, 0.0367886, -0.0120115, -0.0207783, -0.039245, 0.0878282, -0.0280211, 0.470913, -0.543042, 0.336073, -2.08359, -2.16603, -0.129623, 0.469047, -0.543196, 0.332538, -2.08273, -2.16252, -0.125155, -0.0055878, 0.0206142, 0.0105989, 0.00697712, -0.0120148, -0.0159884
0.0621167, 1.69184, -1.22904, -1.54151, -0.900771, -1.19433, 1.22932, -1.30265, 0.0202044, -0.0130614, -0.0133576, -0.00790756, -0.0853227, 0.038029, -0.00108341, 4.13764, 65.4019, 32.1064, 5.76385, 1.92096, 4.14889, 0.0293689, -0.000666573, -0.00174574, 0.00355325, 0.0042827, 0.000327181, 0.00154088, 0.0365308, -0.0135532, -0.0185838, -0.0359054, 0.0928149, -0.0249065, 0.470907, -0.543021, 0.336083, -2.08357, -2.16604, -0.129607, 0.469059, -0.543204, 0.332524, -2.08276, -2.16256, -0.125032, -0.00579309, 0.0213869, 0.0109948, 0.00838209, -0.0112616, -0.0134323
0.0631167, 1.69187, -1.22905, -1.54153, -0.90078, -1.19442, 1.22935, -1.30264, 0.0221854, -0.00919803, -0.0114627, -0.00965795, -0.0899818, 0.0352651, 0.00192311, 4.09797, 65.4376, 32.1818, 5.79956, 1.85962, 4.08389, -0.0420422, -0.000700211, -0.0017297, 0.00356805, 0.00430626, 0.000240977, 0.00156407, 0.0358624, -0.0144797, -0.0164907, -0.0399712, 0.0997573, -0.0258052, 0.470902, -0.543, 0.336094, -2.08356, -2.16606, -0.129591, 0.46907, -0.543213, 0.332515, -2.0828, -2.16259, -0.1249, -0.00600136, 0.0221719, 0.0113968, 0.00915124, -0.0101005, -0.0108879
0.0641167, 1.69189, -1.22907, -1.54153, -0.900789, -1.19451, 1.22939, -1.30264, 0.025945, -0.0127408, -0.00563916, -0.00786099, -0.089616, 0.032014, 0.000807754, 4.09797, 65.7312, 32.0707, 5.83527, 1.80469, 4.04819, -0.0292249, -0.000733763, -0.00171133, 0.00358746, 0.00431589, 0.000173793, 0.00157206, 0.0342928, -0.0169232, -0.0170136, -0.0379019, 0.0944582, -0.0202457, 0.470896, -0.542978, 0.336106, -2.08354, -2.16607, -0.129574, 0.469083, -0.543221, 0.332502, -2.08282, -2.16262, -0.124804, -0.00621258, 0.0229689, 0.0118049, 0.0113051, -0.00757284, -0.0108266
0.0651167, 1.69192, -1.22908, -1.54154, -0.900791, -1.1946, 1.22942, -1.30265, 0.0255813, -0.0108983, -0.00904593, -0.00713427, -0.0887066, 0.0296292, -0.000173276, 4.09797, 65.8423, 32.1421, 5.76385, 1.73694, 4.01248, -0.00999879, -0.000772072, -0.00169762, 0.00360358, 0.00433516, 9.35041e-05, 0.0015936, 0.0356473, -0.0157781, -0.0175009, -0.0423241, 0.0950712, -0.0223092, 0.470889, -0.542955, 0.336118, -2.08352, -2.16608, -0.129557, 0.469091, -0.543232, 0.332491, -2.08285, -2.16265, -0.124681, -0.0064267, 0.0237778, 0.012219, 0.00997868, -0.00807321, -0.0110691
0.0661167, 1.69195, -1.22908, -1.54155, -0.900807, -1.19469, 1.22946, -1.30265, 0.0260568, -0.0105538, -0.00579464, -0.0109943, -0.0937394, 0.0320048, -0.00109864, 4.06226, 65.9891, 32.1064, 5.87494, 1.69391, 3.99142, 0.0165515, -0.00080269, -0.00167645, 0.0036189, 0.00434984, 1.72229e-05, 0.0015927, 0.0357122, -0.0175414, -0.0167746, -0.0419861, 0.101421, -0.0183434, 0.470883, -0.542931, 0.33613, -2.0835, -2.16609, -0.129539, 0.469106, -0.543236, 0.332483, -2.08287, -2.1627, -0.12457, -0.00664368, 0.0245986, 0.0126391, 0.0115517, -0.00735543, -0.00999532
0.0671167, 1.69198, -1.22909, -1.54156, -0.900815, -1.19477, 1.22949, -1.30265, 0.0274916, -0.0095252, -0.00832195, -0.0101827, -0.0870953, 0.0340764, 0.000488446, 3.98292, 66.1002, 32.1421, 5.83527, 1.62616, 3.96213, -0.0164075, -0.000833508, -0.00165245, 0.00363519, 0.00436102, -5.63338e-05, 0.00159862, 0.0355429, -0.0190272, -0.0171338, -0.0394066, 0.0987466, -0.0189412, 0.470876, -0.542906, 0.336143, -2.08349, -2.16611, -0.12952, 0.469124, -0.543238, 0.332474, -2.08289, -2.16275, -0.124464, -0.00686349, 0.0254311, 0.0130651, 0.0127968, -0.00623914, -0.00994285
0.0681167, 1.69201, -1.22909, -1.54156, -0.900823, -1.19486, 1.22953, -1.30264, 0.0272341, -0.00626831, -0.00918942, -0.0107722, -0.0887462, 0.034645, 0.00103783, 3.94721, 66.1002, 32.1421, 5.83527, 1.60144, 3.96213, -0.0356336, -0.000865578, -0.00163081, 0.00364536, 0.00437061, -0.000137962, 0.00161002, 0.0366563, -0.0189202, -0.015829, -0.0407672, 0.104309, -0.0209658, 0.470869, -0.542881, 0.336156, -2.08347, -2.16612, -0.129501, 0.469139, -0.543242, 0.332471, -2.08292, -2.16279, -0.12435, -0.00708609, 0.0262753, 0.013497, 0.0125552, -0.00669904, -0.008392
0.0691167, 1.69205, -1.22911, -1.54157, -0.900825, -1.19494, 1.22957, -1.30264, 0.0274814, -0.00755118, -0.00775881, -0.00845308, -0.0902785, 0.0309969, 0.00143797, 3.90754, 66.2469, 32.1818, 5.72418, 1.58954, 3.94839, -0.0557752, -0.000901565, -0.00160859, 0.00366336, 0.00437652, -0.000207243, 0.00162454, 0.0378987, -0.0181793, -0.0163766, -0.0428141, 0.102787, -0.0236771, 0.470862, -0.542854, 0.336169, -2.08345, -2.16613, -0.129481, 0.469155, -0.543248, 0.332461, -2.08294, -2.16283, -0.124252, -0.00731145, 0.027131, 0.0139346, 0.0116151, -0.00701608, -0.00866526
0.0701167, 1.69209, -1.22911, -1.54157, -0.900829, -1.19502, 1.2296, -1.30264, 0.0323797, -0.00675133, -0.00737136, -0.0108691, -0.086738, 0.0329048, -0.00124533, 3.79646, 66.3223, 32.2532, 5.6488, 1.58313, 3.93374, 0.00373412, -0.000932135, -0.0015796, 0.00367682, 0.00438138, -0.000285331, 0.001617, 0.0352867, -0.0224811, -0.0164898, -0.04137, 0.102565, -0.0134157, 0.470855, -0.542827, 0.336183, -2.08343, -2.16615, -0.129461, 0.469177, -0.543247, 0.332456, -2.08295, -2.16289, -0.124147, -0.00753952, 0.0279981, 0.014378, 0.0155852, -0.00337516, -0.00805924
0.0711167, 1.69213, -1.22912, -1.54158, -0.900836, -1.1951, 1.22965, -1.30264, 0.0374792, -0.00706482, -0.00707377, -0.0128737, -0.0805385, 0.0350931, -0.000321541, 3.75678, 66.4334, 32.3285, 5.57739, 1.61426, 3.90536, -0.00999879, -0.000963525, -0.00155049, 0.00369227, 0.00438161, -0.000355972, 0.00161646, 0.0323438, -0.0271621, -0.0172247, -0.038454, 0.0991865, -0.00606816, 0.470847, -0.542799, 0.336197, -2.08341, -2.16616, -0.12944, 0.469199, -0.543247, 0.332449, -2.08297, -2.16295, -0.124055, -0.00777026, 0.0288765, 0.0148271, 0.0198967, 0.000715143, -0.00802177
0.0721167, 1.69217, -1.22913, -1.54158, -0.900836, -1.19518, 1.22968, -1.30264, 0.0399538, -0.00895288, -0.00501306, -0.010418, -0.0762782, 0.035433, 0.0014811, 3.75678, 66.6159, 32.3285, 5.46234, 1.65729, 3.90536, -0.0557752, -0.000997703, -0.00152262, 0.00370848, 0.00437839, -0.000422328, 0.00162433, 0.0318705, -0.0291564, -0.0176698, -0.0341251, 0.0943351, -0.00588385, 0.47084, -0.54277, 0.336212, -2.08339, -2.16618, -0.129418, 0.46922, -0.543248, 0.332442, -2.08299, -2.16299, -0.123968, -0.00800365, 0.0297661, 0.0152818, 0.0216219, 0.00222312, -0.00799395
0.0731167, 1.69222, -1.22914, -1.54159, -0.900837, -1.19525, 1.22973, -1.30264, 0.0430068, -0.00771241, -0.00792665, -0.00958481, -0.072332, 0.0367991, 0.000478804, 3.72108, 66.6913, 32.515, 5.38696, 1.6875, 3.88339, -0.0420422, -0.00103058, -0.00149142, 0.00372522, 0.00437735, -0.000491548, 0.00162235, 0.0315831, -0.0310547, -0.0182064, -0.0340044, 0.093849, -0.00345572, 0.470832, -0.542741, 0.336228, -2.08336, -2.16619, -0.129396, 0.469244, -0.543247, 0.332435, -2.083, -2.16305, -0.123877, -0.00823965, 0.0306668, 0.015742, 0.0232521, 0.00356895, -0.00807681
0.0741167, 1.69226, -1.22914, -1.5416, -0.900841, -1.19532, 1.22977, -1.30264, 0.0428178, -0.00679748, -0.00721485, -0.00981589, -0.0716014, 0.0371299, 0.000827851, 3.79646, 66.7627, 32.5904, 5.35126, 1.76807, 3.86966, -0.0557752, -0.00106527, -0.00146123, 0.00374146, 0.00437265, -0.000560735, 0.00162439, 0.0322369, -0.0314679, -0.0177187, -0.0331419, 0.0949227, -0.00398533, 0.470823, -0.54271, 0.336243, -2.08334, -2.16621, -0.129373, 0.469266, -0.543247, 0.332428, -2.08302, -2.1631, -0.123789, -0.00847821, 0.0315785, 0.0162078, 0.0234677, 0.00377768, -0.00724367
0.0751167, 1.69231, -1.22916, -1.54161, -0.900838, -1.19539, 1.22981, -1.30264, 0.0456151, -0.0105529, -0.00669853, -0.00596068, -0.0689117, 0.0416895, -0.00165213, 3.75678, 67.0206, 32.6658, 5.27588, 1.81018, 3.87607, 0.00373412, -0.00109859, -0.00142662, 0.00376401, 0.0043644, -0.000612454, 0.00161347, 0.0333127, -0.0336922, -0.0192763, -0.0267927, 0.0915887, -0.00167293, 0.470815, -0.542678, 0.33626, -2.08332, -2.16623, -0.129349, 0.469293, -0.543243, 0.332416, -2.08302, -2.16317, -0.123723, -0.0087193, 0.0325011, 0.016679, 0.0254304, 0.00397017, -0.00854511
0.0761167, 1.69236, -1.22917, -1.54161, -0.900839, -1.19545, 1.22986, -1.30264, 0.0464963, -0.00879029, -0.00715818, -0.00402356, -0.0673743, 0.0442295, -0.00110141, 3.75678, 67.0959, 32.7768, 5.24017, 1.84772, 3.90536, 0.00373412, -0.00113018, -0.00139037, 0.00378027, 0.0043572, -0.000677406, 0.00160897, 0.0343936, -0.0344983, -0.0182756, -0.0237367, 0.093877, -0.00357206, 0.470806, -0.542646, 0.336276, -2.08329, -2.16625, -0.129324, 0.469321, -0.543238, 0.332411, -2.08302, -2.16323, -0.123641, -0.00896288, 0.0334345, 0.0171556, 0.0260677, 0.00371644, -0.00727283
0.0771167, 1.69241, -1.22918, -1.54162, -0.900845, -1.19552, 1.2299, -1.30264, 0.0464739, -0.011051, -0.00976019, -0.00510935, -0.0710894, 0.0416079, -0.000496903, 3.79646, 67.3181, 32.8522, 5.31555, 1.90265, 3.93374, -0.00267457, -0.00116286, -0.00135439, 0.00380346, 0.00435324, -0.000730247, 0.00159764, 0.0363037, -0.03363, -0.0212258, -0.0311259, 0.0942848, -0.00647546, 0.470797, -0.542612, 0.336293, -2.08327, -2.16626, -0.129299, 0.469348, -0.543232, 0.332399, -2.08302, -2.16329, -0.123568, -0.00920893, 0.0343785, 0.0176375, 0.0249163, 0.00319287, -0.0099739
0.0781167, 1.69246, -1.2292, -1.54164, -0.90084, -1.19558, 1.22994, -1.30264, 0.0444223, -0.0107964, -0.0132961, -0.0021408, -0.0744806, 0.0439397, 0.00136416, 3.79646, 67.4649, 32.999, 5.24017, 1.9704, 3.97677, -0.0484509, -0.0012001, -0.0013196, 0.00382525, 0.00434512, -0.000787976, 0.00160276, 0.0407432, -0.0314485, -0.0219298, -0.0324385, 0.0990379, -0.0165839, 0.470788, -0.542578, 0.336311, -2.08324, -2.16628, -0.129273, 0.469374, -0.54323, 0.332388, -2.08303, -2.16334, -0.123492, -0.00945739, 0.0353331, 0.0181247, 0.0226247, -0.000217094, -0.0108038
0.0791167, 1.69251, -1.2292, -1.54165, -0.900835, -1.19565, 1.22999, -1.30264, 0.0450023, -0.00719413, -0.0128807, -0.000872537, -0.0668482, 0.0413709, -0.000514709, 3.83216, 67.4649, 33.1498, 5.2005, 2.02533, 4.01248, -0.00999879, -0.00123586, -0.00128441, 0.00384111, 0.00433877, -0.000853843, 0.00160078, 0.0397055, -0.0321159, -0.0200728, -0.0303381, 0.0956411, -0.0133863, 0.470779, -0.542543, 0.336329, -2.08322, -2.1663, -0.129247, 0.4694, -0.543226, 0.332384, -2.08304, -2.1634, -0.123406, -0.00970824, 0.0362982, 0.0186171, 0.0230709, 0.00151516, -0.00833736
0.0801167, 1.69256, -1.22921, -1.54167, -0.900838, -1.19571, 1.23003, -1.30264, 0.0477879, -0.00822717, -0.0179625, -0.00262495, -0.0660919, 0.0398207, -0.00203856, 3.90754, 67.6117, 33.4076, 5.27588, 2.09308, 4.03445, 0.0357776, -0.00127522, -0.00125099, 0.00386734, 0.00434471, -0.000911983, 0.0015985, 0.0398341, -0.03322, -0.0233385, -0.0375403, 0.0944656, -0.0105493, 0.470769, -0.542506, 0.336348, -2.08319, -2.16632, -0.12922, 0.469424, -0.543223, 0.332369, -2.08304, -2.16345, -0.123313, -0.00996144, 0.0372736, 0.0191147, 0.0238061, 0.0029119, -0.0111182
0.0811167, 1.69262, -1.22922, -1.54169, -0.900839, -1.19577, 1.23007, -1.30264, 0.0516409, -0.00808129, -0.0181358, -0.002888, -0.0648593, 0.0388384, -0.000884317, 3.90754, 67.7228, 33.5187, 5.31555, 2.14801, 4.05551, 0.0229602, -0.00131136, -0.00121231, 0.00389093, 0.00433952, -0.000967592, 0.00159308, 0.0387817, -0.0355996, -0.023973, -0.0390913, 0.0939547, -0.00816613, 0.470759, -0.542469, 0.336367, -2.08316, -2.16634, -0.129192, 0.469454, -0.543216, 0.332359, -2.08304, -2.16351, -0.123235, -0.010217, 0.0382593, 0.0196175, 0.025866, 0.00513331, -0.0111518
0.0821167, 1.69267, -1.22922, -1.54171, -0.90084, -1.19584, 1.23011, -1.30264, 0.0537063, -0.0070565, -0.0192898, -0.00291806, -0.0688539, 0.0372079, 0.00134324, 3.94721, 67.7942, 33.6695, 5.35126, 2.19745, 4.09122, -0.0292249, -0.00135149, -0.00117739, 0.00391484, 0.00434118, -0.00102703, 0.00159704, 0.0396914, -0.0360256, -0.0243682, -0.0440452, 0.0982766, -0.0110598, 0.470749, -0.542431, 0.336386, -2.08313, -2.16636, -0.129163, 0.469479, -0.543212, 0.332347, -2.08304, -2.16356, -0.123144, -0.0104747, 0.0392552, 0.0201252, 0.0260525, 0.00531014, -0.0111886
0.0831167, 1.69272, -1.22924, -1.54173, -0.900839, -1.1959, 1.23015, -1.30264, 0.0498059, -0.00990015, -0.0202848, 0.000991667, -0.0670418, 0.0326021, 0.000420776, 3.94721, 68.0164, 33.8202, 5.35126, 2.24689, 4.09854, -0.0164075, -0.00139308, -0.00114152, 0.00394595, 0.00434724, -0.00107629, 0.0015991, 0.0432919, -0.0324283, -0.026395, -0.046286, 0.0919641, -0.0180779, 0.470738, -0.542392, 0.336407, -2.0831, -2.16638, -0.129134, 0.469504, -0.543208, 0.332329, -2.08304, -2.1636, -0.123057, -0.0107348, 0.0402611, 0.020638, 0.0222569, 0.00292406, -0.0131255
0.0841167, 1.69278, -1.22925, -1.54176, -0.900844, -1.19597, 1.23019, -1.30264, 0.052576, -0.0122293, -0.0209259, -0.000936128, -0.0712685, 0.0346923, -0.00165226, 3.83216, 68.1274, 33.967, 5.42664, 2.31372, 4.08389, 0.0357776, -0.00143116, -0.00110019, 0.00397517, 0.00435837, -0.00113705, 0.00158504, 0.043982, -0.0344859, -0.0285646, -0.0489663, 0.095136, -0.014085, 0.470727, -0.542351, 0.336427, -2.08308, -2.1664, -0.129103, 0.469535, -0.543199, 0.332314, -2.08302, -2.16367, -0.122955, -0.010997, 0.0412769, 0.0211557, 0.0239956, 0.00367805, -0.0149202
0.0851167, 1.69284, -1.22926, -1.54179, -0.900844, -1.19604, 1.23023, -1.30264, 0.0497431, -0.0100753, -0.0223526, -0.000499586, -0.0738189, 0.040582, -0.00137277, 3.79646, 68.1989, 34.1535, 5.42664, 2.36957, 4.07016, 0.0431018, -0.00147691, -0.00106596, 0.0040038, 0.00437353, -0.00120368, 0.00159277, 0.0476871, -0.0335313, -0.0274247, -0.0458912, 0.102955, -0.0199593, 0.470716, -0.54231, 0.336448, -2.08304, -2.16642, -0.129072, 0.469559, -0.543197, 0.332299, -2.08302, -2.16371, -0.122839, -0.0112614, 0.0423026, 0.0216783, 0.0229548, 0.000831569, -0.0138172
0.0861167, 1.6929, -1.22927, -1.54181, -0.900849, -1.19611, 1.23027, -1.30264, 0.0523098, -0.0121028, -0.0228534, -0.00200292, -0.0750496, 0.0355532, 0.00105151, 3.6814, 68.421, 34.1892, 5.50201, 2.39978, 4.05551, -0.00999879, -0.00151942, -0.00102597, 0.00403648, 0.00438518, -0.00126154, 0.00159418, 0.0472232, -0.0344377, -0.0299277, -0.0529818, 0.100417, -0.0200052, 0.470705, -0.542268, 0.33647, -2.08301, -2.16645, -0.129041, 0.469588, -0.54319, 0.33228, -2.08301, -2.16376, -0.122735, -0.011528, 0.0433381, 0.0222057, 0.0234852, 0.00274789, -0.0157174
0.0871167, 1.69296, -1.22928, -1.54184, -0.900851, -1.19619, 1.23031, -1.30263, 0.0533907, -0.011644, -0.0243655, -0.00210047, -0.0757686, 0.0364191, 0.00117572, 3.60603, 68.5678, 34.2646, 5.53772, 2.43091, 4.04819, -0.0228162, -0.00156483, -0.000988901, 0.00406817, 0.00440348, -0.00132404, 0.00159828, 0.0483409, -0.0351084, -0.0305412, -0.0544986, 0.102752, -0.0208119, 0.470694, -0.542224, 0.336492, -2.08298, -2.16647, -0.129008, 0.469614, -0.543186, 0.332263, -2.08301, -2.16381, -0.122619, -0.0117966, 0.0443832, 0.0227379, 0.0239051, 0.00281228, -0.0159849
0.0881167, 1.69302, -1.22928, -1.54187, -0.900859, -1.19627, 1.23035, -1.30264, 0.0548541, -0.00703374, -0.0239803, -0.00394624, -0.0758331, 0.0417641, -0.00114896, 3.49494, 68.5321, 34.2646, 5.6488, 2.44922, 4.04086, 0.0293689, -0.00161015, -0.000949626, 0.00409546, 0.00442116, -0.00140242, 0.00159198, 0.048344, -0.0375425, -0.0279108, -0.0506937, 0.110946, -0.0162154, 0.470682, -0.54218, 0.336515, -2.08295, -2.16649, -0.128975, 0.469642, -0.54318, 0.332251, -2.083, -2.16388, -0.122487, -0.0120673, 0.0454378, 0.0232748, 0.0261623, 0.00356177, -0.0129259
0.0891167, 1.69308, -1.2293, -1.54191, -0.900869, -1.19635, 1.23038, -1.30264, 0.0583206, -0.00820257, -0.0256587, -0.0052827, -0.07615, 0.036602, -0.00100333, 3.26881, 68.6789, 34.34, 5.76385, 2.43732, 4.02713, 0.0357776, -0.00165348, -0.000907135, 0.004132, 0.00445127, -0.00146715, 0.00158346, 0.0475312, -0.0387766, -0.0303708, -0.0585031, 0.108554, -0.0135386, 0.47067, -0.542135, 0.336538, -2.08291, -2.16652, -0.128941, 0.469672, -0.54317, 0.33223, -2.08297, -2.16394, -0.122355, -0.0123401, 0.0465019, 0.0238164, 0.0270026, 0.00585832, -0.0147256
0.0901167, 1.69314, -1.22931, -1.54195, -0.900873, -1.19643, 1.23042, -1.30264, 0.0572298, -0.00812664, -0.0290504, -0.00432747, -0.0756168, 0.0327458, -0.000194172, 3.19343, 68.79, 34.3757, 5.79956, 2.4245, 4.00516, 0.0229602, -0.00170706, -0.000872619, 0.00416613, 0.00447783, -0.0015424, 0.00159842, 0.0496405, -0.0369467, -0.0320394, -0.0643942, 0.107122, -0.0186014, 0.470657, -0.542088, 0.336562, -2.08288, -2.16654, -0.128906, 0.469695, -0.54317, 0.332211, -2.08298, -2.16398, -0.122213, -0.0126148, 0.0475753, 0.0243626, 0.0249165, 0.00503005, -0.016098
0.0911167, 1.69321, -1.22932, -1.54199, -0.900881, -1.19652, 1.23045, -1.30264, 0.0601145, -0.00889629, -0.0325701, -0.00546128, -0.0794944, 0.0341418, 0.00132861, 2.96729, 68.9368, 34.451, 5.91064, 2.40619, 3.99783, -0.0164075, -0.00175708, -0.000833941, 0.00420662, 0.0045173, -0.00160963, 0.00160622, 0.0508982, -0.0382766, -0.0342889, -0.0695655, 0.111394, -0.0201275, 0.470645, -0.542041, 0.336586, -2.08285, -2.16657, -0.128871, 0.469722, -0.543164, 0.332186, -2.08297, -2.16402, -0.122064, -0.0128915, 0.048658, 0.0249134, 0.0259316, 0.00527272, -0.0180044
0.0921167, 1.69326, -1.22932, -1.54202, -0.900893, -1.19661, 1.23049, -1.30264, 0.0594892, -0.0059645, -0.0357367, -0.00715071, -0.0822754, 0.031514, 0.000885743, 2.85224, 68.9368, 34.4153, 6.0614, 2.38147, 3.96213, -0.0164075, -0.00180831, -0.000796777, 0.00423818, 0.00455148, -0.00169331, 0.00161091, 0.0525108, -0.037142, -0.0344813, -0.0768227, 0.116372, -0.0222214, 0.470632, -0.541992, 0.336611, -2.08281, -2.16659, -0.128834, 0.469746, -0.54316, 0.332171, -2.08296, -2.16407, -0.121905, -0.0131701, 0.0497497, 0.0254687, 0.0245723, 0.00475523, -0.0178543
0.0931167, 1.69332, -1.22933, -1.54206, -0.900904, -1.1967, 1.23052, -1.30264, 0.0567278, -0.00827045, -0.0348575, -0.00818835, -0.0848182, 0.0283894, -0.00110493, 2.70148, 69.1193, 34.3757, 6.20819, 2.36957, 3.95572, 0.0293689, -0.00186305, -0.000759973, 0.00427793, 0.00458943, -0.00176699, 0.00161373, 0.0548177, -0.0354119, -0.0361697, -0.0806705, 0.115301, -0.023338, 0.470619, -0.541942, 0.336637, -2.08277, -2.16662, -0.128797, 0.46977, -0.543156, 0.332147, -2.08294, -2.16412, -0.12175, -0.0134506, 0.0508506, 0.0260284, 0.0225867, 0.00376621, -0.0192662
0.0941167, 1.69338, -1.22934, -1.54211, -0.90092, -1.1968, 1.23055, -1.30264, 0.0578486, -0.00646058, -0.0372258, -0.00981125, -0.0921007, 0.0266091, -0.00124524, 2.55073, 69.1589, 34.451, 6.39465, 2.35126, 3.93374, 0.0431018, -0.00191831, -0.000723828, 0.00431749, 0.00464101, -0.00185018, 0.00162078, 0.0566102, -0.0350557, -0.0367491, -0.0889309, 0.123284, -0.0251715, 0.470605, -0.541891, 0.336663, -2.08274, -2.16665, -0.128759, 0.469794, -0.543153, 0.332125, -2.08293, -2.16417, -0.12157, -0.013733, 0.0519604, 0.0265925, 0.0219934, 0.00318099, -0.0195411
0.0951167, 1.69344, -1.22934, -1.54215, -0.900926, -1.1969, 1.23058, -1.30263, 0.0547637, -0.00432124, -0.038048, -0.00746184, -0.101951, 0.0291061, 0.00113653, 2.43568, 69.1589, 34.4867, 6.43433, 2.34485, 3.93374, -0.00999879, -0.00198133, -0.000693402, 0.00435288, 0.00468657, -0.0019422, 0.00165565, 0.0620614, -0.0322091, -0.0354432, -0.0907683, 0.135244, -0.0372837, 0.470592, -0.541839, 0.33669, -2.0827, -2.16667, -0.128721, 0.469811, -0.543156, 0.332106, -2.08295, -2.16419, -0.121384, -0.0140172, 0.053079, 0.027161, 0.0191149, -0.0014012, -0.0184399
0.0961167, 1.6935, -1.22934, -1.5422, -0.900944, -1.19701, 1.23061, -1.30264, 0.0573118, -0.00456191, -0.0410103, -0.00933099, -0.100554, 0.0313657, 0.000757684, 2.24921, 69.2303, 34.4867, 6.62079, 2.34485, 3.92642, -0.00999879, -0.00203706, -0.000653865, 0.00439106, 0.00473782, -0.00203415, 0.00165752, 0.0621814, -0.0343652, -0.0372098, -0.0925067, 0.136188, -0.0346159, 0.470578, -0.541786, 0.336717, -2.08266, -2.1667, -0.128681, 0.469837, -0.543151, 0.332085, -2.08293, -2.16425, -0.121194, -0.0143032, 0.0542063, 0.0277337, 0.0209222, -3.01925e-05, -0.0196966
0.0971167, 1.69357, -1.22933, -1.54224, -0.900952, -1.1971, 1.23064, -1.30263, 0.0614978, -0.000450799, -0.0415106, -0.00621672, -0.0971846, 0.027596, 0.000979841, 2.09846, 69.1193, 34.4153, 6.62079, 2.28992, 3.94107, -0.0228162, -0.00209508, -0.000618544, 0.0044201, 0.00478374, -0.00213078, 0.00167258, 0.0611368, -0.0358033, -0.0354653, -0.0939365, 0.136331, -0.0335804, 0.470563, -0.541732, 0.336744, -2.08262, -2.16673, -0.128641, 0.469859, -0.543148, 0.332074, -2.08293, -2.1643, -0.121003, -0.0145909, 0.0553423, 0.0283107, 0.0220975, 0.00193026, -0.0172797
0.0981167, 1.69363, -1.22933, -1.54228, -0.900975, -1.19721, 1.23066, -1.30263, 0.0644791, -0.00123454, -0.0469299, -0.0154194, -0.100843, 0.0293626, -0.000330117, 1.9477, 69.1589, 34.4153, 6.84296, 2.2771, 3.96213, 0.00373412, -0.00215341, -0.000580633, 0.00446144, 0.00484185, -0.00221877, 0.00167844, 0.0604131, -0.038761, -0.0395044, -0.104193, 0.141456, -0.0259747, 0.470549, -0.541677, 0.336773, -2.08258, -2.16676, -0.128599, 0.469883, -0.543142, 0.332052, -2.08291, -2.16435, -0.120808, -0.0148804, 0.0564869, 0.0288918, 0.0245867, 0.00453414, -0.0206663
0.0991167, 1.6937, -1.22933, -1.54233, -0.900988, -1.19732, 1.23068, -1.30264, 0.0670176, 0.000935721, -0.0454233, -0.0179452, -0.103524, 0.0215328, -0.00167814, 1.64619, 69.0836, 34.451, 6.88263, 2.2771, 3.97677, 0.0431018, -0.00221045, -0.000539693, 0.00449937, 0.0049068, -0.00231655, 0.00168055, 0.0589794, -0.039504, -0.0392407, -0.112794, 0.142928, -0.0210805, 0.470534, -0.54162, 0.336802, -2.08254, -2.16679, -0.128557, 0.46991, -0.543135, 0.332033, -2.08289, -2.16441, -0.120594, -0.0151716, 0.0576399, 0.0294771, 0.0249953, 0.00709401, -0.0196218
0.100117, 1.69375, -1.22933, -1.54238, -0.901011, -1.19743, 1.2307, -1.30264, 0.0616695, 0.000620446, -0.0464937, -0.0192451, -0.105769, 0.0200373, 0.000576661, 1.64619, 69.0836, 34.451, 7.02942, 2.25879, 3.99783, -0.00267457, -0.00227604, -0.000508604, 0.0045379, 0.00496907, -0.00241307, 0.00170211, 0.0627549, -0.0363377, -0.0402252, -0.116367, 0.144515, -0.0296813, 0.470519, -0.541563, 0.336831, -2.08249, -2.16682, -0.128514, 0.469926, -0.543135, 0.332013, -2.08289, -2.16444, -0.120382, -0.0154644, 0.0588012, 0.0300665, 0.0216436, 0.00454668, -0.0204915
0.101117, 1.69382, -1.22933, -1.54242, -0.901028, -1.19754, 1.23072, -1.30264, 0.0624957, -0.00135213, -0.0450622, -0.0177901, -0.107167, 0.0140618, 0.000655708, 1.45576, 69.1589, 34.4867, 7.06909, 2.24689, 4.02713, -0.00999879, -0.00233908, -0.000471904, 0.00458174, 0.00503542, -0.00250023, 0.00171408, 0.0636148, -0.0357761, -0.041634, -0.121041, 0.141342, -0.0309325, 0.470503, -0.541504, 0.336861, -2.08245, -2.16685, -0.128471, 0.469948, -0.54313, 0.331989, -2.08286, -2.16449, -0.120175, -0.0157588, 0.0599708, 0.0306599, 0.0207686, 0.00506059, -0.0214052
0.102117, 1.69388, -1.22933, -1.54246, -0.901054, -1.19765, 1.23074, -1.30263, 0.0642923, 2.47036e-05, -0.0396269, -0.0215172, -0.104235, 0.00966483, 0.000911857, 1.34071, 69.1193, 34.34, 7.18018, 2.25238, 4.05551, -0.0228162, -0.00239973, -0.000433563, 0.00461666, 0.00509515, -0.00260001, 0.001723, 0.060688, -0.0383501, -0.0402864, -0.121123, 0.138965, -0.0235779, 0.470487, -0.541444, 0.336892, -2.08241, -2.16688, -0.128426, 0.469972, -0.543123, 0.331975, -2.08285, -2.16454, -0.119962, -0.0160548, 0.0611486, 0.0312573, 0.0229859, 0.00903024, -0.0191039
0.103117, 1.69394, -1.22933, -1.54251, -0.901085, -1.19776, 1.23075, -1.30264, 0.0633435, -0.000912972, -0.0420565, -0.0251823, -0.106715, 0.00663553, -0.000850158, 1.305, 69.1589, 34.451, 7.33093, 2.25879, 4.07748, 0.0165515, -0.0024654, -0.000400329, 0.00466364, 0.00517676, -0.00268904, 0.00172896, 0.0620596, -0.037653, -0.0428173, -0.129186, 0.139811, -0.0224785, 0.470471, -0.541383, 0.336923, -2.08236, -2.16691, -0.128381, 0.469989, -0.543118, 0.331949, -2.08281, -2.16459, -0.119735, -0.0163524, 0.0623344, 0.0318586, 0.0219496, 0.00922156, -0.0211927
0.104117, 1.694, -1.22931, -1.54256, -0.901109, -1.19788, 1.23076, -1.30263, 0.0645593, 0.00689642, -0.0419143, -0.0245026, -0.108349, 0.00466964, -0.000329413, 1.07887, 68.9725, 34.4867, 7.33093, 2.25238, 4.09122, 0.0101428, -0.00252594, -0.000361038, 0.00469705, 0.00524793, -0.00279454, 0.00173676, 0.0623806, -0.0377867, -0.0387017, -0.131211, 0.148742, -0.0240132, 0.470455, -0.54132, 0.336955, -2.08231, -2.16694, -0.128334, 0.470013, -0.543109, 0.331937, -2.08279, -2.16464, -0.119502, -0.0166515, 0.0635282, 0.0324637, 0.0219495, 0.0094735, -0.0165775
0.105117, 1.69407, -1.22931, -1.54259, -0.901142, -1.19799, 1.23077, -1.30263, 0.0625329, 0.00485885, -0.0371802, -0.0294769, -0.110084, 0.00822977, 1.77504e-05, 0.963814, 68.9725, 34.34, 7.44202, 2.2652, 4.09854, 0.00373412, -0.00258649, -0.000320579, 0.00473484, 0.00531188, -0.0028868, 0.00173574, 0.063015, -0.0393633, -0.0388968, -0.127471, 0.150771, -0.021244, 0.470438, -0.541257, 0.336987, -2.08227, -2.16698, -0.128287, 0.470038, -0.543098, 0.331922, -2.08276, -2.1647, -0.119291, -0.0169521, 0.0647298, 0.0330727, 0.0232405, 0.0101462, -0.0163086
0.106117, 1.69412, -1.2293, -1.54262, -0.901167, -1.1981, 1.23077, -1.30263, 0.0594774, 0.00603362, -0.0375884, -0.0299336, -0.111377, 0.0047191, 0.000995178, 0.928108, 68.8614, 34.34, 7.40631, 2.2771, 4.14157, -0.0228162, -0.00265365, -0.000288121, 0.00477104, 0.00538163, -0.00297974, 0.00175383, 0.065404, -0.0371325, -0.0389629, -0.131614, 0.15205, -0.0264855, 0.470421, -0.541192, 0.337021, -2.08222, -2.16701, -0.128239, 0.470054, -0.543092, 0.331908, -2.08274, -2.16474, -0.119069, -0.0172541, 0.0659392, 0.0336855, 0.0207975, 0.00891379, -0.0160617
0.107117, 1.69418, -1.22929, -1.54266, -0.901202, -1.19822, 1.23077, -1.30263, 0.0600519, 0.00583979, -0.036872, -0.0299244, -0.108354, 0.00376578, -8.25334e-05, 0.777352, 68.79, 34.3043, 7.47772, 2.30823, 4.14157, -0.00267457, -0.00271524, -0.000248339, 0.00480752, 0.00545378, -0.00307593, 0.00174947, 0.0656323, -0.0380201, -0.0393453, -0.130995, 0.149699, -0.024496, 0.470404, -0.541126, 0.337054, -2.08217, -2.16705, -0.12819, 0.470078, -0.54308, 0.331895, -2.08269, -2.16481, -0.118843, -0.0175576, 0.0671563, 0.0343019, 0.0213757, 0.0100025, -0.0158859
0.108117, 1.69424, -1.22928, -1.54269, -0.90124, -1.19833, 1.23077, -1.30264, 0.0604473, 0.00660186, -0.0380316, -0.0312, -0.110607, 0.00297531, -0.00147918, 0.626595, 68.6789, 34.34, 7.47772, 2.33295, 4.14157, 0.0357776, -0.00277721, -0.000208982, 0.00484255, 0.00552539, -0.00317187, 0.00174274, 0.0669284, -0.0381791, -0.0399796, -0.134838, 0.15294, -0.0239093, 0.470387, -0.541059, 0.337088, -2.08212, -2.16708, -0.12814, 0.4701, -0.543067, 0.331883, -2.08265, -2.16488, -0.118617, -0.0178624, 0.068381, 0.034922, 0.021255, 0.0100524, -0.0160979
0.109117, 1.6943, -1.22927, -1.54272, -0.901286, -1.19843, 1.23077, -1.30264, 0.0567789, 0.00624714, -0.0349063, -0.0383278, -0.106656, 0.00233213, -0.000511399, 0.511544, 68.6035, 34.34, 7.59277, 2.33844, 4.14157, 0.0229602, -0.00283722, -0.000167474, 0.00487928, 0.00559226, -0.00325825, 0.001733, 0.0663035, -0.038875, -0.0403505, -0.134136, 0.150158, -0.0204418, 0.470369, -0.54099, 0.337123, -2.08207, -2.16712, -0.128089, 0.470125, -0.543051, 0.331872, -2.0826, -2.16495, -0.118406, -0.0181686, 0.0696132, 0.0355458, 0.0216078, 0.0119888, -0.0157656
0.110117, 1.69435, -1.22925, -1.54274, -0.901324, -1.19854, 1.23077, -1.30263, 0.050693, 0.0107111, -0.0316351, -0.0394159, -0.109572, 0.00313862, 0.00111713, 0.400459, 68.4567, 34.3043, 7.5531, 2.36957, 4.10586, -0.0164075, -0.00290259, -0.000130873, 0.00491008, 0.0056543, -0.00335214, 0.00173921, 0.0695915, -0.0362864, -0.0367345, -0.13162, 0.157913, -0.0276371, 0.470351, -0.540921, 0.337159, -2.08202, -2.16715, -0.128038, 0.470144, -0.543039, 0.331866, -2.08257, -2.16501, -0.11819, -0.0184762, 0.0708527, 0.036173, 0.0189734, 0.00931893, -0.0119957
0.111117, 1.6944, -1.22924, -1.54277, -0.90137, -1.19865, 1.23077, -1.30263, 0.0525686, 0.0113213, -0.0315682, -0.0416167, -0.111875, 0.0022885, 0.00121947, 0.285408, 68.421, 34.3757, 7.5531, 2.41809, 4.10586, -0.0292249, -0.00296861, -9.16638e-05, 0.00494734, 0.00572065, -0.0034432, 0.00173723, 0.0697436, -0.0376921, -0.0372405, -0.135143, 0.161083, -0.0257199, 0.470332, -0.54085, 0.337195, -2.08197, -2.16719, -0.127985, 0.470166, -0.543026, 0.331854, -2.08252, -2.16507, -0.117971, -0.018785, 0.0720996, 0.0368038, 0.0200565, 0.0105539, -0.0119321
0.112117, 1.69445, -1.22922, -1.54278, -0.901424, -1.19876, 1.23077, -1.30263, 0.0516647, 0.0138772, -0.0267617, -0.0461023, -0.113812, 0.00167273, 0.00377054, 0.134651, 68.3099, 34.3757, 7.66418, 2.46112, 4.10586, 0.0165515, -0.00303099, -5.11302e-05, 0.00497571, 0.00578319, -0.00354349, 0.00171973, 0.0692527, -0.0389384, -0.0350737, -0.13462, 0.165813, -0.0246552, 0.470313, -0.540778, 0.337232, -2.08192, -2.16723, -0.127932, 0.470189, -0.54301, 0.331851, -2.08247, -2.16516, -0.117749, -0.0190951, 0.0733536, 0.0374381, 0.021055, 0.0120145, -0.00912127
0.113117, 1.6945, -1.22921, -1.54279, -0.901475, -1.19887, 1.23076, -1.30264, 0.0491504, 0.0130499, -0.0222266, -0.050961, -0.109802, 0.00122545, 0.00266408, 0.059273, 68.3099, 34.34, 7.70386, 2.49225, 4.10586, 0.0229602, -0.00309797, -1.3394e-05, 0.00500794, 0.00583952, -0.00363116, 0.00171362, 0.0685802, -0.0400807, -0.0349618, -0.131643, 0.16237, -0.0192844, 0.470294, -0.540705, 0.337269, -2.08186, -2.16726, -0.127878, 0.470209, -0.542996, 0.331846, -2.08242, -2.16523, -0.117544, -0.0194064, 0.0746148, 0.0380757, 0.021865, 0.0139722, -0.00830506
0.114117, 1.69454, -1.2292, -1.54281, -0.901525, -1.19898, 1.23076, -1.30264, 0.050182, 0.00943676, -0.0184667, -0.0531989, -0.106655, 0.000899686, 0.00108352, -0.131157, 68.3099, 34.4153, 7.70386, 2.52338, 4.10586, 0.0495105, -0.00316498, 2.74871e-05, 0.00504154, 0.00589791, -0.00372189, 0.00170285, 0.0677161, -0.0424693, -0.0365784, -0.129191, 0.156866, -0.0128384, 0.470275, -0.54063, 0.337307, -2.08181, -2.1673, -0.127822, 0.470231, -0.542981, 0.331839, -2.08237, -2.16531, -0.117333, -0.0197189, 0.075883, 0.0387168, 0.0238463, 0.0164441, -0.00920181
0.115117, 1.69458, -1.22919, -1.54282, -0.901578, -1.19908, 1.23076, -1.30263, 0.0456659, 0.00835682, -0.0145606, -0.0517335, -0.10446, 0.000390565, 0.000940456, -0.242241, 68.3853, 34.451, 7.70386, 2.55359, 4.11319, 0.0495105, -0.00323588, 6.39696e-05, 0.00507278, 0.00594644, -0.00380852, 0.00170395, 0.0703298, -0.0407475, -0.0358675, -0.124404, 0.15406, -0.0168658, 0.470255, -0.540554, 0.337346, -2.08175, -2.16734, -0.127766, 0.470249, -0.542969, 0.331835, -2.08234, -2.16538, -0.117135, -0.0200326, 0.0771581, 0.0393611, 0.0219389, 0.0149577, -0.00820597
0.116117, 1.69462, -1.22919, -1.54282, -0.901632, -1.19919, 1.23076, -1.30263, 0.0424159, 0.00255683, -0.0107678, -0.0547513, -0.10879, 0.000849442, 0.00323196, -0.357292, 68.6789, 34.451, 7.73956, 2.60303, 4.09854, -0.0164075, -0.00330944, 0.000102093, 0.00511027, 0.00599167, -0.00388831, 0.00170567, 0.0729022, -0.0402517, -0.038574, -0.124624, 0.152836, -0.0202619, 0.470235, -0.540477, 0.337386, -2.0817, -2.16738, -0.127709, 0.470269, -0.542957, 0.331824, -2.0823, -2.16544, -0.116946, -0.0203474, 0.07844, 0.0400087, 0.021125, 0.0140945, -0.0106133
0.117117, 1.69465, -1.22917, -1.54283, -0.90169, -1.1993, 1.23076, -1.30263, 0.0416342, 0.00645382, -0.0105725, -0.0574073, -0.105187, 0.00114373, 0.0017687, -0.543754, 68.6432, 34.5621, 7.77924, 2.60852, 4.08389, -0.00267457, -0.00338123, 0.000139128, 0.0051361, 0.00604124, -0.00398752, 0.0017, 0.0727693, -0.0411093, -0.036944, -0.123827, 0.154965, -0.0170795, 0.470215, -0.540398, 0.337426, -2.08164, -2.16742, -0.127651, 0.470287, -0.542944, 0.331827, -2.08226, -2.16553, -0.116733, -0.0206634, 0.0797287, 0.0406595, 0.0217233, 0.0153026, -0.00835946
0.118117, 1.69468, -1.22915, -1.54283, -0.901757, -1.19941, 1.23076, -1.30264, 0.0370089, 0.00861795, -0.00940825, -0.0604056, -0.108314, -0.00248804, -0.000898992, -0.694511, 68.7543, 34.6375, 7.89032, 2.63324, 4.04819, 0.0559192, -0.00345551, 0.00017619, 0.00516449, 0.00608581, -0.00408552, 0.001691, 0.075128, -0.0386082, -0.0361761, -0.128457, 0.158776, -0.0179404, 0.470194, -0.540319, 0.337466, -2.08158, -2.16746, -0.127592, 0.470305, -0.542932, 0.331827, -2.08222, -2.16562, -0.116527, -0.0209804, 0.081024, 0.0413134, 0.0190276, 0.0140457, -0.00723342
0.119117, 1.69471, -1.22914, -1.54283, -0.90182, -1.19952, 1.23076, -1.30264, 0.0313521, 0.00894238, -0.00755488, -0.0580694, -0.109612, -0.00151369, -0.000767676, -0.884941, 68.9368, 34.6732, 7.92602, 2.64606, 4.03445, 0.0623279, -0.00353317, 0.000210668, 0.00519582, 0.00612989, -0.00417373, 0.00169162, 0.0796771, -0.0355394, -0.03506, -0.125113, 0.161001, -0.0263162, 0.470173, -0.540238, 0.337508, -2.08152, -2.1675, -0.127533, 0.47032, -0.542921, 0.331824, -2.08218, -2.16569, -0.116328, -0.0212984, 0.0823259, 0.0419705, 0.0158597, 0.0105551, -0.00608076
0.120117, 1.69474, -1.22913, -1.54283, -0.901885, -1.19963, 1.23076, -1.30263, 0.0296232, 0.0132525, -0.00537221, -0.0623264, -0.109766, 7.44846e-05, 0.000998036, -1.18645, 69.0836, 34.6732, 7.9657, 2.63324, 3.99783, 0.0229602, -0.00360713, 0.000251175, 0.00522326, 0.00616593, -0.00426608, 0.00168626, 0.079939, -0.0363833, -0.0325424, -0.123774, 0.167262, -0.0262113, 0.470152, -0.540155, 0.33755, -2.08146, -2.16755, -0.127472, 0.470341, -0.542906, 0.331826, -2.08214, -2.16578, -0.116134, -0.0216174, 0.0836343, 0.0426306, 0.0164902, 0.0112567, -0.00300154
0.121117, 1.69476, -1.2291, -1.54283, -0.901957, -1.19974, 1.23077, -1.30263, 0.027807, 0.0160311, -0.00476121, -0.0650568, -0.109879, 0.00116754, 0.00117889, -1.33721, 69.1193, 34.7129, 8.11249, 2.61493, 3.96213, 0.0101428, -0.00368736, 0.000284757, 0.00524689, 0.00620568, -0.00437181, 0.00168932, 0.081105, -0.0364998, -0.0313145, -0.12363, 0.171684, -0.0266566, 0.47013, -0.540072, 0.337592, -2.0814, -2.16759, -0.12741, 0.470355, -0.542897, 0.331832, -2.08212, -2.16586, -0.115921, -0.0219375, 0.084949, 0.0432937, 0.016379, 0.0112384, -0.00130963
0.122117, 1.69478, -1.22907, -1.54283, -0.902022, -1.19985, 1.23077, -1.30263, 0.0259678, 0.020952, -0.00419814, -0.0670384, -0.110724, 0.00140485, 0.0010524, -1.60302, 69.1589, 34.7486, 8.11249, 2.59662, 3.94107, 0.00373412, -0.00376757, 0.000320319, 0.00527031, 0.00624132, -0.00447256, 0.00169131, 0.0823807, -0.036148, -0.0288113, -0.124074, 0.178355, -0.0277948, 0.470108, -0.539987, 0.337635, -2.08134, -2.16763, -0.127348, 0.470371, -0.542886, 0.331839, -2.08209, -2.16594, -0.115716, -0.0222584, 0.08627, 0.0439598, 0.0158517, 0.0109029, 0.00164239
0.123117, 1.6948, -1.22905, -1.54282, -0.902099, -1.19996, 1.23078, -1.30263, 0.0243458, 0.021275, -0.00294035, -0.0676038, -0.111038, 0.00295774, -0.000463358, -1.86486, 69.3414, 34.7486, 8.22754, 2.58472, 3.88339, 0.0357776, -0.0038493, 0.000357097, 0.00529842, 0.00628029, -0.00457483, 0.00168459, 0.0842933, -0.0361121, -0.0284759, -0.122284, 0.180498, -0.0279632, 0.470086, -0.5399, 0.337679, -2.08127, -2.16768, -0.127284, 0.470387, -0.542874, 0.331841, -2.08205, -2.16604, -0.115507, -0.0225803, 0.0875972, 0.0446288, 0.0155813, 0.0102902, 0.00234845
0.124117, 1.69482, -1.22903, -1.54283, -0.902174, -1.20007, 1.23078, -1.30263, 0.022202, 0.0203475, 0.000167294, -0.0672126, -0.106132, 0.00453039, -0.000563796, -2.091, 69.4525, 34.7883, 8.29895, 2.56549, 3.81198, 0.0431018, -0.00393406, 0.000390947, 0.00532402, 0.00631999, -0.0046805, 0.00168749, 0.0854288, -0.0365139, -0.0280714, -0.115998, 0.176912, -0.0282642, 0.470063, -0.539813, 0.337724, -2.08121, -2.16772, -0.127219, 0.470401, -0.542865, 0.331847, -2.08202, -2.16612, -0.11529, -0.0229031, 0.0889305, 0.0453006, 0.0157207, 0.010459, 0.00323178
0.125117, 1.69483, -1.229, -1.54283, -0.902256, -1.20017, 1.23079, -1.30263, 0.0188392, 0.0217495, -0.00137507, -0.0714236, -0.106875, 0.00614294, 0.000145045, -2.24175, 69.5993, 34.8597, 8.414, 2.53528, 3.72592, 0.0293689, -0.00402083, 0.00042458, 0.00534949, 0.00635151, -0.00478573, 0.00169188, 0.087618, -0.035762, -0.028506, -0.118169, 0.180967, -0.0306845, 0.47004, -0.539724, 0.337769, -2.08114, -2.16777, -0.127154, 0.470413, -0.542857, 0.331852, -2.082, -2.16621, -0.115083, -0.0232267, 0.0902698, 0.0459753, 0.0147153, 0.0096724, 0.00316325
0.126117, 1.69483, -1.229, -1.54283, -0.902256, -1.20017, 1.23079, -1.30263, 0.0188392, 0.0217495, -0.00137507, -0.0714236, -0.106875, 0.00614294, 0.000145045, -2.24175, 69.5993, 34.8597, 8.414, 2.53528, 3.72592, 0.0293689, -0.00411785, 0.000445379, 0.00538026, 0.00630565, -0.00476541, 0.00174096, 0.0890642, -0.0360463, -0.0289569, -0.118695, 0.181864, -0.03177, 0.470017, -0.539634, 0.337815, -2.08108, -2.16781, -0.127088, 0.470413, -0.542857, 0.331852, -2.082, -2.16621, -0.115083, -0.0235512, 0.0916151, 0.0466527, 0.0147153, 0.0096724, 0.00316325
0.127117, 1.69484, -1.22894, -1.54282, -0.902428, -1.20038, 1.23082, -1.30263, 0.00935932, 0.0248855, -0.000972632, -0.0764009, -0.109858, 0.0201165, 0.000314873, -2.58294, 69.8572, 34.8597, 8.63617, 2.51056, 3.53915, 0.0165515, -0.00419644, 0.000494378, 0.0053955, 0.00640811, -0.0050078, 0.00169475, 0.0949198, -0.0343523, -0.0263892, -0.108753, 0.195338, -0.0388343, 0.469994, -0.539542, 0.337862, -2.08101, -2.16786, -0.12702, 0.470441, -0.542838, 0.33187, -2.08195, -2.16641, -0.11466, -0.0238765, 0.0929661, 0.0473329, 0.0130212, 0.00477749, 0.00552904
0.128117, 1.69485, -1.22891, -1.54282, -0.90251, -1.20049, 1.23083, -1.30263, 0.0104543, 0.0244158, 0.00164433, -0.080648, -0.110114, 0.0180464, -0.00124296, -2.77337, 70.0436, 34.8993, 8.63617, 2.47394, 3.43936, 0.0559192, -0.0042859, 0.000530878, 0.00541889, 0.00643097, -0.0051152, 0.00169196, 0.093968, -0.0362713, -0.0270142, -0.111114, 0.195198, -0.0323916, 0.46997, -0.539449, 0.337909, -2.08094, -2.16791, -0.126952, 0.470456, -0.542829, 0.33188, -2.08192, -2.16651, -0.114458, -0.0242025, 0.094323, 0.0480157, 0.014555, 0.00725405, 0.00568101
0.129117, 1.69486, -1.22888, -1.54281, -0.9026, -1.20059, 1.23085, -1.30263, 0.0103162, 0.0242738, 0.00356708, -0.0821999, -0.109999, 0.0207297, -0.000824757, -2.92413, 70.2261, 34.9351, 8.67188, 2.44922, 3.3533, 0.0559192, -0.00437655, 0.000566535, 0.00544253, 0.00645609, -0.00522441, 0.00169242, 0.0949037, -0.0376765, -0.0268432, -0.108294, 0.197209, -0.0317094, 0.469946, -0.539355, 0.337957, -2.08087, -2.16796, -0.126882, 0.47047, -0.542819, 0.331889, -2.0819, -2.16661, -0.11425, -0.0245292, 0.0956855, 0.0487012, 0.0156769, 0.00772902, 0.00634651
0.130117, 1.69486, -1.22885, -1.54281, -0.902691, -1.20069, 1.23086, -1.30263, 0.00712221, 0.0263617, 0.00331194, -0.0822254, -0.110573, 0.0176649, 0.0011485, -3.07488, 70.4483, 35.0461, 8.63617, 2.4245, 3.27456, 0.0101428, -0.00446825, 0.000603855, 0.00546907, 0.00648004, -0.00532985, 0.00169359, 0.0974417, -0.0354604, -0.0262651, -0.111323, 0.199066, -0.038283, 0.469921, -0.539259, 0.338006, -2.0808, -2.168, -0.126812, 0.470485, -0.542808, 0.331897, -2.08187, -2.16671, -0.114046, -0.0248567, 0.0970535, 0.0493892, 0.0132589, 0.0064081, 0.00728464
0.131117, 1.69486, -1.22881, -1.54281, -0.902785, -1.20078, 1.23088, -1.30263, 0.00204452, 0.0316926, 0.00282826, -0.0904444, -0.110302, 0.0143383, 0.00124257, -3.11059, 70.5197, 35.0461, 8.60046, 2.39429, 3.22421, -0.00267457, -0.00456008, 0.000639226, 0.00548775, 0.00649691, -0.00544045, 0.00169656, 0.0979481, -0.0339679, -0.0249195, -0.117687, 0.203998, -0.0375508, 0.469896, -0.539162, 0.338055, -2.08073, -2.16805, -0.126741, 0.470499, -0.542797, 0.331912, -2.08185, -2.16681, -0.113843, -0.0251848, 0.0984271, 0.0500798, 0.0115149, 0.00701243, 0.00927387
0.132117, 1.69487, -1.22877, -1.5428, -0.902878, -1.20087, 1.23089, -1.30263, 0.00435233, 0.0355253, 0.00447936, -0.0925511, -0.101229, 0.0157567, -0.000865402, -3.26134, 70.5951, 35.0858, 8.48541, 2.37598, 3.19583, 0.0431018, -0.00464975, 0.000678826, 0.00550781, 0.00651469, -0.00554687, 0.00168551, 0.0954428, -0.0375301, -0.022836, -0.112335, 0.202148, -0.0286999, 0.469871, -0.539064, 0.338106, -2.08066, -2.1681, -0.126669, 0.470516, -0.542783, 0.331927, -2.08181, -2.16692, -0.113645, -0.0255136, 0.099806, 0.0507728, 0.0147311, 0.010703, 0.0122976
0.133117, 1.69487, -1.22873, -1.5428, -0.902974, -1.20096, 1.2309, -1.30263, 0.000368856, 0.0390783, 0.0072656, -0.0942362, -0.0993277, 0.0160866, -0.00105042, -3.30102, 70.6308, 35.1969, 8.37433, 2.36957, 3.19583, 0.0559192, -0.00474374, 0.000712413, 0.00552805, 0.00653907, -0.00565264, 0.00168605, 0.0969561, -0.0366566, -0.0202186, -0.109143, 0.20504, -0.0301998, 0.469845, -0.538964, 0.338156, -2.08059, -2.16815, -0.126595, 0.470526, -0.542771, 0.331943, -2.08178, -2.16702, -0.113437, -0.025843, 0.10119, 0.0514683, 0.0136915, 0.0101567, 0.0153726
0.134117, 1.69487, -1.22871, -1.54279, -0.903083, -1.20105, 1.23091, -1.30263, -0.000888075, 0.0332214, 0.00414887, -0.0993734, -0.0929699, 0.016263, 0.000758702, -3.4121, 70.8887, 35.2683, 8.414, 2.35126, 3.19583, 0.0165515, -0.00483384, 0.00075437, 0.0055608, 0.00656131, -0.00573813, 0.00167271, 0.0974221, -0.0376965, -0.0258834, -0.112016, 0.195615, -0.0290912, 0.46982, -0.538862, 0.338208, -2.08052, -2.16821, -0.126521, 0.470545, -0.542752, 0.331947, -2.08172, -2.16713, -0.113253, -0.026173, 0.10258, 0.0521662, 0.0142046, 0.0119988, 0.0103716
0.135117, 1.69486, -1.22866, -1.54278, -0.903183, -1.20113, 1.23092, -1.30262, -0.00442376, 0.0406737, 0.00584327, -0.102605, -0.0889058, 0.0165494, 0.00148984, -3.4121, 70.7776, 35.308, 8.26324, 2.35675, 3.20224, -0.00999879, -0.0049278, 0.000789997, 0.00557581, 0.0065718, -0.00584331, 0.00167626, 0.0977274, -0.0373898, -0.0216035, -0.109277, 0.200827, -0.0296043, 0.469793, -0.53876, 0.33826, -2.08044, -2.16826, -0.126446, 0.470557, -0.542739, 0.331968, -2.0817, -2.16723, -0.113059, -0.0265036, 0.103974, 0.0528664, 0.013748, 0.0124263, 0.0152613
0.136117, 1.69486, -1.22863, -1.54277, -0.903292, -1.20121, 1.23093, -1.30263, -0.0045586, 0.0398095, 0.00690041, -0.104804, -0.086432, 0.0125105, -0.000226959, -3.3764, 70.9244, 35.3437, 8.22754, 2.36957, 3.19583, 0.0229602, -0.00502233, 0.000828392, 0.00560209, 0.00658518, -0.00593277, 0.00166328, 0.0975894, -0.0378378, -0.02286, -0.112339, 0.196982, -0.0258793, 0.469767, -0.538656, 0.338313, -2.08036, -2.16831, -0.12637, 0.470571, -0.542722, 0.33198, -2.08165, -2.16734, -0.112878, -0.0268347, 0.105374, 0.0535689, 0.0138149, 0.0141756, 0.0147302
0.137117, 1.69485, -1.22859, -1.54276, -0.903399, -1.20129, 1.23094, -1.30263, -0.00679144, 0.0427999, 0.00603253, -0.105907, -0.0841183, 0.0103555, -0.000150917, -3.3764, 70.9244, 35.4548, 8.07678, 2.38147, 3.16653, 0.0229602, -0.00512038, 0.000864518, 0.0056258, 0.00659828, -0.00602901, 0.00166048, 0.0989882, -0.0367713, -0.0221056, -0.114363, 0.197999, -0.028036, 0.46974, -0.538551, 0.338366, -2.08029, -2.16836, -0.126293, 0.470583, -0.542709, 0.331994, -2.08161, -2.16745, -0.112689, -0.0271662, 0.106779, 0.0542736, 0.0125055, 0.0140388, 0.0159989
0.138117, 1.69484, -1.22854, -1.54275, -0.903524, -1.20137, 1.23096, -1.30262, -0.00838792, 0.0426239, 0.0102217, -0.114109, -0.0781908, 0.00919493, 0.000611757, -3.3764, 70.8887, 35.4944, 8.11249, 2.40619, 3.1235, 0.00373412, -0.00521224, 0.00090754, 0.00564732, 0.00660599, -0.00612741, 0.00163975, 0.0966325, -0.0392042, -0.0223599, -0.113108, 0.193725, -0.0203343, 0.469713, -0.538444, 0.338421, -2.08021, -2.16842, -0.126215, 0.470602, -0.542688, 0.332011, -2.08156, -2.16758, -0.112505, -0.0274983, 0.108188, 0.0549806, 0.0145066, 0.0179217, 0.01674
0.139117, 1.69483, -1.2285, -1.54274, -0.903643, -1.20144, 1.23098, -1.30262, -0.00943682, 0.0410636, 0.00857764, -0.118734, -0.0736482, 0.012634, 0.000408057, -3.3764, 70.7776, 35.6055, 8.03711, 2.43091, 3.0878, 0.00373412, -0.0053089, 0.000947864, 0.00567022, 0.00661222, -0.0062227, 0.00162631, 0.0971857, -0.04082, -0.0246302, -0.11214, 0.191558, -0.0174554, 0.469685, -0.538336, 0.338476, -2.08013, -2.16847, -0.126136, 0.470618, -0.54267, 0.332027, -2.08151, -2.1677, -0.112323, -0.0278308, 0.109602, 0.0556897, 0.0157255, 0.0192094, 0.01507
0.140117, 1.69481, -1.22846, -1.54273, -0.903767, -1.2015, 1.23099, -1.30262, -0.00806513, 0.0368992, 0.0131978, -0.118738, -0.0704334, 0.0137794, 0.000509561, -3.33672, 70.7776, 35.6055, 7.9657, 2.45563, 3.0878, -0.00267457, -0.00540517, 0.000988035, 0.00569474, 0.00661256, -0.00630428, 0.00160927, 0.0970052, -0.0433532, -0.0258954, -0.1067, 0.186035, -0.0139587, 0.469658, -0.538226, 0.338531, -2.08005, -2.16853, -0.126055, 0.470633, -0.54265, 0.332043, -2.08145, -2.16782, -0.112162, -0.0281637, 0.111021, 0.0564009, 0.0178704, 0.0211135, 0.014478
0.141117, 1.69479, -1.22843, -1.54272, -0.903904, -1.20157, 1.23101, -1.30262, -0.0140102, 0.0383793, 0.0106168, -0.126272, -0.0680715, 0.00961055, 0.00033983, -3.26134, 70.853, 35.7166, 8.0014, 2.49225, 3.10245, -0.00267457, -0.00550189, 0.00103006, 0.00572936, 0.0066239, -0.00637836, 0.00158477, 0.0984362, -0.0410016, -0.027524, -0.114551, 0.185064, -0.0146741, 0.469629, -0.538115, 0.338588, -2.07997, -2.16858, -0.125974, 0.470649, -0.542627, 0.332049, -2.08138, -2.16794, -0.111995, -0.028497, 0.112445, 0.0571142, 0.0151855, 0.021271, 0.0134387
0.142117, 1.69477, -1.22839, -1.54271, -0.904035, -1.20162, 1.23102, -1.30262, -0.0142645, 0.0386533, 0.00978435, -0.127449, -0.0612987, 0.0113223, 0.000226646, -3.22564, 70.7062, 35.792, 7.9657, 2.52338, 3.11618, -0.00267457, -0.00559997, 0.00106968, 0.00575304, 0.00662743, -0.00646317, 0.00156639, 0.0987191, -0.042335, -0.0281494, -0.111679, 0.181718, -0.0130587, 0.469601, -0.538002, 0.338645, -2.07989, -2.16864, -0.125892, 0.470663, -0.542606, 0.332066, -2.08132, -2.16806, -0.111825, -0.0288307, 0.113873, 0.0578295, 0.0161742, 0.0225763, 0.0134498
0.143117, 1.69474, -1.22836, -1.54269, -0.904181, -1.20168, 1.23104, -1.30263, -0.0177507, 0.037219, 0.0109237, -0.134032, -0.0570441, 0.01209, -0.00249369, -3.18597, 70.7419, 35.792, 8.0014, 2.5719, 3.14548, 0.0687366, -0.00569599, 0.00111332, 0.00578487, 0.00662915, -0.00653207, 0.00152658, 0.0989832, -0.0429883, -0.0297442, -0.111279, 0.1785, -0.00714547, 0.469572, -0.537889, 0.338703, -2.07981, -2.1687, -0.125809, 0.47068, -0.54258, 0.332076, -2.08123, -2.1682, -0.111674, -0.0291647, 0.115306, 0.0585467, 0.0164452, 0.0240225, 0.0125304
0.144117, 1.69471, -1.22832, -1.54268, -0.904324, -1.20173, 1.23105, -1.30262, -0.022853, 0.0398001, 0.0131509, -0.137508, -0.0534433, 0.012483, -0.000712972, -3.03521, 70.6308, 35.8674, 7.9657, 2.60852, 3.18118, 0.0431018, -0.00579794, 0.00115057, 0.00581353, 0.00662792, -0.00660301, 0.00151412, 0.100391, -0.0420086, -0.0281081, -0.108497, 0.179249, -0.00985522, 0.469543, -0.537773, 0.338761, -2.07972, -2.16875, -0.125725, 0.470691, -0.54256, 0.33209, -2.08117, -2.16831, -0.111521, -0.029499, 0.116743, 0.0592659, 0.0152553, 0.023779, 0.0146805
0.145117, 1.69469, -1.22828, -1.54266, -0.904479, -1.20177, 1.23106, -1.30263, -0.0211825, 0.0424936, 0.0155726, -0.144048, -0.0503331, 0.0122722, -0.000204009, -3.11059, 70.484, 35.9031, 8.0014, 2.63965, 3.23153, 0.0357776, -0.00588974, 0.00119883, 0.00584066, 0.00662943, -0.0066758, 0.00146855, 0.097872, -0.045392, -0.0271577, -0.108757, 0.180713, -0.00199024, 0.469513, -0.537657, 0.338821, -2.07964, -2.16881, -0.12564, 0.470712, -0.542527, 0.332107, -2.08107, -2.16846, -0.111365, -0.0298335, 0.118184, 0.059987, 0.0182425, 0.0277144, 0.0166181
0.146117, 1.69465, -1.22825, -1.54264, -0.904627, -1.20181, 1.23108, -1.30262, -0.0210707, 0.0399383, 0.0159354, -0.147382, -0.0435109, 0.0124621, 0.00105082, -3.15026, 70.5197, 35.8674, 7.89032, 2.67627, 3.27456, 0.00373412, -0.00598951, 0.00124187, 0.00587418, 0.00661908, -0.00672813, 0.00144359, 0.0972123, -0.0474078, -0.0294818, -0.107441, 0.173898, 0.00114938, 0.469484, -0.537538, 0.338881, -2.07955, -2.16887, -0.125554, 0.470728, -0.542501, 0.332117, -2.08099, -2.16858, -0.111239, -0.0301683, 0.119629, 0.0607099, 0.0198085, 0.0302578, 0.0150818
0.147117, 1.69461, -1.22821, -1.54262, -0.904785, -1.20185, 1.23109, -1.30263, -0.0262203, 0.0393633, 0.0165921, -0.147296, -0.0385723, 0.0146217, -0.000757495, -3.11059, 70.3729, 35.9388, 7.89032, 2.7193, 3.26724, 0.0431018, -0.00609048, 0.00128278, 0.00590278, 0.00661136, -0.00679282, 0.00140657, 0.100241, -0.0458582, -0.0296215, -0.102479, 0.171055, -0.00137454, 0.469453, -0.537419, 0.338941, -2.07946, -2.16893, -0.125467, 0.470741, -0.542475, 0.332132, -2.0809, -2.16872, -0.111099, -0.0305034, 0.121079, 0.0614347, 0.0180434, 0.0286715, 0.0152526
0.148117, 1.69457, -1.22817, -1.5426, -0.904938, -1.20188, 1.23111, -1.30263, -0.0320248, 0.0370257, 0.0188713, -0.147724, -0.0391269, 0.0159182, -0.0022004, -3.11059, 70.3015, 35.9388, 7.73956, 2.75592, 3.26724, 0.0888782, -0.00619326, 0.00132373, 0.00593212, 0.00659635, -0.00684875, 0.0013724, 0.104233, -0.0435994, -0.0303265, -0.0996921, 0.170458, -0.005475, 0.469423, -0.537298, 0.339003, -2.07938, -2.16899, -0.125378, 0.470755, -0.542449, 0.332148, -2.08081, -2.16885, -0.110974, -0.0308386, 0.122533, 0.0621611, 0.0155861, 0.0261929, 0.0147423
0.149117, 1.69453, -1.22813, -1.54258, -0.905108, -1.20191, 1.23112, -1.30263, -0.0333582, 0.0382552, 0.0196681, -0.15625, -0.0346082, 0.0171302, -0.00122956, -3.11059, 70.2261, 35.9784, 7.77924, 2.78064, 3.25992, 0.0824695, -0.00629373, 0.00136641, 0.00596275, 0.00658529, -0.00690436, 0.00133709, 0.102813, -0.0458966, -0.0308225, -0.100091, 0.170193, 0.000431065, 0.469392, -0.537175, 0.339065, -2.07929, -2.16905, -0.125289, 0.470769, -0.542419, 0.332163, -2.08072, -2.16898, -0.110845, -0.031174, 0.12399, 0.0628893, 0.0174741, 0.0292331, 0.0151242
0.150117, 1.69448, -1.22809, -1.54255, -0.905286, -1.20194, 1.23114, -1.30262, -0.0376969, 0.0330564, 0.0230268, -0.159969, -0.0319192, 0.0136869, 0.00114699, -3.11059, 70.1508, 35.9031, 7.77924, 2.82367, 3.23886, 0.0293689, -0.00639402, 0.00140903, 0.00599236, 0.00656869, -0.00695524, 0.0013006, 0.104089, -0.0449443, -0.0337828, -0.100959, 0.162034, -0.00151736, 0.469361, -0.537051, 0.339128, -2.0792, -2.16911, -0.125199, 0.470783, -0.542388, 0.33218, -2.08062, -2.16912, -0.110725, -0.0315095, 0.125452, 0.0636192, 0.0161264, 0.0298453, 0.0127654
0.151117, 1.69442, -1.22806, -1.54252, -0.905468, -1.20196, 1.23115, -1.30262, -0.0431836, 0.0337362, 0.0226822, -0.173929, -0.0293442, 0.0152062, 0.00123938, -3.15026, 70.1508, 35.9388, 7.73956, 2.84839, 3.23153, 0.0165515, -0.00649749, 0.00144951, 0.00602753, 0.0065561, -0.0069978, 0.00125905, 0.103609, -0.0457677, -0.0355222, -0.104977, 0.163371, 0.00475787, 0.469329, -0.536926, 0.339191, -2.07911, -2.16918, -0.125108, 0.470795, -0.542357, 0.332192, -2.08052, -2.16926, -0.110609, -0.0318451, 0.126917, 0.0643506, 0.0165303, 0.0320893, 0.0118261
0.152117, 1.69436, -1.22802, -1.5425, -0.905647, -1.20197, 1.23116, -1.30263, -0.0464755, 0.0368832, 0.0225819, -0.175233, -0.027156, 0.0113651, -0.00110652, -3.22564, 70.0436, 35.9784, 7.62848, 2.8667, 3.23153, 0.0687366, -0.00660089, 0.00148966, 0.00605569, 0.00653896, -0.00704617, 0.00121308, 0.10516, -0.0439556, -0.034552, -0.107805, 0.163766, 0.00442799, 0.469298, -0.536799, 0.339256, -2.07902, -2.16924, -0.125016, 0.470806, -0.542327, 0.332211, -2.08041, -2.1694, -0.110491, -0.0321808, 0.128386, 0.0650837, 0.0144893, 0.0317996, 0.0133383
0.153117, 1.69429, -1.22797, -1.54247, -0.905838, -1.20199, 1.23118, -1.30263, -0.0556085, 0.0400837, 0.0255471, -0.181863, -0.0257188, 0.01791, -0.00148366, -3.15026, 69.8929, 36.0142, 7.51739, 2.89142, 3.23153, 0.0888782, -0.0067084, 0.00152481, 0.00608206, 0.00651883, -0.00709729, 0.00117897, 0.10831, -0.0424132, -0.0319949, -0.100885, 0.170051, 0.00229046, 0.469265, -0.53667, 0.339321, -2.07892, -2.1693, -0.124922, 0.470813, -0.542299, 0.332232, -2.08032, -2.16954, -0.110372, -0.0325166, 0.129859, 0.0658182, 0.0128437, 0.0297061, 0.0161648
0.154117, 1.69422, -1.22794, -1.54242, -0.906046, -1.202, 1.23118, -1.30263, -0.0589812, 0.0354883, 0.0313208, -0.188928, -0.0197197, 0.0136862, -5.75984e-06, -3.22564, 70.0436, 35.9031, 7.59277, 2.90973, 3.22421, 0.0623279, -0.00680905, 0.00156781, 0.00611744, 0.00649786, -0.00712618, 0.00112016, 0.106888, -0.0433992, -0.034332, -0.100444, 0.159581, 0.00735637, 0.469233, -0.53654, 0.339387, -2.07883, -2.16937, -0.124828, 0.470826, -0.542261, 0.332246, -2.08019, -2.16969, -0.110278, -0.0328524, 0.131335, 0.0665543, 0.013349, 0.0329886, 0.0147792
0.155117, 1.69413, -1.22789, -1.54238, -0.906258, -1.20201, 1.23119, -1.30262, -0.0673718, 0.0394292, 0.0327711, -0.195786, -0.0154837, 0.014931, 0.00169158, -3.18597, 69.8929, 35.9031, 7.5531, 2.93445, 3.22421, 0.0165515, -0.00691532, 0.0016014, 0.00614306, 0.00647681, -0.00716821, 0.00108287, 0.10879, -0.0413845, -0.0324198, -0.0983094, 0.161836, 0.00424016, 0.4692, -0.536409, 0.339453, -2.07873, -2.16943, -0.124733, 0.47083, -0.542229, 0.33227, -2.08009, -2.16983, -0.110167, -0.0331882, 0.132814, 0.0672918, 0.0111578, 0.0322105, 0.0171795
0.156117, 1.69405, -1.22785, -1.54234, -0.906464, -1.20201, 1.2312, -1.30262, -0.0703438, 0.03677, 0.0330085, -0.198943, -0.0109141, 0.0159354, 0.000890365, -3.26134, 69.9683, 35.9388, 7.44202, 2.92163, 3.22421, 0.0229602, -0.00702383, 0.00163684, 0.0061739, 0.00644943, -0.00719831, 0.00103901, 0.110152, -0.0414958, -0.0346071, -0.0969197, 0.157059, 0.00541522, 0.469167, -0.536276, 0.33952, -2.07864, -2.1695, -0.124636, 0.470835, -0.542197, 0.332289, -2.07997, -2.16997, -0.110075, -0.033524, 0.134297, 0.0680307, 0.010906, 0.0326889, 0.0155457
0.157117, 1.69395, -1.22779, -1.54229, -0.906688, -1.20201, 1.23121, -1.30262, -0.076013, 0.0417805, 0.0367205, -0.208785, -0.00807578, 0.0122075, -0.000152407, -3.33672, 69.8929, 35.8277, 7.5531, 2.92163, 3.21689, 0.0431018, -0.00712694, 0.00167529, 0.00619284, 0.00640968, -0.00724013, 0.000977667, 0.109163, -0.04099, -0.032246, -0.0995121, 0.159288, 0.0109079, 0.469133, -0.536142, 0.339588, -2.07854, -2.16956, -0.124539, 0.470843, -0.54216, 0.332322, -2.07985, -2.17014, -0.109986, -0.0338597, 0.135784, 0.0687709, 0.0101251, 0.034772, 0.018787
0.158117, 1.69385, -1.22775, -1.54224, -0.906919, -1.20201, 1.23122, -1.30263, -0.0854256, 0.0420103, 0.0381109, -0.213747, -0.00598365, 0.0139826, -0.00105104, -3.33672, 69.9683, 35.9031, 7.62848, 2.92163, 3.20956, 0.0687366, -0.00723867, 0.00170534, 0.00622145, 0.00638203, -0.00727253, 0.000929095, 0.112917, -0.0378902, -0.0321802, -0.0972431, 0.159663, 0.00705953, 0.469099, -0.536006, 0.339657, -2.07844, -2.16963, -0.124441, 0.470843, -0.542129, 0.332344, -2.07973, -2.17029, -0.10989, -0.0341954, 0.137273, 0.0695125, 0.00685242, 0.0324056, 0.01912
0.159117, 1.69374, -1.2277, -1.54219, -0.907152, -1.202, 1.23122, -1.30262, -0.0893614, 0.0473899, 0.0401655, -0.222993, -0.00443895, 0.0120362, 0.000520011, -3.45177, 69.9683, 35.9388, 7.62848, 2.92163, 3.16653, 0.0357776, -0.00734845, 0.0017378, 0.00624407, 0.00634759, -0.00731005, 0.000881443, 0.112093, -0.0381033, -0.030041, -0.100288, 0.164326, 0.00990368, 0.469065, -0.535869, 0.339727, -2.07834, -2.1697, -0.124341, 0.470845, -0.542095, 0.332373, -2.07962, -2.17044, -0.109796, -0.0345309, 0.138766, 0.0702554, 0.00678798, 0.0343989, 0.0220958
0.160117, 1.69362, -1.22765, -1.54213, -0.907397, -1.202, 1.23123, -1.30262, -0.100157, 0.0459213, 0.0437966, -0.229776, -0.0021777, 0.0104584, 0.000821392, -3.52715, 70.1904, 36.0142, 7.70386, 2.89142, 3.1235, 0.0229602, -0.00746049, 0.00176933, 0.00627473, 0.00631182, -0.00733263, 0.0008283, 0.115234, -0.0344667, -0.0306568, -0.0996726, 0.161194, 0.00623309, 0.469031, -0.53573, 0.339797, -2.07824, -2.16977, -0.124241, 0.470845, -0.542061, 0.332395, -2.07949, -2.17059, -0.109718, -0.0348663, 0.140262, 0.0709994, 0.00292886, 0.0327228, 0.0218711
0.161117, 1.69351, -1.2276, -1.54206, -0.907659, -1.20199, 1.23124, -1.30262, -0.106188, 0.0489369, 0.050868, -0.237614, 0.00459139, 0.00865387, 0.000547595, -3.67791, 70.2618, 36.0538, 7.85065, 2.84839, 3.09512, 0.0229602, -0.00756578, 0.00180434, 0.00629539, 0.00627538, -0.00736814, 0.000756646, 0.113917, -0.0347332, -0.0278253, -0.0949914, 0.158783, 0.0117943, 0.468996, -0.53559, 0.339868, -2.07814, -2.16984, -0.12414, 0.470848, -0.54202, 0.332429, -2.07935, -2.17077, -0.109628, -0.0352016, 0.141761, 0.0717447, 0.00292655, 0.0351057, 0.0256071
0.162117, 1.69338, -1.22755, -1.542, -0.907916, -1.20198, 1.23124, -1.30262, -0.112289, 0.0493672, 0.055675, -0.246982, 0.00417855, 0.00729323, 0.000839782, -3.79296, 70.4086, 36.1252, 7.85065, 2.82367, 3.06674, 0.0101428, -0.00767692, 0.0018354, 0.00631671, 0.00623421, -0.00740005, 0.000700351, 0.11435, -0.034224, -0.0274751, -0.0961704, 0.160184, 0.0146644, 0.468961, -0.535448, 0.33994, -2.07804, -2.16991, -0.124037, 0.470848, -0.541984, 0.332461, -2.07923, -2.17094, -0.109545, -0.0355366, 0.143262, 0.0724911, 0.00212101, 0.0361053, 0.0266509
0.163117, 1.69324, -1.2275, -1.54193, -0.908188, -1.20197, 1.23124, -1.30262, -0.12032, 0.0480134, 0.0551713, -0.251026, 0.00875323, 0.00497941, -0.000898207, -3.86834, 70.6308, 36.2363, 7.92602, 2.79346, 3.07315, 0.0495105, -0.00779104, 0.00186304, 0.00634332, 0.00619961, -0.00742701, 0.000632542, 0.117398, -0.0309159, -0.0293284, -0.0978772, 0.155012, 0.0121503, 0.468925, -0.535305, 0.340012, -2.07793, -2.16998, -0.123934, 0.470844, -0.541948, 0.332489, -2.07909, -2.17111, -0.109459, -0.0358715, 0.144767, 0.0732387, -0.0014618, 0.0347323, 0.025212
0.164117, 1.69311, -1.22745, -1.54184, -0.908465, -1.20197, 1.23124, -1.30262, -0.122895, 0.0464604, 0.0642504, -0.260875, 0.00657794, 0.0025005, -9.01785e-05, -3.97942, 70.8887, 36.2006, 7.9657, 2.78705, 3.10245, 0.0357776, -0.00790215, 0.00189256, 0.00636651, 0.00616148, -0.00745129, 0.000566115, 0.115658, -0.0328887, -0.0289591, -0.0980128, 0.155258, 0.0198999, 0.468889, -0.53516, 0.340086, -2.07783, -2.17005, -0.123829, 0.470841, -0.541908, 0.332521, -2.07894, -2.17128, -0.109379, -0.0362061, 0.146274, 0.0739872, 0.000124781, 0.0379935, 0.0265275
0.165117, 1.69296, -1.22739, -1.54176, -0.908753, -1.20196, 1.23123, -1.30262, -0.129422, 0.0481804, 0.0743196, -0.266129, 0.00500148, -0.000235849, 0.000414599, -4.0191, 71.0355, 36.276, 8.0014, 2.78064, 3.15921, 0.0229602, -0.00801414, 0.00191932, 0.00638547, 0.00612336, -0.00748083, 0.000497325, 0.116387, -0.0317367, -0.0255045, -0.094212, 0.15754, 0.0206007, 0.468853, -0.535014, 0.34016, -2.07772, -2.17012, -0.123723, 0.470835, -0.541868, 0.332559, -2.0788, -2.17145, -0.109293, -0.0365405, 0.147784, 0.0747369, -0.00118429, 0.0382076, 0.0306168
0.166117, 1.69281, -1.22733, -1.54167, -0.909055, -1.20195, 1.23122, -1.30261, -0.133205, 0.0501202, 0.0785, -0.278096, 0.0083868, -0.00319502, 0.00197182, -4.09447, 71.1465, 36.3871, 8.03711, 2.78064, 3.24527, -0.0228162, -0.0081241, 0.0019471, 0.00640379, 0.00609184, -0.00751451, 0.000422992, 0.114105, -0.0331014, -0.0251166, -0.0970136, 0.156913, 0.027691, 0.468816, -0.534866, 0.340234, -2.07762, -2.17019, -0.123617, 0.47083, -0.541825, 0.332598, -2.07865, -2.17164, -0.109195, -0.0368746, 0.149297, 0.0754875, -0.000225417, 0.0419792, 0.0320559
0.167117, 1.69264, -1.22728, -1.54158, -0.909362, -1.20194, 1.23122, -1.30261, -0.142348, 0.0500213, 0.0822249, -0.287955, 0.00572694, -0.00590913, 9.38439e-05, -4.0548, 71.4401, 36.6092, 8.07678, 2.79346, 3.22421, 0.0101428, -0.00824202, 0.00196972, 0.00642849, 0.0060547, -0.00753948, 0.000349318, 0.116326, -0.0303015, -0.0254968, -0.101195, 0.158971, 0.0288968, 0.46878, -0.534717, 0.34031, -2.07751, -2.17026, -0.123509, 0.47082, -0.541787, 0.33263, -2.0785, -2.17182, -0.109111, -0.0372084, 0.150812, 0.076239, -0.00327288, 0.0412324, 0.0321869
0.168117, 1.69247, -1.22722, -1.54148, -0.909698, -1.20192, 1.23122, -1.30262, -0.150314, 0.0527153, 0.088884, -0.296353, 0.00542868, -0.0021083, -0.00115814, -4.09447, 71.5155, 36.6846, 8.26324, 2.76233, 3.16653, 0.0431018, -0.00834856, 0.00200281, 0.00644252, 0.00600787, -0.00758112, 0.000247054, 0.117804, -0.0297569, -0.0224822, -0.0953124, 0.164847, 0.0314975, 0.468742, -0.534566, 0.340386, -2.0774, -2.17034, -0.123401, 0.47082, -0.541738, 0.332675, -2.07832, -2.17204, -0.109022, -0.0375418, 0.15233, 0.0769914, -0.00396058, 0.0408098, 0.0357096
0.169117, 1.6923, -1.22716, -1.54138, -0.910032, -1.20191, 1.23122, -1.30261, -0.161133, 0.0572104, 0.0897477, -0.3125, 0.0100158, -0.00423088, 0.00044861, -4.0548, 71.7377, 36.7957, 8.26324, 2.72571, 3.10977, 0.0101428, -0.00846271, 0.0020292, 0.00646108, 0.00595698, -0.00760995, 0.000163144, 0.117703, -0.0277442, -0.0219387, -0.100455, 0.166513, 0.0340157, 0.468705, -0.534414, 0.340463, -2.07729, -2.17041, -0.123291, 0.470813, -0.541694, 0.332715, -2.07817, -2.17224, -0.108949, -0.0378749, 0.15385, 0.0777447, -0.00627735, 0.0422555, 0.0370848
0.170117, 1.69211, -1.22709, -1.54128, -0.910371, -1.20189, 1.23123, -1.30261, -0.165859, 0.0603364, 0.0926542, -0.321514, 0.00756352, -0.00124755, 0.00175714, -4.0191, 71.8448, 36.9465, 8.22754, 2.7193, 3.05209, -0.0292249, -0.00857828, 0.00205591, 0.00647496, 0.00590052, -0.0076498, 7.89515e-05, 0.118645, -0.0280928, -0.0203246, -0.100313, 0.174589, 0.03528, 0.468667, -0.53426, 0.340541, -2.07718, -2.17049, -0.12318, 0.470806, -0.541651, 0.332761, -2.07802, -2.17245, -0.108869, -0.0382076, 0.155372, 0.0784988, -0.00615016, 0.0426208, 0.0392783
0.171117, 1.69193, -1.22703, -1.54118, -0.910723, -1.20187, 1.23123, -1.3026, -0.171265, 0.0605236, 0.0949566, -0.330787, 0.0144631, -0.000202937, 0.00117142, -4.0191, 72.0312, 37.0933, 8.07678, 2.73212, 3.02371, -0.0292249, -0.00869365, 0.00208241, 0.00649405, 0.00585252, -0.00768351, -1.32324e-05, 0.118153, -0.0287646, -0.0208456, -0.0982975, 0.171133, 0.0408793, 0.468629, -0.534104, 0.340619, -2.07707, -2.17056, -0.123068, 0.470798, -0.541606, 0.332802, -2.07785, -2.17266, -0.108786, -0.0385399, 0.156897, 0.0792537, -0.00584499, 0.0447427, 0.0395728
0.172117, 1.69173, -1.22697, -1.54106, -0.911088, -1.20185, 1.23124, -1.30261, -0.17744, 0.0618459, 0.101469, -0.341815, 0.0210248, -0.000689448, -0.00138919, -3.94372, 72.178, 37.1686, 8.03711, 2.71289, 3.03012, 0.0293689, -0.00880578, 0.00211106, 0.00650945, 0.00579764, -0.00771618, -0.000125827, 0.116415, -0.0297965, -0.0195355, -0.0947082, 0.168216, 0.0510885, 0.46859, -0.533947, 0.340699, -2.07696, -2.17064, -0.122956, 0.470793, -0.541556, 0.332848, -2.07766, -2.1729, -0.108712, -0.0388718, 0.158424, 0.0800094, -0.00515625, 0.0478373, 0.0418552
0.173117, 1.69153, -1.2269, -1.54094, -0.911469, -1.20182, 1.23124, -1.3026, -0.185142, 0.0591666, 0.108738, -0.349892, 0.0254331, 0.000896465, -0.000688768, -3.86834, 72.2137, 37.2797, 8.0014, 2.70099, 2.98709, 0.0229602, -0.00891799, 0.00213867, 0.00652333, 0.00574014, -0.00774963, -0.000233011, 0.117075, -0.0296589, -0.0196353, -0.0883427, 0.163755, 0.0536941, 0.468551, -0.533789, 0.340779, -2.07684, -2.17071, -0.122842, 0.470785, -0.541505, 0.332896, -2.07748, -2.17313, -0.108639, -0.0392032, 0.159952, 0.0807657, -0.00559386, 0.0487244, 0.0424177
0.174117, 1.69132, -1.22684, -1.54082, -0.91185, -1.20179, 1.23125, -1.3026, -0.194582, 0.055492, 0.112561, -0.368322, 0.0218377, 0.00119934, -0.00120516, -3.75329, 72.4359, 37.4662, 7.85065, 2.75043, 2.96603, 0.0431018, -0.0090346, 0.00216341, 0.00654247, 0.00568143, -0.00777207, -0.000341208, 0.117688, -0.029135, -0.0229905, -0.0945248, 0.165292, 0.0606049, 0.468512, -0.533629, 0.340859, -2.07673, -2.17079, -0.122727, 0.470775, -0.541456, 0.33294, -2.07729, -2.17336, -0.108578, -0.0395341, 0.161483, 0.0815227, -0.00655187, 0.0501364, 0.0397867
0.175117, 1.6911, -1.22678, -1.54068, -0.912258, -1.20177, 1.23125, -1.3026, -0.199272, 0.059617, 0.11897, -0.381397, 0.0238117, 0.00198834, 0.00065462, -3.6422, 72.5113, 37.5019, 7.89032, 2.80536, 2.93033, 0.00373412, -0.00914308, 0.00219467, 0.00655576, 0.00561748, -0.00780242, -0.0004694, 0.11549, -0.0310952, -0.0203071, -0.0930066, 0.169841, 0.0680179, 0.468473, -0.533468, 0.340941, -2.07661, -2.17087, -0.122611, 0.470771, -0.541398, 0.33299, -2.07709, -2.17362, -0.108516, -0.0398646, 0.163016, 0.0822803, -0.00489778, 0.0535268, 0.0434656
0.176117, 1.69088, -1.22672, -1.54055, -0.912666, -1.20173, 1.23125, -1.30259, -0.205479, 0.0561472, 0.127268, -0.387411, 0.024992, 0.000445428, 0.0011824, -3.45177, 72.7295, 37.6526, 7.73956, 2.87311, 2.95138, -0.0164075, -0.00925393, 0.00222363, 0.00657476, 0.00555748, -0.00781793, -0.000593838, 0.116277, -0.03059, -0.0205529, -0.0892675, 0.165528, 0.0698838, 0.468433, -0.533304, 0.341023, -2.07649, -2.17095, -0.122494, 0.470764, -0.541341, 0.333036, -2.07688, -2.17386, -0.108462, -0.0401944, 0.164551, 0.0830385, -0.00570134, 0.0542994, 0.0438791
0.177117, 1.69065, -1.22665, -1.5404, -0.913092, -1.2017, 1.23124, -1.30259, -0.211483, 0.0633171, 0.12768, -0.40607, 0.0255516, -0.00921307, 0.00150034, -3.26134, 72.8049, 37.7637, 7.66418, 2.95276, 2.95138, -0.0356336, -0.00936331, 0.00225192, 0.00658741, 0.00549871, -0.00784657, -0.00072825, 0.11317, -0.0298573, -0.0198534, -0.104963, 0.1699, 0.0789852, 0.468392, -0.53314, 0.341106, -2.07637, -2.17103, -0.122376, 0.470756, -0.541281, 0.333089, -2.07667, -2.17412, -0.108395, -0.0405238, 0.166087, 0.0837972, -0.00685355, 0.0587654, 0.0458312
0.178117, 1.69043, -1.22659, -1.54026, -0.913515, -1.20167, 1.23124, -1.30259, -0.217884, 0.0637572, 0.135996, -0.407862, 0.0261107, -0.00698467, -0.00140727, -3.11059, 72.9517, 37.9145, 7.51739, 3.03241, 2.95138, 0.0293689, -0.00947157, 0.00228484, 0.00660322, 0.00543209, -0.0078641, -0.000875755, 0.115451, -0.0288382, -0.0168733, -0.0959215, 0.171476, 0.0801076, 0.468352, -0.532974, 0.34119, -2.07626, -2.17111, -0.122257, 0.470753, -0.541218, 0.33314, -2.07643, -2.1744, -0.108347, -0.0408525, 0.167625, 0.0845564, -0.00797393, 0.0575542, 0.0492209
0.179117, 1.69019, -1.22652, -1.54011, -0.913965, -1.20163, 1.23124, -1.30259, -0.222821, 0.0681234, 0.138351, -0.422132, 0.0263667, -0.00477978, -0.00192152, -2.92413, 72.916, 38.1367, 7.40631, 3.11847, 2.93765, 0.0559192, -0.00957897, 0.00231561, 0.00661197, 0.00536801, -0.00789981, -0.00102621, 0.114311, -0.0302605, -0.0155291, -0.0980638, 0.178713, 0.0881955, 0.468311, -0.532806, 0.341275, -2.07613, -2.17119, -0.122137, 0.470747, -0.541153, 0.333198, -2.07621, -2.17468, -0.108277, -0.0411807, 0.169165, 0.0853161, -0.00686532, 0.0600856, 0.051435
0.180117, 1.68995, -1.22646, -1.53994, -0.914409, -1.20159, 1.23125, -1.30259, -0.228193, 0.0669714, 0.148518, -0.424972, 0.0283232, -0.00338923, -0.000297672, -2.69799, 73.0627, 38.1367, 7.18018, 3.16791, 2.93033, 0.0293689, -0.00968641, 0.00234948, 0.00662478, 0.0052858, -0.00791175, -0.00117818, 0.115222, -0.030412, -0.0130879, -0.0882275, 0.177204, 0.088108, 0.46827, -0.532637, 0.34136, -2.07601, -2.17127, -0.122016, 0.470744, -0.541087, 0.333253, -2.07597, -2.17496, -0.108251, -0.0415082, 0.170706, 0.0860762, -0.00689364, 0.0603672, 0.0544627
0.181117, 1.68971, -1.22639, -1.53978, -0.914874, -1.20155, 1.23125, -1.30258, -0.232018, 0.068766, 0.155326, -0.42695, 0.0352103, -0.00180116, 0.000988347, -2.47185, 73.0984, 38.1724, 7.06909, 3.18622, 2.90835, -0.00267457, -0.00979064, 0.00238569, 0.00663788, 0.00521055, -0.00792904, -0.00134028, 0.115177, -0.031174, -0.0100739, -0.0784872, 0.174848, 0.0890955, 0.468228, -0.532466, 0.341446, -2.07589, -2.17135, -0.121894, 0.470743, -0.541015, 0.333309, -2.07573, -2.17526, -0.108212, -0.0418351, 0.172249, 0.0868367, -0.00632734, 0.0615373, 0.0581818
0.182117, 1.68946, -1.22632, -1.53962, -0.915351, -1.20151, 1.23125, -1.30258, -0.238548, 0.0692594, 0.15304, -0.447954, 0.0387564, -0.00173865, 0.000421539, -2.3211, 73.027, 38.3588, 6.95801, 3.25397, 2.91568, 0.00373412, -0.00989743, 0.00241814, 0.00665088, 0.00515173, -0.00795935, -0.00150663, 0.113181, -0.0324339, -0.0137147, -0.088271, 0.175269, 0.100546, 0.468187, -0.532294, 0.341533, -2.07577, -2.17143, -0.121771, 0.470737, -0.540945, 0.333366, -2.07547, -2.17556, -0.108141, -0.0421613, 0.173793, 0.0875976, -0.00562146, 0.0656652, 0.0556098
0.183117, 1.6892, -1.22625, -1.53945, -0.915818, -1.20146, 1.23124, -1.30258, -0.245129, 0.0670084, 0.158537, -0.451473, 0.03664, -0.00217286, -0.000905769, -2.13067, 73.0627, 38.3985, 6.62079, 3.31531, 2.93765, 0.0357776, -0.0100081, 0.002449, 0.00666418, 0.00507698, -0.00797475, -0.00166671, 0.116113, -0.0304568, -0.0137761, -0.0862474, 0.175378, 0.0992524, 0.468144, -0.53212, 0.34162, -2.07564, -2.17152, -0.121646, 0.470731, -0.540877, 0.333423, -2.07522, -2.17585, -0.1081, -0.0424869, 0.175339, 0.0883587, -0.00779133, 0.0642344, 0.0559322
0.184117, 1.68894, -1.2262, -1.53928, -0.916317, -1.20141, 1.23124, -1.30258, -0.24972, 0.0595395, 0.163182, -0.461493, 0.0409553, -0.0018359, 0.00403826, -1.94024, 73.2095, 38.3985, 6.54541, 3.35193, 2.94406, 0.0357776, -0.0101141, 0.00248333, 0.00668371, 0.00500222, -0.00797903, -0.00184502, 0.115687, -0.0318689, -0.0181363, -0.0850291, 0.166112, 0.101237, 0.468102, -0.531945, 0.341709, -2.07552, -2.1716, -0.121521, 0.470726, -0.540802, 0.333474, -2.07495, -2.17615, -0.108072, -0.0428117, 0.176886, 0.0891202, -0.00689734, 0.0669309, 0.0524046
0.185117, 1.68867, -1.22613, -1.5391, -0.916806, -1.20137, 1.23124, -1.30258, -0.259925, 0.064238, 0.164626, -0.472179, 0.0464057, -0.00133641, 0.00134969, -1.75378, 73.1738, 38.4699, 6.35895, 3.44989, 2.94406, 0.0824695, -0.0102272, 0.00251224, 0.006696, 0.00492521, -0.00799982, -0.00201484, 0.116892, -0.0296128, -0.0163351, -0.0845669, 0.168127, 0.104425, 0.468059, -0.531768, 0.341798, -2.07539, -2.17169, -0.121395, 0.470717, -0.540733, 0.333533, -2.07469, -2.17646, -0.108028, -0.0431357, 0.178434, 0.0898818, -0.00933828, 0.066911, 0.0548412
0.186117, 1.6884, -1.22607, -1.53893, -0.917316, -1.20133, 1.23125, -1.30257, -0.260662, 0.0610281, 0.167321, -0.475897, 0.0468836, -0.00948685, 0.00315661, -1.60302, 73.1738, 38.6207, 6.17248, 3.52405, 2.923, 0.0293689, -0.0103371, 0.00254501, 0.00671504, 0.00485441, -0.00801371, -0.00218986, 0.116539, -0.02936, -0.0189558, -0.0915289, 0.161744, 0.105468, 0.468016, -0.53159, 0.341888, -2.07526, -2.17177, -0.121268, 0.470711, -0.540659, 0.333586, -2.07442, -2.17677, -0.107984, -0.043459, 0.179984, 0.0906437, -0.0100295, 0.0691952, 0.0530793
0.187117, 1.68811, -1.22601, -1.53874, -0.917836, -1.20128, 1.23124, -1.30257, -0.269644, 0.058431, 0.173018, -0.493651, 0.0476351, -0.00661959, 0.00255936, -1.48797, 73.1738, 38.6207, 6.02173, 3.58539, 2.90835, 0.0229602, -0.0104483, 0.00257495, 0.00673247, 0.00477735, -0.0080228, -0.00236905, 0.116056, -0.0301722, -0.0207126, -0.0914882, 0.161987, 0.114643, 0.467972, -0.53141, 0.341978, -2.07513, -2.17186, -0.121139, 0.470701, -0.540585, 0.333642, -2.07415, -2.17708, -0.10795, -0.0437815, 0.181534, 0.0914057, -0.00962639, 0.0715291, 0.052153
