alisrour97/Franka_experiments/Real_Robot_scripts/servo-franka/Data_5_ki/log_dyn_PI_k_ki_5.csv
Time,q1,q2,q3,q4,q5,q6,q7,dq1,dq2,dq3,dq4,dq5,dq6,dq7,t1,t2,t3,t4,t5,t6,t7,ex1,ex2,ex3,ex4,ex5,ex6,ev1,ev2,ev3,ev4,ev5,ev6,xd,yd,zd,uxd,uyd,uzd,x,y,z,ux,uy,uz,vxd,vyd,vzd,vx,vy,vz
4.88281e-07, 1.69143, -1.22497, -1.53731, -0.899948, -1.19169, 1.22827, -1.30264, -0.0010594, -0.00156066, -0.011962, 0.000208948, 0.000887597, 0.000356627, -0.000831338, -0.920646, 56.7096, 26.2983, 6.39465, 1.52179, 3.46042, -0.133595, 0.00119485, -0.00147476, -0.000505475, -0.000326452, -0.00078778, -0.00036517, 0.00304087, 0.00254508, -0.00503947, -0.00959434, -0.00138305, -0.00584029, 0.471008, -0.543389, 0.335894, -2.08385, -2.16584, -0.129887, 0.469515, -0.542345, 0.336641, -2.08406, -2.16682, -0.129494, 0, 0, 0, -0.00261496, -0.00233052, -0.00537134
0.0119976, 1.69144, -1.22499, -1.53738, -0.899949, -1.19168, 1.22829, -1.30264, 0.00248225, -0.00467448, -0.00771991, -4.06229e-05, -0.000176855, 0.00120928, -9.33945e-06, -0.884941, 56.8921, 26.4847, 6.39465, 1.5282, 3.41006, -0.147328, 0.00118115, -0.00147833, -0.000464292, -0.000273127, -0.00076815, -0.000343703, 0.00111559, -0.000329937, -0.00551273, -0.00657241, -0.00333208, -0.00121298, 0.471008, -0.543389, 0.335894, -2.08385, -2.16584, -0.129887, 0.469506, -0.542355, 0.33658, -2.08403, -2.16674, -0.129445, 3.52292e-06, 9.08712e-06, 4.70091e-06, 0.000173938, -0.000230266, -0.00562178
0.0129976, 1.69144, -1.22499, -1.53738, -0.899949, -1.19168, 1.22829, -1.30264, 0.00248225, -0.00467448, -0.00771991, -4.06229e-05, -0.000176855, 0.00120928, -9.33945e-06, -0.884941, 56.8921, 26.4847, 6.39465, 1.5282, 3.41006, -0.147328, 0.00118113, -0.00147834, -0.000464284, -0.000273138, -0.000768145, -0.000343691, 0.00114422, -0.000318731, -0.00552281, -0.00658494, -0.00331292, -0.00123668, 0.471008, -0.543389, 0.335894, -2.08385, -2.16584, -0.129887, 0.469506, -0.542355, 0.33658, -2.08403, -2.16674, -0.129445, 1.40551e-05, 3.62649e-05, 1.87583e-05, 0.000173938, -0.000230266, -0.00562178
0.0139976, 1.69144, -1.22499, -1.53738, -0.899949, -1.19168, 1.22829, -1.30264, 0.00248225, -0.00467448, -0.00771991, -4.06229e-05, -0.000176855, 0.00120928, -9.33945e-06, -0.884941, 56.8921, 26.4847, 6.39465, 1.5282, 3.41006, -0.147328, 0.00118107, -0.00147836, -0.000464263, -0.000273167, -0.000768131, -0.000343658, 0.00119179, -0.000300124, -0.00553954, -0.00660572, -0.00328111, -0.00127603, 0.471008, -0.543389, 0.335894, -2.08385, -2.16584, -0.129887, 0.469506, -0.542355, 0.33658, -2.08403, -2.16674, -0.129445, 3.15416e-05, 8.14084e-05, 4.21042e-05, 0.000173938, -0.000230266, -0.00562178
0.0149976, 1.69144, -1.22499, -1.53738, -0.899949, -1.19168, 1.22829, -1.30264, 0.00248225, -0.00467448, -0.00771991, -4.06229e-05, -0.000176855, 0.00120928, -9.33945e-06, -0.884941, 56.8921, 26.4847, 6.39465, 1.5282, 3.41006, -0.147328, 0.00118095, -0.00147841, -0.000464222, -0.000273225, -0.000768103, -0.000343594, 0.00125815, -0.000274174, -0.00556289, -0.0066347, -0.00323674, -0.0013309, 0.471008, -0.543389, 0.335894, -2.08385, -2.16584, -0.129887, 0.469506, -0.542355, 0.33658, -2.08403, -2.16674, -0.129445, 5.59279e-05, 0.000144393, 7.4671e-05, 0.000173938, -0.000230266, -0.00562178
0.0159976, 1.69144, -1.22499, -1.53738, -0.899949, -1.19168, 1.22829, -1.30264, 0.00248225, -0.00467448, -0.00771991, -4.06229e-05, -0.000176855, 0.00120928, -9.33945e-06, -0.884941, 56.8921, 26.4847, 6.39465, 1.5282, 3.41006, -0.147328, 0.00118076, -0.00147848, -0.000464153, -0.000273319, -0.000768056, -0.000343488, 0.00134318, -0.000240939, -0.00559279, -0.00667178, -0.0031799, -0.00140117, 0.471008, -0.543389, 0.335894, -2.08385, -2.16584, -0.129886, 0.469506, -0.542355, 0.33658, -2.08403, -2.16674, -0.129445, 8.71593e-05, 0.000225094, 0.000116391, 0.000173938, -0.000230266, -0.00562178
0.0169976, 1.69144, -1.22499, -1.53738, -0.899949, -1.19168, 1.22829, -1.30264, 0.00248225, -0.00467448, -0.00771991, -4.06229e-05, -0.000176855, 0.00120928, -9.33945e-06, -0.884941, 56.8921, 26.4847, 6.39465, 1.5282, 3.41006, -0.147328, 0.00118047, -0.00147859, -0.000464052, -0.00027346, -0.000767988, -0.000343332, 0.00144674, -0.000200476, -0.0056292, -0.0067169, -0.00311069, -0.0014867, 0.471008, -0.543389, 0.335894, -2.08385, -2.16584, -0.129886, 0.469506, -0.542355, 0.33658, -2.08403, -2.16674, -0.129445, 0.000125182, 0.000323387, 0.000167197, 0.000173938, -0.000230266, -0.00562178
0.0179976, 1.69144, -1.22499, -1.53738, -0.899949, -1.19168, 1.22829, -1.30264, 0.00248225, -0.00467448, -0.00771991, -4.06229e-05, -0.000176855, 0.00120928, -9.33945e-06, -0.884941, 56.8921, 26.4847, 6.39465, 1.5282, 3.41006, -0.147328, 0.00118007, -0.00147875, -0.000463911, -0.000273655, -0.000767893, -0.000343114, 0.00156871, -0.000152843, -0.00567207, -0.00676997, -0.0030292, -0.00158739, 0.471008, -0.543388, 0.335894, -2.08385, -2.16584, -0.129886, 0.469506, -0.542355, 0.33658, -2.08403, -2.16674, -0.129445, 0.00016994, 0.000439148, 0.000227022, 0.000173938, -0.000230266, -0.00562178
0.0189976, 1.69144, -1.22499, -1.53738, -0.899949, -1.19168, 1.22829, -1.30264, 0.00248225, -0.00467448, -0.00771991, -4.06229e-05, -0.000176855, 0.00120928, -9.33945e-06, -0.884941, 56.8921, 26.4847, 6.39465, 1.5282, 3.41006, -0.147328, 0.00117954, -0.00147896, -0.000463724, -0.000273915, -0.000767766, -0.000342824, 0.00170895, -9.8096e-05, -0.00572135, -0.00683093, -0.00293553, -0.00170309, 0.471009, -0.543388, 0.335895, -2.08385, -2.16584, -0.129886, 0.469506, -0.542355, 0.33658, -2.08403, -2.16674, -0.129445, 0.000221382, 0.000572255, 0.000295798, 0.000173938, -0.000230266, -0.00562178
0.0199976, 1.69144, -1.22499, -1.53738, -0.899949, -1.19168, 1.22829, -1.30264, 0.00248225, -0.00467448, -0.00771991, -4.06229e-05, -0.000176855, 0.00120928, -9.33945e-06, -0.884941, 56.8921, 26.4847, 6.39465, 1.5282, 3.41006, -0.147328, 0.00117886, -0.00147922, -0.000463485, -0.000274247, -0.000767605, -0.000342454, 0.00186734, -3.62926e-05, -0.00577699, -0.00689969, -0.00282978, -0.0018337, 0.471009, -0.543387, 0.335895, -2.08384, -2.16584, -0.129885, 0.469506, -0.542355, 0.33658, -2.08403, -2.16674, -0.129445, 0.000279451, 0.000722584, 0.000373459, 0.000173938, -0.000230266, -0.00562178
0.0209976, 1.69144, -1.22499, -1.53738, -0.899949, -1.19168, 1.22829, -1.30264, 0.00248225, -0.00467448, -0.00771991, -4.06229e-05, -0.000176855, 0.00120928, -9.33945e-06, -0.884941, 56.8921, 26.4847, 6.39465, 1.5282, 3.41006, -0.147328, 0.00117801, -0.00147955, -0.000463186, -0.000274662, -0.000767403, -0.000341992, 0.00204374, 3.25105e-05, -0.00583895, -0.00697619, -0.00271203, -0.00197908, 0.471009, -0.543386, 0.335895, -2.08384, -2.16584, -0.129884, 0.469506, -0.542355, 0.33658, -2.08403, -2.16674, -0.129445, 0.000344096, 0.000890012, 0.000459939, 0.000173938, -0.000230266, -0.00562178
0.0219976, 1.69145, -1.22502, -1.53741, -0.899952, -1.19168, 1.2283, -1.30265, -0.000807333, -0.00195641, -0.00357208, -0.000429681, 0.000127292, 0.00298787, 0.000822727, -0.920646, 57.1143, 26.449, 6.43433, 1.50989, 3.324, -0.147328, 0.00116825, -0.00147811, -0.000433214, -0.000255865, -0.000748913, -0.000341791, 0.00258169, 0.000828954, -0.00256593, -0.00119854, 0.000423914, -0.00382322, 0.47101, -0.543385, 0.335896, -2.08384, -2.16584, -0.129884, 0.469507, -0.542359, 0.336549, -2.08401, -2.16673, -0.129443, 0.000415261, 0.00107442, 0.00055517, -0.000412928, -0.0011133, -0.00235417
0.0229976, 1.69145, -1.22503, -1.53742, -0.89995, -1.19168, 1.22831, -1.30265, -0.000526234, -0.0013368, -0.00439476, 0.000641567, 0.000559586, 0.00220985, -0.0013843, -0.920646, 57.1143, 26.5244, 6.39465, 1.49707, 3.324, -0.0951428, 0.00116559, -0.00147866, -0.000428352, -0.000253345, -0.000743725, -0.000345217, 0.00293233, 0.00124237, -0.00250296, -0.00196676, 0.000411388, -0.0027126, 0.47101, -0.543384, 0.335896, -2.08384, -2.16585, -0.129883, 0.469507, -0.54236, 0.336545, -2.084, -2.16673, -0.129444, 0.000492895, 0.00127568, 0.000659086, -0.000733367, -0.00128481, -0.00223003
0.0239976, 1.69146, -1.22503, -1.53742, -0.899954, -1.19168, 1.22831, -1.30265, 0.000586188, -0.00547335, -0.00753388, -0.00358531, 0.00105123, 0.00214531, -0.000448146, -0.960319, 57.0389, 26.449, 6.43433, 1.47876, 3.31027, -0.10796, 0.00116692, -0.00147491, -0.000423744, -0.000250388, -0.000741163, -0.00035224, 0.00236274, 0.000195819, -0.00677531, -0.00716487, -0.00338209, -0.000318431, 0.471011, -0.543383, 0.335897, -2.08384, -2.16585, -0.129882, 0.469511, -0.542356, 0.336541, -2.08399, -2.16673, -0.129443, 0.000576942, 0.00149367, 0.000771622, 0.000221286, 0.000195885, -0.00627927
0.0249976, 1.69146, -1.22504, -1.53742, -0.89995, -1.19168, 1.22831, -1.30265, 0.000397535, -0.00622378, -0.00613887, -0.00321555, 0.00229452, 0.00263786, -0.000773482, -0.960319, 56.8564, 26.3379, 6.32324, 1.43573, 3.28097, -0.0951428, 0.00116305, -0.00147546, -0.000419372, -0.000255308, -0.000734094, -0.00034623, 0.00238896, -7.9304e-06, -0.00670347, -0.00490302, -0.0048678, 0.000397414, 0.471011, -0.543381, 0.335898, -2.08384, -2.16585, -0.129881, 0.469511, -0.542358, 0.336537, -2.08399, -2.16673, -0.129454, 0.00066735, 0.00172827, 0.000892711, 0.000518708, 0.000401883, -0.00609744
0.0259976, 1.69145, -1.22504, -1.53743, -0.899957, -1.19168, 1.22831, -1.30265, -0.00149316, -0.00194849, -0.00483926, -0.00260041, 0.00288602, 0.00157925, -0.000278296, -0.884941, 56.5985, 26.3379, 6.32324, 1.39911, 3.2883, -0.101552, 0.00116014, -0.00147758, -0.000413104, -0.000245694, -0.000731165, -0.000343439, 0.00276746, 0.00126977, -0.00373482, -0.00358508, -0.00163433, -0.00196883, 0.471012, -0.543379, 0.335899, -2.08384, -2.16585, -0.129879, 0.46951, -0.542358, 0.336531, -2.08399, -2.16672, -0.129445, 0.000764066, 0.00197936, 0.00102229, -0.000539924, -0.000229896, -0.00305679
0.0269976, 1.69146, -1.22505, -1.53743, -0.899956, -1.19169, 1.22831, -1.30265, 0.00217881, -0.000477494, -0.00202294, -0.00356127, 0.00192402, 0.000579251, -0.00140623, -0.884941, 56.5231, 26.2626, 6.24786, 1.39911, 3.30295, -0.0685925, 0.00115888, -0.00147544, -0.000407242, -0.000240809, -0.000728142, -0.000346776, 0.000491314, -0.0010707, -0.00238701, -0.00346715, 0.000325679, 0.00440327, 0.471013, -0.543377, 0.3359, -2.08384, -2.16585, -0.129878, 0.469512, -0.542356, 0.336527, -2.08398, -2.16672, -0.129441, 0.000867038, 0.00224682, 0.00116028, 0.00186775, 0.00217298, -0.00130522
0.0279976, 1.69146, -1.22507, -1.53743, -0.89996, -1.1917, 1.22831, -1.30265, 0.00318275, -0.00762351, 0.00468716, -0.00290177, -0.00406853, -0.000104651, -0.00215819, -0.809562, 56.6739, 26.2626, 6.24786, 1.41742, 3.31759, -0.0356336, 0.0011548, -0.00147501, -0.000396009, -0.000236962, -0.000717908, -0.000350371, 0.00093889, -0.00187789, -0.00432826, -0.00155292, -0.00248857, 0.00666832, 0.471014, -0.543375, 0.335901, -2.08384, -2.16585, -0.129876, 0.469514, -0.542356, 0.336516, -2.08397, -2.16672, -0.129446, 0.000976211, 0.00253053, 0.00130664, 0.00272899, 0.00234663, -0.00316949
0.0289976, 1.69146, -1.22507, -1.53743, -0.899963, -1.1917, 1.22831, -1.30265, -0.000935489, -0.000467541, 0.00158452, -0.00233021, -0.00333913, -3.09804e-05, -0.00191351, -0.658806, 56.7096, 26.3379, 6.24786, 1.42383, 3.31759, -0.0228162, 0.00115075, -0.00147604, -0.000393255, -0.000238675, -0.00071923, -0.000349717, 0.00307866, 0.00126127, -0.00103614, -0.00249088, 0.00431744, 0.00022372, 0.471015, -0.543372, 0.335903, -2.08383, -2.16585, -0.129874, 0.469514, -0.542357, 0.336514, -2.08397, -2.16672, -0.129444, 0.00109153, 0.00283037, 0.00146128, -9.54048e-05, -0.000101135, -1.58949e-06
0.0299976, 1.69146, -1.22508, -1.53742, -0.899964, -1.19171, 1.22832, -1.30265, -0.00119981, -0.00465026, 0.00038836, -0.00185025, -0.00387449, 0.00109351, -0.000800957, -0.619133, 56.8921, 26.3736, 6.24786, 1.46045, 3.2883, -0.0356336, 0.00114765, -0.0014739, -0.000388265, -0.000241509, -0.000718694, -0.000350748, 0.00454422, 0.00163422, -0.00385181, -0.00302837, 0.00139233, -0.00252691, 0.471016, -0.543369, 0.335904, -2.08383, -2.16585, -0.129871, 0.469517, -0.542356, 0.33651, -2.08397, -2.16672, -0.129446, 0.00121295, 0.00314621, 0.00162416, -0.000395684, -0.000814053, -0.00283517
0.0309976, 1.69147, -1.22509, -1.53742, -0.899969, -1.19171, 1.22833, -1.30265, -0.000959241, -0.00575088, 0.000956336, -0.00145608, -0.00256468, 0.000750822, 0.00190743, -0.468376, 57.0032, 26.4847, 6.24786, 1.45404, 3.2883, -0.101552, 0.00114454, -0.00147272, -0.000384701, -0.000246713, -0.000717937, -0.000345936, 0.0045956, 0.00151862, -0.00440715, -0.00231013, -0.00077816, -0.00489609, 0.471017, -0.543366, 0.335906, -2.08383, -2.16586, -0.129869, 0.469519, -0.542355, 0.336508, -2.08397, -2.16672, -0.129449, 0.00134042, 0.00347794, 0.00179519, -0.000170983, -0.000442848, -0.00322395
0.0319976, 1.69147, -1.22508, -1.53742, -0.899968, -1.19171, 1.22833, -1.30265, 0.0012431, -0.00387311, 6.78111e-05, -0.000209632, -0.00258615, 0.00541657, 0.00103426, -0.392998, 57.0032, 26.5244, 6.20819, 1.47327, 3.28097, -0.0951428, 0.00114184, -0.0014706, -0.00038529, -0.000254722, -0.000723369, -0.000348316, 0.00484773, 4.29755e-05, -0.00328002, 0.00121103, 0.00367383, -0.00370525, 0.471019, -0.543362, 0.335908, -2.08383, -2.16586, -0.129866, 0.469523, -0.542355, 0.33651, -2.08397, -2.16673, -0.12945, 0.00147388, 0.00382545, 0.00197432, 0.00148593, -0.00045735, -0.00201547
0.0329976, 1.69147, -1.22509, -1.53742, -0.899965, -1.19172, 1.22834, -1.30265, 0.00508826, -0.00437471, 0.00264915, 0.00140548, -0.00205077, 0.00346648, -0.000293835, -0.281914, 57.0786, 26.5601, 6.13678, 1.47876, 3.29562, -0.0685925, 0.00113738, -0.00147, -0.000381804, -0.000259066, -0.000722303, -0.000347102, 0.00320184, -0.00177007, -0.00294356, 0.00198849, 0.0018322, 0.00112625, 0.47102, -0.543358, 0.33591, -2.08382, -2.16586, -0.129863, 0.469525, -0.542354, 0.336508, -2.08397, -2.16673, -0.129453, 0.00161328, 0.0041886, 0.00216148, 0.0033893, 0.00155311, -0.00129531
0.0339976, 1.69148, -1.22508, -1.53742, -0.899966, -1.19172, 1.22834, -1.30265, 0.00389808, -0.000340059, 0.00223184, 0.000843087, -0.00078142, 0.00155831, -0.00141659, -0.131157, 56.9675, 26.5601, 6.13678, 1.46045, 3.324, -0.0356336, 0.00113584, -0.00146742, -0.000385267, -0.00026488, -0.000733582, -0.000353781, 0.00321372, -0.000720574, -0.00104688, 0.000637215, 0.00417603, 0.00139484, 0.471022, -0.543354, 0.335912, -2.08382, -2.16586, -0.12986, 0.46953, -0.542352, 0.336513, -2.08397, -2.16675, -0.129445, 0.00175856, 0.00456728, 0.0023566, 0.00255537, 0.00158519, 0.000802439
0.0349976, 1.69149, -1.22508, -1.53742, -0.899966, -1.19172, 1.22834, -1.30265, 0.00814629, -0.00024324, 0.00183719, 0.00141965, 0.000528723, 0.000177661, 3.89489e-05, -0.0557783, 56.9675, 26.5601, 6.09711, 1.43024, 3.3533, -0.0621838, 0.00113565, -0.00146352, -0.000382345, -0.000264707, -0.000731, -0.000358046, 0.00158323, -0.00263749, -0.00154076, -0.000849549, 0.00289499, 0.00353847, 0.471024, -0.543349, 0.335915, -2.08382, -2.16586, -0.129856, 0.469535, -0.542347, 0.336513, -2.08396, -2.16676, -0.129444, 0.00190969, 0.00496137, 0.00255964, 0.00454477, 0.00374344, 0.000713036
0.0359976, 1.69149, -1.22508, -1.53742, -0.899966, -1.19172, 1.22834, -1.30265, 0.00814629, -0.00024324, 0.00183719, 0.00141965, 0.000528723, 0.000177661, 3.89489e-05, -0.0557783, 56.9675, 26.5601, 6.09711, 1.43024, 3.3533, -0.0621838, 0.00113022, -0.00146563, -0.000380435, -0.000267363, -0.000729726, -0.000355104, 0.00201451, -0.00247039, -0.00169164, -0.00103327, 0.00318156, 0.00318602, 0.471026, -0.543344, 0.335917, -2.08381, -2.16587, -0.129852, 0.469535, -0.542347, 0.336513, -2.08396, -2.16676, -0.129444, 0.0020666, 0.00537076, 0.00277051, 0.00454477, 0.00374344, 0.000713036
0.0369976, 1.69151, -1.22508, -1.53742, -0.899961, -1.19172, 1.22835, -1.30264, 0.0106356, -0.0012393, 0.00202288, 0.00315459, 0.000477827, 0.000497656, 0.00369828, 0.245735, 57.0389, 26.5244, 5.98602, 1.41742, 3.34598, -0.0750012, 0.00113023, -0.00145434, -0.000377985, -0.000279038, -0.00073785, -0.000366987, 0.00197026, -0.00340939, -0.00222884, -0.000447589, 0.0025948, 0.000191399, 0.471028, -0.543338, 0.33592, -2.08381, -2.16587, -0.129848, 0.469548, -0.54234, 0.336513, -2.08395, -2.16678, -0.129446, 0.00222924, 0.00579533, 0.00298915, 0.00562422, 0.00433283, 0.000379783
0.0379976, 1.69152, -1.22508, -1.53742, -0.899964, -1.19172, 1.22836, -1.30264, 0.00975345, 0.000837262, 0.00066073, 0.00207335, 0.00096748, 0.000426211, 0.00252172, 0.475838, 56.9675, 26.5601, 5.98602, 1.39911, 3.34598, -0.0685925, 0.00112947, -0.00144925, -0.000377649, -0.000281896, -0.000744916, -0.000377048, 0.00248572, -0.00274201, -0.00176489, -0.00187475, 0.00469237, 0.000536846, 0.47103, -0.543332, 0.335923, -2.0838, -2.16587, -0.129843, 0.469556, -0.542335, 0.336515, -2.08395, -2.1668, -0.129439, 0.00239756, 0.00623496, 0.00321551, 0.00516123, 0.00416485, 0.00100438
0.0389976, 1.69153, -1.22508, -1.53742, -0.899957, -1.19173, 1.22837, -1.30265, 0.00836066, -0.00111749, -0.000284211, 0.00175245, 0.000385698, -0.000187564, 0.000205899, 0.737679, 57.0389, 26.5958, 5.83527, 1.40552, 3.36062, -0.0228162, 0.0011228, -0.00144726, -0.000373406, -0.000290027, -0.00074507, -0.000380169, 0.00392394, -0.00153937, -0.00343972, -0.00380863, 0.00328342, 0.000749851, 0.471033, -0.543326, 0.335927, -2.0838, -2.16588, -0.129838, 0.46956, -0.542334, 0.336513, -2.08394, -2.16681, -0.129443, 0.00257152, 0.00668953, 0.00344951, 0.00412508, 0.00340807, -0.000602291
0.0399976, 1.69155, -1.22509, -1.53742, -0.899962, -1.19173, 1.22837, -1.30264, 0.00742456, -0.00251216, 0.000728635, 0.000890423, 0.000240685, -0.00139435, 0.00125183, 1.00349, 57.1143, 26.5601, 5.83527, 1.40552, 3.39633, -0.0484509, 0.00112098, -0.00144102, -0.000366752, -0.000293812, -0.000742839, -0.00038692, 0.00440406, -0.000981573, -0.0042488, -0.00463106, 0.00172659, -0.000406167, 0.471035, -0.543319, 0.33593, -2.08379, -2.16588, -0.129833, 0.469569, -0.542328, 0.33651, -2.08393, -2.16682, -0.129445, 0.00275106, 0.00715892, 0.0036911, 0.0037355, 0.00350515, -0.00121729
0.0409976, 1.69156, -1.2251, -1.53742, -0.899954, -1.19173, 1.22837, -1.30264, 0.0101683, -0.00344095, -0.000287293, 0.00381888, -0.00497307, -0.00166962, 0.00170438, 1.26533, 57.1896, 26.5958, 5.68848, 1.41742, 3.41739, -0.0685925, 0.0011164, -0.00143606, -0.000360313, -0.000298569, -0.000739192, -0.000387248, 0.00586802, -0.000871, -0.00509374, -0.00750828, 0.00516128, -0.00335291, 0.471038, -0.543312, 0.335934, -2.08379, -2.16589, -0.129827, 0.469577, -0.542324, 0.336506, -2.08392, -2.16683, -0.129448, 0.00293613, 0.00764302, 0.00394021, 0.00383202, 0.00266947, -0.00202633
0.0419976, 1.69158, -1.2251, -1.53742, -0.899948, -1.19174, 1.22838, -1.30264, 0.00910833, -0.00313139, -0.00107292, 0.00498807, -0.00395202, -0.00135446, 0.00170386, 1.53114, 57.2253, 26.6355, 5.57739, 1.42383, 3.42471, -0.0814099, 0.00111073, -0.00143233, -0.000355925, -0.000302418, -0.000742942, -0.000388166, 0.00717561, 0.000158461, -0.0051282, -0.00692103, 0.00505353, -0.00589061, 0.471041, -0.543304, 0.335938, -2.08378, -2.16589, -0.129821, 0.469584, -0.542321, 0.336505, -2.08392, -2.16684, -0.129443, 0.00312667, 0.00814172, 0.00419678, 0.00304002, 0.00184039, -0.00197564
0.0429976, 1.6916, -1.2251, -1.53742, -0.899943, -1.19175, 1.22839, -1.30264, 0.0122932, -0.00125403, -0.000680312, 0.00589941, -0.0031715, 0.00460372, -0.000727211, 1.75727, 57.1896, 26.6355, 5.46234, 1.43024, 3.40365, -0.0292249, 0.00110818, -0.00142309, -0.000354175, -0.00031081, -0.000753963, -0.000404486, 0.00677436, -0.00242761, -0.00359211, -0.00116744, 0.00957852, -0.00113099, 0.471044, -0.543295, 0.335942, -2.08378, -2.16589, -0.129815, 0.469596, -0.542314, 0.336507, -2.08391, -2.16687, -0.129436, 0.00332265, 0.00865489, 0.00446074, 0.00585987, 0.00261924, -0.000210636
0.0439976, 1.69163, -1.22511, -1.53742, -0.899936, -1.19176, 1.2284, -1.30264, 0.0156767, -0.00510615, -0.00126253, 0.00727869, -0.00322055, 0.00347799, -0.00043256, 1.9477, 57.3721, 26.6712, 5.31555, 1.45404, 3.40365, -0.0292249, 0.0011032, -0.00141311, -0.000343053, -0.000318399, -0.000751695, -0.00041419, 0.00661902, -0.00355942, -0.00633932, -0.00309958, 0.00560942, 2.57561e-05, 0.471048, -0.543286, 0.335947, -2.08377, -2.1659, -0.129808, 0.469609, -0.542308, 0.3365, -2.08389, -2.16688, -0.129441, 0.003524, 0.00918243, 0.00473204, 0.00708672, 0.00376927, -0.00266205
0.0449976, 1.69165, -1.2251, -1.53742, -0.899927, -1.19176, 1.22841, -1.30264, 0.0170084, -0.0016418, 0.00094122, 0.00514003, -0.0027902, 0.00709047, 0.00120887, 2.17384, 57.2968, 26.5958, 5.16479, 1.46686, 3.41006, -0.0685925, 0.0010991, -0.00140496, -0.000345483, -0.000333323, -0.000766716, -0.000417514, 0.00546236, -0.00559599, -0.00377276, 0.000990647, 0.0109587, 0.00225493, 0.471051, -0.543277, 0.335952, -2.08376, -2.1659, -0.129801, 0.469621, -0.542303, 0.336506, -2.0839, -2.16691, -0.129435, 0.00373068, 0.00972421, 0.00501061, 0.00937869, 0.00514146, 0.00026882
0.0459976, 1.69167, -1.2251, -1.53743, -0.899916, -1.19178, 1.22842, -1.30264, 0.0172993, -0.00109523, -0.00288424, 0.0066393, -0.00334281, 0.00969808, 0.000835306, 2.43568, 57.2968, 26.7466, 5.01404, 1.50348, 3.41739, -0.0685925, 0.00108963, -0.00140059, -0.000339072, -0.00033237, -0.000779916, -0.000415231, 0.00748961, -0.00493235, -0.00458946, 0.000125588, 0.0137562, -0.000910096, 0.471055, -0.543267, 0.335957, -2.08375, -2.16591, -0.129793, 0.46963, -0.542301, 0.336503, -2.0839, -2.16692, -0.129413, 0.00394263, 0.0102801, 0.00529638, 0.00897097, 0.0037945, -0.000546376
0.0469976, 1.6917, -1.2251, -1.53743, -0.899907, -1.19178, 1.22843, -1.30264, 0.0154025, -0.000730676, -0.000983744, 0.00678925, -0.00232329, 0.00599439, -0.00186249, 2.66181, 57.2968, 26.7069, 4.90295, 1.50348, 3.45309, -0.00267457, 0.0010861, -0.00139126, -0.000335813, -0.00034082, -0.000785128, -0.00043011, 0.00795846, -0.00336756, -0.00411712, -0.000816876, 0.0116587, 0.000547693, 0.471059, -0.543256, 0.335962, -2.08375, -2.16592, -0.129785, 0.469643, -0.542293, 0.336505, -2.08388, -2.16695, -0.129411, 0.00415982, 0.0108501, 0.00558931, 0.0076593, 0.00376475, 0.000187427
0.0479976, 1.69172, -1.2251, -1.53743, -0.899896, -1.19179, 1.22843, -1.30264, 0.0129753, 0.000347707, -0.00157555, 0.0108901, -0.00161992, 0.00327849, 0.000232931, 2.92762, 57.261, 26.7466, 4.75616, 1.50348, 3.48971, -0.0420422, 0.00107871, -0.00138466, -0.000332442, -0.000350627, -0.000793807, -0.000428471, 0.0104661, -0.000312483, -0.00345063, -0.00120657, 0.0108244, -0.00809958, 0.471064, -0.543245, 0.335968, -2.08374, -2.16592, -0.129777, 0.469654, -0.542288, 0.336506, -2.08389, -2.16696, -0.129404, 0.00438218, 0.0114339, 0.00588931, 0.00494455, 0.00164516, 0.000848696
0.0489976, 1.69176, -1.22511, -1.53743, -0.899885, -1.19181, 1.22844, -1.30263, 0.0204946, 0.00023151, -0.00104414, 0.0100778, -0.00160796, 0.00653949, 0.00138839, 3.07838, 57.261, 26.7466, 4.64111, 1.5163, 3.51077, -0.0750012, 0.00107448, -0.00137305, -0.000328272, -0.000357565, -0.000805721, -0.000437155, 0.00775081, -0.00516152, -0.00377123, 0.000274463, 0.0129897, -0.00136634, 0.471068, -0.543234, 0.335974, -2.08373, -2.16593, -0.129768, 0.46967, -0.54228, 0.336507, -2.08388, -2.16698, -0.129392, 0.00460967, 0.0120315, 0.00619634, 0.00990591, 0.00517157, 0.00111406
0.0499976, 1.69178, -1.22511, -1.53744, -0.899877, -1.19182, 1.22846, -1.30263, 0.0221024, -0.00160912, -0.00245467, 0.00857667, -0.0062313, 0.00990038, 0.00117225, 3.37989, 57.3364, 26.822, 4.56573, 1.5282, 3.50345, -0.0814099, 0.00106518, -0.00136526, -0.000320988, -0.000365744, -0.000816389, -0.000440896, 0.00897047, -0.00603117, -0.00557224, -0.00157495, 0.0173007, -0.000971763, 0.471073, -0.543221, 0.335981, -2.08372, -2.16594, -0.129759, 0.469683, -0.542275, 0.336504, -2.08388, -2.167, -0.129381, 0.00484224, 0.0126428, 0.00651033, 0.0109856, 0.00489158, -0.000565837
0.0509976, 1.69181, -1.22511, -1.53743, -0.899871, -1.19183, 1.22847, -1.30263, 0.0272962, -0.000144891, -0.000704923, 0.00662415, -0.00946621, 0.0119761, -0.000432229, 3.6457, 57.2968, 26.7823, 4.53003, 1.53461, 3.51077, -0.0484509, 0.0010596, -0.00135489, -0.000318082, -0.000375474, -0.000830912, -0.000454226, 0.00709271, -0.00942243, -0.00468306, -0.00163446, 0.0230846, 0.00666886, 0.471078, -0.543208, 0.335987, -2.08371, -2.16594, -0.129749, 0.469698, -0.542267, 0.336507, -2.08386, -2.16704, -0.129369, 0.00507984, 0.0132677, 0.00683122, 0.0145749, 0.00737258, 0.00082195
0.0519976, 1.69184, -1.22511, -1.53743, -0.899866, -1.19184, 1.22848, -1.30264, 0.0282672, -0.00102474, -0.000467323, 0.00530468, -0.00745441, 0.0141614, -0.00075764, 3.90754, 57.3364, 26.7823, 4.49432, 1.54651, 3.50345, -0.0356336, 0.00105178, -0.00134517, -0.000313034, -0.000387446, -0.000843664, -0.000468013, 0.00680544, -0.0106867, -0.00539135, 0.000276619, 0.0222155, 0.00936993, 0.471083, -0.543195, 0.335994, -2.0837, -2.16595, -0.129738, 0.469713, -0.54226, 0.336507, -2.08385, -2.16707, -0.12936, 0.00532241, 0.013906, 0.00715894, 0.0160442, 0.00845541, 0.000456624
0.0529976, 1.69187, -1.2251, -1.53744, -0.899855, -1.19186, 1.2285, -1.30263, 0.0281634, 0.00107999, -0.0012376, 0.00626773, -0.0106684, 0.015626, -2.64522e-05, 4.06226, 57.261, 26.822, 4.37927, 1.55932, 3.49612, -0.0484509, 0.00104497, -0.00133257, -0.000309881, -0.000398376, -0.000863377, -0.000475857, 0.00857066, -0.00988224, -0.00439918, -0.000254718, 0.0280829, 0.00565184, 0.471088, -0.54318, 0.336002, -2.08369, -2.16596, -0.129728, 0.469731, -0.542251, 0.33651, -2.08385, -2.1671, -0.129342, 0.00556992, 0.0145576, 0.00749345, 0.0155875, 0.00717876, 0.00152123
0.0539976, 1.69191, -1.22511, -1.53743, -0.899846, -1.19187, 1.22851, -1.30263, 0.0306224, -0.000115297, 0.000104431, 0.00680696, -0.0127773, 0.0149327, 0.000731293, 4.24873, 57.2968, 26.7823, 4.26819, 1.56482, 3.53274, -0.0685925, 0.00103841, -0.00132044, -0.000303885, -0.000409084, -0.00087371, -0.000487329, 0.00851766, -0.0107647, -0.00498431, -0.00118091, 0.0286773, 0.00624332, 0.471094, -0.543166, 0.336009, -2.08368, -2.16597, -0.129716, 0.469749, -0.542241, 0.33651, -2.08384, -2.16713, -0.129334, 0.00582231, 0.0152225, 0.00783467, 0.0166982, 0.00802228, 0.00126618
0.0549976, 1.69194, -1.22511, -1.53744, -0.899835, -1.19189, 1.22852, -1.30263, 0.0283108, 0.000758301, -0.00252773, 0.00715894, -0.010176, 0.0157778, 0.000964453, 4.47486, 57.261, 26.8934, 4.1571, 1.58313, 3.53915, -0.0814099, 0.00102619, -0.0013131, -0.000297812, -0.000415008, -0.000892833, -0.000488028, 0.0104014, -0.00908516, -0.00540818, -0.00123398, 0.028377, 0.0024336, 0.4711, -0.54315, 0.336017, -2.08367, -2.16597, -0.129705, 0.469763, -0.542237, 0.33651, -2.08384, -2.16716, -0.129309, 0.00607953, 0.0159004, 0.00818254, 0.0153304, 0.00683692, 0.00095401
0.0559976, 1.69197, -1.22511, -1.53744, -0.899822, -1.1919, 1.22853, -1.30263, 0.0312896, -0.00125774, -1.38851e-05, 0.00831599, -0.00707792, 0.0154574, -0.000304812, 4.62562, 57.3364, 26.822, 4.00635, 1.57123, 3.56845, -0.0557752, 0.00101812, -0.00130066, -0.0002914, -0.000431685, -0.000899343, -0.000504026, 0.0091697, -0.0109854, -0.00597859, 0.00174508, 0.0239775, 0.00733198, 0.471106, -0.543134, 0.336026, -2.08366, -2.16598, -0.129692, 0.469781, -0.542227, 0.336511, -2.08382, -2.16719, -0.12931, 0.00634154, 0.0165914, 0.00853701, 0.0174253, 0.00890972, 0.000878829
0.0569976, 1.69201, -1.22511, -1.53743, -0.899819, -1.19192, 1.22854, -1.30263, 0.0327423, 8.94948e-05, 0.000919386, 0.00555666, -0.010389, 0.0160205, -0.000710593, 4.81605, 57.2968, 26.7823, 4.00635, 1.58313, 3.58218, -0.0420422, 0.00101037, -0.0012883, -0.00028551, -0.00044108, -0.000915771, -0.000522179, 0.00883707, -0.0120011, -0.00552422, -0.000224508, 0.0290253, 0.0103031, 0.471113, -0.543117, 0.336034, -2.08364, -2.16599, -0.129679, 0.4698, -0.542216, 0.336512, -2.0838, -2.16723, -0.129293, 0.00660828, 0.0172953, 0.00889802, 0.018711, 0.00991388, 0.00170932
0.0579976, 1.69204, -1.22511, -1.53743, -0.899805, -1.19193, 1.22856, -1.30263, 0.0348032, 0.000894859, 0.000613391, 0.00714761, -0.0122061, 0.0163767, -0.000710157, 4.9668, 57.261, 26.7823, 3.85956, 1.57764, 3.58951, -0.0356336, 0.000999969, -0.00127765, -0.000283034, -0.00045804, -0.000933173, -0.000528626, 0.00953081, -0.0123044, -0.00527823, -0.000834411, 0.0319301, 0.00956587, 0.471119, -0.543099, 0.336043, -2.08363, -2.166, -0.129666, 0.469818, -0.542208, 0.336517, -2.0838, -2.16727, -0.129282, 0.00687971, 0.0180119, 0.00926549, 0.0193191, 0.00992036, 0.00220285
0.0589976, 1.69209, -1.22511, -1.53744, -0.899802, -1.19195, 1.22857, -1.30262, 0.0389736, -0.000238662, -0.00135396, 0.00796784, -0.0100114, 0.0170848, 0.00244338, 5.00251, 57.2968, 26.8577, 3.85956, 1.60144, 3.58951, -0.114369, 0.00099169, -0.00126237, -0.00027158, -0.000460943, -0.000949581, -0.000538642, 0.00884653, -0.0142175, -0.0069514, -0.00158158, 0.0300392, 0.00900337, 0.471126, -0.543081, 0.336053, -2.08362, -2.16601, -0.129652, 0.46984, -0.542195, 0.336513, -2.08379, -2.1673, -0.129255, 0.00715578, 0.0187412, 0.00963939, 0.0214207, 0.0116614, 0.000972805
0.0599976, 1.69212, -1.2251, -1.53743, -0.899789, -1.19197, 1.22858, -1.30262, 0.0358009, 0.00234653, 0.000860861, 0.0082748, -0.0118937, 0.0169823, 0.00162945, 5.15327, 57.1896, 26.7823, 3.74451, 1.59595, 3.60415, -0.114369, 0.000980895, -0.00125164, -0.00027289, -0.000479718, -0.000974603, -0.000548142, 0.0107801, -0.0121807, -0.00471938, -8.14217e-05, 0.0343543, 0.00617757, 0.471134, -0.543062, 0.336063, -2.0836, -2.16602, -0.129638, 0.469858, -0.542187, 0.336522, -2.08379, -2.16734, -0.129237, 0.00743644, 0.0194831, 0.0100196, 0.0198176, 0.0100674, 0.00331865
0.0609976, 1.69216, -1.22511, -1.53743, -0.899775, -1.19199, 1.2286, -1.30262, 0.0343825, -0.000941307, 0.000574104, 0.0104353, -0.0141867, 0.0171109, 0.00460215, 5.26832, 57.2968, 26.7823, 3.6731, 1.61426, 3.6188, -0.0814099, 0.00096658, -0.00124154, -0.000262484, -0.00049117, -0.00098635, -0.000559042, 0.013687, -0.0103739, -0.0066409, -0.000640433, 0.0333269, -0.00157724, 0.471141, -0.543042, 0.336073, -2.08359, -2.16603, -0.129623, 0.469876, -0.542179, 0.33652, -2.08377, -2.16737, -0.129224, 0.00772164, 0.0202374, 0.0104062, 0.0183333, 0.00817326, 0.00141156
0.0619976, 1.6922, -1.22511, -1.53743, -0.899769, -1.19201, 1.22861, -1.30262, 0.0349219, 0.00104289, 0.000382884, 0.0097011, -0.011233, 0.0177283, 0.002751, 5.30799, 57.2253, 26.7823, 3.7088, 1.63257, 3.6188, -0.0621838, 0.000956274, -0.00122752, -0.000256659, -0.00050133, -0.00100956, -0.000575087, 0.0133654, -0.0109065, -0.00590049, 0.000503548, 0.0338158, 0.00166656, 0.471149, -0.543021, 0.336083, -2.08357, -2.16604, -0.129607, 0.469898, -0.542167, 0.336522, -2.08376, -2.16742, -0.129198, 0.00801134, 0.0210041, 0.0107989, 0.0191702, 0.00916549, 0.00256917
0.0629976, 1.69224, -1.2251, -1.53743, -0.899752, -1.19203, 1.22863, -1.30262, 0.0367666, 0.00245849, 0.000255367, 0.00963516, -0.0128639, 0.0178354, 0.00307967, 5.41908, 57.15, 26.7823, 3.59772, 1.62616, 3.62521, -0.0878186, 0.000939057, -0.00122055, -0.000252504, -0.000516841, -0.00103063, -0.000571173, 0.0135709, -0.0114296, -0.00549587, -0.00080909, 0.0372237, 0.00192483, 0.471157, -0.543, 0.336094, -2.08356, -2.16606, -0.129591, 0.469914, -0.542162, 0.336526, -2.08376, -2.16744, -0.129177, 0.00830549, 0.021783, 0.0111979, 0.0200089, 0.00970089, 0.00331989
0.0639976, 1.69228, -1.22509, -1.53744, -0.899747, -1.19205, 1.22864, -1.30262, 0.0374257, 0.00330943, -0.000757692, 0.00508718, -0.0140599, 0.0175982, 0.00227528, 5.41908, 57.0786, 26.822, 3.6731, 1.62067, 3.63986, -0.0878186, 0.000928489, -0.00120709, -0.000247448, -0.000525631, -0.00105468, -0.000589076, 0.0131039, -0.0121249, -0.00633117, -0.00499483, 0.0399699, 0.00578637, 0.471166, -0.542978, 0.336106, -2.08354, -2.16607, -0.129574, 0.469936, -0.542149, 0.336531, -2.08375, -2.16749, -0.129148, 0.00860403, 0.0225739, 0.011603, 0.0209549, 0.0111102, 0.00295149
0.0649976, 1.69231, -1.2251, -1.53744, -0.899738, -1.19207, 1.22865, -1.30262, 0.0353767, 0.00220628, -0.000505066, 0.00681487, -0.0153146, 0.0177082, 0.00097141, 5.53413, 57.0786, 26.822, 3.6731, 1.62067, 3.64718, -0.0685925, 0.000909136, -0.00120117, -0.000238396, -0.000536941, -0.00107292, -0.00059263, 0.0156848, -0.0102102, -0.00682513, -0.00456291, 0.0402782, 0.00259603, 0.471175, -0.542955, 0.336118, -2.08352, -2.16608, -0.129557, 0.469951, -0.542143, 0.33653, -2.08374, -2.16752, -0.129125, 0.00890693, 0.0233769, 0.0120141, 0.0194206, 0.0093625, 0.00253256
0.0659976, 1.69236, -1.22509, -1.53744, -0.899733, -1.19209, 1.22866, -1.30262, 0.0383147, 0.00323409, 0.000591356, 0.00337158, -0.0154279, 0.0123134, -0.000210765, 5.45875, 57.0032, 26.7823, 3.74451, 1.60144, 3.67557, -0.0420422, 0.000899631, -0.0011857, -0.000233707, -0.000548011, -0.00109534, -0.000618613, 0.0133501, -0.0114725, -0.00723909, -0.0107064, 0.0396148, 0.00947555, 0.471184, -0.542931, 0.33613, -2.0835, -2.16609, -0.129539, 0.469976, -0.542127, 0.336536, -2.08371, -2.16758, -0.129099, 0.00921413, 0.0241918, 0.0124312, 0.0208895, 0.012598, 0.00286471
0.0669976, 1.6924, -1.22508, -1.53743, -0.899716, -1.19211, 1.22868, -1.30261, 0.0416402, 0.00382649, 0.000394273, 0.00745522, -0.0167819, 0.0138801, 0.00215727, 5.45875, 56.9318, 26.7823, 3.6731, 1.61426, 3.68289, -0.101552, 0.000880941, -0.00117742, -0.000230081, -0.000565297, -0.00112106, -0.000611797, 0.0143681, -0.0121816, -0.00673259, -0.00902182, 0.0424104, 0.00556159, 0.471193, -0.542906, 0.336143, -2.08349, -2.16611, -0.12952, 0.469994, -0.54212, 0.336542, -2.08372, -2.16761, -0.129073, 0.0095256, 0.0250185, 0.0128543, 0.0219644, 0.0123712, 0.00360847
0.0679976, 1.69244, -1.22508, -1.53744, -0.899709, -1.19213, 1.22869, -1.30261, 0.0459995, 0.00431423, -0.000665145, 0.00777132, -0.0163343, 0.0147913, 0.00198319, 5.3437, 56.8564, 26.822, 3.7088, 1.58954, 3.69021, -0.114369, 0.000867326, -0.00116367, -0.000222251, -0.000575122, -0.00114255, -0.000626208, 0.0135866, -0.0142408, -0.00723275, -0.00978978, 0.0437317, 0.00868935, 0.471203, -0.542881, 0.336156, -2.08347, -2.16612, -0.129501, 0.470017, -0.542107, 0.336545, -2.08371, -2.16765, -0.129044, 0.00984127, 0.0258569, 0.0132832, 0.0242902, 0.0141431, 0.00360219
0.0689976, 1.69247, -1.22507, -1.53744, -0.899696, -1.19216, 1.2287, -1.30261, 0.0419355, 0.00463939, -0.00044341, 0.00668189, -0.0223614, 0.0156149, 0.00161221, 5.41908, 56.781, 26.822, 3.6731, 1.60785, 3.69754, -0.120778, 0.000844219, -0.00116075, -0.000216551, -0.000587176, -0.00116694, -0.000621607, 0.0171659, -0.0113692, -0.00713721, -0.0119129, 0.0499461, 0.00336107, 0.471213, -0.542854, 0.336169, -2.08345, -2.16613, -0.129481, 0.470031, -0.542102, 0.336549, -2.08371, -2.16768, -0.129013, 0.0101611, 0.0267069, 0.013718, 0.0218749, 0.0113264, 0.00366333
0.0699976, 1.69252, -1.22507, -1.53743, -0.899692, -1.19218, 1.22872, -1.30261, 0.0445409, 0.00392815, 0.000632428, 0.00645772, -0.0217975, 0.0123439, -0.000106354, 5.26832, 56.7453, 26.7823, 3.74451, 1.61426, 3.68289, -0.0878186, 0.000831273, -0.00114452, -0.000209177, -0.000603412, -0.00118842, -0.000648787, 0.0162397, -0.0122008, -0.00794452, -0.014493, 0.0477828, 0.00784267, 0.471223, -0.542827, 0.336183, -2.08343, -2.16615, -0.129461, 0.470058, -0.542086, 0.336553, -2.08368, -2.16774, -0.128991, 0.0104851, 0.0275683, 0.0141585, 0.0229668, 0.0132609, 0.00342506
0.0709976, 1.69256, -1.22506, -1.53743, -0.89969, -1.1922, 1.22873, -1.30261, 0.0425179, 0.0042892, 0.00042163, 0.00542838, -0.026128, 0.0137059, -0.000753323, 5.26832, 56.6739, 26.7823, 3.85956, 1.62616, 3.69021, -0.0685925, 0.000813086, -0.0011357, -0.000201162, -0.000611093, -0.00121239, -0.000660431, 0.0187603, -0.0106642, -0.00804112, -0.0160292, 0.0530091, 0.00509628, 0.471234, -0.542799, 0.336197, -2.08341, -2.16616, -0.12944, 0.470077, -0.542074, 0.336557, -2.08366, -2.16779, -0.128956, 0.0108131, 0.0284411, 0.0146048, 0.0218478, 0.0115968, 0.00343169
0.0719976, 1.6926, -1.22506, -1.53743, -0.899675, -1.19223, 1.22874, -1.30261, 0.0441864, 0.00285947, 0.00204433, 0.00612605, -0.0291442, 0.010312, 0.000978089, 5.26832, 56.6739, 26.7069, 3.78418, 1.63257, 3.69021, -0.10796, 0.000792464, -0.00112681, -0.000193226, -0.00062867, -0.00122998, -0.000662254, 0.0191986, -0.0104399, -0.00891756, -0.0193873, 0.0528697, 0.00345086, 0.471245, -0.54277, 0.336212, -2.08339, -2.16618, -0.129418, 0.470098, -0.542064, 0.33656, -2.08366, -2.16782, -0.128936, 0.0111452, 0.0293251, 0.0150567, 0.02194, 0.0121737, 0.00295699
0.0729976, 1.69265, -1.22506, -1.53743, -0.899668, -1.19225, 1.22875, -1.30261, 0.0441779, 0.00366955, 0.000434875, 0.00700941, -0.0264867, 0.00724706, 0.000668741, 5.19294, 56.5985, 26.7466, 3.81988, 1.63257, 3.70395, -0.10796, 0.000773951, -0.00111604, -0.000185362, -0.000638909, -0.00125377, -0.00067517, 0.0198201, -0.00932016, -0.00948653, -0.0221142, 0.0506303, 0.00232935, 0.471256, -0.542741, 0.336228, -2.08336, -2.16619, -0.129396, 0.47012, -0.542051, 0.336565, -2.08364, -2.16787, -0.128902, 0.0114812, 0.0302203, 0.0155142, 0.0211596, 0.0124966, 0.00279031
0.0739976, 1.69265, -1.22506, -1.53743, -0.899668, -1.19225, 1.22875, -1.30261, 0.0441779, 0.00366955, 0.000434875, 0.00700941, -0.0264867, 0.00724706, 0.000668741, 5.19294, 56.5985, 26.7466, 3.81988, 1.63257, 3.70395, -0.10796, 0.000741667, -0.00112845, -0.000174094, -0.000654628, -0.00124651, -0.00065801, 0.0207744, -0.00895707, -0.00981679, -0.0225007, 0.0512557, 0.00156833, 0.471268, -0.54271, 0.336243, -2.08334, -2.16621, -0.129373, 0.47012, -0.542051, 0.336565, -2.08364, -2.16787, -0.128902, 0.0118212, 0.0311266, 0.0159772, 0.0211596, 0.0124966, 0.00279031
0.0749976, 1.69265, -1.22506, -1.53743, -0.899668, -1.19225, 1.22875, -1.30261, 0.0441779, 0.00366955, 0.000434875, 0.00700941, -0.0264867, 0.00724706, 0.000668741, 5.19294, 56.5985, 26.7466, 3.81988, 1.63257, 3.70395, -0.10796, 0.000708425, -0.00114123, -0.000162492, -0.000670811, -0.00123904, -0.000640349, 0.0217402, -0.00858978, -0.010151, -0.0228913, 0.0518883, 0.000798672, 0.47128, -0.542678, 0.33626, -2.08332, -2.16623, -0.129349, 0.47012, -0.542051, 0.336565, -2.08364, -2.16787, -0.128902, 0.012165, 0.0320437, 0.0164457, 0.0211596, 0.0124966, 0.00279031
0.0759976, 1.69269, -1.22505, -1.53743, -0.899659, -1.19227, 1.22876, -1.3026, 0.04001, 0.00328158, 0.000289921, 0.00847247, -0.025511, 0.00627204, 0.000695698, 5.15327, 56.5628, 26.7466, 3.81988, 1.65729, 3.68289, -0.114369, 0.000684688, -0.00113258, -0.000152651, -0.000684918, -0.00126249, -0.000644218, 0.0247761, -0.00546722, -0.0104325, -0.0224984, 0.0506151, -0.00513789, 0.471292, -0.542646, 0.336276, -2.08329, -2.16625, -0.129324, 0.470142, -0.54204, 0.336568, -2.08363, -2.16791, -0.12887, 0.0125127, 0.0329717, 0.0169196, 0.0184887, 0.0103416, 0.0026107
0.0769976, 1.69284, -1.22504, -1.53743, -0.899629, -1.19234, 1.22879, -1.3026, 0.0493664, 0.00546806, 0.000426182, 0.00949608, -0.0217897, 0.00550415, 0.00115087, 4.81605, 56.3049, 26.7069, 3.78418, 1.66919, 3.67557, -0.127186, 0.000695812, -0.00106923, -0.000150515, -0.000689109, -0.00133981, -0.000727472, 0.0208509, -0.0103703, -0.00985983, -0.0224868, 0.0501943, 0.00324374, 0.471305, -0.542612, 0.336293, -2.08327, -2.16626, -0.129299, 0.470217, -0.541993, 0.336582, -2.08356, -2.16806, -0.128779, 0.0128642, 0.0339105, 0.0173989, 0.0236158, 0.0152705, 0.00411467
0.0779976, 1.69289, -1.22503, -1.53743, -0.899615, -1.19236, 1.22879, -1.3026, 0.0523175, 0.00457339, 0.000284123, 0.00883568, -0.0212147, 0.00383124, 0.000533847, 4.81605, 56.2653, 26.7069, 3.7088, 1.6756, 3.68289, -0.120778, 0.000671527, -0.00106088, -0.000141804, -0.000704582, -0.00136068, -0.000732524, 0.0201694, -0.0115429, -0.0111754, -0.025045, 0.0488159, 0.00669796, 0.471318, -0.542578, 0.336311, -2.08324, -2.16628, -0.129273, 0.470239, -0.541981, 0.336587, -2.08355, -2.1681, -0.12875, 0.0132194, 0.0348598, 0.0178835, 0.0250696, 0.0171435, 0.00337015
0.0789976, 1.69294, -1.22503, -1.53742, -0.899616, -1.19238, 1.2288, -1.3026, 0.0514106, 0.00304893, 0.000189416, 0.0068917, -0.0259187, 0.00233642, -0.00157391, 4.81605, 56.2653, 26.7069, 3.81988, 1.69391, 3.69754, -0.0685925, 0.000651538, -0.00104815, -0.00012751, -0.000711658, -0.00137701, -0.000759877, 0.0219477, -0.0102936, -0.0128066, -0.0299365, 0.0512233, 0.00720809, 0.471331, -0.542543, 0.336329, -2.08322, -2.1663, -0.129247, 0.470265, -0.541963, 0.336588, -2.08351, -2.16816, -0.128718, 0.0135784, 0.0358197, 0.0183733, 0.024186, 0.0165469, 0.0020117
0.0799976, 1.69299, -1.22502, -1.53742, -0.899609, -1.19241, 1.22881, -1.3026, 0.053555, 0.00546629, 0.000126278, 0.0052653, -0.0238049, 0.00129259, -0.00128441, 4.81605, 56.1185, 26.7069, 3.81988, 1.6875, 3.71127, -0.0621838, 0.000630973, -0.00103648, -0.000119051, -0.000720314, -0.0014005, -0.000775558, 0.0207869, -0.0114622, -0.0121932, -0.0312269, 0.0522653, 0.0102863, 0.471345, -0.542506, 0.336348, -2.08319, -2.16632, -0.12922, 0.470291, -0.541945, 0.336595, -2.08348, -2.16821, -0.128678, 0.013941, 0.03679, 0.0188684, 0.0256962, 0.0186174, 0.00325671
0.0809976, 1.69305, -1.22501, -1.53742, -0.899601, -1.19243, 1.22881, -1.30259, 0.0565465, 0.00447941, 8.41862e-05, 0.00401333, -0.0271479, 0.00574141, 0.000840819, 4.77637, 56.0828, 26.7069, 3.81988, 1.6875, 3.71127, -0.10796, 0.000611154, -0.00102195, -0.000106722, -0.000730074, -0.00141665, -0.00079204, 0.0213434, -0.0134758, -0.0130814, -0.0305032, 0.0570955, 0.0102675, 0.471359, -0.542469, 0.336367, -2.08316, -2.16634, -0.129192, 0.47032, -0.541925, 0.336598, -2.08345, -2.16826, -0.128646, 0.0143072, 0.0377706, 0.0193685, 0.0280612, 0.0192688, 0.00273203
0.0819976, 1.69311, -1.22501, -1.53742, -0.899598, -1.19245, 1.22882, -1.30259, 0.06282, 0.00698323, 0.00407057, 0.00212488, -0.0256697, 0.00408478, 0.00032444, 4.701, 56.0471, 26.6712, 3.85956, 1.70581, 3.7186, -0.101552, 0.000593724, -0.00100367, -9.31639e-05, -0.000739906, -0.0014337, -0.00082452, 0.0174979, -0.0175342, -0.0112962, -0.0298456, 0.0583381, 0.0201783, 0.471373, -0.542431, 0.336386, -2.08313, -2.16636, -0.129163, 0.470353, -0.541901, 0.336601, -2.0834, -2.16833, -0.128614, 0.014677, 0.0387614, 0.0198738, 0.03241, 0.0239505, 0.00547216
0.0829976, 1.69317, -1.22501, -1.53742, -0.899593, -1.19247, 1.22882, -1.30259, 0.0616534, 0.00408375, 0.00214343, 0.00483233, -0.0294486, 0.00794152, 0.00405209, 4.74067, 56.0828, 26.7069, 3.85956, 1.73053, 3.7186, -0.0750012, 0.000570484, -0.000991468, -7.66605e-05, -0.000744374, -0.0014476, -0.000844351, 0.0217007, -0.0158722, -0.0132674, -0.0291281, 0.0609864, 0.00994827, 0.471388, -0.542392, 0.336407, -2.0831, -2.16638, -0.129134, 0.47038, -0.541881, 0.336601, -2.08336, -2.16838, -0.128578, 0.0150503, 0.0397623, 0.0203841, 0.0312041, 0.0210362, 0.0034352
0.0839976, 1.69323, -1.22501, -1.53742, -0.899585, -1.19249, 1.22883, -1.30259, 0.0636022, 0.00375533, 0.00291625, 0.00545811, -0.0317691, 0.00653596, 0.00286625, 4.81605, 56.0471, 26.7823, 3.78418, 1.74335, 3.70395, -0.0685925, 0.000545205, -0.000979809, -6.31193e-05, -0.00075591, -0.001467, -0.000860945, 0.0222662, -0.0160451, -0.0136926, -0.0312097, 0.0625125, 0.0112665, 0.471403, -0.542351, 0.336427, -2.08308, -2.1664, -0.129103, 0.470407, -0.541864, 0.336604, -2.08333, -2.16844, -0.128542, 0.0154271, 0.0407732, 0.0208993, 0.0317588, 0.0215616, 0.00343764
0.0849976, 1.69329, -1.225, -1.53742, -0.899579, -1.19252, 1.22883, -1.30259, 0.060581, 0.00561376, 0.00234751, 0.00575697, -0.0290684, 0.00461035, 0.00414528, 4.81605, 56.0471, 26.7823, 3.7088, 1.76166, 3.71127, -0.120778, 0.000524408, -0.000964231, -4.85412e-05, -0.000764504, -0.00148003, -0.000882784, 0.0239776, -0.0136943, -0.0131444, -0.0317867, 0.0618207, 0.00649269, 0.471419, -0.54231, 0.336448, -2.08304, -2.16642, -0.129072, 0.470439, -0.54184, 0.336607, -2.08328, -2.16849, -0.12851, 0.0158074, 0.041794, 0.0214195, 0.0298739, 0.0207112, 0.00430577
0.0859976, 1.69335, -1.225, -1.53742, -0.899582, -1.19254, 1.22883, -1.30258, 0.0657472, 0.00727346, 0.00408886, 0.003269, -0.0320404, 0.00373807, 0.00275241, 4.89143, 56.0471, 26.822, 3.74451, 1.78638, 3.70395, -0.114369, 0.000504507, -0.000947096, -3.1469e-05, -0.000765386, -0.0014969, -0.000914113, 0.0220004, -0.0165157, -0.0126191, -0.0346785, 0.0664477, 0.0141183, 0.471435, -0.542268, 0.33647, -2.08301, -2.16645, -0.129041, 0.470472, -0.541814, 0.336608, -2.08323, -2.16856, -0.128465, 0.016191, 0.0428246, 0.0219445, 0.0330228, 0.0237306, 0.00556947
0.0869976, 1.69342, -1.225, -1.53742, -0.899576, -1.19256, 1.22883, -1.30259, 0.071446, 0.00538188, 0.00238002, 0.00404945, -0.0286958, 0.0025157, -0.000436778, 4.89143, 56.0471, 26.8577, 3.6731, 1.79187, 3.71127, -0.0484509, 0.0004854, -0.000928381, -1.54224e-05, -0.000771644, -0.00150832, -0.000955362, 0.0205393, -0.0190096, -0.0150122, -0.0367826, 0.0621488, 0.0217203, 0.471451, -0.542224, 0.336492, -2.08298, -2.16647, -0.129008, 0.470507, -0.541786, 0.336611, -2.08316, -2.16864, -0.128433, 0.016578, 0.0438649, 0.0224743, 0.0357595, 0.0266853, 0.00388612
0.0879976, 1.69349, -1.22499, -1.53741, -0.899579, -1.19258, 1.22883, -1.30258, 0.0700176, 0.0039876, 0.00525065, 0.0028494, -0.0272253, 0.0021696, 0.000819424, 4.9668, 56.0471, 26.8577, 3.6731, 1.823, 3.70395, -0.0750012, 0.000464665, -0.000911198, 1.15404e-06, -0.00077719, -0.00152236, -0.000984268, 0.0211285, -0.0186884, -0.015317, -0.0347954, 0.0599793, 0.021132, 0.471468, -0.54218, 0.336515, -2.08295, -2.16649, -0.128975, 0.470541, -0.541759, 0.336614, -2.08311, -2.1687, -0.128394, 0.0169683, 0.0449148, 0.0230089, 0.0358395, 0.0271872, 0.00403814
0.0889976, 1.69356, -1.22499, -1.53741, -0.899579, -1.19261, 1.22884, -1.30258, 0.0708032, 0.00295816, 0.00321521, 0.00293994, -0.0249315, 0.00184965, 0.00209979, 5.00251, 56.0471, 26.8934, 3.63342, 1.823, 3.69754, -0.114369, 0.000444375, -0.000892212, 1.8443e-05, -0.000782738, -0.00153569, -0.00101644, 0.0219552, -0.0185482, -0.0170846, -0.0363902, 0.0577912, 0.0194768, 0.471485, -0.542135, 0.336538, -2.08291, -2.16652, -0.128941, 0.470578, -0.54173, 0.336616, -2.08305, -2.16877, -0.128356, 0.0173618, 0.0459742, 0.0235482, 0.0360584, 0.0276965, 0.00270805
0.0899976, 1.69363, -1.22498, -1.53741, -0.899577, -1.19263, 1.22883, -1.30258, 0.0744539, 0.0051454, 0.000792735, 0.00287942, -0.024621, 0.000848896, 0.00170881, 5.04218, 56.0471, 26.9687, 3.59772, 1.85962, 3.71127, -0.120778, 0.000422823, -0.000873958, 3.65508e-05, -0.000782786, -0.00155142, -0.00105093, 0.0215672, -0.0195697, -0.0173343, -0.040085, 0.060228, 0.0215387, 0.471503, -0.542088, 0.336562, -2.08288, -2.16654, -0.128906, 0.470613, -0.541702, 0.336618, -2.08299, -2.16884, -0.128309, 0.0177586, 0.047043, 0.0240921, 0.0374521, 0.0292295, 0.00303393
0.0909976, 1.6937, -1.22498, -1.53741, -0.899577, -1.19266, 1.22883, -1.30258, 0.0732746, 0.00217415, 0.0039823, 0.00198279, -0.0238675, -0.00845235, 0.00372159, 5.11756, 56.1185, 26.9687, 3.59772, 1.88434, 3.70395, -0.0621838, 0.000399556, -0.000856262, 5.49714e-05, -0.000790133, -0.00156448, -0.00109001, 0.0214629, -0.0176761, -0.0192237, -0.0459753, 0.0526282, 0.0200887, 0.471521, -0.542041, 0.336586, -2.08285, -2.16657, -0.128871, 0.470649, -0.541673, 0.33662, -2.08292, -2.16892, -0.128272, 0.0181585, 0.048121, 0.0246406, 0.0358878, 0.030622, 0.0017909
0.0919976, 1.69378, -1.22497, -1.53741, -0.89958, -1.19268, 1.22883, -1.30258, 0.0775748, 0.00656525, 0.00447699, 0.000534029, -0.0268614, -0.00556692, 0.00240427, 5.11756, 56.0471, 27.0441, 3.63342, 1.87793, 3.68289, -0.0484509, 0.000381236, -0.000834006, 7.04039e-05, -0.000793573, -0.00158263, -0.00113631, 0.0206301, -0.0201734, -0.0170343, -0.0458603, 0.0618512, 0.0251776, 0.471539, -0.541992, 0.336611, -2.08281, -2.16659, -0.128834, 0.47069, -0.54164, 0.336627, -2.08285, -2.169, -0.128226, 0.0185616, 0.0492083, 0.0251936, 0.038835, 0.0323, 0.00455797
0.0929976, 1.69385, -1.22498, -1.5374, -0.899581, -1.1927, 1.22883, -1.30257, 0.0722695, 0.00767076, 0.00666225, -0.000536462, -0.0255221, -0.00451649, 0.00365605, 5.22865, 56.1938, 27.0441, 3.6731, 1.90265, 3.69021, -0.0951428, 0.00035662, -0.000816711, 9.25671e-05, -0.000801215, -0.0015863, -0.00116456, 0.0231057, -0.0177067, -0.0157861, -0.0424652, 0.0629153, 0.0201995, 0.471558, -0.541942, 0.336637, -2.08277, -2.16662, -0.128797, 0.470726, -0.54161, 0.336626, -2.08279, -2.16907, -0.128197, 0.0189677, 0.0503046, 0.0257511, 0.0369144, 0.0306578, 0.00604021
0.0939976, 1.69385, -1.22498, -1.5374, -0.899581, -1.1927, 1.22883, -1.30257, 0.0722695, 0.00767076, 0.00666225, -0.000536462, -0.0255221, -0.00451649, 0.00365605, 5.22865, 56.1938, 27.0441, 3.6731, 1.90265, 3.69021, -0.0951428, 0.000303106, -0.000837173, 0.000111188, -0.000827218, -0.00157454, -0.0011364, 0.0242693, -0.0172688, -0.0161862, -0.042922, 0.063671, 0.0192853, 0.471577, -0.541891, 0.336663, -2.08274, -2.16665, -0.128759, 0.470726, -0.54161, 0.336626, -2.08279, -2.16907, -0.128197, 0.0193769, 0.05141, 0.0263131, 0.0369144, 0.0306578, 0.00604021
0.0949976, 1.69399, -1.22496, -1.53739, -0.899582, -1.19274, 1.22883, -1.30257, 0.0699024, 0.00663023, 0.00609822, -0.000200667, -0.0227746, -0.00284591, 0.00035273, 5.30799, 56.2296, 27.1195, 3.6731, 1.92096, 3.69754, -0.0557752, 0.000309192, -0.000779233, 0.000125162, -0.000821395, -0.00161587, -0.00124665, 0.0264361, -0.015957, -0.0170837, -0.0407101, 0.061906, 0.019707, 0.471597, -0.541839, 0.33669, -2.0827, -2.16667, -0.128721, 0.470803, -0.541547, 0.336638, -2.08265, -2.16923, -0.128121, 0.0197891, 0.0525242, 0.0268794, 0.036063, 0.029716, 0.00542492
0.0959976, 1.69407, -1.22496, -1.53738, -0.899583, -1.19277, 1.22883, -1.30257, 0.0724968, 0.00478556, 0.00790027, -0.000118785, -0.0219052, -0.00263115, 0.000100522, 5.26832, 56.3763, 27.1195, 3.6731, 1.92737, 3.71127, -0.0484509, 0.000284512, -0.000759154, 0.00014647, -0.000830127, -0.0016242, -0.0012865, 0.0261355, -0.0174332, -0.0180405, -0.0395235, 0.0601818, 0.0227146, 0.471617, -0.541786, 0.336717, -2.08266, -2.1667, -0.128681, 0.470843, -0.541515, 0.336639, -2.08258, -2.16931, -0.128087, 0.0202043, 0.0536472, 0.02745, 0.0379064, 0.0313448, 0.00505174
0.0969976, 1.69415, -1.22495, -1.53738, -0.899585, -1.19279, 1.22883, -1.30256, 0.074412, 0.00704425, 0.0066179, -0.000903163, -0.0206334, -0.00165178, 0.000915477, 5.22865, 56.3763, 27.2306, 3.7088, 1.91546, 3.70395, -0.0685925, 0.000260652, -0.00073839, 0.000163431, -0.000838034, -0.00164224, -0.00132373, 0.0261399, -0.0182876, -0.0177009, -0.0401433, 0.0628578, 0.023315, 0.471637, -0.541732, 0.336744, -2.08262, -2.16673, -0.128641, 0.470884, -0.541481, 0.336646, -2.08251, -2.16939, -0.128041, 0.0206224, 0.0547789, 0.0280249, 0.0391907, 0.0324562, 0.00593483
0.0979976, 1.69422, -1.22495, -1.53737, -0.899588, -1.19281, 1.22882, -1.30256, 0.0768268, 0.00970628, 0.00666932, -0.00142889, -0.0208228, -0.00177042, 0.00214524, 5.11756, 56.4517, 27.306, 3.74451, 1.93378, 3.7186, -0.10796, 0.00023461, -0.000719995, 0.000184485, -0.000844838, -0.00164983, -0.00135991, 0.0258662, -0.0192219, -0.0167415, -0.041154, 0.0665, 0.0239048, 0.471658, -0.541677, 0.336773, -2.08258, -2.16676, -0.128599, 0.470924, -0.541447, 0.336649, -2.08244, -2.16947, -0.128003, 0.0210433, 0.0559192, 0.028604, 0.0405703, 0.0337592, 0.00747471
0.0989976, 1.6943, -1.22495, -1.53737, -0.899591, -1.19283, 1.22882, -1.30256, 0.0788885, 0.0073474, 0.00765515, -0.00187429, -0.0204231, -0.00582605, -0.000207619, 5.00251, 56.5985, 27.3417, 3.78418, 1.93927, 3.71127, -0.0621838, 0.000208618, -0.000698713, 0.000206444, -0.00085591, -0.00165875, -0.00140723, 0.0255429, -0.0195401, -0.0187207, -0.0448347, 0.062641, 0.0283854, 0.471679, -0.54162, 0.336802, -2.08254, -2.16679, -0.128557, 0.470966, -0.541412, 0.336652, -2.08236, -2.16956, -0.127969, 0.0214671, 0.057068, 0.0291872, 0.0412271, 0.0355447, 0.00614362
0.0999976, 1.69437, -1.22494, -1.53735, -0.899591, -1.19285, 1.22882, -1.30256, 0.0730696, 0.00601979, 0.0101587, -0.00442401, -0.0199106, -0.0046284, 0.00383004, 5.04218, 56.5985, 27.306, 3.78418, 1.93927, 3.7186, -0.0420422, 0.000177249, -0.000684646, 0.000220823, -0.000874599, -0.00167556, -0.00144145, 0.0282179, -0.0171285, -0.0189751, -0.0422657, 0.0621626, 0.0212819, 0.471701, -0.541563, 0.336831, -2.08249, -2.16682, -0.128514, 0.471003, -0.541382, 0.336662, -2.0823, -2.16964, -0.127933, 0.0218936, 0.0582252, 0.0297746, 0.0393345, 0.033999, 0.00613997
0.100998, 1.69446, -1.22494, -1.53735, -0.899593, -1.19287, 1.22882, -1.30256, 0.0749058, 0.0044749, 0.00607768, -0.00404594, -0.0238021, -0.00398297, 0.00348368, 4.85175, 56.7453, 27.3774, 3.81988, 1.92737, 3.73324, -0.0557752, 0.000151156, -0.000662001, 0.000245128, -0.00088592, -0.0016788, -0.00148886, 0.0305746, -0.0166069, -0.021736, -0.0477904, 0.0652129, 0.0189064, 0.471723, -0.541504, 0.336861, -2.08245, -2.16685, -0.128471, 0.471047, -0.541345, 0.336663, -2.08221, -2.16973, -0.127904, 0.0223229, 0.0593907, 0.030366, 0.0392278, 0.0332397, 0.00365638
0.101998, 1.69454, -1.22492, -1.53734, -0.899603, -1.1929, 1.22882, -1.30256, 0.0737914, 0.00857656, 0.00630948, -0.00558458, -0.0234516, -0.00715033, 0.00382552, 4.74067, 56.6739, 27.4528, 3.93494, 1.95209, 3.72592, -0.0878186, 0.000124114, -0.000640941, 0.000262205, -0.000893791, -0.00170399, -0.00153388, 0.0310073, -0.0152841, -0.0201042, -0.050871, 0.0683348, 0.0180025, 0.471746, -0.541444, 0.336892, -2.08241, -2.16688, -0.128426, 0.471091, -0.541308, 0.336672, -2.08214, -2.16982, -0.127847, 0.022755, 0.0605644, 0.0309614, 0.0384156, 0.0336805, 0.00583705
0.102998, 1.69461, -1.22492, -1.53733, -0.899611, -1.19292, 1.22882, -1.30255, 0.0723225, 0.00813114, 0.00808347, -0.00554052, -0.0226369, -0.00588402, 0.00305881, 4.66529, 56.7453, 27.4528, 4.00635, 1.96399, 3.74057, -0.0951428, 9.34843e-05, -0.000623306, 0.000281469, -0.000907832, -0.00171852, -0.00157349, 0.0325567, -0.0146248, -0.0199695, -0.0481131, 0.0684878, 0.0174463, 0.471769, -0.541383, 0.336923, -2.08236, -2.16691, -0.128381, 0.471132, -0.541273, 0.336679, -2.08207, -2.16991, -0.127806, 0.0231896, 0.0617462, 0.0315607, 0.0382544, 0.0332845, 0.00634998
0.103998, 1.69469, -1.22491, -1.53732, -0.899612, -1.19295, 1.22882, -1.30255, 0.0752959, 0.00704648, 0.00775963, -0.00380395, -0.0171309, -0.00408237, 0.000996408, 4.55024, 56.8564, 27.5281, 4.00635, 1.9704, 3.73324, -0.0621838, 6.08451e-05, -0.000606087, 0.000303317, -0.000921968, -0.00172729, -0.00161576, 0.0322647, -0.016344, -0.0209078, -0.0444794, 0.0645524, 0.0216642, 0.471792, -0.54132, 0.336955, -2.08231, -2.16694, -0.128334, 0.471173, -0.541239, 0.336684, -2.08199, -2.17, -0.127771, 0.0236269, 0.0629361, 0.0321639, 0.0403634, 0.0349792, 0.00601861
0.104998, 1.69476, -1.22491, -1.53731, -0.899623, -1.19297, 1.22882, -1.30256, 0.0756438, 0.00527848, 0.0074997, -0.00530992, -0.0227023, -0.00223099, 0.0046848, 4.51453, 57.0032, 27.6035, 4.1214, 1.98871, 3.71127, -0.0420422, 2.6163e-05, -0.000589788, 0.000327686, -0.00093452, -0.00173882, -0.00165879, 0.0344394, -0.0161022, -0.0225327, -0.0470885, 0.0692424, 0.0166899, 0.471816, -0.541257, 0.336987, -2.08227, -2.16698, -0.128287, 0.471214, -0.541206, 0.336686, -2.08191, -2.17009, -0.127731, 0.0240668, 0.0641338, 0.032771, 0.0405823, 0.0342693, 0.00469216
0.105998, 1.69483, -1.22489, -1.5373, -0.899628, -1.19299, 1.22882, -1.30255, 0.0738486, 0.0086408, 0.0100687, -0.00443719, -0.0260503, -0.00613151, 0.00581341, 4.43916, 56.9675, 27.5638, 4.1571, 1.9823, 3.70395, -0.101552, -6.41789e-06, -0.000572697, 0.000340648, -0.000961638, -0.00175723, -0.00169221, 0.0361636, -0.0137212, -0.0202119, -0.0493031, 0.0739251, 0.0120883, 0.47184, -0.541192, 0.337021, -2.08222, -2.16701, -0.128239, 0.471256, -0.54117, 0.336701, -2.08185, -2.17018, -0.127698, 0.0245092, 0.0653394, 0.0333819, 0.0387975, 0.0333162, 0.00740184
0.106998, 1.69492, -1.22489, -1.53729, -0.899644, -1.19301, 1.22882, -1.30254, 0.0782812, 0.00555737, 0.00815436, -0.00973567, -0.0245247, -0.00415028, 0.0037316, 4.24873, 57.15, 27.6749, 4.30786, 1.98871, 3.69021, -0.0878186, -3.74728e-05, -0.000551017, 0.000367088, -0.000974059, -0.00176494, -0.00174373, 0.0344886, -0.0171645, -0.0239298, -0.0524989, 0.0721399, 0.0218386, 0.471865, -0.541126, 0.337054, -2.08217, -2.16705, -0.12819, 0.471302, -0.54113, 0.336703, -2.08176, -2.17028, -0.12766, 0.0249541, 0.0665526, 0.0339965, 0.0424812, 0.0368993, 0.00449739
0.107998, 1.69499, -1.22489, -1.53727, -0.89965, -1.19303, 1.22882, -1.30255, 0.0756676, 0.00740829, 0.00960168, -0.0076276, -0.0284952, -0.00346654, 0.000828417, 4.17335, 57.2968, 27.6749, 4.34357, 2.00702, 3.69754, -0.0356336, -7.30072e-05, -0.000535172, 0.00038795, -0.000994759, -0.00177233, -0.00179081, 0.0379374, -0.0146449, -0.0222806, -0.0514196, 0.0780395, 0.0186474, 0.47189, -0.541059, 0.337088, -2.08212, -2.16708, -0.12814, 0.471344, -0.541094, 0.336711, -2.08167, -2.17038, -0.12763, 0.0254015, 0.0677736, 0.0346148, 0.0406021, 0.034356, 0.00628907
0.108998, 1.69506, -1.22487, -1.53727, -0.899658, -1.19305, 1.22882, -1.30255, 0.0734929, 0.0126782, 0.0077478, -0.00614674, -0.0206006, -0.00236108, 0.00123209, 4.09797, 57.2968, 27.79, 4.37927, 1.98871, 3.69021, -0.0484509, -0.000110916, -0.000521884, 0.000404394, -0.00101508, -0.0017911, -0.00182631, 0.0390677, -0.013276, -0.0198718, -0.0474199, 0.0781236, 0.015466, 0.471916, -0.54099, 0.337123, -2.08207, -2.16712, -0.128089, 0.471384, -0.54106, 0.336723, -2.0816, -2.17047, -0.127587, 0.0258513, 0.069002, 0.0352367, 0.0398174, 0.0340413, 0.00915748
0.109998, 1.69514, -1.22486, -1.53725, -0.899669, -1.19307, 1.22882, -1.30254, 0.0738396, 0.0118439, 0.0116874, -0.00842486, -0.0211097, -0.00208631, 0.00270455, 3.94721, 57.4832, 27.8257, 4.41894, 2.01343, 3.69754, -0.0951428, -0.00014565, -0.000502073, 0.000426797, -0.00103426, -0.00180346, -0.00187183, 0.0389196, -0.0141879, -0.0197201, -0.0456773, 0.0786362, 0.0170618, 0.471942, -0.540921, 0.337159, -2.08202, -2.16715, -0.128038, 0.47143, -0.541021, 0.336731, -2.08152, -2.17057, -0.127549, 0.0263034, 0.0702379, 0.0358623, 0.0411811, 0.0354391, 0.00992741
0.110998, 1.69522, -1.22484, -1.53724, -0.899679, -1.19309, 1.22881, -1.30254, 0.0732624, 0.0118782, 0.0135279, -0.00684827, -0.0200948, -0.00102908, 0.000697698, 3.83216, 57.5189, 27.9011, 4.45465, 2.00702, 3.68289, -0.0621838, -0.000180837, -0.000484426, 0.000442508, -0.00105815, -0.00182085, -0.00191998, 0.0404694, -0.0136503, -0.0191542, -0.0423381, 0.078923, 0.0173327, 0.471968, -0.54085, 0.337195, -2.08197, -2.16719, -0.127985, 0.471475, -0.540981, 0.336745, -2.08144, -2.17067, -0.12751, 0.0267579, 0.0714811, 0.0364913, 0.0411783, 0.035043, 0.0108925
0.111998, 1.69529, -1.22483, -1.53722, -0.89969, -1.19311, 1.22882, -1.30254, 0.0720212, 0.00915172, 0.0140965, -0.00803583, -0.0206409, -0.000550339, -0.000431686, 3.75678, 57.6657, 28.0121, 4.45465, 2.03174, 3.67557, -0.0356336, -0.000222221, -0.000470546, 0.000462232, -0.00108413, -0.00183719, -0.00196153, 0.0422818, -0.0129041, -0.021062, -0.0427858, 0.0777674, 0.0173957, 0.471995, -0.540778, 0.337232, -2.08192, -2.16723, -0.127932, 0.471516, -0.540946, 0.336756, -2.08137, -2.17078, -0.127473, 0.0272147, 0.0727316, 0.0371239, 0.0408869, 0.034765, 0.00938441
0.112998, 1.69537, -1.22483, -1.53721, -0.8997, -1.19313, 1.22882, -1.30254, 0.0738255, 0.00849205, 0.0154759, -0.00900515, -0.0194976, -0.000197291, -0.000222896, 3.6814, 57.8879, 28.0875, 4.45465, 2.01343, 3.66824, -0.0356336, -0.000261623, -0.000453757, 0.00048516, -0.00111329, -0.00184151, -0.00200413, 0.0420947, -0.0140817, -0.0216107, -0.0420394, 0.0772486, 0.0198542, 0.472023, -0.540705, 0.337269, -2.08186, -2.16726, -0.127878, 0.471561, -0.540908, 0.336764, -2.08128, -2.17087, -0.127451, 0.0276737, 0.0739892, 0.0377598, 0.0424953, 0.0363417, 0.00947086
0.113998, 1.69545, -1.22481, -1.5372, -0.899717, -1.19314, 1.22882, -1.30253, 0.0786609, 0.011661, 0.0139079, -0.0114903, -0.015733, -0.000479045, 0.00257884, 3.60603, 57.9633, 28.274, 4.53003, 2.04364, 3.67557, -0.10796, -0.000300221, -0.000437111, 0.00050463, -0.00113131, -0.00186168, -0.00204051, 0.0397788, -0.0168836, -0.0213826, -0.0440648, 0.078509, 0.0234298, 0.472051, -0.54063, 0.337307, -2.08181, -2.1673, -0.127822, 0.471606, -0.540868, 0.336776, -2.08121, -2.17097, -0.1274, 0.028135, 0.0752539, 0.0383992, 0.0456775, 0.0399776, 0.0106061
0.114998, 1.69552, -1.2248, -1.53718, -0.899732, -1.19316, 1.22882, -1.30252, 0.0780898, 0.0128904, 0.0134428, -0.0123211, -0.0168172, -0.000376551, 0.00100974, 3.57032, 58.2172, 28.3097, 4.56573, 2.05646, 3.67557, -0.0878186, -0.000338307, -0.000419257, 0.00052537, -0.00116058, -0.00186804, -0.00209148, 0.0413252, -0.0160404, -0.0213595, -0.0455981, 0.081619, 0.0235189, 0.472079, -0.540554, 0.337346, -2.08175, -2.16734, -0.127766, 0.471653, -0.540825, 0.336788, -2.08112, -2.17108, -0.127375, 0.0285984, 0.0765256, 0.0390419, 0.0453584, 0.0396834, 0.0110589
0.115998, 1.6956, -1.22478, -1.53716, -0.89975, -1.19317, 1.22881, -1.30253, 0.0797196, 0.0186652, 0.0150416, -0.00994727, -0.0167238, -0.000293924, -0.000248896, 3.57032, 58.4036, 28.3851, 4.60541, 2.04364, 3.67557, -0.0621838, -0.000378143, -0.000403136, 0.000545941, -0.00119129, -0.00187396, -0.00214411, 0.0417477, -0.0161154, -0.0176104, -0.0432294, 0.0879311, 0.023971, 0.472108, -0.540477, 0.337386, -2.0817, -2.16738, -0.127709, 0.471699, -0.540784, 0.336801, -2.08103, -2.17119, -0.127351, 0.0290639, 0.0778042, 0.0396878, 0.0460564, 0.039974, 0.0153395
0.116998, 1.69567, -1.22477, -1.53714, -0.899764, -1.19319, 1.22881, -1.30253, 0.080977, 0.0160137, 0.0145175, -0.0125456, -0.0139021, 4.315e-05, -0.000891383, 3.57032, 58.6258, 28.5319, 4.56573, 2.08118, 3.66824, -0.0420422, -0.000422264, -0.000389084, 0.000567338, -0.00122064, -0.00188563, -0.00219068, 0.0416032, -0.0172305, -0.0202117, -0.0442482, 0.0843172, 0.0278311, 0.472137, -0.540398, 0.337426, -2.08164, -2.16742, -0.127651, 0.471743, -0.540745, 0.336812, -2.08094, -2.1713, -0.127319, 0.0295316, 0.0790895, 0.040337, 0.0475354, 0.0418486, 0.0134074
0.117998, 1.69575, -1.22475, -1.53713, -0.899783, -1.1932, 1.22882, -1.30252, 0.0802309, 0.0207597, 0.0160698, -0.0156725, -0.0104935, 0.000275908, 0.00138783, 3.53065, 58.6972, 28.6072, 4.56573, 2.08667, 3.66092, -0.0951428, -0.00046065, -0.000370002, 0.000581524, -0.00125373, -0.00190583, -0.00223845, 0.0409309, -0.0176069, -0.0177137, -0.0425861, 0.0873923, 0.0283152, 0.472167, -0.540319, 0.337466, -2.08158, -2.16746, -0.127592, 0.471793, -0.5407, 0.336832, -2.08086, -2.17141, -0.127281, 0.0300013, 0.0803815, 0.0409894, 0.0484507, 0.0434383, 0.0166186
0.118998, 1.69583, -1.22473, -1.5371, -0.899802, -1.19321, 1.22882, -1.30251, 0.0797009, 0.0206623, 0.017077, -0.0171966, -0.00844034, 0.000403203, 0.000936772, 3.49494, 58.9194, 28.6826, 4.53003, 2.10498, 3.65451, -0.0951428, -0.000500038, -0.000349714, 0.00060126, -0.00129071, -0.00191421, -0.0022942, 0.0414805, -0.0175698, -0.0180537, -0.0418081, 0.0866047, 0.0297033, 0.472197, -0.540238, 0.337508, -2.08152, -2.1675, -0.127533, 0.471844, -0.540654, 0.336848, -2.08076, -2.17153, -0.12726, 0.030473, 0.0816802, 0.0416449, 0.0488943, 0.0442453, 0.0168548
0.119998, 1.69591, -1.22472, -1.53708, -0.899826, -1.19322, 1.22881, -1.30251, 0.0766569, 0.0207693, 0.0170818, -0.0192832, -0.0111306, 0.000255231, 0.0048308, 3.57032, 59.1415, 28.7937, 4.53003, 2.11139, 3.65451, -0.0814099, -0.000541216, -0.000332762, 0.000622214, -0.00132164, -0.00192133, -0.00234919, 0.044092, -0.0154867, -0.0186019, -0.0442103, 0.0898115, 0.0226692, 0.472228, -0.540155, 0.33755, -2.08146, -2.16755, -0.127472, 0.471892, -0.540609, 0.336862, -2.08067, -2.17165, -0.127232, 0.0309467, 0.0829853, 0.0423035, 0.0473664, 0.0429672, 0.0166341
0.120998, 1.69599, -1.22469, -1.53706, -0.899846, -1.19323, 1.22881, -1.30251, 0.078454, 0.0205113, 0.0185559, -0.0191742, -0.0139573, 0.000159976, 0.00266978, 3.60603, 59.2487, 28.9802, 4.45465, 2.13611, 3.65451, -0.0557752, -0.000583248, -0.000313915, 0.000641016, -0.00135546, -0.00193643, -0.00240446, 0.0449651, -0.015881, -0.0187883, -0.0450841, 0.0926546, 0.025214, 0.472259, -0.540072, 0.337592, -2.0814, -2.16759, -0.12741, 0.471943, -0.540563, 0.336879, -2.08057, -2.17177, -0.127198, 0.0314223, 0.0842969, 0.0429652, 0.0482627, 0.0434626, 0.0169646
0.121998, 1.69607, -1.22468, -1.53704, -0.89987, -1.19324, 1.22881, -1.3025, 0.0787738, 0.0196951, 0.0183546, -0.0190871, -0.0109995, 0.000370284, 0.0018076, 3.72108, 59.5065, 29.0912, 4.37927, 2.15442, 3.64718, -0.0484509, -0.000627794, -0.00029822, 0.000663115, -0.00138874, -0.0019435, -0.00245631, 0.0457855, -0.0158733, -0.0197992, -0.0443009, 0.0904234, 0.0261648, 0.472291, -0.539987, 0.337635, -2.08134, -2.16763, -0.127348, 0.471991, -0.540518, 0.336893, -2.08048, -2.17189, -0.127171, 0.0318998, 0.0856148, 0.0436298, 0.0487265, 0.0441253, 0.0165047
0.122998, 1.69616, -1.22465, -1.53702, -0.899894, -1.19325, 1.22881, -1.3025, 0.0781142, 0.0204255, 0.0172762, -0.0191929, -0.00857014, 0.000241131, 0.00170059, 3.72108, 59.5819, 29.238, 4.30786, 2.16724, 3.64718, -0.0557752, -0.000667695, -0.000276485, 0.00068051, -0.00142227, -0.001961, -0.00251709, 0.0470958, -0.0150535, -0.0202212, -0.0446364, 0.090046, 0.0249307, 0.472323, -0.5399, 0.337679, -2.08127, -2.16768, -0.127284, 0.472046, -0.540467, 0.336913, -2.08038, -2.17202, -0.127133, 0.0323792, 0.0869389, 0.0442973, 0.048422, 0.0441855, 0.0165792
0.123998, 1.69623, -1.22463, -1.537, -0.899924, -1.19326, 1.22881, -1.30249, 0.0772017, 0.0246064, 0.0174953, -0.0232255, -0.00716684, -0.000352166, 0.002014, 3.87183, 59.7644, 29.3531, 4.26819, 2.19104, 3.66092, -0.0750012, -0.000710391, -0.000258444, 0.000701064, -0.00145675, -0.00196968, -0.0025744, 0.0469128, -0.0149259, -0.0187303, -0.0462545, 0.0939815, 0.0266767, 0.472355, -0.539813, 0.337724, -2.08121, -2.16772, -0.127219, 0.472098, -0.540418, 0.33693, -2.08027, -2.17215, -0.127104, 0.0328604, 0.0882692, 0.0449678, 0.0488267, 0.0454632, 0.0187544
0.124998, 1.69632, -1.2246, -1.53697, -0.899951, -1.19326, 1.22881, -1.30249, 0.0785957, 0.0270589, 0.0224248, -0.0246474, -0.00612226, 0.000270628, 0.00146881, 3.94721, 59.8398, 29.3888, 4.1571, 2.21576, 3.64718, -0.0750012, -0.000750352, -0.000235811, 0.000714192, -0.00150156, -0.0019887, -0.00264056, 0.0458598, -0.0165421, -0.0162363, -0.0421266, 0.0966191, 0.0314498, 0.472389, -0.539724, 0.337769, -2.08114, -2.16777, -0.127154, 0.472154, -0.540366, 0.336956, -2.08017, -2.17229, -0.127076, 0.0333434, 0.0896055, 0.045641, 0.0509798, 0.0475277, 0.0220023
0.125998, 1.69641, -1.22459, -1.53695, -0.899983, -1.19327, 1.22881, -1.30249, 0.079558, 0.0213789, 0.0232496, -0.0265808, -0.00975802, 0.000178004, -0.000384243, 4.02259, 60.0977, 29.5395, 4.08173, 2.23407, 3.64718, -0.0356336, -0.000793248, -0.000215218, 0.000739982, -0.00153323, -0.00199135, -0.00271011, 0.0473455, -0.0168131, -0.0200855, -0.0452504, 0.0949438, 0.0341411, 0.472422, -0.539634, 0.337815, -2.08108, -2.16781, -0.127088, 0.472209, -0.540313, 0.336969, -2.08005, -2.17242, -0.127049, 0.0338281, 0.0909478, 0.0463171, 0.0516467, 0.0480043, 0.0186394
0.126998, 1.69649, -1.22456, -1.53693, -0.900013, -1.19328, 1.2288, -1.30248, 0.0812464, 0.02644, 0.0249256, -0.0270932, -0.00920471, -0.0048588, -0.000422564, 4.06226, 60.0977, 29.6506, 3.97064, 2.28992, 3.65451, -0.0292249, -0.000835705, -0.000195722, 0.000754856, -0.00156839, -0.00201077, -0.0027748, 0.0463868, -0.0166783, -0.0176076, -0.0485116, 0.0979395, 0.0361131, 0.472456, -0.539542, 0.337862, -2.08101, -2.16786, -0.12702, 0.472264, -0.54026, 0.336994, -2.07994, -2.17256, -0.127008, 0.0343145, 0.092296, 0.0469959, 0.0520578, 0.0499146, 0.0219177
0.127998, 1.69657, -1.22454, -1.5369, -0.900046, -1.19328, 1.2288, -1.30247, 0.0836132, 0.0214635, 0.0240494, -0.0282569, -0.0070505, -0.00386995, 0.000483585, 4.17335, 60.3198, 29.722, 3.89526, 2.30182, 3.66092, -0.0484509, -0.00088, -0.000175448, 0.000779354, -0.00160767, -0.00201087, -0.0028362, 0.0467389, -0.0180968, -0.0215224, -0.0492829, 0.0928453, 0.0378691, 0.472491, -0.539449, 0.337909, -2.08094, -2.16791, -0.126952, 0.472319, -0.540206, 0.337009, -2.07983, -2.17269, -0.126989, 0.0348026, 0.09365, 0.0476774, 0.053828, 0.0515816, 0.018634
0.128998, 1.69666, -1.22451, -1.53688, -0.900084, -1.19328, 1.2288, -1.30246, 0.0848573, 0.0265209, 0.021428, -0.0335948, -0.00641158, -0.00753709, 0.00110829, 4.3241, 60.3198, 29.8728, 3.85956, 2.33844, 3.66092, -0.0685925, -0.000923668, -0.000155853, 0.000797471, -0.00164044, -0.00202826, -0.00290074, 0.0455802, -0.0182956, -0.0210986, -0.0572967, 0.097153, 0.0409159, 0.472526, -0.539355, 0.337957, -2.08087, -2.16796, -0.126882, 0.472375, -0.540151, 0.337032, -2.07972, -2.17283, -0.126945, 0.0352924, 0.0950097, 0.0483616, 0.0544898, 0.0540297, 0.0199094
0.129998, 1.69675, -1.22449, -1.53686, -0.900122, -1.19329, 1.2288, -1.30247, 0.0853301, 0.025605, 0.024319, -0.0332842, -0.00501529, -0.00539715, -0.00167261, 4.36378, 60.5023, 29.9482, 3.78418, 2.35126, 3.65451, -0.00267457, -0.000966701, -0.000131621, 0.000820031, -0.00168403, -0.00203533, -0.00298317, 0.0463176, -0.0190246, -0.0208929, -0.0527973, 0.0968629, 0.0446781, 0.472561, -0.539259, 0.338006, -2.0808, -2.168, -0.126812, 0.472435, -0.540094, 0.337051, -2.07959, -2.17299, -0.126925, 0.0357837, 0.096375, 0.0490484, 0.0557462, 0.0546677, 0.0206623
0.130998, 1.69683, -1.22446, -1.53683, -0.900161, -1.19329, 1.2288, -1.30246, 0.0878405, 0.0285824, 0.0275081, -0.0371436, -0.0048995, -0.00405544, -0.000109279, 4.43916, 60.538, 29.9839, 3.74451, 2.38788, 3.65451, -0.0292249, -0.00101078, -0.000110434, 0.000837267, -0.0017259, -0.00205034, -0.00305309, 0.044649, -0.0215088, -0.0190499, -0.0512871, 0.101527, 0.0493973, 0.472597, -0.539162, 0.338055, -2.08073, -2.16805, -0.126741, 0.472494, -0.540037, 0.337076, -2.07947, -2.17314, -0.126892, 0.0362765, 0.0977458, 0.0497377, 0.0587279, 0.057513, 0.0233499
0.131998, 1.69691, -1.22443, -1.5368, -0.900205, -1.19329, 1.22879, -1.30245, 0.0866581, 0.027425, 0.0247307, -0.0430431, -0.00385687, -0.00754653, 0.00092733, 4.51453, 60.5777, 30.095, 3.7088, 2.39978, 3.64718, -0.0557752, -0.00105622, -9.01549e-05, 0.000858697, -0.00176062, -0.00206253, -0.00312296, 0.0449882, -0.020638, -0.0222726, -0.0595218, 0.0993951, 0.050289, 0.472634, -0.539064, 0.338106, -2.08066, -2.1681, -0.126669, 0.472551, -0.539979, 0.337097, -2.07935, -2.17328, -0.126853, 0.0367709, 0.0991221, 0.0504295, 0.0582438, 0.0590097, 0.0208347
0.132998, 1.697, -1.2244, -1.53677, -0.900244, -1.19329, 1.22879, -1.30244, 0.0849991, 0.02471, 0.0293515, -0.0425249, -0.00315826, -0.0061945, 0.00158028, 4.58991, 60.6848, 30.0593, 3.59772, 2.4126, 3.66092, -0.0814099, -0.00110197, -6.8798e-05, 0.000877973, -0.00180998, -0.00206857, -0.00319223, 0.0466219, -0.0202349, -0.0224454, -0.0542463, 0.0973047, 0.0489505, 0.472671, -0.538964, 0.338156, -2.08059, -2.16815, -0.126595, 0.472611, -0.53992, 0.337122, -2.07923, -2.17343, -0.126836, 0.0372668, 0.100504, 0.0511238, 0.0583942, 0.0587879, 0.0211193
0.133998, 1.69708, -1.22437, -1.53675, -0.900297, -1.19329, 1.22879, -1.30244, 0.0862078, 0.0251214, 0.0244015, -0.0435121, -0.00263054, -0.00438345, -0.000157708, 4.701, 60.6848, 30.2457, 3.6731, 2.4245, 3.65451, -0.0484509, -0.00114999, -4.91878e-05, 0.000902688, -0.00184097, -0.00208348, -0.0032697, 0.0483191, -0.0201088, -0.0244959, -0.05791, 0.0995526, 0.0494279, 0.472708, -0.538862, 0.338208, -2.08052, -2.16821, -0.126521, 0.472669, -0.539862, 0.337141, -2.0791, -2.17358, -0.126789, 0.0377641, 0.101891, 0.0518204, 0.0587532, 0.0588075, 0.0195334
0.134998, 1.69717, -1.22435, -1.53672, -0.900339, -1.19329, 1.22879, -1.30244, 0.0849066, 0.0211703, 0.0291313, -0.0416953, -0.00181686, -0.00352801, -0.000810112, 4.66529, 60.8713, 30.206, 3.52234, 2.4245, 3.66092, -0.0292249, -0.0011964, -2.6375e-05, 0.000927799, -0.00188936, -0.0020788, -0.00335139, 0.0502113, -0.0195778, -0.0252414, -0.052464, 0.0957845, 0.0487188, 0.472746, -0.53876, 0.33826, -2.08044, -2.16826, -0.126446, 0.47273, -0.539801, 0.33716, -2.07896, -2.17374, -0.126781, 0.0382628, 0.103283, 0.0525195, 0.0587671, 0.0584227, 0.0192214
0.135998, 1.69725, -1.22432, -1.53669, -0.900393, -1.19329, 1.22879, -1.30243, 0.0818998, 0.023579, 0.0297888, -0.048288, -0.00125861, -0.00705847, -0.000772106, 4.701, 60.8356, 30.2814, 3.55804, 2.4245, 3.65451, -0.0228162, -0.00124361, -4.99308e-06, 0.00094922, -0.00192975, -0.0020927, -0.00342991, 0.0502108, -0.0183001, -0.0251646, -0.0577096, 0.0973774, 0.0508284, 0.472785, -0.538656, 0.338313, -2.08036, -2.16831, -0.12637, 0.472791, -0.539739, 0.337184, -2.07883, -2.1739, -0.126744, 0.0387628, 0.10468, 0.0532208, 0.0579957, 0.0597532, 0.0200399
0.136998, 1.69733, -1.2243, -1.53665, -0.900448, -1.19329, 1.22879, -1.30242, 0.0829493, 0.0225622, 0.0348149, -0.0489948, -0.000433797, -0.00475927, 0.000947321, 4.701, 60.907, 30.1703, 3.55804, 2.4126, 3.63986, -0.0621838, -0.00128955, 1.79683e-05, 0.00096945, -0.00198234, -0.00209814, -0.00351249, 0.0501177, -0.0199031, -0.0244278, -0.0520542, 0.0975204, 0.0523668, 0.472824, -0.538551, 0.338366, -2.08029, -2.16836, -0.126293, 0.472854, -0.539675, 0.33721, -2.0787, -2.17406, -0.126728, 0.0392642, 0.106082, 0.0539245, 0.060124, 0.0612056, 0.0214341
0.137998, 1.69742, -1.22427, -1.53663, -0.900503, -1.19329, 1.22878, -1.30241, 0.0851571, 0.0218254, 0.0319783, -0.0518437, -0.00143482, -0.00361997, 0.000871903, 4.66529, 60.9824, 30.3211, 3.52234, 2.44281, 3.63986, -0.0685925, -0.00134082, 3.80039e-05, 0.000995675, -0.00201694, -0.00211152, -0.00358643, 0.0507379, -0.0208402, -0.026777, -0.0563009, 0.0996161, 0.0543095, 0.472864, -0.538444, 0.338421, -2.08021, -2.16842, -0.126215, 0.472915, -0.539614, 0.337229, -2.07857, -2.17422, -0.126683, 0.0397669, 0.107489, 0.0546303, 0.0614972, 0.062401, 0.0196945
0.138998, 1.69749, -1.22424, -1.53658, -0.900559, -1.19329, 1.22878, -1.3024, 0.0769792, 0.0261546, 0.0364034, -0.0538877, -0.000535726, -0.00688466, 0.000108798, 4.77637, 60.9824, 30.206, 3.48663, 2.43091, 3.62521, -0.0557752, -0.00139163, 5.63194e-05, 0.00101278, -0.00207207, -0.00212306, -0.00366466, 0.0533984, -0.0163547, -0.0233225, -0.0547519, 0.102166, 0.0500181, 0.472904, -0.538336, 0.338476, -2.08013, -2.16847, -0.126136, 0.472974, -0.539552, 0.337259, -2.07844, -2.17438, -0.126661, 0.0402709, 0.108901, 0.0553384, 0.0577599, 0.0604618, 0.0235485
0.139998, 1.69758, -1.22421, -1.53655, -0.900624, -1.19329, 1.22878, -1.3024, 0.0786184, 0.0284419, 0.0379868, -0.0593881, 0.00959525, -0.00550243, -0.000909126, 4.701, 61.0181, 30.2814, 3.48663, 2.41809, 3.63254, -0.0292249, -0.00143856, 8.05143e-05, 0.00103756, -0.00211454, -0.00213031, -0.00376019, 0.0500943, -0.0195586, -0.0226493, -0.0506828, 0.0982109, 0.060479, 0.472944, -0.538226, 0.338531, -2.08005, -2.16853, -0.126055, 0.47304, -0.539484, 0.337282, -2.07829, -2.17456, -0.126631, 0.040776, 0.110318, 0.0560486, 0.0613644, 0.0651796, 0.0253297
0.140998, 1.69766, -1.22418, -1.53652, -0.900688, -1.19329, 1.22878, -1.30239, 0.0771914, 0.0244368, 0.0370997, -0.0610285, 0.00646457, -0.0036407, 0.0041126, 4.74067, 61.1649, 30.3211, 3.48663, 2.43732, 3.6188, -0.0292249, -0.00149338, 9.76222e-05, 0.00106508, -0.00215756, -0.00213582, -0.0038407, 0.0531123, -0.0184848, -0.0258108, -0.0527275, 0.0988046, 0.05295, 0.472985, -0.538115, 0.338588, -2.07997, -2.16858, -0.125974, 0.473099, -0.539422, 0.337303, -2.07814, -2.17472, -0.1266, 0.0412824, 0.111739, 0.0567608, 0.0607945, 0.064057, 0.0224897
0.141998, 1.69774, -1.22414, -1.53648, -0.900756, -1.19328, 1.22878, -1.30238, 0.0797542, 0.0267729, 0.0373614, -0.0616194, 0.00560665, -0.00224538, 0.00973796, 4.66529, 61.0934, 30.3211, 3.48663, 2.41809, 3.60415, -0.0814099, -0.00154288, 0.000119596, 0.00108211, -0.0022094, -0.00215532, -0.00392448, 0.0533178, -0.0196516, -0.0249464, -0.0526962, 0.103578, 0.0490414, 0.473027, -0.538002, 0.338645, -2.07989, -2.16864, -0.125892, 0.473164, -0.539355, 0.337335, -2.07801, -2.1749, -0.126565, 0.0417899, 0.113165, 0.0574751, 0.0625103, 0.0652003, 0.0239884
0.142998, 1.69781, -1.22411, -1.53643, -0.900833, -1.19329, 1.22878, -1.30237, 0.0795535, 0.0289104, 0.0384271, -0.0668558, 0.00346434, -0.000953699, 0.007414, 4.62562, 61.1292, 30.2814, 3.55804, 2.43732, 3.58218, -0.0878186, -0.00159305, 0.00014134, 0.00110275, -0.00225992, -0.0021706, -0.00402039, 0.0534745, -0.0202858, -0.0244238, -0.0544591, 0.10945, 0.0543733, 0.473069, -0.537889, 0.338703, -2.07981, -2.1687, -0.125809, 0.473229, -0.539287, 0.337364, -2.07786, -2.17508, -0.126532, 0.0422985, 0.114595, 0.0581914, 0.0636804, 0.0664249, 0.0251763
0.143998, 1.69789, -1.22408, -1.53639, -0.900909, -1.19328, 1.22878, -1.30237, 0.0752454, 0.0246307, 0.041503, -0.0698623, 0.00777899, -0.00111, 0.00304867, 4.62562, 61.2759, 30.2814, 3.59772, 2.4245, 3.58951, -0.0228162, -0.00164497, 0.000162128, 0.00112772, -0.00231219, -0.00217404, -0.00412067, 0.0548962, -0.019056, -0.0265649, -0.0515887, 0.102468, 0.0589944, 0.473111, -0.537773, 0.338761, -2.07972, -2.16875, -0.125725, 0.473293, -0.539218, 0.337389, -2.0777, -2.17527, -0.126513, 0.0428082, 0.11603, 0.0589097, 0.062936, 0.0667288, 0.0236013
0.144998, 1.69796, -1.22405, -1.53635, -0.900992, -1.19329, 1.22877, -1.30236, 0.0750564, 0.027431, 0.0426969, -0.072873, 0.00514337, -0.00038358, 0.00289229, 4.62562, 61.3116, 30.3211, 3.6731, 2.44281, 3.57577, -0.0356336, -0.00169864, 0.000180672, 0.00114782, -0.00235891, -0.00219563, -0.00421326, 0.0556675, -0.0190489, -0.0253538, -0.0528471, 0.108919, 0.0601011, 0.473154, -0.537657, 0.338821, -2.07964, -2.16881, -0.12564, 0.473356, -0.539151, 0.33742, -2.07755, -2.17546, -0.126468, 0.0433189, 0.117469, 0.0596298, 0.0635186, 0.067222, 0.0253992
0.145998, 1.69803, -1.22401, -1.5363, -0.901071, -1.19328, 1.22877, -1.30235, 0.0718498, 0.0277279, 0.0421039, -0.0732783, 0.00410903, -0.00530791, 0.00857089, 4.62562, 61.4227, 30.4322, 3.6731, 2.43732, 3.58218, -0.0814099, -0.00175413, 0.000197501, 0.00117065, -0.00240876, -0.00220477, -0.0043004, 0.0582798, -0.0156555, -0.0262341, -0.0583487, 0.108563, 0.0498322, 0.473198, -0.537538, 0.338881, -2.07955, -2.16887, -0.125554, 0.473418, -0.539083, 0.337448, -2.0774, -2.17564, -0.126437, 0.0438306, 0.118913, 0.0603519, 0.0607117, 0.06607, 0.0249605
0.146998, 1.6981, -1.22398, -1.53625, -0.901162, -1.19328, 1.22877, -1.30235, 0.066569, 0.0286517, 0.0475921, -0.0786112, 0.00815654, -0.00428721, 0.0105429, 4.62562, 61.4981, 30.4322, 3.74451, 2.4245, 3.58951, -0.0685925, -0.00180758, 0.000216276, 0.00119065, -0.00246666, -0.00221656, -0.00440164, 0.0586262, -0.0148966, -0.0246371, -0.0529831, 0.107587, 0.0501625, 0.473242, -0.537419, 0.338941, -2.07946, -2.16893, -0.125467, 0.473482, -0.539012, 0.33748, -2.07725, -2.17583, -0.126413, 0.0443433, 0.12036, 0.0610757, 0.0605448, 0.0668985, 0.0272334
0.147998, 1.69817, -1.22394, -1.53619, -0.901256, -1.19328, 1.22876, -1.30234, 0.0674171, 0.0318815, 0.0507651, -0.0824798, 0.00585054, -0.00294488, 0.00641571, 4.55024, 61.6092, 30.4679, 3.81988, 2.43091, 3.58218, -0.0292249, -0.00185809, 0.000238691, 0.00120885, -0.00252572, -0.00223101, -0.00451354, 0.0582331, -0.0161392, -0.0225923, -0.0523605, 0.114493, 0.0580652, 0.473287, -0.537298, 0.339003, -2.07938, -2.16899, -0.125378, 0.47355, -0.538937, 0.337515, -2.07708, -2.17604, -0.126387, 0.044857, 0.121812, 0.0618013, 0.0623661, 0.0684825, 0.0299988
0.148998, 1.69823, -1.2239, -1.53613, -0.901347, -1.19328, 1.22876, -1.30234, 0.0658545, 0.0352472, 0.0501187, -0.0845032, 0.00462537, -0.00277429, 0.00491104, 4.55024, 61.6806, 30.5036, 3.85956, 2.4245, 3.59683, -0.0292249, -0.00191426, 0.000254089, 0.00122445, -0.00258483, -0.00224857, -0.00461198, 0.0599215, -0.0148626, -0.021552, -0.0543356, 0.120077, 0.0578694, 0.473332, -0.537175, 0.339065, -2.07929, -2.16905, -0.125289, 0.473612, -0.538867, 0.337553, -2.07692, -2.17624, -0.126356, 0.0453715, 0.123267, 0.0625286, 0.0617153, 0.068056, 0.031536
0.149998, 1.6983, -1.22386, -1.53607, -0.90144, -1.19327, 1.22875, -1.30232, 0.0676578, 0.0351031, 0.0500173, -0.0863681, 0.0029746, -0.00177964, 0.0107454, 4.43916, 61.8671, 30.6544, 3.78418, 2.43732, 3.58951, -0.0878186, -0.00196898, 0.000274084, 0.00124465, -0.00264309, -0.00226188, -0.00471251, 0.0605497, -0.0156989, -0.0224547, -0.0560407, 0.122966, 0.0537021, 0.473377, -0.537051, 0.339128, -2.0792, -2.16911, -0.125199, 0.473679, -0.538793, 0.337587, -2.07676, -2.17644, -0.126328, 0.0458869, 0.124727, 0.0632577, 0.0630576, 0.0690707, 0.0312501
0.150998, 1.69836, -1.22382, -1.536, -0.901546, -1.19327, 1.22875, -1.30231, 0.0641978, 0.0369615, 0.0568796, -0.0924715, 0.00296945, -0.00133746, 0.00819358, 4.51453, 61.9742, 30.6544, 3.85956, 2.41809, 3.58951, -0.0951428, -0.00202428, 0.000290164, 0.00125824, -0.00270927, -0.00227989, -0.00481532, 0.0602359, -0.0157837, -0.0200765, -0.0524304, 0.126014, 0.0603005, 0.473423, -0.536926, 0.339191, -2.07911, -2.16918, -0.125108, 0.473743, -0.53872, 0.337628, -2.07661, -2.17665, -0.126302, 0.0464031, 0.12619, 0.0639883, 0.0637424, 0.0704859, 0.0343754
0.151998, 1.69842, -1.22378, -1.53594, -0.901652, -1.19327, 1.22874, -1.30231, 0.0670223, 0.0384489, 0.0592492, -0.0976029, 0.00147328, -0.00100491, 0.0102309, 4.51453, 62.0853, 30.7654, 3.85956, 2.43732, 3.58951, -0.0814099, -0.0020804, 0.000307249, 0.00127434, -0.00277034, -0.00229965, -0.00492577, 0.0586699, -0.0182063, -0.0197087, -0.0540581, 0.130255, 0.0650057, 0.47347, -0.536799, 0.339256, -2.07902, -2.16924, -0.125016, 0.473809, -0.538645, 0.337667, -2.07644, -2.17686, -0.12627, 0.0469202, 0.127658, 0.0647206, 0.0666338, 0.0735527, 0.0356327
0.152998, 1.69848, -1.22373, -1.53587, -0.901762, -1.19327, 1.22874, -1.30231, 0.0614904, 0.0387593, 0.0609133, -0.101287, 0.00113649, -0.000246271, 0.00594431, 4.55024, 62.2321, 30.8765, 3.85956, 2.43732, 3.57577, -0.0356336, -0.00213866, 0.000321632, 0.00129012, -0.00283592, -0.00231585, -0.00504024, 0.0613445, -0.015742, -0.0196195, -0.0535368, 0.132248, 0.0665857, 0.473517, -0.53667, 0.339321, -2.07892, -2.1693, -0.124922, 0.473872, -0.538571, 0.337707, -2.07627, -2.17708, -0.126245, 0.047438, 0.129128, 0.0654544, 0.0648029, 0.072259, 0.0361249
0.153998, 1.69853, -1.22369, -1.5358, -0.90188, -1.19326, 1.22873, -1.3023, 0.0617726, 0.0397403, 0.0637855, -0.108217, 0.000669929, -0.0046315, 0.00972314, 4.55024, 62.3431, 31.063, 3.89526, 2.44281, 3.56845, -0.0484509, -0.00219564, 0.000336737, 0.00130681, -0.00289352, -0.00233512, -0.00515107, 0.0596393, -0.0164873, -0.0199103, -0.0588639, 0.132875, 0.069205, 0.473565, -0.53654, 0.339387, -2.07883, -2.16937, -0.124828, 0.473936, -0.538494, 0.337747, -2.0761, -2.1773, -0.126207, 0.0479565, 0.130603, 0.0661897, 0.0659896, 0.0754955, 0.0368114
0.154998, 1.69859, -1.22366, -1.53572, -0.901991, -1.19327, 1.22872, -1.30228, 0.0589513, 0.0391629, 0.0688395, -0.109018, -0.000144758, -0.00794335, 0.0130516, 4.55024, 62.6407, 31.1384, 3.74451, 2.46112, 3.56112, -0.0750012, -0.00225555, 0.000351738, 0.00132645, -0.00296454, -0.00234114, -0.00525806, 0.0610194, -0.0147006, -0.019239, -0.0582536, 0.13197, 0.0648079, 0.473613, -0.536409, 0.339453, -2.07873, -2.16943, -0.124733, 0.474001, -0.538418, 0.337785, -2.07593, -2.17751, -0.126195, 0.0484757, 0.132081, 0.0669265, 0.064809, 0.0754285, 0.0380585
0.155998, 1.69863, -1.22362, -1.53563, -0.902122, -1.19327, 1.22871, -1.30228, 0.0559245, 0.0418789, 0.0724783, -0.115243, -0.000506129, -0.0105248, 0.0151725, 4.58991, 62.8232, 31.2137, 3.81988, 2.47394, 3.56112, -0.0951428, -0.00231031, 0.000368806, 0.00133919, -0.00303506, -0.00235956, -0.00538425, 0.0608449, -0.0138753, -0.0178157, -0.0603093, 0.134919, 0.0655707, 0.473662, -0.536276, 0.33952, -2.07864, -2.1695, -0.124636, 0.474069, -0.538337, 0.337831, -2.07574, -2.17775, -0.126172, 0.0489955, 0.133562, 0.0676647, 0.0645574, 0.0768286, 0.0402572
0.156998, 1.69868, -1.22357, -1.53554, -0.902248, -1.19327, 1.2287, -1.30227, 0.0521286, 0.0425813, 0.0758437, -0.119483, -0.000966768, -0.0129983, 0.0102969, 4.701, 62.9343, 31.4002, 3.74451, 2.49225, 3.56845, -0.0685925, -0.0023706, 0.000379567, 0.00135038, -0.00310357, -0.00238013, -0.0054977, 0.0618906, -0.0121799, -0.0173482, -0.0616723, 0.135823, 0.0707036, 0.473711, -0.536142, 0.339588, -2.07854, -2.16956, -0.124539, 0.474131, -0.53826, 0.337878, -2.07557, -2.17797, -0.126142, 0.049516, 0.135047, 0.0684043, 0.0634485, 0.0771334, 0.0413547
0.157998, 1.69872, -1.22352, -1.53545, -0.902385, -1.19327, 1.22868, -1.30226, 0.0481138, 0.0426596, 0.0799667, -0.126479, -0.00128606, -0.0146235, 0.0129142, 4.74067, 63.0453, 31.5113, 3.7088, 2.51056, 3.57577, -0.0750012, -0.00242541, 0.00039538, 0.00136088, -0.00317553, -0.00239758, -0.00562898, 0.0621759, -0.0112871, -0.0172726, -0.0628915, 0.136596, 0.0709632, 0.473761, -0.536006, 0.339657, -2.07844, -2.16963, -0.124441, 0.474198, -0.538176, 0.337927, -2.07538, -2.17822, -0.126119, 0.0500371, 0.136535, 0.0691452, 0.0630959, 0.078288, 0.042157
0.158998, 1.69877, -1.22348, -1.53535, -0.902522, -1.19327, 1.22867, -1.30225, 0.0458705, 0.0402877, 0.0888943, -0.131267, -0.00174544, -0.011998, 0.00896435, 4.74067, 63.2635, 31.6224, 3.63342, 2.53528, 3.60415, -0.0557752, -0.00247973, 0.000412264, 0.00137219, -0.00325033, -0.00240966, -0.00576536, 0.0620228, -0.0125353, -0.0163315, -0.0557076, 0.136689, 0.0799189, 0.473811, -0.535869, 0.339727, -2.07834, -2.1697, -0.124341, 0.474267, -0.53809, 0.337977, -2.07518, -2.17846, -0.126105, 0.0505588, 0.138026, 0.0698875, 0.0648985, 0.0798444, 0.0438116
0.159998, 1.69882, -1.22343, -1.53524, -0.902674, -1.19326, 1.22865, -1.30224, 0.0467375, 0.0412623, 0.0912605, -0.136504, -0.00114303, -0.0132355, 0.0125738, 4.74067, 63.3746, 31.8088, 3.63342, 2.53528, 3.59683, -0.0814099, -0.00253235, 0.00042888, 0.0013831, -0.00331823, -0.00242604, -0.00590427, 0.060795, -0.0138271, -0.0163265, -0.0575315, 0.137899, 0.0819145, 0.473862, -0.53573, 0.339797, -2.07824, -2.16977, -0.124241, 0.474336, -0.538001, 0.338028, -2.07498, -2.17872, -0.126078, 0.0510809, 0.13952, 0.0706309, 0.0666649, 0.0826095, 0.0447065
0.160998, 1.69886, -1.22338, -1.53513, -0.902821, -1.19326, 1.22863, -1.30223, 0.0437359, 0.0452448, 0.0957685, -0.136881, -0.00186555, -0.0145897, 0.00962404, 4.77637, 63.3389, 31.8842, 3.48663, 2.56549, 3.59683, -0.0878186, -0.00258639, 0.000444143, 0.00138597, -0.00339855, -0.00244917, -0.00604218, 0.0622575, -0.0120165, -0.0129412, -0.0550558, 0.142444, 0.0829238, 0.473913, -0.53559, 0.339868, -2.07814, -2.16984, -0.12414, 0.474405, -0.537912, 0.338087, -2.07478, -2.17898, -0.126057, 0.0516036, 0.141018, 0.0713756, 0.0655773, 0.082066, 0.048631
0.161998, 1.6989, -1.22334, -1.53502, -0.902973, -1.19326, 1.22861, -1.30222, 0.0414153, 0.0377864, 0.102369, -0.145408, -0.00170683, -0.0157826, 0.00499901, 4.81605, 63.5968, 31.9556, 3.41125, 2.57831, 3.60415, -0.0292249, -0.00264445, 0.000457935, 0.00140222, -0.00347643, -0.00245088, -0.00618387, 0.0614968, -0.0131167, -0.0166589, -0.0551343, 0.13559, 0.0949294, 0.473965, -0.535448, 0.33994, -2.07804, -2.16991, -0.124037, 0.474472, -0.537825, 0.338134, -2.07457, -2.17923, -0.126054, 0.0521267, 0.142518, 0.0721215, 0.0670231, 0.0849334, 0.0457862
0.162998, 1.69893, -1.22329, -1.53491, -0.903139, -1.19326, 1.22858, -1.30221, 0.0366155, 0.042567, 0.105137, -0.152147, 0.00332118, -0.0209654, 0.0081665, 4.85175, 63.5611, 32.1064, 3.37158, 2.58472, 3.59683, -0.0164075, -0.00269847, 0.000472203, 0.00140752, -0.00354991, -0.0024754, -0.00633212, 0.0606267, -0.0113322, -0.0145552, -0.0575331, 0.134972, 0.0946961, 0.474018, -0.535305, 0.340012, -2.07793, -2.16998, -0.123934, 0.474541, -0.537734, 0.338192, -2.07436, -2.1795, -0.126023, 0.0526502, 0.144021, 0.0728685, 0.0658179, 0.0868945, 0.0488051
0.163998, 1.69897, -1.22324, -1.53478, -0.903298, -1.19326, 1.22856, -1.3022, 0.0366657, 0.0391994, 0.110177, -0.157233, 0.00217047, -0.0204208, 0.00673799, 4.85175, 63.6682, 32.1421, 3.22479, 2.59662, 3.59683, -0.0292249, -0.00275294, 0.000487569, 0.00141486, -0.00363829, -0.00248139, -0.0064802, 0.0602072, -0.0128081, -0.0159224, -0.0564514, 0.133981, 0.101566, 0.474071, -0.53516, 0.340086, -2.07783, -2.17005, -0.123829, 0.474611, -0.537641, 0.338249, -2.07415, -2.17976, -0.126026, 0.0531742, 0.145527, 0.0736165, 0.0677471, 0.0890907, 0.0482188
0.164998, 1.699, -1.22318, -1.53465, -0.903471, -1.19326, 1.22854, -1.30219, 0.0370623, 0.047976, 0.11672, -0.163693, 0.000591968, -0.0198097, 0.0115023, 4.85175, 63.5611, 32.1818, 3.11371, 2.62775, 3.58951, -0.0750012, -0.00280557, 0.00050397, 0.00141762, -0.0037187, -0.00250617, -0.00663234, 0.057831, -0.0147568, -0.00984417, -0.0538883, 0.145508, 0.104138, 0.474124, -0.535014, 0.34016, -2.07772, -2.17012, -0.123723, 0.474683, -0.537545, 0.338312, -2.07393, -2.18004, -0.126001, 0.0536985, 0.147036, 0.0743657, 0.0703693, 0.0921125, 0.0552706
0.165998, 1.69903, -1.22314, -1.53452, -0.903653, -1.19326, 1.22851, -1.30218, 0.0314119, 0.0468442, 0.122485, -0.168683, -0.00026357, -0.0190712, 0.0112083, 4.9668, 63.6325, 32.1818, 3.03833, 2.65155, 3.57577, -0.0228162, -0.00285986, 0.000518813, 0.00142813, -0.00380026, -0.00251455, -0.00679676, 0.0595857, -0.013171, -0.00932499, -0.0507654, 0.146371, 0.104563, 0.474178, -0.534866, 0.340234, -2.07762, -2.17019, -0.123617, 0.474754, -0.537449, 0.338368, -2.0737, -2.18032, -0.125994, 0.0542231, 0.148547, 0.0751158, 0.0694064, 0.0917404, 0.0563183
0.166998, 1.69906, -1.2231, -1.53439, -0.903846, -1.19326, 1.22849, -1.30217, 0.030062, 0.0470369, 0.12524, -0.177431, -0.00139841, -0.0176943, 0.0129991, 4.9668, 63.6682, 32.2532, 3.03833, 2.68909, 3.53915, -0.0164075, -0.00291092, 0.00053806, 0.00144155, -0.00387449, -0.00252549, -0.00697006, 0.058925, -0.0143584, -0.00978183, -0.0521778, 0.149768, 0.108869, 0.474232, -0.534717, 0.34031, -2.07751, -2.17026, -0.123509, 0.474829, -0.537347, 0.338421, -2.07345, -2.18062, -0.125976, 0.054748, 0.150061, 0.0758669, 0.0710755, 0.0940316, 0.0566804
0.167998, 1.69908, -1.22305, -1.53426, -0.904044, -1.19327, 1.22846, -1.30216, 0.0283538, 0.0514747, 0.12791, -0.182554, -0.00192558, -0.0176909, 0.010304, 5.11756, 63.5214, 32.2928, 2.99866, 2.7193, 3.52542, -0.0292249, -0.00296493, 0.000551353, 0.00144714, -0.00395012, -0.00254821, -0.0071359, 0.0588532, -0.0142543, -0.00738835, -0.0524575, 0.155894, 0.114218, 0.474287, -0.534566, 0.340386, -2.0774, -2.17034, -0.123401, 0.4749, -0.537248, 0.338483, -2.07322, -2.18091, -0.125945, 0.0552732, 0.151577, 0.0766189, 0.0715948, 0.0952517, 0.0598114
0.168998, 1.69911, -1.223, -1.53412, -0.904241, -1.19327, 1.22843, -1.30214, 0.0271445, 0.0518031, 0.13094, -0.188885, 0.00232154, -0.017567, 0.0135433, 5.15327, 63.4857, 32.2928, 2.85187, 2.75043, 3.51077, -0.0557752, -0.00301768, 0.000567075, 0.00145673, -0.00403054, -0.00255687, -0.00730412, 0.0575844, -0.0153931, -0.00745374, -0.0510942, 0.154165, 0.117047, 0.474343, -0.534414, 0.340463, -2.07729, -2.17041, -0.123291, 0.474973, -0.537146, 0.338542, -2.07297, -2.1812, -0.125934, 0.0557986, 0.153096, 0.0773717, 0.073207, 0.098087, 0.0606565
0.169998, 1.69913, -1.22296, -1.53397, -0.904446, -1.19327, 1.2284, -1.30213, 0.0261548, 0.0520685, 0.132209, -0.194689, 0.000413342, -0.0222473, 0.0100847, 5.19294, 63.45, 32.3285, 2.81219, 2.79346, 3.50345, -0.0557752, -0.0030695, 0.000583961, 0.00146938, -0.00410699, -0.00256251, -0.00748437, 0.0574836, -0.0146693, -0.00854901, -0.0580966, 0.155149, 0.123401, 0.474399, -0.53426, 0.340541, -2.07718, -2.17049, -0.12318, 0.475047, -0.53704, 0.338599, -2.07271, -2.1815, -0.125921, 0.0563242, 0.154618, 0.0781255, 0.0729655, 0.0998414, 0.0603693
0.170998, 1.69915, -1.22292, -1.53383, -0.904654, -1.19327, 1.22837, -1.30213, 0.0235579, 0.0493341, 0.135213, -0.201744, -5.80984e-05, -0.0260642, 0.00653168, 5.30799, 63.4103, 32.4039, 2.73682, 2.81177, 3.49612, -0.0292249, -0.00312515, 0.000597732, 0.00148261, -0.00418629, -0.00256891, -0.00766414, 0.057459, -0.0140035, -0.010796, -0.0627617, 0.15235, 0.130735, 0.474456, -0.534104, 0.340619, -2.07707, -2.17056, -0.123068, 0.47512, -0.536937, 0.338656, -2.07245, -2.1818, -0.12591, 0.05685, 0.156141, 0.07888, 0.0727379, 0.1017, 0.0589318
0.171998, 1.69918, -1.22288, -1.53366, -0.904869, -1.19327, 1.22834, -1.30212, 0.0251907, 0.0460905, 0.142999, -0.202677, -0.000899329, -0.0284093, 0.00396502, 5.26832, 63.4103, 32.2532, 2.62573, 2.84198, 3.48239, -0.00267457, -0.00317228, 0.00062066, 0.00149249, -0.00428132, -0.00256778, -0.00786515, 0.0566372, -0.0153991, -0.0108715, -0.0599088, 0.149337, 0.138094, 0.474513, -0.533947, 0.340699, -2.07696, -2.17064, -0.122956, 0.475201, -0.536824, 0.338717, -2.07218, -2.18212, -0.125925, 0.0573759, 0.157667, 0.0796352, 0.0746243, 0.104114, 0.0596917
0.172998, 1.69919, -1.22283, -1.53351, -0.905088, -1.19326, 1.22831, -1.3021, 0.02275, 0.0440882, 0.145514, -0.207992, 0.00380726, -0.0262134, 0.00865886, 5.38337, 63.2635, 32.3682, 2.43927, 2.8548, 3.48239, -0.0292249, -0.00322566, 0.000634893, 0.0015005, -0.00436676, -0.00257544, -0.00804856, 0.0566817, -0.0160083, -0.0120965, -0.0564981, 0.145836, 0.137315, 0.47457, -0.533789, 0.340779, -2.07684, -2.17071, -0.122842, 0.475275, -0.536717, 0.338781, -2.07192, -2.18243, -0.125918, 0.0579019, 0.159194, 0.0803912, 0.075714, 0.105814, 0.0592109
0.173998, 1.69921, -1.22278, -1.53333, -0.905319, -1.19326, 1.22827, -1.30209, 0.0228051, 0.0495996, 0.155083, -0.216302, 0.00307416, -0.0288518, 0.0129968, 5.41908, 63.0811, 32.2928, 2.29248, 2.8548, 3.47507, -0.0750012, -0.00327093, 0.00065605, 0.00150279, -0.00446304, -0.00258351, -0.00825356, 0.0530968, -0.018236, -0.00737846, -0.0548378, 0.151837, 0.143393, 0.474629, -0.533629, 0.340859, -2.07673, -2.17079, -0.122727, 0.475356, -0.5366, 0.338851, -2.07164, -2.18277, -0.125923, 0.0584279, 0.160724, 0.0811479, 0.0785138, 0.110273, 0.0651008
0.174998, 1.69922, -1.22274, -1.53316, -0.90556, -1.19326, 1.22824, -1.30208, 0.0177779, 0.0437817, 0.164419, -0.223648, 0.000857731, -0.0353589, 0.00912808, 5.53413, 63.0453, 32.2532, 2.17743, 2.89783, 3.46042, -0.0621838, -0.00332072, 0.000674131, 0.00151206, -0.00455582, -0.00258686, -0.00846315, 0.0531178, -0.0167338, -0.00932395, -0.0571382, 0.145657, 0.151415, 0.474687, -0.533468, 0.340941, -2.07661, -2.17087, -0.122611, 0.475435, -0.536485, 0.338916, -2.07135, -2.18311, -0.125929, 0.0589541, 0.162256, 0.0819052, 0.0774651, 0.11201, 0.0639853
0.175998, 1.69923, -1.22269, -1.53298, -0.905813, -1.19326, 1.22821, -1.30207, 0.0162579, 0.0462446, 0.166017, -0.230095, 0.00111067, -0.0347695, 0.00580575, 5.68488, 62.8589, 32.2928, 2.14172, 2.89142, 3.43204, -0.0356336, -0.00336732, 0.000694354, 0.00151836, -0.00464829, -0.00259631, -0.0086845, 0.0528971, -0.0170605, -0.0086084, -0.0583122, 0.149693, 0.15852, 0.474746, -0.533304, 0.341023, -2.07649, -2.17095, -0.122494, 0.475516, -0.536366, 0.338984, -2.07105, -2.18346, -0.125929, 0.0594802, 0.16379, 0.0826631, 0.0783415, 0.11367, 0.065473
0.176998, 1.69924, -1.22265, -1.5328, -0.906063, -1.19326, 1.22817, -1.30206, 0.0151591, 0.0409983, 0.1746, -0.230304, 5.10384e-05, -0.0301078, 0.00899245, 5.72059, 62.8232, 32.2532, 2.06634, 2.91614, 3.41006, -0.0292249, -0.00341617, 0.000714098, 0.0015288, -0.00473986, -0.00259943, -0.00889964, 0.0543052, -0.0182008, -0.00870288, -0.0481468, 0.148106, 0.157143, 0.474806, -0.53314, 0.341106, -2.07637, -2.17103, -0.122376, 0.475597, -0.536248, 0.339049, -2.07075, -2.18381, -0.125932, 0.0600063, 0.165325, 0.0834216, 0.080064, 0.113884, 0.0658837
0.177998, 1.69924, -1.2226, -1.53261, -0.906325, -1.19325, 1.22814, -1.30204, 0.011471, 0.0448411, 0.17624, -0.238596, -0.000474554, -0.0312022, 0.0131877, 5.87135, 62.601, 32.0707, 2.03064, 2.93445, 3.38901, -0.0750012, -0.00346235, 0.00073423, 0.00153093, -0.00484402, -0.00260784, -0.00912017, 0.0543467, -0.0173058, -0.00746064, -0.0515362, 0.153424, 0.155932, 0.474866, -0.532974, 0.34119, -2.07626, -2.17111, -0.122257, 0.47568, -0.536126, 0.339123, -2.07045, -2.18416, -0.125944, 0.0605324, 0.166863, 0.0841806, 0.0797537, 0.115152, 0.0678944
0.178998, 1.69924, -1.22256, -1.53243, -0.906593, -1.19325, 1.2281, -1.30204, 0.00974912, 0.044846, 0.178832, -0.244981, 0.00312204, -0.0328522, 0.0192591, 5.9864, 62.4899, 32.0707, 1.99097, 2.97107, 3.38168, -0.0685925, -0.00351099, 0.000752343, 0.00154099, -0.00493511, -0.00261088, -0.00934693, 0.0533732, -0.017682, -0.00800624, -0.0523771, 0.151086, 0.155046, 0.474927, -0.532806, 0.341275, -2.07613, -2.17119, -0.122137, 0.47576, -0.536004, 0.339189, -2.07014, -2.18452, -0.125946, 0.0610583, 0.168402, 0.0849401, 0.0805963, 0.117754, 0.0682515
0.179998, 1.69924, -1.22252, -1.53223, -0.906864, -1.19325, 1.22807, -1.30202, 0.00710025, 0.0439101, 0.179517, -0.255645, 0.00232836, -0.032627, 0.0141544, 6.0221, 62.4185, 31.9953, 1.95526, 2.97748, 3.34598, -0.0621838, -0.00355836, 0.000774259, 0.00154952, -0.00503857, -0.00261399, -0.009579, 0.0530947, -0.0180371, -0.0101573, -0.057257, 0.152851, 0.165777, 0.474989, -0.532637, 0.34136, -2.07601, -2.17127, -0.122016, 0.475845, -0.535879, 0.339258, -2.06982, -2.18489, -0.125961, 0.0615842, 0.169942, 0.0857, 0.0813799, 0.119913, 0.0669178
0.180998, 1.69924, -1.22248, -1.53203, -0.907154, -1.19324, 1.22803, -1.30201, 0.00628725, 0.0404086, 0.187592, -0.261925, 0.0019155, -0.0330242, 0.0145533, 6.13715, 62.3431, 31.9953, 1.95526, 2.97748, 3.31759, -0.0420422, -0.00360322, 0.000794911, 0.00156052, -0.00513637, -0.00260847, -0.00982547, 0.051859, -0.0196903, -0.0107081, -0.0544369, 0.150629, 0.172723, 0.47505, -0.532466, 0.341446, -2.07589, -2.17135, -0.121894, 0.47593, -0.53575, 0.339326, -2.06949, -2.18527, -0.125979, 0.0621099, 0.171484, 0.0864603, 0.0834852, 0.122839, 0.0672662
0.181998, 1.69923, -1.22243, -1.53182, -0.907441, -1.19324, 1.228, -1.302, -0.00267963, 0.0450844, 0.194577, -0.278937, 0.000633926, -0.034118, 0.016535, 6.21253, 62.0853, 31.8445, 1.91559, 3.0022, 3.31027, -0.0621838, -0.00364573, 0.000817893, 0.00155761, -0.00525083, -0.00262036, -0.0100704, 0.050607, -0.0185857, -0.00800674, -0.0567875, 0.157754, 0.178441, 0.475113, -0.532294, 0.341533, -2.07577, -2.17143, -0.121771, 0.476017, -0.535619, 0.339408, -2.06917, -2.18566, -0.125997, 0.0626355, 0.173028, 0.087221, 0.0829719, 0.125159, 0.0709249
0.182998, 1.69923, -1.22239, -1.5316, -0.907733, -1.19323, 1.22796, -1.30199, -0.0032608, 0.0407973, 0.200794, -0.287234, 0.00110167, -0.0349295, 0.0173852, 6.28791, 62.0139, 31.7731, 1.84418, 2.98938, 3.30295, -0.0685925, -0.00368888, 0.000840113, 0.00156536, -0.00536197, -0.00260726, -0.0103229, 0.0489147, -0.0205277, -0.0100018, -0.056602, 0.154146, 0.186349, 0.475176, -0.53212, 0.34162, -2.07564, -2.17152, -0.121646, 0.476104, -0.535486, 0.339481, -2.06882, -2.18605, -0.126036, 0.0631608, 0.174573, 0.087982, 0.0852855, 0.128771, 0.069907
0.183998, 1.69921, -1.22235, -1.53138, -0.908034, -1.19322, 1.22792, -1.30198, -0.00668133, 0.039514, 0.20426, -0.290311, 0.00612214, -0.0358492, 0.0172944, 6.36329, 61.8671, 31.7335, 1.8045, 2.97748, 3.30295, -0.0557752, -0.00373154, 0.000861945, 0.00156704, -0.00547813, -0.00260495, -0.0105799, 0.0494212, -0.0196802, -0.0103756, -0.0536682, 0.149338, 0.187988, 0.475239, -0.531945, 0.341709, -2.07552, -2.1716, -0.121521, 0.476191, -0.535351, 0.33956, -2.06848, -2.18645, -0.126069, 0.0636859, 0.176119, 0.0887433, 0.0849738, 0.129834, 0.0702513
0.184998, 1.69921, -1.22231, -1.53116, -0.908339, -1.19321, 1.22789, -1.30197, -0.00453848, 0.0368079, 0.214362, -0.29593, 0.00368031, -0.0351672, 0.0117642, 6.36329, 61.7917, 31.6581, 1.7688, 3.0022, 3.26724, -0.0228162, -0.0037738, 0.000887198, 0.0015735, -0.00559623, -0.00259796, -0.0108488, 0.0470695, -0.0231258, -0.00968688, -0.0491432, 0.150051, 0.203482, 0.475303, -0.531768, 0.341798, -2.07539, -2.17169, -0.121395, 0.476282, -0.535214, 0.339636, -2.06812, -2.18686, -0.12611, 0.0642108, 0.177667, 0.0895048, 0.0888716, 0.133767, 0.0719321
0.185998, 1.69919, -1.22227, -1.53094, -0.908667, -1.1932, 1.22785, -1.30195, -0.00485208, 0.0351467, 0.212067, -0.305358, 0.00707892, -0.0403652, 0.0111045, 6.43867, 61.7163, 31.7335, 1.84418, 3.0141, 3.26724, -0.0814099, -0.00381393, 0.000912653, 0.00158647, -0.00569551, -0.00259103, -0.0111132, 0.0454251, -0.0234671, -0.0137495, -0.0592434, 0.145158, 0.210997, 0.475368, -0.53159, 0.341888, -2.07526, -2.17177, -0.121268, 0.476373, -0.535072, 0.339706, -2.06776, -2.18726, -0.126128, 0.0647353, 0.179216, 0.0902666, 0.0895003, 0.137571, 0.0689207
