alisrour97/Franka_experiments/Real_Robot_scripts/servo-franka/Data_5_ki/log_dyn_PI0_9.csv
Time,q1,q2,q3,q4,q5,q6,q7,dq1,dq2,dq3,dq4,dq5,dq6,dq7,t1,t2,t3,t4,t5,t6,t7,ex1,ex2,ex3,ex4,ex5,ex6,ev1,ev2,ev3,ev4,ev5,ev6,xd,yd,zd,uxd,uyd,uzd,x,y,z,ux,uy,uz,vxd,vyd,vzd,vx,vy,vz
7.32422e-07, 1.69129, -1.22776, -1.53939, -0.900316, -1.19235, 1.22789, -1.30257, -0.00649508, 0.00448861, -0.00124588, 0.0048787, 0.000476944, 0.000139054, -0.00038518, 0.475838, 62.7478, 31.5867, 6.99371, 2.88501, 4.1846, -0.297474, 0.000450972, -0.00193351, 0.00195179, 0.00252604, 0.00148104, 0.000699407, 0.00422146, 0.00491857, 0.00317992, 0.00289061, 0.0036908, -0.0109407, 0.471008, -0.543389, 0.335894, -2.08385, -2.16584, -0.129887, 0.468994, -0.542721, 0.334091, -2.08247, -2.16329, -0.128525, -4.06186e-05, 0.000124715, 6.6488e-05, -0.00468711, -0.00473352, 0.00269948
0.01305, 1.69124, -1.22772, -1.53942, -0.900263, -1.19235, 1.22787, -1.30257, -0.000202278, -0.000106908, -0.00456975, 0.00657886, 0.000612382, -2.45577e-05, 0.00057189, 0.170357, 62.9343, 31.7335, 7.06909, 2.87311, 4.14889, -0.284657, 0.000414056, -0.00197979, 0.00192694, 0.00252382, 0.00144831, 0.000806625, 0.00311089, 0.00226098, -0.000840712, -0.000695993, -0.000749618, -0.00872348, 0.471008, -0.543389, 0.335894, -2.08385, -2.16584, -0.129887, 0.468946, -0.542765, 0.334115, -2.08262, -2.16318, -0.128472, -6.68636e-05, 0.000218577, 0.000115026, -0.00224404, -0.00281571, -0.00112978
0.01405, 1.69124, -1.22772, -1.53942, -0.900263, -1.19235, 1.22787, -1.30257, -0.000202278, -0.000106908, -0.00456975, 0.00657886, 0.000612382, -2.45577e-05, 0.00057189, 0.170357, 62.9343, 31.7335, 7.06909, 2.87311, 4.14889, -0.284657, 0.000414033, -0.00197978, 0.00192695, 0.00252381, 0.00144831, 0.000806637, 0.00322176, 0.0022349, -0.000876366, -0.000743134, -0.000677241, -0.00881323, 0.471008, -0.543389, 0.335894, -2.08385, -2.16584, -0.129887, 0.468946, -0.542765, 0.334115, -2.08262, -2.16318, -0.128472, -9.5592e-05, 0.000321476, 0.000168224, -0.00224404, -0.00281571, -0.00112978
0.01505, 1.69124, -1.22772, -1.53942, -0.900263, -1.19235, 1.22787, -1.30257, -0.000202278, -0.000106908, -0.00456975, 0.00657886, 0.000612382, -2.45577e-05, 0.00057189, 0.170357, 62.9343, 31.7335, 7.06909, 2.87311, 4.14889, -0.284657, 0.000413971, -0.00197977, 0.00192697, 0.00252378, 0.00144833, 0.00080667, 0.00334274, 0.00220648, -0.000915256, -0.000794485, -0.000598301, -0.00891108, 0.471008, -0.543389, 0.335894, -2.08385, -2.16584, -0.129887, 0.468946, -0.542765, 0.334115, -2.08262, -2.16318, -0.128472, -0.000126895, 0.000433757, 0.000226255, -0.00224404, -0.00281571, -0.00112978
0.01605, 1.69124, -1.22772, -1.53942, -0.900263, -1.19235, 1.22787, -1.30257, -0.000202278, -0.000106908, -0.00456975, 0.00657886, 0.000612382, -2.45577e-05, 0.00057189, 0.170357, 62.9343, 31.7335, 7.06909, 2.87311, 4.14889, -0.284657, 0.000413851, -0.00197974, 0.001927, 0.00252372, 0.00144836, 0.000806734, 0.00347418, 0.00217565, -0.000957499, -0.000850191, -0.000512565, -0.00901731, 0.471008, -0.543389, 0.335894, -2.08385, -2.16584, -0.129887, 0.468946, -0.542765, 0.334115, -2.08262, -2.16318, -0.128472, -0.000160861, 0.000555757, 0.000289294, -0.00224404, -0.00281571, -0.00112978
0.01705, 1.69124, -1.22772, -1.53942, -0.900263, -1.19235, 1.22787, -1.30257, -0.000202278, -0.000106908, -0.00456975, 0.00657886, 0.000612382, -2.45577e-05, 0.00057189, 0.170357, 62.9343, 31.7335, 7.06909, 2.87311, 4.14889, -0.284657, 0.000413654, -0.00197969, 0.00192707, 0.00252363, 0.0014484, 0.000806839, 0.00361644, 0.00214233, -0.00100321, -0.000910396, -0.0004198, -0.00913222, 0.471008, -0.543389, 0.335894, -2.08385, -2.16584, -0.129886, 0.468946, -0.542765, 0.334115, -2.08262, -2.16318, -0.128472, -0.000197581, 0.000687809, 0.000357511, -0.00224404, -0.00281571, -0.00112978
0.01805, 1.69124, -1.22772, -1.53942, -0.900263, -1.19235, 1.22787, -1.30257, -0.000202278, -0.000106908, -0.00456975, 0.00657886, 0.000612382, -2.45577e-05, 0.00057189, 0.170357, 62.9343, 31.7335, 7.06909, 2.87311, 4.14889, -0.284657, 0.000413361, -0.00197962, 0.00192716, 0.00252349, 0.00144847, 0.000806995, 0.00376989, 0.00210643, -0.0010525, -0.000975241, -0.000319781, -0.00925607, 0.471008, -0.543389, 0.335894, -2.08385, -2.16584, -0.129886, 0.468946, -0.542765, 0.334115, -2.08262, -2.16318, -0.128472, -0.000237139, 0.000830243, 0.000431075, -0.00224404, -0.00281571, -0.00112978
0.01905, 1.69124, -1.22772, -1.53942, -0.900263, -1.19235, 1.22787, -1.30257, -0.000202278, -0.000106908, -0.00456975, 0.00657886, 0.000612382, -2.45577e-05, 0.00057189, 0.170357, 62.9343, 31.7335, 7.06909, 2.87311, 4.14889, -0.284657, 0.000412952, -0.00197953, 0.00192729, 0.00252329, 0.00144857, 0.000807213, 0.00393486, 0.00206789, -0.00110547, -0.00104486, -0.000212284, -0.00938915, 0.471008, -0.543388, 0.335894, -2.08385, -2.16584, -0.129886, 0.468946, -0.542765, 0.334115, -2.08262, -2.16318, -0.128472, -0.000279621, 0.000983381, 0.00051015, -0.00224404, -0.00281571, -0.00112978
0.02005, 1.69124, -1.22772, -1.53942, -0.900263, -1.19235, 1.22787, -1.30257, -0.000202278, -0.000106908, -0.00456975, 0.00657886, 0.000612382, -2.45577e-05, 0.00057189, 0.170357, 62.9343, 31.7335, 7.06909, 2.87311, 4.14889, -0.284657, 0.000412409, -0.0019794, 0.00192747, 0.00252303, 0.00144869, 0.000807502, 0.00411171, 0.00202662, -0.00116225, -0.0011194, -9.70908e-05, -0.00953171, 0.471008, -0.543388, 0.335895, -2.08385, -2.16584, -0.129886, 0.468946, -0.542765, 0.334115, -2.08262, -2.16318, -0.128472, -0.00032511, 0.00114754, 0.000594898, -0.00224404, -0.00281571, -0.00112978
0.02105, 1.69124, -1.22772, -1.53942, -0.900263, -1.19235, 1.22787, -1.30257, -0.000202278, -0.000106908, -0.00456975, 0.00657886, 0.000612382, -2.45577e-05, 0.00057189, 0.170357, 62.9343, 31.7335, 7.06909, 2.87311, 4.14889, -0.284657, 0.000411714, -0.00197923, 0.00192769, 0.0025227, 0.00144886, 0.000807872, 0.00430075, 0.00198255, -0.00122293, -0.00119897, 2.60126e-05, -0.00968401, 0.471007, -0.543387, 0.335895, -2.08384, -2.16584, -0.129885, 0.468946, -0.542765, 0.334115, -2.08262, -2.16318, -0.128472, -0.000373687, 0.00132303, 0.000685479, -0.00224404, -0.00281571, -0.00112978
0.02205, 1.69124, -1.22772, -1.53942, -0.900263, -1.19235, 1.22787, -1.30257, -0.000202278, -0.000106908, -0.00456975, 0.00657886, 0.000612382, -2.45577e-05, 0.00057189, 0.170357, 62.9343, 31.7335, 7.06909, 2.87311, 4.14889, -0.284657, 0.000410849, -0.00197903, 0.00192797, 0.00252228, 0.00144906, 0.000808333, 0.00450232, 0.00193562, -0.00128761, -0.00128372, 0.000157235, -0.00984632, 0.471007, -0.543386, 0.335895, -2.08384, -2.16584, -0.129884, 0.468946, -0.542765, 0.334115, -2.08262, -2.16318, -0.128472, -0.000425431, 0.00151016, 0.000782046, -0.00224404, -0.00281571, -0.00112978
0.02305, 1.69124, -1.22772, -1.53942, -0.900263, -1.19235, 1.22787, -1.30257, -0.000202278, -0.000106908, -0.00456975, 0.00657886, 0.000612382, -2.45577e-05, 0.00057189, 0.170357, 62.9343, 31.7335, 7.06909, 2.87311, 4.14889, -0.284657, 0.000409793, -0.00197878, 0.00192831, 0.00252178, 0.0014493, 0.000808894, 0.00471674, 0.00188576, -0.00135641, -0.00137376, 0.000296778, -0.0100189, 0.471007, -0.543385, 0.335896, -2.08384, -2.16584, -0.129884, 0.468946, -0.542765, 0.334115, -2.08262, -2.16318, -0.128472, -0.000480419, 0.00170921, 0.00088475, -0.00224404, -0.00281571, -0.00112978
0.02405, 1.69119, -1.2277, -1.53943, -0.900274, -1.19235, 1.22788, -1.30258, -0.00287558, -0.000533848, 0.000533217, -0.0010918, 0.000316793, 0.000297923, -0.0015715, -0.0557783, 62.8589, 31.6977, 7.18018, 2.89783, 4.14889, -0.232472, 0.000383112, -0.00201106, 0.00192592, 0.0025327, 0.00143103, 0.000857015, 0.00292881, 0.000686816, -0.000764818, -0.000125809, 0.00067786, -0.00161873, 0.471007, -0.543384, 0.335896, -2.08384, -2.16585, -0.129883, 0.468915, -0.542792, 0.334115, -2.08267, -2.16314, -0.128436, -0.000538724, 0.00192048, 0.000993739, -0.00114753, -0.000881328, -0.000195295
0.02505, 1.69118, -1.22771, -1.53944, -0.900276, -1.19235, 1.22787, -1.30258, -0.00316326, -0.00125851, 0.000300026, -0.000703053, 0.000448568, -7.43602e-05, -9.82293e-05, -0.0161054, 62.8986, 31.6977, 7.18018, 2.89142, 4.15622, -0.258107, 0.000378166, -0.00201562, 0.00192911, 0.00253631, 0.00143596, 0.000868154, 0.00346388, 0.000960524, -0.0013141, -0.000524804, -0.000205713, -0.00396472, 0.471006, -0.543383, 0.335897, -2.08384, -2.16585, -0.129882, 0.46891, -0.542795, 0.334112, -2.08268, -2.16312, -0.128435, -0.000600418, 0.00214425, 0.00110915, -0.00148327, -0.00111245, -0.000697043
0.02605, 1.69118, -1.22771, -1.53944, -0.900273, -1.19235, 1.22787, -1.30257, -0.00234748, -0.00405759, -0.00253614, -0.00179248, 0.00233356, 0.00103422, 0.000680499, -0.0161054, 62.6407, 31.547, 7.1048, 2.83649, 4.12692, -0.278248, 0.000374338, -0.00201748, 0.00192976, 0.00253736, 0.00143538, 0.000880235, 0.00362706, 0.000234689, -0.00414282, -0.00214826, -0.0035193, -0.00386947, 0.471006, -0.543381, 0.335898, -2.08384, -2.16585, -0.129881, 0.468908, -0.542797, 0.334111, -2.08269, -2.16311, -0.128431, -0.00066557, 0.00238079, 0.00123113, -0.000919803, -0.000571943, -0.00341541
0.02705, 1.69118, -1.22771, -1.53945, -0.900275, -1.19235, 1.22787, -1.30257, -0.00174396, -0.00473949, -0.00786783, 0.000323403, -0.00107727, 0.00387591, -0.00124175, -0.0161054, 62.1606, 31.2494, 7.02942, 2.67627, 4.04086, -0.232472, 0.00036958, -0.00201947, 0.00193788, 0.00255069, 0.00143916, 0.000885834, 0.00639725, 0.00109916, -0.00601027, -0.00518817, 0.000349213, -0.00711314, 0.471005, -0.543379, 0.335899, -2.08384, -2.16585, -0.129879, 0.468905, -0.542799, 0.334104, -2.08268, -2.1631, -0.128418, -0.000734245, 0.00263035, 0.0013598, -0.00182018, -0.00280516, -0.00553457
0.02805, 1.69118, -1.22772, -1.53948, -0.900281, -1.19236, 1.22787, -1.30258, -0.000368857, -0.00782954, -0.0113482, 0.0017024, -0.00423736, 0.00495681, -0.00421868, -0.0557783, 61.756, 30.9162, 6.95801, 2.51697, 3.97677, -0.140919, 0.000362172, -0.0020224, 0.0019558, 0.00257905, 0.00144698, 0.000888744, 0.00822835, 0.00128681, -0.00893731, -0.00869909, 0.000719365, -0.00688743, 0.471005, -0.543377, 0.3359, -2.08384, -2.16585, -0.129878, 0.468901, -0.542801, 0.334086, -2.08267, -2.16308, -0.128392, -0.000806507, 0.00289319, 0.0014953, -0.00212003, -0.00390722, -0.00856781
0.02905, 1.69118, -1.22773, -1.53951, -0.90029, -1.19238, 1.22786, -1.30257, 0.00141666, -0.00488501, -0.0199598, -0.0034824, -0.00782268, 0.000781796, -0.00332108, -0.131157, 61.2402, 30.5433, 6.88263, 2.38788, 3.9191, -0.127186, 0.000354491, -0.00202675, 0.00197429, 0.00262896, 0.00144152, 0.000902606, 0.00798375, 0.00179899, -0.0115327, -0.0241495, 0.00578162, -0.00711707, 0.471004, -0.543375, 0.335901, -2.08384, -2.16585, -0.129876, 0.468896, -0.542804, 0.334068, -2.08266, -2.16305, -0.128328, -0.000882416, 0.00316954, 0.00163773, -0.00280991, -0.0030109, -0.0109347
0.03005, 1.69119, -1.22773, -1.53955, -0.90029, -1.1924, 1.22785, -1.30257, 0.00170415, 0.00160905, -0.0266401, -0.00175515, -0.015632, -0.00273148, -0.00123071, -0.166862, 60.7959, 30.1703, 6.69617, 2.2771, 3.86966, -0.153737, 0.000341594, -0.00203464, 0.00199433, 0.00268213, 0.00143363, 0.000933596, 0.0106393, 0.00477123, -0.0102681, -0.0354988, 0.0174012, -0.0166343, 0.471003, -0.543372, 0.335903, -2.08383, -2.16585, -0.129874, 0.468887, -0.542811, 0.334048, -2.08266, -2.16301, -0.128256, -0.000962028, 0.00345964, 0.00178723, -0.00571729, -0.0056587, -0.00985904
0.03105, 1.69119, -1.22775, -1.5396, -0.900303, -1.19242, 1.22785, -1.30256, 0.00200749, -0.00302134, -0.0374565, -0.00501749, -0.0186078, -0.00479319, -0.000345754, -0.206535, 60.6134, 29.7617, 6.69617, 2.20386, 3.80466, -0.166554, 0.000330035, -0.00203782, 0.00202488, 0.00274399, 0.00143037, 0.000948989, 0.0129165, 0.00633581, -0.017576, -0.0502574, 0.0154091, -0.0207358, 0.471002, -0.543369, 0.335904, -2.08383, -2.16585, -0.129871, 0.468882, -0.542815, 0.334017, -2.08264, -2.16297, -0.12818, -0.0010454, 0.0037637, 0.0019439, -0.00754562, -0.00654209, -0.0172246
0.03205, 1.69119, -1.22777, -1.53965, -0.900308, -1.19246, 1.22784, -1.30256, 0.00258085, -0.00689258, -0.0427029, -0.00464134, -0.0184459, -0.000911517, -0.000467862, -0.131157, 60.4666, 29.4999, 6.58508, 2.18555, 3.7186, -0.160145, 0.000306709, -0.00205145, 0.00205745, 0.00281681, 0.00141529, 0.000987635, 0.0149392, 0.00614768, -0.0214588, -0.0517737, 0.013885, -0.0230459, 0.471002, -0.543366, 0.335906, -2.08383, -2.16586, -0.129869, 0.468868, -0.54283, 0.333984, -2.08265, -2.16291, -0.128078, -0.00113257, 0.00408193, 0.00210783, -0.00751275, -0.00761543, -0.0212142
0.03305, 1.6912, -1.22778, -1.5397, -0.900318, -1.1925, 1.22784, -1.30257, 0.00101471, -0.00945689, -0.0427729, -0.00619779, -0.0220183, -0.00228253, -0.00176997, -0.0914839, 60.3198, 29.0912, 6.54541, 2.15442, 3.6188, -0.120778, 0.000291308, -0.0020576, 0.00208157, 0.0028783, 0.0013943, 0.00100451, 0.0163477, 0.0072177, -0.0233576, -0.05555, 0.0138985, -0.0233945, 0.471001, -0.543362, 0.335908, -2.08383, -2.16586, -0.129866, 0.46886, -0.542839, 0.33396, -2.08265, -2.16288, -0.127984, -0.0012236, 0.00441451, 0.00227914, -0.0086906, -0.00842501, -0.0231041
0.03405, 1.6912, -1.22779, -1.53976, -0.900334, -1.19254, 1.22784, -1.30256, -0.000920141, -0.0106136, -0.0455826, -0.00907845, -0.0276771, -0.000556021, 0.000278082, -0.0161054, 60.2802, 28.9048, 6.58508, 2.09308, 3.56845, -0.160145, 0.000270742, -0.00206772, 0.00211391, 0.00295849, 0.00136971, 0.00103854, 0.0187159, 0.0083733, -0.0252989, -0.0604658, 0.0188508, -0.0283509, 0.470999, -0.543358, 0.33591, -2.08382, -2.16586, -0.129863, 0.468848, -0.54285, 0.333927, -2.08265, -2.16283, -0.127864, -0.00131852, 0.00476163, 0.0024579, -0.00992502, -0.0101644, -0.0251749
0.03505, 1.69121, -1.22779, -1.53982, -0.900346, -1.19258, 1.22784, -1.30256, 0.00488026, -0.00780886, -0.0471007, -0.0124204, -0.0329322, 0.00163361, 0.00116873, 0.0196001, 60.0977, 28.7183, 6.54541, 2.05646, 3.49612, -0.186696, 0.000252039, -0.00207445, 0.00213791, 0.00303451, 0.00132718, 0.00106883, 0.0168642, 0.00479326, -0.0248892, -0.0647603, 0.0278601, -0.0234397, 0.470998, -0.543354, 0.335912, -2.08382, -2.16586, -0.12986, 0.46884, -0.542861, 0.333903, -2.08266, -2.1628, -0.12773, -0.00141737, 0.00512346, 0.00264421, -0.00649992, -0.0078911, -0.0244046
0.03605, 1.69122, -1.22779, -1.53987, -0.900349, -1.19263, 1.22784, -1.30256, 0.00784266, -0.00507885, -0.0473733, -0.00910816, -0.0401367, 0.000820577, 0.000779155, -0.0161054, 60.0223, 28.4961, 6.39465, 1.99512, 3.48971, -0.186696, 0.000233049, -0.00208066, 0.00216083, 0.00310593, 0.00128904, 0.0010983, 0.01808, 0.00483717, -0.0232774, -0.0678929, 0.0361619, -0.0259426, 0.470997, -0.543349, 0.335915, -2.08382, -2.16586, -0.129856, 0.468833, -0.542872, 0.33388, -2.08267, -2.16276, -0.127605, -0.00152019, 0.00550014, 0.00283813, -0.00654489, -0.0089646, -0.0228064
0.03705, 1.69123, -1.2278, -1.53993, -0.900364, -1.19267, 1.22784, -1.30256, 0.00827494, -0.00461305, -0.0514012, -0.0103443, -0.0449993, -0.000340966, -0.00117598, 0.0196001, 60.0223, 28.3097, 6.39465, 1.92096, 3.50345, -0.140919, 0.000214815, -0.00208555, 0.00218718, 0.00318181, 0.00125005, 0.00111916, 0.0195768, 0.00570401, -0.0248603, -0.0754813, 0.0406843, -0.026386, 0.470995, -0.543344, 0.335917, -2.08381, -2.16587, -0.129852, 0.468826, -0.542881, 0.333854, -2.08266, -2.16274, -0.127476, -0.00162701, 0.00589181, 0.00303974, -0.00752106, -0.00984254, -0.0243739
0.03805, 1.69124, -1.22778, -1.53999, -0.900375, -1.19272, 1.22784, -1.30256, 0.00455685, 0.00647468, -0.0547559, -0.00960367, -0.0446455, -0.00105439, -0.00176733, 0.0949785, 59.8398, 28.274, 6.32324, 1.84772, 3.5181, -0.114369, 0.000195923, -0.00209231, 0.00220635, 0.00326346, 0.00119556, 0.00114648, 0.0214014, 0.00874102, -0.0194363, -0.0771924, 0.051404, -0.0321669, 0.470994, -0.543338, 0.33592, -2.08381, -2.16587, -0.129848, 0.468818, -0.542891, 0.333835, -2.08267, -2.16271, -0.127323, -0.00173785, 0.0062986, 0.00324909, -0.0104038, -0.0121962, -0.0190004
0.03905, 1.69125, -1.22776, -1.54006, -0.900395, -1.19277, 1.22784, -1.30256, 0.00338771, 0.0124709, -0.0577623, -0.0115429, -0.0495105, -0.000916334, -0.00117822, 0.245735, 59.6176, 28.274, 6.35895, 1.79828, 3.5181, -0.114369, 0.000178303, -0.00209726, 0.00222201, 0.00334569, 0.00112761, 0.00117336, 0.0228419, 0.0100247, -0.0173162, -0.0823951, 0.0620512, -0.0357608, 0.470992, -0.543332, 0.335923, -2.0838, -2.16587, -0.129843, 0.468811, -0.5429, 0.33382, -2.08269, -2.16269, -0.127155, -0.00185274, 0.00672061, 0.00346625, -0.0116725, -0.0135753, -0.0168745
0.04005, 1.69126, -1.22775, -1.54012, -0.900406, -1.19282, 1.22784, -1.30255, 0.00558745, 0.0132757, -0.0573373, -0.0102107, -0.0486982, -0.00155084, 0.000672581, 0.400459, 59.5462, 28.3097, 6.28357, 1.74884, 3.53915, -0.153737, 0.00015826, -0.00210379, 0.00224213, 0.00342628, 0.00107416, 0.0012112, 0.0223423, 0.0089454, -0.0168276, -0.0820336, 0.0621087, -0.0365207, 0.470991, -0.543326, 0.335927, -2.0838, -2.16588, -0.129838, 0.468803, -0.542911, 0.333801, -2.08271, -2.16265, -0.127003, -0.0019717, 0.00715794, 0.00369125, -0.0107138, -0.0126758, -0.0161221
0.04105, 1.69126, -1.22774, -1.54017, -0.900427, -1.19287, 1.22784, -1.30255, 0.00329933, 0.0109752, -0.0541807, -0.0110792, -0.0529435, 0.00299312, 0.000448387, 0.737679, 59.4708, 28.2343, 6.28357, 1.71222, 3.5538, -0.153737, 0.00013694, -0.00211223, 0.00225793, 0.00350027, 0.00101332, 0.00124114, 0.0244602, 0.00897412, -0.0168179, -0.077754, 0.0656568, -0.0380403, 0.470989, -0.543319, 0.33593, -2.08379, -2.16588, -0.129833, 0.468793, -0.542923, 0.333786, -2.08273, -2.16263, -0.126851, -0.00209472, 0.00761066, 0.00392413, -0.0107893, -0.0143167, -0.0162074
0.04205, 1.69127, -1.22773, -1.54024, -0.900452, -1.19293, 1.22784, -1.30255, 0.00140781, 0.0124188, -0.0556115, -0.0164704, -0.0529736, 0.000973751, -0.00214248, 0.963814, 59.3994, 28.4565, 6.35895, 1.71222, 3.58951, -0.0878186, 0.000116238, -0.002119, 0.00228203, 0.00359818, 0.000950763, 0.00126328, 0.0241636, 0.00937069, -0.0174601, -0.0831253, 0.066944, -0.0337226, 0.470987, -0.543312, 0.335934, -2.08379, -2.16589, -0.129827, 0.468784, -0.542932, 0.333763, -2.08272, -2.16261, -0.126671, -0.00222183, 0.00807884, 0.00416491, -0.0113462, -0.0134732, -0.0165426
0.04305, 1.69127, -1.22772, -1.54028, -0.900473, -1.19299, 1.22784, -1.30255, 0.000427882, 0.0128419, -0.0524437, -0.0147121, -0.0578158, -0.000210327, -0.00142832, 1.305, 59.3597, 28.3851, 6.32324, 1.72504, 3.6188, -0.0878186, 9.48863e-05, -0.00212675, 0.00229836, 0.00367261, 0.000891897, 0.00129046, 0.0257773, 0.0104072, -0.0160604, -0.0828335, 0.0706938, -0.0374641, 0.470984, -0.543304, 0.335938, -2.08378, -2.16589, -0.129821, 0.468774, -0.542943, 0.333747, -2.08274, -2.16259, -0.12652, -0.00235303, 0.00856251, 0.00441363, -0.0124041, -0.0148406, -0.0151308
0.04405, 1.69128, -1.22771, -1.54034, -0.9005, -1.19305, 1.22784, -1.30255, -0.000865903, 0.0138608, -0.0513563, -0.0181939, -0.0586728, 2.89639e-05, -0.00118957, 1.68189, 59.2883, 28.4961, 6.35895, 1.78638, 3.6188, -0.0814099, 7.25249e-05, -0.00213369, 0.00231774, 0.00375817, 0.000823924, 0.00131861, 0.025731, 0.010114, -0.0156398, -0.083662, 0.0730695, -0.0361414, 0.470982, -0.543295, 0.335942, -2.08378, -2.16589, -0.129815, 0.468765, -0.542954, 0.333729, -2.08275, -2.16257, -0.126347, -0.00248832, 0.00906169, 0.00467028, -0.0122331, -0.0143484, -0.0144605
0.04505, 1.69129, -1.2277, -1.54039, -0.900522, -1.19312, 1.22784, -1.30254, 0.00104048, 0.00911706, -0.0521054, -0.0173282, -0.0584398, -0.000633698, -0.00055569, 1.9477, 59.324, 28.6826, 6.24786, 1.82941, 3.63986, -0.0878186, 5.02686e-05, -0.00213765, 0.00233993, 0.00384216, 0.000760173, 0.00134745, 0.0261784, 0.00925452, -0.0189065, -0.0852948, 0.0682177, -0.0362818, 0.47098, -0.543286, 0.335947, -2.08377, -2.1659, -0.129808, 0.468758, -0.542964, 0.333709, -2.08276, -2.16255, -0.12618, -0.00262768, 0.00957641, 0.00493487, -0.011616, -0.0137376, -0.0175167
0.04605, 1.69129, -1.22769, -1.54044, -0.900541, -1.19318, 1.22784, -1.30254, 0.00165147, 0.00965292, -0.0523026, -0.0191786, -0.0625538, -0.000598568, 0.000850243, 2.24921, 59.324, 28.8691, 6.09711, 1.87244, 3.64718, -0.120778, 2.5961e-05, -0.00214414, 0.00235837, 0.00391932, 0.000696267, 0.00138166, 0.0267388, 0.0088723, -0.0191263, -0.0885184, 0.0727037, -0.037398, 0.470977, -0.543277, 0.335952, -2.08376, -2.1659, -0.129801, 0.46875, -0.542976, 0.333692, -2.08278, -2.16252, -0.126019, -0.00277111, 0.0101066, 0.00520739, -0.0113656, -0.0137112, -0.0175596
0.04705, 1.69131, -1.22768, -1.54048, -0.900561, -1.19325, 1.22784, -1.30254, 0.00488104, 0.00940076, -0.045722, -0.0176844, -0.0628633, -0.00110757, 0.00032947, 2.43568, 59.3597, 28.9048, 5.95032, 1.96399, 3.66824, -0.114369, 6.40044e-06, -0.00214426, 0.00237386, 0.00399554, 0.00062493, 0.0013976, 0.0250033, 0.00622006, -0.0171348, -0.0834037, 0.0723836, -0.0323997, 0.470974, -0.543267, 0.335957, -2.08375, -2.16591, -0.129793, 0.468747, -0.542983, 0.333679, -2.08279, -2.16252, -0.125853, -0.00291859, 0.0106523, 0.00548782, -0.00885435, -0.01165, -0.0151235
0.04805, 1.69132, -1.22767, -1.54053, -0.900582, -1.19332, 1.22784, -1.30254, 0.00616747, 0.0092597, -0.0452807, -0.015743, -0.0664442, -0.00200728, -0.00049243, 2.66181, 59.3994, 29.1269, 5.76385, 2.03174, 3.70395, -0.0951428, -1.68517e-05, -0.00214762, 0.00239187, 0.00407509, 0.000555348, 0.00141933, 0.0261484, 0.00628402, -0.0171277, -0.0850061, 0.0749624, -0.0334704, 0.470971, -0.543256, 0.335962, -2.08375, -2.16592, -0.129785, 0.468741, -0.542993, 0.333663, -2.0828, -2.16251, -0.125684, -0.0030701, 0.0112135, 0.00577613, -0.00902838, -0.0122232, -0.0150038
0.04905, 1.69134, -1.22766, -1.54057, -0.900601, -1.1934, 1.22783, -1.30254, 0.0136542, 0.00846945, -0.0419595, -0.017658, -0.0731957, -0.00265437, -0.00154899, 2.73719, 59.4708, 29.238, 5.57739, 2.09308, 3.74057, -0.0621838, -3.47307e-05, -0.00214361, 0.00240854, 0.004152, 0.000485012, 0.00142923, 0.0235352, 0.00179134, -0.017324, -0.0882031, 0.0799794, -0.0244842, 0.470968, -0.543245, 0.335968, -2.08374, -2.16592, -0.129777, 0.468742, -0.542997, 0.333649, -2.08279, -2.16252, -0.125518, -0.0032256, 0.01179, 0.00607228, -0.00479771, -0.00885255, -0.0146316
0.05005, 1.69135, -1.22767, -1.54061, -0.90061, -1.19347, 1.22783, -1.30254, 0.0104095, 0.00264778, -0.0421869, -0.0132691, -0.0768674, 0.000582067, -0.000320583, 3.04267, 59.7644, 29.4642, 5.27588, 2.12421, 3.80466, -0.0814099, -6.36231e-05, -0.00214881, 0.00243452, 0.00422777, 0.000432772, 0.00146533, 0.0285632, 0.00420795, -0.0199653, -0.0854631, 0.0787289, -0.034485, 0.470965, -0.543234, 0.335974, -2.08373, -2.16593, -0.129768, 0.468733, -0.54301, 0.333625, -2.08281, -2.16249, -0.125369, -0.00338507, 0.0123818, 0.00637623, -0.00728591, -0.0129173, -0.0176428
0.05105, 1.69137, -1.22767, -1.54064, -0.90063, -1.19355, 1.22783, -1.30253, 0.0141137, 0.0023077, -0.0403541, -0.0148024, -0.0753546, -0.000791808, 0.00477255, 3.22913, 59.9152, 29.611, 5.16479, 2.14801, 3.84768, -0.0878186, -8.52765e-05, -0.00214742, 0.00245217, 0.00430195, 0.00036541, 0.00148541, 0.0263291, 0.00138883, -0.0202497, -0.085947, 0.0770408, -0.0337029, 0.470962, -0.543221, 0.335981, -2.08372, -2.16594, -0.129759, 0.468731, -0.543016, 0.333611, -2.08282, -2.16248, -0.125207, -0.00354847, 0.0129888, 0.00668792, -0.00472416, -0.00994546, -0.0173504
0.05205, 1.69139, -1.22767, -1.54067, -0.900642, -1.19364, 1.22782, -1.30253, 0.0177826, -0.000402825, -0.0374547, -0.0139483, -0.0793152, -0.00262499, 0.00432343, 3.37989, 60.173, 29.6863, 4.97833, 2.19104, 3.91269, -0.10796, -0.000108987, -0.00214566, 0.0024728, 0.00437633, 0.00030149, 0.0015037, 0.0258677, -0.000410293, -0.0212595, -0.0875143, 0.0769669, -0.0307891, 0.470958, -0.543208, 0.335987, -2.08371, -2.16594, -0.129749, 0.46873, -0.543023, 0.333593, -2.08282, -2.16248, -0.125048, -0.00371575, 0.0136108, 0.00700727, -0.00314768, -0.00863882, -0.0180108
0.05305, 1.69141, -1.22767, -1.5407, -0.900661, -1.19373, 1.22781, -1.30254, 0.0203278, 0.00136684, -0.0370364, -0.0129054, -0.0815758, -0.0031109, 0.00124631, 3.53065, 60.2802, 29.8371, 4.90295, 2.21576, 3.95572, -0.0557752, -0.000133268, -0.00214373, 0.00249001, 0.00445774, 0.000220152, 0.00151867, 0.0258791, -0.00145838, -0.0203171, -0.088654, 0.0807421, -0.0272444, 0.470955, -0.543195, 0.335994, -2.0837, -2.16595, -0.129738, 0.468728, -0.543031, 0.33358, -2.08282, -2.16248, -0.124863, -0.00388686, 0.0142477, 0.0073342, -0.00223749, -0.00811527, -0.0167867
0.05405, 1.69142, -1.22767, -1.54073, -0.900681, -1.19383, 1.22781, -1.30254, 0.0144633, -3.68938e-05, -0.0359329, -0.0160263, -0.082967, -0.0029505, 7.01358e-05, 3.87183, 60.5023, 29.9482, 4.86725, 2.22858, 3.9841, -0.0292249, -0.000162425, -0.00214685, 0.0025103, 0.00453654, 0.000147057, 0.0015423, 0.028449, 0.000887345, -0.0210834, -0.0891713, 0.0810236, -0.0295864, 0.470951, -0.54318, 0.336002, -2.08369, -2.16596, -0.129728, 0.468722, -0.543043, 0.333562, -2.08283, -2.16248, -0.124689, -0.00406174, 0.0148993, 0.00766863, -0.00469053, -0.00997912, -0.0175367
0.05505, 1.69144, -1.22767, -1.54076, -0.900702, -1.19393, 1.22781, -1.30254, 0.0171637, -0.00116201, -0.034978, -0.0196957, -0.0892616, -0.00315849, -0.000261007, 4.06226, 60.7245, 30.0593, 4.90295, 2.27161, 4.0198, -0.0164075, -0.000190864, -0.00214568, 0.00253068, 0.0046153, 6.564e-05, 0.00156525, 0.0280118, -0.00105038, -0.0222983, -0.0939967, 0.0857652, -0.025565, 0.470947, -0.543166, 0.336009, -2.08368, -2.16597, -0.129716, 0.468719, -0.543053, 0.333546, -2.08285, -2.16247, -0.124505, -0.00424034, 0.0155655, 0.00801045, -0.00299351, -0.00861498, -0.0183851
0.05605, 1.69146, -1.22767, -1.54078, -0.900719, -1.19404, 1.2278, -1.30253, 0.0160113, -4.08602e-05, -0.0321241, -0.0182963, -0.0977854, -0.00332988, 0.00188399, 4.24873, 60.8713, 30.206, 4.90295, 2.29541, 4.05551, -0.0685925, -0.000220348, -0.00214485, 0.00254833, 0.00469244, -1.97254e-05, 0.00159266, 0.030641, 0.000254289, -0.0206145, -0.0949824, 0.0939134, -0.0321532, 0.470942, -0.54315, 0.336017, -2.08367, -2.16597, -0.129705, 0.468716, -0.543063, 0.333532, -2.08287, -2.16247, -0.124319, -0.00442257, 0.0162459, 0.00835954, -0.00432329, -0.0108429, -0.0167418
0.05705, 1.69148, -1.22767, -1.5408, -0.900738, -1.19415, 1.2278, -1.30253, 0.0159192, -0.00243652, -0.0224952, -0.0180521, -0.103552, -0.00346869, 0.00233325, 4.39948, 61.0181, 30.1703, 4.94263, 2.30182, 4.09122, -0.0951428, -0.000246098, -0.0021391, 0.0025617, 0.00476349, -0.000110539, 0.00161126, 0.0308522, -0.000878618, -0.0188176, -0.0897405, 0.0960222, -0.0307536, 0.470938, -0.543134, 0.336026, -2.08366, -2.16598, -0.129692, 0.468718, -0.54307, 0.333523, -2.08288, -2.16249, -0.124134, -0.00460838, 0.0169405, 0.00871578, -0.00330487, -0.0105869, -0.0146782
0.05805, 1.69149, -1.22767, -1.54082, -0.900762, -1.19427, 1.22779, -1.30253, 0.018101, 0.00275187, -0.0220602, -0.0233435, -0.108045, -0.00412218, -0.000578114, 4.58991, 61.1292, 30.2814, 5.08942, 2.31372, 4.14157, -0.0356336, -0.00027844, -0.00214046, 0.00257811, 0.00484682, -0.000207005, 0.00163096, 0.0293288, -0.00281325, -0.016755, -0.0947429, 0.10554, -0.0230518, 0.470933, -0.543117, 0.336034, -2.08364, -2.16599, -0.129679, 0.468712, -0.543083, 0.33351, -2.08289, -2.1625, -0.123929, -0.00479766, 0.0176488, 0.00907903, -0.00154188, -0.00861252, -0.0121004
0.05905, 1.69151, -1.22767, -1.54084, -0.900777, -1.19439, 1.22779, -1.30254, 0.0174311, 0.00264246, -0.0210807, -0.0204439, -0.109919, -0.00484292, -0.000807302, 4.74067, 61.2759, 30.3568, 5.08942, 2.28351, 4.19925, -0.0228162, -0.000312585, -0.00214156, 0.00259484, 0.00492275, -0.00029722, 0.00165567, 0.0313636, -0.00179439, -0.0163407, -0.0942283, 0.10677, -0.0267914, 0.470929, -0.543099, 0.336043, -2.08363, -2.166, -0.129666, 0.468707, -0.543097, 0.333497, -2.08291, -2.1625, -0.123737, -0.00499035, 0.0183707, 0.00944913, -0.00266384, -0.0100052, -0.0116059
0.06005, 1.69154, -1.22767, -1.54085, -0.900791, -1.19452, 1.22778, -1.30254, 0.0201691, 0.00257212, -0.0179226, -0.0183229, -0.116289, -0.00529986, -0.000735941, 4.74067, 61.4227, 30.4679, 5.08942, 2.27161, 4.25601, -0.0164075, -0.000344318, -0.00213782, 0.00261237, 0.00500805, -0.000395468, 0.00167981, 0.0321329, -0.00279211, -0.0153966, -0.0945739, 0.111903, -0.0272542, 0.470924, -0.543081, 0.336053, -2.08362, -2.16601, -0.129652, 0.468706, -0.543107, 0.333485, -2.08293, -2.16251, -0.123527, -0.00518633, 0.0191057, 0.00982594, -0.00180135, -0.0101339, -0.0104463
0.06105, 1.69155, -1.22767, -1.54087, -0.900807, -1.19464, 1.22777, -1.30253, 0.0203927, 0.00263778, -0.0194427, -0.0176872, -0.12157, -0.0053749, 0.000997149, 4.81605, 61.5695, 30.6186, 5.12909, 2.2652, 4.30636, -0.0557752, -0.000381107, -0.00213827, 0.00263166, 0.00509258, -0.000493395, 0.00171278, 0.034373, -0.00207428, -0.0160752, -0.0984811, 0.11683, -0.0324545, 0.470918, -0.543062, 0.336063, -2.0836, -2.16602, -0.129638, 0.468701, -0.543121, 0.33347, -2.08296, -2.16251, -0.123316, -0.00538552, 0.0198537, 0.0102093, -0.00266133, -0.0115226, -0.0110587
0.06205, 1.69157, -1.22768, -1.54089, -0.900824, -1.19477, 1.22776, -1.30254, 0.0215133, -6.75784e-05, -0.0205231, -0.017898, -0.124487, -0.00515948, -0.000771011, 4.85175, 61.8274, 30.7654, 5.2005, 2.22858, 4.34939, -0.0164075, -0.000418204, -0.00213816, 0.00265438, 0.00517735, -0.000583916, 0.00173647, 0.0357069, -0.00250035, -0.0183725, -0.101429, 0.117277, -0.0314786, 0.470913, -0.543042, 0.336073, -2.08359, -2.16603, -0.129623, 0.468696, -0.543134, 0.333452, -2.08297, -2.16251, -0.123113, -0.0055878, 0.0206142, 0.0105989, -0.00247322, -0.0117082, -0.0131571
0.06305, 1.69159, -1.22768, -1.5409, -0.900837, -1.19491, 1.22776, -1.30254, 0.0220263, -0.000737843, -0.0169693, -0.0163505, -0.127039, -0.00447771, 0.000960769, 4.89143, 61.9028, 30.7297, 5.2005, 2.20386, 4.37778, -0.0557752, -0.000455045, -0.00213577, 0.00266583, 0.00524939, -0.000693436, 0.00176904, 0.03667, -0.00310576, -0.0175194, -0.0986503, 0.119231, -0.0338469, 0.470907, -0.543021, 0.336083, -2.08357, -2.16604, -0.129607, 0.468694, -0.543148, 0.333445, -2.083, -2.16252, -0.122903, -0.00579309, 0.0213869, 0.0109948, -0.00200808, -0.0119926, -0.0120865
0.06405, 1.69162, -1.2277, -1.54091, -0.900848, -1.19505, 1.22775, -1.30253, 0.0271358, -0.00572119, -0.016251, -0.0152201, -0.133422, -0.00806667, 0.000381781, 4.85175, 62.1606, 30.7654, 5.2005, 2.17914, 4.3851, -0.0484509, -0.000494734, -0.00213302, 0.00268838, 0.00532618, -0.000786931, 0.00180188, 0.0367864, -0.00474969, -0.0208793, -0.105127, 0.118283, -0.0315717, 0.470902, -0.543, 0.336094, -2.08356, -2.16606, -0.129591, 0.468692, -0.543162, 0.333428, -2.08303, -2.16252, -0.122703, -0.00600136, 0.0221719, 0.0113968, -0.000692064, -0.0107382, -0.0150698
0.06505, 1.69164, -1.2277, -1.54092, -0.900863, -1.19519, 1.22775, -1.30254, 0.0276976, -0.00488244, -0.0176154, -0.0154031, -0.134008, -0.00631462, -0.0014315, 4.81605, 62.2321, 30.8765, 5.24017, 2.16083, 4.39975, -0.00267457, -0.000534738, -0.00212996, 0.00270568, 0.00540842, -0.000899443, 0.00182527, 0.0378447, -0.0052941, -0.0210389, -0.105518, 0.121136, -0.0305817, 0.470896, -0.542978, 0.336106, -2.08354, -2.16607, -0.129574, 0.468689, -0.543177, 0.333416, -2.08305, -2.16254, -0.122479, -0.00621258, 0.0229689, 0.0118049, -0.000327067, -0.0109391, -0.0149999
0.06605, 1.69167, -1.22771, -1.54093, -0.900873, -1.19533, 1.22775, -1.30254, 0.0280857, -0.00716506, -0.016737, -0.0145827, -0.133518, -0.0042342, -0.000201296, 4.77637, 62.4185, 30.9162, 5.24017, 2.1178, 4.39242, -0.0228162, -0.000575327, -0.00212472, 0.00272655, 0.00547793, -0.000996304, 0.00185891, 0.0389355, -0.0061547, -0.0220689, -0.102923, 0.119939, -0.0321951, 0.470889, -0.542955, 0.336118, -2.08352, -2.16608, -0.129557, 0.468689, -0.543191, 0.333401, -2.08308, -2.16254, -0.122283, -0.0064267, 0.0237778, 0.012219, 0.000320417, -0.0110133, -0.0157979
0.06705, 1.69168, -1.22771, -1.54094, -0.900891, -1.19547, 1.22775, -1.30253, 0.0262888, -0.00360279, -0.0161676, -0.0157197, -0.134699, -0.00331586, 0.000345809, 4.81605, 62.3828, 30.9519, 5.31555, 2.11139, 4.39975, -0.0356336, -0.000618213, -0.00212251, 0.00273847, 0.00554818, -0.00111627, 0.00189414, 0.040159, -0.00566603, -0.0200305, -0.10249, 0.125484, -0.0344053, 0.470883, -0.542931, 0.33613, -2.0835, -2.16609, -0.129539, 0.468686, -0.543207, 0.333394, -2.08313, -2.16256, -0.122062, -0.00664368, 0.0245986, 0.0126391, -0.000266228, -0.011734, -0.0135399
0.06805, 1.69171, -1.22772, -1.54095, -0.900896, -1.19561, 1.22775, -1.30253, 0.0270176, -0.00558151, -0.0144047, -0.012905, -0.134465, -0.00183439, 0.00121785, 4.77637, 62.5296, 31.063, 5.24017, 2.08118, 4.3851, -0.0621838, -0.000663921, -0.00211987, 0.00275962, 0.00562077, -0.00121778, 0.00193603, 0.041491, -0.00628963, -0.0203697, -0.0988525, 0.124297, -0.0367587, 0.470876, -0.542906, 0.336143, -2.08349, -2.16611, -0.12952, 0.468683, -0.543225, 0.333379, -2.08316, -2.16256, -0.121856, -0.00686349, 0.0254311, 0.0130651, 0.000172718, -0.0121387, -0.0136742
0.06905, 1.69173, -1.22772, -1.54096, -0.900915, -1.19575, 1.22775, -1.30253, 0.0224452, -0.00436571, -0.011714, -0.0154604, -0.133887, -0.00161895, 6.88896e-05, 4.81605, 62.5653, 30.9876, 5.35126, 2.03815, 4.39242, -0.0420422, -0.000704923, -0.0021153, 0.00277385, 0.0056856, -0.00132222, 0.00195966, 0.042906, -0.00505223, -0.0190829, -0.0968045, 0.12562, -0.0371378, 0.470869, -0.542881, 0.336156, -2.08347, -2.16612, -0.129501, 0.468681, -0.543237, 0.333371, -2.08319, -2.16258, -0.121656, -0.00708609, 0.0262753, 0.013497, -0.00118754, -0.0129405, -0.0121534
0.07005, 1.69176, -1.22772, -1.54097, -0.900925, -1.19589, 1.22776, -1.30253, 0.0259014, -0.00453082, -0.0121726, -0.0136564, -0.13436, -0.000630336, 0.000794143, 4.701, 62.6407, 31.1384, 5.31555, 2.01343, 4.37778, -0.0621838, -0.000748194, -0.00210714, 0.00279364, 0.00575458, -0.00142793, 0.00199456, 0.0431362, -0.00684255, -0.0194748, -0.0966246, 0.126913, -0.037124, 0.470862, -0.542854, 0.336169, -2.08345, -2.16613, -0.129481, 0.468683, -0.54325, 0.333359, -2.08322, -2.16259, -0.121449, -0.00731145, 0.027131, 0.0139346, 0.00036951, -0.0121779, -0.0121926
0.07105, 1.69178, -1.22773, -1.54097, -0.900936, -1.19602, 1.22775, -1.30253, 0.0248924, -0.0037486, -0.0110605, -0.0132927, -0.135595, -0.000253042, -0.00116432, 4.58991, 62.6764, 31.1027, 5.31555, 2.01984, 4.37137, -0.0164075, -0.000789717, -0.00209882, 0.00280851, 0.005818, -0.00153214, 0.00201312, 0.0446042, -0.00651184, -0.0187757, -0.0958767, 0.129346, -0.0371059, 0.470855, -0.542827, 0.336183, -2.08343, -2.16615, -0.129461, 0.468685, -0.543262, 0.333351, -2.08324, -2.16262, -0.121251, -0.00753952, 0.0279981, 0.014378, -0.000110051, -0.0128813, -0.0112763
0.07205, 1.69181, -1.22773, -1.54098, -0.900945, -1.19616, 1.22776, -1.30253, 0.0262698, -0.00241869, -0.00977757, -0.0121013, -0.135958, 0.000321207, 0.000920463, 4.51453, 62.6764, 31.1741, 5.27588, 2.00702, 4.35672, -0.0621838, -0.000834145, -0.00209169, 0.00282381, 0.00588296, -0.00164008, 0.00204853, 0.0450337, -0.00749411, -0.0176913, -0.0943321, 0.131724, -0.039146, 0.470847, -0.542799, 0.336197, -2.08341, -2.16616, -0.12944, 0.468686, -0.543275, 0.333343, -2.08328, -2.16263, -0.121045, -0.00777026, 0.0288765, 0.0148271, 0.00069559, -0.0125532, -0.00985272
0.07305, 1.69184, -1.22774, -1.54099, -0.900958, -1.1963, 1.22776, -1.30253, 0.0260175, -0.00498586, -0.0119897, -0.0122779, -0.140628, 0.000717198, 0.00183529, 4.36378, 62.8232, 31.2494, 5.27588, 2.00702, 4.34207, -0.0951428, -0.000877313, -0.00208023, 0.00284612, 0.00595114, -0.00173995, 0.00207517, 0.0477116, -0.00680091, -0.0202566, -0.0987392, 0.133954, -0.043471, 0.47084, -0.54277, 0.336212, -2.08339, -2.16618, -0.129418, 0.46869, -0.543285, 0.333329, -2.0833, -2.16265, -0.120844, -0.00800365, 0.0297661, 0.0152818, -0.00022631, -0.0139415, -0.0123251
0.07405, 1.69187, -1.22775, -1.54099, -0.900963, -1.19644, 1.22776, -1.30253, 0.0251817, -0.0084756, -0.00866888, -0.00664004, -0.139935, 0.000957152, 0.000952963, 4.36378, 63.0453, 31.2494, 5.16479, 2.00061, 4.32834, -0.0878186, -0.000927015, -0.00207324, 0.00286813, 0.00600654, -0.00183432, 0.00211003, 0.0502425, -0.00605584, -0.0205927, -0.0931812, 0.129908, -0.0472148, 0.470832, -0.542741, 0.336228, -2.08336, -2.16619, -0.129396, 0.46869, -0.543301, 0.333315, -2.08333, -2.16266, -0.12066, -0.00823965, 0.0306668, 0.015742, -0.00112671, -0.0155185, -0.0125663
0.07505, 1.6919, -1.22776, -1.54101, -0.900971, -1.19658, 1.22776, -1.30253, 0.0306994, -0.00728693, -0.00888451, -0.00521664, -0.139256, 0.0014297, -0.000550957, 4.24873, 63.1168, 31.3605, 5.16479, 1.99512, 4.30636, -0.0557752, -0.00097188, -0.0020614, 0.00288842, 0.00607468, -0.00193803, 0.00213255, 0.049049, -0.00915579, -0.0203273, -0.0931069, 0.131467, -0.0421747, 0.470823, -0.54271, 0.336243, -2.08334, -2.16621, -0.129373, 0.468695, -0.543311, 0.333303, -2.08335, -2.16268, -0.120454, -0.00847821, 0.0315785, 0.0162078, 0.00169768, -0.0133413, -0.0117475
0.07605, 1.69194, -1.22777, -1.54101, -0.900978, -1.19672, 1.22776, -1.30253, 0.0316047, -0.0100294, -0.00944755, -0.00323499, -0.138972, 0.00198764, -0.00158761, 4.13764, 63.3389, 31.3605, 5.12909, 1.99512, 4.27798, -0.0228162, -0.00101835, -0.00204787, 0.00291207, 0.00613557, -0.00203466, 0.00215698, 0.0505996, -0.00952187, -0.0221758, -0.0928075, 0.129302, -0.0428713, 0.470815, -0.542678, 0.33626, -2.08332, -2.16623, -0.129349, 0.4687, -0.543321, 0.333288, -2.08337, -2.1627, -0.120263, -0.0087193, 0.0325011, 0.016679, 0.00181141, -0.0136502, -0.0133529
0.07705, 1.69198, -1.22778, -1.54101, -0.90099, -1.19686, 1.22777, -1.30252, 0.0351877, -0.00833765, -0.00601026, -0.00655042, -0.138671, 0.0037201, 0.000874671, 4.02259, 63.4103, 31.3248, 5.16479, 1.98871, 4.21298, -0.0750012, -0.00106213, -0.0020308, 0.00292776, 0.00618791, -0.0021442, 0.00218112, 0.0482862, -0.0134266, -0.0207736, -0.090523, 0.132443, -0.0379551, 0.470806, -0.542646, 0.336276, -2.08329, -2.16625, -0.129324, 0.46871, -0.543328, 0.333282, -2.0834, -2.16274, -0.120067, -0.00896288, 0.0334345, 0.0171556, 0.00543541, -0.0104869, -0.0112516
0.07805, 1.69201, -1.22779, -1.54102, -0.900992, -1.197, 1.22778, -1.30253, 0.039824, -0.010741, -0.00785085, -0.00319648, -0.142823, 0.00352186, 0.000108619, 3.94721, 63.6325, 31.4716, 5.08942, 1.99512, 4.1846, -0.0621838, -0.00111319, -0.0020173, 0.00295558, 0.00625008, -0.00223954, 0.00221162, 0.0496443, -0.0147142, -0.0229476, -0.0939707, 0.133977, -0.0385606, 0.470797, -0.542612, 0.336293, -2.08327, -2.16626, -0.129299, 0.468715, -0.543341, 0.333264, -2.08342, -2.16275, -0.119873, -0.00920893, 0.0343785, 0.0176375, 0.00644564, -0.0104961, -0.0131661
0.07905, 1.69206, -1.22781, -1.54102, -0.901004, -1.19714, 1.22778, -1.30252, 0.0423525, -0.0123469, -0.00871086, -0.00433881, -0.141758, 0.00393458, 0.00102202, 3.79646, 63.8547, 31.4716, 5.16479, 1.99512, 4.14157, -0.0878186, -0.00115673, -0.00199591, 0.00298007, 0.00630865, -0.00233721, 0.00222646, 0.049372, -0.016687, -0.0247742, -0.0953349, 0.132611, -0.036796, 0.470788, -0.542578, 0.336311, -2.08324, -2.16628, -0.129273, 0.468728, -0.543345, 0.33325, -2.08343, -2.16279, -0.119681, -0.00945739, 0.0353331, 0.0181247, 0.00809134, -0.00891015, -0.0145002
0.08005, 1.69209, -1.22782, -1.54103, -0.901008, -1.19729, 1.22779, -1.30252, 0.0378862, -0.0116569, -0.00982863, -0.00550005, -0.142329, 0.00339768, 0.00068147, 3.90754, 64.0015, 31.6224, 5.12909, 2.03174, 4.12051, -0.0878186, -0.00121286, -0.00198753, 0.00300426, 0.00637207, -0.00244009, 0.00226702, 0.0522696, -0.0142881, -0.0250621, -0.0972572, 0.134186, -0.0413969, 0.470779, -0.542543, 0.336329, -2.08322, -2.1663, -0.129247, 0.468728, -0.543361, 0.333235, -2.08347, -2.1628, -0.119476, -0.00970824, 0.0362982, 0.0186171, 0.00553979, -0.0108607, -0.014668
0.08105, 1.69214, -1.22783, -1.54104, -0.901019, -1.19743, 1.22779, -1.30253, 0.0432546, -0.0111989, -0.00868684, -0.00816541, -0.14113, 0.00307497, -0.00124101, 3.79646, 64.1483, 31.6977, 5.16479, 2.03174, 4.09854, -0.0420422, -0.0012591, -0.0019665, 0.00302927, 0.00643927, -0.00254499, 0.00227732, 0.0496013, -0.0184002, -0.0253951, -0.098439, 0.134509, -0.0317142, 0.470769, -0.542506, 0.336348, -2.08319, -2.16632, -0.12922, 0.46874, -0.543365, 0.333221, -2.08347, -2.16284, -0.119267, -0.00996144, 0.0372736, 0.0191147, 0.00928491, -0.00702928, -0.0142109
0.08205, 1.69218, -1.22784, -1.54104, -0.901026, -1.19758, 1.22779, -1.30253, 0.0414013, -0.0132216, -0.00783286, -0.00920624, -0.141016, 0.00258955, -0.000318645, 3.79646, 64.2593, 31.7731, 5.16479, 2.05005, 4.08389, -0.0557752, -0.00130937, -0.00194818, 0.00305151, 0.0065002, -0.00265326, 0.00230237, 0.0511114, -0.0179332, -0.0267045, -0.0988505, 0.132815, -0.0338888, 0.470759, -0.542469, 0.336367, -2.08316, -2.16634, -0.129192, 0.468749, -0.543374, 0.33321, -2.08349, -2.16287, -0.119059, -0.010217, 0.0382593, 0.0196175, 0.00857049, -0.00735241, -0.0152209
0.08305, 1.69223, -1.22785, -1.54105, -0.901038, -1.19773, 1.22779, -1.30252, 0.0434728, -0.0116729, -0.00932739, -0.00864412, -0.140576, 0.00172414, 0.000737058, 3.79646, 64.3704, 31.8088, 5.24017, 2.06836, 4.08389, -0.0814099, -0.00135775, -0.00192758, 0.00307478, 0.00656689, -0.00276212, 0.00232227, 0.0514201, -0.0188011, -0.0267627, -0.101042, 0.134373, -0.0348261, 0.470749, -0.542431, 0.336386, -2.08313, -2.16636, -0.129163, 0.468761, -0.543379, 0.333199, -2.0835, -2.1629, -0.118844, -0.0104747, 0.0392552, 0.0201252, 0.00918908, -0.00661613, -0.0148448
0.08405, 1.69227, -1.22786, -1.54105, -0.901049, -1.19787, 1.2278, -1.30252, 0.0441639, -0.0131739, -0.00839322, -0.0103285, -0.140866, 0.00165639, 0.00406433, 3.83216, 64.5926, 31.8842, 5.27588, 2.09308, 4.07016, -0.0484509, -0.00140825, -0.00190717, 0.00310315, 0.00663132, -0.00285951, 0.00234055, 0.0516925, -0.019948, -0.0279285, -0.101863, 0.133896, -0.0364508, 0.470738, -0.542392, 0.336407, -2.0831, -2.16638, -0.129134, 0.468771, -0.543384, 0.333182, -2.08351, -2.16294, -0.118642, -0.0107348, 0.0402611, 0.020638, 0.0100422, -0.0056522, -0.0155604
0.08505, 1.69232, -1.22788, -1.54106, -0.901056, -1.19802, 1.2278, -1.30253, 0.0464165, -0.0123626, -0.00850272, -0.00756821, -0.140604, 0.000831741, 0.00310906, 3.79646, 64.7394, 31.9953, 5.27588, 2.11139, 4.07748, -0.0484509, -0.00145827, -0.0018845, 0.00313076, 0.00669999, -0.00296166, 0.00235596, 0.0524135, -0.0206756, -0.0276385, -0.10195, 0.134615, -0.0365216, 0.470727, -0.542351, 0.336427, -2.08308, -2.1664, -0.129103, 0.468784, -0.543388, 0.333167, -2.08351, -2.16297, -0.118431, -0.010997, 0.0412769, 0.0211557, 0.010544, -0.00536231, -0.0148902
0.08605, 1.69236, -1.22789, -1.54107, -0.90107, -1.19817, 1.2278, -1.30253, 0.0447865, -0.0117851, -0.00933375, -0.0104589, -0.144911, 0.000316197, 0.00166025, 3.90754, 64.8862, 32.1421, 5.35126, 2.13611, 4.08389, -0.0292249, -0.00151309, -0.00186729, 0.00315981, 0.006773, -0.0030648, 0.00238175, 0.0542996, -0.0199044, -0.0282911, -0.10663, 0.139416, -0.0368534, 0.470716, -0.54231, 0.336448, -2.08304, -2.16642, -0.129072, 0.468791, -0.543396, 0.333151, -2.08352, -2.163, -0.118212, -0.0112614, 0.0423026, 0.0216783, 0.0095548, -0.00613024, -0.0152806
0.08705, 1.69242, -1.2279, -1.54108, -0.901082, -1.19832, 1.22779, -1.30253, 0.051186, -0.014415, -0.00815943, -0.0076181, -0.140292, -6.11726e-05, 0.000856834, 3.83216, 65.033, 32.2175, 5.35126, 2.17914, 4.09122, -0.0164075, -0.00156179, -0.00184171, 0.00318931, 0.00684491, -0.00316304, 0.00239209, 0.0524657, -0.0238141, -0.0297511, -0.10407, 0.133424, -0.0309213, 0.470705, -0.542268, 0.33647, -2.08301, -2.16645, -0.129041, 0.468806, -0.543396, 0.333135, -2.08351, -2.16303, -0.118, -0.011528, 0.0433381, 0.0222057, 0.0130731, -0.00289707, -0.0160303
0.08805, 1.69247, -1.22791, -1.54109, -0.901095, -1.19845, 1.2278, -1.30252, 0.0508847, -0.0141941, -0.00733313, -0.0136795, -0.140626, 0.000738584, 0.00267254, 3.83216, 65.2155, 32.2928, 5.42664, 2.20935, 4.07016, -0.0685925, -0.00161329, -0.00181678, 0.00321895, 0.00690475, -0.00325683, 0.0024118, 0.0518865, -0.0254948, -0.0304327, -0.106038, 0.135511, -0.0283069, 0.470694, -0.542224, 0.336492, -2.08298, -2.16647, -0.129008, 0.46882, -0.543398, 0.333119, -2.08352, -2.16307, -0.117804, -0.0117966, 0.0443832, 0.0227379, 0.0144374, -0.00110522, -0.0161327
0.08905, 1.69252, -1.22792, -1.5411, -0.901101, -1.1986, 1.2278, -1.30252, 0.0507032, -0.0122976, -0.0116849, -0.0113619, -0.140255, 0.000763261, 0.0019081, 3.83216, 65.3265, 32.4396, 5.35126, 2.22858, 4.06283, -0.0685925, -0.00166783, -0.00179335, 0.00324693, 0.00697044, -0.00335894, 0.00243336, 0.0544423, -0.024356, -0.0308784, -0.108809, 0.137897, -0.0326286, 0.470682, -0.54218, 0.336515, -2.08295, -2.16649, -0.128975, 0.468833, -0.543403, 0.333105, -2.08353, -2.1631, -0.117592, -0.0120673, 0.0454378, 0.0232748, 0.0131068, -0.00255243, -0.0163971
0.09005, 1.69258, -1.22793, -1.54112, -0.901116, -1.19873, 1.2278, -1.30252, 0.053048, -0.0109742, -0.0124969, -0.0124492, -0.137006, 0.00105108, 0.000383524, 3.72108, 65.4376, 32.6261, 5.38696, 2.2771, 4.04819, -0.0420422, -0.00171831, -0.00176416, 0.00327978, 0.00704326, -0.00345711, 0.00243899, 0.0536591, -0.026414, -0.0309958, -0.10896, 0.137649, -0.0280476, 0.47067, -0.542135, 0.336538, -2.08291, -2.16652, -0.128941, 0.46885, -0.543401, 0.333088, -2.08351, -2.16314, -0.117377, -0.0123401, 0.0465019, 0.0238164, 0.014857, -0.000610975, -0.0159131
0.09105, 1.69263, -1.22795, -1.54113, -0.901126, -1.19887, 1.2278, -1.30253, 0.0554023, -0.012646, -0.00859029, -0.0123512, -0.137386, 0.000971764, -0.00136864, 3.72108, 65.6598, 32.6261, 5.38696, 2.29541, 4.04086, 0.00373412, -0.00177121, -0.00173661, 0.00330943, 0.00710128, -0.00354939, 0.00244576, 0.0532109, -0.0286279, -0.0310735, -0.106688, 0.136805, -0.0231689, 0.470657, -0.542088, 0.336562, -2.08288, -2.16654, -0.128906, 0.468866, -0.543401, 0.333073, -2.0835, -2.16319, -0.117184, -0.0126148, 0.0475753, 0.0243626, 0.0167746, 0.00100957, -0.0154421
0.09205, 1.69269, -1.22796, -1.54114, -0.901132, -1.19901, 1.2278, -1.30252, 0.0570099, -0.0119641, -0.0124946, -0.011548, -0.137848, 0.000376408, 0.000836324, 3.72108, 65.8066, 32.7768, 5.35126, 2.30823, 4.04819, -0.0420422, -0.00182886, -0.00171225, 0.00334395, 0.00716924, -0.00363915, 0.00247335, 0.0546753, -0.028733, -0.0324406, -0.111091, 0.138551, -0.0274261, 0.470645, -0.542041, 0.336586, -2.08285, -2.16657, -0.128871, 0.468879, -0.543404, 0.333054, -2.0835, -2.16321, -0.116979, -0.0128915, 0.048658, 0.0249134, 0.0166068, 0.000861369, -0.0164714
0.09305, 1.69274, -1.22797, -1.54116, -0.901143, -1.19915, 1.2278, -1.30252, 0.0569583, -0.0106493, -0.0137805, -0.0086943, -0.138512, 0.000522081, 0.00134353, 3.6457, 65.9177, 32.8522, 5.35126, 2.33295, 4.04086, -0.0621838, -0.00188347, -0.00168363, 0.0033733, 0.00723444, -0.00374006, 0.00248879, 0.0570077, -0.0280132, -0.0320764, -0.111381, 0.141052, -0.0322557, 0.470632, -0.541992, 0.336611, -2.08281, -2.16659, -0.128834, 0.468895, -0.543404, 0.33304, -2.0835, -2.16325, -0.116766, -0.0131701, 0.0497497, 0.0254687, 0.0157086, -0.000435071, -0.0158957
0.09405, 1.6928, -1.22797, -1.54117, -0.901155, -1.19929, 1.2278, -1.30252, 0.0591852, -0.0088261, -0.0114311, -0.0106086, -0.13885, -0.000194575, 0.000688323, 3.60603, 65.9891, 32.9236, 5.38696, 2.35126, 4.05551, -0.0557752, -0.00193886, -0.00165532, 0.00340312, 0.00730126, -0.00383973, 0.00250121, 0.0559749, -0.0301591, -0.0309825, -0.111647, 0.143637, -0.0276649, 0.470619, -0.541942, 0.336637, -2.08277, -2.16662, -0.128797, 0.468911, -0.543403, 0.333027, -2.08349, -2.1633, -0.116553, -0.0134506, 0.0508506, 0.0260284, 0.0175743, 0.00160755, -0.0141619
0.09505, 1.69286, -1.22798, -1.54118, -0.901165, -1.19943, 1.2278, -1.30253, 0.0593248, -0.0116863, -0.00897904, -0.00790167, -0.134867, 0.000141481, -0.00196003, 3.49494, 66.1002, 32.9633, 5.38696, 2.36957, 4.04819, 0.0101428, -0.00199458, -0.00162467, 0.00343371, 0.00736315, -0.00393629, 0.00250572, 0.0569108, -0.030883, -0.0317816, -0.106799, 0.138043, -0.025603, 0.470605, -0.541891, 0.336663, -2.08274, -2.16665, -0.128759, 0.468929, -0.543401, 0.333013, -2.08347, -2.16335, -0.116348, -0.013733, 0.0519604, 0.0265925, 0.0180204, 0.00194693, -0.0145541
0.09605, 1.69291, -1.22799, -1.5412, -0.901178, -1.19956, 1.2278, -1.30252, 0.0604295, -0.0124476, -0.0129191, -0.00765296, -0.134806, 9.42676e-05, 0.00016825, 3.45527, 66.2866, 33.1101, 5.46234, 2.35675, 4.04819, -0.0292249, -0.00205521, -0.00159702, 0.00347039, 0.00743006, -0.00402855, 0.00252876, 0.0585668, -0.0310155, -0.0340264, -0.110833, 0.138253, -0.0296293, 0.470592, -0.541839, 0.33669, -2.0827, -2.16667, -0.128721, 0.468944, -0.543402, 0.332994, -2.08347, -2.16338, -0.116139, -0.0140172, 0.053079, 0.027161, 0.0178472, 0.0017813, -0.0164629
0.09705, 1.69297, -1.228, -1.54121, -0.90119, -1.1997, 1.2278, -1.30252, 0.0602627, -0.00935491, -0.0100475, -0.0126981, -0.136785, -0.000208462, 0.000599539, 3.34419, 66.3223, 33.1498, 5.50201, 2.36957, 4.05551, -0.0420422, -0.00211178, -0.00156676, 0.00349868, 0.00749499, -0.0041278, 0.00254255, 0.0578389, -0.0324814, -0.0322781, -0.112056, 0.143835, -0.026089, 0.470578, -0.541786, 0.336717, -2.08266, -2.1667, -0.128681, 0.468961, -0.5434, 0.332983, -2.08346, -2.16342, -0.115925, -0.0143032, 0.0542063, 0.0277337, 0.0190638, 0.00342092, -0.0140962
0.09805, 1.69304, -1.228, -1.54123, -0.901201, -1.19984, 1.2278, -1.30252, 0.0609308, -0.008073, -0.00791363, -0.0133377, -0.136809, 0.000132263, 0.000646543, 3.19343, 66.3937, 33.1855, 5.53772, 2.36316, 4.04819, -0.0484509, -0.00217027, -0.00153377, 0.00352995, 0.00755616, -0.00422841, 0.00255431, 0.0580546, -0.0336723, -0.0312417, -0.110661, 0.146019, -0.0248672, 0.470563, -0.541732, 0.336744, -2.08262, -2.16673, -0.128641, 0.468981, -0.543397, 0.33297, -2.08345, -2.16347, -0.115714, -0.0145909, 0.0553423, 0.0283107, 0.0200122, 0.00423545, -0.0125661
0.09905, 1.69309, -1.22801, -1.54124, -0.901214, -1.19998, 1.2278, -1.30252, 0.0585904, -0.00726971, -0.0104783, -0.010734, -0.137321, 8.81531e-05, -0.000511289, 3.15376, 66.4691, 33.2609, 5.57739, 2.37598, 4.04819, -0.0228162, -0.0022342, -0.0015077, 0.00356077, 0.00762277, -0.00432987, 0.00257429, 0.0616461, -0.031495, -0.0315805, -0.112, 0.147842, -0.0306633, 0.470549, -0.541677, 0.336773, -2.08258, -2.16676, -0.128599, 0.468994, -0.543399, 0.332957, -2.08345, -2.16351, -0.115493, -0.0148804, 0.0564869, 0.0288918, 0.0176687, 0.00179556, -0.0128085
0.10005, 1.69316, -1.22801, -1.54125, -0.90123, -1.20012, 1.2278, -1.30253, 0.062196, -0.00670306, -0.0114018, -0.0126738, -0.137257, 5.8752e-05, -0.00155622, 2.89191, 66.5445, 33.2966, 5.6488, 2.36957, 4.04819, 0.0101428, -0.0022897, -0.00146971, 0.00359295, 0.00768856, -0.00442963, 0.00257114, 0.0608371, -0.0340448, -0.032417, -0.114694, 0.149479, -0.0257384, 0.470534, -0.54162, 0.336802, -2.08254, -2.16679, -0.128557, 0.469017, -0.543391, 0.332945, -2.08342, -2.16357, -0.115278, -0.0151716, 0.0576399, 0.0294771, 0.0198641, 0.00398343, -0.0130028
0.10105, 1.69321, -1.22801, -1.54127, -0.901251, -1.20025, 1.2278, -1.30252, 0.0611902, -0.00453872, -0.0108159, -0.0158615, -0.137876, 0.000310423, 0.000424584, 2.77686, 66.5445, 33.4076, 5.79956, 2.38147, 4.04086, -0.0292249, -0.002352, -0.00143911, 0.00362422, 0.00775605, -0.00453396, 0.00258916, 0.0614154, -0.0344952, -0.031688, -0.115883, 0.153277, -0.0268462, 0.470519, -0.541563, 0.336831, -2.08249, -2.16682, -0.128514, 0.469034, -0.543389, 0.332933, -2.08341, -2.16362, -0.115052, -0.0154644, 0.0588012, 0.0300665, 0.0200703, 0.00448163, -0.0117971
0.10205, 1.69327, -1.22802, -1.54128, -0.901264, -1.20039, 1.2278, -1.30252, 0.062116, -0.006512, -0.0117575, -0.0153673, -0.137598, -6.43282e-05, 0.000760777, 2.58643, 66.6913, 33.4473, 5.83527, 2.37598, 4.04819, -0.0420422, -0.00241576, -0.00140625, 0.00365948, 0.00781913, -0.00462879, 0.00260473, 0.0626917, -0.0349995, -0.0335876, -0.117454, 0.151744, -0.0279786, 0.470503, -0.541504, 0.336861, -2.08245, -2.16685, -0.128471, 0.469052, -0.543386, 0.332917, -2.0834, -2.16366, -0.114841, -0.0157588, 0.0599708, 0.0306599, 0.0202571, 0.00470457, -0.0132928
0.10305, 1.69332, -1.22802, -1.54129, -0.901289, -1.20053, 1.2278, -1.30252, 0.060883, -0.0034527, -0.00844801, -0.0186047, -0.137023, -0.00031416, 3.47188e-05, 2.47535, 66.6516, 33.4473, 6.02173, 2.35675, 4.05551, -0.0292249, -0.00247832, -0.00137472, 0.00368773, 0.0078797, -0.00473204, 0.00261342, 0.062439, -0.0358459, -0.0314139, -0.116061, 0.155028, -0.0248945, 0.470487, -0.541444, 0.336892, -2.08241, -2.16688, -0.128426, 0.469069, -0.543383, 0.332909, -2.08339, -2.16372, -0.114623, -0.0160548, 0.0611486, 0.0312573, 0.0208786, 0.00583473, -0.0105361
0.10405, 1.69338, -1.22803, -1.54131, -0.901304, -1.20067, 1.2278, -1.30252, 0.0595282, -0.00669303, -0.014984, -0.0174116, -0.137181, 6.18222e-05, 0.000736912, 2.24921, 66.8381, 33.5584, 6.0614, 2.36316, 4.04819, -0.0484509, -0.00254519, -0.0013414, 0.00372745, 0.00794526, -0.00482363, 0.00263083, 0.0663896, -0.0340323, -0.0357637, -0.12152, 0.15319, -0.0320565, 0.470471, -0.541383, 0.336923, -2.08236, -2.16691, -0.128381, 0.469087, -0.54338, 0.33289, -2.08337, -2.16376, -0.11441, -0.0163524, 0.0623344, 0.0318586, 0.0187554, 0.00371197, -0.0147855
0.10505, 1.69343, -1.22803, -1.54132, -0.901326, -1.2008, 1.2278, -1.30253, 0.0579607, -0.00364895, -0.0131019, -0.0151645, -0.136451, -0.000230057, -0.0016776, 2.17384, 66.8024, 33.5187, 6.17248, 2.33844, 4.05551, 0.0101428, -0.0026101, -0.00130963, 0.00375526, 0.00799856, -0.00492165, 0.0026362, 0.0681871, -0.0332198, -0.0333384, -0.118714, 0.155902, -0.0330675, 0.470455, -0.54132, 0.336955, -2.08231, -2.16694, -0.128334, 0.469104, -0.543376, 0.332883, -2.08335, -2.16382, -0.114205, -0.0166515, 0.0635282, 0.0324637, 0.0178025, 0.00272554, -0.0120385
0.10605, 1.69349, -1.22803, -1.54132, -0.901353, -1.20093, 1.2278, -1.30253, 0.0564572, -0.00244925, -0.0119862, -0.0174679, -0.131685, -0.000424641, -0.00111745, 1.98341, 66.8024, 33.483, 6.32324, 2.31372, 4.06283, 0.0101428, -0.00267287, -0.00127354, 0.00378463, 0.00805476, -0.0050206, 0.00264006, 0.0681594, -0.0338373, -0.0329045, -0.116924, 0.153993, -0.0319799, 0.470438, -0.541257, 0.336987, -2.08227, -2.16698, -0.128287, 0.469125, -0.543369, 0.332876, -2.08333, -2.16388, -0.113995, -0.0169521, 0.0647298, 0.0330727, 0.018135, 0.00391479, -0.0110159
0.10705, 1.69355, -1.22804, -1.54133, -0.901376, -1.20106, 1.2278, -1.30252, 0.0551981, -0.00507897, -0.00977669, -0.018165, -0.132333, -0.000283096, 0.00118853, 1.79694, 66.9492, 33.5187, 6.43433, 2.28351, 4.06283, -0.0420422, -0.00273911, -0.00123721, 0.0038232, 0.00811222, -0.00510583, 0.00265249, 0.0697387, -0.0339475, -0.0340943, -0.116009, 0.15268, -0.0350109, 0.470421, -0.541192, 0.337021, -2.08222, -2.16701, -0.128239, 0.469145, -0.543362, 0.33286, -2.08331, -2.16393, -0.113795, -0.0172541, 0.0659392, 0.0336855, 0.0179584, 0.00375296, -0.0118259
0.10805, 1.6936, -1.22804, -1.54134, -0.901404, -1.20119, 1.2278, -1.30252, 0.0533555, -0.00339532, -0.0104012, -0.0219185, -0.133239, -0.000188733, 0.00130151, 1.64619, 66.9492, 33.5187, 6.54541, 2.2652, 4.06283, -0.0557752, -0.00280608, -0.00120259, 0.00385471, 0.00816557, -0.00520047, 0.00266179, 0.0709159, -0.0337954, -0.0341427, -0.118731, 0.156283, -0.0352863, 0.470404, -0.541126, 0.337054, -2.08217, -2.16705, -0.12819, 0.469164, -0.543356, 0.332851, -2.08329, -2.16398, -0.11359, -0.0175576, 0.0671563, 0.0343019, 0.0175462, 0.00380953, -0.0114346
0.10905, 1.69365, -1.22804, -1.54134, -0.901434, -1.20132, 1.2278, -1.30252, 0.0538293, -0.00310578, -0.0068979, -0.0225125, -0.128969, -0.00039709, -0.000352627, 1.41608, 66.9849, 33.483, 6.69617, 2.23407, 4.07016, -0.0228162, -0.00287135, -0.00116458, 0.00388628, 0.00821867, -0.00529518, 0.00265942, 0.0702288, -0.0355271, -0.0332747, -0.114677, 0.153635, -0.030553, 0.470387, -0.541059, 0.337088, -2.08212, -2.16708, -0.12814, 0.469185, -0.543347, 0.332843, -2.08326, -2.16405, -0.113385, -0.0178624, 0.068381, 0.034922, 0.018979, 0.00565365, -0.00990504
0.11005, 1.69371, -1.22803, -1.54135, -0.901463, -1.20145, 1.2278, -1.30252, 0.0572746, 0.000522681, -0.00696105, -0.0242006, -0.131119, 0.000549074, -0.00121813, 1.18995, 66.8738, 33.5584, 6.77154, 2.22217, 4.04819, 0.00373412, -0.00293844, -0.0011277, 0.00391396, 0.00827245, -0.00539846, 0.00266513, 0.0697295, -0.0379673, -0.0318944, -0.116417, 0.160587, -0.0266376, 0.470369, -0.54099, 0.337123, -2.08207, -2.16712, -0.128089, 0.469206, -0.543339, 0.332839, -2.08324, -2.16412, -0.11317, -0.0181686, 0.0696132, 0.0355458, 0.0211439, 0.00727159, -0.00791708
0.11105, 1.69376, -1.22804, -1.54135, -0.9015, -1.20158, 1.2278, -1.30252, 0.0515296, -0.00225394, -0.00416209, -0.03047, -0.12888, 0.000874675, -0.00128658, 1.03919, 66.9849, 33.5187, 6.91833, 2.22858, 4.03445, 0.0165515, -0.00300664, -0.00108964, 0.00394892, 0.00832132, -0.00548706, 0.00266435, 0.0710201, -0.0372765, -0.0334991, -0.115453, 0.157166, -0.0256074, 0.470351, -0.540921, 0.337159, -2.08202, -2.16715, -0.128038, 0.469227, -0.54333, 0.332828, -2.08321, -2.16419, -0.112974, -0.0184762, 0.0708527, 0.036173, 0.020136, 0.00745467, -0.00905262
0.11205, 1.69376, -1.22804, -1.54135, -0.9015, -1.20158, 1.2278, -1.30252, 0.0515296, -0.00225394, -0.00416209, -0.03047, -0.12888, 0.000874675, -0.00128658, 1.03919, 66.9849, 33.5187, 6.91833, 2.22858, 4.03445, 0.0165515, -0.00308277, -0.00107305, 0.00397318, 0.00828527, -0.00547076, 0.00270321, 0.072361, -0.03755, -0.0339191, -0.115955, 0.158004, -0.0266275, 0.470332, -0.54085, 0.337195, -2.08197, -2.16719, -0.127985, 0.469227, -0.54333, 0.332828, -2.08321, -2.16419, -0.112974, -0.018785, 0.0720996, 0.0368038, 0.020136, 0.00745467, -0.00905262
0.11305, 1.69385, -1.22803, -1.54135, -0.901581, -1.20183, 1.2278, -1.30252, 0.0502476, 0.000107682, -0.00353374, -0.032064, -0.125165, 0.000931278, 0.00146293, 0.701973, 66.9492, 33.5584, 7.18018, 2.22217, 4.0198, -0.0557752, -0.00314261, -0.00101111, 0.00401057, 0.00841636, -0.00567704, 0.00266396, 0.0727285, -0.03796, -0.0328761, -0.114466, 0.158259, -0.0287772, 0.470313, -0.540778, 0.337232, -2.08192, -2.16723, -0.127932, 0.469271, -0.543309, 0.332817, -2.08315, -2.16433, -0.11257, -0.0190951, 0.0733536, 0.0374381, 0.0202896, 0.00820455, -0.00745816
0.11405, 1.6939, -1.22803, -1.54135, -0.901614, -1.20195, 1.2278, -1.30252, 0.049355, 0.00183336, -0.0016174, -0.0318827, -0.121039, 0.000349585, 0.000229398, 0.551216, 66.8738, 33.5187, 7.14447, 2.25879, 4.02713, -0.0356336, -0.00321436, -0.000973567, 0.00403696, 0.00845373, -0.00577373, 0.00266612, 0.0731015, -0.038361, -0.0315901, -0.111507, 0.156982, -0.0273613, 0.470294, -0.540705, 0.337269, -2.08186, -2.16726, -0.127878, 0.469291, -0.543301, 0.332816, -2.08312, -2.16441, -0.112376, -0.0194064, 0.0746148, 0.0380757, 0.0204425, 0.0089185, -0.00562091
0.11505, 1.69395, -1.22803, -1.54135, -0.901659, -1.20207, 1.2278, -1.30253, 0.0467151, 0.000385776, -0.00214848, -0.0346162, -0.119583, 0.000775591, -0.00177978, 0.360787, 66.9095, 33.5584, 7.21588, 2.24048, 4.01248, 0.0165515, -0.00328349, -0.000932523, 0.0040714, 0.00849563, -0.00585511, 0.00265742, 0.0748254, -0.0379414, -0.0332617, -0.112446, 0.15559, -0.026326, 0.470275, -0.54063, 0.337307, -2.08181, -2.1673, -0.127822, 0.469313, -0.543288, 0.332809, -2.08308, -2.16449, -0.112192, -0.0197189, 0.075883, 0.0387168, 0.0197143, 0.0087241, -0.00688407
0.11605, 1.69399, -1.22803, -1.54134, -0.901704, -1.20218, 1.2278, -1.30252, 0.0456213, -0.000671772, 0.000224268, -0.0349914, -0.116284, 0.0010596, 0.000508957, 0.134651, 66.9492, 33.483, 7.21588, 2.25879, 3.99783, -0.0292249, -0.00335148, -0.000888609, 0.00410413, 0.00853028, -0.00593501, 0.00265189, 0.0755531, -0.0385538, -0.0334491, -0.109183, 0.152685, -0.0281436, 0.470255, -0.540554, 0.337346, -2.08175, -2.16734, -0.127766, 0.469339, -0.543272, 0.332803, -2.08304, -2.16456, -0.112017, -0.0200326, 0.0771581, 0.0393611, 0.020034, 0.00933671, -0.00655654
0.11705, 1.69403, -1.22802, -1.54134, -0.901753, -1.20229, 1.22781, -1.30252, 0.0428529, 0.00131469, 6.95265e-05, -0.0384568, -0.108821, 0.00121502, 0.00132269, -0.0161054, 66.8738, 33.483, 7.21588, 2.2652, 3.9841, -0.0557752, -0.00342256, -0.00084875, 0.00413419, 0.00856792, -0.00602027, 0.00265015, 0.0755225, -0.0388603, -0.033099, -0.107257, 0.149715, -0.027318, 0.470235, -0.540477, 0.337386, -2.0817, -2.16738, -0.127709, 0.46936, -0.543259, 0.332801, -2.083, -2.16464, -0.111832, -0.0203474, 0.07844, 0.0400087, 0.0200391, 0.0106094, -0.00556824
0.11805, 1.69407, -1.22802, -1.54134, -0.901806, -1.20239, 1.22781, -1.30252, 0.039155, 0.000875933, -1.3638e-05, -0.0422238, -0.103924, 0.00108128, 0.000881823, -0.0914839, 66.8738, 33.483, 7.25555, 2.28992, 3.97677, -0.0557752, -0.00349573, -0.000809752, 0.00416938, 0.00860687, -0.00609628, 0.0026455, 0.0765073, -0.0384272, -0.034169, -0.106928, 0.146275, -0.0266647, 0.470215, -0.540398, 0.337426, -2.08164, -2.16742, -0.127651, 0.46938, -0.543246, 0.332794, -2.08296, -2.16471, -0.111654, -0.0206634, 0.0797287, 0.0406595, 0.0192892, 0.0110724, -0.00611274
0.11905, 1.69412, -1.22802, -1.54133, -0.901859, -1.20249, 1.22781, -1.30252, 0.0400373, -0.000251658, -5.40837e-05, -0.0431624, -0.103135, 0.00204328, -0.00161614, -0.317619, 66.9095, 33.483, 7.21588, 2.2771, 3.94107, 0.00373412, -0.00356391, -0.000762556, 0.00420301, 0.0086374, -0.00617015, 0.00262088, 0.0772869, -0.0396934, -0.0353735, -0.106952, 0.14596, -0.0232478, 0.470194, -0.540319, 0.337466, -2.08158, -2.16746, -0.127592, 0.469408, -0.543226, 0.332789, -2.0829, -2.16481, -0.111489, -0.0209804, 0.081024, 0.0413134, 0.0202224, 0.0118379, -0.00680861
0.12005, 1.69415, -1.22802, -1.54133, -0.901915, -1.20259, 1.22781, -1.30252, 0.0387748, -0.000168068, 0.00169344, -0.0479607, -0.103705, 0.00268462, -0.000568785, -0.468376, 66.9095, 33.4076, 7.21588, 2.28992, 3.90536, -0.00999879, -0.00363638, -0.000720676, 0.00423682, 0.00866788, -0.00624087, 0.00261127, 0.0776357, -0.0407022, -0.0356804, -0.107699, 0.147983, -0.021743, 0.470173, -0.540238, 0.337508, -2.08152, -2.1675, -0.127533, 0.46943, -0.54321, 0.332784, -2.08285, -2.16489, -0.111325, -0.0212984, 0.0823259, 0.0419705, 0.0209152, 0.0128869, -0.00654036
0.12105, 1.69419, -1.22801, -1.54132, -0.901973, -1.20268, 1.22781, -1.30252, 0.0379282, 0.00456617, 0.00193887, -0.0485461, -0.0997268, 0.00287481, -0.000650445, -0.619133, 66.8381, 33.3719, 7.21588, 2.30182, 3.87607, -0.00267457, -0.00370726, -0.000676407, 0.00426689, 0.00869415, -0.00631401, 0.00259559, 0.0779908, -0.0410778, -0.0332696, -0.105725, 0.150416, -0.0217063, 0.470152, -0.540155, 0.33755, -2.08146, -2.16755, -0.127472, 0.469455, -0.543191, 0.332785, -2.08279, -2.16498, -0.111162, -0.0216174, 0.0836343, 0.0426306, 0.0210774, 0.013493, -0.00356647
0.12205, 1.69422, -1.228, -1.54131, -0.902029, -1.20278, 1.22782, -1.30252, 0.035723, 0.00823708, 0.00210882, -0.0471803, -0.0965965, 0.00323897, 7.50059e-05, -0.694511, 66.7627, 33.3362, 7.14447, 2.31372, 3.84036, -0.0164075, -0.00378186, -0.000634764, 0.00429433, 0.0087133, -0.00638897, 0.00258808, 0.0798311, -0.0401944, -0.0311585, -0.103027, 0.152358, -0.0258295, 0.47013, -0.540072, 0.337592, -2.0814, -2.16759, -0.12741, 0.469476, -0.543175, 0.332787, -2.08275, -2.16506, -0.111004, -0.0219375, 0.084949, 0.0432937, 0.0200263, 0.012631, -0.00107531
0.12305, 1.69426, -1.22799, -1.5413, -0.9021, -1.20287, 1.22782, -1.30251, 0.035997, 0.0140476, 0.00315488, -0.0528944, -0.0948289, 0.00426164, 0.00198279, -0.845268, 66.6913, 33.2609, 7.21588, 2.33844, 3.7836, -0.0685925, -0.00385169, -0.000586457, 0.00432409, 0.00873591, -0.00646513, 0.00256834, 0.0784445, -0.0423769, -0.0285216, -0.103146, 0.158557, -0.022561, 0.470108, -0.539987, 0.337635, -2.08134, -2.16763, -0.127348, 0.469504, -0.543153, 0.332789, -2.0827, -2.16516, -0.110841, -0.0222584, 0.08627, 0.0439598, 0.0219344, 0.0150127, 0.00234002
0.12405, 1.69429, -1.22798, -1.5413, -0.902166, -1.20296, 1.22783, -1.30252, 0.035076, 0.0133803, 0.0035023, -0.0576908, -0.0936941, 0.00392616, 0.000338522, -0.960319, 66.6913, 33.3362, 7.18018, 2.36957, 3.7543, -0.0420422, -0.00392898, -0.000543902, 0.0043575, 0.00876117, -0.00653803, 0.0025544, 0.0785901, -0.0433591, -0.0298807, -0.105305, 0.158056, -0.0181308, 0.470086, -0.5399, 0.337679, -2.08127, -2.16768, -0.127284, 0.469526, -0.543136, 0.332787, -2.08264, -2.16525, -0.110677, -0.0225803, 0.0875972, 0.0446288, 0.0225497, 0.016448, 0.00161316
0.12505, 1.69432, -1.22796, -1.5413, -0.902243, -1.20304, 1.22783, -1.30252, 0.033051, 0.0156, -7.18421e-06, -0.0639018, -0.0881518, 0.0036686, -0.00146974, -1.15075, 66.5802, 33.4473, 7.25555, 2.39429, 3.72592, 0.00373412, -0.00400077, -0.000496799, 0.00438827, 0.00879217, -0.00661539, 0.00252497, 0.0784825, -0.0438118, -0.031047, -0.108982, 0.157194, -0.013823, 0.470063, -0.539813, 0.337724, -2.08121, -2.16772, -0.127219, 0.469552, -0.543113, 0.332789, -2.08257, -2.16536, -0.110502, -0.0229031, 0.0889305, 0.0453006, 0.0226331, 0.0180872, 0.00113528
0.12605, 1.69435, -1.22794, -1.54129, -0.902314, -1.20312, 1.22784, -1.30252, 0.029648, 0.0121876, 0.00417218, -0.0666692, -0.0840667, 0.0034969, -0.000979821, -1.26183, 66.5445, 33.4076, 7.25555, 2.41809, 3.69754, 0.00373412, -0.00407566, -0.000451859, 0.00441524, 0.00880737, -0.00668652, 0.00250931, 0.0792341, -0.0440386, -0.0322578, -0.105167, 0.15112, -0.0128897, 0.47004, -0.539724, 0.337769, -2.08114, -2.16777, -0.127154, 0.469576, -0.543092, 0.332794, -2.08252, -2.16546, -0.110349, -0.0232267, 0.0902698, 0.0459753, 0.0225207, 0.0188812, 0.000490829
0.12705, 1.69437, -1.22793, -1.54128, -0.902396, -1.2032, 1.22784, -1.30251, 0.0241244, 0.0144371, 0.00225238, -0.0712665, -0.080728, 0.0036876, 0.00104221, -1.37688, 66.5802, 33.4473, 7.36664, 2.43732, 3.66092, -0.0420422, -0.00415046, -0.000406109, 0.00444734, 0.00882695, -0.00675126, 0.00249083, 0.081317, -0.0422763, -0.0324026, -0.106785, 0.151965, -0.017269, 0.470017, -0.539634, 0.337815, -2.08108, -2.16781, -0.127088, 0.4696, -0.543069, 0.332796, -2.08245, -2.16555, -0.110197, -0.0235512, 0.0916151, 0.0466527, 0.0205122, 0.0181176, 0.000759244
0.12805, 1.69439, -1.2279, -1.54128, -0.902468, -1.20327, 1.22785, -1.30251, 0.019097, 0.0188057, 0.00330083, -0.0712922, -0.0823369, 0.00350956, 0.000694808, -1.45226, 66.5048, 33.5187, 7.33093, 2.44922, 3.63254, -0.0420422, -0.00423053, -0.000365383, 0.00447345, 0.00884049, -0.00682002, 0.00248139, 0.0846697, -0.0396272, -0.0296661, -0.106179, 0.158199, -0.0230957, 0.469994, -0.539542, 0.337862, -2.08101, -2.16786, -0.12702, 0.469619, -0.54305, 0.332803, -2.0824, -2.16564, -0.110046, -0.0238765, 0.0929661, 0.0473329, 0.0177753, 0.0156269, 0.00370806
0.12905, 1.69441, -1.22789, -1.54127, -0.902555, -1.20333, 1.22785, -1.30252, 0.0154327, 0.0222188, 0.00488726, -0.0740554, -0.0786065, 0.00284833, -0.000994855, -1.52764, 66.5445, 33.5584, 7.40631, 2.44281, 3.6188, -0.00267457, -0.00430569, -0.000319812, 0.00450402, 0.00885616, -0.00687823, 0.00245024, 0.0854852, -0.0389879, -0.0278064, -0.104617, 0.159127, -0.0217742, 0.46997, -0.539449, 0.337909, -2.08094, -2.16791, -0.126952, 0.469642, -0.543025, 0.332807, -2.08232, -2.16575, -0.109904, -0.0242025, 0.094323, 0.0480157, 0.0169154, 0.0158679, 0.00612184
0.13005, 1.69443, -1.22786, -1.54126, -0.902648, -1.2034, 1.22785, -1.30252, 0.0145186, 0.0220759, 0.00431822, -0.0799267, -0.0763967, 0.00217016, -0.000900595, -1.6784, 66.5802, 33.6695, 7.51739, 2.44922, 3.61148, 0.00373412, -0.00438058, -0.000272446, 0.00453548, 0.00887969, -0.00694264, 0.00241909, 0.0852406, -0.0401035, -0.0293742, -0.107844, 0.15828, -0.0182474, 0.469946, -0.539355, 0.337957, -2.08087, -2.16796, -0.126882, 0.469667, -0.542998, 0.332811, -2.08224, -2.16586, -0.109747, -0.0245292, 0.0956855, 0.0487012, 0.0176366, 0.0177616, 0.00526131
0.13105, 1.69445, -1.22784, -1.54125, -0.902733, -1.20346, 1.22785, -1.30252, 0.0151169, 0.0221817, 0.00677338, -0.0830448, -0.0700943, 0.00226057, -9.17696e-05, -1.75378, 66.6159, 33.6695, 7.44202, 2.44922, 3.58951, -0.00999879, -0.00445932, -0.000228347, 0.00456027, 0.00888388, -0.00700373, 0.0023988, 0.0837684, -0.0425881, -0.0293673, -0.104757, 0.154328, -0.0135533, 0.469921, -0.539259, 0.338006, -2.0808, -2.168, -0.126812, 0.469689, -0.542974, 0.332822, -2.08218, -2.16596, -0.109612, -0.0248567, 0.0970535, 0.0493892, 0.0197373, 0.0206918, 0.00610417
0.13205, 1.69446, -1.22782, -1.54124, -0.902835, -1.20352, 1.22786, -1.30251, 0.0157161, 0.0195847, 0.00672427, -0.0874923, -0.0656695, 0.00228694, 0.00632383, -1.82915, 66.7627, 33.7449, 7.59277, 2.45563, 3.56845, -0.0557752, -0.00453763, -0.000182227, 0.00459069, 0.00889774, -0.00706693, 0.00237642, 0.0830394, -0.0447549, -0.032026, -0.105632, 0.149499, -0.0150583, 0.469896, -0.539162, 0.338055, -2.08073, -2.16805, -0.126741, 0.469712, -0.542948, 0.332828, -2.08211, -2.16607, -0.109463, -0.0251848, 0.0984271, 0.0500798, 0.0214462, 0.0232876, 0.00421246
0.13305, 1.69447, -1.22779, -1.54122, -0.902932, -1.20358, 1.22786, -1.30251, 0.0147655, 0.0227618, 0.00756809, -0.0881397, -0.061628, 0.0026097, 0.00362334, -1.97991, 66.8381, 33.7806, 7.62848, 2.44281, 3.53915, -0.0292249, -0.00461394, -0.000134025, 0.00461551, 0.00890542, -0.00712986, 0.00234107, 0.0835181, -0.0452565, -0.0303381, -0.103166, 0.150386, -0.0121559, 0.469871, -0.539064, 0.338106, -2.08066, -2.1681, -0.126669, 0.469737, -0.542919, 0.33284, -2.08203, -2.16619, -0.109322, -0.0255136, 0.099806, 0.0507728, 0.0217039, 0.0239596, 0.00648215
0.13405, 1.69447, -1.22777, -1.5412, -0.903031, -1.20364, 1.22786, -1.30251, 0.0112501, 0.0206682, 0.0150105, -0.0892408, -0.0591947, 0.00251969, 0.0024713, -2.01562, 67.0959, 33.6695, 7.5531, 2.44281, 3.5181, -0.0228162, -0.00469514, -8.9296e-05, 0.00464324, 0.00890427, -0.00718215, 0.00231259, 0.0843981, -0.0454305, -0.0293849, -0.0962914, 0.146676, -0.0102099, 0.469845, -0.538964, 0.338156, -2.08059, -2.16815, -0.126595, 0.469758, -0.542893, 0.33285, -2.08195, -2.1663, -0.1092, -0.025843, 0.10119, 0.0514683, 0.0216213, 0.024339, 0.00797742
0.13505, 1.69447, -1.22774, -1.54118, -0.903143, -1.2037, 1.22787, -1.30252, 0.00885645, 0.0229427, 0.0149275, -0.0968488, -0.0536028, 0.00327349, 0.000171937, -2.05529, 67.207, 33.7806, 7.62848, 2.46112, 3.47507, 0.0229602, -0.0047774, -4.41687e-05, 0.00467022, 0.00891344, -0.00725167, 0.00227739, 0.0834806, -0.04679, -0.0294125, -0.0966789, 0.146253, -0.00293029, 0.46982, -0.538862, 0.338208, -2.08052, -2.16821, -0.126521, 0.469779, -0.542868, 0.33286, -2.08187, -2.16642, -0.109049, -0.026173, 0.10258, 0.0521662, 0.0226156, 0.0266999, 0.00874567
0.13605, 1.69449, -1.22772, -1.54118, -0.903249, -1.20375, 1.22787, -1.30251, 0.0105873, 0.0204071, 0.0108507, -0.0999036, -0.0527194, 0.00272486, 0.00268699, -2.24175, 67.5006, 33.9313, 7.59277, 2.44922, 3.46042, -0.0420422, -0.00485803, 4.70365e-06, 0.00470387, 0.00892396, -0.00730217, 0.00225008, 0.0841532, -0.0480605, -0.0333752, -0.10276, 0.144266, -0.00375906, 0.469793, -0.53876, 0.33826, -2.08044, -2.16826, -0.126446, 0.469804, -0.542837, 0.332865, -2.08179, -2.16653, -0.108913, -0.0265036, 0.103974, 0.0528664, 0.0234302, 0.0280936, 0.00538785
0.13705, 1.69448, -1.22768, -1.54116, -0.903364, -1.2038, 1.22787, -1.30251, 0.00915521, 0.0288418, 0.0108708, -0.103106, -0.0491445, 0.0023252, 0.00215234, -2.3211, 67.5006, 33.967, 7.59277, 2.47394, 3.44668, -0.0484509, -0.00493979, 4.98124e-05, 0.0047234, 0.00892889, -0.00737578, 0.00221818, 0.0838158, -0.0484329, -0.029278, -0.102545, 0.150703, -0.00194749, 0.469767, -0.538656, 0.338313, -2.08036, -2.16831, -0.12637, 0.469825, -0.542809, 0.332885, -2.08171, -2.16665, -0.10876, -0.0268347, 0.105374, 0.0535689, 0.0236185, 0.029219, 0.010176
0.13805, 1.69448, -1.22764, -1.54114, -0.903485, -1.20385, 1.22787, -1.30251, 0.00711942, 0.0308574, 0.0129457, -0.10573, -0.0494553, 0.00236394, 0.00203626, -2.3568, 67.5363, 34.0424, 7.59277, 2.46753, 3.42471, -0.0621838, -0.00502071, 9.64807e-05, 0.00474571, 0.00893105, -0.00743955, 0.0021814, 0.0849003, -0.048464, -0.0280791, -0.102136, 0.153947, -0.00182516, 0.46974, -0.538551, 0.338366, -2.08029, -2.16836, -0.126293, 0.469847, -0.542778, 0.332903, -2.08163, -2.16678, -0.10862, -0.0271662, 0.106779, 0.0542736, 0.023409, 0.0293735, 0.0118961
0.13905, 1.69448, -1.22761, -1.54112, -0.903604, -1.20389, 1.22787, -1.3025, 0.00350185, 0.0310213, 0.014592, -0.109936, -0.0509287, 0.00211849, 0.00142706, -2.43218, 67.7585, 34.1178, 7.5531, 2.49225, 3.41006, -0.0621838, -0.0051044, 0.000143291, 0.00477312, 0.00893267, -0.00749464, 0.00214849, 0.0866818, -0.0477365, -0.0282836, -0.103555, 0.156273, -0.00193612, 0.469713, -0.538444, 0.338421, -2.08021, -2.16842, -0.126215, 0.469868, -0.542748, 0.332916, -2.08154, -2.1669, -0.108487, -0.0274983, 0.108188, 0.0549806, 0.0224144, 0.0290257, 0.0121495
0.14005, 1.69446, -1.22756, -1.54109, -0.903736, -1.20394, 1.22788, -1.30251, -0.00183514, 0.0366064, 0.0199767, -0.113773, -0.0480648, 0.00192095, -0.00167523, -2.39648, 67.7585, 34.1535, 7.5531, 2.52887, 3.39633, 0.0101428, -0.00518651, 0.000190141, 0.00479031, 0.00892881, -0.00756635, 0.00209963, 0.0872138, -0.0470161, -0.0238409, -0.0987607, 0.160128, 0.00152115, 0.469685, -0.538336, 0.338476, -2.08013, -2.16847, -0.126136, 0.46989, -0.542716, 0.33294, -2.08145, -2.16705, -0.108345, -0.0278308, 0.109602, 0.0556897, 0.0215581, 0.029207, 0.0171867
0.14105, 1.69445, -1.22752, -1.54107, -0.903869, -1.20398, 1.22788, -1.3025, -0.00381757, 0.0380255, 0.0213121, -0.120066, -0.044703, 0.00236571, 0.00136371, -2.43218, 67.8696, 34.3043, 7.5531, 2.53528, 3.36703, -0.0557752, -0.00527086, 0.000237245, 0.00481639, 0.00893035, -0.00762504, 0.00206599, 0.0867279, -0.0482698, -0.0237425, -0.0987151, 0.160375, 0.00264457, 0.469658, -0.538226, 0.338531, -2.08005, -2.16853, -0.126055, 0.469912, -0.542684, 0.332955, -2.08137, -2.16717, -0.108207, -0.0281637, 0.111021, 0.0564009, 0.0224658, 0.0311485, 0.0180292
0.14205, 1.69443, -1.22748, -1.54105, -0.904008, -1.20402, 1.22788, -1.30251, -0.00800485, 0.0399358, 0.019295, -0.127843, -0.0433431, 0.00157714, -0.000282219, -2.3568, 67.941, 34.451, 7.5531, 2.5719, 3.36703, -0.0228162, -0.00535776, 0.000280986, 0.00484007, 0.00893446, -0.00768818, 0.00202467, 0.0877009, -0.0475602, -0.0247398, -0.103959, 0.162386, 0.0052897, 0.469629, -0.538115, 0.338588, -2.07997, -2.16858, -0.125974, 0.46993, -0.542654, 0.332973, -2.08127, -2.16731, -0.108061, -0.028497, 0.112445, 0.0571142, 0.0214267, 0.0317348, 0.0176303
0.14305, 1.69442, -1.22744, -1.54103, -0.904149, -1.20405, 1.22788, -1.3025, -0.0105913, 0.0405781, 0.0187936, -0.132817, -0.0403793, 0.00105142, 0.00152928, -2.43218, 68.0521, 34.5621, 7.51739, 2.56, 3.36703, -0.0685925, -0.00544049, 0.000331053, 0.00486774, 0.00893426, -0.00773773, 0.00197879, 0.0883118, -0.047644, -0.0256247, -0.105914, 0.161676, 0.00488638, 0.469601, -0.538002, 0.338645, -2.07989, -2.16864, -0.125892, 0.469953, -0.542616, 0.332989, -2.08117, -2.16744, -0.107933, -0.0288307, 0.113873, 0.0578295, 0.0211698, 0.0327011, 0.0173746
0.14405, 1.69441, -1.22741, -1.541, -0.904297, -1.20409, 1.22789, -1.3025, -0.0164846, 0.0409993, 0.0242257, -0.13755, -0.0393463, 0.00148084, 0.000290042, -2.47185, 68.1631, 34.5621, 7.51739, 2.5719, 3.34598, -0.0484509, -0.00552398, 0.000381235, 0.0048937, 0.00892741, -0.00778745, 0.00192601, 0.0897356, -0.046826, -0.0242496, -0.102157, 0.162276, 0.00624483, 0.469572, -0.537889, 0.338703, -2.07981, -2.1687, -0.125809, 0.469977, -0.542579, 0.333007, -2.08106, -2.16759, -0.107813, -0.0291647, 0.115306, 0.0585467, 0.0201316, 0.0324845, 0.0192566
0.14505, 1.69438, -1.22736, -1.54097, -0.904454, -1.20411, 1.22788, -1.3025, -0.0196693, 0.0438655, 0.0262289, -0.141538, -0.0388489, 0.000207335, -0.00172704, -2.43218, 68.1631, 34.6375, 7.5531, 2.59662, 3.36703, 0.00373412, -0.00561027, 0.000425884, 0.00491645, 0.00892718, -0.00784273, 0.00187639, 0.0905996, -0.0463363, -0.0228336, -0.102991, 0.165152, 0.00851724, 0.469543, -0.537773, 0.338761, -2.07972, -2.16875, -0.125725, 0.469995, -0.542543, 0.333028, -2.08095, -2.16773, -0.107678, -0.029499, 0.116743, 0.0592659, 0.019401, 0.0328332, 0.0212567
0.14605, 1.69435, -1.22733, -1.54095, -0.904607, -1.20414, 1.22788, -1.3025, -0.0224119, 0.0413687, 0.0245771, -0.148509, -0.0338323, -0.000133044, -0.00137943, -2.50756, 68.3496, 34.7129, 7.51739, 2.60852, 3.37436, 0.0101428, -0.00569702, 0.000474617, 0.00494572, 0.0089232, -0.0078863, 0.0018248, 0.0908418, -0.0469025, -0.0262361, -0.10603, 0.159973, 0.0113862, 0.469513, -0.537657, 0.338821, -2.07964, -2.16881, -0.12564, 0.470016, -0.542506, 0.333044, -2.08083, -2.16787, -0.107558, -0.0298335, 0.118184, 0.059987, 0.0195129, 0.034582, 0.0185617
0.14705, 1.69432, -1.22729, -1.54092, -0.904757, -1.20417, 1.22789, -1.3025, -0.0263471, 0.037496, 0.0259236, -0.149775, -0.0259527, 0.00041993, 0.000545402, -2.50756, 68.4964, 34.824, 7.40631, 2.62775, 3.36062, -0.0292249, -0.0057911, 0.000517323, 0.00497512, 0.00891598, -0.00792979, 0.00179146, 0.0923373, -0.0465633, -0.0284703, -0.101577, 0.150775, 0.00891508, 0.469484, -0.537538, 0.338881, -2.07955, -2.16887, -0.125554, 0.470032, -0.542474, 0.333059, -2.08074, -2.16799, -0.107439, -0.0301683, 0.119629, 0.0607099, 0.0188146, 0.0348791, 0.0168589
0.14805, 1.69429, -1.22724, -1.54089, -0.904924, -1.20419, 1.22789, -1.30249, -0.0276169, 0.043949, 0.0261161, -0.15438, -0.0281781, 0.000279954, 0.00135217, -2.58294, 68.3853, 34.824, 7.44202, 2.63324, 3.36062, -0.0557752, -0.00587743, 0.000565057, 0.00499241, 0.00890411, -0.007988, 0.00173832, 0.0928843, -0.0467982, -0.0256654, -0.104553, 0.160278, 0.0089352, 0.469453, -0.537419, 0.338941, -2.07946, -2.16893, -0.125467, 0.470052, -0.542435, 0.333088, -2.08063, -2.16814, -0.107312, -0.0305034, 0.121079, 0.0614347, 0.0188492, 0.0353739, 0.0202614
0.14905, 1.69425, -1.2272, -1.54086, -0.905093, -1.20421, 1.22789, -1.30249, -0.0347793, 0.0440499, 0.0291875, -0.156884, -0.026338, 0.000186636, -0.000315341, -2.65832, 68.4567, 34.9708, 7.44202, 2.65796, 3.36062, -0.0228162, -0.00596945, 0.000609584, 0.00502154, 0.00889896, -0.0080301, 0.00168789, 0.0958557, -0.0443477, -0.0250005, -0.101741, 0.159544, 0.00664991, 0.469423, -0.537298, 0.339003, -2.07938, -2.16899, -0.125378, 0.470069, -0.542399, 0.333105, -2.08051, -2.16828, -0.107192, -0.0308386, 0.122533, 0.0621611, 0.0162139, 0.0336857, 0.021267
0.15005, 1.6942, -1.22716, -1.54082, -0.905261, -1.20423, 1.22788, -1.30249, -0.0399361, 0.0441743, 0.0317955, -0.158757, -0.0244078, -0.000112935, 3.00693e-05, -2.7337, 68.5321, 34.9708, 7.33093, 2.66986, 3.36703, -0.0292249, -0.00606245, 0.000653872, 0.00504731, 0.00888129, -0.00806746, 0.0016396, 0.0981838, -0.0427736, -0.0245195, -0.0994686, 0.158716, 0.0035858, 0.469392, -0.537175, 0.339065, -2.07929, -2.16905, -0.125289, 0.470085, -0.542362, 0.333126, -2.0804, -2.16842, -0.107089, -0.031174, 0.12399, 0.0628893, 0.0144215, 0.0327035, 0.0221633
0.15105, 1.69415, -1.22712, -1.54079, -0.905446, -1.20425, 1.22789, -1.30249, -0.0442868, 0.0414373, 0.0308936, -0.170498, -0.0193196, 0.000162069, 0.00436953, -2.80907, 68.6035, 35.0858, 7.36664, 2.70099, 3.36062, -0.0164075, -0.00615591, 0.000698533, 0.00507785, 0.00887255, -0.00810604, 0.00158549, 0.0976628, -0.0437618, -0.0283281, -0.103292, 0.153899, 0.00544162, 0.469361, -0.537051, 0.339128, -2.0792, -2.16911, -0.125199, 0.470101, -0.542324, 0.333143, -2.08028, -2.16857, -0.106975, -0.0315095, 0.125452, 0.0636192, 0.0149075, 0.0353063, 0.0191799
0.15205, 1.6941, -1.22707, -1.54075, -0.905625, -1.20426, 1.22789, -1.30248, -0.0497316, 0.0473899, 0.0331517, -0.173458, -0.0158946, 0.000108046, 0.00426594, -2.92413, 68.4567, 35.0858, 7.29126, 2.74402, 3.36062, -0.0420422, -0.00624971, 0.000742565, 0.00509775, 0.00885254, -0.00815321, 0.00153641, 0.0990707, -0.0423061, -0.0246624, -0.100407, 0.157885, 0.00368119, 0.469329, -0.536926, 0.339191, -2.07911, -2.16918, -0.125108, 0.470116, -0.542286, 0.333171, -2.08017, -2.16872, -0.106863, -0.0318451, 0.126917, 0.0643506, 0.0133227, 0.0347601, 0.0233626
0.15305, 1.69404, -1.22702, -1.54071, -0.90582, -1.20427, 1.22789, -1.30248, -0.0540364, 0.047794, 0.0369269, -0.180388, -0.0165919, 0.000614565, 0.00858584, -3.03521, 68.4567, 35.1215, 7.29126, 2.76233, 3.34598, -0.0621838, -0.00634437, 0.000786093, 0.00512242, 0.00883384, -0.00819419, 0.0014798, 0.0998708, -0.0423962, -0.0242704, -0.100104, 0.160336, 0.00159224, 0.469298, -0.536799, 0.339256, -2.07902, -2.16924, -0.125016, 0.470131, -0.542247, 0.333195, -2.08005, -2.16887, -0.106756, -0.0321808, 0.128386, 0.0650837, 0.0131289, 0.0353859, 0.0243569
0.15405, 1.69398, -1.22697, -1.54066, -0.906031, -1.20428, 1.22789, -1.30248, -0.0573027, 0.0468779, 0.0411271, -0.189336, -0.0133678, 0.000952245, 0.00634196, -3.15026, 68.3853, 35.0858, 7.44202, 2.79346, 3.33133, -0.0621838, -0.0064375, 0.000830336, 0.00514629, 0.00881364, -0.00823404, 0.00141864, 0.098857, -0.0440345, -0.024861, -0.098994, 0.158344, 0.0104087, 0.469265, -0.53667, 0.339321, -2.07892, -2.1693, -0.124922, 0.470145, -0.542205, 0.333221, -2.07992, -2.16903, -0.106651, -0.0325166, 0.129859, 0.0658182, 0.0143708, 0.0380256, 0.0246103
0.15505, 1.6939, -1.22693, -1.54062, -0.906238, -1.20429, 1.22789, -1.30248, -0.065041, 0.0452824, 0.0449033, -0.195291, -0.0113708, 0.00063483, 0.00275874, -3.30102, 68.3496, 35.1572, 7.44202, 2.83649, 3.33133, -0.00999879, -0.00653655, 0.000870254, 0.00517288, 0.00879824, -0.0082734, 0.00135834, 0.101038, -0.0421652, -0.0254196, -0.0973803, 0.155939, 0.0129177, 0.469233, -0.53654, 0.339387, -2.07883, -2.16937, -0.124828, 0.470156, -0.542167, 0.333244, -2.07979, -2.16919, -0.10654, -0.0328524, 0.131335, 0.0665543, 0.0122379, 0.0373515, 0.024521
0.15605, 1.69382, -1.22687, -1.54056, -0.906453, -1.20429, 1.22789, -1.30248, -0.0688952, 0.0489414, 0.0481781, -0.201687, -0.00843296, 0.000694487, 0.00266154, -3.4121, 68.2385, 35.0858, 7.51739, 2.84198, 3.324, -0.0228162, -0.00663374, 0.000911341, 0.00519405, 0.00876922, -0.00831034, 0.00129635, 0.100846, -0.042562, -0.0232913, -0.0957845, 0.158419, 0.0161101, 0.4692, -0.536409, 0.339453, -2.07873, -2.16943, -0.124733, 0.470167, -0.542127, 0.333274, -2.07966, -2.16935, -0.106446, -0.0331882, 0.132814, 0.0672918, 0.0123802, 0.0387176, 0.0273771
0.15705, 1.69374, -1.22683, -1.54051, -0.906673, -1.20429, 1.22789, -1.30247, -0.0714937, 0.0481264, 0.0496126, -0.21039, -0.00610868, -7.95432e-05, 0.00791425, -3.52715, 68.2742, 35.0461, 7.62848, 2.84198, 3.33865, -0.0557752, -0.00673478, 0.000949288, 0.00521983, 0.00874352, -0.00834083, 0.00124597, 0.100245, -0.0437217, -0.024901, -0.0984308, 0.156929, 0.0162421, 0.469167, -0.536276, 0.33952, -2.07864, -2.1695, -0.124636, 0.470175, -0.542088, 0.333299, -2.07954, -2.1695, -0.106352, -0.033524, 0.134297, 0.0680307, 0.0131202, 0.0410934, 0.0265804
0.15805, 1.69365, -1.22678, -1.54046, -0.906898, -1.20429, 1.22789, -1.30246, -0.0758542, 0.049455, 0.0469336, -0.215382, -0.00511566, 0.000489506, 0.00633464, -3.67791, 68.2385, 35.1572, 7.70386, 2.86029, 3.324, -0.0685925, -0.00683873, 0.000985686, 0.00524657, 0.00872052, -0.00837449, 0.00119544, 0.102584, -0.0423842, -0.0259926, -0.101982, 0.159141, 0.015756, 0.469133, -0.536142, 0.339588, -2.07854, -2.16956, -0.124539, 0.470181, -0.542051, 0.333323, -2.07942, -2.16965, -0.106251, -0.0338597, 0.135784, 0.0687709, 0.011504, 0.0403788, 0.0259275
0.15905, 1.69354, -1.22673, -1.54039, -0.907137, -1.20429, 1.22789, -1.30246, -0.0823268, 0.0505054, 0.0538547, -0.224379, -0.00368421, 0.0013775, 0.00763122, -3.82867, 68.1989, 35.0461, 7.85065, 2.86029, 3.29562, -0.0228162, -0.00693915, 0.00102405, 0.00526678, 0.00868462, -0.00840822, 0.00112495, 0.102657, -0.0425666, -0.0242583, -0.0982135, 0.160604, 0.0185492, 0.469099, -0.536006, 0.339657, -2.07844, -2.16963, -0.124441, 0.470189, -0.54201, 0.333356, -2.07929, -2.16982, -0.106166, -0.0341954, 0.137273, 0.0695125, 0.0114279, 0.0415431, 0.0283647
0.16005, 1.69344, -1.22669, -1.54032, -0.907376, -1.2043, 1.22789, -1.30245, -0.0863839, 0.0482893, 0.0600035, -0.230798, -0.00405172, 0.000918332, 0.00604202, -4.0191, 68.2742, 35.0104, 7.85065, 2.89783, 3.29562, -0.0292249, -0.00704366, 0.0010613, 0.00529303, 0.00865418, -0.00843766, 0.00106482, 0.103104, -0.0430073, -0.0245973, -0.0965544, 0.159513, 0.0234571, 0.469065, -0.535869, 0.339727, -2.07834, -2.1697, -0.124341, 0.470195, -0.54197, 0.333382, -2.07915, -2.16998, -0.106076, -0.0345309, 0.138766, 0.0702554, 0.0115424, 0.0426689, 0.0286898
0.16105, 1.69334, -1.22663, -1.54026, -0.90763, -1.20429, 1.22789, -1.30245, -0.094531, 0.0530945, 0.061051, -0.235548, -0.00238043, 0.000612221, 0.00287047, -4.13018, 68.0917, 35.1215, 7.85065, 2.88501, 3.29562, 0.0165515, -0.00714653, 0.0010972, 0.00531144, 0.00862774, -0.00848192, 0.000994429, 0.105882, -0.039988, -0.0221822, -0.0963341, 0.163813, 0.0225117, 0.469031, -0.53573, 0.339797, -2.07824, -2.16977, -0.124241, 0.4702, -0.541928, 0.333417, -2.07901, -2.17016, -0.105968, -0.0348663, 0.140262, 0.0709994, 0.00840574, 0.0409198, 0.031493
0.16205, 1.69323, -1.22659, -1.54019, -0.907882, -1.20429, 1.22789, -1.30245, -0.0984086, 0.0508701, 0.0656371, -0.241613, -0.00102428, 0.00118804, 0.00231706, -4.32061, 68.2742, 35.0858, 7.81494, 2.8667, 3.27456, 0.0165515, -0.00725181, 0.00113561, 0.00533869, 0.00858593, -0.00850259, 0.000925231, 0.10645, -0.0405561, -0.0229565, -0.0942031, 0.161891, 0.0260876, 0.468996, -0.53559, 0.339868, -2.07814, -2.16984, -0.12414, 0.470207, -0.541886, 0.333444, -2.07887, -2.17033, -0.105899, -0.0352016, 0.141761, 0.0717447, 0.00863572, 0.0420045, 0.0313679
0.16305, 1.69311, -1.22653, -1.54011, -0.908151, -1.20428, 1.22789, -1.30244, -0.106951, 0.0503412, 0.0696718, -0.250767, -0.000769479, 0.00133456, 0.00330533, -4.39599, 68.1631, 35.1572, 7.85065, 2.8667, 3.25992, -0.0228162, -0.00735631, 0.00117205, 0.00535724, 0.00855133, -0.00854452, 0.000857431, 0.108301, -0.0388568, -0.0231611, -0.0940571, 0.162499, 0.0255436, 0.468961, -0.535448, 0.33994, -2.07804, -2.16991, -0.124037, 0.470211, -0.541843, 0.33348, -2.07874, -2.17051, -0.105799, -0.0355366, 0.143262, 0.0724911, 0.00667643, 0.0416342, 0.0316853
0.16405, 1.69299, -1.22648, -1.54003, -0.908423, -1.20428, 1.22789, -1.30243, -0.111036, 0.0524064, 0.0721419, -0.262132, 0.000100214, 0.00143224, 0.00290519, -4.58245, 68.1989, 35.1215, 7.85065, 2.84839, 3.24527, -0.0356336, -0.0074591, 0.00121277, 0.00537814, 0.00850716, -0.00857587, 0.000780003, 0.107486, -0.0398914, -0.0229295, -0.0965417, 0.165625, 0.0321267, 0.468925, -0.535305, 0.340012, -2.07793, -2.16998, -0.123934, 0.47022, -0.541797, 0.333515, -2.07859, -2.1707, -0.105721, -0.0358715, 0.144767, 0.0732387, 0.00735743, 0.0439585, 0.0327526
0.16505, 1.69285, -1.22644, -1.53994, -0.908707, -1.20428, 1.22789, -1.30243, -0.118785, 0.048144, 0.0761717, -0.268097, 0.000255442, 0.000683561, 0.00139491, -4.58245, 68.3496, 35.1215, 7.81494, 2.84198, 3.25259, -0.0164075, -0.00756666, 0.00124607, 0.00540129, 0.00846859, -0.00860199, 0.000703047, 0.110205, -0.0378197, -0.0250072, -0.0961535, 0.161887, 0.0321209, 0.468889, -0.53516, 0.340086, -2.07783, -2.17005, -0.123829, 0.470221, -0.541753, 0.333548, -2.07844, -2.17088, -0.10564, -0.0362061, 0.146274, 0.0739872, 0.00498699, 0.0430037, 0.0311019
0.16605, 1.69272, -1.22638, -1.53986, -0.909005, -1.20428, 1.22789, -1.30242, -0.122503, 0.0541094, 0.0764527, -0.276647, -0.000103609, 0.00150687, 0.000820221, -4.65783, 68.3853, 35.2326, 7.81494, 2.84839, 3.22421, -0.00999879, -0.00767209, 0.00128382, 0.00542245, 0.00843392, -0.0086436, 0.000619512, 0.110479, -0.0379565, -0.0228301, -0.0989208, 0.170153, 0.0352156, 0.468853, -0.535014, 0.34016, -2.07772, -2.17012, -0.123723, 0.470226, -0.541706, 0.333584, -2.07828, -2.17108, -0.10554, -0.0365405, 0.147784, 0.0747369, 0.00489452, 0.0439216, 0.0339556
0.16705, 1.69257, -1.22633, -1.53976, -0.909309, -1.20427, 1.22789, -1.30241, -0.130746, 0.0525489, 0.0832805, -0.286322, -0.00033384, 0.00127585, 0.00520645, -4.62212, 68.421, 35.308, 7.81494, 2.8548, 3.21689, -0.00999879, -0.00778121, 0.00131686, 0.00544209, 0.00839376, -0.00868174, 0.000542142, 0.111623, -0.0369279, -0.0227679, -0.0972393, 0.16987, 0.0332175, 0.468816, -0.534866, 0.340234, -2.07762, -2.17019, -0.123617, 0.470226, -0.541661, 0.333621, -2.07814, -2.17127, -0.105447, -0.0368746, 0.149297, 0.0754875, 0.00358919, 0.0442505, 0.0346274
0.16805, 1.69242, -1.22627, -1.53966, -0.909628, -1.20427, 1.22789, -1.3024, -0.138265, 0.0528198, 0.087417, -0.29392, 0.00334381, 0.000850564, 0.00487253, -4.62212, 68.5321, 35.1969, 7.85065, 2.87311, 3.21689, -0.0356336, -0.00788483, 0.0013555, 0.00545902, 0.00834611, -0.0087192, 0.000445921, 0.112659, -0.0357307, -0.0223645, -0.0952788, 0.168091, 0.0348077, 0.46878, -0.534717, 0.34031, -2.07751, -2.17026, -0.123509, 0.470232, -0.54161, 0.333663, -2.07797, -2.17149, -0.105364, -0.0372084, 0.150812, 0.076239, 0.00212551, 0.0446285, 0.0356597
0.16905, 1.69227, -1.22621, -1.53956, -0.909958, -1.20427, 1.22789, -1.30239, -0.14164, 0.0555789, 0.0894281, -0.303308, 0.00145023, 0.0016182, 0.00480815, -4.62212, 68.5321, 35.3834, 7.89032, 2.90332, 3.18851, -0.0685925, -0.00799319, 0.00138994, 0.00547974, 0.00831886, -0.00876888, 0.000359616, 0.112771, -0.0364302, -0.0215929, -0.0979967, 0.174394, 0.0388556, 0.468742, -0.534566, 0.340386, -2.0774, -2.17034, -0.123401, 0.470233, -0.541562, 0.333701, -2.07781, -2.17169, -0.105244, -0.0375418, 0.15233, 0.0769914, 0.00253343, 0.0459526, 0.0371341
0.17005, 1.69211, -1.22615, -1.53946, -0.910281, -1.20427, 1.22789, -1.30238, -0.151112, 0.0593417, 0.0942708, -0.312842, 0.00619273, 0.0010788, 0.00322239, -4.58245, 68.4567, 35.4548, 7.77924, 2.88501, 3.18851, -0.0621838, -0.00810612, 0.00141908, 0.00549336, 0.00827483, -0.00881497, 0.000280585, 0.11341, -0.0347195, -0.0190755, -0.095377, 0.175228, 0.0420662, 0.468705, -0.534414, 0.340463, -2.07729, -2.17041, -0.123291, 0.470228, -0.541517, 0.333746, -2.07766, -2.17189, -0.105144, -0.0378749, 0.15385, 0.0777447, 0.000627961, 0.0463826, 0.0403343
0.17105, 1.69195, -1.22609, -1.53936, -0.910629, -1.20426, 1.22789, -1.30238, -0.154653, 0.058165, 0.0964202, -0.322001, 0.00444011, 0.000719202, 0.00482454, -4.6975, 68.5321, 35.5698, 7.77924, 2.89142, 3.18851, -0.00267457, -0.00821062, 0.00145836, 0.00551578, 0.00824135, -0.00885419, 0.000169727, 0.113856, -0.0351826, -0.0206257, -0.0990632, 0.176914, 0.04429, 0.468667, -0.53426, 0.340541, -2.07718, -2.17049, -0.12318, 0.470233, -0.541462, 0.333785, -2.07747, -2.17212, -0.105042, -0.0382076, 0.155372, 0.0784988, 0.000720423, 0.0477243, 0.0394746
0.17205, 1.69177, -1.22603, -1.53925, -0.910984, -1.20426, 1.22789, -1.30237, -0.165874, 0.0577562, 0.104265, -0.329881, 0.00245628, 0.00129327, 0.00425884, -4.58245, 68.6035, 35.5698, 7.77924, 2.91614, 3.16653, -0.0164075, -0.00832204, 0.00149017, 0.00553227, 0.008196, -0.00890008, 7.26669e-05, 0.116967, -0.0321746, -0.0190578, -0.0952517, 0.179282, 0.0425935, 0.468629, -0.534104, 0.340619, -2.07707, -2.17056, -0.123068, 0.470231, -0.541412, 0.333829, -2.0773, -2.17234, -0.104944, -0.0385399, 0.156897, 0.0792537, -0.00241627, 0.0458013, 0.0414042
0.17305, 1.69158, -1.22597, -1.53913, -0.911347, -1.20425, 1.22789, -1.30235, -0.17238, 0.0564423, 0.105835, -0.337876, 0.00218368, -0.00313282, 0.00540976, -4.54675, 68.7146, 35.6055, 7.73956, 2.90973, 3.14548, -0.0750012, -0.00843368, 0.00152244, 0.00555021, 0.00814911, -0.00894187, -2.22327e-05, 0.11849, -0.0300283, -0.0209482, -0.101318, 0.177429, 0.0415182, 0.46859, -0.533947, 0.340699, -2.07696, -2.17064, -0.122956, 0.470229, -0.541362, 0.333872, -2.07714, -2.17256, -0.104851, -0.0388718, 0.158424, 0.0800094, -0.00489759, 0.0460135, 0.040134
0.17405, 1.6914, -1.22591, -1.53902, -0.911714, -1.20425, 1.2279, -1.30234, -0.178135, 0.0581693, 0.108213, -0.344649, 0.00414444, -0.00140139, 0.00882821, -4.47137, 68.8614, 35.7166, 7.59277, 2.95917, 3.11618, -0.0814099, -0.00854734, 0.00155504, 0.00557137, 0.0081037, -0.00898251, -0.000120127, 0.11979, -0.0294917, -0.0201025, -0.0995731, 0.1797, 0.0389325, 0.468551, -0.533789, 0.340779, -2.07684, -2.17071, -0.122842, 0.470227, -0.541311, 0.333913, -2.07696, -2.17279, -0.104756, -0.0392032, 0.159952, 0.0807657, -0.00566855, 0.0461071, 0.0415461
0.17505, 1.69121, -1.22585, -1.5389, -0.912103, -1.20424, 1.2279, -1.30233, -0.180175, 0.0599076, 0.11233, -0.361772, 0.00285319, -0.00123269, 0.0055516, -4.47137, 68.8614, 35.8277, 7.66418, 2.97107, 3.11618, -0.0557752, -0.00865469, 0.00159113, 0.00558846, 0.00806495, -0.00903068, -0.000241143, 0.116503, -0.0330116, -0.0203708, -0.104631, 0.184853, 0.0555223, 0.468512, -0.533629, 0.340859, -2.07673, -2.17079, -0.122727, 0.470227, -0.541252, 0.33396, -2.07676, -2.17303, -0.104648, -0.0395341, 0.161483, 0.0815227, -0.00262318, 0.0510913, 0.0424229
0.17605, 1.69102, -1.22579, -1.53877, -0.912496, -1.20423, 1.22789, -1.30232, -0.183987, 0.058322, 0.118192, -0.368272, 0.00566375, -0.00131688, 0.00294203, -4.39599, 68.9725, 35.8674, 7.5531, 2.99579, 3.1235, -0.0228162, -0.00876205, 0.00162769, 0.00560675, 0.00802094, -0.00906987, -0.00036828, 0.116252, -0.033946, -0.0204443, -0.101464, 0.18207, 0.0626673, 0.468473, -0.533468, 0.340941, -2.07661, -2.17087, -0.122611, 0.470228, -0.541193, 0.334005, -2.07656, -2.17329, -0.104554, -0.0398646, 0.163016, 0.0822803, -0.00202595, 0.0529286, 0.0431155
0.17705, 1.69082, -1.22574, -1.53864, -0.912895, -1.20423, 1.22789, -1.30231, -0.188474, 0.0556085, 0.12121, -0.374185, 0.00736135, -0.000774521, 0.00424038, -4.24523, 69.1589, 35.9784, 7.5531, 3.03241, 3.11618, -0.0750012, -0.00887712, 0.00165849, 0.00563154, 0.00797947, -0.00910484, -0.000476109, 0.117454, -0.0338793, -0.0220211, -0.100453, 0.17948, 0.0630274, 0.468433, -0.533304, 0.341023, -2.07649, -2.17095, -0.122494, 0.470223, -0.541138, 0.334045, -2.07636, -2.17352, -0.104459, -0.0401944, 0.164551, 0.0830385, -0.00242952, 0.0535146, 0.0421358
0.17805, 1.69061, -1.22568, -1.53851, -0.913305, -1.20422, 1.2279, -1.3023, -0.19468, 0.0593375, 0.127691, -0.379975, 0.00416254, 0.000137646, 0.00162855, -4.09447, 69.2303, 36.0538, 7.47772, 3.07544, 3.09512, -0.0356336, -0.00899183, 0.00168997, 0.00565162, 0.00793468, -0.00914919, -0.000595536, 0.119149, -0.0328127, -0.0184401, -0.0975642, 0.187232, 0.0653295, 0.468392, -0.53314, 0.341106, -2.07637, -2.17103, -0.122376, 0.470219, -0.541082, 0.334089, -2.07616, -2.17377, -0.104358, -0.0405238, 0.166087, 0.0837972, -0.00359764, 0.052787, 0.0462095
0.17905, 1.6904, -1.22561, -1.53837, -0.913733, -1.20421, 1.2279, -1.30228, -0.201509, 0.0608162, 0.131936, -0.395443, 0.00802061, -2.66172e-06, 0.00250117, -3.97942, 69.2303, 36.1252, 7.47772, 3.06903, 3.09512, -0.0685925, -0.00909674, 0.00172969, 0.00566775, 0.00788737, -0.00919337, -0.000731834, 0.117415, -0.0338086, -0.0183929, -0.0989058, 0.187446, 0.0733761, 0.468352, -0.532974, 0.34119, -2.07626, -2.17111, -0.122257, 0.470222, -0.541015, 0.33414, -2.07595, -2.17403, -0.104261, -0.0408525, 0.167625, 0.0845564, -0.00299332, 0.0560796, 0.0472478
0.18005, 1.69019, -1.22555, -1.53823, -0.914156, -1.2042, 1.2279, -1.30227, -0.19996, 0.0590085, 0.134617, -0.405704, 0.0101157, 0.000469941, 0.00704825, -3.86834, 69.3414, 36.2363, 7.29126, 3.08185, 3.08047, -0.0814099, -0.00920954, 0.00176455, 0.00568765, 0.00784066, -0.00923629, -0.00085626, 0.114563, -0.0380557, -0.0204619, -0.10093, 0.186075, 0.0802149, 0.468311, -0.532806, 0.341275, -2.07613, -2.17119, -0.122137, 0.47022, -0.540955, 0.334187, -2.07574, -2.17429, -0.104162, -0.0411807, 0.169165, 0.0853161, 0.000722924, 0.0609522, 0.0462552
0.18105, 1.68997, -1.22548, -1.53809, -0.914598, -1.20419, 1.2279, -1.30226, -0.209219, 0.0642089, 0.136512, -0.411405, 0.00797922, 0.00158261, 0.00449298, -3.67791, 69.3057, 36.3514, 7.18018, 3.07544, 3.04477, -0.0621838, -0.00931875, 0.00180073, 0.0057031, 0.00779392, -0.00928488, -0.000999593, 0.11826, -0.0345622, -0.0174861, -0.100803, 0.194657, 0.0774943, 0.46827, -0.532637, 0.34136, -2.07601, -2.17127, -0.122016, 0.470219, -0.540889, 0.334239, -2.07552, -2.17457, -0.104058, -0.0415082, 0.170706, 0.0860762, -0.00280645, 0.0582306, 0.0495104
0.18205, 1.68975, -1.22541, -1.53793, -0.915044, -1.20418, 1.2279, -1.30224, -0.212256, 0.0664896, 0.142321, -0.43142, 0.0130784, 0.0012865, 0.00805537, -3.56683, 69.3414, 36.276, 7.14447, 3.11847, 3.03744, -0.0621838, -0.00942662, 0.00184, 0.00571676, 0.00773973, -0.00933304, -0.0011432, 0.112842, -0.0390681, -0.0172402, -0.10297, 0.195086, 0.0917256, 0.468228, -0.532466, 0.341446, -2.07589, -2.17135, -0.121894, 0.470221, -0.540821, 0.334294, -2.07529, -2.17485, -0.103962, -0.0418351, 0.172249, 0.0868367, 0.00115783, 0.0653027, 0.0511876
0.18305, 1.68952, -1.22534, -1.5378, -0.915507, -1.20416, 1.2279, -1.30222, -0.218649, 0.0709434, 0.139084, -0.444012, 0.0142916, 0.00133642, 0.0144882, -3.4121, 69.3771, 36.3871, 7.02942, 3.11847, 3.02371, -0.0420422, -0.0095378, 0.00187518, 0.00573738, 0.00770144, -0.00937972, -0.00128493, 0.113589, -0.0380151, -0.0177356, -0.110412, 0.200709, 0.0875848, 0.468187, -0.532294, 0.341533, -2.07577, -2.17143, -0.121771, 0.470218, -0.540754, 0.334342, -2.07506, -2.17513, -0.103849, -0.0421613, 0.173793, 0.0875976, -0.000200394, 0.0661376, 0.0513823
0.18405, 1.68928, -1.22528, -1.53766, -0.915978, -1.20414, 1.2279, -1.3022, -0.220915, 0.0702177, 0.137838, -0.449085, 0.0148767, 0.00113981, 0.017312, -3.22564, 69.4525, 36.5735, 6.88263, 3.12488, 3.01639, -0.0878186, -0.00965043, 0.00190985, 0.00576101, 0.0076641, -0.00942214, -0.0014241, 0.114905, -0.0379412, -0.0197336, -0.114088, 0.200904, 0.0854132, 0.468144, -0.53212, 0.34162, -2.07564, -2.17152, -0.121646, 0.470215, -0.540686, 0.334388, -2.07483, -2.1754, -0.103738, -0.0424869, 0.175339, 0.0883587, -0.000619236, 0.0666849, 0.0499722
0.18505, 1.68904, -1.22521, -1.53749, -0.916447, -1.20412, 1.22789, -1.30218, -0.224589, 0.0660542, 0.142547, -0.453805, 0.0146353, 0.000234438, 0.0172333, -3.07488, 69.5636, 36.4982, 6.73187, 3.1496, 3.03012, -0.0814099, -0.00976348, 0.00194263, 0.00577727, 0.00760806, -0.009458, -0.00156421, 0.11612, -0.0378907, -0.0215498, -0.113428, 0.197603, 0.0870966, 0.468102, -0.531945, 0.341709, -2.07552, -2.1716, -0.121521, 0.47021, -0.540618, 0.334442, -2.07461, -2.17567, -0.103653, -0.0428117, 0.176886, 0.0891202, -0.00101063, 0.0673076, 0.0487568
0.18605, 1.68879, -1.22515, -1.53734, -0.916945, -1.2041, 1.22789, -1.30216, -0.236465, 0.0620355, 0.145469, -0.464606, 0.0183992, -0.00413193, 0.0182818, -2.88445, 69.7104, 36.6092, 6.77154, 3.18622, 3.01639, -0.101552, -0.00987501, 0.00197678, 0.00580071, 0.00757012, -0.00949763, -0.00171853, 0.11836, -0.0340813, -0.024678, -0.117124, 0.189796, 0.0853485, 0.468059, -0.531768, 0.341798, -2.07539, -2.17169, -0.121395, 0.470205, -0.540546, 0.33449, -2.07435, -2.17596, -0.103544, -0.0431357, 0.178434, 0.0898818, -0.00516543, 0.0669372, 0.0462207
0.18705, 1.68854, -1.22506, -1.53718, -0.917446, -1.20408, 1.22789, -1.30215, -0.241253, 0.0692963, 0.151028, -0.470378, 0.0162445, -0.00207769, 0.0174365, -2.80907, 69.5636, 36.7203, 6.58508, 3.24115, 2.98709, -0.0750012, -0.00998315, 0.00201503, 0.00581166, 0.00752282, -0.0095577, -0.00188081, 0.119209, -0.0338745, -0.0193418, -0.113533, 0.200927, 0.0870822, 0.468016, -0.53159, 0.341888, -2.07526, -2.17177, -0.121268, 0.470205, -0.540471, 0.334551, -2.07411, -2.17627, -0.103426, -0.043459, 0.179984, 0.0906437, -0.00542652, 0.0668343, 0.0521315
0.18805, 1.68827, -1.225, -1.53702, -0.917953, -1.20406, 1.2279, -1.30213, -0.25197, 0.0681473, 0.1538, -0.487709, 0.0202701, -0.00064007, 0.0163236, -2.54723, 69.6747, 36.76, 6.54541, 3.26587, 2.95871, -0.0356336, -0.0101018, 0.0020432, 0.00583263, 0.00747042, -0.0095954, -0.00202774, 0.119309, -0.0331805, -0.0212963, -0.115239, 0.199288, 0.0943427, 0.467972, -0.53141, 0.341978, -2.07513, -2.17186, -0.121139, 0.470194, -0.540404, 0.334602, -2.07387, -2.17655, -0.103332, -0.0437815, 0.181534, 0.0914057, -0.0065105, 0.0685506, 0.0509736
