alisrour97/Franka_experiments/Real_Robot_scripts/servo-franka/Data_5_ki/log_dyn_PI0_1.csv
Time,q1,q2,q3,q4,q5,q6,q7,dq1,dq2,dq3,dq4,dq5,dq6,dq7,t1,t2,t3,t4,t5,t6,t7,ex1,ex2,ex3,ex4,ex5,ex6,ev1,ev2,ev3,ev4,ev5,ev6,xd,yd,zd,uxd,uyd,uzd,x,y,z,ux,uy,uz,vxd,vyd,vzd,vx,vy,vz
9.76563e-07, 1.6913, -1.22559, -1.53804, -0.899991, -1.19175, 1.22834, -1.30262, -0.00137986, 0.00739206, 0.0062311, 0.00391503, 0.00216226, 0.000348149, 0.00163006, -0.468376, 56.6342, 27.417, 6.54541, 1.68201, 3.28097, -0.160145, 0.000917054, -0.00165091, 0.000114887, 0.000338597, -0.000297269, 0.000107691, -0.000487702, 0.000343447, 0.00714997, 0.00937916, 0.00507122, -0.00293787, 0.471008, -0.543389, 0.335894, -2.08385, -2.16584, -0.129887, 0.469319, -0.542537, 0.335957, -2.08393, -2.16574, -0.12918, -4.06186e-05, 0.000124715, 6.6488e-05, -0.000142977, -0.000508353, 0.00721258
0.0121833, 1.69129, -1.22554, -1.538, -0.899993, -1.19173, 1.22834, -1.30262, -0.00197561, 0.00509312, 0.00346148, 0.00193156, 0.00240922, -0.000189693, -0.00124992, -0.43267, 56.8921, 27.4885, 6.47003, 1.63257, 3.28097, -0.232472, 0.000931512, -0.00164645, 7.21089e-05, 0.000291249, -0.000325563, 9.32006e-05, -1.83103e-05, 0.000726244, 0.00449467, 0.00551956, 0.00271346, -0.000203949, 0.471008, -0.543389, 0.335894, -2.08385, -2.16584, -0.129887, 0.469328, -0.542526, 0.336017, -2.08396, -2.16581, -0.129223, -6.68636e-05, 0.000218577, 0.000115026, -0.000630586, -0.000484859, 0.0045779
0.0131833, 1.69129, -1.22554, -1.538, -0.899993, -1.19173, 1.22834, -1.30262, -0.00197561, 0.00509312, 0.00346148, 0.00193156, 0.00240922, -0.000189693, -0.00124992, -0.43267, 56.8921, 27.4885, 6.47003, 1.63257, 3.28097, -0.232472, 0.00093149, -0.00164645, 7.21163e-05, 0.000291239, -0.000325558, 9.32128e-05, 9.25594e-05, 0.000700159, 0.00445902, 0.00547231, 0.00278592, -0.000293573, 0.471008, -0.543389, 0.335894, -2.08385, -2.16584, -0.129887, 0.469328, -0.542526, 0.336017, -2.08396, -2.16581, -0.129223, -9.5592e-05, 0.000321476, 0.000168224, -0.000630586, -0.000484859, 0.0045779
0.0141833, 1.69129, -1.22554, -1.538, -0.899993, -1.19173, 1.22834, -1.30262, -0.00197561, 0.00509312, 0.00346148, 0.00193156, 0.00240922, -0.000189693, -0.00124992, -0.43267, 56.8921, 27.4885, 6.47003, 1.63257, 3.28097, -0.232472, 0.000931428, -0.00164643, 7.21362e-05, 0.000291209, -0.000325544, 9.32458e-05, 0.000213533, 0.000671742, 0.00442013, 0.00542085, 0.00286495, -0.000391288, 0.471008, -0.543389, 0.335894, -2.08385, -2.16584, -0.129887, 0.469328, -0.542526, 0.336017, -2.08396, -2.16581, -0.129223, -0.000126895, 0.000433757, 0.000226255, -0.000630586, -0.000484859, 0.0045779
0.0151833, 1.69129, -1.22554, -1.538, -0.899993, -1.19173, 1.22834, -1.30262, -0.00197561, 0.00509312, 0.00346148, 0.00193156, 0.00240922, -0.000189693, -0.00124992, -0.43267, 56.8921, 27.4885, 6.47003, 1.63257, 3.28097, -0.232472, 0.000931308, -0.0016464, 7.21749e-05, 0.000291152, -0.000325516, 9.33098e-05, 0.000344973, 0.00064091, 0.00437789, 0.00536502, 0.00295079, -0.000497379, 0.471008, -0.543389, 0.335894, -2.08385, -2.16584, -0.129887, 0.469328, -0.542526, 0.336017, -2.08396, -2.16581, -0.129223, -0.000160861, 0.000555757, 0.000289294, -0.000630586, -0.000484859, 0.0045779
0.0161833, 1.69129, -1.22554, -1.538, -0.899993, -1.19173, 1.22834, -1.30262, -0.00197561, 0.00509312, 0.00346148, 0.00193156, 0.00240922, -0.000189693, -0.00124992, -0.43267, 56.8921, 27.4885, 6.47003, 1.63257, 3.28097, -0.232472, 0.000931111, -0.00164636, 7.22385e-05, 0.000291057, -0.000325469, 9.34151e-05, 0.00048724, 0.000607586, 0.00433218, 0.00530468, 0.00304366, -0.000612129, 0.471008, -0.543389, 0.335894, -2.08385, -2.16584, -0.129886, 0.469328, -0.542526, 0.336017, -2.08396, -2.16581, -0.129223, -0.000197581, 0.000687809, 0.000357511, -0.000630586, -0.000484859, 0.0045779
0.0171833, 1.69129, -1.22554, -1.538, -0.899993, -1.19173, 1.22834, -1.30262, -0.00197561, 0.00509312, 0.00346148, 0.00193156, 0.00240922, -0.000189693, -0.00124992, -0.43267, 56.8921, 27.4885, 6.47003, 1.63257, 3.28097, -0.232472, 0.000930817, -0.00164629, 7.23332e-05, 0.000290917, -0.000325401, 9.35717e-05, 0.000640687, 0.000571689, 0.00428289, 0.00523969, 0.0031438, -0.000735814, 0.471008, -0.543389, 0.335894, -2.08385, -2.16584, -0.129886, 0.469328, -0.542526, 0.336017, -2.08396, -2.16581, -0.129223, -0.000237139, 0.000830243, 0.000431075, -0.000630586, -0.000484859, 0.0045779
0.0181833, 1.69129, -1.22554, -1.538, -0.899993, -1.19173, 1.22834, -1.30262, -0.00197561, 0.00509312, 0.00346148, 0.00193156, 0.00240922, -0.000189693, -0.00124992, -0.43267, 56.8921, 27.4885, 6.47003, 1.63257, 3.28097, -0.232472, 0.000930408, -0.00164619, 7.2465e-05, 0.000290721, -0.000325306, 9.37897e-05, 0.000805661, 0.000533145, 0.00422991, 0.00516991, 0.00325142, -0.000868706, 0.471008, -0.543388, 0.335894, -2.08385, -2.16584, -0.129886, 0.469328, -0.542526, 0.336017, -2.08396, -2.16581, -0.129223, -0.000279621, 0.000983381, 0.00051015, -0.000630586, -0.000484859, 0.0045779
0.0191833, 1.69129, -1.22554, -1.538, -0.899993, -1.19173, 1.22834, -1.30262, -0.00197561, 0.00509312, 0.00346148, 0.00193156, 0.00240922, -0.000189693, -0.00124992, -0.43267, 56.8921, 27.4885, 6.47003, 1.63257, 3.28097, -0.232472, 0.000929865, -0.00164606, 7.264e-05, 0.000290461, -0.000325179, 9.4079e-05, 0.000982505, 0.000491878, 0.00417314, 0.00509521, 0.00336675, -0.00101107, 0.471008, -0.543388, 0.335895, -2.08385, -2.16584, -0.129886, 0.469328, -0.542526, 0.336017, -2.08396, -2.16581, -0.129223, -0.00032511, 0.00114754, 0.000594898, -0.000630586, -0.000484859, 0.0045779
0.0201833, 1.69129, -1.22554, -1.538, -0.899993, -1.19173, 1.22834, -1.30262, -0.00197561, 0.00509312, 0.00346148, 0.00193156, 0.00240922, -0.000189693, -0.00124992, -0.43267, 56.8921, 27.4885, 6.47003, 1.63257, 3.28097, -0.232472, 0.00092917, -0.0016459, 7.28642e-05, 0.000290129, -0.000325017, 9.44495e-05, 0.00117155, 0.000447815, 0.00411246, 0.00501545, 0.00348999, -0.00116317, 0.471007, -0.543387, 0.335895, -2.08384, -2.16584, -0.129885, 0.469328, -0.542526, 0.336017, -2.08396, -2.16581, -0.129223, -0.000373687, 0.00132303, 0.000685479, -0.000630586, -0.000484859, 0.0045779
0.0211833, 1.69129, -1.22554, -1.538, -0.899993, -1.19173, 1.22834, -1.30262, -0.00197561, 0.00509312, 0.00346148, 0.00193156, 0.00240922, -0.000189693, -0.00124992, -0.43267, 56.8921, 27.4885, 6.47003, 1.63257, 3.28097, -0.232472, 0.000928303, -0.0016457, 7.31434e-05, 0.000289714, -0.000324816, 9.49109e-05, 0.00137312, 0.000400886, 0.00404778, 0.00493051, 0.00362137, -0.00132526, 0.471007, -0.543386, 0.335895, -2.08384, -2.16584, -0.129884, 0.469328, -0.542526, 0.336017, -2.08396, -2.16581, -0.129223, -0.000425431, 0.00151016, 0.000782046, -0.000630586, -0.000484859, 0.0045779
0.0221833, 1.6913, -1.22551, -1.538, -0.899993, -1.19172, 1.22835, -1.30263, -0.000961691, 0.00145254, 0.000484462, 0.00121802, 1.98599e-05, 0.000399236, -0.00234461, -0.508049, 57.3721, 27.4885, 6.47003, 1.66369, 3.23153, -0.147328, 0.000933947, -0.00163811, 5.32267e-05, 0.000267602, -0.000355324, 7.59356e-05, 0.0024279, 0.000241072, 0.000686145, 0.000837812, 0.00266671, -0.000950418, 0.471007, -0.543385, 0.335896, -2.08384, -2.16584, -0.129884, 0.469336, -0.542522, 0.336038, -2.08397, -2.16586, -0.129218, -0.000480419, 0.00170921, 0.00088475, -0.000609593, -0.000803175, 0.00119274
0.0231833, 1.69131, -1.22551, -1.538, -0.899996, -1.19172, 1.22835, -1.30262, 0.00111951, 0.00205473, 0.001187, -0.000113779, 0.000255952, 0.000266336, 0.000594077, -0.583427, 57.3364, 27.4528, 6.5097, 1.65729, 3.23153, -0.205922, 0.000936353, -0.00163386, 5.21661e-05, 0.00026711, -0.00035844, 7.51361e-05, 0.00107235, -0.00139161, 0.000909411, 0.000444476, 0.00329121, -0.000444207, 0.471007, -0.543384, 0.335896, -2.08384, -2.16585, -0.129883, 0.46934, -0.542519, 0.33604, -2.08397, -2.16586, -0.129215, -0.000538724, 0.00192048, 0.000993739, 0.000922263, 0.000778784, 0.00168336
0.0241833, 1.69131, -1.22551, -1.538, -0.899993, -1.19172, 1.22836, -1.30263, 0.00157961, 0.00182514, -0.000523445, -0.00457341, 0.000649368, 0.000991494, -0.00178383, -0.619133, 57.1896, 27.3774, 6.43433, 1.64447, 3.20956, -0.147328, 0.000934954, -0.00163163, 5.28933e-05, 0.000265538, -0.000360803, 6.9138e-05, 0.000163544, -0.00258234, -0.000488756, -0.00255181, 0.00377242, 0.00540864, 0.471006, -0.543383, 0.335897, -2.08384, -2.16585, -0.129882, 0.469341, -0.542518, 0.336039, -2.08397, -2.16587, -0.129214, -0.000600418, 0.00214425, 0.00110915, 0.00196679, 0.00216367, 0.000523345
0.0251833, 1.69131, -1.22551, -1.538, -0.89999, -1.19172, 1.22836, -1.30263, 0.00415004, -0.00097717, -0.00349082, -0.00180632, 0.00247043, 0.00144099, -0.00217987, -0.619133, 57.0032, 27.2306, 6.35895, 1.58954, 3.18851, -0.120778, 0.000931836, -0.00163111, 5.7046e-05, 0.000263523, -0.000354778, 7.23681e-05, 0.000669538, -0.00328238, -0.00297899, -0.00332725, -9.6921e-05, 0.00494771, 0.471006, -0.543381, 0.335898, -2.08384, -2.16585, -0.129881, 0.469341, -0.542519, 0.336035, -2.08397, -2.16586, -0.12922, -0.00066557, 0.00238079, 0.00123113, 0.00252897, 0.0023126, -0.00191322
0.0261833, 1.69132, -1.22551, -1.538, -0.899991, -1.19172, 1.22836, -1.30262, 0.0030238, 0.00391741, 0.000489904, -0.00387121, 0.00276819, 0.000689469, -0.00193344, -0.619133, 56.781, 27.0798, 6.32324, 1.55932, 3.19583, -0.10796, 0.000931955, -0.00162826, 5.752e-05, 0.000264828, -0.00035617, 7.17987e-05, -0.000607502, -0.00368042, 0.000925554, -0.000876973, 0.00423027, 0.00711303, 0.471005, -0.543379, 0.335899, -2.08384, -2.16585, -0.129879, 0.469344, -0.542517, 0.336036, -2.08396, -2.16587, -0.129216, -0.000734245, 0.00263035, 0.0013598, 0.00295311, 0.00323823, 0.00225708
0.0271833, 1.69132, -1.22552, -1.53801, -0.899998, -1.19172, 1.22836, -1.30262, 0.0022087, 0.00121255, -0.000205416, -0.00313297, 0.00184715, -0.000591459, 0.00362099, -0.619133, 56.8207, 27.0798, 6.32324, 1.55932, 3.22421, -0.114369, 0.000928589, -0.00162732, 6.86505e-05, 0.000279267, -0.000351183, 7.65944e-05, 0.000708188, -0.00271274, -0.000966686, -0.00289166, 0.00179605, -0.000716516, 0.471005, -0.543377, 0.3359, -2.08384, -2.16585, -0.129878, 0.469344, -0.542517, 0.336025, -2.08396, -2.16585, -0.129203, -0.000806507, 0.00289319, 0.0014953, 0.00189316, 0.00245382, 0.00034911
0.0281833, 1.69132, -1.22552, -1.53801, -0.899993, -1.19173, 1.22836, -1.30261, 0.00078187, 0.00278784, 0.0020625, -0.00291714, -0.00366402, -0.00117416, 0.00378398, -0.583427, 56.8564, 26.9687, 6.20819, 1.56482, 3.24527, -0.140919, 0.00092591, -0.00162641, 6.77163e-05, 0.000274007, -0.000350429, 8.37416e-05, 0.00211039, -0.0015754, 0.000720976, -0.00365241, 0.0075749, -0.00350085, 0.471004, -0.543375, 0.335901, -2.08384, -2.16585, -0.129876, 0.469344, -0.542517, 0.336027, -2.08397, -2.16585, -0.129207, -0.000882416, 0.00316954, 0.00163773, 0.000792456, 0.00103958, 0.00197465
0.0291833, 1.69132, -1.22552, -1.53801, -0.899993, -1.19173, 1.22836, -1.30261, 0.00078187, 0.00278784, 0.0020625, -0.00291714, -0.00366402, -0.00117416, 0.00378398, -0.583427, 56.8564, 26.9687, 6.20819, 1.56482, 3.24527, -0.140919, 0.000923027, -0.00162573, 6.86446e-05, 0.000272628, -0.000349763, 8.52719e-05, 0.00242284, -0.00164754, 0.000620884, -0.00378291, 0.00777808, -0.00375104, 0.471003, -0.543372, 0.335903, -2.08383, -2.16585, -0.129874, 0.469344, -0.542517, 0.336027, -2.08397, -2.16585, -0.129207, -0.000962028, 0.00345964, 0.00178723, 0.000792456, 0.00103958, 0.00197465
0.0301833, 1.69132, -1.22552, -1.53801, -0.899993, -1.19173, 1.22836, -1.30261, 0.00078187, 0.00278784, 0.0020625, -0.00291714, -0.00366402, -0.00117416, 0.00378398, -0.583427, 56.8564, 26.9687, 6.20819, 1.56482, 3.24527, -0.140919, 0.000919812, -0.00162498, 6.96795e-05, 0.000271091, -0.000349022, 8.69774e-05, 0.00275032, -0.00172308, 0.000515998, -0.00391954, 0.00799098, -0.00401314, 0.471002, -0.543369, 0.335904, -2.08383, -2.16585, -0.129871, 0.469344, -0.542517, 0.336027, -2.08397, -2.16585, -0.129207, -0.0010454, 0.0037637, 0.0019439, 0.000792456, 0.00103958, 0.00197465
0.0311833, 1.69132, -1.22553, -1.53802, -0.899992, -1.19174, 1.22838, -1.30261, -0.00164101, -0.000203625, -0.00365663, -0.0026631, -0.00360636, 0.00302953, 0.00166366, -0.357292, 57.2253, 27.306, 6.09711, 1.63898, 3.21689, -0.133595, 0.000906608, -0.00162468, 7.92386e-05, 0.0002701, -0.000363034, 0.000106531, 0.00614759, -0.000210946, -0.00284435, -0.0051322, 0.00753771, -0.00746512, 0.471002, -0.543366, 0.335906, -2.08383, -2.16586, -0.129869, 0.469344, -0.542525, 0.336017, -2.08399, -2.16584, -0.129189, -0.00113257, 0.00408193, 0.00210783, -0.0008047, -0.00154079, -0.00166115
0.0321833, 1.69133, -1.22552, -1.53802, -0.900002, -1.19174, 1.22838, -1.30261, 0.00212122, 0.00280024, -0.000607563, -0.00487806, -0.00209412, 0.00586332, 0.00174007, -0.357292, 57.1143, 27.2306, 6.20819, 1.62616, 3.24527, -0.147328, 0.00091141, -0.0016152, 7.45624e-05, 0.000265424, -0.000373119, 8.70041e-05, 0.00325232, -0.00406852, -0.000371332, -0.000837112, 0.0110387, -0.000249593, 0.471001, -0.543362, 0.335908, -2.08383, -2.16586, -0.129866, 0.469352, -0.542517, 0.336024, -2.08398, -2.16587, -0.129184, -0.0012236, 0.00441451, 0.00227914, 0.0029426, 0.00142735, 0.00128512
0.0331833, 1.69133, -1.22553, -1.53802, -0.900001, -1.19174, 1.22838, -1.30261, -0.00171562, -0.000478478, -0.00211806, -0.00279498, -0.00151952, 0.00232717, 0.00148916, -0.206535, 57.2253, 27.306, 6.17248, 1.62616, 3.30295, -0.153737, 0.000904323, -0.00161588, 8.35835e-05, 0.000266902, -0.000360249, 9.63701e-05, 0.00609287, -0.000748857, -0.00277111, -0.00380503, 0.00559351, -0.00638731, 0.470999, -0.543358, 0.33591, -2.08382, -2.16586, -0.129863, 0.46935, -0.542519, 0.336016, -2.08397, -2.16585, -0.129191, -0.00131852, 0.00476163, 0.0024579, -0.000452728, -0.000796326, -0.00124647
0.0341833, 1.69133, -1.22552, -1.53802, -0.900003, -1.19174, 1.22839, -1.30261, -0.00260946, 0.00330455, -0.00044636, -0.00298216, -0.000427433, 0.0061107, 0.000586868, -0.131157, 57.0786, 27.2663, 6.20819, 1.60785, 3.31759, -0.140919, 0.000903207, -0.00161026, 7.93298e-05, 0.00025807, -0.000370073, 9.03302e-05, 0.00629208, -0.00141862, 0.000271455, 0.00165518, 0.0104741, -0.00540815, 0.470998, -0.543354, 0.335912, -2.08382, -2.16586, -0.12986, 0.469355, -0.542516, 0.336023, -2.08397, -2.16587, -0.129188, -0.00141737, 0.00512346, 0.00264421, 0.000234333, -0.00107204, 0.00189304
0.0351833, 1.69134, -1.22553, -1.53803, -0.900001, -1.19174, 1.2284, -1.30261, -0.00151649, 0.00151021, -0.00203256, -0.000530382, -0.000117036, 0.00399631, -0.000540488, -0.131157, 57.1143, 27.3417, 6.13678, 1.60144, 3.33865, -0.114369, 0.000899278, -0.00160355, 8.5115e-05, 0.00025846, -0.000372002, 8.59184e-05, 0.00715961, -0.000979501, -0.00137708, -0.000744336, 0.00756944, -0.00629999, 0.470997, -0.543349, 0.335915, -2.08382, -2.16586, -0.129856, 0.46936, -0.542514, 0.336018, -2.08397, -2.16588, -0.129183, -0.00152019, 0.00550014, 0.00283813, -0.000335524, -0.00131606, 0.000337774
0.0361833, 1.69135, -1.22553, -1.53802, -0.900004, -1.19174, 1.2284, -1.30261, -0.000364431, -0.00064963, 0.00042938, -0.00134834, 0.000548065, 0.00346228, -0.00130496, -0.0161054, 57.1896, 27.2663, 6.17248, 1.58313, 3.33133, -0.0878186, 0.000895411, -0.00159753, 8.93439e-05, 0.000251394, -0.000370882, 8.15597e-05, 0.00633274, -0.00235426, -0.00212863, 0.000329855, 0.00483044, -0.00257143, 0.470995, -0.543344, 0.335917, -2.08381, -2.16587, -0.129852, 0.469365, -0.542512, 0.336016, -2.08396, -2.16589, -0.129188, -0.00162701, 0.00589181, 0.00303974, 0.000873918, 6.38742e-05, -0.000115839
0.0371833, 1.69136, -1.22553, -1.53803, -0.899999, -1.19174, 1.22841, -1.30261, 0.00140797, 0.000575032, -0.00229631, 0.000744693, 0.00100449, 0.00270329, -0.00179038, 0.059273, 57.15, 27.3774, 6.09711, 1.56482, 3.33133, -0.0621838, 0.000890309, -0.00159257, 9.08148e-05, 0.000250003, -0.000376953, 8.54536e-05, 0.00688666, -0.00239295, -0.00238539, -0.00185709, 0.00563127, -0.00369852, 0.470994, -0.543338, 0.33592, -2.08381, -2.16587, -0.129848, 0.469368, -0.542511, 0.336017, -2.08397, -2.16589, -0.129179, -0.00173785, 0.0062986, 0.00324909, 0.000812278, -3.50832e-05, -0.00024714
0.0381833, 1.69136, -1.22555, -1.53803, -0.899999, -1.19174, 1.22842, -1.30261, 0.00430492, -0.0055887, -0.000683741, 0.00124194, 0.000640363, 0.0067515, -0.00168044, 0.21003, 57.4078, 27.3417, 6.0614, 1.56482, 3.33133, -0.0484509, 0.00088364, -0.00158611, 0.000103137, 0.000240398, -0.000360371, 8.2816e-05, 0.00694659, -0.00510589, -0.00530485, 0.00198768, 0.00202455, -0.000981788, 0.470992, -0.543332, 0.335923, -2.0838, -2.16587, -0.129843, 0.469373, -0.542509, 0.336006, -2.08396, -2.16589, -0.129202, -0.00185274, 0.00672061, 0.00346625, 0.00330352, 0.000888165, -0.00300384
0.0391833, 1.69137, -1.22555, -1.53804, -0.899996, -1.19175, 1.22842, -1.30261, 0.00664173, -0.00284553, -0.00221013, -0.000642822, -0.00051059, 0.00378857, -0.00134132, 0.360787, 57.3721, 27.417, 5.98602, 1.58954, 3.36703, -0.0420422, 0.000876263, -0.00158252, 0.000108015, 0.000244873, -0.000365149, 8.67305e-05, 0.00579792, -0.00595598, -0.00503139, -0.00368317, 0.00487567, 0.00109001, 0.470991, -0.543326, 0.335927, -2.0838, -2.16588, -0.129838, 0.469375, -0.542509, 0.336004, -2.08395, -2.16589, -0.129187, -0.0019717, 0.00715794, 0.00369125, 0.00400233, 0.00245224, -0.00235622
0.0401833, 1.69138, -1.22555, -1.53804, -0.900002, -1.19175, 1.22843, -1.3026, 0.00530609, -0.00362646, -0.00146672, -0.00472258, -0.00059423, 0.00244067, 0.000813454, 0.511544, 57.4475, 27.417, 6.02173, 1.59595, 3.38168, -0.0878186, 0.000872136, -0.00157391, 0.000114161, 0.000241074, -0.000365383, 8.37929e-05, 0.00546486, -0.00611808, -0.00599705, -0.00624497, 0.00408648, 0.00114152, 0.470989, -0.543319, 0.33593, -2.08379, -2.16588, -0.129833, 0.469381, -0.542505, 0.336, -2.08395, -2.1659, -0.129186, -0.00209472, 0.00761066, 0.00392413, 0.00399438, 0.00338903, -0.00303007
0.0411833, 1.69139, -1.22556, -1.53804, -0.899997, -1.19176, 1.22843, -1.3026, 0.0107039, -0.00489795, -0.00357124, -0.00104775, -0.00508889, 0.00115643, 0.00106011, 0.6623, 57.5546, 27.5281, 5.91064, 1.59595, 3.40365, -0.101552, 0.000863227, -0.0015675, 0.000125701, 0.000240442, -0.000359063, 8.80253e-05, 0.00597771, -0.00735296, -0.00753696, -0.0106947, 0.0061675, 0.000107073, 0.470987, -0.543312, 0.335934, -2.08379, -2.16589, -0.129827, 0.469386, -0.542504, 0.335991, -2.08394, -2.1659, -0.129187, -0.00222183, 0.00807884, 0.00416491, 0.00506327, 0.00363848, -0.00442668
0.0421833, 1.6914, -1.22557, -1.53805, -0.9, -1.19176, 1.22844, -1.3026, 0.00844634, -0.00324629, -0.00237706, -0.00107186, -0.00870531, 0.000519671, 0.000713632, 0.813057, 57.5546, 27.5281, 5.91064, 1.60144, 3.41739, -0.101552, 0.000861142, -0.00155576, 0.000130865, 0.000239094, -0.000360593, 7.59727e-05, 0.0077368, -0.00586649, -0.00625062, -0.0116276, 0.0106535, -0.00283654, 0.470984, -0.543304, 0.335938, -2.08378, -2.16589, -0.129821, 0.469395, -0.542497, 0.335989, -2.08393, -2.16592, -0.129182, -0.00235303, 0.00856251, 0.00441363, 0.00355699, 0.00212669, -0.00313593
0.0431833, 1.69142, -1.22557, -1.53805, -0.9, -1.19176, 1.22845, -1.3026, 0.00878411, -0.0047484, -0.00158188, 0.000768645, -0.00649552, 0.00544381, 0.000480922, 1.00349, 57.6657, 27.5281, 5.83527, 1.60144, 3.41006, -0.101552, 0.000854559, -0.00154574, 0.000139444, 0.000233412, -0.000358461, 7.40563e-05, 0.00872185, -0.00708376, -0.00635145, -0.00514624, 0.00992752, -0.00315586, 0.470982, -0.543295, 0.335942, -2.08378, -2.16589, -0.129815, 0.469403, -0.542494, 0.335984, -2.08392, -2.16592, -0.129184, -0.00248832, 0.00906169, 0.00467028, 0.00466904, 0.0017188, -0.00316843
0.0441833, 1.69143, -1.22558, -1.53805, -0.899992, -1.19177, 1.22845, -1.3026, 0.0123437, -0.00408293, -0.00188768, 0.000636553, -0.00508668, 0.00439741, -0.00137093, 1.18995, 57.7054, 27.5638, 5.68848, 1.60785, 3.40365, -0.0557752, 0.00084559, -0.00153746, 0.000144465, 0.000228329, -0.00036344, 7.24856e-05, 0.00726911, -0.00913778, -0.00654407, -0.00645428, 0.0094176, 0.00219974, 0.47098, -0.543286, 0.335947, -2.08377, -2.1659, -0.129808, 0.469409, -0.542492, 0.335982, -2.08392, -2.16593, -0.129178, -0.00262768, 0.00957641, 0.00493487, 0.00652205, 0.00378153, -0.0029306
0.0451833, 1.69145, -1.22558, -1.53806, -0.899989, -1.19178, 1.22846, -1.3026, 0.0130185, -0.00438437, -0.00218488, 0.00260702, -0.0087184, 0.00282111, -0.000911048, 1.34071, 57.7768, 27.6035, 5.57739, 1.61426, 3.41739, -0.0557752, 0.000839634, -0.00152482, 0.000153853, 0.000227325, -0.000363324, 6.56251e-05, 0.00876991, -0.00846195, -0.00690896, -0.00920174, 0.0115474, -0.00112888, 0.470977, -0.543277, 0.335952, -2.08376, -2.1659, -0.129801, 0.469419, -0.542487, 0.335976, -2.0839, -2.16595, -0.129173, -0.00277111, 0.0101066, 0.00520739, 0.00574425, 0.00285861, -0.00323089
0.0461833, 1.69147, -1.22559, -1.53806, -0.899995, -1.19178, 1.22847, -1.3026, 0.0126394, -0.00551535, -0.00541067, 0.000590939, -0.00625856, 0.00109427, -0.00111381, 1.53114, 57.8879, 27.6392, 5.6131, 1.60785, 3.44668, -0.0420422, 0.000835821, -0.00151056, 0.0001648, 0.000228498, -0.000360211, 4.93547e-05, 0.00904193, -0.00824796, -0.00931623, -0.0136122, 0.00830716, -0.000711941, 0.470974, -0.543267, 0.335957, -2.08375, -2.16591, -0.129793, 0.46943, -0.542478, 0.33597, -2.08388, -2.16597, -0.129169, -0.00291859, 0.0106523, 0.00548782, 0.00530577, 0.00349748, -0.00536323
0.0471833, 1.69149, -1.2256, -1.53807, -0.899991, -1.19179, 1.22847, -1.3026, 0.0145443, -0.00543563, -0.00470144, 0.00275852, -0.00915214, -0.000368963, 0.000717156, 1.75727, 57.9633, 27.6749, 5.50201, 1.60144, 3.48239, -0.0814099, 0.000828077, -0.00149855, 0.000174135, 0.000229266, -0.000361537, 5.26397e-05, 0.00970782, -0.00849909, -0.0091386, -0.0151161, 0.0102448, -0.00366942, 0.470971, -0.543256, 0.335962, -2.08375, -2.16592, -0.129785, 0.469439, -0.542474, 0.335964, -2.08387, -2.16597, -0.129158, -0.0030701, 0.0112135, 0.00577613, 0.00543536, 0.00338423, -0.00501045
0.0481833, 1.69151, -1.22559, -1.53807, -0.899986, -1.19179, 1.22848, -1.30259, 0.0170582, -0.00102191, -0.00425665, 0.00124556, -0.0064372, 0.00458224, 0.000716689, 1.9477, 57.8522, 27.7146, 5.38696, 1.58954, 3.48239, -0.0878186, 0.000822734, -0.00148326, 0.000176714, 0.000223991, -0.000373601, 4.57247e-05, 0.00822811, -0.011597, -0.00649464, -0.0101555, 0.0154499, 0.000694603, 0.470968, -0.543245, 0.335968, -2.08374, -2.16592, -0.129777, 0.469451, -0.542467, 0.335966, -2.08387, -2.16599, -0.129144, -0.0032256, 0.01179, 0.00607228, 0.00841636, 0.00514178, -0.00196753
0.0491833, 1.69153, -1.2256, -1.53808, -0.899994, -1.1918, 1.22849, -1.3026, 0.020358, -0.00234917, -0.00381873, -0.00132354, -0.00511127, 0.00356915, -0.000470724, 2.20954, 57.9236, 27.7503, 5.46234, 1.59595, 3.48239, -0.0621838, 0.000816137, -0.00146795, 0.000189594, 0.000228592, -0.000376967, 2.98031e-05, 0.00630563, -0.0142312, -0.00794159, -0.0121414, 0.0132507, 0.00756252, 0.470965, -0.543234, 0.335974, -2.08373, -2.16593, -0.129768, 0.469463, -0.542459, 0.335958, -2.08384, -2.16602, -0.129128, -0.00338507, 0.0123818, 0.00637623, 0.0107664, 0.00796226, -0.00287363
0.0501833, 1.69156, -1.22561, -1.53808, -0.899985, -1.19181, 1.2285, -1.3026, 0.021345, -0.00416267, -0.00498539, 0.00225831, -0.00428515, 0.00303645, -0.000313126, 2.39997, 58.0347, 27.7146, 5.31555, 1.60785, 3.47507, -0.0621838, 0.00080752, -0.001452, 0.000198627, 0.000218117, -0.000376392, 2.33931e-05, 0.00777944, -0.0139562, -0.00922983, -0.0121055, 0.0107166, 0.00447431, 0.470962, -0.543221, 0.335981, -2.08372, -2.16594, -0.129759, 0.469476, -0.542453, 0.335954, -2.08383, -2.16603, -0.129132, -0.00354847, 0.0129888, 0.00668792, 0.0103346, 0.00730126, -0.00405441
0.0511833, 1.69158, -1.2256, -1.53809, -0.89998, -1.19182, 1.22851, -1.3026, 0.0246307, -0.00017523, -0.00366936, 0.00397705, -0.00294703, 0.00668264, -0.00119158, 2.62611, 57.9236, 27.7146, 5.2005, 1.60144, 3.48239, -0.0356336, 0.0007987, -0.00143722, 0.000200032, 0.000209752, -0.000393451, 1.91344e-05, 0.00695959, -0.0165429, -0.00624921, -0.00679512, 0.0156928, 0.00757729, 0.470958, -0.543208, 0.335987, -2.08371, -2.16594, -0.129749, 0.469487, -0.542448, 0.335957, -2.08383, -2.16606, -0.129115, -0.00371575, 0.0136108, 0.00700727, 0.0128291, 0.00838024, -0.000742901
0.0521833, 1.69161, -1.22561, -1.5381, -0.899983, -1.19183, 1.22852, -1.3026, 0.0256217, -0.00104377, -0.00354079, 0.00155853, -0.00292248, 0.0047875, -0.00126871, 2.77686, 57.9633, 27.7503, 5.24017, 1.62067, 3.48971, -0.0228162, 0.000793206, -0.00141779, 0.000212233, 0.000216618, -0.000399439, -1.55169e-06, 0.00634193, -0.0174879, -0.00748691, -0.00997508, 0.0145479, 0.0102917, 0.470955, -0.543195, 0.335994, -2.0837, -2.16595, -0.129738, 0.469502, -0.542437, 0.335951, -2.0838, -2.16609, -0.129093, -0.00388686, 0.0142477, 0.0073342, 0.0135349, 0.00985627, -0.00157091
0.0531833, 1.69163, -1.22561, -1.5381, -0.899978, -1.19184, 1.22853, -1.3026, 0.0254076, -0.00153026, -0.00171981, 0.00267865, -0.00744795, 0.00859056, -0.000845519, 2.96729, 57.999, 27.7146, 5.16479, 1.63898, 3.48239, -0.0228162, 0.000781485, -0.00140206, 0.000221841, 0.000210401, -0.000407085, -3.20113e-06, 0.00842821, -0.0177904, -0.00684866, -0.0069453, 0.0198796, 0.00748991, 0.470951, -0.54318, 0.336002, -2.08369, -2.16596, -0.129728, 0.469514, -0.542432, 0.335946, -2.08379, -2.1661, -0.129081, -0.00406174, 0.0148993, 0.00766863, 0.01376, 0.00836256, -0.00093916
0.0541833, 1.69167, -1.22562, -1.53811, -0.899974, -1.19185, 1.22854, -1.30259, 0.0269638, -0.00269001, -0.00129241, 0.00252827, -0.0103446, 0.00645618, 0.000148616, 3.07838, 58.0704, 27.7146, 5.12909, 1.64447, 3.48239, -0.0420422, 0.000773302, -0.00138166, 0.000233124, 0.000207852, -0.000412027, -1.29806e-05, 0.00878207, -0.0182378, -0.00789687, -0.0104767, 0.0205365, 0.00685077, 0.470947, -0.543166, 0.336009, -2.08368, -2.16597, -0.129716, 0.469531, -0.542423, 0.335941, -2.08377, -2.16613, -0.129069, -0.00424034, 0.0155655, 0.00801045, 0.014003, 0.00885916, -0.00170089
0.0551833, 1.69169, -1.22562, -1.53813, -0.899968, -1.19186, 1.22856, -1.30259, 0.0229088, -0.000957669, -0.0058303, 0.00337922, -0.00723664, 0.00485097, 0.00108258, 3.26881, 58.0347, 27.79, 5.05371, 1.63257, 3.48239, -0.0685925, 0.000759274, -0.001367, 0.000242679, 0.000205342, -0.000422656, -9.35172e-06, 0.0115666, -0.0151651, -0.00853181, -0.0135098, 0.0194928, -0.000584443, 0.470942, -0.54315, 0.336017, -2.08367, -2.16597, -0.129705, 0.469541, -0.542419, 0.335937, -2.08377, -2.16614, -0.129049, -0.00442257, 0.0162459, 0.00835954, 0.010829, 0.00676228, -0.00231794
0.0561833, 1.69172, -1.22562, -1.53813, -0.899965, -1.19187, 1.22857, -1.30259, 0.0289863, -0.00147333, -0.00246368, 0.00312869, -0.0107872, 0.00801496, 0.000247128, 3.34419, 58.0704, 27.7146, 5.01404, 1.65088, 3.48971, -0.0557752, 0.000748101, -0.0013483, 0.000253122, 0.000202195, -0.000431126, -1.99103e-05, 0.00991973, -0.0195778, -0.00795488, -0.0108781, 0.0239218, 0.00632129, 0.470938, -0.543134, 0.336026, -2.08366, -2.16598, -0.129692, 0.469555, -0.542412, 0.335932, -2.08376, -2.16616, -0.129032, -0.00460838, 0.0169405, 0.00871578, 0.015012, 0.00917527, -0.00127003
0.0571833, 1.69174, -1.22563, -1.53814, -0.89996, -1.19189, 1.22858, -1.30259, 0.0252666, -0.00576846, -0.00669941, 0.0028819, -0.0120063, 0.0058004, -0.000343782, 3.49494, 58.1458, 27.79, 4.97833, 1.63257, 3.49612, -0.0420422, 0.000733561, -0.00133076, 0.000268836, 0.000203873, -0.000435912, -2.48072e-05, 0.0135639, -0.016509, -0.0122545, -0.0172811, 0.0202206, 0.000478625, 0.470933, -0.543117, 0.336034, -2.08364, -2.16599, -0.129679, 0.469568, -0.542406, 0.335923, -2.08374, -2.16618, -0.129013, -0.00479766, 0.0176488, 0.00907903, 0.0117329, 0.00682154, -0.00562494
0.0581833, 1.69178, -1.22563, -1.53815, -0.899957, -1.1919, 1.22859, -1.3026, 0.0324491, -0.00326217, -0.0062883, 0.00272715, -0.00857511, 0.00384523, -0.000703837, 3.49494, 58.11, 27.7146, 4.94263, 1.62067, 3.51077, -0.0292249, 0.000725651, -0.00130625, 0.00027722, 0.000196566, -0.000446133, -4.41571e-05, 0.00989799, -0.0208018, -0.0114561, -0.018315, 0.0196474, 0.008759, 0.470929, -0.543099, 0.336043, -2.08363, -2.166, -0.129666, 0.469588, -0.542394, 0.335922, -2.08371, -2.16622, -0.129, -0.00499035, 0.0183707, 0.00944913, 0.0157247, 0.0112162, -0.00402781
0.0591833, 1.69181, -1.22564, -1.53815, -0.899954, -1.19191, 1.22861, -1.30259, 0.0293536, -0.00899544, -0.00218885, 0.00272412, -0.00667897, 0.00840705, -0.000943891, 3.57032, 58.2568, 27.6035, 4.90295, 1.62616, 3.48971, -0.0164075, 0.000712493, -0.00128408, 0.000290561, 0.000184978, -0.000450709, -5.3947e-05, 0.0118525, -0.0211153, -0.0130576, -0.0102045, 0.0147889, 0.00803431, 0.470924, -0.543081, 0.336053, -2.08362, -2.16601, -0.129652, 0.469605, -0.542385, 0.335915, -2.0837, -2.16625, -0.128995, -0.00518633, 0.0191057, 0.00982594, 0.015854, 0.0102811, -0.00554513
0.0601833, 1.69184, -1.22565, -1.53817, -0.899946, -1.19192, 1.22862, -1.3026, 0.0300901, -0.00640509, -0.00450402, 0.00356282, -0.00549645, 0.0107375, -0.00184992, 3.6457, 58.2568, 27.7146, 4.82758, 1.63898, 3.49612, 0.0165515, 0.000694905, -0.00126611, 0.000304569, 0.000185274, -0.000462139, -5.9493e-05, 0.0128233, -0.0216262, -0.0123307, -0.00947535, 0.018171, 0.0075364, 0.470918, -0.543062, 0.336063, -2.0836, -2.16602, -0.129638, 0.469618, -0.542381, 0.335908, -2.08368, -2.16627, -0.128969, -0.00538552, 0.0198537, 0.0102093, 0.0162263, 0.00998003, -0.00461028
0.0611833, 1.69187, -1.22564, -1.53817, -0.89994, -1.19194, 1.22863, -1.3026, 0.0293118, -0.00114248, -0.00650041, 0.00403327, -0.00830598, 0.00778949, -0.00123325, 3.6457, 58.11, 27.7146, 4.75616, 1.62616, 3.50345, 0.0165515, 0.000680392, -0.00124579, 0.000310361, 0.000178572, -0.000482143, -6.26642e-05, 0.0142918, -0.0199647, -0.0103615, -0.0146366, 0.0248492, 0.00309796, 0.470913, -0.543042, 0.336073, -2.08359, -2.16603, -0.129623, 0.469633, -0.542374, 0.33591, -2.08368, -2.1663, -0.128941, -0.0055878, 0.0206142, 0.0105989, 0.0144889, 0.00891976, -0.00245374
0.0621833, 1.69191, -1.22566, -1.53818, -0.899943, -1.19196, 1.22865, -1.30259, 0.0316816, -0.00442489, -0.00626173, 0.00100913, -0.011144, 0.0110773, 0.00158535, 3.6457, 58.2568, 27.6392, 4.82758, 1.63257, 3.48971, -0.0484509, 0.000666059, -0.00122019, 0.000326639, 0.000170652, -0.000491939, -7.08231e-05, 0.0143402, -0.0225382, -0.0127236, -0.0153059, 0.0263869, 0.00383301, 0.470907, -0.543021, 0.336083, -2.08357, -2.16604, -0.129607, 0.469653, -0.542364, 0.335901, -2.08367, -2.16633, -0.128926, -0.00579309, 0.0213869, 0.0109948, 0.0167698, 0.0101142, -0.00447581
0.0631833, 1.69193, -1.22566, -1.53818, -0.89994, -1.19198, 1.22867, -1.3026, 0.030703, -0.00219409, -0.00708603, 0.000665793, -0.0132814, 0.0171178, -0.000638504, 3.75678, 58.2172, 27.6035, 4.82758, 1.63898, 3.50345, -0.00267457, 0.000645688, -0.00120279, 0.000335784, 0.000160384, -0.000509669, -7.77967e-05, 0.0165283, -0.0229324, -0.0114386, -0.0119365, 0.0339439, 0.00357545, 0.470902, -0.543, 0.336094, -2.08356, -2.16606, -0.129591, 0.469665, -0.54236, 0.335899, -2.08366, -2.16636, -0.128904, -0.00600136, 0.0221719, 0.0113968, 0.0170806, 0.00855764, -0.00315646
0.0641833, 1.69193, -1.22566, -1.53818, -0.89994, -1.19198, 1.22867, -1.3026, 0.030703, -0.00219409, -0.00708603, 0.000665793, -0.0132814, 0.0171178, -0.000638504, 3.75678, 58.2172, 27.6035, 4.82758, 1.63898, 3.50345, -0.00267457, 0.000621826, -0.00119735, 0.000343421, 0.000149005, -0.000504353, -6.53334e-05, 0.0173863, -0.0231228, -0.0117111, -0.0122807, 0.0344959, 0.00290143, 0.470896, -0.542978, 0.336106, -2.08354, -2.16607, -0.129574, 0.469665, -0.54236, 0.335899, -2.08366, -2.16636, -0.128904, -0.00621258, 0.0229689, 0.0118049, 0.0170806, 0.00855764, -0.00315646
0.0651833, 1.69193, -1.22566, -1.53818, -0.89994, -1.19198, 1.22867, -1.3026, 0.030703, -0.00219409, -0.00708603, 0.000665793, -0.0132814, 0.0171178, -0.000638504, 3.75678, 58.2172, 27.6035, 4.82758, 1.63898, 3.50345, -0.00267457, 0.000597107, -0.00119172, 0.000351333, 0.000137218, -0.000498851, -5.24286e-05, 0.0182571, -0.0233158, -0.0119877, -0.0126295, 0.035056, 0.00221777, 0.470889, -0.542955, 0.336118, -2.08352, -2.16608, -0.129557, 0.469665, -0.54236, 0.335899, -2.08366, -2.16636, -0.128904, -0.0064267, 0.0237778, 0.012219, 0.0170806, 0.00855764, -0.00315646
0.0661833, 1.69193, -1.22566, -1.53818, -0.89994, -1.19198, 1.22867, -1.3026, 0.030703, -0.00219409, -0.00708603, 0.000665793, -0.0132814, 0.0171178, -0.000638504, 3.75678, 58.2172, 27.6035, 4.82758, 1.63898, 3.50345, -0.00267457, 0.000571518, -0.00118589, 0.000359521, 0.000125017, -0.000493162, -3.9076e-05, 0.0191406, -0.0235113, -0.0122682, -0.012983, 0.0356241, 0.00152458, 0.470883, -0.542931, 0.33613, -2.0835, -2.16609, -0.129539, 0.469665, -0.54236, 0.335899, -2.08366, -2.16636, -0.128904, -0.00664368, 0.0245986, 0.0126391, 0.0170806, 0.00855764, -0.00315646
0.0671833, 1.69205, -1.22565, -1.53822, -0.899932, -1.19205, 1.22874, -1.3026, 0.0312316, -0.00174787, -0.00469637, 0.00147091, -0.0128625, 0.0174336, -0.00155654, 3.6814, 58.11, 27.6749, 4.82758, 1.61426, 3.53915, 0.0165515, 0.000566815, -0.00111596, 0.000377309, 0.000129332, -0.000591558, -9.41224e-05, 0.0194478, -0.0243422, -0.0113316, -0.0104444, 0.036248, 0.00284348, 0.470876, -0.542906, 0.336143, -2.08349, -2.16611, -0.12952, 0.469728, -0.542335, 0.335892, -2.08363, -2.16649, -0.128786, -0.00686349, 0.0254311, 0.0130651, 0.0177358, 0.00897741, -0.00187864
0.0681833, 1.69207, -1.22565, -1.53822, -0.89993, -1.19207, 1.22876, -1.30259, 0.0294506, -0.000426409, -0.00267253, 0.0011247, -0.0189946, 0.0175606, 0.000657732, 3.6814, 58.0704, 27.6392, 4.82758, 1.61426, 3.54648, -0.0292249, 0.000543909, -0.00109574, 0.000386212, 0.000117358, -0.000612001, -9.29285e-05, 0.0217238, -0.0232849, -0.010069, -0.0115611, 0.0430779, -0.00264371, 0.470869, -0.542881, 0.336156, -2.08347, -2.16612, -0.129501, 0.469741, -0.54233, 0.335892, -2.08363, -2.16651, -0.128759, -0.00708609, 0.0262753, 0.013497, 0.0165854, 0.00733717, -0.000521019
0.0691833, 1.69211, -1.22565, -1.53822, -0.899933, -1.1921, 1.22878, -1.3026, 0.0308684, -0.00135418, -0.00122909, -0.000905366, -0.0201013, 0.0180045, 0.000201132, 3.57032, 58.11, 27.6035, 4.90295, 1.64447, 3.54648, -0.0228162, 0.000522392, -0.00107046, 0.000396557, 0.000104592, -0.000637865, -0.000103485, 0.021465, -0.0249637, -0.0107113, -0.0120587, 0.0439989, 0.000609516, 0.470862, -0.542854, 0.336169, -2.08345, -2.16613, -0.129481, 0.46976, -0.542322, 0.335891, -2.08362, -2.16656, -0.128728, -0.00731145, 0.027131, 0.0139346, 0.018004, 0.00861669, -0.000728549
0.0701833, 1.69214, -1.22565, -1.53823, -0.89993, -1.19212, 1.2288, -1.30259, 0.0309126, 0.000754037, -0.00362982, -0.000522523, -0.0239376, 0.013009, 0.000608808, 3.49494, 58.0347, 27.7146, 4.90295, 1.63257, 3.56112, -0.0356336, 0.000498604, -0.00104666, 0.0004071, 9.38819e-05, -0.000662764, -0.000101323, 0.0230317, -0.0233024, -0.0110086, -0.020305, 0.0474936, -0.00330077, 0.470855, -0.542827, 0.336183, -2.08343, -2.16615, -0.129461, 0.469777, -0.542316, 0.33589, -2.08362, -2.16659, -0.128694, -0.00753952, 0.0279981, 0.014378, 0.0161627, 0.00791452, -0.000771473
0.0711833, 1.69216, -1.22565, -1.53824, -0.899926, -1.19214, 1.22882, -1.30259, 0.0292307, 0.000422881, -0.00257885, 0.00054766, -0.0228978, 0.0192022, 0.000880591, 3.49494, 58.0347, 27.7146, 4.86725, 1.63898, 3.56112, -0.0484509, 0.000470406, -0.00102608, 0.000417629, 7.5135e-05, -0.000684672, -9.44373e-05, 0.0252915, -0.0237679, -0.0103481, -0.0131527, 0.0497673, -0.00604574, 0.470847, -0.542799, 0.336197, -2.08341, -2.16616, -0.12944, 0.469791, -0.542313, 0.335889, -2.08363, -2.16662, -0.128671, -0.00777026, 0.0288765, 0.0148271, 0.0165026, 0.00647995, -3.49038e-05
0.0721833, 1.69219, -1.22565, -1.53824, -0.899928, -1.19216, 1.22884, -1.30259, 0.0297108, -0.000613156, -0.000910448, -0.000424518, -0.0214513, 0.0188568, -0.000599732, 3.41956, 58.0704, 27.6749, 4.90295, 1.62616, 3.56845, -0.0164075, 0.000447135, -0.00100009, 0.000428922, 5.79322e-05, -0.000703271, -0.000106766, 0.0251753, -0.0248759, -0.0108593, -0.0123249, 0.0479856, -0.00268118, 0.47084, -0.54277, 0.336212, -2.08339, -2.16618, -0.129418, 0.469809, -0.542304, 0.335888, -2.08361, -2.16666, -0.128651, -0.00800365, 0.0297661, 0.0152818, 0.0173532, 0.00760902, -0.00010078
0.0731833, 1.69222, -1.22565, -1.53824, -0.899928, -1.19218, 1.22887, -1.3026, 0.0300418, 0.000381554, 0.000138829, -0.000248817, -0.0256322, 0.0187351, -0.00138316, 3.34419, 58.0347, 27.6392, 4.90295, 1.62616, 3.57577, 0.0101428, 0.000421204, -0.000975585, 0.000436083, 3.86162e-05, -0.000731783, -0.000112993, 0.0265508, -0.0249076, -0.0102133, -0.013729, 0.0528882, -0.0033956, 0.470832, -0.542741, 0.336228, -2.08336, -2.16619, -0.129396, 0.469826, -0.542298, 0.335892, -2.08361, -2.16671, -0.128622, -0.00823965, 0.0306668, 0.015742, 0.0172223, 0.00705416, 0.000783
0.0741833, 1.69225, -1.22565, -1.53823, -0.899929, -1.19221, 1.22889, -1.3026, 0.0309797, 0.00105592, 0.000860702, 0.00204964, -0.0244117, 0.0227213, -0.00115947, 3.22913, 57.999, 27.6035, 4.94263, 1.63898, 3.59683, 0.0165515, 0.00039621, -0.000948256, 0.000445379, 2.00668e-05, -0.00075768, -0.000121798, 0.0277543, -0.0261155, -0.00925133, -0.00844817, 0.0549394, -0.00472311, 0.470823, -0.54271, 0.336243, -2.08334, -2.16621, -0.129373, 0.469846, -0.54229, 0.335894, -2.0836, -2.16676, -0.128594, -0.00847821, 0.0315785, 0.0162078, 0.018269, 0.00668009, 0.00197516
0.0751833, 1.69228, -1.22565, -1.53824, -0.899933, -1.19223, 1.22891, -1.3026, 0.0308992, -0.000156526, -0.000311717, -2.4952e-05, -0.0271353, 0.0263411, -0.000535619, 3.15376, 58.0347, 27.6392, 5.01404, 1.62616, 3.59683, 0.0101428, 0.000367911, -0.000922631, 0.000459734, 4.65809e-06, -0.000778987, -0.000125441, 0.0294424, -0.0269222, -0.0106579, -0.00906231, 0.0586437, -0.00583963, 0.470815, -0.542678, 0.33626, -2.08332, -2.16623, -0.129349, 0.469863, -0.542283, 0.335891, -2.08359, -2.1668, -0.128566, -0.0087193, 0.0325011, 0.016679, 0.0188436, 0.00618612, 0.000771071
0.0761833, 1.69231, -1.22565, -1.53825, -0.899932, -1.19225, 1.22893, -1.30259, 0.02673, -0.00012329, -0.00200878, 0.00102788, -0.0254283, 0.0288862, 0.000388906, 3.11805, 58.0347, 27.7146, 4.97833, 1.63257, 3.60415, -0.00999879, 0.000336281, -0.000899221, 0.000472465, -1.13438e-05, -0.00080392, -0.000120185, 0.0328882, -0.0249259, -0.0109691, -0.00678591, 0.0590711, -0.0128287, 0.470806, -0.542646, 0.336276, -2.08329, -2.16625, -0.129324, 0.469879, -0.542279, 0.335889, -2.08359, -2.16683, -0.128534, -0.00896288, 0.0334345, 0.0171556, 0.01672, 0.0036833, 0.000466765
0.0771833, 1.69234, -1.22565, -1.53825, -0.899933, -1.19227, 1.22896, -1.30259, 0.0295361, -0.000931616, -0.00136748, 7.00413e-06, -0.0280028, 0.0269662, 0.00049663, 2.96729, 58.0704, 27.7146, 5.01404, 1.62067, 3.58951, -0.0164075, 0.000310152, -0.00086833, 0.000482849, -3.55109e-05, -0.000827441, -0.00013048, 0.0326073, -0.0264355, -0.0119955, -0.0104802, 0.0602086, -0.0106031, 0.470797, -0.542612, 0.336293, -2.08327, -2.16626, -0.129299, 0.469901, -0.542268, 0.335891, -2.08358, -2.16688, -0.128512, -0.00920893, 0.0343785, 0.0176375, 0.0179344, 0.0051254, -6.7383e-05
0.0781833, 1.69237, -1.22566, -1.53825, -0.899936, -1.1923, 1.22898, -1.30259, 0.0287144, -0.00155975, -0.00176809, -0.000805623, -0.0257424, 0.02933, 9.37279e-05, 2.92762, 58.11, 27.7503, 5.05371, 1.62067, 3.59683, -0.00999879, 0.000277259, -0.000843107, 0.000499419, -5.09236e-05, -0.000847973, -0.000130899, 0.0336996, -0.0270071, -0.0126932, -0.00843934, 0.05963, -0.0105215, 0.470788, -0.542578, 0.336311, -2.08324, -2.16628, -0.129273, 0.469918, -0.542263, 0.335887, -2.08357, -2.16692, -0.128483, -0.00945739, 0.0353331, 0.0181247, 0.0182712, 0.00513298, -0.000456027
0.0791833, 1.69241, -1.22564, -1.53825, -0.899933, -1.19232, 1.229, -1.30259, 0.0299144, 0.00238585, -0.00119464, 0.000479234, -0.024918, 0.0258473, 0.000537203, 2.81654, 57.9633, 27.7503, 5.01404, 1.64447, 3.6188, -0.0228162, 0.000248492, -0.000814055, 0.000503824, -7.47453e-05, -0.000882227, -0.000134598, 0.0335654, -0.0271024, -0.0106924, -0.0102332, 0.0617143, -0.0112292, 0.470779, -0.542543, 0.336329, -2.08322, -2.1663, -0.129247, 0.469938, -0.542254, 0.335895, -2.08357, -2.16697, -0.128448, -0.00970824, 0.0362982, 0.0186171, 0.0181841, 0.00592748, 0.00202985
0.0801833, 1.69244, -1.22565, -1.53825, -0.899936, -1.19235, 1.22903, -1.30259, 0.029195, -0.0018491, 2.68529e-05, -0.00137753, -0.0230752, 0.0238129, -0.00038785, 2.77686, 58.11, 27.7146, 5.08942, 1.63898, 3.62521, -0.00267457, 0.000215134, -0.000787062, 0.000520837, -9.9172e-05, -0.000894613, -0.000139972, 0.0339554, -0.0274685, -0.0134781, -0.0116142, 0.0557132, -0.00892419, 0.470769, -0.542506, 0.336348, -2.08319, -2.16632, -0.12922, 0.469956, -0.542247, 0.335891, -2.08356, -2.16701, -0.128436, -0.00996144, 0.0372736, 0.0191147, 0.0182093, 0.00696173, -0.000295019
0.0811833, 1.69247, -1.22565, -1.53825, -0.899935, -1.19238, 1.22905, -1.30259, 0.0303427, 0.00052601, -0.000826268, -3.34666e-05, -0.0272359, 0.0226154, 1.27011e-05, 2.66181, 58.0347, 27.7503, 5.05371, 1.65729, 3.62521, -0.00999879, 0.000182544, -0.000758444, 0.000531147, -0.000116282, -0.000926373, -0.000141408, 0.0355553, -0.0271603, -0.0126992, -0.0150927, 0.0615447, -0.0120387, 0.470759, -0.542469, 0.336367, -2.08316, -2.16634, -0.129192, 0.469975, -0.542239, 0.335894, -2.08356, -2.16705, -0.128395, -0.010217, 0.0382593, 0.0196175, 0.017733, 0.0062359, 0.000738097
0.0821833, 1.6925, -1.22565, -1.53825, -0.899935, -1.1924, 1.22907, -1.30259, 0.0301288, 0.00118252, 0.000277658, 1.49388e-05, -0.0251718, 0.0265879, 0.000245826, 2.58643, 57.999, 27.7146, 5.05371, 1.65729, 3.6188, -0.0164075, 0.000150429, -0.000728024, 0.000541614, -0.000143303, -0.000950324, -0.000146805, 0.0364472, -0.0284012, -0.0118931, -0.0100212, 0.0630739, -0.0121422, 0.470749, -0.542431, 0.336386, -2.08313, -2.16636, -0.129163, 0.469996, -0.542229, 0.335897, -2.08355, -2.1671, -0.128373, -0.0104747, 0.0392552, 0.0201252, 0.0187768, 0.0062794, 0.00186556
0.0831833, 1.69254, -1.22565, -1.53825, -0.899938, -1.19242, 1.2291, -1.3026, 0.0309179, -0.000884617, -0.000655148, -0.000797321, -0.0242137, 0.0300011, -0.00081946, 2.47535, 58.0704, 27.7503, 5.08942, 1.6756, 3.60415, 0.0101428, 0.000116722, -0.000696155, 0.000557728, -0.000164373, -0.000972837, -0.000156555, 0.0374935, -0.0298646, -0.0136332, -0.00852796, 0.0627642, -0.0105148, 0.470738, -0.542392, 0.336407, -2.0831, -2.16638, -0.129134, 0.470018, -0.54222, 0.335895, -2.08353, -2.16716, -0.128345, -0.0107348, 0.0402611, 0.020638, 0.0199531, 0.00658106, 0.000452979
0.0841833, 1.69257, -1.22565, -1.53825, -0.899938, -1.19245, 1.22912, -1.30259, 0.0299176, -0.00151966, -0.00220378, -0.000510595, -0.0227801, 0.0315031, 0.00114911, 2.43568, 58.11, 27.8257, 5.08942, 1.6756, 3.61148, -0.0356336, 8.03004e-05, -0.000667531, 0.000574663, -0.000181156, -0.000991876, -0.000151851, 0.0393711, -0.0296501, -0.0146762, -0.00809577, 0.0624421, -0.0148209, 0.470727, -0.542351, 0.336427, -2.08308, -2.1664, -0.129103, 0.470037, -0.542212, 0.335893, -2.08353, -2.16719, -0.128314, -0.010997, 0.0412769, 0.0211557, 0.0195072, 0.00589516, -0.000343767
0.0851833, 1.69262, -1.22565, -1.53825, -0.899943, -1.19247, 1.22914, -1.30259, 0.035033, -8.65092e-05, -0.000636802, -0.00835777, -0.0221273, 0.0283007, 0.000766076, 2.28492, 58.0704, 27.79, 5.16479, 1.6875, 3.61148, -0.0356336, 4.96579e-05, -0.000631005, 0.000587093, -0.000203775, -0.0010188, -0.000167929, 0.0349483, -0.0342467, -0.0152662, -0.0140363, 0.0632014, -0.00242395, 0.470716, -0.54231, 0.336448, -2.08304, -2.16642, -0.129072, 0.470063, -0.542197, 0.335896, -2.08351, -2.16725, -0.128282, -0.0112614, 0.0423026, 0.0216783, 0.0236513, 0.0115697, 0.000140796
0.0861833, 1.69266, -1.22565, -1.53825, -0.899948, -1.19249, 1.22916, -1.30259, 0.0375913, -5.87394e-05, -0.000426659, -0.00691777, -0.0258615, 0.0308787, 0.000748077, 2.17384, 58.0704, 27.79, 5.2005, 1.6875, 3.60415, -0.0420422, 1.77326e-05, -0.000594866, 0.000602507, -0.000225572, -0.00103817, -0.000181971, 0.0363124, -0.0356862, -0.0152331, -0.0134913, 0.0682092, -0.00315149, 0.470705, -0.542268, 0.33647, -2.08301, -2.16645, -0.129041, 0.470088, -0.542182, 0.335896, -2.08348, -2.16731, -0.128257, -0.011528, 0.0433381, 0.0222057, 0.0248737, 0.011314, 0.000445197
0.0871833, 1.6927, -1.22565, -1.53826, -0.899946, -1.19252, 1.22918, -1.30259, 0.0402344, -0.000967979, -0.00195647, -0.00415965, -0.0242835, 0.0277707, 0.000261359, 2.17384, 58.11, 27.8614, 5.16479, 1.69391, 3.60415, -0.0356336, -2.20007e-05, -0.000563835, 0.000620434, -0.000245664, -0.00105972, -0.00017897, 0.0368499, -0.0361506, -0.0166941, -0.0164048, 0.0651279, -0.00352922, 0.470694, -0.542224, 0.336492, -2.08298, -2.16647, -0.129008, 0.470109, -0.542174, 0.335893, -2.08347, -2.16735, -0.128224, -0.0117966, 0.0443832, 0.0227379, 0.0250353, 0.012073, -0.000563092
0.0881833, 1.69274, -1.22565, -1.53825, -0.899949, -1.19254, 1.22921, -1.30259, 0.0457748, 0.0002821, 0.000364929, -0.00389559, -0.0224042, 0.025766, -0.00175854, 2.02308, 58.0704, 27.79, 5.2005, 1.68201, 3.59683, 0.0165515, -5.29656e-05, -0.00052336, 0.000633272, -0.00027175, -0.00108319, -0.000203769, 0.0344164, -0.0396712, -0.0159247, -0.0163089, 0.0645605, 0.00458013, 0.470682, -0.54218, 0.336515, -2.08295, -2.16649, -0.128975, 0.470138, -0.542157, 0.335898, -2.08344, -2.16742, -0.128199, -0.0120673, 0.0454378, 0.0232748, 0.0282205, 0.0155594, 0.00100235
0.0891833, 1.69278, -1.22565, -1.53825, -0.899952, -1.19257, 1.22923, -1.30259, 0.0455945, 0.00336183, -0.00142805, -0.00374053, -0.0226813, 0.0190203, -0.000697643, 2.05878, 58.0704, 27.8614, 5.24017, 1.71222, 3.60415, 0.00373412, -9.19022e-05, -0.000489842, 0.000650298, -0.000293021, -0.00110502, -0.000210267, 0.0351216, -0.0381427, -0.015676, -0.0239513, 0.0653471, 0.00131002, 0.47067, -0.542135, 0.336538, -2.08291, -2.16652, -0.128941, 0.47016, -0.542146, 0.335897, -2.08342, -2.16747, -0.128167, -0.0123401, 0.0465019, 0.0238164, 0.0264567, 0.0158263, 0.00172675
0.0901833, 1.69282, -1.22565, -1.53825, -0.899956, -1.19259, 1.22925, -1.30259, 0.0473921, 0.0025054, -0.000952703, -0.0034905, -0.0173932, 0.0186731, -0.000702454, 2.02308, 58.0704, 27.8614, 5.27588, 1.72504, 3.61148, 0.0101428, -0.000128817, -0.000453413, 0.000667066, -0.000314467, -0.00112549, -0.000223374, 0.0344502, -0.0399718, -0.0164652, -0.0220515, 0.0607277, 0.00399858, 0.470657, -0.542088, 0.336562, -2.08288, -2.16654, -0.128906, 0.470185, -0.542132, 0.335897, -2.0834, -2.16753, -0.128137, -0.0126148, 0.0475753, 0.0243626, 0.0279555, 0.017761, 0.00154107
0.0911833, 1.69287, -1.22564, -1.53826, -0.899957, -1.19261, 1.22926, -1.3026, 0.0445911, 0.00353884, -0.00156366, -0.00244819, -0.0176498, 0.0182144, -0.000468303, 2.02308, 57.999, 27.9011, 5.27588, 1.72504, 3.62521, 0.0101428, -0.000165695, -0.000417183, 0.000681959, -0.000331477, -0.00114735, -0.000233119, 0.0372004, -0.0381753, -0.0161911, -0.0225382, 0.0623437, -0.0012094, 0.470645, -0.542041, 0.336586, -2.08285, -2.16657, -0.128871, 0.470209, -0.542117, 0.3359, -2.08337, -2.16759, -0.128099, -0.0128915, 0.048658, 0.0249134, 0.0259957, 0.0160124, 0.00199124
0.0921833, 1.69291, -1.22565, -1.53826, -0.899962, -1.19264, 1.22928, -1.30259, 0.0435978, 0.00307235, -0.00271325, -0.00265104, -0.0187485, 0.0183715, 0.0021292, 1.98341, 58.11, 27.9725, 5.31555, 1.74884, 3.62521, -0.0557752, -0.000204979, -0.000378334, 0.000705229, -0.000350039, -0.00116248, -0.000238281, 0.0392732, -0.037624, -0.0172048, -0.0243506, 0.0636648, -0.00642712, 0.470632, -0.541992, 0.336611, -2.08281, -2.16659, -0.128834, 0.470236, -0.542102, 0.335895, -2.08335, -2.16763, -0.128068, -0.0131701, 0.0497497, 0.0254687, 0.0252055, 0.0151914, 0.00124094
0.0931833, 1.69296, -1.22565, -1.53827, -0.899963, -1.19266, 1.2293, -1.30259, 0.0468221, 0.00335129, -0.00357236, -0.00183553, -0.023862, 0.0183933, 0.000910843, 1.90803, 58.0704, 28.0478, 5.31555, 1.76166, 3.62521, -0.0420422, -0.000242809, -0.000338084, 0.000723514, -0.000366061, -0.00118469, -0.000253049, 0.0404325, -0.0387734, -0.0177709, -0.0280057, 0.0689764, -0.00578171, 0.470619, -0.541942, 0.336637, -2.08277, -2.16662, -0.128797, 0.470263, -0.542085, 0.335895, -2.08331, -2.1677, -0.128028, -0.0134506, 0.0508506, 0.0260284, 0.026095, 0.0152835, 0.00102641
0.0941833, 1.69301, -1.22565, -1.53827, -0.899968, -1.19269, 1.22931, -1.30259, 0.0442347, 0.000752229, -0.0033098, -0.00211003, -0.023155, 0.0186124, 0.00036987, 1.90803, 58.1458, 28.0875, 5.35126, 1.77997, 3.62521, -0.0356336, -0.000282576, -0.000298858, 0.000745461, -0.000381038, -0.0012006, -0.000263582, 0.0427691, -0.0378489, -0.0194641, -0.027664, 0.0666023, -0.00806311, 0.470605, -0.541891, 0.336663, -2.08274, -2.16665, -0.128759, 0.47029, -0.542068, 0.335892, -2.08328, -2.16775, -0.127991, -0.013733, 0.0519604, 0.0265925, 0.0249131, 0.0143088, -0.000415226
0.0951833, 1.69307, -1.22565, -1.53826, -0.899973, -1.19271, 1.22933, -1.30259, 0.0473223, 0.000712442, -0.000443458, -0.00228025, -0.0266246, 0.0183763, -0.000974123, 1.83265, 58.1458, 28.0121, 5.38696, 1.77997, 3.63254, -0.00267457, -0.000317656, -0.000254418, 0.000763217, -0.000403949, -0.00121481, -0.000293339, 0.0426168, -0.0399424, -0.0190546, -0.0280014, 0.0699742, -0.00422822, 0.470592, -0.541839, 0.33669, -2.0827, -2.16667, -0.128721, 0.470321, -0.542046, 0.335895, -2.08323, -2.16782, -0.127967, -0.0140172, 0.053079, 0.027161, 0.0267298, 0.0156035, 0.000516283
0.0961833, 1.69312, -1.22565, -1.53827, -0.899974, -1.19274, 1.22934, -1.30259, 0.045369, 0.000633178, -0.002059, -0.00154893, -0.0296607, 0.0184985, -0.000378148, 1.79694, 58.1458, 28.0875, 5.38696, 1.78638, 3.63254, -0.00999879, -0.000359954, -0.00021458, 0.000784593, -0.000418354, -0.0012339, -0.000303008, 0.0458719, -0.0383366, -0.0198407, -0.0305421, 0.0731921, -0.0101173, 0.470578, -0.541786, 0.336717, -2.08266, -2.1667, -0.128681, 0.470348, -0.54203, 0.335893, -2.0832, -2.16788, -0.127925, -0.0143032, 0.0542063, 0.0277337, 0.0249312, 0.0135717, -0.000142227
0.0971833, 1.69317, -1.22565, -1.53827, -0.899974, -1.19276, 1.22935, -1.30259, 0.0472886, -0.000294436, -0.00137275, -0.00021897, -0.0272977, 0.0186547, -0.000523366, 1.75727, 58.1815, 28.0875, 5.35126, 1.79828, 3.63254, -0.00267457, -0.000400302, -0.000172188, 0.000805554, -0.000438786, -0.0012447, -0.000316436, 0.0461276, -0.0398046, -0.020429, -0.0289147, 0.0710811, -0.00903819, 0.470563, -0.541732, 0.336744, -2.08262, -2.16673, -0.128641, 0.470376, -0.542011, 0.335892, -2.08316, -2.16794, -0.127897, -0.0145909, 0.0553423, 0.0283107, 0.0260979, 0.0146081, -0.000231383
0.0981833, 1.69322, -1.22565, -1.53827, -0.899988, -1.19278, 1.22937, -1.30259, 0.0453489, 0.00230443, -0.000915236, -0.00368863, -0.0250362, 0.0194756, -0.000823629, 1.72157, 58.2172, 28.0875, 5.50201, 1.79828, 3.61148, 0.0101428, -0.000439516, -0.00012788, 0.000829894, -0.000451343, -0.00125743, -0.000343432, 0.0464857, -0.0401859, -0.0194351, -0.0283495, 0.0732209, -0.00762631, 0.470549, -0.541677, 0.336773, -2.08258, -2.16676, -0.128599, 0.470406, -0.541989, 0.335889, -2.08311, -2.16801, -0.12786, -0.0148804, 0.0564869, 0.0288918, 0.0262399, 0.0152637, 0.00126366
0.0991833, 1.69327, -1.22564, -1.53827, -0.899984, -1.19281, 1.22938, -1.30259, 0.0468155, 0.00354405, -0.000610208, -0.0015432, -0.0241052, 0.0148231, -7.43678e-05, 1.68189, 58.1458, 28.0875, 5.46234, 1.81659, 3.60415, -0.00267457, -0.000483012, -8.63745e-05, 0.000845647, -0.000473263, -0.00127907, -0.000349428, 0.0468606, -0.0400726, -0.019178, -0.0312677, 0.0720145, -0.00931942, 0.470534, -0.54162, 0.336802, -2.08254, -2.16679, -0.128557, 0.470434, -0.541971, 0.335894, -2.08308, -2.16806, -0.127821, -0.0151716, 0.0576399, 0.0294771, 0.0258597, 0.0160034, 0.00204789
0.100183, 1.69333, -1.22565, -1.53827, -0.899994, -1.19283, 1.22938, -1.30258, 0.0500571, 0.00178048, 0.00178237, -0.00372916, -0.0229204, 0.0110581, 0.00164584, 1.57081, 58.1815, 28.1232, 5.57739, 1.823, 3.60415, -0.0484509, -0.000524033, -4.18864e-05, 0.000870713, -0.000481938, -0.00129008, -0.000364931, 0.0450622, -0.0425372, -0.0205624, -0.0340571, 0.0683528, -0.005302, 0.470519, -0.541563, 0.336831, -2.08249, -2.16682, -0.128514, 0.470464, -0.541948, 0.335891, -2.08303, -2.16812, -0.127778, -0.0154644, 0.0588012, 0.0300665, 0.0279116, 0.0192575, 0.00147197
0.101183, 1.69338, -1.22564, -1.53827, -0.899991, -1.19286, 1.22939, -1.30258, 0.0523876, 0.00137673, 0.00144026, -0.00156491, -0.0218013, 0.0132186, 0.00160585, 1.45576, 58.1815, 28.1232, 5.53772, 1.823, 3.59683, -0.0621838, -0.000566987, 2.69169e-06, 0.000890816, -0.000500482, -0.00130296, -0.000378795, 0.0460377, -0.044091, -0.020947, -0.0317989, 0.0688001, -0.00559758, 0.470503, -0.541504, 0.336861, -2.08245, -2.16685, -0.128471, 0.470494, -0.541927, 0.335894, -2.08299, -2.16818, -0.127743, -0.0157588, 0.0599708, 0.0306599, 0.0291913, 0.0195896, 0.00148606
0.102183, 1.69344, -1.22565, -1.53826, -0.900004, -1.19288, 1.2294, -1.30259, 0.0499649, 0.00245615, 0.00291242, -0.00457487, -0.0259188, 0.0101363, 8.72255e-05, 1.38038, 58.2568, 28.0478, 5.68848, 1.82941, 3.58951, -0.0356336, -0.000609389, 4.81338e-05, 0.000915791, -0.000515469, -0.00131008, -0.00040559, 0.0475729, -0.0428785, -0.0207506, -0.036555, 0.0726214, -0.00549681, 0.470487, -0.541444, 0.336892, -2.08241, -2.16688, -0.128426, 0.470524, -0.541903, 0.335892, -2.08293, -2.16825, -0.127711, -0.0160548, 0.0611486, 0.0312573, 0.0277491, 0.0191719, 0.00207674
0.103183, 1.69349, -1.22565, -1.53826, -0.900002, -1.19291, 1.22941, -1.30258, 0.0491159, 0.00431789, 0.00115534, -0.00212573, -0.0246051, 0.00832691, 0.00493762, 1.26533, 58.2925, 28.0875, 5.6488, 1.84131, 3.56845, -0.0420422, -0.000658694, 9.06369e-05, 0.000939228, -0.000534447, -0.00132341, -0.000412369, 0.049693, -0.041593, -0.0204564, -0.0380804, 0.0731825, -0.0147414, 0.470471, -0.541383, 0.336923, -2.08236, -2.16691, -0.128381, 0.470551, -0.541885, 0.335891, -2.08289, -2.1683, -0.127674, -0.0163524, 0.0623344, 0.0318586, 0.0262578, 0.0181665, 0.00267971
0.104183, 1.69354, -1.22565, -1.53827, -0.900017, -1.19293, 1.22941, -1.30259, 0.0505052, 0.00258302, -0.00079389, -0.00494651, -0.0266546, 0.00695718, 0.00344123, 1.18995, 58.3282, 28.1589, 5.79956, 1.81659, 3.54648, -0.0356336, -0.000704216, 0.00013495, 0.000965507, -0.000543542, -0.00133255, -0.000433132, 0.0503562, -0.0424774, -0.0231536, -0.044115, 0.0736856, -0.0119769, 0.470455, -0.54132, 0.336955, -2.08231, -2.16694, -0.128334, 0.47058, -0.541862, 0.335888, -2.08284, -2.16837, -0.12763, -0.0166515, 0.0635282, 0.0324637, 0.0267672, 0.0191578, 0.000490977
0.105183, 1.69359, -1.22565, -1.53827, -0.900024, -1.19295, 1.22941, -1.30258, 0.0513071, 0.0051678, -0.00137754, -0.00413505, -0.0298971, 0.00559083, 0.003059, 1.11457, 58.3282, 28.1986, 5.83527, 1.82941, 3.53274, -0.0484509, -0.000753446, 0.000176928, 0.000988622, -0.000555976, -0.00134512, -0.000439899, 0.0519083, -0.042247, -0.0222965, -0.0473302, 0.0790482, -0.0139125, 0.470438, -0.541257, 0.336987, -2.08227, -2.16698, -0.128287, 0.470606, -0.541841, 0.335889, -2.08279, -2.16842, -0.127585, -0.0169521, 0.0647298, 0.0330727, 0.0263267, 0.0186872, 0.00171279
0.106183, 1.69364, -1.22564, -1.53826, -0.900034, -1.19297, 1.22942, -1.30258, 0.0492662, 0.00400217, 0.000904678, -0.00452156, -0.0272847, 0.00460281, 0.0025282, 1.03919, 58.3282, 28.1232, 5.91064, 1.8349, 3.5181, -0.0557752, -0.000800459, 0.000221647, 0.00101058, -0.000573645, -0.00135405, -0.0004571, 0.0530158, -0.0419913, -0.0226148, -0.0454343, 0.0759023, -0.0140548, 0.470421, -0.541192, 0.337021, -2.08222, -2.16701, -0.128239, 0.470635, -0.541818, 0.335892, -2.08274, -2.16848, -0.127549, -0.0172541, 0.0659392, 0.0336855, 0.0257995, 0.0188426, 0.0018474
0.107183, 1.69369, -1.22564, -1.53826, -0.900038, -1.193, 1.22942, -1.30258, 0.05162, 0.00707784, -0.000187247, -0.00218037, -0.0253186, 0.00464076, 0.00256074, 0.928108, 58.2925, 28.1589, 5.87494, 1.84131, 3.48239, -0.0750012, -0.000853144, 0.000263817, 0.00103254, -0.000589273, -0.00137053, -0.000462147, 0.0535224, -0.0430364, -0.0214003, -0.044924, 0.0781367, -0.0147288, 0.470404, -0.541126, 0.337054, -2.08217, -2.16705, -0.12819, 0.470661, -0.541799, 0.335894, -2.08271, -2.16854, -0.127501, -0.0175576, 0.0671563, 0.0343019, 0.0266047, 0.0194188, 0.00355179
0.108183, 1.69374, -1.22564, -1.53826, -0.900044, -1.19302, 1.22942, -1.30258, 0.0534225, 0.00670214, 0.00202069, -0.00456134, -0.022713, 0.00382372, 0.00135484, 0.813057, 58.3679, 28.1986, 5.87494, 1.81659, 3.46774, -0.0621838, -0.000906317, 0.000306086, 0.00105984, -0.000605894, -0.00137135, -0.000473128, 0.0523053, -0.0453874, -0.0217468, -0.0444257, 0.076177, -0.00871706, 0.470387, -0.541059, 0.337088, -2.08212, -2.16708, -0.12814, 0.470686, -0.541778, 0.335892, -2.08265, -2.16859, -0.12747, -0.0178624, 0.068381, 0.034922, 0.0285908, 0.0219993, 0.00394439
0.109183, 1.69379, -1.22564, -1.53826, -0.900056, -1.19304, 1.22942, -1.30258, 0.0532743, 0.00516457, 0.00162568, -0.00506372, -0.0215416, 0.00374082, 0.000757669, 0.626595, 58.3679, 28.1986, 5.95032, 1.81018, 3.43936, -0.0557752, -0.000957599, 0.000352027, 0.00108497, -0.000620694, -0.0013815, -0.000490658, 0.053534, -0.0457635, -0.0232747, -0.0451391, 0.0745448, -0.00860207, 0.470369, -0.54099, 0.337123, -2.08207, -2.16712, -0.128089, 0.470715, -0.541755, 0.335893, -2.0826, -2.16866, -0.127428, -0.0181686, 0.0696132, 0.0355458, 0.0286499, 0.02227, 0.00285704
0.110183, 1.69379, -1.22564, -1.53826, -0.900056, -1.19304, 1.22942, -1.30258, 0.0532743, 0.00516457, 0.00162568, -0.00506372, -0.0215416, 0.00374082, 0.000757669, 0.626595, 58.3679, 28.1986, 5.95032, 1.81018, 3.43936, -0.0557752, -0.0010325, 0.000368327, 0.00110873, -0.00065622, -0.00136569, -0.000452458, 0.0548676, -0.0460363, -0.0236918, -0.0456364, 0.0753846, -0.00961343, 0.470351, -0.540921, 0.337159, -2.08202, -2.16715, -0.128038, 0.470715, -0.541755, 0.335893, -2.0826, -2.16866, -0.127428, -0.0184762, 0.0708527, 0.036173, 0.0286499, 0.02227, 0.00285704
0.111183, 1.69379, -1.22564, -1.53826, -0.900056, -1.19304, 1.22942, -1.30258, 0.0532743, 0.00516457, 0.00162568, -0.00506372, -0.0215416, 0.00374082, 0.000757669, 0.626595, 58.3679, 28.1986, 5.95032, 1.81018, 3.43936, -0.0557752, -0.00110874, 0.000384898, 0.0011329, -0.000692373, -0.00134961, -0.000413601, 0.056209, -0.0463101, -0.0241113, -0.0461355, 0.0762287, -0.0106299, 0.470332, -0.54085, 0.337195, -2.08197, -2.16719, -0.127985, 0.470715, -0.541755, 0.335893, -2.0826, -2.16866, -0.127428, -0.018785, 0.0720996, 0.0368038, 0.0286499, 0.02227, 0.00285704
0.112183, 1.69392, -1.22563, -1.53825, -0.900091, -1.19311, 1.22943, -1.30258, 0.0461175, 0.00285216, 0.0027926, -0.00281457, -0.0206379, 0.00258962, -0.000248196, 0.325081, 58.5504, 28.274, 6.02173, 1.8349, 3.38901, -0.0292249, -0.00112873, 0.000478515, 0.00116108, -0.000675117, -0.00140527, -0.000514677, 0.0610815, -0.0422041, -0.0248968, -0.0442233, 0.0729666, -0.0187767, 0.470313, -0.540778, 0.337232, -2.08192, -2.16723, -0.127932, 0.47079, -0.541694, 0.335896, -2.08246, -2.16883, -0.127309, -0.0190951, 0.0733536, 0.0374381, 0.0243928, 0.018661, 0.00208978
0.113183, 1.69397, -1.22563, -1.53824, -0.900106, -1.19313, 1.22943, -1.30257, 0.0470475, 0.00213509, 0.00530311, -0.00688474, -0.0203651, 0.00177087, 0.000575659, 0.170357, 58.6972, 28.274, 6.09711, 1.84131, 3.38901, -0.0484509, -0.00118577, 0.000523524, 0.00119065, -0.000693261, -0.00140359, -0.000523863, 0.060221, -0.0442448, -0.0255362, -0.0452529, 0.0727018, -0.0148334, 0.470294, -0.540705, 0.337269, -2.08186, -2.16726, -0.127878, 0.470817, -0.54167, 0.335894, -2.0824, -2.16888, -0.127278, -0.0194064, 0.0746148, 0.0380757, 0.0260647, 0.0209579, 0.0021649
0.114183, 1.694, -1.22561, -1.53824, -0.90012, -1.19314, 1.22943, -1.30257, 0.0424866, 0.00864779, 0.00237639, -0.00814291, -0.0192689, 0.00175646, 0.00162626, 0.0949785, 58.5504, 28.3454, 6.09711, 1.823, 3.37436, -0.0814099, -0.00124671, 0.000562853, 0.00120823, -0.000716506, -0.00142002, -0.000521727, 0.0630123, -0.0417281, -0.0231139, -0.0471674, 0.0793024, -0.0214751, 0.470275, -0.54063, 0.337307, -2.08181, -2.1673, -0.127822, 0.470838, -0.541652, 0.335904, -2.08237, -2.16894, -0.127231, -0.0197189, 0.075883, 0.0387168, 0.0234353, 0.0189934, 0.00484453
0.115183, 1.69404, -1.22561, -1.53824, -0.900138, -1.19316, 1.22944, -1.30256, 0.0409604, 0.00790677, 0.00500412, -0.0100362, -0.0194112, 0.00146725, 0.00110051, -0.0557783, 58.6258, 28.3454, 6.13678, 1.82941, 3.36703, -0.0814099, -0.00130808, 0.000606269, 0.00123447, -0.000739182, -0.00142677, -0.000527648, 0.0640201, -0.0419773, -0.0232544, -0.0464221, 0.0793481, -0.0206054, 0.470255, -0.540554, 0.337346, -2.08175, -2.16734, -0.127766, 0.470863, -0.54163, 0.335906, -2.08232, -2.16899, -0.127194, -0.0200326, 0.0771581, 0.0393611, 0.0234045, 0.0193072, 0.00518615
0.116183, 1.69408, -1.2256, -1.53824, -0.900162, -1.19318, 1.22944, -1.30256, 0.0396136, 0.00838647, 0.0051149, -0.013946, -0.0147602, 0.00177682, 0.000508569, -0.206535, 58.6615, 28.4208, 6.28357, 1.8349, 3.34598, -0.0750012, -0.00136827, 0.00065021, 0.00125988, -0.000756613, -0.00143503, -0.00054057, 0.0638789, -0.042963, -0.0238096, -0.0460109, 0.0773316, -0.0173561, 0.470235, -0.540477, 0.337386, -2.0817, -2.16738, -0.127709, 0.470888, -0.541607, 0.33591, -2.08227, -2.16906, -0.127149, -0.0203474, 0.07844, 0.0400087, 0.0240496, 0.0208572, 0.0052761
0.117183, 1.69412, -1.22559, -1.53823, -0.900179, -1.19319, 1.22944, -1.30257, 0.0338126, 0.00860844, 0.00724448, -0.0163248, -0.0160962, 0.00146988, -0.0018219, -0.281914, 58.6972, 28.4208, 6.28357, 1.84131, 3.33865, -0.0164075, -0.00143284, 0.000690715, 0.0012813, -0.000782955, -0.0014442, -0.000547438, 0.066905, -0.0406812, -0.0234125, -0.0457692, 0.0792578, -0.0191449, 0.470215, -0.540398, 0.337426, -2.08164, -2.16742, -0.127651, 0.47091, -0.541587, 0.335917, -2.08222, -2.16912, -0.127112, -0.0206634, 0.0797287, 0.0406595, 0.021585, 0.0190014, 0.00592243
0.118183, 1.69415, -1.22556, -1.53822, -0.900203, -1.19321, 1.22944, -1.30256, 0.0335179, 0.0164053, 0.00382306, -0.0200198, -0.0169765, 0.000719201, -0.00144507, -0.392998, 58.5504, 28.4961, 6.35895, 1.84772, 3.34598, -0.00999879, -0.00149638, 0.000732107, 0.00129777, -0.000804345, -0.00146722, -0.000554339, 0.0674015, -0.040637, -0.0210436, -0.051391, 0.0887889, -0.0197094, 0.470194, -0.540319, 0.337466, -2.08158, -2.16746, -0.127592, 0.470932, -0.541566, 0.33593, -2.08218, -2.16919, -0.127054, -0.0209804, 0.081024, 0.0413134, 0.0213336, 0.0194434, 0.00883998
0.119183, 1.69419, -1.22556, -1.53822, -0.900222, -1.19323, 1.22944, -1.30255, 0.0311136, 0.0110155, 0.00228097, -0.020889, -0.012454, 0.00102991, 0.00144929, -0.543754, 58.7329, 28.5319, 6.35895, 1.84131, 3.33133, -0.0750012, -0.00156345, 0.000775122, 0.00132651, -0.000830318, -0.00146667, -0.000549564, 0.0695816, -0.0401596, -0.0251639, -0.0513721, 0.0808463, -0.0243973, 0.470173, -0.540238, 0.337508, -2.08152, -2.1675, -0.127533, 0.470956, -0.541545, 0.335932, -2.08214, -2.16924, -0.127024, -0.0212984, 0.0823259, 0.0419705, 0.0204673, 0.019205, 0.00510617
0.120183, 1.69422, -1.22555, -1.53821, -0.900248, -1.19324, 1.22944, -1.30255, 0.0275297, 0.0132099, 0.00415532, -0.0225594, -0.0144856, 0.000963812, 0.00097007, -0.619133, 58.8083, 28.5715, 6.39465, 1.85321, 3.324, -0.0750012, -0.00163239, 0.00081487, 0.0013503, -0.000858781, -0.00147219, -0.000551958, 0.0718819, -0.038849, -0.0237006, -0.0513108, 0.0854595, -0.0268731, 0.470152, -0.540155, 0.33755, -2.08146, -2.16755, -0.127472, 0.470976, -0.541525, 0.335938, -2.08209, -2.1693, -0.126989, -0.0216174, 0.0836343, 0.0426306, 0.0189832, 0.0179634, 0.00689693
0.121183, 1.69425, -1.22554, -1.5382, -0.900273, -1.19325, 1.22944, -1.30255, 0.0306962, 0.0116095, 0.00469752, -0.0207383, -0.0161966, 0.000646992, 0.000649621, -0.809562, 58.8837, 28.6429, 6.43433, 1.87244, 3.324, -0.0750012, -0.00170092, 0.000856613, 0.00137341, -0.00088442, -0.00148125, -0.000557115, 0.072772, -0.0403742, -0.0248288, -0.0521832, 0.0858951, -0.0263661, 0.47013, -0.540072, 0.337592, -2.0814, -2.16759, -0.12741, 0.470998, -0.541504, 0.335946, -2.08204, -2.16936, -0.126947, -0.0219375, 0.084949, 0.0432937, 0.0201793, 0.018639, 0.00626015
0.122183, 1.69427, -1.22552, -1.5382, -0.9003, -1.19326, 1.22944, -1.30255, 0.0309951, 0.00960363, 0.00515496, -0.0216064, -0.0159314, 0.000672025, 0.000909979, -0.920646, 58.9908, 28.7183, 6.43433, 1.85321, 3.31759, -0.0878186, -0.00177262, 0.000896083, 0.00139786, -0.000915148, -0.00148341, -0.000553996, 0.0738462, -0.0411703, -0.0264216, -0.0527837, 0.0846359, -0.0262916, 0.470108, -0.539987, 0.337635, -2.08134, -2.16763, -0.127348, 0.471017, -0.541484, 0.335953, -2.082, -2.16941, -0.126916, -0.0222584, 0.08627, 0.0439598, 0.0206358, 0.0191791, 0.00516207
0.123183, 1.6943, -1.22551, -1.53819, -0.900331, -1.19327, 1.22943, -1.30255, 0.0291912, 0.0126473, 0.00548555, -0.0239049, -0.0126618, 0.00045052, -0.00132449, -1.07537, 59.1772, 28.7937, 6.5097, 1.87244, 3.31759, -0.0356336, -0.00184304, 0.000937617, 0.00142454, -0.000940446, -0.00148317, -0.00056294, 0.0743645, -0.0412814, -0.0252067, -0.052247, 0.0858994, -0.0236966, 0.470086, -0.5399, 0.337679, -2.08127, -2.16768, -0.127284, 0.471038, -0.541462, 0.335958, -2.08194, -2.16948, -0.126882, -0.0225803, 0.0875972, 0.0446288, 0.0204926, 0.0198151, 0.00694698
0.124183, 1.69432, -1.2255, -1.53818, -0.900371, -1.19328, 1.22944, -1.30255, 0.026755, 0.012144, 0.00812477, -0.0297084, -0.00964127, 0.000844759, -0.00040705, -1.18645, 59.3597, 28.9048, 6.62079, 1.87793, 3.30295, -0.0484509, -0.00191539, 0.000979521, 0.00145102, -0.000968963, -0.00148885, -0.000568854, 0.0740985, -0.0423785, -0.0256564, -0.0511364, 0.0842815, -0.0207209, 0.470063, -0.539813, 0.337724, -2.08121, -2.16772, -0.127219, 0.471059, -0.54144, 0.335964, -2.08189, -2.16954, -0.126844, -0.0229031, 0.0889305, 0.0453006, 0.0212406, 0.0215288, 0.0071809
0.125183, 1.69434, -1.22548, -1.53817, -0.900403, -1.19329, 1.22944, -1.30254, 0.0250634, 0.0163421, 0.00781035, -0.0304779, -0.00785315, 0.000835848, -0.000982523, -1.30151, 59.3597, 28.9802, 6.58508, 1.89624, 3.29562, -0.0292249, -0.00199104, 0.00101806, 0.00146792, -0.00100353, -0.00150705, -0.000566206, 0.0753738, -0.0419492, -0.0237713, -0.0508649, 0.0879298, -0.0218481, 0.47004, -0.539724, 0.337769, -2.08114, -2.16777, -0.127154, 0.471077, -0.541421, 0.33598, -2.08186, -2.16961, -0.126798, -0.0232267, 0.0902698, 0.0459753, 0.0206103, 0.0213037, 0.00953349
0.126183, 1.69436, -1.22546, -1.53816, -0.900439, -1.19329, 1.22944, -1.30255, 0.0246483, 0.01885, 0.0105135, -0.0311405, -0.00627075, 0.000558288, -0.00163767, -1.45226, 59.5065, 29.0555, 6.54541, 1.90906, 3.29562, -0.00267457, -0.00206494, 0.00105897, 0.00149109, -0.00103503, -0.00150964, -0.000574309, 0.0756637, -0.0427008, -0.0218848, -0.0485728, 0.0897681, -0.0203199, 0.470017, -0.539634, 0.337815, -2.08108, -2.16781, -0.127088, 0.471096, -0.541398, 0.33599, -2.0818, -2.16968, -0.126765, -0.0235512, 0.0916151, 0.0466527, 0.0211215, 0.0221084, 0.0120051
0.127183, 1.69438, -1.22543, -1.53815, -0.900483, -1.1933, 1.22944, -1.30254, 0.0242642, 0.0193477, 0.0128761, -0.0367288, -0.00571993, 0.00115288, 0.000129441, -1.60302, 59.5819, 29.1269, 6.58508, 1.93927, 3.27456, -0.0356336, -0.00213855, 0.00110192, 0.00151052, -0.00106727, -0.00152497, -0.000577605, 0.0750405, -0.0445934, -0.0219079, -0.0488125, 0.0913426, -0.0173468, 0.469994, -0.539542, 0.337862, -2.08101, -2.16786, -0.12702, 0.471118, -0.541375, 0.336005, -2.08175, -2.16975, -0.126718, -0.0238765, 0.0929661, 0.0473329, 0.0226643, 0.024162, 0.0126982
0.128183, 1.69439, -1.22542, -1.53815, -0.900539, -1.1933, 1.22944, -1.30254, 0.0213166, 0.0192814, 0.0129694, -0.0402884, -0.00392517, -0.00387112, 0.0055241, -1.63873, 59.8041, 29.2777, 6.73187, 1.93378, 3.27456, -0.0557752, -0.00221472, 0.00114122, 0.00153946, -0.00108918, -0.00152397, -0.000584483, 0.0758628, -0.0433207, -0.0231535, -0.0540307, 0.0884475, -0.0229791, 0.46997, -0.539449, 0.337909, -2.08094, -2.16791, -0.126952, 0.471135, -0.541351, 0.336011, -2.08169, -2.16981, -0.126676, -0.0242025, 0.094323, 0.0480157, 0.0210539, 0.0248443, 0.0120642
0.129183, 1.6944, -1.2254, -1.53814, -0.900578, -1.1933, 1.22944, -1.30253, 0.0163049, 0.0171464, 0.0100504, -0.0398534, -0.0037349, -0.00242446, 0.00431134, -1.6784, 59.9866, 29.4245, 6.62079, 1.95758, 3.25992, -0.0621838, -0.0022973, 0.00117764, 0.00156222, -0.00112452, -0.00153025, -0.000575217, 0.0806078, -0.0405127, -0.0254543, -0.0549692, 0.0877849, -0.0294889, 0.469946, -0.539355, 0.337957, -2.08087, -2.16796, -0.126882, 0.471149, -0.541333, 0.336023, -2.08165, -2.16987, -0.126639, -0.0245292, 0.0956855, 0.0487012, 0.0180185, 0.0217539, 0.0098343
0.130183, 1.69442, -1.22537, -1.53813, -0.900632, -1.19331, 1.22944, -1.30253, 0.0170339, 0.0172452, 0.008623, -0.0431838, -0.00290467, -0.00163472, 0.00763655, -1.90453, 60.0977, 29.5395, 6.65649, 1.96399, 3.25259, -0.0557752, -0.00237167, 0.00122321, 0.00158481, -0.001156, -0.00153937, -0.000589636, 0.0809708, -0.0419373, -0.02679, -0.0573583, 0.0889166, -0.0306832, 0.469921, -0.539259, 0.338006, -2.0808, -2.168, -0.126812, 0.471172, -0.541305, 0.336036, -2.08159, -2.16995, -0.126596, -0.0248567, 0.0970535, 0.0493892, 0.0190792, 0.0230315, 0.00910179
0.131183, 1.69442, -1.22535, -1.53811, -0.900685, -1.19331, 1.22944, -1.30253, 0.0141319, 0.019809, 0.0124258, -0.0472219, -0.00322237, -0.00103581, 0.00519467, -1.86486, 60.2444, 29.5752, 6.62079, 1.99512, 3.24527, -0.0420422, -0.00245451, 0.00126115, 0.00160369, -0.0011982, -0.00155248, -0.000592088, 0.0816273, -0.042188, -0.0247508, -0.0554518, 0.0929695, -0.0269959, 0.469896, -0.539162, 0.338055, -2.08073, -2.16805, -0.126741, 0.471188, -0.541285, 0.336053, -2.08155, -2.17002, -0.126558, -0.0251848, 0.0984271, 0.0500798, 0.0191073, 0.0234578, 0.0116966
0.132183, 1.69442, -1.22532, -1.5381, -0.900749, -1.19331, 1.22944, -1.30253, 0.0119303, 0.0224493, 0.0125839, -0.0551555, -0.00224802, -0.000853488, 0.00198953, -1.94024, 60.3555, 29.722, 6.65649, 1.99512, 3.24527, 0.0101428, -0.00253464, 0.00130116, 0.00162691, -0.00122545, -0.00156264, -0.000605141, 0.0812756, -0.043132, -0.0245746, -0.058447, 0.0964408, -0.0197676, 0.469871, -0.539064, 0.338106, -2.08066, -2.1681, -0.126669, 0.471205, -0.541261, 0.336066, -2.08148, -2.1701, -0.126508, -0.0255136, 0.099806, 0.0507728, 0.0197175, 0.0252001, 0.0125876
0.133183, 1.69443, -1.22529, -1.53809, -0.900809, -1.19331, 1.22943, -1.30253, 0.0112042, 0.0276555, 0.0145796, -0.0584229, -0.00225168, -0.000453844, 0.00167075, -2.05529, 60.4666, 29.7974, 6.58508, 2.01343, 3.23886, 0.0101428, -0.00261412, 0.00134394, 0.00164757, -0.00125704, -0.00157505, -0.00061779, 0.0812479, -0.0440626, -0.0216514, -0.057897, 0.102892, -0.0175493, 0.469845, -0.538964, 0.338156, -2.08059, -2.16815, -0.126595, 0.471224, -0.541234, 0.336083, -2.08142, -2.17019, -0.126458, -0.025843, 0.10119, 0.0514683, 0.0204313, 0.0262075, 0.016144
0.134183, 1.69443, -1.22526, -1.53808, -0.900882, -1.19331, 1.22944, -1.30253, 0.00696095, 0.0265049, 0.0138709, -0.0659417, -0.00131989, 0.000419582, 0.00137213, -2.01562, 60.6491, 29.9482, 6.58508, 2.00702, 3.21689, 0.0101428, -0.00269893, 0.0013831, 0.00167284, -0.00129006, -0.00158509, -0.000627183, 0.0825585, -0.0438119, -0.0237897, -0.0608757, 0.102922, -0.0159737, 0.46982, -0.538862, 0.338208, -2.08052, -2.16821, -0.126521, 0.47124, -0.541211, 0.336095, -2.08135, -2.17027, -0.126411, -0.026173, 0.10258, 0.0521662, 0.0198223, 0.026621, 0.0145359
0.135183, 1.69443, -1.22523, -1.53807, -0.900955, -1.19331, 1.22944, -1.30252, 0.0058833, 0.0306771, 0.0145113, -0.0681994, -0.00139673, 0.000482245, 0.00209182, -2.05529, 60.7602, 30.0593, 6.58508, 2.01984, 3.20956, -0.0164075, -0.00278229, 0.00142442, 0.00169425, -0.00132127, -0.00160265, -0.0006345, 0.0833579, -0.0440326, -0.0218307, -0.061393, 0.108227, -0.0166889, 0.469793, -0.53876, 0.33826, -2.08044, -2.16826, -0.126446, 0.471257, -0.541186, 0.336112, -2.0813, -2.17035, -0.126354, -0.0265036, 0.103974, 0.0528664, 0.0198213, 0.0269388, 0.01704
0.136183, 1.69443, -1.22521, -1.53805, -0.90103, -1.19331, 1.22944, -1.30252, 0.00592142, 0.0272577, 0.012829, -0.0656428, -0.00140353, 0.000269939, 0.00225192, -2.13067, 61.0181, 30.1346, 6.54541, 2.03174, 3.20956, -0.0356336, -0.00286554, 0.00146768, 0.00172219, -0.00135101, -0.00160602, -0.000649796, 0.0862576, -0.0435009, -0.0245713, -0.0626663, 0.105534, -0.0209121, 0.469767, -0.538656, 0.338313, -2.08036, -2.16831, -0.12637, 0.471276, -0.541158, 0.336123, -2.08122, -2.17043, -0.126309, -0.0268347, 0.105374, 0.0535689, 0.0189686, 0.0258731, 0.0146058
0.137183, 1.69443, -1.22518, -1.53804, -0.901116, -1.19331, 1.22944, -1.30252, 0.000969059, 0.0282922, 0.0129366, -0.0722559, -0.00140018, 0.000412558, 0.00161025, -2.13067, 61.1292, 30.2814, 6.58508, 2.04364, 3.20224, -0.0356336, -0.00295014, 0.00150906, 0.00174683, -0.00137638, -0.00162104, -0.00066427, 0.0878985, -0.0425127, -0.025045, -0.0652819, 0.107993, -0.0204565, 0.46974, -0.538551, 0.338366, -2.08029, -2.16836, -0.126293, 0.471293, -0.54113, 0.336138, -2.08115, -2.17052, -0.126246, -0.0271662, 0.106779, 0.0542736, 0.0176986, 0.0256886, 0.0146214
0.138183, 1.69442, -1.22514, -1.53802, -0.901199, -1.19331, 1.22944, -1.30251, -0.00346644, 0.0280658, 0.0179177, -0.0744808, -0.00118857, -0.00470561, 0.00115523, -2.091, 61.2759, 30.3568, 6.5097, 2.05005, 3.20956, -0.0356336, -0.00303737, 0.00154904, 0.00176818, -0.00141095, -0.00163556, -0.000677113, 0.0891334, -0.0407724, -0.0244141, -0.0662139, 0.105742, -0.0210861, 0.469713, -0.538444, 0.338421, -2.08021, -2.16842, -0.126215, 0.471308, -0.541104, 0.336156, -2.08109, -2.17061, -0.126193, -0.0274983, 0.108188, 0.0549806, 0.0157044, 0.0257081, 0.015817
0.139183, 1.69441, -1.22512, -1.53801, -0.90129, -1.19331, 1.22943, -1.30251, -0.00349836, 0.0260866, 0.014487, -0.0788623, -0.00124651, -0.00409139, 0.00130616, -2.05529, 61.4981, 30.4679, 6.54541, 2.06195, 3.22421, -0.0484509, -0.00312443, 0.00159143, 0.00179715, -0.0014351, -0.00164543, -0.000695698, 0.0903444, -0.0415646, -0.0278182, -0.0714886, 0.105669, -0.0201878, 0.469685, -0.538336, 0.338476, -2.08013, -2.16847, -0.126136, 0.471326, -0.541076, 0.336168, -2.08101, -2.1707, -0.126133, -0.0278308, 0.109602, 0.0556897, 0.0160819, 0.0264834, 0.0129523
0.140183, 1.6944, -1.22508, -1.53799, -0.901388, -1.19331, 1.22943, -1.30251, -0.00817654, 0.0305339, 0.0150827, -0.0841528, -0.000637542, -0.00276516, 0.000679388, -2.091, 61.6092, 30.579, 6.54541, 2.05646, 3.21689, -0.0420422, -0.00320883, 0.00163591, 0.00182076, -0.00146236, -0.0016605, -0.000723862, 0.0918481, -0.0407379, -0.0258465, -0.0715013, 0.111484, -0.0202686, 0.469658, -0.538226, 0.338531, -2.08005, -2.16853, -0.126055, 0.471345, -0.541044, 0.336186, -2.08092, -2.1708, -0.126071, -0.0281637, 0.111021, 0.0564009, 0.0150616, 0.0260822, 0.0154056
0.141183, 1.6944, -1.22504, -1.53798, -0.901481, -1.19331, 1.22943, -1.30251, -0.00934921, 0.0307895, 0.0156597, -0.0864577, -0.000873329, -0.00207507, 0.000250045, -2.091, 61.7163, 30.6901, 6.47003, 2.06836, 3.21689, -0.0356336, -0.00329782, 0.00167743, 0.00184412, -0.00148842, -0.00167828, -0.000740214, 0.0931876, -0.0410776, -0.0261659, -0.0719445, 0.113348, -0.0199147, 0.469629, -0.538115, 0.338588, -2.07997, -2.16858, -0.125974, 0.47136, -0.541015, 0.336204, -2.08084, -2.17089, -0.126002, -0.028497, 0.112445, 0.0571142, 0.0151108, 0.0262491, 0.0155861
0.142183, 1.69438, -1.22501, -1.53795, -0.901587, -1.19331, 1.22943, -1.30252, -0.0127037, 0.0337094, 0.0185067, -0.0942541, -0.00150337, -0.00128583, -0.00174022, -1.97991, 61.8274, 30.6901, 6.5097, 2.09308, 3.20956, 0.0165515, -0.00338689, 0.00171978, 0.00186568, -0.00152086, -0.00169948, -0.000770276, 0.0932338, -0.0417395, -0.0247559, -0.0725561, 0.118519, -0.0144406, 0.469601, -0.538002, 0.338645, -2.07989, -2.16864, -0.125892, 0.471377, -0.540986, 0.336225, -2.08076, -2.17101, -0.125938, -0.0288307, 0.113873, 0.0578295, 0.0154987, 0.0274478, 0.0176654
0.143183, 1.69436, -1.22498, -1.53793, -0.901693, -1.19331, 1.22942, -1.30251, -0.0084988, 0.0342298, 0.0186837, -0.0946842, -0.000769099, -0.00551741, -0.00114076, -2.01562, 62.0139, 30.7654, 6.47003, 2.08667, 3.20224, 0.0165515, -0.00347624, 0.00176397, 0.00189491, -0.00154771, -0.00170725, -0.000794474, 0.0921049, -0.0438106, -0.0255146, -0.0770892, 0.117454, -0.0113242, 0.469572, -0.537889, 0.338703, -2.07981, -2.1687, -0.125809, 0.471395, -0.540953, 0.336239, -2.08067, -2.17111, -0.125879, -0.0291647, 0.115306, 0.0585467, 0.0171636, 0.0302046, 0.0177402
0.144183, 1.69435, -1.22494, -1.53792, -0.901809, -1.19331, 1.22942, -1.30251, -0.00631456, 0.0395459, 0.020837, -0.101153, -0.000753252, -0.00471862, 0.00394178, -2.01562, 62.1249, 30.8765, 6.54541, 2.09308, 3.21689, 0.0165515, -0.00356601, 0.00180816, 0.00192099, -0.00156771, -0.00173006, -0.000823672, 0.0898837, -0.0471884, -0.023045, -0.0780145, 0.124589, -0.00878343, 0.469543, -0.537773, 0.338761, -2.07972, -2.16875, -0.125725, 0.471412, -0.540921, 0.336256, -2.08057, -2.17122, -0.125797, -0.029499, 0.116743, 0.0592659, 0.0202158, 0.0336101, 0.0211305
0.145183, 1.69433, -1.2249, -1.53789, -0.901924, -1.19331, 1.22942, -1.3025, -0.0117063, 0.0412838, 0.0253464, -0.105414, -0.000504538, -0.00246795, 0.00472483, -1.97991, 62.1964, 30.8765, 6.47003, 2.09308, 3.18851, -0.0292249, -0.00365645, 0.00185249, 0.00194085, -0.00160384, -0.00175251, -0.000848783, 0.0916408, -0.0465958, -0.0210206, -0.0736008, 0.128106, -0.0100797, 0.469513, -0.537657, 0.338821, -2.07964, -2.16881, -0.12564, 0.47143, -0.540888, 0.33628, -2.08049, -2.17133, -0.125732, -0.0298335, 0.118184, 0.059987, 0.019441, 0.0329841, 0.0235992
0.146183, 1.69431, -1.22487, -1.53787, -0.902047, -1.19331, 1.22942, -1.30251, -0.0117916, 0.0349824, 0.0247008, -0.113738, 0.00447816, -0.00219659, 0.00151827, -1.97991, 62.4542, 30.9162, 6.47003, 2.09308, 3.19583, 0.0229602, -0.0037484, 0.00189735, 0.00197406, -0.00162704, -0.00175785, -0.000885888, 0.0905333, -0.0493146, -0.0265552, -0.0766228, 0.119619, 0.000672752, 0.469484, -0.537538, 0.338881, -2.07955, -2.16887, -0.125554, 0.471447, -0.540854, 0.336292, -2.08038, -2.17144, -0.12567, -0.0301683, 0.119629, 0.0607099, 0.021566, 0.0364906, 0.0189382
0.147183, 1.69428, -1.22484, -1.53785, -0.902168, -1.1933, 1.22941, -1.3025, -0.0141778, 0.0362902, 0.0216358, -0.114889, 0.00362283, -0.00167441, 0.0034082, -2.01562, 62.601, 31.063, 6.39465, 2.08667, 3.19583, -0.0356336, -0.00384349, 0.00193981, 0.00200427, -0.00165006, -0.00176911, -0.000905855, 0.0935467, -0.0479566, -0.0273534, -0.0798672, 0.123057, -0.00549536, 0.469453, -0.537419, 0.338941, -2.07946, -2.16893, -0.125467, 0.471462, -0.540821, 0.336307, -2.08029, -2.17153, -0.1256, -0.0305034, 0.121079, 0.0614347, 0.0199657, 0.0350289, 0.0184547
0.148183, 1.69425, -1.2248, -1.53782, -0.90231, -1.1933, 1.22941, -1.3025, -0.0208416, 0.0379458, 0.0260196, -0.123335, 0.00741221, -0.00580556, 0.00244154, -1.97991, 62.7121, 31.063, 6.5097, 2.08667, 3.18851, -0.0356336, -0.00393542, 0.0019842, 0.00203185, -0.00167568, -0.00178394, -0.000946998, 0.0933106, -0.046795, -0.0265059, -0.0812698, 0.120789, -0.00151426, 0.469423, -0.537298, 0.339003, -2.07938, -2.16899, -0.125378, 0.471479, -0.540785, 0.336325, -2.08018, -2.17166, -0.125529, -0.0308386, 0.122533, 0.0621611, 0.0184989, 0.0365372, 0.0200921
0.149183, 1.69421, -1.22475, -1.53779, -0.902452, -1.1933, 1.2294, -1.3025, -0.0251021, 0.0427406, 0.0301857, -0.125681, 0.00508319, -0.00384623, 0.00597331, -1.97991, 62.6764, 31.0273, 6.58508, 2.09949, 3.17386, -0.0228162, -0.00402913, 0.00202734, 0.00205063, -0.00170646, -0.00181451, -0.000983217, 0.0954118, -0.0459441, -0.0226337, -0.0776243, 0.129214, -0.00721751, 0.469392, -0.537175, 0.339065, -2.07929, -2.16905, -0.125289, 0.471494, -0.54075, 0.336353, -2.08009, -2.17179, -0.125447, -0.031174, 0.12399, 0.0628893, 0.0175524, 0.0352947, 0.0243485
0.150183, 1.69418, -1.22471, -1.53776, -0.902589, -1.19329, 1.2294, -1.3025, -0.0273067, 0.0403384, 0.0312169, -0.129049, 0.00408847, -0.00737126, 0.00423124, -2.01562, 62.7478, 31.063, 6.47003, 2.09308, 3.16653, -0.0164075, -0.00412606, 0.00207003, 0.00207613, -0.00173671, -0.00183196, -0.00101693, 0.0968039, -0.0452159, -0.0248311, -0.0822637, 0.127026, -0.00564612, 0.469361, -0.537051, 0.339128, -2.0792, -2.16911, -0.125199, 0.471508, -0.540716, 0.336375, -2.07999, -2.17191, -0.125376, -0.0315095, 0.125452, 0.0636192, 0.016463, 0.0356866, 0.0227179
0.151183, 1.69414, -1.22467, -1.53773, -0.902745, -1.19329, 1.2294, -1.3025, -0.0307855, 0.0375142, 0.0342007, -0.13949, 0.00771811, -0.00508794, 0.00149021, -1.97991, 62.8589, 31.1384, 6.54541, 2.09308, 3.1528, 0.0293689, -0.00422344, 0.00211213, 0.00210544, -0.00176226, -0.00184743, -0.00106248, 0.0959853, -0.0472843, -0.0269834, -0.0811955, 0.12397, 0.00435876, 0.469329, -0.536926, 0.339191, -2.07911, -2.16918, -0.125108, 0.471522, -0.54068, 0.336393, -2.07987, -2.17203, -0.125303, -0.0318451, 0.126917, 0.0643506, 0.0180805, 0.0383834, 0.0213818
0.152183, 1.69414, -1.22467, -1.53773, -0.902745, -1.19329, 1.2294, -1.3025, -0.0307855, 0.0375142, 0.0342007, -0.13949, 0.00771811, -0.00508794, 0.00149021, -1.97991, 62.8589, 31.1384, 6.54541, 2.09308, 3.1528, 0.0293689, -0.00436, 0.00214018, 0.00214838, -0.00182662, -0.00182019, -0.000994588, 0.0975641, -0.0475727, -0.0274699, -0.0817341, 0.124938, 0.00320936, 0.469298, -0.536799, 0.339256, -2.07902, -2.16924, -0.125016, 0.471522, -0.54068, 0.336393, -2.07987, -2.17203, -0.125303, -0.0321808, 0.128386, 0.0650837, 0.0180805, 0.0383834, 0.0213818
0.153183, 1.69414, -1.22467, -1.53773, -0.902745, -1.19329, 1.2294, -1.3025, -0.0307855, 0.0375142, 0.0342007, -0.13949, 0.00771811, -0.00508794, 0.00149021, -1.97991, 62.8589, 31.1384, 6.54541, 2.09308, 3.1528, 0.0293689, -0.00449813, 0.00216852, 0.00219182, -0.00189171, -0.00179269, -0.000925953, 0.0991468, -0.0478609, -0.0279574, -0.0822725, 0.125907, 0.00205845, 0.469265, -0.53667, 0.339321, -2.07892, -2.1693, -0.124922, 0.471522, -0.54068, 0.336393, -2.07987, -2.17203, -0.125303, -0.0325166, 0.129859, 0.0658182, 0.0180805, 0.0383834, 0.0213818
0.154183, 1.69414, -1.22467, -1.53773, -0.902745, -1.19329, 1.2294, -1.3025, -0.0307855, 0.0375142, 0.0342007, -0.13949, 0.00771811, -0.00508794, 0.00149021, -1.97991, 62.8589, 31.1384, 6.54541, 2.09308, 3.1528, 0.0293689, -0.00463785, 0.00219713, 0.00223575, -0.00195754, -0.0017649, -0.000856577, 0.100733, -0.0481489, -0.0284459, -0.0828109, 0.126879, 0.000906084, 0.469233, -0.53654, 0.339387, -2.07883, -2.16937, -0.124828, 0.471522, -0.54068, 0.336393, -2.07987, -2.17203, -0.125303, -0.0328524, 0.131335, 0.0665543, 0.0180805, 0.0383834, 0.0213818
0.155183, 1.69393, -1.22452, -1.53757, -0.903391, -1.19327, 1.22938, -1.30249, -0.0522865, 0.0408917, 0.0402007, -0.162441, 0.00290368, -0.00337307, 0.00245919, -2.28143, 63.1168, 31.1741, 6.39465, 2.06836, 3.07315, -0.0292249, -0.00462467, 0.00228043, 0.00221253, -0.00189493, -0.00191225, -0.00121924, 0.104607, -0.0422363, -0.0267742, -0.0862507, 0.137003, -0.00117158, 0.4692, -0.536409, 0.339453, -2.07873, -2.16943, -0.124733, 0.471572, -0.540535, 0.336482, -2.07943, -2.17255, -0.125026, -0.0331882, 0.132814, 0.0672918, 0.0120662, 0.0355198, 0.0233699
0.156183, 1.69387, -1.22447, -1.53752, -0.90357, -1.19326, 1.22938, -1.30249, -0.0504355, 0.0436252, 0.0458003, -0.168229, 0.00258137, -0.0063392, 0.00196339, -2.47185, 63.1168, 31.1741, 6.35895, 2.05646, 3.04477, -0.0356336, -0.00472389, 0.0023245, 0.00223724, -0.00193091, -0.00192884, -0.00127184, 0.101985, -0.0451942, -0.0248303, -0.0874507, 0.139734, 0.00759079, 0.469167, -0.536276, 0.33952, -2.07864, -2.1695, -0.124636, 0.471586, -0.540495, 0.336508, -2.0793, -2.17269, -0.124958, -0.033524, 0.134297, 0.0680307, 0.0146621, 0.039432, 0.0263339
0.157183, 1.6938, -1.22443, -1.53748, -0.903751, -1.19326, 1.22937, -1.30249, -0.0563224, 0.0437544, 0.0461197, -0.175875, 0.0018745, -0.00886015, 0.00161121, -2.50756, 63.1921, 31.2137, 6.32324, 2.05646, 3.02371, -0.0420422, -0.00483207, 0.00236094, 0.0022655, -0.00196584, -0.00194387, -0.00130965, 0.103723, -0.043394, -0.0261217, -0.0929713, 0.140652, 0.0075739, 0.469133, -0.536142, 0.339588, -2.07854, -2.16956, -0.124539, 0.471593, -0.540461, 0.33653, -2.07919, -2.17282, -0.124888, -0.0338597, 0.135784, 0.0687709, 0.0125523, 0.0393202, 0.0255916
0.158183, 1.69372, -1.2244, -1.53742, -0.903949, -1.19325, 1.22937, -1.30249, -0.0627976, 0.0447986, 0.0470756, -0.182784, 0.000924044, -0.00603069, 0.00112284, -2.58294, 63.2278, 31.2137, 6.35895, 2.06836, 3.00174, -0.0420422, -0.00493732, 0.00240019, 0.0022932, -0.002002, -0.00195976, -0.00135776, 0.106326, -0.0421419, -0.0260463, -0.0928837, 0.145201, 0.00667399, 0.469099, -0.536006, 0.339657, -2.07844, -2.16963, -0.124441, 0.471601, -0.540423, 0.336554, -2.07907, -2.17296, -0.124819, -0.0341954, 0.137273, 0.0695125, 0.0110788, 0.0381738, 0.0260493
0.159183, 1.69364, -1.22435, -1.53737, -0.904151, -1.19325, 1.22937, -1.30249, -0.0722603, 0.0471184, 0.0503382, -0.188329, -0.000213107, -0.00367259, -0.000401717, -2.58294, 63.1921, 31.2494, 6.39465, 2.09308, 2.97336, -0.00999879, -0.00504647, 0.00243496, 0.002317, -0.00203443, -0.0019862, -0.00140445, 0.11005, -0.0391783, -0.0241067, -0.0900715, 0.150585, 0.00368391, 0.469065, -0.535869, 0.339727, -2.07834, -2.1697, -0.124341, 0.471605, -0.540388, 0.336582, -2.07895, -2.17311, -0.124734, -0.0345309, 0.138766, 0.0702554, 0.00801623, 0.0355625, 0.0282344
0.160183, 1.69356, -1.22432, -1.53732, -0.904361, -1.19324, 1.22936, -1.30249, -0.0737998, 0.043697, 0.0525664, -0.194587, -7.72784e-05, -0.00216206, -0.00193584, -2.69799, 63.3746, 31.2891, 6.39465, 2.09308, 2.95138, 0.0357776, -0.00515496, 0.00247381, 0.00235212, -0.00206816, -0.00199118, -0.00146331, 0.110466, -0.0407405, -0.0264722, -0.0903188, 0.149169, 0.00919807, 0.469031, -0.53573, 0.339797, -2.07824, -2.16977, -0.124241, 0.471613, -0.540349, 0.3366, -2.07881, -2.17325, -0.124672, -0.0348663, 0.140262, 0.0709994, 0.00916907, 0.0370804, 0.0265269
0.161183, 1.69346, -1.22427, -1.53726, -0.904585, -1.19322, 1.22935, -1.30249, -0.0782119, 0.0465591, 0.054963, -0.2048, 0.000234435, -0.00183698, -8.32233e-05, -2.80907, 63.3389, 31.2891, 6.5097, 2.08667, 2.95138, 0.00373412, -0.00525874, 0.00251309, 0.00237633, -0.00210262, -0.00200876, -0.00152466, 0.110198, -0.0412792, -0.0256052, -0.0923031, 0.153538, 0.0119614, 0.468996, -0.53559, 0.339868, -2.07814, -2.16984, -0.12414, 0.47162, -0.540306, 0.33663, -2.07867, -2.17341, -0.124598, -0.0352016, 0.141761, 0.0717447, 0.00940187, 0.0387394, 0.0281522
0.162183, 1.69337, -1.22422, -1.5372, -0.904795, -1.19322, 1.22935, -1.30249, -0.0826188, 0.0469423, 0.0594607, -0.21133, 0.00431196, -0.00074146, -0.000277434, -2.88445, 63.3746, 31.2891, 6.43433, 2.10498, 2.93033, 0.0101428, -0.00537094, 0.00254852, 0.0023988, -0.00214885, -0.00202883, -0.00157, 0.110154, -0.0419782, -0.0248657, -0.0884809, 0.152281, 0.0158797, 0.468961, -0.535448, 0.33994, -2.07804, -2.16991, -0.124037, 0.471624, -0.54027, 0.336661, -2.07855, -2.17356, -0.124531, -0.0355366, 0.143262, 0.0724911, 0.00979892, 0.0402067, 0.0296128
0.163183, 1.69327, -1.22417, -1.53713, -0.905022, -1.19321, 1.22934, -1.30248, -0.0847224, 0.0470971, 0.063208, -0.217102, 0.00729036, -0.00512778, 0.0010473, -2.9995, 63.4103, 31.2891, 6.39465, 2.12421, 2.923, -0.0228162, -0.0054805, 0.00258518, 0.00242309, -0.00219044, -0.00204469, -0.00162462, 0.109143, -0.0425464, -0.0250241, -0.0906026, 0.149043, 0.0191622, 0.468925, -0.535305, 0.340012, -2.07793, -2.16998, -0.123934, 0.471629, -0.540229, 0.336691, -2.07842, -2.17371, -0.124463, -0.0358715, 0.144767, 0.0732387, 0.00999071, 0.0427623, 0.0303405
0.164183, 1.69316, -1.22413, -1.53706, -0.905258, -1.19319, 1.22934, -1.30248, -0.0944912, 0.0512428, 0.0644708, -0.221899, 0.0100714, -0.00756113, 0.00118159, -3.03521, 63.4103, 31.3605, 6.35895, 2.1297, 2.89462, -0.0356336, -0.00559365, 0.00261774, 0.00244761, -0.00223322, -0.0020592, -0.0016783, 0.112208, -0.0384166, -0.0230408, -0.091343, 0.150727, 0.0138676, 0.468889, -0.53516, 0.340086, -2.07783, -2.17005, -0.123829, 0.47163, -0.540191, 0.336722, -2.07829, -2.17387, -0.124397, -0.0362061, 0.146274, 0.0739872, 0.00574263, 0.0407554, 0.0327164
0.165183, 1.69305, -1.22408, -1.53699, -0.905498, -1.19317, 1.22933, -1.30248, -0.0991629, 0.0499648, 0.0686441, -0.227469, 0.00696201, -0.00974671, 0.000556865, -3.18597, 63.45, 31.4359, 6.28357, 2.14801, 2.87265, -0.0292249, -0.00570343, 0.00265549, 0.00247221, -0.00227737, -0.00207241, -0.00174252, 0.113882, -0.0373185, -0.0235364, -0.0936383, 0.152015, 0.0145713, 0.468853, -0.535014, 0.34016, -2.07772, -2.17012, -0.123723, 0.471635, -0.540147, 0.336753, -2.07815, -2.17403, -0.124334, -0.0365405, 0.147784, 0.0747369, 0.00436657, 0.0406392, 0.0327572
0.166183, 1.69293, -1.22403, -1.53691, -0.905754, -1.19315, 1.22932, -1.30248, -0.105262, 0.0503936, 0.0700349, -0.235346, 0.0143912, -0.0113907, -9.85994e-05, -3.22564, 63.5611, 31.4359, 6.24786, 2.16083, 2.85159, -0.0164075, -0.00581473, 0.00268987, 0.00249588, -0.002329, -0.00207986, -0.00181272, 0.113893, -0.0366959, -0.0242266, -0.0937432, 0.146971, 0.0180865, 0.468816, -0.534866, 0.340234, -2.07762, -2.17019, -0.123617, 0.471636, -0.540104, 0.336786, -2.078, -2.1742, -0.124285, -0.0368746, 0.149297, 0.0754875, 0.00339052, 0.0422194, 0.0328463
0.167183, 1.69281, -1.22399, -1.53682, -0.906014, -1.19313, 1.22931, -1.30248, -0.112412, 0.0512991, 0.071907, -0.240214, 0.0189802, -0.0128465, -0.00152014, -3.30102, 63.6682, 31.547, 6.13678, 2.19745, 2.83694, 0.0229602, -0.00592613, 0.00272554, 0.00251921, -0.00237716, -0.00209165, -0.00188275, 0.115703, -0.0346002, -0.0239818, -0.0929575, 0.14449, 0.0179612, 0.46878, -0.534717, 0.34031, -2.07751, -2.17026, -0.123509, 0.471639, -0.540059, 0.336821, -2.07785, -2.17437, -0.124226, -0.0372084, 0.150812, 0.076239, 0.00105481, 0.041816, 0.0336335
0.168183, 1.69267, -1.22394, -1.53674, -0.906291, -1.19311, 1.22931, -1.30247, -0.117651, 0.0527519, 0.07745, -0.24739, 0.0227913, -0.0139485, 0.0036697, -3.3764, 63.7436, 31.6224, 6.17248, 2.22858, 2.82229, 0.0229602, -0.00603697, 0.00276046, 0.00254269, -0.00242549, -0.00210176, -0.00196012, 0.115354, -0.034696, -0.022491, -0.0903553, 0.143414, 0.0166245, 0.468742, -0.534566, 0.340386, -2.0774, -2.17034, -0.123401, 0.47164, -0.540013, 0.336855, -2.07769, -2.17455, -0.124169, -0.0375418, 0.15233, 0.0769914, 0.000870618, 0.0434588, 0.0359096
0.169183, 1.69253, -1.22388, -1.53665, -0.906569, -1.19309, 1.2293, -1.30247, -0.123262, 0.0539809, 0.0785784, -0.256959, 0.0243323, -0.00878907, 0.00283855, -3.3764, 63.819, 31.6977, 6.13678, 2.28992, 2.77286, 0.0229602, -0.00615304, 0.00279185, 0.00256402, -0.00248015, -0.00211683, -0.00203131, 0.1165, -0.0352424, -0.0224645, -0.0883294, 0.147538, 0.0201554, 0.468705, -0.534414, 0.340463, -2.07729, -2.17041, -0.123291, 0.471638, -0.53997, 0.336892, -2.07754, -2.17473, -0.124112, -0.0378749, 0.15385, 0.0777447, 0.00113815, 0.0438704, 0.0364958
0.170183, 1.69238, -1.22383, -1.53655, -0.906858, -1.19306, 1.22929, -1.30247, -0.129712, 0.0557898, 0.0906641, -0.273279, 0.0265368, -0.00630767, 0.00171172, -3.3764, 63.8547, 31.7731, 6.20819, 2.32654, 2.75821, 0.0357776, -0.00626716, 0.00282306, 0.00258181, -0.00254016, -0.00212793, -0.00211148, 0.113265, -0.0383046, -0.0193178, -0.081779, 0.150317, 0.0345421, 0.468667, -0.53426, 0.340541, -2.07718, -2.17049, -0.12318, 0.471636, -0.539924, 0.336934, -2.07738, -2.17492, -0.124065, -0.0382076, 0.155372, 0.0784988, 0.0038663, 0.0482539, 0.0407508
0.171183, 1.69222, -1.22377, -1.53645, -0.907152, -1.19303, 1.22929, -1.30247, -0.137229, 0.0547618, 0.0893432, -0.275599, 0.0228055, -0.00935918, 0.00254849, -3.3764, 63.8547, 31.9199, 6.17248, 2.38147, 2.75088, 0.00373412, -0.00638455, 0.00285045, 0.00259647, -0.00259912, -0.0021462, -0.00217886, 0.118333, -0.0336867, -0.021119, -0.0879299, 0.151894, 0.0252684, 0.468629, -0.534104, 0.340619, -2.07707, -2.17056, -0.123068, 0.471629, -0.539881, 0.336979, -2.07723, -2.1751, -0.124008, -0.0385399, 0.156897, 0.0792537, -0.000934804, 0.0448356, 0.0391077
0.172183, 1.69206, -1.22371, -1.53634, -0.90747, -1.193, 1.22927, -1.30246, -0.143919, 0.0523028, 0.0949299, -0.296642, 0.0250658, -0.0120967, 0.00284775, -3.3764, 63.9261, 31.9556, 6.32324, 2.43091, 2.75821, -0.0228162, -0.00649521, 0.00288275, 0.00261473, -0.00265734, -0.00215189, -0.00227245, 0.115014, -0.0356708, -0.0238942, -0.0941205, 0.148605, 0.0391038, 0.46859, -0.533947, 0.340699, -2.07696, -2.17064, -0.122956, 0.471627, -0.539829, 0.337022, -2.07706, -2.17531, -0.123964, -0.0388718, 0.158424, 0.0800094, 0.000472959, 0.0501558, 0.0375651
0.173183, 1.69189, -1.22366, -1.53623, -0.90779, -1.19296, 1.22926, -1.30246, -0.150544, 0.0532342, 0.101874, -0.303782, 0.0277738, -0.0135782, 0.0017852, -3.4121, 64.0015, 31.9953, 6.32324, 2.45563, 2.75088, -0.0164075, -0.00660942, 0.00291272, 0.00263258, -0.00272316, -0.00215418, -0.00236247, 0.115231, -0.0350333, -0.0221698, -0.0909628, 0.147627, 0.0429315, 0.468551, -0.533789, 0.340779, -2.07684, -2.17071, -0.122842, 0.471623, -0.539779, 0.337066, -2.07688, -2.17551, -0.12393, -0.0392032, 0.159952, 0.0807657, -0.000407798, 0.0511807, 0.0400138
0.174183, 1.6917, -1.22361, -1.53611, -0.908119, -1.19293, 1.22925, -1.30246, -0.16117, 0.0517994, 0.100653, -0.310084, 0.0298061, -0.015221, 0.00128318, -3.3764, 64.184, 32.1421, 6.35895, 2.48035, 2.75821, -0.0164075, -0.00672822, 0.00293711, 0.0026532, -0.00278372, -0.0021531, -0.00244854, 0.119519, -0.0304851, -0.0244479, -0.0945762, 0.145033, 0.037406, 0.468512, -0.533629, 0.340859, -2.07673, -2.17079, -0.122727, 0.471612, -0.539732, 0.337108, -2.07671, -2.1757, -0.123893, -0.0395341, 0.161483, 0.0815227, -0.00518846, 0.0486126, 0.0380206
0.175183, 1.69152, -1.22354, -1.53599, -0.908456, -1.19288, 1.22923, -1.30246, -0.169486, 0.0552512, 0.10812, -0.317872, 0.0317873, -0.0166707, 0.000687876, -3.45177, 64.184, 32.2532, 6.39465, 2.48584, 2.77286, -0.00999879, -0.0068406, 0.00296654, 0.00266546, -0.00284844, -0.00215952, -0.00254735, 0.120095, -0.0290029, -0.0210688, -0.0911339, 0.14716, 0.0396158, 0.468473, -0.533468, 0.340941, -2.07661, -2.17087, -0.122611, 0.471606, -0.539678, 0.337159, -2.07652, -2.17591, -0.123853, -0.0398646, 0.163016, 0.0822803, -0.00682808, 0.0489973, 0.0420796
0.176183, 1.69133, -1.22348, -1.53588, -0.908803, -1.19284, 1.22922, -1.30246, -0.17638, 0.0571046, 0.111964, -0.327268, 0.0321866, -0.0169086, -0.00145577, -3.48748, 64.3347, 32.4039, 6.32324, 2.52338, 2.76553, 0.0431018, -0.00695642, 0.00299408, 0.00268241, -0.00291129, -0.00216282, -0.00265322, 0.120909, -0.0281221, -0.0201049, -0.0916487, 0.149992, 0.0439435, 0.468433, -0.533304, 0.341023, -2.07649, -2.17095, -0.122494, 0.471598, -0.539626, 0.337206, -2.07633, -2.17613, -0.123813, -0.0401944, 0.164551, 0.0830385, -0.00795549, 0.0495423, 0.0436968
0.177183, 1.69113, -1.22341, -1.53574, -0.909177, -1.1928, 1.2292, -1.30246, -0.188374, 0.063209, 0.118259, -0.339179, 0.0368285, -0.0131968, -0.000422632, -3.45177, 64.295, 32.5547, 6.43433, 2.56549, 2.77926, 0.0293689, -0.00706891, 0.00302062, 0.00269262, -0.00297331, -0.00217655, -0.00276252, 0.121888, -0.0264742, -0.015529, -0.0847127, 0.155458, 0.0447741, 0.468392, -0.53314, 0.341106, -2.07637, -2.17103, -0.122376, 0.471589, -0.539569, 0.33726, -2.07613, -2.17635, -0.123762, -0.0405238, 0.166087, 0.0837972, -0.00969203, 0.0493427, 0.0488832
0.178183, 1.69093, -1.22335, -1.53561, -0.909549, -1.19275, 1.22919, -1.30246, -0.191723, 0.0598105, 0.123773, -0.345437, 0.0345208, -0.0104022, -0.000760941, -3.45177, 64.4418, 32.7015, 6.43433, 2.63965, 2.79391, 0.0431018, -0.00718134, 0.00305109, 0.00270787, -0.00304112, -0.0021779, -0.0028825, 0.123063, -0.0275271, -0.0165072, -0.0818337, 0.156516, 0.048057, 0.468352, -0.532974, 0.34119, -2.07626, -2.17111, -0.122257, 0.471584, -0.53951, 0.337311, -2.07592, -2.17659, -0.12373, -0.0408525, 0.167625, 0.0845564, -0.00895204, 0.0499206, 0.0484621
0.179183, 1.69072, -1.22329, -1.53547, -0.909924, -1.19271, 1.22917, -1.30245, -0.193738, 0.0602528, 0.128886, -0.349083, 0.0337097, -0.0126718, 0.00171883, -3.33672, 64.5926, 32.9236, 6.28357, 2.69458, 2.80124, -0.0164075, -0.00729799, 0.00307633, 0.00272214, -0.00310994, -0.00217741, -0.00298482, 0.123323, -0.0278359, -0.0155383, -0.0816813, 0.157512, 0.0477817, 0.468311, -0.532806, 0.341275, -2.07613, -2.17119, -0.122137, 0.471573, -0.539454, 0.337363, -2.07573, -2.17681, -0.123697, -0.0411807, 0.169165, 0.0853161, -0.00891164, 0.0510736, 0.0501301
0.180183, 1.69051, -1.22322, -1.53532, -0.910314, -1.19266, 1.22915, -1.30244, -0.200333, 0.063852, 0.137258, -0.36108, 0.0382493, -0.0146572, 0.00584835, -3.26134, 64.6283, 33.0744, 6.20819, 2.73761, 2.81589, -0.0164075, -0.00740846, 0.00310637, 0.00272981, -0.00318243, -0.00218387, -0.00311336, 0.12112, -0.028586, -0.0124654, -0.0789898, 0.157839, 0.0519415, 0.46827, -0.532637, 0.34136, -2.07601, -2.17127, -0.122016, 0.471566, -0.539391, 0.337422, -2.07551, -2.17706, -0.123664, -0.0415082, 0.170706, 0.0860762, -0.00844509, 0.0543626, 0.054238
0.181183, 1.69029, -1.22315, -1.53517, -0.910726, -1.19261, 1.22912, -1.30244, -0.203888, 0.0614491, 0.135728, -0.376868, 0.0459699, -0.0207854, 0.00477653, -3.22564, 64.7394, 33.2966, 6.17248, 2.79346, 2.82962, -0.0292249, -0.00751498, 0.00313847, 0.0027439, -0.00324157, -0.00218223, -0.0032541, 0.118021, -0.0298856, -0.0174848, -0.0898122, 0.148537, 0.064058, 0.468228, -0.532466, 0.341446, -2.07589, -2.17135, -0.121894, 0.471561, -0.539322, 0.337477, -2.07527, -2.17731, -0.123624, -0.0418351, 0.172249, 0.0868367, -0.00780272, 0.059789, 0.0504722
0.182183, 1.69029, -1.22315, -1.53517, -0.910726, -1.19261, 1.22912, -1.30244, -0.203888, 0.0614491, 0.135728, -0.376868, 0.0459699, -0.0207854, 0.00477653, -3.22564, 64.7394, 33.2966, 6.17248, 2.79346, 2.82962, -0.0292249, -0.00770027, 0.00317461, 0.00280186, -0.00332846, -0.00214705, -0.00316382, 0.119678, -0.030155, -0.0179906, -0.0903313, 0.149531, 0.062895, 0.468187, -0.532294, 0.341533, -2.07577, -2.17143, -0.121771, 0.471561, -0.539322, 0.337477, -2.07527, -2.17731, -0.123624, -0.0421613, 0.173793, 0.0875976, -0.00780272, 0.059789, 0.0504722
0.183183, 1.68983, -1.22302, -1.53483, -0.911567, -1.19251, 1.22907, -1.30244, -0.2191, 0.0691874, 0.155589, -0.398753, 0.0452297, -0.0191212, 0.00148853, -2.92413, 64.8505, 33.4076, 6.0614, 2.87952, 2.80856, 0.00373412, -0.00773197, 0.0031986, 0.00275746, -0.00340139, -0.0021774, -0.00354793, 0.116961, -0.0302262, -0.00901236, -0.0800356, 0.160188, 0.0782661, 0.468144, -0.53212, 0.34162, -2.07564, -2.17152, -0.121646, 0.471546, -0.539185, 0.337603, -2.07479, -2.17785, -0.12359, -0.0424869, 0.175339, 0.0883587, -0.00778723, 0.0626655, 0.0605152
0.184183, 1.6896, -1.22296, -1.53466, -0.912005, -1.19245, 1.22904, -1.30243, -0.226065, 0.0702841, 0.15475, -0.411235, 0.0476703, -0.0187567, 0.00116233, -2.80907, 64.9973, 33.6338, 5.91064, 2.90332, 2.80124, 0.00373412, -0.00783929, 0.0032309, 0.00277223, -0.00346834, -0.0021683, -0.00370189, 0.117595, -0.0295111, -0.010542, -0.0847095, 0.161465, 0.0818537, 0.468102, -0.531945, 0.341709, -2.07552, -2.1716, -0.121521, 0.471541, -0.539111, 0.337659, -2.07453, -2.17811, -0.123564, -0.0428117, 0.176886, 0.0891202, -0.00885335, 0.0637862, 0.0596955
0.185183, 1.68936, -1.22288, -1.53448, -0.912452, -1.1924, 1.22901, -1.30243, -0.227502, 0.0730722, 0.159692, -0.420191, 0.0481425, -0.0183314, 0.00414129, -2.7337, 64.9576, 33.6695, 5.83527, 2.95917, 2.78659, 0.0431018, -0.00794337, 0.00326352, 0.00277742, -0.00353985, -0.00216789, -0.00386816, 0.115856, -0.0318657, -0.00878905, -0.0842269, 0.165624, 0.0865949, 0.468059, -0.531768, 0.341798, -2.07539, -2.17169, -0.121395, 0.471535, -0.539034, 0.337726, -2.07426, -2.1784, -0.123535, -0.0431357, 0.178434, 0.0898818, -0.0068169, 0.0669016, 0.0623734
