alisrour97/Franka_experiments/Real_Robot_scripts/servo-franka/Data_5_ki/log_dyn_PI_k_ki_3.csv
Time,q1,q2,q3,q4,q5,q6,q7,dq1,dq2,dq3,dq4,dq5,dq6,dq7,t1,t2,t3,t4,t5,t6,t7,ex1,ex2,ex3,ex4,ex5,ex6,ev1,ev2,ev3,ev4,ev5,ev6,xd,yd,zd,uxd,uyd,uzd,x,y,z,ux,uy,uz,vxd,vyd,vzd,vx,vy,vz
1.2207e-06, 1.69151, -1.22577, -1.53784, -0.90012, -1.19193, 1.22837, -1.30265, -0.00134151, 0.00334553, -0.00153051, 0.000694085, 0.000559983, 0.0046587, 0.00145386, -1.11108, 58.11, 27.5281, 6.88263, 2.00702, 3.13815, -0.172963, 0.00103102, -0.00148363, 0.000174268, 0.000328849, -0.0002911, -0.000274172, 0.00117558, 0.000321702, 0.00199818, 0.0037898, 0.00517526, -0.00399263, 0.471008, -0.543389, 0.335894, -2.08385, -2.16584, -0.129887, 0.469478, -0.542405, 0.335922, -2.08353, -2.16616, -0.129247, 0, 0, 0, -0.000207126, -0.00148129, 0.0018003
0.0155476, 1.69152, -1.22576, -1.53787, -0.900134, -1.19193, 1.2284, -1.30265, 0.000976026, 5.80661e-05, -0.000859986, -0.000151177, -0.000364122, 0.000366528, -0.00101275, -1.18645, 58.1458, 27.6035, 6.88263, 2.01343, 3.13815, -0.120778, 0.00103164, -0.00147405, 0.000182568, 0.000337704, -0.000312083, -0.000284762, -0.000184728, -0.000451452, -0.000314295, -0.000825294, 0.000641859, 0.00156344, 0.471008, -0.543389, 0.335894, -2.08385, -2.16584, -0.129887, 0.469492, -0.542403, 0.335918, -2.08353, -2.16619, -0.129224, 3.52292e-06, 9.08712e-06, 4.70091e-06, 0.000436442, 0.000258301, -0.000290576
0.0165476, 1.69152, -1.22576, -1.53787, -0.900134, -1.19193, 1.2284, -1.30265, 0.000976026, 5.80661e-05, -0.000859986, -0.000151177, -0.000364122, 0.000366528, -0.00101275, -1.18645, 58.1458, 27.6035, 6.88263, 2.01343, 3.13815, -0.120778, 0.00103161, -0.00147405, 0.000182575, 0.000337693, -0.000312078, -0.000284749, -0.000156092, -0.000440246, -0.000324373, -0.000837818, 0.000661011, 0.00153973, 0.471008, -0.543389, 0.335894, -2.08385, -2.16584, -0.129887, 0.469492, -0.542403, 0.335918, -2.08353, -2.16619, -0.129224, 1.40551e-05, 3.62649e-05, 1.87583e-05, 0.000436442, 0.000258301, -0.000290576
0.0175481, 1.69152, -1.22576, -1.53787, -0.900134, -1.19193, 1.2284, -1.30265, 0.000976026, 5.80661e-05, -0.000859986, -0.000151177, -0.000364122, 0.000366528, -0.00101275, -1.18645, 58.1458, 27.6035, 6.88263, 2.01343, 3.13815, -0.120778, 0.00103155, -0.00147408, 0.000182597, 0.000337663, -0.000312063, -0.000284716, -0.000108527, -0.000421638, -0.000341108, -0.000858597, 0.000692814, 0.00150036, 0.471008, -0.543389, 0.335894, -2.08385, -2.16584, -0.129887, 0.469492, -0.542403, 0.335918, -2.08353, -2.16619, -0.129224, 3.15416e-05, 8.14084e-05, 4.21042e-05, 0.000436442, 0.000258301, -0.000290576
0.0185483, 1.69152, -1.22576, -1.53787, -0.900134, -1.19193, 1.2284, -1.30265, 0.000976026, 5.80661e-05, -0.000859986, -0.000151177, -0.000364122, 0.000366528, -0.00101275, -1.18645, 58.1458, 27.6035, 6.88263, 2.01343, 3.13815, -0.120778, 0.00103144, -0.00147412, 0.000182638, 0.000337606, -0.000312035, -0.000284652, -4.21644e-05, -0.000395688, -0.000364451, -0.000887557, 0.000737173, 0.00144547, 0.471008, -0.543389, 0.335894, -2.08385, -2.16584, -0.129887, 0.469492, -0.542403, 0.335918, -2.08353, -2.16619, -0.129224, 5.59279e-05, 0.000144393, 7.4671e-05, 0.000436442, 0.000258301, -0.000290576
0.0195483, 1.69152, -1.22576, -1.53787, -0.900134, -1.19193, 1.2284, -1.30265, 0.000976026, 5.80661e-05, -0.000859986, -0.000151177, -0.000364122, 0.000366528, -0.00101275, -1.18645, 58.1458, 27.6035, 6.88263, 2.01343, 3.13815, -0.120778, 0.00103124, -0.0014742, 0.000182706, 0.000337511, -0.000311989, -0.000284547, 4.28644e-05, -0.000362453, -0.000394353, -0.000924622, 0.000793992, 0.00137518, 0.471008, -0.543389, 0.335894, -2.08385, -2.16584, -0.129886, 0.469492, -0.542403, 0.335918, -2.08353, -2.16619, -0.129224, 8.71593e-05, 0.000225094, 0.000116391, 0.000436442, 0.000258301, -0.000290576
0.0205486, 1.69152, -1.22576, -1.53787, -0.900134, -1.19193, 1.2284, -1.30265, 0.000976026, 5.80661e-05, -0.000859986, -0.000151177, -0.000364122, 0.000366528, -0.00101275, -1.18645, 58.1458, 27.6035, 6.88263, 2.01343, 3.13815, -0.120778, 0.00103096, -0.00147431, 0.000182807, 0.000337371, -0.000311921, -0.000284391, 0.000146428, -0.00032199, -0.000430763, -0.000969716, 0.000863178, 0.00128961, 0.471008, -0.543389, 0.335894, -2.08385, -2.16584, -0.129886, 0.469492, -0.542403, 0.335918, -2.08353, -2.16619, -0.129224, 0.000125182, 0.000323387, 0.000167197, 0.000436442, 0.000258301, -0.000290576
0.0215488, 1.69152, -1.22576, -1.53787, -0.900134, -1.19193, 1.2284, -1.30265, 0.000976026, 5.80661e-05, -0.000859986, -0.000151177, -0.000364122, 0.000366528, -0.00101275, -1.18645, 58.1458, 27.6035, 6.88263, 2.01343, 3.13815, -0.120778, 0.00103056, -0.00147447, 0.000182948, 0.000337175, -0.000311825, -0.000284173, 0.000268397, -0.000274356, -0.000473633, -0.00102276, 0.000944636, 0.00118889, 0.471008, -0.543388, 0.335894, -2.08385, -2.16584, -0.129886, 0.469492, -0.542403, 0.335918, -2.08353, -2.16619, -0.129224, 0.00016994, 0.000439148, 0.000227022, 0.000436442, 0.000258301, -0.000290576
0.0225491, 1.69152, -1.22576, -1.53787, -0.900134, -1.19193, 1.2284, -1.30265, 0.000976026, 5.80661e-05, -0.000859986, -0.000151177, -0.000364122, 0.000366528, -0.00101275, -1.18645, 58.1458, 27.6035, 6.88263, 2.01343, 3.13815, -0.120778, 0.00103003, -0.00147467, 0.000183135, 0.000336915, -0.000311699, -0.000283883, 0.000408639, -0.000219608, -0.000522915, -0.00108369, 0.00103827, 0.00107314, 0.471009, -0.543388, 0.335895, -2.08385, -2.16584, -0.129886, 0.469492, -0.542403, 0.335918, -2.08353, -2.16619, -0.129224, 0.000221382, 0.000572255, 0.000295798, 0.000436442, 0.000258301, -0.000290576
0.0235491, 1.69152, -1.22576, -1.53787, -0.900134, -1.19193, 1.2284, -1.30265, 0.000976026, 5.80661e-05, -0.000859986, -0.000151177, -0.000364122, 0.000366528, -0.00101275, -1.18645, 58.1458, 27.6035, 6.88263, 2.01343, 3.13815, -0.120778, 0.00102935, -0.00147494, 0.000183375, 0.000336583, -0.000311537, -0.000283513, 0.000567025, -0.000157803, -0.000578557, -0.00115242, 0.00114399, 0.000942489, 0.471009, -0.543387, 0.335895, -2.08384, -2.16584, -0.129885, 0.469492, -0.542403, 0.335918, -2.08353, -2.16619, -0.129224, 0.000279451, 0.000722584, 0.000373459, 0.000436442, 0.000258301, -0.000290576
0.0245493, 1.69152, -1.22576, -1.53787, -0.900134, -1.19193, 1.2284, -1.30265, 0.000976026, 5.80661e-05, -0.000859986, -0.000151177, -0.000364122, 0.000366528, -0.00101275, -1.18645, 58.1458, 27.6035, 6.88263, 2.01343, 3.13815, -0.120778, 0.0010285, -0.00147527, 0.000183673, 0.000336168, -0.000311336, -0.000283051, 0.000743425, -8.89987e-05, -0.000640513, -0.00122889, 0.0012617, 0.000797054, 0.471009, -0.543386, 0.335895, -2.08384, -2.16584, -0.129884, 0.469492, -0.542403, 0.335918, -2.08353, -2.16619, -0.129224, 0.000344096, 0.000890012, 0.000459939, 0.000436442, 0.000258301, -0.000290576
0.0255493, 1.69152, -1.22576, -1.53787, -0.900134, -1.19193, 1.2284, -1.30265, 0.000976026, 5.80661e-05, -0.000859986, -0.000151177, -0.000364122, 0.000366528, -0.00101275, -1.18645, 58.1458, 27.6035, 6.88263, 2.01343, 3.13815, -0.120778, 0.00102747, -0.00147567, 0.000184037, 0.000335663, -0.000311091, -0.000282489, 0.00093771, -1.32505e-05, -0.000708733, -0.00131301, 0.0013913, 0.000636961, 0.47101, -0.543385, 0.335896, -2.08384, -2.16584, -0.129884, 0.469492, -0.542403, 0.335918, -2.08353, -2.16619, -0.129224, 0.000415261, 0.00107442, 0.00055517, 0.000436442, 0.000258301, -0.000290576
0.0265493, 1.69152, -1.22576, -1.53787, -0.900134, -1.19193, 1.2284, -1.30265, 0.000976026, 5.80661e-05, -0.000859986, -0.000151177, -0.000364122, 0.000366528, -0.00101275, -1.18645, 58.1458, 27.6035, 6.88263, 2.01343, 3.13815, -0.120778, 0.00102623, -0.00147616, 0.000184472, 0.000335059, -0.000310797, -0.000281817, 0.00114975, 6.93851e-05, -0.000783169, -0.00140471, 0.0015327, 0.000462333, 0.47101, -0.543384, 0.335896, -2.08384, -2.16585, -0.129883, 0.469492, -0.542403, 0.335918, -2.08353, -2.16619, -0.129224, 0.000492895, 0.00127568, 0.000659086, 0.000436442, 0.000258301, -0.000290576
0.0275496, 1.69152, -1.22576, -1.53787, -0.900134, -1.19193, 1.2284, -1.30265, 0.000976026, 5.80661e-05, -0.000859986, -0.000151177, -0.000364122, 0.000366528, -0.00101275, -1.18645, 58.1458, 27.6035, 6.88263, 2.01343, 3.13815, -0.120778, 0.00102477, -0.00147672, 0.000184985, 0.000334346, -0.000310452, -0.000281025, 0.00137942, 0.000158852, -0.000863771, -0.00150392, 0.00168582, 0.000273292, 0.471011, -0.543383, 0.335897, -2.08384, -2.16585, -0.129882, 0.469492, -0.542403, 0.335918, -2.08353, -2.16619, -0.129224, 0.000576942, 0.00149367, 0.000771622, 0.000436442, 0.000258301, -0.000290576
0.0285498, 1.69155, -1.22581, -1.5379, -0.900169, -1.19193, 1.22843, -1.30265, 0.00069274, -0.00204511, -0.000863932, -0.00299507, -0.000306266, 0.000226946, 0.000735313, -1.33721, 58.6972, 27.79, 7.06909, 2.00061, 3.10245, -0.166554, 0.00103498, -0.00145081, 0.000228402, 0.000364053, -0.000280825, -0.000324598, 0.00108416, -0.000239377, -0.0025787, -0.00319255, -0.0001188, 0.000585169, 0.471011, -0.543381, 0.335898, -2.08384, -2.16585, -0.129881, 0.469517, -0.542384, 0.335877, -2.08346, -2.16621, -0.129224, 0.00066735, 0.00172827, 0.000892711, 0.000852098, 0.00106463, -0.00182903
0.0295498, 1.69155, -1.22581, -1.53791, -0.900171, -1.19193, 1.22843, -1.30265, 0.000475908, -0.00271338, -0.00141124, -0.00221379, -6.97826e-07, 0.00042338, -0.000730494, -1.33721, 58.6258, 27.8257, 7.06909, 1.99512, 3.09512, -0.133595, 0.00103371, -0.00145017, 0.000228013, 0.000364727, -0.000287403, -0.00032887, 0.0018143, 0.000173286, -0.00312074, -0.00312233, -0.000801871, 0.00078631, 0.471012, -0.543379, 0.335899, -2.08384, -2.16585, -0.129879, 0.469518, -0.542383, 0.335878, -2.08345, -2.16622, -0.129216, 0.000764066, 0.00197936, 0.00102229, 0.000543227, 0.000661453, -0.00233555
0.0305498, 1.69156, -1.22581, -1.53791, -0.900179, -1.19193, 1.22843, -1.30265, 0.00125585, -0.00262404, -0.00563345, -0.00247389, -0.00322495, 0.000554132, -0.00143643, -1.37688, 58.5147, 27.7503, 7.1048, 1.95209, 3.0878, -0.10796, 0.00103552, -0.00144697, 0.000233348, 0.000372322, -0.00028325, -0.000341212, 0.00319631, 0.000869487, -0.00472944, -0.00855858, 0.00249875, -0.00085908, 0.471013, -0.543377, 0.3359, -2.08384, -2.16585, -0.129878, 0.469522, -0.542378, 0.335874, -2.08343, -2.16623, -0.129211, 0.000867038, 0.00224682, 0.00116028, -5.7757e-05, -0.000216345, -0.00397951
0.0315498, 1.69156, -1.22583, -1.53792, -0.900184, -1.19193, 1.22843, -1.30265, 0.00223746, -0.0060178, -0.00662018, -0.00547597, -0.00449632, 9.8613e-05, 0.00892088, -1.30151, 58.4036, 27.7146, 7.02942, 1.87793, 3.09512, -0.127186, 0.00102936, -0.00144891, 0.000249539, 0.000386193, -0.000269717, -0.000331798, 0.00290202, 0.000103063, -0.0076848, -0.0123992, 0.000492201, -0.00870802, 0.471014, -0.543375, 0.335901, -2.08384, -2.16585, -0.129876, 0.469521, -0.54238, 0.335858, -2.08343, -2.1662, -0.129207, 0.000976211, 0.00253053, 0.00130664, 0.000699627, 0.00084412, -0.00672878
0.0325498, 1.69157, -1.22582, -1.53792, -0.900186, -1.19194, 1.22843, -1.30265, 0.00528702, -0.00247558, -0.00612417, -0.00349506, -0.00189248, -0.000985075, 0.00576168, -1.45226, 58.0347, 27.4885, 6.88263, 1.82941, 3.1235, -0.101552, 0.00103278, -0.00144111, 0.000251234, 0.000391051, -0.000277076, -0.000347159, 0.0013822, -0.00115995, -0.00552143, -0.0110668, 0.00144918, -0.00347976, 0.471015, -0.543372, 0.335903, -2.08383, -2.16585, -0.129874, 0.469529, -0.542373, 0.335858, -2.08341, -2.16622, -0.129194, 0.00109153, 0.00283037, 0.00146128, 0.00210007, 0.00236308, -0.00424018
0.0335498, 1.69158, -1.22583, -1.53794, -0.90019, -1.19195, 1.22843, -1.30265, 0.0010351, -0.000913428, -0.00733224, -0.00583742, -0.00520677, -0.00119899, 0.00295596, -1.33721, 57.8125, 27.4528, 6.77154, 1.79187, 3.13815, -0.0621838, 0.00102568, -0.00144452, 0.000262371, 0.000409028, -0.000277777, -0.000341016, 0.00364598, 0.00148398, -0.00526886, -0.01432, 0.00599034, -0.00481724, 0.471016, -0.543369, 0.335904, -2.08383, -2.16585, -0.129871, 0.469527, -0.542375, 0.335848, -2.0834, -2.16621, -0.12917, 0.00121295, 0.00314621, 0.00162416, -0.000328931, 0.000296974, -0.00409954
0.0345498, 1.69158, -1.22585, -1.53794, -0.900198, -1.19196, 1.22843, -1.30265, 0.00138977, -0.00352609, -0.00646852, -0.00588393, -0.00473655, -0.00212156, 0.00189169, -1.22613, 57.8879, 27.3417, 6.69617, 1.80469, 3.17386, -0.0484509, 0.00102064, -0.00144441, 0.000277126, 0.000424141, -0.000270941, -0.000342708, 0.00370353, 0.00132713, -0.0067252, -0.0145927, 0.00273737, -0.00302904, 0.471017, -0.543366, 0.335906, -2.08383, -2.16586, -0.129869, 0.469528, -0.542375, 0.335834, -2.08339, -2.16621, -0.129158, 0.00134042, 0.00347794, 0.00179519, -9.53519e-05, 0.000802442, -0.00538019
0.0355498, 1.69159, -1.22587, -1.53796, -0.900208, -1.19197, 1.22843, -1.30264, 0.00177516, -0.00814362, -0.00534441, -0.00680196, -0.00937668, 0.00281733, 0.00378743, -1.11108, 57.9633, 27.3417, 6.65649, 1.82941, 3.18851, -0.10796, 0.00101596, -0.0014427, 0.000293057, 0.000442526, -0.000268141, -0.00033929, 0.00526303, 0.000385528, -0.00887858, -0.012515, 0.00464179, -0.00497433, 0.471019, -0.543362, 0.335908, -2.08383, -2.16586, -0.129866, 0.469531, -0.542373, 0.33582, -2.08338, -2.1662, -0.129137, 0.00147388, 0.00382545, 0.00197432, 0.000956517, -1.97033e-05, -0.00759775
0.0365498, 1.69159, -1.22588, -1.53797, -0.900218, -1.19199, 1.22845, -1.30265, 0.00452093, -0.00801227, -0.00610023, -0.0038053, -0.00844474, 0.00386987, 0.00229193, -0.960319, 58.0347, 27.417, 6.58508, 1.86603, 3.14548, -0.0951428, 0.00100852, -0.0014416, 0.000305117, 0.000451661, -0.000275784, -0.000339867, 0.00538453, -0.000499407, -0.00883967, -0.0109794, 0.00465186, -0.00375641, 0.47102, -0.543358, 0.33591, -2.08382, -2.16586, -0.129863, 0.469533, -0.542375, 0.335809, -2.08337, -2.1662, -0.129116, 0.00161328, 0.0041886, 0.00216148, 0.00198545, 0.000253725, -0.0074177
0.0375498, 1.6916, -1.22589, -1.53798, -0.900231, -1.192, 1.22846, -1.30265, 0.00755459, -0.00945976, -0.00631779, -0.00601087, -0.00649515, 0.00809212, 0.00025116, -0.845268, 58.1815, 27.4885, 6.58508, 1.87244, 3.13083, -0.0557752, 0.00100536, -0.0014348, 0.000317071, 0.00046208, -0.000287289, -0.000354898, 0.00401785, -0.00351856, -0.0100011, -0.00840236, 0.00426544, 0.00345975, 0.471022, -0.543354, 0.335912, -2.08382, -2.16586, -0.12986, 0.469541, -0.542371, 0.335798, -2.08335, -2.16622, -0.129091, 0.00175856, 0.00456728, 0.0023566, 0.00505514, 0.00228396, -0.00824832
0.0385498, 1.6916, -1.22589, -1.53798, -0.900241, -1.19202, 1.22848, -1.30264, 0.0033021, -0.00941839, -0.00381204, -0.00582151, -0.0150989, 0.0110437, 0.00318561, -0.583427, 58.2925, 27.4528, 6.5097, 1.89624, 3.1235, -0.133595, 0.000998369, -0.00143306, 0.000323839, 0.000460066, -0.000298349, -0.00034785, 0.00786164, -0.000941291, -0.00872285, -0.00707618, 0.0127804, -0.0058591, 0.471024, -0.543349, 0.335915, -2.08382, -2.16586, -0.129856, 0.469545, -0.542372, 0.335793, -2.08336, -2.16622, -0.129078, 0.00190969, 0.00496137, 0.00255964, 0.00281601, -0.00141891, -0.00730191
0.0395498, 1.69161, -1.2259, -1.53799, -0.900251, -1.19203, 1.22849, -1.30265, 0.00301396, -0.0100977, -0.00546637, -0.00857458, -0.0161142, 0.0117037, -0.00092778, -0.43267, 58.4393, 27.5638, 6.43433, 1.90265, 3.15921, -0.0484509, 0.00099437, -0.00142713, 0.000336176, 0.000472279, -0.00030804, -0.000366179, 0.00828345, -0.000955429, -0.0101679, -0.00992696, 0.0138875, -0.00109836, 0.471026, -0.543344, 0.335917, -2.08381, -2.16587, -0.129852, 0.469553, -0.542369, 0.335783, -2.08334, -2.16625, -0.129052, 0.0020666, 0.00537076, 0.00277051, 0.00294994, -0.00120297, -0.00858379
0.0405498, 1.69163, -1.2259, -1.53799, -0.900264, -1.19205, 1.22849, -1.30265, 0.00596186, -0.00618536, -0.0056524, -0.011447, -0.0162437, 0.0119159, 0.000441297, -0.281914, 58.4036, 27.6392, 6.39465, 1.89075, 3.20224, -0.0750012, 0.000993424, -0.00141967, 0.000340505, 0.000482235, -0.000329811, -0.000373975, 0.00628399, -0.00299744, -0.00862868, -0.0116529, 0.0186484, 0.00239065, 0.471028, -0.543338, 0.33592, -2.08381, -2.16587, -0.129848, 0.469562, -0.542363, 0.335781, -2.08333, -2.16627, -0.129016, 0.00222924, 0.00579533, 0.00298915, 0.005136, 0.00104223, -0.00659658
0.0415498, 1.69164, -1.2259, -1.53799, -0.900273, -1.19207, 1.22851, -1.30264, 0.00711676, -0.00517539, -0.00311673, -0.0117796, -0.0150225, 0.0131156, 0.00109754, -0.0914839, 58.4393, 27.6035, 6.28357, 1.84131, 3.22421, -0.0951428, 0.000989881, -0.00141167, 0.000343503, 0.000474812, -0.000349414, -0.000381801, 0.00539364, -0.00432418, -0.00730018, -0.00827472, 0.0194559, 0.00440156, 0.47103, -0.543332, 0.335923, -2.0838, -2.16587, -0.129843, 0.469572, -0.54236, 0.33578, -2.08333, -2.16629, -0.129, 0.00239756, 0.00623496, 0.00321551, 0.00664547, 0.00221071, -0.00496027
0.0425498, 1.69166, -1.2259, -1.53799, -0.900286, -1.19209, 1.22852, -1.30264, 0.0112633, -0.0027775, -0.00388602, -0.0112882, -0.0154962, 0.0128608, 0.000503441, 0.0949785, 58.4036, 27.6749, 6.24786, 1.823, 3.27456, -0.0878186, 0.000988316, -0.0014033, 0.000348004, 0.000485178, -0.000375159, -0.000397217, 0.00417599, -0.00607628, -0.00650505, -0.00980141, 0.022557, 0.0076981, 0.471033, -0.543326, 0.335927, -2.0838, -2.16588, -0.129838, 0.469583, -0.542354, 0.335779, -2.08332, -2.16632, -0.128959, 0.00257152, 0.00668953, 0.00344951, 0.0085544, 0.00381677, -0.00380503
0.0435498, 1.69167, -1.2259, -1.538, -0.900301, -1.19211, 1.22854, -1.30265, 0.0118174, -0.00280872, -0.00445724, -0.0134759, -0.0206679, 0.0142392, -0.00156489, 0.400459, 58.4393, 27.7503, 6.20819, 1.81018, 3.2883, -0.0356336, 0.000983025, -0.00139578, 0.000354911, 0.000488661, -0.000401154, -0.000414131, 0.00506458, -0.00625467, -0.00710959, -0.0128492, 0.0280165, 0.00981629, 0.471035, -0.543319, 0.33593, -2.08379, -2.16588, -0.129833, 0.469593, -0.542351, 0.335774, -2.08331, -2.16636, -0.128926, 0.00275106, 0.00715892, 0.0036911, 0.00892205, 0.00350927, -0.00430365
0.0445498, 1.69168, -1.22591, -1.538, -0.900318, -1.19214, 1.22856, -1.30264, 0.0110521, -0.0037271, -0.00304899, -0.0152127, -0.0242856, 0.0148382, 0.000913716, 0.626595, 58.5147, 27.7503, 6.17248, 1.78638, 3.31027, -0.0878186, 0.000979495, -0.00138515, 0.000360806, 0.000490355, -0.000431045, -0.000425484, 0.00597133, -0.00598262, -0.00747506, -0.0137807, 0.0307381, 0.00716789, 0.471038, -0.543312, 0.335934, -2.08379, -2.16589, -0.129827, 0.469607, -0.542346, 0.335771, -2.08331, -2.16639, -0.128889, 0.00293613, 0.00764302, 0.00394021, 0.00885468, 0.00314332, -0.00454793
0.0455498, 1.6917, -1.22591, -1.53801, -0.900329, -1.19217, 1.22858, -1.30264, 0.0111757, -0.00255327, -0.00468923, -0.0154691, -0.026868, 0.0136966, 0.00137328, 0.963814, 58.5147, 27.8614, 6.09711, 1.76166, 3.37436, -0.10796, 0.000972861, -0.0013793, 0.000368544, 0.000501745, -0.000457933, -0.000427852, 0.00698857, -0.00509733, -0.00769299, -0.0176738, 0.0339391, 0.00495036, 0.471041, -0.543304, 0.335938, -2.08378, -2.16589, -0.129821, 0.469615, -0.542343, 0.335767, -2.08331, -2.16641, -0.128843, 0.00312667, 0.00814172, 0.00419678, 0.00818962, 0.00263504, -0.0046377
0.0465498, 1.69171, -1.22591, -1.538, -0.900347, -1.1922, 1.22859, -1.30264, 0.0143281, -0.00342401, -0.00233453, -0.0138033, -0.0248076, 0.013178, -0.000528934, 1.305, 58.5861, 27.8257, 6.0614, 1.75525, 3.43204, -0.0685925, 0.000967849, -0.00137061, 0.000375796, 0.000506883, -0.000486116, -0.000447181, 0.00575255, -0.00685124, -0.0075386, -0.0151041, 0.0312825, 0.00990834, 0.471044, -0.543295, 0.335942, -2.08378, -2.16589, -0.129815, 0.469627, -0.542338, 0.335763, -2.08329, -2.16645, -0.128805, 0.00332265, 0.00865489, 0.00446074, 0.0100985, 0.00441657, -0.00408241
0.0475498, 1.69172, -1.22593, -1.538, -0.900361, -1.19223, 1.22861, -1.30264, 0.013038, -0.00668292, -0.00158904, -0.016431, -0.0234077, 0.017934, -0.00156312, 1.68189, 58.7726, 27.8257, 5.95032, 1.75525, 3.48239, -0.0356336, 0.000957272, -0.00136583, 0.000387736, 0.000511364, -0.000508284, -0.000456463, 0.00647312, -0.00771772, -0.00926011, -0.0112221, 0.0297521, 0.0124046, 0.471048, -0.543286, 0.335947, -2.08377, -2.1659, -0.129808, 0.469635, -0.542338, 0.335754, -2.08328, -2.16647, -0.128771, 0.003524, 0.00918243, 0.00473204, 0.0111288, 0.00453317, -0.00564895
0.0485498, 1.69175, -1.22594, -1.53801, -0.900373, -1.19226, 1.22863, -1.30264, 0.0163416, -0.00791787, -0.00284712, -0.0156198, -0.0233701, 0.0221227, 0.000898357, 1.87232, 58.9194, 27.9011, 5.83527, 1.77997, 3.5181, -0.0878186, 0.000950953, -0.00135425, 0.000400362, 0.00051949, -0.000534587, -0.000466153, 0.00662386, -0.00974149, -0.0103233, -0.00913087, 0.0310502, 0.0114623, 0.471051, -0.543277, 0.335952, -2.08376, -2.1659, -0.129801, 0.46965, -0.542332, 0.335745, -2.08327, -2.1665, -0.128729, 0.00373068, 0.00972421, 0.00501061, 0.0133236, 0.0051727, -0.00650468
0.0495498, 1.69176, -1.22595, -1.53802, -0.900385, -1.1923, 1.22865, -1.30263, 0.0163425, -0.00873394, -0.00451492, -0.0150937, -0.0319497, 0.0262385, 0.000604647, 2.17384, 59.0662, 28.0121, 5.72418, 1.78638, 3.52542, -0.0878186, 0.000939377, -0.00134775, 0.000414895, 0.000530001, -0.00056141, -0.000468583, 0.00991625, -0.00890844, -0.0111615, -0.0110687, 0.0397473, 0.00715694, 0.471055, -0.543267, 0.335957, -2.08375, -2.16591, -0.129793, 0.469661, -0.542331, 0.335734, -2.08327, -2.16652, -0.128683, 0.00394263, 0.0102801, 0.00529638, 0.0127912, 0.00257313, -0.00753237
0.0505498, 1.69179, -1.22596, -1.53802, -0.900389, -1.19234, 1.22868, -1.30264, 0.0190161, -0.00760213, -0.00478698, -0.00946988, -0.0344657, 0.0243411, -0.000542031, 2.3603, 59.1415, 28.0875, 5.50201, 1.81659, 3.53274, -0.0621838, 0.00092757, -0.00133822, 0.000423813, 0.000533863, -0.00060274, -0.000475362, 0.0112466, -0.00822262, -0.0103293, -0.0120245, 0.0419982, 0.00453976, 0.471059, -0.543256, 0.335962, -2.08375, -2.16592, -0.129785, 0.469674, -0.54233, 0.335728, -2.08328, -2.16655, -0.12863, 0.00415982, 0.0108501, 0.00558931, 0.0124012, 0.00167355, -0.00660339
0.0515498, 1.69181, -1.22595, -1.53803, -0.900397, -1.19239, 1.2287, -1.30263, 0.019824, -0.00415226, -0.00403688, -0.00722488, -0.0410817, 0.0279422, -0.000120765, 2.58643, 59.1019, 28.1232, 5.35126, 1.84772, 3.52542, -0.0685925, 0.000916108, -0.00132967, 0.000426946, 0.000538565, -0.000656568, -0.000479965, 0.013368, -0.00792131, -0.00766464, -0.0103457, 0.0528197, 0.000536516, 0.471064, -0.543245, 0.335968, -2.08374, -2.16592, -0.129777, 0.469687, -0.54233, 0.335729, -2.08329, -2.16659, -0.128562, 0.00438218, 0.0114339, 0.00588931, 0.0124951, -0.000259316, -0.00399232
0.0525498, 1.69184, -1.22597, -1.53804, -0.900404, -1.19244, 1.22872, -1.30263, 0.0181249, -0.00797423, -0.00529747, -0.00567308, -0.0408657, 0.0246083, 0.00161733, 2.77686, 59.324, 28.2343, 5.2005, 1.87244, 3.56112, -0.114369, 0.000901631, -0.00132193, 0.000444756, 0.000553399, -0.000688514, -0.000478354, 0.015449, -0.00564188, -0.0105634, -0.0138255, 0.0474971, -0.00521516, 0.471068, -0.543234, 0.335974, -2.08373, -2.16593, -0.129768, 0.469699, -0.542329, 0.335715, -2.08329, -2.16661, -0.128504, 0.00460967, 0.0120315, 0.00619634, 0.0104159, -0.00136354, -0.00680165
0.0535498, 1.69186, -1.22598, -1.53804, -0.900413, -1.19249, 1.22875, -1.30263, 0.0207458, -0.00875669, -0.00270225, -0.00632368, -0.0447909, 0.0265778, 9.66947e-05, 2.92762, 59.4708, 28.1986, 5.12909, 1.88434, 3.60415, -0.0878186, 0.000890302, -0.00131089, 0.000455068, 0.000560881, -0.000732104, -0.000492562, 0.01525, -0.00739834, -0.0103808, -0.0127219, 0.0513008, -0.00110979, 0.471073, -0.543221, 0.335981, -2.08372, -2.16594, -0.129759, 0.469715, -0.542326, 0.335709, -2.08328, -2.16666, -0.128443, 0.00484224, 0.0126428, 0.00651033, 0.0124022, -0.000511864, -0.00632955
0.0545498, 1.69189, -1.22598, -1.53804, -0.900421, -1.19254, 1.22877, -1.30263, 0.0216418, -0.00500772, -0.00440432, -0.00368195, -0.0474063, 0.0286605, -0.00088361, 3.11805, 59.4351, 28.3097, 5.05371, 1.87793, 3.63254, -0.0621838, 0.000876645, -0.00130329, 0.000462838, 0.000572645, -0.000782086, -0.000496309, 0.0170262, -0.00677761, -0.00850857, -0.0124617, 0.0585471, -0.0038501, 0.471078, -0.543208, 0.335987, -2.08371, -2.16594, -0.129749, 0.469728, -0.542325, 0.335706, -2.08329, -2.16669, -0.12837, 0.00507984, 0.0132677, 0.00683122, 0.0121513, -0.00195403, -0.00441679
0.0555498, 1.69192, -1.22597, -1.53804, -0.900427, -1.19259, 1.22879, -1.30263, 0.0249124, -0.00334234, -0.00293948, -0.0051814, -0.0447102, 0.0256151, -0.000350692, 3.19343, 59.4351, 28.3097, 5.01404, 1.87244, 3.65451, -0.0685925, 0.00086634, -0.00129074, 0.000466876, 0.000577984, -0.00083688, -0.00050738, 0.0144864, -0.00866154, -0.00789364, -0.0139332, 0.0570747, 0.00119468, 0.471083, -0.543195, 0.335994, -2.0837, -2.16595, -0.129738, 0.469746, -0.54232, 0.335707, -2.08329, -2.16674, -0.1283, 0.00532241, 0.013906, 0.00715894, 0.0142066, 0.00117443, -0.00314472
0.0565498, 1.69195, -1.22598, -1.53804, -0.900426, -1.19265, 1.22881, -1.30263, 0.0254341, -0.00306634, -0.000198873, -0.00474322, -0.0524104, 0.0231606, -0.000233029, 3.34419, 59.4708, 28.2343, 4.90295, 1.87244, 3.68289, -0.0685925, 0.000849287, -0.00128348, 0.000472312, 0.000576699, -0.000888021, -0.000506746, 0.0157425, -0.00775357, -0.00717894, -0.0173904, 0.0626972, -0.000614508, 0.471088, -0.54318, 0.336002, -2.08369, -2.16596, -0.129728, 0.469759, -0.542322, 0.335706, -2.08331, -2.16678, -0.128238, 0.00556992, 0.0145576, 0.00749345, 0.0136183, 0.000438777, -0.00227196
0.0575498, 1.69197, -1.22598, -1.53805, -0.900433, -1.19271, 1.22884, -1.30263, 0.0251145, -0.00288162, -0.00273288, -0.00787397, -0.0573837, 0.0215269, 0.000557299, 3.53065, 59.5065, 28.3454, 4.94263, 1.85321, 3.70395, -0.0878186, 0.00083099, -0.00127796, 0.000481556, 0.000591003, -0.000944407, -0.000503235, 0.0169815, -0.00669746, -0.00877222, -0.0250546, 0.0670408, -0.00243563, 0.471094, -0.543166, 0.336009, -2.08368, -2.16597, -0.129716, 0.46977, -0.542323, 0.335701, -2.08332, -2.16681, -0.128154, 0.00582231, 0.0152225, 0.00783467, 0.0128028, 8.22674e-05, -0.00366429
0.0585498, 1.69201, -1.22598, -1.53805, -0.900435, -1.19277, 1.22886, -1.30263, 0.0273923, -0.00368594, -0.00275132, -0.00906501, -0.0566028, 0.0258107, -0.00156082, 3.60603, 59.5819, 28.3851, 4.94263, 1.8349, 3.70395, -0.0356336, 0.000813884, -0.00126768, 0.000490625, 0.000595632, -0.000999691, -0.000512565, 0.0167002, -0.00885013, -0.0094073, -0.0222661, 0.068364, 0.00266904, 0.4711, -0.54315, 0.336017, -2.08367, -2.16597, -0.129705, 0.469787, -0.542323, 0.335697, -2.08333, -2.16685, -0.128082, 0.00607953, 0.0159004, 0.00818254, 0.0151769, 0.00122411, -0.00396493
0.0595498, 1.69203, -1.22598, -1.53805, -0.90044, -1.19283, 1.22889, -1.30263, 0.0242621, 0.000139939, -0.00183525, -0.0078231, -0.0568472, 0.0232412, 0.000180483, 3.75678, 59.4708, 28.3851, 4.97833, 1.84131, 3.73324, -0.0685925, 0.000794309, -0.00126355, 0.000492739, 0.000604853, -0.00106736, -0.000505131, 0.0184139, -0.00613147, -0.00697692, -0.0227193, 0.071323, -0.00354671, 0.471106, -0.543134, 0.336026, -2.08366, -2.16598, -0.129692, 0.469798, -0.542326, 0.3357, -2.08335, -2.16689, -0.12799, 0.00634154, 0.0165914, 0.00853701, 0.0128734, -0.00026227, -0.00139428
0.0605498, 1.69206, -1.22599, -1.53805, -0.900441, -1.1929, 1.22891, -1.30263, 0.0235326, -0.0033413, -0.00122428, -0.00675902, -0.0566357, 0.0261171, -0.000625421, 3.83216, 59.6176, 28.3851, 5.01404, 1.84131, 3.76163, -0.0484509, 0.000772668, -0.00125686, 0.00050482, 0.000613544, -0.0011224, -0.000501521, 0.0202546, -0.00592115, -0.00862265, -0.019566, 0.0694361, -0.00456075, 0.471113, -0.543117, 0.336034, -2.08364, -2.16599, -0.129679, 0.469811, -0.542328, 0.335694, -2.08337, -2.16692, -0.127911, 0.00660828, 0.0172953, 0.00889802, 0.0129367, -0.00113105, -0.0029375
0.0615498, 1.69209, -1.22599, -1.53806, -0.900436, -1.19297, 1.22893, -1.30263, 0.023632, -0.00315624, -0.0024872, -0.0042021, -0.0615482, 0.0235503, -0.00112884, 3.87183, 59.6573, 28.4565, 4.97833, 1.84772, 3.79001, -0.0292249, 0.000750188, -0.00125125, 0.000513061, 0.000622589, -0.00118291, -0.000495683, 0.022675, -0.00386903, -0.00909827, -0.0242852, 0.0727327, -0.00906399, 0.471119, -0.543099, 0.336043, -2.08363, -2.166, -0.129666, 0.469824, -0.542331, 0.335691, -2.08339, -2.16696, -0.127826, 0.00687971, 0.0180119, 0.00926549, 0.0112285, -0.00281508, -0.00335302
0.0625498, 1.69213, -1.22598, -1.53806, -0.900438, -1.19304, 1.22895, -1.30263, 0.0276251, 0.0014218, -0.000823354, -0.0040351, -0.0601283, 0.0220452, 0.000705637, 3.87183, 59.5065, 28.4208, 5.01404, 1.84131, 3.80466, -0.0685925, 0.000733861, -0.00123998, 0.000513561, 0.000631056, -0.00125873, -0.000497815, 0.0204985, -0.0058705, -0.0064054, -0.0239485, 0.0758938, -0.0065244, 0.471126, -0.543081, 0.336053, -2.08362, -2.16601, -0.129652, 0.469843, -0.542328, 0.335697, -2.08341, -2.16701, -0.127726, 0.00715578, 0.0187412, 0.00963939, 0.013523, -0.000269074, -4.29866e-05
0.0635498, 1.69216, -1.22599, -1.53806, -0.900436, -1.19311, 1.22898, -1.30262, 0.0297514, -0.00165097, -0.00231247, -0.00298892, -0.0637963, 0.0203445, 0.000945245, 3.90754, 59.6176, 28.4961, 5.01404, 1.8349, 3.83304, -0.0814099, 0.000710536, -0.00123374, 0.000526042, 0.000643868, -0.0013157, -0.000491822, 0.0217968, -0.00560096, -0.00912395, -0.0288461, 0.0755806, -0.0081004, 0.471134, -0.543062, 0.336063, -2.0836, -2.16602, -0.129638, 0.469857, -0.54233, 0.335691, -2.08342, -2.16704, -0.127638, 0.00743644, 0.0194831, 0.0100196, 0.0134827, -0.000401765, -0.00254032
0.0645498, 1.6922, -1.22599, -1.53806, -0.90043, -1.19318, 1.22899, -1.30263, 0.0302356, -0.00286418, -0.00237711, -0.000546322, -0.0670361, 0.0193549, 0.00361153, 3.98292, 59.693, 28.5319, 4.94263, 1.84131, 3.85501, -0.0356336, 0.000684535, -0.00123029, 0.000536404, 0.00065728, -0.00137729, -0.000486449, 0.0237676, -0.0044881, -0.00990704, -0.0306119, 0.0768642, -0.0141612, 0.471141, -0.543042, 0.336073, -2.08359, -2.16603, -0.129623, 0.469869, -0.542334, 0.335687, -2.08344, -2.16707, -0.127546, 0.00772164, 0.0202374, 0.0104062, 0.0126991, -0.00151838, -0.00319898
0.0655498, 1.69224, -1.22599, -1.53806, -0.900425, -1.19326, 1.22901, -1.30262, 0.0355687, -0.00107445, 0.000178314, 0.000395697, -0.0731343, 0.0188875, 0.00303483, 3.98292, 59.6573, 28.4565, 4.90295, 1.823, 3.86966, -0.0420422, 0.000664039, -0.00122133, 0.000540368, 0.000664277, -0.00144487, -0.000483958, 0.0229399, -0.00660506, -0.00841795, -0.0321804, 0.0838576, -0.0106379, 0.471149, -0.543021, 0.336083, -2.08357, -2.16604, -0.129607, 0.469886, -0.542333, 0.33569, -2.08346, -2.16712, -0.127453, 0.00801134, 0.0210041, 0.0107989, 0.0151275, -7.66012e-05, -0.0012715
0.0665498, 1.69227, -1.22599, -1.53807, -0.900421, -1.19333, 1.22903, -1.30262, 0.0382678, -0.0023869, -0.00257252, 0.00190096, -0.0745384, 0.0182003, 0.00377362, 4.02259, 59.7287, 28.5715, 4.82758, 1.85321, 3.89804, -0.0814099, 0.000636981, -0.00121792, 0.000554713, 0.000687923, -0.00150701, -0.000468302, 0.0239116, -0.00672627, -0.010441, -0.0359836, 0.0840292, -0.0124576, 0.471157, -0.543, 0.336094, -2.08356, -2.16606, -0.129591, 0.469898, -0.542336, 0.335682, -2.08348, -2.16714, -0.127346, 0.00830549, 0.021783, 0.0111979, 0.0155044, 5.92461e-05, -0.0030245
0.0675498, 1.69232, -1.22599, -1.53806, -0.900419, -1.19341, 1.22905, -1.30262, 0.0394191, -0.00159139, -0.000787097, 0.00117274, -0.0795524, 0.0186704, 0.0015143, 3.98292, 59.7287, 28.5319, 4.82758, 1.85962, 3.89804, -0.0484509, 0.000616068, -0.00120681, 0.000562576, 0.000701181, -0.00157739, -0.000476986, 0.0246099, -0.00703743, -0.00974685, -0.0371473, 0.0896929, -0.00992705, 0.471166, -0.542978, 0.336106, -2.08354, -2.16607, -0.129574, 0.469918, -0.542333, 0.335682, -2.08348, -2.1672, -0.127244, 0.00860403, 0.0225739, 0.011603, 0.0161642, 6.6935e-05, -0.0020517
0.0685498, 1.69235, -1.226, -1.53806, -0.900421, -1.19349, 1.22907, -1.30262, 0.0362908, -0.00365947, 0.000310409, -0.000217112, -0.0787431, 0.014145, 0.000461893, 4.09797, 59.8398, 28.4961, 4.86725, 1.86603, 3.89804, -0.0292249, 0.000589718, -0.00120131, 0.000574384, 0.000713549, -0.00164117, -0.000476579, 0.0257704, -0.00476346, -0.0112918, -0.0404424, 0.0852448, -0.0105923, 0.471175, -0.542955, 0.336118, -2.08352, -2.16608, -0.129557, 0.469933, -0.542334, 0.335678, -2.08349, -2.16724, -0.127149, 0.00890693, 0.0233769, 0.0120141, 0.014182, -0.000131806, -0.00327717
0.0695498, 1.6924, -1.226, -1.53807, -0.900411, -1.19358, 1.22908, -1.30262, 0.0368705, -0.00243972, -0.00239157, 0.00240052, -0.0826114, 0.0153026, 0.00212668, 4.09797, 59.8398, 28.6072, 4.75616, 1.86603, 3.89804, -0.0750012, 0.00056147, -0.00119651, 0.000585919, 0.000735441, -0.00171095, -0.000460799, 0.0284804, -0.00345584, -0.0113936, -0.0426921, 0.0907281, -0.01728, 0.471184, -0.542931, 0.33613, -2.0835, -2.16609, -0.129539, 0.469947, -0.542336, 0.335675, -2.08351, -2.16727, -0.127034, 0.00921413, 0.0241918, 0.0124312, 0.0132774, -0.00203054, -0.00334111
0.0705498, 1.69243, -1.22601, -1.53807, -0.90041, -1.19366, 1.2291, -1.30262, 0.0377486, -0.00246175, -0.00159443, 0.00156046, -0.0854207, 0.0166028, 0.00225627, 4.21302, 59.8755, 28.6072, 4.75616, 1.86603, 3.89071, -0.0951428, 0.000532435, -0.00119285, 0.00059749, 0.000754219, -0.00178104, -0.000451508, 0.0292379, -0.00386612, -0.0114715, -0.0430635, 0.0942722, -0.0170599, 0.471193, -0.542906, 0.336143, -2.08349, -2.16611, -0.12952, 0.469961, -0.542338, 0.335671, -2.08353, -2.1673, -0.126922, 0.0095256, 0.0250185, 0.0128543, 0.0140233, -0.00192288, -0.00312476
0.0715498, 1.69247, -1.226, -1.53806, -0.900405, -1.19375, 1.22911, -1.30262, 0.0387272, 0.00729567, 0.000700254, 0.00277362, -0.082297, 0.0162235, -0.000867854, 4.3241, 59.7644, 28.5319, 4.68079, 1.84772, 3.9191, -0.0292249, 0.000505544, -0.00119013, 0.000599395, 0.000772728, -0.00186027, -0.000451332, 0.0279823, -0.004314, -0.00514827, -0.0390526, 0.1016, -0.0127624, 0.471203, -0.542881, 0.336156, -2.08347, -2.16612, -0.129501, 0.469974, -0.542339, 0.335678, -2.08354, -2.16735, -0.126802, 0.00984127, 0.0258569, 0.0132832, 0.0149712, -0.000798832, 0.00372922
0.0725498, 1.69252, -1.22599, -1.53807, -0.900407, -1.19384, 1.22911, -1.30262, 0.0412274, 0.00539196, -0.00129643, 0.000991424, -0.0851179, 0.0114545, -0.000289181, 4.36378, 59.7644, 28.6072, 4.71649, 1.84131, 3.94107, -0.0356336, 0.000478816, -0.00118474, 0.000611609, 0.000806536, -0.00193629, -0.000449568, 0.0278975, -0.00426738, -0.00808028, -0.0480114, 0.100609, -0.0119032, 0.471213, -0.542854, 0.336169, -2.08345, -2.16613, -0.129481, 0.46999, -0.542337, 0.335675, -2.08354, -2.1674, -0.126668, 0.0101611, 0.0267069, 0.013718, 0.0151351, 0.000583862, 0.0012835
0.0735498, 1.69256, -1.22599, -1.53807, -0.900402, -1.19393, 1.22912, -1.30262, 0.0429902, 0.00649642, -0.00262754, 0.00240736, -0.0917582, 0.00794584, 0.00154166, 4.39948, 59.6573, 28.6826, 4.64111, 1.8349, 3.96213, -0.0814099, 0.000450745, -0.00118014, 0.000619668, 0.000836705, -0.00201721, -0.000438563, 0.0295636, -0.00295093, -0.00841778, -0.0551881, 0.106027, -0.016847, 0.471223, -0.542827, 0.336183, -2.08343, -2.16615, -0.129461, 0.470006, -0.542336, 0.335677, -2.08356, -2.16743, -0.126531, 0.0104851, 0.0275683, 0.0141585, 0.0141925, -0.000202021, 0.0011725
0.0745498, 1.69261, -1.22598, -1.53807, -0.900409, -1.19402, 1.22913, -1.30262, 0.0392435, 0.0086043, 1.15302e-05, -0.000170955, -0.0924715, 0.0100518, 0.00058232, 4.51453, 59.6176, 28.6072, 4.71649, 1.8349, 3.9841, -0.0685925, 0.000425228, -0.00117398, 0.000627682, 0.000863456, -0.00209544, -0.000444858, 0.0309917, -0.00180506, -0.00653519, -0.0522247, 0.110297, -0.0170702, 0.471234, -0.542799, 0.336197, -2.08341, -2.16616, -0.12944, 0.470023, -0.542332, 0.335679, -2.08356, -2.16749, -0.126401, 0.0108131, 0.0284411, 0.0146048, 0.0134966, -0.00107593, 0.00329119
0.0755498, 1.69266, -1.22598, -1.53807, -0.900405, -1.19412, 1.22913, -1.30262, 0.0454633, 0.00788347, 7.67642e-06, 0.0016398, -0.0929154, 0.00720129, -0.00128526, 4.51453, 59.5462, 28.6072, 4.64111, 1.8349, 3.99783, -0.0228162, 0.000398236, -0.00116668, 0.000637783, 0.000893889, -0.00217317, -0.000447338, 0.0295559, -0.00397629, -0.00760698, -0.0554497, 0.109175, -0.0115298, 0.471245, -0.54277, 0.336212, -2.08339, -2.16618, -0.129418, 0.470042, -0.542327, 0.33568, -2.08356, -2.16754, -0.126267, 0.0111452, 0.0293251, 0.0150567, 0.0159065, 0.00148008, 0.00284158
0.0765498, 1.69271, -1.22598, -1.53807, -0.9004, -1.19422, 1.22914, -1.30262, 0.0483914, 0.0065413, -0.000830108, 0.00284934, -0.0946864, 0.00501488, 0.000855045, 4.58991, 59.5065, 28.6429, 4.56573, 1.87244, 4.01248, -0.0685925, 0.000367598, -0.00116236, 0.000649818, 0.000929109, -0.00225306, -0.000435669, 0.029981, -0.00426799, -0.00919456, -0.0592742, 0.108865, -0.0135642, 0.471256, -0.542741, 0.336228, -2.08336, -2.16619, -0.129396, 0.470058, -0.542326, 0.335678, -2.08357, -2.16757, -0.126123, 0.0114812, 0.0302203, 0.0155142, 0.0164918, 0.00221175, 0.00165678
0.0775498, 1.69277, -1.22597, -1.53807, -0.9004, -1.19432, 1.22914, -1.30262, 0.049287, 0.00629953, -0.00148143, 0.00189423, -0.0994166, 0.00336814, 0.000107659, 4.58991, 59.4351, 28.6826, 4.56573, 1.87793, 4.02713, -0.0557752, 0.000340116, -0.00115572, 0.000660829, 0.00096993, -0.00233619, -0.00043907, 0.0311774, -0.0036772, -0.0102174, -0.064473, 0.112466, -0.0137533, 0.471268, -0.54271, 0.336243, -2.08334, -2.16621, -0.129373, 0.470077, -0.54232, 0.335679, -2.08357, -2.16763, -0.125971, 0.0118212, 0.0311266, 0.0159772, 0.0162481, 0.00206963, 0.000942395
0.0785498, 1.69282, -1.22597, -1.53806, -0.900392, -1.19441, 1.22914, -1.30262, 0.0477217, 0.00440085, 0.000775613, 0.00385728, -0.0937325, 0.00321352, -0.00137703, 4.66529, 59.4351, 28.6072, 4.45465, 1.89075, 4.01248, -0.0164075, 0.000309292, -0.00115081, 0.000670815, 0.000995293, -0.00241138, -0.000440128, 0.0319887, -0.00303557, -0.0105279, -0.0593664, 0.106104, -0.0132794, 0.47128, -0.542678, 0.33626, -2.08332, -2.16623, -0.129349, 0.470095, -0.542318, 0.33568, -2.08357, -2.16768, -0.125843, 0.012165, 0.0320437, 0.0164457, 0.0159696, 0.00220703, 0.00099821
0.0795498, 1.69288, -1.22597, -1.53806, -0.900397, -1.19452, 1.22914, -1.30261, 0.0517878, 0.00392, 0.000517072, 0.00080529, -0.0997394, 0.00300406, 0.00173378, 4.66529, 59.3994, 28.6072, 4.53003, 1.92096, 3.99783, -0.0878186, 0.000283251, -0.00114118, 0.000684826, 0.00103847, -0.00249221, -0.000443111, 0.0315194, -0.00487667, -0.0118894, -0.0650718, 0.111498, -0.0126094, 0.471292, -0.542646, 0.336276, -2.08329, -2.16625, -0.129324, 0.470117, -0.542308, 0.335679, -2.08356, -2.16773, -0.125689, 0.0125127, 0.0329717, 0.0169196, 0.0180897, 0.00388384, 0.000144598
0.0805498, 1.69293, -1.22596, -1.53806, -0.900387, -1.19462, 1.22914, -1.30261, 0.0529869, 0.00365451, 0.000344712, 0.00406109, -0.0987338, 0.00275071, 0.000686346, 4.74067, 59.3597, 28.6072, 4.37927, 1.93378, 3.9841, -0.0750012, 0.000249699, -0.00113762, 0.000695397, 0.001071, -0.00257356, -0.000436807, 0.0327754, -0.00448761, -0.0120808, -0.0640347, 0.11069, -0.0137571, 0.471305, -0.542612, 0.336293, -2.08327, -2.16626, -0.129299, 0.470134, -0.542306, 0.33568, -2.08356, -2.16777, -0.125544, 0.0128642, 0.0339105, 0.0173989, 0.0180915, 0.00359582, 0.000252155
0.0815498, 1.69299, -1.22596, -1.53806, -0.900389, -1.19472, 1.22914, -1.30262, 0.0507865, 0.00252121, 0.000229806, 0.00177769, -0.0979772, 0.0030645, -0.000996591, 4.81605, 59.3597, 28.6072, 4.41894, 1.94568, 3.95572, -0.0356336, 0.000219478, -0.00112963, 0.000710648, 0.00110837, -0.00265306, -0.00044697, 0.0340891, -0.00352703, -0.013305, -0.0647538, 0.109892, -0.0128229, 0.471318, -0.542578, 0.336311, -2.08324, -2.16628, -0.129273, 0.470156, -0.542299, 0.335678, -2.08355, -2.16783, -0.125397, 0.0132194, 0.0348598, 0.0178835, 0.0174908, 0.00339658, -0.000646241
0.0825498, 1.69305, -1.22596, -1.53807, -0.900382, -1.19482, 1.22914, -1.30262, 0.0542382, 0.00341489, -0.00161004, 0.00378232, -0.0970176, 0.00244892, -0.000661464, 4.81605, 59.2883, 28.6826, 4.30786, 1.94568, 3.94839, -0.0356336, 0.000188367, -0.001121, 0.000725897, 0.00114721, -0.00273227, -0.000445758, 0.0342038, -0.00428765, -0.0137373, -0.0663596, 0.110402, -0.0128871, 0.471331, -0.542543, 0.336329, -2.08322, -2.1663, -0.129247, 0.470178, -0.542292, 0.335676, -2.08354, -2.16788, -0.125247, 0.0135784, 0.0358197, 0.0183733, 0.0185982, 0.00434113, -0.000624089
0.0835498, 1.69312, -1.22596, -1.53806, -0.900374, -1.19493, 1.22914, -1.30261, 0.0548292, 0.00232433, -0.000145338, 0.00428384, -0.100892, 0.00122498, 0.00125664, 4.89143, 59.2883, 28.6429, 4.23248, 1.95209, 3.96213, -0.0814099, 0.000156038, -0.00111462, 0.000740397, 0.00118313, -0.0028073, -0.000440854, 0.0355486, -0.00373702, -0.0142768, -0.0682947, 0.112432, -0.0160495, 0.471345, -0.542506, 0.336348, -2.08319, -2.16632, -0.12922, 0.470199, -0.542285, 0.335675, -2.08354, -2.16792, -0.125103, 0.013941, 0.03679, 0.0188684, 0.0184404, 0.0040438, -0.000853245
0.0845498, 1.69318, -1.22595, -1.53806, -0.900378, -1.19503, 1.22914, -1.30261, 0.0589429, 0.0033486, -0.00102491, 0.00201996, -0.103794, 0.000892391, 0.000364692, 4.92713, 59.213, 28.6826, 4.26819, 1.96399, 3.96213, -0.0685925, 0.000127186, -0.00110316, 0.000754337, 0.00122338, -0.00289374, -0.000454622, 0.0347058, -0.00559883, -0.0148977, -0.0727354, 0.116727, -0.0113458, 0.471359, -0.542469, 0.336367, -2.08316, -2.16634, -0.129192, 0.470225, -0.542273, 0.335675, -2.08352, -2.16799, -0.124944, 0.0143072, 0.0377706, 0.0193685, 0.0206131, 0.00602904, -0.000892101
0.0855498, 1.69325, -1.22595, -1.53806, -0.900376, -1.19513, 1.22914, -1.30261, 0.0615784, 0.00142403, 0.000244744, 0.00218133, -0.10622, 0.000651733, -0.0012137, 5.00251, 59.2487, 28.6429, 4.23248, 1.9704, 3.96213, -0.0292249, 9.36918e-05, -0.00109512, 0.000771258, 0.00125814, -0.00297078, -0.000460513, 0.0349974, -0.0065876, -0.0160722, -0.0738707, 0.117344, -0.0083016, 0.471373, -0.542431, 0.336386, -2.08313, -2.16636, -0.129163, 0.470248, -0.542265, 0.335673, -2.08351, -2.16805, -0.1248, 0.014677, 0.0387614, 0.0198738, 0.0219385, 0.00695354, -0.00162184
0.0865498, 1.69331, -1.22594, -1.53806, -0.900368, -1.19524, 1.22914, -1.30261, 0.0641922, 0.00347515, 0.000163162, 0.00405227, -0.108789, 0.000205826, -0.00104556, 5.04218, 59.1415, 28.6429, 4.1214, 1.99512, 3.96945, -0.0228162, 6.11294e-05, -0.00108669, 0.000783899, 0.00129624, -0.00305449, -0.000464283, 0.0357275, -0.00681387, -0.0151722, -0.0752841, 0.121881, -0.00930124, 0.471388, -0.542392, 0.336407, -2.0831, -2.16638, -0.129134, 0.470272, -0.542256, 0.335675, -2.0835, -2.1681, -0.124643, 0.0150503, 0.0397623, 0.0203841, 0.0225977, 0.00710469, -0.000342752
0.0875498, 1.69338, -1.22593, -1.53806, -0.900376, -1.19534, 1.22914, -1.3026, 0.0645462, 0.00493033, 0.000943993, -0.00563052, -0.105287, 0.000169171, 0.00198242, 5.15327, 59.0305, 28.6072, 4.23248, 2.00061, 3.96945, -0.0951428, 3.11644e-05, -0.00107686, 0.000796291, 0.00133262, -0.00313767, -0.000470517, 0.0327628, -0.00927165, -0.015771, -0.0779439, 0.121964, -0.00281946, 0.471403, -0.542351, 0.336427, -2.08308, -2.1664, -0.129103, 0.470298, -0.542243, 0.335679, -2.08348, -2.16816, -0.124489, 0.0154271, 0.0407732, 0.0208993, 0.0252998, 0.0112367, -3.42964e-05
0.0885498, 1.69345, -1.22593, -1.53807, -0.900368, -1.19544, 1.22914, -1.30261, 0.0665569, 0.00329821, -0.00280435, -0.00163322, -0.108899, 0.000136745, -0.000135929, 5.19294, 59.0305, 28.754, 4.1214, 2.05005, 3.96945, -0.0557752, -4.81551e-06, -0.00106825, 0.000815315, 0.00137502, -0.00321894, -0.000476815, 0.035776, -0.0080589, -0.0179787, -0.0819106, 0.123932, -0.00604759, 0.471419, -0.54231, 0.336448, -2.08304, -2.16642, -0.129072, 0.470323, -0.542234, 0.335675, -2.08347, -2.16822, -0.124329, 0.0158074, 0.041794, 0.0214195, 0.024498, 0.00957148, -0.00212384
0.0895498, 1.69352, -1.22593, -1.53807, -0.900371, -1.19555, 1.22913, -1.30261, 0.0714497, 0.00453631, -0.00186956, -0.00144731, -0.106748, -0.00016213, -0.00154829, 5.22865, 59.0662, 28.754, 4.1214, 2.09308, 3.97677, -0.0164075, -3.76541e-05, -0.00105659, 0.000835541, 0.00141461, -0.00329557, -0.000495175, 0.0339698, -0.0106808, -0.0175503, -0.081341, 0.124038, 0.000323392, 0.471435, -0.542268, 0.33647, -2.08301, -2.16645, -0.129041, 0.470351, -0.542221, 0.335672, -2.08343, -2.16829, -0.124178, 0.016191, 0.0428246, 0.0219445, 0.0274505, 0.0124286, -0.000975904
0.0905498, 1.6936, -1.22592, -1.53807, -0.900374, -1.19565, 1.22914, -1.30261, 0.0727524, 0.00756316, -0.00124638, -0.00206897, -0.105014, 0.000447928, -8.24643e-05, 5.22865, 58.8837, 28.754, 4.1571, 2.13611, 3.96213, -0.0420422, -6.81382e-05, -0.00104263, 0.000846567, 0.0014517, -0.00339036, -0.000510384, 0.0336022, -0.0114969, -0.0160272, -0.0801264, 0.126705, 0.000649267, 0.471451, -0.542224, 0.336492, -2.08298, -2.16647, -0.129008, 0.470382, -0.542205, 0.335678, -2.08341, -2.16837, -0.124009, 0.016578, 0.0438649, 0.0224743, 0.0286954, 0.0136319, 0.00108999
0.0915498, 1.69367, -1.22592, -1.53807, -0.900369, -1.19575, 1.22914, -1.3026, 0.0756487, 0.0085222, -0.00259416, 0.000182272, -0.103075, 0.000546088, 0.000928588, 5.26832, 58.8837, 28.8294, 4.08173, 2.16724, 3.95572, -0.0685925, -0.000104248, -0.00103216, 0.000866482, 0.00148687, -0.00346586, -0.000512483, 0.0339021, -0.0121825, -0.0161525, -0.0800475, 0.126821, -0.000360609, 0.471468, -0.54218, 0.336515, -2.08295, -2.16649, -0.128975, 0.470409, -0.542193, 0.335675, -2.0834, -2.16843, -0.123861, 0.0169683, 0.0449148, 0.0230089, 0.0297771, 0.0144337, 0.00143338
0.0925498, 1.69374, -1.2259, -1.53807, -0.900374, -1.19585, 1.22913, -1.3026, 0.0771443, 0.00870496, -0.00172944, -0.000957747, -0.101561, 0.000134282, -0.000364121, 5.3437, 58.7726, 28.8294, 4.1214, 2.19104, 3.96213, -0.0420422, -0.000135823, -0.00102012, 0.000880418, 0.00152507, -0.00354953, -0.000532912, 0.0334722, -0.0130985, -0.0163943, -0.0801395, 0.126377, 0.00344616, 0.471485, -0.542135, 0.336538, -2.08291, -2.16652, -0.128941, 0.470439, -0.542176, 0.335679, -2.08337, -2.16851, -0.123702, 0.0173618, 0.0459742, 0.0235482, 0.0310613, 0.015993, 0.00177247
0.0935498, 1.69383, -1.22591, -1.53807, -0.900372, -1.19595, 1.22913, -1.30261, 0.0786243, 0.00268841, -0.00208098, 0.000176091, -0.0968429, 9.52086e-05, -0.000717341, 5.26832, 58.9194, 28.8691, 4.08173, 2.24689, 3.96213, -0.0292249, -0.000168679, -0.00100331, 0.000906931, 0.00156291, -0.00361569, -0.000559049, 0.0339794, -0.0138236, -0.0203697, -0.0789279, 0.117198, 0.00490577, 0.471503, -0.542088, 0.336562, -2.08288, -2.16654, -0.128906, 0.470474, -0.542157, 0.335671, -2.08332, -2.16858, -0.12356, 0.0177586, 0.047043, 0.0240921, 0.0320551, 0.0172019, -0.00170988
0.0945498, 1.6939, -1.2259, -1.53807, -0.900372, -1.19606, 1.22913, -1.3026, 0.0760448, 0.00462981, -0.00138732, 3.23204e-05, -0.0963724, -0.00457799, 0.000979927, 5.3437, 58.8083, 28.8691, 4.08173, 2.25879, 3.96213, -0.0685925, -0.000204413, -0.000992013, 0.000921055, 0.00159514, -0.0037019, -0.000566302, 0.0353106, -0.0112634, -0.0196683, -0.0821152, 0.117064, 0.000337829, 0.471521, -0.542041, 0.336586, -2.08285, -2.16657, -0.128871, 0.470504, -0.542142, 0.335676, -2.0833, -2.16865, -0.123402, 0.0181585, 0.048121, 0.0246406, 0.0299731, 0.0167513, -0.000596262
0.0955498, 1.69398, -1.2259, -1.53807, -0.900372, -1.19616, 1.22913, -1.3026, 0.0791347, 0.00326585, -0.0017601, -4.22581e-05, -0.0960652, -0.00319858, -0.00032999, 5.3437, 58.8083, 28.9048, 4.08173, 2.27161, 3.95572, -0.0420422, -0.000240809, -0.000979389, 0.000941579, 0.001629, -0.00377789, -0.000584211, 0.0353461, -0.0128288, -0.0210451, -0.0821741, 0.117007, 0.00381634, 0.471539, -0.541992, 0.336611, -2.08281, -2.16659, -0.128834, 0.470535, -0.542126, 0.335674, -2.08327, -2.16872, -0.123253, 0.0185616, 0.0492083, 0.0251936, 0.0318905, 0.0180804, -0.00145623
0.0965498, 1.69406, -1.22589, -1.53806, -0.900377, -1.19626, 1.22913, -1.3026, 0.0813126, 0.00491018, 0.00282605, -0.00100405, -0.0947685, -0.0026577, -0.0004573, 5.3437, 58.6972, 28.8691, 4.1214, 2.25879, 3.96213, -0.0356336, -0.000273626, -0.000964477, 0.000955186, 0.00165898, -0.00386215, -0.000608733, 0.0339309, -0.0148503, -0.0190491, -0.0781896, 0.118455, 0.00863561, 0.471558, -0.541942, 0.336637, -2.08277, -2.16662, -0.128797, 0.47057, -0.542106, 0.335681, -2.08323, -2.16881, -0.1231, 0.0189677, 0.0503046, 0.0257511, 0.0343376, 0.0203521, 0.00122929
0.0975498, 1.69414, -1.22589, -1.53806, -0.90037, -1.19636, 1.22913, -1.3026, 0.0803814, -5.93595e-05, 0.00364899, 0.00105798, -0.095294, -0.00147914, 0.00213658, 5.30799, 58.844, 28.9405, 4.04602, 2.2771, 3.94839, -0.101552, -0.000314128, -0.000952767, 0.000980515, 0.00169513, -0.00393389, -0.000612179, 0.0366443, -0.0138216, -0.0216395, -0.0764403, 0.115008, 0.00271488, 0.471577, -0.541891, 0.336663, -2.08274, -2.16665, -0.128759, 0.470601, -0.542091, 0.335675, -2.08321, -2.16887, -0.122949, 0.0193769, 0.05141, 0.0263131, 0.0337239, 0.0191335, -0.00115518
0.0985498, 1.69423, -1.22589, -1.53806, -0.90037, -1.19646, 1.22913, -1.3026, 0.0841142, -0.000891945, 0.00605027, 0.000678405, -0.0943492, -0.000334271, 0.000441071, 5.22865, 58.8837, 28.9405, 4.04602, 2.25879, 3.92642, -0.0750012, -0.0003509, -0.00093706, 0.00100128, 0.00172685, -0.00401286, -0.000633038, 0.0355516, -0.0163119, -0.0218276, -0.0741866, 0.114725, 0.00899595, 0.471597, -0.541839, 0.33669, -2.0827, -2.16667, -0.128721, 0.470637, -0.542071, 0.335675, -2.08317, -2.16895, -0.122797, 0.0197891, 0.0525242, 0.0268794, 0.0365765, 0.0214598, -0.000681991
0.0995498, 1.69423, -1.22589, -1.53806, -0.90037, -1.19646, 1.22913, -1.3026, 0.0841142, -0.000891945, 0.00605027, 0.000678405, -0.0943492, -0.000334271, 0.000441071, 5.22865, 58.8837, 28.9405, 4.04602, 2.25879, 3.92642, -0.0750012, -0.000406742, -0.000958401, 0.00102072, 0.00169975, -0.00400057, -0.00060366, 0.0367337, -0.0158673, -0.022234, -0.0746509, 0.11549, 0.00806774, 0.471617, -0.541786, 0.336717, -2.08266, -2.1667, -0.128681, 0.470637, -0.542071, 0.335675, -2.08317, -2.16895, -0.122797, 0.0202043, 0.0536472, 0.02745, 0.0365765, 0.0214598, -0.000681991
0.10055, 1.69423, -1.22589, -1.53806, -0.90037, -1.19646, 1.22913, -1.3026, 0.0841142, -0.000891945, 0.00605027, 0.000678405, -0.0943492, -0.000334271, 0.000441071, 5.22865, 58.8837, 28.9405, 4.04602, 2.25879, 3.92642, -0.0750012, -0.000463767, -0.00098019, 0.00104057, 0.00167208, -0.00398803, -0.000573675, 0.0379248, -0.0154196, -0.0226434, -0.075118, 0.116261, 0.00713309, 0.471637, -0.541732, 0.336744, -2.08262, -2.16673, -0.128641, 0.470637, -0.542071, 0.335675, -2.08317, -2.16895, -0.122797, 0.0206224, 0.0547789, 0.0280249, 0.0365765, 0.0214598, -0.000681991
0.10155, 1.69447, -1.22586, -1.53807, -0.900383, -1.19679, 1.22913, -1.30259, 0.0813856, 0.00303734, 0.00125127, -0.00228351, -0.095201, -0.0022952, 0.000797587, 5.11756, 58.9551, 29.1269, 4.19281, 2.30182, 3.90536, -0.0878186, -0.000472172, -0.000901053, 0.00106148, 0.00183911, -0.00427267, -0.000681273, 0.0400464, -0.012728, -0.0228788, -0.0825262, 0.121182, 0.00307077, 0.471658, -0.541677, 0.336773, -2.08258, -2.16676, -0.128599, 0.470736, -0.542018, 0.335679, -2.08307, -2.16919, -0.122293, 0.0210433, 0.0559192, 0.028604, 0.0343793, 0.0204289, -0.000580691
0.10255, 1.69455, -1.22585, -1.53806, -0.90039, -1.1969, 1.22913, -1.3026, 0.0805896, 0.00418491, 0.0052425, -0.0032941, -0.103833, -0.00125747, -0.00163841, 5.07789, 58.8837, 29.0912, 4.26819, 2.30823, 3.89071, -0.0292249, -0.000512385, -0.000887693, 0.00107628, 0.00187029, -0.00436877, -0.000705981, 0.0421828, -0.0119516, -0.0212007, -0.0828773, 0.130496, 0.00366022, 0.471679, -0.54162, 0.336802, -2.08254, -2.16679, -0.128557, 0.470772, -0.541998, 0.335687, -2.08304, -2.16929, -0.122121, 0.0214671, 0.057068, 0.0291872, 0.0341688, 0.0191784, 0.00135293
0.10355, 1.69463, -1.22585, -1.53805, -0.900397, -1.19701, 1.22913, -1.30259, 0.0807854, 0.00205869, 0.00627373, -0.00685185, -0.101785, -0.00076945, 0.00012844, 5.00251, 59.0662, 29.1269, 4.34357, 2.32013, 3.88339, -0.0621838, -0.000556256, -0.000874971, 0.00110106, 0.00190475, -0.00445181, -0.000720319, 0.0418875, -0.0129397, -0.0229636, -0.0829609, 0.12799, 0.00547383, 0.471701, -0.541563, 0.336831, -2.08249, -2.16682, -0.128514, 0.470807, -0.54198, 0.335685, -2.083, -2.16937, -0.121957, 0.0218936, 0.0582252, 0.0297746, 0.0355068, 0.0209394, 0.000214879
0.10455, 1.69472, -1.22583, -1.53805, -0.900406, -1.19713, 1.22913, -1.30259, 0.081497, 0.00603775, 0.00803295, -0.00931867, -0.110108, -0.000393502, 0.00130633, 4.89143, 59.0305, 29.1269, 4.41894, 2.33844, 3.87607, -0.0951428, -0.00059783, -0.000860918, 0.00111688, 0.00193856, -0.00455228, -0.000739977, 0.0430057, -0.0127974, -0.020755, -0.0863714, 0.139886, 0.00417951, 0.471723, -0.541504, 0.336861, -2.08245, -2.16685, -0.128471, 0.470844, -0.541959, 0.335692, -2.08297, -2.16947, -0.121776, 0.0223229, 0.0593907, 0.030366, 0.0359176, 0.0206561, 0.00281869
0.10555, 1.6948, -1.22582, -1.53804, -0.900412, -1.19724, 1.22913, -1.30259, 0.0835851, 0.00470407, 0.00837279, -0.00746016, -0.111006, -0.000647453, 0.00503898, 4.85175, 59.0305, 29.1666, 4.45465, 2.34485, 3.88339, -0.0814099, -0.000644809, -0.000852528, 0.00113489, 0.0019713, -0.00464553, -0.00075088, 0.044068, -0.0130269, -0.0217136, -0.0867304, 0.139847, -0.000197365, 0.471746, -0.541444, 0.336892, -2.08241, -2.16688, -0.128426, 0.470876, -0.541942, 0.335698, -2.08295, -2.16955, -0.121601, 0.022755, 0.0605644, 0.0309614, 0.0365832, 0.020938, 0.00229621
0.10655, 1.69488, -1.22582, -1.53804, -0.900426, -1.19736, 1.22913, -1.30259, 0.0846807, 0.00563586, 0.00956644, -0.0107778, -0.112069, -0.000245757, 0.00279961, 4.701, 59.213, 29.1666, 4.56573, 2.36316, 3.87607, -0.0557752, -0.000689946, -0.000838808, 0.00116106, 0.00200833, -0.00473294, -0.000777131, 0.0437521, -0.014063, -0.0216464, -0.0879721, 0.142903, 0.0052595, 0.471769, -0.541383, 0.336923, -2.08236, -2.16691, -0.128381, 0.470913, -0.541921, 0.335696, -2.0829, -2.16964, -0.121429, 0.0231896, 0.0617462, 0.0315607, 0.0380442, 0.0224651, 0.00297891
0.10755, 1.69496, -1.2258, -1.53803, -0.900429, -1.19748, 1.22913, -1.30259, 0.0844542, 0.0103564, 0.00560179, -0.00682341, -0.111956, -0.00022788, 0.00287078, 4.58991, 59.1019, 29.238, 4.53003, 2.35675, 3.87607, -0.0750012, -0.000737351, -0.000828808, 0.00117526, 0.00203963, -0.00483613, -0.000788706, 0.0466336, -0.0118139, -0.020141, -0.0895444, 0.148228, -0.00143022, 0.471792, -0.54132, 0.336955, -2.08231, -2.16694, -0.128334, 0.470948, -0.541903, 0.335706, -2.08288, -2.16974, -0.121244, 0.0236269, 0.0629361, 0.0321639, 0.0363986, 0.0204845, 0.00469268
0.10855, 1.69504, -1.2258, -1.53803, -0.900442, -1.19759, 1.22913, -1.30259, 0.0793914, 0.00653017, 0.00347745, -0.00863681, -0.112022, 0.000308675, 0.00189572, 4.55024, 59.2883, 29.2777, 4.56573, 2.35126, 3.86233, -0.0685925, -0.000787565, -0.000819657, 0.00119994, 0.00207097, -0.00492378, -0.000806384, 0.0504809, -0.00869633, -0.0235134, -0.0918661, 0.14569, -0.00581565, 0.471816, -0.541257, 0.336987, -2.08227, -2.16698, -0.128287, 0.470982, -0.541885, 0.335706, -2.08284, -2.16983, -0.121075, 0.0240668, 0.0641338, 0.032771, 0.033743, 0.0182696, 0.00147132
0.10955, 1.69513, -1.22578, -1.53802, -0.900452, -1.19772, 1.22913, -1.30259, 0.0813303, 0.00762865, 0.00337489, -0.00915283, -0.116384, 0.000441028, -2.98341e-05, 4.39948, 59.324, 29.3888, 4.56573, 2.33844, 3.85501, -0.0292249, -0.000835596, -0.000808462, 0.00121897, 0.00210898, -0.00502563, -0.000827212, 0.0515257, -0.00891951, -0.0234911, -0.0948037, 0.151357, -0.00404354, 0.47184, -0.541192, 0.337021, -2.08222, -2.16701, -0.128239, 0.471018, -0.541864, 0.335713, -2.0828, -2.16992, -0.120883, 0.0245092, 0.0653394, 0.0333819, 0.0344488, 0.0184496, 0.00193605
0.11055, 1.6952, -1.22578, -1.53801, -0.900469, -1.19783, 1.22913, -1.30258, 0.0810133, 0.00623997, 0.00534524, -0.0113315, -0.111561, 0.000809536, 0.0020362, 4.3241, 59.5819, 29.4245, 4.64111, 2.35126, 3.84036, -0.0814099, -0.000886851, -0.000799108, 0.00124536, 0.00214109, -0.00511223, -0.000840532, 0.0510985, -0.00973256, -0.0243033, -0.0921013, 0.147087, -0.0029173, 0.471865, -0.541126, 0.337054, -2.08217, -2.16705, -0.12819, 0.471053, -0.541844, 0.335712, -2.08277, -2.17001, -0.120712, 0.0249541, 0.0665526, 0.0339965, 0.0356607, 0.0202435, 0.00178985
0.11155, 1.69528, -1.22577, -1.53799, -0.900485, -1.19795, 1.22913, -1.30258, 0.0798787, 0.00896687, 0.00829128, -0.0120305, -0.116366, 0.000790695, 0.00168731, 4.2884, 59.693, 29.3888, 4.68079, 2.34485, 3.83304, -0.0878186, -0.000937932, -0.000790636, 0.00126177, 0.00216389, -0.00521008, -0.000858896, 0.0527545, -0.00869387, -0.0221265, -0.0921881, 0.154394, -0.00432759, 0.47189, -0.541059, 0.337088, -2.08212, -2.16708, -0.12814, 0.471088, -0.541825, 0.335722, -2.08273, -2.17011, -0.12054, 0.0254015, 0.0677736, 0.0346148, 0.0352144, 0.0194517, 0.00433421
0.11255, 1.69536, -1.22576, -1.53799, -0.900497, -1.19807, 1.22913, -1.30258, 0.079688, 0.0140083, 0.00890334, -0.0133757, -0.11586, 0.00102056, 7.44339e-06, 4.09797, 59.8041, 29.5395, 4.64111, 2.35126, 3.8193, -0.0557752, -0.000990204, -0.000780523, 0.00128243, 0.00219668, -0.00531135, -0.000877475, 0.0530474, -0.0085161, -0.0195405, -0.0918904, 0.160021, -0.00229464, 0.471916, -0.54099, 0.337123, -2.08207, -2.16712, -0.128089, 0.471125, -0.541805, 0.335728, -2.0827, -2.17021, -0.120352, 0.0258513, 0.069002, 0.0352367, 0.0355952, 0.019987, 0.00747047
0.11355, 1.69544, -1.22575, -1.53797, -0.900518, -1.19819, 1.22913, -1.30258, 0.0787936, 0.0132372, 0.0134057, -0.0184389, -0.116006, 0.000397707, -0.00140108, 4.06226, 59.9866, 29.5395, 4.75616, 2.36957, 3.82663, -0.0164075, -0.00104213, -0.000771923, 0.00130352, 0.00222258, -0.00540247, -0.000904362, 0.0523397, -0.00933457, -0.0195501, -0.0913826, 0.160034, 0.00377937, 0.471942, -0.540921, 0.337159, -2.08202, -2.16715, -0.128038, 0.471161, -0.541783, 0.335735, -2.08265, -2.17032, -0.120181, 0.0263034, 0.0702379, 0.0358623, 0.0368394, 0.0219577, 0.00817092
0.11455, 1.69552, -1.22573, -1.53797, -0.900533, -1.1983, 1.22913, -1.30258, 0.0799389, 0.0112872, 0.013203, -0.0183292, -0.11512, 0.000799124, 0.000563027, 3.94721, 60.0977, 29.6863, 4.71649, 2.36957, 3.81198, -0.0557752, -0.00109511, -0.000762194, 0.00132242, 0.00225129, -0.00550333, -0.000919755, 0.053261, -0.00963796, -0.0212244, -0.0915782, 0.158449, 0.00207477, 0.471968, -0.54085, 0.337195, -2.08197, -2.16719, -0.127985, 0.471198, -0.541761, 0.335744, -2.08262, -2.17042, -0.119996, 0.0267579, 0.0714811, 0.0364913, 0.0375699, 0.022561, 0.00699524
0.11555, 1.6956, -1.22571, -1.53795, -0.900554, -1.19841, 1.22913, -1.30257, 0.079658, 0.016807, 0.0149271, -0.0203827, -0.110859, 0.000797605, 0.000641973, 3.87183, 60.173, 29.7617, 4.75616, 2.39429, 3.80466, -0.0621838, -0.00114723, -0.000753029, 0.00133811, 0.0022725, -0.0056024, -0.000940632, 0.0523619, -0.0101254, -0.0180894, -0.0890457, 0.161365, 0.00464635, 0.471995, -0.540778, 0.337232, -2.08192, -2.16723, -0.127932, 0.471236, -0.541737, 0.335757, -2.08258, -2.17052, -0.119821, 0.0272147, 0.0727316, 0.0371239, 0.0385985, 0.0242394, 0.0108478
0.11655, 1.69568, -1.22568, -1.53794, -0.900573, -1.19852, 1.22914, -1.30258, 0.0816372, 0.0170609, 0.0152476, -0.0208749, -0.111822, 0.00130682, -0.00100813, 3.72108, 60.2802, 29.8728, 4.75616, 2.40619, 3.7836, -0.0228162, -0.0011997, -0.000742487, 0.00135328, 0.002292, -0.00570369, -0.000969688, 0.0528073, -0.010888, -0.0184013, -0.0897864, 0.163596, 0.00748508, 0.472023, -0.540705, 0.337269, -2.08186, -2.16726, -0.127878, 0.471275, -0.541713, 0.335771, -2.08254, -2.17064, -0.119645, 0.0276737, 0.0739892, 0.0377598, 0.0398255, 0.0251377, 0.0110835
0.11755, 1.69576, -1.22567, -1.53793, -0.900599, -1.19864, 1.22914, -1.30258, 0.0811501, 0.0176293, 0.0125204, -0.0227266, -0.113329, 0.00141014, -0.000892987, 3.6457, 60.5023, 29.9839, 4.82758, 2.43732, 3.76895, -0.0164075, -0.00125365, -0.000732984, 0.00137433, 0.00231601, -0.00579775, -0.000997682, 0.054626, -0.00989273, -0.0197049, -0.0940382, 0.166634, 0.00565931, 0.472051, -0.54063, 0.337307, -2.08181, -2.1673, -0.127822, 0.471314, -0.541688, 0.335779, -2.08249, -2.17076, -0.119471, 0.028135, 0.0752539, 0.0383992, 0.0393133, 0.0247643, 0.010186
0.11855, 1.69584, -1.22564, -1.53791, -0.900623, -1.19874, 1.22914, -1.30257, 0.0823456, 0.0216819, 0.0104041, -0.021758, -0.109331, 0.00147993, 0.00434397, 3.6457, 60.5777, 30.095, 4.79187, 2.46112, 3.7543, -0.0228162, -0.00130917, -0.000725747, 0.00138857, 0.0023348, -0.00590035, -0.001017, 0.054988, -0.00986187, -0.018453, -0.0938384, 0.168385, -3.17464e-05, 0.472079, -0.540554, 0.337346, -2.08175, -2.16734, -0.127766, 0.471351, -0.541665, 0.335795, -2.08246, -2.17087, -0.119291, 0.0285984, 0.0765256, 0.0390419, 0.0398079, 0.0254855, 0.0120105
0.11955, 1.69592, -1.22562, -1.5379, -0.900659, -1.19885, 1.22914, -1.30257, 0.0817435, 0.0212685, 0.0120771, -0.0274855, -0.106155, 0.000984588, 0.00282132, 3.57032, 60.7959, 30.206, 4.90295, 2.48584, 3.7543, -0.00999879, -0.00135966, -0.000712527, 0.00140888, 0.00235908, -0.00599517, -0.00105807, 0.0539083, -0.0108708, -0.0193694, -0.094492, 0.166378, 0.00675003, 0.472108, -0.540477, 0.337386, -2.0817, -2.16738, -0.127709, 0.471394, -0.541634, 0.335806, -2.08239, -2.17099, -0.119115, 0.0290639, 0.0778042, 0.0396878, 0.0412078, 0.0280135, 0.0118873
0.12055, 1.696, -1.22559, -1.53789, -0.900684, -1.19896, 1.22914, -1.30257, 0.0821716, 0.0244628, 0.00836211, -0.0242959, -0.108685, 0.000926138, 0.00387634, 3.60603, 60.8713, 30.3925, 4.82758, 2.52338, 3.74698, -0.0557752, -0.00141607, -0.000704904, 0.00142405, 0.00238062, -0.00609868, -0.00107771, 0.0569794, -0.00888625, -0.0188487, -0.0977572, 0.172442, -0.000412478, 0.472137, -0.540398, 0.337426, -2.08164, -2.16742, -0.127651, 0.471433, -0.541608, 0.335823, -2.08235, -2.17111, -0.11893, 0.0295316, 0.0790895, 0.040337, 0.0398298, 0.0261023, 0.0126388
0.12155, 1.69608, -1.22557, -1.53787, -0.90072, -1.19906, 1.22914, -1.30257, 0.081111, 0.0219932, 0.00762158, -0.0306139, -0.105721, 0.000616284, 0.00352134, 3.57032, 61.0181, 30.5036, 4.86725, 2.54718, 3.74698, -0.0750012, -0.00146681, -0.000691477, 0.00144052, 0.00240088, -0.00619745, -0.00111812, 0.0567021, -0.0093911, -0.0218756, -0.100846, 0.16886, 0.00407143, 0.472167, -0.540319, 0.337466, -2.08158, -2.16746, -0.127592, 0.471477, -0.541576, 0.335839, -2.08229, -2.17124, -0.118753, 0.0300013, 0.0803815, 0.0409894, 0.040681, 0.0281533, 0.0103297
0.12255, 1.69616, -1.22555, -1.53785, -0.90075, -1.19917, 1.22914, -1.30257, 0.0822674, 0.0207201, 0.0109091, -0.0293828, -0.103405, 0.000647359, 0.000108835, 3.57032, 61.2759, 30.579, 4.79187, 2.5719, 3.74057, -0.00999879, -0.00152223, -0.00068081, 0.00145931, 0.00241398, -0.00628818, -0.00116015, 0.0568944, -0.010122, -0.0218153, -0.0970906, 0.166289, 0.00887142, 0.472197, -0.540238, 0.337508, -2.08152, -2.1675, -0.127533, 0.471519, -0.541546, 0.335853, -2.08223, -2.17137, -0.118591, 0.030473, 0.0816802, 0.0416449, 0.0418938, 0.0292841, 0.0109926
0.12355, 1.69624, -1.22551, -1.53784, -0.900789, -1.19927, 1.22914, -1.30257, 0.0836155, 0.0273292, 0.0138478, -0.0307719, -0.106167, 0.000430931, 0.000673855, 3.57032, 61.3513, 30.7654, 4.79187, 2.59021, 3.74057, -0.0228162, -0.00157362, -0.000667273, 0.00147521, 0.00243595, -0.00638957, -0.00120328, 0.0565348, -0.0107171, -0.0176292, -0.0967945, 0.175887, 0.0101483, 0.472228, -0.540155, 0.33755, -2.08146, -2.16755, -0.127472, 0.471565, -0.541512, 0.335871, -2.08216, -2.17151, -0.118407, 0.0309467, 0.0829853, 0.0423035, 0.0431078, 0.030329, 0.0158223
0.12455, 1.69632, -1.22549, -1.53782, -0.900827, -1.19937, 1.22914, -1.30257, 0.086075, 0.0256212, 0.0147218, -0.0328212, -0.104697, 0.000558073, 0.00149361, 3.6457, 61.5695, 30.8765, 4.71649, 2.63965, 3.73324, -0.0484509, -0.00162914, -0.000656783, 0.00149609, 0.00245718, -0.00648116, -0.00123988, 0.0559091, -0.0124156, -0.0191948, -0.0972349, 0.174137, 0.0134389, 0.472259, -0.540072, 0.337592, -2.0814, -2.16759, -0.12741, 0.471608, -0.541479, 0.335884, -2.0821, -2.17163, -0.118233, 0.0314223, 0.0842969, 0.0429652, 0.0451987, 0.0325711, 0.0149817
0.12555, 1.69641, -1.22546, -1.53781, -0.900876, -1.19947, 1.22914, -1.30256, 0.0865413, 0.0259321, 0.0154093, -0.040157, -0.102839, 0.000371688, 0.00157557, 3.6457, 61.7163, 30.9876, 4.75616, 2.66437, 3.73324, -0.0621838, -0.00167981, -0.00064006, 0.00151748, 0.00247894, -0.00657618, -0.00129028, 0.0543461, -0.014091, -0.0202959, -0.0999583, 0.174358, 0.0201284, 0.472291, -0.539987, 0.337635, -2.08134, -2.16763, -0.127348, 0.471657, -0.54144, 0.335898, -2.08202, -2.17178, -0.118055, 0.0318998, 0.0856148, 0.0436298, 0.0472504, 0.0356729, 0.014748
0.12655, 1.69649, -1.22543, -1.53779, -0.900907, -1.19956, 1.22914, -1.30257, 0.0820763, 0.0289494, 0.0149593, -0.0364059, -0.10188, 0.000518788, -0.000829001, 3.72108, 61.756, 31.1384, 4.53003, 2.70099, 3.72592, -0.00999879, -0.00173823, -0.000630859, 0.00153175, 0.00249062, -0.00667626, -0.00132905, 0.0584683, -0.0102273, -0.0183929, -0.0975991, 0.177079, 0.013811, 0.472323, -0.5399, 0.337679, -2.08127, -2.16768, -0.127284, 0.4717, -0.541409, 0.335918, -2.08196, -2.17191, -0.11788, 0.0323792, 0.0869389, 0.0442973, 0.0441007, 0.0324699, 0.0167806
0.12755, 1.69657, -1.2254, -1.53777, -0.900955, -1.19966, 1.22914, -1.30257, 0.082717, 0.0283501, 0.0164275, -0.0384438, -0.101419, 0.000616923, 0.000674178, 3.75678, 61.9028, 31.2137, 4.49432, 2.75043, 3.7186, -0.0420422, -0.00179258, -0.000618129, 0.00155185, 0.00250977, -0.00676869, -0.00137494, 0.0586422, -0.0108604, -0.0190075, -0.0976396, 0.177159, 0.0145233, 0.472355, -0.539813, 0.337724, -2.08121, -2.16772, -0.127219, 0.471747, -0.541372, 0.335934, -2.08188, -2.17205, -0.117706, 0.0328604, 0.0882692, 0.0449678, 0.0451994, 0.0337499, 0.0167978
0.12855, 1.69665, -1.22537, -1.53776, -0.901002, -1.19975, 1.22914, -1.30256, 0.079077, 0.0314956, 0.0135524, -0.0426329, -0.104963, 0.000139862, 0.00146283, 3.83216, 61.9028, 31.3248, 4.45465, 2.77515, 3.72592, -0.0685925, -0.001848, -0.000606827, 0.0015685, 0.00252843, -0.00686709, -0.00141638, 0.0613752, -0.00818337, -0.0190795, -0.103894, 0.184313, 0.0101022, 0.472389, -0.539724, 0.337769, -2.08114, -2.16777, -0.127154, 0.471793, -0.541335, 0.335954, -2.08181, -2.17219, -0.117524, 0.0333434, 0.0896055, 0.045641, 0.0431118, 0.0322836, 0.0170634
0.12955, 1.69674, -1.22535, -1.53774, -0.90105, -1.19985, 1.22914, -1.30256, 0.0773624, 0.0322981, 0.0123226, -0.0449997, -0.103501, 0.000364395, 0.000251767, 3.87183, 62.0853, 31.4002, 4.37927, 2.81726, 3.7186, -0.0484509, -0.00190448, -0.000591674, 0.00159382, 0.00254256, -0.00695374, -0.00147038, 0.0627574, -0.00720066, -0.0197434, -0.105414, 0.185165, 0.0104996, 0.472422, -0.539634, 0.337815, -2.08108, -2.16781, -0.127088, 0.471843, -0.541296, 0.335966, -2.08173, -2.17234, -0.117359, 0.0338281, 0.0909478, 0.0463171, 0.0426445, 0.0323203, 0.0169024
0.13055, 1.69682, -1.22531, -1.53773, -0.901104, -1.19995, 1.22914, -1.30256, 0.0762715, 0.0334647, 0.0118102, -0.0471125, -0.101586, 0.000785379, -0.00100205, 3.90754, 62.1249, 31.5867, 4.34357, 2.83649, 3.70395, -0.0164075, -0.00196048, -0.000577642, 0.00161697, 0.00256885, -0.00705096, -0.00152749, 0.0636894, -0.00671452, -0.0199216, -0.10587, 0.186059, 0.0118183, 0.472456, -0.539542, 0.337862, -2.08101, -2.16786, -0.12702, 0.471892, -0.541255, 0.335981, -2.08163, -2.17249, -0.11717, 0.0343145, 0.092296, 0.0469959, 0.0426763, 0.0327544, 0.0172776
0.13155, 1.69691, -1.22529, -1.53771, -0.901166, -1.20004, 1.22914, -1.30256, 0.0777079, 0.0285341, 0.0135831, -0.050897, -0.101543, 0.000252254, 0.000802699, 3.98292, 62.2717, 31.547, 4.37927, 2.89142, 3.71127, -0.0557752, -0.00201495, -0.000562361, 0.00164098, 0.00258638, -0.00713873, -0.00158601, 0.0633805, -0.00814988, -0.0233219, -0.107707, 0.182036, 0.0146217, 0.472491, -0.539449, 0.337909, -2.08094, -2.16791, -0.126952, 0.471943, -0.541212, 0.335996, -2.08154, -2.17264, -0.116999, 0.0348026, 0.09365, 0.0476774, 0.0444588, 0.0349956, 0.0146043
0.13255, 1.69699, -1.22525, -1.53769, -0.901216, -1.20014, 1.22914, -1.30256, 0.076238, 0.0299644, 0.015021, -0.0500061, -0.0994444, 0.000439389, 0.000273369, 4.02259, 62.1964, 31.6224, 4.26819, 2.89783, 3.70395, -0.0484509, -0.00207358, -0.000550085, 0.00165814, 0.00260054, -0.00723973, -0.00163454, 0.064892, -0.00708961, -0.0222449, -0.105075, 0.182519, 0.01319, 0.472526, -0.539355, 0.337957, -2.08087, -2.16796, -0.126882, 0.471992, -0.541172, 0.336017, -2.08146, -2.1728, -0.116816, 0.0352924, 0.0950097, 0.0483616, 0.0439904, 0.0346521, 0.0161533
0.13355, 1.69707, -1.22522, -1.53767, -0.901283, -1.20023, 1.22914, -1.30256, 0.0780586, 0.0322378, 0.0202656, -0.0568339, -0.0997893, -0.00415934, -0.00099742, 4.06226, 62.1964, 31.6581, 4.34357, 2.94635, 3.69754, -0.0164075, -0.00212845, -0.000533857, 0.0016804, 0.00261947, -0.00733576, -0.00170066, 0.0617686, -0.00909791, -0.0209786, -0.10848, 0.184051, 0.0234803, 0.472561, -0.539259, 0.338006, -2.0808, -2.168, -0.126812, 0.472045, -0.541127, 0.336035, -2.08136, -2.17296, -0.116634, 0.0357837, 0.096375, 0.0490484, 0.0464189, 0.0389946, 0.0185095
0.13455, 1.69716, -1.22519, -1.53766, -0.901339, -1.20032, 1.22914, -1.30255, 0.0784673, 0.0257507, 0.0199742, -0.0553409, -0.0990562, -0.00262118, 0.00103582, 4.02259, 62.2717, 31.7335, 4.26819, 2.97107, 3.68289, -0.0621838, -0.00218647, -0.000517713, 0.00170676, 0.00263498, -0.00742247, -0.00175495, 0.0641561, -0.00889628, -0.0250684, -0.10749, 0.178563, 0.0196871, 0.472597, -0.539162, 0.338055, -2.08073, -2.16805, -0.126741, 0.472099, -0.541082, 0.336049, -2.08127, -2.17311, -0.116463, 0.0362765, 0.0977458, 0.0497377, 0.0466474, 0.0386247, 0.0147989
0.13555, 1.69724, -1.22516, -1.53764, -0.901409, -1.20041, 1.22915, -1.30255, 0.0745932, 0.0289465, 0.0176013, -0.0565921, -0.0974406, -0.00149804, 0.000694556, 4.02259, 62.2717, 31.7731, 4.30786, 2.96466, 3.66824, -0.0621838, -0.00224343, -0.000502241, 0.00173076, 0.0026511, -0.00751417, -0.00181882, 0.0669396, -0.00637639, -0.0243973, -0.108107, 0.182038, 0.0155415, 0.472634, -0.539064, 0.338106, -2.08066, -2.1681, -0.126669, 0.472152, -0.541036, 0.336066, -2.08117, -2.17328, -0.116287, 0.0367709, 0.0991221, 0.0504295, 0.0447597, 0.0370403, 0.0158053
0.13655, 1.69732, -1.22512, -1.53762, -0.901469, -1.20051, 1.22914, -1.30255, 0.0762809, 0.0331476, 0.0200057, -0.0580563, -0.0981207, -0.00121853, -0.00146674, 4.09797, 62.1964, 31.7731, 4.23248, 3.00769, 3.66824, -0.00999879, -0.00230762, -0.000494088, 0.00175043, 0.00266818, -0.00761531, -0.00187378, 0.0664632, -0.00742682, -0.0218297, -0.1072, 0.187872, 0.0203858, 0.472671, -0.538964, 0.338156, -2.08059, -2.16815, -0.126595, 0.472199, -0.540996, 0.336088, -2.08108, -2.17344, -0.116098, 0.0372668, 0.100504, 0.0511238, 0.046387, 0.0385455, 0.0190761
0.13755, 1.6974, -1.22511, -1.53759, -0.901537, -1.2006, 1.22914, -1.30255, 0.0782864, 0.0289296, 0.0191803, -0.0600647, -0.0969784, -0.000705968, 0.00372326, 4.13764, 62.4185, 31.7335, 4.19281, 3.0141, 3.66092, -0.00999879, -0.00236869, -0.000479944, 0.00178165, 0.00267812, -0.00768968, -0.00193643, 0.0668258, -0.00861933, -0.0254358, -0.109071, 0.184225, 0.0179062, 0.472708, -0.538862, 0.338208, -2.08052, -2.16821, -0.126521, 0.472252, -0.54095, 0.336098, -2.08097, -2.17359, -0.115943, 0.0377641, 0.101891, 0.0518204, 0.0479531, 0.0401773, 0.0161186
0.13855, 1.69748, -1.22507, -1.53757, -0.901611, -1.20069, 1.22914, -1.30254, 0.0812241, 0.0345356, 0.0177441, -0.0652877, -0.10033, -0.000594305, 0.00967632, 4.13764, 62.4185, 31.7335, 4.19281, 3.0141, 3.66092, -0.0621838, -0.00242974, -0.000467107, 0.00180514, 0.00269397, -0.00778548, -0.0019927, 0.0658672, -0.0101769, -0.0239987, -0.114723, 0.194222, 0.0163962, 0.472746, -0.53876, 0.33826, -2.08044, -2.16826, -0.126446, 0.472304, -0.540903, 0.336118, -2.08087, -2.17375, -0.115759, 0.0382628, 0.103283, 0.0525195, 0.0500279, 0.0423643, 0.0183356
0.13955, 1.69757, -1.22504, -1.53755, -0.901683, -1.20078, 1.22915, -1.30254, 0.0857697, 0.0348178, 0.0180378, -0.0683908, -0.0991945, 0.000290946, 0.00545608, 4.02259, 62.4542, 31.8088, 4.1571, 3.026, 3.63986, -0.0164075, -0.00249028, -0.000449696, 0.0018321, 0.00270566, -0.00787732, -0.00206755, 0.0641611, -0.0132111, -0.0248124, -0.115844, 0.195353, 0.0272338, 0.472785, -0.538656, 0.338313, -2.08036, -2.16831, -0.12637, 0.472361, -0.540854, 0.336134, -2.08076, -2.17393, -0.115584, 0.0387628, 0.10468, 0.0532208, 0.0534634, 0.0457032, 0.0184
0.14055, 1.69764, -1.22501, -1.53753, -0.901761, -1.20087, 1.22915, -1.30253, 0.083253, 0.0295283, 0.0208804, -0.0685148, -0.0973639, -0.000146862, 0.00980927, 4.13764, 62.4542, 31.7731, 4.1571, 3.0141, 3.64718, -0.0420422, -0.00255494, -0.000440055, 0.00185549, 0.00271546, -0.00796921, -0.00212492, 0.0662151, -0.0120071, -0.0273467, -0.113537, 0.18905, 0.0214668, 0.472824, -0.538551, 0.338366, -2.08029, -2.16836, -0.126293, 0.472411, -0.540809, 0.336154, -2.08066, -2.1741, -0.115409, 0.0392642, 0.106082, 0.0539245, 0.0527463, 0.0454118, 0.0163236
0.14155, 1.69772, -1.22499, -1.5375, -0.901843, -1.20095, 1.22915, -1.30253, 0.0824235, 0.0252032, 0.0251111, -0.0734808, -0.0919828, 0.000392458, 0.0134598, 4.09797, 62.601, 31.7731, 4.23248, 3.0141, 3.63254, -0.0814099, -0.00261472, -0.000423169, 0.00188719, 0.00272739, -0.00804542, -0.00219631, 0.0650998, -0.0136311, -0.0294986, -0.109979, 0.181691, 0.0241526, 0.472864, -0.538444, 0.338421, -2.08021, -2.16842, -0.126215, 0.472469, -0.540756, 0.336168, -2.08054, -2.17427, -0.115248, 0.0397669, 0.107489, 0.0546303, 0.054747, 0.04832, 0.015025
0.14255, 1.6978, -1.22495, -1.53748, -0.901918, -1.20104, 1.22915, -1.30253, 0.0846896, 0.0276542, 0.023373, -0.0744853, -0.0929091, 0.00100241, 0.00778192, 4.06226, 62.6407, 31.8445, 4.08173, 3.026, 3.61148, -0.0228162, -0.00268027, -0.000410958, 0.00191351, 0.00273784, -0.00813545, -0.00226781, 0.0656458, -0.0142334, -0.0293749, -0.112564, 0.186407, 0.0306372, 0.472904, -0.538336, 0.338476, -2.08013, -2.16847, -0.126136, 0.472523, -0.540708, 0.336186, -2.08043, -2.17444, -0.115073, 0.0402709, 0.108901, 0.0553384, 0.0558803, 0.0492005, 0.0157523
0.14355, 1.69788, -1.22491, -1.53745, -0.902011, -1.20113, 1.22915, -1.30252, 0.0813426, 0.0320999, 0.0268963, -0.0808233, -0.0927875, 0.000638925, 0.00663417, 4.09797, 62.5653, 31.8445, 4.1571, 3.0141, 3.61148, -0.0420422, -0.00273918, -0.000394528, 0.0019355, 0.00274806, -0.00823091, -0.00234753, 0.0655179, -0.0136987, -0.0267512, -0.11239, 0.191741, 0.0345415, 0.472944, -0.538226, 0.338531, -2.08005, -2.16853, -0.126055, 0.472581, -0.540652, 0.336211, -2.0803, -2.17463, -0.114893, 0.040776, 0.110318, 0.0560486, 0.0559504, 0.0503195, 0.0190912
0.14455, 1.69795, -1.22488, -1.53742, -0.902103, -1.20121, 1.22915, -1.30251, 0.0781631, 0.0358763, 0.0266131, -0.0845574, -0.0938089, 0.000403941, 0.00643145, 4.17335, 62.601, 31.8445, 4.19281, 3.03241, 3.61148, -0.0814099, -0.00280312, -0.000382013, 0.0019605, 0.00275498, -0.00831992, -0.00241367, 0.067192, -0.011917, -0.0255076, -0.114816, 0.197427, 0.0331903, 0.472985, -0.538115, 0.338588, -2.07997, -2.16858, -0.125974, 0.472636, -0.5406, 0.336232, -2.08019, -2.17481, -0.11472, 0.0412824, 0.111739, 0.0567608, 0.0547931, 0.0498197, 0.0208318
0.14555, 1.69803, -1.22485, -1.53739, -0.902196, -1.2013, 1.22914, -1.30251, 0.0761492, 0.0289661, 0.0244697, -0.0883084, -0.0894664, 0.000524055, 0.00470059, 4.24873, 62.7875, 31.9199, 4.1571, 3.04523, 3.60415, -0.0814099, -0.00286872, -0.00036961, 0.00199258, 0.00276644, -0.00839914, -0.00249039, 0.0687241, -0.0113412, -0.0312523, -0.117182, 0.188407, 0.0356667, 0.473027, -0.538002, 0.338645, -2.07989, -2.16864, -0.125892, 0.472691, -0.540547, 0.336247, -2.08007, -2.17499, -0.114553, 0.0417899, 0.113165, 0.0574751, 0.0545648, 0.0505841, 0.0156567
0.14655, 1.6981, -1.22481, -1.53735, -0.902296, -1.20138, 1.22915, -1.30251, 0.0794107, 0.0315501, 0.0304236, -0.0929599, -0.0913681, 0.000608257, 0.00586366, 4.24873, 62.7875, 31.9556, 4.19281, 3.06354, 3.59683, -0.0164075, -0.00293024, -0.000353356, 0.00201512, 0.00276858, -0.0084925, -0.00258329, 0.0662809, -0.014446, -0.0289287, -0.115775, 0.193685, 0.0428276, 0.473069, -0.537889, 0.338703, -2.07981, -2.1687, -0.125809, 0.472751, -0.54049, 0.336273, -2.07993, -2.17519, -0.114382, 0.0422985, 0.114595, 0.0581914, 0.0581714, 0.0542097, 0.0189442
0.14755, 1.69817, -1.22477, -1.53731, -0.902401, -1.20146, 1.22915, -1.3025, 0.0726811, 0.0324091, 0.0323376, -0.0955969, -0.0880313, 0.00039622, 0.00549314, 4.36378, 62.8232, 31.9556, 4.19281, 3.08185, 3.59683, -0.0420422, -0.00299514, -0.00034146, 0.00203775, 0.0027689, -0.00858356, -0.00265857, 0.0688334, -0.0113577, -0.0283011, -0.113442, 0.192546, 0.0397424, 0.473111, -0.537773, 0.338761, -2.07972, -2.16875, -0.125725, 0.472807, -0.540435, 0.336299, -2.07981, -2.17538, -0.114213, 0.0428082, 0.11603, 0.0589097, 0.0557236, 0.0528917, 0.0199901
0.14855, 1.69824, -1.22474, -1.53728, -0.902511, -1.20154, 1.22915, -1.30249, 0.0706583, 0.0281827, 0.0294369, -0.0993145, -0.0858406, 0.000257183, 0.00583347, 4.36378, 62.9343, 32.1421, 4.19281, 3.10657, 3.59683, -0.0878186, -0.00305858, -0.000326455, 0.00206801, 0.00278071, -0.00866835, -0.00274027, 0.0706953, -0.0102913, -0.0327543, -0.117441, 0.187892, 0.0389622, 0.473154, -0.537657, 0.338821, -2.07964, -2.16881, -0.12564, 0.472867, -0.540375, 0.336318, -2.07968, -2.17557, -0.114037, 0.0433189, 0.117469, 0.0596298, 0.0550711, 0.0531243, 0.0160616
0.14955, 1.69831, -1.22469, -1.53724, -0.902614, -1.20162, 1.22915, -1.30249, 0.0663005, 0.0310063, 0.0309699, -0.100666, -0.0890665, 0.000166233, 0.00834826, 4.47486, 62.9343, 32.1818, 4.08173, 3.13678, 3.59683, -0.0685925, -0.00312671, -0.000317209, 0.00208786, 0.00277645, -0.00876108, -0.00281576, 0.0737875, -0.00742471, -0.0310298, -0.117948, 0.194145, 0.0317765, 0.473198, -0.537538, 0.338881, -2.07955, -2.16887, -0.125554, 0.472922, -0.540321, 0.336348, -2.07956, -2.17577, -0.11387, 0.0438306, 0.118913, 0.0603519, 0.0529111, 0.0511239, 0.0181049
0.15055, 1.69838, -1.22465, -1.5372, -0.902732, -1.20169, 1.22915, -1.30248, 0.0657779, 0.0334681, 0.0344263, -0.104296, -0.0856229, 0.000649439, 0.010253, 4.47486, 63.0453, 32.2532, 4.08173, 3.14319, 3.58218, -0.0484509, -0.00318815, -0.000300632, 0.00211249, 0.00277171, -0.00884332, -0.00291196, 0.0728658, -0.00841012, -0.0293106, -0.114865, 0.195068, 0.0341562, 0.473242, -0.537419, 0.338941, -2.07946, -2.16893, -0.125467, 0.472984, -0.540258, 0.336374, -2.07941, -2.17598, -0.113714, 0.0443433, 0.12036, 0.0610757, 0.0544419, 0.0532629, 0.0206375
0.15155, 1.69843, -1.22461, -1.53716, -0.902852, -1.20176, 1.22915, -1.30247, 0.0667128, 0.0347165, 0.0360945, -0.10829, -0.083899, 0.000938648, 0.0133722, 4.55024, 63.1921, 32.3682, 4.00635, 3.16791, 3.56845, -0.0750012, -0.003256, -0.000291484, 0.00213786, 0.00277083, -0.00892644, -0.00299404, 0.0720008, -0.009776, -0.0290784, -0.114802, 0.196301, 0.0356704, 0.473287, -0.537298, 0.339003, -2.07938, -2.16899, -0.125378, 0.473039, -0.540199, 0.3364, -2.07928, -2.17617, -0.113551, 0.044857, 0.121812, 0.0618013, 0.0562975, 0.0555939, 0.0216821
0.15255, 1.69849, -1.22458, -1.5371, -0.902972, -1.20183, 1.22915, -1.30247, 0.0620637, 0.0356762, 0.0441944, -0.112201, -0.0817104, 0.000352295, 0.00950204, 4.58991, 63.3389, 32.3285, 3.97064, 3.16791, 3.57577, -0.0621838, -0.00331998, -0.0002781, 0.00215983, 0.00275582, -0.00900291, -0.00309265, 0.0721545, -0.00901185, -0.0265188, -0.108835, 0.195813, 0.0418154, 0.473332, -0.537175, 0.339065, -2.07929, -2.16905, -0.125289, 0.473099, -0.540136, 0.33643, -2.07913, -2.17639, -0.113411, 0.0453715, 0.123267, 0.0625286, 0.0561584, 0.0564733, 0.0249398
0.15355, 1.69855, -1.22454, -1.53706, -0.903099, -1.2019, 1.22915, -1.30246, 0.0584628, 0.0377859, 0.0416972, -0.116881, -0.076745, 0.000233211, 0.0104951, 4.62562, 63.5611, 32.515, 3.93494, 3.20453, 3.57577, -0.0228162, -0.00338883, -0.000268869, 0.00218843, 0.00275294, -0.00907972, -0.00318215, 0.0732198, -0.00752882, -0.0271668, -0.110859, 0.195225, 0.0406487, 0.473377, -0.537051, 0.339128, -2.0792, -2.16911, -0.125199, 0.473156, -0.540076, 0.336454, -2.07899, -2.17659, -0.113256, 0.0458869, 0.124727, 0.0632577, 0.0552126, 0.0569132, 0.0249147
0.15455, 1.6986, -1.22449, -1.53701, -0.903224, -1.20196, 1.22915, -1.30244, 0.0589805, 0.0393579, 0.0408336, -0.119657, -0.0721242, 0.000425502, 0.00992869, 4.66529, 63.6682, 32.6658, 3.81988, 3.22284, 3.56845, -0.0750012, -0.00345759, -0.00026042, 0.00220812, 0.00273754, -0.00916213, -0.00326186, 0.0728277, -0.0082415, -0.0274724, -0.111112, 0.194395, 0.0441179, 0.473423, -0.536926, 0.339191, -2.07911, -2.16918, -0.125108, 0.473213, -0.540015, 0.336487, -2.07886, -2.17679, -0.113106, 0.0464031, 0.12619, 0.0639883, 0.0564162, 0.058842, 0.0253819
0.15555, 1.69865, -1.22444, -1.53695, -0.903365, -1.20202, 1.22915, -1.30243, 0.0555339, 0.0422997, 0.0451818, -0.125636, -0.0684803, 0.000825273, 0.0124184, 4.74067, 63.819, 32.7372, 3.85956, 3.23566, 3.5538, -0.0814099, -0.00352362, -0.000250093, 0.00222825, 0.00271895, -0.00924177, -0.00335971, 0.0722498, -0.00825741, -0.025345, -0.107862, 0.195666, 0.0455567, 0.47347, -0.536799, 0.339256, -2.07902, -2.16924, -0.125016, 0.473271, -0.53995, 0.336521, -2.07872, -2.17701, -0.112964, 0.0469202, 0.127658, 0.0647206, 0.0570134, 0.0605561, 0.0283048
0.15655, 1.6987, -1.2244, -1.53689, -0.903504, -1.20208, 1.22915, -1.30243, 0.0514717, 0.0463371, 0.049269, -0.130008, -0.0658578, 0.000820752, 0.0122233, 4.74067, 64.0372, 32.7768, 3.78418, 3.24756, 3.54648, -0.0356336, -0.00358867, -0.000238811, 0.00224845, 0.00269613, -0.00931344, -0.0034672, 0.0725388, -0.00731125, -0.0224481, -0.104736, 0.198513, 0.0471666, 0.473517, -0.53667, 0.339321, -2.07892, -2.1693, -0.124922, 0.473332, -0.539882, 0.336556, -2.07856, -2.17724, -0.112834, 0.047438, 0.129128, 0.0654544, 0.0567156, 0.0612576, 0.0318874
0.15755, 1.69874, -1.22435, -1.53684, -0.903654, -1.20213, 1.22915, -1.30242, 0.0506246, 0.0469427, 0.0511098, -0.136069, -0.0642545, 0.000275378, 0.0133575, 4.77637, 64.2236, 32.999, 3.81988, 3.27228, 3.5538, -0.0164075, -0.00365603, -0.000229801, 0.00227134, 0.00268261, -0.00939109, -0.00357103, 0.0718382, -0.00800569, -0.0228094, -0.106083, 0.198925, 0.0507586, 0.473565, -0.53654, 0.339387, -2.07883, -2.16937, -0.124828, 0.47339, -0.539815, 0.336589, -2.0784, -2.17746, -0.112687, 0.0479565, 0.130603, 0.0661897, 0.0578891, 0.0635099, 0.0323521
0.15855, 1.69879, -1.2243, -1.53677, -0.903801, -1.20218, 1.22915, -1.30241, 0.0443474, 0.0454361, 0.0538399, -0.137473, -0.0588667, 0.000183193, 0.0110892, 4.77637, 64.3704, 33.0387, 3.74451, 3.3089, 3.5538, -0.0420422, -0.00372221, -0.000219852, 0.00228655, 0.0026514, -0.00946768, -0.00367315, 0.0742572, -0.0053195, -0.0231485, -0.101696, 0.193675, 0.050047, 0.473613, -0.536409, 0.339453, -2.07873, -2.16943, -0.124733, 0.473451, -0.539746, 0.33663, -2.07825, -2.17769, -0.112559, 0.0484757, 0.132081, 0.0669265, 0.0558123, 0.0625296, 0.0324723
0.15955, 1.69883, -1.22424, -1.53671, -0.903963, -1.20222, 1.22915, -1.3024, 0.0437465, 0.0473873, 0.0564208, -0.146333, -0.0530819, 0.000664369, 0.00784416, 4.74067, 64.5172, 33.1855, 3.81988, 3.30249, 3.53915, -0.0292249, -0.00378475, -0.00020769, 0.00230443, 0.00262348, -0.00953836, -0.00379202, 0.0716134, -0.00753078, -0.0227757, -0.100834, 0.192724, 0.0624484, 0.473662, -0.536276, 0.33952, -2.07864, -2.1695, -0.124636, 0.473513, -0.539672, 0.33667, -2.07808, -2.17794, -0.112435, 0.0489955, 0.133562, 0.0676647, 0.0584536, 0.0666642, 0.0339134
0.16055, 1.69886, -1.22419, -1.53664, -0.904124, -1.20226, 1.22915, -1.30239, 0.0421939, 0.048456, 0.0582049, -0.149239, -0.0506444, -0.00408832, 0.0116043, 4.74067, 64.664, 33.3362, 3.78418, 3.34552, 3.53274, -0.0557752, -0.00385239, -0.000200077, 0.00232142, 0.00259261, -0.00961115, -0.00389832, 0.0715454, -0.0064223, -0.0227923, -0.103865, 0.190538, 0.0601699, 0.473711, -0.536142, 0.339588, -2.07854, -2.16956, -0.124539, 0.473572, -0.539601, 0.33671, -2.07792, -2.17817, -0.112309, 0.049516, 0.135047, 0.0684043, 0.0578676, 0.0681681, 0.0346853
0.16155, 1.69889, -1.22413, -1.53656, -0.904293, -1.2023, 1.22915, -1.30237, 0.0361114, 0.0520885, 0.0649826, -0.153697, -0.042945, -0.00336044, 0.00959797, 4.81605, 64.8108, 33.3719, 3.78418, 3.35834, 3.53915, -0.0814099, -0.00391824, -0.000194102, 0.00233359, 0.00255406, -0.00967982, -0.00401085, 0.0712682, -0.00553351, -0.019042, -0.09519, 0.188955, 0.0646683, 0.473761, -0.536006, 0.339657, -2.07844, -2.16963, -0.124441, 0.47363, -0.539529, 0.336757, -2.07776, -2.17841, -0.112195, 0.0500371, 0.136535, 0.0691452, 0.0576432, 0.0693186, 0.0392034
0.16255, 1.69892, -1.22407, -1.5365, -0.90447, -1.20233, 1.22915, -1.30237, 0.035297, 0.0553968, 0.0638419, -0.160308, -0.0425384, -0.00230108, 0.00515011, 4.74067, 64.9576, 33.5584, 3.85956, 3.38855, 3.53274, -0.0292249, -0.00398126, -0.000181892, 0.00234977, 0.00252088, -0.00975253, -0.00414026, 0.0711714, -0.00594628, -0.0188133, -0.0983769, 0.19408, 0.0724714, 0.473811, -0.535869, 0.339727, -2.07834, -2.1697, -0.124341, 0.473695, -0.539451, 0.336801, -2.07757, -2.17867, -0.112072, 0.0505588, 0.138026, 0.0698875, 0.0585861, 0.0708891, 0.0401742
0.16355, 1.69895, -1.22401, -1.53642, -0.904644, -1.20236, 1.22915, -1.30236, 0.0335191, 0.0576498, 0.0639291, -0.162235, -0.0368208, -0.0014864, 0.00841362, 4.701, 65.1083, 33.7052, 3.81988, 3.40137, 3.52542, -0.0228162, -0.00404806, -0.000173962, 0.00236386, 0.00247929, -0.0098208, -0.00425975, 0.0716644, -0.0055567, -0.0181091, -0.0959454, 0.193139, 0.069898, 0.473862, -0.53573, 0.339797, -2.07824, -2.16977, -0.124241, 0.473756, -0.539375, 0.336846, -2.0774, -2.17892, -0.111961, 0.0510809, 0.13952, 0.0706309, 0.0587712, 0.0717716, 0.0415518
0.16455, 1.69897, -1.22395, -1.53635, -0.904824, -1.20239, 1.22915, -1.30234, 0.0313748, 0.0595588, 0.0672828, -0.16686, -0.0374992, -0.00166726, 0.0121047, 4.701, 65.2551, 33.8559, 3.78418, 3.41968, 3.53915, -0.0484509, -0.0041162, -0.000169006, 0.00238192, 0.00244643, -0.00988246, -0.00437605, 0.0720388, -0.0052412, -0.0168756, -0.095721, 0.196647, 0.0683112, 0.473913, -0.53559, 0.339868, -2.07814, -2.16984, -0.12414, 0.473814, -0.5393, 0.336889, -2.07722, -2.17916, -0.111846, 0.0516036, 0.141018, 0.0713756, 0.0590473, 0.0726972, 0.0434693
0.16555, 1.69899, -1.22389, -1.53626, -0.905004, -1.20241, 1.22915, -1.30233, 0.029643, 0.0577811, 0.0723511, -0.173432, -0.0272665, -0.000728664, 0.0102707, 4.701, 65.4019, 33.8917, 3.63342, 3.40137, 3.52542, -0.0814099, -0.00418153, -0.000160374, 0.00239378, 0.00239097, -0.00993987, -0.00450098, 0.0695933, -0.00738591, -0.0174135, -0.089296, 0.188164, 0.0789408, 0.473965, -0.535448, 0.33994, -2.07804, -2.16991, -0.124037, 0.473877, -0.53922, 0.336939, -2.07705, -2.17942, -0.11176, 0.0521267, 0.142518, 0.0721215, 0.0615962, 0.0767918, 0.0439894
0.16655, 1.69901, -1.22383, -1.53619, -0.905203, -1.20243, 1.22915, -1.30232, 0.027454, 0.0573277, 0.0726148, -0.179577, -0.0264473, -0.000580112, 0.0101146, 4.74067, 65.513, 34.0781, 3.59772, 3.43799, 3.52542, -0.0228162, -0.0042472, -0.000152974, 0.00241182, 0.00235353, -0.0100009, -0.0046387, 0.0701479, -0.00711827, -0.0188489, -0.0917314, 0.188588, 0.0815688, 0.474018, -0.535305, 0.340012, -2.07793, -2.16998, -0.123934, 0.473939, -0.539139, 0.336983, -2.07685, -2.17968, -0.11165, 0.0526502, 0.144021, 0.0728685, 0.0618213, 0.0779531, 0.043244
0.16755, 1.69902, -1.22377, -1.5361, -0.905401, -1.20245, 1.22915, -1.30231, 0.0220326, 0.0584935, 0.0785582, -0.187237, -0.0260978, -0.000186226, 0.0138192, 4.81605, 65.5487, 34.1535, 3.48663, 3.48102, 3.5181, -0.0621838, -0.00431399, -0.000147169, 0.00242352, 0.00230182, -0.0100626, -0.00476654, 0.0704716, -0.00632542, -0.0173393, -0.0892739, 0.190812, 0.0809926, 0.474071, -0.53516, 0.340086, -2.07783, -2.17005, -0.123829, 0.474, -0.539058, 0.337035, -2.07666, -2.17995, -0.111554, 0.0531742, 0.145527, 0.0736165, 0.0616315, 0.0788737, 0.0454613
0.16855, 1.69904, -1.22371, -1.53601, -0.905619, -1.20246, 1.22915, -1.3023, 0.0222598, 0.0572703, 0.0806219, -0.195428, -0.0200152, -0.000177214, 0.0110219, 4.85175, 65.6598, 34.1892, 3.48663, 3.49933, 3.5181, -0.0814099, -0.00437437, -0.000135599, 0.00243932, 0.00225476, -0.0101186, -0.00491866, 0.0679806, -0.00875309, -0.0190165, -0.0892262, 0.186246, 0.0930894, 0.474124, -0.535014, 0.34016, -2.07772, -2.17012, -0.123723, 0.474067, -0.538968, 0.337084, -2.07645, -2.18023, -0.11146, 0.0536985, 0.147036, 0.0743657, 0.0644156, 0.0832083, 0.0448563
0.16955, 1.69905, -1.22365, -1.53592, -0.90584, -1.20247, 1.22915, -1.30229, 0.019045, 0.0576397, 0.0827263, -0.202722, -0.0163911, 0.000113327, 0.00745856, 4.89143, 65.7312, 34.34, 3.41125, 3.54236, 3.51077, -0.0621838, -0.00443639, -0.000124584, 0.00245772, 0.00221026, -0.0101735, -0.00507214, 0.0676506, -0.00880415, -0.0194179, -0.0889709, 0.185218, 0.100923, 0.474178, -0.534866, 0.340234, -2.07762, -2.17019, -0.123617, 0.474134, -0.538879, 0.33713, -2.07623, -2.18051, -0.111363, 0.0542231, 0.148547, 0.0751158, 0.0649656, 0.0851088, 0.0452603
0.17055, 1.69906, -1.22358, -1.53584, -0.906059, -1.20248, 1.22915, -1.30228, 0.011888, 0.062648, 0.0834063, -0.210139, -0.0133741, -0.00500349, 0.0139229, 5.00251, 65.7312, 34.5264, 3.30017, 3.57898, 3.5181, -0.0356336, -0.00450222, -0.000118719, 0.00247103, 0.0021619, -0.0102334, -0.00522006, 0.0684701, -0.00527167, -0.0179012, -0.0939886, 0.186628, 0.0939243, 0.474232, -0.534717, 0.34031, -2.07751, -2.17026, -0.123509, 0.474196, -0.538792, 0.337183, -2.07602, -2.1808, -0.111263, 0.054748, 0.150061, 0.0758669, 0.0620623, 0.0854201, 0.0475041
0.17155, 1.69906, -1.22351, -1.53573, -0.906294, -1.20249, 1.22915, -1.30226, 0.00750441, 0.0582364, 0.0876444, -0.216484, -0.0110902, -0.00375621, 0.0171416, 5.07789, 65.8066, 34.5621, 3.30017, 3.6156, 3.5181, -0.0878186, -0.00456151, -0.000106522, 0.00248511, 0.00210454, -0.0102846, -0.00537908, 0.0693206, -0.00494766, -0.0200744, -0.0913951, 0.182158, 0.0936669, 0.474287, -0.534566, 0.340386, -2.0774, -2.17034, -0.123401, 0.474266, -0.538697, 0.337236, -2.0758, -2.18109, -0.111183, 0.0552732, 0.151577, 0.0766189, 0.0622147, 0.0864115, 0.045992
0.17255, 1.69906, -1.22344, -1.53563, -0.906527, -1.20249, 1.22914, -1.30225, 0.00552906, 0.0623465, 0.0915335, -0.222277, -0.0093971, -0.00309082, 0.0178373, 5.22865, 65.6955, 34.5621, 3.2605, 3.65314, 3.52542, -0.0951428, -0.00462346, -9.93794e-05, 0.00249124, 0.00204466, -0.0103449, -0.00553781, 0.0685795, -0.00544023, -0.0174668, -0.0892909, 0.18643, 0.0972714, 0.474343, -0.534414, 0.340463, -2.07729, -2.17041, -0.123291, 0.474331, -0.538605, 0.337297, -2.07558, -2.18139, -0.111095, 0.0557986, 0.153096, 0.0773717, 0.0633116, 0.0882888, 0.0494187
0.17355, 1.69906, -1.22336, -1.53553, -0.906776, -1.20249, 1.22914, -1.30224, 0.0051518, 0.0679639, 0.0944817, -0.233094, -0.00784373, -0.00256837, 0.0165238, 5.3437, 65.5844, 34.6732, 3.2605, 3.68335, 3.53274, -0.0557752, -0.00468275, -8.93398e-05, 0.00250013, 0.0019921, -0.0104086, -0.00571137, 0.0656977, -0.00770723, -0.0150962, -0.0906954, 0.192835, 0.108335, 0.474399, -0.53426, 0.340541, -2.07718, -2.17049, -0.12318, 0.474399, -0.538508, 0.337357, -2.07534, -2.18171, -0.110996, 0.0563242, 0.154618, 0.0781255, 0.0660836, 0.0924009, 0.0528801
0.17455, 1.69906, -1.2233, -1.53542, -0.907026, -1.20249, 1.22914, -1.30223, 0.0026903, 0.0692263, 0.098808, -0.237451, -0.00581153, -0.00212702, 0.0181785, 5.41908, 65.5844, 34.7129, 3.11371, 3.68976, 3.53915, -0.0814099, -0.00474211, -7.69122e-05, 0.00251523, 0.00193277, -0.0104566, -0.00588585, 0.065693, -0.00773362, -0.0138035, -0.0877304, 0.193708, 0.109625, 0.474456, -0.534104, 0.340619, -2.07707, -2.17056, -0.123068, 0.47447, -0.538408, 0.337411, -2.0751, -2.18202, -0.11092, 0.05685, 0.156141, 0.07888, 0.0666924, 0.0937343, 0.0549125
0.17555, 1.69906, -1.22323, -1.5353, -0.907284, -1.20249, 1.22914, -1.30221, -0.000968686, 0.0676412, 0.106963, -0.242775, -0.00413311, -0.00104245, 0.0138309, 5.56983, 65.5844, 34.6732, 3.03833, 3.68976, 3.52542, -0.0878186, -0.00480009, -6.3694e-05, 0.00252654, 0.00186275, -0.0105047, -0.00606428, 0.0655411, -0.00810499, -0.0128336, -0.0815604, 0.192162, 0.11836, 0.474513, -0.533947, 0.340699, -2.07696, -2.17064, -0.122956, 0.474543, -0.538307, 0.33747, -2.07486, -2.18234, -0.110855, 0.0573759, 0.157667, 0.0796352, 0.0676269, 0.0952803, 0.0566377
0.17655, 1.69906, -1.22317, -1.53519, -0.907549, -1.20249, 1.22914, -1.3022, -0.00183584, 0.0669905, 0.110092, -0.247372, -0.00318684, -0.000523499, 0.0192495, 5.64521, 65.5487, 34.7486, 2.88757, 3.69617, 3.5181, -0.0750012, -0.00485917, -5.16355e-05, 0.00254212, 0.00180742, -0.0105553, -0.00624701, 0.0654132, -0.00879819, -0.0131933, -0.0805673, 0.19222, 0.116776, 0.47457, -0.533789, 0.340779, -2.07684, -2.17071, -0.122842, 0.474614, -0.538204, 0.337525, -2.0746, -2.18266, -0.11077, 0.0579019, 0.159194, 0.0803912, 0.0688294, 0.0970216, 0.0570357
0.17755, 1.69906, -1.2231, -1.53506, -0.907821, -1.20249, 1.22914, -1.30218, 0.00154783, 0.0666756, 0.117745, -0.257197, -0.00247356, -0.00511897, 0.0187532, 5.68488, 65.513, 34.6018, 2.85187, 3.70166, 3.5181, -0.0621838, -0.00491309, -3.3374e-05, 0.00255383, 0.00173906, -0.0106065, -0.00644755, 0.0603751, -0.0128422, -0.0131303, -0.0832727, 0.190653, 0.131945, 0.474629, -0.533629, 0.340859, -2.07673, -2.17079, -0.122727, 0.474693, -0.538094, 0.337585, -2.07434, -2.18301, -0.1107, 0.0584279, 0.160724, 0.0811479, 0.0731926, 0.103706, 0.0584896
0.17855, 1.69905, -1.22304, -1.53494, -0.908096, -1.20249, 1.22914, -1.30217, -0.000971661, 0.06701, 0.117788, -0.264543, -0.00199557, -0.00440258, 0.0195173, 5.79597, 65.4376, 34.6732, 2.70111, 3.70807, 3.53274, -0.0814099, -0.00497188, -2.03038e-05, 0.00256972, 0.00167693, -0.0106534, -0.00663644, 0.0608344, -0.0126475, -0.0142883, -0.086022, 0.192569, 0.134138, 0.474687, -0.533468, 0.340941, -2.07661, -2.17087, -0.122611, 0.474766, -0.537988, 0.337642, -2.07407, -2.18334, -0.110626, 0.0589541, 0.162256, 0.0819052, 0.0734998, 0.104951, 0.0580404
0.17955, 1.69904, -1.22298, -1.53481, -0.908386, -1.20249, 1.22914, -1.30216, -0.00372807, 0.0675854, 0.122457, -0.268831, -0.00117489, -0.0024568, 0.012676, 5.94672, 65.4733, 34.6732, 2.59003, 3.70166, 3.51077, -0.0292249, -0.00502915, -5.31506e-06, 0.00259014, 0.00161612, -0.010695, -0.00684447, 0.0613744, -0.0126985, -0.0131155, -0.0820332, 0.194462, 0.14335, 0.474746, -0.533304, 0.341023, -2.07649, -2.17095, -0.122494, 0.474842, -0.537878, 0.337695, -2.07379, -2.18369, -0.110556, 0.0594802, 0.16379, 0.0826631, 0.0741515, 0.105777, 0.0598731
0.18055, 1.69903, -1.22291, -1.53468, -0.908686, -1.20249, 1.22914, -1.30214, -0.004842, 0.0648029, 0.129936, -0.279881, -0.00131938, -0.00583266, 0.0149418, 6.06178, 65.4019, 34.5264, 2.59003, 3.71448, 3.48971, -0.0420422, -0.00508202, 1.37201e-05, 0.0026025, 0.00154515, -0.0107475, -0.00705579, 0.0585486, -0.0146406, -0.0143934, -0.0843238, 0.19173, 0.152074, 0.474806, -0.53314, 0.341106, -2.07637, -2.17103, -0.122376, 0.474923, -0.537763, 0.337757, -2.07351, -2.18405, -0.110485, 0.0600063, 0.165325, 0.0834216, 0.0764509, 0.110389, 0.0597364
0.18155, 1.69902, -1.22285, -1.53454, -0.908994, -1.2025, 1.22913, -1.30212, -0.00557548, 0.0635897, 0.130906, -0.286728, -0.00184117, -0.00419951, 0.0127193, 6.17286, 65.2908, 34.5621, 2.55035, 3.7392, 3.48239, -0.0814099, -0.00513543, 3.1655e-05, 0.00261897, 0.00148772, -0.0108012, -0.00726865, 0.0586055, -0.0155775, -0.0160651, -0.086095, 0.193339, 0.158728, 0.474866, -0.532974, 0.34119, -2.07626, -2.17111, -0.122257, 0.475003, -0.537646, 0.337816, -2.07322, -2.18441, -0.110398, 0.0605324, 0.166863, 0.0841806, 0.0778495, 0.112168, 0.0588042
0.18255, 1.699, -1.22279, -1.53441, -0.909306, -1.20249, 1.22914, -1.3021, -0.0110757, 0.0630874, 0.133491, -0.296137, -0.00146544, -0.00242262, 0.013662, 6.36329, 65.2908, 34.5264, 2.55035, 3.74469, 3.46042, -0.0685925, -0.00519258, 4.69888e-05, 0.00263943, 0.00142465, -0.010846, -0.00748223, 0.0594588, -0.0148088, -0.0168496, -0.0863404, 0.194975, 0.16081, 0.474927, -0.532806, 0.341275, -2.07613, -2.17119, -0.122137, 0.475081, -0.537531, 0.337871, -2.07292, -2.18477, -0.110325, 0.0610583, 0.168402, 0.0849401, 0.0776149, 0.112948, 0.0586855
0.18355, 1.69898, -1.22272, -1.53427, -0.90962, -1.20249, 1.22914, -1.30209, -0.0119548, 0.0614415, 0.138528, -0.300251, -0.00100286, -0.00167137, 0.0137113, 6.55372, 65.2155, 34.4867, 2.43927, 3.74469, 3.45309, -0.0356336, -0.00524961, 6.24312e-05, 0.00265588, 0.00135611, -0.0108948, -0.00769966, 0.059299, -0.0157145, -0.0170203, -0.0835742, 0.194409, 0.164935, 0.474989, -0.532637, 0.34136, -2.07601, -2.17127, -0.122016, 0.475159, -0.537415, 0.337931, -2.07263, -2.18513, -0.110253, 0.0615842, 0.169942, 0.0857, 0.079035, 0.114716, 0.0592707
0.18455, 1.69897, -1.22265, -1.53412, -0.909946, -1.20249, 1.22914, -1.30206, -0.0136932, 0.0643792, 0.140912, -0.307946, -0.000925364, -0.00135992, 0.0209737, 6.6648, 64.9576, 34.3757, 2.40356, 3.7511, 3.45309, -0.0685925, -0.00529718, 8.59528e-05, 0.00266171, 0.0012817, -0.0109592, -0.00793274, 0.058604, -0.0162529, -0.0159433, -0.0848486, 0.198991, 0.162632, 0.47505, -0.532466, 0.341446, -2.07589, -2.17135, -0.121894, 0.475247, -0.53729, 0.338004, -2.07233, -2.18553, -0.110173, 0.0621099, 0.171484, 0.0864603, 0.0801178, 0.116808, 0.0611831
0.18555, 1.69895, -1.22258, -1.53397, -0.910278, -1.20249, 1.22914, -1.30204, -0.015298, 0.0647938, 0.144748, -0.319789, -0.00086884, -0.000853507, 0.0208512, 6.77985, 64.8862, 34.3043, 2.36389, 3.75751, 3.44668, -0.0814099, -0.00534827, 0.000108281, 0.00267928, 0.0012115, -0.0110079, -0.00816845, 0.056575, -0.0181232, -0.0163846, -0.0869072, 0.201482, 0.172227, 0.475113, -0.532294, 0.341533, -2.07577, -2.17143, -0.121771, 0.475333, -0.537164, 0.338065, -2.07202, -2.18592, -0.110103, 0.0626355, 0.173028, 0.087221, 0.082411, 0.120511, 0.061754
0.18655, 1.69893, -1.22252, -1.53381, -0.91062, -1.20249, 1.22913, -1.30203, -0.0180859, 0.0622393, 0.143931, -0.324373, -0.00103097, -0.000435928, 0.0183596, 6.96632, 64.8108, 34.3757, 2.29248, 3.76941, 3.43936, -0.0292249, -0.00540185, 0.000126774, 0.0026986, 0.00114567, -0.0110551, -0.00841003, 0.0585348, -0.0169371, -0.0191731, -0.0898742, 0.200696, 0.174428, 0.475176, -0.53212, 0.34162, -2.07564, -2.17152, -0.121646, 0.475416, -0.53704, 0.338125, -2.07169, -2.18631, -0.11003, 0.0631608, 0.174573, 0.087982, 0.0817219, 0.120488, 0.059503
0.18755, 1.69891, -1.22247, -1.53364, -0.910964, -1.2025, 1.22914, -1.30201, -0.0214593, 0.0595261, 0.154498, -0.326207, -0.00113632, -0.000394261, 0.0200042, 7.08137, 64.7751, 34.2646, 2.25281, 3.78131, 3.43936, -0.0685925, -0.00545035, 0.000152921, 0.00271544, 0.00106194, -0.0110983, -0.00865888, 0.0591494, -0.0167174, -0.0176122, -0.0817691, 0.198569, 0.174972, 0.475239, -0.531945, 0.341709, -2.07552, -2.1716, -0.121521, 0.475507, -0.536908, 0.338188, -2.07136, -2.18671, -0.10998, 0.0636859, 0.176119, 0.0887433, 0.0821224, 0.121181, 0.0617202
0.18855, 1.69888, -1.22241, -1.53347, -0.911307, -1.20249, 1.22913, -1.30198, -0.0260868, 0.056997, 0.15851, -0.329653, -0.000322882, -0.000340572, 0.0252629, 7.26783, 64.6283, 34.3043, 2.17743, 3.76941, 3.43936, -0.0951428, -0.00550463, 0.000170629, 0.00272785, 0.000978843, -0.0111456, -0.00889186, 0.0610239, -0.0151235, -0.0184453, -0.0795157, 0.196382, 0.169246, 0.475303, -0.531768, 0.341798, -2.07539, -2.17169, -0.121395, 0.475591, -0.536783, 0.338256, -2.07106, -2.1871, -0.109922, 0.0642108, 0.177667, 0.0895048, 0.081104, 0.120929, 0.0614287
0.18955, 1.69886, -1.22234, -1.5333, -0.911666, -1.20249, 1.22913, -1.30196, -0.0243868, 0.0581133, 0.16134, -0.338855, -0.000457224, -0.000285347, 0.0277287, 7.38288, 64.4815, 34.3757, 2.17743, 3.77582, 3.43936, -0.0814099, -0.00555085, 0.000197024, 0.00274059, 0.000895741, -0.0111944, -0.00915581, 0.0584394, -0.0179516, -0.0186716, -0.082109, 0.199449, 0.176643, 0.475368, -0.53159, 0.341888, -2.07526, -2.17177, -0.121268, 0.475683, -0.536647, 0.338326, -2.07071, -2.18753, -0.109865, 0.0647353, 0.179216, 0.0902666, 0.0843371, 0.1252, 0.0622637
