alisrour97/Franka_experiments/Real_Robot_scripts/servo-franka/Data_5_ki/log_dyn_PI_k_ki_0.csv
Time,q1,q2,q3,q4,q5,q6,q7,dq1,dq2,dq3,dq4,dq5,dq6,dq7,t1,t2,t3,t4,t5,t6,t7,ex1,ex2,ex3,ex4,ex5,ex6,ev1,ev2,ev3,ev4,ev5,ev6,xd,yd,zd,uxd,uyd,uzd,x,y,z,ux,uy,uz,vxd,vyd,vzd,vx,vy,vz
4.88281e-07, 1.69119, -1.22492, -1.53735, -0.900044, -1.19172, 1.22863, -1.30269, -0.0050404, -0.00269365, -0.00188568, -0.00579384, 0.00186751, -3.34642e-05, -0.00137441, -0.508049, 56.5985, 26.2229, 6.62079, 1.46045, 2.85892, -0.0685925, 0.00106535, -0.00153692, -0.000545951, -0.000584508, -0.00103676, -0.000223722, 0.000799921, 0.00161085, -0.002792, -0.00301092, -0.00374679, 0.00123026, 0.471008, -0.543389, 0.335894, -2.08385, -2.16584, -0.129887, 0.46945, -0.54249, 0.336644, -2.08447, -2.16688, -0.129504, 0, 0, 0, -0.00168095, -0.000425875, -0.00283249
0.0121338, 1.69118, -1.22491, -1.53735, -0.90006, -1.1917, 1.22863, -1.30269, -0.0022796, 0.000304802, 0.0015746, -0.0021006, 0.000553936, -0.000297188, 0.00125188, -0.0557783, 56.5985, 26.1515, 6.65649, 1.44855, 2.87997, -0.114369, 0.00107056, -0.00153672, -0.000548137, -0.00058419, -0.00103029, -0.000236892, -9.92984e-05, 0.000534645, 0.000535652, 0.000749307, -0.000274882, -0.000733209, 0.471008, -0.543389, 0.335894, -2.08385, -2.16584, -0.129887, 0.469455, -0.54248, 0.336648, -2.08444, -2.1669, -0.129514, 3.52292e-06, 9.08712e-06, 4.70091e-06, -0.000514648, 2.80112e-06, 0.000565137
0.0131338, 1.69118, -1.22491, -1.53735, -0.90006, -1.1917, 1.22863, -1.30269, -0.0022796, 0.000304802, 0.0015746, -0.0021006, 0.000553936, -0.000297188, 0.00125188, -0.0557783, 56.5985, 26.1515, 6.65649, 1.44855, 2.87997, -0.114369, 0.00107054, -0.00153673, -0.000548129, -0.000584201, -0.00103028, -0.00023688, -7.06625e-05, 0.000545852, 0.000525575, 0.000736775, -0.000255719, -0.000756906, 0.471008, -0.543389, 0.335894, -2.08385, -2.16584, -0.129887, 0.469455, -0.54248, 0.336648, -2.08444, -2.1669, -0.129514, 1.40551e-05, 3.62649e-05, 1.87583e-05, -0.000514648, 2.80112e-06, 0.000565137
0.0141338, 1.69118, -1.22491, -1.53735, -0.90006, -1.1917, 1.22863, -1.30269, -0.0022796, 0.000304802, 0.0015746, -0.0021006, 0.000553936, -0.000297188, 0.00125188, -0.0557783, 56.5985, 26.1515, 6.65649, 1.44855, 2.87997, -0.114369, 0.00107048, -0.00153676, -0.000548107, -0.00058423, -0.00103027, -0.000236847, -2.30973e-05, 0.000564459, 0.000508839, 0.000715982, -0.000223897, -0.000796246, 0.471008, -0.543389, 0.335894, -2.08385, -2.16584, -0.129887, 0.469455, -0.54248, 0.336648, -2.08444, -2.1669, -0.129514, 3.15416e-05, 8.14084e-05, 4.21042e-05, -0.000514648, 2.80112e-06, 0.000565137
0.0151338, 1.69118, -1.22491, -1.53735, -0.90006, -1.1917, 1.22863, -1.30269, -0.0022796, 0.000304802, 0.0015746, -0.0021006, 0.000553936, -0.000297188, 0.00125188, -0.0557783, 56.5985, 26.1515, 6.65649, 1.44855, 2.87997, -0.114369, 0.00107036, -0.0015368, -0.000548066, -0.000584288, -0.00103024, -0.000236783, 4.32653e-05, 0.000590409, 0.000485496, 0.000687004, -0.000179513, -0.000851105, 0.471008, -0.543389, 0.335894, -2.08385, -2.16584, -0.129887, 0.469455, -0.54248, 0.336648, -2.08444, -2.1669, -0.129514, 5.59279e-05, 0.000144393, 7.4671e-05, -0.000514648, 2.80112e-06, 0.000565137
0.0161338, 1.69118, -1.22491, -1.53735, -0.90006, -1.1917, 1.22863, -1.30269, -0.0022796, 0.000304802, 0.0015746, -0.0021006, 0.000553936, -0.000297188, 0.00125188, -0.0557783, 56.5985, 26.1515, 6.65649, 1.44855, 2.87997, -0.114369, 0.00107017, -0.00153688, -0.000547998, -0.000584382, -0.00103019, -0.000236677, 0.000128294, 0.000623645, 0.000455594, 0.000649915, -0.00012266, -0.000921357, 0.471008, -0.543389, 0.335894, -2.08385, -2.16584, -0.129886, 0.469455, -0.54248, 0.336648, -2.08444, -2.1669, -0.129514, 8.71593e-05, 0.000225094, 0.000116391, -0.000514648, 2.80112e-06, 0.000565137
0.0171338, 1.69118, -1.22491, -1.53735, -0.90006, -1.1917, 1.22863, -1.30269, -0.0022796, 0.000304802, 0.0015746, -0.0021006, 0.000553936, -0.000297188, 0.00125188, -0.0557783, 56.5985, 26.1515, 6.65649, 1.44855, 2.87997, -0.114369, 0.00106988, -0.00153699, -0.000547897, -0.000584522, -0.00103012, -0.00023652, 0.000231858, 0.000664108, 0.000419184, 0.000604792, -5.34334e-05, -0.00100688, 0.471008, -0.543389, 0.335894, -2.08385, -2.16584, -0.129886, 0.469455, -0.54248, 0.336648, -2.08444, -2.1669, -0.129514, 0.000125182, 0.000323387, 0.000167197, -0.000514648, 2.80112e-06, 0.000565137
0.0181338, 1.69118, -1.22491, -1.53735, -0.90006, -1.1917, 1.22863, -1.30269, -0.0022796, 0.000304802, 0.0015746, -0.0021006, 0.000553936, -0.000297188, 0.00125188, -0.0557783, 56.5985, 26.1515, 6.65649, 1.44855, 2.87997, -0.114369, 0.00106948, -0.00153714, -0.000547756, -0.000584718, -0.00103003, -0.000236302, 0.000353826, 0.000711742, 0.000376313, 0.000551709, 2.80716e-05, -0.00110754, 0.471008, -0.543388, 0.335894, -2.08385, -2.16584, -0.129886, 0.469455, -0.54248, 0.336648, -2.08444, -2.1669, -0.129514, 0.00016994, 0.000439148, 0.000227022, -0.000514648, 2.80112e-06, 0.000565137
0.0191338, 1.69118, -1.22491, -1.53735, -0.90006, -1.1917, 1.22863, -1.30269, -0.0022796, 0.000304802, 0.0015746, -0.0021006, 0.000553936, -0.000297188, 0.00125188, -0.0557783, 56.5985, 26.1515, 6.65649, 1.44855, 2.87997, -0.114369, 0.00106895, -0.00153735, -0.000547569, -0.000584978, -0.0010299, -0.000236013, 0.000494068, 0.00076649, 0.000327032, 0.000490742, 0.000121761, -0.00122323, 0.471009, -0.543388, 0.335895, -2.08385, -2.16584, -0.129886, 0.469455, -0.54248, 0.336648, -2.08444, -2.1669, -0.129514, 0.000221382, 0.000572255, 0.000295798, -0.000514648, 2.80112e-06, 0.000565137
0.0201338, 1.69117, -1.22489, -1.53735, -0.900015, -1.1917, 1.22864, -1.30269, -0.000600229, 0.00468508, 0.00102173, 0.0022567, -0.000508531, -0.00896737, 0.0020209, -0.131157, 56.2653, 26.1118, 6.28357, 1.49707, 2.85892, -0.127186, 0.00105126, -0.00155427, -0.000568746, -0.000612742, -0.00105316, -0.000181574, 0.000202635, 0.00274126, 0.00239828, -0.00591281, 0.000876081, -0.00497755, 0.471009, -0.543387, 0.335895, -2.08384, -2.16584, -0.129885, 0.46944, -0.5425, 0.336667, -2.08453, -2.16686, -0.129515, 0.000279451, 0.000722584, 0.000373459, -0.00236445, 4.1258e-05, 0.00279273
0.0211338, 1.69116, -1.22489, -1.53736, -0.900011, -1.1917, 1.22864, -1.3027, -0.00315208, 0.0013582, -0.00284743, 0.0046264, -0.000132674, -0.0069893, -0.00156886, -0.0161054, 56.3406, 26.2626, 6.28357, 1.49158, 2.86532, -0.0484509, 0.00104395, -0.0015611, -0.000563604, -0.000606192, -0.00104898, -0.000172864, 0.00347269, 0.00498522, -0.000349652, -0.00623004, -0.0016854, -0.00780801, 0.471009, -0.543386, 0.335895, -2.08384, -2.16584, -0.129884, 0.469433, -0.542506, 0.336661, -2.08453, -2.16685, -0.129511, 0.000344096, 0.000890012, 0.000459939, -0.00452313, -0.00268849, -0.000274035
0.0221338, 1.69116, -1.22489, -1.53736, -0.900005, -1.1917, 1.22864, -1.30269, -0.0029821, 0.00387707, -0.00331964, 0.00420024, -8.62767e-05, -0.0052398, 0.000412151, 0.0196001, 56.0828, 26.1872, 6.24786, 1.49158, 2.86532, -0.0878186, 0.00104104, -0.00156395, -0.000570101, -0.000611758, -0.00105878, -0.00016027, 0.00349473, 0.00467404, 0.000979213, -0.00520379, 0.00185367, -0.00966295, 0.47101, -0.543385, 0.335896, -2.08384, -2.16584, -0.129884, 0.469431, -0.542509, 0.336667, -2.08455, -2.16684, -0.129505, 0.000415261, 0.00107442, 0.00055517, -0.00409243, -0.00271765, 0.00112055
0.0231338, 1.69115, -1.22488, -1.53735, -0.899998, -1.19171, 1.22864, -1.30269, -0.00378543, 0.0043564, 0.00188216, 0.00560919, 0.00018147, -0.00419967, -0.00091203, 0.0949785, 55.8606, 26.0007, 6.13678, 1.48517, 2.87265, -0.0557752, 0.00103524, -0.00156899, -0.000575478, -0.000622604, -0.00106507, -0.000151464, 0.00340399, 0.00439816, 0.00335983, 0.00111246, 0.0022847, -0.00794916, 0.47101, -0.543384, 0.335896, -2.08384, -2.16585, -0.129883, 0.469427, -0.542515, 0.336673, -2.08457, -2.16684, -0.129509, 0.000492895, 0.00127568, 0.000659086, -0.00365657, -0.00278193, 0.00358093
0.0241338, 1.69116, -1.22488, -1.53735, -0.900001, -1.19171, 1.22864, -1.30269, -0.00219821, 0.00533215, 0.00189017, 0.00389738, -0.00440602, -0.00499115, -0.00159137, -0.0557783, 55.6027, 25.965, 6.13678, 1.47876, 2.923, -0.0292249, 0.00103842, -0.00156461, -0.000578592, -0.000616862, -0.00107815, -0.000159838, 0.00315208, 0.00389227, 0.00346414, -0.00278399, 0.00697262, -0.00594836, 0.471011, -0.543383, 0.335897, -2.08384, -2.16585, -0.129882, 0.469432, -0.542511, 0.336677, -2.08456, -2.16686, -0.129489, 0.000576942, 0.00149367, 0.000771622, -0.00307253, -0.00231061, 0.00382031
0.0251338, 1.69115, -1.22488, -1.53735, -0.899993, -1.19172, 1.22864, -1.30269, -0.00444055, 0.000351879, -0.000652999, 0.00624318, -0.00401173, -0.00594582, -7.75678e-05, 0.059273, 55.7138, 26.0404, 5.98602, 1.49707, 2.98709, -0.0557752, 0.00102726, -0.00157278, -0.000573979, -0.000621845, -0.00107357, -0.00013564, 0.0059217, 0.0062562, -8.72908e-05, -0.00470726, 0.00126987, -0.0129408, 0.471011, -0.543381, 0.335898, -2.08384, -2.16585, -0.129881, 0.469424, -0.54252, 0.336672, -2.08459, -2.16683, -0.129495, 0.00066735, 0.00172827, 0.000892711, -0.00537215, -0.00436038, 7.60471e-05
0.0261338, 1.69114, -1.22488, -1.53735, -0.899996, -1.19172, 1.22865, -1.30269, -0.0082439, 0.00294673, 0.000953537, 0.00425095, -0.00320901, -0.000374547, -0.0020184, 0.134651, 55.7138, 26.1118, 5.98602, 1.50348, 3.00906, -0.00267457, 0.00102226, -0.00157539, -0.000576225, -0.000627329, -0.0010846, -0.000132231, 0.00712029, 0.00670435, 0.00232726, 0.00165218, 0.00608881, -0.0122286, 0.471012, -0.543379, 0.335899, -2.08384, -2.16585, -0.129879, 0.469423, -0.542523, 0.336674, -2.0846, -2.16684, -0.129488, 0.000764066, 0.00197936, 0.00102229, -0.00559297, -0.00568255, 0.00241732
0.0271338, 1.69114, -1.22488, -1.53735, -0.899997, -1.19173, 1.22866, -1.30269, -0.00676642, 0.00479803, 0.000815698, 0.00290059, -0.0035151, 0.00440027, 0.0010958, 0.170357, 55.8606, 26.1118, 5.98602, 1.53461, 3.01639, -0.0685925, 0.00101792, -0.0015763, -0.000578975, -0.000641287, -0.00109137, -0.000124017, 0.00675378, 0.00490279, 0.00342201, 0.00470169, 0.010904, -0.0131332, 0.471013, -0.543377, 0.3359, -2.08384, -2.16585, -0.129878, 0.469423, -0.542526, 0.336677, -2.08462, -2.16684, -0.129495, 0.000867038, 0.00224682, 0.00116028, -0.00366434, -0.00514805, 0.00363888
0.0281338, 1.69114, -1.22488, -1.53734, -0.899995, -1.19174, 1.22867, -1.30269, -0.00483739, 0.0010717, -0.00191965, 0.00281892, -0.00386689, 0.0045917, -0.000490167, 0.170357, 55.9717, 26.2229, 5.95032, 1.57123, 2.98709, -0.0356336, 0.00101298, -0.00157527, -0.000581025, -0.000652324, -0.00110507, -0.000124516, 0.00719013, 0.00433509, 6.46039e-05, 0.00153846, 0.00801448, -0.0111893, 0.471014, -0.543375, 0.335901, -2.08384, -2.16585, -0.129876, 0.469425, -0.542529, 0.33668, -2.08463, -2.16685, -0.129491, 0.000976211, 0.00253053, 0.00130664, -0.00309379, -0.00475516, 0.000385238
0.0291338, 1.69113, -1.22487, -1.53733, -0.899995, -1.19174, 1.22868, -1.30269, -0.00708904, 0.000232847, 0.00359873, 0.00108154, -0.00294065, 0.00803222, 0.000893925, 0.325081, 56.0074, 26.1515, 5.98602, 1.57764, 2.99441, -0.0685925, 0.00100709, -0.00157805, -0.000588815, -0.000675778, -0.00111577, -0.000114892, 0.00709338, 0.00361644, 0.00159846, 0.00909798, 0.00806203, -0.0105489, 0.471015, -0.543372, 0.335903, -2.08383, -2.16585, -0.129874, 0.469424, -0.542533, 0.336688, -2.08465, -2.16686, -0.129503, 0.00109153, 0.00283037, 0.00146128, -0.00220881, -0.00456648, 0.00204782
0.0301338, 1.69113, -1.22486, -1.53733, -0.9, -1.19174, 1.22869, -1.30269, -0.00490966, 0.00442736, 0.00106356, -0.00101411, -0.00249527, 0.00940515, 0.000833308, 0.325081, 55.9717, 26.2229, 6.0614, 1.58954, 3.03012, -0.0750012, 0.00100578, -0.0015756, -0.000593147, -0.000682908, -0.00113113, -0.000117905, 0.00601863, 0.0022747, 0.00276011, 0.00715358, 0.0131906, -0.0079192, 0.471016, -0.543369, 0.335904, -2.08383, -2.16585, -0.129871, 0.469428, -0.542532, 0.336693, -2.08466, -2.16688, -0.129494, 0.00121295, 0.00314621, 0.00162416, -0.000743875, -0.0033135, 0.00348409
0.0311338, 1.69113, -1.22486, -1.53733, -0.899994, -1.19174, 1.2287, -1.30269, -0.00600928, 0.00425, 0.000960168, 0.00194347, -0.00173403, 0.0104323, -0.00212323, 0.436165, 55.936, 26.2229, 5.95032, 1.58954, 3.06674, -0.00267457, 0.000998797, -0.00157782, -0.000597865, -0.000698656, -0.00114198, -0.000113514, 0.00772757, 0.00342971, 0.00305631, 0.00972271, 0.0128453, -0.00871309, 0.471017, -0.543366, 0.335906, -2.08383, -2.16586, -0.129869, 0.469427, -0.542536, 0.336699, -2.08467, -2.16689, -0.129497, 0.00134042, 0.00347794, 0.00179519, -0.00169809, -0.00476175, 0.00371721
0.0321338, 1.69113, -1.22486, -1.53732, -0.899992, -1.19175, 1.22871, -1.30268, -0.00270475, 0.00401596, 0.00082846, 0.00223947, -0.000768098, 0.0111141, 0.000788563, 0.511544, 55.9003, 26.2229, 5.91064, 1.57764, 3.10977, -0.0621838, 0.000992868, -0.00157866, -0.000599577, -0.000711709, -0.00114897, -0.000100999, 0.00664369, 0.00156945, 0.00267121, 0.0101055, 0.0124819, -0.00865502, 0.471019, -0.543362, 0.335908, -2.08383, -2.16586, -0.129866, 0.469428, -0.542539, 0.336702, -2.0847, -2.16688, -0.1295, 0.00147388, 0.00382545, 0.00197432, 0.000240575, -0.00320881, 0.00362823
0.0331338, 1.69113, -1.22486, -1.53732, -0.899992, -1.19175, 1.22872, -1.30269, -0.0043079, 0.00386588, -0.000234452, -0.00081672, -0.000314373, 0.0124927, -0.00167834, 0.626595, 55.8606, 26.2626, 5.87494, 1.57123, 3.13083, -0.00267457, 0.000985773, -0.00157998, -0.000600869, -0.000723504, -0.0011593, -0.000101201, 0.00712212, 0.00181501, 0.00185383, 0.00920122, 0.0131885, -0.00576748, 0.47102, -0.543358, 0.33591, -2.08382, -2.16586, -0.129863, 0.469429, -0.542542, 0.336704, -2.0847, -2.1669, -0.1295, 0.00161328, 0.0041886, 0.00216148, 0.000122342, -0.00320223, 0.00294145
0.0341338, 1.69112, -1.22485, -1.53732, -0.899997, -1.19175, 1.22874, -1.30269, -0.000757803, 0.00444311, 0.000877664, -0.00472491, -0.00419785, 0.0136059, -0.00111889, 0.813057, 55.7892, 26.2229, 5.91064, 1.55292, 3.1528, -0.00267457, 0.000980131, -0.0015808, -0.000604041, -0.000736871, -0.00117125, -9.94461e-05, 0.00538316, -0.000846153, 0.00181616, 0.00679977, 0.0181374, -0.000506312, 0.471022, -0.543354, 0.335912, -2.08382, -2.16586, -0.12986, 0.46943, -0.542544, 0.336708, -2.08472, -2.16691, -0.129499, 0.00175856, 0.00456728, 0.0023566, 0.0028618, -0.000992062, 0.00328903
0.0351338, 1.69113, -1.22485, -1.53732, -0.9, -1.19176, 1.22875, -1.30268, 0.00330067, 0.00487187, 0.000664569, -0.00359816, -0.00320727, 0.0141776, 0.000949492, 0.813057, 55.7138, 26.2229, 5.91064, 1.55292, 3.18118, -0.0484509, 0.000979596, -0.00157331, -0.000606472, -0.000749021, -0.00118678, -0.000104903, 0.00419675, -0.00288129, 0.00184018, 0.00734058, 0.0183467, 0.000331119, 0.471024, -0.543349, 0.335915, -2.08382, -2.16586, -0.129856, 0.469439, -0.54254, 0.336713, -2.08472, -2.16693, -0.129494, 0.00190969, 0.00496137, 0.00255964, 0.00500387, 0.000652915, 0.00363853
0.0361338, 1.69113, -1.22484, -1.53731, -0.899998, -1.19176, 1.22877, -1.30269, 0.000816553, 0.00335784, 0.00133786, -0.0032251, -0.00176654, 0.0146296, -0.0005538, 1.03919, 55.7138, 26.1872, 5.79956, 1.53461, 3.20956, -0.0164075, 0.000970584, -0.0015749, -0.000608887, -0.000768647, -0.00119706, -0.000100473, 0.00560814, -0.00162761, 0.00126177, 0.00924401, 0.0160191, -0.00046272, 0.471026, -0.543344, 0.335917, -2.08381, -2.16587, -0.129852, 0.46944, -0.542544, 0.336717, -2.08474, -2.16694, -0.129501, 0.0020666, 0.00537076, 0.00277051, 0.00393835, -0.000293365, 0.00309704
0.0371338, 1.69113, -1.22484, -1.53731, -0.899999, -1.19176, 1.22878, -1.30268, 0.000886743, 0.002321, 0.000936601, -0.00405932, -0.00140759, 0.0141558, 0.00108886, 1.18995, 55.7138, 26.1872, 5.72418, 1.53461, 3.25992, -0.0557752, 0.000964976, -0.00157239, -0.000608963, -0.000782138, -0.00120698, -9.71558e-05, 0.00583997, -0.00158251, 0.000193141, 0.00796536, 0.0148559, -0.00172664, 0.471028, -0.543338, 0.33592, -2.08381, -2.16587, -0.129848, 0.469445, -0.542544, 0.336719, -2.08475, -2.16695, -0.129501, 0.00222924, 0.00579533, 0.00298915, 0.00402566, 6.49575e-05, 0.00222589
0.0381338, 1.69114, -1.22485, -1.53731, -0.9, -1.19177, 1.22879, -1.30269, 0.000926621, 0.000773945, 0.00149314, -0.00469188, -0.00155162, 0.0145222, 0.000217282, 1.34071, 55.7495, 26.1515, 5.6488, 1.54651, 3.2883, -0.0420422, 0.00095875, -0.00156901, -0.000607589, -0.000797685, -0.00121611, -0.000100598, 0.00619673, -0.00174353, -0.000737037, 0.00806998, 0.0139426, -0.000393685, 0.47103, -0.543332, 0.335923, -2.0838, -2.16587, -0.129843, 0.469451, -0.542544, 0.336719, -2.08475, -2.16697, -0.129505, 0.00239756, 0.00623496, 0.00321551, 0.00433399, 0.000302128, 0.00147355
0.0391338, 1.69114, -1.22484, -1.53731, -0.9, -1.19178, 1.22881, -1.30269, -0.00162834, 0.00223277, 0.000185351, -0.00441065, -0.00207926, 0.0153297, -0.00178793, 1.60651, 55.6781, 26.1872, 5.53772, 1.57123, 3.30295, 0.0101428, 0.000949816, -0.00156794, -0.000606636, -0.000808259, -0.00123273, -9.89504e-05, 0.00821482, 0.000105906, -0.000266865, 0.00782871, 0.0165298, -0.00238031, 0.471033, -0.543326, 0.335927, -2.0838, -2.16588, -0.129838, 0.469455, -0.542546, 0.33672, -2.08476, -2.16699, -0.129495, 0.00257152, 0.00668953, 0.00344951, 0.00275014, -0.00138372, 0.00191442
0.0401338, 1.69115, -1.22484, -1.53732, -0.900007, -1.19179, 1.22884, -1.30268, 0.00255007, 0.00152329, -0.00245603, -0.00608316, -0.00331421, 0.0172417, 0.000978189, 1.75727, 55.6781, 26.2983, 5.50201, 1.62067, 3.28097, -0.0484509, 0.000943284, -0.00156079, -0.000601327, -0.000816171, -0.00125249, -0.000100625, 0.00742087, -0.00218112, -0.00207582, 0.00489858, 0.0185486, -0.00163507, 0.471035, -0.543319, 0.33593, -2.08379, -2.16588, -0.129833, 0.469464, -0.542544, 0.336717, -2.08477, -2.16701, -0.129478, 0.00275106, 0.00715892, 0.0036911, 0.00512, 0.000241546, 0.000424037
0.0411338, 1.69116, -1.22484, -1.53731, -0.900006, -1.1918, 1.22886, -1.30269, 0.00190732, 0.00104161, 0.000140025, -0.00379386, -0.0083171, 0.022121, -0.00128065, 2.05878, 55.6781, 26.2229, 5.31555, 1.65729, 3.2883, 0.00373412, 0.000934432, -0.00155708, -0.000604195, -0.000840365, -0.00127317, -0.000103176, 0.00989618, -0.0019045, -0.000832772, 0.0100105, 0.0245284, -0.00284842, 0.471038, -0.543312, 0.335934, -2.08379, -2.16589, -0.129827, 0.469471, -0.542546, 0.336723, -2.08479, -2.16703, -0.129479, 0.00293613, 0.00764302, 0.00394021, 0.00516236, -0.00192069, 0.00152481
0.0421338, 1.69118, -1.22484, -1.53732, -0.900005, -1.19181, 1.22889, -1.30268, 0.00777908, 0.00154919, -0.000824064, -0.00302883, -0.0124284, 0.0210998, 0.000366934, 2.24921, 55.6424, 26.2626, 5.16479, 1.70581, 3.29562, -0.0292249, 0.000928534, -0.00154696, -0.000602465, -0.00085585, -0.00129769, -0.000106761, 0.00890095, -0.00399704, -0.00135234, 0.005644, 0.0284123, -0.00164889, 0.471041, -0.543304, 0.335938, -2.08378, -2.16589, -0.129821, 0.469485, -0.542543, 0.336724, -2.0848, -2.16706, -0.129466, 0.00312667, 0.00814172, 0.00419678, 0.00738837, -0.000273784, 0.00135966
0.0431338, 1.6912, -1.22484, -1.53732, -0.900004, -1.19183, 1.22891, -1.30268, 0.0120212, 0.00197549, -0.000541421, -0.00171148, -0.0150819, 0.023712, 0.000956699, 2.43568, 55.6027, 26.2626, 4.97833, 1.74335, 3.33865, -0.0484509, 0.00092385, -0.00153607, -0.000601903, -0.000871904, -0.00132111, -0.00011488, 0.00864471, -0.0060945, -0.000999757, 0.00670528, 0.0326512, -0.000402842, 0.471044, -0.543295, 0.335942, -2.08378, -2.16589, -0.129815, 0.469499, -0.542539, 0.336726, -2.0848, -2.16709, -0.129454, 0.00332265, 0.00865489, 0.00446074, 0.00968269, 0.000524045, 0.00194826
0.0441338, 1.69121, -1.22484, -1.53732, -0.900009, -1.19184, 1.22893, -1.30268, 0.0124605, 0.000399976, -0.000354981, -0.00260083, -0.0109852, 0.0258428, -0.000311636, 2.73719, 55.6424, 26.2626, 4.86725, 1.74335, 3.37436, -0.0228162, 0.000916622, -0.00152782, -0.000597695, -0.000887371, -0.0013394, -0.000126093, 0.00826425, -0.00723747, -0.00201146, 0.00977055, 0.0292292, 0.00311975, 0.471048, -0.543286, 0.335947, -2.08377, -2.1659, -0.129808, 0.469511, -0.542536, 0.336725, -2.0848, -2.16713, -0.129447, 0.003524, 0.00918243, 0.00473204, 0.0109754, 0.00162974, 0.00124512
0.0451338, 1.69124, -1.22483, -1.53732, -0.900006, -1.19185, 1.22896, -1.30268, 0.0147024, 0.00287336, -0.00199542, 0.00164076, -0.0133855, 0.027863, 0.00101295, 2.96729, 55.5313, 26.3379, 4.68079, 1.76166, 3.40365, -0.0557752, 0.000910689, -0.00151711, -0.000598258, -0.000902062, -0.00136859, -0.000130759, 0.00988649, -0.00709336, -0.000690175, 0.0106146, 0.0348339, -0.00180346, 0.471051, -0.543277, 0.335952, -2.08376, -2.1659, -0.129801, 0.469525, -0.542532, 0.33673, -2.08481, -2.16716, -0.129427, 0.00373068, 0.00972421, 0.00501061, 0.011144, 0.000360785, 0.00258097
0.0461338, 1.69125, -1.22484, -1.53732, -0.900003, -1.19187, 1.22899, -1.30268, 0.0168198, 0.000251327, -0.000398902, 0.00388002, -0.0109566, 0.0292994, -0.00129139, 3.30451, 55.6027, 26.2983, 4.53003, 1.79187, 3.43936, -0.00267457, 0.000900207, -0.00150875, -0.000594568, -0.000923073, -0.00139121, -0.000140219, 0.00978203, -0.00841891, -0.00154118, 0.0146625, 0.0310943, 0.00178815, 0.471055, -0.543267, 0.335957, -2.08375, -2.16591, -0.129793, 0.469538, -0.542532, 0.336729, -2.08482, -2.1672, -0.129421, 0.00394263, 0.0102801, 0.00529638, 0.0126454, 0.00120516, 0.00200264
0.0471338, 1.69127, -1.22484, -1.53732, -0.90001, -1.19189, 1.22902, -1.30268, 0.018875, 0.00100741, -0.00119144, 0.00286668, -0.0128621, 0.0264247, -0.000860928, 3.6457, 55.567, 26.3379, 4.49432, 1.79828, 3.45309, -0.00267457, 0.000893773, -0.001497, -0.000590846, -0.000935233, -0.0014195, -0.000153574, 0.00934032, -0.0086742, -0.0020901, 0.00959506, 0.0325853, 0.00275134, 0.471059, -0.543256, 0.335962, -2.08375, -2.16592, -0.129785, 0.469554, -0.542526, 0.33673, -2.08482, -2.16724, -0.129399, 0.00415982, 0.0108501, 0.00558931, 0.0130819, 0.00230614, 0.00181435
0.0481338, 1.6913, -1.22483, -1.53732, -0.900001, -1.19191, 1.22905, -1.30268, 0.021493, 0.00243833, -0.000792404, 0.00678442, -0.0147246, 0.028793, 0.00139274, 3.94721, 55.4916, 26.3379, 4.26819, 1.81018, 3.46774, -0.0557752, 0.000883488, -0.00148684, -0.000592236, -0.000958932, -0.00145285, -0.000150554, 0.0103476, -0.00929758, -0.000706862, 0.0124584, 0.0368197, -0.00129942, 0.471064, -0.543245, 0.335968, -2.08374, -2.16592, -0.129777, 0.469568, -0.542525, 0.336735, -2.08484, -2.16727, -0.129383, 0.00438218, 0.0114339, 0.00588931, 0.014013, 0.00170834, 0.00330508
0.0491338, 1.69133, -1.22483, -1.53732, -0.900002, -1.19193, 1.22908, -1.30268, 0.0243103, 0.00162816, -0.000526854, 0.0037337, -0.0168464, 0.0309019, -0.0010382, 4.21302, 55.4916, 26.3379, 4.1571, 1.84131, 3.47507, -0.00267457, 0.00087621, -0.00147214, -0.000589053, -0.000977684, -0.00148511, -0.000171101, 0.00948236, -0.0115256, -0.00169292, 0.0113153, 0.0395457, 0.00550344, 0.471068, -0.543234, 0.335974, -2.08373, -2.16593, -0.129768, 0.469588, -0.542519, 0.336736, -2.08484, -2.16732, -0.129364, 0.00460967, 0.0120315, 0.00619634, 0.016399, 0.00340329, 0.00270539
0.0501338, 1.69135, -1.22483, -1.53733, -0.900004, -1.19196, 1.22911, -1.30268, 0.0255406, 0.0010874, -0.00294863, 0.000734789, -0.0180413, 0.0317338, 0.00100329, 4.51453, 55.4916, 26.449, 4.08173, 1.86603, 3.50345, -0.0484509, 0.000866318, -0.00145971, -0.00058189, -0.000984745, -0.00151919, -0.000172584, 0.00957087, -0.012241, -0.00350083, 0.0074357, 0.0412789, 0.00522146, 0.471073, -0.543221, 0.335981, -2.08372, -2.16594, -0.129759, 0.469605, -0.542515, 0.336734, -2.08485, -2.16735, -0.129328, 0.00484224, 0.0126428, 0.00651033, 0.0172839, 0.00423482, 0.00119883
0.0511338, 1.69138, -1.22483, -1.53733, -0.900001, -1.19198, 1.22914, -1.30268, 0.0262643, -0.00573703, -0.00196496, 0.00246817, -0.0184484, 0.0323161, 0.000431501, 4.81605, 55.4916, 26.449, 3.97064, 1.87793, 3.53274, -0.0420422, 0.000855913, -0.00144734, -0.00057797, -0.00100449, -0.00154945, -0.000181496, 0.0110118, -0.0123642, -0.00713276, 0.00848322, 0.0353409, 0.00491275, 0.471078, -0.543208, 0.335987, -2.08371, -2.16594, -0.129749, 0.469622, -0.542512, 0.336734, -2.08486, -2.16739, -0.12931, 0.00507984, 0.0132677, 0.00683122, 0.0175648, 0.00400116, -0.00229387
0.0521338, 1.69142, -1.22484, -1.53733, -0.899999, -1.19201, 1.22917, -1.30268, 0.0296273, -0.00529023, -0.00130937, 0.00294358, -0.0188997, 0.0331629, 5.03082e-05, 5.00251, 55.5313, 26.449, 3.89526, 1.89075, 3.5538, -0.0356336, 0.00084821, -0.00142914, -0.000572364, -0.00102331, -0.00158382, -0.000200232, 0.010328, -0.014097, -0.00690804, 0.00904554, 0.0370344, 0.00781335, 0.471083, -0.543195, 0.335994, -2.0837, -2.16595, -0.129738, 0.469646, -0.542504, 0.336734, -2.08485, -2.16745, -0.129288, 0.00532241, 0.013906, 0.00715894, 0.0195215, 0.00535114, -0.00169055
0.0531338, 1.69145, -1.22483, -1.53733, -0.899995, -1.19204, 1.2292, -1.30268, 0.0278357, -0.00300194, -0.000872468, 0.00421201, -0.0238701, 0.0333584, 0.000508257, 5.22865, 55.4916, 26.449, 3.78418, 1.90906, 3.58218, -0.0484509, 0.000837097, -0.00141555, -0.000569601, -0.00103948, -0.00162385, -0.000208077, 0.0128788, -0.0120555, -0.00535979, 0.00806793, 0.0437411, 0.00242517, 0.471088, -0.54318, 0.336002, -2.08369, -2.16596, -0.129728, 0.469665, -0.5425, 0.336737, -2.08486, -2.16749, -0.129255, 0.00556992, 0.0145576, 0.00749345, 0.0178777, 0.00316257, -0.000161385
0.0541338, 1.69148, -1.22484, -1.53733, -0.899991, -1.19207, 1.22924, -1.30268, 0.028647, -0.00406688, -0.000581309, 0.00430962, -0.0221868, 0.0339026, -0.00108532, 5.49445, 55.567, 26.449, 3.7088, 1.90265, 3.60415, -0.00999879, 0.000824613, -0.00140217, -0.000563167, -0.00105793, -0.00165639, -0.000221877, 0.0130118, -0.0125792, -0.00610662, 0.00911903, 0.0420308, 0.0048935, 0.471094, -0.543166, 0.336009, -2.08368, -2.16597, -0.129716, 0.469684, -0.542496, 0.336736, -2.08487, -2.16754, -0.129233, 0.00582231, 0.0152225, 0.00783467, 0.018631, 0.00383265, -0.000594103
0.0551338, 1.69152, -1.22484, -1.53734, -0.899986, -1.1921, 1.22927, -1.30267, 0.0309515, -0.00470126, -0.00122251, 0.00351208, -0.0258696, 0.0303304, 0.00144659, 5.68488, 55.6424, 26.4847, 3.6731, 1.90265, 3.60415, -0.0685925, 0.000810013, -0.0013884, -0.000554966, -0.00107554, -0.00169342, -0.000222731, 0.0130179, -0.0126079, -0.00750157, 0.00265644, 0.0432987, 0.00322355, 0.4711, -0.54315, 0.336017, -2.08367, -2.16597, -0.129705, 0.469704, -0.542493, 0.336733, -2.08488, -2.16758, -0.129203, 0.00607953, 0.0159004, 0.00818254, 0.0188666, 0.00472054, -0.00162549
0.0561338, 1.69156, -1.22485, -1.53734, -0.899976, -1.19214, 1.2293, -1.30268, 0.03517, -0.00413946, -0.00257805, 0.00488548, -0.0284033, 0.0269918, -0.000493665, 5.76026, 55.6781, 26.5601, 3.55804, 1.89075, 3.6188, -0.0292249, 0.000796928, -0.00137326, -0.000547355, -0.00108666, -0.00173124, -0.000235559, 0.0126621, -0.0132449, -0.008231, -0.00286409, 0.044856, 0.00602708, 0.471106, -0.543134, 0.336026, -2.08366, -2.16598, -0.129692, 0.469726, -0.542488, 0.336731, -2.08488, -2.16763, -0.129166, 0.00634154, 0.0165914, 0.00853701, 0.0197257, 0.00590125, -0.00195538
0.0571338, 1.69159, -1.22485, -1.53734, -0.899973, -1.19217, 1.22933, -1.30267, 0.0354729, -0.00372242, 4.46779e-05, 0.00314662, -0.0257178, 0.029235, 0.000382967, 5.94672, 55.7138, 26.4847, 3.55804, 1.88434, 3.63254, -0.0484509, 0.000783361, -0.00135963, -0.000541724, -0.00110737, -0.00176614, -0.000241431, 0.011866, -0.0146837, -0.0073737, 0.00148208, 0.0446628, 0.0085337, 0.471113, -0.543117, 0.336034, -2.08364, -2.16599, -0.129679, 0.469746, -0.542483, 0.336732, -2.08489, -2.16767, -0.129141, 0.00660828, 0.0172953, 0.00889802, 0.0214318, 0.00731831, -0.000667934
0.0581338, 1.69163, -1.22486, -1.53734, -0.899967, -1.19222, 1.22936, -1.30267, 0.034239, -0.0034125, -0.000898128, 0.00285018, -0.0297337, 0.0256875, 0.0010013, 6.06178, 55.7495, 26.5244, 3.52234, 1.90906, 3.66092, -0.0685925, 0.000765867, -0.00134785, -0.000533065, -0.00111342, -0.00181247, -0.000245022, 0.0136741, -0.0124968, -0.00807706, -0.00453179, 0.0470546, 0.00453988, 0.471119, -0.543099, 0.336043, -2.08363, -2.166, -0.129666, 0.469765, -0.54248, 0.336729, -2.0849, -2.16771, -0.129088, 0.00687971, 0.0180119, 0.00926549, 0.0195587, 0.0062684, -0.00120936
0.0591338, 1.69167, -1.22486, -1.53733, -0.899964, -1.19226, 1.2294, -1.30268, 0.0375079, -0.0049452, 0.00209259, 0.00183804, -0.0313596, 0.0242441, -0.00150261, 6.13715, 55.8606, 26.4094, 3.52234, 1.90265, 3.66092, -0.00999879, 0.000753141, -0.0013303, -0.000526291, -0.00113669, -0.00184906, -0.000269753, 0.0123833, -0.0143683, -0.00862304, -0.0053629, 0.0466456, 0.0114605, 0.471126, -0.543081, 0.336053, -2.08362, -2.16601, -0.129652, 0.46979, -0.542473, 0.33673, -2.08489, -2.16778, -0.129066, 0.00715578, 0.0187412, 0.00963939, 0.0216377, 0.00843305, -0.00123104
0.0601338, 1.69171, -1.22486, -1.53734, -0.899958, -1.1923, 1.22943, -1.30267, 0.0394635, -0.0025154, 0.000467097, 0.00201401, -0.0367612, 0.0276707, 0.000422415, 6.21253, 55.8249, 26.449, 3.48663, 1.88434, 3.66092, -0.0484509, 0.000736565, -0.00131786, -0.000521381, -0.00114934, -0.00189544, -0.000269007, 0.0138785, -0.0148158, -0.00781816, -0.00665555, 0.055846, 0.00804964, 0.471134, -0.543062, 0.336063, -2.0836, -2.16602, -0.129638, 0.46981, -0.542469, 0.336732, -2.08491, -2.16782, -0.129018, 0.00743644, 0.0194831, 0.0100196, 0.0224482, 0.00759354, -0.000301563
0.0611338, 1.69174, -1.22487, -1.53734, -0.899953, -1.19234, 1.22946, -1.30268, 0.036991, -0.00255251, 0.000311443, 0.00447572, -0.0367393, 0.0306292, -0.00141381, 6.32362, 55.8606, 26.449, 3.48663, 1.87793, 3.64718, -0.00267457, 0.000716654, -0.00130733, -0.000513066, -0.00116231, -0.00193888, -0.00027592, 0.0168396, -0.0130907, -0.00743715, -0.00298959, 0.057498, 0.00458698, 0.471141, -0.543042, 0.336073, -2.08359, -2.16603, -0.129623, 0.469829, -0.542467, 0.33673, -2.08492, -2.16787, -0.128974, 0.00772164, 0.0202374, 0.0104062, 0.021131, 0.0052951, 5.40412e-05
0.0621338, 1.69178, -1.22486, -1.53734, -0.899946, -1.19239, 1.22949, -1.30267, 0.0370098, 0.000866514, 0.000207662, 0.00722623, -0.0413637, 0.0322743, 0.00075288, 6.36329, 55.7495, 26.449, 3.44696, 1.86603, 3.64718, -0.0484509, 0.000697297, -0.00129642, -0.000511959, -0.00117574, -0.00199733, -0.000272744, 0.0192332, -0.0118767, -0.00521858, -0.00254244, 0.0658004, -0.00227475, 0.471149, -0.543021, 0.336083, -2.08357, -2.16604, -0.129607, 0.469848, -0.542465, 0.336736, -2.08494, -2.16791, -0.128914, 0.00801134, 0.0210041, 0.0107989, 0.0203749, 0.00330758, 0.00230295
0.0631338, 1.69181, -1.22486, -1.53734, -0.899948, -1.19244, 1.22952, -1.30267, 0.0337533, -0.00204348, 0.00106649, 0.0043242, -0.0451101, 0.0288915, 0.000773188, 6.39899, 55.8606, 26.4094, 3.48663, 1.86603, 3.64718, -0.0557752, 0.000678487, -0.00128387, -0.000501065, -0.00118545, -0.0020398, -0.000281966, 0.0211295, -0.00954841, -0.00743703, -0.00793481, 0.0649404, -0.00442526, 0.471157, -0.543, 0.336094, -2.08356, -2.16606, -0.129591, 0.469869, -0.54246, 0.336733, -2.08494, -2.16796, -0.128866, 0.00830549, 0.021783, 0.0111979, 0.0183318, 0.00245989, 0.000287724
0.0641338, 1.69185, -1.22486, -1.53734, -0.899945, -1.19248, 1.22955, -1.30267, 0.0359235, -0.00054413, -0.00021701, 0.00320885, -0.0478884, 0.0260825, -0.000942604, 6.36329, 55.8249, 26.449, 3.48663, 1.85962, 3.65451, -0.0164075, 0.000660022, -0.00127255, -0.000495937, -0.0011916, -0.00209128, -0.000293761, 0.0210492, -0.00961821, -0.00781703, -0.0138753, 0.0681165, -0.00183504, 0.471166, -0.542978, 0.336106, -2.08354, -2.16607, -0.129574, 0.469889, -0.542455, 0.336737, -2.08494, -2.16802, -0.128805, 0.00860403, 0.0225739, 0.011603, 0.0186835, 0.00339156, 0.000327922
0.0651338, 1.69189, -1.22486, -1.53733, -0.899939, -1.19254, 1.22957, -1.30267, 0.0365386, 0.000459695, 0.000783361, 0.0033118, -0.0509243, 0.0242754, 0.00082966, 6.36329, 55.7892, 26.4094, 3.44696, 1.88434, 3.65451, -0.0557752, 0.000636269, -0.00126482, -0.000490913, -0.00120314, -0.00214502, -0.000287977, 0.0217594, -0.00910215, -0.00734275, -0.0162918, 0.0712094, -0.0043219, 0.471175, -0.542955, 0.336118, -2.08352, -2.16608, -0.129557, 0.469906, -0.542454, 0.336739, -2.08497, -2.16806, -0.128746, 0.00890693, 0.0233769, 0.0120141, 0.018514, 0.00339931, 0.00111287
0.0661338, 1.69192, -1.22486, -1.53734, -0.899936, -1.19259, 1.2296, -1.30267, 0.0330544, 0.00122491, -0.00216901, 0.00239127, -0.0478829, 0.0276277, 0.000281839, 6.39899, 55.7495, 26.5244, 3.44696, 1.89624, 3.65451, -0.0484509, 0.000610547, -0.00125821, -0.00048192, -0.00120469, -0.00220086, -0.00028472, 0.0241815, -0.00744863, -0.00788633, -0.0147317, 0.0718731, -0.00750749, 0.471184, -0.542931, 0.33613, -2.0835, -2.16609, -0.129539, 0.469923, -0.542454, 0.336739, -2.08498, -2.1681, -0.128672, 0.00921413, 0.0241918, 0.0124312, 0.0172375, 0.00183865, 0.000667767
0.0671338, 1.69196, -1.22485, -1.53734, -0.89994, -1.19265, 1.22963, -1.30267, 0.0337787, 0.00247986, -0.000517976, -3.15056e-05, -0.0553605, 0.0306613, -0.00123626, 6.28791, 55.6781, 26.4847, 3.52234, 1.91546, 3.63986, -0.00999879, 0.000591607, -0.00124582, -0.00047732, -0.00120583, -0.00226252, -0.000301576, 0.0253405, -0.00804377, -0.00696916, -0.0156493, 0.0814488, -0.00558297, 0.471193, -0.542906, 0.336143, -2.08349, -2.16611, -0.12952, 0.469945, -0.542447, 0.336743, -2.08498, -2.16817, -0.128594, 0.0095256, 0.0250185, 0.0128543, 0.0182187, 0.00140459, 0.00179872
0.0681338, 1.69199, -1.22485, -1.53734, -0.899935, -1.1927, 1.22965, -1.30267, 0.0323837, 0.00164785, -0.000345312, 0.0018454, -0.0561258, 0.027362, 0.00110861, 6.24824, 55.6781, 26.4847, 3.44696, 1.93378, 3.64718, -0.0621838, 0.000564568, -0.00124097, -0.000469406, -0.00121022, -0.00231439, -0.000290583, 0.0272522, -0.00586075, -0.00765952, -0.0180419, 0.0799762, -0.0118151, 0.471203, -0.542881, 0.336156, -2.08347, -2.16612, -0.129501, 0.46996, -0.542447, 0.336744, -2.085, -2.1682, -0.128526, 0.00984127, 0.0258569, 0.0132832, 0.0163983, 0.000371922, 0.00131582
0.0691338, 1.69203, -1.22485, -1.53734, -0.899937, -1.19276, 1.22967, -1.30267, 0.0312593, 0.00192974, -0.00115822, 0.00037962, -0.0561385, 0.0262232, -0.00170234, 6.21253, 55.6424, 26.5244, 3.48663, 1.93378, 3.6188, 0.00373412, 0.000539805, -0.00123334, -0.000460199, -0.00120904, -0.00237014, -0.000297595, 0.0282386, -0.00485893, -0.00833694, -0.020617, 0.0804434, -0.0099473, 0.471213, -0.542854, 0.336169, -2.08345, -2.16613, -0.129481, 0.469978, -0.542443, 0.336745, -2.085, -2.16825, -0.128449, 0.0101611, 0.0267069, 0.013718, 0.0157288, 0.000310941, 0.000959206
0.0701338, 1.69207, -1.22484, -1.53734, -0.899935, -1.19282, 1.22969, -1.30267, 0.032307, 0.00128347, 0.000991092, 0.00123913, -0.0558255, 0.0285622, 0.00106916, 6.09748, 55.6424, 26.449, 3.44696, 1.92737, 3.63254, -0.0557752, 0.000516168, -0.00122373, -0.000452308, -0.00121502, -0.00242108, -0.000295911, 0.0287281, -0.00576022, -0.00799697, -0.0167315, 0.0811094, -0.0120073, 0.471223, -0.542827, 0.336183, -2.08343, -2.16615, -0.129461, 0.469999, -0.542438, 0.336747, -2.08501, -2.1683, -0.128384, 0.0104851, 0.0275683, 0.0141585, 0.0169832, 0.000674085, 0.00163228
0.0711338, 1.69211, -1.22484, -1.53734, -0.899935, -1.19287, 1.22972, -1.30267, 0.0350575, 0.000853371, 0.006189, -5.84103e-05, -0.0644408, 0.0263397, -0.000507932, 6.0221, 55.6424, 26.4847, 3.48663, 1.91546, 3.62521, -0.0228162, 0.000491064, -0.00121525, -0.000441604, -0.00121495, -0.00247215, -0.000304114, 0.0284694, -0.00678673, -0.00724263, -0.0195821, 0.0871009, -0.00769361, 0.471234, -0.542799, 0.336197, -2.08341, -2.16616, -0.12944, 0.470018, -0.542433, 0.336747, -2.08501, -2.16835, -0.128311, 0.0108131, 0.0284411, 0.0146048, 0.0183549, 0.00172866, 0.00283242
0.0721338, 1.69215, -1.22485, -1.53734, -0.899934, -1.19294, 1.22974, -1.30267, 0.0340354, -0.000268008, 0.00372827, -6.29816e-06, -0.067645, 0.0249116, 0.000373456, 5.94672, 55.6781, 26.5244, 3.48663, 1.92737, 3.61148, -0.0420422, 0.000460812, -0.00121079, -0.000428152, -0.00121022, -0.00252532, -0.000297708, 0.0309771, -0.00481461, -0.00915953, -0.024754, 0.0886375, -0.0126134, 0.471245, -0.54277, 0.336212, -2.08339, -2.16618, -0.129418, 0.470034, -0.542431, 0.336743, -2.08502, -2.16839, -0.12823, 0.0111452, 0.0293251, 0.0150567, 0.0167385, 0.000350326, 0.00106268
0.0731338, 1.69219, -1.22484, -1.53734, -0.899934, -1.193, 1.22975, -1.30267, 0.0371057, 0.000655267, 0.00204802, 2.02828e-05, -0.0645435, 0.0241184, -0.000463106, 5.83564, 55.6424, 26.5601, 3.48663, 1.92096, 3.58951, -0.0228162, 0.000433874, -0.00120334, -0.000417882, -0.00120632, -0.00258116, -0.000302907, 0.0301283, -0.00606518, -0.0097675, -0.026234, 0.0874426, -0.00930259, 0.471256, -0.542741, 0.336228, -2.08336, -2.16619, -0.129396, 0.470054, -0.542426, 0.336744, -2.08502, -2.16844, -0.128147, 0.0114812, 0.0302203, 0.0155142, 0.0182711, 0.00222867, 0.00101356
0.0741338, 1.69222, -1.22484, -1.53734, -0.899934, -1.19306, 1.22977, -1.30267, 0.0376741, 0.000435886, 0.00342687, 3.1883e-05, -0.0624885, 0.0228946, -0.00105472, 5.79597, 55.6424, 26.4847, 3.48663, 1.92096, 3.58218, -0.00267457, 0.000405568, -0.00119733, -0.000408996, -0.00120882, -0.00263464, -0.000306871, 0.0300317, -0.00627182, -0.00987433, -0.0256231, 0.0854884, -0.00756284, 0.471268, -0.54271, 0.336243, -2.08334, -2.16621, -0.129373, 0.470072, -0.542422, 0.336746, -2.08502, -2.16849, -0.128073, 0.0118212, 0.0311266, 0.0159772, 0.0188104, 0.00325523, 0.00137989
0.0751338, 1.69227, -1.22484, -1.53734, -0.899929, -1.19312, 1.22979, -1.30266, 0.0396374, 0.00205311, 0.0025083, 0.00179826, -0.0612293, 0.0221033, 0.00126354, 5.68488, 55.567, 26.4847, 3.41125, 1.92737, 3.57577, -0.0557752, 0.0003772, -0.00119031, -0.00040061, -0.0012061, -0.0026929, -0.000301829, 0.0303531, -0.0064174, -0.00951192, -0.0262414, 0.0862711, -0.0103039, 0.47128, -0.542678, 0.33626, -2.08332, -2.16623, -0.129349, 0.470092, -0.542417, 0.33675, -2.08503, -2.16853, -0.127986, 0.012165, 0.0320437, 0.0164457, 0.0193248, 0.00380548, 0.00215211
0.0761338, 1.69231, -1.22483, -1.53734, -0.899937, -1.19318, 1.2298, -1.30267, 0.0387133, 0.00537013, 7.67484e-05, -0.00138928, -0.0603956, 0.0206668, -0.00136169, 5.68488, 55.5313, 26.5601, 3.52234, 1.93927, 3.58951, 0.00373412, 0.000348037, -0.00118581, -0.000388465, -0.00119272, -0.00275046, -0.000311633, 0.0306702, -0.00558429, -0.00928456, -0.0307216, 0.0892377, -0.00752623, 0.471292, -0.542646, 0.336276, -2.08329, -2.16625, -0.129324, 0.470109, -0.542411, 0.33675, -2.08502, -2.16859, -0.12789, 0.0125127, 0.0329717, 0.0169196, 0.0188607, 0.00435101, 0.00282685
0.0771338, 1.69235, -1.22483, -1.53734, -0.899941, -1.19325, 1.22982, -1.30267, 0.0430847, 0.00384358, 0.00101222, -0.00804082, -0.0591068, 0.0201649, -0.000670433, 5.6095, 55.5313, 26.5244, 3.55804, 1.93378, 3.58951, -0.00267457, 0.000320595, -0.00117619, -0.000376315, -0.00118867, -0.00280673, -0.000321188, 0.0273857, -0.00939491, -0.0113883, -0.0340983, 0.0877183, 0.00204591, 0.471305, -0.542612, 0.336293, -2.08327, -2.16626, -0.129299, 0.470132, -0.542403, 0.33675, -2.08501, -2.16865, -0.127804, 0.0128642, 0.0339105, 0.0173989, 0.0228225, 0.00901358, 0.00162203
0.0781338, 1.6924, -1.22483, -1.53734, -0.899934, -1.19331, 1.22983, -1.30267, 0.0426588, 0.00578917, -6.60211e-05, -0.00638462, -0.0632384, 0.0192523, 0.00124847, 5.53413, 55.5313, 26.5601, 3.44696, 1.93927, 3.60415, -0.0484509, 0.000289645, -0.0011701, -0.000362441, -0.00117971, -0.00285761, -0.000316056, 0.0298265, -0.00754921, -0.0107994, -0.0371405, 0.093154, -0.00447604, 0.471318, -0.542578, 0.336311, -2.08324, -2.16628, -0.129273, 0.470152, -0.542396, 0.336749, -2.08501, -2.16869, -0.127716, 0.0132194, 0.0348598, 0.0178835, 0.0214447, 0.00738631, 0.00236612
0.0791338, 1.69245, -1.22482, -1.53734, -0.899942, -1.19337, 1.22984, -1.30267, 0.0433012, 0.00685854, 2.67714e-05, -0.00666694, -0.066247, 0.0183369, -0.000591843, 5.56983, 55.4202, 26.5601, 3.52234, 1.93927, 3.62521, -0.00999879, 0.000263015, -0.00116164, -0.000353649, -0.00117054, -0.00291801, -0.000332609, 0.0308454, -0.0070798, -0.0106393, -0.0398069, 0.0969319, -0.00353966, 0.471331, -0.542543, 0.336329, -2.08322, -2.1663, -0.129247, 0.470174, -0.542386, 0.336755, -2.08499, -2.16875, -0.12762, 0.0135784, 0.0358197, 0.0183733, 0.0213781, 0.00729633, 0.00287047
0.0801338, 1.6925, -1.22483, -1.53734, -0.899947, -1.19344, 1.22985, -1.30266, 0.0448566, 0.00227439, -0.000764281, -0.00576532, -0.0643164, 0.0184358, 0.00153822, 5.56983, 55.5313, 26.5958, 3.55804, 1.95209, 3.62521, -0.0621838, 0.000234158, -0.0011523, -0.000334396, -0.0011566, -0.00296435, -0.000338798, 0.0316753, -0.00754459, -0.0139132, -0.0401137, 0.0915177, -0.00538648, 0.471345, -0.542506, 0.336348, -2.08319, -2.16632, -0.12922, 0.470198, -0.542374, 0.336749, -2.08497, -2.1688, -0.127531, 0.013941, 0.03679, 0.0188684, 0.0221157, 0.00796979, -9.91427e-06
0.0811338, 1.69255, -1.22482, -1.53734, -0.89995, -1.1935, 1.22986, -1.30267, 0.0483483, 0.00490336, -0.000469704, -0.00420764, -0.0672496, 0.0136163, -0.00117857, 5.6095, 55.5313, 26.5958, 3.55804, 1.95758, 3.63254, -0.00267457, 0.000205371, -0.00114311, -0.000320299, -0.0011439, -0.00301928, -0.000356826, 0.0313832, -0.00755594, -0.0130125, -0.0454037, 0.094781, -0.00229468, 0.471359, -0.542469, 0.336367, -2.08316, -2.16634, -0.129192, 0.470222, -0.542363, 0.33675, -2.08495, -2.16887, -0.127435, 0.0143072, 0.0377706, 0.0193685, 0.022516, 0.00910075, 0.00142471
0.0821338, 1.69261, -1.22482, -1.53734, -0.899956, -1.19357, 1.22987, -1.30267, 0.0524835, 0.00591802, -0.00121129, -0.00400619, -0.0690652, 0.0105465, -0.00126043, 5.56983, 55.567, 26.6355, 3.59772, 1.95209, 3.62521, 0.0101428, 0.00017961, -0.00112863, -0.000302553, -0.00112732, -0.00307269, -0.000376387, 0.030745, -0.00852161, -0.0134985, -0.0504358, 0.0965981, -0.000117078, 0.471373, -0.542431, 0.336386, -2.08313, -2.16636, -0.129163, 0.470251, -0.542347, 0.336748, -2.08492, -2.16893, -0.127335, 0.014677, 0.0387614, 0.0198738, 0.0238097, 0.0108365, 0.00151963
0.0831338, 1.69267, -1.22482, -1.53734, -0.899952, -1.19363, 1.22988, -1.30266, 0.0541064, 0.00535926, -0.00162035, -0.000277146, -0.0657133, 0.0132486, 0.00628518, 5.6095, 55.5313, 26.6712, 3.48663, 1.95209, 3.61148, -0.0557752, 0.000148791, -0.0011196, -0.000289745, -0.00111682, -0.00312928, -0.000375971, 0.0319378, -0.00900863, -0.0136645, -0.0458165, 0.0950611, -0.00921741, 0.471388, -0.542392, 0.336407, -2.0831, -2.16638, -0.129134, 0.470275, -0.542336, 0.33675, -2.08491, -2.16898, -0.127237, 0.0150503, 0.0397623, 0.0203841, 0.024707, 0.0107056, 0.00166633
0.0841338, 1.69273, -1.22482, -1.53734, -0.899955, -1.1937, 1.22989, -1.30267, 0.0547293, 0.00363588, -0.00106344, -0.000338369, -0.0639703, 0.01456, 0.00190169, 5.68488, 55.6781, 26.6712, 3.48663, 1.97681, 3.61148, 0.0165515, 0.000119663, -0.00110708, -0.000269064, -0.00110503, -0.00317347, -0.000405103, 0.0325456, -0.0095341, -0.014772, -0.0440787, 0.0932499, -0.00412244, 0.471403, -0.542351, 0.336427, -2.08308, -2.1664, -0.129103, 0.470303, -0.542321, 0.336745, -2.08487, -2.16905, -0.127152, 0.0154271, 0.0407732, 0.0208993, 0.0255906, 0.0113086, 0.000977882
0.0851345, 1.6928, -1.22482, -1.53734, -0.899955, -1.19377, 1.2299, -1.30266, 0.0601443, 0.00449969, -0.00153158, 0.000587236, -0.0711845, 0.0106291, 0.00396805, 5.68488, 55.7495, 26.7069, 3.44696, 1.9704, 3.6188, -0.0484509, 9.23676e-05, -0.00109228, -0.000250388, -0.00108674, -0.00322503, -0.000416878, 0.0325211, -0.0103303, -0.0153001, -0.0520037, 0.098888, -0.00516469, 0.471419, -0.54231, 0.336448, -2.08304, -2.16642, -0.129072, 0.470334, -0.542303, 0.336743, -2.08484, -2.16911, -0.127049, 0.0158074, 0.041794, 0.0214195, 0.0267461, 0.0124678, 0.000956118
0.0861345, 1.69287, -1.22482, -1.53734, -0.899956, -1.19384, 1.2299, -1.30266, 0.0655202, 0.00277112, 0.00124086, 0.00114031, -0.0728762, 0.0124189, 0.00215285, 5.76026, 55.7892, 26.7466, 3.41125, 1.98871, 3.62521, -0.0292249, 6.43055e-05, -0.00107779, -0.000232164, -0.00106876, -0.00327789, -0.000439514, 0.0314853, -0.0134672, -0.0157515, -0.0499511, 0.100077, 0.00141761, 0.471435, -0.542268, 0.33647, -2.08301, -2.16645, -0.129041, 0.470365, -0.542285, 0.336742, -2.08481, -2.16918, -0.126946, 0.016191, 0.0428246, 0.0219445, 0.0302087, 0.014721, 0.00110001
0.0871345, 1.69294, -1.22482, -1.53735, -0.899959, -1.19391, 1.2299, -1.30267, 0.0672815, -0.000226536, 0.00167262, -0.00241023, -0.0737917, 0.013986, 0.000616564, 5.79597, 55.9003, 26.8577, 3.41125, 1.99512, 3.62521, -0.00267457, 3.65715e-05, -0.00106137, -0.000208649, -0.00104449, -0.00332665, -0.000467152, 0.0312833, -0.0151502, -0.0181818, -0.0512816, 0.0996702, 0.00689237, 0.471451, -0.542224, 0.336492, -2.08298, -2.16647, -0.129008, 0.470398, -0.542265, 0.336736, -2.08476, -2.16925, -0.12684, 0.016578, 0.0438649, 0.0224743, 0.0321802, 0.0164043, -0.000790217
0.0881345, 1.69301, -1.22482, -1.53734, -0.89996, -1.19398, 1.22991, -1.30266, 0.0667882, 0.00351349, 0.00158349, -0.000986202, -0.074265, 0.015421, 0.00222997, 5.91102, 55.9003, 26.8577, 3.37158, 2.00702, 3.6188, -0.0484509, 7.7835e-06, -0.00104684, -0.000194467, -0.00103405, -0.00338291, -0.000484308, 0.0329306, -0.014261, -0.0160455, -0.0497003, 0.105078, 0.00240914, 0.471468, -0.54218, 0.336515, -2.08295, -2.16649, -0.128975, 0.47043, -0.542246, 0.33674, -2.08473, -2.16932, -0.12674, 0.0169683, 0.0449148, 0.0230089, 0.0318214, 0.015463, 0.00162588
0.0891345, 1.69309, -1.22482, -1.53735, -0.899961, -1.19405, 1.22991, -1.30267, 0.0686041, 0.00170254, -0.000356277, -0.000888021, -0.0704549, 0.0113202, -0.000590864, 5.94672, 56.0828, 26.933, 3.37158, 2.02533, 3.62521, 0.0101428, -2.04068e-05, -0.00102858, -0.000170807, -0.00101277, -0.00343189, -0.000518837, 0.0326649, -0.014209, -0.0186272, -0.0540171, 0.0990266, 0.00643109, 0.471485, -0.542135, 0.336538, -2.08291, -2.16652, -0.128941, 0.470465, -0.542224, 0.336735, -2.08467, -2.1694, -0.126636, 0.0173618, 0.0459742, 0.0235482, 0.0320589, 0.0171792, -0.00034137
0.0901345, 1.69317, -1.22482, -1.53735, -0.899958, -1.19412, 1.22992, -1.30266, 0.0697007, 0.000980655, -0.000264501, 0.000905507, -0.0673882, 0.00901313, 0.0018457, 5.9864, 56.1185, 27.0798, 3.30017, 2.03815, 3.61148, -0.0484509, -4.95377e-05, -0.00101087, -0.000150787, -0.000994486, -0.00348587, -0.000537164, 0.0330359, -0.0139507, -0.0194202, -0.0543313, 0.0952547, 0.00370488, 0.471503, -0.542088, 0.336562, -2.08288, -2.16654, -0.128906, 0.470501, -0.542202, 0.336734, -2.08464, -2.16947, -0.126529, 0.0177586, 0.047043, 0.0240921, 0.0321825, 0.0179929, -0.000629972
0.0911345, 1.69325, -1.22481, -1.53735, -0.899958, -1.19419, 1.22992, -1.30266, 0.0728187, 0.00351008, 0.000283209, 0.00140201, -0.0702365, 0.00699829, 0.0017912, 6.06178, 56.1581, 27.0798, 3.2605, 2.06836, 3.60415, -0.0621838, -7.71214e-05, -0.000992233, -0.000134843, -0.000979853, -0.00354385, -0.000566061, 0.0329271, -0.0145206, -0.0184009, -0.0574048, 0.0998651, 0.0047728, 0.471521, -0.542041, 0.336586, -2.08285, -2.16657, -0.128871, 0.470538, -0.542179, 0.336738, -2.08459, -2.16955, -0.126421, 0.0181585, 0.048121, 0.0246406, 0.0331855, 0.0190458, 0.000924417
0.0921345, 1.69332, -1.22482, -1.53735, -0.899961, -1.19426, 1.22993, -1.30267, 0.0710604, -0.000437837, -0.00122978, 0.000837405, -0.0721959, 0.00574676, -0.00144556, 6.17286, 56.3049, 27.1552, 3.2605, 2.09308, 3.58951, 0.0101428, -0.000107507, -0.000975109, -0.000110394, -0.000958843, -0.00359105, -0.000602578, 0.0356369, -0.0125873, -0.021746, -0.0615138, 0.0977605, 0.00454956, 0.471539, -0.541992, 0.336611, -2.08281, -2.16659, -0.128834, 0.470574, -0.542156, 0.336734, -2.08453, -2.16964, -0.126317, 0.0185616, 0.0492083, 0.0251936, 0.0316342, 0.0178909, -0.00218605
0.0931345, 1.69341, -1.22481, -1.53735, -0.899959, -1.19433, 1.22993, -1.30266, 0.0759866, 0.00169623, -0.000802538, -0.000890975, -0.0730183, 0.00450646, 0.00174437, 6.24824, 56.3763, 27.306, 3.18512, 2.09949, 3.58218, -0.0621838, -0.000138706, -0.000957815, -8.73837e-05, -0.000935949, -0.00364268, -0.000620689, 0.0338251, -0.0150183, -0.0213437, -0.0644432, 0.100972, 0.00672297, 0.471558, -0.541942, 0.336637, -2.08277, -2.16662, -0.128797, 0.47061, -0.542133, 0.336731, -2.08449, -2.1697, -0.126204, 0.0189677, 0.0503046, 0.0257511, 0.0344171, 0.0208159, -0.00102532
0.0941345, 1.69349, -1.22481, -1.53735, -0.899953, -1.1944, 1.22993, -1.30266, 0.0785708, 0.00083557, -0.000902599, -0.0014273, -0.0741268, 0.00330733, 0.00020155, 6.28791, 56.416, 27.3417, 3.07404, 2.1178, 3.58218, -0.0356336, -0.000169339, -0.000939881, -7.0036e-05, -0.00092328, -0.003696, -0.000650872, 0.0338762, -0.0158039, -0.0225994, -0.0672699, 0.101319, 0.00996782, 0.471577, -0.541891, 0.336663, -2.08274, -2.16665, -0.128759, 0.470647, -0.542109, 0.336735, -2.08444, -2.16979, -0.126101, 0.0193769, 0.05141, 0.0263131, 0.0355668, 0.0220966, -0.00173532
0.0951345, 1.69358, -1.2248, -1.53735, -0.899953, -1.19447, 1.22993, -1.30266, 0.0810125, 0.00252666, -0.00284946, -0.000613187, -0.0745243, 0.00266951, -0.000561224, 6.28791, 56.4874, 27.4528, 3.03833, 2.12421, 3.57577, -0.0164075, -0.000198128, -0.00091902, -4.85129e-05, -0.00090423, -0.00374735, -0.000687945, 0.0344589, -0.0160155, -0.0227694, -0.0700163, 0.103906, 0.0104098, 0.471597, -0.541839, 0.33669, -2.0827, -2.16667, -0.128721, 0.470688, -0.542081, 0.336735, -2.08438, -2.16987, -0.125993, 0.0197891, 0.0525242, 0.0268794, 0.0362058, 0.0226708, -0.00143362
0.0961345, 1.69367, -1.2248, -1.53734, -0.899956, -1.19454, 1.22993, -1.30266, 0.0833017, 0.00461708, 0.00146423, -0.00161666, -0.069973, 0.00249265, 0.00082501, 6.36329, 56.5231, 27.4528, 3.07404, 2.1297, 3.56112, -0.0484509, -0.000226093, -0.000897302, -3.01374e-05, -0.000894249, -0.00379865, -0.000724119, 0.0323006, -0.0182748, -0.020695, -0.0653903, 0.102816, 0.0148012, 0.471617, -0.541786, 0.336717, -2.08266, -2.1667, -0.128681, 0.47073, -0.542052, 0.336739, -2.08432, -2.16997, -0.125894, 0.0202043, 0.0536472, 0.02745, 0.0388749, 0.0257011, 0.00144998
0.0971345, 1.69375, -1.2248, -1.53734, -0.899959, -1.19461, 1.22993, -1.30266, 0.0869737, 0.00120673, -0.000331394, -0.00228529, -0.0721204, 0.00151834, -0.000864874, 6.39899, 56.6342, 27.5281, 3.11371, 2.15442, 3.56845, -0.00999879, -0.000256518, -0.000876979, -6.54374e-06, -0.000875521, -0.00384691, -0.000765021, 0.0326834, -0.019365, -0.0241135, -0.07044, 0.101759, 0.0182451, 0.471637, -0.541732, 0.336744, -2.08262, -2.16673, -0.128641, 0.470771, -0.542023, 0.336738, -2.08425, -2.17006, -0.125788, 0.0206224, 0.0547789, 0.0280249, 0.0402699, 0.0270256, -0.00144377
0.0981345, 1.69384, -1.2248, -1.53734, -0.899959, -1.19467, 1.22993, -1.30266, 0.0843761, -0.00124861, -0.00071438, -0.00173314, -0.0678802, 0.0011081, 0.00136315, 6.39899, 56.7453, 27.5638, 3.11371, 2.14801, 3.56845, -0.0621838, -0.000286512, -0.000855288, 1.52723e-05, -0.000864696, -0.00389241, -0.000797999, 0.0346333, -0.0177126, -0.0259308, -0.0691696, 0.0963115, 0.0133098, 0.471658, -0.541677, 0.336773, -2.08258, -2.16676, -0.128599, 0.470814, -0.541993, 0.33674, -2.08419, -2.17014, -0.125692, 0.0210433, 0.0559192, 0.028604, 0.0390454, 0.0264507, -0.0029102
0.0991345, 1.69393, -1.22479, -1.53733, -0.899956, -1.19474, 1.22993, -1.30266, 0.0894809, 0.000149858, 0.000247941, -0.000384623, -0.0653236, 0.00162444, -0.0010188, 6.36329, 56.8564, 27.6749, 3.07404, 2.16083, 3.54648, -0.00999879, -0.000320139, -0.000835233, 3.8496e-05, -0.000852753, -0.00394083, -0.000836615, 0.0331801, -0.0203439, -0.0252183, -0.0671875, 0.0966222, 0.0199047, 0.471679, -0.54162, 0.336802, -2.08254, -2.16679, -0.128557, 0.470856, -0.541965, 0.33674, -2.08413, -2.17024, -0.125591, 0.0214671, 0.057068, 0.0291872, 0.0420702, 0.0290356, -0.00147964
0.100135, 1.69402, -1.22479, -1.53733, -0.899956, -1.19481, 1.22993, -1.30266, 0.0925001, -0.0027627, 0.00272133, -0.000374326, -0.0678989, 0.000865627, 0.000748869, 6.32362, 57.0032, 27.7146, 3.07404, 2.16724, 3.5538, -0.0484509, -0.000351057, -0.000813831, 6.27176e-05, -0.000840437, -0.0039801, -0.000872554, 0.0332482, -0.0216361, -0.0266924, -0.0680533, 0.0961728, 0.0205332, 0.471701, -0.541563, 0.336831, -2.08249, -2.16682, -0.128514, 0.470899, -0.541934, 0.33674, -2.08406, -2.17032, -0.125498, 0.0218936, 0.0582252, 0.0297746, 0.0437354, 0.0304066, -0.00239855
0.101135, 1.69412, -1.22479, -1.53732, -0.899959, -1.19487, 1.22993, -1.30266, 0.0921445, -0.00317673, 0.0029851, -0.001266, -0.0655708, 0.0008888, -0.000684615, 6.28791, 57.0786, 27.8257, 3.11371, 2.18555, 3.54648, -0.0164075, -0.000383296, -0.000792496, 8.42442e-05, -0.000827093, -0.00403148, -0.00091564, 0.0338909, -0.0214945, -0.0273673, -0.0676017, 0.0947111, 0.022354, 0.471723, -0.541504, 0.336861, -2.08245, -2.16685, -0.128471, 0.470943, -0.541903, 0.336743, -2.08399, -2.17043, -0.125392, 0.0223229, 0.0593907, 0.030366, 0.0440222, 0.0310355, -0.00256882
0.102135, 1.6942, -1.22479, -1.53732, -0.899962, -1.19493, 1.22993, -1.30267, 0.0941103, -0.00213184, 0.00503699, -0.00174554, -0.0663419, 0.000351602, 0.00306941, 6.28791, 57.2253, 27.8614, 3.14941, 2.15442, 3.5538, 0.0101428, -0.000417311, -0.000772104, 0.000108062, -0.000823893, -0.00407037, -0.000957448, 0.0336736, -0.0223947, -0.0266655, -0.0675432, 0.0968844, 0.0207062, 0.471746, -0.541444, 0.336892, -2.08241, -2.16688, -0.128426, 0.470986, -0.541872, 0.336744, -2.08392, -2.17052, -0.125309, 0.022755, 0.0605644, 0.0309614, 0.0453715, 0.0323543, -0.00127478
0.103135, 1.69429, -1.22478, -1.53731, -0.899964, -1.195, 1.22993, -1.30266, 0.0911567, 0.000567959, 0.00637397, -0.00204866, -0.0639321, 0.000257153, 0.00486491, 6.21253, 57.2968, 27.9011, 3.18512, 2.15442, 3.5538, -0.0557752, -0.000450606, -0.000750288, 0.000130137, -0.00081808, -0.00411559, -0.000991601, 0.0351129, -0.0207751, -0.0249292, -0.0652764, 0.0982066, 0.0166925, 0.471769, -0.541383, 0.336923, -2.08236, -2.16691, -0.128381, 0.471031, -0.541839, 0.336748, -2.08386, -2.17061, -0.125215, 0.0231896, 0.0617462, 0.0315607, 0.0443066, 0.031781, 0.000866314
0.104135, 1.69439, -1.22478, -1.5373, -0.899969, -1.19506, 1.22993, -1.30267, 0.0929706, 0.00065162, 0.00744673, -0.00316632, -0.0620783, 0.0001885, 0.000847434, 6.09748, 57.4475, 27.9368, 3.2605, 2.15442, 3.5538, 0.0165515, -0.000483203, -0.000727439, 0.000154796, -0.000808107, -0.00415761, -0.00104566, 0.0346159, -0.0219538, -0.0251858, -0.0648278, 0.0976331, 0.0236409, 0.471792, -0.54132, 0.336955, -2.08231, -2.16694, -0.128334, 0.471078, -0.541804, 0.33675, -2.08378, -2.17073, -0.12512, 0.0236269, 0.0629361, 0.0321639, 0.0458935, 0.033551, 0.00125652
0.105135, 1.69448, -1.22478, -1.53729, -0.899977, -1.19512, 1.22993, -1.30266, 0.0920385, 0.00394401, 0.0112586, -0.0039021, -0.0603893, 0.000680999, 0.00318465, 6.06178, 57.5943, 27.9725, 3.33588, 2.14801, 3.53915, -0.0484509, -0.000518744, -0.000706569, 0.000177674, -0.00081017, -0.00419846, -0.00107813, 0.0346732, -0.0220073, -0.0223424, -0.0606891, 0.100373, 0.0223874, 0.471816, -0.541257, 0.336987, -2.08227, -2.16698, -0.128287, 0.471123, -0.541771, 0.336754, -2.08372, -2.17082, -0.125037, 0.0240668, 0.0641338, 0.032771, 0.0464949, 0.0342587, 0.00466065
0.106135, 1.69456, -1.22478, -1.53728, -0.899983, -1.19518, 1.22993, -1.30266, 0.0921211, 0.0042546, 0.0100061, -0.00438562, -0.0594049, -7.89368e-05, 0.00180752, 5.9864, 57.7054, 28.0478, 3.41125, 2.14801, 3.5538, -0.0356336, -0.000554533, -0.000687412, 0.000201338, -0.000803577, -0.00423713, -0.00111997, 0.0357163, -0.0214318, -0.0231777, -0.0626938, 0.100449, 0.0230043, 0.47184, -0.541192, 0.337021, -2.08222, -2.16701, -0.128239, 0.471167, -0.541738, 0.336757, -2.08364, -2.17091, -0.124947, 0.0245092, 0.0653394, 0.0333819, 0.0463706, 0.0345387, 0.00430303
0.107135, 1.69466, -1.22478, -1.53727, -0.899993, -1.19524, 1.22993, -1.30266, 0.0921536, 0.00280785, 0.00839906, -0.00637316, -0.0590003, 0.000497109, -0.000608406, 5.79597, 57.8879, 28.1589, 3.55804, 2.15442, 3.53915, 0.0165515, -0.000587765, -0.000662511, 0.000230021, -0.000796914, -0.00427138, -0.00117765, 0.0368386, -0.0213117, -0.0252612, -0.0649761, 0.10007, 0.0255909, 0.471865, -0.541126, 0.337054, -2.08217, -2.16705, -0.12819, 0.471217, -0.541699, 0.336757, -2.08354, -2.17103, -0.124862, 0.0249541, 0.0665526, 0.0339965, 0.0466601, 0.0349589, 0.00269022
0.108135, 1.69475, -1.22477, -1.53726, -0.900004, -1.19529, 1.22993, -1.30266, 0.0878898, 0.00339384, 0.0129048, -0.0101683, -0.0581909, 0.000336805, 0.00137934, 5.64521, 57.999, 28.1589, 3.6731, 2.14801, 3.53915, -0.0292249, -0.000623062, -0.000640176, 0.000250871, -0.000802939, -0.00431306, -0.0012213, 0.0377162, -0.0201258, -0.0240779, -0.0623867, 0.100652, 0.0241435, 0.47189, -0.541059, 0.337088, -2.08212, -2.16708, -0.12814, 0.471265, -0.541663, 0.336764, -2.08347, -2.17114, -0.124781, 0.0254015, 0.0677736, 0.0346148, 0.0460004, 0.0350822, 0.00437798
0.109135, 1.69483, -1.22476, -1.53725, -0.900004, -1.19534, 1.22993, -1.30266, 0.0859042, 0.00782755, 0.0152711, -0.01017, -0.0569603, -4.26812e-05, -0.000234007, 5.56983, 58.0704, 28.1986, 3.6731, 2.1297, 3.54648, 0.00373412, -0.000663605, -0.000625032, 0.000269764, -0.000811603, -0.00434819, -0.0012593, 0.0386861, -0.0189271, -0.0210072, -0.0598961, 0.104491, 0.0242641, 0.471916, -0.54099, 0.337123, -2.08207, -2.16712, -0.128089, 0.471306, -0.541631, 0.336774, -2.08341, -2.17123, -0.124708, 0.0258513, 0.069002, 0.0352367, 0.0454042, 0.0348318, 0.00791933
0.110135, 1.69493, -1.22476, -1.53723, -0.900017, -1.19539, 1.22993, -1.30266, 0.0910526, 0.00366813, 0.0122991, -0.0129574, -0.0524978, 0.00024585, -0.00010565, 5.3437, 58.3282, 28.3097, 3.78418, 2.13611, 3.53915, 0.00373412, -0.000699353, -0.00060152, 0.000298589, -0.000814736, -0.00437401, -0.00131274, 0.0370286, -0.0220628, -0.0255824, -0.0631267, 0.0982737, 0.0307989, 0.471942, -0.540921, 0.337159, -2.08202, -2.16715, -0.128038, 0.471356, -0.541591, 0.336775, -2.08331, -2.17134, -0.124639, 0.0263034, 0.0702379, 0.0358623, 0.0487559, 0.038539, 0.0041856
0.111135, 1.69501, -1.22475, -1.53721, -0.900031, -1.19543, 1.22993, -1.30266, 0.0870273, 0.00509251, 0.0129053, -0.0127744, -0.0480693, 0.000674804, 0.00142539, 5.30799, 58.4036, 28.3097, 3.93494, 2.1178, 3.52542, -0.0356336, -0.000737254, -0.000583301, 0.000315218, -0.000833145, -0.00440888, -0.00135599, 0.0390832, -0.019929, -0.0247087, -0.0598396, 0.0969377, 0.0258714, 0.471968, -0.54085, 0.337195, -2.08197, -2.16719, -0.127985, 0.471401, -0.541554, 0.336788, -2.08324, -2.17145, -0.124576, 0.0267579, 0.0714811, 0.0364913, 0.0471892, 0.0375297, 0.00542614
0.112135, 1.69509, -1.22474, -1.5372, -0.900047, -1.19547, 1.22993, -1.30266, 0.0887753, 0.00349317, 0.0168594, -0.0155715, -0.0449392, 0.00018031, -0.00142891, 5.07789, 58.5861, 28.4208, 4.08173, 2.09949, 3.53274, 0.0293689, -0.000773341, -0.000561433, 0.000338555, -0.000841911, -0.00443758, -0.00141777, 0.0374416, -0.0220245, -0.0252216, -0.0575935, 0.0934274, 0.0348619, 0.471995, -0.540778, 0.337232, -2.08192, -2.16723, -0.127932, 0.471451, -0.541513, 0.336796, -2.08314, -2.17158, -0.12451, 0.0272147, 0.0727316, 0.0371239, 0.0496588, 0.0405691, 0.00574053
0.113135, 1.69517, -1.22473, -1.53717, -0.90006, -1.19551, 1.22993, -1.30266, 0.0806673, 0.00627046, 0.0193407, -0.0127509, -0.0437391, 0.000392756, 0.00147613, 4.9668, 58.7329, 28.4208, 4.1571, 2.11139, 3.52542, -0.0356336, -0.000812878, -0.000543727, 0.000355745, -0.000866059, -0.00446638, -0.00145861, 0.0422078, -0.0169061, -0.0223324, -0.0523688, 0.0954997, 0.0219998, 0.472023, -0.540705, 0.337269, -2.08186, -2.16726, -0.127878, 0.471497, -0.541476, 0.336809, -2.08307, -2.17168, -0.124457, 0.0276737, 0.0739892, 0.0377598, 0.0452929, 0.0364609, 0.00865236
0.114135, 1.69526, -1.22471, -1.53716, -0.900072, -1.19555, 1.22993, -1.30266, 0.0830577, 0.00928198, 0.0165016, -0.012996, -0.0420115, -0.000245828, 0.000287945, 4.74067, 58.844, 28.6072, 4.19281, 2.10498, 3.53915, -0.0164075, -0.000852066, -0.000524819, 0.000374418, -0.000880595, -0.00449851, -0.00150945, 0.0422934, -0.0173268, -0.0222403, -0.0553381, 0.0979059, 0.0238972, 0.472051, -0.54063, 0.337307, -2.08181, -2.1673, -0.127822, 0.471544, -0.541436, 0.336822, -2.08299, -2.1718, -0.124391, 0.028135, 0.0752539, 0.0383992, 0.0461818, 0.0376453, 0.00935637
0.115135, 1.69534, -1.2247, -1.53713, -0.900086, -1.19558, 1.22993, -1.30266, 0.082308, 0.00942963, 0.01914, -0.0142023, -0.036137, 7.41941e-05, -0.000779432, 4.51453, 59.0305, 28.6072, 4.26819, 2.09949, 3.53274, 0.0101428, -0.000891051, -0.000504917, 0.000392491, -0.000909938, -0.00452181, -0.00156651, 0.0419063, -0.0178519, -0.0217802, -0.0509784, 0.0941683, 0.0274855, 0.472079, -0.540554, 0.337346, -2.08175, -2.16734, -0.127766, 0.471593, -0.541395, 0.336837, -2.0829, -2.17193, -0.12435, 0.0285984, 0.0765256, 0.0390419, 0.0471733, 0.0392515, 0.0104969
0.116135, 1.69542, -1.22468, -1.53711, -0.900101, -1.19562, 1.22993, -1.30266, 0.0830885, 0.0108774, 0.0174961, -0.0141893, -0.0367377, 0.000321271, 0.00118476, 4.36378, 59.1772, 28.754, 4.30786, 2.10498, 3.52542, -0.0356336, -0.000932981, -0.000488111, 0.000409744, -0.000935635, -0.00454945, -0.0016093, 0.0432527, -0.0174462, -0.0219885, -0.0529756, 0.0972176, 0.024227, 0.472108, -0.540477, 0.337386, -2.0817, -2.16738, -0.127709, 0.47164, -0.541356, 0.336852, -2.08283, -2.17204, -0.124298, 0.0290639, 0.0778042, 0.0396878, 0.0472772, 0.0392157, 0.0107419
0.117135, 1.6955, -1.22467, -1.53709, -0.90012, -1.19564, 1.22993, -1.30266, 0.0798149, 0.0101586, 0.0196434, -0.0181135, -0.0368443, 0.000757121, -0.00113622, 4.24873, 59.3994, 28.9048, 4.37927, 2.09949, 3.51077, 0.0165515, -0.000975767, -0.000471715, 0.000431265, -0.000963511, -0.00456674, -0.00166549, 0.0445797, -0.016439, -0.0224465, -0.0527086, 0.0977827, 0.0267186, 0.472137, -0.540398, 0.337426, -2.08164, -2.16742, -0.127651, 0.471686, -0.541316, 0.336864, -2.08273, -2.17216, -0.124259, 0.0295316, 0.0790895, 0.040337, 0.0467724, 0.0392183, 0.0107653
0.118135, 1.69558, -1.22466, -1.53706, -0.900144, -1.19567, 1.22992, -1.30266, 0.0804813, 0.0105967, 0.0229375, -0.0221908, -0.0379462, -0.000308751, 0.000942984, 3.98292, 59.5819, 28.9802, 4.49432, 2.12421, 3.53274, -0.0292249, -0.0010116, -0.000449607, 0.000448325, -0.000988675, -0.00458856, -0.00172649, 0.0438041, -0.017464, -0.0221783, -0.0537729, 0.0996364, 0.0290247, 0.472167, -0.540319, 0.337466, -2.08158, -2.16746, -0.127592, 0.471739, -0.541268, 0.336881, -2.08263, -2.17229, -0.124212, 0.0300013, 0.0803815, 0.0409894, 0.0482477, 0.0412793, 0.0117704
0.119135, 1.69566, -1.22464, -1.53704, -0.900162, -1.19569, 1.22992, -1.30266, 0.0775423, 0.0117033, 0.0239973, -0.0224679, -0.0334815, -0.000442965, 0.00110715, 3.87183, 59.7287, 29.1269, 4.49432, 2.13611, 3.53915, -0.0420422, -0.00105654, -0.000435986, 0.000465789, -0.00102124, -0.00460672, -0.00177247, 0.0451666, -0.0160082, -0.0215205, -0.0509935, 0.0977535, 0.0271376, 0.472197, -0.540238, 0.337508, -2.08152, -2.1675, -0.127533, 0.471784, -0.541228, 0.336898, -2.08255, -2.1724, -0.124175, 0.030473, 0.0816802, 0.0416449, 0.0473427, 0.04107, 0.0129108
0.120135, 1.69574, -1.22462, -1.53701, -0.900188, -1.19571, 1.22992, -1.30266, 0.0773698, 0.0141833, 0.0263176, -0.0244679, -0.030971, -0.000566406, 0.000266221, 3.6814, 59.8041, 29.2023, 4.56573, 2.17273, 3.54648, -0.0292249, -0.00109431, -0.000414993, 0.000478471, -0.00105585, -0.00463257, -0.00183937, 0.0447842, -0.0164623, -0.0199904, -0.0491366, 0.099007, 0.0304178, 0.472228, -0.540155, 0.33755, -2.08146, -2.16755, -0.127472, 0.471837, -0.54118, 0.336921, -2.08245, -2.17254, -0.124133, 0.0309467, 0.0829853, 0.0423035, 0.0483142, 0.0425383, 0.0151254
0.121135, 1.69582, -1.2246, -1.53698, -0.900212, -1.19573, 1.22992, -1.30265, 0.0762378, 0.0117146, 0.0253779, -0.0242907, -0.0286566, -0.00479395, 0.00163767, 3.53065, 60.062, 29.3888, 4.56573, 2.19745, 3.53915, -0.0685925, -0.00113728, -0.000396243, 0.000502016, -0.00108732, -0.00464315, -0.00189411, 0.0462539, -0.0146416, -0.0225393, -0.0530285, 0.0934565, 0.0270769, 0.472259, -0.540072, 0.337592, -2.0814, -2.16759, -0.12741, 0.471887, -0.541135, 0.336933, -2.08235, -2.17266, -0.124101, 0.0314223, 0.0842969, 0.0429652, 0.046932, 0.0427112, 0.0131005
0.122135, 1.6959, -1.22457, -1.53695, -0.900244, -1.19574, 1.22992, -1.30265, 0.0794906, 0.01835, 0.0291941, -0.0260721, -0.0262265, -0.00385778, -0.000364687, 3.34419, 60.0977, 29.3888, 4.64111, 2.20386, 3.54648, -0.0292249, -0.0011715, -0.000371865, 0.00051068, -0.00113126, -0.00466722, -0.00197284, 0.0438367, -0.0173283, -0.0180942, -0.0490512, 0.0994346, 0.0353212, 0.472291, -0.539987, 0.337635, -2.08134, -2.16763, -0.127348, 0.471944, -0.541081, 0.336962, -2.08224, -2.17282, -0.124071, 0.0318998, 0.0856148, 0.0436298, 0.0501705, 0.045851, 0.0184434
0.123135, 1.69598, -1.22455, -1.53693, -0.900269, -1.19575, 1.22992, -1.30265, 0.0813539, 0.0173797, 0.025792, -0.0236821, -0.0202046, -0.00235614, -0.000479288, 3.30451, 60.2444, 29.6506, 4.56573, 2.22217, 3.53274, -0.0228162, -0.00121586, -0.000355159, 0.00052823, -0.00116786, -0.00468371, -0.00202972, 0.0448701, -0.0176934, -0.019984, -0.0476793, 0.0952296, 0.0345252, 0.472323, -0.5399, 0.337679, -2.08127, -2.16768, -0.127284, 0.471994, -0.541035, 0.336981, -2.08215, -2.17295, -0.124038, 0.0323792, 0.0869389, 0.0442973, 0.0509831, 0.0464604, 0.0170738
0.124135, 1.69606, -1.22453, -1.5369, -0.900303, -1.19576, 1.22992, -1.30265, 0.0853988, 0.018797, 0.0229793, -0.0270109, -0.0154421, -0.0020278, 0.00113943, 3.15376, 60.4309, 29.7974, 4.56573, 2.23407, 3.53915, -0.0621838, -0.00125333, -0.000331478, 0.000548187, -0.00120137, -0.00469395, -0.00210178, 0.0430146, -0.0202577, -0.021271, -0.0502364, 0.094403, 0.0389703, 0.472355, -0.539813, 0.337724, -2.08121, -2.16772, -0.127219, 0.472051, -0.540981, 0.337, -2.08203, -2.17309, -0.124007, 0.0328604, 0.0882692, 0.0449678, 0.0539074, 0.0499305, 0.0166789
0.125135, 1.69614, -1.2245, -1.53687, -0.900338, -1.19577, 1.22992, -1.30265, 0.085348, 0.0219878, 0.0266692, -0.0296033, -0.0123589, -0.00205917, -0.000460407, 3.15376, 60.538, 29.8371, 4.56573, 2.25879, 3.5538, -0.0292249, -0.00129315, -0.000310402, 0.000561749, -0.00124753, -0.00470922, -0.00217847, 0.0419745, -0.0212061, -0.0189285, -0.0470857, 0.0959269, 0.0444664, 0.472389, -0.539724, 0.337769, -2.08114, -2.16777, -0.127154, 0.472106, -0.540928, 0.337025, -2.08192, -2.17324, -0.123986, 0.0333434, 0.0896055, 0.045641, 0.0553881, 0.0519769, 0.019796
0.126135, 1.69623, -1.22448, -1.53683, -0.900377, -1.19577, 1.22992, -1.30265, 0.0903537, 0.0222895, 0.0282969, -0.0316225, -0.0100163, -0.00149635, 0.00091427, 3.07838, 60.7245, 29.9085, 4.56573, 2.28351, 3.5538, -0.0621838, -0.00132931, -0.000284593, 0.000580458, -0.00128806, -0.00471676, -0.00225975, 0.0397732, -0.0245789, -0.0191458, -0.0463026, 0.0957145, 0.0502913, 0.472422, -0.539634, 0.337815, -2.08108, -2.16781, -0.127088, 0.472166, -0.54087, 0.337046, -2.08179, -2.1734, -0.123965, 0.0338281, 0.0909478, 0.0463171, 0.0591502, 0.0556724, 0.0204904
0.127135, 1.69631, -1.22445, -1.53681, -0.900415, -1.19577, 1.22992, -1.30266, 0.0885004, 0.026218, 0.0268464, -0.0314564, -0.00776449, -0.00109025, -0.00132289, 3.11805, 60.7602, 30.095, 4.49432, 2.29541, 3.5538, -0.00999879, -0.00137067, -0.0002645, 0.000595243, -0.00132768, -0.00473416, -0.00233866, 0.0415818, -0.0229712, -0.0176828, -0.0460136, 0.0989106, 0.0494596, 0.472456, -0.539542, 0.337862, -2.08101, -2.16786, -0.12702, 0.472221, -0.540816, 0.337071, -2.08167, -2.17355, -0.123932, 0.0343145, 0.092296, 0.0469959, 0.0581565, 0.0549425, 0.0223854
0.128135, 1.6964, -1.22443, -1.53678, -0.900458, -1.19577, 1.22991, -1.30265, 0.0880827, 0.0254464, 0.0286635, -0.0344968, -0.00545747, -0.00079634, 0.00152586, 3.11805, 60.9427, 30.1703, 4.41894, 2.28992, 3.5538, -0.0750012, -0.00140634, -0.000237148, 0.000615208, -0.00136895, -0.00473812, -0.00241925, 0.0415484, -0.0235277, -0.0183522, -0.045065, 0.0974434, 0.0494377, 0.472491, -0.539449, 0.337909, -2.08094, -2.16791, -0.126952, 0.472284, -0.540754, 0.337092, -2.08154, -2.1737, -0.123914, 0.0348026, 0.09365, 0.0476774, 0.0591748, 0.0564568, 0.0223932
0.129135, 1.69649, -1.22441, -1.53675, -0.900503, -1.19577, 1.22991, -1.30265, 0.0903323, 0.0249151, 0.0279925, -0.0368221, -0.00467993, -0.00112556, 0.000780091, 3.15376, 61.1292, 30.3211, 4.34357, 2.30823, 3.56845, -0.0685925, -0.00144582, -0.000212269, 0.000638977, -0.00140496, -0.00474236, -0.00250833, 0.0412808, -0.0246934, -0.0198577, -0.047601, 0.0973483, 0.053301, 0.472526, -0.539355, 0.337957, -2.08087, -2.16796, -0.126882, 0.472344, -0.540694, 0.33711, -2.0814, -2.17386, -0.12389, 0.0352924, 0.0950097, 0.0483616, 0.0607622, 0.0583624, 0.0215947
0.130135, 1.69658, -1.22438, -1.53671, -0.900551, -1.19577, 1.22991, -1.30265, 0.0897548, 0.0252381, 0.027117, -0.0427748, -0.00339254, -0.00585813, -0.000700483, 3.15376, 61.1649, 30.3568, 4.30786, 2.30823, 3.57577, -0.0356336, -0.00148218, -0.000184415, 0.00065573, -0.00144806, -0.00475534, -0.00260385, 0.0406064, -0.0242816, -0.0216828, -0.0551305, 0.095772, 0.05833, 0.472561, -0.539259, 0.338006, -2.0808, -2.168, -0.126812, 0.472409, -0.54063, 0.337136, -2.08125, -2.17404, -0.123864, 0.0357837, 0.096375, 0.0490484, 0.060748, 0.0606557, 0.0205962
0.131135, 1.69667, -1.22435, -1.53668, -0.900598, -1.19578, 1.2299, -1.30264, 0.0921606, 0.0255165, 0.0293813, -0.0454265, -0.0031443, -0.00433453, 0.000516476, 3.15376, 61.3116, 30.3925, 4.19281, 2.32654, 3.57577, -0.0621838, -0.00152042, -0.000156715, 0.000678201, -0.00148783, -0.00476052, -0.00269082, 0.0397868, -0.026379, -0.0215631, -0.0538407, 0.0976788, 0.0618849, 0.472597, -0.539162, 0.338055, -2.08073, -2.16805, -0.126741, 0.472473, -0.540566, 0.337156, -2.08111, -2.1742, -0.123841, 0.0362765, 0.0977458, 0.0497377, 0.0633096, 0.0629096, 0.021463
0.132135, 1.69675, -1.22432, -1.53665, -0.900657, -1.19578, 1.2299, -1.30264, 0.090723, 0.0260535, 0.0271832, -0.0462081, -0.00248689, -0.00790849, -0.000401578, 3.30451, 61.3116, 30.4679, 4.1571, 2.33295, 3.57577, -0.0420422, -0.00155885, -0.000130326, 0.000697235, -0.00152469, -0.00477672, -0.00278815, 0.041544, -0.0242328, -0.0228726, -0.0592123, 0.0970023, 0.0601174, 0.472634, -0.539064, 0.338106, -2.08066, -2.1681, -0.126669, 0.472537, -0.540502, 0.337181, -2.08097, -2.17438, -0.123803, 0.0367709, 0.0991221, 0.0504295, 0.0616789, 0.0626585, 0.0206588
0.133135, 1.69685, -1.2243, -1.53662, -0.900717, -1.19578, 1.2299, -1.30264, 0.0889942, 0.0275066, 0.0293807, -0.053103, -0.00245109, -0.00563385, 0.000478334, 3.34419, 61.387, 30.5036, 4.1214, 2.35126, 3.56845, -0.0621838, -0.00159494, -9.98461e-05, 0.000719701, -0.00156002, -0.00478798, -0.00289417, 0.0413383, -0.0250355, -0.0223971, -0.0587143, 0.100891, 0.0635104, 0.472671, -0.538964, 0.338156, -2.08059, -2.16815, -0.126595, 0.472605, -0.540433, 0.337203, -2.08081, -2.17456, -0.123769, 0.0372668, 0.100504, 0.0511238, 0.0629876, 0.0642065, 0.0218284
0.134135, 1.69694, -1.22426, -1.53659, -0.90078, -1.19578, 1.2299, -1.30264, 0.088044, 0.0304886, 0.0259124, -0.0577999, -0.00192376, -0.00450176, -0.000664405, 3.37989, 61.387, 30.6186, 4.08173, 2.35675, 3.57577, -0.0356336, -0.00163179, -7.06157e-05, 0.000742125, -0.00158899, -0.0048024, -0.0029997, 0.0422675, -0.0246104, -0.0228737, -0.0628904, 0.105537, 0.0651805, 0.472708, -0.538862, 0.338208, -2.08052, -2.16821, -0.126521, 0.472672, -0.540363, 0.337225, -2.08064, -2.17474, -0.123723, 0.0377641, 0.101891, 0.0518204, 0.0630788, 0.0647312, 0.0219245
0.135135, 1.69703, -1.22424, -1.53656, -0.900847, -1.19578, 1.22989, -1.30264, 0.0848022, 0.0308715, 0.0263785, -0.0621431, -0.00182191, -0.00254331, -0.000442898, 3.53065, 61.4584, 30.6186, 4.08173, 2.36957, 3.5538, -0.0356336, -0.00167141, -4.29297e-05, 0.000765884, -0.00162479, -0.00481337, -0.00309983, 0.0439248, -0.0236606, -0.0232422, -0.0628056, 0.107992, 0.0647056, 0.472746, -0.53876, 0.33826, -2.08044, -2.16826, -0.126446, 0.472738, -0.540295, 0.337247, -2.08049, -2.17492, -0.123687, 0.0382628, 0.103283, 0.0525195, 0.0626796, 0.0645027, 0.0220343
0.136135, 1.69712, -1.22421, -1.53652, -0.900916, -1.19578, 1.22989, -1.30264, 0.0877843, 0.0320673, 0.0263103, -0.062522, -0.00217865, -0.00169123, 0.00140018, 3.57032, 61.4981, 30.6186, 4.08173, 2.39429, 3.54648, -0.0814099, -0.00170911, -1.21538e-05, 0.000788682, -0.00166307, -0.00482587, -0.00320761, 0.0439995, -0.0249474, -0.0231946, -0.0633576, 0.110956, 0.0648558, 0.472785, -0.538656, 0.338313, -2.08036, -2.16831, -0.12637, 0.472808, -0.540223, 0.337271, -2.08032, -2.17511, -0.123652, 0.0387628, 0.10468, 0.0532208, 0.0644704, 0.0658761, 0.0227297
0.137135, 1.6972, -1.22418, -1.53649, -0.900986, -1.19578, 1.22989, -1.30264, 0.088078, 0.0299306, 0.0286232, -0.0650606, -0.00169227, -0.00132771, -1.59586e-05, 3.72108, 61.5338, 30.6544, 4.04602, 2.39978, 3.54648, -0.0557752, -0.00175257, 1.27162e-05, 0.000814523, -0.00169504, -0.0048374, -0.00330874, 0.0442413, -0.0256935, -0.0244651, -0.0627671, 0.109631, 0.0689846, 0.472824, -0.538551, 0.338366, -2.08029, -2.16836, -0.126293, 0.472873, -0.540156, 0.337291, -2.08016, -2.17529, -0.123609, 0.0392642, 0.106082, 0.0539245, 0.0656785, 0.0672673, 0.0221171
0.138135, 1.6973, -1.22415, -1.53646, -0.901061, -1.19578, 1.22989, -1.30263, 0.0895678, 0.031919, 0.0343618, -0.0686275, -0.00115547, -0.0018491, 0.00417588, 3.6814, 61.5338, 30.6544, 4.08173, 2.39978, 3.56845, -0.0420422, -0.00178852, 4.61161e-05, 0.000839837, -0.00172921, -0.00484684, -0.00342666, 0.0424329, -0.0276955, -0.022381, -0.0602352, 0.111842, 0.0711706, 0.472864, -0.538444, 0.338421, -2.08021, -2.16842, -0.126215, 0.472946, -0.540079, 0.337314, -2.07998, -2.17549, -0.123572, 0.0397669, 0.107489, 0.0546303, 0.0681921, 0.0702306, 0.0250952
0.139135, 1.69738, -1.22412, -1.53643, -0.901141, -1.19578, 1.22988, -1.30263, 0.0857899, 0.0294751, 0.0382593, -0.0742917, -0.0012655, -0.00107409, 0.00415854, 3.83216, 61.5695, 30.6544, 4.1214, 2.4126, 3.56112, -0.0685925, -0.00183302, 7.05854e-05, 0.000867587, -0.00176201, -0.0048563, -0.0035286, 0.0434299, -0.0271451, -0.0234582, -0.0590658, 0.110961, 0.0731771, 0.472904, -0.538336, 0.338476, -2.08013, -2.16847, -0.126136, 0.473011, -0.54001, 0.337334, -2.07981, -2.17567, -0.12353, 0.0402709, 0.108901, 0.0553384, 0.0681445, 0.0707997, 0.0246032
0.140135, 1.69747, -1.22409, -1.53639, -0.901221, -1.19578, 1.22988, -1.30263, 0.0868218, 0.0325353, 0.0391446, -0.0745675, -0.000621656, -0.00522254, 0.00160775, 3.83216, 61.5338, 30.6186, 4.1214, 2.40619, 3.5538, -0.0292249, -0.00187425, 9.91154e-05, 0.000891769, -0.00179903, -0.00486857, -0.00364684, 0.0433325, -0.0266345, -0.0223137, -0.0621827, 0.11238, 0.0764445, 0.472944, -0.538226, 0.338531, -2.08005, -2.16853, -0.126055, 0.473081, -0.539936, 0.337359, -2.07964, -2.17587, -0.123491, 0.040776, 0.110318, 0.0560486, 0.0681815, 0.0721164, 0.0264747
0.141135, 1.69755, -1.22406, -1.53635, -0.901303, -1.19578, 1.22988, -1.30263, 0.0841761, 0.0316213, 0.0405075, -0.0755838, -0.000188591, -0.00393615, 0.00251263, 3.83216, 61.4981, 30.5433, 4.1571, 2.39978, 3.5538, -0.0621838, -0.00191701, 0.000126946, 0.000915275, -0.00184049, -0.00488185, -0.00375445, 0.0455437, -0.0253606, -0.0227658, -0.0603718, 0.112613, 0.0735103, 0.472985, -0.538115, 0.338588, -2.07997, -2.16858, -0.125974, 0.473151, -0.539862, 0.337384, -2.07947, -2.17607, -0.123454, 0.0412824, 0.111739, 0.0567608, 0.0674851, 0.0713685, 0.0264406
0.142135, 1.69764, -1.22403, -1.53631, -0.901385, -1.19578, 1.22987, -1.30263, 0.0866774, 0.0340987, 0.0406602, -0.0784536, -0.000371721, -0.00269367, 0.00109417, 3.75678, 61.4584, 30.5036, 4.1571, 2.40619, 3.54648, -0.0420422, -0.00195897, 0.000156441, 0.00093957, -0.00188153, -0.00489309, -0.00387398, 0.0449565, -0.0270262, -0.0221812, -0.0613236, 0.117121, 0.0787536, 0.473027, -0.538002, 0.338645, -2.07989, -2.16864, -0.125892, 0.473222, -0.539786, 0.33741, -2.07929, -2.17627, -0.123418, 0.0417899, 0.113165, 0.0574751, 0.069657, 0.0733597, 0.0277685
0.143135, 1.69772, -1.224, -1.53627, -0.90147, -1.19578, 1.22987, -1.30263, 0.0847532, 0.0308943, 0.0437407, -0.0784144, -1.69309e-05, -0.00673916, 0.00136187, 3.72108, 61.4981, 30.4679, 4.19281, 2.39978, 3.54648, -0.0557752, -0.00200582, 0.000181394, 0.000967732, -0.00191953, -0.0049009, -0.00398429, 0.0464964, -0.0252766, -0.0237358, -0.0624916, 0.112328, 0.077072, 0.473069, -0.537889, 0.338703, -2.07981, -2.1687, -0.125809, 0.47329, -0.539713, 0.337432, -2.07911, -2.17647, -0.123381, 0.0422985, 0.114595, 0.0581914, 0.0684195, 0.0734306, 0.0267688
0.144135, 1.69781, -1.22397, -1.53623, -0.90156, -1.19577, 1.22986, -1.30262, 0.0841025, 0.0351643, 0.0427651, -0.0847256, 0.000424665, -0.00507514, 0.000729498, 3.6457, 61.387, 30.4322, 4.23248, 2.38788, 3.54648, -0.0484509, -0.00204813, 0.000208886, 0.000989254, -0.00195817, -0.0049155, -0.0041035, 0.0462848, -0.0258567, -0.0227798, -0.0647764, 0.118611, 0.0810596, 0.473111, -0.537773, 0.338761, -2.07972, -2.16875, -0.125725, 0.473361, -0.539635, 0.337462, -2.07893, -2.17668, -0.123337, 0.0428082, 0.11603, 0.0589097, 0.0695389, 0.0749554, 0.0284447
0.145135, 1.69789, -1.22394, -1.53618, -0.901656, -1.19577, 1.22986, -1.30263, 0.0835286, 0.0285918, 0.0431529, -0.0870845, 0.000516826, -0.00354894, -0.000868183, 3.57032, 61.4227, 30.3568, 4.30786, 2.38147, 3.53915, -0.00999879, -0.00209237, 0.000236381, 0.00101522, -0.00200082, -0.00492375, -0.0042312, 0.0480299, -0.0259833, -0.027176, -0.065206, 0.113867, 0.083363, 0.473154, -0.537657, 0.338821, -2.07964, -2.16881, -0.12564, 0.473432, -0.539557, 0.337488, -2.07873, -2.17689, -0.123304, 0.0433189, 0.117469, 0.0596298, 0.0700741, 0.0753488, 0.0245504
0.146135, 1.69796, -1.2239, -1.53614, -0.901746, -1.19577, 1.22986, -1.30262, 0.0780429, 0.0315778, 0.0407861, -0.0902033, 0.00010446, -0.00164238, 0.00164358, 3.57032, 61.387, 30.3925, 4.30786, 2.38788, 3.51077, -0.0685925, -0.00214484, 0.000256433, 0.00103946, -0.00204626, -0.00493695, -0.00432792, 0.0515448, -0.0228759, -0.0267597, -0.0667459, 0.11934, 0.0756984, 0.473198, -0.537538, 0.338881, -2.07955, -2.16887, -0.125554, 0.473497, -0.539486, 0.337515, -2.07858, -2.17708, -0.123266, 0.0438306, 0.118913, 0.0603519, 0.0676379, 0.0731211, 0.0252432
0.147135, 1.69804, -1.22387, -1.53609, -0.901852, -1.19577, 1.22985, -1.30262, 0.0808969, 0.032921, 0.0407799, -0.0958918, 0.0005084, -0.000798072, -0.00056053, 3.41956, 61.387, 30.3568, 4.45465, 2.37598, 3.49612, -0.0228162, -0.00218815, 0.000285873, 0.00106466, -0.00208836, -0.00495047, -0.00446502, 0.0499668, -0.0253456, -0.0273481, -0.0694032, 0.122332, 0.0846741, 0.473242, -0.537419, 0.338941, -2.07946, -2.16893, -0.125467, 0.473571, -0.539404, 0.337544, -2.07837, -2.17731, -0.123226, 0.0443433, 0.12036, 0.0610757, 0.0705335, 0.0763273, 0.0255484
0.148135, 1.69812, -1.22384, -1.53604, -0.901953, -1.19577, 1.22985, -1.30262, 0.0826877, 0.0364802, 0.0423252, -0.100889, 0.000337397, -0.00551559, 0.000605127, 3.26881, 61.4227, 30.3925, 4.53003, 2.37598, 3.49612, -0.0484509, -0.00223744, 0.000310121, 0.00109126, -0.0021301, -0.00496257, -0.00458339, 0.0480782, -0.0262075, -0.0264296, -0.0751259, 0.125066, 0.0891235, 0.473287, -0.537298, 0.339003, -2.07938, -2.16899, -0.125378, 0.473641, -0.539326, 0.33757, -2.07819, -2.17752, -0.123184, 0.044857, 0.121812, 0.0618013, 0.0718713, 0.0795432, 0.0274434
0.149135, 1.69818, -1.22379, -1.53597, -0.902056, -1.19577, 1.22984, -1.30262, 0.0778613, 0.040169, 0.0467805, -0.100344, 0.000223779, -0.0034353, 0.000188093, 3.22913, 61.2759, 30.2814, 4.53003, 2.37598, 3.47507, -0.0420422, -0.00228754, 0.000329599, 0.00110314, -0.00218682, -0.00498633, -0.00469939, 0.0508615, -0.0238838, -0.0226947, -0.0687248, 0.130333, 0.0851903, 0.473332, -0.537175, 0.339065, -2.07929, -2.16905, -0.125289, 0.473707, -0.539251, 0.337613, -2.07801, -2.17774, -0.123146, 0.0453715, 0.123267, 0.0625286, 0.0703227, 0.0775788, 0.0315066
0.150135, 1.69825, -1.22376, -1.53593, -0.902173, -1.19576, 1.22983, -1.30262, 0.0730756, 0.0374319, 0.0477439, -0.101328, 0.00038568, -0.00817809, -0.000807515, 3.11805, 61.3513, 30.3925, 4.71649, 2.36957, 3.49612, -0.0164075, -0.00233769, 0.000350861, 0.0011319, -0.00222366, -0.00499413, -0.00482826, 0.0537703, -0.0202241, -0.0247936, -0.0724628, 0.125982, 0.0817349, 0.473377, -0.537051, 0.339128, -2.0792, -2.16911, -0.125199, 0.473775, -0.539171, 0.337639, -2.07781, -2.17796, -0.123102, 0.0458869, 0.124727, 0.0632577, 0.0672177, 0.0763233, 0.0298352
0.151135, 1.69832, -1.22372, -1.53586, -0.902283, -1.19576, 1.22982, -1.30261, 0.0696826, 0.0386903, 0.053242, -0.103741, 0.00073119, -0.00563817, -0.00103458, 3.003, 61.4227, 30.3211, 4.71649, 2.35675, 3.48239, -0.00267457, -0.00238882, 0.000372361, 0.00115213, -0.00228158, -0.00500469, -0.00495221, 0.0550126, -0.0197232, -0.0225581, -0.0663617, 0.12893, 0.0823154, 0.473423, -0.536926, 0.339191, -2.07911, -2.16918, -0.125108, 0.473844, -0.539092, 0.337674, -2.07762, -2.17818, -0.123078, 0.0464031, 0.12619, 0.0639883, 0.0673727, 0.0761979, 0.032599
0.152135, 1.69838, -1.22368, -1.5358, -0.902401, -1.19576, 1.22981, -1.30261, 0.0658367, 0.0425756, 0.0568538, -0.109566, 0.000690424, -0.0094762, 0.001015, 2.92762, 61.387, 30.3925, 4.75616, 2.35126, 3.49612, -0.0484509, -0.00244162, 0.000391124, 0.00117052, -0.00233273, -0.00502526, -0.00506773, 0.05501, -0.0181364, -0.0204686, -0.0689652, 0.132092, 0.082062, 0.47347, -0.536799, 0.339256, -2.07902, -2.16924, -0.125016, 0.473911, -0.539013, 0.337711, -2.07745, -2.1784, -0.123034, 0.0469202, 0.127658, 0.0647206, 0.0663898, 0.0772787, 0.0354476
0.153135, 1.69844, -1.22364, -1.53574, -0.902526, -1.19576, 1.2298, -1.30261, 0.0607935, 0.0396514, 0.055757, -0.115277, 0.000934636, -0.0117756, -0.00196122, 2.81654, 61.4584, 30.5036, 4.86725, 2.33844, 3.49612, 0.0229602, -0.00249499, 0.000408678, 0.00119476, -0.00237686, -0.00503605, -0.00520193, 0.0573237, -0.0154852, -0.0238362, -0.0745666, 0.129258, 0.0835126, 0.473517, -0.53667, 0.339321, -2.07892, -2.1693, -0.124922, 0.473977, -0.538933, 0.337744, -2.07724, -2.17863, -0.122992, 0.047438, 0.129128, 0.0654544, 0.0642214, 0.0768594, 0.0325876
0.154135, 1.6985, -1.22359, -1.53566, -0.902653, -1.19575, 1.22979, -1.3026, 0.0579806, 0.0392287, 0.0609511, -0.118148, 0.00551401, -0.0137505, 0.00532196, 2.66181, 61.4584, 30.5036, 4.90295, 2.33295, 3.50345, -0.0292249, -0.00254499, 0.000429662, 0.00120975, -0.00243648, -0.00505425, -0.00533008, 0.0571021, -0.0150317, -0.0231963, -0.0711317, 0.124917, 0.0788557, 0.473565, -0.53654, 0.339387, -2.07883, -2.16937, -0.124828, 0.474047, -0.53885, 0.337786, -2.07705, -2.17886, -0.122959, 0.0479565, 0.130603, 0.0661897, 0.064306, 0.078435, 0.0340044
0.155135, 1.69854, -1.22356, -1.53558, -0.902784, -1.19575, 1.22978, -1.3026, 0.0542893, 0.038433, 0.0711662, -0.119396, 0.003863, -0.0157955, 0.0029595, 2.70148, 61.6092, 30.5036, 4.90295, 2.33844, 3.52542, -0.00267457, -0.00260154, 0.00044228, 0.00122823, -0.00249822, -0.00506035, -0.00545933, 0.0579733, -0.0138946, -0.0207229, -0.0654041, 0.124793, 0.0818762, 0.473613, -0.536409, 0.339453, -2.07873, -2.16943, -0.124733, 0.474109, -0.538771, 0.337826, -2.07685, -2.17909, -0.12294, 0.0484757, 0.132081, 0.0669265, 0.0638248, 0.0786253, 0.037088
0.156135, 1.69859, -1.22351, -1.5355, -0.902914, -1.19575, 1.22977, -1.3026, 0.0525393, 0.0397864, 0.0734889, -0.126122, 0.00171527, -0.0164343, 0.0020318, 2.58643, 61.6806, 30.7297, 4.86725, 2.36957, 3.52542, 0.00373412, -0.00265941, 0.000456728, 0.00124642, -0.0025518, -0.0050822, -0.00558633, 0.0580407, -0.0138528, -0.0205265, -0.0682941, 0.128983, 0.0861777, 0.473662, -0.536276, 0.33952, -2.07864, -2.1695, -0.124636, 0.474174, -0.538692, 0.337866, -2.07666, -2.17933, -0.122895, 0.0489955, 0.133562, 0.0676647, 0.0643161, 0.0800088, 0.0380119
0.157135, 1.69864, -1.22347, -1.53541, -0.903057, -1.19575, 1.22975, -1.3026, 0.0469282, 0.041834, 0.0756425, -0.132956, 0.00628272, -0.0164141, 0.00279735, 2.51106, 61.7163, 30.8051, 4.90295, 2.36316, 3.51077, -0.0292249, -0.00271118, 0.000474323, 0.00125963, -0.00261659, -0.00509771, -0.00572311, 0.0585062, -0.0124985, -0.0197489, -0.0670567, 0.128583, 0.0872319, 0.473711, -0.536142, 0.339588, -2.07854, -2.16956, -0.124539, 0.474243, -0.538606, 0.337912, -2.07646, -2.17957, -0.122868, 0.049516, 0.135047, 0.0684043, 0.0635366, 0.0808546, 0.0394935
0.158135, 1.69868, -1.22344, -1.53532, -0.903199, -1.19575, 1.22973, -1.30261, 0.0457151, 0.041375, 0.0823836, -0.136416, 0.00474338, -0.0170093, -0.000884635, 2.43568, 61.9742, 30.8051, 4.86725, 2.36316, 3.51077, 0.0495105, -0.0027662, 0.000490066, 0.00127957, -0.00268206, -0.00509948, -0.0058728, 0.0584432, -0.0129031, -0.0186173, -0.0644546, 0.129934, 0.0943177, 0.473761, -0.536006, 0.339657, -2.07844, -2.16963, -0.124441, 0.47431, -0.53852, 0.337952, -2.07624, -2.17983, -0.122856, 0.0500371, 0.136535, 0.0691452, 0.0645071, 0.0822514, 0.041349
0.159135, 1.69872, -1.22339, -1.53522, -0.903344, -1.19575, 1.22972, -1.3026, 0.0424222, 0.0456213, 0.0862308, -0.138151, 0.0026629, -0.0169774, 0.00592388, 2.47535, 62.0496, 30.9876, 4.79187, 2.38788, 3.49612, 0.00373412, -0.00282615, 0.000499864, 0.00129112, -0.0027516, -0.00511888, -0.00599917, 0.060152, -0.0112187, -0.0153573, -0.062537, 0.136676, 0.0856861, 0.473811, -0.535869, 0.339727, -2.07834, -2.1697, -0.124341, 0.474372, -0.53844, 0.338001, -2.07605, -2.18007, -0.122828, 0.0505588, 0.138026, 0.0698875, 0.0635481, 0.0814833, 0.0451049
0.160135, 1.69876, -1.22334, -1.53512, -0.903508, -1.19575, 1.2297, -1.3026, 0.0456416, 0.0448795, 0.0894488, -0.146004, 0.00185004, -0.0174767, 0.00372199, 2.39997, 62.1606, 31.0273, 4.86725, 2.39429, 3.49612, 0.0229602, -0.0028758, 0.00051823, 0.00130419, -0.00281697, -0.00513219, -0.0061621, 0.0574364, -0.0145688, -0.0164697, -0.065373, 0.137972, 0.0980725, 0.473862, -0.53573, 0.339797, -2.07824, -2.16977, -0.124241, 0.474442, -0.538348, 0.33805, -2.07581, -2.18034, -0.122803, 0.0510809, 0.13952, 0.0706309, 0.0672655, 0.0859811, 0.0450562
0.161135, 1.69879, -1.2233, -1.53501, -0.903665, -1.19574, 1.22968, -1.3026, 0.0433159, 0.0455984, 0.0933488, -0.151673, 0.000789292, -0.0227939, 0.00114952, 2.39997, 62.3431, 31.1384, 4.79187, 2.4126, 3.50345, 0.0687366, -0.00293448, 0.000528369, 0.00131819, -0.00288594, -0.00514268, -0.00630617, 0.0571252, -0.0135101, -0.0163296, -0.0699261, 0.138141, 0.103646, 0.473913, -0.53559, 0.339868, -2.07814, -2.16984, -0.12414, 0.474506, -0.538263, 0.338098, -2.0756, -2.18059, -0.122783, 0.0516036, 0.141018, 0.0713756, 0.0667273, 0.0877166, 0.0460231
0.162135, 1.69882, -1.22325, -1.5349, -0.903836, -1.19574, 1.22966, -1.3026, 0.038582, 0.0482343, 0.096861, -0.155589, 0.000939128, -0.0212735, 0.00344655, 2.39997, 62.3074, 31.2137, 4.82758, 2.40619, 3.48971, 0.00373412, -0.00298859, 0.000542033, 0.00132595, -0.0029584, -0.00516505, -0.00645447, 0.0587701, -0.0119947, -0.0142333, -0.0669401, 0.142375, 0.100632, 0.473965, -0.535448, 0.33994, -2.07804, -2.16991, -0.124037, 0.474573, -0.538172, 0.338153, -2.07539, -2.18086, -0.122754, 0.0521267, 0.142518, 0.0721215, 0.0658906, 0.0872054, 0.0486381
0.163135, 1.69882, -1.22325, -1.5349, -0.903836, -1.19574, 1.22966, -1.3026, 0.038582, 0.0482343, 0.096861, -0.155589, 0.000939128, -0.0212735, 0.00344655, 2.39997, 62.3074, 31.2137, 4.82758, 2.40619, 3.48971, 0.00373412, -0.00313907, 0.000485456, 0.00137793, -0.00303087, -0.00513503, -0.00637826, 0.0603483, -0.0114246, -0.0147645, -0.0674797, 0.143361, 0.0994709, 0.474018, -0.535305, 0.340012, -2.07793, -2.16998, -0.123934, 0.474573, -0.538172, 0.338153, -2.07539, -2.18086, -0.122754, 0.0526502, 0.144021, 0.0728685, 0.0658906, 0.0872054, 0.0486381
0.164135, 1.69882, -1.22325, -1.5349, -0.903836, -1.19574, 1.22966, -1.3026, 0.038582, 0.0482343, 0.096861, -0.155589, 0.000939128, -0.0212735, 0.00344655, 2.39997, 62.3074, 31.2137, 4.82758, 2.40619, 3.48971, 0.00373412, -0.00329112, 0.000428294, 0.00143046, -0.00310408, -0.00510474, -0.0063013, 0.0619294, -0.0108539, -0.0152966, -0.0680187, 0.144347, 0.0983091, 0.474071, -0.53516, 0.340086, -2.07783, -2.17005, -0.123829, 0.474573, -0.538172, 0.338153, -2.07539, -2.18086, -0.122754, 0.0531742, 0.145527, 0.0736165, 0.0658906, 0.0872054, 0.0486381
0.165135, 1.69891, -1.22311, -1.53455, -0.904376, -1.19574, 1.22959, -1.3026, 0.0277493, 0.05025, 0.103733, -0.176355, -0.00136189, -0.0199707, 0.00101294, 2.39997, 62.4899, 31.547, 4.64111, 2.48584, 3.49612, 0.0165515, -0.00315101, 0.000584067, 0.00136305, -0.0031665, -0.00520639, -0.00694867, 0.0610782, -0.00990999, -0.0144093, -0.070598, 0.151062, 0.109548, 0.474124, -0.535014, 0.34016, -2.07772, -2.17012, -0.123723, 0.474779, -0.537891, 0.33831, -2.07468, -2.18171, -0.122682, 0.0536985, 0.147036, 0.0743657, 0.0654776, 0.0893766, 0.0504269
0.166135, 1.69892, -1.22307, -1.53442, -0.904551, -1.19574, 1.22956, -1.3026, 0.0266281, 0.0480163, 0.108849, -0.176481, -0.0017679, -0.0239472, -0.000933844, 2.55073, 62.601, 31.5867, 4.41894, 2.51056, 3.48239, 0.0623279, -0.00321299, 0.000590501, 0.00137388, -0.00325022, -0.00521165, -0.00710605, 0.0619292, -0.00887329, -0.0147454, -0.070416, 0.147878, 0.111693, 0.474178, -0.534866, 0.340234, -2.07762, -2.17019, -0.123617, 0.474842, -0.537802, 0.338364, -2.07445, -2.18198, -0.122679, 0.0542231, 0.148547, 0.0751158, 0.0649918, 0.0900514, 0.0507505
0.167135, 1.69895, -1.22302, -1.5343, -0.904745, -1.19574, 1.22954, -1.3026, 0.0263765, 0.049868, 0.111594, -0.183795, -0.00228982, -0.0270726, -0.00103257, 2.55073, 62.5653, 31.6581, 4.30786, 2.54169, 3.47507, 0.0751453, -0.00326722, 0.000604466, 0.00138348, -0.00332398, -0.00522925, -0.0072818, 0.0604643, -0.00956702, -0.0144934, -0.0748204, 0.150122, 0.117886, 0.474232, -0.534717, 0.34031, -2.07751, -2.17026, -0.123509, 0.474912, -0.537705, 0.338422, -2.0742, -2.18228, -0.122654, 0.054748, 0.150061, 0.0758669, 0.0661639, 0.0930056, 0.0519529
0.168135, 1.69897, -1.22298, -1.53416, -0.904952, -1.19574, 1.22951, -1.30259, 0.0285093, 0.0442686, 0.121892, -0.187668, -0.00217347, -0.0291923, 0.00224237, 2.58643, 62.6764, 31.6581, 4.26819, 2.56, 3.46042, -0.00267457, -0.0033185, 0.000621742, 0.00139974, -0.00339871, -0.0052323, -0.00746208, 0.0580693, -0.0125367, -0.0154696, -0.0707781, 0.144192, 0.124038, 0.474287, -0.534566, 0.340386, -2.0774, -2.17034, -0.123401, 0.474986, -0.537601, 0.338474, -2.07394, -2.18257, -0.122645, 0.0552732, 0.151577, 0.0766189, 0.0695208, 0.0971727, 0.0520089
0.169135, 1.69899, -1.22293, -1.53402, -0.905152, -1.19574, 1.22948, -1.3026, 0.0236911, 0.0444445, 0.125439, -0.190276, -0.00301924, -0.0303718, 0.0010566, 2.62611, 62.601, 31.6977, 4.08173, 2.60303, 3.43204, 0.0101428, -0.00337481, 0.000633121, 0.00140668, -0.00347531, -0.00525239, -0.00763903, 0.0603094, -0.0101236, -0.0148607, -0.0701559, 0.145367, 0.122997, 0.474343, -0.534414, 0.340463, -2.07729, -2.17041, -0.123291, 0.475055, -0.537503, 0.338535, -2.07369, -2.18288, -0.122618, 0.0557986, 0.153096, 0.0773717, 0.0677565, 0.096276, 0.0531022
0.170135, 1.699, -1.22288, -1.53389, -0.905364, -1.19574, 1.22946, -1.3026, 0.0176158, 0.0458438, 0.12842, -0.196131, -0.00243606, -0.0314794, -0.000963719, 2.77686, 62.601, 31.8445, 3.93494, 2.61493, 3.41006, 0.0559192, -0.00343347, 0.00064219, 0.00142141, -0.00354924, -0.00526011, -0.00782163, 0.0618709, -0.00777733, -0.0141161, -0.0705575, 0.146925, 0.124575, 0.474399, -0.53426, 0.340541, -2.07718, -2.17049, -0.12318, 0.475122, -0.537404, 0.338589, -2.07343, -2.18318, -0.122601, 0.0563242, 0.154618, 0.0781255, 0.0660374, 0.0960338, 0.0544325
0.171135, 1.69901, -1.22285, -1.53374, -0.905585, -1.19574, 1.22943, -1.30259, 0.0142217, 0.0430029, 0.13846, -0.204167, -0.00276374, -0.0329044, 0.00154814, 2.89191, 62.6407, 31.8088, 3.78418, 2.64606, 3.40365, -0.00267457, -0.00348789, 0.000656171, 0.00143569, -0.0036304, -0.00526468, -0.00800866, 0.0606594, -0.00855492, -0.0137998, -0.0672551, 0.144695, 0.129347, 0.474456, -0.534104, 0.340619, -2.07707, -2.17056, -0.123068, 0.475195, -0.5373, 0.338644, -2.07316, -2.18349, -0.122595, 0.05685, 0.156141, 0.07888, 0.0673069, 0.0987418, 0.05566
0.172135, 1.69902, -1.2228, -1.53359, -0.905815, -1.19574, 1.2294, -1.3026, 0.0137233, 0.0436, 0.143183, -0.211791, -0.00318894, -0.0286478, -0.00112269, 3.04267, 62.5653, 31.8842, 3.7088, 2.68268, 3.38168, 0.0559192, -0.0035414, 0.000670195, 0.00144492, -0.00371192, -0.00528038, -0.00821298, 0.0596603, -0.0109002, -0.0129482, -0.0636755, 0.149158, 0.139156, 0.474513, -0.533947, 0.340699, -2.07696, -2.17064, -0.122956, 0.475268, -0.537194, 0.338706, -2.07288, -2.18382, -0.122578, 0.0573759, 0.157667, 0.0796352, 0.0701719, 0.101235, 0.0573307
0.173135, 1.69902, -1.22275, -1.53343, -0.906049, -1.19574, 1.22937, -1.3026, 0.0113128, 0.0419388, 0.150969, -0.216232, -0.00323753, -0.0304564, 0.00048376, 3.15376, 62.5653, 31.9199, 3.59772, 2.71289, 3.36703, 0.0229602, -0.00359273, 0.000685301, 0.00145516, -0.0037928, -0.00528926, -0.00841545, 0.0593479, -0.0109714, -0.0123311, -0.0608997, 0.147535, 0.141646, 0.47457, -0.533789, 0.340779, -2.07684, -2.17071, -0.122842, 0.475342, -0.537084, 0.338767, -2.0726, -2.18415, -0.122567, 0.0579019, 0.159194, 0.0803912, 0.0707854, 0.102981, 0.0587426
0.174135, 1.69903, -1.2227, -1.53327, -0.906279, -1.19574, 1.22934, -1.30259, 0.00696306, 0.0433883, 0.155741, -0.222129, -0.00374648, -0.0321051, 0.00178921, 3.37989, 62.4542, 31.9953, 3.44696, 2.75592, 3.36062, -0.0164075, -0.00365058, 0.000694434, 0.00146117, -0.00388137, -0.00530425, -0.00860382, 0.0599111, -0.00967779, -0.0110578, -0.0609791, 0.149734, 0.142131, 0.474629, -0.533629, 0.340859, -2.07673, -2.17079, -0.122727, 0.475412, -0.536979, 0.338833, -2.07234, -2.18447, -0.122555, 0.0584279, 0.160724, 0.0811479, 0.0700994, 0.103702, 0.0607157
0.175135, 1.69903, -1.22266, -1.53309, -0.906525, -1.19574, 1.22931, -1.3026, 0.00571901, 0.0395388, 0.162626, -0.225047, -0.00340901, -0.0284721, -0.00100476, 3.53065, 62.4185, 31.9199, 3.37158, 2.78064, 3.34598, 0.0431018, -0.00369962, 0.000712472, 0.00146852, -0.00397802, -0.00530878, -0.00883037, 0.060412, -0.010989, -0.0114029, -0.0537146, 0.148253, 0.148589, 0.474687, -0.533468, 0.340941, -2.07661, -2.17087, -0.122611, 0.475491, -0.536864, 0.338899, -2.07203, -2.18483, -0.122566, 0.0589541, 0.162256, 0.0819052, 0.0719452, 0.104853, 0.0610117
0.176135, 1.69903, -1.22261, -1.53293, -0.90678, -1.19575, 1.22928, -1.30259, 0.00468851, 0.0445033, 0.161181, -0.237624, -0.00362588, -0.0308605, 0.00649198, 3.6814, 62.3074, 31.9953, 3.33588, 2.81726, 3.34598, -0.0228162, -0.00375243, 0.000726904, 0.00147896, -0.00405786, -0.00532528, -0.00903539, 0.0583323, -0.0117799, -0.0114452, -0.0631113, 0.154461, 0.149049, 0.474746, -0.533304, 0.341023, -2.07649, -2.17095, -0.122494, 0.475566, -0.536751, 0.338963, -2.07174, -2.18517, -0.122542, 0.0594802, 0.16379, 0.0826631, 0.0731775, 0.108485, 0.0620203
0.177135, 1.69903, -1.22257, -1.53275, -0.907033, -1.19574, 1.22925, -1.30259, 0.0040129, 0.0431673, 0.161962, -0.242043, -0.0035678, -0.0268097, 0.00472459, 3.83216, 62.2717, 31.9953, 3.22479, 2.84839, 3.31759, -0.0228162, -0.00380394, 0.000742966, 0.00148738, -0.00415128, -0.0053322, -0.00925862, 0.0592712, -0.012683, -0.0126957, -0.0615401, 0.156456, 0.153279, 0.474806, -0.53314, 0.341106, -2.07637, -2.17103, -0.122376, 0.475644, -0.536635, 0.339029, -2.07144, -2.18552, -0.122545, 0.0600063, 0.165325, 0.0834216, 0.0745966, 0.109326, 0.0613699
0.178135, 1.69903, -1.22252, -1.53257, -0.9073, -1.19574, 1.22921, -1.3026, 0.00351957, 0.0449537, 0.166665, -0.248644, -0.00237677, -0.0298627, 0.00198912, 3.98292, 62.1249, 31.9556, 3.14941, 2.84839, 3.324, 0.0165515, -0.00385177, 0.000760172, 0.00149274, -0.00423917, -0.00534558, -0.00949538, 0.057402, -0.0135995, -0.0116661, -0.0630238, 0.157124, 0.162763, 0.474866, -0.532974, 0.34119, -2.07626, -2.17111, -0.122257, 0.475723, -0.536515, 0.3391, -2.07112, -2.1859, -0.122535, 0.0605324, 0.166863, 0.0841806, 0.0760067, 0.112597, 0.0634011
0.179135, 1.69903, -1.22247, -1.5324, -0.907573, -1.19574, 1.22917, -1.30259, -0.000936198, 0.0476172, 0.169217, -0.254321, -0.00226136, -0.0313244, 0.00348195, 4.17335, 62.0496, 31.9556, 3.07404, 2.8667, 3.31027, -0.0356336, -0.00390133, 0.000776416, 0.00150211, -0.004326, -0.00535393, -0.00972012, 0.0583262, -0.0118833, -0.0104236, -0.0643795, 0.160245, 0.161883, 0.474927, -0.532806, 0.341275, -2.07613, -2.17119, -0.122137, 0.475802, -0.536394, 0.339167, -2.07081, -2.18625, -0.122526, 0.0610583, 0.168402, 0.0849401, 0.0749133, 0.112955, 0.0653064
0.180135, 1.69903, -1.22243, -1.53221, -0.907848, -1.19574, 1.22914, -1.30259, 0.000719085, 0.0396453, 0.173817, -0.261224, -0.00174394, -0.0332289, 0.000318482, 4.2884, 62.1249, 31.9556, 2.96295, 2.87311, 3.31759, 0.0229602, -0.00394947, 0.00079664, 0.0015161, -0.00441736, -0.00535235, -0.00996831, 0.0566249, -0.0143841, -0.0151769, -0.0665093, 0.152417, 0.1741, 0.474989, -0.532637, 0.34136, -2.07601, -2.17127, -0.122016, 0.475885, -0.536269, 0.33923, -2.07047, -2.18663, -0.122535, 0.0615842, 0.169942, 0.0857, 0.077672, 0.117014, 0.0615466
0.181135, 1.69903, -1.22238, -1.53201, -0.908127, -1.19574, 1.2291, -1.30259, 0.000937766, 0.0423902, 0.182463, -0.26507, -0.00184006, -0.0339072, -0.000136907, 4.43916, 61.9742, 31.8445, 2.81219, 2.89142, 3.30295, 0.0357776, -0.00399496, 0.00081703, 0.00151658, -0.00452232, -0.00536494, -0.010215, 0.0548362, -0.0160285, -0.0116172, -0.0617834, 0.155798, 0.181044, 0.47505, -0.532466, 0.341446, -2.07589, -2.17135, -0.121894, 0.47597, -0.536142, 0.339308, -2.07014, -2.18702, -0.122543, 0.0621099, 0.171484, 0.0864603, 0.0799163, 0.119862, 0.0660399
0.182135, 1.69902, -1.22234, -1.53181, -0.908422, -1.19573, 1.22907, -1.30258, -0.00371769, 0.0418057, 0.182929, -0.27493, 0.00300242, -0.0292087, 0.00288506, 4.66529, 62.0496, 31.8842, 2.81219, 2.90332, 3.27456, -0.0420422, -0.00404273, 0.000835425, 0.00153065, -0.00461197, -0.00536304, -0.0104574, 0.0550415, -0.016485, -0.0130337, -0.0596245, 0.155344, 0.182766, 0.475113, -0.532294, 0.341533, -2.07577, -2.17143, -0.121771, 0.476052, -0.536014, 0.339374, -2.06981, -2.1874, -0.122547, 0.0626355, 0.173028, 0.087221, 0.0808511, 0.121441, 0.0653549
0.183135, 1.69901, -1.2223, -1.5316, -0.908724, -1.19573, 1.22903, -1.30258, -0.00613002, 0.0414861, 0.188257, -0.282928, 0.00215379, -0.0353686, 0.000535899, 4.85175, 62.0139, 31.8445, 2.73682, 2.90973, 3.25992, -0.00267457, -0.00408554, 0.000857831, 0.00153638, -0.00471499, -0.0053665, -0.0107276, 0.0537789, -0.0159818, -0.0133786, -0.0647508, 0.154127, 0.190842, 0.475176, -0.53212, 0.34162, -2.07564, -2.17152, -0.121646, 0.476139, -0.535881, 0.339448, -2.06945, -2.18781, -0.122562, 0.0631608, 0.174573, 0.087982, 0.0808105, 0.124261, 0.0659865
0.184135, 1.69901, -1.22225, -1.53139, -0.909025, -1.19572, 1.22899, -1.30258, -0.00624534, 0.0445861, 0.193237, -0.296052, 0.00149065, -0.0399175, 0.00186827, 4.9668, 61.9742, 31.7731, 2.62573, 2.91614, 3.23886, -0.0420422, -0.00412796, 0.000882439, 0.0015421, -0.00482126, -0.0053702, -0.01099, 0.0498252, -0.0180756, -0.012526, -0.0711882, 0.157531, 0.201823, 0.475239, -0.531945, 0.341709, -2.07552, -2.1716, -0.121521, 0.476229, -0.535745, 0.339524, -2.0691, -2.18821, -0.122579, 0.0636859, 0.176119, 0.0887433, 0.0832991, 0.129684, 0.0681218
0.185135, 1.69899, -1.22221, -1.53117, -0.909343, -1.19572, 1.22895, -1.30257, -0.00905382, 0.0442327, 0.196925, -0.297992, 0.00499248, -0.0386183, 0.00152258, 5.19294, 61.9028, 31.8088, 2.62573, 2.94086, 3.21689, -0.0484509, -0.00417058, 0.000904164, 0.00154902, -0.00492056, -0.00537448, -0.011263, 0.0507889, -0.0175755, -0.0119578, -0.0663072, 0.155881, 0.202897, 0.475303, -0.531768, 0.341798, -2.07539, -2.17169, -0.121395, 0.476316, -0.535608, 0.339599, -2.06873, -2.18863, -0.122587, 0.0642108, 0.177667, 0.0895048, 0.0833925, 0.130171, 0.0693149
0.186135, 1.69898, -1.22216, -1.53095, -0.909664, -1.19571, 1.22892, -1.30258, -0.0101908, 0.04799, 0.203062, -0.300282, 0.0077716, -0.0377306, -0.00065059, 5.38337, 61.7917, 31.7335, 2.55035, 2.96466, 3.19583, -0.00267457, -0.00421322, 0.00092663, 0.00155342, -0.00502599, -0.00538145, -0.0115423, 0.0500872, -0.0182588, -0.0082806, -0.0600751, 0.158668, 0.208607, 0.475368, -0.53159, 0.341888, -2.07526, -2.17177, -0.121268, 0.476405, -0.53547, 0.339677, -2.06836, -2.18905, -0.1226, 0.0647353, 0.179216, 0.0902666, 0.0847275, 0.131891, 0.073792
