alisrour97/Franka_experiments/Real_Robot_scripts/servo-franka/Data_5_ki/log_dyn_PI_k_ki_8.csv
Time,q1,q2,q3,q4,q5,q6,q7,dq1,dq2,dq3,dq4,dq5,dq6,dq7,t1,t2,t3,t4,t5,t6,t7,ex1,ex2,ex3,ex4,ex5,ex6,ev1,ev2,ev3,ev4,ev5,ev6,xd,yd,zd,uxd,uyd,uzd,x,y,z,ux,uy,uz,vxd,vyd,vzd,vx,vy,vz
4.88281e-07, 1.69131, -1.22668, -1.5385, -0.900169, -1.19208, 1.22815, -1.3027, -0.00104268, -0.00150248, 0.00122817, 0.000596218, 0.00520801, 0.0010059, 0.00118315, -0.508049, 61.0181, 29.0912, 6.95801, 2.13611, 3.45309, -0.0292249, 0.000727903, -0.00173941, 0.000957701, 0.00123395, 0.000560453, 0.000177387, -0.000400195, -0.000295875, -0.000221214, 0.0046947, -0.00542667, -0.000369961, 0.471008, -0.543389, 0.335894, -2.08385, -2.16584, -0.129887, 0.469212, -0.542593, 0.335117, -2.0831, -2.16486, -0.129056, 0, 0, 0, 0.000273199, 0.000441239, -0.000165239
0.0120774, 1.69131, -1.22669, -1.5385, -0.900178, -1.19203, 1.22816, -1.3027, 0.00143176, -0.00147756, -0.00118807, -0.00142218, 0.00928534, 0.000154385, 0.00129442, -0.508049, 60.9824, 29.1666, 6.95801, 2.08118, 3.45309, -0.101552, 0.00073859, -0.00173062, 0.000967398, 0.00121595, 0.000610169, 0.000154756, -0.00248244, -0.00200914, -0.00155146, 0.00239568, -0.00874596, 0.00392444, 0.471008, -0.543389, 0.335894, -2.08385, -2.16584, -0.129887, 0.469218, -0.542582, 0.335105, -2.08306, -2.16486, -0.12914, 3.52292e-06, 9.08712e-06, 4.70091e-06, 0.00186531, 0.00278083, -0.00120253
0.0130774, 1.69131, -1.22669, -1.5385, -0.900178, -1.19203, 1.22816, -1.3027, 0.00143176, -0.00147756, -0.00118807, -0.00142218, 0.00928534, 0.000154385, 0.00129442, -0.508049, 60.9824, 29.1666, 6.95801, 2.08118, 3.45309, -0.101552, 0.000738567, -0.00173063, 0.000967406, 0.00121593, 0.000610174, 0.000154768, -0.0024538, -0.00199794, -0.00156154, 0.00238317, -0.00872682, 0.00390072, 0.471008, -0.543389, 0.335894, -2.08385, -2.16584, -0.129887, 0.469218, -0.542582, 0.335105, -2.08306, -2.16486, -0.12914, 1.40551e-05, 3.62649e-05, 1.87583e-05, 0.00186531, 0.00278083, -0.00120253
0.0140774, 1.69131, -1.22669, -1.5385, -0.900178, -1.19203, 1.22816, -1.3027, 0.00143176, -0.00147756, -0.00118807, -0.00142218, 0.00928534, 0.000154385, 0.00129442, -0.508049, 60.9824, 29.1666, 6.95801, 2.08118, 3.45309, -0.101552, 0.000738507, -0.00173065, 0.000967427, 0.00121591, 0.000610188, 0.000154801, -0.00240624, -0.00197933, -0.00157828, 0.00236242, -0.00869503, 0.00386133, 0.471008, -0.543389, 0.335894, -2.08385, -2.16584, -0.129887, 0.469218, -0.542582, 0.335105, -2.08306, -2.16486, -0.12914, 3.15416e-05, 8.14084e-05, 4.21042e-05, 0.00186531, 0.00278083, -0.00120253
0.0150774, 1.69131, -1.22669, -1.5385, -0.900178, -1.19203, 1.22816, -1.3027, 0.00143176, -0.00147756, -0.00118807, -0.00142218, 0.00928534, 0.000154385, 0.00129442, -0.508049, 60.9824, 29.1666, 6.95801, 2.08118, 3.45309, -0.101552, 0.00073839, -0.0017307, 0.000967468, 0.00121585, 0.000610217, 0.000154865, -0.00233987, -0.00195338, -0.00160162, 0.00233349, -0.00865069, 0.00380641, 0.471008, -0.543389, 0.335894, -2.08385, -2.16584, -0.129887, 0.469218, -0.542582, 0.335105, -2.08306, -2.16486, -0.12914, 5.59279e-05, 0.000144393, 7.4671e-05, 0.00186531, 0.00278083, -0.00120253
0.0160774, 1.69131, -1.22669, -1.5385, -0.900178, -1.19203, 1.22816, -1.3027, 0.00143176, -0.00147756, -0.00118807, -0.00142218, 0.00928534, 0.000154385, 0.00129442, -0.508049, 60.9824, 29.1666, 6.95801, 2.08118, 3.45309, -0.101552, 0.000738197, -0.00173077, 0.000967536, 0.00121575, 0.000610263, 0.00015497, -0.00225484, -0.00192015, -0.00163152, 0.00229647, -0.00859389, 0.00373608, 0.471008, -0.543389, 0.335894, -2.08385, -2.16584, -0.129886, 0.469218, -0.542582, 0.335105, -2.08306, -2.16486, -0.12914, 8.71593e-05, 0.000225094, 0.000116391, 0.00186531, 0.00278083, -0.00120253
0.0170774, 1.69131, -1.22669, -1.5385, -0.900178, -1.19203, 1.22816, -1.3027, 0.00143176, -0.00147756, -0.00118807, -0.00142218, 0.00928534, 0.000154385, 0.00129442, -0.508049, 60.9824, 29.1666, 6.95801, 2.08118, 3.45309, -0.101552, 0.00073791, -0.00173088, 0.000967638, 0.00121561, 0.000610331, 0.000155127, -0.00215128, -0.00187968, -0.00166793, 0.00225143, -0.00852473, 0.00365046, 0.471008, -0.543389, 0.335894, -2.08385, -2.16584, -0.129886, 0.469218, -0.542582, 0.335105, -2.08306, -2.16486, -0.12914, 0.000125182, 0.000323387, 0.000167197, 0.00186531, 0.00278083, -0.00120253
0.0180774, 1.69131, -1.22669, -1.5385, -0.900178, -1.19203, 1.22816, -1.3027, 0.00143176, -0.00147756, -0.00118807, -0.00142218, 0.00928534, 0.000154385, 0.00129442, -0.508049, 60.9824, 29.1666, 6.95801, 2.08118, 3.45309, -0.101552, 0.00073751, -0.00173104, 0.000967779, 0.00121542, 0.000610427, 0.000155345, -0.00202931, -0.00183205, -0.0017108, 0.00219845, -0.00844331, 0.00354968, 0.471008, -0.543388, 0.335894, -2.08385, -2.16584, -0.129886, 0.469218, -0.542582, 0.335105, -2.08306, -2.16486, -0.12914, 0.00016994, 0.000439148, 0.000227022, 0.00186531, 0.00278083, -0.00120253
0.0190774, 1.69131, -1.22669, -1.5385, -0.900178, -1.19203, 1.22816, -1.3027, 0.00143176, -0.00147756, -0.00118807, -0.00142218, 0.00928534, 0.000154385, 0.00129442, -0.508049, 60.9824, 29.1666, 6.95801, 2.08118, 3.45309, -0.101552, 0.00073698, -0.00173125, 0.000967966, 0.00121516, 0.000610553, 0.000155634, -0.00188907, -0.0017773, -0.00176008, 0.0021376, -0.00834971, 0.00343386, 0.471009, -0.543388, 0.335895, -2.08385, -2.16584, -0.129886, 0.469218, -0.542582, 0.335105, -2.08306, -2.16486, -0.12914, 0.000221382, 0.000572255, 0.000295798, 0.00186531, 0.00278083, -0.00120253
0.0200774, 1.69131, -1.22669, -1.5385, -0.900178, -1.19203, 1.22816, -1.3027, 0.00143176, -0.00147756, -0.00118807, -0.00142218, 0.00928534, 0.000154385, 0.00129442, -0.508049, 60.9824, 29.1666, 6.95801, 2.08118, 3.45309, -0.101552, 0.0007363, -0.00173151, 0.000968206, 0.00121482, 0.000610715, 0.000156004, -0.00173068, -0.0017155, -0.00181572, 0.00206895, -0.00824403, 0.00330313, 0.471009, -0.543387, 0.335895, -2.08384, -2.16584, -0.129885, 0.469218, -0.542582, 0.335105, -2.08306, -2.16486, -0.12914, 0.000279451, 0.000722584, 0.000373459, 0.00186531, 0.00278083, -0.00120253
0.0210774, 1.69132, -1.22669, -1.5385, -0.900178, -1.19197, 1.22816, -1.30271, 0.00355138, 0.00435525, 0.000772655, 0.000399172, 0.0082621, 0.000428423, -0.000494693, -0.543754, 60.9824, 29.0912, 6.91833, 1.98871, 3.43204, -0.0420422, 0.000751009, -0.00171856, 0.000969058, 0.00117809, 0.000662081, 0.000119665, -0.00268284, -0.00260343, 0.0024079, 0.00449059, -0.00156372, 0.00594154, 0.471009, -0.543386, 0.335895, -2.08384, -2.16584, -0.129884, 0.469231, -0.542566, 0.335107, -2.08301, -2.16488, -0.129236, 0.000344096, 0.000890012, 0.000459939, 0.00293514, 0.0032745, 0.00317547
0.0220774, 1.69132, -1.22669, -1.5385, -0.900176, -1.19196, 1.22817, -1.30271, 0.00440519, 0.00587086, 0.00135014, 0.000266703, 0.0112104, 0.00133687, -9.24365e-05, -0.619133, 60.8713, 29.0555, 6.91833, 1.97681, 3.40365, -0.0484509, 0.000754229, -0.00171457, 0.000963188, 0.00116774, 0.000658344, 0.000115628, -0.00365907, -0.00360876, 0.00345082, 0.00700497, -0.00188795, 0.00757766, 0.47101, -0.543385, 0.335896, -2.08384, -2.16584, -0.129884, 0.469236, -0.542563, 0.335114, -2.08301, -2.16489, -0.129243, 0.000415261, 0.00107442, 0.00055517, 0.00401309, 0.00430329, 0.00442171
0.0230774, 1.69133, -1.22669, -1.5385, -0.900177, -1.19196, 1.22817, -1.3027, 0.00314257, -0.0026813, 0.000249338, -0.00210074, 0.0103825, 0.00170512, 0.00214242, -0.619133, 60.7602, 28.9405, 6.88263, 1.92096, 3.38168, -0.10796, 0.000754394, -0.00171304, 0.000969423, 0.00116726, 0.000671905, 0.000115624, -0.00234968, -0.00328157, -0.00226549, 0.00424312, -0.00916628, 0.00533904, 0.47101, -0.543384, 0.335896, -2.08384, -2.16585, -0.129883, 0.469237, -0.54256, 0.335108, -2.08301, -2.16489, -0.129256, 0.000492895, 0.00127568, 0.000659086, 0.00360442, 0.00407831, -0.00131214
0.0240774, 1.69133, -1.22669, -1.5385, -0.90018, -1.19196, 1.22817, -1.3027, 0.00224938, -0.00145106, -0.00202111, -0.00382149, 0.00544273, 0.0027305, 0.000444938, -0.619133, 60.3198, 28.754, 6.84296, 1.84772, 3.33865, -0.0814099, 0.000752214, -0.00171379, 0.000970389, 0.00116752, 0.000669066, 0.000116608, -0.000792935, -0.00228464, -0.00253036, 0.000172458, -0.00296661, 0.00470026, 0.471011, -0.543383, 0.335897, -2.08384, -2.16585, -0.129882, 0.469237, -0.542561, 0.335107, -2.08301, -2.16489, -0.129252, 0.000576942, 0.00149367, 0.000771622, 0.00273893, 0.00275941, -0.00167271
0.0250774, 1.69133, -1.2267, -1.53851, -0.90018, -1.19196, 1.22817, -1.3027, 0.00643643, -0.000313594, -0.00151658, -0.00357404, 0.00195619, 0.00209164, -0.000652811, -0.694511, 59.8398, 28.4565, 6.73187, 1.76807, 3.33133, -0.0557752, 0.000752724, -0.00171072, 0.000977909, 0.00117638, 0.000675686, 0.000112308, -0.00191969, -0.00404084, -0.00201235, -0.00211126, 0.000943988, 0.00856545, 0.471011, -0.543381, 0.335898, -2.08384, -2.16585, -0.129881, 0.46924, -0.542558, 0.335101, -2.08299, -2.16489, -0.129248, 0.00066735, 0.00172827, 0.000892711, 0.00456167, 0.00409851, -0.000918186
0.0260774, 1.69135, -1.22671, -1.53852, -0.900181, -1.19196, 1.22817, -1.3027, 0.0104981, -0.00194053, -0.00621633, -0.00349319, 0.00347546, 0.00112319, -0.00165591, -0.809562, 59.4351, 28.2343, 6.62079, 1.70032, 3.33865, -0.0228162, 0.000752796, -0.00170697, 0.000989549, 0.00119042, 0.000684721, 0.000104092, -0.00270398, -0.0053951, -0.0050145, -0.00719563, -0.00180394, 0.0115667, 0.471012, -0.543379, 0.335899, -2.08384, -2.16585, -0.129879, 0.469245, -0.542554, 0.33509, -2.08297, -2.16489, -0.129241, 0.000764066, 0.00197936, 0.00102229, 0.00587447, 0.00564137, -0.0036721
0.0270774, 1.69135, -1.22673, -1.53852, -0.900186, -1.19197, 1.22817, -1.3027, 0.00880324, -0.00576175, -0.00711817, -0.00127685, -0.00190581, -6.49879e-05, -0.00110394, -0.734184, 59.1415, 28.0121, 6.54541, 1.68201, 3.36062, -0.0228162, 0.000746778, -0.0017082, 0.00100277, 0.00120005, 0.000692199, 0.000108164, 0.000476784, -0.00292664, -0.00738478, -0.0106462, -0.00179342, 0.00499962, 0.471013, -0.543377, 0.3359, -2.08384, -2.16585, -0.129878, 0.469244, -0.542556, 0.335077, -2.08296, -2.16487, -0.129236, 0.000867038, 0.00224682, 0.00116028, 0.00354034, 0.00303248, -0.00629383
0.0280774, 1.69135, -1.22674, -1.53854, -0.900195, -1.19198, 1.22817, -1.30271, 0.00967878, -0.0111595, -0.0087654, -0.0013847, -0.00161054, -0.000280667, -0.00219402, -0.734184, 58.9551, 27.9725, 6.54541, 1.6756, 3.36703, 0.0165515, 0.000742598, -0.00170816, 0.00102199, 0.00122885, 0.000700189, 0.00010315, 0.0011262, -0.00312729, -0.0113234, -0.012901, -0.00717921, 0.00620591, 0.471014, -0.543375, 0.335901, -2.08384, -2.16585, -0.129876, 0.469244, -0.542554, 0.335059, -2.08294, -2.16487, -0.129211, 0.000976211, 0.00253053, 0.00130664, 0.00373093, 0.00328948, -0.0101434
0.0290774, 1.69135, -1.22675, -1.53856, -0.900202, -1.19199, 1.22818, -1.3027, 0.00754232, -0.0110858, -0.00787385, -0.000488017, -0.00780294, 0.00218649, -0.000987964, -0.619133, 58.7329, 27.8614, 6.5097, 1.71863, 3.30295, 0.00373412, 0.000735134, -0.00170893, 0.00103408, 0.00123932, 0.000696487, 0.000109184, 0.00394612, -0.00151499, -0.0106216, -0.012234, -0.000805988, 0.000197875, 0.471015, -0.543372, 0.335903, -2.08383, -2.16585, -0.129874, 0.469244, -0.542557, 0.335047, -2.08294, -2.16486, -0.129193, 0.00109153, 0.00283037, 0.00146128, 0.00236222, 0.000631398, -0.00968483
0.0300774, 1.69136, -1.22678, -1.53856, -0.900206, -1.192, 1.22818, -1.3027, 0.00717778, -0.0186969, -0.00464039, -0.00203264, -0.011959, 0.0035939, 0.000562061, -0.543754, 58.844, 27.6392, 6.43433, 1.75525, 3.24527, -0.0292249, 0.000730769, -0.00170507, 0.0010539, 0.00124749, 0.00071355, 0.000107362, 0.00499684, -0.0020221, -0.014133, -0.0115755, -0.00415172, -0.000333611, 0.471016, -0.543369, 0.335904, -2.08383, -2.16585, -0.129871, 0.469249, -0.542555, 0.335028, -2.08292, -2.16485, -0.129199, 0.00121295, 0.00314621, 0.00162416, 0.00290088, 0.000471111, -0.0131675
0.0310774, 1.69136, -1.2268, -1.53857, -0.900221, -1.19201, 1.22819, -1.3027, 0.00928087, -0.0139662, -0.00918139, -0.00672057, -0.0093752, 0.00449826, 0.00183277, -0.43267, 58.8083, 27.5638, 6.5097, 1.76807, 3.18851, -0.0685925, 0.000727073, -0.00170237, 0.00106833, 0.00126009, 0.000715036, 0.000105276, 0.00310397, -0.0036849, -0.0137688, -0.0158672, -0.000104275, 0.0028852, 0.471017, -0.543366, 0.335906, -2.08383, -2.16586, -0.129869, 0.469252, -0.542553, 0.335015, -2.08291, -2.16485, -0.129184, 0.00134042, 0.00347794, 0.00179519, 0.00463443, 0.00268355, -0.0123933
0.0320774, 1.69138, -1.22682, -1.53857, -0.900223, -1.19202, 1.2282, -1.3027, 0.0064292, -0.0167879, -0.00590406, -0.0056169, -0.00714945, 0.00408392, 0.00579864, -0.392998, 58.9194, 27.4885, 6.39465, 1.77356, 3.15921, -0.0420422, 0.000723302, -0.00169711, 0.00108408, 0.00126424, 0.000725607, 9.64509e-05, 0.00416329, -0.00249906, -0.0141254, -0.01175, -0.00509309, -0.00278814, 0.471019, -0.543362, 0.335908, -2.08383, -2.16586, -0.129866, 0.469259, -0.542551, 0.335001, -2.08289, -2.16485, -0.129188, 0.00147388, 0.00382545, 0.00197432, 0.00360857, 0.00199158, -0.0126948
0.0330774, 1.69138, -1.22682, -1.53858, -0.90023, -1.19203, 1.2282, -1.3027, 0.00645582, -0.00933318, -0.00342538, -0.00907811, -0.00461003, 0.00295997, 0.00409174, -0.317619, 58.7726, 27.417, 6.32324, 1.75525, 3.1528, -0.0356336, 0.000721518, -0.00169443, 0.00108752, 0.0012735, 0.000714578, 9.31876e-05, 0.00166933, -0.00352, -0.00958234, -0.0105682, 9.7662e-05, 0.00357201, 0.47102, -0.543358, 0.33591, -2.08382, -2.16586, -0.129863, 0.469263, -0.542548, 0.334999, -2.08288, -2.16486, -0.129164, 0.00161328, 0.0041886, 0.00216148, 0.00484241, 0.00415943, -0.00766553
0.0340774, 1.69139, -1.22683, -1.53858, -0.90023, -1.19204, 1.2282, -1.3027, 0.0056604, -0.016213, -0.00663908, -0.00754972, -0.00747804, 0.00173596, 0.0033127, -0.206535, 58.8837, 27.417, 6.20819, 1.73694, 3.15921, -0.0420422, 0.000715674, -0.00169317, 0.00110001, 0.00127979, 0.000721653, 9.52887e-05, 0.00463192, -0.00158974, -0.0147555, -0.0156703, -0.00470121, -0.000483447, 0.471022, -0.543354, 0.335912, -2.08382, -2.16586, -0.12986, 0.469265, -0.542547, 0.334988, -2.08288, -2.16485, -0.129161, 0.00175856, 0.00456728, 0.0023566, 0.00297909, 0.00233051, -0.01298
0.0350774, 1.69141, -1.22684, -1.53858, -0.900238, -1.19205, 1.22821, -1.3027, 0.00822679, -0.0122122, -0.00360566, -0.00843019, -0.00874923, 0.00509856, 0.00223174, -0.0914839, 58.8837, 27.3417, 6.17248, 1.69391, 3.18118, -0.0356336, 0.000718072, -0.00168382, 0.00110557, 0.0012827, 0.000716742, 7.29787e-05, 0.00324009, -0.00399868, -0.0114378, -0.011349, 0.00222502, 0.00452442, 0.471024, -0.543349, 0.335915, -2.08382, -2.16586, -0.129856, 0.469276, -0.542539, 0.334985, -2.08285, -2.16488, -0.129151, 0.00190969, 0.00496137, 0.00255964, 0.00560604, 0.00368665, -0.00935769
0.0360774, 1.69142, -1.22684, -1.53859, -0.900252, -1.19206, 1.22821, -1.3027, 0.0132838, -0.0108645, -0.00570936, -0.00844641, -0.00561665, 0.00782034, 0.0016833, 0.0196001, 58.9551, 27.4528, 6.24786, 1.66369, 3.20224, -0.0356336, 0.000717406, -0.00167769, 0.00111676, 0.00129883, 0.000711998, 5.82882e-05, 0.0013956, -0.00712865, -0.011573, -0.010228, 0.00292745, 0.00974113, 0.471026, -0.543344, 0.335917, -2.08381, -2.16587, -0.129852, 0.469284, -0.542533, 0.334976, -2.08282, -2.1649, -0.129126, 0.0020666, 0.00537076, 0.00277051, 0.00881797, 0.00606594, -0.00908846
0.0370774, 1.69143, -1.22684, -1.53858, -0.900258, -1.19206, 1.22822, -1.3027, 0.0114093, -0.00636205, -0.00257336, -0.00550021, -0.00259049, 0.00509736, 0.0012688, 0.245735, 58.8837, 27.3774, 6.20819, 1.61426, 3.22421, -0.0356336, 0.000718788, -0.00167086, 0.0011126, 0.00128943, 0.000699148, 4.30463e-05, 0.00158894, -0.00555884, -0.00770488, -0.00656559, 0.00336683, 0.00780295, 0.471028, -0.543338, 0.33592, -2.08381, -2.16587, -0.129848, 0.469293, -0.542526, 0.334983, -2.08282, -2.16493, -0.129121, 0.00222924, 0.00579533, 0.00298915, 0.00755944, 0.00564006, -0.00503303
0.0380774, 1.69144, -1.22683, -1.53859, -0.900262, -1.19208, 1.22822, -1.3027, 0.0122276, 0.00316063, -0.00387657, -0.00568562, -0.00108194, 0.00719637, 0.000481105, 0.511544, 58.8083, 27.4528, 6.13678, 1.58313, 3.25992, -0.0228162, 0.000714997, -0.00166912, 0.00111248, 0.00129702, 0.00068015, 4.15805e-05, 0.000926942, -0.00603235, -0.00262132, -0.00479585, 0.0130899, 0.00889023, 0.47103, -0.543332, 0.335923, -2.0838, -2.16587, -0.129843, 0.469297, -0.542524, 0.334986, -2.08282, -2.16494, -0.129089, 0.00239756, 0.00623496, 0.00321551, 0.00836059, 0.00597026, 0.000301398
0.0390774, 1.69145, -1.22684, -1.53859, -0.900277, -1.19209, 1.22822, -1.3027, 0.0135349, -0.00208664, -0.00548116, -0.0093349, -0.000423996, 0.00370813, -0.00152958, 0.777352, 58.9908, 27.5638, 6.20819, 1.56482, 3.31027, 0.0293689, 0.000714017, -0.00166274, 0.00112413, 0.0013082, 0.000680135, 2.05364e-05, 7.84935e-05, -0.00664362, -0.0073199, -0.0115014, 0.00637832, 0.0145377, 0.471033, -0.543326, 0.335927, -2.0838, -2.16588, -0.129838, 0.469306, -0.542516, 0.334978, -2.08278, -2.16496, -0.129074, 0.00257152, 0.00668953, 0.00344951, 0.0089449, 0.00801061, -0.00399089
0.0400774, 1.69147, -1.22684, -1.53859, -0.900286, -1.1921, 1.22823, -1.3027, 0.0146496, -0.00226274, -0.00480587, -0.00928114, -0.0043094, 0.00118876, -0.00095787, 1.03919, 59.0305, 27.6035, 6.17248, 1.5401, 3.36062, 0.0293689, 0.000713481, -0.00165577, 0.00112867, 0.00131433, 0.000669532, 5.9664e-06, 0.000476813, -0.00628904, -0.00762874, -0.0152829, 0.00845293, 0.0136417, 0.471035, -0.543319, 0.33593, -2.08379, -2.16588, -0.129833, 0.469315, -0.542509, 0.334976, -2.08276, -2.16499, -0.129052, 0.00275106, 0.00715892, 0.0036911, 0.00877339, 0.0081198, -0.00410539
0.0410774, 1.69148, -1.22684, -1.53859, -0.900298, -1.19211, 1.22824, -1.3027, 0.0134045, -0.00406467, -0.00420694, -0.01016, -0.00394995, 0.00514582, -0.000829552, 1.38038, 59.1415, 27.6392, 6.17248, 1.55292, 3.38168, 0.0357776, 0.000709155, -0.0016501, 0.00113619, 0.00131848, 0.000656544, -5.83905e-06, 0.00166478, -0.00649214, -0.00836207, -0.0117423, 0.00865849, 0.0130789, 0.471038, -0.543312, 0.335934, -2.08379, -2.16589, -0.129827, 0.469324, -0.542504, 0.334972, -2.08275, -2.16501, -0.12903, 0.00293613, 0.00764302, 0.00394021, 0.0091773, 0.00755228, -0.00477088
0.0420774, 1.69149, -1.22685, -1.5386, -0.900303, -1.19212, 1.22824, -1.3027, 0.0146716, -0.00518373, -0.0031028, -0.00816595, -0.00376319, 0.00829618, -0.000789512, 1.64619, 59.2487, 27.79, 6.0614, 1.57123, 3.39633, 0.0431018, 0.000703214, -0.00164466, 0.00114733, 0.00132727, 0.000648089, -1.3179e-05, 0.0023855, -0.00736685, -0.00832519, -0.00751591, 0.00908938, 0.0127305, 0.471041, -0.543304, 0.335938, -2.08378, -2.16589, -0.129821, 0.469332, -0.5425, 0.334964, -2.08274, -2.16502, -0.129007, 0.00312667, 0.00814172, 0.00419678, 0.0102685, 0.00736962, -0.00461615
0.0430774, 1.69151, -1.22685, -1.53861, -0.900308, -1.19214, 1.22826, -1.3027, 0.0209896, -0.00343204, -0.00355384, -0.0100041, -0.00396656, 0.00754559, 0.00119517, 1.9477, 59.2487, 27.8614, 5.95032, 1.60144, 3.36703, -0.00267457, 0.000698385, -0.00163613, 0.00115143, 0.00132404, 0.000626906, -1.87048e-05, -0.000533097, -0.0108416, -0.00829828, -0.0105959, 0.0113747, 0.0178362, 0.471044, -0.543295, 0.335942, -2.08378, -2.16589, -0.129815, 0.469344, -0.542496, 0.334963, -2.08274, -2.16505, -0.128983, 0.00332265, 0.00865489, 0.00446074, 0.0138312, 0.0109024, -0.00397758
0.0440774, 1.69154, -1.22685, -1.53862, -0.900316, -1.19216, 1.22827, -1.3027, 0.0224121, -0.00486864, -0.00575686, -0.0092874, -0.00898569, 0.015359, 0.00156234, 2.13416, 59.3597, 28.0121, 5.87494, 1.63898, 3.36062, -0.0228162, 0.000694773, -0.00162571, 0.0011636, 0.00133642, 0.000611877, -3.14544e-05, 0.00200387, -0.0117679, -0.0094074, -0.00830325, 0.0184085, 0.015078, 0.471048, -0.543286, 0.335947, -2.08377, -2.1659, -0.129808, 0.469357, -0.542488, 0.334955, -2.08272, -2.16507, -0.128948, 0.003524, 0.00918243, 0.00473204, 0.0150084, 0.00913401, -0.00522312
0.0450774, 1.69156, -1.22686, -1.53862, -0.900313, -1.19218, 1.22829, -1.3027, 0.0231865, -0.00499562, -0.00549702, -0.00521383, -0.0132654, 0.0107653, 0.00129359, 2.32459, 59.4351, 28.0875, 5.6488, 1.69391, 3.38168, -0.0292249, 0.000688256, -0.00161598, 0.00117157, 0.00133851, 0.000591544, -3.89927e-05, 0.00376522, -0.00979817, -0.00946765, -0.012497, 0.0195419, 0.010774, 0.471051, -0.543277, 0.335952, -2.08376, -2.1659, -0.129801, 0.46937, -0.542483, 0.334951, -2.08271, -2.16509, -0.128919, 0.00373068, 0.00972421, 0.00501061, 0.0133088, 0.00786551, -0.00521795
0.0460774, 1.69159, -1.22687, -1.53862, -0.900308, -1.1922, 1.2283, -1.3027, 0.0246983, -0.00591884, -0.0044218, -0.00348755, -0.0158718, 0.0118094, 0.000636045, 2.47535, 59.5462, 28.1232, 5.46234, 1.73694, 3.41006, -0.0228162, 0.000683001, -0.00160511, 0.00117971, 0.00133579, 0.000578544, -5.13683e-05, 0.00467906, -0.0101385, -0.00958141, -0.0116008, 0.0214856, 0.0105978, 0.471055, -0.543267, 0.335957, -2.08375, -2.16591, -0.129793, 0.469385, -0.542477, 0.334947, -2.0827, -2.16512, -0.128902, 0.00394263, 0.0102801, 0.00529638, 0.0138892, 0.00755075, -0.0051966
0.0470774, 1.69163, -1.22687, -1.53864, -0.900307, -1.19223, 1.22831, -1.3027, 0.0286569, -0.00160687, -0.0080862, -1.8602e-05, -0.0173119, 0.0165285, 0.000907003, 2.62611, 59.5819, 28.3454, 5.31555, 1.76166, 3.46042, -0.0356336, 0.000676618, -0.00159408, 0.00118805, 0.00134554, 0.00055025, -5.96594e-05, 0.0056825, -0.0113319, -0.0078712, -0.0102322, 0.0297459, 0.00838835, 0.471059, -0.543256, 0.335962, -2.08375, -2.16592, -0.129785, 0.4694, -0.542471, 0.334942, -2.08269, -2.16515, -0.128856, 0.00415982, 0.0108501, 0.00558931, 0.015396, 0.00691583, -0.00340673
0.0480774, 1.69165, -1.22688, -1.53865, -0.900304, -1.19225, 1.22833, -1.3027, 0.02668, -0.00683384, -0.00711011, 0.00183343, -0.0223071, 0.0157389, 0.000610861, 2.85224, 59.8398, 28.4208, 5.2005, 1.76807, 3.50345, -0.0356336, 0.000667918, -0.00158393, 0.00120429, 0.0013471, 0.000544321, -6.87272e-05, 0.00892011, -0.00913183, -0.0105176, -0.0118983, 0.0283582, 0.00350176, 0.471064, -0.543245, 0.335968, -2.08374, -2.16592, -0.129777, 0.469414, -0.542465, 0.33493, -2.08268, -2.16516, -0.128841, 0.00438218, 0.0114339, 0.00588931, 0.0134415, 0.00462045, -0.00615586
0.0490774, 1.69169, -1.22689, -1.53865, -0.900303, -1.19228, 1.22834, -1.3027, 0.0270514, -0.0069522, -0.00554234, 0.00225865, -0.0265896, 0.0154877, -6.28334e-05, 3.003, 59.9509, 28.4565, 5.12909, 1.78638, 3.53915, -0.0228162, 0.000660874, -0.0015719, 0.00121419, 0.00134838, 0.000523026, -8.31475e-05, 0.0100168, -0.00875264, -0.010233, -0.0128697, 0.0319119, 0.00298083, 0.471068, -0.543234, 0.335974, -2.08373, -2.16593, -0.129768, 0.469431, -0.542459, 0.334925, -2.08266, -2.1652, -0.12881, 0.00460967, 0.0120315, 0.00619634, 0.0133398, 0.00407602, -0.00572652
0.0500774, 1.69172, -1.2269, -1.53865, -0.900299, -1.1923, 1.22836, -1.3027, 0.0294084, -0.00708164, -0.00543342, 0.00279345, -0.0197438, 0.0157705, -0.000513124, 3.19343, 60.062, 28.5319, 5.05371, 1.78638, 3.56112, -0.00999879, 0.000651289, -0.00156055, 0.00122372, 0.00134398, 0.000500126, -9.0352e-05, 0.0084362, -0.0105518, -0.0105202, -0.00973126, 0.0267604, 0.00711747, 0.471073, -0.543221, 0.335981, -2.08372, -2.16594, -0.129759, 0.469447, -0.542454, 0.33492, -2.08266, -2.16523, -0.128783, 0.00484224, 0.0126428, 0.00651033, 0.0153022, 0.0063658, -0.00550519
0.0510774, 1.69174, -1.2269, -1.53866, -0.900295, -1.19234, 1.22838, -1.30269, 0.0282825, -0.0031758, -0.00536699, 0.00243365, -0.0287721, 0.0110512, 0.000372606, 3.37989, 60.1334, 28.6072, 5.01404, 1.78638, 3.58951, -0.0292249, 0.000639865, -0.00155153, 0.00123247, 0.00134404, 0.000473047, -9.21033e-05, 0.0104013, -0.00780788, -0.00883577, -0.0179257, 0.0361402, 0.0018377, 0.471078, -0.543208, 0.335987, -2.08371, -2.16594, -0.129749, 0.469461, -0.542451, 0.334916, -2.08266, -2.16525, -0.128746, 0.00507984, 0.0132677, 0.00683122, 0.0129308, 0.00467894, -0.00374313
0.0520774, 1.69178, -1.2269, -1.53866, -0.900289, -1.19237, 1.2284, -1.3027, 0.0265159, -0.00270144, -0.00439931, 0.00219015, -0.0301992, 0.0127134, -0.00144506, 3.60603, 60.173, 28.6429, 4.97833, 1.76807, 3.60415, 0.0165515, 0.000628402, -0.00154125, 0.00123895, 0.00133764, 0.000442769, -0.000103046, 0.0119949, -0.00691777, -0.00824295, -0.0163811, 0.0389508, 0.00155925, 0.471083, -0.543195, 0.335994, -2.0837, -2.16595, -0.129738, 0.469476, -0.542447, 0.334915, -2.08266, -2.16529, -0.128713, 0.00532241, 0.013906, 0.00715894, 0.0123631, 0.0036163, -0.0030504
0.0530774, 1.69181, -1.22691, -1.53866, -0.900282, -1.1924, 1.22842, -1.3027, 0.0292741, -0.00404877, -0.00208723, 0.00520399, -0.0321566, 0.0134382, -0.000961902, 3.79646, 60.2802, 28.6072, 4.94263, 1.77356, 3.63254, 0.0165515, 0.000617092, -0.00153009, 0.00124525, 0.00132642, 0.000416179, -0.000113775, 0.0124586, -0.00787194, -0.00811692, -0.014036, 0.0396941, 0.00108664, 0.471088, -0.54318, 0.336002, -2.08369, -2.16596, -0.129728, 0.469493, -0.542442, 0.334914, -2.08266, -2.16533, -0.128689, 0.00556992, 0.0145576, 0.00749345, 0.0135848, 0.0038299, -0.00269224
0.0540774, 1.69184, -1.22691, -1.53866, -0.900288, -1.19243, 1.22844, -1.3027, 0.0297603, -0.00426904, -0.00138367, 0.00337984, -0.0330632, 0.0140799, 0.00129261, 3.90754, 60.3555, 28.6072, 5.08942, 1.76166, 3.66092, -0.0356336, 0.000609818, -0.00151567, 0.00125461, 0.00132831, 0.000385978, -0.000129356, 0.0125221, -0.00842601, -0.00846248, -0.0145373, 0.0411281, 0.000382019, 0.471094, -0.543166, 0.336009, -2.08368, -2.16597, -0.129716, 0.469513, -0.542433, 0.334911, -2.08264, -2.16537, -0.128646, 0.00582231, 0.0152225, 0.00783467, 0.0143803, 0.00450809, -0.00271884
0.0550774, 1.69188, -1.22691, -1.53866, -0.900283, -1.19247, 1.22846, -1.30269, 0.0337006, -0.00186578, -0.00351504, 0.00568934, -0.033971, 0.0147607, 0.00133729, 3.98292, 60.3198, 28.7183, 5.08942, 1.75525, 3.68289, -0.0484509, 0.000597324, -0.00150447, 0.00126086, 0.0013293, 0.000345677, -0.000131561, 0.0126385, -0.00945045, -0.00788222, -0.0158417, 0.0451304, 0.000256884, 0.4711, -0.54315, 0.336017, -2.08367, -2.16597, -0.129705, 0.46953, -0.542428, 0.33491, -2.08265, -2.1654, -0.128593, 0.00607953, 0.0159004, 0.00818254, 0.0156859, 0.00502399, -0.00184703
0.0560774, 1.69191, -1.22692, -1.53867, -0.900281, -1.19251, 1.22848, -1.30269, 0.0369277, -0.00373353, -0.00317418, 0.00338529, -0.0338153, 0.0199463, 0.000417427, 4.06226, 60.4309, 28.754, 5.12909, 1.72504, 3.70395, -0.0356336, 0.000585181, -0.00149178, 0.00127093, 0.00132791, 0.000312556, -0.000143756, 0.0118629, -0.0125563, -0.00914562, -0.013017, 0.0464656, 0.00604395, 0.471106, -0.543134, 0.336026, -2.08366, -2.16598, -0.129692, 0.469549, -0.542422, 0.334907, -2.08264, -2.16544, -0.12855, 0.00634154, 0.0165914, 0.00853701, 0.0189761, 0.0068026, -0.00271372
0.0570774, 1.69195, -1.22692, -1.53866, -0.900278, -1.19254, 1.2285, -1.30269, 0.0389814, 4.65232e-05, -0.0012776, 0.00264717, -0.0351973, 0.018964, 0.000278749, 4.13764, 60.4666, 28.7183, 5.12909, 1.73053, 3.73324, -0.0356336, 0.000573701, -0.00147957, 0.00127724, 0.00132317, 0.000279073, -0.000155597, 0.0108933, -0.0135184, -0.00680658, -0.0135164, 0.0513723, 0.00863961, 0.471113, -0.543117, 0.336034, -2.08364, -2.16599, -0.129679, 0.469568, -0.542415, 0.334907, -2.08264, -2.16549, -0.12851, 0.00660828, 0.0172953, 0.00889802, 0.0202537, 0.00814353, 7.8208e-05
0.0580774, 1.69199, -1.22692, -1.53867, -0.900272, -1.19259, 1.22852, -1.30269, 0.0414296, -0.00223216, -0.0026125, 0.00382075, -0.0357907, 0.0239042, 0.000186182, 4.17335, 60.5777, 28.7937, 5.05371, 1.73053, 3.73324, -0.0356336, 0.000558269, -0.00146752, 0.00128717, 0.00132093, 0.000240424, -0.000159049, 0.0120321, -0.0149842, -0.0084132, -0.0109903, 0.052587, 0.00871528, 0.471119, -0.543099, 0.336043, -2.08363, -2.166, -0.129666, 0.469587, -0.54241, 0.334903, -2.08264, -2.16552, -0.12846, 0.00687971, 0.0180119, 0.00926549, 0.0219717, 0.00804343, -0.0013618
0.0590774, 1.69203, -1.22693, -1.53866, -0.900264, -1.19263, 1.22854, -1.30269, 0.0401443, -0.00207186, 2.34274e-05, 0.00452996, -0.0365152, 0.0173062, 0.00427105, 4.21302, 60.6134, 28.7183, 4.97833, 1.73694, 3.7543, -0.00267457, 0.000544305, -0.00145554, 0.00129217, 0.00131354, 0.000201307, -0.000170842, 0.012474, -0.0129822, -0.00806391, -0.0145253, 0.0503136, 0.00314238, 0.471126, -0.543081, 0.336053, -2.08362, -2.16601, -0.129652, 0.469606, -0.542404, 0.334905, -2.08264, -2.16557, -0.128416, 0.00715578, 0.0187412, 0.00963939, 0.020277, 0.00820056, -0.000651055
0.0600774, 1.69207, -1.22694, -1.53867, -0.90026, -1.19267, 1.22857, -1.3027, 0.0422735, -0.00546153, -0.00174623, 0.00494787, -0.0371238, 0.0233016, 0.00258277, 4.24873, 60.7959, 28.7937, 4.90295, 1.74335, 3.73324, 0.0165515, 0.000527953, -0.00144217, 0.00130652, 0.00131222, 0.000166629, -0.000185214, 0.0138646, -0.014563, -0.0104819, -0.0118821, 0.0510563, 0.00494618, 0.471134, -0.543062, 0.336063, -2.0836, -2.16602, -0.129638, 0.469627, -0.542399, 0.334898, -2.08263, -2.16562, -0.128369, 0.00743644, 0.0194831, 0.0100196, 0.0220987, 0.00800666, -0.00292201
0.0610774, 1.69211, -1.22695, -1.53867, -0.900255, -1.19272, 1.22859, -1.30269, 0.0425479, -0.00693325, -0.00199833, 0.0042573, -0.0430269, 0.022041, 0.00253217, 4.3241, 60.9427, 28.8294, 4.86725, 1.77356, 3.74057, 0.00373412, 0.000509522, -0.00143132, 0.00132013, 0.00130887, 0.000132922, -0.000187733, 0.01556, -0.013654, -0.0119316, -0.0167684, 0.05441, 0.00316104, 0.471141, -0.543042, 0.336073, -2.08359, -2.16603, -0.129623, 0.469646, -0.542395, 0.334892, -2.08263, -2.16565, -0.128324, 0.00772164, 0.0202374, 0.0104062, 0.0214846, 0.00727292, -0.00420254
0.0620774, 1.69215, -1.22695, -1.53867, -0.90025, -1.19277, 1.22861, -1.30269, 0.0385098, -0.00451608, -0.00133143, 0.00469406, -0.0466183, 0.0220891, 0.00193982, 4.3241, 60.9427, 28.8294, 4.79187, 1.77997, 3.7186, 0.00373412, 0.000493972, -0.00141731, 0.00132719, 0.00130358, 8.75356e-05, -0.000198197, 0.0186391, -0.01066, -0.0102777, -0.0171113, 0.0601082, -0.00219084, 0.471149, -0.543021, 0.336083, -2.08357, -2.16604, -0.129607, 0.469668, -0.542388, 0.334893, -2.08263, -2.1657, -0.128269, 0.00801134, 0.0210041, 0.0107989, 0.018955, 0.00462223, -0.00256359
0.0630774, 1.69219, -1.22696, -1.53867, -0.900249, -1.19281, 1.22864, -1.30269, 0.0367363, -0.00729285, -0.00265027, 0.00319884, -0.0486857, 0.0216251, 0.00294005, 4.39948, 61.1292, 28.9048, 4.79187, 1.77356, 3.71127, -0.0356336, 0.000473831, -0.00140682, 0.00134446, 0.00130488, 5.44113e-05, -0.000200096, 0.0206998, -0.00918604, -0.0128157, -0.0206348, 0.0595081, -0.00556814, 0.471157, -0.543, 0.336094, -2.08356, -2.16606, -0.129591, 0.469686, -0.542383, 0.334883, -2.08263, -2.16573, -0.128218, 0.00830549, 0.021783, 0.0111979, 0.0177592, 0.0036965, -0.00494568
0.0640774, 1.69222, -1.22696, -1.53867, -0.900253, -1.19287, 1.22866, -1.30268, 0.0377458, -0.00480223, -0.00176641, 0.00353072, -0.0511455, 0.0211529, 0.00332232, 4.51453, 61.1292, 28.9048, 4.86725, 1.79828, 3.70395, -0.0685925, 0.000454671, -0.00139617, 0.00135204, 0.00130244, 2.53411e-06, -0.000205177, 0.0212015, -0.00910672, -0.0113758, -0.0215492, 0.0642637, -0.00635639, 0.471166, -0.542978, 0.336106, -2.08354, -2.16607, -0.129574, 0.469706, -0.542378, 0.334884, -2.08264, -2.16578, -0.128152, 0.00860403, 0.0225739, 0.011603, 0.018049, 0.00376756, -0.00319422
0.0650774, 1.69227, -1.22695, -1.53867, -0.900244, -1.19292, 1.22868, -1.30269, 0.0372552, 0.00587978, -0.00201249, 0.00525045, -0.0520881, 0.0204116, 0.00110037, 4.55024, 61.0181, 28.9405, 4.75616, 1.79187, 3.71127, -0.0356336, 0.000435038, -0.00138551, 0.00135555, 0.00129646, -5.12326e-05, -0.000212752, 0.0219291, -0.00764481, -0.00528092, -0.021406, 0.0757157, -0.00742986, 0.471175, -0.542955, 0.336118, -2.08352, -2.16608, -0.129557, 0.469726, -0.542374, 0.334889, -2.08264, -2.16583, -0.128088, 0.00890693, 0.0233769, 0.0120141, 0.0171395, 0.00285471, 0.00316665
0.0660774, 1.69231, -1.22696, -1.53867, -0.900249, -1.19297, 1.2287, -1.30269, 0.0378212, 0.00189147, 0.000886105, 0.0020535, -0.0481785, 0.0193185, 0.00128794, 4.55024, 61.1292, 28.9802, 4.82758, 1.78638, 3.73324, -0.0484509, 0.000417215, -0.00137191, 0.00137002, 0.00129905, -9.18108e-05, -0.000230285, 0.0204715, -0.00917096, -0.00746278, -0.0202909, 0.0686746, -0.00217215, 0.471184, -0.542931, 0.33613, -2.0835, -2.16609, -0.129539, 0.469749, -0.542365, 0.334883, -2.08262, -2.16589, -0.128027, 0.00921413, 0.0241918, 0.0124312, 0.0188394, 0.00550708, 0.00160915
0.0670774, 1.69235, -1.22696, -1.53868, -0.900244, -1.19302, 1.22873, -1.30269, 0.0362569, 0.00252375, -0.000909353, 0.00554992, -0.0456411, 0.0230241, 0.00118962, 4.62562, 61.0934, 29.0555, 4.79187, 1.78638, 3.76163, -0.0557752, 0.000393644, -0.00136456, 0.00137824, 0.00130188, -0.000144944, -0.000226815, 0.0232707, -0.00781666, -0.00713784, -0.0158572, 0.0693903, -0.00740037, 0.471193, -0.542906, 0.336143, -2.08349, -2.16611, -0.12952, 0.469766, -0.542362, 0.334884, -2.08264, -2.16592, -0.127951, 0.0095256, 0.0250185, 0.0128543, 0.0179111, 0.00346464, 0.00196006
0.0680774, 1.69239, -1.22695, -1.53868, -0.900246, -1.19307, 1.22875, -1.30268, 0.0398965, 0.00501701, -0.000408875, 0.00325536, -0.0432088, 0.0263123, 0.00107524, 4.62562, 61.0934, 29.0555, 4.82758, 1.77356, 3.77627, -0.0621838, 0.000373593, -0.00135194, 0.00138635, 0.00129804, -0.000197646, -0.000237076, 0.0213765, -0.0109522, -0.00602189, -0.0132324, 0.0723697, -0.00137768, 0.471203, -0.542881, 0.336156, -2.08347, -2.16612, -0.129501, 0.469789, -0.542354, 0.334886, -2.08263, -2.16598, -0.127884, 0.00984127, 0.0258569, 0.0132832, 0.0213308, 0.00613071, 0.00368957
0.0690774, 1.69243, -1.22694, -1.53868, -0.900246, -1.19313, 1.22877, -1.30269, 0.0385736, 0.00643478, -0.000959781, 0.00246321, -0.0471336, 0.0288299, -0.00145362, 4.66529, 60.9824, 29.0912, 4.82758, 1.78638, 3.80466, -0.00267457, 0.000351144, -0.0013431, 0.0013899, 0.00129624, -0.000258589, -0.000248506, 0.0236432, -0.0099417, -0.00551221, -0.0137702, 0.078892, -0.00178081, 0.471213, -0.542854, 0.336169, -2.08345, -2.16613, -0.129481, 0.469808, -0.542349, 0.334892, -2.08264, -2.16604, -0.127806, 0.0101611, 0.0267069, 0.013718, 0.0207419, 0.00462295, 0.00430678
0.0700774, 1.69247, -1.22694, -1.53868, -0.900241, -1.19318, 1.2288, -1.30269, 0.0395418, 0.00781661, -0.00136406, 0.0035323, -0.0499314, 0.0314732, 0.00051418, 4.62562, 60.9824, 29.1269, 4.75616, 1.79828, 3.79733, -0.0420422, 0.000328643, -0.00133052, 0.00139869, 0.00129009, -0.000310794, -0.000252465, 0.0252191, -0.00997269, -0.00482737, -0.0130233, 0.0844257, -0.00560856, 0.471223, -0.542827, 0.336183, -2.08343, -2.16615, -0.129461, 0.469831, -0.542343, 0.334893, -2.08264, -2.16609, -0.127739, 0.0104851, 0.0275683, 0.0141585, 0.0211789, 0.00382472, 0.00517827
0.0710774, 1.69252, -1.22694, -1.53869, -0.90024, -1.19324, 1.22882, -1.30269, 0.040992, 0.00878352, -0.00342457, 0.00251966, -0.0527535, 0.0282168, 0.00423243, 4.55024, 60.9824, 29.238, 4.75616, 1.8349, 3.80466, -0.00267457, 0.0003066, -0.00131739, 0.0014093, 0.00129525, -0.00036864, -0.000267811, 0.0257502, -0.00936846, -0.00580921, -0.0199662, 0.0869637, -0.00969596, 0.471234, -0.542799, 0.336197, -2.08341, -2.16616, -0.12944, 0.469856, -0.542334, 0.334893, -2.08263, -2.16615, -0.127656, 0.0108131, 0.0284411, 0.0146048, 0.0208873, 0.00429934, 0.00459104
0.0720774, 1.69257, -1.22693, -1.53869, -0.900243, -1.19329, 1.22884, -1.30269, 0.0401329, 0.00744122, -0.00314862, 0.000968155, -0.0538654, 0.0307515, 0.00355113, 4.55024, 60.9427, 29.2777, 4.79187, 1.84131, 3.80466, -0.00999879, 0.000283459, -0.00130516, 0.00141971, 0.00129807, -0.000426303, -0.000277917, 0.0271541, -0.0092902, -0.00676869, -0.019132, 0.0884924, -0.00946074, 0.471245, -0.54277, 0.336212, -2.08339, -2.16618, -0.129418, 0.469879, -0.542326, 0.334894, -2.08263, -2.16621, -0.127573, 0.0111452, 0.0293251, 0.0150567, 0.0211572, 0.00394183, 0.00388026
0.0730774, 1.69262, -1.22693, -1.53869, -0.900238, -1.19335, 1.22887, -1.30269, 0.0424627, 0.0028555, -0.00205224, 0.00250137, -0.0556268, 0.0289399, 0.0027111, 4.55024, 61.0538, 29.2777, 4.71649, 1.87244, 3.77627, -0.00999879, 0.000257152, -0.00129326, 0.00142993, 0.00129093, -0.000482265, -0.000284096, 0.0278795, -0.00964268, -0.00946871, -0.0209672, 0.0849538, -0.00839474, 0.471256, -0.542741, 0.336228, -2.08336, -2.16619, -0.129396, 0.469903, -0.54232, 0.334895, -2.08263, -2.16627, -0.127503, 0.0114812, 0.0302203, 0.0155142, 0.0217735, 0.00455069, 0.0015485
0.0740774, 1.69267, -1.22693, -1.53869, -0.90023, -1.19341, 1.2289, -1.30269, 0.046246, 0.00310874, -0.00133304, 0.00433556, -0.0564721, 0.0315001, 0.0030146, 4.47486, 61.0181, 29.2777, 4.60541, 1.89075, 3.76163, -0.0356336, 0.00023252, -0.0012796, 0.0014364, 0.00128406, -0.000544154, -0.000290008, 0.0279556, -0.0114877, -0.00911376, -0.0185848, 0.0876983, -0.00726913, 0.471268, -0.54271, 0.336243, -2.08334, -2.16621, -0.129373, 0.469929, -0.542313, 0.3349, -2.08264, -2.16633, -0.127425, 0.0118212, 0.0311266, 0.0159772, 0.0239721, 0.0054036, 0.00229416
0.0750774, 1.69272, -1.22693, -1.53869, -0.90023, -1.19347, 1.22892, -1.30268, 0.043038, -0.000248575, -0.00262558, 0.00294252, -0.0571936, 0.0343531, 0.00342376, 4.51453, 61.1292, 29.3531, 4.60541, 1.91546, 3.73324, -0.0685925, 0.000205256, -0.00126692, 0.00145298, 0.00128317, -0.000594826, -0.000295935, 0.0309568, -0.00990674, -0.0116524, -0.018407, 0.0870949, -0.0111946, 0.47128, -0.542678, 0.33626, -2.08332, -2.16623, -0.129349, 0.469954, -0.542305, 0.334895, -2.08263, -2.16638, -0.127352, 0.012165, 0.0320437, 0.0164457, 0.0227534, 0.0036828, -0.000161246
0.0760774, 1.69278, -1.22694, -1.53869, -0.900227, -1.19353, 1.22895, -1.30268, 0.0497479, -0.00339135, -0.00173063, 0.0029288, -0.0568123, 0.0349455, 0.00168151, 4.43916, 61.2759, 29.3531, 4.56573, 1.91546, 3.73324, -0.0484509, 0.000181367, -0.00124932, 0.00146896, 0.00127915, -0.000643786, -0.000315875, 0.0290426, -0.013669, -0.0138214, -0.0186345, 0.0847338, -0.00297619, 0.471292, -0.542646, 0.336276, -2.08329, -2.16625, -0.129324, 0.469984, -0.542293, 0.334892, -2.08262, -2.16645, -0.127284, 0.0125127, 0.0329717, 0.0169196, 0.0267103, 0.00698984, -0.00164684
0.0770774, 1.69284, -1.22694, -1.53869, -0.900222, -1.19359, 1.22898, -1.30268, 0.0530327, -0.00126965, -0.00197415, 0.0036523, -0.0616128, 0.0364329, 0.00122975, 4.43916, 61.2402, 29.3888, 4.49432, 1.92096, 3.72592, -0.0484509, 0.000154902, -0.0012347, 0.00148035, 0.00127493, -0.000702233, -0.000324215, 0.0297403, -0.014625, -0.0129421, -0.0201735, 0.0922158, -0.00246159, 0.471305, -0.542612, 0.336293, -2.08327, -2.16626, -0.129299, 0.470012, -0.542283, 0.334893, -2.08261, -2.16651, -0.127205, 0.0128642, 0.0339105, 0.0173989, 0.0280742, 0.00714435, -0.000436494
0.0780774, 1.6929, -1.22694, -1.5387, -0.900225, -1.19366, 1.229, -1.30268, 0.0549591, -0.00239984, -0.00306823, 0.00162165, -0.0661734, 0.0319332, 0.000189313, 4.43916, 61.3116, 29.4642, 4.53003, 1.95209, 3.72592, -0.0292249, 0.000128204, -0.00121882, 0.00149901, 0.00128294, -0.000759395, -0.000341598, 0.0300489, -0.0142713, -0.0151152, -0.0289231, 0.0935645, -0.000568548, 0.471318, -0.542578, 0.336311, -2.08324, -2.16628, -0.129273, 0.470041, -0.542272, 0.334888, -2.0826, -2.16658, -0.127114, 0.0132194, 0.0348598, 0.0178835, 0.0280084, 0.00810853, -0.00213484
0.0790774, 1.69295, -1.22694, -1.5387, -0.900222, -1.19373, 1.22902, -1.30268, 0.0579044, -0.00244015, -0.00110913, 0.00193281, -0.0681339, 0.0317115, -0.0005247, 4.51453, 61.3513, 29.4245, 4.49432, 1.94568, 3.77627, -0.00999879, 0.00010191, -0.0012033, 0.00151218, 0.00128202, -0.00081631, -0.000359435, 0.0298025, -0.0155546, -0.0149229, -0.0290312, 0.0956176, 0.00226483, 0.471331, -0.542543, 0.336329, -2.08322, -2.1663, -0.129247, 0.47007, -0.54226, 0.334888, -2.08258, -2.16665, -0.127033, 0.0135784, 0.0358197, 0.0183733, 0.0296474, 0.0093355, -0.00145602
0.0800774, 1.69302, -1.22694, -1.5387, -0.900222, -1.19379, 1.22905, -1.30269, 0.0633644, -0.00156094, -0.00249641, 0.00130092, -0.0695614, 0.0286132, -0.000303924, 4.47486, 61.3513, 29.4999, 4.49432, 1.93927, 3.77627, -0.00999879, 7.77919e-05, -0.00118205, 0.00152734, 0.00128303, -0.000878892, -0.000386874, 0.0283745, -0.0173836, -0.0158957, -0.0350802, 0.0971149, 0.00601732, 0.471345, -0.542506, 0.336348, -2.08319, -2.16632, -0.12922, 0.470106, -0.542244, 0.334888, -2.08256, -2.16673, -0.126944, 0.013941, 0.03679, 0.0188684, 0.0317495, 0.0119412, -0.00175603
0.0810774, 1.69309, -1.22694, -1.5387, -0.900214, -1.19387, 1.22907, -1.30269, 0.0646144, -6.32364e-05, -0.00342282, 0.00440303, -0.0676297, 0.0249203, -0.000914195, 4.55024, 61.3116, 29.5752, 4.34357, 1.97681, 3.81198, 0.0101428, 4.67372e-05, -0.00116855, 0.00154114, 0.0012895, -0.00094626, -0.00039447, 0.0290558, -0.0163516, -0.0156604, -0.0372085, 0.0956985, 0.00449908, 0.471359, -0.542469, 0.336367, -2.08316, -2.16634, -0.129192, 0.470134, -0.542235, 0.334888, -2.08255, -2.1668, -0.126841, 0.0143072, 0.0377706, 0.0193685, 0.0311188, 0.0121704, -0.0010977
0.0820774, 1.69315, -1.22695, -1.5387, -0.900217, -1.19394, 1.2291, -1.30268, 0.0625454, -0.00260359, -0.00227836, 0.0021071, -0.0648317, 0.0282616, 0.000874404, 4.62562, 61.4227, 29.5752, 4.37927, 1.98871, 3.81198, -0.0292249, 2.00993e-05, -0.00114904, 0.00156141, 0.00129333, -0.0010009, -0.000413704, 0.0301294, -0.0164826, -0.017024, -0.0333982, 0.0932734, 0.00338789, 0.471373, -0.542431, 0.336386, -2.08313, -2.16636, -0.129163, 0.470168, -0.542219, 0.334883, -2.08253, -2.16687, -0.126755, 0.014677, 0.0387614, 0.0198738, 0.0316087, 0.0123165, -0.00210934
0.0830774, 1.69322, -1.22695, -1.53871, -0.90022, -1.19401, 1.22912, -1.30268, 0.0673392, -0.00254317, -0.00235149, 0.000481932, -0.0633562, 0.0299768, -0.000109787, 4.701, 61.4584, 29.611, 4.41894, 2.00702, 3.84036, -0.00999879, -7.50314e-06, -0.00113092, 0.00158024, 0.00130309, -0.00106163, -0.000437835, 0.0284635, -0.0196018, -0.0177034, -0.03321, 0.0939576, 0.0101552, 0.471388, -0.542392, 0.336407, -2.0831, -2.16638, -0.129134, 0.470201, -0.542203, 0.33488, -2.0825, -2.16694, -0.126655, 0.0150503, 0.0397623, 0.0203841, 0.0350121, 0.0151963, -0.00210707
0.0840774, 1.69329, -1.22695, -1.53871, -0.90022, -1.19408, 1.22914, -1.30268, 0.0703087, -0.000839402, -0.0024937, 0.000325203, -0.0677534, 0.0326624, 0.000178683, 4.81605, 61.4227, 29.6506, 4.41894, 2.05005, 3.82663, -0.0164075, -3.59564e-05, -0.00111182, 0.00159513, 0.00130533, -0.00112942, -0.000458572, 0.0291776, -0.0208403, -0.0170583, -0.0338583, 0.101395, 0.0105263, 0.471403, -0.542351, 0.336427, -2.08308, -2.1664, -0.129103, 0.470236, -0.542188, 0.334881, -2.08248, -2.16702, -0.126556, 0.0154271, 0.0407732, 0.0208993, 0.0366755, 0.0154548, -0.00110342
0.0850774, 1.69337, -1.22695, -1.53871, -0.90022, -1.19415, 1.22917, -1.30268, 0.0712003, -0.00230722, -0.00425944, 0.000219739, -0.065383, 0.0344325, 0.00557301, 4.85175, 61.4981, 29.7617, 4.41894, 2.06836, 3.83304, -0.0228162, -6.39129e-05, -0.00109058, 0.00161662, 0.0013161, -0.00119048, -0.000482888, 0.0300423, -0.0212644, -0.0188237, -0.0334946, 0.0997227, 0.00523037, 0.471419, -0.54231, 0.336448, -2.08304, -2.16642, -0.129072, 0.470273, -0.54217, 0.334876, -2.08245, -2.1671, -0.126454, 0.0158074, 0.041794, 0.0214195, 0.0374464, 0.0159111, -0.00247356
0.0860774, 1.69344, -1.22696, -1.53871, -0.900219, -1.19424, 1.22919, -1.30268, 0.0737873, -0.0049601, -0.00367373, -0.00122515, -0.0688194, 0.0341223, 0.00537801, 4.92713, 61.6449, 29.7974, 4.34357, 2.09949, 3.86233, -0.0557752, -9.43328e-05, -0.00107199, 0.00163876, 0.00132887, -0.00125067, -0.000501054, 0.0303219, -0.0223364, -0.0209101, -0.036589, 0.10062, 0.00756892, 0.471435, -0.542268, 0.33647, -2.08301, -2.16645, -0.129041, 0.470308, -0.542154, 0.33487, -2.08243, -2.16717, -0.126349, 0.016191, 0.0428246, 0.0219445, 0.0388346, 0.0170313, -0.00408506
0.0870774, 1.69352, -1.22696, -1.53872, -0.900226, -1.19432, 1.2292, -1.30268, 0.0719681, -0.00329795, -0.00504678, -0.00283978, -0.0719154, 0.0252153, 0.00245876, 5.04218, 61.6449, 29.9085, 4.41894, 2.14252, 3.87607, -0.0164075, -0.000125023, -0.00105403, 0.00166051, 0.00135154, -0.00132108, -0.000528345, 0.0315615, -0.0190118, -0.0217061, -0.047753, 0.101297, 0.00750896, 0.471451, -0.542224, 0.336492, -2.08298, -2.16647, -0.129008, 0.470343, -0.542137, 0.334866, -2.08239, -2.16726, -0.126222, 0.016578, 0.0438649, 0.0224743, 0.0359176, 0.0168319, -0.00443163
0.0880774, 1.6936, -1.22696, -1.53873, -0.900221, -1.1944, 1.22923, -1.30268, 0.0765755, -0.00386248, -0.00605515, -0.000324778, -0.0782074, 0.0237426, 0.00259986, 5.04218, 61.7163, 30.0236, 4.34357, 2.16724, 3.87607, -0.0356336, -0.000155283, -0.00103124, 0.00168357, 0.00136305, -0.00138501, -0.000548368, 0.0327177, -0.0194726, -0.0227953, -0.0528456, 0.10587, 0.00626293, 0.471468, -0.54218, 0.336515, -2.08295, -2.16649, -0.128975, 0.470382, -0.542118, 0.33486, -2.08236, -2.16733, -0.126114, 0.0169683, 0.0449148, 0.0230089, 0.0367705, 0.0169271, -0.00516594
0.0890774, 1.69368, -1.22696, -1.53873, -0.900224, -1.19448, 1.22925, -1.30268, 0.0780382, -0.000364641, -0.00487151, -0.00119786, -0.0826489, 0.0226095, 0.00191969, 5.11756, 61.756, 30.0593, 4.37927, 2.19104, 3.87607, -0.0356336, -0.000185871, -0.00101007, 0.00170475, 0.00137785, -0.00145455, -0.000577496, 0.0331069, -0.0195035, -0.0209973, -0.0556457, 0.113205, 0.0072908, 0.471485, -0.542135, 0.336538, -2.08291, -2.16652, -0.128941, 0.470421, -0.542098, 0.334857, -2.08232, -2.16742, -0.125996, 0.0173618, 0.0459742, 0.0235482, 0.0372754, 0.0173277, -0.00291254
0.0900774, 1.69376, -1.22697, -1.53873, -0.900229, -1.19456, 1.22926, -1.30268, 0.0790841, -0.00341194, -0.00408254, -0.0026714, -0.0859583, 0.0214464, -0.000750502, 5.19294, 61.9028, 30.095, 4.45465, 2.20935, 3.88339, 0.0229602, -0.00021732, -0.000989873, 0.00173119, 0.00139544, -0.0015129, -0.000610179, 0.0339838, -0.0196043, -0.023255, -0.0590686, 0.113148, 0.0107253, 0.471503, -0.542088, 0.336562, -2.08288, -2.16654, -0.128906, 0.470459, -0.542078, 0.334849, -2.08228, -2.16751, -0.125885, 0.0177586, 0.047043, 0.0240921, 0.0377221, 0.0178819, -0.00473693
0.0910774, 1.69385, -1.22697, -1.53874, -0.900229, -1.19465, 1.22927, -1.30268, 0.0806007, -0.00124079, -0.00448467, -0.00102791, -0.0838907, 0.0200778, -0.000158095, 5.22865, 61.8671, 30.1703, 4.41894, 2.22858, 3.90536, 0.0165515, -0.000247965, -0.000969347, 0.00175069, 0.00141571, -0.00158421, -0.000635748, 0.0342572, -0.0195309, -0.0224836, -0.059363, 0.113608, 0.00975611, 0.471521, -0.542041, 0.336586, -2.08285, -2.16657, -0.128871, 0.470498, -0.542057, 0.334849, -2.08224, -2.16759, -0.125758, 0.0181585, 0.048121, 0.0246406, 0.0380874, 0.0185688, -0.0034669
0.0920774, 1.69393, -1.22697, -1.53874, -0.900231, -1.19473, 1.22929, -1.30268, 0.0819434, 0.00165951, -0.00298958, -0.000746918, -0.0865422, 0.0141159, -0.000501453, 5.26832, 61.9028, 30.1703, 4.41894, 2.23407, 3.93374, 0.0293689, -0.000280405, -0.000950647, 0.00177099, 0.00143216, -0.00165144, -0.000663721, 0.0342074, -0.0186092, -0.021195, -0.0647485, 0.116387, 0.0100499, 0.471539, -0.541992, 0.336611, -2.08281, -2.16659, -0.128834, 0.470535, -0.542036, 0.334848, -2.0822, -2.16768, -0.125638, 0.0185616, 0.0492083, 0.0251936, 0.037616, 0.0194692, -0.00160553
0.0930774, 1.69401, -1.22697, -1.53874, -0.900233, -1.19482, 1.2293, -1.30268, 0.0825417, -0.000187958, -0.00375614, -0.00448625, -0.0840349, 0.0160483, -0.000275306, 5.30799, 61.9742, 30.2457, 4.45465, 2.24689, 3.9191, 0.0293689, -0.000314237, -0.000931761, 0.00179327, 0.00145001, -0.00171809, -0.000689164, 0.0340201, -0.0198802, -0.023329, -0.0650437, 0.114598, 0.0132917, 0.471558, -0.541942, 0.336637, -2.08277, -2.16662, -0.128797, 0.470573, -0.542016, 0.334846, -2.08216, -2.16777, -0.125516, 0.0189677, 0.0503046, 0.0257511, 0.0392064, 0.0211316, -0.00316528
0.0940774, 1.6941, -1.22696, -1.53874, -0.900237, -1.1949, 1.22931, -1.30268, 0.0846998, 0.00140624, -0.0033392, -0.00421243, -0.0819349, 0.0159405, 0.00179349, 5.26832, 62.0496, 30.2814, 4.49432, 2.25879, 3.94107, -0.0228162, -0.00034556, -0.000910443, 0.00181533, 0.00147586, -0.00178958, -0.000715917, 0.0336382, -0.0208512, -0.0227281, -0.0643143, 0.115186, 0.0130742, 0.471577, -0.541891, 0.336663, -2.08274, -2.16665, -0.128759, 0.470614, -0.541992, 0.334845, -2.08212, -2.16785, -0.125379, 0.0193769, 0.05141, 0.0263131, 0.0405938, 0.0225627, -0.00198082
0.0950774, 1.69418, -1.22696, -1.53874, -0.90024, -1.19499, 1.22932, -1.30268, 0.0825284, 0.00208438, -0.00315407, -0.00386369, -0.0803511, 0.0170306, 0.00170356, 5.26832, 62.1606, 30.3211, 4.53003, 2.2652, 3.93374, -0.0356336, -0.000380492, -0.000891448, 0.00183872, 0.00149554, -0.00185673, -0.000741999, 0.0355745, -0.019511, -0.022409, -0.0623673, 0.115753, 0.010402, 0.471597, -0.541839, 0.33669, -2.0827, -2.16667, -0.128721, 0.470653, -0.54197, 0.334842, -2.08208, -2.16794, -0.125253, 0.0197891, 0.0525242, 0.0268794, 0.0397507, 0.0216604, -0.0013581
0.0960774, 1.69427, -1.22696, -1.53874, -0.900243, -1.19508, 1.22933, -1.30268, 0.0853375, 0.0011749, 0.000122401, -0.00668178, -0.0844449, 0.013874, 0.0011606, 5.19294, 62.1964, 30.3568, 4.56573, 2.28351, 3.90536, -0.0356336, -0.000415504, -0.000872171, 0.00185837, 0.00151645, -0.00193355, -0.000769924, 0.034554, -0.0208256, -0.0229989, -0.0664542, 0.117533, 0.0154767, 0.471617, -0.541786, 0.336717, -2.08266, -2.1667, -0.128681, 0.470692, -0.541948, 0.334844, -2.08203, -2.16803, -0.125116, 0.0202043, 0.0536472, 0.02745, 0.0414199, 0.0239369, -0.00125259
0.0970774, 1.69436, -1.22695, -1.53874, -0.900248, -1.19518, 1.22933, -1.30268, 0.0882521, 0.00180575, -0.00142657, -0.0057652, -0.0872202, 0.0103512, 0.000555039, 5.07789, 62.3074, 30.4322, 4.60541, 2.29541, 3.90536, -0.0292249, -0.000450591, -0.000853036, 0.00188165, 0.00154444, -0.00200598, -0.000803648, 0.035165, -0.0205663, -0.0239187, -0.072587, 0.119579, 0.0155362, 0.471637, -0.541732, 0.336744, -2.08262, -2.16673, -0.128641, 0.470732, -0.541924, 0.334843, -2.08198, -2.16812, -0.124974, 0.0206224, 0.0547789, 0.0280249, 0.0415678, 0.0245962, -0.00167263
0.0980774, 1.69444, -1.22695, -1.53874, -0.900251, -1.19527, 1.22934, -1.30268, 0.0856536, 0.00402288, -0.00159496, -0.00496567, -0.0893883, 0.00799848, 0.000146667, 5.04218, 62.3431, 30.4679, 4.64111, 2.30823, 3.89804, -0.0228162, -0.000488721, -0.000837218, 0.00190063, 0.00156528, -0.00208207, -0.000826285, 0.0377674, -0.0177333, -0.0230446, -0.0752869, 0.123038, 0.0108872, 0.471658, -0.541677, 0.336773, -2.08258, -2.16676, -0.128599, 0.47077, -0.541903, 0.334846, -2.08194, -2.16821, -0.124835, 0.0210433, 0.0559192, 0.028604, 0.0392879, 0.0229145, -0.000546049
0.0990774, 1.69452, -1.22694, -1.53874, -0.900254, -1.19536, 1.22934, -1.30268, 0.0844835, 0.00476585, -0.00030606, -0.00352569, -0.0903103, 0.00676592, -0.00036644, 4.9668, 62.4185, 30.579, 4.64111, 2.30823, 3.87607, -0.00999879, -0.0005277, -0.000821461, 0.00192242, 0.00159045, -0.00215524, -0.000853853, 0.0396383, -0.0161839, -0.022412, -0.075203, 0.124458, 0.00833093, 0.471679, -0.54162, 0.336802, -2.08254, -2.16679, -0.128557, 0.470807, -0.541881, 0.334847, -2.0819, -2.1683, -0.124693, 0.0214671, 0.057068, 0.0291872, 0.038257, 0.0220543, 0.000420107
0.100077, 1.69461, -1.22694, -1.53874, -0.900257, -1.19545, 1.22935, -1.30268, 0.0837222, 0.00446925, -0.000756767, -0.00343992, -0.0913873, 0.00548408, -0.000745045, 4.85175, 62.5296, 30.6186, 4.68079, 2.32654, 3.86233, 0.00373412, -0.000567291, -0.000804952, 0.0019447, 0.00161305, -0.00222852, -0.000878616, 0.0414196, -0.0148503, -0.0232233, -0.0775512, 0.125198, 0.00635711, 0.471701, -0.541563, 0.336831, -2.08249, -2.16682, -0.128514, 0.470846, -0.541858, 0.334848, -2.08185, -2.16839, -0.124554, 0.0218936, 0.0582252, 0.0297746, 0.0373879, 0.0215215, -2.81796e-05
0.101077, 1.69469, -1.22692, -1.53874, -0.900267, -1.19555, 1.22935, -1.30268, 0.0836716, 0.00932238, -0.00189348, -0.00417759, -0.0931328, 0.00532712, -0.00120287, 4.74067, 62.5653, 30.6901, 4.75616, 2.35675, 3.82663, 0.0229602, -0.000607387, -0.000789744, 0.00196388, 0.00163813, -0.00231067, -0.000906258, 0.0425564, -0.0140111, -0.0213036, -0.0798969, 0.132318, 0.00523242, 0.471723, -0.541504, 0.336861, -2.08245, -2.16685, -0.128471, 0.470884, -0.541835, 0.334852, -2.08181, -2.16849, -0.124402, 0.0223229, 0.0593907, 0.030366, 0.0370928, 0.021235, 0.00230901
0.102077, 1.69478, -1.22692, -1.53874, -0.900281, -1.19564, 1.22936, -1.30268, 0.087583, 0.00875914, 0.00351649, -0.00952857, -0.0925235, 0.00462669, -0.00103484, 4.58991, 62.6407, 30.7654, 4.90295, 2.33844, 3.80466, 0.0293689, -0.000644751, -0.000771561, 0.00198689, 0.00166497, -0.00238332, -0.000941913, 0.0391929, -0.0178378, -0.0211452, -0.0791464, 0.131956, 0.0154593, 0.471746, -0.541444, 0.336892, -2.08241, -2.16688, -0.128426, 0.470925, -0.541808, 0.334854, -2.08175, -2.16859, -0.124257, 0.022755, 0.0605644, 0.0309614, 0.0412289, 0.0258664, 0.00346316
0.103077, 1.69486, -1.2269, -1.53873, -0.900287, -1.19573, 1.22936, -1.30268, 0.087049, 0.00697699, 0.00303023, -0.0107297, -0.093893, 0.00328057, -0.000211854, 4.43916, 62.6407, 30.7654, 4.94263, 2.36316, 3.80466, 0.0165515, -0.000686642, -0.000757897, 0.00200369, 0.00168591, -0.00246448, -0.000965184, 0.0407152, -0.016887, -0.0230463, -0.0824939, 0.131565, 0.0135303, 0.471769, -0.541383, 0.336923, -2.08236, -2.16691, -0.128381, 0.470963, -0.541785, 0.334862, -2.08171, -2.16869, -0.124108, 0.0231896, 0.0617462, 0.0315607, 0.0407003, 0.0257972, 0.0019791
0.104077, 1.69494, -1.2269, -1.53872, -0.900293, -1.19583, 1.22936, -1.30268, 0.0837211, 0.0083548, 0.00570754, -0.00850005, -0.0896128, 0.00260539, -0.000138744, 4.2884, 62.7875, 30.7654, 4.97833, 2.37598, 3.79733, 0.0165515, -0.000729304, -0.000743507, 0.00202426, 0.00170379, -0.00253659, -0.000991526, 0.0425026, -0.0148546, -0.0212952, -0.0775434, 0.129426, 0.00992939, 0.471792, -0.54132, 0.336955, -2.08231, -2.16694, -0.128334, 0.471001, -0.541761, 0.334866, -2.08167, -2.16878, -0.123972, 0.0236269, 0.0629361, 0.0321639, 0.0392397, 0.0248683, 0.00409796
0.105077, 1.69502, -1.22688, -1.53872, -0.900306, -1.19592, 1.22936, -1.30268, 0.0844587, 0.00810403, 0.00583279, -0.0117462, -0.0907065, 0.00235587, -0.000327986, 4.13764, 62.8589, 30.8408, 5.08942, 2.37598, 3.7836, 0.0229602, -0.00077309, -0.000730801, 0.00204513, 0.00172641, -0.00261244, -0.00101866, 0.0426563, -0.0153789, -0.0223373, -0.0803139, 0.131067, 0.0124075, 0.471816, -0.541257, 0.336987, -2.08227, -2.16698, -0.128287, 0.471039, -0.541737, 0.334871, -2.08162, -2.16888, -0.123825, 0.0240668, 0.0641338, 0.032771, 0.0401709, 0.0260965, 0.00363608
0.106077, 1.6951, -1.22687, -1.53871, -0.900315, -1.196, 1.22936, -1.30268, 0.0837673, 0.0104098, 0.00509612, -0.0124116, -0.091081, 0.00141595, 0.00100345, 4.02259, 62.8232, 30.9519, 5.12909, 2.36316, 3.79001, -0.00999879, -0.000817388, -0.000719321, 0.00206186, 0.00174571, -0.00268986, -0.00103882, 0.0439455, -0.0142775, -0.0218139, -0.0824456, 0.134113, 0.00946441, 0.47184, -0.541192, 0.337021, -2.08222, -2.16701, -0.128239, 0.471075, -0.541713, 0.33488, -2.08158, -2.16897, -0.123679, 0.0245092, 0.0653394, 0.0333819, 0.0395814, 0.0259027, 0.00459867
0.107077, 1.69519, -1.22685, -1.53871, -0.900324, -1.1961, 1.22936, -1.30268, 0.0862277, 0.0117262, 0.00571134, -0.0161039, -0.0875536, 0.00124338, 0.000907375, 3.79646, 62.9343, 31.0273, 5.16479, 2.37598, 3.7836, -0.0164075, -0.00086234, -0.000704952, 0.00208371, 0.0017677, -0.00276627, -0.00106571, 0.0420593, -0.0164525, -0.0219137, -0.082917, 0.13364, 0.0156832, 0.471865, -0.541126, 0.337054, -2.08217, -2.16705, -0.12819, 0.471115, -0.541688, 0.334885, -2.08153, -2.16907, -0.123531, 0.0249541, 0.0665526, 0.0339965, 0.0421256, 0.0290857, 0.00533909
0.108077, 1.69526, -1.22684, -1.53869, -0.900345, -1.19619, 1.22936, -1.30268, 0.0843379, 0.0113758, 0.00793122, -0.0184638, -0.0892482, 0.000875455, -0.000852357, 3.72108, 62.97, 31.0273, 5.31555, 2.37598, 3.7836, 0.0229602, -0.000907373, -0.000693942, 0.0020991, 0.00178358, -0.00284791, -0.00110023, 0.0433497, -0.0155772, -0.0220303, -0.0834316, 0.135329, 0.0171482, 0.47189, -0.541059, 0.337088, -2.08212, -2.16708, -0.12814, 0.471153, -0.541662, 0.334897, -2.08147, -2.16918, -0.123385, 0.0254015, 0.0677736, 0.0346148, 0.0417431, 0.0290137, 0.00567002
0.109077, 1.69534, -1.22682, -1.53868, -0.900355, -1.19628, 1.22936, -1.30268, 0.0828559, 0.0124783, 0.00857094, -0.0164808, -0.0907851, 0.000889807, -0.000330288, 3.6457, 63.0811, 31.063, 5.31555, 2.38147, 3.77627, 0.0165515, -0.000957441, -0.000686266, 0.00211744, 0.00179912, -0.00292307, -0.00111865, 0.0459568, -0.0137408, -0.0212424, -0.0828053, 0.138261, 0.012191, 0.471916, -0.54099, 0.337123, -2.08207, -2.16712, -0.128089, 0.471187, -0.54164, 0.334906, -2.08144, -2.16927, -0.123242, 0.0258513, 0.069002, 0.0352367, 0.040486, 0.0274698, 0.00672402
0.110077, 1.69542, -1.22681, -1.53867, -0.900374, -1.19638, 1.22936, -1.30269, 0.0816706, 0.0103496, 0.00889571, -0.0167965, -0.0911299, 0.000890649, -0.00191517, 3.45527, 63.1921, 31.1027, 5.38696, 2.36316, 3.76895, 0.0623279, -0.00100315, -0.000672785, 0.00213685, 0.00181628, -0.00300068, -0.00115719, 0.0478887, -0.0127181, -0.0228048, -0.0833266, 0.137228, 0.0119528, 0.471942, -0.540921, 0.337159, -2.08202, -2.16715, -0.128038, 0.471227, -0.541612, 0.334915, -2.08137, -2.16938, -0.123097, 0.0263034, 0.0702379, 0.0358623, 0.0399314, 0.0269946, 0.00554003
0.111077, 1.6955, -1.22678, -1.53867, -0.900389, -1.19647, 1.22935, -1.30269, 0.0786963, 0.0121449, 0.00677331, -0.0153952, -0.0921171, 0.000613399, -0.00103909, 3.34419, 63.1564, 31.2494, 5.38696, 2.36316, 3.76895, 0.0559192, -0.00105277, -0.000663511, 0.00215194, 0.00183756, -0.00309046, -0.00117967, 0.0513737, -0.00967954, -0.0226225, -0.0851071, 0.14045, 0.00451343, 0.471968, -0.54085, 0.337195, -2.08197, -2.16719, -0.127985, 0.471264, -0.541588, 0.334928, -2.08133, -2.16949, -0.122932, 0.0267579, 0.0714811, 0.0364913, 0.037489, 0.0246403, 0.00590519
0.112077, 1.69558, -1.22676, -1.53865, -0.900412, -1.19656, 1.22936, -1.30269, 0.0805899, 0.0148002, 0.0108321, -0.0162755, -0.0931269, 0.000694925, -0.000929835, 3.19343, 63.1921, 31.2891, 5.46234, 2.37598, 3.76163, 0.0623279, -0.00109926, -0.000648681, 0.00216767, 0.00185313, -0.0031813, -0.00121695, 0.0506949, -0.0110107, -0.0202824, -0.0829314, 0.144682, 0.00758297, 0.471995, -0.540778, 0.337232, -2.08192, -2.16723, -0.127932, 0.471307, -0.541559, 0.334942, -2.08128, -2.16961, -0.122773, 0.0272147, 0.0727316, 0.0371239, 0.0393385, 0.0262589, 0.00891237
0.113077, 1.69566, -1.22674, -1.53864, -0.900435, -1.19666, 1.22936, -1.30269, 0.0770051, 0.0126802, 0.00893521, -0.0182519, -0.0939707, 0.000203059, -0.000382344, 3.11805, 63.4103, 31.4002, 5.46234, 2.38788, 3.76895, 0.0559192, -0.00115029, -0.000639535, 0.00218978, 0.00187442, -0.00325808, -0.00124494, 0.0537347, -0.00846926, -0.0227825, -0.0864784, 0.144057, 0.0030496, 0.472023, -0.540705, 0.337269, -2.08186, -2.16726, -0.127878, 0.471345, -0.541532, 0.334949, -2.08122, -2.16971, -0.12262, 0.0276737, 0.0739892, 0.0377598, 0.0372806, 0.0247904, 0.00668942
0.114077, 1.69574, -1.22671, -1.53863, -0.900463, -1.19675, 1.22936, -1.30268, 0.0735146, 0.019453, 0.00950193, -0.0215702, -0.0944673, 0.000414923, 0.00144067, 3.07838, 63.4103, 31.4359, 5.53772, 2.39978, 3.76163, 0.0101428, -0.00119933, -0.000628886, 0.00220111, 0.00188709, -0.00335255, -0.00127407, 0.0549955, -0.00671129, -0.019309, -0.0869859, 0.15232, -0.00036693, 0.472051, -0.54063, 0.337307, -2.08181, -2.1673, -0.127822, 0.471385, -0.541504, 0.334968, -2.08118, -2.16983, -0.122458, 0.028135, 0.0752539, 0.0383992, 0.036165, 0.0242031, 0.0106193
0.115077, 1.69582, -1.2267, -1.53862, -0.900487, -1.19685, 1.22936, -1.30268, 0.0794186, 0.0199708, 0.0101732, -0.0244815, -0.0959065, 0.000554095, 0.00119791, 2.92762, 63.5968, 31.5867, 5.50201, 2.43732, 3.7543, 0.00373412, -0.00125178, -0.000617806, 0.00222249, 0.00190864, -0.0034394, -0.00130437, 0.0529481, -0.0101454, -0.0199174, -0.0896866, 0.15535, 0.00705408, 0.472079, -0.540554, 0.337346, -2.08175, -2.16734, -0.127766, 0.471425, -0.541476, 0.334977, -2.08112, -2.16994, -0.122293, 0.0285984, 0.0765256, 0.0390419, 0.03996, 0.0277358, 0.0108708
0.116077, 1.69589, -1.22667, -1.5386, -0.900525, -1.19695, 1.22936, -1.30268, 0.077689, 0.0282704, 0.0143702, -0.0302963, -0.0956701, 0.000374055, 0.000561325, 2.92762, 63.5968, 31.5867, 5.6131, 2.44281, 3.7543, 0.0101428, -0.00129992, -0.000605831, 0.00223344, 0.00192207, -0.00353688, -0.00134752, 0.0516122, -0.0105465, -0.0147348, -0.0883443, 0.164389, 0.0119691, 0.472108, -0.540477, 0.337386, -2.0817, -2.16738, -0.127709, 0.471468, -0.541444, 0.334998, -2.08106, -2.17008, -0.122126, 0.0290639, 0.0778042, 0.0396878, 0.0409721, 0.0295566, 0.0168289
0.117077, 1.69589, -1.22667, -1.5386, -0.900525, -1.19695, 1.22936, -1.30268, 0.077689, 0.0282704, 0.0143702, -0.0302963, -0.0956701, 0.000374055, 0.000561325, 2.92762, 63.5968, 31.5867, 5.6131, 2.44281, 3.7543, 0.0101428, -0.00138239, -0.000637154, 0.00226209, 0.00188211, -0.00351918, -0.00130464, 0.0529642, -0.0100432, -0.0151971, -0.0888567, 0.165254, 0.0109244, 0.472137, -0.540398, 0.337426, -2.08164, -2.16742, -0.127651, 0.471468, -0.541444, 0.334998, -2.08106, -2.17008, -0.122126, 0.0295316, 0.0790895, 0.040337, 0.0409721, 0.0295566, 0.0168289
0.118077, 1.69589, -1.22667, -1.5386, -0.900525, -1.19695, 1.22936, -1.30268, 0.077689, 0.0282704, 0.0143702, -0.0302963, -0.0956701, 0.000374055, 0.000561325, 2.92762, 63.5968, 31.5867, 5.6131, 2.44281, 3.7543, 0.0101428, -0.00146621, -0.000668983, 0.0022912, 0.00184151, -0.00350121, -0.00126107, 0.0543232, -0.00953768, -0.0156617, -0.0893707, 0.166123, 0.00987532, 0.472167, -0.540319, 0.337466, -2.08158, -2.16746, -0.127592, 0.471468, -0.541444, 0.334998, -2.08106, -2.17008, -0.122126, 0.0300013, 0.0803815, 0.0409894, 0.0409721, 0.0295566, 0.0168289
0.119077, 1.69613, -1.22659, -1.53854, -0.900619, -1.19724, 1.22936, -1.30268, 0.0806805, 0.0264029, 0.0170246, -0.031249, -0.0959548, 0.000296942, -0.000176444, 2.89191, 63.8904, 31.8445, 5.42664, 2.49866, 3.74698, 0.0165515, -0.0014584, -0.000573206, 0.00228034, 0.00196497, -0.00381686, -0.00145785, 0.0537344, -0.011371, -0.0165733, -0.0888151, 0.165345, 0.0145621, 0.472197, -0.540238, 0.337508, -2.08152, -2.1675, -0.127533, 0.471594, -0.541353, 0.335048, -2.08089, -2.17046, -0.121629, 0.030473, 0.0816802, 0.0416449, 0.0432199, 0.0316548, 0.0166181
0.120077, 1.69622, -1.22656, -1.53852, -0.900657, -1.19734, 1.22936, -1.30268, 0.0873582, 0.0247109, 0.0195791, -0.0321353, -0.09685, 0.000436794, -0.000592322, 2.81654, 64.1125, 31.8445, 5.38696, 2.54169, 3.74057, 0.0293689, -0.0015074, -0.000555647, 0.00229853, 0.00197705, -0.00390722, -0.00151207, 0.0516849, -0.0152072, -0.0175852, -0.0889691, 0.165469, 0.0222502, 0.472228, -0.540155, 0.33755, -2.08146, -2.16755, -0.127472, 0.471643, -0.541315, 0.335064, -2.08081, -2.17061, -0.121469, 0.0309467, 0.0829853, 0.0423035, 0.0474109, 0.0353033, 0.0164738
0.121077, 1.69629, -1.22653, -1.5385, -0.900693, -1.19744, 1.22936, -1.30268, 0.0837264, 0.0270069, 0.0156084, -0.0334211, -0.101397, 0.0011061, -0.000394863, 2.96729, 64.184, 31.9556, 5.24017, 2.56, 3.7186, 0.0293689, -0.00156598, -0.000548697, 0.0023123, 0.00198721, -0.0040073, -0.00154362, 0.0558769, -0.011816, -0.0180371, -0.0943468, 0.172957, 0.0150625, 0.472259, -0.540072, 0.337592, -2.0814, -2.16759, -0.12741, 0.471683, -0.541287, 0.335084, -2.08076, -2.17074, -0.121298, 0.0314223, 0.0842969, 0.0429652, 0.0446424, 0.0323999, 0.0161488
0.122077, 1.69638, -1.2265, -1.53848, -0.900739, -1.19754, 1.22936, -1.30269, 0.0857333, 0.0294047, 0.0166009, -0.0400789, -0.104822, 0.000195697, -0.00195865, 2.92762, 64.2236, 32.031, 5.2005, 2.58472, 3.73324, 0.0751453, -0.00161469, -0.000531703, 0.00232722, 0.00200769, -0.00410952, -0.00160497, 0.0545391, -0.0134897, -0.0178455, -0.0996286, 0.179189, 0.0226575, 0.472291, -0.539987, 0.337635, -2.08134, -2.16763, -0.127348, 0.471733, -0.541248, 0.335105, -2.08068, -2.1709, -0.121115, 0.0318998, 0.0856148, 0.0436298, 0.0467499, 0.0350815, 0.0171569
0.123077, 1.69646, -1.22647, -1.53846, -0.900782, -1.19765, 1.22936, -1.30269, 0.0878541, 0.0271356, 0.0141563, -0.0400852, -0.107394, 0.000402354, -0.00130576, 3.003, 64.295, 32.1064, 5.08942, 2.60303, 3.72592, 0.0751453, -0.00166953, -0.000519367, 0.00234268, 0.00202092, -0.00420955, -0.00165086, 0.0562348, -0.0135253, -0.0206099, -0.103819, 0.180261, 0.021047, 0.472323, -0.5399, 0.337679, -2.08127, -2.16768, -0.127284, 0.471779, -0.541213, 0.335125, -2.08061, -2.17104, -0.12094, 0.0323792, 0.0869389, 0.0442973, 0.0472259, 0.0351563, 0.0148321
0.124077, 1.69654, -1.22643, -1.53844, -0.90083, -1.19775, 1.22936, -1.30269, 0.0872538, 0.027173, 0.0156493, -0.0413507, -0.104922, 0.00053997, -0.000158419, 3.04267, 64.295, 32.1818, 5.01404, 2.62775, 3.7186, 0.0559192, -0.0017213, -0.000503761, 0.00235595, 0.00203616, -0.00431537, -0.0017032, 0.0567303, -0.0135146, -0.0206679, -0.102263, 0.179232, 0.0208849, 0.472355, -0.539813, 0.337724, -2.08121, -2.16772, -0.127219, 0.471828, -0.541173, 0.335148, -2.08054, -2.1712, -0.120757, 0.0328604, 0.0882692, 0.0449678, 0.0477147, 0.0360061, 0.0153695
0.125077, 1.69663, -1.2264, -1.53842, -0.900878, -1.19785, 1.22936, -1.30269, 0.0859507, 0.0259108, 0.0159509, -0.0413696, -0.107897, 0.000631597, 0.000131752, 3.11805, 64.3347, 32.2928, 4.90295, 2.66437, 3.71127, 0.0495105, -0.00177578, -0.000489645, 0.00237259, 0.00205197, -0.0044169, -0.00175449, 0.0593604, -0.0120251, -0.0217047, -0.103737, 0.181296, 0.0174192, 0.472389, -0.539724, 0.337769, -2.08114, -2.16777, -0.127154, 0.471877, -0.541135, 0.335168, -2.08046, -2.17135, -0.120576, 0.0333434, 0.0896055, 0.045641, 0.0467722, 0.0348403, 0.0146605
0.126077, 1.69671, -1.22636, -1.53839, -0.900932, -1.19794, 1.22936, -1.30268, 0.087358, 0.0283851, 0.0179021, -0.0464338, -0.104841, 0.000421327, 0.0015459, 3.22913, 64.3704, 32.3285, 4.86725, 2.67627, 3.71127, 0.0101428, -0.00182923, -0.000475183, 0.00238809, 0.00206565, -0.00451754, -0.00180734, 0.0573693, -0.0140202, -0.0208304, -0.103706, 0.182431, 0.0226616, 0.472422, -0.539634, 0.337815, -2.08108, -2.16781, -0.127088, 0.471926, -0.541095, 0.33519, -2.08038, -2.1715, -0.120398, 0.0338281, 0.0909478, 0.0463171, 0.049209, 0.0381011, 0.0164447
0.127077, 1.69679, -1.22633, -1.53837, -0.900987, -1.19805, 1.22936, -1.30268, 0.0881056, 0.0309574, 0.0183325, -0.0499208, -0.108308, 0.000552349, 0.00126796, 3.34419, 64.3704, 32.4039, 4.82758, 2.7193, 3.70395, 0.00373412, -0.00188562, -0.000462075, 0.00240384, 0.00208184, -0.00462461, -0.00186038, 0.0577818, -0.0143527, -0.02015, -0.10689, 0.189117, 0.0246432, 0.472456, -0.539542, 0.337862, -2.08101, -2.16786, -0.12702, 0.471975, -0.541056, 0.335212, -2.0803, -2.17166, -0.120209, 0.0343145, 0.092296, 0.0469959, 0.0500708, 0.0389527, 0.0177216
0.128077, 1.69687, -1.22629, -1.53835, -0.901046, -1.19815, 1.22936, -1.30268, 0.0836641, 0.0297147, 0.0155586, -0.0544909, -0.101936, 0.000605739, 0.000845311, 3.41956, 64.3704, 32.4793, 4.75616, 2.77515, 3.69754, 0.00373412, -0.00194159, -0.000447545, 0.00242247, 0.00210289, -0.00473096, -0.00191839, 0.0592597, -0.0126167, -0.022752, -0.108427, 0.184041, 0.024427, 0.472491, -0.539449, 0.337909, -2.08094, -2.16791, -0.126952, 0.472025, -0.541015, 0.335232, -2.08022, -2.17182, -0.120015, 0.0348026, 0.09365, 0.0476774, 0.0487844, 0.0391705, 0.0156612
0.129077, 1.69696, -1.22626, -1.53833, -0.901105, -1.19825, 1.22936, -1.30268, 0.0795566, 0.0260233, 0.0167109, -0.0560302, -0.10027, 0.000403937, 8.88249e-05, 3.53065, 64.4815, 32.5547, 4.71649, 2.78705, 3.69754, 0.0165515, -0.00199748, -0.000433135, 0.00244432, 0.00212188, -0.0048245, -0.00198037, 0.0618137, -0.010549, -0.0250208, -0.107766, 0.179739, 0.0225651, 0.472526, -0.539355, 0.337957, -2.08087, -2.16796, -0.126882, 0.472076, -0.540972, 0.335249, -2.08012, -2.17198, -0.119836, 0.0352924, 0.0950097, 0.0483616, 0.047222, 0.0382659, 0.0137771
0.130077, 1.69704, -1.22623, -1.53831, -0.901166, -1.19835, 1.22936, -1.30269, 0.0827238, 0.0253498, 0.0190347, -0.0602861, -0.100356, 3.20152e-05, -0.0016362, 3.6457, 64.5172, 32.7015, 4.68079, 2.84198, 3.70395, 0.0623279, -0.0020553, -0.000418715, 0.00246564, 0.00214091, -0.00492547, -0.00204481, 0.0601266, -0.013085, -0.0258636, -0.109176, 0.180205, 0.03115, 0.472561, -0.539259, 0.338006, -2.0808, -2.168, -0.126812, 0.472127, -0.540929, 0.335267, -2.08002, -2.17215, -0.119649, 0.0357837, 0.096375, 0.0490484, 0.0501513, 0.041536, 0.0138119
0.131077, 1.69712, -1.22619, -1.53829, -0.901223, -1.19844, 1.22936, -1.30269, 0.0820464, 0.0278334, 0.0211301, -0.0585765, -0.0991891, 0.000258765, -0.000853442, 3.75678, 64.5529, 32.7015, 4.56573, 2.87311, 3.69754, 0.0559192, -0.00211566, -0.00040694, 0.00248409, 0.00214775, -0.00502144, -0.00209951, 0.0614935, -0.0122806, -0.0238593, -0.106005, 0.182438, 0.0284458, 0.472597, -0.539162, 0.338055, -2.08073, -2.16805, -0.126741, 0.472177, -0.540889, 0.335289, -2.07994, -2.17231, -0.119479, 0.0362765, 0.0977458, 0.0497377, 0.0499715, 0.041216, 0.0162958
0.132077, 1.69721, -1.22616, -1.53826, -0.901293, -1.19854, 1.22936, -1.30269, 0.0870985, 0.0256872, 0.0217104, -0.0641221, -0.0940567, 0.000715091, -9.42427e-05, 3.75678, 64.6283, 32.7372, 4.60541, 2.90332, 3.68289, 0.0431018, -0.00216912, -0.000387607, 0.0025067, 0.00216236, -0.00511381, -0.00217385, 0.0581473, -0.0166168, -0.0263988, -0.106815, 0.177871, 0.0384782, 0.472634, -0.539064, 0.338106, -2.08066, -2.1681, -0.126669, 0.472234, -0.540839, 0.335308, -2.07983, -2.17249, -0.119304, 0.0367709, 0.0991221, 0.0504295, 0.0545729, 0.0464732, 0.0148583
0.133077, 1.69729, -1.22612, -1.53823, -0.901357, -1.19863, 1.22936, -1.30269, 0.0855446, 0.0276687, 0.0212737, -0.0600065, -0.0893277, 0.00074803, -0.000300187, 3.83216, 64.5529, 32.8126, 4.56573, 2.90973, 3.67557, 0.0495105, -0.00222868, -0.000375313, 0.00252243, 0.00217231, -0.00521624, -0.00223516, 0.0604796, -0.0147093, -0.0252362, -0.103154, 0.176512, 0.033772, 0.472671, -0.538964, 0.338156, -2.08059, -2.16815, -0.126595, 0.472285, -0.540795, 0.335334, -2.07974, -2.17266, -0.119122, 0.0372668, 0.100504, 0.0511238, 0.0532996, 0.0452915, 0.0164023
0.134077, 1.69737, -1.22609, -1.5382, -0.901426, -1.19872, 1.22936, -1.30268, 0.083324, 0.0293844, 0.0266802, -0.0641431, -0.0911933, 0.00076998, -0.00939071, 3.83216, 64.5926, 32.7768, 4.56573, 2.92804, 3.66824, 0.0165515, -0.00228695, -0.000359863, 0.00254221, 0.0021784, -0.00531046, -0.00230106, 0.0607752, -0.0145563, -0.0232566, -0.101293, 0.180627, 0.0451147, 0.472708, -0.538862, 0.338208, -2.08052, -2.16821, -0.126521, 0.472339, -0.540748, 0.335356, -2.07964, -2.17283, -0.118953, 0.0377641, 0.101891, 0.0518204, 0.0537333, 0.0460777, 0.0190137
0.135077, 1.69745, -1.22605, -1.53817, -0.901496, -1.19881, 1.22936, -1.30268, 0.083611, 0.0306124, 0.0288996, -0.0691978, -0.0875644, 0.00051334, -0.00712808, 3.87183, 64.6283, 32.8126, 4.53003, 2.94086, 3.66824, 0.0165515, -0.00234795, -0.000347303, 0.0025624, 0.00218461, -0.00540292, -0.00236618, 0.0592788, -0.0160285, -0.0229833, -0.100742, 0.180005, 0.0487081, 0.472746, -0.53876, 0.33826, -2.08044, -2.16826, -0.126446, 0.472391, -0.540702, 0.335379, -2.07954, -2.173, -0.118783, 0.0382628, 0.103283, 0.0525195, 0.0556574, 0.0489701, 0.0201668
0.136077, 1.69752, -1.22602, -1.53814, -0.901569, -1.1989, 1.22936, -1.30268, 0.0811799, 0.0326188, 0.0320516, -0.0677717, -0.0859713, 7.0974e-05, -0.0051654, 3.90754, 64.6283, 32.7768, 4.53003, 2.98389, 3.67557, 0.0101428, -0.00240831, -0.000334016, 0.00257979, 0.00218823, -0.00549966, -0.00243472, 0.0610405, -0.0144132, -0.0209028, -0.0969423, 0.180998, 0.0439795, 0.472785, -0.538656, 0.338313, -2.08036, -2.16831, -0.12637, 0.472445, -0.540654, 0.335405, -2.07944, -2.17318, -0.118612, 0.0387628, 0.10468, 0.0532208, 0.0546943, 0.0482397, 0.0227033
0.137077, 1.6976, -1.22598, -1.53811, -0.901649, -1.19899, 1.22936, -1.30268, 0.0789592, 0.0339421, 0.0296951, -0.0684944, -0.0823677, 0.000318594, -0.00393163, 3.94721, 64.6283, 32.8126, 4.60541, 2.96466, 3.66824, 0.0101428, -0.00246843, -0.000320286, 0.00260056, 0.00219202, -0.00558977, -0.00250872, 0.0629609, -0.0127944, -0.0214292, -0.097542, 0.180567, 0.0401218, 0.472824, -0.538551, 0.338366, -2.08029, -2.16836, -0.126293, 0.472499, -0.540605, 0.335428, -2.07932, -2.17336, -0.118447, 0.0392642, 0.106082, 0.0539245, 0.0536353, 0.0477555, 0.0226437
0.138077, 1.69768, -1.22594, -1.53808, -0.901723, -1.19908, 1.22936, -1.30268, 0.0783201, 0.0332669, 0.0299999, -0.0715589, -0.0815996, -0.00420039, -0.00224112, 3.94721, 64.6997, 32.8879, 4.53003, 2.99579, 3.66092, -0.00999879, -0.00253203, -0.000307357, 0.00262255, 0.00219657, -0.00568229, -0.00257451, 0.0631899, -0.0118968, -0.0230096, -0.102789, 0.178213, 0.0397695, 0.472864, -0.538444, 0.338421, -2.08021, -2.16842, -0.126215, 0.472553, -0.540557, 0.33545, -2.07922, -2.17354, -0.118277, 0.0397669, 0.107489, 0.0546303, 0.053192, 0.0491385, 0.0217833
0.139077, 1.69776, -1.2259, -1.53804, -0.901813, -1.19916, 1.22936, -1.30269, 0.0794587, 0.0331521, 0.0331698, -0.0762421, -0.0846335, -0.00268196, -0.00373529, 3.87183, 64.6283, 32.8522, 4.68079, 2.99579, 3.64718, 0.0431018, -0.00258751, -0.00028874, 0.00263829, 0.00219334, -0.00577672, -0.00266983, 0.0628751, -0.0135257, -0.0230229, -0.103037, 0.182532, 0.0458775, 0.472904, -0.538336, 0.338476, -2.08013, -2.16847, -0.126136, 0.472613, -0.5405, 0.335481, -2.07909, -2.17375, -0.118115, 0.0402709, 0.108901, 0.0553384, 0.0553122, 0.0509352, 0.022475
0.140077, 1.69783, -1.22586, -1.53801, -0.901897, -1.19924, 1.22936, -1.30268, 0.0741776, 0.0333396, 0.0359639, -0.0818363, -0.0825055, -0.00235199, -0.00100066, 3.90754, 64.664, 32.9236, 4.68079, 3.0022, 3.65451, -0.00267457, -0.00265224, -0.00027882, 0.00265841, 0.00219241, -0.00586494, -0.00273583, 0.0640611, -0.0120479, -0.0229014, -0.101673, 0.182236, 0.0437516, 0.472944, -0.538226, 0.338531, -2.08005, -2.16853, -0.126055, 0.472665, -0.540451, 0.335506, -2.07899, -2.17392, -0.117953, 0.040776, 0.110318, 0.0560486, 0.0543948, 0.0510974, 0.0231707
0.141077, 1.6979, -1.22583, -1.53796, -0.901982, -1.19932, 1.22936, -1.30268, 0.0754807, 0.0310603, 0.0364718, -0.0828238, -0.0857379, -0.00124502, -0.00105888, 3.83216, 64.8108, 32.9236, 4.68079, 3.0141, 3.63986, 0.00373412, -0.00271371, -0.000262388, 0.00268163, 0.00218674, -0.0059478, -0.0028201, 0.0655372, -0.0124194, -0.0246691, -0.103161, 0.184209, 0.0440437, 0.472985, -0.538115, 0.338588, -2.07997, -2.16858, -0.125974, 0.472724, -0.540397, 0.33553, -2.07886, -2.17412, -0.117803, 0.0412824, 0.111739, 0.0567608, 0.0552632, 0.0513477, 0.0218987
0.142077, 1.69797, -1.22579, -1.53793, -0.90208, -1.1994, 1.22936, -1.30268, 0.0703401, 0.032211, 0.0382862, -0.0865883, -0.0877502, -0.00126595, 0.00814991, 3.90754, 64.8505, 32.999, 4.79187, 3.0141, 3.64718, 0.0357776, -0.00277814, -0.000252412, 0.00270298, 0.00218588, -0.0060342, -0.00289998, 0.0681117, -0.00988995, -0.0241119, -0.103939, 0.188009, 0.0320952, 0.473027, -0.538002, 0.338645, -2.07989, -2.16864, -0.125892, 0.472777, -0.540344, 0.335556, -2.07874, -2.17431, -0.117643, 0.0417899, 0.113165, 0.0574751, 0.053369, 0.050035, 0.0228494
0.143077, 1.69804, -1.22575, -1.53788, -0.902172, -1.19948, 1.22936, -1.30268, 0.0711937, 0.0356084, 0.0426185, -0.0857523, -0.084886, -0.000424937, 0.00643031, 3.79646, 64.7751, 32.9633, 4.75616, 3.026, 3.63254, 0.0293689, -0.00283801, -0.000235675, 0.00271573, 0.00217096, -0.00612902, -0.002991, 0.0677691, -0.0107915, -0.020945, -0.0980756, 0.190078, 0.0357584, 0.473069, -0.537889, 0.338703, -2.07981, -2.1687, -0.125809, 0.472838, -0.540287, 0.335591, -2.07861, -2.17452, -0.117489, 0.0422985, 0.114595, 0.0581914, 0.0548904, 0.0513604, 0.0267176
0.144077, 1.6981, -1.22571, -1.53783, -0.902272, -1.19955, 1.22936, -1.30268, 0.0681423, 0.0343639, 0.0429873, -0.0901873, -0.0787184, 0.000132707, 0.00485663, 3.83216, 64.8505, 33.0387, 4.79187, 3.05072, 3.6188, 0.0293689, -0.00290415, -0.000226646, 0.00273564, 0.00216185, -0.00621208, -0.00307279, 0.0681873, -0.0103957, -0.0224727, -0.0966937, 0.185288, 0.039342, 0.473111, -0.537773, 0.338761, -2.07972, -2.16875, -0.125725, 0.472891, -0.540233, 0.33562, -2.07849, -2.17472, -0.117339, 0.0428082, 0.11603, 0.0589097, 0.0549647, 0.0525979, 0.0258766
0.145077, 1.69816, -1.22566, -1.53778, -0.902377, -1.19962, 1.22936, -1.30268, 0.0667046, 0.0377016, 0.0473994, -0.0933265, -0.0773954, -0.000218358, 0.00366507, 3.83216, 64.8862, 33.0744, 4.82758, 3.03882, 3.62521, 0.0293689, -0.00296708, -0.000215666, 0.00275101, 0.00214412, -0.00629357, -0.00316287, 0.0678657, -0.0105207, -0.0198497, -0.0940501, 0.188262, 0.043212, 0.473154, -0.537657, 0.338821, -2.07964, -2.16881, -0.12564, 0.472947, -0.540176, 0.335654, -2.07836, -2.17493, -0.117201, 0.0433189, 0.117469, 0.0596298, 0.0556929, 0.0539602, 0.0292335
0.146077, 1.69822, -1.22563, -1.53773, -0.902483, -1.19969, 1.22936, -1.30268, 0.0679538, 0.0335501, 0.0496032, -0.0941679, -0.0779106, 0.000310951, 0.00395067, 3.87183, 65.0687, 33.1498, 4.79187, 3.06903, 3.61148, -0.00267457, -0.00303481, -0.000206283, 0.00277471, 0.002129, -0.00636774, -0.00324499, 0.0686562, -0.0113536, -0.0221551, -0.0933797, 0.185745, 0.0447271, 0.473198, -0.537538, 0.338881, -2.07955, -2.16887, -0.125554, 0.473002, -0.540121, 0.33568, -2.07823, -2.17512, -0.117064, 0.0438306, 0.118913, 0.0603519, 0.0569803, 0.0550118, 0.027531
0.147077, 1.69828, -1.22559, -1.53767, -0.902591, -1.19976, 1.22936, -1.30268, 0.0645451, 0.0364506, 0.0535178, -0.0980943, -0.077234, 0.000439491, 0.00314541, 3.83216, 65.144, 33.1498, 4.75616, 3.06903, 3.60415, -0.00999879, -0.00309756, -0.000192809, 0.00279072, 0.00210295, -0.00644466, -0.0033411, 0.0693098, -0.0104834, -0.0199329, -0.0911659, 0.189095, 0.0465052, 0.473242, -0.537419, 0.338941, -2.07946, -2.16893, -0.125467, 0.473061, -0.54006, 0.335715, -2.0781, -2.17534, -0.116938, 0.0443433, 0.12036, 0.0610757, 0.0567396, 0.0554366, 0.0303781
0.148077, 1.69833, -1.22555, -1.53761, -0.902712, -1.19982, 1.22936, -1.30268, 0.0560042, 0.0384861, 0.0553134, -0.102641, -0.0768579, -0.000278849, 0.00153123, 3.90754, 65.2155, 33.1855, 4.79187, 3.07544, 3.6188, 0.0101428, -0.00316268, -0.000183493, 0.00280904, 0.00208138, -0.00651903, -0.00343995, 0.0725687, -0.0063322, -0.0188712, -0.0912811, 0.191438, 0.0434636, 0.473287, -0.537298, 0.339003, -2.07938, -2.16899, -0.125378, 0.473117, -0.54, 0.335748, -2.07795, -2.17555, -0.116809, 0.044857, 0.121812, 0.0618013, 0.0532808, 0.0533236, 0.0317873
0.149077, 1.69839, -1.2255, -1.53756, -0.902832, -1.19988, 1.22936, -1.30268, 0.0577293, 0.0417482, 0.0520346, -0.107548, -0.0713329, 0.000605922, 0.00163075, 3.90754, 65.2155, 33.2966, 4.75616, 3.07544, 3.59683, -0.00267457, -0.00322866, -0.000173548, 0.00282585, 0.00205842, -0.00659864, -0.00353457, 0.071233, -0.00797161, -0.0193309, -0.0936687, 0.192278, 0.048445, 0.473332, -0.537175, 0.339065, -2.07929, -2.16905, -0.125289, 0.473174, -0.53994, 0.335783, -2.07782, -2.17577, -0.116674, 0.0453715, 0.123267, 0.0625286, 0.0553655, 0.0562412, 0.032214
0.150077, 1.69843, -1.22546, -1.5375, -0.902957, -1.19994, 1.22936, -1.30268, 0.0547848, 0.0392651, 0.0525031, -0.114347, -0.0683187, 0.00065873, 0.000239132, 3.94721, 65.2908, 33.4076, 4.71649, 3.09375, 3.58951, 0.0229602, -0.00329567, -0.000164713, 0.00284406, 0.00203548, -0.00667554, -0.00363223, 0.0715942, -0.00774975, -0.0219318, -0.0953447, 0.18882, 0.0530273, 0.473377, -0.537051, 0.339128, -2.0792, -2.16911, -0.125199, 0.473231, -0.539879, 0.335817, -2.07767, -2.17599, -0.116541, 0.0458869, 0.124727, 0.0632577, 0.055575, 0.0577304, 0.0303275
0.151077, 1.69849, -1.22542, -1.53744, -0.903084, -1.2, 1.22937, -1.30268, 0.0543072, 0.0348662, 0.0567542, -0.121018, -0.0662279, 0.000935415, -0.00051051, 3.90754, 65.4733, 33.483, 4.60541, 3.11847, 3.57577, 0.0431018, -0.00336201, -0.000153237, 0.0028648, 0.00200759, -0.00674592, -0.00373758, 0.0704935, -0.0095163, -0.0244034, -0.0944132, 0.184152, 0.0608331, 0.473423, -0.536926, 0.339191, -2.07911, -2.16918, -0.125108, 0.47329, -0.539815, 0.33585, -2.07752, -2.17621, -0.116421, 0.0464031, 0.12619, 0.0639883, 0.057718, 0.0607362, 0.0287299
0.152077, 1.69852, -1.22538, -1.53736, -0.903222, -1.20005, 1.22936, -1.30269, 0.0505988, 0.0375284, 0.064217, -0.12569, -0.0643369, 0.000614337, -0.000758018, 4.02259, 65.5487, 33.5187, 4.60541, 3.13678, 3.57577, 0.0559192, -0.00342919, -0.000147276, 0.00288106, 0.00197527, -0.00681343, -0.00384634, 0.0700728, -0.00931371, -0.0211975, -0.0892527, 0.185892, 0.0645089, 0.47347, -0.536799, 0.339256, -2.07902, -2.16924, -0.125016, 0.473345, -0.539752, 0.335888, -2.07736, -2.17644, -0.116307, 0.0469202, 0.127658, 0.0647206, 0.0581457, 0.0621213, 0.0327008
0.153077, 1.69856, -1.22533, -1.53729, -0.903359, -1.2001, 1.22936, -1.30268, 0.0466018, 0.0386445, 0.0649619, -0.129288, -0.0622079, 0.000402603, -0.000225206, 4.06226, 65.6598, 33.6338, 4.49432, 3.13678, 3.57577, 0.0495105, -0.00349547, -0.000138698, 0.00289634, 0.0019395, -0.00688172, -0.00395138, 0.0716161, -0.00761242, -0.0211154, -0.0893487, 0.186278, 0.063075, 0.473517, -0.53667, 0.339321, -2.07892, -2.1693, -0.124922, 0.473402, -0.539687, 0.335927, -2.07721, -2.17667, -0.116195, 0.047438, 0.129128, 0.0654544, 0.0570325, 0.0619792, 0.0333356
0.154077, 1.6986, -1.22529, -1.53721, -0.903504, -1.20016, 1.22936, -1.30268, 0.0442143, 0.0411611, 0.0711019, -0.136404, -0.0572857, 0.00107699, -0.00059277, 4.21302, 65.8423, 33.6338, 4.41894, 3.1734, 3.5538, 0.0623279, -0.00356455, -0.000132259, 0.0029123, 0.00189663, -0.00694873, -0.00406079, 0.0696764, -0.00898501, -0.0187876, -0.0844438, 0.186239, 0.0707077, 0.473565, -0.53654, 0.339387, -2.07883, -2.16937, -0.124828, 0.473459, -0.539622, 0.335967, -2.07706, -2.17691, -0.116092, 0.0479565, 0.130603, 0.0661897, 0.0589404, 0.0650762, 0.0366241
0.155077, 1.69863, -1.22524, -1.53715, -0.90366, -1.2002, 1.22936, -1.30268, 0.0410085, 0.0424065, 0.072474, -0.139489, -0.0529979, -0.00373581, -0.000371116, 4.2884, 65.9177, 33.7806, 4.37927, 3.19263, 3.54648, 0.0623279, -0.00363011, -0.000125179, 0.00292861, 0.00186457, -0.00701477, -0.00417751, 0.0699821, -0.00711288, -0.0187894, -0.0868653, 0.18266, 0.070919, 0.473613, -0.536409, 0.339453, -2.07873, -2.16943, -0.124733, 0.473516, -0.539553, 0.336007, -2.07689, -2.17714, -0.115977, 0.0484757, 0.132081, 0.0669265, 0.0576061, 0.066168, 0.0373752
0.156077, 1.69866, -1.22518, -1.53706, -0.903818, -1.20024, 1.22936, -1.30268, 0.0399007, 0.0471728, 0.0750537, -0.144154, -0.0494775, -0.00288691, -0.000229363, 4.3241, 65.9534, 33.8559, 4.30786, 3.20453, 3.54648, 0.0623279, -0.00369272, -0.000113338, 0.0029407, 0.00181896, -0.00708307, -0.004305, 0.0690321, -0.00785974, -0.0161172, -0.0844244, 0.186149, 0.0749344, 0.473662, -0.536276, 0.33952, -2.07864, -2.1695, -0.124636, 0.473579, -0.53948, 0.336052, -2.07672, -2.1774, -0.115876, 0.0489955, 0.133562, 0.0676647, 0.0589436, 0.0682143, 0.040875
0.157077, 1.6987, -1.22512, -1.53698, -0.903982, -1.20027, 1.22936, -1.30268, 0.0323606, 0.0534664, 0.0782506, -0.149858, -0.0473906, -0.00249314, 0.00203077, 4.36378, 65.878, 33.8917, 4.19281, 3.22925, 3.5538, 0.00373412, -0.00375409, -0.000101741, 0.002948, 0.00177065, -0.00715589, -0.00443022, 0.0706101, -0.00506683, -0.0121854, -0.0818924, 0.191956, 0.0711646, 0.473711, -0.536142, 0.339588, -2.07854, -2.16956, -0.124539, 0.473642, -0.539405, 0.336104, -2.07655, -2.17766, -0.115771, 0.049516, 0.135047, 0.0684043, 0.0568985, 0.0674162, 0.0453489
0.158077, 1.69873, -1.22508, -1.5369, -0.904158, -1.20031, 1.22936, -1.30268, 0.0353823, 0.0515271, 0.0735015, -0.158915, -0.041177, -0.00161378, 0.00112664, 4.43916, 66.0645, 34.0781, 4.1571, 3.25946, 3.54648, 0.0101428, -0.00381948, -9.23746e-05, 0.00296986, 0.00173722, -0.00721611, -0.00456251, 0.0681515, -0.00826516, -0.016876, -0.0878621, 0.187587, 0.081694, 0.473761, -0.536006, 0.339657, -2.07844, -2.16963, -0.124441, 0.473703, -0.53933, 0.33614, -2.07636, -2.17792, -0.115663, 0.0500371, 0.136535, 0.0691452, 0.0603325, 0.0721905, 0.0417307
0.159077, 1.69875, -1.22502, -1.53682, -0.904331, -1.20034, 1.22936, -1.30268, 0.0306506, 0.052323, 0.0764678, -0.166196, -0.0358337, -0.000971805, 0.000758705, 4.55024, 66.1755, 34.1535, 4.04602, 3.27228, 3.53915, 0.0101428, -0.00388549, -8.64252e-05, 0.0029825, 0.00168855, -0.00727489, -0.00469127, 0.0679605, -0.00787329, -0.0166017, -0.085451, 0.185625, 0.0858085, 0.473811, -0.535869, 0.339727, -2.07834, -2.1697, -0.124341, 0.473761, -0.539255, 0.336187, -2.07618, -2.17817, -0.115571, 0.0505588, 0.138026, 0.0698875, 0.0604701, 0.0738107, 0.0427875
0.160077, 1.69877, -1.22496, -1.53672, -0.904517, -1.20037, 1.22936, -1.30268, 0.02699, 0.0554003, 0.0816859, -0.172246, -0.0315903, -0.000264656, -0.000709189, 4.66529, 66.1755, 34.0781, 4.04602, 3.27777, 3.52542, 0.0431018, -0.0039457, -7.53456e-05, 0.00298895, 0.0016304, -0.00733949, -0.00483765, 0.0671978, -0.00803917, -0.0140652, -0.0809152, 0.186653, 0.0916602, 0.473862, -0.53573, 0.339797, -2.07824, -2.16977, -0.124241, 0.473825, -0.539175, 0.336242, -2.07598, -2.17846, -0.115485, 0.0510809, 0.13952, 0.0706309, 0.0612326, 0.07568, 0.046149
0.161077, 1.69878, -1.22491, -1.53663, -0.904704, -1.20039, 1.22936, -1.30268, 0.0244475, 0.0571541, 0.0822367, -0.173826, -0.029355, 7.71296e-07, -0.00046851, 4.77637, 66.3223, 34.1535, 3.93494, 3.3089, 3.5181, 0.0431018, -0.00401084, -6.72192e-05, 0.00300259, 0.00157428, -0.00739495, -0.00498029, 0.0687233, -0.00674196, -0.013442, -0.0799437, 0.187715, 0.0901076, 0.473913, -0.53559, 0.339868, -2.07814, -2.16984, -0.12414, 0.473887, -0.539096, 0.336289, -2.07579, -2.17873, -0.115404, 0.0516036, 0.141018, 0.0713756, 0.0605502, 0.0755173, 0.0473193
0.162077, 1.6988, -1.22486, -1.53653, -0.904889, -1.20041, 1.22936, -1.30268, 0.0211412, 0.056596, 0.0845742, -0.176696, -0.0222689, 0.000201237, 0.00425292, 4.81605, 66.4334, 34.2646, 3.74451, 3.3208, 3.51077, 0.0687366, -0.0040736, -5.59466e-05, 0.00301614, 0.00151507, -0.0074458, -0.00513069, 0.069084, -0.00619015, -0.0136958, -0.0758925, 0.182446, 0.0869833, 0.473965, -0.535448, 0.33994, -2.07804, -2.16991, -0.124037, 0.473952, -0.539014, 0.336337, -2.07558, -2.17901, -0.115332, 0.0521267, 0.142518, 0.0721215, 0.0605309, 0.0766748, 0.0477791
0.163077, 1.69882, -1.2248, -1.53644, -0.905091, -1.20043, 1.22936, -1.30268, 0.0177039, 0.0580191, 0.0915902, -0.183775, -0.022152, 8.125e-05, 0.00353434, 4.89143, 66.4691, 34.3043, 3.63342, 3.34552, 3.51077, 0.0623279, -0.00413449, -4.42282e-05, 0.00302803, 0.00146035, -0.00750431, -0.00528623, 0.0684372, -0.00643878, -0.0117136, -0.07307, 0.184802, 0.0927119, 0.474018, -0.535305, 0.340012, -2.07793, -2.16998, -0.123934, 0.474018, -0.538929, 0.336389, -2.07537, -2.1793, -0.115246, 0.0526502, 0.144021, 0.0728685, 0.0613606, 0.0785268, 0.0505761
0.164077, 1.69884, -1.22474, -1.53634, -0.905294, -1.20045, 1.22937, -1.30268, 0.0181799, 0.0604521, 0.0906231, -0.187631, -0.0171078, 0.00055702, 0.0027025, 4.9668, 66.4334, 34.451, 3.44696, 3.36383, 3.49612, 0.0623279, -0.00419714, -3.46476e-05, 0.00303809, 0.00140178, -0.00756299, -0.00544016, 0.0676617, -0.00740748, -0.0116879, -0.0734256, 0.184753, 0.0974109, 0.474071, -0.53516, 0.340086, -2.07783, -2.17005, -0.123829, 0.474083, -0.538844, 0.336442, -2.07516, -2.17959, -0.115163, 0.0531742, 0.145527, 0.0736165, 0.0628259, 0.0808391, 0.0514376
0.165077, 1.69884, -1.22468, -1.53623, -0.90551, -1.20046, 1.22936, -1.30268, 0.0128917, 0.0586365, 0.09413, -0.195528, -0.0140416, 7.03186e-05, 0.00229873, 5.15327, 66.5445, 34.451, 3.33588, 3.40137, 3.50345, 0.0559192, -0.00425941, -2.55622e-05, 0.0030514, 0.00134107, -0.00761238, -0.00560098, 0.0680195, -0.00651518, -0.0129132, -0.0730117, 0.181523, 0.101092, 0.474124, -0.535014, 0.34016, -2.07772, -2.17012, -0.123723, 0.474148, -0.538757, 0.336493, -2.07494, -2.17989, -0.115091, 0.0536985, 0.147036, 0.0743657, 0.0624288, 0.0821397, 0.0509531
0.166077, 1.69885, -1.22462, -1.53613, -0.905726, -1.20047, 1.22937, -1.30268, 0.00671158, 0.0609539, 0.0983764, -0.198368, -0.0111773, -0.00436261, 0.00366005, 5.30799, 66.5048, 34.4867, 3.11371, 3.42517, 3.49612, 0.00373412, -0.00432152, -1.6979e-05, 0.00305793, 0.00127343, -0.00766909, -0.00575722, 0.0693722, -0.00329373, -0.0110587, -0.0726105, 0.180092, 0.0978758, 0.474178, -0.534866, 0.340234, -2.07762, -2.17019, -0.123617, 0.474212, -0.538669, 0.336552, -2.07473, -2.18019, -0.115018, 0.0542231, 0.148547, 0.0751158, 0.0598712, 0.0818854, 0.0534371
0.167077, 1.69885, -1.22456, -1.53603, -0.905959, -1.20048, 1.22937, -1.30268, 0.00141502, 0.0602013, 0.0994818, -0.211745, -0.0143454, -0.00280472, 0.00282347, 5.49445, 66.5445, 34.6018, 3.07404, 3.4682, 3.48239, -0.00267457, -0.00438441, -8.4338e-06, 0.00307356, 0.00121787, -0.00772088, -0.00592479, 0.0699553, -0.00285554, -0.0130801, -0.0779038, 0.184707, 0.103524, 0.474232, -0.534717, 0.34031, -2.07751, -2.17026, -0.123509, 0.474277, -0.538579, 0.336602, -2.0745, -2.18049, -0.114937, 0.054748, 0.150061, 0.0758669, 0.0599053, 0.0831101, 0.052119
0.168077, 1.69885, -1.22449, -1.53592, -0.906191, -1.20049, 1.22937, -1.30267, -0.000771172, 0.0629252, 0.0999359, -0.216678, -0.012541, -0.00163099, 0.00226315, 5.6095, 66.4691, 34.7486, 2.96295, 3.52405, 3.46774, -0.00999879, -0.00444532, 1.67411e-06, 0.0030816, 0.00115653, -0.00778226, -0.00609658, 0.0704443, -0.00257587, -0.0123308, -0.0779972, 0.18788, 0.10585, 0.474287, -0.534566, 0.340386, -2.0774, -2.17034, -0.123401, 0.474345, -0.538487, 0.336661, -2.07427, -2.1808, -0.114853, 0.0552732, 0.151577, 0.0766189, 0.0602061, 0.0840167, 0.0535473
0.169077, 1.69884, -1.22442, -1.5358, -0.906435, -1.2005, 1.22937, -1.30267, -0.0010866, 0.0619563, 0.105977, -0.225227, -0.0103987, -0.00131511, 0.00108231, 5.79597, 66.5048, 34.7883, 2.92328, 3.56067, 3.46774, 0.00373412, -0.00450525, 1.17412e-05, 0.00309159, 0.00108691, -0.00783115, -0.0062762, 0.0680494, -0.00507161, -0.0124266, -0.0760822, 0.18673, 0.116678, 0.474343, -0.534414, 0.340463, -2.07729, -2.17041, -0.123291, 0.474413, -0.538392, 0.336718, -2.07403, -2.18112, -0.114789, 0.0557986, 0.153096, 0.0773717, 0.0631266, 0.0880302, 0.0544901
0.170077, 1.69884, -1.22436, -1.53568, -0.90668, -1.2005, 1.22937, -1.30267, -0.00261152, 0.0638419, 0.108861, -0.234624, -0.00859669, -0.000505038, 0.00102053, 5.91102, 66.4334, 34.8993, 2.88757, 3.5918, 3.45309, -0.00267457, -0.00456453, 2.23904e-05, 0.00310003, 0.0010191, -0.00788355, -0.00646206, 0.0664512, -0.00652301, -0.0119846, -0.0766403, 0.189186, 0.124249, 0.474399, -0.53426, 0.340541, -2.07718, -2.17049, -0.12318, 0.474481, -0.538295, 0.336778, -2.07379, -2.18145, -0.11472, 0.0563242, 0.154618, 0.0781255, 0.0650586, 0.0911298, 0.0558778
0.171077, 1.69883, -1.2243, -1.53556, -0.906935, -1.2005, 1.22937, -1.30267, -0.00549961, 0.0626666, 0.116646, -0.240171, -0.00791176, -0.000736086, -0.000222861, 6.09748, 66.4691, 34.9351, 2.81219, 3.64032, 3.46042, 0.0229602, -0.00462503, 3.20073e-05, 0.00311109, 0.000949276, -0.00793103, -0.00665031, 0.0659896, -0.00695109, -0.0110832, -0.0725629, 0.188291, 0.130312, 0.474456, -0.534104, 0.340619, -2.07707, -2.17056, -0.123068, 0.47455, -0.538197, 0.336837, -2.07353, -2.18178, -0.114657, 0.05685, 0.156141, 0.07888, 0.0660342, 0.0929923, 0.0575802
0.172077, 1.69882, -1.22423, -1.53543, -0.907195, -1.20051, 1.22937, -1.30267, -0.00674055, 0.0655088, 0.122311, -0.247213, -0.00647765, -0.000315551, 0.00036081, 6.24824, 66.358, 34.9351, 2.70111, 3.66504, 3.45309, 0.0101428, -0.00468219, 4.43679e-05, 0.00311364, 0.000869074, -0.00798797, -0.0068452, 0.0643272, -0.008383, -0.00881337, -0.0700464, 0.191437, 0.136638, 0.474513, -0.533947, 0.340699, -2.07696, -2.17064, -0.122956, 0.474622, -0.538096, 0.336904, -2.07328, -2.18213, -0.114596, 0.0573759, 0.157667, 0.0796352, 0.0680188, 0.0958822, 0.0607846
0.173077, 1.69881, -1.22416, -1.53529, -0.907466, -1.20051, 1.22937, -1.30267, -0.00768093, 0.0654925, 0.122851, -0.256456, -0.00429678, -4.50798e-05, -0.000445537, 6.39899, 66.3223, 34.9708, 2.62573, 3.65863, 3.44668, 0.0293689, -0.00473913, 5.71385e-05, 0.00312208, 0.00079391, -0.00803778, -0.00705081, 0.0630566, -0.00969555, -0.0103794, -0.0731311, 0.191582, 0.144442, 0.47457, -0.533789, 0.340779, -2.07684, -2.17071, -0.122842, 0.474694, -0.537992, 0.336967, -2.07301, -2.18248, -0.114537, 0.0579019, 0.159194, 0.0803912, 0.0697437, 0.0989638, 0.0601452
0.174077, 1.6988, -1.22409, -1.53516, -0.907745, -1.20051, 1.22937, -1.30267, -0.0138909, 0.0670375, 0.127088, -0.261215, -0.00350102, 0.000187161, -0.00149823, 6.51405, 66.2112, 34.9708, 2.59003, 3.67145, 3.43936, 0.0623279, -0.00479171, 7.43807e-05, 0.00312796, 0.000715381, -0.00809036, -0.00726834, 0.0648244, -0.00750874, -0.00883309, -0.0706204, 0.193578, 0.144623, 0.474629, -0.533629, 0.340859, -2.07673, -2.17079, -0.122727, 0.474772, -0.537882, 0.337033, -2.07273, -2.18285, -0.114479, 0.0584279, 0.160724, 0.0811479, 0.0682272, 0.0984118, 0.0622342
0.175077, 1.69879, -1.22403, -1.53501, -0.90802, -1.20051, 1.22936, -1.30267, -0.0143514, 0.0637553, 0.133401, -0.26514, -0.00289616, 8.42338e-05, 0.00118595, 6.58942, 66.2866, 34.9708, 2.43927, 3.68335, 3.43936, 0.00373412, -0.00484725, 9.05796e-05, 0.00314104, 0.000636656, -0.00812809, -0.0074757, 0.0643028, -0.00872731, -0.00957519, -0.06751, 0.190751, 0.14705, 0.474687, -0.533468, 0.340941, -2.07661, -2.17087, -0.122611, 0.474848, -0.537773, 0.337093, -2.07246, -2.1832, -0.114434, 0.0589541, 0.162256, 0.0819052, 0.0699227, 0.100629, 0.0622982
0.176077, 1.69878, -1.22397, -1.53487, -0.908316, -1.20051, 1.22937, -1.30267, -0.014524, 0.0652714, 0.13881, -0.273517, -0.00249649, 0.000568286, -0.000656463, 6.77985, 66.2112, 34.9351, 2.40356, 3.69617, 3.42471, 0.0431018, -0.00490134, 0.000107425, 0.00314896, 0.000555677, -0.00818143, -0.00770428, 0.0621592, -0.010923, -0.00840353, -0.0665519, 0.193648, 0.157587, 0.474746, -0.533304, 0.341023, -2.07649, -2.17095, -0.122494, 0.474927, -0.537662, 0.337159, -2.07217, -2.18358, -0.114376, 0.0594802, 0.16379, 0.0826631, 0.0726052, 0.104205, 0.0644675
0.177077, 1.69877, -1.22391, -1.53472, -0.908614, -1.20051, 1.22937, -1.30267, -0.0158206, 0.0635151, 0.141628, -0.282718, -0.00241075, 0.000627321, -0.000429416, 6.89094, 66.2469, 34.9351, 2.29248, 3.71448, 3.41739, 0.0431018, -0.00495388, 0.000126784, 0.00316371, 0.00048013, -0.00822291, -0.00793677, 0.0611458, -0.0121769, -0.0101669, -0.0688549, 0.193535, 0.164391, 0.474806, -0.53314, 0.341106, -2.07637, -2.17103, -0.122376, 0.475007, -0.537546, 0.337219, -2.07186, -2.18396, -0.114325, 0.0600063, 0.165325, 0.0834216, 0.0742731, 0.107068, 0.0635977
0.178077, 1.69875, -1.22385, -1.53457, -0.908921, -1.20051, 1.22937, -1.30266, -0.0187217, 0.0609716, 0.144258, -0.286229, -0.00277733, 0.000909737, 0.00168658, 7.08137, 66.2112, 34.9351, 2.2171, 3.74469, 3.40365, -0.00999879, -0.00500889, 0.000143366, 0.00317737, 0.000405887, -0.00827148, -0.00816248, 0.0627736, -0.0112433, -0.0115741, -0.0684651, 0.192543, 0.162508, 0.474866, -0.532974, 0.34119, -2.07626, -2.17111, -0.122257, 0.475086, -0.537431, 0.33728, -2.07156, -2.18434, -0.114262, 0.0605324, 0.166863, 0.0841806, 0.073881, 0.107168, 0.0627508
0.179077, 1.69873, -1.22379, -1.53443, -0.909241, -1.20051, 1.22937, -1.30267, -0.0175168, 0.0599, 0.143604, -0.296458, -0.00212731, 0.000593664, 0.000145671, 7.26783, 66.1359, 34.9351, 2.2171, 3.7511, 3.40365, 0.0165515, -0.00506037, 0.000162932, 0.00319201, 0.000336406, -0.0083209, -0.00840911, 0.0608488, -0.0134989, -0.0144767, -0.0746877, 0.192859, 0.172965, 0.474927, -0.532806, 0.341275, -2.07613, -2.17119, -0.122137, 0.475168, -0.537312, 0.337342, -2.07124, -2.18474, -0.114195, 0.0610583, 0.168402, 0.0849401, 0.0764632, 0.111154, 0.0608615
0.180077, 1.69871, -1.22373, -1.53427, -0.90956, -1.20051, 1.22937, -1.30267, -0.0166378, 0.0572752, 0.144695, -0.303456, -0.00188781, 0.000657423, -0.00088276, 7.45826, 66.1359, 34.9708, 2.17743, 3.763, 3.39633, 0.0431018, -0.00511383, 0.000182937, 0.00320887, 0.000256103, -0.00836215, -0.00865332, 0.0599361, -0.0152117, -0.0171682, -0.0777845, 0.191734, 0.180489, 0.474989, -0.532637, 0.34136, -2.07601, -2.17127, -0.122016, 0.475251, -0.537192, 0.337402, -2.07092, -2.18513, -0.114147, 0.0615842, 0.169942, 0.0857, 0.0785535, 0.114085, 0.0590446
0.181077, 1.69869, -1.22368, -1.53411, -0.909882, -1.20051, 1.22937, -1.30267, -0.0167607, 0.0571293, 0.154405, -0.309067, -0.00267038, 0.0017535, -0.000585904, 7.68439, 66.0645, 34.8993, 2.03064, 3.80054, 3.36062, 0.0431018, -0.00516795, 0.000201884, 0.00322263, 0.000173277, -0.00840829, -0.00890168, 0.0581504, -0.017569, -0.0149945, -0.0718922, 0.19375, 0.188211, 0.47505, -0.532466, 0.341446, -2.07589, -2.17135, -0.121894, 0.475334, -0.537072, 0.337465, -2.0706, -2.18554, -0.114096, 0.0621099, 0.171484, 0.0864603, 0.0814521, 0.117174, 0.0621438
0.182077, 1.69867, -1.22362, -1.53395, -0.91022, -1.20052, 1.22937, -1.30267, -0.0159126, 0.0577958, 0.158704, -0.317822, -0.00247462, 0.00116359, -0.000863368, 7.87482, 65.9534, 34.9351, 1.91559, 3.81885, 3.36062, 0.0559192, -0.0052173, 0.000224628, 0.00323783, 9.7181e-05, -0.00845489, -0.00916221, 0.0556833, -0.020009, -0.0149107, -0.0733268, 0.195603, 0.197938, 0.475113, -0.532294, 0.341533, -2.07577, -2.17143, -0.121771, 0.47542, -0.536945, 0.337529, -2.07026, -2.18595, -0.114038, 0.0626355, 0.173028, 0.087221, 0.0843176, 0.121259, 0.0632804
0.183077, 1.69865, -1.22356, -1.53377, -0.910565, -1.20052, 1.22937, -1.30267, -0.0183563, 0.0582165, 0.16461, -0.326821, -0.00186534, 0.000534306, -0.000574115, 8.06129, 65.8423, 34.8993, 1.91559, 3.82434, 3.36703, 0.0559192, -0.00526512, 0.00024844, 0.00325148, 1.2583e-05, -0.00849777, -0.00943136, 0.0542139, -0.020982, -0.0142686, -0.0728377, 0.196674, 0.204973, 0.475176, -0.53212, 0.34162, -2.07564, -2.17152, -0.121646, 0.475509, -0.536815, 0.337595, -2.06991, -2.18638, -0.113992, 0.0631608, 0.174573, 0.087982, 0.0857831, 0.124205, 0.0648666
0.184077, 1.69862, -1.2235, -1.5336, -0.910916, -1.20052, 1.22937, -1.30267, -0.0211171, 0.0573995, 0.17071, -0.331853, -0.00240556, 0.000590519, 0.00036434, 8.28742, 65.7709, 34.8993, 1.87988, 3.85547, 3.36062, 0.0357776, -0.00531463, 0.000271338, 0.0032656, -7.406e-05, -0.00854228, -0.00970024, 0.0544455, -0.0209544, -0.0136556, -0.0702861, 0.1974, 0.207305, 0.475239, -0.531945, 0.341709, -2.07552, -2.1716, -0.121521, 0.475597, -0.536686, 0.337661, -2.06957, -2.18681, -0.113946, 0.0636859, 0.176119, 0.0887433, 0.0863197, 0.125431, 0.0661992
0.185077, 1.69859, -1.22345, -1.5334, -0.91126, -1.20052, 1.22937, -1.30266, -0.021352, 0.056737, 0.177032, -0.333595, -0.0018479, 0.0012052, 0.000718435, 8.43818, 65.6955, 34.824, 1.72913, 3.86188, 3.33865, 0.0229602, -0.00536483, 0.00029445, 0.00327722, -0.000174862, -0.00857887, -0.00997013, 0.0543073, -0.0218653, -0.0124937, -0.0653574, 0.197419, 0.21031, 0.475303, -0.531768, 0.341798, -2.07539, -2.17169, -0.121395, 0.475686, -0.536556, 0.337731, -2.06922, -2.18724, -0.113923, 0.0642108, 0.177667, 0.0895048, 0.0878004, 0.126984, 0.0680976
0.186077, 1.69856, -1.22339, -1.53321, -0.911623, -1.20052, 1.22937, -1.30266, -0.0256957, 0.0588992, 0.181529, -0.344124, -0.00211868, 0.000801753, 0.00119165, 8.62861, 65.513, 34.7486, 1.69342, 3.88568, 3.33865, 0.00373412, -0.00541213, 0.000320012, 0.003288, -0.000270084, -0.00862617, -0.0102521, 0.0535569, -0.0217733, -0.0114292, -0.0666127, 0.201239, 0.215618, 0.475368, -0.53159, 0.341888, -2.07526, -2.17177, -0.121268, 0.475777, -0.536421, 0.337802, -2.06887, -2.18768, -0.113883, 0.0647353, 0.179216, 0.0902666, 0.08825, 0.12911, 0.0700287
0.187077, 1.69853, -1.22334, -1.53302, -0.911995, -1.20052, 1.22937, -1.30266, -0.0239539, 0.055454, 0.183963, -0.350899, -0.00165365, 0.000533218, 0.000320179, 8.73969, 65.4019, 34.7486, 1.61804, 3.89209, 3.33865, 0.0165515, -0.00545888, 0.000346629, 0.00330546, -0.000359792, -0.00866453, -0.0105448, 0.0520409, -0.024114, -0.0141527, -0.0687984, 0.198907, 0.224382, 0.475433, -0.53141, 0.341978, -2.07513, -2.17186, -0.121139, 0.47587, -0.536283, 0.337867, -2.06849, -2.18814, -0.113847, 0.0652596, 0.180765, 0.0910285, 0.090936, 0.132683, 0.0682503
