alisrour97/Franka_experiments/Real_Robot_scripts/servo-franka/Data_5_ki/log_dyn_PI_k_ki_7.csv
Time,q1,q2,q3,q4,q5,q6,q7,dq1,dq2,dq3,dq4,dq5,dq6,dq7,t1,t2,t3,t4,t5,t6,t7,ex1,ex2,ex3,ex4,ex5,ex6,ev1,ev2,ev3,ev4,ev5,ev6,xd,yd,zd,uxd,uyd,uzd,x,y,z,ux,uy,uz,vxd,vyd,vzd,vx,vy,vz
4.88281e-07, 1.69121, -1.22756, -1.53923, -0.900195, -1.19224, 1.2281, -1.30267, -0.00756779, -0.00784392, -0.0129236, 0.0050313, 0.00135172, -0.00322998, -0.00211254, 0.777352, 63.9261, 31.547, 6.84296, 2.46112, 3.85501, -0.133595, 0.00042792, -0.00193347, 0.00173965, 0.00206672, 0.00129134, 0.000678953, 0.00766236, 0.00794747, -0.00837833, -0.0105604, -0.0103674, -0.0153825, 0.471008, -0.543389, 0.335894, -2.08385, -2.16584, -0.129887, 0.469014, -0.542767, 0.334311, -2.08279, -2.16363, -0.128831, 0, 0, 0, -0.00796565, -0.00660012, -0.00922265
0.0120632, 1.69114, -1.22761, -1.53931, -0.90015, -1.19222, 1.22808, -1.30268, -0.00718704, -0.00736002, -0.0104555, 0.00135594, 0.00256816, -0.000874349, -0.00133199, 0.6623, 64.0372, 31.4716, 6.91833, 2.40619, 3.86966, -0.0814099, 0.000372895, -0.00199213, 0.00179101, 0.00211872, 0.00137235, 0.000803569, 0.00586003, 0.00592221, -0.00754541, -0.00755761, -0.00953376, -0.0109917, 0.471008, -0.543389, 0.335894, -2.08385, -2.16584, -0.129887, 0.468941, -0.542827, 0.334243, -2.08287, -2.16339, -0.128845, 3.52292e-06, 9.08712e-06, 4.70091e-06, -0.00597386, -0.00485706, -0.00817682
0.0130632, 1.69114, -1.22761, -1.53931, -0.90015, -1.19222, 1.22808, -1.30268, -0.00718704, -0.00736002, -0.0104555, 0.00135594, 0.00256816, -0.000874349, -0.00133199, 0.6623, 64.0372, 31.4716, 6.91833, 2.40619, 3.86966, -0.0814099, 0.000372873, -0.00199214, 0.00179102, 0.00211871, 0.00137236, 0.000803581, 0.00588867, 0.00593342, -0.00755549, -0.0075701, -0.00951462, -0.0110154, 0.471008, -0.543389, 0.335894, -2.08385, -2.16584, -0.129887, 0.468941, -0.542827, 0.334243, -2.08287, -2.16339, -0.128845, 1.40551e-05, 3.62649e-05, 1.87583e-05, -0.00597386, -0.00485706, -0.00817682
0.0140632, 1.69114, -1.22761, -1.53931, -0.90015, -1.19222, 1.22808, -1.30268, -0.00718704, -0.00736002, -0.0104555, 0.00135594, 0.00256816, -0.000874349, -0.00133199, 0.6623, 64.0372, 31.4716, 6.91833, 2.40619, 3.86966, -0.0814099, 0.000372813, -0.00199216, 0.00179104, 0.00211868, 0.00137237, 0.000803614, 0.00593623, 0.00595202, -0.00757223, -0.00759083, -0.00948284, -0.0110548, 0.471008, -0.543389, 0.335894, -2.08385, -2.16584, -0.129887, 0.468941, -0.542827, 0.334243, -2.08287, -2.16339, -0.128845, 3.15416e-05, 8.14084e-05, 4.21042e-05, -0.00597386, -0.00485706, -0.00817682
0.0150632, 1.69114, -1.22761, -1.53931, -0.90015, -1.19222, 1.22808, -1.30268, -0.00718704, -0.00736002, -0.0104555, 0.00135594, 0.00256816, -0.000874349, -0.00133199, 0.6623, 64.0372, 31.4716, 6.91833, 2.40619, 3.86966, -0.0814099, 0.000372696, -0.00199221, 0.00179108, 0.00211862, 0.0013724, 0.000803678, 0.0060026, 0.00597797, -0.00759557, -0.00761972, -0.00943851, -0.0111098, 0.471008, -0.543389, 0.335894, -2.08385, -2.16584, -0.129887, 0.468941, -0.542827, 0.334243, -2.08287, -2.16339, -0.128845, 5.59279e-05, 0.000144393, 7.4671e-05, -0.00597386, -0.00485706, -0.00817682
0.0160632, 1.69114, -1.22761, -1.53931, -0.90015, -1.19222, 1.22808, -1.30268, -0.00718704, -0.00736002, -0.0104555, 0.00135594, 0.00256816, -0.000874349, -0.00133199, 0.6623, 64.0372, 31.4716, 6.91833, 2.40619, 3.86966, -0.0814099, 0.000372503, -0.00199228, 0.00179115, 0.00211853, 0.00137244, 0.000803783, 0.00608762, 0.00601121, -0.00762547, -0.0076567, -0.00938174, -0.0111802, 0.471008, -0.543389, 0.335894, -2.08385, -2.16584, -0.129886, 0.468941, -0.542827, 0.334243, -2.08287, -2.16339, -0.128845, 8.71593e-05, 0.000225094, 0.000116391, -0.00597386, -0.00485706, -0.00817682
0.0170632, 1.69114, -1.22761, -1.53931, -0.90015, -1.19222, 1.22808, -1.30268, -0.00718704, -0.00736002, -0.0104555, 0.00135594, 0.00256816, -0.000874349, -0.00133199, 0.6623, 64.0372, 31.4716, 6.91833, 2.40619, 3.86966, -0.0814099, 0.000372216, -0.0019924, 0.00179125, 0.00211839, 0.00137251, 0.00080394, 0.00619119, 0.00605167, -0.00766188, -0.00770168, -0.00931261, -0.0112658, 0.471008, -0.543389, 0.335894, -2.08385, -2.16584, -0.129886, 0.468941, -0.542827, 0.334243, -2.08287, -2.16339, -0.128845, 0.000125182, 0.000323387, 0.000167197, -0.00597386, -0.00485706, -0.00817682
0.0180632, 1.69114, -1.22761, -1.53931, -0.90015, -1.19222, 1.22808, -1.30268, -0.00718704, -0.00736002, -0.0104555, 0.00135594, 0.00256816, -0.000874349, -0.00133199, 0.6623, 64.0372, 31.4716, 6.91833, 2.40619, 3.86966, -0.0814099, 0.000371816, -0.00199255, 0.00179139, 0.00211819, 0.00137261, 0.000804158, 0.00631315, 0.00609931, -0.00770476, -0.0077546, -0.00923121, -0.0113667, 0.471008, -0.543388, 0.335894, -2.08385, -2.16584, -0.129886, 0.468941, -0.542827, 0.334243, -2.08287, -2.16339, -0.128845, 0.00016994, 0.000439148, 0.000227022, -0.00597386, -0.00485706, -0.00817682
0.0190632, 1.69114, -1.22761, -1.53931, -0.90015, -1.19222, 1.22808, -1.30268, -0.00718704, -0.00736002, -0.0104555, 0.00135594, 0.00256816, -0.000874349, -0.00133199, 0.6623, 64.0372, 31.4716, 6.91833, 2.40619, 3.86966, -0.0814099, 0.000371286, -0.00199276, 0.00179158, 0.00211793, 0.00137274, 0.000804447, 0.00645339, 0.00615405, -0.00775404, -0.00781538, -0.00913765, -0.0114826, 0.471009, -0.543388, 0.335895, -2.08385, -2.16584, -0.129886, 0.468941, -0.542827, 0.334243, -2.08287, -2.16339, -0.128845, 0.000221382, 0.000572255, 0.000295798, -0.00597386, -0.00485706, -0.00817682
0.0200632, 1.69114, -1.22761, -1.53931, -0.90015, -1.19222, 1.22808, -1.30268, -0.00718704, -0.00736002, -0.0104555, 0.00135594, 0.00256816, -0.000874349, -0.00133199, 0.6623, 64.0372, 31.4716, 6.91833, 2.40619, 3.86966, -0.0814099, 0.000370606, -0.00199302, 0.00179182, 0.0021176, 0.0013729, 0.000804817, 0.00661178, 0.00621586, -0.00780969, -0.00788394, -0.00903201, -0.0116134, 0.471009, -0.543387, 0.335895, -2.08384, -2.16584, -0.129885, 0.468941, -0.542827, 0.334243, -2.08287, -2.16339, -0.128845, 0.000279451, 0.000722584, 0.000373459, -0.00597386, -0.00485706, -0.00817682
0.0210632, 1.69114, -1.22761, -1.53931, -0.90015, -1.19222, 1.22808, -1.30268, -0.00718704, -0.00736002, -0.0104555, 0.00135594, 0.00256816, -0.000874349, -0.00133199, 0.6623, 64.0372, 31.4716, 6.91833, 2.40619, 3.86966, -0.0814099, 0.000369759, -0.00199336, 0.00179212, 0.00211718, 0.0013731, 0.000805277, 0.00678817, 0.00628466, -0.00787164, -0.00796022, -0.0089144, -0.011759, 0.471009, -0.543386, 0.335895, -2.08384, -2.16584, -0.129884, 0.468941, -0.542827, 0.334243, -2.08287, -2.16339, -0.128845, 0.000344096, 0.000890012, 0.000459939, -0.00597386, -0.00485706, -0.00817682
0.0220632, 1.69114, -1.22761, -1.53931, -0.90015, -1.19222, 1.22808, -1.30268, -0.00718704, -0.00736002, -0.0104555, 0.00135594, 0.00256816, -0.000874349, -0.00133199, 0.6623, 64.0372, 31.4716, 6.91833, 2.40619, 3.86966, -0.0814099, 0.000368727, -0.00199376, 0.00179248, 0.00211668, 0.00137335, 0.000805839, 0.00698245, 0.00636041, -0.00793987, -0.00804413, -0.0087849, -0.0119192, 0.47101, -0.543385, 0.335896, -2.08384, -2.16584, -0.129884, 0.468941, -0.542827, 0.334243, -2.08287, -2.16339, -0.128845, 0.000415261, 0.00107442, 0.00055517, -0.00597386, -0.00485706, -0.00817682
0.0230632, 1.69107, -1.22766, -1.53938, -0.900162, -1.19216, 1.22807, -1.30268, -0.009423, -0.0035047, -0.00891112, -0.00230557, 0.0067374, -0.00405853, 6.85736e-05, 0.551216, 63.9261, 31.4716, 6.99371, 2.32013, 3.85501, -0.101552, 0.000330344, -0.00204125, 0.00184392, 0.00215208, 0.00147255, 0.00088488, 0.00526139, 0.00679024, -0.0058697, -0.00867728, -0.00964002, -0.0104279, 0.47101, -0.543384, 0.335896, -2.08384, -2.16585, -0.129883, 0.468893, -0.542858, 0.334189, -2.08288, -2.16323, -0.128897, 0.000492895, 0.00127568, 0.000659086, -0.00631232, -0.00329293, -0.00574872
0.0240632, 1.69106, -1.22767, -1.53939, -0.900169, -1.19215, 1.22807, -1.30267, -0.00605714, -0.00449299, -0.00758767, -0.00334061, 0.00592633, -0.00332613, 0.00123184, 0.511544, 64.0015, 31.5113, 7.06909, 2.29541, 3.86233, -0.133595, 0.000328697, -0.00204264, 0.00185355, 0.00215826, 0.0014889, 0.000889446, 0.00374597, 0.00446535, -0.00631802, -0.00846058, -0.00933335, -0.00716821, 0.471011, -0.543383, 0.335897, -2.08384, -2.16585, -0.129882, 0.468892, -0.542857, 0.33418, -2.08287, -2.16322, -0.128905, 0.000576942, 0.00149367, 0.000771622, -0.00397675, -0.00141475, -0.00591373
0.0250632, 1.69106, -1.22768, -1.53939, -0.900166, -1.19214, 1.22807, -1.30267, -0.00597769, -0.00904786, -0.00253781, -0.000494081, 0.00705296, -0.00139423, 0.000820723, 0.436165, 63.7793, 31.2494, 6.99371, 2.22217, 3.83304, -0.133595, 0.000326354, -0.00204406, 0.00185639, 0.00214961, 0.00150266, 0.000892149, 0.0041578, 0.0036995, -0.00673099, -0.000986601, -0.014245, -0.00648538, 0.471011, -0.543381, 0.335898, -2.08384, -2.16585, -0.129881, 0.468891, -0.542857, 0.334177, -2.08287, -2.16321, -0.128927, 0.00066735, 0.00172827, 0.000892711, -0.00312167, -0.00149183, -0.0062874
0.0260632, 1.69106, -1.22768, -1.5394, -0.900166, -1.19214, 1.22806, -1.30267, -0.00288204, -0.00951261, -0.0089236, -0.000924074, 0.00977511, -7.47388e-05, -0.000402665, 0.360787, 63.1564, 30.9876, 6.88263, 2.09308, 3.80466, -0.10796, 0.000320404, -0.00205034, 0.00186301, 0.00216378, 0.001508, 0.000904532, 0.00389033, 0.00253823, -0.00946796, -0.00499278, -0.015564, -0.00419805, 0.471012, -0.543379, 0.335899, -2.08384, -2.16585, -0.129879, 0.468886, -0.54286, 0.334171, -2.08287, -2.16319, -0.128915, 0.000764066, 0.00197936, 0.00102229, -0.00197356, -0.000507922, -0.00885386
0.0270632, 1.69106, -1.22768, -1.53943, -0.900179, -1.19213, 1.22806, -1.30267, 0.00111001, -0.00271061, -0.012309, -0.00494394, 0.00684749, 0.00112529, -0.00125207, 0.21003, 62.3074, 30.6544, 6.91833, 1.96399, 3.76895, -0.0814099, 0.00031997, -0.00204964, 0.00187459, 0.00219202, 0.00150736, 0.000901268, 0.00198132, 0.000339497, -0.00743293, -0.010361, -0.00491537, 0.00114689, 0.471013, -0.543377, 0.3359, -2.08384, -2.16585, -0.129878, 0.468887, -0.542857, 0.33416, -2.08285, -2.16318, -0.128881, 0.000867038, 0.00224682, 0.00116028, 0.000330496, 0.00142092, -0.00647642
0.0280632, 1.69106, -1.22769, -1.53945, -0.900181, -1.19214, 1.22806, -1.30267, 0.00213191, -0.00301892, -0.0147227, -0.00350629, 0.00844307, -0.00365399, -0.00276771, 0.134651, 61.5338, 30.1703, 6.77154, 1.85321, 3.74698, -0.0292249, 0.000313431, -0.00205348, 0.00188923, 0.00221355, 0.00151666, 0.000905353, 0.00196864, 0.00131807, -0.00884705, -0.0155094, -0.00863565, 0.00154661, 0.471014, -0.543375, 0.335901, -2.08384, -2.16585, -0.129876, 0.468883, -0.542859, 0.334146, -2.08284, -2.16317, -0.128865, 0.000976211, 0.00253053, 0.00130664, -0.000589157, 0.00189475, -0.00769495
0.0290632, 1.69107, -1.22771, -1.53948, -0.900183, -1.19214, 1.22805, -1.30267, 0.00383403, -0.00475071, -0.0180638, -0.00261297, 0.00725723, -0.00216459, -0.00232001, 0.0196001, 60.907, 29.722, 6.62079, 1.80469, 3.72592, -0.0164075, 0.000304414, -0.0020579, 0.00191597, 0.00224909, 0.00153769, 0.000915067, 0.00303976, 0.00110457, -0.0109955, -0.0178109, -0.00825246, -0.000234273, 0.471015, -0.543372, 0.335903, -2.08383, -2.16585, -0.129874, 0.468879, -0.542861, 0.33412, -2.08282, -2.16313, -0.128843, 0.00109153, 0.00283037, 0.00146128, -0.000299874, 0.00147653, -0.00983438
0.0300632, 1.69107, -1.22774, -1.53952, -0.900196, -1.19215, 1.22805, -1.30267, 0.00318236, -0.0060775, -0.0236612, -0.00247393, 2.39434e-05, -0.00542051, -0.00107208, -0.0161054, 60.3912, 29.3888, 6.62079, 1.80469, 3.68289, -0.0292249, 0.000292073, -0.00206504, 0.00195144, 0.00230463, 0.00155516, 0.000930758, 0.00607958, 0.00400646, -0.0141078, -0.0289945, -0.00471347, -0.00760871, 0.471016, -0.543369, 0.335904, -2.08383, -2.16585, -0.129871, 0.468873, -0.542865, 0.334085, -2.0828, -2.16309, -0.128796, 0.00121295, 0.00314621, 0.00162416, -0.00308024, -0.000848376, -0.013129
0.0310632, 1.69107, -1.22777, -1.53957, -0.900201, -1.19216, 1.22805, -1.30267, 0.00640075, -0.0143338, -0.0285555, -0.00594822, -0.0067732, -0.00610564, 0.000268536, 0.059273, 59.9509, 29.0912, 6.5097, 1.84772, 3.59683, -0.0557752, 0.000274449, -0.00207409, 0.00198816, 0.0023494, 0.00157444, 0.000957507, 0.00703179, 0.00316682, -0.0215275, -0.0400317, -0.00676022, -0.00749222, 0.471017, -0.543366, 0.335906, -2.08383, -2.16586, -0.129869, 0.468864, -0.542874, 0.334048, -2.08279, -2.16303, -0.12876, 0.00134042, 0.00347794, 0.00179519, -0.00234809, -0.000280405, -0.0204574
0.0320632, 1.69107, -1.22782, -1.53961, -0.900213, -1.19217, 1.22806, -1.30266, 0.00689495, -0.0242073, -0.0301167, -0.008047, -0.011307, -0.00237785, 0.00187438, 0.0949785, 59.8041, 28.7183, 6.5097, 1.88434, 3.52542, -0.101552, 0.000261626, -0.00207613, 0.00203185, 0.00239288, 0.00160569, 0.000970137, 0.00908729, 0.00249011, -0.028002, -0.0423281, -0.010496, -0.00915737, 0.471019, -0.543362, 0.335908, -2.08383, -2.16586, -0.129866, 0.468862, -0.542876, 0.334005, -2.08276, -2.16299, -0.12874, 0.00147388, 0.00382545, 0.00197432, -0.00169908, -0.000938013, -0.0270108
0.0330632, 1.69108, -1.22785, -1.53965, -0.90022, -1.19218, 1.22806, -1.30267, 0.00819831, -0.026354, -0.0333851, -0.00973455, -0.00893613, -0.000705753, 0.00101218, 0.0949785, 59.5819, 28.4208, 6.39465, 1.89624, 3.48239, -0.0951428, 0.000249944, -0.0020785, 0.00206917, 0.00243664, 0.00162973, 0.000978528, 0.00897456, 0.00149521, -0.0307126, -0.0439745, -0.0130968, -0.00658148, 0.47102, -0.543358, 0.33591, -2.08382, -2.16586, -0.129863, 0.468861, -0.542878, 0.333968, -2.08273, -2.16295, -0.128712, 0.00161328, 0.0041886, 0.00216148, -0.000668018, -5.7113e-06, -0.0295126
0.0340632, 1.69109, -1.22789, -1.53969, -0.900224, -1.19219, 1.22807, -1.30267, 0.00988983, -0.0312228, -0.0357488, -0.00823506, -0.00691279, 0.000587534, 0.0040254, 0.21003, 59.5065, 28.1232, 6.28357, 1.90265, 3.43936, -0.0557752, 0.000234996, -0.00208219, 0.00210613, 0.00247169, 0.00165356, 0.000988635, 0.00974588, 0.000900455, -0.0343197, -0.0441048, -0.0186216, -0.00993241, 0.471022, -0.543354, 0.335912, -2.08382, -2.16586, -0.12986, 0.468858, -0.542883, 0.333932, -2.08271, -2.16291, -0.128693, 0.00175856, 0.00456728, 0.0023566, -3.14602e-05, 0.000190955, -0.0330168
0.0350632, 1.69109, -1.22791, -1.53973, -0.900227, -1.1922, 1.22807, -1.30267, 0.00715694, -0.0253067, -0.0399064, -0.0054255, -0.00402805, -1.00555e-05, 0.00281303, 0.360787, 59.2883, 27.9368, 6.09711, 1.87244, 3.43936, -0.0484509, 0.000221586, -0.00208721, 0.00213374, 0.00250644, 0.00166498, 0.00100638, 0.0118826, 0.00384816, -0.0319824, -0.0448357, -0.0151746, -0.0153605, 0.471024, -0.543349, 0.335915, -2.08382, -2.16586, -0.129856, 0.468854, -0.542887, 0.333905, -2.0827, -2.16288, -0.12866, 0.00190969, 0.00496137, 0.00255964, -0.00266342, -0.00200486, -0.0307485
0.0360632, 1.69111, -1.22794, -1.53976, -0.900229, -1.19221, 1.22808, -1.30266, 0.0120043, -0.0303905, -0.0383456, -0.00769688, -0.0065153, 0.000777057, 0.00315922, 0.360787, 59.3597, 27.8257, 5.95032, 1.8349, 3.41006, -0.0750012, 0.000211076, -0.0020854, 0.00217018, 0.00254449, 0.00168746, 0.00101544, 0.010214, 0.000556774, -0.0350682, -0.0463907, -0.017276, -0.0092715, 0.471026, -0.543344, 0.335917, -2.08381, -2.16587, -0.129852, 0.468857, -0.542887, 0.33387, -2.08267, -2.16284, -0.128636, 0.0020666, 0.00537076, 0.00277051, 0.000609409, 0.000661473, -0.033425
0.0370632, 1.69112, -1.22796, -1.5398, -0.900238, -1.19221, 1.22809, -1.30266, 0.0121193, -0.0263834, -0.0369615, -0.00791225, -0.00771769, 0.00134322, 0.00307753, 0.511544, 59.3597, 27.7146, 5.87494, 1.77997, 3.38168, -0.0951428, 0.000202205, -0.00208365, 0.00219629, 0.00257022, 0.00169728, 0.00101906, 0.0101816, 0.00047764, -0.032366, -0.0452249, -0.0117887, -0.00906399, 0.471028, -0.543338, 0.33592, -2.08381, -2.16587, -0.129848, 0.46886, -0.542886, 0.333846, -2.08265, -2.16283, -0.128613, 0.00222924, 0.00579533, 0.00298915, 0.000947468, 0.000705306, -0.0305355
0.0380632, 1.69114, -1.22797, -1.53982, -0.900249, -1.19222, 1.22809, -1.30266, 0.0122797, -0.0231097, -0.0301435, -0.0088209, -0.00849232, 0.00177715, 0.00194946, 0.6623, 59.3597, 27.6392, 5.83527, 1.71863, 3.3533, -0.0878186, 0.000197804, -0.00207836, 0.00221404, 0.00259248, 0.00169512, 0.00101099, 0.00878238, -0.000772572, -0.0282832, -0.0396255, -0.00772618, -0.00440233, 0.47103, -0.543332, 0.335923, -2.0838, -2.16587, -0.129843, 0.468867, -0.542881, 0.33383, -2.08263, -2.16283, -0.128582, 0.00239756, 0.00623496, 0.00321551, 0.00246174, 0.0019491, -0.0260982
0.0390632, 1.69115, -1.22798, -1.53985, -0.900267, -1.19222, 1.2281, -1.30266, 0.0107605, -0.0194487, -0.0317041, -0.011164, -0.00423407, 0.00682201, 0.00169769, 0.888436, 59.4351, 27.7146, 5.87494, 1.65088, 3.33133, -0.0951428, 0.000193986, -0.00207415, 0.00223324, 0.00262004, 0.00169526, 0.00100247, 0.00890677, -0.00131954, -0.0266568, -0.035393, -0.00449465, -0.00338351, 0.471033, -0.543326, 0.335927, -2.0838, -2.16588, -0.129838, 0.468873, -0.542876, 0.333814, -2.0826, -2.16283, -0.128548, 0.00257152, 0.00668953, 0.00344951, 0.0032451, 0.00205292, -0.024294
0.0400632, 1.69115, -1.22798, -1.53988, -0.900282, -1.19222, 1.2281, -1.30267, 0.00962309, -0.0181087, -0.029849, -0.0148726, -0.00669512, 0.00432268, -0.000977165, 1.26533, 59.5819, 27.8257, 5.87494, 1.60785, 3.34598, -0.0356336, 0.000187887, -0.00207415, 0.00224664, 0.00264543, 0.00168865, 0.00099307, 0.00852227, -0.000886266, -0.026057, -0.0387691, -0.00188929, 0.00105629, 0.471035, -0.543319, 0.33593, -2.08379, -2.16588, -0.129833, 0.468876, -0.542873, 0.333803, -2.08257, -2.16284, -0.128508, 0.00275106, 0.00715892, 0.0036911, 0.00299978, 0.00279181, -0.0233875
0.0410632, 1.69116, -1.22798, -1.53989, -0.900298, -1.19223, 1.2281, -1.30267, 0.0071658, -0.0127415, -0.0258891, -0.0176823, -0.00410346, 0.000203571, -0.0012922, 1.72157, 59.8041, 27.9725, 5.87494, 1.57123, 3.42471, -0.0164075, 0.000182264, -0.00207561, 0.00225941, 0.00267162, 0.00168687, 0.000987255, 0.00702453, -7.81188e-05, -0.022297, -0.0383943, -0.000452671, 0.0036607, 0.471038, -0.543312, 0.335934, -2.08379, -2.16589, -0.129827, 0.468877, -0.542869, 0.333794, -2.08255, -2.16284, -0.128472, 0.00293613, 0.00764302, 0.00394021, 0.00245993, 0.00414275, -0.0191688
0.0420632, 1.69116, -1.22797, -1.53991, -0.900324, -1.19223, 1.2281, -1.30267, 0.00526267, -0.00971666, -0.0244662, -0.0191445, -0.00304211, 0.00234407, -0.00104534, 2.20954, 59.9509, 28.1986, 5.98602, 1.55932, 3.51077, -0.00999879, 0.000180259, -0.00207315, 0.00226761, 0.00269525, 0.00167326, 0.000975629, 0.00739678, 0.000158693, -0.0201143, -0.0351616, 0.00307511, 0.00336943, 0.471041, -0.543304, 0.335938, -2.08378, -2.16589, -0.129821, 0.468882, -0.542862, 0.333789, -2.08253, -2.16286, -0.128428, 0.00312667, 0.00814172, 0.00419678, 0.00250612, 0.00392829, -0.0168076
0.0430632, 1.69117, -1.22797, -1.53993, -0.900348, -1.19224, 1.2281, -1.30267, 0.00911761, -0.00890787, -0.0215295, -0.019098, -0.00326671, 0.00495229, -0.00065678, 2.62611, 60.173, 28.4961, 6.0614, 1.57764, 3.57577, -0.00999879, 0.000177595, -0.00207003, 0.00227882, 0.0027235, 0.00166045, 0.000962459, 0.00587339, -0.00274191, -0.0187549, -0.0311713, 0.00564271, 0.00762687, 0.471044, -0.543295, 0.335942, -2.08378, -2.16589, -0.129815, 0.468888, -0.542854, 0.333782, -2.0825, -2.16287, -0.128378, 0.00332265, 0.00865489, 0.00446074, 0.00559347, 0.005855, -0.0150525
0.0440632, 1.69118, -1.22797, -1.53994, -0.900366, -1.19225, 1.2281, -1.30266, 0.00692296, -0.00492673, -0.0190675, -0.0186128, -0.00419185, 0.00256999, 0.00152501, 3.11805, 60.5023, 28.7937, 5.98602, 1.62067, 3.6188, -0.0621838, 0.00017136, -0.00206957, 0.00229147, 0.00274493, 0.00165528, 0.000961646, 0.00659877, -0.00100949, -0.0157621, -0.03085, 0.00928841, 0.00320065, 0.471048, -0.543286, 0.335947, -2.08377, -2.1659, -0.129808, 0.468892, -0.542849, 0.333773, -2.08248, -2.16287, -0.128343, 0.003524, 0.00918243, 0.00473204, 0.00419876, 0.00513484, -0.0118862
0.0450632, 1.69118, -1.22797, -1.53994, -0.900366, -1.19225, 1.2281, -1.30266, 0.00692296, -0.00492673, -0.0190675, -0.0186128, -0.00419185, 0.00256999, 0.00152501, 3.11805, 60.5023, 28.7937, 5.98602, 1.62067, 3.6188, -0.0621838, 0.000161419, -0.00207342, 0.00229497, 0.00274007, 0.00165761, 0.000966998, 0.00716942, -0.000789328, -0.0159612, -0.0310896, 0.00966587, 0.00273595, 0.471051, -0.543277, 0.335952, -2.08376, -2.1659, -0.129801, 0.468892, -0.542849, 0.333773, -2.08248, -2.16287, -0.128343, 0.00373068, 0.00972421, 0.00501061, 0.00419876, 0.00513484, -0.0118862
0.0460632, 1.69121, -1.22797, -1.53997, -0.900404, -1.19227, 1.22812, -1.30266, 0.00804368, -0.00363837, -0.0145747, -0.0202686, -0.010076, 0.00213738, 0.00592566, 3.83216, 61.1292, 29.3531, 5.76385, 1.71863, 3.6188, -0.0814099, 0.000163746, -0.00205795, 0.0023095, 0.00277577, 0.00162353, 0.000934184, 0.00683357, -0.00158932, -0.0141417, -0.0313835, 0.0158381, 0.000583017, 0.471055, -0.543267, 0.335957, -2.08375, -2.16591, -0.129793, 0.468911, -0.542834, 0.333764, -2.08244, -2.16292, -0.128264, 0.00394263, 0.0102801, 0.00529638, 0.00526339, 0.00577508, -0.00977587
0.0470632, 1.69122, -1.22797, -1.53998, -0.900415, -1.19228, 1.22812, -1.30266, 0.0104912, -0.00488986, -0.0123303, -0.0189143, -0.00931171, 0.000228853, 0.00363957, 4.13764, 61.5338, 29.611, 5.50201, 1.77356, 3.66092, -0.0621838, 0.00015713, -0.00205343, 0.00231975, 0.0027879, 0.00161158, 0.000922727, 0.0060502, -0.00258505, -0.0143982, -0.030815, 0.0132295, 0.00496948, 0.471059, -0.543256, 0.335962, -2.08375, -2.16592, -0.129785, 0.468919, -0.542828, 0.333758, -2.08242, -2.16294, -0.128232, 0.00415982, 0.0108501, 0.00558931, 0.00643764, 0.00719865, -0.00964472
0.0480632, 1.69124, -1.22798, -1.54, -0.900421, -1.1923, 1.22813, -1.30266, 0.014159, -0.00902052, -0.0164893, -0.0164789, -0.00869611, 0.00405785, 0.00150657, 4.36378, 62.0853, 29.9839, 5.16479, 1.82941, 3.70395, -0.0292249, 0.000148869, -0.00204805, 0.00233838, 0.0028069, 0.00161017, 0.000915223, 0.0072856, -0.00397311, -0.0180356, -0.0308536, 0.0110793, 0.00637547, 0.471064, -0.543245, 0.335968, -2.08374, -2.16592, -0.129777, 0.468928, -0.542822, 0.333744, -2.08239, -2.16295, -0.128202, 0.00438218, 0.0114339, 0.00588931, 0.00795892, 0.00717944, -0.01317
0.0490632, 1.69126, -1.22798, -1.54001, -0.900429, -1.19231, 1.22814, -1.30266, 0.0158818, -0.00916898, -0.0158491, -0.0136769, -0.00699395, 0.00120911, 0.000246712, 4.62562, 62.5296, 30.206, 4.90295, 1.85321, 3.76163, -0.00267457, 0.000141281, -0.00204258, 0.00235061, 0.00282062, 0.00159873, 0.000904245, 0.00722837, -0.00385819, -0.0180662, -0.0311875, 0.0083108, 0.00725132, 0.471068, -0.543234, 0.335974, -2.08373, -2.16593, -0.129768, 0.468938, -0.542816, 0.333737, -2.08237, -2.16297, -0.128167, 0.00460967, 0.0120315, 0.00619634, 0.00806843, 0.00783353, -0.0128808
0.0500632, 1.69129, -1.22798, -1.54003, -0.90044, -1.19232, 1.22814, -1.30266, 0.0186995, -0.00937843, -0.0156003, -0.0134878, -0.00605171, 0.00547693, 0.000604998, 4.81605, 62.8589, 30.4322, 4.71649, 1.88434, 3.79001, -0.00999879, 0.000135717, -0.0020349, 0.00236176, 0.00283434, 0.0015854, 0.000888098, 0.00690513, -0.00608477, -0.0180747, -0.0274578, 0.00992506, 0.00942561, 0.471073, -0.543221, 0.335981, -2.08372, -2.16594, -0.129759, 0.46895, -0.542807, 0.333731, -2.08234, -2.16299, -0.128131, 0.00484224, 0.0126428, 0.00651033, 0.0105127, 0.00885654, -0.0125923
0.0510632, 1.69131, -1.22798, -1.54004, -0.900447, -1.19233, 1.22815, -1.30266, 0.0196456, -0.00689009, -0.0145702, -0.00917844, -0.0100857, 0.00854162, 0.00124235, 5.04218, 63.1921, 30.6186, 4.49432, 1.91546, 3.8193, -0.0292249, 0.000129249, -0.00202757, 0.00237173, 0.00284579, 0.0015713, 0.000880091, 0.00909347, -0.00564305, -0.0156613, -0.0239431, 0.017248, 0.00451415, 0.471078, -0.543208, 0.335987, -2.08371, -2.16594, -0.129749, 0.468962, -0.542799, 0.333727, -2.08233, -2.16301, -0.128095, 0.00507984, 0.0132677, 0.00683122, 0.0104749, 0.0069315, -0.0102145
0.0520632, 1.69134, -1.22798, -1.54005, -0.900457, -1.19235, 1.22816, -1.30266, 0.022045, -0.0068724, -0.0130034, -0.00867401, -0.0126252, 0.0101094, 0.00139816, 5.19294, 63.5968, 30.7654, 4.37927, 1.93378, 3.86233, -0.0420422, 0.000124165, -0.00201685, 0.00238553, 0.00285711, 0.00156127, 0.000862853, 0.00918995, -0.00689548, -0.0152487, -0.0228077, 0.0204965, 0.00564419, 0.471083, -0.543195, 0.335994, -2.0837, -2.16595, -0.129738, 0.468978, -0.542788, 0.333719, -2.0823, -2.16304, -0.128063, 0.00532241, 0.013906, 0.00715894, 0.0119867, 0.00746246, -0.0095322
0.0530632, 1.69137, -1.22799, -1.54006, -0.900462, -1.19236, 1.22817, -1.30265, 0.0239577, -0.00354517, -0.0120876, -0.00812032, -0.0107966, 0.0111763, 0.00246157, 5.3437, 64.0015, 30.9162, 4.26819, 1.97681, 3.9191, -0.0814099, 0.000115992, -0.00200838, 0.00240008, 0.00286848, 0.00155197, 0.000854934, 0.00844159, -0.00808473, -0.0131383, -0.02027, 0.0232499, 0.0064177, 0.471088, -0.54318, 0.336002, -2.08369, -2.16596, -0.129728, 0.468992, -0.542779, 0.33371, -2.08228, -2.16306, -0.128031, 0.00556992, 0.0145576, 0.00749345, 0.0134714, 0.00857701, -0.00703367
0.0540632, 1.69139, -1.22799, -1.54007, -0.900468, -1.19238, 1.22817, -1.30266, 0.0262761, -0.000737998, -0.0123393, -0.00617423, -0.0135978, 0.0120318, 0.000745166, 5.56983, 64.2593, 31.1027, 4.23248, 2.00702, 3.96945, -0.0557752, 0.000104586, -0.00200399, 0.00241082, 0.00287719, 0.00153595, 0.00084632, 0.00912476, -0.00842791, -0.0115988, -0.0205449, 0.0291435, 0.00704154, 0.471094, -0.543166, 0.336009, -2.08368, -2.16597, -0.129716, 0.469002, -0.542774, 0.333705, -2.08226, -2.16308, -0.127995, 0.00582231, 0.0152225, 0.00783467, 0.0141467, 0.00834469, -0.00528876
0.0550632, 1.69142, -1.22798, -1.54008, -0.900482, -1.1924, 1.22818, -1.30266, 0.0309009, -0.000112664, -0.010764, -0.00707632, -0.0164245, 0.00680425, -0.00115848, 5.68488, 64.4418, 31.2137, 4.30786, 2.05646, 4.04086, -0.00999879, 9.97401e-05, -0.00199327, 0.00241938, 0.00289203, 0.00151185, 0.000819274, 0.00714843, -0.00994219, -0.0117454, -0.0264192, 0.0300866, 0.0135234, 0.4711, -0.54315, 0.336017, -2.08367, -2.16597, -0.129705, 0.469018, -0.542761, 0.333704, -2.08222, -2.16313, -0.127945, 0.00607953, 0.0159004, 0.00818254, 0.01584, 0.0110585, -0.00482484
0.0560632, 1.69144, -1.22798, -1.54009, -0.900491, -1.19242, 1.22819, -1.30265, 0.0314587, 0.00127065, -0.0114922, -0.0104011, -0.0175691, 0.00347088, 0.00142794, 5.91102, 64.6997, 31.4002, 4.37927, 2.08118, 4.09854, -0.0685925, 8.7911e-05, -0.001989, 0.00243201, 0.00290639, 0.00149589, 0.000818206, 0.0065439, -0.00982541, -0.012225, -0.0323393, 0.0315907, 0.013052, 0.471106, -0.543134, 0.336026, -2.08366, -2.16598, -0.129692, 0.469029, -0.542754, 0.333698, -2.08221, -2.16314, -0.127901, 0.00634154, 0.0165914, 0.00853701, 0.0159463, 0.0124154, -0.00484662
0.0570632, 1.69146, -1.22798, -1.5401, -0.900502, -1.19243, 1.22819, -1.30265, 0.0307056, 0.00123183, -0.00929781, -0.0105582, -0.0177696, 0.00661891, 0.000974555, 6.06178, 64.8862, 31.4716, 4.49432, 2.08667, 4.14157, -0.0685925, 8.00589e-05, -0.00198013, 0.00244006, 0.00291067, 0.00147727, 0.000803467, 0.00748856, -0.010095, -0.0114348, -0.0280442, 0.0336106, 0.0132891, 0.471113, -0.543117, 0.336034, -2.08364, -2.16599, -0.129679, 0.469044, -0.542744, 0.333697, -2.08219, -2.16317, -0.127866, 0.00660828, 0.0172953, 0.00889802, 0.0165448, 0.0120762, -0.00386013
0.0580632, 1.6915, -1.22798, -1.54011, -0.90051, -1.19246, 1.2282, -1.30265, 0.0316986, 0.000996062, -0.00969943, -0.00940892, -0.0131027, 0.0082084, 0.000666648, 6.13715, 65.0687, 31.6224, 4.56573, 2.08667, 4.20657, -0.0685925, 7.14171e-05, -0.0019713, 0.00245165, 0.00292798, 0.00145672, 0.000788501, 0.00749086, -0.0108567, -0.0117324, -0.0247776, 0.030794, 0.0143338, 0.471119, -0.543099, 0.336043, -2.08363, -2.166, -0.129666, 0.469059, -0.542732, 0.333693, -2.08216, -2.1632, -0.127814, 0.00687971, 0.0180119, 0.00926549, 0.0175662, 0.0128677, -0.00380993
0.0590632, 1.69152, -1.22797, -1.54011, -0.900521, -1.19247, 1.2282, -1.30265, 0.0314618, 0.00431806, -0.0064471, -0.00948862, -0.013018, 0.00956483, 0.000219782, 6.24824, 65.2155, 31.6224, 4.68079, 2.05005, 4.27066, -0.0621838, 6.55748e-05, -0.00196152, 0.00245609, 0.00293111, 0.00143728, 0.00076544, 0.00748058, -0.0112192, -0.008774, -0.0207541, 0.0350008, 0.0155257, 0.471126, -0.543081, 0.336053, -2.08362, -2.16601, -0.129652, 0.469076, -0.542719, 0.333697, -2.08213, -2.16325, -0.127779, 0.00715578, 0.0187412, 0.00963939, 0.018311, 0.013167, -0.000524259
0.0600632, 1.69156, -1.22797, -1.54011, -0.900522, -1.19249, 1.2282, -1.30265, 0.0320235, 0.00209753, -0.0051189, -0.00579129, -0.013351, 0.00585152, -0.00153937, 6.32362, 65.4376, 31.6581, 4.64111, 2.01984, 4.32101, -0.0164075, 5.70983e-05, -0.00195183, 0.00246619, 0.00293534, 0.00142802, 0.000743175, 0.00871798, -0.00996661, -0.00972062, -0.0218124, 0.0313452, 0.0145397, 0.471134, -0.543062, 0.336063, -2.0836, -2.16602, -0.129638, 0.469093, -0.542706, 0.333695, -2.0821, -2.16329, -0.127753, 0.00743644, 0.0194831, 0.0100196, 0.0173509, 0.0127815, -0.00123284
0.0610632, 1.6916, -1.22797, -1.54012, -0.900528, -1.19251, 1.22821, -1.30266, 0.030986, 0.00225502, -0.00692828, -0.00508405, -0.0194044, 0.00331227, -0.00200244, 6.32362, 65.5844, 31.8088, 4.68079, 2.01343, 4.36404, 0.0101428, 4.86019e-05, -0.00194046, 0.00247794, 0.00294977, 0.00140762, 0.000720271, 0.0114755, -0.00745211, -0.0106146, -0.0282396, 0.0357468, 0.00982196, 0.471141, -0.543042, 0.336073, -2.08359, -2.16603, -0.129623, 0.469112, -0.542692, 0.333692, -2.08206, -2.16333, -0.127704, 0.00772164, 0.0202374, 0.0104062, 0.0151916, 0.0108476, -0.00208065
0.0620632, 1.69164, -1.22797, -1.54013, -0.900526, -1.19253, 1.22821, -1.30266, 0.034041, -0.000451938, -0.006374, -0.00268273, -0.0194536, 0.000859566, -0.000854882, 6.28791, 65.8423, 31.8842, 4.64111, 2.01343, 4.4208, -0.00267457, 3.96656e-05, -0.00192755, 0.00249218, 0.00295698, 0.00139805, 0.000701389, 0.0115297, -0.00801361, -0.0123308, -0.0298035, 0.0322612, 0.00923799, 0.471149, -0.543021, 0.336083, -2.08357, -2.16604, -0.129607, 0.469132, -0.542678, 0.333687, -2.08203, -2.16336, -0.127672, 0.00801134, 0.0210041, 0.0107989, 0.0159818, 0.0118479, -0.00340803
0.0630632, 1.69168, -1.22797, -1.54013, -0.90053, -1.19255, 1.22821, -1.30266, 0.0384188, -0.00170498, -0.00684172, -0.00195452, -0.0199817, 0.000324526, -0.000294633, 6.28791, 65.9534, 31.9953, 4.64111, 2.03174, 4.44278, -0.00999879, 3.03246e-05, -0.00191611, 0.00250508, 0.00297228, 0.00137963, 0.000681509, 0.0108855, -0.00977659, -0.0136933, -0.0317012, 0.0318265, 0.0113241, 0.471157, -0.543, 0.336094, -2.08356, -2.16606, -0.129591, 0.469152, -0.542663, 0.333684, -2.08199, -2.1634, -0.127622, 0.00830549, 0.021783, 0.0111979, 0.017964, 0.0135449, -0.0043079
0.0640632, 1.69171, -1.22797, -1.54014, -0.900527, -1.19257, 1.22821, -1.30265, 0.0347371, -0.00450948, -0.00631983, 0.000335698, -0.0193253, 0.000369046, 0.00197673, 6.43867, 66.1359, 32.0707, 4.56573, 2.02533, 4.4501, -0.0685925, 1.3446e-05, -0.00191147, 0.00251879, 0.00297692, 0.00136963, 0.0006834, 0.0140578, -0.00710527, -0.0149311, -0.0298163, 0.0287169, 0.00326548, 0.471166, -0.542978, 0.336106, -2.08354, -2.16607, -0.129574, 0.469165, -0.542656, 0.333679, -2.08198, -2.16341, -0.12759, 0.00860403, 0.0225739, 0.011603, 0.0156639, 0.0112846, -0.00553618
0.0650632, 1.69176, -1.22797, -1.54015, -0.90053, -1.1926, 1.22821, -1.30265, 0.0367618, -0.00233426, -0.00680826, -0.000797616, -0.0251476, 0.00570012, 0.00108272, 6.39899, 66.1359, 32.1818, 4.60541, 2.05646, 4.4501, -0.0621838, 2.65991e-06, -0.00189983, 0.00252991, 0.00299312, 0.00134295, 0.000662976, 0.0152755, -0.0083651, -0.0139167, -0.0293415, 0.0390394, 0.00424932, 0.471175, -0.542955, 0.336118, -2.08352, -2.16608, -0.129557, 0.469185, -0.542641, 0.333678, -2.08195, -2.16345, -0.12753, 0.00890693, 0.0233769, 0.0120141, 0.0173057, 0.0107812, -0.00435047
0.0660632, 1.6918, -1.22797, -1.54015, -0.900527, -1.19263, 1.22822, -1.30265, 0.0394033, -0.00365059, -0.00277304, 0.00032623, -0.0290098, 0.00528037, 0.000214887, 6.43867, 66.2469, 32.1064, 4.56573, 2.08118, 4.42813, -0.0484509, -1.00286e-05, -0.0018887, 0.00254067, 0.00299219, 0.00132788, 0.000646566, 0.0152996, -0.00949286, -0.0135762, -0.0283153, 0.0409717, 0.00672391, 0.471184, -0.542931, 0.33613, -2.0835, -2.16609, -0.129539, 0.469205, -0.542628, 0.333677, -2.08192, -2.16349, -0.127499, 0.00921413, 0.0241918, 0.0124312, 0.0187525, 0.0115665, -0.00363512
0.0670632, 1.69184, -1.22797, -1.54016, -0.900533, -1.19265, 1.22822, -1.30265, 0.0405828, -0.0020557, -0.00620847, -0.00159829, -0.0258428, 0.00402011, -9.28289e-05, 6.51405, 66.2469, 32.2928, 4.64111, 2.06836, 4.42813, -0.0420422, -2.29134e-05, -0.0018792, 0.00255526, 0.00301019, 0.00130905, 0.000629233, 0.0148822, -0.00974263, -0.0145978, -0.0322567, 0.0403412, 0.0085606, 0.471193, -0.542906, 0.336143, -2.08349, -2.16611, -0.12952, 0.469224, -0.542613, 0.333673, -2.08188, -2.16353, -0.127444, 0.0095256, 0.0250185, 0.0128543, 0.0192612, 0.0129727, -0.00416364
0.0680632, 1.69187, -1.22796, -1.54016, -0.900538, -1.19268, 1.22822, -1.30265, 0.0376061, 0.000583495, -0.00320952, -0.00203294, -0.0290531, 0.00278371, -0.00199371, 6.6291, 66.1755, 32.2532, 4.68079, 2.07477, 4.43545, 0.0101428, -3.69281e-05, -0.0018716, 0.00256262, 0.00301572, 0.0012851, 0.000607186, 0.0165948, -0.00772542, -0.012301, -0.0320846, 0.0453143, 0.00751236, 0.471203, -0.542881, 0.336156, -2.08347, -2.16612, -0.129501, 0.469242, -0.5426, 0.333676, -2.08185, -2.16358, -0.127396, 0.00984127, 0.0258569, 0.0132832, 0.0177076, 0.0116841, -0.00167122
0.0690632, 1.69192, -1.22795, -1.54016, -0.900534, -1.19271, 1.22822, -1.30265, 0.0404528, 0.00496333, -0.00482986, -0.000456827, -0.032852, 0.00267952, -0.00109107, 6.6648, 65.9891, 32.3682, 4.64111, 2.1178, 4.4208, 0.00373412, -5.28277e-05, -0.00186326, 0.00256882, 0.0030255, 0.00125116, 0.000597174, 0.0173634, -0.00781671, -0.0105511, -0.0350553, 0.0533836, 0.00519038, 0.471213, -0.542854, 0.336169, -2.08345, -2.16613, -0.129481, 0.46926, -0.542588, 0.333681, -2.08183, -2.16362, -0.127332, 0.0101611, 0.0267069, 0.013718, 0.01821, 0.0115099, 0.0003696
0.0700632, 1.69197, -1.22795, -1.54017, -0.900535, -1.19274, 1.22822, -1.30265, 0.0433256, 0.00625464, -0.00488953, -0.000326714, -0.0341162, 0.00223458, -0.000218215, 6.6648, 65.9891, 32.4396, 4.64111, 2.12421, 4.4144, -0.00999879, -6.65127e-05, -0.00185118, 0.00258317, 0.00303666, 0.00123206, 0.000577487, 0.0171297, -0.00879584, -0.0102988, -0.036729, 0.0561656, 0.00583706, 0.471223, -0.542827, 0.336183, -2.08343, -2.16615, -0.129461, 0.469283, -0.542572, 0.333678, -2.0818, -2.16366, -0.127282, 0.0104851, 0.0275683, 0.0141585, 0.0195127, 0.0126037, 0.00106578
0.0710632, 1.69201, -1.22794, -1.54017, -0.900533, -1.19277, 1.22822, -1.30265, 0.0460402, 0.0108675, -0.00325908, 0.000600786, -0.0297568, 0.00191915, 0.000567003, 6.6291, 65.8423, 32.4396, 4.60541, 2.11139, 4.40707, -0.0292249, -8.05306e-05, -0.00183978, 0.00258913, 0.00304304, 0.00119978, 0.000560851, 0.0154555, -0.0103995, -0.00736932, -0.0335124, 0.0575386, 0.00833717, 0.471234, -0.542799, 0.336197, -2.08341, -2.16616, -0.12944, 0.469305, -0.542557, 0.333684, -2.08177, -2.16371, -0.127223, 0.0108131, 0.0284411, 0.0146048, 0.0214886, 0.0147452, 0.00461554
0.0720632, 1.69207, -1.22792, -1.54017, -0.900531, -1.1928, 1.22822, -1.30264, 0.0530086, 0.0120204, -0.00217226, 0.00131608, -0.0283185, 0.00194059, 0.00159901, 6.51405, 65.6598, 32.4396, 4.56573, 2.14801, 4.39242, -0.0621838, -9.20606e-05, -0.00182462, 0.00259117, 0.00304716, 0.00115904, 0.000539349, 0.0128899, -0.0141326, -0.00689282, -0.0328972, 0.058221, 0.0137951, 0.471245, -0.54277, 0.336212, -2.08339, -2.16618, -0.129418, 0.469331, -0.542538, 0.333695, -2.08175, -2.16377, -0.127157, 0.0111452, 0.0293251, 0.0150567, 0.0254736, 0.0182431, 0.00582227
0.0730632, 1.69212, -1.22792, -1.54017, -0.900528, -1.19284, 1.22822, -1.30265, 0.0521869, 0.00859293, -0.00144783, 0.00170325, -0.0307247, 0.00243385, 0.000828872, 6.51405, 65.7709, 32.4396, 4.53003, 2.15442, 4.36404, -0.0557752, -0.00011031, -0.00181383, 0.00260573, 0.00305238, 0.00113809, 0.00052213, 0.015007, -0.0132349, -0.00883651, -0.0333123, 0.0575301, 0.0122699, 0.471256, -0.542741, 0.336228, -2.08336, -2.16619, -0.129396, 0.469354, -0.542524, 0.333693, -2.08171, -2.16381, -0.12711, 0.0114812, 0.0302203, 0.0155142, 0.024919, 0.0173102, 0.00405943
0.0740632, 1.69217, -1.22791, -1.54017, -0.900526, -1.19287, 1.22823, -1.30264, 0.0544258, 0.00884516, -0.00189299, 0.00196371, -0.0330063, 0.00301172, 0.00079011, 6.39899, 65.6598, 32.4793, 4.49432, 2.17273, 4.32834, -0.0621838, -0.000124482, -0.00179826, 0.00261153, 0.0030588, 0.0010963, 0.000498498, 0.0156243, -0.0138351, -0.00920652, -0.0348506, 0.0606379, 0.0125473, 0.471268, -0.54271, 0.336243, -2.08334, -2.16621, -0.129373, 0.469381, -0.542506, 0.3337, -2.08168, -2.16388, -0.12704, 0.0118212, 0.0311266, 0.0159772, 0.0258673, 0.0176889, 0.00404305
0.0750632, 1.69223, -1.2279, -1.54018, -0.900515, -1.19291, 1.22823, -1.30265, 0.0572013, 0.00545012, -0.00209702, 0.00483035, -0.0299973, 0.00338029, -0.00167718, 6.36329, 65.6955, 32.515, 4.34357, 2.19104, 4.29263, -0.00267457, -0.000144382, -0.00178646, 0.00262342, 0.00306307, 0.00106695, 0.000478348, 0.0160082, -0.0148173, -0.0113246, -0.0330495, 0.0554522, 0.0154461, 0.47128, -0.542678, 0.33626, -2.08332, -2.16623, -0.129349, 0.469405, -0.542492, 0.333701, -2.08165, -2.16393, -0.126983, 0.012165, 0.0320437, 0.0164457, 0.0271288, 0.0185934, 0.00233057
0.0760632, 1.69229, -1.2279, -1.54017, -0.900508, -1.19295, 1.22824, -1.30265, 0.0562544, 0.00216159, -0.000562649, 0.00497953, -0.0370108, 0.0156524, 0.000577397, 6.32362, 65.7709, 32.4793, 4.26819, 2.20935, 4.21298, -0.0484509, -0.000163886, -0.00177094, 0.00263544, 0.00305592, 0.00103693, 0.000463278, 0.0201027, -0.0156679, -0.0119083, -0.0247629, 0.0644913, 0.00980492, 0.471292, -0.542646, 0.336276, -2.08329, -2.16625, -0.129324, 0.469433, -0.542476, 0.333702, -2.08163, -2.16398, -0.126938, 0.0125127, 0.0329717, 0.0169196, 0.028453, 0.0156044, 0.00156737
0.0770632, 1.69235, -1.2279, -1.54017, -0.900499, -1.19299, 1.22825, -1.30264, 0.0593091, 0.00289411, 0.000553029, 0.0122023, -0.038175, 0.0139755, 0.000893629, 6.24824, 65.8423, 32.4396, 4.1571, 2.24689, 4.14157, -0.0621838, -0.000182561, -0.00175431, 0.00264818, 0.00305356, 0.0010067, 0.000442539, 0.0216317, -0.0151391, -0.0107292, -0.0231692, 0.0653849, 0.00552316, 0.471305, -0.542612, 0.336293, -2.08327, -2.16626, -0.129299, 0.469463, -0.542458, 0.333704, -2.0816, -2.16404, -0.126887, 0.0128642, 0.0339105, 0.0173989, 0.0283749, 0.0148307, 0.00298991
0.0780632, 1.69241, -1.2279, -1.54017, -0.900492, -1.19303, 1.22826, -1.30264, 0.0595946, 0.000572172, 0.00120399, 0.0104198, -0.0395291, 0.0126337, 0.000595806, 6.24824, 65.9177, 32.4039, 4.08173, 2.28992, 4.07016, -0.0621838, -0.000204202, -0.00173984, 0.00266222, 0.00305374, 0.000974006, 0.000424033, 0.0221834, -0.0150762, -0.0125875, -0.0258828, 0.0642923, 0.00677175, 0.471318, -0.542578, 0.336311, -2.08324, -2.16628, -0.129273, 0.46949, -0.542443, 0.333704, -2.08157, -2.1641, -0.12683, 0.0132194, 0.0348598, 0.0178835, 0.0286196, 0.0155186, 0.00155588
0.0790632, 1.69248, -1.22791, -1.54018, -0.900486, -1.19308, 1.22827, -1.30265, 0.0628296, -0.000149269, -0.00439419, 0.0113473, -0.0404361, 0.01052, 0.000159886, 6.13715, 65.9534, 32.6261, 4.04602, 2.33295, 4.02713, -0.0557752, -0.000226038, -0.00172184, 0.00268389, 0.00306975, 0.000936289, 0.000401698, 0.0232201, -0.0148362, -0.0155708, -0.0335666, 0.0643143, 0.00580595, 0.471331, -0.542543, 0.336329, -2.08322, -2.1663, -0.129247, 0.469522, -0.542425, 0.333696, -2.08153, -2.16415, -0.126749, 0.0135784, 0.0358197, 0.0183733, 0.0286677, 0.0159038, -0.00105359
0.0800632, 1.69255, -1.22791, -1.54017, -0.900478, -1.19313, 1.22828, -1.30264, 0.0664359, 0.000128863, 0.000504257, 0.00905085, -0.0451042, 0.0137141, -0.000639365, 6.09748, 65.9534, 32.4793, 4.00635, 2.35675, 3.99142, -0.0356336, -0.000244663, -0.00170194, 0.00269589, 0.00306387, 0.000901475, 0.000373804, 0.0221717, -0.0179029, -0.0142505, -0.0307161, 0.0706602, 0.0121527, 0.471345, -0.542506, 0.336348, -2.08319, -2.16632, -0.12922, 0.469555, -0.542404, 0.3337, -2.0815, -2.16423, -0.126696, 0.013941, 0.03679, 0.0188684, 0.0321034, 0.0178335, 0.000814116
0.0810632, 1.69262, -1.22791, -1.54018, -0.900474, -1.19318, 1.22829, -1.30265, 0.0660997, -0.000578027, -0.00142703, 0.00958703, -0.0484071, 0.0158172, -0.0011383, 6.06178, 65.9891, 32.5547, 4.00635, 2.37598, 3.96945, -0.0164075, -0.000266412, -0.00168413, 0.00271684, 0.00307532, 0.000869151, 0.000344478, 0.02485, -0.0168876, -0.015431, -0.0322812, 0.0744415, 0.00901197, 0.471359, -0.542469, 0.336367, -2.08316, -2.16634, -0.129192, 0.469587, -0.542385, 0.333694, -2.08145, -2.16429, -0.126626, 0.0143072, 0.0377706, 0.0193685, 0.0315098, 0.0163095, -0.000235596
0.0820632, 1.69268, -1.22791, -1.54018, -0.900466, -1.19323, 1.2283, -1.30265, 0.0618039, 0.00234157, -2.33094e-05, 0.0117305, -0.0505925, 0.0112287, -0.000996207, 6.06178, 65.878, 32.515, 3.93494, 2.39429, 3.97677, -0.00999879, -0.000288797, -0.00166637, 0.00272735, 0.00307507, 0.000821541, 0.000323214, 0.0278257, -0.0127107, -0.0134554, -0.0345444, 0.0771345, 0.00180871, 0.471373, -0.542431, 0.336386, -2.08313, -2.16636, -0.129163, 0.46962, -0.542366, 0.333699, -2.08142, -2.16436, -0.126551, 0.014677, 0.0387614, 0.0198738, 0.0278888, 0.0138858, 0.00188666
0.0830632, 1.69276, -1.22791, -1.54018, -0.900465, -1.19329, 1.22831, -1.30265, 0.0660069, -0.00186909, -0.00094354, 0.0107885, -0.0526471, 0.013743, -0.000664125, 6.0221, 66.0287, 32.5547, 3.97064, 2.4126, 3.96213, -0.00999879, -0.000309376, -0.0016425, 0.00274973, 0.00308008, 0.000785248, 0.00028884, 0.0279831, -0.0150232, -0.0167509, -0.0359951, 0.0768304, 0.00456841, 0.471388, -0.542392, 0.336407, -2.0831, -2.16638, -0.129134, 0.469659, -0.542343, 0.333694, -2.08138, -2.16444, -0.126483, 0.0150503, 0.0397623, 0.0203841, 0.0304569, 0.015334, -0.000952193
0.0840632, 1.69283, -1.22791, -1.54018, -0.900464, -1.19334, 1.22833, -1.30264, 0.0681283, 0.00058944, -0.000629012, 0.00713345, -0.0540721, 0.0157336, 0.00125268, 6.0221, 65.9534, 32.5547, 4.00635, 2.43091, 3.95572, -0.0557752, -0.000331885, -0.00162165, 0.00276401, 0.0030854, 0.000731838, 0.000264461, 0.0272147, -0.0168407, -0.0160039, -0.0369328, 0.082496, 0.00673283, 0.471403, -0.542351, 0.336427, -2.08308, -2.1664, -0.129103, 0.469695, -0.542322, 0.333696, -2.08134, -2.16451, -0.126395, 0.0154271, 0.0407732, 0.0208993, 0.0326486, 0.0170644, 0.000364194
0.0850632, 1.6929, -1.22791, -1.54018, -0.900466, -1.1934, 1.22834, -1.30264, 0.0703897, -0.000388063, -0.00125455, 0.00357466, -0.0586665, 0.0127378, 0.0015472, 6.13715, 65.9891, 32.5904, 4.08173, 2.41809, 3.92642, -0.0750012, -0.00035698, -0.00160272, 0.00278425, 0.00309221, 0.000688686, 0.000238798, 0.0270456, -0.0173383, -0.0180425, -0.0447719, 0.0849298, 0.00911827, 0.471419, -0.54231, 0.336448, -2.08304, -2.16642, -0.129072, 0.469729, -0.542301, 0.333693, -2.08131, -2.16458, -0.126316, 0.0158074, 0.041794, 0.0214195, 0.0334452, 0.0185864, -0.00111779
0.0860632, 1.69299, -1.22791, -1.54018, -0.900465, -1.19346, 1.22836, -1.30264, 0.074516, -0.000218063, -0.000836358, 0.00281981, -0.0627862, 0.0149874, 0.00126883, 6.0221, 65.9891, 32.5904, 4.08173, 2.41809, 3.91269, -0.0814099, -0.000378065, -0.00157574, 0.00280378, 0.00309619, 0.000639519, 0.000200197, 0.0270187, -0.0194297, -0.0182909, -0.0457832, 0.0904642, 0.012095, 0.471435, -0.542268, 0.33647, -2.08301, -2.16645, -0.129041, 0.469772, -0.542276, 0.333691, -2.08126, -2.16467, -0.126234, 0.016191, 0.0428246, 0.0219445, 0.0359076, 0.019769, -0.000897908
0.0870632, 1.69307, -1.22792, -1.54019, -0.900467, -1.19353, 1.22838, -1.30264, 0.0746652, -0.00187813, 0.00388084, 0.0022074, -0.0669558, 0.0219035, 0.000371175, 6.0221, 66.0645, 32.6658, 4.08173, 2.44281, 3.90536, -0.0685925, -0.000405091, -0.00155344, 0.0028278, 0.00310725, 0.000587715, 0.000168365, 0.0285836, -0.0208953, -0.0174586, -0.0384736, 0.0961109, 0.0137174, 0.471451, -0.542224, 0.336492, -2.08298, -2.16647, -0.129008, 0.469811, -0.542255, 0.333685, -2.08121, -2.16476, -0.12614, 0.016578, 0.0438649, 0.0224743, 0.037846, 0.0191978, 0.000166249
0.0880632, 1.69314, -1.22792, -1.54019, -0.900468, -1.19359, 1.2284, -1.30265, 0.0729117, -0.00289966, -0.00406711, 0.000789221, -0.0692064, 0.0218274, -0.00192269, 6.09748, 66.1359, 32.7015, 4.1214, 2.44922, 3.89071, -0.00999879, -0.000433828, -0.00153368, 0.0028506, 0.00311403, 0.000539852, 0.000134453, 0.0322271, -0.0181589, -0.0213683, -0.0474626, 0.0981979, 0.0101006, 0.471468, -0.54218, 0.336515, -2.08295, -2.16649, -0.128975, 0.469848, -0.542234, 0.33368, -2.08116, -2.16484, -0.126054, 0.0169683, 0.0449148, 0.0230089, 0.0354931, 0.0171375, -0.00364056
0.0890632, 1.69323, -1.22792, -1.5402, -0.900475, -1.19367, 1.22842, -1.30264, 0.0745488, -0.00191596, -0.00637827, -0.000960056, -0.0711634, 0.0211608, -0.00179041, 6.06178, 66.1359, 32.8522, 4.19281, 2.46753, 3.89804, 0.00373412, -0.000462127, -0.0015108, 0.00287449, 0.00313274, 0.000475759, 0.000104138, 0.0328, -0.0182782, -0.0223782, -0.0524142, 0.101534, 0.010455, 0.471485, -0.542135, 0.336538, -2.08291, -2.16652, -0.128941, 0.469888, -0.542212, 0.333675, -2.08112, -2.16493, -0.125937, 0.0173618, 0.0459742, 0.0235482, 0.0359899, 0.0177917, -0.00419098
0.0900632, 1.69331, -1.22793, -1.5402, -0.90048, -1.19374, 1.22844, -1.30264, 0.0786233, -0.0038629, -0.00519269, -0.00142988, -0.0780251, 0.0254845, -0.000447623, 6.0221, 66.2469, 32.8879, 4.23248, 2.49866, 3.91269, -0.0164075, -0.000489991, -0.00148565, 0.00289907, 0.00314388, 0.000416449, 7.10777e-05, 0.0337159, -0.0205081, -0.0233876, -0.0522765, 0.108183, 0.0109758, 0.471503, -0.542088, 0.336562, -2.08288, -2.16654, -0.128906, 0.469931, -0.542189, 0.333669, -2.08108, -2.16501, -0.125833, 0.0177586, 0.047043, 0.0240921, 0.0386102, 0.0182045, -0.00485412
0.0910632, 1.6934, -1.22793, -1.5402, -0.900491, -1.19382, 1.22846, -1.30264, 0.0817848, -0.0017304, -0.00177752, -0.00344808, -0.0773198, 0.028317, -6.10549e-05, 5.9864, 66.2112, 32.8126, 4.34357, 2.49866, 3.94107, -0.0228162, -0.000515169, -0.00145871, 0.0029169, 0.00315173, 0.000346695, 2.53469e-05, 0.0320923, -0.0234656, -0.0215098, -0.048209, 0.111926, 0.0164217, 0.471521, -0.542041, 0.336586, -2.08285, -2.16657, -0.128871, 0.469976, -0.542162, 0.333671, -2.08102, -2.16513, -0.125723, 0.0181585, 0.048121, 0.0246406, 0.0419737, 0.0207209, -0.00229075
0.0920632, 1.69348, -1.22794, -1.54021, -0.900495, -1.1939, 1.22848, -1.30264, 0.08409, -0.00374482, -0.0038427, -0.00305621, -0.0769584, 0.0316141, 0.00189208, 5.94672, 66.3223, 32.9236, 4.37927, 2.50415, 3.94839, -0.0750012, -0.00054883, -0.00143584, 0.00294614, 0.00316859, 0.000283655, 4.3409e-06, 0.0332134, -0.024557, -0.0235975, -0.0477703, 0.112175, 0.0146725, 0.471539, -0.541992, 0.336611, -2.08281, -2.16659, -0.128834, 0.470017, -0.542141, 0.333661, -2.08099, -2.1652, -0.125606, 0.0185616, 0.0492083, 0.0251936, 0.0434311, 0.0210681, -0.00400653
0.0930632, 1.69357, -1.22793, -1.54021, -0.900502, -1.19399, 1.2285, -1.30264, 0.0858344, -0.00165591, -0.00353424, -0.00374242, -0.0772704, 0.027718, -0.000196676, 5.91102, 66.2866, 32.9633, 4.45465, 2.52338, 3.97677, -0.0356336, -0.000580056, -0.00141226, 0.00296797, 0.00318356, 0.00021041, -3.3569e-05, 0.0327837, -0.024521, -0.0231821, -0.0519008, 0.113428, 0.0181792, 0.471558, -0.541942, 0.336637, -2.08277, -2.16662, -0.128797, 0.47006, -0.542118, 0.33366, -2.08094, -2.1653, -0.125482, 0.0189677, 0.0503046, 0.0257511, 0.0438011, 0.0225238, -0.0029714
0.0940632, 1.69365, -1.22793, -1.54022, -0.900515, -1.19407, 1.22853, -1.30264, 0.0872722, -0.00193509, -0.00415271, -0.00812868, -0.0763499, 0.0255684, 0.000614868, 5.87135, 66.3223, 33.0387, 4.56573, 2.51697, 3.99142, -0.0557752, -0.000612174, -0.00138836, 0.00299388, 0.00320331, 0.000138381, -6.72735e-05, 0.0317519, -0.0254741, -0.0248349, -0.0566595, 0.112562, 0.0217319, 0.471577, -0.541891, 0.336663, -2.08274, -2.16665, -0.128759, 0.470103, -0.542094, 0.333654, -2.0809, -2.1654, -0.125353, 0.0193769, 0.05141, 0.0263131, 0.0450638, 0.0249418, -0.0039113
0.0950632, 1.69375, -1.22794, -1.54022, -0.900522, -1.19416, 1.22855, -1.30264, 0.0866513, -0.00128701, -0.00362868, -0.00657093, -0.0806018, 0.0284437, 0.000647272, 5.76026, 66.3223, 33.0744, 4.60541, 2.52338, 4.02713, -0.0621838, -0.0006445, -0.00136195, 0.00301867, 0.00321888, 6.31696e-05, -0.000103907, 0.0346307, -0.0244646, -0.0241692, -0.0552479, 0.118683, 0.017622, 0.471597, -0.541839, 0.33669, -2.0827, -2.16667, -0.128721, 0.470149, -0.542069, 0.333651, -2.08085, -2.1655, -0.125224, 0.0197891, 0.0525242, 0.0268794, 0.0445981, 0.0230699, -0.00310261
0.0960632, 1.69384, -1.22794, -1.54022, -0.900541, -1.19425, 1.22857, -1.30264, 0.0872273, -0.00252615, -0.00327308, -0.00891016, -0.0837179, 0.0261459, 0.000194156, 5.72059, 66.3937, 33.1101, 4.79187, 2.51697, 4.04086, -0.0557752, -0.000675572, -0.00133489, 0.00304708, 0.00324119, -9.76206e-06, -0.000150033, 0.0352779, -0.0241785, -0.0257305, -0.060146, 0.119833, 0.0189185, 0.471617, -0.541786, 0.336717, -2.08266, -2.1667, -0.128681, 0.470196, -0.542041, 0.333644, -2.08079, -2.16561, -0.12509, 0.0202043, 0.0536472, 0.02745, 0.044694, 0.0237822, -0.00416522
0.0970632, 1.69393, -1.22793, -1.54022, -0.900552, -1.19435, 1.22859, -1.30264, 0.0878451, 0.00082327, -0.00136089, -0.0109483, -0.0861752, 0.0242228, 0.00483941, 5.68488, 66.2866, 33.0744, 4.86725, 2.51056, 4.06283, -0.0557752, -0.00070939, -0.0013107, 0.00306464, 0.00325653, -0.000100638, -0.000187117, 0.0351642, -0.0241785, -0.0239719, -0.0625266, 0.125088, 0.015766, 0.471637, -0.541732, 0.336744, -2.08262, -2.16673, -0.128641, 0.470241, -0.542017, 0.333649, -2.08075, -2.16573, -0.124945, 0.0206224, 0.0547789, 0.0280249, 0.0451732, 0.0247567, -0.00183638
0.0980632, 1.69402, -1.22793, -1.54022, -0.900566, -1.19445, 1.22861, -1.30263, 0.0860859, 0.00147815, -0.00268104, -0.0125393, -0.0929252, 0.0222965, 0.00409349, 5.6095, 66.2469, 33.1498, 4.94263, 2.51056, 4.09122, -0.0685925, -0.00074357, -0.00128523, 0.00308844, 0.00328039, -0.000187291, -0.000221936, 0.0380194, -0.0217376, -0.0247595, -0.0693882, 0.131265, 0.0123261, 0.471658, -0.541677, 0.336773, -2.08258, -2.16676, -0.128599, 0.470288, -0.541991, 0.333648, -2.0807, -2.16583, -0.124793, 0.0210433, 0.0559192, 0.028604, 0.0432326, 0.023097, -0.00240199
0.0990632, 1.69411, -1.22793, -1.54022, -0.900578, -1.19455, 1.22863, -1.30263, 0.0871376, 5.83818e-05, -0.000867244, -0.0168473, -0.0967559, 0.0256572, 0.00254865, 5.56983, 66.2866, 33.1101, 5.01404, 2.48035, 4.13424, -0.0557752, -0.00078179, -0.00126308, 0.00311497, 0.0032982, -0.00026469, -0.000256649, 0.0383419, -0.0233654, -0.0257206, -0.0694536, 0.135728, 0.0173594, 0.471679, -0.54162, 0.336802, -2.08254, -2.16679, -0.128557, 0.470331, -0.541967, 0.333644, -2.08065, -2.16594, -0.124656, 0.0214671, 0.057068, 0.0291872, 0.0452587, 0.0241437, -0.00286804
0.100063, 1.6942, -1.22792, -1.54022, -0.900591, -1.19465, 1.22865, -1.30263, 0.089552, 0.00180288, 0.000251126, -0.0161744, -0.0997424, 0.0282893, 0.000936533, 5.45875, 66.2112, 33.0744, 5.05371, 2.44922, 4.17727, -0.0292249, -0.000815426, -0.00123721, 0.00313523, 0.0033187, -0.000352763, -0.000302352, 0.039153, -0.0244229, -0.0245156, -0.0679522, 0.141946, 0.0193212, 0.471701, -0.541563, 0.336831, -2.08249, -2.16682, -0.128514, 0.470379, -0.541938, 0.333647, -2.0806, -2.16606, -0.124506, 0.0218936, 0.0582252, 0.0297746, 0.0468163, 0.0243602, -0.00124916
0.101063, 1.6943, -1.22791, -1.54022, -0.900604, -1.19474, 1.22866, -1.30264, 0.0910407, 0.0029657, -0.000672248, -0.0148967, -0.0978537, 0.0249476, 0.00487525, 5.38337, 66.1359, 33.1101, 5.05371, 2.43091, 4.2203, -0.00999879, -0.000852918, -0.0012155, 0.00315842, 0.00334419, -0.000436632, -0.000340325, 0.0394558, -0.0239282, -0.0247719, -0.0707814, 0.140702, 0.0149375, 0.471723, -0.541504, 0.336861, -2.08245, -2.16685, -0.128471, 0.470424, -0.541912, 0.333648, -2.08054, -2.16617, -0.124352, 0.0223229, 0.0593907, 0.030366, 0.0467537, 0.0252457, -0.000942563
0.102063, 1.69439, -1.22792, -1.54021, -0.900624, -1.19485, 1.22867, -1.30263, 0.0935433, 0.00104952, 0.000383718, -0.0157742, -0.0968688, 0.0238894, 0.00350287, 5.22865, 66.1755, 33.0744, 5.12909, 2.4245, 4.23495, -0.00267457, -0.000888914, -0.00119023, 0.00318585, 0.00337124, -0.000518533, -0.000383379, 0.0389676, -0.0252026, -0.0262913, -0.0717565, 0.13835, 0.0194584, 0.471746, -0.541444, 0.336892, -2.08241, -2.16688, -0.128426, 0.470472, -0.541883, 0.333645, -2.08048, -2.16628, -0.124199, 0.022755, 0.0605644, 0.0309614, 0.0483846, 0.0271887, -0.00181151
0.103063, 1.69449, -1.22791, -1.54021, -0.900642, -1.19495, 1.22869, -1.30264, 0.0972208, 0.00360072, 0.00025331, -0.0194781, -0.0952542, 0.0227714, 0.00299949, 5.11756, 66.1755, 33.0744, 5.2005, 2.39429, 4.2496, -0.00999879, -0.000925545, -0.00116573, 0.00321152, 0.00339743, -0.000601314, -0.00042876, 0.0368273, -0.027532, -0.0260642, -0.0746717, 0.140275, 0.0262951, 0.471769, -0.541383, 0.336923, -2.08236, -2.16691, -0.128381, 0.470519, -0.541853, 0.333645, -2.08041, -2.1664, -0.124045, 0.0231896, 0.0617462, 0.0315607, 0.0510754, 0.0305474, -0.000729002
0.104063, 1.69458, -1.22791, -1.54021, -0.90066, -1.19505, 1.2287, -1.30263, 0.0980697, 0.00283021, 0.000166997, -0.0182778, -0.100508, 0.0175776, 0.00422718, 4.9668, 66.2866, 33.0744, 5.24017, 2.4126, 4.24228, -0.0621838, -0.000964482, -0.00114141, 0.00324111, 0.00342631, -0.000682717, -0.00046683, 0.0386441, -0.0257267, -0.027305, -0.0818127, 0.141985, 0.0220903, 0.471792, -0.54132, 0.336955, -2.08231, -2.16694, -0.128334, 0.470567, -0.541823, 0.333641, -2.08035, -2.16651, -0.123888, 0.0236269, 0.0629361, 0.0321639, 0.0497313, 0.0300584, -0.00157643
0.105063, 1.69468, -1.2279, -1.54021, -0.900682, -1.19516, 1.2287, -1.30263, 0.0984829, 0.00780279, 0.00321074, -0.0173481, -0.0991489, 0.0130413, 0.00351389, 4.81605, 66.1755, 33.0744, 5.27588, 2.4126, 4.2496, -0.0750012, -0.00100143, -0.00111825, 0.00326132, 0.00346063, -0.00078104, -0.000507823, 0.0381583, -0.0250443, -0.0240209, -0.0821394, 0.144129, 0.0232254, 0.471816, -0.541257, 0.336987, -2.08227, -2.16698, -0.128287, 0.470615, -0.541792, 0.333647, -2.0803, -2.16662, -0.123708, 0.0240668, 0.0641338, 0.032771, 0.0495942, 0.0312038, 0.0023697
0.106063, 1.69478, -1.22789, -1.54021, -0.900702, -1.19526, 1.22871, -1.30263, 0.0995813, 0.00594691, 0.00473809, -0.0190676, -0.0977778, 0.0104323, 0.00227102, 4.62562, 66.2866, 33.1101, 5.27588, 2.40619, 4.23495, -0.0685925, -0.00104043, -0.00109445, 0.00329071, 0.00349463, -0.000862227, -0.000552351, 0.0377363, -0.0255482, -0.0255277, -0.0840566, 0.140773, 0.027296, 0.47184, -0.541192, 0.337021, -2.08222, -2.16701, -0.128239, 0.470663, -0.541761, 0.333644, -2.08023, -2.16674, -0.123544, 0.0245092, 0.0653394, 0.0333819, 0.0504687, 0.033079, 0.00154207
0.107063, 1.69486, -1.22788, -1.5402, -0.900726, -1.19537, 1.22872, -1.30263, 0.0997926, 0.00667377, 0.00528679, -0.0213413, -0.101751, 0.00812282, 0.00140099, 4.58991, 66.3223, 33.0387, 5.31555, 2.4126, 4.22763, -0.0621838, -0.00108396, -0.00107763, 0.00331358, 0.00352208, -0.000950632, -0.000589424, 0.0386059, -0.0249089, -0.0258659, -0.0889653, 0.144608, 0.0282913, 0.471865, -0.541126, 0.337054, -2.08217, -2.16705, -0.12819, 0.470706, -0.541734, 0.333648, -2.08017, -2.16685, -0.123379, 0.0249541, 0.0665526, 0.0339965, 0.0502953, 0.0334591, 0.00170785
0.108063, 1.69496, -1.22787, -1.54019, -0.900751, -1.19547, 1.22872, -1.30263, 0.0964447, 0.00795899, 0.00879771, -0.0229906, -0.104172, 0.00554519, -0.000668169, 4.43916, 66.3223, 32.9633, 5.35126, 2.39978, 4.24228, -0.0164075, -0.00112039, -0.00105488, 0.00333289, 0.00354894, -0.00103648, -0.00064541, 0.0402484, -0.0227678, -0.0245811, -0.089903, 0.14723, 0.0283451, 0.47189, -0.541059, 0.337088, -2.08212, -2.16708, -0.12814, 0.470754, -0.541699, 0.333657, -2.08009, -2.16698, -0.123218, 0.0254015, 0.0677736, 0.0346148, 0.0487138, 0.0327713, 0.00340719
0.109063, 1.69505, -1.22785, -1.54019, -0.90078, -1.19557, 1.22872, -1.30263, 0.0971664, 0.0099064, 0.00858514, -0.0251357, -0.101684, 0.00474371, -0.000138145, 4.2884, 66.3937, 32.999, 5.42664, 2.39429, 4.22763, -0.0228162, -0.00115995, -0.00103351, 0.00335831, 0.00358472, -0.00112245, -0.000690203, 0.0398666, -0.0232264, -0.0243571, -0.0910765, 0.147797, 0.0300929, 0.471916, -0.54099, 0.337123, -2.08207, -2.16712, -0.128089, 0.470801, -0.541665, 0.33366, -2.08002, -2.1671, -0.123045, 0.0258513, 0.069002, 0.0352367, 0.0496163, 0.0343623, 0.00429498
0.110063, 1.69515, -1.22784, -1.54018, -0.90081, -1.19567, 1.22872, -1.30263, 0.0968612, 0.0127348, 0.0086197, -0.0256715, -0.100071, 0.00354077, 0.000435077, 4.17335, 66.5445, 33.0387, 5.46234, 2.39978, 4.22763, -0.0356336, -0.00120031, -0.00101255, 0.00338398, 0.00361746, -0.00120518, -0.000740503, 0.0404255, -0.022602, -0.0232885, -0.0917976, 0.149573, 0.0291751, 0.471942, -0.540921, 0.337159, -2.08202, -2.16715, -0.128038, 0.470849, -0.54163, 0.333663, -2.07994, -2.16723, -0.122878, 0.0263034, 0.0702379, 0.0358623, 0.0495063, 0.0348566, 0.00590858
0.111063, 1.69524, -1.22781, -1.54017, -0.900846, -1.19576, 1.22872, -1.30262, 0.0974687, 0.0203555, 0.0104851, -0.0279689, -0.094189, 0.00342412, 0.0015501, 4.02259, 66.4691, 32.999, 5.57739, 2.40619, 4.20657, -0.0685925, -0.00123757, -0.00099068, 0.00339768, 0.00364112, -0.00130261, -0.000793407, 0.038505, -0.0237922, -0.018953, -0.0885527, 0.153233, 0.0323659, 0.471968, -0.54085, 0.337195, -2.08197, -2.16719, -0.127985, 0.470898, -0.541593, 0.33368, -2.07987, -2.16737, -0.122706, 0.0267579, 0.0714811, 0.0364913, 0.0512406, 0.0373825, 0.0110787
0.112063, 1.69532, -1.22779, -1.54016, -0.900872, -1.19585, 1.22872, -1.30262, 0.0943957, 0.0193276, 0.0100251, -0.0258927, -0.0940684, 0.00330934, 7.95604e-05, 4.02259, 66.5445, 33.0387, 5.53772, 2.40619, 4.1846, -0.0420422, -0.0012829, -0.000976774, 0.00341375, 0.00366088, -0.00138961, -0.00083144, 0.0419552, -0.0210437, -0.0197324, -0.0881273, 0.152641, 0.027801, 0.471995, -0.540778, 0.337232, -2.08192, -2.16723, -0.127932, 0.47094, -0.541563, 0.333693, -2.07981, -2.16749, -0.122547, 0.0272147, 0.0727316, 0.0371239, 0.0490528, 0.0352299, 0.0104936
0.113063, 1.69541, -1.22776, -1.54015, -0.900914, -1.19595, 1.22872, -1.30263, 0.0943538, 0.0208281, 0.00495928, -0.0322154, -0.093813, 0.00209455, -0.000636907, 3.79646, 66.6516, 33.1498, 5.68848, 2.4126, 4.19192, -0.0228162, -0.00132134, -0.000954355, 0.00343441, 0.0036905, -0.00147882, -0.000892098, 0.042152, -0.0208214, -0.022075, -0.0968542, 0.155068, 0.0306178, 0.472023, -0.540705, 0.337269, -2.08186, -2.16726, -0.127878, 0.47099, -0.541523, 0.333704, -2.07972, -2.16763, -0.122375, 0.0276737, 0.0739892, 0.0377598, 0.0492103, 0.0366434, 0.00879283
0.114063, 1.6955, -1.22773, -1.54014, -0.90095, -1.19603, 1.22872, -1.30263, 0.0956104, 0.0225044, 0.00949022, -0.0340496, -0.0932506, 0.00232986, -0.000645366, 3.6457, 66.727, 33.1855, 5.72418, 2.39429, 4.16995, -0.0164075, -0.00136071, -0.000933884, 0.00344852, 0.0037091, -0.00156819, -0.000948598, 0.0411902, -0.0223108, -0.0202344, -0.0938399, 0.157157, 0.0347697, 0.472051, -0.54063, 0.337307, -2.08181, -2.1673, -0.127822, 0.47104, -0.541485, 0.333721, -2.07964, -2.16777, -0.122214, 0.028135, 0.0752539, 0.0383992, 0.0511929, 0.0386396, 0.0113518
0.115063, 1.69558, -1.2277, -1.54012, -0.900987, -1.19612, 1.22872, -1.30263, 0.0915768, 0.0264237, 0.00968542, -0.0355329, -0.0886019, 0.00215164, -0.00116378, 3.57032, 66.8381, 33.2212, 5.76385, 2.38788, 4.15622, 0.00373412, -0.00140586, -0.000919254, 0.00346163, 0.00372314, -0.0016589, -0.000997349, 0.0425342, -0.0203305, -0.01833, -0.0919109, 0.158006, 0.0331376, 0.472079, -0.540554, 0.337346, -2.08175, -2.16734, -0.127766, 0.471084, -0.541451, 0.333739, -2.07957, -2.16791, -0.122056, 0.0285984, 0.0765256, 0.0390419, 0.0498014, 0.0382088, 0.0137293
0.116063, 1.69566, -1.22767, -1.54011, -0.90103, -1.19621, 1.22872, -1.30262, 0.0903232, 0.0273133, 0.00796579, -0.0383434, -0.0907138, 0.00123048, 0.00143753, 3.41956, 66.9095, 33.3362, 5.87494, 2.40619, 4.16354, -0.0557752, -0.00144825, -0.000901958, 0.00347535, 0.00374507, -0.00175266, -0.00104483, 0.0441955, -0.019026, -0.019277, -0.0967613, 0.161358, 0.0291715, 0.472108, -0.540477, 0.337386, -2.0817, -2.16738, -0.127709, 0.471131, -0.541413, 0.333758, -2.0795, -2.16804, -0.121884, 0.0290639, 0.0778042, 0.0396878, 0.0489918, 0.0379371, 0.0132241
0.117063, 1.69574, -1.22763, -1.5401, -0.901077, -1.19629, 1.22872, -1.30262, 0.0862281, 0.030407, 0.0099266, -0.0403265, -0.0908938, 0.00114209, 0.000456729, 3.26881, 66.9849, 33.4473, 5.98602, 2.38788, 4.15622, -0.0420422, -0.00149189, -0.000885937, 0.00348612, 0.00376405, -0.00185229, -0.00110037, 0.0461079, -0.0169176, -0.0172918, -0.0957569, 0.165322, 0.0276176, 0.472137, -0.540398, 0.337426, -2.08164, -2.16742, -0.127651, 0.471177, -0.541375, 0.33378, -2.07943, -2.16819, -0.12171, 0.0295316, 0.0790895, 0.040337, 0.0475014, 0.0369406, 0.0156044
0.118063, 1.69582, -1.22759, -1.54009, -0.901116, -1.19638, 1.22872, -1.30263, 0.0822368, 0.0313157, 0.0108202, -0.0381378, -0.0921697, 0.0013418, -0.000402339, 3.15376, 67.1317, 33.5941, 5.95032, 2.39978, 4.14157, -0.0228162, -0.00154097, -0.00087328, 0.00349983, 0.00377848, -0.00194464, -0.00114606, 0.0498918, -0.0137173, -0.0163754, -0.0941771, 0.167856, 0.0215502, 0.472167, -0.540319, 0.337466, -2.08158, -2.16746, -0.127592, 0.471221, -0.541341, 0.333799, -2.07936, -2.16833, -0.121546, 0.0300013, 0.0803815, 0.0409894, 0.0449529, 0.0342199, 0.0166776
0.119063, 1.6959, -1.22755, -1.54007, -0.901164, -1.19646, 1.22872, -1.30263, 0.0833975, 0.0337823, 0.00847823, -0.0425754, -0.0933603, 0.00146547, -0.00124763, 3.003, 67.207, 33.7449, 6.02173, 2.41809, 4.12692, 0.00373412, -0.00158655, -0.000858796, 0.00351089, 0.00379722, -0.00204219, -0.00120249, 0.0499256, -0.0142785, -0.0168816, -0.0992511, 0.17281, 0.024807, 0.472197, -0.540238, 0.337508, -2.08152, -2.1675, -0.127533, 0.471267, -0.541303, 0.333822, -2.07928, -2.16848, -0.121372, 0.030473, 0.0816802, 0.0416449, 0.0459687, 0.0355871, 0.0168107
0.120063, 1.69598, -1.22752, -1.54005, -0.901213, -1.19655, 1.22872, -1.30263, 0.0800643, 0.0323744, 0.0125684, -0.0451089, -0.0846169, 0.00177818, -0.000591442, 2.89191, 67.4252, 33.7806, 6.0614, 2.43732, 4.10586, -0.00267457, -0.00163359, -0.00084431, 0.00352191, 0.00380502, -0.00213484, -0.00125645, 0.0496057, -0.0142489, -0.0168849, -0.0926512, 0.165123, 0.026933, 0.472228, -0.540155, 0.33755, -2.08146, -2.16755, -0.127472, 0.471313, -0.541265, 0.333846, -2.07921, -2.16863, -0.121214, 0.0309467, 0.0829853, 0.0423035, 0.0464023, 0.0372076, 0.0175168
0.121063, 1.69606, -1.22747, -1.54003, -0.901258, -1.19663, 1.22872, -1.30263, 0.0792858, 0.0339625, 0.0137094, -0.0452109, -0.0837947, 0.0014727, 0.000116547, 2.70148, 67.5363, 33.8917, 6.02173, 2.48035, 4.09854, -0.0164075, -0.00168086, -0.000828595, 0.00353292, 0.00381745, -0.00223147, -0.00130894, 0.0507172, -0.0135278, -0.0160172, -0.0918416, 0.166673, 0.0252712, 0.472259, -0.540072, 0.337592, -2.0814, -2.16759, -0.12741, 0.471361, -0.541226, 0.33387, -2.07913, -2.16877, -0.121046, 0.0314223, 0.0842969, 0.0429652, 0.0462339, 0.0372583, 0.0188865
0.122063, 1.69614, -1.22744, -1.54002, -0.901316, -1.19672, 1.22873, -1.30262, 0.0820061, 0.0366154, 0.0135543, -0.0490739, -0.0826922, 0.00231621, 0.000554078, 2.51106, 67.6831, 34.0424, 6.13678, 2.51056, 4.06283, -0.0292249, -0.00172841, -0.000812047, 0.00354742, 0.00383323, -0.00233028, -0.00136816, 0.0493954, -0.0155991, -0.0155854, -0.0932637, 0.170162, 0.0300814, 0.472291, -0.539987, 0.337635, -2.08134, -2.16763, -0.127348, 0.471411, -0.541185, 0.333891, -2.07905, -2.16893, -0.120872, 0.0318998, 0.0856148, 0.0436298, 0.048748, 0.0399046, 0.0201168
0.123063, 1.69621, -1.22738, -1.53999, -0.901369, -1.19681, 1.22873, -1.30262, 0.0802051, 0.0405714, 0.0201746, -0.0491533, -0.0774018, 0.00209566, 0.000845349, 2.3603, 67.6474, 34.0424, 6.13678, 2.54718, 4.04819, -0.0420422, -0.00177798, -0.000799056, 0.00355041, 0.00384066, -0.00244327, -0.00142071, 0.0487455, -0.0157323, -0.0113268, -0.0851408, 0.170063, 0.0318689, 0.472323, -0.5399, 0.337679, -2.08127, -2.16768, -0.127284, 0.471458, -0.541147, 0.333924, -2.07898, -2.16909, -0.120691, 0.0323792, 0.0869389, 0.0442973, 0.0494986, 0.0412248, 0.0250861
0.124063, 1.69629, -1.22734, -1.53998, -0.901423, -1.19689, 1.22873, -1.30262, 0.0776204, 0.0405942, 0.0183874, -0.0492193, -0.0774078, 0.00218374, -0.000622294, 2.24921, 67.7228, 34.1892, 6.13678, 2.56549, 4.02713, -0.00999879, -0.00183018, -0.000786971, 0.00356314, 0.00385052, -0.00253897, -0.00147362, 0.0516502, -0.0134768, -0.0122914, -0.0867855, 0.17106, 0.0289081, 0.472355, -0.539813, 0.337724, -2.08121, -2.16772, -0.127219, 0.471504, -0.541108, 0.333948, -2.07891, -2.16924, -0.120524, 0.0328604, 0.0882692, 0.0449678, 0.0478026, 0.0397382, 0.024427
0.125063, 1.69637, -1.2273, -1.53995, -0.901474, -1.19697, 1.22873, -1.30262, 0.078455, 0.0395572, 0.0237187, -0.0483241, -0.0773148, 0.00227468, -0.00116015, 2.02308, 67.7228, 34.1892, 6.09711, 2.58472, 4.00516, 0.0101428, -0.0018786, -0.000771134, 0.00356888, 0.00385239, -0.00263956, -0.00153579, 0.0519228, -0.0142062, -0.0114011, -0.0823101, 0.170492, 0.0310124, 0.472389, -0.539724, 0.337769, -2.08114, -2.16777, -0.127154, 0.471554, -0.541066, 0.333979, -2.07883, -2.16941, -0.120361, 0.0333434, 0.0896055, 0.045641, 0.0490599, 0.0407011, 0.0259147
0.126063, 1.69644, -1.22725, -1.53993, -0.901533, -1.19705, 1.22874, -1.30263, 0.078357, 0.0407085, 0.0217265, -0.0529282, -0.0814755, 0.00284268, -0.00124762, 1.9477, 67.7585, 34.3043, 6.13678, 2.59021, 3.96945, 0.0229602, -0.00193344, -0.000759725, 0.00358194, 0.00386024, -0.00273911, -0.00158997, 0.0531959, -0.0139174, -0.0124883, -0.0880799, 0.176769, 0.0315879, 0.472422, -0.539634, 0.337815, -2.08108, -2.16781, -0.127088, 0.471601, -0.541027, 0.334004, -2.07875, -2.16957, -0.12019, 0.0338281, 0.0909478, 0.0463171, 0.0492652, 0.0409408, 0.0253302
0.127063, 1.69644, -1.22725, -1.53993, -0.901533, -1.19705, 1.22874, -1.30263, 0.078357, 0.0407085, 0.0217265, -0.0529282, -0.0814755, 0.00284268, -0.00124762, 1.9477, 67.7585, 34.3043, 6.13678, 2.59021, 3.96945, 0.0229602, -0.0020297, -0.000796163, 0.00361537, 0.00381362, -0.00271865, -0.00154021, 0.0546138, -0.0133928, -0.0129713, -0.0886063, 0.177671, 0.0305009, 0.472456, -0.539542, 0.337862, -2.08101, -2.16786, -0.12702, 0.471601, -0.541027, 0.334004, -2.07875, -2.16957, -0.12019, 0.0343145, 0.092296, 0.0469959, 0.0492652, 0.0409408, 0.0253302
0.128063, 1.69652, -1.22721, -1.53991, -0.901592, -1.19714, 1.22874, -1.30263, 0.0775257, 0.0410444, 0.0222777, -0.0553274, -0.0801043, 0.00267785, -0.000831355, 1.83265, 67.7942, 34.34, 6.13678, 2.59662, 3.94839, 0.0229602, -0.00208401, -0.000782538, 0.00362805, 0.00381965, -0.00281815, -0.00159915, 0.0552549, -0.0131466, -0.0133671, -0.0891321, 0.177859, 0.0309917, 0.472491, -0.539449, 0.337909, -2.08094, -2.16791, -0.126952, 0.47165, -0.540986, 0.33403, -2.07867, -2.16973, -0.12002, 0.0348026, 0.09365, 0.0476774, 0.0495188, 0.0417121, 0.0255302
0.129063, 1.69652, -1.22721, -1.53991, -0.901592, -1.19714, 1.22874, -1.30263, 0.0775257, 0.0410444, 0.0222777, -0.0553274, -0.0801043, 0.00267785, -0.000831355, 1.83265, 67.7942, 34.34, 6.13678, 2.59662, 3.94839, 0.0229602, -0.00218311, -0.000820034, 0.00366246, 0.00377167, -0.00279714, -0.00154799, 0.0566846, -0.0126181, -0.013854, -0.0896609, 0.178767, 0.0298976, 0.472526, -0.539355, 0.337957, -2.08087, -2.16796, -0.126882, 0.47165, -0.540986, 0.33403, -2.07867, -2.16973, -0.12002, 0.0352924, 0.0950097, 0.0483616, 0.0495188, 0.0417121, 0.0255302
0.130063, 1.69675, -1.22706, -1.53983, -0.901776, -1.19738, 1.22875, -1.30262, 0.0773524, 0.0450415, 0.0244455, -0.0653715, -0.0778155, 0.00234137, 0.00106901, 1.53114, 67.6117, 34.34, 6.02173, 2.62775, 3.88339, -0.0356336, -0.00214439, -0.000701149, 0.00362021, 0.00387298, -0.00314573, -0.00183374, 0.0538846, -0.0147209, -0.0126327, -0.0918916, 0.182383, 0.0372545, 0.472561, -0.539259, 0.338006, -2.0808, -2.168, -0.126812, 0.471805, -0.540853, 0.334122, -2.07842, -2.17025, -0.119513, 0.0357837, 0.096375, 0.0490484, 0.0520521, 0.0457469, 0.0277886
0.131063, 1.69683, -1.22702, -1.5398, -0.901845, -1.19747, 1.22875, -1.30262, 0.0797398, 0.0431893, 0.0296006, -0.0658289, -0.077564, 0.00183308, 0.000712799, 1.53114, 67.576, 34.2646, 6.0614, 2.65155, 3.87607, -0.0356336, -0.00219704, -0.000685509, 0.00363147, 0.00387436, -0.00324307, -0.00190465, 0.0531178, -0.0165018, -0.0126151, -0.0889714, 0.180783, 0.0418588, 0.472597, -0.539162, 0.338055, -2.08073, -2.16805, -0.126741, 0.471858, -0.540806, 0.334152, -2.07832, -2.17042, -0.119349, 0.0362765, 0.0977458, 0.0497377, 0.0542969, 0.0479501, 0.0285572
0.132063, 1.69691, -1.22697, -1.53978, -0.901912, -1.19755, 1.22875, -1.30262, 0.0826591, 0.0462212, 0.0266112, -0.0673392, -0.0823339, 0.00173135, -0.00145749, 1.45576, 67.4649, 34.34, 6.02173, 2.66986, 3.86233, 0.0165515, -0.00225136, -0.000669339, 0.003645, 0.00388551, -0.00334683, -0.0019785, 0.0540843, -0.0167994, -0.0127466, -0.095327, 0.189008, 0.0440415, 0.472634, -0.539064, 0.338106, -2.08066, -2.1681, -0.126669, 0.471912, -0.540758, 0.33418, -2.07822, -2.17061, -0.119167, 0.0367709, 0.0991221, 0.0504295, 0.0551226, 0.0484059, 0.0289609
0.133063, 1.69699, -1.22693, -1.53976, -0.901989, -1.19763, 1.22875, -1.30263, 0.0836729, 0.0440606, 0.0262787, -0.0672375, -0.0861625, 0.00196854, -0.00168366, 1.45576, 67.4252, 34.34, 6.0614, 2.69458, 3.84036, 0.0357776, -0.00230634, -0.000652984, 0.00366215, 0.00389634, -0.00344748, -0.00205451, 0.0561627, -0.0164018, -0.014642, -0.0980114, 0.191082, 0.0426777, 0.472671, -0.538964, 0.338156, -2.08059, -2.16815, -0.126595, 0.471967, -0.54071, 0.334205, -2.07811, -2.17079, -0.118987, 0.0372668, 0.100504, 0.0511238, 0.0552305, 0.0480085, 0.0274759
0.134063, 1.69708, -1.22689, -1.53973, -0.902055, -1.19771, 1.22875, -1.30263, 0.0820765, 0.0404916, 0.0270771, -0.069851, -0.083634, 0.00209264, -0.00186838, 1.41608, 67.4649, 34.3043, 5.95032, 2.70099, 3.8193, 0.0559192, -0.00236051, -0.000633822, 0.00368, 0.00389522, -0.00353421, -0.0021324, 0.0572262, -0.0160631, -0.0172246, -0.0978581, 0.186569, 0.0437696, 0.472708, -0.538862, 0.338208, -2.08052, -2.16821, -0.126521, 0.472025, -0.540658, 0.33423, -2.078, -2.17098, -0.118834, 0.0377641, 0.101891, 0.0518204, 0.0553335, 0.0487258, 0.0254695
0.135063, 1.69716, -1.22685, -1.5397, -0.902138, -1.19779, 1.22876, -1.30263, 0.0794172, 0.0413573, 0.0283366, -0.0730639, -0.0865762, 0.0120897, -0.0002622, 1.49146, 67.4649, 34.2289, 6.02173, 2.71289, 3.81198, 0.0293689, -0.00241336, -0.000615036, 0.00369678, 0.00389905, -0.00362765, -0.00221364, 0.0601855, -0.016454, -0.0161935, -0.0909953, 0.195828, 0.0408654, 0.472746, -0.53876, 0.33826, -2.08044, -2.16826, -0.126446, 0.472083, -0.540605, 0.334257, -2.07788, -2.17117, -0.118668, 0.0382628, 0.103283, 0.0525195, 0.0563778, 0.0470562, 0.0267183
0.136063, 1.69724, -1.2268, -1.53967, -0.902207, -1.19787, 1.22876, -1.30262, 0.0827489, 0.0438707, 0.0273282, -0.070674, -0.0841918, 0.00974243, 0.00175801, 1.57081, 67.2784, 34.2289, 5.91064, 2.72571, 3.79001, -0.0228162, -0.0024719, -0.000600463, 0.00370924, 0.00389863, -0.00372812, -0.00227704, 0.060134, -0.0168546, -0.0156212, -0.0925056, 0.196116, 0.0391816, 0.472785, -0.538656, 0.338313, -2.08036, -2.16831, -0.12637, 0.472138, -0.540556, 0.334288, -2.07779, -2.17134, -0.118497, 0.0387628, 0.10468, 0.0532208, 0.0573005, 0.048435, 0.0279804
0.137063, 1.69733, -1.22676, -1.53964, -0.902288, -1.19795, 1.22876, -1.30262, 0.0838551, 0.0440648, 0.0266113, -0.0720854, -0.0823652, 0.00714656, -4.86746e-05, 1.60651, 67.2784, 34.2289, 5.91064, 2.73761, 3.79001, 0.0101428, -0.00252489, -0.000579188, 0.00373099, 0.00390405, -0.00381292, -0.0023691, 0.0601894, -0.0168406, -0.0167437, -0.0959001, 0.194672, 0.0424562, 0.472824, -0.538551, 0.338366, -2.08029, -2.16836, -0.126293, 0.472199, -0.540499, 0.334311, -2.07766, -2.17154, -0.118337, 0.0392642, 0.106082, 0.0539245, 0.0577494, 0.0499539, 0.027568
0.138063, 1.69741, -1.22672, -1.53961, -0.902369, -1.19802, 1.22876, -1.30263, 0.0856367, 0.0410391, 0.0270501, -0.0743549, -0.0809586, 0.00549043, -0.0014905, 1.72157, 67.1674, 34.1892, 5.83527, 2.75592, 3.7836, 0.0495105, -0.00258205, -0.000562308, 0.0037487, 0.00390311, -0.00390296, -0.00245171, 0.0599338, -0.0177855, -0.0194216, -0.0984435, 0.190858, 0.0472657, 0.472864, -0.538444, 0.338421, -2.08021, -2.16842, -0.126215, 0.472257, -0.540445, 0.334339, -2.07754, -2.17173, -0.118178, 0.0397669, 0.107489, 0.0546303, 0.0590849, 0.0520644, 0.0256388
0.139063, 1.69749, -1.22668, -1.53958, -0.902453, -1.1981, 1.22876, -1.30263, 0.0847589, 0.0435479, 0.0255825, -0.0804588, -0.0750562, 0.00402682, -0.000993651, 1.79694, 67.0959, 34.2289, 5.79956, 2.76233, 3.7836, 0.0495105, -0.00263796, -0.000542817, 0.00377113, 0.00390848, -0.00398829, -0.00254088, 0.0587385, -0.0181905, -0.0199048, -0.101335, 0.189351, 0.0513441, 0.472904, -0.538336, 0.338476, -2.08013, -2.16847, -0.126136, 0.472318, -0.540388, 0.334362, -2.0774, -2.17193, -0.118015, 0.0402709, 0.108901, 0.0553384, 0.0599309, 0.0547486, 0.0260413
0.140063, 1.69757, -1.22663, -1.53955, -0.90254, -1.19817, 1.22876, -1.30262, 0.0864845, 0.0412699, 0.0271066, -0.0830841, -0.0758172, 0.00323071, 0.000795637, 1.9477, 66.9492, 34.1535, 5.68848, 2.78064, 3.77627, 0.0101428, -0.00269538, -0.00052587, 0.00378657, 0.00390192, -0.00407875, -0.00262333, 0.0586343, -0.0192706, -0.0217294, -0.103277, 0.188456, 0.0529547, 0.472944, -0.538226, 0.338531, -2.08005, -2.16853, -0.126055, 0.472377, -0.540332, 0.334394, -2.07729, -2.17213, -0.117859, 0.040776, 0.110318, 0.0560486, 0.0614423, 0.056595, 0.0249313
0.141063, 1.69765, -1.2266, -1.53951, -0.902628, -1.19824, 1.22876, -1.30262, 0.0839691, 0.038996, 0.0293806, -0.0821277, -0.0756677, 0.00263124, 0.00100515, 2.09846, 66.9492, 34.1535, 5.57739, 2.78064, 3.76895, -0.00267457, -0.00275322, -0.00050648, 0.00381362, 0.00389993, -0.00415067, -0.00271264, 0.0611718, -0.0174437, -0.0225587, -0.101634, 0.186398, 0.0494776, 0.472985, -0.538115, 0.338588, -2.07997, -2.16858, -0.125974, 0.472438, -0.540274, 0.334414, -2.07715, -2.17232, -0.117716, 0.0412824, 0.111739, 0.0567608, 0.0601928, 0.0555575, 0.0244929
0.142063, 1.69773, -1.22655, -1.53947, -0.902726, -1.19831, 1.22876, -1.30262, 0.0831248, 0.0427495, 0.0332018, -0.0872663, -0.0758896, 0.00163752, 0.000941373, 2.20954, 66.727, 34.0781, 5.57739, 2.79346, 3.77627, -0.00999879, -0.00280541, -0.000484292, 0.00382924, 0.00389415, -0.00423802, -0.00281492, 0.0603063, -0.0179503, -0.0202584, -0.101776, 0.190965, 0.0537521, 0.473027, -0.538002, 0.338645, -2.07989, -2.16864, -0.125892, 0.472503, -0.540209, 0.334447, -2.07701, -2.17254, -0.117563, 0.0417899, 0.113165, 0.0574751, 0.0612643, 0.0575099, 0.0275963
0.143063, 1.69782, -1.22651, -1.53943, -0.902821, -1.19837, 1.22876, -1.30262, 0.0823976, 0.0389565, 0.0373143, -0.0880383, -0.0715841, 0.00147892, 0.0011023, 2.32459, 66.6516, 34.0781, 5.46234, 2.81177, 3.76895, -0.0228162, -0.00286186, -0.000463365, 0.00385295, 0.00388581, -0.00431144, -0.00290924, 0.0605224, -0.0184058, -0.0216286, -0.097432, 0.184307, 0.0559053, 0.473069, -0.537889, 0.338703, -2.07981, -2.1687, -0.125809, 0.472567, -0.540147, 0.334472, -2.07686, -2.17274, -0.117424, 0.0422985, 0.114595, 0.0581914, 0.0621853, 0.0589568, 0.0269119
0.144063, 1.6979, -1.22648, -1.53939, -0.902923, -1.19843, 1.22876, -1.30263, 0.0850869, 0.0377422, 0.0390336, -0.0971397, -0.0688939, 0.00107293, -0.00170653, 2.43568, 66.5048, 34.0027, 5.42664, 2.84198, 3.76895, 0.0431018, -0.00291604, -0.000441337, 0.00387419, 0.00387355, -0.0043837, -0.00302518, 0.0572974, -0.0219331, -0.0236779, -0.100392, 0.182443, 0.0699611, 0.473111, -0.537773, 0.338761, -2.07972, -2.16875, -0.125725, 0.472633, -0.540081, 0.334501, -2.0767, -2.17296, -0.117292, 0.0428082, 0.11603, 0.0589097, 0.0660143, 0.0640455, 0.025989
0.145063, 1.69797, -1.22643, -1.53936, -0.903022, -1.19849, 1.22876, -1.30263, 0.0846409, 0.0385315, 0.0390038, -0.09583, -0.0661008, 0.00105179, -0.00137505, 2.62611, 66.3937, 34.1178, 5.31555, 2.8548, 3.76163, 0.0495105, -0.00297799, -0.000426617, 0.00389759, 0.00386481, -0.00445662, -0.00311751, 0.0587658, -0.0211189, -0.0235395, -0.0989294, 0.18175, 0.0678058, 0.473154, -0.537657, 0.338821, -2.07964, -2.16881, -0.12564, 0.472692, -0.540021, 0.334527, -2.07656, -2.17317, -0.117152, 0.0433189, 0.117469, 0.0596298, 0.0657769, 0.0639784, 0.0266463
0.146063, 1.69804, -1.22639, -1.53931, -0.903135, -1.19855, 1.22876, -1.30263, 0.0818497, 0.0355991, 0.0438109, -0.100704, -0.0642784, 0.000478848, -0.00115405, 2.81654, 66.3223, 34.0424, 5.31555, 2.87311, 3.76895, 0.0559192, -0.00303317, -0.000406922, 0.00391931, 0.00385196, -0.00452404, -0.00322902, 0.0589195, -0.0210775, -0.0246555, -0.0970444, 0.178047, 0.0709315, 0.473198, -0.537538, 0.338881, -2.07955, -2.16887, -0.125554, 0.472757, -0.539954, 0.334556, -2.0764, -2.17339, -0.117023, 0.0438306, 0.118913, 0.0603519, 0.066212, 0.0654391, 0.0262443
0.147063, 1.69812, -1.22635, -1.53926, -0.903244, -1.1986, 1.22876, -1.30263, 0.0811656, 0.0364778, 0.045425, -0.102333, -0.0628121, 0.000627194, 0.000213976, 2.81654, 66.2469, 34.0424, 5.24017, 2.89142, 3.76163, 0.0293689, -0.00308676, -0.000382622, 0.00394184, 0.00383523, -0.00459031, -0.00334228, 0.059557, -0.0209495, -0.0242611, -0.0959539, 0.178774, 0.0704181, 0.473242, -0.537419, 0.338941, -2.07946, -2.16893, -0.125467, 0.472826, -0.539882, 0.334586, -2.07623, -2.17361, -0.116899, 0.0443433, 0.12036, 0.0610757, 0.0666395, 0.0661922, 0.0272639
0.148063, 1.69818, -1.22632, -1.53922, -0.90336, -1.19865, 1.22876, -1.30262, 0.0760395, 0.0362879, 0.0431527, -0.106587, -0.0619309, 0.00044565, 0.00183807, 3.003, 66.2112, 34.1892, 5.16479, 2.91614, 3.76163, -0.0164075, -0.00315145, -0.000369939, 0.00396936, 0.00382345, -0.00465541, -0.00343077, 0.0623919, -0.0181313, -0.0260401, -0.099481, 0.179094, 0.065525, 0.473287, -0.537298, 0.339003, -2.07938, -2.16899, -0.125378, 0.472885, -0.539821, 0.33461, -2.07609, -2.17381, -0.116767, 0.044857, 0.121812, 0.0618013, 0.0643829, 0.064991, 0.0258887
0.149063, 1.69824, -1.22628, -1.53916, -0.903478, -1.1987, 1.22876, -1.30262, 0.073036, 0.0353907, 0.0478843, -0.11092, -0.0616275, 0.000860275, 0.000988023, 3.15376, 66.2112, 34.0781, 5.12909, 2.95917, 3.74698, -0.00999879, -0.00321143, -0.000353651, 0.00399035, 0.00379482, -0.00471552, -0.00354357, 0.0630421, -0.0178044, -0.0258156, -0.0970518, 0.179105, 0.0684468, 0.473332, -0.537175, 0.339065, -2.07929, -2.16905, -0.125289, 0.472948, -0.539753, 0.334641, -2.07593, -2.17403, -0.11666, 0.0453715, 0.123267, 0.0625286, 0.0646077, 0.0657563, 0.0267488
0.150063, 1.69831, -1.22624, -1.53911, -0.903601, -1.19874, 1.22876, -1.30262, 0.0729736, 0.0356071, 0.0505334, -0.114042, -0.0562553, 4.64622e-05, 0.000658683, 3.19343, 66.1755, 34.1178, 5.08942, 2.98389, 3.76163, -0.00999879, -0.00327004, -0.000336485, 0.00401203, 0.00377193, -0.00477549, -0.00365515, 0.0619434, -0.0188076, -0.0257748, -0.0949442, 0.175589, 0.0733626, 0.473377, -0.537051, 0.339128, -2.0792, -2.16911, -0.125199, 0.473012, -0.539683, 0.334673, -2.07576, -2.17426, -0.116546, 0.0458869, 0.124727, 0.0632577, 0.0660858, 0.06834, 0.0276549
0.151063, 1.69836, -1.2262, -1.53905, -0.903727, -1.19878, 1.22876, -1.30262, 0.0661957, 0.0324474, 0.056032, -0.118769, -0.0517312, 0.00058512, 0.000167855, 3.26881, 66.2866, 34.1535, 5.01404, 2.99579, 3.74698, -0.00267457, -0.00333153, -0.000320521, 0.0040374, 0.00373992, -0.00482513, -0.00377213, 0.0633934, -0.017125, -0.0264672, -0.0895854, 0.169807, 0.0743688, 0.473423, -0.536926, 0.339191, -2.07911, -2.16918, -0.125108, 0.473076, -0.539614, 0.334702, -2.07559, -2.17448, -0.116452, 0.0464031, 0.12619, 0.0639883, 0.0649543, 0.0684023, 0.0275344
0.152063, 1.69842, -1.22616, -1.53899, -0.903864, -1.19882, 1.22875, -1.30263, 0.0632474, 0.0358492, 0.0561902, -0.122627, -0.0486802, 0.00012752, -0.00182088, 3.37989, 66.2866, 34.2289, 5.08942, 3.0141, 3.7543, 0.0495105, -0.00339197, -0.000307189, 0.004058, 0.00371436, -0.00488245, -0.00389531, 0.0640891, -0.0159791, -0.0253618, -0.0900735, 0.171673, 0.0766972, 0.47347, -0.536799, 0.339256, -2.07902, -2.16924, -0.125016, 0.473137, -0.539543, 0.334737, -2.07541, -2.17472, -0.116343, 0.0469202, 0.127658, 0.0647206, 0.0644009, 0.0689631, 0.0292896
0.153063, 1.69847, -1.22611, -1.53893, -0.904001, -1.19886, 1.22876, -1.30263, 0.0614675, 0.0407915, 0.0580573, -0.129449, -0.0465956, -0.000179723, -0.000230573, 3.34419, 66.2866, 34.2289, 5.08942, 3.03882, 3.76163, 0.0229602, -0.00344993, -0.000289127, 0.00407401, 0.00367697, -0.00494519, -0.0040181, 0.0630917, -0.016334, -0.0232, -0.0908217, 0.176152, 0.0796599, 0.473517, -0.53667, 0.339321, -2.07892, -2.1693, -0.124922, 0.473204, -0.539469, 0.334776, -2.07523, -2.17497, -0.11624, 0.047438, 0.129128, 0.0654544, 0.0653217, 0.0711058, 0.0323007
0.154063, 1.69851, -1.22607, -1.53886, -0.904148, -1.19889, 1.22875, -1.30262, 0.0542308, 0.0407505, 0.0607825, -0.13887, -0.044126, -0.000657452, 0.000321003, 3.41956, 66.4691, 34.3043, 5.16479, 3.03882, 3.77627, 0.0101428, -0.00351201, -0.000277305, 0.00409854, 0.00364417, -0.00498863, -0.00413854, 0.0639514, -0.0144709, -0.0237601, -0.091614, 0.175262, 0.0811935, 0.473565, -0.53654, 0.339387, -2.07883, -2.16937, -0.124828, 0.473265, -0.539396, 0.334808, -2.07505, -2.1752, -0.116151, 0.0479565, 0.130603, 0.0661897, 0.0639947, 0.0717331, 0.0324129
0.155063, 1.69856, -1.22602, -1.53879, -0.904291, -1.19892, 1.22875, -1.30262, 0.0482838, 0.0433902, 0.0639126, -0.141911, -0.0385695, -0.000434628, 0.00167206, 3.37989, 66.5445, 34.34, 5.16479, 3.06354, 3.77627, -0.0292249, -0.00357315, -0.000264799, 0.00411361, 0.00360138, -0.00504199, -0.00425387, 0.0652612, -0.0123994, -0.0217303, -0.0869671, 0.174295, 0.0787795, 0.473613, -0.536409, 0.339453, -2.07873, -2.16943, -0.124733, 0.473327, -0.539323, 0.33485, -2.07488, -2.17543, -0.116061, 0.0484757, 0.132081, 0.0669265, 0.0625808, 0.0715156, 0.035022
0.156977, 1.69863, -1.22592, -1.53865, -0.904601, -1.19896, 1.22874, -1.30262, 0.0395116, 0.0490282, 0.070322, -0.151489, -0.0297868, -0.00169254, 3.10628e-05, 3.34419, 66.727, 34.5621, 5.27588, 3.06903, 3.8193, -0.00999879, -0.00355767, -0.000191496, 0.00409863, 0.00358394, -0.00517015, -0.00457707, 0.0641217, -0.010789, -0.0176729, -0.0816751, 0.173234, 0.0848754, 0.473662, -0.536276, 0.33952, -2.07864, -2.1695, -0.124636, 0.473449, -0.539174, 0.334932, -2.07452, -2.17592, -0.115887, 0.0489955, 0.133562, 0.0676647, 0.0616117, 0.0734319, 0.0399966
0.157977, 1.69866, -1.22587, -1.53856, -0.904759, -1.19898, 1.22874, -1.30262, 0.0350301, 0.0504875, 0.0751225, -0.154193, -0.0274274, -0.00574039, -0.00167471, 3.37989, 66.8738, 34.5621, 5.27588, 3.08185, 3.80466, 0.0357776, -0.00362098, -0.000184571, 0.00410901, 0.00352798, -0.00521755, -0.00470642, 0.0648414, -0.00863335, -0.0161447, -0.0809407, 0.171527, 0.0864088, 0.473711, -0.536142, 0.339588, -2.07854, -2.16956, -0.124539, 0.473508, -0.5391, 0.33498, -2.07434, -2.17617, -0.115817, 0.049516, 0.135047, 0.0684043, 0.0600727, 0.0738759, 0.0422073
0.158977, 1.69868, -1.22581, -1.53848, -0.904924, -1.199, 1.22873, -1.30262, 0.0335357, 0.053207, 0.0808707, -0.158771, -0.0207158, -0.00479797, 0.00129102, 3.34419, 66.9849, 34.7129, 5.24017, 3.08826, 3.8193, -0.0292249, -0.00368526, -0.000177725, 0.00412465, 0.00347939, -0.00526258, -0.00482608, 0.0630076, -0.0101079, -0.0135182, -0.0742368, 0.170186, 0.0897629, 0.473761, -0.536006, 0.339657, -2.07844, -2.16963, -0.124441, 0.473566, -0.539025, 0.335023, -2.07416, -2.17641, -0.11574, 0.0500371, 0.136535, 0.0691452, 0.0621011, 0.0768421, 0.0457761
0.159977, 1.6987, -1.22576, -1.5384, -0.905092, -1.19901, 1.22873, -1.30262, 0.0281903, 0.0535348, 0.0829657, -0.165221, -0.0161338, -0.00429993, 0.000860682, 3.34419, 67.1674, 34.8597, 5.2005, 3.10657, 3.84036, -0.0292249, -0.00375059, -0.00017326, 0.0041393, 0.00342531, -0.00530115, -0.00495307, 0.0637004, -0.00893108, -0.0136955, -0.0726193, 0.168257, 0.0919377, 0.473811, -0.535869, 0.339727, -2.07834, -2.1697, -0.124341, 0.473623, -0.53895, 0.335068, -2.07397, -2.17666, -0.115674, 0.0505588, 0.138026, 0.0698875, 0.061472, 0.077623, 0.046277
0.160977, 1.69871, -1.2257, -1.5383, -0.905275, -1.19902, 1.22872, -1.30261, 0.0211282, 0.0528129, 0.0868645, -0.171784, -0.0117524, -0.00337892, 0.00636964, 3.34419, 67.2784, 34.8993, 5.24017, 3.10016, 3.84768, -0.0557752, -0.00381068, -0.00016527, 0.0041476, 0.0033631, -0.00534542, -0.0050934, 0.0649316, -0.00720773, -0.0137405, -0.0690159, 0.165507, 0.087397, 0.473862, -0.53573, 0.339797, -2.07824, -2.16977, -0.124241, 0.473684, -0.538869, 0.335121, -2.07378, -2.17692, -0.115613, 0.0510809, 0.13952, 0.0706309, 0.0603248, 0.0778302, 0.0468454
0.161977, 1.69873, -1.22566, -1.53821, -0.90546, -1.19902, 1.22872, -1.30261, 0.0189772, 0.049518, 0.0883608, -0.175108, -0.00967584, -0.0024334, 0.00413884, 3.34419, 67.5006, 35.0104, 5.2005, 3.12488, 3.84768, -0.0420422, -0.00387337, -0.000158063, 0.00416313, 0.00330254, -0.00537869, -0.00523426, 0.066141, -0.00689024, -0.0159463, -0.0680089, 0.16211, 0.0907413, 0.473913, -0.53559, 0.339868, -2.07814, -2.16984, -0.12414, 0.473744, -0.538788, 0.335167, -2.07358, -2.17718, -0.115559, 0.0516036, 0.141018, 0.0713756, 0.0604946, 0.0784543, 0.0452379
0.162977, 1.69873, -1.2256, -1.53811, -0.905657, -1.19902, 1.22871, -1.30261, 0.0142265, 0.053767, 0.094181, -0.1809, -0.00738196, -0.00230038, 0.00136459, 3.34419, 67.6831, 35.0461, 5.16479, 3.13129, 3.86233, 0.00373412, -0.00393283, -0.000149711, 0.00417445, 0.00323605, -0.00541211, -0.00539154, 0.0660431, -0.00614348, -0.0124672, -0.0639689, 0.165517, 0.0961962, 0.473965, -0.535448, 0.33994, -2.07804, -2.16991, -0.124037, 0.473806, -0.538703, 0.335218, -2.07336, -2.17746, -0.115513, 0.0521267, 0.142518, 0.0721215, 0.0604115, 0.0794883, 0.049461
0.163977, 1.69873, -1.22554, -1.53802, -0.905863, -1.19902, 1.22871, -1.30261, 0.00713908, 0.0563291, 0.0932887, -0.18855, -0.00656081, -0.00136401, 0.00137267, 3.49494, 67.7585, 35.308, 5.12909, 3.1615, 3.85501, -0.00267457, -0.00399848, -0.000148537, 0.00418729, 0.00318091, -0.00545483, -0.0055333, 0.0683716, -0.00334713, -0.0124351, -0.0664509, 0.169365, 0.0945211, 0.474018, -0.535305, 0.340012, -2.07793, -2.16998, -0.123934, 0.473862, -0.538623, 0.335268, -2.07315, -2.17773, -0.115442, 0.0526502, 0.144021, 0.0728685, 0.0582423, 0.0785593, 0.0499773
0.164977, 1.69874, -1.22548, -1.53791, -0.906075, -1.19902, 1.2287, -1.30261, 0.00740855, 0.0560754, 0.0942691, -0.19736, -0.00544244, -0.000714338, 0.0010843, 3.41956, 67.941, 35.3834, 5.08942, 3.17981, 3.84768, -0.00267457, -0.00405609, -0.000137871, 0.00419884, 0.00311629, -0.00549215, -0.00569827, 0.0668571, -0.00528568, -0.0139464, -0.0692999, 0.170269, 0.102484, 0.474071, -0.53516, 0.340086, -2.07783, -2.17005, -0.123829, 0.473928, -0.538533, 0.335321, -2.07293, -2.17802, -0.115388, 0.0531742, 0.145527, 0.0736165, 0.0605843, 0.0818791, 0.0494019
0.165977, 1.69872, -1.22542, -1.53781, -0.906281, -1.19902, 1.2287, -1.30261, 0.000313766, 0.0541398, 0.100075, -0.197021, -0.00415845, -0.000804693, 0.00580484, 3.6457, 68.0521, 35.4944, 4.90295, 3.18622, 3.85501, -0.0164075, -0.00412781, -0.00014374, 0.00420522, 0.00304582, -0.00553463, -0.00582702, 0.0703975, -0.00183057, -0.0131597, -0.0631822, 0.16761, 0.0925432, 0.474124, -0.535014, 0.34016, -2.07772, -2.17012, -0.123723, 0.473978, -0.538457, 0.335378, -2.07274, -2.17828, -0.115331, 0.0536985, 0.147036, 0.0743657, 0.0578379, 0.0796136, 0.0505022
0.166977, 1.69872, -1.22536, -1.53772, -0.906508, -1.19902, 1.22869, -1.3026, 0.00163553, 0.054258, 0.0957454, -0.209151, 0.0010495, -0.000579361, 0.00650574, 3.60603, 68.2385, 35.7166, 4.94263, 3.20453, 3.85501, -0.0750012, -0.00418889, -0.000136083, 0.00422411, 0.00299703, -0.00557295, -0.00598535, 0.0676481, -0.00453705, -0.0168994, -0.0708537, 0.165997, 0.102286, 0.474178, -0.534866, 0.340234, -2.07762, -2.17019, -0.123617, 0.474041, -0.538367, 0.335424, -2.07251, -2.17856, -0.115257, 0.0542231, 0.148547, 0.0751158, 0.060807, 0.0845319, 0.0478917
0.167977, 1.69871, -1.22529, -1.53761, -0.906734, -1.19902, 1.22869, -1.3026, -0.00206237, 0.0600062, 0.10169, -0.21437, 0.000250094, -0.000418416, 0.00444908, 3.75678, 68.3099, 35.8277, 4.82758, 3.22284, 3.85501, -0.0685925, -0.00425468, -0.000135507, 0.00423035, 0.00293186, -0.00562334, -0.00614157, 0.0677118, -0.00389581, -0.0124704, -0.0678838, 0.173443, 0.106545, 0.474232, -0.534717, 0.34031, -2.07751, -2.17026, -0.123509, 0.474099, -0.538281, 0.335484, -2.0723, -2.17886, -0.115186, 0.054748, 0.150061, 0.0758669, 0.0608775, 0.0852806, 0.0530303
0.168977, 1.69869, -1.22524, -1.53749, -0.906975, -1.19902, 1.22868, -1.3026, -0.0055491, 0.0568897, 0.111206, -0.222332, 0.000575537, -0.000303075, 0.00299065, 3.94721, 68.5678, 35.7166, 4.75616, 3.21643, 3.85501, -0.0621838, -0.00431644, -0.000130412, 0.00424213, 0.00285725, -0.00565591, -0.00631358, 0.0667213, -0.00489776, -0.0123624, -0.0633626, 0.171159, 0.115103, 0.474287, -0.534566, 0.340386, -2.0774, -2.17034, -0.123401, 0.474161, -0.53819, 0.335539, -2.07206, -2.17916, -0.115145, 0.0552732, 0.151577, 0.0766189, 0.0623717, 0.0878049, 0.0540087
0.169977, 1.69868, -1.22516, -1.53739, -0.90722, -1.19902, 1.22868, -1.3026, -0.00618041, 0.0616695, 0.106871, -0.227492, 0.000274919, 0.000322386, 0.00219024, 4.06226, 68.5321, 35.9388, 4.64111, 3.22284, 3.84036, -0.0621838, -0.00438019, -0.000126984, 0.00425101, 0.00280329, -0.00571417, -0.00648121, 0.0676239, -0.00432336, -0.0122715, -0.0692765, 0.178202, 0.116351, 0.474343, -0.534414, 0.340463, -2.07729, -2.17041, -0.123291, 0.474222, -0.538099, 0.335597, -2.07183, -2.17947, -0.115054, 0.0557986, 0.153096, 0.0773717, 0.0623685, 0.0883921, 0.0547339
0.170977, 1.69867, -1.22509, -1.53727, -0.907475, -1.19902, 1.22867, -1.3026, -0.011506, 0.0609723, 0.112059, -0.234057, 4.23599e-05, -0.0049637, -8.79093e-05, 4.24873, 68.6432, 35.9388, 4.53003, 3.22925, 3.84036, -0.0164075, -0.00444058, -0.000122016, 0.00425846, 0.00274059, -0.00576396, -0.00666444, 0.0681088, -0.00212518, -0.0124789, -0.0723783, 0.176209, 0.120356, 0.474399, -0.53426, 0.340541, -2.07718, -2.17049, -0.12318, 0.474285, -0.538004, 0.335658, -2.07158, -2.17979, -0.114981, 0.0563242, 0.154618, 0.0781255, 0.0607156, 0.0893637, 0.0552847
0.171977, 1.69865, -1.22502, -1.53715, -0.907729, -1.19902, 1.22866, -1.3026, -0.0161567, 0.0647402, 0.111846, -0.237937, 0.00388202, -0.00347846, 0.00424396, 4.47486, 68.7146, 35.9784, 4.34357, 3.25397, 3.83304, -0.00267457, -0.00450537, -0.000119573, 0.00426842, 0.00267633, -0.00581183, -0.00683692, 0.0696887, -0.000373895, -0.0110667, -0.0708796, 0.178769, 0.114767, 0.474456, -0.534104, 0.340619, -2.07707, -2.17056, -0.123068, 0.474346, -0.537911, 0.335717, -2.07135, -2.1801, -0.11491, 0.05685, 0.156141, 0.07888, 0.0596197, 0.0890311, 0.0572531
0.172977, 1.69863, -1.22495, -1.53705, -0.907992, -1.19902, 1.22866, -1.30258, -0.0146619, 0.0654469, 0.10822, -0.244096, 0.00259287, -0.00664951, 0.00672867, 4.62562, 68.7543, 36.1649, 4.1571, 3.26587, 3.80466, -0.0951428, -0.00456808, -0.000114191, 0.0042819, 0.00262422, -0.00586443, -0.00700927, 0.0693915, -0.000604876, -0.0136928, -0.0810545, 0.18083, 0.115791, 0.474513, -0.533947, 0.340699, -2.07696, -2.17064, -0.122956, 0.474411, -0.537814, 0.335773, -2.0711, -2.18041, -0.11482, 0.0573759, 0.157667, 0.0796352, 0.0602619, 0.0912588, 0.0554545
0.173977, 1.69861, -1.22489, -1.53692, -0.908268, -1.19902, 1.22865, -1.30259, -0.0171008, 0.0651293, 0.114156, -0.249288, 0.000909938, -0.00377935, 0.00311241, 4.92713, 68.8257, 36.1252, 4.00635, 3.297, 3.76895, -0.0484509, -0.00463004, -0.000108819, 0.0042937, 0.00256297, -0.00591479, -0.00720343, 0.069932, -0.0011722, -0.0126466, -0.0768272, 0.184349, 0.12267, 0.47457, -0.533789, 0.340779, -2.07684, -2.17071, -0.122842, 0.474476, -0.537715, 0.335832, -2.07084, -2.18074, -0.114743, 0.0579019, 0.159194, 0.0803912, 0.061424, 0.0921203, 0.0571436
0.174977, 1.69859, -1.22482, -1.53681, -0.908549, -1.19902, 1.22865, -1.30258, -0.0168951, 0.0685507, 0.111645, -0.259835, -0.000499027, -0.00169872, 0.00332525, 5.15327, 68.8614, 36.2363, 3.85956, 3.33362, 3.73324, -0.0750012, -0.00469294, -0.000103521, 0.00431089, 0.00251223, -0.00596374, -0.0073902, 0.0689787, -0.00274335, -0.0133642, -0.0831722, 0.192088, 0.128984, 0.474629, -0.533629, 0.340859, -2.07673, -2.17079, -0.122727, 0.474542, -0.537614, 0.335886, -2.07058, -2.18107, -0.114655, 0.0584279, 0.160724, 0.0811479, 0.0634549, 0.0947734, 0.0572859
0.175977, 1.69857, -1.22475, -1.53669, -0.908846, -1.19903, 1.22864, -1.30257, -0.0176348, 0.0665945, 0.117672, -0.271467, -0.00126365, -0.00560436, 0.00289178, 5.41908, 68.9368, 36.276, 3.74451, 3.36383, 3.70395, -0.0878186, -0.00475044, -9.36258e-05, 0.0043273, 0.00246195, -0.00601499, -0.00759327, 0.0661027, -0.00458979, -0.014819, -0.0877667, 0.190554, 0.140369, 0.474687, -0.533468, 0.340941, -2.07661, -2.17087, -0.122611, 0.474612, -0.537506, 0.335943, -2.0703, -2.18141, -0.114564, 0.0589541, 0.162256, 0.0819052, 0.065651, 0.0994517, 0.0569855
0.176977, 1.69855, -1.22468, -1.53657, -0.909146, -1.19903, 1.22864, -1.30257, -0.0180896, 0.0674538, 0.120594, -0.279048, -0.00185431, -0.00870657, 0.00604265, 5.68488, 68.9368, 36.3514, 3.55804, 3.39496, 3.67557, -0.0685925, -0.00480995, -8.4631e-05, 0.00434372, 0.00241226, -0.00607015, -0.00780018, 0.0647407, -0.00526465, -0.0151174, -0.0921911, 0.191906, 0.143411, 0.474746, -0.533304, 0.341023, -2.07649, -2.17095, -0.122494, 0.474682, -0.537399, 0.335999, -2.07001, -2.18176, -0.114468, 0.0594802, 0.16379, 0.0826631, 0.0667869, 0.102407, 0.0576358
0.177977, 1.69853, -1.2246, -1.53644, -0.909451, -1.19903, 1.22864, -1.30256, -0.0191991, 0.0705988, 0.12331, -0.288431, -0.00204598, -0.00623955, 0.00354744, 5.9864, 68.8257, 36.3117, 3.41125, 3.41968, 3.66092, -0.0420422, -0.00486752, -7.43773e-05, 0.00435368, 0.0023566, -0.00613365, -0.00801203, 0.0634519, -0.0069559, -0.0138773, -0.0923483, 0.198098, 0.153031, 0.474806, -0.53314, 0.341106, -2.07637, -2.17103, -0.122376, 0.474754, -0.53729, 0.336064, -2.06973, -2.18212, -0.114369, 0.0600063, 0.165325, 0.0834216, 0.0690035, 0.105107, 0.0597598
0.178977, 1.6985, -1.22454, -1.53632, -0.909761, -1.19903, 1.22863, -1.30255, -0.0199172, 0.0662708, 0.119827, -0.29424, -0.002641, -0.00411309, 0.00949228, 6.28791, 68.8614, 36.3514, 3.22479, 3.4563, 3.63986, -0.101552, -0.00492946, -6.71071e-05, 0.00437396, 0.00231005, -0.00618571, -0.00821322, 0.0650996, -0.00704383, -0.0187805, -0.0973596, 0.197069, 0.148533, 0.474866, -0.532974, 0.34119, -2.07626, -2.17111, -0.122257, 0.474823, -0.537182, 0.336118, -2.06944, -2.18246, -0.11427, 0.0605324, 0.166863, 0.0841806, 0.0694876, 0.105764, 0.0554225
0.179977, 1.69848, -1.22446, -1.53619, -0.910069, -1.19903, 1.22863, -1.30254, -0.0217869, 0.0714457, 0.122412, -0.30053, -0.00261671, -0.00717069, 0.00675227, 6.51405, 68.79, 36.3117, 2.96295, 3.48102, 3.60415, -0.0951428, -0.00498981, -5.71027e-05, 0.00438683, 0.00225517, -0.00624951, -0.00842374, 0.064304, -0.00656576, -0.0164231, -0.100606, 0.20209, 0.154882, 0.474927, -0.532806, 0.341275, -2.07613, -2.17119, -0.122137, 0.474896, -0.537071, 0.33618, -2.06916, -2.18282, -0.114168, 0.0610583, 0.168402, 0.0849401, 0.069605, 0.107709, 0.05865
0.180977, 1.69845, -1.22438, -1.53606, -0.910402, -1.19903, 1.22862, -1.30253, -0.0259035, 0.0769082, 0.127232, -0.311306, -0.00237802, -0.0101159, 0.0089412, 6.85523, 68.6432, 36.276, 2.81219, 3.49933, 3.58218, -0.0750012, -0.00504534, -4.61445e-05, 0.0043995, 0.00220455, -0.0063117, -0.00864868, 0.0626481, -0.00624836, -0.0135995, -0.103449, 0.207495, 0.159147, 0.474989, -0.532637, 0.34136, -2.07601, -2.17127, -0.122016, 0.47497, -0.536955, 0.336244, -2.06886, -2.1832, -0.114064, 0.0615842, 0.169942, 0.0857, 0.0698665, 0.110442, 0.0624644
0.181977, 1.69842, -1.22431, -1.53592, -0.910733, -1.19904, 1.22862, -1.30252, -0.0248056, 0.0751846, 0.130314, -0.317387, -0.00314558, -0.00622662, 0.00648631, 7.15675, 68.6035, 36.276, 2.59003, 3.54236, 3.53915, -0.0685925, -0.00510315, -3.34437e-05, 0.00441567, 0.00214785, -0.00637122, -0.00887494, 0.0619991, -0.00879613, -0.0146065, -0.101472, 0.209765, 0.168114, 0.47505, -0.532466, 0.341446, -2.07589, -2.17135, -0.121894, 0.475047, -0.536838, 0.336305, -2.06855, -2.18357, -0.113968, 0.0621099, 0.171484, 0.0864603, 0.0728712, 0.112898, 0.0622426
0.182977, 1.69839, -1.22424, -1.53578, -0.911076, -1.19904, 1.22862, -1.30251, -0.0260622, 0.075949, 0.133111, -0.327409, -0.00390301, -0.00417846, 0.00868045, 7.41859, 68.4964, 36.2363, 2.59003, 3.5918, 3.5181, -0.0420422, -0.00515809, -1.90653e-05, 0.00442974, 0.00209329, -0.00643619, -0.00911145, 0.0608618, -0.0104598, -0.0148501, -0.102643, 0.213913, 0.173362, 0.475113, -0.532294, 0.341533, -2.07577, -2.17143, -0.121771, 0.475125, -0.536718, 0.336369, -2.06824, -2.18397, -0.113864, 0.0626355, 0.173028, 0.087221, 0.0750042, 0.115681, 0.0628801
0.183977, 1.69836, -1.22416, -1.53564, -0.911412, -1.19904, 1.22862, -1.3025, -0.0271743, 0.0740199, 0.134594, -0.328556, -0.00438033, -0.00257729, 0.00685072, 7.68439, 68.4567, 36.3514, 2.36389, 3.64032, 3.49612, -0.0484509, -0.00521831, -7.41173e-06, 0.00444502, 0.00203083, -0.00649664, -0.00933394, 0.0627358, -0.0100175, -0.0159595, -0.101275, 0.214178, 0.174527, 0.475176, -0.53212, 0.34162, -2.07564, -2.17152, -0.121646, 0.475202, -0.536601, 0.336432, -2.06794, -2.18434, -0.113771, 0.0631608, 0.174573, 0.087982, 0.0751245, 0.115523, 0.0622754
0.184977, 1.69833, -1.22409, -1.5355, -0.911755, -1.19905, 1.22862, -1.30248, -0.03049, 0.0712029, 0.134133, -0.339403, -0.0044998, -0.00298609, 0.00593293, 7.91053, 68.3853, 36.4228, 2.2171, 3.68335, 3.5181, -0.0685925, -0.00527688, 5.32753e-06, 0.00446168, 0.00197212, -0.00655557, -0.00956239, 0.0629156, -0.00984109, -0.0196913, -0.107518, 0.213224, 0.180306, 0.475239, -0.531945, 0.341709, -2.07552, -2.1716, -0.121521, 0.47528, -0.53648, 0.336495, -2.06763, -2.18473, -0.113675, 0.0636859, 0.176119, 0.0887433, 0.0753294, 0.117448, 0.059331
0.185977, 1.6983, -1.22403, -1.53535, -0.912117, -1.19905, 1.22862, -1.30246, -0.0275672, 0.0673226, 0.137256, -0.341868, -0.00434562, -0.00206003, 0.0095734, 8.17634, 68.3853, 36.4982, 2.14172, 3.71997, 3.51077, -0.0814099, -0.00533289, 2.11114e-05, 0.00448178, 0.00191425, -0.00661345, -0.00980273, 0.0622395, -0.01221, -0.0217955, -0.106371, 0.210874, 0.182185, 0.475303, -0.531768, 0.341798, -2.07539, -2.17169, -0.121395, 0.475361, -0.536355, 0.336555, -2.0673, -2.18512, -0.11358, 0.0642108, 0.177667, 0.0895048, 0.0781064, 0.120095, 0.0580362
0.186977, 1.69827, -1.22397, -1.53518, -0.912479, -1.19906, 1.22862, -1.30244, -0.0266686, 0.0630942, 0.144986, -0.346335, -0.005161, -0.00162878, 0.0167336, 8.3628, 68.4567, 36.4625, 2.06634, 3.78131, 3.51077, -0.0878186, -0.00538741, 3.96319e-05, 0.00450012, 0.00184276, -0.00666556, -0.0100507, 0.0610798, -0.0144957, -0.0226694, -0.102721, 0.20859, 0.182187, 0.475368, -0.53159, 0.341888, -2.07526, -2.17177, -0.121268, 0.475446, -0.536227, 0.336618, -2.06697, -2.18552, -0.113505, 0.0647353, 0.179216, 0.0902666, 0.0808309, 0.123031, 0.058033
0.187977, 1.69824, -1.2239, -1.53501, -0.912844, -1.19906, 1.22862, -1.30242, -0.0244597, 0.0682392, 0.153975, -0.351774, -0.00502841, -0.00154869, 0.016171, 8.47785, 68.421, 36.4228, 2.06634, 3.82434, 3.5181, -0.0621838, -0.00543956, 5.99876e-05, 0.00451346, 0.00177206, -0.00672703, -0.0103077, 0.0576731, -0.0177849, -0.0178456, -0.0977834, 0.214759, 0.192757, 0.475433, -0.53141, 0.341978, -2.07513, -2.17186, -0.121139, 0.475533, -0.536096, 0.336687, -2.06664, -2.18594, -0.11342, 0.0652596, 0.180765, 0.0910285, 0.084701, 0.127375, 0.063965
