alisrour97/Franka_experiments/Real_Robot_scripts/servo-franka/Data_5_ki/log_dyn_PI_k_ki_2.csv
Time,q1,q2,q3,q4,q5,q6,q7,dq1,dq2,dq3,dq4,dq5,dq6,dq7,t1,t2,t3,t4,t5,t6,t7,ex1,ex2,ex3,ex4,ex5,ex6,ev1,ev2,ev3,ev4,ev5,ev6,xd,yd,zd,uxd,uyd,uzd,x,y,z,ux,uy,uz,vxd,vyd,vzd,vx,vy,vz
2.44141e-07, 1.69147, -1.22503, -1.53756, -0.90002, -1.19191, 1.22835, -1.30265, -0.000230934, 0.00201913, -0.0111139, -0.000582459, 0.000457762, 2.89419e-05, 0.000506562, -0.583427, 56.9675, 26.822, 6.47003, 1.91546, 3.36062, -0.101552, 0.00112227, -0.00148945, -0.000370838, -2.01083e-05, -0.00097067, -0.000281807, 0.00196906, 0.00192983, -0.00281995, -0.00954594, 0.0024133, -0.0054639, 0.471008, -0.543389, 0.335894, -2.08385, -2.16584, -0.129887, 0.469503, -0.54239, 0.336488, -2.08405, -2.16672, -0.128962, 0, 0, 0, -0.00195872, -0.00158884, -0.00303192
0.0130229, 1.69142, -1.22503, -1.5376, -0.900013, -1.19191, 1.22836, -1.30265, -0.00589764, 0.0019847, -0.00458907, -0.00034584, -0.000141272, 0.000223033, -0.00402127, -0.694511, 56.8207, 26.8577, 6.47003, 1.91546, 3.34598, -0.153737, 0.00108821, -0.00152787, -0.000362649, -1.90487e-06, -0.000972502, -0.000203184, 0.00334511, 0.00405135, -0.000182515, -0.00297486, 0.00235905, -0.00380208, 0.471008, -0.543389, 0.335894, -2.08385, -2.16584, -0.129887, 0.469456, -0.542433, 0.336467, -2.08414, -2.16661, -0.128923, 3.52292e-06, 9.08712e-06, 4.70091e-06, -0.00392957, -0.00343097, -0.000572586
0.0140229, 1.69142, -1.22503, -1.5376, -0.900013, -1.19191, 1.22836, -1.30265, -0.00589764, 0.0019847, -0.00458907, -0.00034584, -0.000141272, 0.000223033, -0.00402127, -0.694511, 56.8207, 26.8577, 6.47003, 1.91546, 3.34598, -0.153737, 0.00108818, -0.00152788, -0.000362641, -1.91578e-06, -0.000972497, -0.000203172, 0.00337375, 0.00406255, -0.000192593, -0.00298739, 0.0023782, -0.00382578, 0.471008, -0.543389, 0.335894, -2.08385, -2.16584, -0.129887, 0.469456, -0.542433, 0.336467, -2.08414, -2.16661, -0.128923, 1.40551e-05, 3.62649e-05, 1.87583e-05, -0.00392957, -0.00343097, -0.000572586
0.0150229, 1.69142, -1.22503, -1.5376, -0.900013, -1.19191, 1.22836, -1.30265, -0.00589764, 0.0019847, -0.00458907, -0.00034584, -0.000141272, 0.000223033, -0.00402127, -0.694511, 56.8207, 26.8577, 6.47003, 1.91546, 3.34598, -0.153737, 0.00108812, -0.0015279, -0.00036262, -1.94532e-06, -0.000972482, -0.000203139, 0.00342131, 0.00408116, -0.000209328, -0.00300818, 0.00241001, -0.00386514, 0.471008, -0.543389, 0.335894, -2.08385, -2.16584, -0.129887, 0.469456, -0.542433, 0.336467, -2.08414, -2.16661, -0.128923, 3.15416e-05, 8.14084e-05, 4.21042e-05, -0.00392957, -0.00343097, -0.000572586
0.0160229, 1.69142, -1.22503, -1.5376, -0.900013, -1.19191, 1.22836, -1.30265, -0.00589764, 0.0019847, -0.00458907, -0.00034584, -0.000141272, 0.000223033, -0.00402127, -0.694511, 56.8207, 26.8577, 6.47003, 1.91546, 3.34598, -0.153737, 0.00108801, -0.00152795, -0.000362578, -2.0027e-06, -0.000972454, -0.000203075, 0.00348767, 0.00410711, -0.000232671, -0.00303716, 0.00245438, -0.00392001, 0.471008, -0.543389, 0.335894, -2.08385, -2.16584, -0.129887, 0.469456, -0.542433, 0.336467, -2.08414, -2.16661, -0.128923, 5.59279e-05, 0.000144393, 7.4671e-05, -0.00392957, -0.00343097, -0.000572586
0.0170229, 1.69142, -1.22503, -1.5376, -0.900013, -1.19191, 1.22836, -1.30265, -0.00589764, 0.0019847, -0.00458907, -0.00034584, -0.000141272, 0.000223033, -0.00402127, -0.694511, 56.8207, 26.8577, 6.47003, 1.91546, 3.34598, -0.153737, 0.00108781, -0.00152803, -0.00036251, -2.09709e-06, -0.000972408, -0.00020297, 0.0035727, 0.00414035, -0.000262574, -0.00307424, 0.00251121, -0.00399028, 0.471008, -0.543389, 0.335894, -2.08385, -2.16584, -0.129886, 0.469456, -0.542433, 0.336467, -2.08414, -2.16661, -0.128923, 8.71593e-05, 0.000225094, 0.000116391, -0.00392957, -0.00343097, -0.000572586
0.0180229, 1.69142, -1.22503, -1.5376, -0.900013, -1.19191, 1.22836, -1.30265, -0.00589764, 0.0019847, -0.00458907, -0.00034584, -0.000141272, 0.000223033, -0.00402127, -0.694511, 56.8207, 26.8577, 6.47003, 1.91546, 3.34598, -0.153737, 0.00108753, -0.00152814, -0.000362409, -2.23756e-06, -0.00097234, -0.000202813, 0.00367627, 0.00418081, -0.000298985, -0.00311936, 0.00258042, -0.00407582, 0.471008, -0.543389, 0.335894, -2.08385, -2.16584, -0.129886, 0.469456, -0.542433, 0.336467, -2.08414, -2.16661, -0.128923, 0.000125182, 0.000323387, 0.000167197, -0.00392957, -0.00343097, -0.000572586
0.0190229, 1.69142, -1.22503, -1.5376, -0.900013, -1.19191, 1.22836, -1.30265, -0.00589764, 0.0019847, -0.00458907, -0.00034584, -0.000141272, 0.000223033, -0.00402127, -0.694511, 56.8207, 26.8577, 6.47003, 1.91546, 3.34598, -0.153737, 0.00108713, -0.00152829, -0.000362268, -2.43314e-06, -0.000972244, -0.000202595, 0.00379823, 0.00422845, -0.000341857, -0.00317244, 0.00266189, -0.00417651, 0.471008, -0.543388, 0.335894, -2.08385, -2.16584, -0.129886, 0.469456, -0.542433, 0.336467, -2.08414, -2.16661, -0.128923, 0.00016994, 0.000439148, 0.000227022, -0.00392957, -0.00343097, -0.000572586
0.0200229, 1.69142, -1.22503, -1.5376, -0.900013, -1.19191, 1.22836, -1.30265, -0.00589764, 0.0019847, -0.00458907, -0.00034584, -0.000141272, 0.000223033, -0.00402127, -0.694511, 56.8207, 26.8577, 6.47003, 1.91546, 3.34598, -0.153737, 0.00108659, -0.0015285, -0.000362081, -2.69277e-06, -0.000972118, -0.000202305, 0.00393847, 0.0042832, -0.000391139, -0.0032334, 0.00275555, -0.00429222, 0.471009, -0.543388, 0.335895, -2.08385, -2.16584, -0.129886, 0.469456, -0.542433, 0.336467, -2.08414, -2.16661, -0.128923, 0.000221382, 0.000572255, 0.000295798, -0.00392957, -0.00343097, -0.000572586
0.0210229, 1.69142, -1.22503, -1.5376, -0.900013, -1.19191, 1.22836, -1.30265, -0.00589764, 0.0019847, -0.00458907, -0.00034584, -0.000141272, 0.000223033, -0.00402127, -0.694511, 56.8207, 26.8577, 6.47003, 1.91546, 3.34598, -0.153737, 0.00108591, -0.00152877, -0.000361841, -3.02536e-06, -0.000971956, -0.000201935, 0.00409686, 0.004345, -0.000446784, -0.00330218, 0.00286129, -0.00442284, 0.471009, -0.543387, 0.335895, -2.08384, -2.16584, -0.129885, 0.469456, -0.542433, 0.336467, -2.08414, -2.16661, -0.128923, 0.000279451, 0.000722584, 0.000373459, -0.00392957, -0.00343097, -0.000572586
0.0220229, 1.69142, -1.22503, -1.5376, -0.900013, -1.19191, 1.22836, -1.30265, -0.00589764, 0.0019847, -0.00458907, -0.00034584, -0.000141272, 0.000223033, -0.00402127, -0.694511, 56.8207, 26.8577, 6.47003, 1.91546, 3.34598, -0.153737, 0.00108507, -0.0015291, -0.000361543, -3.43972e-06, -0.000971755, -0.000201473, 0.00427326, 0.00441381, -0.000508742, -0.00337868, 0.00297902, -0.00456823, 0.471009, -0.543386, 0.335895, -2.08384, -2.16584, -0.129884, 0.469456, -0.542433, 0.336467, -2.08414, -2.16661, -0.128923, 0.000344096, 0.000890012, 0.000459939, -0.00392957, -0.00343097, -0.000572586
0.0230229, 1.69138, -1.22503, -1.53761, -0.90001, -1.1919, 1.22837, -1.30265, -0.00290661, 0.00155678, -0.000690612, 0.00181493, 0.00026354, 0.00137457, 0.000950522, -0.43267, 56.8207, 26.8934, 6.39465, 1.89075, 3.25992, -0.180287, 0.00106427, -0.00154927, -0.00036182, -2.16315e-05, -0.00097171, -0.000158024, 0.00304634, 0.00234629, 0.000797492, 0.00166579, 0.00256785, -0.0066136, 0.47101, -0.543385, 0.335896, -2.08384, -2.16584, -0.129884, 0.469437, -0.542454, 0.336465, -2.08419, -2.16657, -0.128938, 0.000415261, 0.00107442, 0.00055517, -0.00179028, -0.00215177, 0.000940564
0.0240229, 1.69138, -1.22503, -1.5376, -0.900013, -1.1919, 1.22837, -1.30266, -0.00199062, -0.000632582, 0.00118717, 0.000282138, 0.000175695, 0.00118762, -0.00135482, -0.43267, 56.8921, 26.822, 6.43433, 1.89075, 3.25259, -0.127186, 0.00106408, -0.00154871, -0.00036025, -2.81245e-05, -0.000964281, -0.000169724, 0.002213, 0.0012474, -0.000174154, 0.00195655, 0.000549093, -0.00132365, 0.47101, -0.543384, 0.335896, -2.08384, -2.16585, -0.129883, 0.469438, -0.542453, 0.336464, -2.08418, -2.16658, -0.128953, 0.000492895, 0.00127568, 0.000659086, -0.000680046, -0.000933312, 0.000181269
0.0250229, 1.69138, -1.22504, -1.53761, -0.900005, -1.1919, 1.22837, -1.30265, -0.000531522, -0.000157259, -0.00239117, 0.00371472, 0.00150738, 0.00130035, -0.000173584, -0.468376, 56.7453, 26.822, 6.28357, 1.85321, 3.23886, -0.147328, 0.00106013, -0.00154988, -0.000358428, -2.76393e-05, -0.000965123, -0.000157409, 0.00326155, 0.0017512, -0.00083426, 0.000897549, 0.000113094, -0.00554194, 0.471011, -0.543383, 0.335897, -2.08384, -2.16585, -0.129882, 0.469438, -0.542455, 0.336462, -2.08419, -2.16657, -0.128949, 0.000576942, 0.00149367, 0.000771622, -0.00108548, -0.0016695, -0.000505544
0.0260234, 1.69138, -1.22504, -1.53761, -0.900007, -1.1919, 1.22838, -1.30265, -0.00214733, -0.00139307, 0.00165571, 0.0024766, -0.000304921, 0.00222322, 0.00870214, -0.392998, 56.5231, 26.6712, 6.28357, 1.76166, 3.20224, -0.133595, 0.00105667, -0.00155155, -0.000357152, -3.2523e-05, -0.000964845, -0.000152484, 0.00358754, 0.0017798, -0.00021736, 0.00384719, 0.000785964, -0.0137696, 0.471011, -0.543381, 0.335898, -2.08384, -2.16585, -0.129881, 0.469437, -0.542457, 0.336461, -2.0842, -2.16656, -0.128953, 0.00066735, 0.00172827, 0.000892711, -0.000989705, -0.00185285, 0.00017496
0.0270234, 1.69138, -1.22504, -1.5376, -0.900005, -1.19191, 1.22838, -1.30265, 0.000309375, -0.00192912, 0.00199328, 0.00424961, -0.00479333, 0.0017195, 0.00487504, -0.468376, 56.2653, 26.4847, 6.17248, 1.74884, 3.19583, -0.0878186, 0.00105485, -0.0015504, -0.000358685, -3.23772e-05, -0.00097545, -0.000156106, 0.00410366, 0.0014291, -0.000431779, 0.00191835, 0.00374968, -0.0106214, 0.471012, -0.543379, 0.335899, -2.08384, -2.16585, -0.129879, 0.469439, -0.542457, 0.336464, -2.0842, -2.16657, -0.128941, 0.000764066, 0.00197936, 0.00102229, -0.000532017, -0.00206394, 2.15153e-06
0.0280234, 1.69138, -1.22504, -1.5376, -0.900006, -1.19192, 1.22838, -1.30265, -0.00157372, -0.00396853, 0.00266442, 0.000510336, -0.00228507, 0.000637695, 0.00213138, -0.392998, 56.1938, 26.4094, 6.13678, 1.70581, 3.20956, -0.0420422, 0.00104962, -0.00155294, -0.000353953, -3.13514e-05, -0.000973835, -0.00015261, 0.00355967, 0.00152043, -0.00200587, 0.000950668, -0.00045296, -0.00549603, 0.471013, -0.543377, 0.3359, -2.08384, -2.16585, -0.129878, 0.469437, -0.542459, 0.336459, -2.0842, -2.16657, -0.12894, 0.000867038, 0.00224682, 0.00116028, -0.000596536, -0.0010209, -0.00132697
0.0290234, 1.69139, -1.22505, -1.5376, -0.900002, -1.19193, 1.22838, -1.30265, -0.000133675, -0.005388, 0.00145552, 0.00184034, -0.00696643, 0.000153856, 0.00405754, -0.43267, 56.2653, 26.4094, 6.0614, 1.71222, 3.21689, -0.101552, 0.00104561, -0.00155163, -0.00034928, -3.31648e-05, -0.000974373, -0.000143271, 0.00487793, 0.00192778, -0.00330514, -0.00254087, 0.00192934, -0.00954047, 0.471014, -0.543375, 0.335901, -2.08384, -2.16585, -0.129876, 0.469439, -0.54246, 0.336455, -2.08421, -2.16656, -0.128938, 0.000976211, 0.00253053, 0.00130664, -0.000893942, -0.00185532, -0.00265585
0.0300234, 1.69138, -1.22506, -1.5376, -0.900003, -1.19194, 1.22839, -1.30265, -0.00278979, -0.00486453, 0.00112388, 0.00102956, -0.00973705, 0.000102565, 0.00204612, -0.317619, 56.416, 26.5244, 6.0614, 1.70032, 3.21689, -0.0750012, 0.00103784, -0.00155557, -0.000343319, -3.3437e-05, -0.000972634, -0.000136686, 0.00669516, 0.00374853, -0.00320289, -0.00423345, 0.00491739, -0.0108016, 0.471015, -0.543372, 0.335903, -2.08383, -2.16585, -0.129874, 0.469436, -0.542464, 0.33645, -2.08421, -2.16656, -0.128938, 0.00109153, 0.00283037, 0.00146128, -0.00252833, -0.00343977, -0.00262738
0.0310234, 1.69138, -1.22507, -1.5376, -0.900005, -1.19194, 1.2284, -1.30265, -0.00363015, -0.00385559, -9.27361e-06, -0.000296852, -0.00767289, 0.00657364, 0.00062406, -0.242241, 56.5628, 26.5601, 6.09711, 1.70581, 3.16653, -0.0484509, 0.00103186, -0.00155584, -0.000341115, -4.1326e-05, -0.000979494, -0.000136658, 0.00741182, 0.00285436, -0.00269911, 0.000801028, 0.00781864, -0.00918928, 0.471016, -0.543369, 0.335904, -2.08383, -2.16585, -0.129871, 0.469437, -0.542467, 0.336448, -2.08422, -2.16656, -0.128937, 0.00121295, 0.00314621, 0.00162416, -0.00147006, -0.0038724, -0.00210522
0.0320234, 1.69137, -1.22506, -1.5376, -0.900003, -1.19195, 1.22841, -1.30265, -0.00595187, -0.00423781, 0.00225258, 0.000526313, -0.0105292, 0.00582027, 0.000869802, -0.0914839, 56.6342, 26.5958, 6.0614, 1.70581, 3.13815, -0.0557752, 0.00102178, -0.00156067, -0.000342733, -5.21979e-05, -0.000992123, -0.00012206, 0.00908778, 0.00453189, -0.00207347, 0.00136229, 0.00934796, -0.0125974, 0.471017, -0.543366, 0.335906, -2.08383, -2.16586, -0.129869, 0.469434, -0.542474, 0.33645, -2.08424, -2.16656, -0.128932, 0.00134042, 0.00347794, 0.00179519, -0.00293541, -0.00536019, -0.00152593
0.0330234, 1.69138, -1.22506, -1.53759, -0.900003, -1.19196, 1.22842, -1.30264, -0.0048071, -0.00282295, 0.00263311, 0.000267623, -0.0128737, 0.00444147, 0.00264952, -0.0557783, 56.6342, 26.5601, 6.0614, 1.71222, 3.13083, -0.10796, 0.00101855, -0.00155769, -0.000345293, -6.25767e-05, -0.00100623, -0.000118526, 0.00897483, 0.00444913, -0.00145356, -0.000933668, 0.0122718, -0.0139496, 0.471019, -0.543362, 0.335908, -2.08383, -2.16586, -0.129866, 0.469439, -0.542474, 0.336454, -2.08426, -2.16657, -0.128926, 0.00147388, 0.00382545, 0.00197432, -0.00270094, -0.00499321, -0.000719641
0.0340234, 1.69138, -1.22506, -1.53759, -0.9, -1.19197, 1.22843, -1.30265, -0.00589897, -0.000209831, -0.00516628, 0.001044, -0.0134477, 0.00317849, -6.37814e-05, 0.059273, 56.5628, 26.5958, 6.02173, 1.6875, 3.13083, -0.0557752, 0.00101121, -0.00156064, -0.000347671, -6.77023e-05, -0.00101932, -0.000115313, 0.0114324, 0.00709562, -0.00276372, -0.00852286, 0.0153775, -0.0173051, 0.47102, -0.543358, 0.33591, -2.08382, -2.16586, -0.129863, 0.469438, -0.542477, 0.336457, -2.08427, -2.16658, -0.128916, 0.00161328, 0.0041886, 0.00216148, -0.00516399, -0.00696297, -0.00212776
0.0350234, 1.69138, -1.22505, -1.53759, -0.9, -1.19198, 1.22843, -1.30265, -0.0047701, 0.00245984, -0.00380331, 0.00148439, -0.00929518, 0.00590401, -0.000474158, 0.0949785, 56.4517, 26.5958, 5.98602, 1.66369, 3.15921, -0.0420422, 0.00100901, -0.00155676, -0.000350764, -7.57589e-05, -0.001034, -0.000120994, 0.0103818, 0.00555885, -0.000612138, -0.00294309, 0.0161576, -0.0144846, 0.471022, -0.543354, 0.335912, -2.08382, -2.16586, -0.12986, 0.469444, -0.542475, 0.336462, -2.08427, -2.1666, -0.128907, 0.00175856, 0.00456728, 0.0023566, -0.00344378, -0.00581532, 0.000308638
0.0360234, 1.69139, -1.22505, -1.53759, -0.899995, -1.19199, 1.22844, -1.30264, -0.00494498, 0.000805631, -0.00196966, 0.00271771, -0.0107785, 0.00468514, 0.00170833, 0.170357, 56.4874, 26.5601, 5.91064, 1.63898, 3.1528, -0.0951428, 0.00100248, -0.00155477, -0.000348827, -8.49831e-05, -0.00104306, -0.00010918, 0.0111827, 0.00613141, -0.00100513, -0.00279024, 0.0151646, -0.0178446, 0.471024, -0.543349, 0.335915, -2.08382, -2.16586, -0.129856, 0.469448, -0.542477, 0.336461, -2.08429, -2.1666, -0.128903, 0.00190969, 0.00496137, 0.00255964, -0.00384998, -0.00617491, 1.66124e-05
0.0370234, 1.69139, -1.22505, -1.53759, -0.899998, -1.192, 1.22845, -1.30265, -0.00152646, 0.00220824, -0.00327835, 0.00178546, -0.0128096, 0.00326989, -0.00149657, 0.360787, 56.416, 26.6355, 5.91064, 1.63257, 3.15921, -0.0228162, 0.000994242, -0.00155658, -0.00034937, -8.36389e-05, -0.00106458, -0.000109266, 0.0102135, 0.00491529, -0.00123028, -0.00715105, 0.0180817, -0.0121387, 0.471026, -0.543344, 0.335917, -2.08381, -2.16587, -0.129852, 0.469448, -0.54248, 0.336463, -2.0843, -2.16661, -0.128876, 0.0020666, 0.00537076, 0.00277051, -0.0025213, -0.00472431, 0.000118921
0.0380234, 1.69141, -1.22504, -1.53759, -0.899995, -1.19201, 1.22846, -1.30265, 0.00485866, 0.00240072, -0.000573831, 0.00293379, -0.0132595, 0.0024678, -1.58007e-05, 0.400459, 56.3763, 26.5601, 5.83527, 1.60144, 3.15921, -0.0484509, 0.000993221, -0.00154924, -0.000351535, -9.49724e-05, -0.00107744, -0.000115478, 0.00758855, 0.00148919, -0.000562484, -0.00630874, 0.0184585, -0.0075353, 0.471028, -0.543338, 0.33592, -2.08381, -2.16587, -0.129848, 0.469458, -0.542475, 0.336468, -2.0843, -2.16664, -0.128872, 0.00222924, 0.00579533, 0.00298915, 0.000993221, -0.00167077, 0.00130103
0.0390234, 1.69141, -1.22505, -1.53759, -0.899998, -1.19202, 1.22847, -1.30264, 0.00437989, -0.000997575, -0.000496181, -0.000324492, -0.0137, 0.0057021, 0.00123453, 0.6623, 56.4874, 26.5601, 5.79956, 1.57123, 3.18118, -0.0814099, 0.000984996, -0.00154882, -0.000345252, -0.000100116, -0.00108198, -0.000109839, 0.00803111, 0.000591766, -0.00283393, -0.00559081, 0.0176081, -0.00683572, 0.47103, -0.543332, 0.335923, -2.0838, -2.16587, -0.129843, 0.46946, -0.542477, 0.336464, -2.0843, -2.16664, -0.128868, 0.00239756, 0.00623496, 0.00321551, 0.00199162, -0.00128174, -0.000811217
0.0400234, 1.69141, -1.22505, -1.53759, -0.899999, -1.19203, 1.22848, -1.30264, 0.0025932, 0.00017047, -0.000416008, 0.000349381, -0.0149222, 0.00798044, 0.00107865, 1.00349, 56.4517, 26.5601, 5.76385, 1.56482, 3.20956, -0.0878186, 0.000975119, -0.00155221, -0.000347031, -0.000105751, -0.00109975, -0.000100936, 0.00985319, 0.00165811, -0.00189849, -0.0036185, 0.0210985, -0.00981556, 0.471033, -0.543326, 0.335927, -2.0838, -2.16588, -0.129838, 0.46946, -0.54248, 0.336467, -2.08432, -2.16664, -0.12885, 0.00257152, 0.00668953, 0.00344951, 0.00119964, -0.00281363, 9.5886e-05
0.0410234, 1.69143, -1.22505, -1.53758, -0.900002, -1.19204, 1.22849, -1.30265, 0.00914944, 0.000113873, 0.000493964, 0.000958809, -0.0205602, 0.00503763, 0.00369217, 1.15424, 56.4517, 26.5244, 5.72418, 1.55932, 3.23886, -0.0420422, 0.000973784, -0.00154247, -0.000344573, -0.000114413, -0.0011122, -0.00012043, 0.00824257, -0.000680343, -0.00230071, -0.00894272, 0.024616, -0.00834683, 0.471035, -0.543319, 0.33593, -2.08379, -2.16588, -0.129833, 0.469472, -0.542474, 0.336468, -2.08431, -2.16668, -0.128844, 0.00275106, 0.00715892, 0.0036911, 0.00364245, -0.000596521, 0.000119733
0.0420234, 1.69144, -1.22505, -1.53758, -0.899993, -1.19206, 1.22851, -1.30264, 0.00807755, -0.000759133, -0.000553845, 0.00568452, -0.0209008, 0.00787176, 0.00384297, 1.41608, 56.4874, 26.5601, 5.50201, 1.57764, 3.25992, -0.0685925, 0.000963073, -0.00153979, -0.000342109, -0.000125707, -0.0011299, -0.000111021, 0.0112933, 0.000861917, -0.00239994, -0.00542633, 0.0253827, -0.0147092, 0.471038, -0.543312, 0.335934, -2.08379, -2.16589, -0.129827, 0.469478, -0.542477, 0.336468, -2.08432, -2.16669, -0.128832, 0.00293613, 0.00764302, 0.00394021, 0.00239292, -0.00317207, -0.000155997
0.0430234, 1.69145, -1.22505, -1.53758, -0.899996, -1.19207, 1.22852, -1.30264, 0.00958806, -0.000505961, -0.000405183, 0.0023058, -0.0203614, 0.00554761, 0.00286061, 1.72157, 56.4874, 26.5601, 5.42664, 1.57764, 3.27456, -0.0685925, 0.000957732, -0.00153407, -0.000340834, -0.000133844, -0.00114728, -0.000117831, 0.00974281, -0.000194493, -0.00313586, -0.00910912, 0.0247268, -0.0094591, 0.471041, -0.543304, 0.335938, -2.08378, -2.16589, -0.129821, 0.469487, -0.542473, 0.336469, -2.08433, -2.16671, -0.128818, 0.00312667, 0.00814172, 0.00419678, 0.00355644, -0.000986193, -0.000417351
0.0440234, 1.69147, -1.22505, -1.53759, -0.899994, -1.19209, 1.22854, -1.30264, 0.0159365, -0.000337212, -0.00206032, 0.00155554, -0.0159674, 0.00884538, 0.000910346, 1.9477, 56.4874, 26.6355, 5.27588, 1.59595, 3.28097, -0.0356336, 0.000952637, -0.00152432, -0.000335552, -0.000138487, -0.00116593, -0.000127472, 0.00704387, -0.00451906, -0.00396081, -0.00719726, 0.0236506, -0.000345706, 0.471044, -0.543295, 0.335942, -2.08378, -2.16589, -0.129815, 0.4695, -0.542469, 0.336468, -2.08432, -2.16674, -0.128799, 0.00332265, 0.00865489, 0.00446074, 0.00794494, 0.00249559, -0.000679624
0.0450234, 1.69149, -1.22505, -1.53759, -0.899988, -1.19211, 1.22856, -1.30264, 0.021194, 0.000610482, -0.00222899, 0.0024929, -0.0181001, 0.0119484, 0.00223294, 2.28492, 56.4517, 26.6712, 5.05371, 1.63257, 3.26724, -0.0750012, 0.000943709, -0.00151739, -0.000334972, -0.000150666, -0.00119335, -0.000123147, 0.00623152, -0.00732506, -0.00353071, -0.00616131, 0.0283298, 0.00143912, 0.471048, -0.543286, 0.335947, -2.08377, -2.1659, -0.129808, 0.469511, -0.542468, 0.33647, -2.08434, -2.16676, -0.128777, 0.003524, 0.00918243, 0.00473204, 0.0109351, 0.00387391, 5.77409e-05
0.0460234, 1.69152, -1.22505, -1.53759, -0.899983, -1.19213, 1.22858, -1.30264, 0.0230371, 0.000407042, -0.00150116, 0.00220005, -0.0193827, 0.0181264, 0.00113989, 2.58643, 56.4517, 26.6712, 4.86725, 1.66369, 3.27456, -0.0621838, 0.000937594, -0.00150658, -0.000334314, -0.000165022, -0.00121932, -0.000132624, 0.00665998, -0.00932109, -0.00318401, -0.00143456, 0.0326443, 0.00407155, 0.471051, -0.543277, 0.335952, -2.08376, -2.1659, -0.129801, 0.469525, -0.542464, 0.336473, -2.08434, -2.16679, -0.12876, 0.00373068, 0.00972421, 0.00501061, 0.0131632, 0.00402118, 0.000551913
0.0470234, 1.69154, -1.22505, -1.53759, -0.899981, -1.19215, 1.2286, -1.30264, 0.0275067, -0.000563816, -0.00184737, 0.000149342, -0.0201489, 0.0172682, 0.000108434, 2.89191, 56.4874, 26.7069, 4.75616, 1.69391, 3.30295, -0.0420422, 0.000931098, -0.00149537, -0.000328019, -0.000172072, -0.00124104, -0.000145592, 0.00488013, -0.0117746, -0.00467644, -0.00483441, 0.0326059, 0.0104282, 0.471055, -0.543267, 0.335957, -2.08375, -2.16591, -0.129793, 0.46954, -0.542459, 0.33647, -2.08434, -2.16683, -0.12874, 0.00394263, 0.0102801, 0.00529638, 0.0157077, 0.0066645, -0.000433878
0.0480234, 1.69157, -1.22505, -1.53759, -0.89998, -1.19217, 1.22862, -1.30264, 0.0290444, -0.00213909, -0.00124011, -0.00112292, -0.0203218, 0.0168375, 0.0011265, 3.26881, 56.5628, 26.7069, 4.64111, 1.71222, 3.33133, -0.0685925, 0.000924286, -0.00148417, -0.000322743, -0.000182322, -0.00126273, -0.000153619, 0.00443353, -0.0127271, -0.00589082, -0.00598431, 0.0314817, 0.0118167, 0.471059, -0.543256, 0.335962, -2.08375, -2.16592, -0.129785, 0.469556, -0.542454, 0.336469, -2.08434, -2.16686, -0.128722, 0.00415982, 0.0108501, 0.00558931, 0.0168163, 0.00790131, -0.00129957
0.0490234, 1.6916, -1.22506, -1.53759, -0.899971, -1.19219, 1.22865, -1.30264, 0.0324209, -0.00142603, -0.00176116, 0.000352027, -0.0198408, 0.0112042, 0.00080415, 3.57032, 56.5628, 26.7466, 4.41894, 1.71222, 3.37436, -0.0685925, 0.000917431, -0.00147109, -0.000318215, -0.000195352, -0.00128533, -0.000160454, 0.00334553, -0.0129743, -0.00634089, -0.0111306, 0.0294251, 0.0135797, 0.471064, -0.543245, 0.335968, -2.08374, -2.16592, -0.129777, 0.469573, -0.542449, 0.336469, -2.08434, -2.16689, -0.128706, 0.00438218, 0.0114339, 0.00588931, 0.0172302, 0.00963872, -0.00128268
0.0500234, 1.69162, -1.22505, -1.53759, -0.89997, -1.19222, 1.22867, -1.30264, 0.0261381, 0.00164778, 0.000584333, 0.00106921, -0.0161012, 0.0122564, -0.00064474, 3.98292, 56.4517, 26.6712, 4.34357, 1.74884, 3.40365, -0.0356336, 0.000908851, -0.00146176, -0.000320118, -0.000208355, -0.00132249, -0.00017076, 0.00556274, -0.0100159, -0.00340211, -0.00512165, 0.0299584, 0.0100205, 0.471068, -0.543234, 0.335974, -2.08373, -2.16593, -0.129768, 0.469587, -0.542445, 0.336475, -2.08435, -2.16693, -0.128675, 0.00460967, 0.0120315, 0.00619634, 0.0146889, 0.00747399, 0.00167144
0.0510234, 1.69166, -1.22506, -1.53759, -0.899961, -1.19224, 1.22869, -1.30264, 0.0310894, -0.00233514, -0.000449262, 0.00354274, -0.0165527, 0.0131036, -0.000874648, 4.24873, 56.5985, 26.7069, 4.19281, 1.74884, 3.43204, -0.0228162, 0.000900897, -0.00144709, -0.000310611, -0.000223528, -0.00133792, -0.00018736, 0.00551471, -0.0119884, -0.00617329, -0.0056878, 0.0272016, 0.0118739, 0.471073, -0.543221, 0.335981, -2.08372, -2.16594, -0.129759, 0.469606, -0.542439, 0.336471, -2.08434, -2.16697, -0.128668, 0.00484224, 0.0126428, 0.00651033, 0.0167894, 0.00864007, -0.000803064
0.0520234, 1.69169, -1.22506, -1.53759, -0.899951, -1.19226, 1.22872, -1.30264, 0.029783, -0.000721532, -0.00123023, 0.0052731, -0.0224575, 0.0147506, -0.000323317, 4.58991, 56.5628, 26.7466, 4.04602, 1.76807, 3.43204, -0.0292249, 0.000888959, -0.00143611, -0.000308741, -0.000240017, -0.00137438, -0.000187622, 0.00861415, -0.0100856, -0.00527614, -0.00680209, 0.0347522, 0.0055994, 0.471078, -0.543208, 0.335987, -2.08371, -2.16594, -0.129749, 0.469623, -0.542437, 0.336473, -2.08435, -2.16701, -0.12864, 0.00507984, 0.0132677, 0.00683122, 0.0152703, 0.00598901, -1.97647e-05
0.0530234, 1.69172, -1.22506, -1.5376, -0.899946, -1.19229, 1.22875, -1.30264, 0.0330655, -0.00131623, -0.00165739, 0.00405162, -0.0213445, 0.0256694, 0.00102198, 4.89143, 56.5985, 26.7823, 4.00635, 1.76807, 3.42471, -0.0621838, 0.000879167, -0.00142143, -0.000302059, -0.00025231, -0.0014068, -0.000197924, 0.00852578, -0.0139994, -0.00539043, 0.00141635, 0.039325, 0.00820552, 0.471083, -0.543195, 0.335994, -2.0837, -2.16595, -0.129738, 0.469643, -0.542431, 0.336472, -2.08436, -2.16705, -0.128611, 0.00532241, 0.013906, 0.00715894, 0.0194143, 0.00689281, 9.05386e-05
0.0540234, 1.69176, -1.22506, -1.5376, -0.899935, -1.19232, 1.22878, -1.30264, 0.0380149, -0.00264072, -0.00203447, 0.0111764, -0.0247327, 0.0278944, -0.000289414, 5.07789, 56.6739, 26.822, 3.89526, 1.75525, 3.44668, -0.0356336, 0.000869075, -0.00140544, -0.000294464, -0.000268051, -0.00143527, -0.000209826, 0.0102323, -0.0149037, -0.00561435, 0.00367257, 0.0418772, 0.00632044, 0.471088, -0.54318, 0.336002, -2.08369, -2.16596, -0.129728, 0.469664, -0.542425, 0.33647, -2.08436, -2.16709, -0.12859, 0.00556992, 0.0145576, 0.00749345, 0.0206181, 0.00593139, -8.82173e-05
0.0550234, 1.6918, -1.22506, -1.53759, -0.899927, -1.19235, 1.22881, -1.30263, 0.0383478, 0.00083798, 0.00133381, 0.00950802, -0.0286859, 0.0337694, 0.00103722, 5.26832, 56.5628, 26.7069, 3.81988, 1.77356, 3.47507, -0.0685925, 0.000861295, -0.00138765, -0.000299156, -0.000297583, -0.00148067, -0.000221942, 0.0106458, -0.0163509, -0.00235152, 0.00903751, 0.0518858, 0.00645591, 0.471094, -0.543166, 0.336009, -2.08368, -2.16597, -0.129716, 0.469688, -0.542418, 0.33648, -2.08437, -2.16715, -0.128567, 0.00582231, 0.0152225, 0.00783467, 0.0224489, 0.00574559, 0.00336687
0.0560234, 1.69184, -1.22506, -1.53759, -0.899914, -1.19238, 1.22885, -1.30264, 0.0383199, -0.000276562, 0.000888351, 0.00832229, -0.0314532, 0.0342246, -0.000759488, 5.45875, 56.5985, 26.7069, 3.74451, 1.79187, 3.49612, -0.0292249, 0.000847411, -0.00137368, -0.000294026, -0.000316377, -0.00151819, -0.000231594, 0.0118148, -0.0160399, -0.00353423, 0.00680478, 0.0538708, 0.00756264, 0.4711, -0.54315, 0.336017, -2.08367, -2.16597, -0.129705, 0.469708, -0.542415, 0.336481, -2.08438, -2.1672, -0.128539, 0.00607953, 0.0159004, 0.00818254, 0.0223947, 0.00543881, 0.00237487
0.0570234, 1.69188, -1.22506, -1.5376, -0.8999, -1.19241, 1.22888, -1.30264, 0.0398717, -0.00194761, -0.00209966, 0.0114613, -0.0319923, 0.0343232, -0.000975722, 5.56983, 56.6739, 26.822, 3.63342, 1.76807, 3.5181, -0.0164075, 0.000832765, -0.00135947, -0.000284514, -0.000330447, -0.00154992, -0.000237579, 0.0136838, -0.0153932, -0.00546418, 0.00484063, 0.0531396, 0.00438653, 0.471106, -0.543134, 0.336026, -2.08366, -2.16598, -0.129692, 0.469729, -0.542411, 0.336477, -2.08438, -2.16724, -0.128511, 0.00634154, 0.0165914, 0.00853701, 0.0220081, 0.00455512, 0.000553186
0.0580234, 1.69192, -1.22506, -1.5376, -0.899891, -1.19245, 1.22891, -1.30264, 0.0387338, -0.00129841, -0.000472237, 0.0120664, -0.0333174, 0.0346174, 0.000540304, 5.64521, 56.6739, 26.7823, 3.59772, 1.76807, 3.53915, -0.0484509, 0.000819667, -0.00134358, -0.000282228, -0.000354628, -0.00159286, -0.000244888, 0.0150001, -0.0145135, -0.00459339, 0.00611377, 0.0553124, 0.000948493, 0.471113, -0.543117, 0.336034, -2.08364, -2.16599, -0.129679, 0.469752, -0.542406, 0.336481, -2.0844, -2.16729, -0.128482, 0.00660828, 0.0172953, 0.00889802, 0.0214752, 0.00378949, 0.00159638
0.0590234, 1.69196, -1.22506, -1.53759, -0.899874, -1.19249, 1.22895, -1.30263, 0.0408521, -0.000865602, 0.00228327, 0.0143663, -0.0343727, 0.0360896, 0.00134654, 5.72059, 56.6739, 26.6712, 3.48663, 1.76807, 3.52542, -0.0750012, 0.000803421, -0.00132837, -0.000281645, -0.000387526, -0.0016383, -0.000243606, 0.0152398, -0.0155244, -0.00328647, 0.00980232, 0.0575144, 0.000580879, 0.471119, -0.543099, 0.336043, -2.08363, -2.166, -0.129666, 0.469774, -0.542404, 0.336486, -2.08443, -2.16733, -0.128459, 0.00687971, 0.0180119, 0.00926549, 0.0228122, 0.00411014, 0.00318653
0.0600234, 1.692, -1.22507, -1.53759, -0.899868, -1.19253, 1.22899, -1.30264, 0.0439789, -0.00141229, 0.000686692, 0.0125806, -0.0359441, 0.0367912, -0.0012702, 5.72059, 56.7096, 26.7069, 3.52234, 1.78638, 3.5181, -0.0164075, 0.000788521, -0.00131099, -0.000275262, -0.000407896, -0.00168437, -0.000260914, 0.0148578, -0.0170644, -0.00479, 0.00658808, 0.0594656, 0.00594421, 0.471126, -0.543081, 0.336053, -2.08362, -2.16601, -0.129652, 0.469799, -0.542399, 0.336487, -2.08443, -2.1674, -0.128423, 0.00715578, 0.0187412, 0.00963939, 0.0245582, 0.0055113, 0.00208839
0.0610234, 1.69204, -1.22506, -1.53759, -0.899856, -1.19257, 1.22902, -1.30263, 0.0410137, 0.00165693, -0.000470428, 0.0131262, -0.0367654, 0.0364638, -0.00013304, 5.79597, 56.5985, 26.7466, 3.48663, 1.79828, 3.53274, -0.0356336, 0.000768917, -0.00130094, -0.000273564, -0.00042724, -0.00173452, -0.000256742, 0.0171939, -0.0145682, -0.00346567, 0.00556219, 0.063487, -0.000112517, 0.471134, -0.543062, 0.336063, -2.0836, -2.16602, -0.129638, 0.469817, -0.542398, 0.336491, -2.08446, -2.16744, -0.128378, 0.00743644, 0.0194831, 0.0100196, 0.022478, 0.0036407, 0.00348943
0.0620234, 1.69208, -1.22506, -1.53759, -0.899847, -1.19261, 1.22906, -1.30263, 0.0416298, 0.000269405, 0.000614249, 0.0118493, -0.0372798, 0.0420005, 0.00211662, 5.76026, 56.6342, 26.7069, 3.52234, 1.81018, 3.5181, -0.0951428, 0.000750898, -0.00128481, -0.000268735, -0.000452712, -0.00178491, -0.000257724, 0.0179181, -0.0160651, -0.00389227, 0.00994002, 0.0658465, -0.000896356, 0.471141, -0.543042, 0.336073, -2.08359, -2.16603, -0.129623, 0.469841, -0.542395, 0.336494, -2.08448, -2.16749, -0.128341, 0.00772164, 0.0202374, 0.0104062, 0.0242689, 0.00380738, 0.00329702
0.0630234, 1.69211, -1.22506, -1.53759, -0.899834, -1.19266, 1.2291, -1.30263, 0.0409502, 0.000179604, 0.000409386, 0.0127243, -0.0425178, 0.0406994, 0.000428681, 5.76026, 56.6342, 26.7069, 3.48663, 1.823, 3.52542, -0.0685925, 0.000727438, -0.00127487, -0.000264058, -0.000476509, -0.00183572, -0.000256557, 0.0202394, -0.0143175, -0.00425338, 0.00637131, 0.0698511, -0.00314921, 0.471149, -0.543021, 0.336083, -2.08357, -2.16604, -0.129607, 0.469859, -0.542396, 0.336496, -2.0845, -2.16754, -0.1283, 0.00801134, 0.0210041, 0.0107989, 0.0228837, 0.00226619, 0.00302603
0.0640234, 1.69215, -1.22506, -1.5376, -0.899825, -1.19271, 1.22914, -1.30263, 0.0389216, 0.000954954, -0.000655182, 0.0139876, -0.0458216, 0.0440262, -0.00117156, 5.68488, 56.5985, 26.7466, 3.55804, 1.823, 3.54648, -0.0292249, 0.000706081, -0.00126206, -0.000259659, -0.000494358, -0.00189345, -0.000262512, 0.0234822, -0.0126187, -0.00388256, 0.00743467, 0.075411, -0.00694769, 0.471157, -0.543, 0.336094, -2.08356, -2.16606, -0.129591, 0.469881, -0.542395, 0.336499, -2.08452, -2.16759, -0.128245, 0.00830549, 0.021783, 0.0111979, 0.0216117, -0.000283135, 0.0033396
0.0650234, 1.69219, -1.22506, -1.5376, -0.899816, -1.19275, 1.22918, -1.30263, 0.0395969, 0.00239987, -0.000436852, 0.0127051, -0.0482447, 0.0469588, 0.000914911, 5.64521, 56.5231, 26.7466, 3.59772, 1.81659, 3.5538, -0.0750012, 0.000682735, -0.00125065, -0.00025645, -0.000518563, -0.00195142, -0.000256904, 0.0242341, -0.013241, -0.00319878, 0.00811388, 0.080952, -0.00864246, 0.471166, -0.542978, 0.336106, -2.08354, -2.16607, -0.129574, 0.469901, -0.542394, 0.336503, -2.08455, -2.16764, -0.128196, 0.00860403, 0.0225739, 0.011603, 0.0225838, -0.00031388, 0.00428437
0.0660234, 1.69223, -1.22505, -1.53759, -0.899809, -1.1928, 1.22922, -1.30263, 0.0408401, 0.00327035, 0.000636737, 0.0109533, -0.0536677, 0.0437403, 0.000847699, 5.56983, 56.4517, 26.7069, 3.6731, 1.78638, 3.58218, -0.0814099, 0.000660604, -0.00123816, -0.000254057, -0.000542877, -0.00200945, -0.00025628, 0.0244388, -0.0129802, -0.00319059, 0.00243205, 0.085348, -0.0078113, 0.471175, -0.542955, 0.336118, -2.08352, -2.16608, -0.129557, 0.469923, -0.542392, 0.336509, -2.08458, -2.16769, -0.128147, 0.00890693, 0.0233769, 0.0120141, 0.0226342, 0.000275255, 0.00467974
0.0670234, 1.69227, -1.22504, -1.53759, -0.899799, -1.19285, 1.22926, -1.30263, 0.0409781, 0.00654193, 0.00125967, 0.0107543, -0.0540342, 0.0471343, -0.000655271, 5.38337, 56.2653, 26.6712, 3.7088, 1.77356, 3.57577, -0.0484509, 0.000639488, -0.00122455, -0.000258631, -0.000571986, -0.00207787, -0.000266253, 0.0251568, -0.0134028, -0.00108, 0.00556159, 0.0911315, -0.00656037, 0.471184, -0.542931, 0.33613, -2.0835, -2.16609, -0.129539, 0.469947, -0.54239, 0.336522, -2.0846, -2.16777, -0.128093, 0.00921413, 0.0241918, 0.0124312, 0.0234663, 7.4254e-05, 0.00705675
0.0680234, 1.6923, -1.22503, -1.53759, -0.899794, -1.1929, 1.22931, -1.30263, 0.0391341, 0.0051965, 4.53723e-06, 0.00967202, -0.0549848, 0.0487681, 7.20038e-05, 5.26832, 56.2296, 26.7069, 3.78418, 1.77997, 3.58951, -0.0621838, 0.000613497, -0.00121355, -0.0002548, -0.000594091, -0.00214246, -0.00026131, 0.0272737, -0.012274, -0.00252454, 0.00474422, 0.0920715, -0.00975529, 0.471193, -0.542906, 0.336143, -2.08349, -2.16611, -0.12952, 0.469968, -0.54239, 0.336526, -2.08463, -2.16782, -0.128033, 0.0095256, 0.0250185, 0.0128543, 0.0226745, -0.00101312, 0.00575936
0.0690234, 1.69234, -1.22503, -1.53759, -0.899784, -1.19295, 1.22935, -1.30262, 0.0376521, 0.00346434, 0.00167344, 0.0106436, -0.0546262, 0.0459596, 0.000997607, 5.15327, 56.2296, 26.6355, 3.78418, 1.76166, 3.59683, -0.0878186, 0.000586527, -0.0012033, -0.000248788, -0.000620061, -0.00219602, -0.000255566, 0.0285574, -0.0107396, -0.00329102, 0.00411436, 0.0890044, -0.0127481, 0.471203, -0.542881, 0.336156, -2.08347, -2.16612, -0.129501, 0.469989, -0.54239, 0.336529, -2.08466, -2.16787, -0.127987, 0.00984127, 0.0258569, 0.0132832, 0.0214765, -0.00138724, 0.00527897
0.0700234, 1.69238, -1.22503, -1.53759, -0.899778, -1.19301, 1.22939, -1.30263, 0.0438333, 0.00397999, 0.00111561, 0.0095119, -0.0596992, 0.0433489, -0.0017423, 5.00251, 56.1581, 26.6355, 3.85956, 1.75525, 3.61148, -0.0228162, 0.000560051, -0.00119193, -0.0002448, -0.00064193, -0.00226005, -0.000259924, 0.0271689, -0.0129635, -0.00420579, -0.00281837, 0.0932932, -0.00560867, 0.471213, -0.542854, 0.336169, -2.08345, -2.16613, -0.129481, 0.470011, -0.542388, 0.336534, -2.08468, -2.16793, -0.127927, 0.0101611, 0.0267069, 0.013718, 0.0239344, 0.00106602, 0.00495831
0.0710234, 1.69241, -1.22503, -1.53759, -0.899773, -1.19306, 1.22944, -1.30262, 0.0392478, 0.00265333, -0.000926706, 0.00877804, -0.063593, 0.0431863, -0.000212003, 4.9668, 56.1581, 26.7069, 3.93494, 1.75525, 3.58218, -0.0484509, 0.000528955, -0.00118288, -0.000235314, -0.000662075, -0.00232134, -0.000250193, 0.031203, -0.00940708, -0.00589597, -0.00667888, 0.095736, -0.0140149, 0.471223, -0.542827, 0.336183, -2.08343, -2.16615, -0.129461, 0.470031, -0.54239, 0.336533, -2.08471, -2.16798, -0.127866, 0.0104851, 0.0275683, 0.0141585, 0.020791, -0.00194191, 0.00321234
0.0720234, 1.69246, -1.22502, -1.53759, -0.899765, -1.19311, 1.22948, -1.30262, 0.0409524, 0.00529536, 0.00105262, 0.00994643, -0.0614682, 0.0458981, 0.000367362, 4.85175, 56.0074, 26.6355, 3.93494, 1.74335, 3.59683, -0.0621838, 0.00050236, -0.00117095, -0.000236172, -0.000690902, -0.00239076, -0.000250319, 0.0309041, -0.0107856, -0.00364829, -0.00146045, 0.0983905, -0.0130424, 0.471234, -0.542799, 0.336197, -2.08341, -2.16616, -0.12944, 0.470055, -0.542388, 0.336544, -2.08474, -2.16805, -0.127807, 0.0108131, 0.0284411, 0.0146048, 0.0225672, -0.00106255, 0.00588259
0.0730234, 1.6925, -1.22502, -1.53759, -0.899758, -1.19317, 1.22952, -1.30263, 0.0431696, 0.00436546, 0.000701742, 0.0099425, -0.060522, 0.0446637, -0.000738383, 4.701, 55.9717, 26.6355, 3.97064, 1.74884, 3.56845, -0.0356336, 0.00047537, -0.00115633, -0.000229468, -0.000712807, -0.00245572, -0.000261739, 0.030694, -0.0115122, -0.00486666, -0.00319999, 0.09678, -0.0103202, 0.471245, -0.54277, 0.336212, -2.08339, -2.16618, -0.129418, 0.470081, -0.542384, 0.336548, -2.08476, -2.16812, -0.127744, 0.0111452, 0.0293251, 0.0150567, 0.0235734, 0.00024641, 0.00514197
0.0740234, 1.69254, -1.22501, -1.53759, -0.899754, -1.19323, 1.22956, -1.30262, 0.0428068, 0.00291031, 0.000467823, 0.0100474, -0.0594241, 0.0383963, -0.000492215, 4.62562, 55.9717, 26.6355, 4.00635, 1.74884, 3.56112, -0.0356336, 0.000445822, -0.00114484, -0.000222228, -0.000736474, -0.00251722, -0.000260912, 0.0311484, -0.00988962, -0.00665053, -0.00873947, 0.091946, -0.0114907, 0.471256, -0.542741, 0.336228, -2.08336, -2.16619, -0.129396, 0.470105, -0.542382, 0.336551, -2.08478, -2.16818, -0.127686, 0.0114812, 0.0302203, 0.0155142, 0.0222409, 0.000900338, 0.00381692
0.0750234, 1.69259, -1.22501, -1.53758, -0.899747, -1.19328, 1.2296, -1.30262, 0.0415137, 0.00361064, 0.0012399, 0.00858489, -0.0536512, 0.0379026, 0.00160467, 4.58991, 55.9003, 26.5958, 3.97064, 1.73694, 3.56845, -0.0878186, 0.000416361, -0.00113394, -0.000217564, -0.000760109, -0.00258046, -0.000255425, 0.0308202, -0.0098099, -0.00647602, -0.00662763, 0.0883365, -0.0120469, 0.471268, -0.54271, 0.336243, -2.08334, -2.16621, -0.129373, 0.470128, -0.542379, 0.336557, -2.08481, -2.16823, -0.127624, 0.0118212, 0.0311266, 0.0159772, 0.0224961, 0.00210063, 0.00450565
0.0760234, 1.69263, -1.22501, -1.53758, -0.899748, -1.19334, 1.22964, -1.30262, 0.0448612, 0.00240709, 0.00166181, 0.00789549, -0.0544078, 0.0384432, 0.00481549, 4.51453, 55.9003, 26.5601, 4.04602, 1.73694, 3.5538, -0.0621838, 0.000390558, -0.0011175, -0.000208563, -0.00078065, -0.00264129, -0.00026941, 0.0303251, -0.0115848, -0.0075902, -0.00747008, 0.0887898, -0.0121446, 0.47128, -0.542678, 0.33626, -2.08332, -2.16623, -0.129349, 0.470157, -0.542371, 0.33656, -2.08481, -2.16831, -0.127563, 0.012165, 0.0320437, 0.0164457, 0.0245545, 0.00375139, 0.00389679
0.0770234, 1.69268, -1.22501, -1.53758, -0.899745, -1.19339, 1.22968, -1.30262, 0.0467459, 0.00160473, 0.00110787, 0.00611732, -0.0552682, 0.0380688, 0.00214354, 4.47486, 55.9003, 26.5601, 4.04602, 1.74335, 3.56112, -0.0228162, 0.000363485, -0.00110186, -0.000198045, -0.000798749, -0.00269851, -0.000287217, 0.0302596, -0.0124209, -0.00897364, -0.0102803, 0.0894011, -0.00737186, 0.471292, -0.542646, 0.336276, -2.08329, -2.16625, -0.129324, 0.470186, -0.542363, 0.336562, -2.08481, -2.16838, -0.127502, 0.0125127, 0.0329717, 0.0169196, 0.0256847, 0.00499149, 0.0029894
0.0780234, 1.69274, -1.225, -1.53757, -0.899741, -1.19344, 1.22972, -1.30262, 0.0479625, 0.00366828, 0.000738581, 0.00564648, -0.0549558, 0.0378801, 0.00267192, 4.43916, 55.7892, 26.5601, 4.00635, 1.72504, 3.56112, -0.0484509, 0.000336757, -0.00108633, -0.000192506, -0.000822253, -0.00276032, -0.000293611, 0.0303639, -0.0127311, -0.00837924, -0.0112561, 0.0918572, -0.00717895, 0.471305, -0.542612, 0.336293, -2.08327, -2.16626, -0.129299, 0.470215, -0.542355, 0.336569, -2.08482, -2.16845, -0.127441, 0.0128642, 0.0339105, 0.0173989, 0.0263719, 0.00574886, 0.00403003
0.0790234, 1.69278, -1.225, -1.53758, -0.899738, -1.1935, 1.22975, -1.30262, 0.0473016, 0.00394429, -0.000342832, 0.00591494, -0.0553723, 0.032802, 0.00345944, 4.47486, 55.8606, 26.5958, 3.93494, 1.73053, 3.56845, -0.0878186, 0.00030612, -0.00107335, -0.000177233, -0.000835295, -0.00281192, -0.000298979, 0.0314907, -0.0107505, -0.00932222, -0.0169581, 0.0906441, -0.0103165, 0.471318, -0.542578, 0.336311, -2.08324, -2.16628, -0.129273, 0.470241, -0.542348, 0.336566, -2.08482, -2.16851, -0.127378, 0.0132194, 0.0348598, 0.0178835, 0.024756, 0.00564891, 0.00346919
0.0800234, 1.69284, -1.22499, -1.53757, -0.899736, -1.19355, 1.22979, -1.30262, 0.0502343, 0.0063273, 0.00292328, 0.00523145, -0.0546125, 0.0339005, 0.000538582, 4.51453, 55.7138, 26.5958, 3.89526, 1.70032, 3.56845, -0.0356336, 0.000280629, -0.00105585, -0.000173159, -0.000858002, -0.00287714, -0.000319248, 0.030046, -0.0129803, -0.0072649, -0.0137791, 0.0935361, -0.00291476, 0.471331, -0.542543, 0.336329, -2.08322, -2.1663, -0.129247, 0.470273, -0.542336, 0.336576, -2.08482, -2.1686, -0.127313, 0.0135784, 0.0358197, 0.0183733, 0.027365, 0.00781141, 0.00614656
0.0810234, 1.6929, -1.22499, -1.53757, -0.899735, -1.19361, 1.22983, -1.30262, 0.053266, 0.00265304, 0.00128348, 0.00459296, -0.0555602, 0.0401359, 0.000957575, 4.51453, 55.7892, 26.6355, 3.85956, 1.71222, 3.5538, -0.0484509, 0.000253839, -0.00103595, -0.000158424, -0.000870418, -0.0029358, -0.000337447, 0.0310573, -0.0152503, -0.0100527, -0.0117197, 0.0946566, -0.00162572, 0.471345, -0.542506, 0.336348, -2.08319, -2.16632, -0.12922, 0.470307, -0.542323, 0.336575, -2.08481, -2.16867, -0.127242, 0.013941, 0.03679, 0.0188684, 0.0299299, 0.00830612, 0.00366289
0.0820234, 1.69296, -1.22499, -1.53757, -0.89974, -1.19367, 1.22986, -1.30261, 0.0568206, 0.00191725, 0.00105264, 0.00326455, -0.0560224, 0.0343447, 0.00246056, 4.58991, 55.7892, 26.6355, 3.85956, 1.71863, 3.56845, -0.0951428, 0.000229481, -0.00101662, -0.000145141, -0.000880093, -0.00299003, -0.000354549, 0.0297228, -0.0160125, -0.0118056, -0.0188198, 0.0923532, 0.00046875, 0.471359, -0.542469, 0.336367, -2.08316, -2.16634, -0.129192, 0.470341, -0.542307, 0.336577, -2.0848, -2.16875, -0.127171, 0.0143072, 0.0377706, 0.0193685, 0.0309452, 0.0109055, 0.00261569
0.0830234, 1.69303, -1.22499, -1.53757, -0.899734, -1.19373, 1.22989, -1.30262, 0.060853, 0.000554366, 0.000849505, 0.00191026, -0.0568118, 0.0309954, -0.000731391, 4.62562, 55.8249, 26.6355, 3.74451, 1.73694, 3.5538, -0.0292249, 0.000202228, -0.000996172, -0.000132698, -0.000897789, -0.00304724, -0.000381034, 0.0285509, -0.0174708, -0.0137333, -0.0240749, 0.0909236, 0.00766207, 0.471373, -0.542431, 0.336386, -2.08313, -2.16636, -0.129163, 0.470376, -0.542293, 0.336579, -2.08478, -2.16883, -0.127107, 0.014677, 0.0387614, 0.0198738, 0.0326588, 0.0134102, 0.00135458
0.0840234, 1.69309, -1.22499, -1.53756, -0.899734, -1.19378, 1.22992, -1.30262, 0.0586844, 0.00128836, -0.000158075, 0.00196357, -0.0570599, 0.0277329, -0.000672724, 4.74067, 55.7892, 26.6712, 3.7088, 1.74884, 3.56112, -0.0228162, 0.000176752, -0.000975853, -0.000121639, -0.000908795, -0.00310772, -0.000406375, 0.0304337, -0.0150281, -0.0141896, -0.0279073, 0.0909296, 0.00399824, 0.471388, -0.542392, 0.336407, -2.0831, -2.16638, -0.129134, 0.470412, -0.542276, 0.336584, -2.08476, -2.16892, -0.127031, 0.0150503, 0.0397623, 0.0203841, 0.0306446, 0.0125213, 0.00119705
0.0850234, 1.69316, -1.22499, -1.53756, -0.89974, -1.19384, 1.22994, -1.30261, 0.0606371, 8.63601e-05, -0.000857497, 0.000364958, -0.0584763, 0.0301432, 0.00226945, 4.85175, 55.8249, 26.7069, 3.74451, 1.79828, 3.56112, -0.0951428, 0.000151623, -0.000955232, -0.000106552, -0.00091454, -0.00316285, -0.000427447, 0.0309447, -0.0162591, -0.0156206, -0.0286613, 0.0930234, 0.00275625, 0.471403, -0.542351, 0.336427, -2.08308, -2.1664, -0.129103, 0.470448, -0.542258, 0.336585, -2.08474, -2.169, -0.126953, 0.0154271, 0.0407732, 0.0208993, 0.0322174, 0.0132989, 0.000182445
0.0860234, 1.69323, -1.22498, -1.53756, -0.899735, -1.1939, 1.22997, -1.30261, 0.0661761, 0.000939796, -0.00143736, 0.00276011, -0.0629799, 0.0316393, 0.000321646, 4.92713, 55.7892, 26.7466, 3.63342, 1.81018, 3.56845, -0.0621838, 0.000125658, -0.000933645, -9.44651e-05, -0.000924985, -0.00322119, -0.000456901, 0.0313502, -0.0180737, -0.0155179, -0.0300336, 0.0989966, 0.00542795, 0.471419, -0.54231, 0.336448, -2.08304, -2.16642, -0.129072, 0.470486, -0.542239, 0.33659, -2.08471, -2.16909, -0.126878, 0.0158074, 0.041794, 0.0214195, 0.0344287, 0.0139793, 0.000685673
0.0870234, 1.6933, -1.22498, -1.53756, -0.899734, -1.19396, 1.22999, -1.30261, 0.0661078, 0.00216681, 0.000622249, 0.00261405, -0.0622361, 0.0284719, -0.000509521, 5.04218, 55.8606, 26.822, 3.59772, 1.84131, 3.56845, -0.0420422, 9.86039e-05, -0.000913444, -7.65019e-05, -0.00092913, -0.00326941, -0.000482326, 0.0313964, -0.0175003, -0.0147378, -0.0310277, 0.0986282, 0.00667917, 0.471435, -0.542268, 0.33647, -2.08301, -2.16645, -0.129041, 0.470522, -0.54222, 0.336589, -2.08468, -2.16917, -0.126804, 0.016191, 0.0428246, 0.0219445, 0.0342703, 0.0148209, 0.00199131
0.0880234, 1.69338, -1.22498, -1.53755, -0.899736, -1.19402, 1.23002, -1.3026, 0.0680503, 0.00489114, 0.00390387, 0.00169677, -0.0615966, 0.0257729, 0.00164353, 5.07789, 55.8606, 26.822, 3.59772, 1.86603, 3.57577, -0.0951428, 7.63294e-05, -0.000887373, -6.09374e-05, -0.000935495, -0.00332211, -0.00051482, 0.0299997, -0.018484, -0.012819, -0.0311408, 0.100122, 0.00812724, 0.471451, -0.542224, 0.336492, -2.08298, -2.16647, -0.129008, 0.470565, -0.542195, 0.336591, -2.08465, -2.16926, -0.126729, 0.016578, 0.0438649, 0.0224743, 0.0356596, 0.0169866, 0.00460211
0.0890234, 1.69345, -1.22498, -1.53756, -0.899729, -1.19408, 1.23004, -1.30261, 0.0659027, 0.00374202, 0.000501415, 0.00369519, -0.0618546, 0.0196338, 0.00505538, 5.26832, 55.8606, 26.933, 3.48663, 1.91546, 3.56845, -0.0750012, 4.30238e-05, -0.00087167, -4.52462e-05, -0.000943778, -0.00337657, -0.000531553, 0.0328868, -0.0146876, -0.015234, -0.0388229, 0.0968542, -0.00173609, 0.471468, -0.54218, 0.336515, -2.08295, -2.16649, -0.128975, 0.470598, -0.542181, 0.336593, -2.08463, -2.16933, -0.126651, 0.0169683, 0.0449148, 0.0230089, 0.0322756, 0.0153994, 0.00242094
0.0900234, 1.69354, -1.22499, -1.53755, -0.899732, -1.19414, 1.23006, -1.30261, 0.0719981, 0.00259616, 0.0030375, 0.00160241, -0.0609751, 0.0144534, 0.00207523, 5.26832, 56.0074, 26.9687, 3.52234, 1.93378, 3.57577, -0.0292249, 2.08873e-05, -0.000843915, -2.14879e-05, -0.000940609, -0.0034175, -0.000577374, 0.0295356, -0.0177711, -0.016461, -0.04317, 0.0933625, 0.00974695, 0.471485, -0.542135, 0.336538, -2.08291, -2.16652, -0.128941, 0.470643, -0.542152, 0.336589, -2.08456, -2.16943, -0.126577, 0.0173618, 0.0459742, 0.0235482, 0.0355817, 0.0200844, 0.00217324
0.0910234, 1.69361, -1.22498, -1.53755, -0.899727, -1.1942, 1.23007, -1.3026, 0.0706442, 0.00310122, 0.00492191, 0.00188411, -0.0553007, 0.0103536, 0.00239587, 5.38337, 55.9717, 27.0084, 3.48663, 1.94568, 3.58951, -0.0484509, -7.06298e-06, -0.00082363, -8.96335e-06, -0.000947682, -0.00347227, -0.000602308, 0.0293537, -0.0167327, -0.0161395, -0.0425057, 0.0877335, 0.00975238, 0.471503, -0.542088, 0.336562, -2.08288, -2.16654, -0.128906, 0.470681, -0.542131, 0.336595, -2.08454, -2.16951, -0.126497, 0.0177586, 0.047043, 0.0240921, 0.0349469, 0.0212404, 0.00309462
0.0920234, 1.6937, -1.22498, -1.53754, -0.899724, -1.19426, 1.23009, -1.3026, 0.0735413, 0.00070566, 0.00700342, 0.00300478, -0.0565845, 0.0175937, 0.00328053, 5.45875, 56.0471, 27.0084, 3.41125, 1.9823, 3.58218, -0.0878186, -3.36991e-05, -0.000799259, 9.99741e-06, -0.000950737, -0.00352027, -0.000632996, 0.0303283, -0.0192673, -0.0165544, -0.0355476, 0.0905654, 0.0104769, 0.471521, -0.542041, 0.336586, -2.08285, -2.16657, -0.128871, 0.470724, -0.542106, 0.336596, -2.08449, -2.1696, -0.126419, 0.0181585, 0.048121, 0.0246406, 0.0378988, 0.0215262, 0.00300463
0.0930234, 1.69378, -1.22498, -1.53755, -0.899721, -1.19431, 1.23011, -1.3026, 0.0786684, 0.00133852, 0.00517247, 0.00292031, -0.0614329, 0.0183706, 0.000423162, 5.53413, 56.1581, 27.1552, 3.37158, 1.98871, 3.56845, -0.0356336, -6.11756e-05, -0.000775667, 3.13541e-05, -0.000950336, -0.00356455, -0.000673385, 0.0305258, -0.0209946, -0.0174334, -0.0399558, 0.09658, 0.0150573, 0.471539, -0.541992, 0.336611, -2.08281, -2.16659, -0.128834, 0.470766, -0.54208, 0.336595, -2.08444, -2.16969, -0.126342, 0.0185616, 0.0492083, 0.0251936, 0.0400021, 0.0226259, 0.00260588
0.0940234, 1.69387, -1.22497, -1.53754, -0.899724, -1.19437, 1.23012, -1.3026, 0.0806623, 0.0053654, 0.00252267, 0.00101068, -0.0613913, 0.0142884, 0.00510763, 5.56983, 56.1185, 27.2306, 3.41125, 2.02533, 3.5538, -0.0356336, -8.65179e-05, -0.000751405, 4.624e-05, -0.00094861, -0.00362114, -0.00071351, 0.0299595, -0.0208235, -0.0171332, -0.0471179, 0.0996926, 0.0117734, 0.471558, -0.541942, 0.336637, -2.08277, -2.16662, -0.128797, 0.470809, -0.542052, 0.336601, -2.08439, -2.16979, -0.126249, 0.0189677, 0.0503046, 0.0257511, 0.0402281, 0.0242286, 0.00355265
0.0950234, 1.69395, -1.22497, -1.53753, -0.899727, -1.19444, 1.23013, -1.3026, 0.0779565, 0.00160029, 0.00541798, -0.000167563, -0.0612531, 0.0156384, 0.00534973, 5.64521, 56.2296, 27.2306, 3.44696, 2.06195, 3.54648, -0.0750012, -0.000115517, -0.000729564, 6.66232e-05, -0.000946713, -0.0036685, -0.000745551, 0.0318426, -0.0199698, -0.0186219, -0.0442666, 0.0970839, 0.0104831, 0.471577, -0.541891, 0.336663, -2.08274, -2.16665, -0.128759, 0.47085, -0.542026, 0.336602, -2.08434, -2.16988, -0.126165, 0.0193769, 0.05141, 0.0263131, 0.0397992, 0.023668, 0.0023791
0.0960234, 1.69404, -1.22497, -1.53753, -0.899727, -1.19449, 1.23014, -1.3026, 0.0818428, 0.00383508, 0.0055534, -0.000116307, -0.0607588, 0.0161917, 0.00271073, 5.6095, 56.2653, 27.306, 3.44696, 2.08667, 3.5538, -0.0420422, -0.000142214, -0.000705377, 8.5443e-05, -0.00094214, -0.00371712, -0.000786127, 0.0310149, -0.0218348, -0.0178108, -0.0442821, 0.100046, 0.0161892, 0.471597, -0.541839, 0.33669, -2.0827, -2.16667, -0.128721, 0.470894, -0.541996, 0.336605, -2.08428, -2.16998, -0.126075, 0.0197891, 0.0525242, 0.0268794, 0.0420738, 0.0255534, 0.00381701
0.0970234, 1.69413, -1.22497, -1.53752, -0.899724, -1.19456, 1.23014, -1.3026, 0.0803389, 0.00106467, 0.00754, 0.000754231, -0.0601483, 0.0113079, 0.00160614, 5.6095, 56.4874, 27.306, 3.41125, 2.11139, 3.57577, -0.0292249, -0.0001713, -0.000682327, 0.000110691, -0.000937969, -0.00375173, -0.00082553, 0.0323451, -0.0199257, -0.0193745, -0.046562, 0.094886, 0.0153207, 0.471617, -0.541786, 0.336717, -2.08266, -2.1667, -0.128681, 0.470938, -0.541967, 0.336602, -2.08421, -2.17007, -0.126, 0.0202043, 0.0536472, 0.02745, 0.040574, 0.0255236, 0.00269617
0.0980234, 1.69422, -1.22496, -1.53752, -0.899727, -1.19462, 1.23015, -1.3026, 0.0833734, 0.00458772, 0.00644881, -0.000334983, -0.0600906, 0.00907659, 0.00297146, 5.56983, 56.4874, 27.417, 3.44696, 2.14252, 3.56112, -0.0750012, -0.000198775, -0.000658427, 0.000127233, -0.000932154, -0.00380682, -0.000861859, 0.031507, -0.020764, -0.0186068, -0.0505736, 0.0982791, 0.0164044, 0.471637, -0.541732, 0.336744, -2.08262, -2.16673, -0.128641, 0.470982, -0.541936, 0.336608, -2.08416, -2.17016, -0.125901, 0.0206224, 0.0547789, 0.0280249, 0.0418272, 0.0274005, 0.00413293
0.0990234, 1.6943, -1.22496, -1.53751, -0.899721, -1.19468, 1.23016, -1.30259, 0.0813651, 0.00371461, 0.00436579, 0.00153798, -0.0596653, 0.00652638, 0.00288092, 5.56983, 56.6342, 27.4528, 3.37158, 2.16083, 3.56845, -0.0951428, -0.000230808, -0.000637971, 0.000148283, -0.000932211, -0.00384661, -0.000893293, 0.0343246, -0.0179992, -0.0201318, -0.0537599, 0.0964885, 0.0110849, 0.471658, -0.541677, 0.336773, -2.08258, -2.16676, -0.128599, 0.471024, -0.541909, 0.33661, -2.08411, -2.17025, -0.125823, 0.0210433, 0.0559192, 0.028604, 0.0395347, 0.0258775, 0.00285506
0.100023, 1.69439, -1.22495, -1.53751, -0.899721, -1.19474, 1.23016, -1.3026, 0.0846891, 0.00652144, 0.00416891, 0.00102386, -0.0545425, 0.00518212, -0.0011174, 5.49445, 56.6342, 27.5638, 3.37158, 2.17914, 3.56112, -0.00999879, -0.000260309, -0.000615278, 0.000166294, -0.00092444, -0.00389848, -0.000942878, 0.0325167, -0.0197664, -0.0193341, -0.0537112, 0.0953682, 0.0194438, 0.471679, -0.54162, 0.336802, -2.08254, -2.16679, -0.128557, 0.471068, -0.541877, 0.336616, -2.08403, -2.17036, -0.125725, 0.0214671, 0.057068, 0.0291872, 0.0416867, 0.0287633, 0.00445128
0.101023, 1.69448, -1.22495, -1.5375, -0.89973, -1.1948, 1.23016, -1.3026, 0.0852901, 0.00676415, 0.00178834, -0.00200977, -0.0550304, 0.00441723, 0.00174916, 5.49445, 56.7096, 27.6392, 3.48663, 2.18555, 3.54648, -0.0750012, -0.000291745, -0.000594376, 0.000186749, -0.000919222, -0.00394596, -0.000976384, 0.033055, -0.0197072, -0.0209724, -0.0586625, 0.0968654, 0.0175631, 0.471701, -0.541563, 0.336831, -2.08249, -2.16682, -0.128514, 0.471111, -0.541847, 0.33662, -2.08398, -2.17045, -0.125631, 0.0218936, 0.0582252, 0.0297746, 0.0420138, 0.0296384, 0.00333929
0.102023, 1.69457, -1.22495, -1.53749, -0.899732, -1.19487, 1.23016, -1.30259, 0.0862454, 0.00827081, 0.00485092, -0.00217589, -0.0551991, 0.00325978, 0.000756343, 5.3437, 56.8564, 27.6392, 3.52234, 2.18555, 3.54648, -0.0621838, -0.000320809, -0.000570175, 0.00020817, -0.000912782, -0.00398854, -0.00102139, 0.0329327, -0.0200957, -0.0195973, -0.0576433, 0.0985691, 0.020074, 0.471723, -0.541504, 0.336861, -2.08245, -2.16685, -0.128471, 0.471158, -0.541812, 0.336624, -2.08391, -2.17055, -0.125542, 0.0223229, 0.0593907, 0.030366, 0.0428779, 0.0307304, 0.00529533
0.103023, 1.69466, -1.22494, -1.53748, -0.89974, -1.19493, 1.23016, -1.3026, 0.0881487, 0.007202, 0.00614642, -0.00404966, -0.0608733, 0.00318931, -0.000667761, 5.26832, 56.9675, 27.6749, 3.63342, 2.21576, 3.52542, -0.0292249, -0.000352997, -0.000548415, 0.000229201, -0.000905884, -0.00403762, -0.00106749, 0.0337089, -0.0207138, -0.0205512, -0.0609609, 0.103058, 0.0227935, 0.471746, -0.541444, 0.336892, -2.08241, -2.16688, -0.128426, 0.471203, -0.54178, 0.336628, -2.08383, -2.17065, -0.125444, 0.022755, 0.0605644, 0.0309614, 0.0439209, 0.0313106, 0.00480943
0.104023, 1.69475, -1.22493, -1.53748, -0.89974, -1.195, 1.23016, -1.30259, 0.0871984, 0.00746711, 0.00621299, -0.00270023, -0.0588646, 0.0020321, 0.000812064, 5.15327, 57.0389, 27.7503, 3.63342, 2.19745, 3.53274, -0.0621838, -0.000388854, -0.000530415, 0.000248966, -0.000900495, -0.0040851, -0.00109766, 0.0352162, -0.0194322, -0.0206653, -0.0606441, 0.101755, 0.0189228, 0.471769, -0.541383, 0.336923, -2.08236, -2.16691, -0.128381, 0.471244, -0.541751, 0.336634, -2.08378, -2.17074, -0.125348, 0.0231896, 0.0617462, 0.0315607, 0.0431275, 0.0309683, 0.00510246
0.105023, 1.69483, -1.22493, -1.53746, -0.899753, -1.19506, 1.23016, -1.30259, 0.0844303, 0.00657519, 0.00723175, -0.00532698, -0.0631197, 0.00203015, 6.01514e-05, 5.11756, 57.15, 27.79, 3.78418, 2.20386, 3.5181, -0.0484509, -0.000424631, -0.000511817, 0.000270409, -0.000894751, -0.00413463, -0.00113685, 0.0376328, -0.0177131, -0.0214741, -0.0631161, 0.105245, 0.0173434, 0.471792, -0.54132, 0.336955, -2.08231, -2.16694, -0.128334, 0.471287, -0.54172, 0.336638, -2.08371, -2.17084, -0.125249, 0.0236269, 0.0629361, 0.0321639, 0.0419078, 0.0298242, 0.00458625
0.106023, 1.69492, -1.22492, -1.53745, -0.899761, -1.19513, 1.23016, -1.30259, 0.0862924, 0.00924035, 0.0111156, -0.00531481, -0.0657078, 0.00172435, -0.000888784, 4.92713, 57.261, 27.8257, 3.85956, 2.19104, 3.51077, -0.0228162, -0.00045797, -0.000489491, 0.000291335, -0.000891256, -0.00418149, -0.0011849, 0.0374779, -0.0185641, -0.0190833, -0.0617279, 0.110483, 0.0200903, 0.471816, -0.541257, 0.336987, -2.08227, -2.16698, -0.128287, 0.471333, -0.541685, 0.336644, -2.08364, -2.17095, -0.125155, 0.0240668, 0.0641338, 0.032771, 0.0432813, 0.0308444, 0.00755178
0.107023, 1.695, -1.22491, -1.53744, -0.899769, -1.19519, 1.23016, -1.30259, 0.0838285, 0.00881713, 0.0148697, -0.00845477, -0.0638446, 0.000953044, -0.00105183, 4.89143, 57.3364, 27.8257, 3.93494, 2.20386, 3.5181, -0.00999879, -0.000496861, -0.000473858, 0.000310154, -0.000891531, -0.00422923, -0.0012218, 0.0377154, -0.0181414, -0.018812, -0.0598863, 0.108931, 0.0220172, 0.47184, -0.541192, 0.337021, -2.08222, -2.16701, -0.128239, 0.471374, -0.541655, 0.336652, -2.08358, -2.17105, -0.125063, 0.0245092, 0.0653394, 0.0333819, 0.0433212, 0.0317564, 0.00840687
0.108023, 1.69508, -1.22491, -1.53743, -0.899782, -1.19525, 1.23016, -1.30259, 0.0847311, 0.00593277, 0.0142254, -0.0123667, -0.0610211, 0.000148885, 0.0019552, 4.74067, 57.5189, 27.9725, 4.08173, 2.17914, 3.53274, -0.0814099, -0.000534525, -0.000456638, 0.00033716, -0.000876991, -0.0042688, -0.00125482, 0.037194, -0.0191547, -0.0218354, -0.062558, 0.10459, 0.0230224, 0.471865, -0.541126, 0.337054, -2.08217, -2.16705, -0.12819, 0.471416, -0.541621, 0.336653, -2.0835, -2.17114, -0.124961, 0.0249541, 0.0665526, 0.0339965, 0.0446468, 0.0339914, 0.00608515
0.109023, 1.69517, -1.2249, -1.53742, -0.899791, -1.19531, 1.23016, -1.30259, 0.0813474, 0.00571041, 0.0123658, -0.0127145, -0.0595678, -9.60598e-05, -0.000858003, 4.62562, 57.63, 28.0478, 4.1214, 2.16724, 3.53915, -0.0228162, -0.000574535, -0.000440097, 0.000355615, -0.000881049, -0.00431722, -0.00129854, 0.0399757, -0.0166502, -0.0229596, -0.0638878, 0.103936, 0.0213979, 0.47189, -0.541059, 0.337088, -2.08212, -2.16708, -0.12814, 0.471459, -0.54159, 0.336662, -2.08344, -2.17125, -0.124871, 0.0254015, 0.0677736, 0.0346148, 0.0426549, 0.0325327, 0.00524087
0.110023, 1.69525, -1.22489, -1.53741, -0.899804, -1.19537, 1.23016, -1.3026, 0.0803398, 0.00638934, 0.00876217, -0.0148044, -0.063872, -0.000303775, -0.0017862, 4.43916, 57.7054, 28.0875, 4.23248, 2.17914, 3.54648, 0.0101428, -0.000613781, -0.000423629, 0.000375155, -0.000877806, -0.00436653, -0.00134353, 0.0426124, -0.014903, -0.0245322, -0.0704968, 0.109265, 0.0189708, 0.471916, -0.54099, 0.337123, -2.08207, -2.16712, -0.128089, 0.471501, -0.541557, 0.336671, -2.08336, -2.17136, -0.124771, 0.0258513, 0.069002, 0.0352367, 0.0413998, 0.0313253, 0.00395648
0.111023, 1.69533, -1.22488, -1.53739, -0.899821, -1.19543, 1.23016, -1.30259, 0.0806259, 0.00513569, 0.0116017, -0.0163907, -0.0610677, -0.000178868, 0.000509496, 4.3241, 57.8522, 28.1589, 4.34357, 2.15442, 3.54648, -0.0356336, -0.000654913, -0.000408391, 0.000397369, -0.000879241, -0.00440757, -0.00137893, 0.042295, -0.0157892, -0.0249334, -0.0679955, 0.10658, 0.0196661, 0.471942, -0.540921, 0.337159, -2.08202, -2.16715, -0.128038, 0.471543, -0.541524, 0.336678, -2.08329, -2.17146, -0.124683, 0.0263034, 0.0702379, 0.0358623, 0.042711, 0.0329738, 0.0042075
0.112023, 1.69541, -1.22486, -1.53738, -0.899832, -1.19549, 1.23015, -1.30259, 0.079754, 0.00922048, 0.0136123, -0.0156992, -0.0600589, -0.00428062, -0.000131396, 4.13764, 57.9236, 28.2343, 4.37927, 2.15442, 3.53274, -0.0228162, -0.000696917, -0.000393415, 0.000414163, -0.000882453, -0.00445928, -0.00141863, 0.0427578, -0.0142933, -0.0224899, -0.0690267, 0.108418, 0.0190513, 0.471968, -0.54085, 0.337195, -2.08197, -2.16719, -0.127985, 0.471586, -0.541491, 0.336691, -2.08323, -2.17157, -0.124586, 0.0267579, 0.0714811, 0.0364913, 0.0417808, 0.0333223, 0.00722463
0.113023, 1.69549, -1.22485, -1.53736, -0.899849, -1.19554, 1.23015, -1.3026, 0.0822449, 0.00937852, 0.0127651, -0.0154263, -0.0630523, -0.00373972, -0.00130556, 3.94721, 58.11, 28.274, 4.41894, 2.1297, 3.54648, 0.0101428, -0.000735295, -0.000374117, 0.000435423, -0.000889045, -0.00449651, -0.00147256, 0.0438519, -0.0147477, -0.023189, -0.0714292, 0.11225, 0.0200153, 0.471995, -0.540778, 0.337232, -2.08192, -2.16723, -0.127932, 0.471633, -0.541453, 0.3367, -2.08314, -2.17169, -0.124508, 0.0272147, 0.0727316, 0.0371239, 0.0427069, 0.0336192, 0.00698368
0.114023, 1.69557, -1.22484, -1.53734, -0.899862, -1.1956, 1.23015, -1.30259, 0.0781051, 0.0121386, 0.014594, -0.0183575, -0.0611478, -0.00331869, 0.000589748, 3.87183, 58.3282, 28.3454, 4.45465, 2.1178, 3.56112, -0.0292249, -0.000781396, -0.000362006, 0.0004575, -0.000894786, -0.00453607, -0.00150324, 0.0451651, -0.0131452, -0.0215253, -0.0696008, 0.114512, 0.0170434, 0.472023, -0.540705, 0.337269, -2.08186, -2.16726, -0.127878, 0.471673, -0.541421, 0.336708, -2.08308, -2.17178, -0.124423, 0.0276737, 0.0739892, 0.0377598, 0.0416778, 0.0332574, 0.00910973
0.115023, 1.69565, -1.22482, -1.53732, -0.899889, -1.19565, 1.23015, -1.30259, 0.0777565, 0.0194453, 0.0189104, -0.0200969, -0.0560442, -0.00269598, 0.00161541, 3.6814, 58.3282, 28.4208, 4.60541, 2.13611, 3.56845, -0.0621838, -0.00082078, -0.00034458, 0.000472572, -0.000900511, -0.00458878, -0.00155153, 0.0435816, -0.0141439, -0.0163264, -0.0635649, 0.118632, 0.0198245, 0.472051, -0.54063, 0.337307, -2.08181, -2.1673, -0.127822, 0.471719, -0.541383, 0.336725, -2.083, -2.1719, -0.124326, 0.028135, 0.0752539, 0.0383992, 0.0432731, 0.0353317, 0.0150967
0.116023, 1.69572, -1.22481, -1.53731, -0.899903, -1.1957, 1.23014, -1.30259, 0.0749379, 0.0195367, 0.0213812, -0.0168588, -0.0514307, -0.00246514, -0.00136331, 3.60603, 58.5504, 28.5319, 4.56573, 2.13611, 3.58218, 0.00373412, -0.000869884, -0.00033542, 0.000494803, -0.000909284, -0.00462338, -0.0015908, 0.0457181, -0.0123297, -0.0152425, -0.0576015, 0.115375, 0.0188827, 0.472079, -0.540554, 0.337346, -2.08175, -2.16734, -0.127766, 0.471758, -0.541351, 0.336734, -2.08293, -2.17201, -0.124248, 0.0285984, 0.0765256, 0.0390419, 0.0420465, 0.0342509, 0.0165364
0.117023, 1.6958, -1.2248, -1.53729, -0.899934, -1.19575, 1.23014, -1.30259, 0.0764506, 0.0182861, 0.0201119, -0.0221746, -0.0477123, -0.00203409, -0.000908004, 3.37989, 58.6972, 28.6429, 4.71649, 2.1297, 3.58951, 0.00373412, -0.00090866, -0.000315574, 0.000516641, -0.000915267, -0.00466134, -0.00165036, 0.0444994, -0.014161, -0.017667, -0.0599748, 0.112766, 0.0242012, 0.472108, -0.540477, 0.337386, -2.0817, -2.16738, -0.127709, 0.471807, -0.541308, 0.336745, -2.08283, -2.17214, -0.124166, 0.0290639, 0.0778042, 0.0396878, 0.0442055, 0.0371825, 0.0149195
0.118023, 1.69588, -1.22477, -1.53727, -0.899958, -1.1958, 1.23014, -1.30259, 0.0738829, 0.0231104, 0.0210294, -0.0232806, -0.0456624, -0.000936977, 0.00109074, 3.30451, 58.7329, 28.6826, 4.75616, 2.14252, 3.57577, -0.0420422, -0.000952393, -0.000300269, 0.000529709, -0.000932305, -0.00471225, -0.00169356, 0.0457162, -0.0129625, -0.0148921, -0.0574946, 0.11726, 0.0206367, 0.472137, -0.540398, 0.337426, -2.08164, -2.16742, -0.127651, 0.471853, -0.54127, 0.336765, -2.08276, -2.17226, -0.124079, 0.0295316, 0.0790895, 0.040337, 0.0436274, 0.0367906, 0.0181587
0.119023, 1.69596, -1.22476, -1.53725, -0.899987, -1.19584, 1.23014, -1.3026, 0.0735402, 0.0189506, 0.0200736, -0.0249529, -0.0448524, -0.000420543, -0.00120513, 3.30451, 58.9551, 28.7937, 4.82758, 2.17273, 3.56845, 0.0101428, -0.000997851, -0.000286238, 0.00055313, -0.000941229, -0.00474621, -0.00174866, 0.0472187, -0.0127336, -0.0183094, -0.0591189, 0.113783, 0.0229004, 0.472167, -0.540319, 0.337466, -2.08158, -2.16746, -0.127592, 0.471898, -0.541231, 0.336775, -2.08266, -2.17238, -0.124002, 0.0300013, 0.0803815, 0.0409894, 0.0437976, 0.0371131, 0.0152119
0.120023, 1.69604, -1.22475, -1.53723, -0.90001, -1.19589, 1.23014, -1.30259, 0.0760789, 0.0162452, 0.0189753, -0.0259951, -0.0426057, -5.94635e-05, 0.00136708, 3.19343, 59.1772, 28.9048, 4.75616, 2.16724, 3.56112, -0.0484509, -0.00104288, -0.000269329, 0.000575265, -0.000958224, -0.00477851, -0.00179339, 0.0472205, -0.0140573, -0.0210018, -0.060341, 0.110543, 0.022974, 0.472197, -0.540238, 0.337508, -2.08152, -2.1675, -0.127533, 0.471946, -0.541191, 0.336787, -2.08258, -2.1725, -0.123933, 0.030473, 0.0816802, 0.0416449, 0.0454911, 0.0388791, 0.0131671
0.121023, 1.69604, -1.22475, -1.53723, -0.90001, -1.19589, 1.23014, -1.30259, 0.0760789, 0.0162452, 0.0189753, -0.0259951, -0.0426057, -5.94635e-05, 0.00136708, 3.19343, 59.1772, 28.9048, 4.75616, 2.16724, 3.56112, -0.0484509, -0.00112948, -0.00030223, 0.000605297, -0.00100012, -0.00476007, -0.00174841, 0.0485933, -0.0135478, -0.0214704, -0.0608578, 0.111422, 0.0219186, 0.472228, -0.540155, 0.33755, -2.08146, -2.16755, -0.127472, 0.471946, -0.541191, 0.336787, -2.08258, -2.1725, -0.123933, 0.0309467, 0.0829853, 0.0423035, 0.0454911, 0.0388791, 0.0131671
0.122023, 1.69612, -1.22472, -1.53721, -0.900037, -1.19592, 1.23014, -1.30259, 0.0769779, 0.0196474, 0.0215623, -0.0276081, -0.0415105, 0.000193848, 0.000199586, 3.11805, 59.1772, 29.0159, 4.71649, 2.17914, 3.5538, -0.0292249, -0.00117327, -0.000285729, 0.000619814, -0.00101775, -0.00480334, -0.00180261, 0.0480308, -0.0144536, -0.0192728, -0.0589987, 0.114925, 0.0258767, 0.472259, -0.540072, 0.337592, -2.0814, -2.16759, -0.12741, 0.471994, -0.541147, 0.336808, -2.0825, -2.17263, -0.123852, 0.0314223, 0.0842969, 0.0429652, 0.0469344, 0.0404488, 0.0160575
0.123023, 1.69612, -1.22472, -1.53721, -0.900037, -1.19592, 1.23014, -1.30259, 0.0769779, 0.0196474, 0.0215623, -0.0276081, -0.0415105, 0.000193848, 0.000199586, 3.11805, 59.1772, 29.0159, 4.71649, 2.17914, 3.5538, -0.0292249, -0.00126262, -0.000319661, 0.000650798, -0.00106096, -0.00478436, -0.00175624, 0.0494169, -0.0139397, -0.0197458, -0.0595185, 0.115812, 0.0248129, 0.472291, -0.539987, 0.337635, -2.08134, -2.16763, -0.127348, 0.471994, -0.541147, 0.336808, -2.0825, -2.17263, -0.123852, 0.0318998, 0.0856148, 0.0436298, 0.0469344, 0.0404488, 0.0160575
0.124023, 1.69636, -1.22466, -1.53714, -0.90014, -1.19603, 1.23014, -1.30259, 0.0835099, 0.01883, 0.0202887, -0.0324017, -0.0373611, -0.000678498, 0.00147607, 3.04267, 59.7287, 29.3888, 4.68079, 2.24689, 3.56845, -0.0420422, -0.00121629, -0.000196228, 0.000653389, -0.00102784, -0.00492221, -0.0020326, 0.0458918, -0.0182445, -0.0222369, -0.063318, 0.112772, 0.0339155, 0.472323, -0.5399, 0.337679, -2.08127, -2.16768, -0.127284, 0.472148, -0.54101, 0.336853, -2.08219, -2.17303, -0.12364, 0.0323792, 0.0869389, 0.0442973, 0.0514867, 0.0458201, 0.0146739
0.125023, 1.69645, -1.22464, -1.53712, -0.90017, -1.19607, 1.23013, -1.30259, 0.0822323, 0.0227162, 0.0204607, -0.0311288, -0.0383103, -0.000464285, 0.000509413, 3.003, 59.8041, 29.4642, 4.56573, 2.2771, 3.56845, -0.0292249, -0.00126029, -0.0001767, 0.000669735, -0.00105227, -0.00495999, -0.00209624, 0.0480348, -0.0166097, -0.020107, -0.0628189, 0.118255, 0.031128, 0.472355, -0.539813, 0.337724, -2.08121, -2.16772, -0.127219, 0.472201, -0.540962, 0.336874, -2.08209, -2.17318, -0.123571, 0.0328604, 0.0882692, 0.0449678, 0.0504983, 0.0446387, 0.0171684
0.126023, 1.69653, -1.22461, -1.53709, -0.900208, -1.1961, 1.23013, -1.3026, 0.0825852, 0.0255595, 0.0227851, -0.0350859, -0.0383812, -0.000318488, -0.00159311, 3.04267, 59.8755, 29.5752, 4.53003, 2.28992, 3.56845, 0.0229602, -0.00130351, -0.000156295, 0.000687743, -0.00107482, -0.00499641, -0.00217357, 0.0473721, -0.0175373, -0.018644, -0.0629092, 0.12233, 0.037011, 0.472389, -0.539724, 0.337769, -2.08114, -2.16777, -0.127154, 0.472256, -0.540912, 0.336894, -2.08198, -2.17333, -0.123502, 0.0333434, 0.0896055, 0.045641, 0.0519394, 0.046446, 0.0193596
0.127023, 1.69662, -1.22458, -1.53708, -0.900248, -1.19613, 1.23013, -1.30259, 0.0840011, 0.0253113, 0.0238214, -0.037323, -0.0339838, -0.000490316, 0.00039604, 3.04267, 59.9152, 29.722, 4.45465, 2.30823, 3.57577, -0.0164075, -0.00134712, -0.00013707, 0.000706864, -0.00109187, -0.00503114, -0.00223581, 0.0464, -0.0189513, -0.0193061, -0.0619282, 0.119471, 0.0392788, 0.472422, -0.539634, 0.337815, -2.08108, -2.16781, -0.127088, 0.472309, -0.540861, 0.336914, -2.08187, -2.17347, -0.123425, 0.0338281, 0.0909478, 0.0463171, 0.0537756, 0.048911, 0.0194873
0.128023, 1.6967, -1.22456, -1.53705, -0.90029, -1.19616, 1.23013, -1.30259, 0.0829802, 0.0247671, 0.0267586, -0.0389987, -0.0315546, 0.000210615, 0.000738781, 3.11805, 60.0977, 29.7617, 4.37927, 2.35126, 3.56112, -0.0292249, -0.00139245, -0.00011571, 0.000731506, -0.00111716, -0.00505721, -0.00230644, 0.0467978, -0.0191483, -0.0191869, -0.0588335, 0.118113, 0.0405496, 0.472456, -0.539542, 0.337862, -2.08101, -2.16786, -0.12702, 0.472366, -0.54081, 0.336928, -2.08176, -2.17362, -0.123367, 0.0343145, 0.092296, 0.0469959, 0.0544797, 0.0498574, 0.0202162
0.129023, 1.69679, -1.22454, -1.53702, -0.900334, -1.19618, 1.23013, -1.30259, 0.0811934, 0.0246577, 0.0220357, -0.0404429, -0.0334728, -0.000134639, -0.000728155, 3.22913, 60.1334, 29.8371, 4.30786, 2.36957, 3.56845, 0.00373412, -0.00143554, -9.46921e-05, 0.000752091, -0.0011369, -0.00508733, -0.00238559, 0.049926, -0.0168376, -0.0215483, -0.0651112, 0.120701, 0.0375197, 0.472491, -0.539449, 0.337909, -2.08094, -2.16791, -0.126952, 0.472422, -0.540755, 0.336948, -2.08163, -2.17378, -0.123298, 0.0348026, 0.09365, 0.0476774, 0.0526907, 0.0483845, 0.0181565
0.130023, 1.69688, -1.22451, -1.537, -0.900377, -1.19621, 1.23012, -1.30259, 0.0846406, 0.0243407, 0.0246946, -0.0405052, -0.0304869, -0.000363863, 0.000260569, 3.30451, 60.173, 29.9085, 4.19281, 2.39429, 3.57577, -0.0164075, -0.00147931, -7.21528e-05, 0.000772035, -0.00116, -0.00512047, -0.00246007, 0.0486523, -0.019013, -0.021489, -0.0627066, 0.118671, 0.0411857, 0.472526, -0.539355, 0.337957, -2.08087, -2.16796, -0.126882, 0.472481, -0.5407, 0.336969, -2.08151, -2.17393, -0.123229, 0.0352924, 0.0950097, 0.0483616, 0.0553081, 0.0510875, 0.0190268
0.131023, 1.69696, -1.22448, -1.53698, -0.900435, -1.19624, 1.23012, -1.30258, 0.0808386, 0.0265208, 0.0241617, -0.0474412, -0.0285597, 2.65644e-05, 0.00163179, 3.37989, 60.2444, 29.9482, 4.23248, 2.4245, 3.56845, -0.0557752, -0.00152228, -4.89112e-05, 0.00079798, -0.00117566, -0.00514899, -0.00254142, 0.0492767, -0.0180486, -0.0216165, -0.0649912, 0.120913, 0.0413924, 0.472561, -0.539259, 0.338006, -2.0808, -2.168, -0.126812, 0.47254, -0.540642, 0.336985, -2.08138, -2.17409, -0.123155, 0.0357837, 0.096375, 0.0490484, 0.0548567, 0.0518145, 0.0195222
0.132023, 1.69705, -1.22446, -1.53696, -0.90049, -1.19626, 1.23012, -1.30259, 0.081173, 0.0249823, 0.0212999, -0.0483266, -0.022093, -0.00466794, -0.00111618, 3.45527, 60.3198, 30.095, 4.23248, 2.44922, 3.56845, 0.00373412, -0.00156577, -2.58778e-05, 0.00082475, -0.00118993, -0.00517372, -0.0026325, 0.0492796, -0.017292, -0.0245895, -0.0697193, 0.112961, 0.0449659, 0.472597, -0.539162, 0.338055, -2.08073, -2.16805, -0.126741, 0.4726, -0.540583, 0.337, -2.08123, -2.17426, -0.123084, 0.0362765, 0.0977458, 0.0497377, 0.0544821, 0.0536045, 0.0172995
0.133023, 1.69714, -1.22444, -1.53694, -0.900535, -1.19628, 1.23011, -1.30259, 0.0814853, 0.0266625, 0.0210648, -0.0476344, -0.0217775, -0.00377476, -0.000744108, 3.53065, 60.3912, 30.1703, 4.04602, 2.46753, 3.57577, 0.00373412, -0.0016133, -4.29813e-06, 0.00084994, -0.00121213, -0.0052003, -0.00270968, 0.050704, -0.0168984, -0.0240202, -0.0691115, 0.115699, 0.0431602, 0.472634, -0.539064, 0.338106, -2.08066, -2.1681, -0.126669, 0.472659, -0.540527, 0.337017, -2.0811, -2.17441, -0.123018, 0.0367709, 0.0991221, 0.0504295, 0.054661, 0.0534706, 0.0183466
0.134023, 1.69723, -1.22441, -1.53691, -0.900596, -1.1963, 1.23011, -1.30258, 0.0839333, 0.0248656, 0.0187713, -0.0527321, -0.0170336, -0.00199636, 0.00143671, 3.6457, 60.4666, 30.206, 4.08173, 2.49225, 3.5538, -0.0484509, -0.00165735, 2.0133e-05, 0.000876299, -0.00123509, -0.00522387, -0.00279451, 0.0494377, -0.019359, -0.0270626, -0.07084, 0.112508, 0.0472886, 0.472671, -0.538964, 0.338156, -2.08059, -2.16815, -0.126595, 0.472721, -0.540465, 0.337035, -2.08096, -2.17458, -0.122955, 0.0372668, 0.100504, 0.0511238, 0.0574503, 0.0566753, 0.0161533
0.135023, 1.69732, -1.22438, -1.53688, -0.90066, -1.19632, 1.23011, -1.30258, 0.0846458, 0.0252709, 0.0216376, -0.0555094, -0.0177937, -0.00155114, 0.00614682, 3.6814, 60.4666, 30.1703, 4.08173, 2.50415, 3.5538, -0.0621838, -0.00169968, 4.54715e-05, 0.00089979, -0.00125735, -0.00525101, -0.00288882, 0.0493028, -0.0203228, -0.0266854, -0.0702129, 0.114761, 0.045723, 0.472708, -0.538862, 0.338208, -2.08052, -2.16821, -0.126521, 0.472784, -0.540401, 0.337056, -2.08081, -2.17475, -0.122888, 0.0377641, 0.101891, 0.0518204, 0.0589206, 0.0581803, 0.0172126
0.136023, 1.69741, -1.22435, -1.53686, -0.90072, -1.19634, 1.2301, -1.30258, 0.0839835, 0.0247471, 0.0209138, -0.0580347, -0.018549, -0.00147054, 0.00397929, 3.75678, 60.5023, 30.2457, 3.97064, 2.52338, 3.56112, -0.0484509, -0.00174623, 6.72973e-05, 0.000925679, -0.00127675, -0.00527545, -0.00297807, 0.0506635, -0.0197846, -0.028056, -0.0728114, 0.116084, 0.0477474, 0.472746, -0.53876, 0.33826, -2.08044, -2.16826, -0.126446, 0.472845, -0.54034, 0.337074, -2.08067, -2.17492, -0.122819, 0.0382628, 0.103283, 0.0525195, 0.0588827, 0.0584153, 0.0163656
0.137023, 1.6975, -1.22433, -1.53683, -0.900788, -1.19635, 1.2301, -1.30258, 0.0917019, 0.0241689, 0.025393, -0.0626821, -0.0141711, -0.00550236, 0.00345401, 3.75678, 60.538, 30.2457, 3.97064, 2.53528, 3.5538, -0.0621838, -0.00178814, 9.56577e-05, 0.000949698, -0.00130463, -0.00530157, -0.00307633, 0.0451336, -0.0251424, -0.0287089, -0.0743327, 0.11123, 0.0624804, 0.472785, -0.538656, 0.338313, -2.08036, -2.16831, -0.12637, 0.472913, -0.540272, 0.337096, -2.08051, -2.1751, -0.122757, 0.0387628, 0.10468, 0.0532208, 0.0644966, 0.0656073, 0.017103
0.138023, 1.69758, -1.2243, -1.5368, -0.900854, -1.19637, 1.2301, -1.30258, 0.0852671, 0.0220204, 0.0275197, -0.0651946, -0.0161406, -0.00415027, 0.00153873, 3.87183, 60.6491, 30.2814, 3.93494, 2.56, 3.5538, -0.0356336, -0.00183567, 0.000117482, 0.000979848, -0.00132639, -0.00531549, -0.00317428, 0.0490146, -0.0219888, -0.0296132, -0.0731532, 0.112193, 0.0595256, 0.472824, -0.538551, 0.338366, -2.08029, -2.16836, -0.126293, 0.472974, -0.540208, 0.337112, -2.08035, -2.17528, -0.1227, 0.0392642, 0.106082, 0.0539245, 0.0619644, 0.0631782, 0.0164165
0.139023, 1.69758, -1.2243, -1.5368, -0.900854, -1.19637, 1.2301, -1.30258, 0.0852671, 0.0220204, 0.0275197, -0.0651946, -0.0161406, -0.00415027, 0.00153873, 3.87183, 60.6491, 30.2814, 3.93494, 2.56, 3.5538, -0.0356336, -0.00194793, 7.50245e-05, 0.0010187, -0.00138059, -0.00529218, -0.00311655, 0.0504938, -0.0214465, -0.0301148, -0.0736896, 0.11313, 0.0584081, 0.472864, -0.538444, 0.338421, -2.08021, -2.16842, -0.126215, 0.472974, -0.540208, 0.337112, -2.08035, -2.17528, -0.1227, 0.0397669, 0.107489, 0.0546303, 0.0619644, 0.0631782, 0.0164165
0.140023, 1.69758, -1.2243, -1.5368, -0.900854, -1.19637, 1.2301, -1.30258, 0.0852671, 0.0220204, 0.0275197, -0.0651946, -0.0161406, -0.00415027, 0.00153873, 3.87183, 60.6491, 30.2814, 3.93494, 2.56, 3.5538, -0.0356336, -0.00206166, 3.20158e-05, 0.00105807, -0.00143548, -0.00526859, -0.0030581, 0.051978, -0.0209026, -0.0306179, -0.0742267, 0.114071, 0.0572878, 0.472904, -0.538336, 0.338476, -2.08013, -2.16847, -0.126136, 0.472974, -0.540208, 0.337112, -2.08035, -2.17528, -0.1227, 0.0402709, 0.108901, 0.0553384, 0.0619644, 0.0631782, 0.0164165
0.141023, 1.69785, -1.22421, -1.53672, -0.901077, -1.1964, 1.23009, -1.30258, 0.0834853, 0.0268574, 0.028662, -0.0696619, -0.0111485, -0.00923377, 0.00149131, 3.94721, 60.8356, 30.3568, 3.97064, 2.56549, 3.5181, -0.0621838, -0.00197102, 0.00019372, 0.00105883, -0.00140741, -0.0053764, -0.00347804, 0.0506918, -0.0200606, -0.0288641, -0.0773262, 0.113505, 0.0604902, 0.472944, -0.538226, 0.338531, -2.08005, -2.16853, -0.126055, 0.473173, -0.540002, 0.337176, -2.07986, -2.17583, -0.122523, 0.040776, 0.110318, 0.0560486, 0.0616483, 0.0655604, 0.0190841
0.142023, 1.69793, -1.22418, -1.53668, -0.901156, -1.1964, 1.23008, -1.30258, 0.0874056, 0.0312662, 0.0311028, -0.0709594, -0.00878796, -0.00645085, -0.000869156, 3.94721, 60.907, 30.3568, 3.97064, 2.57831, 3.50345, -0.00999879, -0.00201656, 0.000220386, 0.00108274, -0.00144419, -0.00539787, -0.00358914, 0.0489252, -0.0231011, -0.0260519, -0.0730611, 0.118359, 0.0686235, 0.472985, -0.538115, 0.338588, -2.07997, -2.16858, -0.125974, 0.473241, -0.539931, 0.337201, -2.0797, -2.17603, -0.122472, 0.0412824, 0.111739, 0.0567608, 0.0652326, 0.0684316, 0.0227475
0.143023, 1.69801, -1.22414, -1.53664, -0.901238, -1.19641, 1.23008, -1.30257, 0.0860177, 0.0324936, 0.0298616, -0.0727144, -0.0114297, -0.00465746, 0.00486325, 4.02259, 60.9427, 30.3568, 4.00635, 2.58472, 3.49612, -0.0292249, -0.00206415, 0.000242289, 0.00110406, -0.00147851, -0.0054202, -0.00368733, 0.051363, -0.0219498, -0.0262913, -0.0748588, 0.123772, 0.0604264, 0.473027, -0.538002, 0.338645, -2.07989, -2.16864, -0.125892, 0.473306, -0.539861, 0.337229, -2.07954, -2.17622, -0.122416, 0.0417899, 0.113165, 0.0574751, 0.0646771, 0.0674371, 0.0228871
0.144023, 1.69809, -1.22411, -1.5366, -0.901325, -1.19641, 1.23007, -1.30257, 0.0826978, 0.0284425, 0.0344485, -0.0782396, -0.0077927, -0.00886422, 0.00465443, 4.06226, 61.0538, 30.3568, 4.08173, 2.56549, 3.51077, -0.0557752, -0.00211112, 0.000265226, 0.00113039, -0.00151301, -0.00543055, -0.00379328, 0.0509699, -0.0212776, -0.0285252, -0.0758278, 0.115728, 0.0645555, 0.473069, -0.537889, 0.338703, -2.07981, -2.1687, -0.125809, 0.473372, -0.539789, 0.337253, -2.07937, -2.17641, -0.122372, 0.0422985, 0.114595, 0.0581914, 0.064414, 0.0695674, 0.0214797
0.145023, 1.69817, -1.22408, -1.53657, -0.901415, -1.19641, 1.23006, -1.30257, 0.0789178, 0.0261542, 0.0314128, -0.0821756, -0.0060962, -0.00720082, 0.00244131, 4.02259, 61.1292, 30.3925, 4.1571, 2.5719, 3.52542, -0.0292249, -0.00215854, 0.000288273, 0.00115516, -0.00154655, -0.00544687, -0.0039076, 0.0536752, -0.0194884, -0.0316644, -0.078291, 0.114269, 0.0645076, 0.473111, -0.537773, 0.338761, -2.07972, -2.16875, -0.125725, 0.473438, -0.539715, 0.337279, -2.07919, -2.17661, -0.12232, 0.0428082, 0.11603, 0.0589097, 0.0631218, 0.0687313, 0.0187394
0.146023, 1.69824, -1.22404, -1.53652, -0.901507, -1.19641, 1.23006, -1.30257, 0.0738815, 0.0287511, 0.0319871, -0.0831381, -0.00432455, -0.00587078, 0.00139409, 4.06226, 61.1649, 30.4322, 4.1571, 2.56549, 3.53915, -0.0164075, -0.00220889, 0.00030779, 0.00117739, -0.00158467, -0.00546474, -0.00401642, 0.0565565, -0.016811, -0.0302086, -0.0758357, 0.116905, 0.0611127, 0.473154, -0.537657, 0.338821, -2.07964, -2.16881, -0.12564, 0.473502, -0.539644, 0.337308, -2.07902, -2.17681, -0.122271, 0.0433189, 0.117469, 0.0596298, 0.0611296, 0.0669852, 0.0205408
0.147023, 1.69832, -1.224, -1.53648, -0.9016, -1.19641, 1.23005, -1.30256, 0.0794365, 0.0296349, 0.0336863, -0.0881113, -0.00349373, -0.00433505, 0.00328049, 3.98292, 61.2402, 30.4322, 4.19281, 2.5719, 3.53915, -0.0750012, -0.00225696, 0.000332041, 0.00120071, -0.00162574, -0.00548163, -0.00412315, 0.0536561, -0.0211177, -0.0304382, -0.0762945, 0.119332, 0.0690152, 0.473198, -0.537538, 0.338881, -2.07955, -2.16887, -0.125554, 0.473571, -0.539569, 0.337336, -2.07885, -2.17701, -0.122224, 0.0438306, 0.118913, 0.0603519, 0.0658211, 0.0715192, 0.0213428
0.148023, 1.69839, -1.22396, -1.53643, -0.901697, -1.19641, 1.23005, -1.30256, 0.0783525, 0.0336051, 0.0379775, -0.08874, -0.00193099, -0.00296858, 0.000627285, 3.98292, 61.3116, 30.4322, 4.23248, 2.55359, 3.53274, -0.0292249, -0.00230603, 0.00035312, 0.00121857, -0.00167251, -0.00550116, -0.00423945, 0.0540143, -0.0211773, -0.0270118, -0.0709833, 0.123382, 0.0725234, 0.473242, -0.537419, 0.338941, -2.07946, -2.16893, -0.125467, 0.473637, -0.539494, 0.337371, -2.07867, -2.17722, -0.122181, 0.0443433, 0.12036, 0.0610757, 0.0665428, 0.0720941, 0.0253934
0.149023, 1.69846, -1.22393, -1.53639, -0.901797, -1.1964, 1.23004, -1.30256, 0.074383, 0.0322261, 0.0407524, -0.0922731, -0.000819158, -0.00194471, 4.52582e-05, 3.98292, 61.5695, 30.579, 4.26819, 2.53528, 3.52542, -0.0164075, -0.00236052, 0.000371084, 0.00124748, -0.00171455, -0.00550651, -0.00434925, 0.055687, -0.0199971, -0.0275501, -0.0688928, 0.122578, 0.0728709, 0.473287, -0.537298, 0.339003, -2.07938, -2.16899, -0.125378, 0.473701, -0.539421, 0.337395, -2.07849, -2.17742, -0.122146, 0.044857, 0.121812, 0.0618013, 0.0659243, 0.0719243, 0.0253686
0.150023, 1.69852, -1.22388, -1.53633, -0.9019, -1.1964, 1.23003, -1.30256, 0.0713519, 0.0334278, 0.0443046, -0.0941745, -0.000466248, -0.0019828, 0.00227665, 3.98292, 61.6092, 30.5433, 4.26819, 2.52887, 3.53915, -0.0750012, -0.00241229, 0.000389052, 0.00126147, -0.00177025, -0.00552744, -0.00445724, 0.0570602, -0.0187814, -0.0262146, -0.0665422, 0.124274, 0.0699698, 0.473332, -0.537175, 0.339065, -2.07929, -2.16905, -0.125289, 0.473765, -0.539347, 0.337435, -2.07833, -2.17763, -0.122109, 0.0453715, 0.123267, 0.0625286, 0.0653331, 0.0717668, 0.0272435
0.151023, 1.69859, -1.22384, -1.53627, -0.902009, -1.1964, 1.23003, -1.30255, 0.0695171, 0.0376393, 0.0462823, -0.0964696, 0.000249211, -0.00121778, 0.00181238, 3.83216, 61.756, 30.6544, 4.30786, 2.51056, 3.53274, -0.0814099, -0.00246068, 0.00041247, 0.00128119, -0.00181778, -0.00554551, -0.00458072, 0.0578369, -0.0181748, -0.023717, -0.0648236, 0.129248, 0.0705994, 0.473377, -0.537051, 0.339128, -2.0792, -2.16911, -0.125199, 0.473835, -0.539267, 0.33747, -2.07814, -2.17785, -0.122066, 0.0458869, 0.124727, 0.0632577, 0.0653736, 0.0720524, 0.0303398
0.152023, 1.69866, -1.2238, -1.53621, -0.90212, -1.1964, 1.23002, -1.30255, 0.0652212, 0.0401652, 0.0519574, -0.101301, 7.75462e-05, -0.00572052, 0.000301759, 3.79646, 61.9385, 30.7297, 4.34357, 2.51056, 3.53274, -0.0557752, -0.00251505, 0.000429416, 0.00130115, -0.00186657, -0.00556286, -0.00469676, 0.0579848, -0.0163669, -0.0215895, -0.0658424, 0.130594, 0.0735616, 0.473423, -0.536926, 0.339191, -2.07911, -2.16918, -0.125108, 0.4739, -0.539191, 0.337505, -2.07796, -2.17807, -0.122024, 0.0464031, 0.12619, 0.0639883, 0.0641766, 0.0729652, 0.0332085
0.153023, 1.69871, -1.22376, -1.53615, -0.902235, -1.1964, 1.23001, -1.30255, 0.0604787, 0.0383229, 0.0532179, -0.104883, 0.000222611, -0.004798, 0.000470737, 3.83216, 62.1606, 30.8051, 4.37927, 2.50415, 3.54648, -0.0621838, -0.0025732, 0.000442279, 0.00132018, -0.00192062, -0.00557995, -0.00480779, 0.0605468, -0.0143791, -0.0229183, -0.0655598, 0.13016, 0.0713873, 0.47347, -0.536799, 0.339256, -2.07902, -2.16924, -0.125016, 0.473961, -0.539118, 0.337542, -2.07779, -2.17828, -0.121986, 0.0469202, 0.127658, 0.0647206, 0.0627601, 0.0720163, 0.0323003
0.154023, 1.69876, -1.22372, -1.53609, -0.902356, -1.19639, 1.23, -1.30255, 0.0586247, 0.0362663, 0.0535406, -0.104399, -0.000138786, -0.00881539, -0.000645365, 3.79646, 62.4185, 30.9162, 4.41894, 2.51056, 3.56112, -0.0356336, -0.00262798, 0.000458945, 0.00134174, -0.00197113, -0.00559313, -0.00493139, 0.0628424, -0.0119799, -0.0247315, -0.069164, 0.127278, 0.0691632, 0.473517, -0.53667, 0.339321, -2.07892, -2.1693, -0.124922, 0.474026, -0.53904, 0.337576, -2.07759, -2.1785, -0.121948, 0.047438, 0.129128, 0.0654544, 0.0609041, 0.071389, 0.0309701
0.155023, 1.69882, -1.22367, -1.53603, -0.902481, -1.19639, 1.22999, -1.30255, 0.0582587, 0.042304, 0.0584044, -0.107174, -0.000808068, -0.0104005, -0.00163283, 3.72108, 62.4899, 31.1027, 4.45465, 2.52887, 3.53915, -0.00267457, -0.00268461, 0.00047293, 0.00135701, -0.00201906, -0.00562272, -0.00505164, 0.0620887, -0.0121758, -0.020491, -0.0679088, 0.133964, 0.0730604, 0.473565, -0.53654, 0.339387, -2.07883, -2.16937, -0.124828, 0.47409, -0.538963, 0.337618, -2.07741, -2.17873, -0.12189, 0.0479565, 0.130603, 0.0661897, 0.0617588, 0.0729709, 0.0360035
0.156023, 1.69887, -1.22363, -1.53595, -0.90261, -1.19639, 1.22998, -1.30254, 0.0585838, 0.0424545, 0.0647334, -0.11239, 0.00429514, -0.0125085, 0.0016038, 3.60603, 62.7478, 31.1384, 4.49432, 2.52338, 3.53915, -0.0750012, -0.00273849, 0.000490162, 0.00137327, -0.00208295, -0.0056358, -0.00517155, 0.0593608, -0.0142199, -0.0196097, -0.0649007, 0.129944, 0.0783105, 0.473613, -0.536409, 0.339453, -2.07873, -2.16943, -0.124733, 0.474157, -0.538882, 0.33766, -2.07723, -2.17895, -0.121865, 0.0484757, 0.132081, 0.0669265, 0.0642487, 0.0771007, 0.0379634
0.157023, 1.69892, -1.22358, -1.53587, -0.902744, -1.19639, 1.22997, -1.30253, 0.0546863, 0.0419364, 0.0675958, -0.121737, 0.00302715, -0.00861385, 9.60448e-05, 3.53065, 62.8986, 31.2891, 4.53003, 2.52887, 3.5181, -0.0484509, -0.0027948, 0.000504863, 0.00138855, -0.00213749, -0.00566065, -0.00529911, 0.0599648, -0.0146212, -0.0201705, -0.0640403, 0.133914, 0.0839651, 0.473662, -0.536276, 0.33952, -2.07864, -2.1695, -0.124636, 0.474222, -0.538801, 0.337703, -2.07704, -2.17919, -0.121817, 0.0489955, 0.133562, 0.0676647, 0.0651738, 0.0780898, 0.0380423
0.158023, 1.69896, -1.22352, -1.5358, -0.902879, -1.19639, 1.22996, -1.30253, 0.0509454, 0.0464377, 0.0691721, -0.123763, 0.00161532, -0.00731351, 0.00306863, 3.49494, 62.97, 31.4716, 4.45465, 2.54718, 3.53915, -0.00267457, -0.00285548, 0.000513683, 0.00139883, -0.0021934, -0.00569336, -0.00541654, 0.062231, -0.0126637, -0.0174716, -0.0627501, 0.141141, 0.078115, 0.473711, -0.536142, 0.339588, -2.07854, -2.16956, -0.124539, 0.474282, -0.538725, 0.337751, -2.07686, -2.17942, -0.121761, 0.049516, 0.135047, 0.0684043, 0.0639402, 0.076838, 0.0411645
0.159023, 1.699, -1.22347, -1.53571, -0.903031, -1.19639, 1.22994, -1.30253, 0.0449461, 0.0446153, 0.0769712, -0.129809, 0.00128342, -0.0052316, 0.00295114, 3.45527, 63.2635, 31.5113, 4.56573, 2.54718, 3.53274, -0.0164075, -0.00291006, 0.000527994, 0.00141523, -0.00225461, -0.0057064, -0.00555537, 0.0634809, -0.0118049, -0.0166431, -0.0569407, 0.141469, 0.0801156, 0.473761, -0.536006, 0.339657, -2.07844, -2.16963, -0.124441, 0.474348, -0.53864, 0.337795, -2.07665, -2.17967, -0.121732, 0.0500371, 0.136535, 0.0691452, 0.0636898, 0.0769273, 0.0425609
0.160023, 1.69903, -1.22342, -1.53562, -0.903174, -1.19638, 1.22992, -1.30252, 0.0394857, 0.0468678, 0.0769184, -0.136128, 0.00544803, -0.00883396, 0.00297708, 3.45527, 63.4103, 31.6581, 4.49432, 2.55359, 3.53915, -0.0356336, -0.00297156, 0.000534913, 0.00142488, -0.00232158, -0.00572844, -0.00567189, 0.0641916, -0.00932456, -0.0167922, -0.060738, 0.139924, 0.0803985, 0.473811, -0.535869, 0.339727, -2.07834, -2.1697, -0.124341, 0.474407, -0.538562, 0.337845, -2.07648, -2.1799, -0.121697, 0.0505588, 0.138026, 0.0698875, 0.061761, 0.0776269, 0.0431302
0.161023, 1.69906, -1.22336, -1.53553, -0.903325, -1.19638, 1.22991, -1.30251, 0.0365805, 0.0501391, 0.0812577, -0.140838, 0.00369696, -0.0112921, 0.00125846, 3.41956, 63.4857, 31.8842, 4.41894, 2.56549, 3.53915, -0.00999879, -0.00303194, 0.000543226, 0.00143153, -0.00238633, -0.00576144, -0.00580077, 0.0645149, -0.00820406, -0.0145835, -0.0619786, 0.144463, 0.0836399, 0.473862, -0.53573, 0.339797, -2.07824, -2.16977, -0.124241, 0.474468, -0.538481, 0.337899, -2.07629, -2.18015, -0.121649, 0.0510809, 0.13952, 0.0706309, 0.0612692, 0.0784152, 0.0460437
0.162023, 1.6991, -1.2233, -1.53542, -0.903487, -1.19638, 1.2299, -1.3025, 0.03533, 0.0555612, 0.0901186, -0.148776, 0.00169107, -0.0131042, 0.00637505, 3.34419, 63.5611, 31.9556, 4.37927, 2.59662, 3.53274, -0.0292249, -0.00308533, 0.000559132, 0.00143633, -0.00246129, -0.00579121, -0.00594388, 0.0620996, -0.00955362, -0.00997761, -0.060401, 0.151729, 0.0865533, 0.473913, -0.53559, 0.339868, -2.07814, -2.16984, -0.12414, 0.474538, -0.538392, 0.337957, -2.07609, -2.18041, -0.121616, 0.0516036, 0.141018, 0.0713756, 0.0632305, 0.0816588, 0.0516642
0.163023, 1.69912, -1.22325, -1.53532, -0.903655, -1.19638, 1.22988, -1.30249, 0.0308019, 0.0546399, 0.0939461, -0.154927, 0.00141186, -0.0146487, 0.00645904, 3.41956, 63.7079, 32.0707, 4.34357, 2.59662, 3.53274, -0.0750012, -0.00314446, 0.00056729, 0.00144472, -0.00253405, -0.00581152, -0.00607718, 0.0630359, -0.00816964, -0.0104481, -0.0613985, 0.151455, 0.0879808, 0.473965, -0.535448, 0.33994, -2.07804, -2.16991, -0.124037, 0.4746, -0.538307, 0.338011, -2.07589, -2.18067, -0.121587, 0.0521267, 0.142518, 0.0721215, 0.0623946, 0.0822433, 0.0518491
0.164023, 1.69915, -1.22319, -1.53521, -0.903823, -1.19638, 1.22986, -1.30249, 0.028774, 0.0566793, 0.0983087, -0.157377, -0.000201731, -0.0153974, 0.00708866, 3.30451, 63.7436, 32.2175, 4.23248, 2.63324, 3.52542, -0.00999879, -0.00319972, 0.000581374, 0.00144995, -0.00260489, -0.00584336, -0.00623107, 0.0639076, -0.00738779, -0.00853629, -0.060228, 0.155322, 0.0878437, 0.474018, -0.535305, 0.340012, -2.07793, -2.16998, -0.123934, 0.474669, -0.538217, 0.33807, -2.07568, -2.18095, -0.121547, 0.0526502, 0.144021, 0.0728685, 0.0622534, 0.0825597, 0.0543776
0.165023, 1.69918, -1.22314, -1.53509, -0.904002, -1.19638, 1.22984, -1.30248, 0.0284969, 0.0529949, 0.102015, -0.166031, -0.00112735, -0.0162388, 0.00565244, 3.26881, 63.8547, 32.2532, 4.1214, 2.66437, 3.52542, -0.0164075, -0.00325494, 0.000594506, 0.00145693, -0.00268074, -0.00586633, -0.0063823, 0.0626942, -0.00902562, -0.0111679, -0.0630811, 0.153554, 0.0969606, 0.474071, -0.53516, 0.340086, -2.07783, -2.17005, -0.123829, 0.474737, -0.538125, 0.338127, -2.07547, -2.18122, -0.121519, 0.0531742, 0.145527, 0.0736165, 0.0642621, 0.085739, 0.0526594
0.166023, 1.6992, -1.22308, -1.53497, -0.904192, -1.19638, 1.22982, -1.30247, 0.026511, 0.0520398, 0.108594, -0.174987, 0.00360802, -0.0216909, 0.00621805, 3.30451, 63.8904, 32.3682, 4.1214, 2.67627, 3.52542, -0.0685925, -0.00330997, 0.000607191, 0.00146436, -0.00275193, -0.00589315, -0.00653627, 0.0596944, -0.00999926, -0.0115483, -0.0644729, 0.147388, 0.105877, 0.474124, -0.535014, 0.34016, -2.07772, -2.17012, -0.123723, 0.474805, -0.538031, 0.338185, -2.07525, -2.1815, -0.121481, 0.0536985, 0.147036, 0.0743657, 0.0656261, 0.0903124, 0.0534617
0.167023, 1.69922, -1.22302, -1.53484, -0.904381, -1.19638, 1.2298, -1.30246, 0.0243053, 0.0520632, 0.111818, -0.179102, 0.00152905, -0.0257721, 0.00872411, 3.37989, 63.8904, 32.4396, 4.00635, 2.71289, 3.52542, -0.0557752, -0.00336696, 0.000616696, 0.00146726, -0.00283186, -0.00591933, -0.00669261, 0.0603419, -0.00866419, -0.0117416, -0.0683416, 0.148221, 0.104471, 0.474178, -0.534866, 0.340234, -2.07762, -2.17019, -0.123617, 0.474871, -0.537939, 0.338248, -2.07503, -2.18178, -0.121454, 0.0542231, 0.148547, 0.0751158, 0.06484, 0.0911527, 0.0539676
0.168023, 1.69923, -1.22297, -1.53472, -0.904576, -1.19639, 1.22978, -1.30245, 0.0220812, 0.0525594, 0.117137, -0.18635, 0.00447714, -0.0237375, 0.0110294, 3.49494, 63.8547, 32.515, 3.93494, 2.75592, 3.5181, -0.0484509, -0.00342586, 0.000625124, 0.00147325, -0.00290677, -0.00594617, -0.00684795, 0.0592075, -0.0100472, -0.0108031, -0.0641718, 0.148567, 0.108694, 0.474232, -0.534717, 0.34031, -2.07751, -2.17026, -0.123509, 0.474936, -0.537847, 0.338308, -2.07481, -2.18206, -0.121418, 0.054748, 0.150061, 0.0758669, 0.0667415, 0.0937085, 0.055774
0.169023, 1.69926, -1.22292, -1.53459, -0.904777, -1.19638, 1.22975, -1.30244, 0.0242122, 0.0521377, 0.117775, -0.189887, 0.00757938, -0.0273315, 0.00853429, 3.45527, 63.8547, 32.5904, 3.78418, 2.77515, 3.5181, -0.0557752, -0.0034779, 0.000641533, 0.00148302, -0.00298169, -0.00596243, -0.00702047, 0.0576976, -0.0112309, -0.0122782, -0.0679156, 0.145207, 0.116582, 0.474287, -0.534566, 0.340386, -2.0774, -2.17034, -0.123401, 0.475009, -0.537745, 0.338366, -2.07456, -2.18236, -0.121395, 0.0552732, 0.151577, 0.0766189, 0.0683313, 0.0969949, 0.0552618
0.170023, 1.69928, -1.22286, -1.53446, -0.904979, -1.19638, 1.22974, -1.30244, 0.020504, 0.0526383, 0.122483, -0.194974, 0.00390129, -0.0244062, 0.00893179, 3.49494, 63.819, 32.6261, 3.59772, 2.83008, 3.49612, 0.00373412, -0.0035345, 0.000655508, 0.00148962, -0.00306339, -0.0059897, -0.00719496, 0.059409, -0.0106207, -0.0110966, -0.0653237, 0.15123, 0.116829, 0.474343, -0.534414, 0.340463, -2.07729, -2.17041, -0.123291, 0.475081, -0.537647, 0.338428, -2.07432, -2.18267, -0.121366, 0.0557986, 0.153096, 0.0773717, 0.0683689, 0.0966169, 0.0569407
0.171023, 1.69929, -1.2228, -1.53432, -0.905199, -1.19638, 1.22971, -1.30243, 0.0150548, 0.0515211, 0.127596, -0.200938, 0.00234749, -0.0217514, 0.0122898, 3.6457, 63.7079, 32.5904, 3.48663, 2.8548, 3.46042, -0.0164075, -0.00358831, 0.000668764, 0.00149473, -0.00314165, -0.00601682, -0.00736755, 0.06126, -0.00952034, -0.0107785, -0.0619106, 0.153766, 0.114103, 0.474399, -0.53426, 0.340541, -2.07718, -2.17049, -0.12318, 0.475152, -0.537545, 0.338492, -2.07408, -2.18297, -0.121333, 0.0563242, 0.154618, 0.0781255, 0.0678883, 0.0962116, 0.0577631
0.172023, 1.6993, -1.22276, -1.53419, -0.905419, -1.19638, 1.22969, -1.30241, 0.0122319, 0.0503108, 0.124455, -0.205674, 0.00471117, -0.0256186, 0.0156426, 3.75678, 63.7436, 32.7015, 3.2605, 2.90973, 3.45309, -0.0621838, -0.00364502, 0.000680987, 0.00151063, -0.00320788, -0.00603178, -0.0075377, 0.0626039, -0.00743084, -0.0140033, -0.0694089, 0.150281, 0.110246, 0.474456, -0.534104, 0.340619, -2.07707, -2.17056, -0.123068, 0.475223, -0.537442, 0.338545, -2.07383, -2.18326, -0.121298, 0.05685, 0.156141, 0.07888, 0.0662558, 0.0968004, 0.0551991
0.173023, 1.69931, -1.2227, -1.53404, -0.905653, -1.19638, 1.22966, -1.3024, 0.0133059, 0.0537156, 0.131008, -0.215177, 0.00298805, -0.0280362, 0.010639, 3.87183, 63.5968, 32.5904, 3.14941, 2.93445, 3.43204, -0.0356336, -0.00369458, 0.0006978, 0.00151589, -0.00328611, -0.00605634, -0.00773575, 0.0592622, -0.00996255, -0.0117923, -0.0715486, 0.155439, 0.125961, 0.474513, -0.533947, 0.340699, -2.07696, -2.17064, -0.122956, 0.475299, -0.537333, 0.338611, -2.07356, -2.18359, -0.121268, 0.0573759, 0.157667, 0.0796352, 0.0692667, 0.101409, 0.0585653
0.174023, 1.69933, -1.22264, -1.5339, -0.905896, -1.19639, 1.22964, -1.30239, 0.0101588, 0.0528972, 0.138143, -0.221624, 0.000970441, -0.029233, 0.00727608, 4.02259, 63.45, 32.6261, 2.99866, 2.97748, 3.39633, -0.0164075, -0.00374595, 0.000714311, 0.00152515, -0.00335723, -0.00608427, -0.00793183, 0.0591895, -0.0098342, -0.0111036, -0.0705074, 0.156777, 0.133453, 0.47457, -0.533789, 0.340779, -2.07684, -2.17071, -0.122842, 0.475375, -0.537223, 0.338674, -2.07329, -2.18392, -0.121226, 0.0579019, 0.159194, 0.0803912, 0.0696938, 0.102898, 0.060018
0.175023, 1.69933, -1.22259, -1.53375, -0.906139, -1.19639, 1.22961, -1.30238, 0.0101323, 0.0551825, 0.144603, -0.234296, -4.29414e-05, -0.0255412, 0.0111393, 4.21302, 63.3032, 32.6261, 2.85187, 3.00769, 3.36062, -0.0420422, -0.00379993, 0.000728593, 0.00153351, -0.00343411, -0.00611035, -0.00812229, 0.0560071, -0.0136567, -0.0094176, -0.0684784, 0.163498, 0.142215, 0.474629, -0.533629, 0.340859, -2.07673, -2.17079, -0.122727, 0.475449, -0.537114, 0.338738, -2.07302, -2.18425, -0.12119, 0.0584279, 0.160724, 0.0811479, 0.0739783, 0.107494, 0.0627977
0.176023, 1.69934, -1.22253, -1.53359, -0.906387, -1.19639, 1.22958, -1.30237, 0.00816568, 0.0535174, 0.150268, -0.238774, -0.00153788, -0.0234394, 0.012792, 4.36378, 63.1564, 32.5904, 2.70111, 3.05713, 3.34598, -0.0356336, -0.0038509, 0.000745277, 0.00153945, -0.00351744, -0.00613397, -0.00832417, 0.0566181, -0.0141734, -0.00923993, -0.0649044, 0.165129, 0.143628, 0.474687, -0.533468, 0.340941, -2.07661, -2.17087, -0.122611, 0.475527, -0.537001, 0.338805, -2.07275, -2.18458, -0.121164, 0.0589541, 0.162256, 0.0819052, 0.0750567, 0.108421, 0.0636199
0.177023, 1.69934, -1.22247, -1.53342, -0.906652, -1.19639, 1.22955, -1.30236, 0.000832501, 0.0539951, 0.156583, -0.245559, -0.00214023, -0.0214272, 0.0130332, 4.62562, 62.9343, 32.5904, 2.70111, 3.09375, 3.31759, -0.00267457, -0.003901, 0.00076055, 0.00154438, -0.00359745, -0.00616138, -0.00853559, 0.0584122, -0.0123533, -0.00763479, -0.0605465, 0.168131, 0.14374, 0.474746, -0.533304, 0.341023, -2.07649, -2.17095, -0.122494, 0.475603, -0.536886, 0.338874, -2.07246, -2.18493, -0.12113, 0.0594802, 0.16379, 0.0826631, 0.07391, 0.107855, 0.0657515
0.178023, 1.69934, -1.22242, -1.53325, -0.906912, -1.1964, 1.22953, -1.30234, 0.00332019, 0.0524977, 0.163025, -0.248151, -0.00216133, -0.0240341, 0.0159996, 4.81605, 62.7875, 32.515, 2.59003, 3.11847, 3.27456, -0.0420422, -0.00395285, 0.000777297, 0.00155037, -0.0036885, -0.00618323, -0.00874177, 0.0566425, -0.0143645, -0.00746341, -0.059471, 0.166334, 0.147448, 0.474806, -0.53314, 0.341106, -2.07637, -2.17103, -0.122376, 0.475682, -0.536771, 0.338943, -2.07218, -2.18528, -0.121113, 0.0600063, 0.165325, 0.0834216, 0.0763821, 0.111208, 0.0668819
0.179023, 1.69934, -1.22237, -1.53307, -0.907189, -1.19639, 1.2295, -1.30232, 0.00413396, 0.0529405, 0.166731, -0.258998, -0.00177984, -0.0228357, 0.0179605, 4.92713, 62.7121, 32.4793, 2.47894, 3.13129, 3.26724, -0.0750012, -0.00399818, 0.000799353, 0.00156027, -0.0037736, -0.00619813, -0.008967, 0.0538539, -0.0174996, -0.00784784, -0.0607967, 0.168902, 0.156524, 0.474866, -0.532974, 0.34119, -2.07626, -2.17111, -0.122257, 0.475766, -0.536647, 0.339009, -2.07187, -2.18564, -0.121097, 0.0605324, 0.166863, 0.0841806, 0.0799107, 0.115706, 0.0675808
0.180023, 1.69934, -1.22231, -1.53289, -0.907478, -1.19639, 1.22947, -1.30232, 0.0028574, 0.0543926, 0.172458, -0.266972, -0.00128819, -0.0215524, 0.0155881, 5.11756, 62.4542, 32.3682, 2.47894, 3.13678, 3.25259, -0.00999879, -0.00404251, 0.000820869, 0.00156391, -0.00386244, -0.00622407, -0.00920835, 0.0523211, -0.0191817, -0.00641256, -0.0584885, 0.171981, 0.166342, 0.474927, -0.532806, 0.341275, -2.07613, -2.17119, -0.122137, 0.47585, -0.536522, 0.339083, -2.07155, -2.18603, -0.121075, 0.0610583, 0.168402, 0.0849401, 0.0821157, 0.118622, 0.0699347
0.181023, 1.69934, -1.22227, -1.53271, -0.90776, -1.19639, 1.22944, -1.3023, 0.00137617, 0.0491197, 0.174927, -0.273243, -0.00125715, -0.0262697, 0.0120366, 5.19294, 62.4542, 32.2928, 2.36389, 3.1496, 3.26724, -0.0164075, -0.00409082, 0.000840517, 0.00157807, -0.00394391, -0.00623272, -0.00943612, 0.0522076, -0.0188004, -0.0103614, -0.0641749, 0.165832, 0.174047, 0.474989, -0.532637, 0.34136, -2.07601, -2.17127, -0.122016, 0.475933, -0.536397, 0.339146, -2.07123, -2.18639, -0.12106, 0.0615842, 0.169942, 0.0857, 0.0820964, 0.120856, 0.0668255
0.182023, 1.69933, -1.22221, -1.53254, -0.90805, -1.1964, 1.22941, -1.30229, -0.00168317, 0.0508996, 0.173514, -0.277483, -0.000984273, -0.0289847, 0.0156911, 5.3437, 62.2321, 32.2928, 2.25281, 3.15509, 3.25992, -0.0685925, -0.00414019, 0.000858836, 0.00158637, -0.00402742, -0.00625589, -0.00966196, 0.0536971, -0.0166667, -0.0110377, -0.0696129, 0.167479, 0.169289, 0.47505, -0.532466, 0.341446, -2.07589, -2.17135, -0.121894, 0.476015, -0.536273, 0.339216, -2.07092, -2.18675, -0.121031, 0.0621099, 0.171484, 0.0864603, 0.0805299, 0.12093, 0.0667643
0.183023, 1.69933, -1.22217, -1.53235, -0.908351, -1.19639, 1.22938, -1.30228, -0.00311898, 0.052276, 0.179766, -0.283063, -0.000613226, -0.0259724, 0.0147049, 5.45875, 62.1249, 32.1818, 2.2171, 3.15509, 3.24527, -0.0228162, -0.00418565, 0.000881399, 0.00159602, -0.00412038, -0.00626986, -0.00991227, 0.0530485, -0.0181187, -0.00896347, -0.0642334, 0.171175, 0.175683, 0.475113, -0.532294, 0.341533, -2.07577, -2.17143, -0.121771, 0.476101, -0.536143, 0.339285, -2.07059, -2.18715, -0.121024, 0.0626355, 0.173028, 0.087221, 0.082568, 0.122871, 0.0696228
0.184023, 1.69931, -1.22212, -1.53214, -0.908664, -1.19639, 1.22936, -1.30226, -0.00684824, 0.0472439, 0.187218, -0.293328, -0.000851318, -0.0237431, 0.0152896, 5.68488, 62.0139, 32.0707, 2.17743, 3.16791, 3.23153, -0.00999879, -0.0042317, 0.000902486, 0.00160459, -0.00421703, -0.00628549, -0.0101634, 0.0524376, -0.0194567, -0.0108044, -0.0611512, 0.168901, 0.182841, 0.475176, -0.53212, 0.34162, -2.07564, -2.17152, -0.121646, 0.476187, -0.536013, 0.339357, -2.07025, -2.18754, -0.121017, 0.0631608, 0.174573, 0.087982, 0.0843306, 0.125362, 0.0686129
0.185023, 1.69931, -1.22208, -1.53194, -0.908984, -1.19639, 1.22933, -1.30225, -0.00593814, 0.0442904, 0.191924, -0.298137, -6.86647e-05, -0.0268659, 0.0132403, 5.76026, 62.0139, 31.9953, 2.14172, 3.15509, 3.21689, -0.0557752, -0.00427234, 0.000931503, 0.00161701, -0.00432116, -0.00629034, -0.0104261, 0.0510072, -0.0207857, -0.0123665, -0.0626151, 0.165049, 0.191417, 0.475239, -0.531945, 0.341709, -2.07552, -2.1716, -0.121521, 0.476281, -0.535874, 0.339426, -2.0699, -2.18795, -0.121031, 0.0636859, 0.176119, 0.0887433, 0.0860607, 0.128622, 0.0680039
0.186023, 1.69929, -1.22203, -1.53173, -0.909305, -1.19639, 1.2293, -1.30224, -0.00719229, 0.0441027, 0.197683, -0.304638, 0.0037464, -0.029446, 0.0133023, 5.91102, 61.7917, 31.9556, 2.10602, 3.17981, 3.20956, -0.0228162, -0.00431729, 0.00095329, 0.00162282, -0.00442023, -0.00630783, -0.0106897, 0.0490036, -0.0218373, -0.0120162, -0.0615423, 0.161757, 0.198701, 0.475303, -0.531768, 0.341798, -2.07539, -2.17169, -0.121395, 0.476368, -0.53574, 0.339502, -2.06955, -2.18836, -0.121025, 0.0642108, 0.177667, 0.0895048, 0.0875692, 0.132147, 0.0693811
0.187023, 1.69928, -1.22198, -1.53151, -0.909636, -1.19639, 1.22927, -1.30222, -0.0071736, 0.0444415, 0.203741, -0.310186, 0.00266463, -0.0313108, 0.0159217, 6.0221, 61.6806, 31.8445, 2.10602, 3.18622, 3.20224, -0.0557752, -0.00435777, 0.000980542, 0.00162941, -0.00452713, -0.00632046, -0.010961, 0.0476474, -0.0230136, -0.0111125, -0.0615254, 0.163296, 0.20233, 0.475368, -0.53159, 0.341888, -2.07526, -2.17177, -0.121268, 0.476462, -0.535599, 0.339578, -2.0692, -2.18878, -0.121032, 0.0647353, 0.179216, 0.0902666, 0.0892521, 0.134957, 0.0712013
