alisrour97/Franka_experiments/Real_Robot_scripts/servo-franka/Data_5_ki/log_dyn_PI0_7.csv
Time,q1,q2,q3,q4,q5,q6,q7,dq1,dq2,dq3,dq4,dq5,dq6,dq7,t1,t2,t3,t4,t5,t6,t7,ex1,ex2,ex3,ex4,ex5,ex6,ev1,ev2,ev3,ev4,ev5,ev6,xd,yd,zd,uxd,uyd,uzd,x,y,z,ux,uy,uz,vxd,vyd,vzd,vx,vy,vz
4.88281e-07, 1.69125, -1.2274, -1.53901, -0.900078, -1.19221, 1.22836, -1.30266, -0.0056572, 0.00655981, -0.00895729, 0.00733265, 0.000327527, -0.00234177, 0.00233067, 0.737679, 62.3074, 30.6544, 6.62079, 2.59662, 3.2883, -0.114369, 0.000452579, -0.00184833, 0.00152713, 0.00156454, 0.00104959, 0.000636309, 0.00575529, 0.00686444, 0.00174118, -0.00487174, 0.00496382, -0.0187722, 0.471008, -0.543389, 0.335894, -2.08385, -2.16584, -0.129887, 0.469099, -0.542775, 0.334512, -2.08313, -2.16399, -0.129163, -4.06186e-05, 0.000124715, 6.6488e-05, -0.00662756, -0.00610592, 0.00109942
0.0121267, 1.69122, -1.22736, -1.53906, -0.900051, -1.19221, 1.22836, -1.30267, -0.00449787, 0.00428637, -0.00529918, 0.0022942, -0.000507044, -0.000569495, -0.00133543, 0.360787, 62.2321, 30.579, 6.69617, 2.59662, 3.31027, -0.0557752, 0.000423566, -0.0018816, 0.00151609, 0.00159041, 0.0010059, 0.00071138, 0.00365141, 0.00414853, 0.00106632, -0.00332774, 0.00456316, -0.00811113, 0.471008, -0.543389, 0.335894, -2.08385, -2.16584, -0.129887, 0.469059, -0.542815, 0.334519, -2.08324, -2.1639, -0.129069, -6.68636e-05, 0.000218577, 0.000115026, -0.00404099, -0.00372006, 0.000726262
0.0131267, 1.69122, -1.22736, -1.53906, -0.900051, -1.19221, 1.22836, -1.30267, -0.00449787, 0.00428637, -0.00529918, 0.0022942, -0.000507044, -0.000569495, -0.00133543, 0.360787, 62.2321, 30.579, 6.69617, 2.59662, 3.31027, -0.0557752, 0.000423543, -0.0018816, 0.0015161, 0.00159039, 0.0010059, 0.000711392, 0.00376228, 0.00412245, 0.00103067, -0.00337491, 0.00463557, -0.00820083, 0.471008, -0.543389, 0.335894, -2.08385, -2.16584, -0.129887, 0.469059, -0.542815, 0.334519, -2.08324, -2.1639, -0.129069, -9.5592e-05, 0.000321476, 0.000168224, -0.00404099, -0.00372006, 0.000726262
0.0141267, 1.69122, -1.22736, -1.53906, -0.900051, -1.19221, 1.22836, -1.30267, -0.00449787, 0.00428637, -0.00529918, 0.0022942, -0.000507044, -0.000569495, -0.00133543, 0.360787, 62.2321, 30.579, 6.69617, 2.59662, 3.31027, -0.0557752, 0.000423481, -0.00188158, 0.00151612, 0.00159036, 0.00100592, 0.000711425, 0.00388325, 0.00409403, 0.000991777, -0.00342628, 0.00471456, -0.00829863, 0.471008, -0.543389, 0.335894, -2.08385, -2.16584, -0.129887, 0.469059, -0.542815, 0.334519, -2.08324, -2.1639, -0.129069, -0.000126895, 0.000433757, 0.000226255, -0.00404099, -0.00372006, 0.000726262
0.0151267, 1.69122, -1.22736, -1.53906, -0.900051, -1.19221, 1.22836, -1.30267, -0.00449787, 0.00428637, -0.00529918, 0.0022942, -0.000507044, -0.000569495, -0.00133543, 0.360787, 62.2321, 30.579, 6.69617, 2.59662, 3.31027, -0.0557752, 0.000423362, -0.00188155, 0.00151616, 0.00159031, 0.00100595, 0.000711489, 0.00401469, 0.0040632, 0.000949534, -0.00348202, 0.00480034, -0.00840481, 0.471008, -0.543389, 0.335894, -2.08385, -2.16584, -0.129887, 0.469059, -0.542815, 0.334519, -2.08324, -2.1639, -0.129069, -0.000160861, 0.000555757, 0.000289294, -0.00404099, -0.00372006, 0.000726262
0.0161267, 1.69122, -1.22736, -1.53906, -0.900051, -1.19221, 1.22836, -1.30267, -0.00449787, 0.00428637, -0.00529918, 0.0022942, -0.000507044, -0.000569495, -0.00133543, 0.360787, 62.2321, 30.579, 6.69617, 2.59662, 3.31027, -0.0557752, 0.000423164, -0.00188151, 0.00151622, 0.00159021, 0.00100599, 0.000711595, 0.00415696, 0.00402987, 0.000903824, -0.00354225, 0.00489315, -0.00851966, 0.471008, -0.543389, 0.335894, -2.08385, -2.16584, -0.129886, 0.469059, -0.542815, 0.334519, -2.08324, -2.1639, -0.129069, -0.000197581, 0.000687809, 0.000357511, -0.00404099, -0.00372006, 0.000726262
0.0171267, 1.69122, -1.22736, -1.53906, -0.900051, -1.19221, 1.22836, -1.30267, -0.00449787, 0.00428637, -0.00529918, 0.0022942, -0.000507044, -0.000569495, -0.00133543, 0.360787, 62.2321, 30.579, 6.69617, 2.59662, 3.31027, -0.0557752, 0.000422871, -0.00188144, 0.00151632, 0.00159007, 0.00100606, 0.000711751, 0.00431041, 0.00399398, 0.000854536, -0.00360713, 0.00499323, -0.00864346, 0.471008, -0.543389, 0.335894, -2.08385, -2.16584, -0.129886, 0.469059, -0.542815, 0.334519, -2.08324, -2.1639, -0.129069, -0.000237139, 0.000830243, 0.000431075, -0.00404099, -0.00372006, 0.000726262
0.0181267, 1.69122, -1.22736, -1.53906, -0.900051, -1.19221, 1.22836, -1.30267, -0.00449787, 0.00428637, -0.00529918, 0.0022942, -0.000507044, -0.000569495, -0.00133543, 0.360787, 62.2321, 30.579, 6.69617, 2.59662, 3.31027, -0.0557752, 0.000422462, -0.00188134, 0.00151645, 0.00158988, 0.00100616, 0.000711969, 0.00447538, 0.00395543, 0.000801558, -0.00367679, 0.00510078, -0.00877646, 0.471008, -0.543388, 0.335894, -2.08385, -2.16584, -0.129886, 0.469059, -0.542815, 0.334519, -2.08324, -2.1639, -0.129069, -0.000279621, 0.000983381, 0.00051015, -0.00404099, -0.00372006, 0.000726262
0.0191267, 1.69122, -1.22736, -1.53906, -0.900051, -1.19221, 1.22836, -1.30267, -0.00449787, 0.00428637, -0.00529918, 0.0022942, -0.000507044, -0.000569495, -0.00133543, 0.360787, 62.2321, 30.579, 6.69617, 2.59662, 3.31027, -0.0557752, 0.00042192, -0.00188121, 0.00151662, 0.00158962, 0.00100628, 0.000712258, 0.00465222, 0.00391417, 0.000744782, -0.00375136, 0.00521604, -0.00891895, 0.471008, -0.543388, 0.335895, -2.08385, -2.16584, -0.129886, 0.469059, -0.542815, 0.334519, -2.08324, -2.1639, -0.129069, -0.00032511, 0.00114754, 0.000594898, -0.00404099, -0.00372006, 0.000726262
0.0201267, 1.69122, -1.22736, -1.53906, -0.900051, -1.19221, 1.22836, -1.30267, -0.00449787, 0.00428637, -0.00529918, 0.0022942, -0.000507044, -0.000569495, -0.00133543, 0.360787, 62.2321, 30.579, 6.69617, 2.59662, 3.31027, -0.0557752, 0.000421224, -0.00188105, 0.00151685, 0.00158928, 0.00100644, 0.000712628, 0.00484127, 0.0038701, 0.000684103, -0.00383097, 0.00533921, -0.00907119, 0.471007, -0.543387, 0.335895, -2.08384, -2.16584, -0.129885, 0.469059, -0.542815, 0.334519, -2.08324, -2.1639, -0.129069, -0.000373687, 0.00132303, 0.000685479, -0.00404099, -0.00372006, 0.000726262
0.0211267, 1.69122, -1.22736, -1.53906, -0.900051, -1.19221, 1.22836, -1.30267, -0.00449787, 0.00428637, -0.00529918, 0.0022942, -0.000507044, -0.000569495, -0.00133543, 0.360787, 62.2321, 30.579, 6.69617, 2.59662, 3.31027, -0.0557752, 0.000420358, -0.00188084, 0.00151713, 0.00158887, 0.00100665, 0.000713089, 0.00504284, 0.00382317, 0.000619417, -0.00391576, 0.0054705, -0.00923342, 0.471007, -0.543386, 0.335895, -2.08384, -2.16584, -0.129884, 0.469059, -0.542815, 0.334519, -2.08324, -2.1639, -0.129069, -0.000425431, 0.00151016, 0.000782046, -0.00404099, -0.00372006, 0.000726262
0.0221267, 1.69122, -1.22736, -1.53906, -0.900051, -1.19221, 1.22836, -1.30267, -0.00449787, 0.00428637, -0.00529918, 0.0022942, -0.000507044, -0.000569495, -0.00133543, 0.360787, 62.2321, 30.579, 6.69617, 2.59662, 3.31027, -0.0557752, 0.000419303, -0.00188059, 0.00151747, 0.00158836, 0.00100689, 0.00071365, 0.00525726, 0.00377331, 0.000550623, -0.00400585, 0.00561012, -0.00940589, 0.471007, -0.543385, 0.335896, -2.08384, -2.16584, -0.129884, 0.469059, -0.542815, 0.334519, -2.08324, -2.1639, -0.129069, -0.000480419, 0.00170921, 0.00088475, -0.00404099, -0.00372006, 0.000726262
0.0231267, 1.69119, -1.22736, -1.53907, -0.90006, -1.19219, 1.22836, -1.30266, -0.000910871, -0.000953213, 0.000120426, -0.0026767, 0.00357445, -8.03187e-05, 0.000195774, -0.0557783, 62.2321, 30.5433, 6.77154, 2.41809, 3.31027, -0.10796, 0.0004133, -0.00188975, 0.00152042, 0.00158551, 0.0010228, 0.000726156, 0.00102889, -0.00100299, -0.00151347, -0.000392751, -0.0023642, 0.000841939, 0.471007, -0.543384, 0.335896, -2.08384, -2.16585, -0.129883, 0.46905, -0.54282, 0.334516, -2.08325, -2.16387, -0.129086, -0.000538724, 0.00192048, 0.000993739, 0.000445127, 0.0011787, -0.0006906
0.0241267, 1.69119, -1.22736, -1.53907, -0.900064, -1.19218, 1.22836, -1.30267, -0.000814608, -0.000628872, -0.000836176, -0.00264851, 0.00350195, 0.000217195, -0.000344208, -0.0557783, 62.2321, 30.579, 6.80725, 2.38788, 3.30295, -0.0951428, 0.000413153, -0.00188856, 0.00152309, 0.00158517, 0.00102905, 0.000722569, 0.00144926, -0.000978473, -0.00171451, -0.00107972, -0.00161584, 0.000768356, 0.471006, -0.543383, 0.335897, -2.08384, -2.16585, -0.129882, 0.46905, -0.542818, 0.334514, -2.08324, -2.16388, -0.129092, -0.000600418, 0.00214425, 0.00110915, 0.000366724, 0.00101741, -0.0008382
0.0251267, 1.69119, -1.22736, -1.53907, -0.900064, -1.19218, 1.22836, -1.30267, -0.00162661, -0.00567932, -0.00339109, -2.40535e-05, -0.00502851, 0.000415669, -0.00195881, -0.0161054, 62.0496, 30.4322, 6.73187, 2.33295, 3.29562, -0.0484509, 0.00040946, -0.00188974, 0.00152628, 0.00158325, 0.00103457, 0.000721819, 0.00555575, 0.00128926, -0.00524576, -0.00627247, 0.000509513, -0.00491537, 0.471006, -0.543381, 0.335898, -2.08384, -2.16585, -0.129881, 0.469049, -0.542819, 0.334511, -2.08324, -2.16388, -0.129099, -0.00066557, 0.00238079, 0.00123113, -0.00194386, -0.0023494, -0.00477202
0.0261267, 1.69119, -1.22737, -1.53907, -0.900066, -1.19218, 1.22836, -1.30267, -0.000273029, -0.00776312, -0.00266638, 0.00173099, -0.00357665, 0.000548084, -0.00225531, -0.0557783, 61.6449, 30.0236, 6.65649, 2.19104, 3.2883, -0.0228162, 0.000409921, -0.00188611, 0.00152906, 0.00157982, 0.00104072, 0.000712747, 0.00551586, 0.000506084, -0.00611555, -0.00450974, -0.00267378, -0.00416236, 0.471005, -0.543379, 0.335899, -2.08384, -2.16585, -0.129879, 0.469052, -0.542817, 0.33451, -2.08322, -2.16388, -0.129108, -0.000734245, 0.00263035, 0.0013598, -0.00126319, -0.00189455, -0.0055196
0.0271267, 1.6912, -1.22737, -1.53907, -0.900078, -1.19219, 1.22836, -1.30267, 0.00149374, -0.00733785, -0.00357668, 0.000213812, -0.00352386, 0.00926334, -0.00197826, -0.131157, 61.1292, 29.6506, 6.69617, 2.06836, 3.30295, -0.00999879, 0.000410473, -0.00188141, 0.00153707, 0.00159275, 0.00104017, 0.00070525, 0.00561278, -0.00232232, -0.00581892, 0.00121356, 0.00244969, -0.00202206, 0.471005, -0.543377, 0.3359, -2.08384, -2.16585, -0.129878, 0.469056, -0.542812, 0.334503, -2.08321, -2.16389, -0.129092, -0.000806507, 0.00289319, 0.0014953, 0.00150347, -0.00165733, -0.00519149
0.0281267, 1.6912, -1.22738, -1.53909, -0.900083, -1.19219, 1.22836, -1.30267, 0.00176543, -0.00525992, -0.00565096, -0.0024533, -0.00403632, 0.00618222, -0.000844124, -0.166862, 60.6491, 29.3134, 6.65649, 1.95758, 3.324, -0.0228162, 0.00040672, -0.00188033, 0.00154808, 0.00161061, 0.0010425, 0.000708921, 0.00501526, -0.002115, -0.00608287, -0.00477755, 0.00398506, -0.00199798, 0.471004, -0.543375, 0.335901, -2.08384, -2.16585, -0.129876, 0.469056, -0.542812, 0.334492, -2.0832, -2.16388, -0.129073, -0.000882416, 0.00316954, 0.00163773, 0.00118961, -0.000758934, -0.00521071
0.0291267, 1.69121, -1.2274, -1.53911, -0.900083, -1.1922, 1.22837, -1.30267, 0.00289099, -0.0045283, -0.00914591, -0.00198379, -0.00500961, 0.0093973, -0.000325392, -0.242241, 60.3198, 29.0555, 6.5097, 1.85962, 3.324, -0.0292249, 0.000399599, -0.00187876, 0.00156653, 0.00163198, 0.00104927, 0.000715858, 0.00615275, -0.00256325, -0.00670505, -0.00551512, 0.00752451, -0.00408693, 0.471003, -0.543372, 0.335903, -2.08383, -2.16585, -0.129874, 0.469056, -0.542814, 0.334474, -2.08319, -2.16386, -0.129053, -0.000962028, 0.00345964, 0.00178723, 0.00157589, -0.0014777, -0.0058656
0.0301267, 1.69122, -1.22741, -1.53913, -0.900096, -1.19221, 1.22837, -1.30267, 0.00281844, -0.00959485, -0.0107263, -0.00628951, -0.00753453, 0.012296, 2.04299e-05, -0.281914, 60.0977, 28.754, 6.54541, 1.81018, 3.31027, -0.0356336, 0.000394647, -0.00187582, 0.00158621, 0.00165855, 0.00105419, 0.000714407, 0.00684123, -0.00361856, -0.0106861, -0.00814913, 0.00666775, -0.00251025, 0.471002, -0.543369, 0.335904, -2.08383, -2.16585, -0.129871, 0.469058, -0.542812, 0.334456, -2.08317, -2.16385, -0.129026, -0.0010454, 0.0037637, 0.0019439, 0.00242736, -0.00119743, -0.00977857
0.0311267, 1.69122, -1.22743, -1.53916, -0.900096, -1.19223, 1.22839, -1.30266, 0.00337722, -0.0125887, -0.0148969, -0.00576438, -0.0109028, 0.0126715, 0.000996963, -0.206535, 59.9866, 28.5715, 6.43433, 1.80469, 3.21689, -0.0621838, 0.000379063, -0.00187777, 0.00160697, 0.00167341, 0.00105301, 0.000736558, 0.00894433, -0.00290159, -0.0139576, -0.0132708, 0.00709252, -0.00674785, 0.471002, -0.543366, 0.335906, -2.08383, -2.16586, -0.129869, 0.469055, -0.542821, 0.334435, -2.08318, -2.16382, -0.129004, -0.00113257, 0.00408193, 0.00210783, 0.00158123, -0.00248128, -0.0131498
0.0321267, 1.69122, -1.22744, -1.53917, -0.900107, -1.19224, 1.2284, -1.30266, 0.00638707, -0.00974246, -0.0149392, -0.00896778, -0.0134021, 0.0166105, 0.000902001, -0.242241, 59.8041, 28.274, 6.47003, 1.80469, 3.14548, -0.0685925, 0.000371713, -0.00187315, 0.00162196, 0.00169104, 0.00104171, 0.000737263, 0.00766433, -0.00576913, -0.0126724, -0.0129521, 0.0145329, -0.0020713, 0.471001, -0.543362, 0.335908, -2.08383, -2.16586, -0.129866, 0.469058, -0.542822, 0.33442, -2.08318, -2.16382, -0.12897, -0.0012236, 0.00441451, 0.00227914, 0.00435465, -0.000965499, -0.0115972
0.0331267, 1.69123, -1.22747, -1.5392, -0.900114, -1.19226, 1.22841, -1.30266, 0.00386675, -0.0149132, -0.021884, -0.0103678, -0.0143942, 0.0136349, 0.000363974, -0.206535, 59.8041, 28.1232, 6.47003, 1.78638, 3.10245, -0.0621838, 0.00036024, -0.00187185, 0.00164516, 0.00171671, 0.00104259, 0.000744932, 0.0105545, -0.00296597, -0.018615, -0.0229324, 0.00945544, -0.00667163, 0.470999, -0.543358, 0.33591, -2.08382, -2.16586, -0.129863, 0.469058, -0.542826, 0.334398, -2.08317, -2.16381, -0.128939, -0.00131852, 0.00476163, 0.0024579, 0.00134899, -0.00267177, -0.0176503
0.0341267, 1.69123, -1.22747, -1.53922, -0.900118, -1.19227, 1.22842, -1.30266, 0.00418502, -0.0108585, -0.0236955, -0.00966662, -0.00992982, 0.0100869, 0.000717367, -0.131157, 59.6176, 27.9725, 6.39465, 1.75525, 3.09512, -0.0750012, 0.000351239, -0.00187011, 0.00165541, 0.00173338, 0.00102971, 0.000757317, 0.00975366, -0.00253909, -0.01723, -0.0250579, 0.00840277, -0.00708577, 0.470998, -0.543354, 0.335912, -2.08382, -2.16586, -0.12986, 0.469058, -0.542829, 0.334388, -2.08317, -2.1638, -0.128903, -0.00141737, 0.00512346, 0.00264421, 0.000845157, -0.00174997, -0.0159593
0.0351267, 1.69124, -1.22749, -1.53924, -0.900127, -1.19228, 1.22843, -1.30266, 0.0015296, -0.0149544, -0.0204208, -0.0101845, -0.00570033, 0.00648896, -0.000233832, -0.0557783, 59.7287, 27.9011, 6.35895, 1.70032, 3.11618, -0.0557752, 0.000341841, -0.00186713, 0.00167817, 0.00175905, 0.00103447, 0.000759754, 0.009675, -0.0017271, -0.0188525, -0.023691, -0.00090798, -0.00556119, 0.470997, -0.543349, 0.335915, -2.08382, -2.16586, -0.129856, 0.469059, -0.54283, 0.334367, -2.08316, -2.16379, -0.128875, -0.00152019, 0.00550014, 0.00283813, -0.000130037, -0.00107919, -0.0173308
0.0361267, 1.69125, -1.22748, -1.53926, -0.900126, -1.1923, 1.22843, -1.30267, 0.0036393, -0.0104877, -0.0198551, -0.00432315, -0.00750236, 0.00834423, -0.00185131, -0.0161054, 59.5462, 27.79, 6.20819, 1.65088, 3.14548, -0.00999879, 0.000333007, -0.00186357, 0.00168411, 0.00177192, 0.00101364, 0.000762318, 0.0109124, -0.00185362, -0.0152986, -0.0197695, 0.00572475, -0.00774205, 0.470995, -0.543344, 0.335917, -2.08381, -2.16587, -0.129852, 0.469062, -0.542832, 0.334362, -2.08316, -2.16379, -0.128835, -0.00162701, 0.00589181, 0.00303974, 6.21172e-05, -0.00245088, -0.0138158
0.0371267, 1.69127, -1.22749, -1.53928, -0.900136, -1.19232, 1.22845, -1.30267, 0.00952713, -0.00756507, -0.0188693, -0.007262, -0.0102874, 0.00986204, -0.00198019, -0.0161054, 59.5065, 27.79, 6.20819, 1.63898, 3.17386, 0.0101428, 0.000327747, -0.00185469, 0.00169597, 0.00179624, 0.000992119, 0.000755446, 0.00809746, -0.00600017, -0.0139559, -0.0211369, 0.0123288, -8.73337e-05, 0.470994, -0.543338, 0.33592, -2.08381, -2.16587, -0.129848, 0.469069, -0.54283, 0.334352, -2.08315, -2.16381, -0.128783, -0.00173785, 0.0062986, 0.00324909, 0.00404022, 0.000697984, -0.0119688
0.0381267, 1.69128, -1.22748, -1.53931, -0.900138, -1.19233, 1.22846, -1.30266, 0.00787737, -0.00449891, -0.0185226, -0.00662928, -0.0111086, 0.0161129, -0.000336784, 0.0949785, 59.4351, 27.8257, 6.09711, 1.59595, 3.18851, -0.0164075, 0.000318982, -0.00184958, 0.0017029, 0.00180812, 0.000972329, 0.000763716, 0.00992629, -0.0060934, -0.0114548, -0.0151598, 0.0193166, -0.00443972, 0.470992, -0.543332, 0.335923, -2.0838, -2.16587, -0.129843, 0.469072, -0.542831, 0.334347, -2.08316, -2.16381, -0.128744, -0.00185274, 0.00672061, 0.00346625, 0.00417423, -0.0010666, -0.00956866
0.0391267, 1.69129, -1.22748, -1.53932, -0.90015, -1.19235, 1.22847, -1.30266, 0.00798723, 0.00235532, -0.0173535, -0.00630972, -0.00730726, 0.0166002, -0.000224523, 0.285408, 59.4351, 27.8257, 6.13678, 1.55932, 3.19583, -0.0164075, 0.000313295, -0.00184202, 0.00171061, 0.00182247, 0.000953137, 0.000758692, 0.00885674, -0.00679144, -0.00708228, -0.0114287, 0.0234794, -0.0033889, 0.470991, -0.543326, 0.335927, -2.0838, -2.16588, -0.129838, 0.469078, -0.542829, 0.334342, -2.08315, -2.16382, -0.128705, -0.0019717, 0.00715794, 0.00369125, 0.0048721, -0.000217705, -0.00488118
0.0401267, 1.6913, -1.22748, -1.53933, -0.900157, -1.19236, 1.22848, -1.30266, 0.00842245, 0.00061823, -0.0172082, -0.00400009, -0.00581489, 0.0120338, 0.000562395, 0.475838, 59.4708, 27.8614, 6.09711, 1.55932, 3.20956, -0.0356336, 0.000306983, -0.00183277, 0.0017169, 0.00183105, 0.000931774, 0.000756244, 0.00919702, -0.00602083, -0.00830991, -0.013891, 0.0183859, -0.00555584, 0.470989, -0.543319, 0.33593, -2.08379, -2.16588, -0.129833, 0.469085, -0.542827, 0.334338, -2.08315, -2.16384, -0.128668, -0.00209472, 0.00761066, 0.00392413, 0.00394729, 5.64714e-05, -0.00589006
0.0411267, 1.69131, -1.22747, -1.53934, -0.900172, -1.19238, 1.22849, -1.30266, 0.00975294, 0.0011598, -0.0155682, -0.00413597, -0.00900339, 0.0125075, 0.00037493, 0.777352, 59.4351, 27.9725, 6.13678, 1.55292, 3.24527, -0.0356336, 0.000299143, -0.00182608, 0.00172122, 0.00184421, 0.000901834, 0.000754051, 0.00935935, -0.00691951, -0.00761845, -0.0139658, 0.0220448, -0.00462558, 0.470987, -0.543312, 0.335934, -2.08379, -2.16589, -0.129827, 0.46909, -0.542826, 0.334336, -2.08315, -2.16385, -0.128618, -0.00222183, 0.00807884, 0.00416491, 0.0047485, 0.000294789, -0.00501881
0.0421267, 1.69131, -1.22748, -1.53936, -0.900184, -1.19241, 1.22851, -1.30266, 0.00683903, -0.00096292, -0.0174644, -0.00671897, -0.0129817, 0.0134359, -0.00168283, 1.11457, 59.5065, 28.0875, 6.13678, 1.58954, 3.26724, 0.0165515, 0.00028732, -0.00182042, 0.00173087, 0.00185485, 0.000877995, 0.000753953, 0.0118838, -0.00540484, -0.00982789, -0.0178363, 0.0242398, -0.00580153, 0.470984, -0.543304, 0.335938, -2.08378, -2.16589, -0.129821, 0.469094, -0.542828, 0.334328, -2.08315, -2.16387, -0.128576, -0.00235303, 0.00856251, 0.00441363, 0.00311515, -0.0014358, -0.0072978
0.0431267, 1.69133, -1.22747, -1.53938, -0.900194, -1.19243, 1.22852, -1.30266, 0.00650624, -0.000691207, -0.0187901, -0.0112698, -0.0155872, 0.0131001, 0.00104825, 1.38038, 59.5065, 28.3454, 6.09711, 1.62067, 3.31759, -0.0420422, 0.000277576, -0.00181254, 0.00174, 0.0018715, 0.000852452, 0.000761559, 0.0119501, -0.00576323, -0.0109525, -0.0228113, 0.0273016, -0.00681784, 0.470982, -0.543295, 0.335942, -2.08378, -2.16589, -0.129815, 0.469099, -0.542828, 0.334322, -2.08315, -2.16387, -0.128525, -0.00248832, 0.00906169, 0.00467028, 0.00329953, -0.000814325, -0.00817276
0.0441267, 1.69133, -1.22747, -1.53937, -0.900209, -1.19245, 1.22854, -1.30266, 0.00468582, -0.000497751, -0.00692494, -0.0120422, -0.0176509, 0.0147877, 0.000461477, 1.72157, 59.5065, 28.3454, 6.09711, 1.65729, 3.31759, -0.0356336, 0.000268916, -0.00180259, 0.00174263, 0.00186698, 0.000824797, 0.000754374, 0.011184, -0.00720493, -0.00667188, -0.0122258, 0.0296229, -0.00278205, 0.47098, -0.543286, 0.335947, -2.08377, -2.1659, -0.129808, 0.469107, -0.542827, 0.334322, -2.08316, -2.1639, -0.128496, -0.00262768, 0.00957641, 0.00493487, 0.0047273, -0.000142902, -0.00360595
0.0451267, 1.69135, -1.22748, -1.53939, -0.900211, -1.19247, 1.22856, -1.30266, 0.0101263, -0.00388602, -0.0108323, -0.00829538, -0.0193756, 0.0146137, 7.02926e-05, 1.90803, 59.6573, 28.6072, 5.91064, 1.70032, 3.3533, -0.0292249, 0.000256254, -0.00179179, 0.00175794, 0.00187759, 0.000807008, 0.000755386, 0.011904, -0.00869731, -0.0100125, -0.0161818, 0.0280366, -0.00314713, 0.470977, -0.543277, 0.335952, -2.08376, -2.1659, -0.129801, 0.469115, -0.542827, 0.33431, -2.08315, -2.16391, -0.128458, -0.00277111, 0.0101066, 0.00520739, 0.00597937, 0.000251739, -0.00678878
0.0461267, 1.69136, -1.22748, -1.53939, -0.90022, -1.19249, 1.22857, -1.30266, 0.0131697, -0.00113868, -0.00812474, -0.00486824, -0.0200562, 0.0140179, 0.00052158, 2.13416, 59.7287, 28.6429, 5.83527, 1.73053, 3.40365, -0.0420422, 0.0002483, -0.00177875, 0.00176456, 0.00187888, 0.000785221, 0.000748104, 0.0114099, -0.0100154, -0.00736256, -0.0135061, 0.0310376, -0.00303748, 0.470974, -0.543267, 0.335957, -2.08375, -2.16591, -0.129793, 0.469125, -0.542823, 0.334307, -2.08315, -2.16394, -0.128428, -0.00291859, 0.0106523, 0.00548782, 0.00722641, 0.000931495, -0.00385491
0.0471267, 1.69138, -1.22749, -1.5394, -0.90022, -1.19252, 1.2286, -1.30266, 0.0153328, -0.00311123, -0.00723075, -0.00319807, -0.0260251, 0.0139268, 0.00034772, 2.3603, 59.8398, 28.7183, 5.6488, 1.77997, 3.44668, -0.0420422, 0.000234753, -0.00176729, 0.00177193, 0.00187554, 0.000758618, 0.000750098, 0.0127199, -0.0104971, -0.00828717, -0.0155416, 0.0341697, -0.00420118, 0.470971, -0.543256, 0.335962, -2.08375, -2.16592, -0.129785, 0.469134, -0.542824, 0.334303, -2.08316, -2.16396, -0.128397, -0.0030701, 0.0112135, 0.00577613, 0.00756948, 0.000361488, -0.0046974
0.0481267, 1.6914, -1.22751, -1.53941, -0.90022, -1.19255, 1.22862, -1.30266, 0.0186648, -0.00875674, -0.00922045, -0.00222995, -0.0245676, 0.0138818, -0.000242905, 2.51106, 60.1334, 28.9048, 5.46234, 1.79828, 3.48971, -0.0292249, 0.000221508, -0.00175253, 0.00179143, 0.00188109, 0.000748693, 0.000746327, 0.0127979, -0.0121991, -0.0125533, -0.017425, 0.0278777, -0.002026, 0.470968, -0.543245, 0.335968, -2.08374, -2.16592, -0.129777, 0.469145, -0.542823, 0.334287, -2.08315, -2.16397, -0.128372, -0.0032256, 0.01179, 0.00607228, 0.00896227, 0.00158728, -0.00867723
0.0491267, 1.69143, -1.22751, -1.53942, -0.900217, -1.19257, 1.22863, -1.30266, 0.0211049, -0.00569926, -0.00877412, -0.0015963, -0.0281038, 0.0184404, -0.00162, 2.66181, 60.1334, 29.0159, 5.27588, 1.81018, 3.53915, 0.0101428, 0.000209735, -0.00173774, 0.00179735, 0.00188137, 0.000717684, 0.000743273, 0.0133358, -0.0140302, -0.0104423, -0.0148046, 0.0364783, -0.000323319, 0.470965, -0.543234, 0.335974, -2.08373, -2.16593, -0.129768, 0.469157, -0.542821, 0.334284, -2.08315, -2.164, -0.128332, -0.00338507, 0.0123818, 0.00637623, 0.0107272, 0.00139832, -0.00642767
0.0501267, 1.69146, -1.22752, -1.53944, -0.900212, -1.1926, 1.22865, -1.30266, 0.0236769, -0.00629403, -0.0102326, -0.000385138, -0.0307568, 0.0216566, -0.000605281, 2.77686, 60.2444, 29.2023, 5.05371, 1.823, 3.58951, -0.00267457, 0.00019511, -0.00172328, 0.00181058, 0.00188834, 0.000693647, 0.000744917, 0.0144258, -0.0153939, -0.0112028, -0.0146636, 0.0401418, -0.00195384, 0.470962, -0.543221, 0.335981, -2.08372, -2.16594, -0.129759, 0.469168, -0.542821, 0.334275, -2.08315, -2.16401, -0.12829, -0.00354847, 0.0129888, 0.00668792, 0.0119373, 0.00110229, -0.00707719
0.0511267, 1.69147, -1.22753, -1.53944, -0.900214, -1.19264, 1.22868, -1.30266, 0.019658, -0.00755175, -0.00767311, -0.000388475, -0.0332343, 0.0201554, -0.0011156, 3.003, 60.3912, 29.238, 5.01404, 1.84772, 3.62521, 0.0165515, 0.000180245, -0.00170835, 0.00182158, 0.00188406, 0.000668886, 0.000739931, 0.0167971, -0.0132099, -0.0111682, -0.0146395, 0.0403168, -0.00551431, 0.470958, -0.543208, 0.335987, -2.08371, -2.16594, -0.129749, 0.46918, -0.54282, 0.334268, -2.08315, -2.16404, -0.128261, -0.00371575, 0.0136108, 0.00700727, 0.00967521, -0.000711577, -0.00702572
0.0521267, 1.6915, -1.22755, -1.53944, -0.900216, -1.19267, 1.2287, -1.30266, 0.025692, -0.0118434, -0.00689075, -0.000218568, -0.0344742, 0.014691, -3.16549e-05, 3.11805, 60.6848, 29.3134, 4.97833, 1.85321, 3.64718, -0.00267457, 0.000166825, -0.00168782, 0.00183982, 0.00188165, 0.000651913, 0.000732553, 0.0147701, -0.0157899, -0.0144035, -0.0207776, 0.0349194, -0.00129271, 0.470955, -0.543195, 0.335994, -2.0837, -2.16595, -0.129738, 0.469196, -0.542816, 0.334254, -2.08314, -2.16407, -0.128237, -0.00388686, 0.0142477, 0.0073342, 0.011891, 0.00253017, -0.0096569
0.0531267, 1.69153, -1.22756, -1.53945, -0.900212, -1.19271, 1.22873, -1.30266, 0.0262322, -0.0113782, -0.00636615, 0.00102142, -0.0308825, 0.0152528, 0.000724882, 3.26881, 60.8356, 29.3888, 4.90295, 1.86603, 3.66824, -0.0228162, 0.000150699, -0.00166956, 0.00185065, 0.00187503, 0.000621408, 0.000736193, 0.0147946, -0.016566, -0.0139753, -0.0178975, 0.0330478, -0.00171097, 0.470951, -0.54318, 0.336002, -2.08369, -2.16596, -0.129728, 0.469211, -0.542815, 0.334248, -2.08316, -2.16409, -0.128202, -0.00406174, 0.0148993, 0.00766863, 0.0125076, 0.00312369, -0.00892689
0.0541267, 1.69155, -1.22757, -1.53945, -0.900213, -1.19274, 1.22876, -1.30266, 0.0244674, -0.0100583, -0.00425091, 0.00638589, -0.0329518, 0.0158713, -0.00050009, 3.49494, 60.9427, 29.3888, 4.94263, 1.87793, 3.68289, 0.00373412, 0.000132451, -0.00165385, 0.00185959, 0.0018677, 0.000586425, 0.000735358, 0.0177962, -0.0147668, -0.0117872, -0.0138341, 0.0361648, -0.00719282, 0.470947, -0.543166, 0.336009, -2.08368, -2.16597, -0.129716, 0.469223, -0.542817, 0.334244, -2.08317, -2.16412, -0.128163, -0.00424034, 0.0155655, 0.00801045, 0.0107191, 0.000416086, -0.00683593
0.055127, 1.69158, -1.22758, -1.53946, -0.900215, -1.19278, 1.22878, -1.30265, 0.025172, -0.012713, -0.0054375, 0.00733762, -0.0330734, 0.0201135, 0.000649951, 3.6457, 61.2006, 29.4999, 4.97833, 1.85321, 3.7186, -0.0228162, 0.000114302, -0.00163621, 0.00187793, 0.0018682, 0.000565489, 0.00073671, 0.019459, -0.0157155, -0.0135351, -0.0114195, 0.036208, -0.00962037, 0.470942, -0.54315, 0.336017, -2.08367, -2.16597, -0.129705, 0.469236, -0.542815, 0.33423, -2.08317, -2.16414, -0.12813, -0.00442257, 0.0162459, 0.00835954, 0.0114807, -0.000237087, -0.00849944
0.056127, 1.69161, -1.22759, -1.53946, -0.900218, -1.19282, 1.22881, -1.30265, 0.0274747, -0.0110553, -0.00455685, 0.00362461, -0.034265, 0.02403, 0.00114538, 3.72108, 61.3116, 29.5395, 5.05371, 1.85321, 3.74057, -0.0420422, 9.84053e-05, -0.00161432, 0.00188856, 0.00186281, 0.000527206, 0.000731019, 0.0183892, -0.0187134, -0.0127788, -0.0100859, 0.0415959, -0.00518499, 0.470938, -0.543134, 0.336026, -2.08366, -2.16598, -0.129692, 0.469254, -0.542812, 0.334225, -2.08317, -2.16418, -0.128085, -0.00460838, 0.0169405, 0.00871578, 0.014278, 0.00152054, -0.00732108
0.057127, 1.69163, -1.2276, -1.53946, -0.900215, -1.19286, 1.22884, -1.30265, 0.0232631, -0.01079, -0.00387599, 0.00278848, -0.0336283, 0.0219153, 0.000763585, 3.90754, 61.4584, 29.5752, 5.05371, 1.81018, 3.76895, -0.0420422, 7.57866e-05, -0.00159962, 0.00189969, 0.00185495, 0.000494307, 0.000738219, 0.0202598, -0.016507, -0.012704, -0.0110599, 0.0406815, -0.00829577, 0.470933, -0.543117, 0.336034, -2.08364, -2.16599, -0.129679, 0.469264, -0.542815, 0.334219, -2.08319, -2.1642, -0.128047, -0.00479766, 0.0176488, 0.00907903, 0.0119552, 0.000280115, -0.00710752
0.058127, 1.69166, -1.22761, -1.53947, -0.900209, -1.1929, 1.22887, -1.30265, 0.0260595, -0.00978137, -0.00342137, 0.00306606, -0.0380261, 0.0202948, 0.000509057, 3.98292, 61.5695, 29.611, 5.01404, 1.76807, 3.79733, -0.0420422, 5.59606e-05, -0.00157956, 0.00190942, 0.0018435, 0.00045912, 0.000738658, 0.0203902, -0.0174584, -0.012447, -0.0146531, 0.0450207, -0.0074069, 0.470929, -0.543099, 0.336043, -2.08363, -2.166, -0.129666, 0.46928, -0.542815, 0.334214, -2.0832, -2.16424, -0.12801, -0.00499035, 0.0183707, 0.00944913, 0.0127267, 0.00087296, -0.00653274
0.059127, 1.69168, -1.22762, -1.53947, -0.900211, -1.19294, 1.22889, -1.30265, 0.0247773, -0.00994679, -0.00321055, 0.00132531, -0.0407694, 0.0196342, 0.000339371, 4.06226, 61.7163, 29.6506, 5.05371, 1.71222, 3.81198, -0.0420422, 3.72282e-05, -0.00155785, 0.0019221, 0.00183694, 0.000425426, 0.00073637, 0.0216793, -0.0169146, -0.0129525, -0.0172817, 0.0473842, -0.00841493, 0.470924, -0.543081, 0.336053, -2.08362, -2.16601, -0.129652, 0.469297, -0.542812, 0.334208, -2.0832, -2.16427, -0.12797, -0.00518633, 0.0191057, 0.00982594, 0.0120157, 0.000390843, -0.00683866
0.060127, 1.69172, -1.22763, -1.53947, -0.900208, -1.19299, 1.22892, -1.30265, 0.0277818, -0.0101518, -0.00297679, 0.00196853, -0.0394777, 0.0239059, -0.00146917, 4.09797, 61.8671, 29.6863, 5.01404, 1.6875, 3.82663, 0.00373412, 1.56848e-05, -0.00153644, 0.00193426, 0.00182763, 0.000387906, 0.000731766, 0.0215015, -0.0196095, -0.0129406, -0.0132655, 0.0487753, -0.0042874, 0.470918, -0.543062, 0.336063, -2.0836, -2.16602, -0.129638, 0.469313, -0.542812, 0.334202, -2.08321, -2.16431, -0.127928, -0.00538552, 0.0198537, 0.0102093, 0.014502, 0.00142345, -0.00649759
0.061127, 1.69175, -1.22764, -1.53947, -0.900208, -1.19303, 1.22896, -1.30265, 0.0308055, -0.00843392, -0.00198544, 0.00143008, -0.0379439, 0.0230901, -0.00145417, 4.09797, 61.9385, 29.6863, 5.01404, 1.65088, 3.8193, 0.0165515, -3.03934e-06, -0.00151226, 0.00194304, 0.001815, 0.00034828, 0.000723473, 0.0200628, -0.0217772, -0.0121444, -0.0133026, 0.0494315, -0.000531626, 0.470913, -0.543042, 0.336073, -2.08359, -2.16603, -0.129623, 0.469332, -0.542808, 0.3342, -2.08321, -2.16436, -0.127888, -0.0055878, 0.0206142, 0.0105989, 0.0164419, 0.00357116, -0.00516429
0.062127, 1.69178, -1.22765, -1.53947, -0.900205, -1.19307, 1.22899, -1.30265, 0.0328392, -0.0108162, -0.00132431, 0.0018769, -0.0420832, 0.022127, -0.0012068, 4.09797, 62.1606, 29.6863, 4.97833, 1.62616, 3.8193, 0.0229602, -2.62342e-05, -0.00148971, 0.00195769, 0.00180156, 0.00031595, 0.000721578, 0.020928, -0.0225212, -0.0137033, -0.0161287, 0.0504889, -0.000839047, 0.470907, -0.543021, 0.336083, -2.08357, -2.16604, -0.129607, 0.46935, -0.542807, 0.334191, -2.08322, -2.1644, -0.127855, -0.00579309, 0.0213869, 0.0109948, 0.0169542, 0.00376037, -0.00646454
0.063127, 1.6918, -1.22767, -1.53948, -0.900207, -1.19312, 1.22902, -1.30265, 0.0293973, -0.0177081, -0.00348184, 0.000482268, -0.0462032, 0.0266362, -0.000567177, 4.17335, 62.3431, 29.7974, 5.01404, 1.63257, 3.80466, 0.0165515, -5.2526e-05, -0.00146913, 0.00197528, 0.00179469, 0.000280335, 0.00072504, 0.0252641, -0.0211935, -0.0184047, -0.0170625, 0.0499268, -0.00660481, 0.470902, -0.543, 0.336094, -2.08356, -2.16606, -0.129591, 0.469365, -0.542808, 0.33418, -2.08323, -2.16443, -0.127809, -0.00600136, 0.0221719, 0.0113968, 0.0154054, 0.000933215, -0.0113373
0.064127, 1.69183, -1.22767, -1.53948, -0.900205, -1.19316, 1.22906, -1.30265, 0.0309357, -0.0132508, -0.00324963, 0.0012064, -0.0392326, 0.0300205, 0.000842585, 4.21302, 62.3828, 29.8371, 4.97833, 1.62616, 3.79001, -0.0164075, -7.61607e-05, -0.00144567, 0.00198291, 0.00177899, 0.000233626, 0.000728301, 0.0241617, -0.0234511, -0.0156594, -0.0105338, 0.0508559, -0.00544111, 0.470896, -0.542978, 0.336106, -2.08354, -2.16607, -0.129574, 0.469383, -0.542807, 0.33418, -2.08325, -2.16447, -0.127762, -0.00621258, 0.0229689, 0.0118049, 0.017509, 0.00248946, -0.00811591
0.065127, 1.69187, -1.22768, -1.53948, -0.90021, -1.1932, 1.22909, -1.30265, 0.0296303, -0.0134908, -0.00216671, -0.000921725, -0.0432479, 0.0321019, -0.000184262, 4.21302, 62.5653, 29.8371, 5.05371, 1.62067, 3.7836, 0.00373412, -9.86242e-05, -0.0014192, 0.00199951, 0.00176797, 0.000200076, 0.000717138, 0.0257887, -0.0235104, -0.015736, -0.0108253, 0.0555696, -0.00533898, 0.470889, -0.542955, 0.336118, -2.08352, -2.16608, -0.129557, 0.469403, -0.542803, 0.334171, -2.08324, -2.16451, -0.127724, -0.0064267, 0.0237778, 0.012219, 0.01741, 0.00170664, -0.00803172
0.066127, 1.6919, -1.22769, -1.53949, -0.900207, -1.19324, 1.22913, -1.30265, 0.0326511, -0.0101201, -0.00487836, 0.000341473, -0.0417114, 0.0335457, -0.000122841, 4.17335, 62.601, 29.9839, 5.01404, 1.61426, 3.7836, 0.00373412, -0.000123344, -0.00139454, 0.0020119, 0.00175885, 0.000158529, 0.000716741, 0.0257997, -0.0250176, -0.0148537, -0.011166, 0.0591114, -0.00506591, 0.470883, -0.542931, 0.33613, -2.0835, -2.16609, -0.129539, 0.469422, -0.542801, 0.334166, -2.08325, -2.16455, -0.127675, -0.00664368, 0.0245986, 0.0126391, 0.0187308, 0.00244317, -0.00678794
0.067127, 1.69193, -1.22769, -1.53949, -0.900207, -1.19328, 1.22916, -1.30265, 0.030056, -0.00956347, -0.0032524, 0.000248602, -0.0395128, 0.0344077, 0.000664091, 4.21302, 62.7121, 29.9839, 5.01404, 1.57764, 3.79001, -0.0164075, -0.000148915, -0.00136968, 0.00202351, 0.00173805, 0.000122397, 0.000716595, 0.0270845, -0.0244617, -0.0140355, -0.00792177, 0.0586898, -0.00752948, 0.470876, -0.542906, 0.336143, -2.08349, -2.16611, -0.12952, 0.46944, -0.542798, 0.334163, -2.08326, -2.1646, -0.127642, -0.00686349, 0.0254311, 0.0130651, 0.0180321, 0.00185884, -0.00573652
0.068127, 1.69196, -1.2277, -1.5395, -0.90021, -1.19332, 1.2292, -1.30265, 0.0311092, -0.00830259, -0.00309641, -0.000746571, -0.0386628, 0.0346722, 0.0011548, 4.24873, 62.7875, 30.0236, 5.05371, 1.55932, 3.80466, -0.0356336, -0.000174649, -0.00134431, 0.00203519, 0.00171993, 8.38406e-05, 0.000715263, 0.0269388, -0.0256249, -0.013697, -0.00805066, 0.0600745, -0.0064833, 0.470869, -0.542881, 0.336156, -2.08347, -2.16612, -0.129501, 0.469459, -0.542796, 0.33416, -2.08327, -2.16464, -0.127604, -0.00708609, 0.0262753, 0.013497, 0.0189783, 0.00284305, -0.00498325
0.069127, 1.692, -1.2277, -1.5395, -0.900213, -1.19336, 1.22923, -1.30265, 0.0314403, -0.00472982, -0.0037348, -0.00132115, -0.0386019, 0.0350355, 0.00151585, 4.17335, 62.7478, 30.095, 5.08942, 1.55932, 3.8193, -0.0557752, -0.000197572, -0.00131562, 0.00204377, 0.00170667, 3.73821e-05, 0.000708671, 0.027366, -0.026038, -0.0121799, -0.00865518, 0.0644574, -0.00708565, 0.470862, -0.542854, 0.336169, -2.08345, -2.16613, -0.129481, 0.469481, -0.54279, 0.33416, -2.08328, -2.16469, -0.127553, -0.00731145, 0.027131, 0.0139346, 0.0192363, 0.0030611, -0.00312646
0.070127, 1.69203, -1.22771, -1.5395, -0.900218, -1.1934, 1.22927, -1.30265, 0.0339229, -0.00677177, -0.00248993, -0.00263516, -0.038908, 0.0344373, 0.00101057, 4.13764, 62.8986, 30.095, 5.16479, 1.57123, 3.85501, -0.0557752, -0.000223455, -0.00128725, 0.00205858, 0.00168809, 2.36172e-06, 0.000700336, 0.0267371, -0.0280437, -0.0135992, -0.00977879, 0.0630878, -0.00317431, 0.470855, -0.542827, 0.336183, -2.08343, -2.16615, -0.129461, 0.469503, -0.542785, 0.334155, -2.08327, -2.16474, -0.127518, -0.00753952, 0.0279981, 0.014378, 0.0209372, 0.00485046, -0.00404805
0.071127, 1.69207, -1.2277, -1.53951, -0.900205, -1.19343, 1.2293, -1.30264, 0.0365392, -0.00458358, -0.00425846, 0.00177633, -0.0387206, 0.0302445, 0.00114843, 4.06226, 62.8986, 30.206, 5.01404, 1.57123, 3.86966, -0.0685925, -0.00025174, -0.00126034, 0.00206624, 0.00166517, -3.93511e-05, 0.000708214, 0.0275179, -0.0276363, -0.0131332, -0.0133867, 0.063457, -0.00615996, 0.470847, -0.542799, 0.336197, -2.08341, -2.16616, -0.12944, 0.469523, -0.542782, 0.334156, -2.0833, -2.16478, -0.12748, -0.00777026, 0.0288765, 0.0148271, 0.020345, 0.00486991, -0.00324778
0.072127, 1.69211, -1.22771, -1.53951, -0.900215, -1.19347, 1.22933, -1.30264, 0.0383353, -0.00394273, -0.00283901, -0.00150207, -0.0392116, 0.0312915, -0.000217723, 3.98292, 62.9343, 30.206, 5.12909, 1.58954, 3.89804, -0.0420422, -0.000273189, -0.00122717, 0.00207767, 0.00165189, -8.04179e-05, 0.000687218, 0.0265559, -0.0299626, -0.0130125, -0.0136222, 0.0658791, -0.000389286, 0.47084, -0.54277, 0.336212, -2.08339, -2.16618, -0.129418, 0.469548, -0.542771, 0.334156, -2.08328, -2.16485, -0.127433, -0.00800365, 0.0297661, 0.0152818, 0.0224047, 0.00678721, -0.00259553
0.073127, 1.69215, -1.22771, -1.53951, -0.900213, -1.19351, 1.22937, -1.30265, 0.0429049, -0.00350255, -0.00365594, -6.96279e-05, -0.0404748, 0.0328379, -0.00133194, 3.90754, 62.97, 30.2814, 5.08942, 1.63257, 3.90536, -0.00999879, -0.000301525, -0.00119688, 0.00209165, 0.0016354, -0.00012074, 0.000679522, 0.02646, -0.0324086, -0.0132555, -0.0139573, 0.0688084, 0.00240482, 0.470832, -0.542741, 0.336228, -2.08336, -2.16619, -0.129396, 0.469571, -0.542766, 0.334152, -2.08328, -2.1649, -0.127389, -0.00823965, 0.0306668, 0.015742, 0.0245994, 0.0079214, -0.00243497
0.074127, 1.69219, -1.22772, -1.53952, -0.900208, -1.19355, 1.22941, -1.30265, 0.0420467, -0.00672587, -0.00503577, 0.000791596, -0.0363624, 0.0340245, -0.000650604, 3.87183, 63.1564, 30.3925, 5.05371, 1.66919, 3.91269, -0.0164075, -0.000333268, -0.00116721, 0.00211144, 0.00161919, -0.000153316, 0.000679782, 0.0279747, -0.0324449, -0.0156831, -0.0123328, 0.0634322, 0.000128853, 0.470823, -0.54271, 0.336243, -2.08334, -2.16621, -0.129373, 0.469593, -0.542763, 0.334142, -2.08328, -2.16494, -0.127351, -0.00847821, 0.0315785, 0.0162078, 0.0243636, 0.007713, -0.00460256
0.075127, 1.69224, -1.22772, -1.53953, -0.900213, -1.19359, 1.22944, -1.30265, 0.0472957, -0.00450576, -0.00428522, -0.00123341, -0.0428045, 0.0348076, -0.00117972, 3.72108, 63.1564, 30.4322, 5.12909, 1.71222, 3.9191, 0.00373412, -0.000356985, -0.00113033, 0.00212366, 0.00160546, -0.000199633, 0.000658972, 0.0270277, -0.0355704, -0.014911, -0.0159771, 0.0722364, 0.0050095, 0.470815, -0.542678, 0.33626, -2.08332, -2.16623, -0.129349, 0.469622, -0.542751, 0.334142, -2.08327, -2.16501, -0.127297, -0.0087193, 0.0325011, 0.016679, 0.027238, 0.00958158, -0.00331746
0.076127, 1.69227, -1.22773, -1.53953, -0.900212, -1.19364, 1.22948, -1.30265, 0.0457774, -0.00552588, -0.00452726, 0.00010732, -0.0431708, 0.0361596, -0.000786481, 3.79646, 63.2635, 30.5036, 5.08942, 1.76166, 3.90536, 0.00373412, -0.000391646, -0.00110325, 0.00213958, 0.00158806, -0.000239076, 0.000662141, 0.0294622, -0.0348191, -0.0155303, -0.0147949, 0.0726834, 0.00094199, 0.470806, -0.542646, 0.336276, -2.08329, -2.16625, -0.129324, 0.469641, -0.542749, 0.334136, -2.08328, -2.16506, -0.127252, -0.00896288, 0.0334345, 0.0171556, 0.0263098, 0.00817623, -0.00380719
0.077127, 1.69232, -1.22774, -1.53954, -0.900216, -1.19368, 1.22951, -1.30264, 0.0464245, -0.00712989, -0.00654466, -0.00169051, -0.0476141, 0.0371984, 0.000459024, 3.6814, 63.4103, 30.6544, 5.16479, 1.80469, 3.89071, -0.0228162, -0.000421539, -0.00106874, 0.00216024, 0.00158107, -0.000278445, 0.000658228, 0.0312124, -0.0351682, -0.0177008, -0.0192148, 0.076199, -0.00130163, 0.470797, -0.542612, 0.336293, -2.08327, -2.16626, -0.129299, 0.469666, -0.542741, 0.334127, -2.08327, -2.1651, -0.127195, -0.00920893, 0.0343785, 0.0176375, 0.0263969, 0.007741, -0.00575081
0.078127, 1.69236, -1.22774, -1.53955, -0.90021, -1.19372, 1.22955, -1.30264, 0.0455744, -0.0056905, -0.00436311, 0.000637115, -0.0456802, 0.0383079, 6.86569e-05, 3.60603, 63.45, 30.6544, 5.08942, 1.82941, 3.86233, -0.0164075, -0.000452667, -0.00103442, 0.00217267, 0.00155773, -0.000321101, 0.000652735, 0.0324519, -0.035173, -0.0159414, -0.0144874, 0.0768824, -0.00292048, 0.470788, -0.542578, 0.336311, -2.08324, -2.16628, -0.129273, 0.469692, -0.542734, 0.334127, -2.08327, -2.16516, -0.127152, -0.00945739, 0.0353331, 0.0181247, 0.0262625, 0.00720233, -0.00371885
0.079127, 1.69236, -1.22774, -1.53955, -0.90021, -1.19372, 1.22955, -1.30264, 0.0455744, -0.0056905, -0.00436311, 0.000637115, -0.0456802, 0.0383079, 6.86569e-05, 3.60603, 63.45, 30.6544, 5.08942, 1.82941, 3.86233, -0.0164075, -0.00049067, -0.00102585, 0.00218481, 0.00153963, -0.000312746, 0.000672437, 0.0334906, -0.0353982, -0.0162698, -0.014895, 0.0775462, -0.00372885, 0.470779, -0.542543, 0.336329, -2.08322, -2.1663, -0.129247, 0.469692, -0.542734, 0.334127, -2.08327, -2.16516, -0.127152, -0.00970824, 0.0362982, 0.0186171, 0.0262625, 0.00720233, -0.00371885
0.080127, 1.69241, -1.22774, -1.53955, -0.90021, -1.19377, 1.22958, -1.30264, 0.0449961, -0.00380058, -0.00374396, 0.000425407, -0.0495264, 0.0380145, 0.000995207, 3.53065, 63.45, 30.6901, 5.08942, 1.86603, 3.86233, -0.0420422, -0.000523604, -0.000991297, 0.00219983, 0.00152675, -0.000360709, 0.000665848, 0.0351584, -0.0349355, -0.015294, -0.0166637, 0.0830663, -0.00687761, 0.470769, -0.542506, 0.336348, -2.08319, -2.16632, -0.12922, 0.469718, -0.542726, 0.334125, -2.08327, -2.16522, -0.127091, -0.00996144, 0.0372736, 0.0191147, 0.0256437, 0.0063628, -0.0025024
0.081127, 1.69241, -1.22774, -1.53955, -0.90021, -1.19377, 1.22958, -1.30264, 0.0449961, -0.00380058, -0.00374396, 0.000425407, -0.0495264, 0.0380145, 0.000995207, 3.53065, 63.45, 30.6901, 5.08942, 1.86603, 3.86233, -0.0420422, -0.000563693, -0.000982279, 0.00221263, 0.00150765, -0.000351916, 0.000686611, 0.0362193, -0.0351647, -0.0156293, -0.0170787, 0.0837436, -0.00770207, 0.470759, -0.542469, 0.336367, -2.08316, -2.16634, -0.129192, 0.469718, -0.542726, 0.334125, -2.08327, -2.16522, -0.127091, -0.010217, 0.0382593, 0.0196175, 0.0256437, 0.0063628, -0.0025024
0.082127, 1.69254, -1.22776, -1.53958, -0.900212, -1.19391, 1.22967, -1.30264, 0.0439179, -0.00644581, -0.00815472, -0.000285657, -0.0515782, 0.0297348, -4.04404e-05, 3.41956, 63.6325, 30.9519, 5.12909, 1.90906, 3.88339, -0.0484509, -0.000589012, -0.000901101, 0.0022431, 0.00152325, -0.000496955, 0.000637368, 0.0382624, -0.0324745, -0.0198548, -0.0298993, 0.0796921, -0.0106905, 0.470749, -0.542431, 0.336386, -2.08313, -2.16636, -0.129163, 0.469788, -0.542705, 0.334108, -2.08326, -2.16537, -0.126903, -0.0104747, 0.0392552, 0.0201252, 0.0226194, 0.00587991, -0.00640191
0.083127, 1.6926, -1.22776, -1.53959, -0.900213, -1.19397, 1.2297, -1.30264, 0.0488063, -0.0062604, -0.00970533, -0.00102545, -0.0488075, 0.0318551, -0.000501678, 3.26881, 63.7079, 30.9876, 5.16479, 1.93378, 3.88339, -0.0356336, -0.000623471, -0.000863878, 0.0022628, 0.00151862, -0.000543083, 0.000627, 0.0369304, -0.0360414, -0.0208101, -0.0296349, 0.0796656, -0.00541185, 0.470738, -0.542392, 0.336407, -2.0831, -2.16638, -0.129134, 0.469815, -0.542695, 0.334102, -2.08324, -2.16543, -0.126833, -0.0107348, 0.0402611, 0.020638, 0.0258386, 0.0084964, -0.00673526
0.084127, 1.69264, -1.22776, -1.53959, -0.900214, -1.19402, 1.22973, -1.30264, 0.0456777, -0.00339554, -0.0100973, -0.000683473, -0.0462379, 0.0296456, -0.00104653, 3.26881, 63.6682, 30.9876, 5.16479, 1.94568, 3.85501, -0.0164075, -0.000661031, -0.000829247, 0.00227817, 0.00150812, -0.000595899, 0.00062136, 0.0385887, -0.0342073, -0.0195925, -0.0302382, 0.0799159, -0.00848492, 0.470727, -0.542351, 0.336427, -2.08308, -2.1664, -0.129103, 0.46984, -0.542688, 0.334101, -2.08324, -2.16549, -0.126762, -0.010997, 0.0412769, 0.0211557, 0.0238499, 0.00761243, -0.00521647
0.085127, 1.6927, -1.22777, -1.53961, -0.90022, -1.19407, 1.22976, -1.30264, 0.0493335, -0.00590264, -0.0121458, -0.00221877, -0.0493708, 0.0275156, -0.00215575, 3.15376, 63.819, 31.063, 5.24017, 1.96399, 3.84036, 0.0229602, -0.000696921, -0.000791113, 0.00230299, 0.00151058, -0.000638181, 0.000605824, 0.0386697, -0.0357823, -0.0227316, -0.0372754, 0.0800164, -0.00525719, 0.470716, -0.54231, 0.336448, -2.08304, -2.16642, -0.129072, 0.469867, -0.542677, 0.334091, -2.08321, -2.16555, -0.126687, -0.0112614, 0.0423026, 0.0216783, 0.0250468, 0.00910665, -0.00785447
0.086127, 1.69274, -1.22778, -1.53962, -0.900225, -1.19413, 1.22979, -1.30264, 0.0450696, -0.00568989, -0.00973611, -0.00324233, -0.0513253, 0.0267945, -0.000725089, 3.19343, 63.8904, 31.1027, 5.31555, 1.9704, 3.79733, 0.00373412, -0.000739955, -0.000759323, 0.00232581, 0.00151088, -0.000687609, 0.000613552, 0.041164, -0.0339247, -0.0220841, -0.0369439, 0.0819833, -0.0103626, 0.470705, -0.542268, 0.33647, -2.08301, -2.16645, -0.129041, 0.469889, -0.542673, 0.334082, -2.08322, -2.16559, -0.126604, -0.011528, 0.0433381, 0.0222057, 0.02304, 0.00750342, -0.00701769
0.087127, 1.69279, -1.22778, -1.53963, -0.900225, -1.1942, 1.22982, -1.30264, 0.0447289, -0.00561976, -0.0109528, -0.00216149, -0.0535874, 0.0295893, 0.00374257, 3.11805, 63.9658, 31.1384, 5.31555, 2.00061, 3.7836, 0.0165515, -0.000780725, -0.00072339, 0.00234801, 0.00151201, -0.000736866, 0.000610654, 0.0437441, -0.0337728, -0.0224152, -0.0364974, 0.0859829, -0.0183195, 0.470694, -0.542224, 0.336492, -2.08298, -2.16647, -0.129008, 0.469914, -0.542665, 0.334075, -2.08321, -2.16565, -0.126521, -0.0117966, 0.0443832, 0.0227379, 0.0227019, 0.00604649, -0.00720775
0.0881287, 1.69284, -1.22779, -1.53965, -0.900228, -1.19426, 1.22984, -1.30264, 0.0453301, -0.00639241, -0.0146515, -0.00227616, -0.0589808, 0.0278086, 0.00288677, 3.003, 64.0768, 31.2891, 5.35126, 2.00061, 3.7543, 0.0165515, -0.00082434, -0.00068849, 0.00237414, 0.0015205, -0.000787145, 0.000612181, 0.0462989, -0.0328068, -0.0247408, -0.044447, 0.0897428, -0.0212058, 0.470682, -0.54218, 0.336515, -2.08295, -2.16649, -0.128975, 0.469937, -0.542658, 0.334064, -2.0832, -2.16569, -0.126427, -0.0120673, 0.0454378, 0.0232748, 0.0214747, 0.00489658, -0.00933376
0.0891289, 1.6929, -1.2278, -1.53965, -0.90023, -1.19432, 1.22987, -1.30264, 0.0496211, -0.0107791, -0.0118049, -0.00235262, -0.0592322, 0.0258398, 0.00343901, 2.85224, 64.2236, 31.2137, 5.38696, 2.02533, 3.74057, -0.0164075, -0.000865176, -0.000648512, 0.00239916, 0.00152122, -0.000835206, 0.000603891, 0.0451768, -0.0356713, -0.0270794, -0.0452951, 0.0852899, -0.0169742, 0.47067, -0.542135, 0.336538, -2.08291, -2.16652, -0.128941, 0.469966, -0.542647, 0.334055, -2.08318, -2.16575, -0.126344, -0.0123401, 0.0465019, 0.0238164, 0.0239364, 0.0075477, -0.0110156
0.0901289, 1.69295, -1.2278, -1.53966, -0.900233, -1.19439, 1.22989, -1.30264, 0.0506901, -0.00570354, -0.0125808, -0.0024964, -0.0629019, 0.0192004, 0.00200439, 2.77686, 64.1483, 31.2494, 5.42664, 2.01984, 3.74057, -0.00267457, -0.000909527, -0.000614487, 0.00241846, 0.00153107, -0.000896081, 0.000606655, 0.0455356, -0.0346913, -0.0253898, -0.0537051, 0.0908989, -0.0169432, 0.470657, -0.542088, 0.336562, -2.08288, -2.16654, -0.128906, 0.469988, -0.54264, 0.334052, -2.08317, -2.16581, -0.126236, -0.0126148, 0.0475753, 0.0243626, 0.0227587, 0.00796721, -0.00882672
0.0911289, 1.69301, -1.2278, -1.53968, -0.900241, -1.19446, 1.22991, -1.30264, 0.053467, -0.00577613, -0.0154206, -0.0042627, -0.0653265, 0.0192176, 0.00248486, 2.62611, 64.2236, 31.2494, 5.53772, 2.00061, 3.73324, -0.0292249, -0.000951776, -0.000574388, 0.00244438, 0.00154172, -0.000950245, 0.000598282, 0.0460195, -0.0361238, -0.0271932, -0.0590247, 0.0939904, -0.0161991, 0.470645, -0.542041, 0.336586, -2.08285, -2.16657, -0.128871, 0.470016, -0.542629, 0.334043, -2.08315, -2.16587, -0.126135, -0.0128915, 0.048658, 0.0249134, 0.0238645, 0.00890955, -0.0101759
0.0921289, 1.69306, -1.22782, -1.53969, -0.900244, -1.19453, 1.22994, -1.30264, 0.0556174, -0.00827754, -0.0163731, -0.00376981, -0.0678786, 0.0187273, 0.0024926, 2.47535, 64.4061, 31.3248, 5.57739, 2.00061, 3.74057, -0.0484509, -0.000999522, -0.00053701, 0.00247672, 0.0015553, -0.000996753, 0.000599818, 0.0472691, -0.0369709, -0.029458, -0.0622349, 0.0941806, -0.0166801, 0.470632, -0.541992, 0.336611, -2.08281, -2.16659, -0.128834, 0.470041, -0.542621, 0.334027, -2.08313, -2.16591, -0.126036, -0.0131701, 0.0497497, 0.0254687, 0.0243946, 0.00915167, -0.0120769
0.0931289, 1.69312, -1.22782, -1.53969, -0.900246, -1.1946, 1.22995, -1.30263, 0.0539087, -0.00563679, -0.00945541, -0.0104819, -0.0695533, 0.01819, 0.00151733, 2.32459, 64.4061, 31.2137, 5.6131, 1.99512, 3.7543, -0.0420422, -0.00104366, -0.000497432, 0.00249539, 0.00155969, -0.00105901, 0.000596216, 0.0458112, -0.0386479, -0.0267086, -0.0605743, 0.0987536, -0.0097114, 0.470619, -0.541942, 0.336637, -2.08277, -2.16662, -0.128797, 0.470068, -0.54261, 0.334026, -2.08312, -2.16598, -0.125931, -0.0134506, 0.0508506, 0.0260284, 0.0258373, 0.0113405, -0.0086284
0.0941289, 1.69318, -1.22782, -1.53971, -0.900254, -1.19467, 1.22998, -1.30263, 0.0547682, -0.00384668, -0.0097559, -0.00934565, -0.0706427, 0.019091, 0.00108127, 2.20954, 64.4061, 31.3248, 5.68848, 1.9823, 3.73324, -0.0420422, -0.00109077, -0.000459086, 0.00252072, 0.00157379, -0.0011181, 0.000594926, 0.0471641, -0.0390847, -0.025945, -0.0604623, 0.102581, -0.0108786, 0.470605, -0.541891, 0.336663, -2.08274, -2.16665, -0.128759, 0.470094, -0.5426, 0.334019, -2.08311, -2.16603, -0.125818, -0.013733, 0.0519604, 0.0265925, 0.0260694, 0.0110166, -0.0075335
0.0951289, 1.69323, -1.22782, -1.53972, -0.90026, -1.19475, 1.22999, -1.30263, 0.0536505, 0.0017902, -0.011261, -0.00843951, -0.0766608, 0.0184422, 0.000298419, 2.17384, 64.4815, 31.3605, 5.76385, 1.98871, 3.74698, -0.0292249, -0.0011403, -0.000421904, 0.00254792, 0.00158902, -0.00117429, 0.000594086, 0.0500418, -0.0373419, -0.023411, -0.0645307, 0.113553, -0.015753, 0.470592, -0.541839, 0.33669, -2.0827, -2.16667, -0.128721, 0.470118, -0.542592, 0.33401, -2.08309, -2.16609, -0.125705, -0.0140172, 0.053079, 0.027161, 0.0242442, 0.00883301, -0.00485524
0.0961289, 1.69329, -1.22782, -1.53974, -0.900272, -1.19482, 1.23001, -1.30264, 0.0527443, 0.00342212, -0.0114191, -0.0093944, -0.0714864, 0.0187685, -0.000473915, 2.02308, 64.4061, 31.3605, 5.91064, 1.9823, 3.74057, -0.00999879, -0.00118591, -0.000379798, 0.00257024, 0.00160473, -0.0012425, 0.000581981, 0.0502633, -0.0378868, -0.0229456, -0.0626109, 0.111935, -0.0143462, 0.470578, -0.541786, 0.336717, -2.08266, -2.1667, -0.128681, 0.470147, -0.542578, 0.334007, -2.08306, -2.16616, -0.12558, -0.0143032, 0.0542063, 0.0277337, 0.0245285, 0.00969396, -0.00387424
0.0971289, 1.69335, -1.22781, -1.53975, -0.900281, -1.1949, 1.23003, -1.30264, 0.0540455, 0.00263048, -0.0125235, -0.00827695, -0.0723908, 0.0190222, -0.00150723, 1.90803, 64.4061, 31.4002, 5.98602, 1.97681, 3.73324, 0.0229602, -0.00123752, -0.000342694, 0.00259462, 0.00162277, -0.00130847, 0.000580094, 0.0517465, -0.0383885, -0.0240766, -0.0639831, 0.112802, -0.0147591, 0.470563, -0.541732, 0.336744, -2.08262, -2.16673, -0.128641, 0.470171, -0.54257, 0.334001, -2.08304, -2.16622, -0.125453, -0.0145909, 0.0553423, 0.0283107, 0.0247552, 0.00956126, -0.00465951
0.0981289, 1.6934, -1.22782, -1.53976, -0.900284, -1.19498, 1.23005, -1.30264, 0.0561114, 0.00118023, -0.0132327, -0.00928234, -0.0730874, 0.018774, -0.000745404, 1.75727, 64.4418, 31.4359, 5.98602, 1.9704, 3.74057, 0.0165515, -0.0012905, -0.000305307, 0.00262158, 0.00163742, -0.0013645, 0.000584025, 0.0521549, -0.0398096, -0.0258355, -0.0665286, 0.112787, -0.0140871, 0.470549, -0.541677, 0.336773, -2.08258, -2.16676, -0.128599, 0.470194, -0.542561, 0.333994, -2.08303, -2.16627, -0.125339, -0.0148804, 0.0564869, 0.0288918, 0.0258358, 0.0106332, -0.00592256
0.0991289, 1.69346, -1.22781, -1.53977, -0.900295, -1.19506, 1.23006, -1.30264, 0.0532142, 0.00181838, -0.0119331, -0.00922577, -0.0789774, 0.017795, -0.000480392, 1.64619, 64.4061, 31.4002, 6.09711, 1.9823, 3.76895, 0.0165515, -0.00134115, -0.000265711, 0.00264544, 0.00165606, -0.00142916, 0.000579657, 0.0554323, -0.0378037, -0.0253119, -0.0689301, 0.118368, -0.0195677, 0.470534, -0.54162, 0.336802, -2.08254, -2.16679, -0.128557, 0.47022, -0.542549, 0.33399, -2.08301, -2.16634, -0.125211, -0.0151716, 0.0576399, 0.0294771, 0.0236821, 0.00838695, -0.00526604
0.10013, 1.69351, -1.22783, -1.53978, -0.900306, -1.19514, 1.23007, -1.30264, 0.0535177, -0.00300218, -0.0128979, -0.00907829, -0.0776487, 0.0128913, -0.000307853, 1.57081, 64.5926, 31.4359, 6.20819, 1.97681, 3.7836, 0.0165515, -0.00139624, -0.000228251, 0.00267986, 0.00167888, -0.0014766, 0.000580154, 0.0564662, -0.0373736, -0.0293086, -0.0742749, 0.110902, -0.0204575, 0.470519, -0.541563, 0.336831, -2.08249, -2.16682, -0.128514, 0.470243, -0.542539, 0.333976, -2.08298, -2.16638, -0.125094, -0.0154644, 0.0588012, 0.0300665, 0.0228509, 0.00912365, -0.00877033
0.10113, 1.69357, -1.22783, -1.53978, -0.900306, -1.19522, 1.23008, -1.30263, 0.0565019, -0.00189101, -0.0128561, -0.00904183, -0.0820374, 0.0143625, 0.00126213, 1.38038, 64.5926, 31.4359, 6.17248, 1.99512, 3.79001, -0.0228162, -0.00145066, -0.000188556, 0.00270355, 0.00169498, -0.00154061, 0.000586765, 0.0573173, -0.0390649, -0.0290526, -0.0758279, 0.117219, -0.0215374, 0.470503, -0.541504, 0.336861, -2.08245, -2.16685, -0.128471, 0.470268, -0.542529, 0.333973, -2.08296, -2.16644, -0.124967, -0.0157588, 0.0599708, 0.0306599, 0.0242871, 0.00948589, -0.00810842
0.10213, 1.69363, -1.22782, -1.53979, -0.900319, -1.1953, 1.23008, -1.30264, 0.0559619, 0.00142062, -0.0104097, -0.0127604, -0.08037, 0.0103182, 0.000102417, 1.305, 64.4815, 31.4716, 6.28357, 1.99512, 3.80466, -0.00267457, -0.00150329, -0.000149594, 0.00272575, 0.00171662, -0.00160523, 0.000580923, 0.056152, -0.0396752, -0.0274747, -0.0782995, 0.118101, -0.0169568, 0.470487, -0.541444, 0.336892, -2.08241, -2.16688, -0.128426, 0.470292, -0.542516, 0.333972, -2.08294, -2.1665, -0.124834, -0.0160548, 0.0611486, 0.0312573, 0.0246171, 0.0115986, -0.00579178
0.10313, 1.69369, -1.22782, -1.5398, -0.900334, -1.19538, 1.23009, -1.30263, 0.0573772, 0.000173987, -0.00862063, -0.0127001, -0.0795467, 0.0122725, 0.000819498, 1.15424, 64.5172, 31.5113, 6.43433, 2.00702, 3.81198, -0.0228162, -0.00155725, -0.000108342, 0.00275449, 0.00173662, -0.00166058, 0.000576961, 0.0566005, -0.0415101, -0.0278667, -0.0754262, 0.117882, -0.016144, 0.470471, -0.541383, 0.336923, -2.08236, -2.16691, -0.128381, 0.470318, -0.542502, 0.333965, -2.0829, -2.16656, -0.12471, -0.0163524, 0.0623344, 0.0318586, 0.0261548, 0.0124803, -0.00570408
0.10413, 1.69375, -1.22783, -1.5398, -0.900337, -1.19546, 1.23009, -1.30264, 0.0591788, -0.00160065, -0.00714692, -0.00803882, -0.080026, 0.0139478, -0.000195727, 0.963814, 64.5926, 31.547, 6.39465, 2.04364, 3.81198, -0.00267457, -0.00161413, -6.7528e-05, 0.00278431, 0.00175811, -0.00171407, 0.000575183, 0.0585948, -0.0422896, -0.0280914, -0.0716097, 0.117696, -0.0178326, 0.470455, -0.54132, 0.336955, -2.08231, -2.16694, -0.128334, 0.470344, -0.54249, 0.333958, -2.08287, -2.16662, -0.124586, -0.0166515, 0.0635282, 0.0324637, 0.0267005, 0.0117736, -0.00565399
0.10513, 1.6938, -1.22782, -1.53981, -0.900353, -1.19555, 1.2301, -1.30263, 0.0587894, 0.0015663, -0.00611609, -0.00842553, -0.0791366, 0.0105223, -0.00012754, 0.85273, 64.4815, 31.5867, 6.5097, 2.05646, 3.81198, -0.00267457, -0.00166987, -2.70294e-05, 0.00280834, 0.00178148, -0.00178047, 0.000574073, 0.0589032, -0.0420209, -0.0266006, -0.0736096, 0.119198, -0.0182044, 0.470438, -0.541257, 0.336987, -2.08227, -2.16698, -0.128287, 0.470369, -0.542476, 0.333957, -2.08285, -2.16668, -0.124446, -0.0169521, 0.0647298, 0.0330727, 0.0261995, 0.012432, -0.00361264
0.10613, 1.69386, -1.22782, -1.53981, -0.900363, -1.19563, 1.2301, -1.30263, 0.0604602, 0.000235191, -0.00523021, -0.0103082, -0.0830724, 0.00766148, 0.000663167, 0.6623, 64.5172, 31.6224, 6.54541, 2.05646, 3.8193, -0.0228162, -0.00172593, 1.47191e-05, 0.00283428, 0.00179913, -0.00183451, 0.000569557, 0.0593231, -0.0428626, -0.0280724, -0.0789017, 0.120665, -0.0175529, 0.470421, -0.541192, 0.337021, -2.08222, -2.16701, -0.128239, 0.470395, -0.542461, 0.333954, -2.08281, -2.16674, -0.124324, -0.0172541, 0.0659392, 0.0336855, 0.0266999, 0.0134894, -0.00454476
0.10713, 1.69392, -1.22782, -1.53981, -0.900379, -1.19571, 1.2301, -1.30264, 0.0573682, 0.000176451, -0.003725, -0.0127205, -0.0775714, 0.00660985, -0.000302218, 0.511544, 64.5172, 31.6224, 6.62079, 2.08667, 3.79733, -0.00267457, -0.00178178, 5.7689e-05, 0.00286154, 0.00181767, -0.0018877, 0.000557174, 0.0597841, -0.0426294, -0.0282504, -0.0770962, 0.116418, -0.0159652, 0.470404, -0.541126, 0.337054, -2.08217, -2.16705, -0.12819, 0.470421, -0.542444, 0.333951, -2.08277, -2.16681, -0.124201, -0.0175576, 0.0671563, 0.0343019, 0.0261752, 0.0142701, -0.00416853
0.10813, 1.69398, -1.22781, -1.53981, -0.900396, -1.19578, 1.2301, -1.30264, 0.0542609, 0.000967595, -0.0034972, -0.0144131, -0.0773857, 0.00519413, -0.00114967, 0.400459, 64.4815, 31.6581, 6.69617, 2.10498, 3.79001, 0.0229602, -0.00184099, 9.86487e-05, 0.00288738, 0.00183501, -0.00194617, 0.000550204, 0.0616737, -0.0413209, -0.0283124, -0.0787896, 0.117217, -0.0175497, 0.470387, -0.541059, 0.337088, -2.08212, -2.16708, -0.12814, 0.470446, -0.54243, 0.333949, -2.08273, -2.16688, -0.124074, -0.0178624, 0.068381, 0.034922, 0.0246325, 0.0135845, -0.00386171
0.10913, 1.69403, -1.22781, -1.5398, -0.900413, -1.19586, 1.2301, -1.30264, 0.051065, -0.000179098, -0.00163024, -0.014775, -0.0719344, 0.00462987, -0.000290798, 0.325081, 64.5172, 31.6224, 6.73187, 2.09949, 3.76895, 0.0101428, -0.00190059, 0.000139887, 0.00291466, 0.00184942, -0.00199621, 0.000549592, 0.0628925, -0.0407401, -0.0286759, -0.075376, 0.111972, -0.0195191, 0.470369, -0.54099, 0.337123, -2.08207, -2.16712, -0.128089, 0.47047, -0.542414, 0.333947, -2.0827, -2.16694, -0.123956, -0.0181686, 0.0696132, 0.0355458, 0.0237792, 0.0136457, -0.00376769
0.11013, 1.69409, -1.22781, -1.53981, -0.900429, -1.19594, 1.2301, -1.30264, 0.0546968, 0.000724112, -0.00295055, -0.0188539, -0.0729994, -0.00574199, 4.41921e-05, 0.134651, 64.4815, 31.6977, 6.77154, 2.10498, 3.76163, 0.00373412, -0.0019585, 0.000185188, 0.0029429, 0.00186795, -0.00204809, 0.000538075, 0.0607226, -0.0416978, -0.0306919, -0.0889488, 0.110015, -0.0147225, 0.470351, -0.540921, 0.337159, -2.08202, -2.16715, -0.128038, 0.470498, -0.542395, 0.333944, -2.08265, -2.16701, -0.123833, -0.0184762, 0.0708527, 0.036173, 0.0242735, 0.0173784, -0.00482569
0.11113, 1.69414, -1.2278, -1.5398, -0.900455, -1.19601, 1.2301, -1.30264, 0.0536798, 0.00308742, -0.000279163, -0.0199363, -0.0737179, -0.00412144, -0.00115681, 0.0949785, 64.3704, 31.6224, 6.88263, 2.10498, 3.7543, 0.0357776, -0.00201821, 0.000226492, 0.00296509, 0.00188254, -0.00210625, 0.000528615, 0.0617292, -0.0422846, -0.0287258, -0.0861916, 0.11449, -0.0135984, 0.470332, -0.54085, 0.337195, -2.08197, -2.16719, -0.127985, 0.470522, -0.542378, 0.333948, -2.08261, -2.16709, -0.123706, -0.018785, 0.0720996, 0.0368038, 0.0246627, 0.0173563, -0.00242781
0.11213, 1.69419, -1.2278, -1.5398, -0.900473, -1.19609, 1.2301, -1.30264, 0.0525126, 0.00533407, 0.000592584, -0.0216903, -0.0744022, -0.00289989, -0.0015168, -0.0557783, 64.3704, 31.5867, 6.88263, 2.11139, 3.74698, 0.0559192, -0.00208117, 0.000269827, 0.00299208, 0.00189356, -0.00216043, 0.000522081, 0.0629472, -0.0425541, -0.0275891, -0.0856462, 0.118801, -0.0137282, 0.470313, -0.540778, 0.337232, -2.08192, -2.16723, -0.127932, 0.470548, -0.542363, 0.333947, -2.08257, -2.16716, -0.123586, -0.0190951, 0.0733536, 0.0374381, 0.024711, 0.0172465, -0.000868284
0.11313, 1.69424, -1.22778, -1.5398, -0.900499, -1.19616, 1.2301, -1.30264, 0.05165, 0.00559538, -0.00224579, -0.0213129, -0.0740571, -0.00252218, 0.000921876, -0.206535, 64.295, 31.6977, 6.95801, 2.09949, 3.7543, 0.00373412, -0.00214389, 0.000312738, 0.00301917, 0.00191584, -0.0022203, 0.000518003, 0.065334, -0.0418633, -0.0287353, -0.0878089, 0.119944, -0.019625, 0.470294, -0.540705, 0.337269, -2.08186, -2.16726, -0.127878, 0.470573, -0.542345, 0.333947, -2.08253, -2.16723, -0.123447, -0.0194064, 0.0746148, 0.0380757, 0.0237573, 0.0162988, -0.00171032
0.11413, 1.69429, -1.22778, -1.5398, -0.900524, -1.19624, 1.2301, -1.30264, 0.0460023, 0.00786859, -0.00152899, -0.0235294, -0.0750244, -0.00113979, -0.000334631, -0.281914, 64.2593, 31.6977, 6.99371, 2.1178, 3.73324, 0.0293689, -0.00221182, 0.000352416, 0.0030448, 0.00192929, -0.0022811, 0.000518579, 0.0685236, -0.0396915, -0.0274599, -0.0869249, 0.124507, -0.0230568, 0.470275, -0.54063, 0.337307, -2.08181, -2.1673, -0.127822, 0.470595, -0.542332, 0.333948, -2.0825, -2.16729, -0.123315, -0.0197189, 0.075883, 0.0387168, 0.0214444, 0.0141313, -0.000235316
0.11513, 1.69434, -1.22776, -1.53979, -0.900556, -1.19632, 1.2301, -1.30264, 0.0444241, 0.00825749, 0.00155528, -0.0226352, -0.0739276, -0.000396005, 0.00123514, -0.468376, 64.1483, 31.5867, 7.06909, 2.08667, 3.7186, -0.00999879, -0.0022725, 0.00039899, 0.00306596, 0.00194033, -0.00234358, 0.000503785, 0.0700442, -0.0396777, -0.0262944, -0.0828739, 0.124894, -0.0261699, 0.470255, -0.540554, 0.337346, -2.08175, -2.16734, -0.127766, 0.470623, -0.542311, 0.333955, -2.08246, -2.16738, -0.123185, -0.0200326, 0.0771581, 0.0393611, 0.0212191, 0.0137273, 0.00132495
0.11613, 1.69438, -1.22776, -1.53979, -0.900584, -1.1964, 1.2301, -1.30263, 0.0416589, 0.00625161, 0.00101897, -0.0201484, -0.0749368, 0.000924417, 0.000823551, -0.583427, 64.2593, 31.5867, 7.06909, 2.09949, 3.68289, -0.00999879, -0.00234366, 0.000439118, 0.00309654, 0.00195252, -0.00239694, 0.000507103, 0.0740241, -0.0379167, -0.0274916, -0.0817453, 0.124965, -0.0322635, 0.470235, -0.540477, 0.337386, -2.0817, -2.16738, -0.127709, 0.470645, -0.542298, 0.333952, -2.08243, -2.16744, -0.12306, -0.0203474, 0.07844, 0.0400087, 0.0192514, 0.0111895, 0.000230183
0.11713, 1.69443, -1.22775, -1.53978, -0.900614, -1.19647, 1.2301, -1.30263, 0.0441481, 0.00465315, 0.00556622, -0.0221877, -0.0749075, 0.00132957, 4.05013e-05, -0.76989, 64.2593, 31.5113, 7.06909, 2.09308, 3.66092, 0.00373412, -0.00240955, 0.000484521, 0.00312015, 0.00195832, -0.00245513, 0.000495729, 0.0729384, -0.0409586, -0.0276259, -0.0793908, 0.12438, -0.0260618, 0.470215, -0.540398, 0.337426, -2.08164, -2.16742, -0.127651, 0.470671, -0.542279, 0.333957, -2.08238, -2.16752, -0.122938, -0.0206634, 0.0797287, 0.0406595, 0.0219294, 0.013702, 0.000820614
0.11813, 1.69447, -1.22774, -1.53978, -0.900645, -1.19655, 1.23011, -1.30263, 0.0411507, 0.00661799, 0.00312696, -0.0262809, -0.0701042, 0.0015909, -0.000210288, -0.884941, 64.2593, 31.547, 7.02942, 2.08667, 3.63986, 0.0101428, -0.0024819, 0.000524848, 0.00314722, 0.00197014, -0.00251386, 0.00049622, 0.0738481, -0.0405935, -0.0281594, -0.0808829, 0.123827, -0.0258343, 0.470194, -0.540319, 0.337466, -2.08158, -2.16746, -0.127592, 0.470693, -0.542265, 0.333958, -2.08235, -2.16759, -0.122806, -0.0209804, 0.081024, 0.0413134, 0.0212639, 0.0141668, 0.000818337
0.11913, 1.69451, -1.22773, -1.53978, -0.900685, -1.19662, 1.23011, -1.30264, 0.0384233, 0.00728668, 0.00134514, -0.0278091, -0.0709691, 0.00205522, -0.00108958, -0.960319, 64.295, 31.5867, 7.06909, 2.08118, 3.61148, 0.0357776, -0.00255437, 0.00056547, 0.00317464, 0.00197925, -0.00257029, 0.000490149, 0.0765329, -0.0393449, -0.0288627, -0.0832053, 0.126469, -0.0285174, 0.470173, -0.540238, 0.337508, -2.08152, -2.1675, -0.127533, 0.470714, -0.542249, 0.33396, -2.08231, -2.16767, -0.122679, -0.0212984, 0.0823259, 0.0419705, 0.0197753, 0.0128735, 0.000405127
0.12013, 1.69455, -1.22772, -1.53977, -0.900723, -1.19669, 1.23011, -1.30264, 0.0395892, 0.0078749, 0.00103815, -0.0286884, -0.0714738, 0.00241282, -0.00170969, -1.18645, 64.3347, 31.5867, 7.1048, 2.06195, 3.58218, 0.0623279, -0.0026234, 0.000612527, 0.0032015, 0.00198904, -0.00262993, 0.000474567, 0.0773058, -0.0404208, -0.0292133, -0.0844594, 0.128659, -0.0273599, 0.470152, -0.540155, 0.33755, -2.08146, -2.16755, -0.127472, 0.470741, -0.542229, 0.333963, -2.08226, -2.16776, -0.122549, -0.0216174, 0.0836343, 0.0426306, 0.0205486, 0.01352, 0.000565667
0.12113, 1.69458, -1.22771, -1.53976, -0.900763, -1.19677, 1.23012, -1.30264, 0.0336095, 0.00822634, 0.0047732, -0.032033, -0.0722676, 0.00317044, -0.000902404, -1.26183, 64.3704, 31.547, 7.1048, 2.05646, 3.53915, 0.0559192, -0.00270066, 0.000651609, 0.0032271, 0.00199245, -0.00269026, 0.000474015, 0.0798108, -0.0387932, -0.0282072, -0.0820514, 0.130777, -0.0306867, 0.47013, -0.540072, 0.337592, -2.0814, -2.16759, -0.12741, 0.47076, -0.542216, 0.333968, -2.08222, -2.16784, -0.122422, -0.0219375, 0.084949, 0.0432937, 0.0187378, 0.012139, 0.00188639
0.12213, 1.69462, -1.22768, -1.53975, -0.900809, -1.19684, 1.23012, -1.30264, 0.0351889, 0.0137571, 0.00664901, -0.0367001, -0.0732396, 0.00392083, -0.00060158, -1.45226, 64.184, 31.547, 7.18018, 2.05646, 3.48971, 0.0559192, -0.00277184, 0.000696658, 0.00324472, 0.00199326, -0.00276204, 0.000464666, 0.0785093, -0.0412613, -0.0253875, -0.0827066, 0.138685, -0.0259371, 0.470108, -0.539987, 0.337635, -2.08134, -2.16763, -0.127348, 0.470786, -0.542197, 0.333981, -2.08219, -2.16793, -0.122287, -0.0222584, 0.08627, 0.0439598, 0.0209414, 0.014421, 0.00546008
0.123131, 1.69465, -1.22767, -1.53974, -0.900854, -1.1969, 1.23013, -1.30264, 0.0295223, 0.0155576, 0.00494388, -0.0416157, -0.0719938, 0.0041897, 0.000344948, -1.48797, 64.2236, 31.547, 7.18018, 2.00702, 3.44668, 0.0357776, -0.00285, 0.000735895, 0.00326927, 0.00199139, -0.00281751, 0.000467205, 0.0809626, -0.0393173, -0.0257406, -0.0852075, 0.140845, -0.0296764, 0.470086, -0.5399, 0.337679, -2.08127, -2.16768, -0.127284, 0.470804, -0.542182, 0.333988, -2.08216, -2.168, -0.122169, -0.0225803, 0.0875972, 0.0446288, 0.0187599, 0.013298, 0.0054627
0.124131, 1.69468, -1.22765, -1.53973, -0.900909, -1.19698, 1.23014, -1.30264, 0.0306332, 0.0147231, 0.00367933, -0.0469981, -0.0698072, 0.00464468, 0.000467337, -1.60302, 64.2236, 31.547, 7.25555, 2.04364, 3.39633, 0.0293689, -0.00292648, 0.000779442, 0.00329224, 0.00199123, -0.00288505, 0.000458853, 0.0802589, -0.0415527, -0.0278884, -0.0882069, 0.139937, -0.0249142, 0.470063, -0.539813, 0.337724, -2.08121, -2.16772, -0.127219, 0.470827, -0.542165, 0.333996, -2.08212, -2.1681, -0.122037, -0.0229031, 0.0889305, 0.0453006, 0.020564, 0.0157526, 0.00405159
0.125131, 1.6947, -1.22763, -1.53972, -0.900964, -1.19704, 1.23014, -1.30264, 0.0279369, 0.0132963, 0.00684166, -0.0500308, -0.0653324, 0.00468009, 0.001261, -1.7141, 64.2593, 31.5113, 7.29126, 2.01343, 3.3533, 0.00373412, -0.00300291, 0.000821978, 0.00331614, 0.00198894, -0.0029402, 0.000448301, 0.0805905, -0.0420959, -0.0283341, -0.0849862, 0.13574, -0.023755, 0.47004, -0.539724, 0.337769, -2.08114, -2.16777, -0.127154, 0.470849, -0.542146, 0.334005, -2.08207, -2.16818, -0.121919, -0.0232267, 0.0902698, 0.0459753, 0.0207809, 0.0168578, 0.00421754
0.126131, 1.69473, -1.22761, -1.53971, -0.90102, -1.1971, 1.23014, -1.30264, 0.0278516, 0.0139773, 0.00948477, -0.0549225, -0.0631077, 0.00392631, 0.000365958, -1.90453, 64.2236, 31.5867, 7.29126, 2.01343, 3.33133, 0.0165515, -0.00307991, 0.00086568, 0.00333698, 0.00198878, -0.00300595, 0.000435888, 0.0794913, -0.0439931, -0.028184, -0.0850575, 0.135383, -0.0177448, 0.470017, -0.539634, 0.337815, -2.08108, -2.16781, -0.127088, 0.470871, -0.542126, 0.334017, -2.08203, -2.16828, -0.121787, -0.0235512, 0.0916151, 0.0466527, 0.0223176, 0.019349, 0.00515257
0.127131, 1.69474, -1.22759, -1.53969, -0.901074, -1.19716, 1.23015, -1.30264, 0.0240513, 0.0156515, 0.0103489, -0.0570807, -0.0609897, 0.00366304, 6.61818e-06, -1.94024, 64.2593, 31.5867, 7.21588, 1.99512, 3.30295, 0.0229602, -0.00316171, 0.000904608, 0.00335783, 0.00197624, -0.00305905, 0.000436255, 0.0812096, -0.0429374, -0.0274709, -0.0843668, 0.136101, -0.0192459, 0.469994, -0.539542, 0.337862, -2.08101, -2.16786, -0.12702, 0.470889, -0.542111, 0.334029, -2.08199, -2.16836, -0.12168, -0.0238765, 0.0929661, 0.0473329, 0.021033, 0.0188506, 0.00630489
0.128131, 1.69476, -1.22757, -1.53968, -0.901142, -1.19722, 1.23015, -1.30263, 0.019194, 0.0145143, 0.0123712, -0.0598816, -0.0606124, 0.00348894, 0.000953852, -2.01562, 64.4061, 31.6581, 7.33093, 2.01343, 3.27456, -0.00267457, -0.00324311, 0.000945025, 0.00338474, 0.00197506, -0.0031114, 0.000430753, 0.0835878, -0.0415098, -0.0280286, -0.0837744, 0.13544, -0.0225089, 0.46997, -0.539449, 0.337909, -2.08094, -2.16791, -0.126952, 0.470908, -0.542092, 0.334036, -2.08195, -2.16845, -0.121561, -0.0242025, 0.094323, 0.0480157, 0.0193532, 0.0178846, 0.00611514
0.129131, 1.69478, -1.22754, -1.53966, -0.901206, -1.19728, 1.23016, -1.30263, 0.0182979, 0.0182438, 0.014732, -0.0615224, -0.0554562, 0.00340785, 0.000907172, -2.20605, 64.3704, 31.6977, 7.29126, 2.02533, 3.24527, -0.00999879, -0.00332243, 0.000988775, 0.0034039, 0.00196854, -0.00317413, 0.000419119, 0.0830969, -0.04257, -0.025643, -0.0802284, 0.135764, -0.0202254, 0.469946, -0.539355, 0.337957, -2.08087, -2.16796, -0.126882, 0.470929, -0.542071, 0.334052, -2.0819, -2.16854, -0.121436, -0.0245292, 0.0956855, 0.0487012, 0.0201603, 0.0194147, 0.00919826
0.130131, 1.69479, -1.22752, -1.53964, -0.901278, -1.19734, 1.23016, -1.30263, 0.0147474, 0.0215785, 0.0188615, -0.0653355, -0.0567146, 0.00250687, 9.61569e-05, -2.28143, 64.4418, 31.7731, 7.33093, 2.05005, 3.23886, 0.00373412, -0.00340352, 0.0010303, 0.00342695, 0.00196238, -0.00322591, 0.000404507, 0.0840003, -0.0420721, -0.0230941, -0.0794902, 0.140541, -0.0191886, 0.469921, -0.539259, 0.338006, -2.0808, -2.168, -0.126812, 0.470949, -0.542051, 0.334064, -2.08184, -2.16864, -0.121322, -0.0248567, 0.0970535, 0.0493892, 0.0194703, 0.0194813, 0.0122797
0.131131, 1.6948, -1.2275, -1.53962, -0.901355, -1.19739, 1.23016, -1.30263, 0.013112, 0.0201168, 0.0221077, -0.0710406, -0.0521832, 0.00221199, 6.41063e-05, -2.39648, 64.5529, 31.8445, 7.36664, 2.06195, 3.22421, 0.00373412, -0.00348509, 0.00107275, 0.00345046, 0.00195509, -0.00327756, 0.000388587, 0.0830439, -0.0437732, -0.0239941, -0.077894, 0.136387, -0.0137746, 0.469896, -0.539162, 0.338055, -2.08073, -2.16805, -0.126741, 0.470968, -0.542029, 0.334076, -2.08179, -2.16874, -0.121208, -0.0251848, 0.0984271, 0.0500798, 0.0207731, 0.0220126, 0.0121746
0.132131, 1.69481, -1.22748, -1.5396, -0.901434, -1.19744, 1.23016, -1.30264, 0.0109464, 0.0156221, 0.0253568, -0.0754179, -0.0492977, 0.0116811, -0.00114406, -2.47185, 64.8108, 31.8842, 7.40631, 2.08118, 3.20224, 0.0357776, -0.00356807, 0.00111613, 0.00348032, 0.00194312, -0.00331352, 0.000363696, 0.0843439, -0.0465393, -0.0256085, -0.0681265, 0.135256, -0.00934412, 0.469871, -0.539064, 0.338106, -2.08066, -2.1681, -0.126669, 0.470988, -0.542006, 0.334083, -2.08171, -2.16884, -0.121115, -0.0255136, 0.099806, 0.0507728, 0.0231974, 0.0224774, 0.0109844
0.133131, 1.69481, -1.22745, -1.53958, -0.901515, -1.19749, 1.23016, -1.30264, 0.006701, 0.020986, 0.0270055, -0.0822043, -0.0476268, 0.00856921, -0.00150869, -2.43218, 64.8505, 31.9556, 7.44202, 2.1178, 3.20224, 0.0559192, -0.00365452, 0.00115452, 0.00349904, 0.00192774, -0.00336861, 0.000354349, 0.0842077, -0.0457675, -0.0233229, -0.0712493, 0.138973, -0.00709605, 0.469845, -0.538964, 0.338156, -2.08059, -2.16815, -0.126595, 0.471004, -0.541987, 0.3341, -2.08167, -2.16894, -0.121004, -0.025843, 0.10119, 0.0514683, 0.0221828, 0.0236153, 0.0139822
0.134131, 1.69481, -1.22743, -1.53956, -0.901596, -1.19753, 1.23016, -1.30264, 0.00647912, 0.0201021, 0.022571, -0.085435, -0.0453687, 0.0068078, -0.000768433, -2.50756, 64.9576, 32.1421, 7.40631, 2.1297, 3.18851, 0.0495105, -0.00373992, 0.00119549, 0.00352403, 0.00191781, -0.003411, 0.000338709, 0.0852133, -0.0458216, -0.0264728, -0.0777137, 0.136864, -0.00768483, 0.46982, -0.538862, 0.338208, -2.08052, -2.16821, -0.126521, 0.471021, -0.541964, 0.334113, -2.0816, -2.16903, -0.120899, -0.026173, 0.10258, 0.0521662, 0.0218278, 0.0244978, 0.0114125
0.135131, 1.69481, -1.2274, -1.53954, -0.901678, -1.19757, 1.23016, -1.30264, 0.00450583, 0.0224139, 0.0243133, -0.0851043, -0.0446609, 0.00524957, -0.000987006, -2.50756, 65.0687, 32.2532, 7.36664, 2.16724, 3.18118, 0.0623279, -0.00382809, 0.0012346, 0.00354617, 0.00190135, -0.0034558, 0.000328977, 0.0868076, -0.0449827, -0.0249506, -0.0770976, 0.138539, -0.00979883, 0.469793, -0.53876, 0.33826, -2.08044, -2.16826, -0.126446, 0.471037, -0.541944, 0.334128, -2.08155, -2.16913, -0.120798, -0.0265036, 0.103974, 0.0528664, 0.0207824, 0.0240511, 0.0133966
0.136131, 1.69481, -1.22737, -1.53951, -0.901774, -1.19761, 1.23016, -1.30264, 0.00583495, 0.0218536, 0.0262284, -0.0861324, -0.0427589, 0.00328701, -0.000895362, -2.62261, 65.144, 32.3285, 7.40631, 2.17273, 3.19583, 0.0687366, -0.00390978, 0.00127961, 0.00356674, 0.00188613, -0.00349983, 0.000297759, 0.0864895, -0.0464491, -0.0254519, -0.0775146, 0.136396, -0.00723349, 0.469767, -0.538656, 0.338313, -2.08036, -2.16831, -0.12637, 0.471058, -0.541915, 0.334147, -2.08147, -2.16925, -0.120697, -0.0268347, 0.105374, 0.0535689, 0.0218875, 0.0259079, 0.0136058
0.137131, 1.69481, -1.22735, -1.53948, -0.90187, -1.19764, 1.23016, -1.30264, 0.00575806, 0.0190097, 0.0239535, -0.0895511, -0.0377724, 0.00270998, -0.00012219, -2.69799, 65.3265, 32.4396, 7.40631, 2.20386, 3.18851, 0.0559192, -0.00399429, 0.0013248, 0.0035929, 0.00186861, -0.00353497, 0.000271186, 0.0867077, -0.0475691, -0.0289246, -0.0800663, 0.130575, -0.0055686, 0.46974, -0.538551, 0.338366, -2.08029, -2.16836, -0.126293, 0.471078, -0.541887, 0.33416, -2.08139, -2.16935, -0.120607, -0.0271662, 0.106779, 0.0542736, 0.0225523, 0.0276789, 0.0108112
0.138131, 1.69479, -1.22732, -1.53945, -0.901969, -1.19767, 1.23016, -1.30264, -0.000865606, 0.0225185, 0.0252009, -0.0920982, -0.0333815, 0.00172092, -8.14598e-05, -2.62261, 65.4019, 32.5547, 7.40631, 2.21576, 3.19583, 0.0559192, -0.00408335, 0.00136403, 0.00361414, 0.00184608, -0.0035728, 0.000256478, 0.0888509, -0.0451713, -0.0269918, -0.0782276, 0.130848, -0.00904987, 0.469713, -0.538444, 0.338421, -2.08021, -2.16842, -0.126215, 0.471093, -0.541863, 0.334178, -2.08133, -2.16945, -0.120517, -0.0274983, 0.108188, 0.0549806, 0.0199864, 0.0265741, 0.0131733
0.139131, 1.69478, -1.22728, -1.53942, -0.902074, -1.1977, 1.23016, -1.30264, -0.00696898, 0.0261104, 0.0241578, -0.0984252, -0.0308988, 0.00104907, 0.000929038, -2.62261, 65.4376, 32.6261, 7.44202, 2.25238, 3.20224, 0.0293689, -0.0041692, 0.00140731, 0.00363268, 0.00182205, -0.00361486, 0.000232437, 0.090524, -0.0433506, -0.0263441, -0.080866, 0.13343, -0.0114094, 0.469685, -0.538336, 0.338476, -2.08013, -2.16847, -0.126136, 0.471111, -0.541835, 0.3342, -2.08126, -2.16957, -0.120424, -0.0278308, 0.109602, 0.0556897, 0.0179291, 0.0261596, 0.0143227
0.140131, 1.69476, -1.22726, -1.5394, -0.902178, -1.19773, 1.23017, -1.30263, -0.0133469, 0.0257323, 0.0267665, -0.100497, -0.0240967, 0.00131236, 0.00133144, -2.54723, 65.5844, 32.8126, 7.36664, 2.28351, 3.18851, 0.0101428, -0.00426193, 0.00144733, 0.00365888, 0.00179602, -0.00364602, 0.00021733, 0.0924406, -0.0417994, -0.0260576, -0.0757655, 0.128359, -0.0138928, 0.469658, -0.538226, 0.338531, -2.08005, -2.16853, -0.126055, 0.471126, -0.541811, 0.334215, -2.0812, -2.16967, -0.120343, -0.0281637, 0.111021, 0.0564009, 0.0161362, 0.0255763, 0.0150716
0.141131, 1.69475, -1.22723, -1.53936, -0.902291, -1.19775, 1.23016, -1.30263, -0.0152978, 0.027608, 0.027358, -0.10747, -0.0231925, 0.000444554, 0.00112498, -2.58294, 65.6598, 32.9236, 7.36664, 2.30182, 3.20224, 0.00373412, -0.00434825, 0.00149242, 0.00368258, 0.00177501, -0.00367802, 0.000184393, 0.0921991, -0.0425629, -0.0261591, -0.0789643, 0.130522, -0.0100834, 0.469629, -0.538115, 0.338588, -2.07997, -2.16858, -0.125974, 0.471145, -0.54178, 0.334233, -2.08111, -2.16978, -0.120256, -0.028497, 0.112445, 0.0571142, 0.016556, 0.0272896, 0.0156972
0.142131, 1.69474, -1.2272, -1.53933, -0.902408, -1.19777, 1.23016, -1.30263, -0.0114807, 0.0257999, 0.0311768, -0.113513, -0.0221077, 0.000592431, 0.000987347, -2.58294, 65.7312, 33.0387, 7.40631, 2.30823, 3.19583, -0.00267457, -0.00443451, 0.00153773, 0.0037063, 0.00175065, -0.00370422, 0.000149237, 0.0894188, -0.0472032, -0.0273584, -0.0791172, 0.129276, 0.000217449, 0.469601, -0.538002, 0.338645, -2.07989, -2.16864, -0.125892, 0.471164, -0.541747, 0.334252, -2.08101, -2.1699, -0.120178, -0.0288307, 0.113873, 0.0578295, 0.0207054, 0.0318532, 0.0155062
0.143131, 1.69472, -1.22716, -1.5393, -0.902529, -1.19778, 1.23016, -1.30263, -0.0117403, 0.0283464, 0.0347401, -0.120754, -0.0223438, 0.000710249, -5.38451e-05, -2.58294, 65.7709, 33.1101, 7.40631, 2.33844, 3.18851, 0.0165515, -0.00452297, 0.0015833, 0.00372699, 0.00171886, -0.00373821, 0.000111441, 0.0880041, -0.0495379, -0.0260472, -0.079719, 0.133426, 0.00779044, 0.469572, -0.537889, 0.338703, -2.07981, -2.1687, -0.125809, 0.471184, -0.541715, 0.334274, -2.08093, -2.17003, -0.1201, -0.0291647, 0.115306, 0.0585467, 0.0227024, 0.0345884, 0.0176602
0.144131, 1.69469, -1.22713, -1.53926, -0.902652, -1.1978, 1.23016, -1.30264, -0.0191814, 0.0254503, 0.0342683, -0.117026, -0.0218963, -0.00918841, -0.000747974, -2.54723, 65.878, 33.1855, 7.33093, 2.35675, 3.19583, 0.0357776, -0.00461523, 0.00162565, 0.0037528, 0.00168845, -0.00376018, 7.88002e-05, 0.0932105, -0.0430209, -0.0283775, -0.0864239, 0.12568, -0.00330797, 0.469543, -0.537773, 0.338761, -2.07972, -2.16875, -0.125725, 0.471199, -0.541685, 0.334292, -2.08083, -2.17015, -0.120031, -0.029499, 0.116743, 0.0592659, 0.0159765, 0.030954, 0.0154875
0.145131, 1.69466, -1.2271, -1.53923, -0.90278, -1.1978, 1.23016, -1.30264, -0.0237409, 0.027078, 0.030901, -0.123636, -0.016466, -0.0071235, 0.000450787, -2.54723, 65.9534, 33.2609, 7.33093, 2.36316, 3.20224, 0.0101428, -0.00470575, 0.00166981, 0.00377583, 0.00165551, -0.00378329, 4.21208e-05, 0.0945071, -0.042592, -0.0296012, -0.087889, 0.12548, -0.00417761, 0.469513, -0.537657, 0.338821, -2.07964, -2.16881, -0.12564, 0.471217, -0.541652, 0.334313, -2.08074, -2.17027, -0.119962, -0.0298335, 0.118184, 0.059987, 0.0152205, 0.0312848, 0.0148143
0.146131, 1.69464, -1.22707, -1.53919, -0.902911, -1.19781, 1.23016, -1.30264, -0.0262716, 0.0296719, 0.0337313, -0.126758, -0.0124381, -0.00586194, -0.000648911, -2.58294, 66.1002, 33.3719, 7.25555, 2.36957, 3.21689, 0.0357776, -0.00479636, 0.00171589, 0.0038034, 0.00162425, -0.00379891, 9.72373e-07, 0.09476, -0.0432866, -0.0277469, -0.083862, 0.126359, -0.00133305, 0.469484, -0.537538, 0.338881, -2.07955, -2.16887, -0.125554, 0.471235, -0.541617, 0.33433, -2.08064, -2.1704, -0.119899, -0.0301683, 0.119629, 0.0607099, 0.0156656, 0.0322309, 0.017307
0.147131, 1.6946, -1.22704, -1.53915, -0.903052, -1.19781, 1.23016, -1.30264, -0.0281982, 0.0304851, 0.0383961, -0.130784, -0.00944696, -0.0040645, -0.00189067, -2.62261, 66.1755, 33.3719, 7.25555, 2.37598, 3.20956, 0.0751453, -0.00488575, 0.00176223, 0.00382749, 0.00158909, -0.00381596, -4.92307e-05, 0.0945254, -0.044861, -0.026396, -0.0789145, 0.126566, 0.00361013, 0.469453, -0.537419, 0.338941, -2.07946, -2.16893, -0.125467, 0.471254, -0.54158, 0.334352, -2.08052, -2.17053, -0.119839, -0.0305034, 0.121079, 0.0614347, 0.0169505, 0.0337786, 0.0193505
0.148131, 1.69456, -1.227, -1.53911, -0.90319, -1.19781, 1.23016, -1.30264, -0.0315559, 0.0333512, 0.0414801, -0.130304, -0.00698612, -0.00275925, -0.000785728, -2.58294, 66.2866, 33.3719, 7.21588, 2.37598, 3.20224, 0.0623279, -0.00498133, 0.00180427, 0.00385269, 0.0015482, -0.00382902, -8.32426e-05, 0.0964598, -0.0441541, -0.0237501, -0.0735055, 0.128664, -0.000137533, 0.469423, -0.537298, 0.339003, -2.07938, -2.16899, -0.125378, 0.471269, -0.541548, 0.334372, -2.08043, -2.17065, -0.119787, -0.0308386, 0.122533, 0.0621611, 0.0160932, 0.03289, 0.0224152
0.149131, 1.69453, -1.22697, -1.53906, -0.903339, -1.19781, 1.23016, -1.30264, -0.0346781, 0.034113, 0.0429453, -0.137374, 0.00405267, -0.00208014, -4.91011e-05, -2.65832, 66.3223, 33.4076, 7.21588, 2.38147, 3.20224, 0.0495105, -0.00507238, 0.0018513, 0.00387647, 0.00150916, -0.00384541, -0.000131141, 0.0948206, -0.0458776, -0.0240347, -0.0698461, 0.122113, 0.00547148, 0.469392, -0.537175, 0.339065, -2.07929, -2.16905, -0.125289, 0.471287, -0.541509, 0.334395, -2.08032, -2.17079, -0.119729, -0.031174, 0.12399, 0.0628893, 0.017408, 0.036089, 0.0230581
0.150131, 1.69448, -1.22694, -1.53902, -0.903491, -1.19781, 1.23015, -1.30264, -0.0375862, 0.0320674, 0.0441927, -0.14769, 0.00377866, -0.00132988, -3.2734e-05, -2.69799, 66.4691, 33.4473, 7.14447, 2.36316, 3.19583, 0.0495105, -0.00516822, 0.00189439, 0.00390493, 0.00147036, -0.00385202, -0.000174229, 0.0946798, -0.0472043, -0.0264894, -0.0733791, 0.122385, 0.0110289, 0.469361, -0.537051, 0.339128, -2.0792, -2.16911, -0.125199, 0.471302, -0.541474, 0.334414, -2.0802, -2.17092, -0.11968, -0.0315095, 0.125452, 0.0636192, 0.0182999, 0.0381256, 0.0213419
0.151131, 1.69443, -1.22691, -1.53897, -0.903646, -1.1978, 1.23015, -1.30264, -0.0422897, 0.0345092, 0.0451803, -0.152894, 0.00349632, -0.000479412, -0.000496541, -2.77337, 66.5802, 33.483, 7.1048, 2.34485, 3.18118, 0.0623279, -0.00526537, 0.00193763, 0.00393239, 0.0014278, -0.00386053, -0.000219526, 0.096506, -0.0462608, -0.0255957, -0.0740006, 0.126684, 0.0105877, 0.469329, -0.536926, 0.339191, -2.07911, -2.16918, -0.125108, 0.471316, -0.541438, 0.334434, -2.08009, -2.17105, -0.119632, -0.0318451, 0.126917, 0.0643506, 0.0171337, 0.037612, 0.0227057
0.152131, 1.69438, -1.22687, -1.53892, -0.903812, -1.1978, 1.23016, -1.30264, -0.0500339, 0.0367389, 0.0465284, -0.160364, 0.00771339, 0.000121407, 0.000143691, -2.80907, 66.5445, 33.483, 7.06909, 2.33295, 3.16653, 0.0495105, -0.00536365, 0.0019789, 0.00395258, 0.00138155, -0.00388209, -0.000262527, 0.0980411, -0.0446443, -0.0248856, -0.073056, 0.127044, 0.00970511, 0.469298, -0.536799, 0.339256, -2.07902, -2.16924, -0.125016, 0.471329, -0.541403, 0.334462, -2.07999, -2.17119, -0.119574, -0.0321808, 0.128386, 0.0650837, 0.0152773, 0.0373872, 0.0239569
0.153131, 1.69432, -1.22683, -1.53886, -0.903983, -1.1978, 1.23016, -1.30264, -0.0537694, 0.0341903, 0.0492664, -0.161617, 0.00617831, 0.000276065, 0.00107914, -2.92413, 66.5445, 33.4076, 7.1048, 2.32013, 3.15921, 0.0229602, -0.00545937, 0.00202397, 0.00397323, 0.00133109, -0.00389873, -0.000314037, 0.100894, -0.0434954, -0.0258693, -0.0720245, 0.12663, 0.00587447, 0.469265, -0.53667, 0.339321, -2.07892, -2.1693, -0.124922, 0.471345, -0.541364, 0.334491, -2.07988, -2.17133, -0.119525, -0.0325166, 0.129859, 0.0658182, 0.0138732, 0.0361436, 0.023319
0.154131, 1.69425, -1.2268, -1.53881, -0.904163, -1.19779, 1.23016, -1.30264, -0.063683, 0.0326607, 0.0522923, -0.167737, 0.00498068, 0.000906832, 0.000482066, -2.88445, 66.6516, 33.4076, 7.1048, 2.30823, 3.13815, 0.0293689, -0.00556313, 0.00206247, 0.00400208, 0.00128659, -0.0039089, -0.000358689, 0.104876, -0.0401217, -0.0264703, -0.0714478, 0.127401, 0.00196989, 0.469233, -0.53654, 0.339387, -2.07883, -2.16937, -0.124828, 0.471354, -0.541331, 0.334511, -2.07976, -2.17147, -0.119475, -0.0328524, 0.131335, 0.0665543, 0.0103078, 0.0336298, 0.0229606
0.155131, 1.69418, -1.22677, -1.53876, -0.904356, -1.19779, 1.23016, -1.30263, -0.0637248, 0.0326287, 0.0512484, -0.173941, 0.00431437, 0.00110426, 0.00127081, -3.03521, 66.727, 33.5584, 7.18018, 2.28992, 3.1235, 0.00373412, -0.00566095, 0.00210716, 0.00403403, 0.00125579, -0.00391983, -0.000416449, 0.10501, -0.0415473, -0.0281892, -0.0759807, 0.129608, 0.00470115, 0.4692, -0.536409, 0.339453, -2.07873, -2.16943, -0.124733, 0.471368, -0.541289, 0.334529, -2.07963, -2.17161, -0.119408, -0.0331882, 0.132814, 0.0672918, 0.0113382, 0.035306, 0.0219334
0.156131, 1.69411, -1.22674, -1.53868, -0.904541, -1.19778, 1.23016, -1.30263, -0.0649482, 0.0324149, 0.0619022, -0.182201, 0.00379122, 0.00121268, 0.00060985, -3.11059, 66.8024, 33.3719, 7.1048, 2.27161, 3.10977, 0.0101428, -0.00576264, 0.00214833, 0.00405381, 0.00119048, -0.0039282, -0.000471002, 0.10261, -0.0448263, -0.0260818, -0.0710857, 0.130902, 0.0151643, 0.469167, -0.536276, 0.33952, -2.07864, -2.1695, -0.124636, 0.47138, -0.541252, 0.33456, -2.07951, -2.17177, -0.119382, -0.033524, 0.134297, 0.0680307, 0.01427, 0.0389885, 0.0250142
0.157131, 1.69403, -1.2267, -1.53863, -0.904744, -1.19778, 1.23016, -1.30263, -0.0685449, 0.031545, 0.0625002, -0.188377, 0.00341717, 0.0013269, 0.000881285, -3.22564, 66.9095, 33.483, 7.18018, 2.25238, 3.09512, -0.00267457, -0.00586603, 0.0021892, 0.00408305, 0.00114981, -0.0039419, -0.000526438, 0.104007, -0.0445701, -0.0275343, -0.0736335, 0.131776, 0.0157752, 0.469133, -0.536142, 0.339588, -2.07854, -2.16956, -0.124539, 0.47139, -0.541213, 0.334582, -2.07939, -2.17192, -0.119322, -0.0338597, 0.135784, 0.0687709, 0.0136818, 0.0393079, 0.0241138
0.158131, 1.69394, -1.22666, -1.53855, -0.904944, -1.19777, 1.23016, -1.30263, -0.0711005, 0.0371157, 0.0683487, -0.194692, 0.00353029, -0.00364457, 0.000350164, -3.33672, 66.8738, 33.3719, 7.18018, 2.22217, 3.0878, 0.00373412, -0.00596958, 0.00222868, 0.00409841, 0.00108586, -0.00396116, -0.000583223, 0.10259, -0.0448462, -0.023855, -0.0754783, 0.135887, 0.0208637, 0.469099, -0.536006, 0.339657, -2.07844, -2.16963, -0.124441, 0.471399, -0.541175, 0.334618, -2.07927, -2.17208, -0.119281, -0.0341954, 0.137273, 0.0695125, 0.0137173, 0.0416519, 0.0286976
0.159131, 1.69384, -1.22663, -1.53848, -0.905156, -1.19776, 1.23016, -1.30263, -0.0790761, 0.0356506, 0.0682137, -0.198818, 0.00760119, -0.0020619, 0.000233443, -3.33672, 66.9492, 33.4473, 7.14447, 2.20935, 3.06674, 0.00373412, -0.0060784, 0.00226345, 0.00412441, 0.00103433, -0.00396935, -0.000634221, 0.106025, -0.0423218, -0.0252922, -0.0737419, 0.13297, 0.0168894, 0.469065, -0.535869, 0.339727, -2.07834, -2.1697, -0.124341, 0.471403, -0.54114, 0.334644, -2.07915, -2.17223, -0.119235, -0.0345309, 0.138766, 0.0702554, 0.0109468, 0.0398599, 0.0275775
0.160131, 1.69375, -1.22658, -1.5384, -0.90538, -1.19775, 1.23016, -1.30263, -0.0812987, 0.0364009, 0.0692086, -0.209889, 0.00952227, -0.00114113, -0.000319089, -3.48748, 66.9492, 33.483, 7.14447, 2.22858, 3.05209, 0.0165515, -0.0061804, 0.00230631, 0.00414634, 0.00098502, -0.00398989, -0.000702964, 0.104762, -0.0443737, -0.0263298, -0.0765682, 0.134446, 0.0248951, 0.469031, -0.53573, 0.339797, -2.07824, -2.16977, -0.124241, 0.471415, -0.541096, 0.334676, -2.07901, -2.1724, -0.119176, -0.0348663, 0.140262, 0.0709994, 0.0125741, 0.0428568, 0.0274229
0.161131, 1.69364, -1.22655, -1.53832, -0.905603, -1.19775, 1.23016, -1.30263, -0.0886818, 0.0352502, 0.0761423, -0.210072, 0.0117145, -0.000178747, -0.00119607, -3.52715, 67.0206, 33.5187, 7.02942, 2.23407, 3.03012, 0.0431018, -0.00629079, 0.00234141, 0.00416771, 0.000921604, -0.00400211, -0.000760598, 0.107919, -0.0422063, -0.0246045, -0.0682567, 0.132317, 0.0215517, 0.468996, -0.53559, 0.339868, -2.07814, -2.16984, -0.12414, 0.471419, -0.54106, 0.334708, -2.07889, -2.17256, -0.119139, -0.0352016, 0.141761, 0.0717447, 0.0102762, 0.0408792, 0.0294594
0.162131, 1.69353, -1.22651, -1.53824, -0.905851, -1.19773, 1.23016, -1.30263, -0.0953991, 0.0326936, 0.0806564, -0.226293, 0.00852988, 0.000215615, 0.000185964, -3.52715, 67.1674, 33.5941, 7.06909, 2.24048, 3.01639, 0.0165515, -0.00639809, 0.00237875, 0.00419519, 0.00086581, -0.00400751, -0.000829097, 0.107659, -0.0428968, -0.026856, -0.0728447, 0.134529, 0.0277412, 0.468961, -0.535448, 0.33994, -2.07804, -2.16991, -0.124037, 0.471424, -0.541019, 0.334735, -2.07875, -2.17273, -0.1191, -0.0355366, 0.143262, 0.0724911, 0.0105361, 0.0430145, 0.0279996
0.163131, 1.69342, -1.22648, -1.53814, -0.906098, -1.19773, 1.23016, -1.30263, -0.0941497, 0.0354325, 0.0866532, -0.237522, 0.0102048, 0.000555893, -0.000859368, -3.6422, 67.2427, 33.5584, 6.91833, 2.2652, 3.00174, 0.0431018, -0.00650113, 0.00242208, 0.00421378, 0.000797635, -0.00402227, -0.000915214, 0.10358, -0.0476334, -0.0251893, -0.0723505, 0.137746, 0.0420707, 0.468925, -0.535305, 0.340012, -2.07793, -2.16998, -0.123934, 0.471435, -0.540972, 0.334771, -2.0786, -2.17293, -0.119066, -0.0358715, 0.144767, 0.0732387, 0.0148392, 0.0485133, 0.0308611
0.164131, 1.69329, -1.22643, -1.53805, -0.906357, -1.19772, 1.23016, -1.30263, -0.103299, 0.0363418, 0.0835602, -0.242914, 0.00681927, 0.00132397, -6.42859e-05, -3.60253, 67.2427, 33.7052, 6.91833, 2.28992, 2.97336, 0.0293689, -0.00661136, 0.00245615, 0.00423368, 0.000739663, -0.00404085, -0.000983873, 0.108956, -0.0431743, -0.026474, -0.0776135, 0.143169, 0.0331667, 0.468889, -0.53516, 0.340086, -2.07783, -2.17005, -0.123829, 0.471437, -0.540932, 0.334807, -2.07846, -2.1731, -0.119014, -0.0362061, 0.146274, 0.0739872, 0.0102236, 0.0447061, 0.0296652
0.165131, 1.69316, -1.22639, -1.53794, -0.906624, -1.1977, 1.23016, -1.30263, -0.113171, 0.031167, 0.091237, -0.252767, 0.0041259, 0.000809303, 0.000431861, -3.56683, 67.3538, 33.7052, 6.88263, 2.32013, 2.97336, 0.0165515, -0.00671954, 0.00249264, 0.00425347, 0.000672232, -0.00405036, -0.00106267, 0.111388, -0.0411595, -0.0281803, -0.0767184, 0.141064, 0.0332726, 0.468853, -0.535014, 0.34016, -2.07772, -2.17012, -0.123723, 0.471441, -0.540887, 0.334844, -2.07831, -2.17329, -0.118982, -0.0365405, 0.147784, 0.0747369, 0.00791348, 0.0439844, 0.0284246
0.166131, 1.69303, -1.22636, -1.53783, -0.906897, -1.19769, 1.23016, -1.30263, -0.118953, 0.0341935, 0.0957751, -0.255912, 0.0071811, 0.00102706, 5.05481e-05, -3.56683, 67.576, 33.7449, 6.88263, 2.34485, 2.95871, 0.0229602, -0.00682891, 0.00253058, 0.00427722, 0.000599814, -0.00405267, -0.001148, 0.112826, -0.0400038, -0.025413, -0.072059, 0.142509, 0.0326586, 0.468816, -0.534866, 0.340234, -2.07762, -2.17019, -0.123617, 0.471446, -0.540842, 0.334877, -2.07815, -2.17348, -0.118963, -0.0368746, 0.149297, 0.0754875, 0.00660201, 0.0436059, 0.0317269
0.167131, 1.69288, -1.22631, -1.53773, -0.907184, -1.19767, 1.23016, -1.30262, -0.123036, 0.0444349, 0.0959108, -0.263556, 0.0141185, 0.000914722, 0.000983135, -3.60253, 67.4649, 33.9313, 6.88263, 2.36957, 2.95138, -0.00267457, -0.00693899, 0.00256471, 0.00429193, 0.000541065, -0.00408127, -0.00122401, 0.111615, -0.0402673, -0.0207269, -0.0715552, 0.148525, 0.0353866, 0.46878, -0.534717, 0.34031, -2.07751, -2.17026, -0.123509, 0.471448, -0.540798, 0.33492, -2.07801, -2.17368, -0.118899, -0.0372084, 0.150812, 0.076239, 0.00667853, 0.0456197, 0.0372838
0.168131, 1.69273, -1.22627, -1.53762, -0.907481, -1.19766, 1.23016, -1.30263, -0.132833, 0.0378608, 0.0998478, -0.27111, 0.0144709, 0.00135877, -0.000768731, -3.48748, 67.6831, 33.967, 6.80725, 2.39429, 2.93033, 0.0357776, -0.0070523, 0.00259653, 0.00431509, 0.000473017, -0.00408595, -0.00131187, 0.115104, -0.0376668, -0.0241935, -0.0707273, 0.143031, 0.0350607, 0.468742, -0.534566, 0.340386, -2.0774, -2.17034, -0.123401, 0.471446, -0.540754, 0.334955, -2.07785, -2.17387, -0.118871, -0.0375418, 0.15233, 0.0769914, 0.00375742, 0.0441009, 0.034166
0.169131, 1.69258, -1.22622, -1.53751, -0.907784, -1.19764, 1.23016, -1.30262, -0.140127, 0.041402, 0.101474, -0.281242, 0.0138475, 0.00142517, 0.00633069, -3.48748, 67.6831, 34.1892, 6.77154, 2.44922, 2.91568, -0.0228162, -0.00716419, 0.00263087, 0.00433288, 0.000412676, -0.00411045, -0.00139063, 0.116411, -0.03626, -0.0230683, -0.073488, 0.148689, 0.02896, 0.468705, -0.534414, 0.340463, -2.07729, -2.17041, -0.123291, 0.471447, -0.540707, 0.334996, -2.0777, -2.17407, -0.118811, -0.0378749, 0.15385, 0.0777447, 0.00212604, 0.0440972, 0.0358787
0.170131, 1.69241, -1.22617, -1.53739, -0.908106, -1.19763, 1.23017, -1.30262, -0.147531, 0.0429642, 0.110658, -0.29443, 0.0147299, 0.00147525, 0.00413516, -3.4121, 67.7228, 34.2289, 6.84296, 2.46753, 2.90103, -0.00999879, -0.00727414, 0.00266541, 0.00434785, 0.00033941, -0.00412899, -0.00149165, 0.115174, -0.037001, -0.0208218, -0.0705447, 0.150968, 0.0388852, 0.468667, -0.53426, 0.340541, -2.07718, -2.17049, -0.12318, 0.471448, -0.540658, 0.335041, -2.07753, -2.17429, -0.118774, -0.0382076, 0.155372, 0.0784988, 0.00258152, 0.0465373, 0.0390171
0.171131, 1.69224, -1.22614, -1.53727, -0.908422, -1.19761, 1.23017, -1.30262, -0.15087, 0.0414644, 0.113342, -0.297135, 0.0144286, 0.00175034, 0.00254022, -3.4121, 68.0164, 34.4153, 6.80725, 2.51056, 2.87997, 0.00373412, -0.00739112, 0.00269716, 0.00437364, 0.00026785, -0.00413163, -0.00157991, 0.117144, -0.0365122, -0.0214272, -0.0695492, 0.150851, 0.0395985, 0.468629, -0.534104, 0.340619, -2.07707, -2.17056, -0.123068, 0.471445, -0.540613, 0.335075, -2.07736, -2.17449, -0.118748, -0.0385399, 0.156897, 0.0792537, 0.00182477, 0.0461882, 0.0388895
0.172131, 1.69207, -1.22608, -1.53715, -0.908763, -1.19759, 1.23017, -1.30261, -0.158393, 0.0412018, 0.118256, -0.313031, 0.013762, 0.00142837, 0.00242115, -3.48748, 68.0164, 34.6018, 6.84296, 2.56549, 2.87265, -0.00999879, -0.00749993, 0.00273237, 0.0043886, 0.000204429, -0.0041546, -0.00168403, 0.116482, -0.0368359, -0.0221762, -0.0727952, 0.152895, 0.0471815, 0.46859, -0.533947, 0.340699, -2.07696, -2.17064, -0.122956, 0.471446, -0.540559, 0.335122, -2.07718, -2.17471, -0.118693, -0.0388718, 0.158424, 0.0800094, 0.00176629, 0.0485001, 0.038997
0.173131, 1.69188, -1.22604, -1.53701, -0.909117, -1.19757, 1.23017, -1.30261, -0.1667, 0.0429325, 0.12234, -0.327592, 0.018983, 0.00145353, 0.00638106, -3.45177, 68.1989, 34.6732, 6.84296, 2.59662, 2.85892, -0.00999879, -0.00761106, 0.00276622, 0.00440864, 0.000127161, -0.00415915, -0.00179719, 0.11542, -0.0369571, -0.0218028, -0.0728146, 0.152181, 0.0502728, 0.468551, -0.533789, 0.340779, -2.07684, -2.17071, -0.122842, 0.471445, -0.540506, 0.335164, -2.07699, -2.17494, -0.118672, -0.0392032, 0.159952, 0.0807657, 0.00153548, 0.0510291, 0.0402816
0.174131, 1.69169, -1.22599, -1.53687, -0.909471, -1.19754, 1.23016, -1.3026, -0.171606, 0.0436963, 0.124473, -0.337993, 0.0225016, 0.00123478, 0.00949664, -3.45177, 68.2742, 34.7883, 6.80725, 2.63965, 2.85159, -0.0164075, -0.0077247, 0.00279666, 0.00442276, 5.32646e-05, -0.00417539, -0.00190109, 0.114895, -0.0374991, -0.0223111, -0.0741778, 0.151633, 0.0524379, 0.468512, -0.533629, 0.340859, -2.07673, -2.17079, -0.122727, 0.47144, -0.540454, 0.335212, -2.07681, -2.17517, -0.118634, -0.0395341, 0.161483, 0.0815227, 0.00171114, 0.053183, 0.0405994
0.175131, 1.6915, -1.22594, -1.53674, -0.909836, -1.19751, 1.23016, -1.3026, -0.183136, 0.0463766, 0.128309, -0.347537, 0.0263488, 0.00163286, 0.00657741, -3.48748, 68.3853, 34.9351, 6.73187, 2.64606, 2.82962, -0.00267457, -0.00783696, 0.0028304, 0.00443939, -2.36025e-05, -0.00418786, -0.0020192, 0.117028, -0.0345346, -0.0205894, -0.071819, 0.152632, 0.0542243, 0.468473, -0.533468, 0.340941, -2.07661, -2.17087, -0.122611, 0.471439, -0.5404, 0.335259, -2.07662, -2.17541, -0.118603, -0.0398646, 0.163016, 0.0822803, -0.00141241, 0.0522126, 0.0428332
0.176131, 1.69129, -1.2259, -1.53659, -0.910211, -1.19749, 1.23016, -1.3026, -0.193012, 0.0463752, 0.130754, -0.361454, 0.0226901, 0.000814208, 0.00941339, -3.4121, 68.5678, 34.9708, 6.73187, 2.70099, 2.83694, 0.00373412, -0.00795141, 0.0028602, 0.00445584, -0.000104157, -0.00419374, -0.00213445, 0.119027, -0.0322223, -0.0217208, -0.0777354, 0.157049, 0.0526022, 0.468433, -0.533304, 0.341023, -2.07649, -2.17095, -0.122494, 0.471433, -0.540346, 0.335306, -2.07642, -2.17565, -0.118582, -0.0401944, 0.164551, 0.0830385, -0.00400631, 0.0518381, 0.0422484
0.177131, 1.69108, -1.22584, -1.53644, -0.910606, -1.19745, 1.23016, -1.3026, -0.199019, 0.0481061, 0.136823, -0.374241, 0.026063, 0.00108302, 0.00539647, -3.3764, 68.5678, 35.0858, 6.69617, 2.7193, 2.82229, 0.0495105, -0.00806249, 0.00289265, 0.00447006, -0.000182298, -0.00420733, -0.00226579, 0.117452, -0.0334119, -0.0204875, -0.0762018, 0.157793, 0.0647143, 0.468392, -0.53314, 0.341106, -2.07637, -2.17103, -0.122376, 0.471429, -0.540287, 0.335357, -2.07621, -2.1759, -0.118551, -0.0405238, 0.166087, 0.0837972, -0.003154, 0.0548008, 0.0444267
0.178131, 1.69086, -1.22579, -1.53629, -0.911008, -1.19742, 1.23016, -1.3026, -0.205303, 0.0473489, 0.140122, -0.386153, 0.0281957, 0.000720269, 0.00444722, -3.26134, 68.6432, 35.1215, 6.62079, 2.75043, 2.82229, 0.0431018, -0.00817342, 0.00292646, 0.00448645, -0.00026086, -0.00421682, -0.00239974, 0.117248, -0.0335608, -0.0216224, -0.0779496, 0.156835, 0.0710345, 0.468352, -0.532974, 0.34119, -2.07626, -2.17111, -0.122257, 0.471427, -0.540226, 0.335407, -2.076, -2.17616, -0.118523, -0.0408525, 0.167625, 0.0845564, -0.00338101, 0.056722, 0.0440925
0.179131, 1.69064, -1.22574, -1.53614, -0.911416, -1.19738, 1.23016, -1.3026, -0.210372, 0.0487863, 0.139645, -0.388713, 0.0347714, 0.000987499, 0.00742241, -3.22564, 68.7543, 35.2683, 6.58508, 2.77515, 2.80856, 0.0559192, -0.00828792, 0.00295775, 0.00450925, -0.000333372, -0.00421868, -0.00253394, 0.119051, -0.0322094, -0.0215455, -0.0759835, 0.154135, 0.0660663, 0.468311, -0.532806, 0.341275, -2.07613, -2.17119, -0.122137, 0.471421, -0.540166, 0.33545, -2.07577, -2.17641, -0.118496, -0.0411807, 0.169165, 0.0853161, -0.00497171, 0.056408, 0.0447001
0.180131, 1.69041, -1.2257, -1.53599, -0.911835, -1.19735, 1.23016, -1.3026, -0.215517, 0.049386, 0.141708, -0.400421, 0.0391969, -0.00334704, 0.00542805, -3.03521, 68.9011, 35.4548, 6.5097, 2.80536, 2.78659, 0.0623279, -0.00840667, 0.00298434, 0.00453361, -0.000401726, -0.00422202, -0.00266022, 0.11767, -0.0322343, -0.0227116, -0.0811789, 0.150781, 0.0745155, 0.46827, -0.532637, 0.34136, -2.07601, -2.17127, -0.122016, 0.471411, -0.54011, 0.335492, -2.07555, -2.17666, -0.118461, -0.0415082, 0.170706, 0.0860762, -0.00537163, 0.0594929, 0.0445205
0.181131, 1.69017, -1.22565, -1.53583, -0.912272, -1.19731, 1.23015, -1.3026, -0.22175, 0.0512839, 0.151392, -0.412994, 0.0419737, -0.00263361, 0.00439391, -2.84875, 68.9725, 35.5698, 6.43433, 2.8548, 2.78659, 0.0559192, -0.00851857, 0.0030156, 0.00455202, -0.000479144, -0.00422475, -0.00280741, 0.115655, -0.0338796, -0.0200037, -0.0762203, 0.152198, 0.0847607, 0.468228, -0.532466, 0.341446, -2.07589, -2.17135, -0.121894, 0.471405, -0.540045, 0.335542, -2.07532, -2.17693, -0.118437, -0.0418351, 0.172249, 0.0868367, -0.00401906, 0.0626959, 0.0482079
0.182131, 1.68993, -1.2256, -1.53565, -0.912716, -1.19727, 1.23015, -1.3026, -0.224788, 0.0496021, 0.158294, -0.421541, 0.0401186, -0.00205743, 0.00333266, -2.7337, 69.0479, 35.5698, 6.47003, 2.88501, 2.78659, 0.0559192, -0.00862641, 0.00305169, 0.00456662, -0.000565214, -0.0042279, -0.00296923, 0.115238, -0.0354603, -0.0199933, -0.0748165, 0.153682, 0.0918593, 0.468187, -0.532294, 0.341533, -2.07577, -2.17143, -0.121771, 0.471404, -0.539975, 0.335597, -2.07507, -2.17722, -0.118423, -0.0421613, 0.173793, 0.0875976, -0.00277577, 0.0647285, 0.048989
0.183131, 1.68969, -1.22555, -1.53548, -0.913166, -1.19723, 1.23014, -1.30259, -0.231819, 0.0539847, 0.158954, -0.428202, 0.0390117, -0.00602545, 0.00350766, -2.54723, 69.1589, 35.7523, 6.39465, 2.90973, 2.77926, 0.0293689, -0.00873764, 0.00308536, 0.004586, -0.000645651, -0.0042272, -0.00312528, 0.117266, -0.0324136, -0.0186277, -0.0805436, 0.158389, 0.0892407, 0.468144, -0.53212, 0.34162, -2.07564, -2.17152, -0.121646, 0.471399, -0.539906, 0.335647, -2.07482, -2.1775, -0.118406, -0.0424869, 0.175339, 0.0883587, -0.00599205, 0.063923, 0.050896
0.184131, 1.68945, -1.22549, -1.5353, -0.913629, -1.19718, 1.23014, -1.30259, -0.231582, 0.0565284, 0.163841, -0.431454, 0.0424947, -0.0048495, 0.00327742, -2.50756, 69.1589, 35.8674, 6.39465, 2.94086, 2.78659, 0.0101428, -0.00884308, 0.00312425, 0.00459684, -0.000736111, -0.0042349, -0.00329535, 0.116001, -0.0349134, -0.0162535, -0.0755901, 0.159755, 0.0948321, 0.468102, -0.531945, 0.341709, -2.07552, -2.1716, -0.121521, 0.4714, -0.539832, 0.335707, -2.07456, -2.1778, -0.118391, -0.0428117, 0.176886, 0.0891202, -0.00376625, 0.0664814, 0.0541097
0.185131, 1.68919, -1.22544, -1.53511, -0.914093, -1.19713, 1.23013, -1.30259, -0.240344, 0.0541612, 0.171255, -0.442383, 0.0403854, -0.0083602, 0.00259249, -2.3211, 69.3414, 35.9784, 6.09711, 2.97107, 2.78659, 0.00373412, -0.00895679, 0.00315459, 0.00461379, -0.000827961, -0.00422631, -0.00345514, 0.116996, -0.0331319, -0.0168669, -0.0777213, 0.158762, 0.0981584, 0.468059, -0.531768, 0.341798, -2.07539, -2.17169, -0.121395, 0.471392, -0.539763, 0.335761, -2.07431, -2.17809, -0.118392, -0.0431357, 0.178434, 0.0898818, -0.00584334, 0.0670578, 0.054177
0.186131, 1.68893, -1.22539, -1.53492, -0.914587, -1.19707, 1.23013, -1.30259, -0.244092, 0.053407, 0.177623, -0.457905, 0.0491787, -0.0107015, 0.00138124, -2.24175, 69.4882, 36.0538, 6.09711, 2.97107, 2.77926, 0.0165515, -0.00905812, 0.00319673, 0.00463024, -0.000919808, -0.004218, -0.00365399, 0.112427, -0.0364019, -0.0176937, -0.07751, 0.151669, 0.114111, 0.468016, -0.53159, 0.341888, -2.07526, -2.17177, -0.121268, 0.471395, -0.53968, 0.335818, -2.07402, -2.17841, -0.118396, -0.043459, 0.179984, 0.0906437, -0.00312063, 0.0734027, 0.0547072
