alisrour97/Franka_experiments/Real_Robot_scripts/servo-franka/Data_5_ki/log_dyn_PI_k_ki_1.csv
Time,q1,q2,q3,q4,q5,q6,q7,dq1,dq2,dq3,dq4,dq5,dq6,dq7,t1,t2,t3,t4,t5,t6,t7,ex1,ex2,ex3,ex4,ex5,ex6,ev1,ev2,ev3,ev4,ev5,ev6,xd,yd,zd,uxd,uyd,uzd,x,y,z,ux,uy,uz,vxd,vyd,vzd,vx,vy,vz
4.88281e-07, 1.69149, -1.22396, -1.53762, -0.899786, -1.19194, 1.22853, -1.30269, 0.00240904, -0.00105953, 0.00499039, 0.00414979, 0.0073528, 0.000999551, 0.000702043, -0.960319, 55.2377, 26.5601, 6.20819, 1.88434, 2.93765, -0.147328, 0.0011276, -0.00153135, -0.00103097, -0.000316929, -0.00213998, -7.64979e-05, -0.00213368, -0.00232998, 0.00168178, 0.0101692, -0.00719837, 0.00294653, 0.471008, -0.543389, 0.335894, -2.08385, -2.16584, -0.129887, 0.469474, -0.542499, 0.337132, -2.08504, -2.16725, -0.12805, 0, 0, 0, 0.00231138, 0.00194291, 0.00192156
0.0120928, 1.69148, -1.224, -1.53761, -0.899803, -1.19192, 1.22855, -1.30268, 0.000441272, -0.00115213, 0.000401944, -0.00189936, 0.00491281, 0.000887052, 0.000559567, -1.07537, 55.1624, 26.5958, 6.24786, 1.87244, 2.90835, -0.147328, 0.00112861, -0.00152378, -0.00100656, -0.000338701, -0.00208799, -8.85826e-05, -0.00160236, -0.00147512, -0.000748414, 0.00233598, -0.00457038, 0.00339596, 0.471008, -0.543389, 0.335894, -2.08385, -2.16584, -0.129887, 0.469482, -0.542492, 0.337109, -2.08501, -2.16724, -0.128153, 3.52292e-06, 9.08712e-06, 4.70091e-06, 0.00139243, 0.00176654, -0.000530072
0.0130928, 1.69148, -1.224, -1.53761, -0.899803, -1.19192, 1.22855, -1.30268, 0.000441272, -0.00115213, 0.000401944, -0.00189936, 0.00491281, 0.000887052, 0.000559567, -1.07537, 55.1624, 26.5958, 6.24786, 1.87244, 2.90835, -0.147328, 0.00112858, -0.00152379, -0.00100655, -0.000338711, -0.00208799, -8.85704e-05, -0.00157373, -0.00146392, -0.000758491, 0.00232344, -0.00455122, 0.00337227, 0.471008, -0.543389, 0.335894, -2.08385, -2.16584, -0.129887, 0.469482, -0.542492, 0.337109, -2.08501, -2.16724, -0.128153, 1.40551e-05, 3.62649e-05, 1.87583e-05, 0.00139243, 0.00176654, -0.000530072
0.0140928, 1.69148, -1.224, -1.53761, -0.899803, -1.19192, 1.22855, -1.30268, 0.000441272, -0.00115213, 0.000401944, -0.00189936, 0.00491281, 0.000887052, 0.000559567, -1.07537, 55.1624, 26.5958, 6.24786, 1.87244, 2.90835, -0.147328, 0.00112852, -0.00152381, -0.00100653, -0.000338741, -0.00208797, -8.85374e-05, -0.00152616, -0.00144531, -0.000775227, 0.00230263, -0.0045194, 0.00333293, 0.471008, -0.543389, 0.335894, -2.08385, -2.16584, -0.129887, 0.469482, -0.542492, 0.337109, -2.08501, -2.16724, -0.128153, 3.15416e-05, 8.14084e-05, 4.21042e-05, 0.00139243, 0.00176654, -0.000530072
0.0150928, 1.69148, -1.224, -1.53761, -0.899803, -1.19192, 1.22855, -1.30268, 0.000441272, -0.00115213, 0.000401944, -0.00189936, 0.00491281, 0.000887052, 0.000559567, -1.07537, 55.1624, 26.5958, 6.24786, 1.87244, 2.90835, -0.147328, 0.00112841, -0.00152386, -0.00100649, -0.000338798, -0.00208795, -8.84733e-05, -0.0014598, -0.00141936, -0.00079857, 0.00227362, -0.00447502, 0.00327808, 0.471008, -0.543389, 0.335894, -2.08385, -2.16584, -0.129887, 0.469482, -0.542492, 0.337109, -2.08501, -2.16724, -0.128153, 5.59279e-05, 0.000144393, 7.4671e-05, 0.00139243, 0.00176654, -0.000530072
0.0160928, 1.69148, -1.224, -1.53761, -0.899803, -1.19192, 1.22855, -1.30268, 0.000441272, -0.00115213, 0.000401944, -0.00189936, 0.00491281, 0.000887052, 0.000559567, -1.07537, 55.1624, 26.5958, 6.24786, 1.87244, 2.90835, -0.147328, 0.00112821, -0.00152393, -0.00100642, -0.000338893, -0.0020879, -8.83679e-05, -0.00137477, -0.00138612, -0.000828471, 0.0022365, -0.00441817, 0.00320784, 0.471008, -0.543389, 0.335894, -2.08385, -2.16584, -0.129886, 0.469482, -0.542492, 0.337109, -2.08501, -2.16724, -0.128153, 8.71593e-05, 0.000225094, 0.000116391, 0.00139243, 0.00176654, -0.000530072
0.0170928, 1.69148, -1.224, -1.53761, -0.899803, -1.19192, 1.22855, -1.30268, 0.000441272, -0.00115213, 0.000401944, -0.00189936, 0.00491281, 0.000887052, 0.000559567, -1.07537, 55.1624, 26.5958, 6.24786, 1.87244, 2.90835, -0.147328, 0.00112793, -0.00152404, -0.00100632, -0.000339033, -0.00208783, -8.82111e-05, -0.00127121, -0.00134566, -0.000864881, 0.00219134, -0.00434895, 0.00312234, 0.471008, -0.543389, 0.335894, -2.08385, -2.16584, -0.129886, 0.469482, -0.542492, 0.337109, -2.08501, -2.16724, -0.128153, 0.000125182, 0.000323387, 0.000167197, 0.00139243, 0.00176654, -0.000530072
0.0180928, 1.69148, -1.224, -1.53761, -0.899803, -1.19192, 1.22855, -1.30268, 0.000441272, -0.00115213, 0.000401944, -0.00189936, 0.00491281, 0.000887052, 0.000559567, -1.07537, 55.1624, 26.5958, 6.24786, 1.87244, 2.90835, -0.147328, 0.00112753, -0.0015242, -0.00100618, -0.000339228, -0.00208774, -8.79929e-05, -0.00114924, -0.00129803, -0.000907751, 0.00213821, -0.00426745, 0.00302169, 0.471008, -0.543388, 0.335894, -2.08385, -2.16584, -0.129886, 0.469482, -0.542492, 0.337109, -2.08501, -2.16724, -0.128153, 0.00016994, 0.000439148, 0.000227022, 0.00139243, 0.00176654, -0.000530072
0.0190928, 1.69148, -1.224, -1.53761, -0.899803, -1.19192, 1.22855, -1.30268, 0.000441272, -0.00115213, 0.000401944, -0.00189936, 0.00491281, 0.000887052, 0.000559567, -1.07537, 55.1624, 26.5958, 6.24786, 1.87244, 2.90835, -0.147328, 0.001127, -0.00152441, -0.00100599, -0.000339488, -0.00208761, -8.77034e-05, -0.00100899, -0.00124328, -0.000957032, 0.00207719, -0.00417377, 0.00290603, 0.471009, -0.543388, 0.335895, -2.08385, -2.16584, -0.129886, 0.469482, -0.542492, 0.337109, -2.08501, -2.16724, -0.128153, 0.000221382, 0.000572255, 0.000295798, 0.00139243, 0.00176654, -0.000530072
0.0200928, 1.69148, -1.224, -1.53761, -0.899803, -1.19192, 1.22855, -1.30268, 0.000441272, -0.00115213, 0.000401944, -0.00189936, 0.00491281, 0.000887052, 0.000559567, -1.07537, 55.1624, 26.5958, 6.24786, 1.87244, 2.90835, -0.147328, 0.00112631, -0.00152467, -0.00100576, -0.00033982, -0.00208745, -8.73326e-05, -0.000850609, -0.00118148, -0.00101267, 0.00200835, -0.004068, 0.00277547, 0.471009, -0.543387, 0.335895, -2.08384, -2.16584, -0.129885, 0.469482, -0.542492, 0.337109, -2.08501, -2.16724, -0.128153, 0.000279451, 0.000722584, 0.000373459, 0.00139243, 0.00176654, -0.000530072
0.0210928, 1.69151, -1.22406, -1.53759, -0.899814, -1.1919, 1.22857, -1.30269, 0.00424272, -0.00388772, 0.000267185, 0.000869743, 0.00163283, 0.00552299, -0.00125289, -1.22613, 55.0513, 26.449, 6.24786, 1.76807, 2.85892, -0.0951428, 0.00113903, -0.00150115, -0.000976173, -0.000361675, -0.00202251, -0.000141579, -0.00011978, -0.00313117, -0.0021323, 0.00482074, -0.0018198, 0.00465755, 0.471009, -0.543386, 0.335895, -2.08384, -2.16584, -0.129884, 0.469505, -0.542474, 0.337081, -2.08493, -2.16727, -0.128248, 0.000344096, 0.000890012, 0.000459939, 0.00338996, 0.00146455, -0.00172131
0.0220928, 1.69151, -1.22407, -1.53759, -0.899824, -1.1919, 1.22857, -1.30268, 0.00299007, -0.00556756, 0.00194245, -0.00202256, 0.000439117, 0.00434331, 0.000860125, -1.22613, 55.1624, 26.3736, 6.35895, 1.78638, 2.85159, -0.140919, 0.00114074, -0.00149692, -0.000967399, -0.000364604, -0.0020081, -0.000146607, -0.000300691, -0.00297337, -0.00303335, 0.00329593, -0.0028609, 0.00411218, 0.47101, -0.543385, 0.335896, -2.08384, -2.16584, -0.129884, 0.469509, -0.542469, 0.337073, -2.08492, -2.16727, -0.128266, 0.000415261, 0.00107442, 0.00055517, 0.00326454, 0.00195979, -0.00248297
0.0230928, 1.6915, -1.22408, -1.53759, -0.899827, -1.1919, 1.22857, -1.30268, 0.00339239, -0.00139622, -0.00109087, -0.00135133, 0.00170454, 0.00318807, -0.000409955, -1.15075, 55.0513, 26.3379, 6.35895, 1.74884, 2.85159, -0.114369, 0.00113736, -0.00149898, -0.000962157, -0.000360784, -0.00200408, -0.000145614, -0.00020662, -0.00228933, -0.00176412, 0.000743249, -2.11895e-05, 0.0039073, 0.47101, -0.543384, 0.335896, -2.08384, -2.16585, -0.129883, 0.469507, -0.542471, 0.337068, -2.08492, -2.16727, -0.128265, 0.000492895, 0.00127568, 0.000659086, 0.0027082, 0.00184484, -0.00111977
0.0240928, 1.69151, -1.22409, -1.53759, -0.89983, -1.1919, 1.22858, -1.30268, 0.00260591, -0.00264181, -0.000639112, -0.000903098, 0.00274622, 0.00183616, -0.000273324, -1.15075, 54.9799, 26.1872, 6.35895, 1.70581, 2.86532, -0.114369, 0.00113735, -0.00149634, -0.000956095, -0.000362213, -0.0019951, -0.000148136, 0.000184062, -0.0016306, -0.00243167, 0.000579552, -0.00272278, 0.0030015, 0.471011, -0.543383, 0.335897, -2.08384, -2.16585, -0.129882, 0.46951, -0.542468, 0.337063, -2.08491, -2.16727, -0.128274, 0.000576942, 0.00149367, 0.000771622, 0.00212424, 0.00175294, -0.00170717
0.0250928, 1.69152, -1.2241, -1.5376, -0.89983, -1.1919, 1.22858, -1.30268, 0.00581211, -0.00521957, -0.000891188, 0.00115951, -0.00175339, 0.000303587, -0.00187765, -1.18645, 54.9799, 26.1872, 6.28357, 1.66369, 2.89462, -0.0685925, 0.00113558, -0.00149335, -0.000947472, -0.00035705, -0.00199094, -0.000154379, 0.000650918, -0.00208813, -0.00413622, -0.00290173, -0.0022696, 0.00417368, 0.471011, -0.543381, 0.335898, -2.08384, -2.16585, -0.129881, 0.469513, -0.542467, 0.337055, -2.0849, -2.16727, -0.128272, 0.00066735, 0.00172827, 0.000892711, 0.00262674, 0.00180771, -0.00335543
0.0260928, 1.69152, -1.22411, -1.5376, -0.899839, -1.1919, 1.22859, -1.30268, 0.00255363, -0.00197807, -0.000107743, -0.000156257, -0.0055972, -0.000725356, -0.00148914, -1.11108, 55.1624, 26.1515, 6.32324, 1.63257, 2.923, -0.0621838, 0.00113483, -0.00149031, -0.000938038, -0.000358069, -0.00197985, -0.000159418, 0.00215074, 9.14257e-05, -0.00214987, -0.00486912, 0.00374263, 0.000529912, 0.471012, -0.543379, 0.335899, -2.08384, -2.16585, -0.129879, 0.469517, -0.542464, 0.337046, -2.08488, -2.16727, -0.128284, 0.000764066, 0.00197936, 0.00102229, 0.000672062, 0.000183226, -0.00143157
0.0270928, 1.69152, -1.22412, -1.5376, -0.899837, -1.1919, 1.22859, -1.30268, 0.00750246, -0.00335231, -0.00116867, 0.00258615, -0.00379879, 0.00303732, 0.00293429, -1.07537, 55.3845, 26.1872, 6.20819, 1.61426, 2.95871, -0.0420422, 0.00113318, -0.00148574, -0.000931821, -0.00036348, -0.00197593, -0.000161322, 0.00143597, -0.00269188, -0.00297864, -0.00137623, 0.00292317, -0.00151701, 0.471013, -0.543377, 0.3359, -2.08384, -2.16585, -0.129878, 0.469522, -0.542463, 0.337041, -2.08488, -2.16727, -0.128292, 0.000867038, 0.00224682, 0.00116028, 0.00349926, 0.00139777, -0.00208487
0.0280928, 1.69153, -1.22412, -1.5376, -0.89985, -1.1919, 1.22861, -1.30267, 0.00308438, -0.00204997, -0.00450181, -0.000967857, -0.00261692, 0.00194766, 0.00454965, -0.960319, 55.5313, 26.3379, 6.32324, 1.60144, 2.97336, -0.101552, 0.00113331, -0.00148145, -0.000930291, -0.000366021, -0.00198509, -0.000162587, 0.00286848, -0.000216432, -0.0038582, -0.00571575, 0.00331018, -0.00586598, 0.471014, -0.543375, 0.335901, -2.08384, -2.16585, -0.129876, 0.469527, -0.54246, 0.33704, -2.08488, -2.16728, -0.128284, 0.000976211, 0.00253053, 0.00130664, 0.00115566, 0.000301342, -0.00295473
0.0290928, 1.69152, -1.22413, -1.5376, -0.899853, -1.1919, 1.22862, -1.30268, 0.00230339, -0.0037013, -0.00314837, -0.000645763, -0.00216395, 0.0115691, 0.00112111, -0.809562, 55.7892, 26.3379, 6.32324, 1.60144, 2.95871, -0.0420422, 0.0011299, -0.00147805, -0.00092694, -0.000384361, -0.00198288, -0.000175856, 0.00441213, -0.00166156, -0.00352358, 0.00403757, 0.00612282, -0.00290858, 0.471015, -0.543372, 0.335903, -2.08383, -2.16585, -0.129874, 0.469532, -0.54246, 0.337038, -2.08488, -2.16731, -0.128306, 0.00109153, 0.00283037, 0.00146128, 0.00278153, -0.00091514, -0.00275279
0.0300928, 1.69153, -1.22413, -1.5376, -0.899859, -1.19191, 1.22864, -1.30267, 0.00259523, -0.00524508, -0.00480774, -0.00353531, -0.00246921, 0.0134182, 0.0031705, -0.694511, 55.936, 26.449, 6.32324, 1.62067, 2.95871, -0.101552, 0.00112673, -0.00147321, -0.000923687, -0.000390145, -0.00199517, -0.00017436, 0.00450719, -0.00238233, -0.00538829, 0.00236176, 0.00634099, -0.00328995, 0.471016, -0.543369, 0.335904, -2.08383, -2.16585, -0.129871, 0.469538, -0.542459, 0.337036, -2.08489, -2.16731, -0.128298, 0.00121295, 0.00314621, 0.00162416, 0.00355887, -0.000376647, -0.00446765
0.0310928, 1.69154, -1.22413, -1.5376, -0.899863, -1.19191, 1.22866, -1.30268, 0.00707808, -0.00383984, -0.00505118, -0.00578758, -0.000491773, 0.0137438, 0.00176933, -0.619133, 55.9717, 26.5244, 6.32324, 1.58313, 2.98709, -0.0878186, 0.00112667, -0.00146658, -0.000923557, -0.000401609, -0.0020029, -0.00018535, 0.00175619, -0.00547833, -0.00529372, 0.00155378, 0.00686455, 0.00474561, 0.471017, -0.543366, 0.335906, -2.08383, -2.16586, -0.129869, 0.469546, -0.542456, 0.337037, -2.08488, -2.16734, -0.128301, 0.00134042, 0.00347794, 0.00179519, 0.00668334, 0.00278312, -0.00386963
0.0320928, 1.69154, -1.22412, -1.53761, -0.899866, -1.1919, 1.22867, -1.30267, 0.007722, 0.00181736, -0.00509997, -0.00742135, -6.39464e-05, 0.0130919, 0.0010654, -0.43267, 55.936, 26.5958, 6.32324, 1.57123, 3.04477, -0.0814099, 0.0011228, -0.00146444, -0.000925855, -0.000411102, -0.0020183, -0.000183053, 0.000665097, -0.00587954, -0.00243777, 0.000579429, 0.0122388, 0.00723745, 0.471019, -0.543362, 0.335908, -2.08383, -2.16586, -0.129866, 0.469549, -0.542456, 0.33704, -2.08489, -2.16735, -0.128293, 0.00147388, 0.00382545, 0.00197432, 0.00728158, 0.00378466, -0.000713238
0.0330928, 1.69156, -1.22412, -1.53761, -0.899874, -1.19191, 1.22869, -1.30267, 0.0097161, 0.00175279, -0.00437457, -0.00722062, 0.000265498, 0.0128997, 0.000327961, -0.43267, 55.936, 26.6355, 6.39465, 1.55932, 3.09512, -0.0685925, 0.00112619, -0.00145185, -0.000923915, -0.000418385, -0.00203126, -0.000203697, -9.38117e-06, -0.00693522, -0.00244686, 0.000817844, 0.0120592, 0.00991734, 0.47102, -0.543358, 0.33591, -2.08382, -2.16586, -0.129863, 0.469563, -0.542448, 0.337041, -2.08488, -2.16738, -0.128287, 0.00161328, 0.0041886, 0.00216148, 0.00845083, 0.0048583, -0.000462214
0.0340928, 1.69157, -1.22412, -1.53762, -0.899877, -1.19191, 1.22871, -1.30268, 0.00740453, 0.000739224, -0.00378652, -0.00674095, 0.000789565, 0.0177485, -0.000695396, -0.281914, 55.9717, 26.6712, 6.32324, 1.5401, 3.13815, -0.0420422, 0.00112221, -0.00144558, -0.000921941, -0.000432238, -0.00204401, -0.000210944, 0.00193266, -0.00644394, -0.00235661, 0.00611914, 0.0131335, 0.00839311, 0.471022, -0.543354, 0.335912, -2.08382, -2.16586, -0.12986, 0.469571, -0.542447, 0.33704, -2.08488, -2.16741, -0.128287, 0.00175856, 0.00456728, 0.0023566, 0.00817821, 0.00328575, -0.000464557
0.0350928, 1.69157, -1.22411, -1.53762, -0.899886, -1.19191, 1.22873, -1.30267, 0.00707067, 0.000797251, -0.00641967, -0.00903714, -0.00458477, 0.0214699, 0.000571727, -0.0557783, 55.9717, 26.7069, 6.35895, 1.53461, 3.18118, -0.0685925, 0.00111898, -0.00143987, -0.000919024, -0.000441963, -0.00205574, -0.000215567, 0.00381092, -0.0062211, -0.00337216, 0.00333849, 0.0200702, 0.00539109, 0.471024, -0.543349, 0.335915, -2.08382, -2.16586, -0.129856, 0.469579, -0.542445, 0.337039, -2.08489, -2.16742, -0.128283, 0.00190969, 0.00496137, 0.00255964, 0.00813731, 0.00197275, -0.00154908
0.0360928, 1.69158, -1.22412, -1.53764, -0.899887, -1.19191, 1.22876, -1.30268, 0.00789529, -0.00100341, -0.0072435, -0.00413605, -0.0033118, 0.0252771, -0.000563207, 0.134651, 56.0471, 26.822, 6.24786, 1.5282, 3.19583, -0.0420422, 0.00111343, -0.00143206, -0.000911744, -0.000453202, -0.00206588, -0.000222711, 0.00581695, -0.00614942, -0.00389729, 0.00839369, 0.0190486, 0.0027655, 0.471026, -0.543344, 0.335917, -2.08381, -2.16587, -0.129852, 0.469588, -0.542444, 0.337034, -2.08489, -2.16744, -0.128282, 0.0020666, 0.00537076, 0.00277051, 0.00827544, 0.000479603, -0.00216589
0.0370928, 1.69159, -1.22412, -1.53764, -0.899894, -1.19192, 1.22878, -1.30267, 0.0108668, -0.000497696, -0.00503336, -0.00643657, -0.00189917, 0.0222351, 0.000874471, 0.360787, 56.0471, 26.822, 6.24786, 1.50989, 3.24527, -0.0750012, 0.00111056, -0.00142384, -0.000909126, -0.000467189, -0.00207899, -0.0002264, 0.00315614, -0.00813837, -0.00371976, 0.00663673, 0.0173371, 0.00743968, 0.471028, -0.543338, 0.33592, -2.08381, -2.16587, -0.129848, 0.469599, -0.54244, 0.337033, -2.08489, -2.16746, -0.12828, 0.00222924, 0.00579533, 0.00298915, 0.0103357, 0.00358515, -0.00141901
0.0380928, 1.69161, -1.22412, -1.53764, -0.8999, -1.19192, 1.2288, -1.30267, 0.0122784, 0.0019894, -0.00517927, -0.0040245, -0.00178058, 0.0248953, -0.00132787, 0.626595, 56.0828, 26.8934, 6.20819, 1.5163, 3.2883, -0.0228162, 0.00110596, -0.00141589, -0.000903985, -0.000478374, -0.00209254, -0.000239401, 0.00375043, -0.0086408, -0.00197725, 0.00981637, 0.0211803, 0.0084774, 0.47103, -0.543332, 0.335923, -2.0838, -2.16587, -0.129843, 0.469609, -0.542438, 0.33703, -2.08489, -2.16749, -0.128275, 0.00239756, 0.00623496, 0.00321551, 0.01109, 0.00319049, 0.00042056
0.0390928, 1.69162, -1.22413, -1.53765, -0.899901, -1.19193, 1.22883, -1.30267, 0.0154545, -0.000923532, -0.0035678, -0.00296698, -0.0018357, 0.0267983, 0.00130134, 0.813057, 56.1938, 26.8934, 6.0614, 1.5282, 3.33133, -0.0814099, 0.00110169, -0.00140587, -0.000897244, -0.000493781, -0.00210074, -0.000242668, 0.00328363, -0.0106786, -0.00313549, 0.0124237, 0.0194784, 0.00847973, 0.471033, -0.543326, 0.335927, -2.0838, -2.16588, -0.129838, 0.469621, -0.542434, 0.337026, -2.08489, -2.16751, -0.12828, 0.00257152, 0.00668953, 0.00344951, 0.0132406, 0.00436764, -0.000478155
0.0400928, 1.69163, -1.22413, -1.53765, -0.899906, -1.19193, 1.22885, -1.30267, 0.0132957, -0.00202463, -0.00246474, -0.00319679, -0.000938863, 0.0241359, -0.00129024, 1.18995, 56.2653, 26.8934, 5.95032, 1.5163, 3.36062, -0.0228162, 0.00109379, -0.0014009, -0.000892836, -0.000513919, -0.00211009, -0.000252149, 0.00409025, -0.00915546, -0.00371745, 0.0114094, 0.0165437, 0.00958768, 0.471035, -0.543319, 0.33593, -2.08379, -2.16588, -0.129833, 0.469629, -0.542434, 0.337024, -2.08489, -2.16754, -0.128288, 0.00275106, 0.00715892, 0.0036911, 0.0119068, 0.00406792, -0.000890459
0.0410928, 1.69165, -1.22414, -1.53765, -0.899905, -1.19194, 1.22888, -1.30267, 0.0174533, -0.00208165, -0.00263584, -0.00169135, -0.00186179, 0.0271292, 0.00108187, 1.34071, 56.3049, 26.933, 5.76385, 1.54651, 3.38168, -0.0750012, 0.00108993, -0.00138737, -0.000888844, -0.000531892, -0.0021303, -0.000259377, 0.00373373, -0.0113687, -0.00373437, 0.0132904, 0.0190626, 0.00920042, 0.471038, -0.543312, 0.335934, -2.08379, -2.16589, -0.129827, 0.469646, -0.542429, 0.337023, -2.0849, -2.16757, -0.128283, 0.00293613, 0.00764302, 0.00394021, 0.0142889, 0.00499729, -0.000669515
0.0420928, 1.69167, -1.22414, -1.53766, -0.89991, -1.19195, 1.22892, -1.30267, 0.0170139, -0.00291112, -0.00264094, -0.0024726, -0.00180359, 0.0255997, -0.0012046, 1.49146, 56.3763, 26.9687, 5.6488, 1.55932, 3.37436, -0.0228162, 0.00108732, -0.00137139, -0.0008824, -0.000551485, -0.00214748, -0.000284011, 0.00413298, -0.0108348, -0.00462716, 0.0113853, 0.0178371, 0.011339, 0.471041, -0.543304, 0.335938, -2.08378, -2.16589, -0.129821, 0.469664, -0.542422, 0.337019, -2.08489, -2.16762, -0.128283, 0.00312667, 0.00814172, 0.00419678, 0.0139282, 0.00521741, -0.00134039
0.0430928, 1.6917, -1.22415, -1.53766, -0.89991, -1.19196, 1.22895, -1.30267, 0.0192181, -0.00275845, -0.00272502, 0.000899867, -0.00194632, 0.0243272, 0.000897561, 1.68189, 56.416, 27.0084, 5.50201, 1.57764, 3.36703, -0.0685925, 0.00108127, -0.00135899, -0.00087596, -0.000569121, -0.00216537, -0.000289742, 0.00459241, -0.0108428, -0.004515, 0.0111928, 0.0176087, 0.00793203, 0.471044, -0.543295, 0.335942, -2.08378, -2.16589, -0.129815, 0.46968, -0.542418, 0.337016, -2.08489, -2.16764, -0.128279, 0.00332265, 0.00865489, 0.00446074, 0.0141526, 0.00526012, -0.00103724
0.0440928, 1.69171, -1.22414, -1.53767, -0.899908, -1.19197, 1.22898, -1.30267, 0.0204909, 7.0114e-06, -0.00184395, 0.000289371, -0.00696844, 0.0272653, -0.000381067, 1.87232, 56.3406, 27.0084, 5.35126, 1.58954, 3.38168, -0.0420422, 0.00107435, -0.00134791, -0.000877109, -0.00059411, -0.00219331, -0.000299498, 0.00525, -0.0115546, -0.002664, 0.0116867, 0.0263323, 0.00924311, 0.471048, -0.543286, 0.335947, -2.08377, -2.1659, -0.129808, 0.469695, -0.542416, 0.33702, -2.0849, -2.16768, -0.128273, 0.003524, 0.00918243, 0.00473204, 0.0151553, 0.00488283, 0.00093823
0.0450928, 1.69174, -1.22415, -1.53767, -0.899912, -1.19198, 1.22901, -1.30266, 0.0233402, -0.00420216, -0.00124976, 0.000265677, -0.0107872, 0.028923, 0.000732227, 1.98341, 56.5231, 27.0084, 5.31555, 1.59595, 3.41006, -0.0685925, 0.0010706, -0.00133077, -0.000864374, -0.000609176, -0.00220353, -0.000314412, 0.00575634, -0.0129924, -0.00512893, 0.010829, 0.0265111, 0.00957828, 0.471051, -0.543277, 0.335952, -2.08376, -2.1659, -0.129801, 0.469715, -0.542408, 0.337012, -2.08489, -2.16772, -0.128273, 0.00373068, 0.00972421, 0.00501061, 0.0167271, 0.00536304, -0.00133913
0.0460928, 1.69177, -1.22415, -1.53768, -0.89991, -1.19199, 1.22904, -1.30267, 0.0234008, -0.00108447, -0.00309221, -0.000817667, -0.013604, 0.0294061, -0.00120507, 2.17384, 56.4517, 26.9687, 5.2005, 1.60785, 3.45309, -0.0228162, 0.00106455, -0.00131848, -0.000863067, -0.000627218, -0.00223022, -0.00032915, 0.00668635, -0.0124336, -0.004266, 0.00781425, 0.0327681, 0.0101605, 0.471055, -0.543267, 0.335957, -2.08375, -2.16591, -0.129793, 0.469731, -0.542403, 0.337014, -2.08489, -2.16776, -0.12826, 0.00394263, 0.0102801, 0.00529638, 0.0164454, 0.00484518, -0.000328758
0.0470928, 1.69179, -1.22414, -1.53768, -0.899904, -1.192, 1.22908, -1.30266, 0.023658, 0.00191038, -0.00563166, 0.00220016, -0.0101033, 0.0271, 0.00113104, 2.3603, 56.3406, 26.9687, 5.05371, 1.60785, 3.45309, -0.0750012, 0.00105619, -0.00130674, -0.000862945, -0.000649113, -0.00226073, -0.000328753, 0.00737677, -0.0111442, -0.00341533, 0.0066185, 0.0320485, 0.00485006, 0.471059, -0.543256, 0.335962, -2.08375, -2.16592, -0.129785, 0.469748, -0.5424, 0.337018, -2.08491, -2.16779, -0.128245, 0.00415982, 0.0108501, 0.00558931, 0.0154304, 0.00454982, 0.000735891
0.0480928, 1.69181, -1.22415, -1.53769, -0.899911, -1.19202, 1.22911, -1.30267, 0.0187836, 0.00046455, -0.0024726, 0.00011526, -0.018108, 0.0296461, -0.00117752, 2.62611, 56.3763, 26.8934, 5.08942, 1.60785, 3.46042, -0.0228162, 0.00104791, -0.00129362, -0.000857077, -0.000668608, -0.00228788, -0.000347635, 0.0108666, -0.00878408, -0.00316459, 0.00724248, 0.0386627, 0.00253212, 0.471064, -0.543245, 0.335968, -2.08374, -2.16592, -0.129777, 0.469765, -0.542396, 0.337016, -2.08491, -2.16784, -0.128233, 0.00438218, 0.0114339, 0.00588931, 0.0134299, 0.00155304, 0.000813215
0.0490928, 1.69184, -1.22415, -1.5377, -0.899909, -1.19203, 1.22915, -1.30266, 0.0211325, -0.000598686, -0.00435597, 0.000524834, -0.019178, 0.0321197, 0.00138605, 2.77686, 56.416, 26.8577, 5.05371, 1.62067, 3.45309, -0.0814099, 0.00103917, -0.00127927, -0.00085045, -0.000687703, -0.00231435, -0.000352624, 0.0115381, -0.00978867, -0.00452298, 0.00673304, 0.0402741, 0.00017344, 0.471068, -0.543234, 0.335974, -2.08373, -2.16593, -0.129768, 0.469784, -0.542391, 0.337014, -2.08492, -2.16787, -0.128219, 0.00460967, 0.0120315, 0.00619634, 0.0146356, 0.001738, -0.00035561
0.0500928, 1.69186, -1.22414, -1.5377, -0.8999, -1.19205, 1.22919, -1.30267, 0.0182117, 0.00221406, -0.00485339, 0.00265793, -0.0190866, 0.0344106, 0.00303304, 3.003, 56.3049, 26.7823, 4.94263, 1.60785, 3.43204, -0.00999879, 0.00102524, -0.00127038, -0.000851923, -0.000718627, -0.00234955, -0.000354802, 0.0141646, -0.00771616, -0.00261884, 0.00976507, 0.044317, -0.00700015, 0.471073, -0.543221, 0.335981, -2.08372, -2.16594, -0.129759, 0.469798, -0.542392, 0.337019, -2.08494, -2.16792, -0.128208, 0.00484224, 0.0126428, 0.00651033, 0.0129615, -0.000621633, 0.00149364
0.0510928, 1.6919, -1.22414, -1.53771, -0.899896, -1.19206, 1.22922, -1.30266, 0.0232716, 0.00148708, -0.00707023, 0.00248216, -0.0145458, 0.0351495, 0.00458878, 3.04267, 56.3049, 26.7823, 4.90295, 1.61426, 3.43204, -0.0685925, 0.00101705, -0.00125341, -0.000845491, -0.000738449, -0.0023789, -0.000364602, 0.0122331, -0.010611, -0.00428751, 0.00938702, 0.0409843, -0.00346758, 0.471078, -0.543208, 0.335987, -2.08371, -2.16594, -0.129749, 0.46982, -0.542386, 0.337018, -2.08495, -2.16796, -0.128192, 0.00507984, 0.0132677, 0.00683122, 0.0159606, 0.00228566, 0.000379072
0.0520928, 1.69193, -1.22414, -1.53772, -0.899892, -1.19208, 1.22926, -1.30267, 0.0252058, 0.00192769, -0.00864795, 0.00149141, -0.0163169, 0.0354511, 0.00142387, 3.15376, 56.2653, 26.7823, 4.90295, 1.62067, 3.43936, -0.0164075, 0.00100434, -0.0012406, -0.000838931, -0.000754925, -0.00241362, -0.000373382, 0.0124212, -0.0112298, -0.00503416, 0.00642897, 0.0437159, 0.000568879, 0.471083, -0.543195, 0.335994, -2.0837, -2.16595, -0.129738, 0.469838, -0.542383, 0.337016, -2.08495, -2.168, -0.128165, 0.00532241, 0.013906, 0.00715894, 0.0168009, 0.0028786, -7.83768e-05
0.0530928, 1.69196, -1.22414, -1.53773, -0.89988, -1.1921, 1.2293, -1.30266, 0.0241384, 0.00129134, -0.00400405, 0.00663693, -0.0229454, 0.0353944, 0.00334248, 3.22913, 56.2653, 26.6712, 4.79187, 1.62616, 3.45309, -0.0750012, 0.000990881, -0.00122709, -0.000835865, -0.000785925, -0.00244595, -0.000370411, 0.015503, -0.00928745, -0.00323079, 0.00963017, 0.0481484, -0.00743528, 0.471088, -0.54318, 0.336002, -2.08369, -2.16596, -0.129728, 0.469858, -0.542381, 0.337018, -2.08498, -2.16804, -0.128156, 0.00556992, 0.0145576, 0.00749345, 0.0152845, 0.000130674, 0.00161736
0.0540928, 1.69199, -1.22413, -1.53774, -0.899872, -1.19212, 1.22934, -1.30267, 0.0273278, 0.00337121, -0.00413249, 0.00635986, -0.0216654, 0.0402456, -1.18525e-05, 3.26881, 56.1581, 26.7069, 4.71649, 1.60785, 3.46774, -0.00999879, 0.000978863, -0.0012129, -0.000832974, -0.000806839, -0.00248363, -0.00038387, 0.0147797, -0.0118398, -0.00207676, 0.0135854, 0.0521623, -0.000916441, 0.471094, -0.543166, 0.336009, -2.08368, -2.16597, -0.129716, 0.469878, -0.542377, 0.33702, -2.08498, -2.16809, -0.128131, 0.00582231, 0.0152225, 0.00783467, 0.0181018, 0.00143694, 0.00313317
0.0550928, 1.69202, -1.22414, -1.53774, -0.899861, -1.19214, 1.22938, -1.30266, 0.0237606, -0.000254688, -0.00380043, 0.00696736, -0.0214817, 0.039782, 0.00228773, 3.41956, 56.2653, 26.5958, 4.60541, 1.60785, 3.46774, -0.0685925, 0.000961853, -0.00120192, -0.000825642, -0.000836845, -0.00250974, -0.00037772, 0.017454, -0.00948919, -0.0041047, 0.0137993, 0.0484593, -0.00756301, 0.4711, -0.54315, 0.336017, -2.08367, -2.16597, -0.129705, 0.469895, -0.542377, 0.337018, -2.08501, -2.16812, -0.128125, 0.00607953, 0.0159004, 0.00818254, 0.0160342, -0.00030969, 0.00113475
0.0560928, 1.69206, -1.22413, -1.53775, -0.899858, -1.19217, 1.22942, -1.30266, 0.0269399, 0.0032665, -0.00949215, 0.00474166, -0.0215421, 0.0392463, 0.00138191, 3.45527, 56.1185, 26.5958, 4.60541, 1.61426, 3.46774, -0.0621838, 0.000948008, -0.00118766, -0.000822637, -0.000856888, -0.00255574, -0.000385835, 0.0169162, -0.0103229, -0.00483138, 0.00677409, 0.0528941, -0.00498028, 0.471106, -0.543134, 0.336026, -2.08366, -2.16598, -0.129692, 0.469916, -0.542373, 0.337021, -2.08502, -2.16817, -0.12809, 0.00634154, 0.0165914, 0.00853701, 0.0170833, 0.00105838, 0.000829889
0.0570928, 1.69209, -1.22412, -1.53776, -0.899844, -1.19219, 1.22946, -1.30266, 0.0283058, 0.00477809, -0.00953753, 0.00583213, -0.021686, 0.0392263, 0.00122922, 3.53065, 56.0074, 26.5601, 4.49432, 1.62067, 3.46042, -0.0685925, 0.000930515, -0.00117571, -0.000823043, -0.00088725, -0.00260279, -0.00038385, 0.0172634, -0.0105054, -0.00413902, 0.00677784, 0.0549453, -0.00512471, 0.471113, -0.543117, 0.336034, -2.08364, -2.16599, -0.129679, 0.469935, -0.542373, 0.337027, -2.08505, -2.16821, -0.128063, 0.00660828, 0.0172953, 0.00889802, 0.01757, 0.00132048, 0.00181515
0.0580928, 1.69213, -1.22413, -1.53778, -0.899841, -1.19222, 1.22951, -1.30267, 0.0301092, 0.00225885, -0.0122593, 0.00394251, -0.0171218, 0.0385349, -0.00156898, 3.57032, 56.0471, 26.6355, 4.49432, 1.64447, 3.46774, -0.00267457, 0.000913342, -0.00116137, -0.000811395, -0.000899923, -0.00264332, -0.000396586, 0.0164925, -0.0116057, -0.00726567, 0.00421835, 0.0492522, 0.000763707, 0.471119, -0.543099, 0.336043, -2.08363, -2.166, -0.129666, 0.469956, -0.54237, 0.337021, -2.08505, -2.16826, -0.128023, 0.00687971, 0.0180119, 0.00926549, 0.0187994, 0.00332457, -0.000818424
0.0590928, 1.69216, -1.22412, -1.53778, -0.899829, -1.19225, 1.22955, -1.30266, 0.0275395, 0.00410546, -0.0136286, 0.00536041, -0.0241074, 0.0385748, 0.00241847, 3.6457, 55.936, 26.5601, 4.37927, 1.6756, 3.46042, -0.0951428, 0.000893667, -0.00114886, -0.00081073, -0.000930215, -0.00269651, -0.000384982, 0.0203182, -0.00849994, -0.00659384, 0.000718107, 0.0572257, -0.0106553, 0.471126, -0.543081, 0.336053, -2.08362, -2.16601, -0.129652, 0.469976, -0.54237, 0.337027, -2.0851, -2.1683, -0.127988, 0.00715578, 0.0187412, 0.00963939, 0.0161357, 4.60438e-05, -0.000280656
0.0600928, 1.6922, -1.22412, -1.5378, -0.899821, -1.19228, 1.22959, -1.30266, 0.0285947, 0.00357302, -0.0143665, 0.00443944, -0.028736, 0.0431603, -0.00127403, 3.72108, 55.9003, 26.5958, 4.34357, 1.6875, 3.46042, -0.0164075, 0.000875223, -0.00113557, -0.000803337, -0.000948527, -0.00274045, -0.000393566, 0.0219544, -0.00919613, -0.00721508, 0.00093192, 0.0634306, -0.00763758, 0.471134, -0.543062, 0.336063, -2.0836, -2.16602, -0.129638, 0.469997, -0.542368, 0.337026, -2.0851, -2.16835, -0.12795, 0.00743644, 0.0194831, 0.0100196, 0.0171481, -0.000703193, -0.000788715
0.0610928, 1.69224, -1.22411, -1.53781, -0.899817, -1.19231, 1.22964, -1.30265, 0.0342949, 0.00498109, -0.0139439, 0.0038178, -0.0214114, 0.0416823, 0.000868402, 3.72108, 55.7892, 26.5958, 4.30786, 1.6875, 3.46042, -0.0621838, 0.000858848, -0.00112004, -0.000798599, -0.000968235, -0.00278957, -0.000396169, 0.0182025, -0.0128309, -0.00703448, 0.00204589, 0.0588236, -0.00160624, 0.471141, -0.543042, 0.336073, -2.08359, -2.16603, -0.129623, 0.470021, -0.542363, 0.337029, -2.08512, -2.1684, -0.127907, 0.00772164, 0.0202374, 0.0104062, 0.0209351, 0.00387697, 0.000248112
0.0620928, 1.69227, -1.2241, -1.53782, -0.899809, -1.19235, 1.22968, -1.30266, 0.0352311, 0.00508443, -0.0158617, 0.0066609, -0.0220566, 0.0400584, -0.000625017, 3.87183, 55.7138, 26.5601, 4.26819, 1.71222, 3.47507, -0.0292249, 0.000835687, -0.00111127, -0.000793717, -0.000989195, -0.00283954, -0.000394742, 0.0197866, -0.0117037, -0.00772991, -0.000458326, 0.0590879, -0.00346694, 0.471149, -0.543021, 0.336083, -2.08357, -2.16604, -0.129607, 0.470038, -0.542364, 0.33703, -2.08515, -2.16845, -0.127864, 0.00801134, 0.0210041, 0.0107989, 0.020131, 0.00314042, -0.000257417
0.0630928, 1.69231, -1.22409, -1.53784, -0.899813, -1.19238, 1.22972, -1.30265, 0.0376847, 0.00682364, -0.0168938, 0.00295448, -0.0273413, 0.0395424, 0.000816588, 3.94721, 55.567, 26.6355, 4.34357, 1.71863, 3.47507, -0.0621838, 0.000816902, -0.00109735, -0.000788075, -0.00099813, -0.00290103, -0.000395484, 0.0194575, -0.0126927, -0.00804689, -0.0065991, 0.0659004, -0.00219945, 0.471157, -0.543, 0.336094, -2.08356, -2.16606, -0.129591, 0.470061, -0.54236, 0.337033, -2.08516, -2.1685, -0.127796, 0.00830549, 0.021783, 0.0111979, 0.0213897, 0.00433384, -0.000150383
0.0640928, 1.69235, -1.22409, -1.53785, -0.899802, -1.19242, 1.22976, -1.30265, 0.0372716, 0.00538458, -0.015761, 0.00477595, -0.0304954, 0.0380862, -0.000904247, 3.98292, 55.5313, 26.6355, 4.23248, 1.71222, 3.49612, -0.0228162, 0.000794493, -0.00108607, -0.000780006, -0.00101301, -0.00294878, -0.000397673, 0.0213884, -0.0113393, -0.00863111, -0.00787774, 0.0666334, -0.00363636, 0.471166, -0.542978, 0.336106, -2.08354, -2.16607, -0.129574, 0.470081, -0.542358, 0.337032, -2.08518, -2.16855, -0.127747, 0.00860403, 0.0225739, 0.011603, 0.020385, 0.00325276, -0.000580699
0.0650928, 1.69239, -1.22408, -1.53786, -0.899799, -1.19246, 1.2298, -1.30265, 0.0337025, 0.00451793, -0.013893, 0.00426787, -0.0333166, 0.0369503, 0.000116312, 4.02259, 55.4916, 26.5958, 4.19281, 1.71222, 3.52542, -0.0420422, 0.000774133, -0.00107215, -0.000771597, -0.00102775, -0.00299826, -0.000402043, 0.0238026, -0.00894582, -0.00875323, -0.0086574, 0.067892, -0.0084463, 0.471175, -0.542955, 0.336118, -2.08352, -2.16608, -0.129557, 0.470104, -0.542353, 0.337032, -2.08519, -2.1686, -0.127696, 0.00890693, 0.0233769, 0.0120141, 0.0183802, 0.00159269, -0.000592044
0.0660928, 1.69239, -1.22408, -1.53786, -0.899799, -1.19246, 1.2298, -1.30265, 0.0337025, 0.00451793, -0.013893, 0.00426787, -0.0333166, 0.0369503, 0.000116312, 4.02259, 55.4916, 26.5958, 4.19281, 1.71222, 3.52542, -0.0420422, 0.000749093, -0.00108181, -0.000762848, -0.00103994, -0.00299258, -0.000388672, 0.0246608, -0.00861788, -0.00905097, -0.00900979, 0.0684564, -0.00913421, 0.471184, -0.542931, 0.33613, -2.0835, -2.16609, -0.129539, 0.470104, -0.542353, 0.337032, -2.08519, -2.1686, -0.127696, 0.00921413, 0.0241918, 0.0124312, 0.0183802, 0.00159269, -0.000592044
0.0670928, 1.69239, -1.22408, -1.53786, -0.899799, -1.19246, 1.2298, -1.30265, 0.0337025, 0.00451793, -0.013893, 0.00426787, -0.0333166, 0.0369503, 0.000116312, 4.02259, 55.4916, 26.5958, 4.19281, 1.71222, 3.52542, -0.0420422, 0.00072319, -0.00109179, -0.000753799, -0.00105254, -0.00298671, -0.000374847, 0.0255314, -0.00828536, -0.00935294, -0.00936676, 0.0690287, -0.0098316, 0.471193, -0.542906, 0.336143, -2.08349, -2.16611, -0.12952, 0.470104, -0.542353, 0.337032, -2.08519, -2.1686, -0.127696, 0.0095256, 0.0250185, 0.0128543, 0.0183802, 0.00159269, -0.000592044
0.0680928, 1.69251, -1.22407, -1.5379, -0.899779, -1.19258, 1.2299, -1.30265, 0.0437924, 0.00738044, -0.0133021, 0.00394638, -0.0397578, 0.0335335, 9.14288e-05, 4.17335, 55.2734, 26.5958, 4.04602, 1.74335, 3.58218, -0.0557752, 0.000704168, -0.00103848, -0.000745206, -0.00105419, -0.00315492, -0.000404693, 0.0223519, -0.0123825, -0.00864122, -0.0166396, 0.0763398, -0.0021882, 0.471203, -0.542881, 0.336156, -2.08347, -2.16612, -0.129501, 0.470167, -0.542343, 0.337032, -2.08523, -2.16874, -0.127511, 0.00984127, 0.0258569, 0.0132832, 0.0226992, 0.00562955, 0.000908485
0.0690928, 1.69256, -1.22407, -1.53791, -0.899774, -1.19263, 1.22993, -1.30265, 0.0488686, 0.00602188, -0.0131589, 0.00360826, -0.0459682, 0.0299836, 0.000300547, 4.17335, 55.2377, 26.5958, 4.00635, 1.76166, 3.58218, -0.0621838, 0.000682198, -0.00102363, -0.000733658, -0.00106024, -0.00320629, -0.000412368, 0.0218509, -0.0136667, -0.010323, -0.023909, 0.0790785, 0.000203365, 0.471213, -0.542854, 0.336169, -2.08345, -2.16613, -0.129481, 0.470192, -0.542336, 0.33703, -2.08523, -2.16879, -0.127447, 0.0101611, 0.0267069, 0.013718, 0.0242225, 0.00728592, -0.000278677
0.0700928, 1.69261, -1.22407, -1.53792, -0.899768, -1.19267, 1.22997, -1.30265, 0.0476126, 0.00254392, -0.0113712, 0.00643698, -0.0453045, 0.032871, -0.000543943, 4.24873, 55.3091, 26.5244, 3.97064, 1.77356, 3.56112, -0.0420422, 0.000658296, -0.00101032, -0.000720045, -0.0010723, -0.00324867, -0.000421827, 0.024283, -0.0129641, -0.0113309, -0.0186518, 0.0766902, -0.0022444, 0.471223, -0.542827, 0.336183, -2.08343, -2.16615, -0.129461, 0.470216, -0.54233, 0.337027, -2.08523, -2.16885, -0.127398, 0.0104851, 0.0275683, 0.0141585, 0.023896, 0.00587235, -0.00118921
0.0710928, 1.69265, -1.22407, -1.53793, -0.899765, -1.19272, 1.22999, -1.30265, 0.0474691, 0.002681, -0.00867234, 0.00458233, -0.0457043, 0.0331505, 0.000147255, 4.2884, 55.2734, 26.5244, 3.97064, 1.81018, 3.58218, -0.0557752, 0.000634878, -0.000997907, -0.000707267, -0.00107193, -0.00329839, -0.000427759, 0.024245, -0.013425, -0.0108376, -0.017458, 0.0778785, -0.00102206, 0.471234, -0.542799, 0.336197, -2.08341, -2.16616, -0.12944, 0.47024, -0.542323, 0.337025, -2.08522, -2.1689, -0.127327, 0.0108131, 0.0284411, 0.0146048, 0.0247011, 0.00672598, -0.000263978
0.0720928, 1.69271, -1.22407, -1.53794, -0.899759, -1.19277, 1.23002, -1.30265, 0.0507032, 0.00106449, -0.010656, 0.00410837, -0.0494009, 0.0348035, 0.000336472, 4.3241, 55.3091, 26.5601, 3.93494, 1.79828, 3.56845, -0.0621838, 0.000609898, -0.000984495, -0.000690667, -0.00107371, -0.003343, -0.000433751, 0.0250699, -0.0145588, -0.0128993, -0.0207099, 0.0809922, -0.000508992, 0.471245, -0.54277, 0.336212, -2.08339, -2.16618, -0.129418, 0.470265, -0.542315, 0.337019, -2.08522, -2.16894, -0.127262, 0.0111452, 0.0293251, 0.0150567, 0.0261205, 0.0071596, -0.00201033
0.0730928, 1.69275, -1.22406, -1.53795, -0.899756, -1.19281, 1.23005, -1.30265, 0.0481257, 0.00339239, -0.0103291, 0.00611029, -0.04805, 0.0302992, 0.000462381, 4.43916, 55.1981, 26.5244, 3.93494, 1.81659, 3.58218, -0.0685925, 0.000584698, -0.000975107, -0.000683022, -0.00107703, -0.00339713, -0.00043408, 0.0267245, -0.0116493, -0.0117271, -0.0225494, 0.0803226, -0.0051169, 0.471256, -0.542741, 0.336228, -2.08336, -2.16619, -0.129396, 0.470286, -0.542309, 0.337022, -2.08523, -2.16899, -0.127188, 0.0114812, 0.0302203, 0.0155142, 0.0236535, 0.00612108, -0.000563443
0.0740928, 1.6928, -1.22406, -1.53796, -0.899753, -1.19286, 1.23007, -1.30265, 0.0516893, 0.00232481, -0.0109732, 0.00446361, -0.0468897, 0.0275754, -0.0004372, 4.43916, 55.1981, 26.5244, 3.93494, 1.82941, 3.58218, -0.0484509, 0.000561473, -0.000960083, -0.000668403, -0.00107463, -0.00344683, -0.000448239, 0.0253298, -0.0131928, -0.0135704, -0.0267477, 0.0778822, 7.89232e-05, 0.471268, -0.54271, 0.336243, -2.08334, -2.16621, -0.129373, 0.470313, -0.542298, 0.33702, -2.08521, -2.16905, -0.127114, 0.0118212, 0.0311266, 0.0159772, 0.0254176, 0.00875149, -0.00175129
0.0750928, 1.69286, -1.22406, -1.53798, -0.899752, -1.19291, 1.23009, -1.30265, 0.0570048, 0.000669258, -0.0131197, 0.0032683, -0.0516532, 0.0249658, -0.000291069, 4.47486, 55.2377, 26.5958, 3.93494, 1.85321, 3.59683, -0.0484509, 0.000536626, -0.000947348, -0.000649118, -0.00106285, -0.00349086, -0.000458802, 0.024857, -0.0147157, -0.0163111, -0.0350215, 0.079883, 0.00285531, 0.47128, -0.542678, 0.33626, -2.08332, -2.16623, -0.129349, 0.470338, -0.542288, 0.337012, -2.0852, -2.1691, -0.127033, 0.012165, 0.0320437, 0.0164457, 0.0271656, 0.0106199, -0.00396206
0.0760928, 1.69291, -1.22406, -1.53799, -0.899752, -1.19296, 1.23011, -1.30264, 0.0559455, 0.000481727, -0.013806, 0.00156307, -0.0547356, 0.0231873, 0.000552238, 4.58991, 55.2377, 26.6355, 3.97064, 1.85962, 3.60415, -0.0685925, 0.00051169, -0.000935567, -0.000633811, -0.00105652, -0.00353689, -0.000467687, 0.0263858, -0.0133423, -0.0173392, -0.0396589, 0.0821459, 0.000318858, 0.471292, -0.542646, 0.336276, -2.08329, -2.16625, -0.129324, 0.470362, -0.542277, 0.33701, -2.08518, -2.16915, -0.126956, 0.0125127, 0.0329717, 0.0169196, 0.0261597, 0.01014, -0.00469862
0.0770928, 1.69297, -1.22406, -1.538, -0.899749, -1.19301, 1.23013, -1.30264, 0.0580293, -0.00132262, -0.015051, 0.00120661, -0.0515261, 0.0216008, 0.000368382, 4.58991, 55.3091, 26.7069, 3.97064, 1.86603, 3.6188, -0.0685925, 0.000486054, -0.000922071, -0.000613065, -0.00104496, -0.00357837, -0.000476638, 0.0259747, -0.0141014, -0.019483, -0.0416722, 0.0777584, 0.0025944, 0.471305, -0.542612, 0.336293, -2.08327, -2.16626, -0.129299, 0.470388, -0.542265, 0.337002, -2.08516, -2.1692, -0.126877, 0.0128642, 0.0339105, 0.0173989, 0.0271763, 0.0118456, -0.00629555
0.0780928, 1.69302, -1.22406, -1.53801, -0.899753, -1.19307, 1.23014, -1.30264, 0.0577068, 0.000808691, -0.0102134, 0.0033003, -0.0550365, 0.0160523, -0.000228962, 4.66529, 55.2377, 26.6712, 4.00635, 1.89075, 3.62521, -0.0557752, 0.000462473, -0.000908888, -0.000601124, -0.00103671, -0.0036325, -0.000494081, 0.0266398, -0.0124725, -0.0170427, -0.0430793, 0.080159, 0.00135703, 0.471318, -0.542578, 0.336311, -2.08324, -2.16628, -0.129273, 0.470415, -0.542252, 0.337004, -2.08514, -2.16926, -0.126789, 0.0132194, 0.0348598, 0.0178835, 0.0260182, 0.011696, -0.00345485
0.0790928, 1.69309, -1.22405, -1.53801, -0.899746, -1.19312, 1.23016, -1.30264, 0.0555964, 0.00148215, -0.00988283, 0.00423051, -0.0518087, 0.0159831, -0.0008985, 4.701, 55.1981, 26.6355, 3.93494, 1.89624, 3.64718, -0.0356336, 0.000438763, -0.000894367, -0.000588846, -0.00103137, -0.00368116, -0.000511741, 0.0280834, -0.0110928, -0.0166464, -0.0409336, 0.0786468, -0.000443309, 0.471331, -0.542543, 0.336329, -2.08322, -2.1663, -0.129247, 0.470443, -0.542237, 0.337006, -2.08512, -2.16932, -0.126709, 0.0135784, 0.0358197, 0.0183733, 0.0250662, 0.0111127, -0.00275536
0.0800928, 1.69315, -1.22405, -1.53802, -0.899745, -1.19318, 1.23017, -1.30264, 0.0575595, 0.00183457, -0.00909206, 0.00401827, -0.0493432, 0.0165189, 0.00109652, 4.701, 55.1624, 26.7069, 3.89526, 1.90265, 3.65451, -0.0814099, 0.000412468, -0.000882227, -0.000571508, -0.00101452, -0.0037301, -0.000519825, 0.0275355, -0.0123613, -0.0165982, -0.0394076, 0.0779364, 7.94554e-05, 0.471345, -0.542506, 0.336348, -2.08319, -2.16632, -0.12922, 0.47047, -0.542224, 0.337003, -2.0851, -2.16937, -0.126614, 0.013941, 0.03679, 0.0188684, 0.0266779, 0.0126692, -0.00216646
0.0810928, 1.6932, -1.22405, -1.53803, -0.899748, -1.19324, 1.23018, -1.30264, 0.0562901, 0.00263496, -0.00844942, 0.00195325, -0.0536038, 0.0135773, -0.00096434, 4.81605, 55.2377, 26.7823, 3.93494, 1.92737, 3.62521, -0.0356336, 0.00038298, -0.000873272, -0.000550462, -0.000997934, -0.00377235, -0.000532036, 0.028846, -0.0108001, -0.016735, -0.0445234, 0.0815484, 0.000739247, 0.471359, -0.542469, 0.336367, -2.08316, -2.16634, -0.129192, 0.470493, -0.542212, 0.336996, -2.08507, -2.16942, -0.126526, 0.0143072, 0.0377706, 0.0193685, 0.0255277, 0.0123123, -0.00195688
0.0820928, 1.69326, -1.22405, -1.53803, -0.899747, -1.1933, 1.23018, -1.30264, 0.0581354, 0.00119164, -0.00526633, 0.00238201, -0.0513812, 0.0143201, 0.000577863, 4.81605, 55.2734, 26.7466, 3.89526, 1.95209, 3.63986, -0.0685925, 0.000357649, -0.000861055, -0.000536093, -0.000983817, -0.00382023, -0.000544987, 0.0283038, -0.0123147, -0.0167877, -0.040676, 0.0791468, 0.0021227, 0.471373, -0.542431, 0.336386, -2.08313, -2.16636, -0.129163, 0.47052, -0.542196, 0.336998, -2.08505, -2.16948, -0.126434, 0.014677, 0.0387614, 0.0198738, 0.0273888, 0.0139095, -0.00146574
0.0830928, 1.69332, -1.22404, -1.53804, -0.899748, -1.19336, 1.23019, -1.30264, 0.0604418, 0.00249338, -0.00729601, 0.00170187, -0.0503581, 0.0118219, -0.000835421, 4.77637, 55.3448, 26.8934, 3.89526, 1.99512, 3.61148, -0.0356336, 0.00033038, -0.000847451, -0.000515839, -0.000961968, -0.00387026, -0.000565553, 0.0279664, -0.0126394, -0.0175427, -0.0451361, 0.0793227, 0.00491602, 0.471388, -0.542392, 0.336407, -2.0831, -2.16638, -0.129134, 0.470549, -0.54218, 0.336993, -2.08501, -2.16954, -0.126332, 0.0150503, 0.0397623, 0.0203841, 0.0280468, 0.0153731, -0.00165863
0.0840928, 1.69339, -1.22404, -1.53804, -0.899746, -1.19342, 1.23019, -1.30263, 0.0610701, 0.00355951, -0.00429238, 0.00121998, -0.0486263, 0.00829069, 0.00659074, 4.77637, 55.4202, 26.8577, 3.89526, 2.00702, 3.62521, -0.101552, 0.000304826, -0.000833261, -0.000498882, -0.000949036, -0.00391358, -0.000579271, 0.0271667, -0.0127525, -0.0166329, -0.0454201, 0.0777768, -0.000305616, 0.471403, -0.542351, 0.336427, -2.08308, -2.1664, -0.129103, 0.470579, -0.542162, 0.336993, -2.08498, -2.1696, -0.126245, 0.0154271, 0.0407732, 0.0208993, 0.0285411, 0.0170386, -0.00012458
0.0850928, 1.69344, -1.22404, -1.53804, -0.899746, -1.19348, 1.2302, -1.30264, 0.0590218, 0.00654895, -0.00222406, 0.000877372, -0.0575505, 0.0119435, 0.00234463, 4.89143, 55.5313, 26.822, 3.89526, 2.03174, 3.59683, -0.0356336, 0.000272851, -0.000826056, -0.000483372, -0.000941988, -0.00395765, -0.000592994, 0.0304744, -0.0112447, -0.0141246, -0.0446219, 0.0904077, -0.000675094, 0.471419, -0.54231, 0.336448, -2.08304, -2.16642, -0.129072, 0.470602, -0.542149, 0.336993, -2.08496, -2.16966, -0.126163, 0.0158074, 0.041794, 0.0214195, 0.0276279, 0.0143459, 0.00240596
0.0860928, 1.69351, -1.22404, -1.53804, -0.899753, -1.19354, 1.2302, -1.30263, 0.0645772, 0.00765519, -0.00330141, -0.00113029, -0.058398, 0.00832594, 0.00477337, 4.85175, 55.567, 26.8934, 3.97064, 2.01984, 3.61148, -0.114369, 0.00024824, -0.000810827, -0.000465864, -0.000920625, -0.00400711, -0.000610455, 0.0284027, -0.0134329, -0.0151204, -0.0512393, 0.0915386, 0.00245679, 0.471435, -0.542268, 0.33647, -2.08301, -2.16645, -0.129041, 0.470633, -0.542128, 0.336993, -2.08492, -2.16972, -0.126059, 0.016191, 0.0428246, 0.0219445, 0.0300854, 0.0176659, 0.00220182
0.0870928, 1.69358, -1.22404, -1.53805, -0.899751, -1.1936, 1.2302, -1.30263, 0.0708278, 0.00580543, -0.00407538, 0.000117722, -0.0543943, 0.00650148, 0.000724098, 4.701, 55.7138, 26.9687, 3.93494, 2.02533, 3.60415, -0.0420422, 0.00022035, -0.000796458, -0.000444041, -0.000896479, -0.00405168, -0.000639666, 0.0264436, -0.0162611, -0.0171767, -0.052601, 0.0863591, 0.011723, 0.471451, -0.542224, 0.336492, -2.08298, -2.16647, -0.129008, 0.470664, -0.542108, 0.336989, -2.08487, -2.16979, -0.125957, 0.016578, 0.0438649, 0.0224743, 0.0331503, 0.0210742, 0.000918116
0.0880928, 1.69364, -1.22403, -1.53805, -0.899756, -1.19367, 1.2302, -1.30263, 0.0669421, 0.00403228, -0.00372834, -0.00156493, -0.0559614, 0.00538655, 0.00691497, 4.77637, 55.7495, 27.0084, 4.00635, 2.01343, 3.58951, -0.0814099, 0.000188428, -0.000787498, -0.00042963, -0.000881423, -0.00410814, -0.00065008, 0.0290698, -0.0137533, -0.0186039, -0.0547759, 0.0860523, 0.00196609, 0.471468, -0.54218, 0.336515, -2.08295, -2.16649, -0.128975, 0.470691, -0.542093, 0.336993, -2.08484, -2.16985, -0.125851, 0.0169683, 0.0449148, 0.0230089, 0.0310797, 0.0196464, -0.000286711
0.0890928, 1.69371, -1.22402, -1.53805, -0.899751, -1.19374, 1.2302, -1.30263, 0.0698885, 0.00250807, -0.00421855, 0.000647413, -0.0576977, 0.00424457, 0.00367675, 4.74067, 55.7892, 27.0798, 3.93494, 2.00702, 3.58218, -0.0420422, 0.000156008, -0.0007776, -0.000414187, -0.000860038, -0.0041652, -0.000663593, 0.0300033, -0.0140283, -0.020003, -0.0569795, 0.0860457, 0.00450594, 0.471485, -0.542135, 0.336538, -2.08291, -2.16652, -0.128941, 0.470718, -0.542077, 0.336995, -2.08481, -2.16991, -0.125737, 0.0173618, 0.0459742, 0.0235482, 0.0317308, 0.0200106, -0.00128205
0.0900928, 1.69377, -1.22401, -1.53805, -0.899761, -1.1938, 1.2302, -1.30262, 0.0647405, 0.00585557, -0.00285928, -0.00215165, -0.0590402, 0.00416758, 0.0045402, 4.74067, 55.9003, 27.0798, 4.04602, 2.00702, 3.5538, -0.0878186, 0.000124352, -0.000766361, -0.000394447, -0.000840387, -0.00421681, -0.000679129, 0.0322383, -0.0113522, -0.018067, -0.0571856, 0.0911781, 0.000267487, 0.471503, -0.542088, 0.336562, -2.08288, -2.16654, -0.128906, 0.470748, -0.542058, 0.336994, -2.08478, -2.16998, -0.12563, 0.0177586, 0.047043, 0.0240921, 0.0296081, 0.018464, 0.000909496
0.0910928, 1.69385, -1.22401, -1.53805, -0.899759, -1.19388, 1.2302, -1.30263, 0.0699402, 0.00317239, -0.00110615, -0.000495012, -0.0650978, 0.00245088, 0.00162659, 4.62562, 55.9717, 27.0441, 4.00635, 2.00702, 3.56845, -0.0420422, 9.43749e-05, -0.000751865, -0.000379516, -0.000821155, -0.00427634, -0.000706782, 0.0324618, -0.0128321, -0.019602, -0.0606501, 0.0932546, 0.00483035, 0.471521, -0.542041, 0.336586, -2.08285, -2.16657, -0.128871, 0.470781, -0.542037, 0.336999, -2.08473, -2.17006, -0.125515, 0.0181585, 0.048121, 0.0246406, 0.0314381, 0.0196192, -0.000137664
0.0920928, 1.69391, -1.224, -1.53806, -0.899764, -1.19395, 1.2302, -1.30262, 0.0667621, 0.00413944, -0.00252706, -0.00124948, -0.070217, 0.00206646, 0.00276387, 4.66529, 56.0471, 27.1195, 4.04602, 2.01984, 3.56112, -0.0814099, 5.80721e-05, -0.0007442, -0.000362589, -0.000798324, -0.00433858, -0.000715028, 0.0359732, -0.00987305, -0.0198987, -0.0648457, 0.0990309, -0.00210378, 0.471539, -0.541992, 0.336611, -2.08281, -2.16659, -0.128834, 0.470807, -0.542021, 0.337001, -2.08471, -2.17012, -0.125391, 0.0185616, 0.0492083, 0.0251936, 0.0290039, 0.0171618, -0.000330626
0.0930928, 1.69398, -1.22398, -1.53805, -0.899775, -1.19402, 1.2302, -1.30263, 0.0667515, 0.00905804, -0.00253972, -0.00342503, -0.0735139, 0.00204112, 7.58566e-05, 4.62562, 56.0828, 27.1552, 4.1571, 2.01984, 3.54648, -0.0292249, 2.66231e-05, -0.000730992, -0.000347406, -0.000777345, -0.00440323, -0.000743567, 0.0366642, -0.00944891, -0.0177108, -0.0674872, 0.107565, 0.000373842, 0.471558, -0.541942, 0.336637, -2.08277, -2.16662, -0.128797, 0.47084, -0.542, 0.337007, -2.08466, -2.1702, -0.125268, 0.0189677, 0.0503046, 0.0257511, 0.0290928, 0.0172223, 0.00229354
0.0940928, 1.69404, -1.22397, -1.53806, -0.899778, -1.1941, 1.2302, -1.30262, 0.0645273, 0.0110191, -0.00347123, -0.00227854, -0.0766579, 0.000637662, 0.00210789, 4.66529, 56.1938, 27.2306, 4.1571, 2.02533, 3.56845, -0.0814099, -1.1485e-05, -0.000724376, -0.000329344, -0.00075327, -0.00446244, -0.000747925, 0.0396395, -0.00669612, -0.0171335, -0.0703844, 0.112049, -0.00731207, 0.471577, -0.541891, 0.336663, -2.08274, -2.16665, -0.128759, 0.470866, -0.541983, 0.337009, -2.08464, -2.17026, -0.125144, 0.0193769, 0.05141, 0.0263131, 0.0268837, 0.0151864, 0.00304959
0.0950928, 1.69412, -1.22396, -1.53806, -0.899779, -1.19417, 1.2302, -1.30262, 0.0668794, 0.0125853, -0.00139726, -0.00385692, -0.0792641, 0.000764411, 4.06082e-05, 4.55024, 56.3049, 27.1909, 4.1214, 2.05005, 3.56112, -0.0420422, -4.65812e-05, -0.000711281, -0.000312704, -0.000735981, -0.0045255, -0.000773088, 0.0392397, -0.00799092, -0.01621, -0.0711133, 0.116645, -0.00236319, 0.471597, -0.541839, 0.33669, -2.0827, -2.16667, -0.128721, 0.4709, -0.541963, 0.337013, -2.0846, -2.17034, -0.125024, 0.0197891, 0.0525242, 0.0268794, 0.028609, 0.0166077, 0.00455019
0.0960928, 1.69419, -1.22395, -1.53806, -0.899787, -1.19425, 1.2302, -1.30262, 0.0674039, 0.0153447, -0.0027031, -0.00764941, -0.0796947, 0.000831902, 0.000843113, 4.47486, 56.3406, 27.2663, 4.19281, 2.03815, 3.5538, -0.0621838, -8.12997e-05, -0.00069995, -0.000297652, -0.000710093, -0.0045944, -0.000789906, 0.0391615, -0.00837118, -0.0160047, -0.0745041, 0.120986, -0.00107577, 0.471617, -0.541786, 0.336717, -2.08266, -2.1667, -0.128681, 0.470932, -0.541942, 0.33702, -2.08456, -2.17042, -0.124888, 0.0202043, 0.0536472, 0.02745, 0.0294094, 0.0177925, 0.00532416
0.0970928, 1.69426, -1.22393, -1.53806, -0.899793, -1.19433, 1.2302, -1.30262, 0.069177, 0.0133075, -0.000419732, -0.00648628, -0.0811242, 0.000864139, -0.0010808, 4.47486, 56.416, 27.3417, 4.23248, 2.05005, 3.54648, -0.0164075, -0.000120617, -0.000690503, -0.00028125, -0.000689786, -0.00466422, -0.000809968, 0.0399109, -0.00894082, -0.0167281, -0.073504, 0.120718, 0.00130357, 0.471637, -0.541732, 0.336744, -2.08262, -2.16673, -0.128641, 0.470962, -0.541923, 0.337025, -2.08453, -2.1705, -0.124756, 0.0206224, 0.0547789, 0.0280249, 0.0303978, 0.0183192, 0.00505138
0.0980928, 1.69433, -1.22392, -1.53807, -0.899802, -1.1944, 1.2302, -1.30261, 0.0725675, 0.0142539, -0.00262032, -0.00643142, -0.0815482, 0.000333528, 0.00148901, 4.39948, 56.5231, 27.4528, 4.30786, 2.04364, 3.5538, -0.0750012, -0.000158924, -0.00067988, -0.000261832, -0.000662633, -0.00473102, -0.000823105, 0.0400149, -0.00983044, -0.0175786, -0.0769574, 0.122767, -0.000123308, 0.471658, -0.541677, 0.336773, -2.08258, -2.16676, -0.128599, 0.470995, -0.541902, 0.337028, -2.08449, -2.17057, -0.124618, 0.0210433, 0.0559192, 0.028604, 0.0316803, 0.0195248, 0.00474723
0.0990928, 1.69441, -1.2239, -1.53807, -0.899807, -1.19448, 1.2302, -1.30262, 0.0716108, 0.010707, -0.00238863, -0.00454561, -0.0830432, 0.000786413, 0.000784868, 4.3241, 56.6739, 27.4885, 4.30786, 2.06195, 3.53915, -0.0685925, -0.000198285, -0.000669168, -0.00024444, -0.000639421, -0.00480075, -0.000843263, 0.0428427, -0.00843905, -0.0196414, -0.0767862, 0.121255, -0.00328744, 0.471679, -0.54162, 0.336802, -2.08254, -2.16679, -0.128557, 0.471027, -0.541882, 0.337033, -2.08445, -2.17065, -0.124482, 0.0214671, 0.057068, 0.0291872, 0.030743, 0.01814, 0.002899
0.100093, 1.69448, -1.22388, -1.53807, -0.899815, -1.19456, 1.2302, -1.30262, 0.0729668, 0.0141706, -0.00237534, -0.00405912, -0.0776276, 0.000269154, 0.000545412, 4.2884, 56.7096, 27.5281, 4.34357, 2.05646, 3.54648, -0.0685925, -0.000237567, -0.000659989, -0.000230477, -0.000619945, -0.0048705, -0.000863198, 0.0421372, -0.00908464, -0.0180719, -0.0748614, 0.120799, -0.0013257, 0.471701, -0.541563, 0.336831, -2.08249, -2.16682, -0.128514, 0.471059, -0.54186, 0.337042, -2.08441, -2.17073, -0.124348, 0.0218936, 0.0582252, 0.0297746, 0.0318472, 0.01978, 0.00512577
0.101093, 1.69455, -1.22387, -1.53808, -0.899824, -1.19463, 1.2302, -1.30262, 0.0719998, 0.0147423, -0.00407319, -0.00368642, -0.074243, 0.000191545, -0.000603112, 4.21302, 56.8207, 27.6392, 4.37927, 2.06836, 3.54648, -0.0420422, -0.000277328, -0.000647781, -0.000211538, -0.000597501, -0.00493952, -0.000889004, 0.0435247, -0.00805574, -0.0186648, -0.074945, 0.119401, -0.00210827, 0.471723, -0.541504, 0.336861, -2.08245, -2.16685, -0.128471, 0.471094, -0.541837, 0.337047, -2.08436, -2.17082, -0.124212, 0.0223229, 0.0593907, 0.030366, 0.031279, 0.0196235, 0.00494901
0.102093, 1.69463, -1.22385, -1.53807, -0.89983, -1.19471, 1.2302, -1.30262, 0.073439, 0.0152188, -0.000870604, -0.00483804, -0.0716671, 0.000136778, 0.00011902, 4.17335, 56.9318, 27.5638, 4.34357, 2.07477, 3.54648, -0.0557752, -0.000316275, -0.000636027, -0.000198973, -0.000584878, -0.00500891, -0.000912287, 0.042543, -0.00948838, -0.0179158, -0.0721972, 0.118473, 0.00103163, 0.471746, -0.541444, 0.336892, -2.08241, -2.16688, -0.128426, 0.47113, -0.541813, 0.337059, -2.08432, -2.17091, -0.124086, 0.022755, 0.0605644, 0.0309614, 0.0331341, 0.0217118, 0.00639189
0.103093, 1.6947, -1.22383, -1.53807, -0.899842, -1.19478, 1.2302, -1.30262, 0.0736568, 0.0165215, 0.00172575, -0.00751531, -0.0733234, -0.000173271, -0.000657287, 4.17335, 57.0032, 27.6035, 4.37927, 2.05646, 3.5538, -0.0356336, -0.000356807, -0.000625888, -0.000182864, -0.000565076, -0.00507687, -0.00093508, 0.0425201, -0.00992973, -0.0170659, -0.0726434, 0.121853, 0.00406652, 0.471769, -0.541383, 0.336923, -2.08236, -2.16691, -0.128381, 0.471164, -0.541789, 0.337068, -2.08428, -2.171, -0.123952, 0.0231896, 0.0617462, 0.0315607, 0.0340411, 0.0228044, 0.00782071
0.104093, 1.69478, -1.2238, -1.53808, -0.899849, -1.19485, 1.2302, -1.30262, 0.0745806, 0.0237057, -0.00197285, -0.00778579, -0.0712611, 0.000432129, -0.000668537, 4.13764, 57.0786, 27.7503, 4.34357, 2.06836, 3.53915, -0.0292249, -0.0003998, -0.000615438, -0.000165767, -0.000543663, -0.00514979, -0.000954618, 0.0430155, -0.00959755, -0.0146156, -0.0745334, 0.128725, 0.0030375, 0.471792, -0.54132, 0.336955, -2.08231, -2.16694, -0.128334, 0.471198, -0.541766, 0.337076, -2.08424, -2.17109, -0.123809, 0.0236269, 0.0629361, 0.0321639, 0.0342569, 0.0231154, 0.0107774
0.105093, 1.69485, -1.22378, -1.53808, -0.899861, -1.19493, 1.2302, -1.30262, 0.0716451, 0.0220895, -0.00201051, -0.00895383, -0.0747786, 0.000291918, -0.00067779, 4.13764, 57.1896, 27.79, 4.34357, 2.07477, 3.53915, -0.0228162, -0.000443921, -0.000606883, -0.000150676, -0.00052619, -0.00522344, -0.000975515, 0.0460793, -0.00734202, -0.0160283, -0.0770535, 0.130759, -0.000981583, 0.471816, -0.541257, 0.336987, -2.08227, -2.16698, -0.128287, 0.471232, -0.541744, 0.337086, -2.0842, -2.17118, -0.12367, 0.0240668, 0.0641338, 0.032771, 0.0325061, 0.0214099, 0.00958572
0.106093, 1.69493, -1.22375, -1.53808, -0.899878, -1.195, 1.2302, -1.30261, 0.0693622, 0.0225148, -0.00283622, -0.0116674, -0.07759, 0.000706112, 0.000501521, 4.13764, 57.2253, 27.8614, 4.41894, 2.08667, 3.52542, -0.0484509, -0.000485388, -0.000595332, -0.000135946, -0.000508191, -0.00529846, -0.00100135, 0.0482881, -0.0057995, -0.0167234, -0.0801114, 0.134736, -0.00437434, 0.47184, -0.541192, 0.337021, -2.08222, -2.16701, -0.128239, 0.471269, -0.541717, 0.337098, -2.08415, -2.17128, -0.123529, 0.0245092, 0.0653394, 0.0333819, 0.0314651, 0.0204761, 0.00921673
0.107093, 1.69501, -1.22373, -1.53808, -0.899886, -1.19507, 1.2302, -1.30262, 0.071616, 0.021971, -0.00268791, -0.00995126, -0.0806288, 0.000744164, -0.00061213, 4.09797, 57.2968, 27.9011, 4.34357, 2.1178, 3.5181, -0.0228162, -0.000529894, -0.000584461, -0.000121055, -0.000494654, -0.0053719, -0.00102705, 0.0496948, -0.00590292, -0.0172994, -0.0814277, 0.137434, -0.00446752, 0.471865, -0.541126, 0.337054, -2.08217, -2.16705, -0.12819, 0.471305, -0.541692, 0.33711, -2.08411, -2.17137, -0.123393, 0.0249541, 0.0665526, 0.0339965, 0.0320451, 0.0203933, 0.00904223
0.108093, 1.69509, -1.22371, -1.53808, -0.899903, -1.19514, 1.2302, -1.30261, 0.0741682, 0.0220717, -0.00130508, -0.0115217, -0.0760959, -4.48094e-05, 0.000543568, 4.02259, 57.4832, 28.0121, 4.37927, 2.1178, 3.53274, -0.0484509, -0.000571415, -0.000570823, -9.98613e-05, -0.000472545, -0.00543623, -0.0010577, 0.0480958, -0.0078095, -0.0176155, -0.0804121, 0.134386, -0.000542646, 0.47189, -0.541059, 0.337088, -2.08212, -2.16708, -0.12814, 0.471345, -0.541662, 0.337116, -2.08404, -2.17147, -0.123256, 0.0254015, 0.0677736, 0.0346148, 0.0343267, 0.023322, 0.00953692
0.109093, 1.69517, -1.22368, -1.5381, -0.899911, -1.19521, 1.2302, -1.30262, 0.0731727, 0.0234217, -0.00490918, -0.0132145, -0.0743699, 0.000785141, -0.00133138, 4.06226, 57.4832, 28.1986, 4.30786, 2.16083, 3.51077, -0.00267457, -0.000620561, -0.000563714, -8.35024e-05, -0.000453799, -0.00551253, -0.00107816, 0.0496956, -0.00683445, -0.0186516, -0.0830768, 0.135918, -0.00034868, 0.471916, -0.54099, 0.337123, -2.08207, -2.16712, -0.128089, 0.471379, -0.54164, 0.337127, -2.084, -2.17156, -0.123109, 0.0258513, 0.069002, 0.0352367, 0.0338247, 0.0230885, 0.00891904
0.110093, 1.69525, -1.22366, -1.53809, -0.899927, -1.19528, 1.2302, -1.30261, 0.0741304, 0.0207597, -0.00210284, -0.0100248, -0.0724706, 0.000795604, 0.000571725, 4.02259, 57.63, 28.1589, 4.30786, 2.19104, 3.50345, -0.0420422, -0.00066415, -0.000550435, -6.54201e-05, -0.000444318, -0.00557606, -0.00110685, 0.0508061, -0.00692879, -0.0192746, -0.0790801, 0.132112, -0.00307166, 0.471942, -0.540921, 0.337159, -2.08202, -2.16715, -0.128038, 0.471419, -0.54161, 0.337138, -2.08395, -2.17166, -0.122986, 0.0263034, 0.0702379, 0.0358623, 0.0343903, 0.0233274, 0.0087552
0.111093, 1.69532, -1.22363, -1.5381, -0.899941, -1.19534, 1.2302, -1.30262, 0.0765442, 0.0199993, -0.00391171, -0.00900183, -0.0708869, 0.000531085, -0.000329991, 4.06226, 57.7411, 28.274, 4.23248, 2.22217, 3.50345, -0.0228162, -0.000713111, -0.000542916, -4.69924e-05, -0.00042862, -0.00564407, -0.00113072, 0.0514511, -0.00739148, -0.0208176, -0.0806028, 0.130871, -0.0020198, 0.471968, -0.54085, 0.337195, -2.08197, -2.16719, -0.127985, 0.471454, -0.541584, 0.337148, -2.0839, -2.17176, -0.122849, 0.0267579, 0.0714811, 0.0364913, 0.0352744, 0.02419, 0.00774687
0.112093, 1.6954, -1.2236, -1.5381, -0.899956, -1.19541, 1.2302, -1.30261, 0.0801037, 0.0226701, -0.00414216, -0.0122957, -0.0693674, 0.000625835, 0.00100141, 4.02259, 57.7054, 28.3454, 4.19281, 2.23407, 3.49612, -0.0557752, -0.000756151, -0.000529855, -3.40194e-05, -0.000416608, -0.00571515, -0.00116097, 0.0497011, -0.00972911, -0.020415, -0.0823897, 0.133599, 0.0023816, 0.471995, -0.540778, 0.337232, -2.08192, -2.16723, -0.127932, 0.471496, -0.541552, 0.337165, -2.08384, -2.17186, -0.122714, 0.0272147, 0.0727316, 0.0371239, 0.0380168, 0.0272059, 0.00897514
0.113093, 1.69549, -1.22357, -1.5381, -0.899974, -1.19547, 1.2302, -1.30262, 0.0819825, 0.0232599, -0.0035874, -0.0148754, -0.0630502, 0.000417607, -0.00201063, 4.02259, 57.8522, 28.3851, 4.1571, 2.25238, 3.49612, 0.0165515, -0.00080163, -0.00051605, -1.28831e-05, -0.00040702, -0.00577494, -0.00120465, 0.0479731, -0.0116224, -0.0208056, -0.0811225, 0.13001, 0.0108605, 0.472023, -0.540705, 0.337269, -2.08186, -2.16726, -0.127878, 0.471538, -0.54152, 0.337174, -2.08377, -2.17198, -0.122592, 0.0276737, 0.0739892, 0.0377598, 0.0402886, 0.03031, 0.00943384
0.114093, 1.69557, -1.22355, -1.5381, -0.899993, -1.19553, 1.2302, -1.30261, 0.0801954, 0.0266423, -0.00231505, -0.01585, -0.0643184, 0.000278692, 0.00106747, 4.02259, 57.8879, 28.3851, 4.08173, 2.28992, 3.49612, -0.0484509, -0.00084711, -0.000502624, 3.61997e-06, -0.000398252, -0.00584287, -0.00123353, 0.0494515, -0.0103312, -0.0188746, -0.0811188, 0.135153, 0.00596667, 0.472051, -0.54063, 0.337307, -2.08181, -2.1673, -0.127822, 0.47158, -0.541487, 0.337189, -2.08371, -2.17208, -0.122461, 0.028135, 0.0752539, 0.0383992, 0.0395892, 0.0297643, 0.0117922
0.115093, 1.69565, -1.22352, -1.53811, -0.900013, -1.19559, 1.2302, -1.30261, 0.0800623, 0.0271146, -0.00584765, -0.0207689, -0.0641989, 0.00042337, 0.000474585, 3.98292, 57.999, 28.5715, 4.04602, 2.30182, 3.48971, -0.0420422, -0.00089497, -0.000490888, 2.83019e-05, -0.000377714, -0.00590202, -0.0012678, 0.0500717, -0.0102684, -0.0209691, -0.0868095, 0.137125, 0.00803491, 0.472079, -0.540554, 0.337346, -2.08175, -2.16734, -0.127766, 0.471621, -0.541454, 0.337195, -2.08364, -2.17218, -0.122326, 0.0285984, 0.0765256, 0.0390419, 0.0399359, 0.030742, 0.0102731
0.116093, 1.69574, -1.22349, -1.53811, -0.90003, -1.19564, 1.2302, -1.30261, 0.0818768, 0.0230465, -0.00385538, -0.0164141, -0.0649789, 0.000282408, 0.000825239, 3.98292, 58.0347, 28.5715, 3.93494, 2.33844, 3.48971, -0.0557752, -0.00094154, -0.000477442, 4.4896e-05, -0.0003732, -0.00596524, -0.00130345, 0.052011, -0.0101227, -0.0226148, -0.0846145, 0.134041, 0.00539629, 0.472108, -0.540477, 0.337386, -2.0817, -2.16738, -0.127709, 0.471665, -0.54142, 0.337211, -2.08357, -2.1723, -0.122204, 0.0290639, 0.0778042, 0.0396878, 0.0402679, 0.0303518, 0.00899918
0.117093, 1.69582, -1.22346, -1.53811, -0.900055, -1.1957, 1.2302, -1.30262, 0.0853724, 0.0254467, -0.000206459, -0.0189805, -0.0597549, 0.00127346, -0.00141636, 4.02259, 58.11, 28.6072, 3.93494, 2.35675, 3.46042, -0.00267457, -0.000987687, -0.000461952, 6.5962e-05, -0.000365953, -0.00602602, -0.00135275, 0.0491129, -0.0135132, -0.0208295, -0.0801971, 0.133605, 0.0157627, 0.472137, -0.540398, 0.337426, -2.08164, -2.16742, -0.127651, 0.47171, -0.541383, 0.337222, -2.08349, -2.17242, -0.122081, 0.0295316, 0.0790895, 0.040337, 0.0440812, 0.03437, 0.0117533
0.118093, 1.69591, -1.22345, -1.53812, -0.90008, -1.19575, 1.2302, -1.30261, 0.0865566, 0.0255208, -0.00244798, -0.0199009, -0.056067, 0.000306532, 0.000751304, 4.13764, 58.2568, 28.7183, 3.89526, 2.38147, 3.47507, -0.0484509, -0.00103668, -0.000449298, 9.33175e-05, -0.000353281, -0.00607485, -0.00138719, 0.0492998, -0.0137188, -0.0223233, -0.0824006, 0.131318, 0.0146801, 0.472167, -0.540319, 0.337466, -2.08158, -2.16746, -0.127592, 0.471754, -0.541347, 0.337228, -2.08341, -2.17252, -0.121962, 0.0300013, 0.0803815, 0.0409894, 0.0447084, 0.0357153, 0.0108956
0.119093, 1.69599, -1.22341, -1.53812, -0.90011, -1.1958, 1.2302, -1.30262, 0.0854581, 0.0285172, -0.00401436, -0.0244896, -0.0531723, 0.00047569, -0.000448473, 4.21302, 58.1458, 28.8294, 3.89526, 2.40619, 3.46774, -0.0228162, -0.00108284, -0.000434558, 0.000111436, -0.000342891, -0.0061415, -0.00143587, 0.0492732, -0.0136432, -0.0221521, -0.0845529, 0.133369, 0.0179254, 0.472197, -0.540238, 0.337508, -2.08152, -2.1675, -0.127533, 0.4718, -0.541308, 0.337244, -2.08333, -2.17265, -0.121828, 0.030473, 0.0816802, 0.0416449, 0.0451113, 0.037011, 0.011727
0.120093, 1.69607, -1.22339, -1.53812, -0.900137, -1.19586, 1.2302, -1.30261, 0.0859571, 0.0252364, -0.00251418, -0.0262238, -0.0568414, 0.000317178, 0.000413165, 4.36378, 58.2568, 28.8294, 3.81988, 2.43732, 3.46774, -0.0420422, -0.00113303, -0.000421752, 0.000135785, -0.000340577, -0.00619096, -0.00147241, 0.050617, -0.0136828, -0.0242947, -0.0867747, 0.133981, 0.0175696, 0.472228, -0.540155, 0.33755, -2.08146, -2.16755, -0.127472, 0.471844, -0.541271, 0.337254, -2.08326, -2.17276, -0.121718, 0.0309467, 0.0829853, 0.0423035, 0.0455954, 0.0373193, 0.0100612
0.121093, 1.69616, -1.22336, -1.53812, -0.900163, -1.1959, 1.2302, -1.30261, 0.0861573, 0.0238037, -0.00331781, -0.0244427, -0.0531069, 0.00021149, -0.000911298, 4.39948, 58.3282, 28.9048, 3.74451, 2.44922, 3.46774, -0.00999879, -0.00118039, -0.000404858, 0.000161365, -0.000335605, -0.0062391, -0.00152426, 0.0519871, -0.0131688, -0.0256691, -0.0856641, 0.130223, 0.0173659, 0.472259, -0.540072, 0.337592, -2.0814, -2.16759, -0.12741, 0.471893, -0.54123, 0.337263, -2.08316, -2.17288, -0.121608, 0.0314223, 0.0842969, 0.0429652, 0.0455587, 0.0374668, 0.00917051
0.122093, 1.69626, -1.22334, -1.53812, -0.900199, -1.19595, 1.2302, -1.30261, 0.086882, 0.0236338, -0.00388395, -0.02803, -0.0511699, 0.000683557, 0.00108793, 4.39948, 58.3679, 28.9802, 3.74451, 2.47394, 3.45309, -0.0557752, -0.00122378, -0.000383989, 0.000187827, -0.000324708, -0.00628965, -0.00158383, 0.051781, -0.0140677, -0.0269393, -0.0871892, 0.129967, 0.0185423, 0.472291, -0.539987, 0.337635, -2.08134, -2.16763, -0.127348, 0.471946, -0.541183, 0.337273, -2.08306, -2.17301, -0.121488, 0.0318998, 0.0856148, 0.0436298, 0.0468794, 0.0392213, 0.00858473
0.123093, 1.69634, -1.2233, -1.53812, -0.900234, -1.19599, 1.2302, -1.30262, 0.0872124, 0.0251458, -0.00428417, -0.0266872, -0.0489599, 0.000693085, -0.00124137, 4.51453, 58.3282, 29.0555, 3.7088, 2.48035, 3.44668, -0.00267457, -0.00127115, -0.000367078, 0.00020804, -0.000321943, -0.00634959, -0.00164429, 0.0529215, -0.0135844, -0.0264998, -0.0863174, 0.130473, 0.0194763, 0.472323, -0.5399, 0.337679, -2.08127, -2.16768, -0.127284, 0.471996, -0.541139, 0.337289, -2.08296, -2.17315, -0.121367, 0.0323792, 0.0869389, 0.0442973, 0.046937, 0.0393315, 0.00952566
0.124093, 1.69643, -1.22328, -1.53812, -0.900267, -1.19604, 1.2302, -1.30261, 0.0860821, 0.0249843, -0.00447527, -0.0279052, -0.0429098, 0.000224714, 0.00185121, 4.58991, 58.475, 29.1269, 3.63342, 2.51056, 3.45309, -0.0750012, -0.00132045, -0.000350969, 0.000237561, -0.000316621, -0.00638946, -0.00168678, 0.0532669, -0.0132644, -0.0272997, -0.0850158, 0.126101, 0.0172022, 0.472355, -0.539813, 0.337724, -2.08121, -2.16772, -0.127219, 0.472046, -0.541095, 0.337297, -2.08286, -2.17327, -0.12126, 0.0328604, 0.0882692, 0.0449678, 0.0470828, 0.0404295, 0.00936338
0.125093, 1.69652, -1.22325, -1.53812, -0.900307, -1.19608, 1.2302, -1.30262, 0.0891628, 0.0246345, -0.00387307, -0.0298529, -0.043361, 0.000929715, -0.00144461, 4.62562, 58.5147, 29.1666, 3.59772, 2.52887, 3.43204, -0.00267457, -0.00136688, -0.000331535, 0.000261587, -0.000314964, -0.00644098, -0.00175925, 0.0527859, -0.0150936, -0.0281387, -0.0860418, 0.127599, 0.0243183, 0.472389, -0.539724, 0.337769, -2.08114, -2.16777, -0.127154, 0.472099, -0.541048, 0.33731, -2.08275, -2.17342, -0.121148, 0.0333434, 0.0896055, 0.045641, 0.0493437, 0.0424482, 0.009225
0.126093, 1.69661, -1.22323, -1.53812, -0.900346, -1.19612, 1.2302, -1.30261, 0.0896848, 0.0287781, -0.00124341, -0.0343074, -0.0482332, 7.72845e-05, 0.00124099, 4.74067, 58.6258, 29.238, 3.55804, 2.53528, 3.44668, -0.0621838, -0.00141776, -0.000316427, 0.000291006, -0.000312, -0.00648068, -0.00180553, 0.0525653, -0.0155336, -0.0259686, -0.0891015, 0.136442, 0.0245186, 0.472422, -0.539634, 0.337815, -2.08108, -2.16781, -0.127088, 0.472149, -0.541003, 0.337319, -2.08265, -2.17353, -0.121043, 0.0338281, 0.0909478, 0.0463171, 0.0503431, 0.0436955, 0.0120645
0.127093, 1.6967, -1.2232, -1.53812, -0.90039, -1.19615, 1.2302, -1.30261, 0.0917386, 0.0265855, -0.00325021, -0.0345039, -0.0468259, 0.000322797, -0.000630729, 4.77637, 58.6972, 29.3531, 3.52234, 2.54169, 3.43936, -0.0228162, -0.00146513, -0.000296274, 0.000320271, -0.000308436, -0.00652339, -0.00187494, 0.0533822, -0.0160945, -0.0285654, -0.0911139, 0.134344, 0.0270576, 0.472456, -0.539542, 0.337862, -2.08101, -2.16786, -0.12702, 0.472204, -0.540952, 0.337329, -2.08253, -2.17368, -0.120935, 0.0343145, 0.092296, 0.0469959, 0.0513233, 0.044659, 0.0100353
0.128093, 1.69679, -1.22317, -1.53812, -0.900433, -1.19619, 1.2302, -1.30261, 0.0928261, 0.0329702, -0.00196432, -0.0418999, -0.0461648, 0.000486471, 0.0015123, 4.81605, 58.6972, 29.3531, 3.52234, 2.56, 3.43204, -0.0750012, -0.00151335, -0.000277637, 0.000342358, -0.000314246, -0.00657285, -0.00193359, 0.0511221, -0.0180326, -0.0259128, -0.0931907, 0.141764, 0.0320999, 0.472491, -0.539449, 0.337909, -2.08094, -2.16791, -0.126952, 0.472258, -0.540903, 0.337346, -2.08243, -2.17382, -0.120829, 0.0348026, 0.09365, 0.0476774, 0.0537632, 0.0479228, 0.013624
0.129093, 1.69688, -1.22315, -1.53811, -0.900479, -1.19622, 1.2302, -1.30261, 0.0928716, 0.0291956, -0.0019929, -0.0433711, -0.0449321, 0.000595585, -0.000924574, 4.77637, 58.9194, 29.3888, 3.48663, 2.56, 3.42471, -0.0228162, -0.00156044, -0.000254615, 0.000377773, -0.00031718, -0.00659907, -0.00201344, 0.0522252, -0.0180801, -0.028828, -0.0941143, 0.138093, 0.0352506, 0.472526, -0.539355, 0.337957, -2.08087, -2.16796, -0.126882, 0.472316, -0.540849, 0.337352, -2.08229, -2.17397, -0.120745, 0.0352924, 0.0950097, 0.0483616, 0.0542325, 0.0486417, 0.0112577
0.130093, 1.69696, -1.22311, -1.53811, -0.900531, -1.19625, 1.2302, -1.30261, 0.0890315, 0.0337035, -0.00159058, -0.046108, -0.0440722, -0.00483137, 0.0013164, 4.89143, 58.844, 29.5395, 3.52234, 2.55359, 3.43936, -0.0750012, -0.00161183, -0.000240681, 0.000400065, -0.000315971, -0.00665137, -0.00206959, 0.0533067, -0.0150909, -0.0271903, -0.0989407, 0.140211, 0.0309003, 0.472561, -0.539259, 0.338006, -2.0808, -2.168, -0.126812, 0.472367, -0.5408, 0.33737, -2.08219, -2.17411, -0.120626, 0.0357837, 0.096375, 0.0490484, 0.0518439, 0.0485592, 0.0134903
0.131093, 1.69705, -1.22309, -1.5381, -0.900587, -1.19628, 1.2302, -1.30261, 0.0899087, 0.0298721, 0.0032783, -0.051257, -0.0386903, -0.00388267, -0.000817817, 4.85175, 59.0662, 29.4999, 3.55804, 2.56549, 3.44668, -0.0292249, -0.00165901, -0.000218537, 0.000431723, -0.000322874, -0.00668183, -0.00215116, 0.0512017, -0.0178991, -0.0288927, -0.0948036, 0.133538, 0.0415343, 0.472597, -0.539162, 0.338055, -2.08073, -2.16805, -0.126741, 0.472426, -0.540743, 0.33738, -2.08205, -2.17426, -0.12054, 0.0362765, 0.0977458, 0.0497377, 0.0549971, 0.052391, 0.0127341
0.132093, 1.69713, -1.22306, -1.53809, -0.900641, -1.19631, 1.2302, -1.3026, 0.0885583, 0.0324177, 0.00494793, -0.0508951, -0.033735, -0.00288132, 0.00115021, 4.89143, 59.0662, 29.5395, 3.55804, 2.55359, 3.44668, -0.0750012, -0.0017094, -0.000202427, 0.000455627, -0.000331662, -0.00672066, -0.00221476, 0.0518782, -0.0175044, -0.0270962, -0.090108, 0.13324, 0.0392357, 0.472634, -0.539064, 0.338106, -2.08066, -2.1681, -0.126669, 0.47248, -0.54069, 0.337398, -2.08193, -2.17441, -0.120445, 0.0367709, 0.0991221, 0.0504295, 0.0551932, 0.0528079, 0.0151085
0.133093, 1.69722, -1.22303, -1.53808, -0.900697, -1.19633, 1.2302, -1.3026, 0.0855561, 0.0301702, 0.00843065, -0.053856, -0.0314581, -0.00132673, -0.000216535, 4.89143, 59.1019, 29.611, 3.55804, 2.57831, 3.42471, -0.0484509, -0.00176041, -0.000184213, 0.000482616, -0.000343917, -0.00675669, -0.00229088, 0.052979, -0.0171351, -0.0278005, -0.0863382, 0.130766, 0.0416106, 0.472671, -0.538964, 0.338156, -2.08059, -2.16815, -0.126595, 0.472536, -0.540636, 0.337414, -2.0818, -2.17456, -0.120357, 0.0372668, 0.100504, 0.0511238, 0.0553368, 0.0531946, 0.0149495
0.134093, 1.69729, -1.223, -1.53807, -0.900762, -1.19635, 1.2302, -1.3026, 0.0844046, 0.0295621, 0.0129752, -0.0579417, -0.0230389, -0.00132049, 0.00506125, 4.9668, 59.213, 29.611, 3.63342, 2.56549, 3.43204, -0.0621838, -0.00181293, -0.000169276, 0.000509896, -0.000358521, -0.00678738, -0.00236335, 0.051169, -0.0186113, -0.0275638, -0.0807888, 0.124218, 0.0426886, 0.472708, -0.538862, 0.338208, -2.08052, -2.16821, -0.126521, 0.472589, -0.540582, 0.33743, -2.08168, -2.17472, -0.120275, 0.0377641, 0.101891, 0.0518204, 0.0572494, 0.0563972, 0.0161121
0.135093, 1.69737, -1.22296, -1.53806, -0.900824, -1.19637, 1.23019, -1.3026, 0.0843766, 0.0311895, 0.013793, -0.0589958, -0.0225076, -0.00127515, 0.00325696, 4.89143, 59.2487, 29.722, 3.63342, 2.56549, 3.43936, -0.0484509, -0.00186441, -0.000152953, 0.000536018, -0.000367653, -0.00682234, -0.00243768, 0.0518966, -0.0184656, -0.0269584, -0.0806896, 0.126394, 0.0448191, 0.472746, -0.53876, 0.33826, -2.08044, -2.16826, -0.126446, 0.472645, -0.540525, 0.337448, -2.08154, -2.17487, -0.120182, 0.0382628, 0.103283, 0.0525195, 0.0576551, 0.0569725, 0.0173017
0.136093, 1.69745, -1.22293, -1.53804, -0.900888, -1.19639, 1.23019, -1.30259, 0.0848423, 0.0384723, 0.0171728, -0.0608228, -0.0225383, -0.00145139, 0.00392293, 4.77637, 59.2883, 29.722, 3.6731, 2.57831, 3.45309, -0.0878186, -0.00191425, -0.000134706, 0.000557659, -0.000388842, -0.00685718, -0.00251451, 0.0511859, -0.0190009, -0.0222748, -0.078755, 0.134475, 0.0465764, 0.472785, -0.538656, 0.338313, -2.08036, -2.16831, -0.12637, 0.472703, -0.540467, 0.337471, -2.08142, -2.17503, -0.120102, 0.0387628, 0.10468, 0.0532208, 0.0588441, 0.0583798, 0.0227208
0.137093, 1.69753, -1.2229, -1.53802, -0.900956, -1.19641, 1.23019, -1.3026, 0.0847278, 0.0374809, 0.0175826, -0.061941, -0.0220614, -0.000799732, 0.00597348, 4.66529, 59.4708, 29.7974, 3.7088, 2.57831, 3.44668, -0.0420422, -0.00196576, -0.000115568, 0.000587072, -0.000408112, -0.00688234, -0.0026036, 0.0523537, -0.0189015, -0.023307, -0.0787407, 0.13442, 0.0446539, 0.472824, -0.538551, 0.338366, -2.08029, -2.16836, -0.126293, 0.472762, -0.540407, 0.337487, -2.08127, -2.1752, -0.12003, 0.0392642, 0.106082, 0.0539245, 0.0592531, 0.0587829, 0.0222284
0.138093, 1.6976, -1.22286, -1.53799, -0.901027, -1.19642, 1.23019, -1.30259, 0.0790222, 0.037871, 0.0215363, -0.0669117, -0.0215859, -0.000822638, 0.00651693, 4.66529, 59.6176, 29.722, 3.78418, 2.5719, 3.45309, -0.0951428, -0.00201913, -0.000101949, 0.000609643, -0.000438389, -0.0069055, -0.00267553, 0.0539309, -0.0169964, -0.0225811, -0.0770877, 0.135352, 0.0437597, 0.472864, -0.538444, 0.338421, -2.08021, -2.16842, -0.126215, 0.472816, -0.540349, 0.337511, -2.08114, -2.17536, -0.11997, 0.0397669, 0.107489, 0.0546303, 0.0579439, 0.0584388, 0.0234696
0.139093, 1.69768, -1.22282, -1.53797, -0.901099, -1.19642, 1.23019, -1.30259, 0.0791627, 0.0393133, 0.0213565, -0.0657683, -0.0159515, 0.000463643, 0.00775305, 4.47486, 59.5819, 29.9085, 3.78418, 2.56549, 3.42471, -0.0484509, -0.00207057, -8.3603e-05, 0.000630689, -0.000464582, -0.00694043, -0.00276243, 0.0545983, -0.0170749, -0.0220452, -0.0734084, 0.133654, 0.0423227, 0.472904, -0.538336, 0.338476, -2.08013, -2.16847, -0.126136, 0.472876, -0.540287, 0.337536, -2.081, -2.17554, -0.119893, 0.0402709, 0.108901, 0.0553384, 0.0585746, 0.0591138, 0.0246018
0.140093, 1.69774, -1.22279, -1.53794, -0.901179, -1.19643, 1.23018, -1.30258, 0.0752003, 0.0350907, 0.0258446, -0.0736312, -0.0124578, -0.000534027, 0.00832221, 4.43916, 59.7644, 29.9085, 3.89526, 2.57831, 3.44668, -0.114369, -0.00212311, -6.8872e-05, 0.000655179, -0.000493481, -0.0069597, -0.00284294, 0.054182, -0.0171317, -0.0244257, -0.0727676, 0.127322, 0.047008, 0.472944, -0.538226, 0.338531, -2.08005, -2.16853, -0.126055, 0.472932, -0.540225, 0.337559, -2.08086, -2.1757, -0.119834, 0.040776, 0.110318, 0.0560486, 0.0590303, 0.0613079, 0.0230238
0.141093, 1.69781, -1.22275, -1.53792, -0.901265, -1.19643, 1.23018, -1.30259, 0.077078, 0.0351247, 0.022347, -0.0773385, -0.0095541, -0.0047908, 0.00391208, 4.3241, 59.9509, 30.0593, 4.04602, 2.58472, 3.43936, -0.0557752, -0.0021762, -5.19013e-05, 0.000683983, -0.000518566, -0.00698052, -0.00293886, 0.0534463, -0.0173899, -0.0271479, -0.0807836, 0.124444, 0.0546746, 0.472985, -0.538115, 0.338588, -2.07997, -2.16858, -0.125974, 0.472991, -0.540161, 0.337579, -2.0807, -2.17588, -0.11977, 0.0412824, 0.111739, 0.0567608, 0.0596624, 0.0638829, 0.0211532
0.142093, 1.69789, -1.22271, -1.53788, -0.901341, -1.19643, 1.23018, -1.30258, 0.0775836, 0.038127, 0.026648, -0.079556, -0.00665334, -0.00387196, 0.00419541, 4.13764, 60.0223, 30.0593, 4.04602, 2.5719, 3.44668, -0.0878186, -0.00222659, -3.26347e-05, 0.00070244, -0.000562366, -0.00700192, -0.00303041, 0.0523799, -0.0187954, -0.0246263, -0.0762974, 0.12639, 0.0586917, 0.473027, -0.538002, 0.338645, -2.07989, -2.16864, -0.125892, 0.473053, -0.540095, 0.337609, -2.08056, -2.17606, -0.119724, 0.0417899, 0.113165, 0.0574751, 0.0616315, 0.0660395, 0.0244767
0.143093, 1.69795, -1.22267, -1.53785, -0.901427, -1.19643, 1.23018, -1.30258, 0.0741975, 0.0361401, 0.0288911, -0.0821934, -0.00476719, -0.00339506, 0.00140194, 4.09797, 60.1334, 30.095, 4.08173, 2.56549, 3.46042, -0.0420422, -0.00228051, -1.87452e-05, 0.000722482, -0.000600158, -0.00702313, -0.00312433, 0.0539979, -0.0176573, -0.025664, -0.0745155, 0.124032, 0.0610696, 0.473069, -0.537889, 0.338703, -2.07981, -2.1687, -0.125809, 0.47311, -0.540031, 0.337639, -2.0804, -2.17625, -0.119671, 0.0422985, 0.114595, 0.0581914, 0.061028, 0.0659809, 0.0239562
0.144093, 1.69801, -1.22263, -1.53782, -0.901525, -1.19643, 1.23018, -1.30257, 0.069269, 0.036891, 0.0316851, -0.0870274, -0.00340142, -0.00222095, 0.00312663, 4.02259, 60.2802, 30.206, 4.23248, 2.56, 3.45309, -0.0951428, -0.00233444, -3.19162e-06, 0.000747315, -0.000634414, -0.00704416, -0.00321359, 0.0554514, -0.0162552, -0.025063, -0.0724484, 0.125287, 0.0593657, 0.473111, -0.537773, 0.338761, -2.07972, -2.16875, -0.125725, 0.47317, -0.539964, 0.337664, -2.08025, -2.17642, -0.119613, 0.0428082, 0.11603, 0.0589097, 0.0602194, 0.0658273, 0.0250899
0.145093, 1.69808, -1.2226, -1.53778, -0.901618, -1.19643, 1.23018, -1.30257, 0.0656269, 0.0367481, 0.0317824, -0.0904965, -0.00211296, -0.00165226, 0.0010327, 3.94721, 60.4666, 30.2814, 4.26819, 2.54718, 3.45309, -0.0621838, -0.00239029, 1.19506e-05, 0.000772706, -0.00067445, -0.00706052, -0.00331345, 0.0573458, -0.0146953, -0.0258745, -0.0729388, 0.125513, 0.0602476, 0.473154, -0.537657, 0.338821, -2.07964, -2.16881, -0.12564, 0.473229, -0.539898, 0.337689, -2.08009, -2.17661, -0.119567, 0.0433189, 0.117469, 0.0596298, 0.0592168, 0.0654508, 0.0247682
0.146093, 1.69814, -1.22255, -1.53774, -0.901713, -1.19643, 1.23017, -1.30257, 0.0677515, 0.0423886, 0.035897, -0.0903433, -0.00144523, -0.0015015, 0.000815207, 3.79646, 60.538, 30.3211, 4.30786, 2.54169, 3.46042, -0.0621838, -0.0024428, 2.89701e-05, 0.00078964, -0.000717572, -0.00708744, -0.00341108, 0.0564266, -0.0159956, -0.0216939, -0.0692202, 0.1314, 0.0633874, 0.473198, -0.537538, 0.338881, -2.07955, -2.16887, -0.125554, 0.473291, -0.539828, 0.337724, -2.07994, -2.17681, -0.119511, 0.0438306, 0.118913, 0.0603519, 0.0611561, 0.0672225, 0.0297184
0.147093, 1.6982, -1.2225, -1.5377, -0.901812, -1.19643, 1.23017, -1.30256, 0.063755, 0.0441689, 0.0381759, -0.0925633, -0.000465351, -0.00109754, 0.000875885, 3.75678, 60.5777, 30.3925, 4.30786, 2.52338, 3.46042, -0.0685925, -0.00250104, 3.91386e-05, 0.000806451, -0.000761395, -0.00711419, -0.00349963, 0.0582597, -0.0142333, -0.020428, -0.0672747, 0.133452, 0.0615742, 0.473242, -0.537419, 0.338941, -2.07946, -2.16893, -0.125467, 0.473347, -0.539763, 0.337758, -2.07979, -2.177, -0.119455, 0.0443433, 0.12036, 0.0610757, 0.0600327, 0.0665891, 0.0314681
0.148093, 1.69825, -1.22246, -1.53765, -0.901922, -1.19643, 1.23016, -1.30255, 0.0622891, 0.0443086, 0.0397887, -0.099256, -0.0002079, -0.00134664, 0.00532459, 3.6457, 60.7959, 30.4679, 4.37927, 2.51697, 3.47507, -0.0685925, -0.00255509, 5.4843e-05, 0.000830426, -0.000800374, -0.00713129, -0.00360281, 0.0580124, -0.0145994, -0.021171, -0.0694424, 0.134671, 0.0612536, 0.473287, -0.537298, 0.339003, -2.07938, -2.16899, -0.125378, 0.473409, -0.539691, 0.337787, -2.07962, -2.17719, -0.119404, 0.044857, 0.121812, 0.0618013, 0.0608756, 0.0684149, 0.0314868
0.149093, 1.69831, -1.22241, -1.5376, -0.902029, -1.19642, 1.23016, -1.30255, 0.0604668, 0.0480414, 0.0418849, -0.101615, 0.000234849, -0.000952063, 0.0084612, 3.57032, 60.8713, 30.5036, 4.34357, 2.50415, 3.47507, -0.0621838, -0.00261052, 6.88814e-05, 0.000847223, -0.000847981, -0.00715569, -0.00370536, 0.0587971, -0.0139493, -0.0189566, -0.0681326, 0.139201, 0.0583239, 0.473332, -0.537175, 0.339065, -2.07929, -2.16905, -0.125289, 0.47347, -0.53962, 0.337824, -2.07946, -2.17739, -0.119353, 0.0453715, 0.123267, 0.0625286, 0.0608612, 0.0687297, 0.034302
0.150093, 1.69836, -1.22236, -1.53755, -0.90215, -1.19642, 1.23015, -1.30254, 0.0612948, 0.0494257, 0.0426717, -0.10692, -0.000156744, -0.000946705, 0.0106669, 3.53065, 60.8713, 30.579, 4.45465, 2.51056, 3.48239, -0.0484509, -0.00266552, 8.2407e-05, 0.000863849, -0.00088908, -0.00718727, -0.00381554, 0.0581536, -0.0150926, -0.0191657, -0.0706944, 0.142324, 0.0606563, 0.473377, -0.537051, 0.339128, -2.0792, -2.16911, -0.125199, 0.47353, -0.539547, 0.337862, -2.07929, -2.17761, -0.119288, 0.0458869, 0.124727, 0.0632577, 0.0624872, 0.0709081, 0.0348867
0.151093, 1.69842, -1.22231, -1.5375, -0.902267, -1.19642, 1.23015, -1.30254, 0.0606926, 0.0529587, 0.0470027, -0.110774, 0.00455029, 0.000152119, 0.00758053, 3.41956, 60.8713, 30.6186, 4.45465, 2.52887, 3.46042, -0.0356336, -0.002721, 9.78028e-05, 0.000876827, -0.00093801, -0.00722493, -0.00392341, 0.0567323, -0.0164546, -0.0164919, -0.0657772, 0.143543, 0.0689744, 0.473423, -0.536926, 0.339191, -2.07911, -2.16918, -0.125108, 0.473594, -0.539474, 0.337904, -2.07913, -2.17783, -0.119224, 0.0464031, 0.12619, 0.0639883, 0.0644153, 0.0734291, 0.0384325
0.152093, 1.69847, -1.22227, -1.53745, -0.902391, -1.19642, 1.23014, -1.30252, 0.0584978, 0.0471048, 0.0488236, -0.113395, 0.00343997, -0.000192765, 0.00745709, 3.37989, 61.0934, 30.7297, 4.41894, 2.52887, 3.46774, -0.0814099, -0.00277935, 0.000110208, 0.000904166, -0.000976322, -0.00723725, -0.00402387, 0.0588311, -0.0154835, -0.0200891, -0.0669638, 0.13947, 0.0686897, 0.47347, -0.536799, 0.339256, -2.07902, -2.16924, -0.125016, 0.473654, -0.5394, 0.337932, -2.07896, -2.17802, -0.119173, 0.0469202, 0.127658, 0.0647206, 0.0639066, 0.073329, 0.0353218
0.153093, 1.69852, -1.22222, -1.53738, -0.902522, -1.19642, 1.23014, -1.30252, 0.0562066, 0.047715, 0.0537192, -0.119361, 0.00236078, 0.000396842, 0.00775879, 3.37989, 61.1292, 30.6901, 4.41894, 2.53528, 3.45309, -0.0164075, -0.00283549, 0.000123741, 0.000917571, -0.00102933, -0.00726989, -0.00414339, 0.0588016, -0.0157837, -0.019178, -0.0656616, 0.142377, 0.0721786, 0.473517, -0.53667, 0.339321, -2.07892, -2.1693, -0.124922, 0.473717, -0.539325, 0.337974, -2.07878, -2.17825, -0.119118, 0.047438, 0.129128, 0.0654544, 0.0647616, 0.0747043, 0.0369507
0.154093, 1.69857, -1.22216, -1.53733, -0.902652, -1.19642, 1.23013, -1.3025, 0.0530261, 0.053837, 0.0558867, -0.12554, 0.00136166, 0.000489033, 0.0078922, 3.30451, 61.0538, 30.8408, 4.34357, 2.54718, 3.44668, -0.0685925, -0.0028936, 0.000136593, 0.000931782, -0.00107256, -0.00731078, -0.00424289, 0.0590835, -0.0149646, -0.0160299, -0.0666437, 0.150634, 0.073748, 0.473565, -0.53654, 0.339387, -2.07883, -2.16937, -0.124828, 0.473779, -0.539249, 0.338017, -2.07863, -2.17846, -0.119041, 0.0479565, 0.130603, 0.0661897, 0.0646007, 0.0753848, 0.0407791
0.155093, 1.69861, -1.22211, -1.53726, -0.902796, -1.19642, 1.23012, -1.3025, 0.0479953, 0.048761, 0.0604122, -0.131789, 0.000604525, -0.00382517, 0.00864939, 3.34419, 61.2402, 30.8765, 4.34357, 2.56, 3.43204, -0.0164075, -0.00295147, 0.000149621, 0.000954574, -0.00112072, -0.00732946, -0.00436913, 0.0602594, -0.0129778, -0.0189265, -0.0699854, 0.145163, 0.0743451, 0.473613, -0.536409, 0.339453, -2.07873, -2.16943, -0.124733, 0.473842, -0.539171, 0.338052, -2.07843, -2.17869, -0.118993, 0.0484757, 0.132081, 0.0669265, 0.0630711, 0.0760533, 0.0385409
0.156093, 1.69866, -1.22207, -1.53719, -0.902934, -1.19642, 1.23012, -1.30248, 0.0507398, 0.0512614, 0.0675375, -0.131807, -0.000383912, -0.0029477, 0.013932, 3.26881, 61.3116, 30.8765, 4.26819, 2.58472, 3.43204, -0.0878186, -0.0030067, 0.000167302, 0.000972064, -0.00117513, -0.00735634, -0.00448364, 0.0591194, -0.0151784, -0.0155208, -0.0641968, 0.149504, 0.0736835, 0.473662, -0.536276, 0.33952, -2.07864, -2.1695, -0.124636, 0.47391, -0.539089, 0.338093, -2.07826, -2.17891, -0.118942, 0.0489955, 0.133562, 0.0676647, 0.065881, 0.078242, 0.0427456
0.157093, 1.6987, -1.22201, -1.53712, -0.903081, -1.19642, 1.23011, -1.30247, 0.045532, 0.0500709, 0.0688402, -0.135133, -0.000159492, -0.0069327, 0.00766112, 3.34419, 61.2402, 30.9162, 4.19281, 2.58472, 3.43204, -0.0164075, -0.00306501, 0.000178969, 0.000985928, -0.00122624, -0.00738998, -0.00460734, 0.061391, -0.0119694, -0.0168401, -0.0679019, 0.147208, 0.0772776, 0.473711, -0.536142, 0.339588, -2.07854, -2.16956, -0.124539, 0.473973, -0.53901, 0.338138, -2.07807, -2.17915, -0.11888, 0.049516, 0.135047, 0.0684043, 0.0632386, 0.0775397, 0.0419403
0.158093, 1.69874, -1.22197, -1.53705, -0.903237, -1.19642, 1.2301, -1.30246, 0.0426206, 0.0470252, 0.0682338, -0.137607, -0.0004748, -0.00442076, 0.0119584, 3.37989, 61.387, 31.0273, 4.1214, 2.59662, 3.41006, -0.0557752, -0.00312307, 0.000193799, 0.00101092, -0.00127225, -0.00741084, -0.00473085, 0.0642473, -0.0106903, -0.0193457, -0.0679273, 0.146819, 0.0707817, 0.473761, -0.536006, 0.339657, -2.07844, -2.16963, -0.124441, 0.474039, -0.538927, 0.338173, -2.07788, -2.17938, -0.118825, 0.0500371, 0.136535, 0.0691452, 0.0625001, 0.0765311, 0.0398112
0.159093, 1.69879, -1.22192, -1.53697, -0.903392, -1.19642, 1.2301, -1.30246, 0.0443095, 0.0491001, 0.0734307, -0.141788, -0.000940449, -0.00809633, 0.006964, 3.37989, 61.3513, 31.0273, 4.00635, 2.61493, 3.41006, -0.00267457, -0.0031782, 0.000210983, 0.00102469, -0.00133227, -0.00744156, -0.00487126, 0.0622249, -0.0121194, -0.0178075, -0.0694411, 0.148549, 0.0822393, 0.473811, -0.535869, 0.339727, -2.07834, -2.1697, -0.124341, 0.474108, -0.538841, 0.338219, -2.07767, -2.17964, -0.118776, 0.0505588, 0.138026, 0.0698875, 0.0644325, 0.0798503, 0.0423367
0.160093, 1.69882, -1.22186, -1.53688, -0.90356, -1.19642, 1.23009, -1.30244, 0.043127, 0.0514813, 0.0760211, -0.149362, -0.00173916, -0.00589567, 0.0123686, 3.49494, 61.2759, 30.9519, 3.93494, 2.64606, 3.40365, -0.0621838, -0.00323443, 0.000225389, 0.00103788, -0.00139069, -0.00747533, -0.00500282, 0.0616654, -0.0132756, -0.0168184, -0.0693881, 0.154132, 0.0820741, 0.473862, -0.53573, 0.339797, -2.07824, -2.16977, -0.124241, 0.474175, -0.538755, 0.338268, -2.07748, -2.17989, -0.11872, 0.0510809, 0.13952, 0.0706309, 0.0661294, 0.0817998, 0.0441053
0.161093, 1.69886, -1.22181, -1.5368, -0.903727, -1.19642, 1.23008, -1.30243, 0.0420593, 0.0504714, 0.0771668, -0.152998, -0.00156973, -0.00448205, 0.00748964, 3.49494, 61.3116, 31.0273, 3.78418, 2.65796, 3.40365, -0.0164075, -0.00329026, 0.000242297, 0.00105773, -0.00144484, -0.00749841, -0.00514986, 0.0625868, -0.0133987, -0.0178628, -0.0693067, 0.154899, 0.0885522, 0.473913, -0.53559, 0.339868, -2.07814, -2.16984, -0.12414, 0.474245, -0.538667, 0.33831, -2.07726, -2.18015, -0.118671, 0.0516036, 0.141018, 0.0713756, 0.0667735, 0.0825522, 0.0436738
0.162093, 1.6989, -1.22176, -1.53672, -0.903904, -1.19642, 1.23007, -1.30242, 0.0402632, 0.0513995, 0.0778627, -0.16085, -0.00170177, -0.00231667, 0.0112165, 3.53065, 61.2759, 31.1027, 3.7088, 2.67627, 3.37436, -0.0356336, -0.00334606, 0.00025892, 0.00107765, -0.00149325, -0.00752804, -0.00529107, 0.062626, -0.0140383, -0.0184128, -0.0708014, 0.158601, 0.0890409, 0.473965, -0.535448, 0.33994, -2.07804, -2.16991, -0.124037, 0.474315, -0.538576, 0.338353, -2.07705, -2.1804, -0.118607, 0.0521267, 0.142518, 0.0721215, 0.0679183, 0.0841272, 0.0438499
0.163093, 1.69894, -1.22171, -1.53663, -0.90409, -1.19642, 1.23006, -1.30241, 0.034783, 0.0529743, 0.0798912, -0.166264, -0.00179552, -0.00657402, 0.0124821, 3.60603, 61.2006, 31.1384, 3.63342, 2.69458, 3.37436, -0.0164075, -0.00340146, 0.000274715, 0.0010942, -0.00154411, -0.00756191, -0.00544305, 0.0640308, -0.0111178, -0.0181585, -0.0749519, 0.159333, 0.0868369, 0.474018, -0.535305, 0.340012, -2.07793, -2.16998, -0.123934, 0.474385, -0.538484, 0.3384, -2.07683, -2.18067, -0.118541, 0.0526502, 0.144021, 0.0728685, 0.0655961, 0.0840713, 0.044731
0.164093, 1.69897, -1.22165, -1.53654, -0.904281, -1.19642, 1.23005, -1.3024, 0.0331939, 0.0536661, 0.0829383, -0.174722, -0.00277783, -0.00916393, 0.0101291, 3.72108, 61.1292, 31.1027, 3.59772, 2.73761, 3.36062, -0.0356336, -0.00345783, 0.00028997, 0.00110955, -0.00160334, -0.0075945, -0.00559422, 0.0630119, -0.0114515, -0.0185303, -0.0792876, 0.161082, 0.0949748, 0.474071, -0.53516, 0.340086, -2.07783, -2.17005, -0.123829, 0.474455, -0.538392, 0.338449, -2.07661, -2.18095, -0.118485, 0.0531742, 0.145527, 0.0736165, 0.0664009, 0.0866554, 0.0452582
0.165093, 1.699, -1.22161, -1.53644, -0.904472, -1.19642, 1.23004, -1.30239, 0.0328884, 0.0509177, 0.0859589, -0.179205, -0.0025204, -0.0113747, 0.0120323, 3.79646, 61.2006, 31.1741, 3.48663, 2.75592, 3.3533, -0.0292249, -0.00351609, 0.000305415, 0.00113132, -0.00166037, -0.00761786, -0.00574885, 0.0627361, -0.0118902, -0.0204091, -0.0813177, 0.15825, 0.0971176, 0.474124, -0.535014, 0.34016, -2.07772, -2.17012, -0.123723, 0.474525, -0.538299, 0.338492, -2.07638, -2.18122, -0.118436, 0.0536985, 0.147036, 0.0743657, 0.0672798, 0.0887423, 0.0441805
0.166093, 1.69903, -1.22156, -1.53634, -0.904666, -1.19643, 1.23003, -1.30237, 0.0327334, 0.0507198, 0.0906123, -0.181819, -0.00282591, -0.0127971, 0.0144698, 3.87183, 61.2006, 31.1384, 3.33588, 2.78705, 3.33865, -0.0484509, -0.00357234, 0.000321996, 0.0011469, -0.00172412, -0.00764672, -0.00590395, 0.0625531, -0.0123083, -0.0198892, -0.0804148, 0.158543, 0.097786, 0.474178, -0.534866, 0.340234, -2.07762, -2.17019, -0.123617, 0.474598, -0.538204, 0.338543, -2.07616, -2.1815, -0.118387, 0.0542231, 0.148547, 0.0751158, 0.0682388, 0.090375, 0.045459
0.167093, 1.69905, -1.2215, -1.53624, -0.904872, -1.19643, 1.23002, -1.30237, 0.0327221, 0.0529592, 0.0896742, -0.18974, -0.00299749, -0.0133496, 0.013921, 3.94721, 61.0934, 31.2891, 3.30017, 2.81726, 3.31027, -0.00267457, -0.00362926, 0.000338273, 0.00116523, -0.00177781, -0.00768199, -0.00607128, 0.0617317, -0.0131404, -0.0205974, -0.0859342, 0.16243, 0.103537, 0.474232, -0.534717, 0.34031, -2.07751, -2.17026, -0.123509, 0.47467, -0.538107, 0.338591, -2.07592, -2.18179, -0.118321, 0.054748, 0.150061, 0.0758669, 0.069536, 0.0928462, 0.0456096
0.168093, 1.69908, -1.22145, -1.53613, -0.905076, -1.19643, 1.23002, -1.30235, 0.029531, 0.0520676, 0.0990985, -0.191719, -0.00246897, -0.0145993, 0.0166923, 4.02259, 61.0934, 31.2891, 3.11371, 2.83008, 3.30295, -0.0420422, -0.00368596, 0.000355324, 0.00118058, -0.00184539, -0.00771144, -0.00623013, 0.0620132, -0.0126822, -0.0185329, -0.0796241, 0.16098, 0.102904, 0.474287, -0.534566, 0.340386, -2.0774, -2.17034, -0.123401, 0.474744, -0.538009, 0.338643, -2.07569, -2.18207, -0.118274, 0.0552732, 0.151577, 0.0766189, 0.0697021, 0.0937505, 0.0483737
0.169093, 1.6991, -1.22139, -1.53602, -0.905284, -1.19643, 1.23001, -1.30235, 0.0261138, 0.0524188, 0.10276, -0.199494, 0.00203813, -0.0149205, 0.0110089, 4.13764, 61.0538, 31.2891, 2.96295, 2.87311, 3.28097, -0.00267457, -0.00374554, 0.00037011, 0.00119514, -0.00191319, -0.00774692, -0.00639791, 0.0610697, -0.0129736, -0.0185059, -0.0783563, 0.15886, 0.114122, 0.474343, -0.534414, 0.340463, -2.07729, -2.17041, -0.123291, 0.474816, -0.537913, 0.338696, -2.07545, -2.18237, -0.118221, 0.0557986, 0.153096, 0.0773717, 0.0704847, 0.0962107, 0.049289
0.170093, 1.69912, -1.22134, -1.5359, -0.90551, -1.19643, 1.23, -1.30233, 0.0227784, 0.0553689, 0.109604, -0.204429, 0.000681627, -0.0159044, 0.0144516, 4.2884, 61.0181, 31.2494, 2.85187, 2.90332, 3.27456, -0.0356336, -0.00380145, 0.000386335, 0.00121131, -0.00197539, -0.00777921, -0.00656871, 0.0611118, -0.0124005, -0.015485, -0.076005, 0.163352, 0.113309, 0.474399, -0.53426, 0.340541, -2.07718, -2.17049, -0.12318, 0.474891, -0.537811, 0.338748, -2.07521, -2.18267, -0.118165, 0.0563242, 0.154618, 0.0781255, 0.0705663, 0.0972059, 0.05304
0.171093, 1.69914, -1.22129, -1.53579, -0.905746, -1.19644, 1.22999, -1.30232, 0.0206542, 0.054072, 0.112006, -0.218929, -0.000807887, -0.0154595, 0.00886201, 4.43916, 61.0181, 31.3248, 2.81219, 2.94635, 3.23886, 0.0165515, -0.00385963, 0.000402044, 0.00123219, -0.00203293, -0.0078139, -0.00675039, 0.0592853, -0.014194, -0.0177946, -0.0814634, 0.165634, 0.129005, 0.474456, -0.534104, 0.340619, -2.07707, -2.17056, -0.123068, 0.474965, -0.537709, 0.338797, -2.07495, -2.18298, -0.118101, 0.05685, 0.156141, 0.07888, 0.0727177, 0.100967, 0.0517335
0.172093, 1.69915, -1.22124, -1.53567, -0.905981, -1.19644, 1.22998, -1.3023, 0.0188908, 0.0529544, 0.119481, -0.222793, -0.00235846, -0.0156522, 0.0141559, 4.58991, 61.0181, 31.4359, 2.73682, 3.0022, 3.21689, -0.0557752, -0.00391895, 0.000416952, 0.00125075, -0.00209898, -0.00784582, -0.00692373, 0.0593272, -0.0145749, -0.0167913, -0.0780152, 0.16654, 0.127279, 0.474513, -0.533947, 0.340699, -2.07696, -2.17064, -0.122956, 0.475038, -0.537608, 0.338848, -2.0747, -2.18329, -0.118048, 0.0573759, 0.157667, 0.0796352, 0.07367, 0.102318, 0.053461
0.173093, 1.69916, -1.22118, -1.53555, -0.90622, -1.19645, 1.22997, -1.3023, 0.0163391, 0.0498731, 0.123877, -0.225558, -0.00318305, -0.0111544, 0.00827748, 4.66529, 60.9824, 31.4716, 2.6654, 3.05072, 3.19583, 0.00373412, -0.0039757, 0.000435111, 0.00126539, -0.00217065, -0.00788364, -0.00711378, 0.061222, -0.0147181, -0.017424, -0.0724041, 0.167277, 0.133801, 0.47457, -0.533789, 0.340779, -2.07684, -2.17071, -0.122842, 0.475116, -0.537502, 0.338905, -2.07444, -2.18362, -0.117995, 0.0579019, 0.159194, 0.0803912, 0.0743944, 0.102078, 0.0532977
0.174093, 1.69917, -1.22113, -1.53541, -0.906472, -1.19645, 1.22997, -1.30228, 0.0117125, 0.0501538, 0.12759, -0.230174, -0.00405064, -0.0124293, 0.0124714, 4.85175, 60.9824, 31.4716, 2.70111, 3.10657, 3.17386, -0.0356336, -0.00403282, 0.000451601, 0.00128156, -0.0022473, -0.00791391, -0.00730235, 0.0627326, -0.0128599, -0.0169982, -0.0726909, 0.168704, 0.129394, 0.474629, -0.533629, 0.340859, -2.07673, -2.17079, -0.122727, 0.475193, -0.537395, 0.33896, -2.07418, -2.18394, -0.117955, 0.0584279, 0.160724, 0.0811479, 0.0731487, 0.101965, 0.0543077
0.175093, 1.69918, -1.22108, -1.53527, -0.906723, -1.19646, 1.22996, -1.30227, 0.0110705, 0.0510543, 0.130128, -0.235724, -0.0035111, -0.0136688, 0.00736155, 4.92713, 60.9427, 31.5867, 2.70111, 3.13129, 3.15921, 0.0165515, -0.00408918, 0.000469588, 0.00129665, -0.00232324, -0.00794653, -0.00750206, 0.0620962, -0.0133808, -0.0169564, -0.0743511, 0.169912, 0.138941, 0.474687, -0.533468, 0.340941, -2.07661, -2.17087, -0.122611, 0.475271, -0.537286, 0.339018, -2.07391, -2.18428, -0.117911, 0.0589541, 0.162256, 0.0819052, 0.0741743, 0.104144, 0.055187
0.176093, 1.69918, -1.22103, -1.53512, -0.906989, -1.19646, 1.22995, -1.30225, 0.00722306, 0.0466498, 0.135878, -0.243474, -0.00453396, -0.0104287, 0.0175917, 5.00251, 60.9824, 31.5867, 2.73682, 3.19263, 3.15921, -0.0484509, -0.00414345, 0.000489815, 0.00131087, -0.0024075, -0.00797848, -0.00770073, 0.0628425, -0.0139107, -0.0186174, -0.0709565, 0.169204, 0.133046, 0.474746, -0.533304, 0.341023, -2.07649, -2.17095, -0.122494, 0.475353, -0.537174, 0.339077, -2.07364, -2.18462, -0.117876, 0.0594802, 0.16379, 0.0826631, 0.0751959, 0.105218, 0.0541729
0.177093, 1.69918, -1.22098, -1.53497, -0.907252, -1.19647, 1.22995, -1.30225, 0.00723455, 0.0442748, 0.141175, -0.250204, -0.00296366, -0.00743099, 0.0154943, 5.07789, 60.9824, 31.6581, 2.6654, 3.19263, 3.14548, 0.0101428, -0.00419981, 0.000508284, 0.00132492, -0.00249461, -0.00800774, -0.00791327, 0.0615264, -0.0164917, -0.0193264, -0.0669472, 0.168348, 0.143014, 0.474806, -0.53314, 0.341106, -2.07637, -2.17103, -0.122376, 0.475433, -0.537062, 0.339137, -2.07335, -2.18498, -0.117848, 0.0600063, 0.165325, 0.0834216, 0.0782188, 0.108283, 0.0543448
0.178093, 1.69917, -1.22093, -1.53481, -0.907534, -1.19646, 1.22994, -1.30223, 0.00244808, 0.0459205, 0.150298, -0.258073, -0.00237235, -0.00596562, 0.0183665, 5.22865, 60.9824, 31.6581, 2.70111, 3.20453, 3.1528, -0.0420422, -0.00425452, 0.000524651, 0.0013364, -0.00258294, -0.0080364, -0.00811972, 0.0608594, -0.0168288, -0.0163722, -0.0608572, 0.171264, 0.145691, 0.474866, -0.532974, 0.34119, -2.07626, -2.17111, -0.122257, 0.475511, -0.536947, 0.339201, -2.07307, -2.18533, -0.11782, 0.0605324, 0.166863, 0.0841806, 0.0791795, 0.110048, 0.0581126
0.179093, 1.69917, -1.22088, -1.53464, -0.907809, -1.19647, 1.22992, -1.30222, 0.00156767, 0.0461745, 0.155816, -0.263334, -0.00246391, -0.0097398, 0.0159633, 5.26832, 61.0181, 31.6977, 2.59003, 3.22925, 3.16653, 0.0229602, -0.0043088, 0.000544317, 0.0013491, -0.00267372, -0.00806289, -0.00833846, 0.0597206, -0.0171362, -0.0158163, -0.0622787, 0.1709, 0.153271, 0.474927, -0.532806, 0.341275, -2.07613, -2.17119, -0.122137, 0.475594, -0.53683, 0.339264, -2.07278, -2.18569, -0.117797, 0.0610583, 0.168402, 0.0849401, 0.0799919, 0.112643, 0.0595855
0.180093, 1.69916, -1.22083, -1.53448, -0.908098, -1.19647, 1.22991, -1.3022, -0.0062719, 0.0482092, 0.157094, -0.271957, -0.00138037, -0.0129256, 0.0145182, 5.3437, 60.9824, 31.7335, 2.6654, 3.22284, 3.18851, -0.0420422, -0.00436267, 0.000562416, 0.00136174, -0.00276229, -0.00808969, -0.00855669, 0.0612398, -0.0137708, -0.0158003, -0.0667656, 0.171983, 0.15428, 0.474989, -0.532637, 0.34136, -2.07601, -2.17127, -0.122016, 0.475675, -0.536712, 0.339328, -2.07249, -2.18605, -0.11777, 0.0615842, 0.169942, 0.0857, 0.0772261, 0.112523, 0.0602458
0.181093, 1.69915, -1.22078, -1.53431, -0.908392, -1.19647, 1.2299, -1.30219, -0.0108807, 0.0448227, 0.159569, -0.277853, -0.000901584, -0.00962399, 0.00932207, 5.49445, 61.0181, 31.8445, 2.62573, 3.22284, 3.18851, -0.00267457, -0.00442028, 0.000577708, 0.00137656, -0.00285325, -0.00811471, -0.00878009, 0.0631823, -0.0130485, -0.0177296, -0.0644695, 0.171129, 0.160347, 0.47505, -0.532466, 0.341446, -2.07589, -2.17135, -0.121894, 0.475754, -0.536595, 0.33939, -2.07218, -2.18642, -0.117747, 0.0621099, 0.171484, 0.0864603, 0.0770358, 0.112405, 0.0588296
0.182093, 1.69914, -1.22073, -1.53413, -0.908696, -1.19647, 1.2299, -1.30218, -0.0116424, 0.0421769, 0.167906, -0.287925, -0.00106178, -0.00717117, 0.0129695, 5.53413, 61.0538, 31.8088, 2.6654, 3.23566, 3.18851, -0.0356336, -0.00447122, 0.000601157, 0.00138863, -0.00295234, -0.00814316, -0.00901476, 0.0608898, -0.0161642, -0.0179774, -0.0605408, 0.171272, 0.167616, 0.475113, -0.532294, 0.341533, -2.07577, -2.17143, -0.121771, 0.475842, -0.53647, 0.339456, -2.07188, -2.18681, -0.11773, 0.0626355, 0.173028, 0.087221, 0.0805695, 0.116399, 0.0595888
0.183093, 1.69912, -1.22069, -1.53395, -0.909002, -1.19647, 1.22989, -1.30217, -0.014937, 0.0425633, 0.17475, -0.292802, -0.00157897, -0.0105417, 0.0125627, 5.68488, 61.1292, 31.8842, 2.59003, 3.25946, 3.20224, 0.0165515, -0.00452818, 0.000618005, 0.00140635, -0.00304753, -0.00816113, -0.0092521, 0.0607813, -0.0152836, -0.0166566, -0.0600836, 0.17141, 0.170972, 0.475176, -0.53212, 0.34162, -2.07564, -2.17152, -0.121646, 0.475924, -0.536349, 0.339517, -2.07156, -2.18719, -0.117719, 0.0631608, 0.174573, 0.087982, 0.0802704, 0.11781, 0.0617024
0.184093, 1.6991, -1.22065, -1.53376, -0.909321, -1.19647, 1.22987, -1.30215, -0.0163214, 0.0431257, 0.177728, -0.298473, -0.00104478, -0.012583, 0.0163777, 5.79597, 61.2006, 31.9199, 2.59003, 3.25946, 3.20224, -0.0356336, -0.00457953, 0.000639157, 0.00141972, -0.00314362, -0.00818594, -0.00949223, 0.060305, -0.0153325, -0.0167003, -0.0619966, 0.171881, 0.171183, 0.475239, -0.531945, 0.341709, -2.07552, -2.1716, -0.121521, 0.47601, -0.536221, 0.339584, -2.07124, -2.18758, -0.1177, 0.0636859, 0.176119, 0.0887433, 0.0808265, 0.119836, 0.0624924
0.185093, 1.69908, -1.2206, -1.53356, -0.909643, -1.19647, 1.22986, -1.30214, -0.0143013, 0.0443718, 0.187338, -0.302622, -0.00136878, -0.0139819, 0.0154508, 5.91102, 61.2402, 31.9199, 2.59003, 3.27777, 3.20224, 0.00373412, -0.00463034, 0.000661441, 0.00142898, -0.00325305, -0.00821099, -0.00974703, 0.0575293, -0.0180909, -0.0138726, -0.0576938, 0.173638, 0.181059, 0.475303, -0.531768, 0.341798, -2.07539, -2.17169, -0.121395, 0.476098, -0.536092, 0.339655, -2.07091, -2.18799, -0.117697, 0.0642108, 0.177667, 0.0895048, 0.0841106, 0.12383, 0.0663753
0.186093, 1.69906, -1.22056, -1.53336, -0.909971, -1.19647, 1.22985, -1.30213, -0.0207737, 0.0403594, 0.191612, -0.307398, -0.000704642, -0.0110008, 0.0180329, 6.09748, 61.3513, 32.031, 2.55035, 3.27228, 3.21689, -0.0420422, -0.00468384, 0.000681306, 0.00144488, -0.00335914, -0.00822534, -0.00999485, 0.0602517, -0.016356, -0.0152972, -0.0532181, 0.171587, 0.177471, 0.475368, -0.53159, 0.341888, -2.07526, -2.17177, -0.121268, 0.476185, -0.535963, 0.339721, -2.07057, -2.18839, -0.1177, 0.0647353, 0.179216, 0.0902666, 0.0829624, 0.122824, 0.0653753
