alisrour97/Franka_experiments/Real_Robot_scripts/servo-franka/Data_5_ki/log_dyn_PI0_3.csv
Time,q1,q2,q3,q4,q5,q6,q7,dq1,dq2,dq3,dq4,dq5,dq6,dq7,t1,t2,t3,t4,t5,t6,t7,ex1,ex2,ex3,ex4,ex5,ex6,ev1,ev2,ev3,ev4,ev5,ev6,xd,yd,zd,uxd,uyd,uzd,x,y,z,ux,uy,uz,vxd,vyd,vzd,vx,vy,vz
4.88281e-07, 1.69134, -1.22607, -1.53854, -0.900024, -1.19179, 1.22832, -1.30265, -0.00345371, -0.00790283, -0.00488056, 0.00269999, -0.00561973, 0.00179434, -7.52586e-05, 0.170357, 61.0934, 29.9839, 6.54541, 2.10498, 3.38901, -0.10796, 0.000788663, -0.00170784, 0.000581575, 0.000874066, 0.000116739, 0.000259147, 0.0055326, 0.00352387, -0.00570105, -0.00423116, -0.00232035, -0.00991179, 0.471008, -0.543389, 0.335894, -2.08385, -2.16584, -0.129887, 0.469263, -0.542583, 0.335513, -2.0836, -2.16519, -0.129031, -4.06186e-05, 0.000124715, 6.6488e-05, -0.00356789, -0.00460395, -0.00631531
0.0131167, 1.69133, -1.22612, -1.53862, -0.900011, -1.19182, 1.22832, -1.30265, -0.000799206, -0.00369259, -0.00951745, -0.00121364, 0.00105556, -0.000219608, 0.000440081, -0.166862, 60.6491, 29.8371, 6.73187, 2.03815, 3.38901, -0.140919, 0.000752857, -0.00173323, 0.000636577, 0.000950339, 0.000140942, 0.000330187, 0.00233154, 0.00164501, -0.00576522, -0.00889029, -0.00379714, -0.00453227, 0.471008, -0.543389, 0.335894, -2.08385, -2.16584, -0.129887, 0.469227, -0.542619, 0.335434, -2.08362, -2.16504, -0.128941, -6.68636e-05, 0.000218577, 0.000115026, -0.00183448, -0.00126315, -0.00588996
0.0141167, 1.69133, -1.22612, -1.53862, -0.900011, -1.19182, 1.22832, -1.30265, -0.000799206, -0.00369259, -0.00951745, -0.00121364, 0.00105556, -0.000219608, 0.000440081, -0.166862, 60.6491, 29.8371, 6.73187, 2.03815, 3.38901, -0.140919, 0.000752834, -0.00173322, 0.000636585, 0.000950328, 0.000140948, 0.000330199, 0.00244241, 0.00161893, -0.00580087, -0.00893751, -0.0037247, -0.00462192, 0.471008, -0.543389, 0.335894, -2.08385, -2.16584, -0.129887, 0.469227, -0.542619, 0.335434, -2.08362, -2.16504, -0.128941, -9.5592e-05, 0.000321476, 0.000168224, -0.00183448, -0.00126315, -0.00588996
0.0151167, 1.69133, -1.22612, -1.53862, -0.900011, -1.19182, 1.22832, -1.30265, -0.000799206, -0.00369259, -0.00951745, -0.00121364, 0.00105556, -0.000219608, 0.000440081, -0.166862, 60.6491, 29.8371, 6.73187, 2.03815, 3.38901, -0.140919, 0.000752772, -0.00173321, 0.000636605, 0.000950299, 0.000140962, 0.000330232, 0.00256339, 0.00159051, -0.00583976, -0.00898894, -0.0036457, -0.00471968, 0.471008, -0.543389, 0.335894, -2.08385, -2.16584, -0.129887, 0.469227, -0.542619, 0.335434, -2.08362, -2.16504, -0.128941, -0.000126895, 0.000433757, 0.000226255, -0.00183448, -0.00126315, -0.00588996
0.0161167, 1.69133, -1.22612, -1.53862, -0.900011, -1.19182, 1.22832, -1.30265, -0.000799206, -0.00369259, -0.00951745, -0.00121364, 0.00105556, -0.000219608, 0.000440081, -0.166862, 60.6491, 29.8371, 6.73187, 2.03815, 3.38901, -0.140919, 0.000752652, -0.00173318, 0.000636643, 0.000950241, 0.00014099, 0.000330296, 0.00269483, 0.00155968, -0.005882, -0.00904474, -0.00355989, -0.00482581, 0.471008, -0.543389, 0.335894, -2.08385, -2.16584, -0.129887, 0.469227, -0.542619, 0.335434, -2.08362, -2.16504, -0.128941, -0.000160861, 0.000555757, 0.000289294, -0.00183448, -0.00126315, -0.00588996
0.0171167, 1.69133, -1.22612, -1.53862, -0.900011, -1.19182, 1.22832, -1.30265, -0.000799206, -0.00369259, -0.00951745, -0.00121364, 0.00105556, -0.000219608, 0.000440081, -0.166862, 60.6491, 29.8371, 6.73187, 2.03815, 3.38901, -0.140919, 0.000752455, -0.00173313, 0.000636707, 0.000950147, 0.000141036, 0.000330402, 0.00283709, 0.00152635, -0.00592771, -0.00910504, -0.00346705, -0.0049406, 0.471008, -0.543389, 0.335894, -2.08385, -2.16584, -0.129886, 0.469227, -0.542619, 0.335434, -2.08362, -2.16504, -0.128941, -0.000197581, 0.000687809, 0.000357511, -0.00183448, -0.00126315, -0.00588996
0.0181167, 1.69133, -1.22612, -1.53862, -0.900011, -1.19182, 1.22832, -1.30265, -0.000799206, -0.00369259, -0.00951745, -0.00121364, 0.00105556, -0.000219608, 0.000440081, -0.166862, 60.6491, 29.8371, 6.73187, 2.03815, 3.38901, -0.140919, 0.000752162, -0.00173306, 0.000636802, 0.000950006, 0.000141105, 0.000330558, 0.00299054, 0.00149046, -0.005977, -0.00916999, -0.00336695, -0.00506434, 0.471008, -0.543389, 0.335894, -2.08385, -2.16584, -0.129886, 0.469227, -0.542619, 0.335434, -2.08362, -2.16504, -0.128941, -0.000237139, 0.000830243, 0.000431075, -0.00183448, -0.00126315, -0.00588996
0.0191167, 1.69133, -1.22612, -1.53862, -0.900011, -1.19182, 1.22832, -1.30265, -0.000799206, -0.00369259, -0.00951745, -0.00121364, 0.00105556, -0.000219608, 0.000440081, -0.166862, 60.6491, 29.8371, 6.73187, 2.03815, 3.38901, -0.140919, 0.000751753, -0.00173297, 0.000636934, 0.000949811, 0.0001412, 0.000330776, 0.00315551, 0.00145191, -0.00602998, -0.00923972, -0.00325937, -0.00519728, 0.471008, -0.543388, 0.335894, -2.08385, -2.16584, -0.129886, 0.469227, -0.542619, 0.335434, -2.08362, -2.16504, -0.128941, -0.000279621, 0.000983381, 0.00051015, -0.00183448, -0.00126315, -0.00588996
0.0201167, 1.69133, -1.22612, -1.53862, -0.900011, -1.19182, 1.22832, -1.30265, -0.000799206, -0.00369259, -0.00951745, -0.00121364, 0.00105556, -0.000219608, 0.000440081, -0.166862, 60.6491, 29.8371, 6.73187, 2.03815, 3.38901, -0.140919, 0.00075121, -0.00173284, 0.000637109, 0.000949551, 0.000141327, 0.000331065, 0.00333236, 0.00141064, -0.00608675, -0.00931438, -0.00314408, -0.0053397, 0.471008, -0.543388, 0.335895, -2.08385, -2.16584, -0.129886, 0.469227, -0.542619, 0.335434, -2.08362, -2.16504, -0.128941, -0.00032511, 0.00114754, 0.000594898, -0.00183448, -0.00126315, -0.00588996
0.0211167, 1.69133, -1.22612, -1.53862, -0.900011, -1.19182, 1.22832, -1.30265, -0.000799206, -0.00369259, -0.00951745, -0.00121364, 0.00105556, -0.000219608, 0.000440081, -0.166862, 60.6491, 29.8371, 6.73187, 2.03815, 3.38901, -0.140919, 0.000750515, -0.00173268, 0.000637333, 0.000949218, 0.000141489, 0.000331436, 0.0035214, 0.00136658, -0.00614743, -0.00939408, -0.00302088, -0.00549185, 0.471007, -0.543387, 0.335895, -2.08384, -2.16584, -0.129885, 0.469227, -0.542619, 0.335434, -2.08362, -2.16504, -0.128941, -0.000373687, 0.00132303, 0.000685479, -0.00183448, -0.00126315, -0.00588996
0.0221167, 1.69133, -1.22612, -1.53862, -0.900011, -1.19182, 1.22832, -1.30265, -0.000799206, -0.00369259, -0.00951745, -0.00121364, 0.00105556, -0.000219608, 0.000440081, -0.166862, 60.6491, 29.8371, 6.73187, 2.03815, 3.38901, -0.140919, 0.000749649, -0.00173247, 0.000637612, 0.000948804, 0.000141691, 0.000331897, 0.00372297, 0.00131964, -0.00621212, -0.00947896, -0.00288955, -0.005654, 0.471007, -0.543386, 0.335895, -2.08384, -2.16584, -0.129884, 0.469227, -0.542619, 0.335434, -2.08362, -2.16504, -0.128941, -0.000425431, 0.00151016, 0.000782046, -0.00183448, -0.00126315, -0.00588996
0.0231167, 1.69133, -1.22612, -1.53862, -0.900011, -1.19182, 1.22832, -1.30265, -0.000799206, -0.00369259, -0.00951745, -0.00121364, 0.00105556, -0.000219608, 0.000440081, -0.166862, 60.6491, 29.8371, 6.73187, 2.03815, 3.38901, -0.140919, 0.000748593, -0.00173222, 0.000637953, 0.000948298, 0.000141936, 0.000332459, 0.00393739, 0.00126977, -0.00628091, -0.00956915, -0.00274989, -0.00582639, 0.471007, -0.543385, 0.335896, -2.08384, -2.16584, -0.129884, 0.469227, -0.542619, 0.335434, -2.08362, -2.16504, -0.128941, -0.000480419, 0.00170921, 0.00088475, -0.00183448, -0.00126315, -0.00588996
0.0241167, 1.69132, -1.22615, -1.53863, -0.900046, -1.19181, 1.22833, -1.30265, 0.00658046, -0.00235932, 0.000265686, -0.00258724, 0.000659861, -0.000153596, 0.000389316, -0.619133, 59.8755, 29.4245, 6.77154, 1.9823, 3.38168, -0.120778, 0.000747947, -0.00173182, 0.000662293, 0.000967174, 0.000171631, 0.000312471, -0.00159643, -0.00489537, -0.0026766, -0.00292952, -0.00120149, 0.00708576, 0.471007, -0.543384, 0.335896, -2.08384, -2.16585, -0.129883, 0.469226, -0.542615, 0.335411, -2.08358, -2.16504, -0.128951, -0.000538724, 0.00192048, 0.000993739, 0.00419662, 0.00410879, -0.00154896
0.0251167, 1.69132, -1.22615, -1.53863, -0.900051, -1.19181, 1.22832, -1.30265, 0.004003, -0.00116472, 9.19358e-05, -0.00364441, 0.00203214, -0.000102695, 0.00124289, -0.583427, 59.8398, 29.4245, 6.84296, 1.93927, 3.38168, -0.147328, 0.000747646, -0.00173168, 0.000663735, 0.000970616, 0.000173803, 0.000313358, -0.000868022, -0.00385288, -0.00212072, -0.00250219, -0.000927371, 0.00477412, 0.471006, -0.543383, 0.335897, -2.08384, -2.16585, -0.129882, 0.469226, -0.542613, 0.33541, -2.08357, -2.16503, -0.128948, -0.000600418, 0.00214425, 0.00110915, 0.00313989, 0.00348524, -0.000966295
0.0261167, 1.69132, -1.22616, -1.53863, -0.900046, -1.1918, 1.22833, -1.30265, 0.00207907, -0.00554235, -0.00360565, -1.80168e-05, -0.00263755, 0.000982474, 8.2607e-05, -0.543754, 59.7644, 29.3134, 6.73187, 1.92096, 3.3533, -0.127186, 0.000743787, -0.00173101, 0.000669773, 0.000966512, 0.000184516, 0.000318408, 0.00353739, -0.00112355, -0.00538338, -0.00541397, -0.000902071, -0.00261232, 0.471006, -0.543381, 0.335898, -2.08384, -2.16585, -0.129881, 0.469226, -0.542615, 0.335404, -2.08357, -2.16503, -0.128962, -0.00066557, 0.00238079, 0.00123113, 0.000388694, -0.000236905, -0.00466739
0.0271167, 1.69132, -1.22614, -1.53864, -0.900051, -1.19181, 1.22833, -1.30265, 0.00256789, 0.000609757, -0.00320807, -0.00332262, -0.000554614, 0.000654815, 0.0079541, -0.583427, 59.1415, 29.0555, 6.73187, 1.87793, 3.3533, -0.0878186, 0.000745656, -0.00172785, 0.000664445, 0.00097031, 0.000169973, 0.000309333, 0.00149792, -0.00233135, -0.00222937, -0.00562937, 0.00381797, -0.00654428, 0.471005, -0.543379, 0.335899, -2.08384, -2.16585, -0.129879, 0.469229, -0.542612, 0.335411, -2.08357, -2.16504, -0.128943, -0.000734245, 0.00263035, 0.0013598, 0.00156718, 0.00159007, -0.00114425
0.0281167, 1.69133, -1.22615, -1.53864, -0.900054, -1.19181, 1.22833, -1.30265, 0.00273751, 0.00014836, -0.00317118, -0.00174918, 0.00160967, -7.2209e-05, 0.00414971, -0.619133, 58.6972, 28.7937, 6.69617, 1.81659, 3.36703, -0.0356336, 0.000744171, -0.00172481, 0.000671115, 0.000977984, 0.000171914, 0.000304333, 0.00170408, -0.00226631, -0.00243243, -0.00465482, 0.00127362, -0.00342474, 0.471005, -0.543377, 0.3359, -2.08384, -2.16585, -0.129878, 0.469231, -0.54261, 0.335405, -2.08356, -2.16505, -0.128935, -0.000806507, 0.00289319, 0.0014953, 0.00143, 0.00167797, -0.0012393
0.0291167, 1.69133, -1.22615, -1.53865, -0.900062, -1.1918, 1.22833, -1.30265, 0.00593805, -0.00142112, -0.00364689, -0.0014431, -0.000641058, -0.00140457, 0.00358865, -0.658806, 58.2925, 28.5319, 6.69617, 1.73053, 3.40365, -0.0420422, 0.000744997, -0.00172082, 0.000681167, 0.000991482, 0.000182397, 0.000301044, 0.00122635, -0.00350996, -0.00386084, -0.00788375, 0.00118895, -0.00116612, 0.471004, -0.543375, 0.335901, -2.08384, -2.16585, -0.129876, 0.469234, -0.542605, 0.335396, -2.08354, -2.16504, -0.128929, -0.000882416, 0.00316954, 0.00163773, 0.00252748, 0.0026967, -0.00247066
0.0301167, 1.69133, -1.22617, -1.53866, -0.900063, -1.19181, 1.22833, -1.30265, 0.00339128, -0.00409822, -0.00496482, -0.000801351, -0.00408349, -0.00117381, 0.00259369, -0.619133, 58.0704, 28.3097, 6.54541, 1.6875, 3.41006, -0.0356336, 0.000738762, -0.0017215, 0.000695072, 0.00100166, 0.000197464, 0.000307333, 0.00409264, -0.00148072, -0.00575653, -0.0100917, 0.0016077, -0.00523917, 0.471003, -0.543372, 0.335903, -2.08383, -2.16585, -0.129874, 0.469233, -0.542606, 0.335383, -2.08353, -2.16502, -0.12893, -0.000962028, 0.00345964, 0.00178723, 0.000455317, 0.000365826, -0.00457667
0.0311167, 1.69134, -1.22618, -1.53868, -0.900076, -1.19181, 1.22833, -1.30265, 0.00429454, -0.00457253, -0.00876708, -0.00515088, -0.0030888, -0.000273967, 0.00134601, -0.694511, 57.9236, 28.1986, 6.58508, 1.6756, 3.39633, -0.0164075, 0.000737867, -0.00171442, 0.000711964, 0.00102229, 0.000202967, 0.000295328, 0.00346355, -0.00265059, -0.00806027, -0.0145551, 0.00163236, -0.00104409, 0.471002, -0.543369, 0.335904, -2.08383, -2.16585, -0.129871, 0.469238, -0.542601, 0.335367, -2.0835, -2.16502, -0.128912, -0.0010454, 0.0037637, 0.0019439, 0.00143463, 0.00169338, -0.00663241
0.0321167, 1.69134, -1.2262, -1.53869, -0.900075, -1.19181, 1.22834, -1.30265, 0.00363538, -0.00723553, -0.00533812, -0.00366336, -0.00174913, 0.00195355, 0.00209349, -0.583427, 57.8879, 27.9725, 6.43433, 1.65088, 3.33865, -0.0420422, 0.000728193, -0.00171491, 0.000727539, 0.00102461, 0.000217918, 0.00030761, 0.00404437, -0.0032376, -0.00808173, -0.00855273, -0.00116489, -0.00186997, 0.471002, -0.543366, 0.335906, -2.08383, -2.16586, -0.129869, 0.469237, -0.542605, 0.335352, -2.0835, -2.165, -0.128921, -0.00113257, 0.00408193, 0.00210783, 0.0019537, 0.00146553, -0.0065975
0.0331167, 1.69135, -1.22622, -1.5387, -0.900088, -1.19182, 1.22834, -1.30265, 0.00600394, -0.0144276, -0.00213519, -0.00398158, -0.00253571, 0.00343856, 0.00280141, -0.583427, 57.9633, 27.7146, 6.47003, 1.6756, 3.28097, -0.0750012, 0.000726909, -0.0017064, 0.000742761, 0.00103188, 0.000226892, 0.000295033, 0.00358079, -0.00559714, -0.011323, -0.00609703, -0.00682523, 0.00116018, 0.471001, -0.543362, 0.335908, -2.08383, -2.16586, -0.129866, 0.469244, -0.5426, 0.335339, -2.08348, -2.16501, -0.12892, -0.0012236, 0.00441451, 0.00227914, 0.00408554, 0.0028512, -0.00962586
0.0341167, 1.69135, -1.22624, -1.53871, -0.900092, -1.19183, 1.22835, -1.30265, 0.00514805, -0.017163, -0.00812849, -0.00453714, -0.00203104, 0.00774712, 0.00153167, -0.468376, 58.0704, 27.6749, 6.39465, 1.6756, 3.25992, -0.0621838, 0.00071873, -0.00170437, 0.000759888, 0.00104398, 0.000235734, 0.000296371, 0.00602527, -0.00516684, -0.0148275, -0.00787028, -0.00718163, -0.000895148, 0.470999, -0.543358, 0.33591, -2.08382, -2.16586, -0.129863, 0.469244, -0.542602, 0.335322, -2.08347, -2.165, -0.128913, -0.00131852, 0.00476163, 0.0024579, 0.00352175, 0.0013068, -0.0132739
0.0351167, 1.69136, -1.22625, -1.53872, -0.900096, -1.19183, 1.22836, -1.30265, 0.00470387, -0.0160811, -0.00929225, -0.00512319, -0.00495195, 0.0113024, -9.55072e-05, -0.357292, 58.0704, 27.6392, 6.32324, 1.63898, 3.23153, -0.0292249, 0.000712198, -0.00170161, 0.000770152, 0.00104916, 0.00023835, 0.00029759, 0.00752638, -0.00523488, -0.0144751, -0.0074397, -0.00158852, -0.00106344, 0.470998, -0.543354, 0.335912, -2.08382, -2.16586, -0.12986, 0.469246, -0.542602, 0.335314, -2.08346, -2.165, -0.128906, -0.00141737, 0.00512346, 0.00264421, 0.00355726, 0.000135223, -0.0129747
0.0361167, 1.69136, -1.22625, -1.53873, -0.900096, -1.19184, 1.22836, -1.30265, 0.00532848, -0.0153173, -0.0058821, -0.00147554, -0.00364708, 0.00821854, -0.000460326, -0.281914, 58.0704, 27.5638, 6.20819, 1.63257, 3.23153, -0.0164075, 0.000706962, -0.00169652, 0.00077785, 0.00105286, 0.000237347, 0.000296852, 0.00737412, -0.00503301, -0.0127449, -0.00499767, -0.00367886, -0.00153266, 0.470997, -0.543349, 0.335915, -2.08382, -2.16586, -0.129856, 0.469249, -0.542601, 0.335307, -2.08345, -2.165, -0.128898, -0.00152019, 0.00550014, 0.00283813, 0.00330986, 0.000387657, -0.0110426
0.0371167, 1.69137, -1.22626, -1.53874, -0.9001, -1.19184, 1.22837, -1.30265, 0.00663968, -0.013321, -0.00500928, 0.000123241, -0.00127505, 0.00599172, 0.00468785, -0.242241, 58.1458, 27.5638, 6.13678, 1.58954, 3.23153, -0.0228162, 0.000702988, -0.00168979, 0.000788315, 0.00106099, 0.000238935, 0.000293356, 0.00661573, -0.00548571, -0.0114408, -0.00451697, -0.00461335, -0.00594245, 0.470995, -0.543344, 0.335917, -2.08381, -2.16587, -0.129852, 0.469254, -0.542598, 0.335299, -2.08344, -2.16501, -0.128887, -0.00162701, 0.00589181, 0.00303974, 0.0036751, 0.00134587, -0.00944927
0.0381167, 1.69138, -1.22626, -1.53875, -0.900106, -1.19185, 1.22837, -1.30264, 0.00496667, -0.00905513, -0.00824519, -0.00255689, -0.00564694, 0.00387037, 0.00525614, -0.0914839, 58.11, 27.6035, 6.09711, 1.58313, 3.24527, -0.0685925, 0.000697992, -0.0016855, 0.000792627, 0.00107223, 0.00022622, 0.000300635, 0.00791651, -0.00371837, -0.0106928, -0.0120669, 0.00284445, -0.00926699, 0.470994, -0.543338, 0.33592, -2.08381, -2.16587, -0.129848, 0.469257, -0.542596, 0.335297, -2.08345, -2.165, -0.128856, -0.00173785, 0.0062986, 0.00324909, 0.00187276, 0.000281001, -0.00864986
0.0391167, 1.69139, -1.22626, -1.53875, -0.900116, -1.19185, 1.22838, -1.30265, 0.00478544, -0.00762923, -0.00637221, -0.00321162, -0.00304649, 0.00286863, 0.00138929, 0.0196001, 58.1458, 27.6035, 6.13678, 1.54651, 3.24527, -0.00267457, 0.00069588, -0.0016765, 0.000798734, 0.00107373, 0.000222439, 0.000283466, 0.00711336, -0.00428041, -0.0095063, -0.0104407, 0.00186392, -0.00362028, 0.470992, -0.543332, 0.335923, -2.0838, -2.16587, -0.129843, 0.469264, -0.542591, 0.335293, -2.08342, -2.16503, -0.128848, -0.00185274, 0.00672061, 0.00346625, 0.0023333, 0.00133633, -0.00715346
0.0401167, 1.6914, -1.22626, -1.53875, -0.900122, -1.19186, 1.22839, -1.30264, 0.00615206, -0.00565409, -0.00573991, -0.00487903, -0.00562778, 0.00717479, 0.00262922, 0.21003, 58.1458, 27.6392, 6.09711, 1.50348, 3.23886, -0.0420422, 0.000692394, -0.00166779, 0.000801528, 0.0010713, 0.000212772, 0.000280784, 0.00712405, -0.00609968, -0.00819803, -0.00838357, 0.00852873, -0.00302233, 0.470991, -0.543326, 0.335927, -2.0838, -2.16588, -0.129838, 0.469271, -0.542587, 0.335293, -2.08342, -2.16504, -0.128836, -0.0019717, 0.00715794, 0.00369125, 0.00407891, 0.00163626, -0.00569316
0.0411167, 1.6914, -1.22626, -1.53876, -0.90013, -1.19186, 1.22839, -1.30264, 0.00335005, -0.00503057, -0.00691748, -0.00384769, -0.00896311, 0.00429497, 0.00291987, 0.436165, 58.1815, 27.7503, 6.09711, 1.49707, 3.26724, -0.0685925, 0.000685371, -0.0016638, 0.000807643, 0.00108039, 0.000204392, 0.000283922, 0.00970745, -0.0032873, -0.00836703, -0.0126932, 0.0106723, -0.00906756, 0.470989, -0.543319, 0.33593, -2.08379, -2.16588, -0.129833, 0.469273, -0.542586, 0.335289, -2.08342, -2.16504, -0.128812, -0.00209472, 0.00761066, 0.00392413, 0.00123351, -0.000550603, -0.00594323
0.0421167, 1.69141, -1.22626, -1.53877, -0.900144, -1.19187, 1.22839, -1.30264, 0.000395359, -0.00367318, -0.00674421, -0.00477462, -0.00625238, 0.0011832, 0.00133839, 0.701973, 58.1815, 27.8257, 6.17248, 1.47876, 3.324, -0.0484509, 0.000682918, -0.00165581, 0.000812477, 0.00108904, 0.000196829, 0.000270505, 0.0102233, -0.00169345, -0.0079162, -0.0140599, 0.00857103, -0.00902628, 0.470987, -0.543312, 0.335934, -2.08379, -2.16589, -0.129827, 0.469279, -0.54258, 0.335288, -2.0834, -2.16506, -0.12879, -0.00222183, 0.00807884, 0.00416491, -0.000450622, -0.000726395, -0.00528925
0.0431167, 1.69142, -1.22625, -1.53877, -0.900153, -1.19188, 1.2284, -1.30264, 0.00164821, -0.00185317, -0.00477312, -0.00668573, -0.00580014, 0.000291654, 4.61624e-05, 0.963814, 58.1458, 27.8257, 6.17248, 1.50348, 3.34598, -0.0228162, 0.000677712, -0.00164865, 0.000812811, 0.00108761, 0.000182128, 0.000261731, 0.00885656, -0.00314367, -0.00672462, -0.0140674, 0.00998864, -0.00417082, 0.470984, -0.543304, 0.335938, -2.08378, -2.16589, -0.129821, 0.469284, -0.542577, 0.33529, -2.08339, -2.16508, -0.128772, -0.00235303, 0.00856251, 0.00441363, 0.000860661, 0.000982623, -0.00369559
0.0441167, 1.69142, -1.22626, -1.53877, -0.90016, -1.19188, 1.22841, -1.30264, 0.00349481, -0.00484882, -0.00598828, -0.00731618, -0.00440403, 0.00550436, 0.00034564, 1.18995, 58.2925, 27.9368, 6.13678, 1.50348, 3.33865, -0.0292249, 0.000669691, -0.00163919, 0.000823398, 0.00108582, 0.000178723, 0.000257452, 0.00919022, -0.00539435, -0.00881359, -0.0110061, 0.0089775, -0.00258514, 0.470982, -0.543295, 0.335942, -2.08378, -2.16589, -0.129815, 0.469291, -0.542575, 0.335283, -2.08339, -2.1651, -0.128765, -0.00248832, 0.00906169, 0.00467028, 0.0029096, 0.00156609, -0.00562131
0.0451167, 1.69143, -1.22626, -1.53878, -0.900166, -1.19189, 1.22842, -1.30264, 0.00699611, -0.0025321, -0.00591123, -0.00698823, -0.00449186, 0.00788806, 0.00558737, 1.45576, 58.2568, 28.0121, 6.0614, 1.53461, 3.36703, -0.0484509, 0.000661977, -0.00163293, 0.000827289, 0.00108975, 0.00016721, 0.000257845, 0.00831783, -0.00780947, -0.00753217, -0.0093305, 0.0129722, -0.00513068, 0.47098, -0.543286, 0.335947, -2.08377, -2.1659, -0.129808, 0.469295, -0.542572, 0.335282, -2.08338, -2.1651, -0.128742, -0.00262768, 0.00957641, 0.00493487, 0.00519731, 0.00284384, -0.00402893
0.0461167, 1.69144, -1.22627, -1.53878, -0.900174, -1.1919, 1.22843, -1.30264, 0.00979054, -0.00522282, -0.00582091, -0.00365255, -0.00879315, 0.0112852, 0.0032013, 1.72157, 58.4036, 28.0875, 5.98602, 1.55292, 3.3533, -0.0228162, 0.000652394, -0.00162337, 0.000838596, 0.00108804, 0.000163199, 0.000254228, 0.0100777, -0.00896384, -0.0086479, -0.00760862, 0.0156495, -0.0047081, 0.470977, -0.543277, 0.335952, -2.08376, -2.1659, -0.129801, 0.469302, -0.54257, 0.335274, -2.08337, -2.16512, -0.128733, -0.00277111, 0.0101066, 0.00520739, 0.00622946, 0.00185572, -0.00516603
0.0471167, 1.69146, -1.22628, -1.53879, -0.900166, -1.19191, 1.22844, -1.30264, 0.0155202, -0.00958982, -0.0065667, 1.16537e-05, -0.0118728, 0.012144, 0.00245357, 1.83265, 58.6615, 28.1986, 5.72418, 1.57123, 3.38168, -0.0228162, 0.000642771, -0.00161172, 0.000854746, 0.00108806, 0.00017307, 0.000250455, 0.0104751, -0.0112519, -0.0113816, -0.00870077, 0.0145279, -0.00328975, 0.470974, -0.543267, 0.335957, -2.08375, -2.16591, -0.129793, 0.469311, -0.542567, 0.335261, -2.08336, -2.16512, -0.128735, -0.00291859, 0.0106523, 0.00548782, 0.00828253, 0.00252351, -0.00771566
0.0481167, 1.69148, -1.22629, -1.53879, -0.900173, -1.19192, 1.22844, -1.30264, 0.0164519, -0.00988375, -0.00444353, -0.0029452, -0.0150709, 0.016767, 0.00140052, 1.9477, 58.8083, 28.1986, 5.68848, 1.61426, 3.43204, -0.00999879, 0.00063796, -0.0015976, 0.000866809, 0.00109262, 0.000174273, 0.00023696, 0.0104888, -0.0134365, -0.0110478, -0.00613998, 0.0196814, 0.000748063, 0.470971, -0.543256, 0.335962, -2.08375, -2.16592, -0.129785, 0.469322, -0.542559, 0.335254, -2.08333, -2.16514, -0.128725, -0.0030701, 0.0112135, 0.00577613, 0.0103253, 0.00310941, -0.00716588
0.0491167, 1.69149, -1.22629, -1.5388, -0.900165, -1.19193, 1.22845, -1.30264, 0.015271, -0.00663181, -0.00644533, 0.00255389, -0.0157556, 0.0114973, 0.00206276, 2.13416, 58.8083, 28.3454, 5.46234, 1.61426, 3.46774, -0.0356336, 0.000624672, -0.00158989, 0.000873406, 0.00109241, 0.000162832, 0.000248559, 0.0129601, -0.0102339, -0.00968265, -0.00997252, 0.0208886, -0.0076383, 0.470968, -0.543245, 0.335968, -2.08374, -2.16592, -0.129777, 0.469327, -0.542559, 0.335251, -2.08334, -2.16514, -0.128704, -0.0032256, 0.01179, 0.00607228, 0.00710928, 0.000904817, -0.00580853
0.0501167, 1.69152, -1.2263, -1.53881, -0.900164, -1.19194, 1.22846, -1.30264, 0.0161404, -0.00621643, -0.00526188, 0.00372179, -0.0123502, 0.00730252, 0.000560473, 2.24921, 58.8837, 28.3851, 5.35126, 1.63257, 3.51077, -0.00999879, 0.000617939, -0.00157427, 0.000881882, 0.00108874, 0.000158276, 0.00023553, 0.012161, -0.010422, -0.00947459, -0.0108024, 0.0166983, -0.00510194, 0.470965, -0.543234, 0.335974, -2.08373, -2.16593, -0.129768, 0.469339, -0.542552, 0.335247, -2.08332, -2.16516, -0.128696, -0.00338507, 0.0123818, 0.00637623, 0.00711659, 0.00226127, -0.00518084
0.0511167, 1.69154, -1.22631, -1.53881, -0.900155, -1.19196, 1.22847, -1.30264, 0.0188429, -0.00843716, -0.00520608, 0.00640844, -0.0100253, 0.00943767, 0.00142413, 2.39997, 59.0662, 28.4565, 5.16479, 1.65729, 3.53915, -0.0356336, 0.000605369, -0.00156232, 0.000894671, 0.00108705, 0.000157926, 0.00023957, 0.0123716, -0.0121887, -0.0105495, -0.00740861, 0.0139047, -0.00532024, 0.470962, -0.543221, 0.335981, -2.08372, -2.16594, -0.129759, 0.469347, -0.54255, 0.335238, -2.08332, -2.16517, -0.128688, -0.00354847, 0.0129888, 0.00668792, 0.00868627, 0.00289824, -0.00601657
0.0521167, 1.69156, -1.22631, -1.53881, -0.900159, -1.19197, 1.22848, -1.30264, 0.021754, -0.00647798, -0.00349152, 0.00394646, -0.00825621, 0.00629075, -0.00067021, 2.51106, 59.1019, 28.4565, 5.16479, 1.68201, 3.56845, 0.0101428, 0.000600584, -0.00154377, 0.000901898, 0.00108654, 0.000148356, 0.000217176, 0.00979893, -0.0144128, -0.00977585, -0.00955308, 0.0134778, 0.00265567, 0.470958, -0.543208, 0.335987, -2.08371, -2.16594, -0.129749, 0.469362, -0.54254, 0.335236, -2.08329, -2.1652, -0.128671, -0.00371575, 0.0136108, 0.00700727, 0.0106759, 0.00603238, -0.0046014
0.0531167, 1.69158, -1.22633, -1.53882, -0.900155, -1.19199, 1.22849, -1.30264, 0.01725, -0.00952906, -0.00889183, 0.00414983, -0.011826, 0.00890551, 0.000593378, 2.77686, 59.324, 28.6072, 5.08942, 1.71222, 3.58951, -0.0164075, 0.000582913, -0.00153501, 0.000918732, 0.00108875, 0.000147834, 0.000227964, 0.0149358, -0.011176, -0.013206, -0.0134024, 0.0152903, -0.00751714, 0.470955, -0.543195, 0.335994, -2.0837, -2.16595, -0.129738, 0.469367, -0.542541, 0.335224, -2.08329, -2.1652, -0.128656, -0.00388686, 0.0142477, 0.0073342, 0.00733232, 0.00199304, -0.0083607
0.0541167, 1.6916, -1.22633, -1.53883, -0.900153, -1.192, 1.22849, -1.30264, 0.0198321, -0.00719804, -0.00795466, 0.00258327, -0.00912086, 0.0100455, 0.000675575, 2.92762, 59.3597, 28.6826, 5.08942, 1.72504, 3.63254, -0.0228162, 0.000571883, -0.00152134, 0.000926112, 0.00109069, 0.0001353, 0.000224603, 0.0131942, -0.0137685, -0.0119817, -0.0115688, 0.0165708, -0.00291721, 0.470951, -0.54318, 0.336002, -2.08369, -2.16596, -0.129728, 0.469377, -0.542536, 0.335222, -2.08328, -2.16522, -0.128631, -0.00406174, 0.0148993, 0.00766863, 0.00972848, 0.00428207, -0.00662558
0.0551167, 1.69162, -1.22634, -1.53884, -0.900148, -1.19201, 1.2285, -1.30264, 0.0178913, -0.00740474, -0.00809922, 0.00868487, -0.007093, 0.00702482, 0.000719715, 3.11805, 59.4708, 28.7937, 5.05371, 1.73694, 3.65451, -0.0292249, 0.000557427, -0.00150871, 0.000939882, 0.00109247, 0.000133426, 0.000229595, 0.0159155, -0.0111323, -0.0116993, -0.0104814, 0.0130879, -0.0101723, 0.470947, -0.543166, 0.336009, -2.08368, -2.16597, -0.129716, 0.469386, -0.542533, 0.335213, -2.08328, -2.16522, -0.128615, -0.00424034, 0.0155655, 0.00801045, 0.00702502, 0.00211009, -0.00634741
0.0561167, 1.69164, -1.22634, -1.53884, -0.900145, -1.19203, 1.22851, -1.30264, 0.0203149, -0.0057774, -0.00554772, 0.00935949, -0.00539474, 0.00448826, 0.000266431, 3.26881, 59.5065, 28.7937, 5.05371, 1.74335, 3.68289, -0.0228162, 0.000545702, -0.0014936, 0.000947404, 0.00108808, 0.000125036, 0.000224567, 0.0144867, -0.0126528, -0.010329, -0.00988125, 0.0123872, -0.00672762, 0.470942, -0.54315, 0.336017, -2.08367, -2.16597, -0.129705, 0.469397, -0.542527, 0.335212, -2.08327, -2.16524, -0.128601, -0.00442257, 0.0162459, 0.00835954, 0.00835967, 0.00405276, -0.00446958
0.0571167, 1.69167, -1.22635, -1.53884, -0.900147, -1.19205, 1.22852, -1.30264, 0.0229236, -0.00561911, -0.00781159, 0.00505321, -0.00391803, 0.0075385, 0.000195605, 3.37989, 59.5819, 28.8294, 5.12909, 1.74335, 3.70395, -0.0228162, 0.000535247, -0.00147465, 0.000956688, 0.00108645, 0.000111716, 0.00021304, 0.013281, -0.015569, -0.011744, -0.0112638, 0.0139305, -0.00149918, 0.470938, -0.543134, 0.336026, -2.08366, -2.16598, -0.129692, 0.469411, -0.542519, 0.335209, -2.08325, -2.16527, -0.128578, -0.00460838, 0.0169405, 0.00871578, 0.0109918, 0.00627518, -0.00541176
0.0581167, 1.69169, -1.22636, -1.53885, -0.90014, -1.19206, 1.22852, -1.30263, 0.0199588, -0.00718295, -0.00648303, 0.00556463, -0.00193765, 0.00508382, 0.00061861, 3.57032, 59.7287, 28.8691, 5.05371, 1.71863, 3.72592, -0.0356336, 0.000518287, -0.00146155, 0.000970651, 0.00108184, 0.00011285, 0.000216866, 0.0147348, -0.0139984, -0.0124232, -0.0110493, 0.00980668, -0.00456845, 0.470933, -0.543117, 0.336034, -2.08364, -2.16599, -0.129679, 0.46942, -0.542516, 0.3352, -2.08325, -2.16527, -0.128571, -0.00479766, 0.0176488, 0.00907903, 0.00926153, 0.00558832, -0.0058973
0.0591167, 1.69171, -1.22636, -1.53885, -0.900135, -1.19207, 1.22853, -1.30264, 0.0155562, -0.00562625, -0.00625291, 0.00496222, -0.00550257, 0.00819763, -0.000289554, 3.72108, 59.7644, 28.9405, 5.01404, 1.70032, 3.74057, -0.0164075, 0.000501893, -0.00144884, 0.000980384, 0.00107996, 0.000106711, 0.000216968, 0.0181223, -0.0120168, -0.0112532, -0.00959016, 0.0162198, -0.0092045, 0.470929, -0.543099, 0.336043, -2.08363, -2.166, -0.129666, 0.469428, -0.542512, 0.335197, -2.08324, -2.16529, -0.128553, -0.00499035, 0.0183707, 0.00944913, 0.00725397, 0.00270458, -0.00483751
0.0601167, 1.69174, -1.22637, -1.53885, -0.900132, -1.19208, 1.22854, -1.30264, 0.0219654, -0.00727911, -0.00436395, 0.00438669, -0.00773676, 0.0102219, -0.000694075, 3.72108, 59.9152, 28.9405, 4.97833, 1.66919, 3.76163, -0.00267457, 0.000488987, -0.00142881, 0.000992859, 0.00107468, 0.000102628, 0.000205654, 0.016313, -0.0163994, -0.012045, -0.00894642, 0.0180392, -0.00240104, 0.470924, -0.543081, 0.336053, -2.08362, -2.16601, -0.129652, 0.469443, -0.542504, 0.335192, -2.08322, -2.16531, -0.128542, -0.00518633, 0.0191057, 0.00982594, 0.0113412, 0.00552789, -0.00509454
0.0611167, 1.69177, -1.22638, -1.53886, -0.900129, -1.1921, 1.22855, -1.30263, 0.0194194, -0.00652453, -0.00481905, 0.00394218, -0.0103318, 0.0121618, 0.000288959, 3.75678, 59.9866, 29.0159, 4.94263, 1.65729, 3.76895, -0.0228162, 0.000475867, -0.0014089, 0.00100609, 0.00107523, 9.78413e-05, 0.00019837, 0.0188554, -0.0152185, -0.0117767, -0.00894527, 0.0223846, -0.00724522, 0.470918, -0.543062, 0.336063, -2.0836, -2.16602, -0.129638, 0.469458, -0.542495, 0.335186, -2.0832, -2.16534, -0.128523, -0.00538552, 0.0198537, 0.0102093, 0.0100639, 0.00367624, -0.00480497
0.0621167, 1.69179, -1.22638, -1.53886, -0.900126, -1.19211, 1.22856, -1.30263, 0.0209323, -0.00132857, -0.00155934, 0.00369301, -0.0124349, 0.00954688, 0.000196907, 3.90754, 60.1334, 28.9405, 4.90295, 1.65088, 3.76163, -0.0228162, 0.000458384, -0.0013928, 0.00101676, 0.00106309, 9.48215e-05, 0.00019907, 0.0179027, -0.0160693, -0.00817303, -0.00959701, 0.0283753, -0.00531553, 0.470913, -0.543042, 0.336073, -2.08359, -2.16603, -0.129623, 0.469469, -0.54249, 0.335182, -2.08319, -2.16535, -0.128518, -0.0055878, 0.0206142, 0.0105989, 0.0108078, 0.00485806, -0.000734933
0.0631167, 1.69181, -1.22639, -1.53887, -0.900124, -1.19213, 1.22857, -1.30263, 0.0237253, -0.00127651, -0.00381323, 0.00339988, -0.013905, 0.0121957, 0.000134472, 3.98292, 60.173, 29.0555, 4.86725, 1.64447, 3.7543, -0.0228162, 0.000440032, -0.00137605, 0.00102959, 0.00106079, 8.67411e-05, 0.000195895, 0.0184384, -0.0178084, -0.0091607, -0.0108528, 0.0317339, -0.00447104, 0.470907, -0.543021, 0.336083, -2.08357, -2.16604, -0.129607, 0.46948, -0.542485, 0.335177, -2.08318, -2.16537, -0.128497, -0.00579309, 0.0213869, 0.0109948, 0.0123229, 0.00532561, -0.00145015
0.0641167, 1.69184, -1.2264, -1.53887, -0.900129, -1.19214, 1.22858, -1.30263, 0.0255077, -0.00295374, -0.0042744, 0.000580342, -0.0154564, 0.0151971, -0.000382669, 3.94721, 60.2802, 29.1269, 4.94263, 1.65088, 3.7186, -0.00999879, 0.000425821, -0.00135242, 0.00104555, 0.00105979, 7.89859e-05, 0.000181922, 0.0185294, -0.0199495, -0.0107992, -0.0114667, 0.033693, -0.00110119, 0.470902, -0.543, 0.336094, -2.08356, -2.16606, -0.129591, 0.469498, -0.542474, 0.335169, -2.08315, -2.1654, -0.128476, -0.00600136, 0.0221719, 0.0113968, 0.0141969, 0.00636101, -0.00274512
0.0651167, 1.69187, -1.2264, -1.53888, -0.900121, -1.19216, 1.22859, -1.30263, 0.0208227, -0.00259499, -0.00382397, 0.00636507, -0.0167886, 0.0113082, 0.000933483, 4.02259, 60.3198, 29.1666, 4.82758, 1.66369, 3.7186, -0.0420422, 0.000405192, -0.00133679, 0.00105577, 0.00105346, 7.09752e-05, 0.00018962, 0.0229136, -0.0154304, -0.00999384, -0.0119103, 0.0330896, -0.0130182, 0.470896, -0.542978, 0.336106, -2.08354, -2.16607, -0.129574, 0.469508, -0.54247, 0.335167, -2.08315, -2.16541, -0.128457, -0.00621258, 0.0229689, 0.0118049, 0.00965956, 0.00252004, -0.00208492
0.0661167, 1.6919, -1.22641, -1.53889, -0.900124, -1.19217, 1.2286, -1.30263, 0.0224237, -0.00410181, -0.00425452, 0.00362776, -0.0127828, 0.00947257, 0.000386313, 4.02259, 60.4309, 29.238, 4.86725, 1.66919, 3.69021, -0.0356336, 0.00038829, -0.00131467, 0.0010718, 0.00104997, 6.72252e-05, 0.000175247, 0.0215096, -0.0172, -0.0119338, -0.0140404, 0.0282767, -0.00801592, 0.470889, -0.542955, 0.336118, -2.08352, -2.16608, -0.129557, 0.469523, -0.542461, 0.335159, -2.08312, -2.16544, -0.128441, -0.0064267, 0.0237778, 0.012219, 0.0110919, 0.00508648, -0.0034223
0.0671167, 1.69192, -1.22642, -1.53888, -0.900124, -1.19218, 1.22861, -1.30263, 0.0184386, -0.00507021, -0.000263965, 0.0018176, -0.00979947, 0.00751954, -0.000216163, 4.09797, 60.538, 29.1269, 4.90295, 1.6756, 3.67557, -0.0228162, 0.000369103, -0.00129354, 0.00108402, 0.00103235, 6.37889e-05, 0.000168093, 0.0220922, -0.0162623, -0.0115822, -0.0115362, 0.0242479, -0.00751983, 0.470883, -0.542931, 0.33613, -2.0835, -2.16609, -0.129539, 0.469538, -0.542453, 0.335156, -2.08311, -2.16547, -0.12844, -0.00664368, 0.0245986, 0.0126391, 0.00997233, 0.00523951, -0.00271706
0.0681167, 1.69195, -1.22641, -1.53889, -0.900118, -1.19219, 1.22862, -1.30263, 0.0204716, -0.00241744, -0.00195877, 0.0031507, -0.00639762, 0.0055095, -0.000380708, 4.09797, 60.5023, 29.2023, 4.82758, 1.65088, 3.67557, -0.0164075, 0.000348916, -0.00127362, 0.00109288, 0.00102445, 5.03572e-05, 0.000166711, 0.0217005, -0.016972, -0.011008, -0.0129975, 0.0237419, -0.00694136, 0.470876, -0.542906, 0.336143, -2.08349, -2.16611, -0.12952, 0.469552, -0.542446, 0.335156, -2.0831, -2.1655, -0.128417, -0.00686349, 0.0254311, 0.0130651, 0.0104682, 0.0063999, -0.00168491
0.0691167, 1.69197, -1.22642, -1.53889, -0.900123, -1.19221, 1.22863, -1.30263, 0.0201176, -0.00411447, -0.00132051, 0.000469022, -0.0093284, 0.00819056, -0.000490595, 4.17335, 60.6134, 29.2023, 4.90295, 1.64447, 3.69021, -0.00999879, 0.000328225, -0.00125297, 0.00110798, 0.00101717, 4.55325e-05, 0.00015889, 0.0228572, -0.0178763, -0.0121849, -0.0131989, 0.0265434, -0.00618941, 0.470869, -0.542881, 0.336156, -2.08347, -2.16612, -0.129501, 0.469566, -0.542438, 0.33515, -2.08308, -2.16553, -0.128402, -0.00708609, 0.0262753, 0.013497, 0.0111478, 0.00632053, -0.00262198
0.0701167, 1.692, -1.22642, -1.5389, -0.900123, -1.19222, 1.22864, -1.30263, 0.0223552, -0.00183605, -0.00265458, 0.000411529, -0.0108385, 0.0106545, 0.000148082, 4.13764, 60.5777, 29.2777, 4.90295, 1.62067, 3.69754, -0.0228162, 0.000308404, -0.00123086, 0.00112038, 0.00101078, 3.79755e-05, 0.000153394, 0.0233852, -0.0193518, -0.0115207, -0.0134777, 0.0320204, -0.00647801, 0.470862, -0.542854, 0.336169, -2.08345, -2.16613, -0.129481, 0.469581, -0.542429, 0.335148, -2.08306, -2.16555, -0.128382, -0.00731145, 0.027131, 0.0139346, 0.0124394, 0.00661395, -0.00165524
0.0711167, 1.69203, -1.22642, -1.5389, -0.90012, -1.19223, 1.22866, -1.30263, 0.0271877, -0.00284069, -0.00315549, 0.00118371, -0.00752656, 0.0085476, 9.90419e-05, 4.09797, 60.6491, 29.2023, 4.86725, 1.60144, 3.68289, -0.0228162, 0.000288508, -0.00120564, 0.00113098, 0.000991237, 3.08927e-05, 0.000143079, 0.0217255, -0.0220137, -0.0129163, -0.0150413, 0.0279776, -0.0021772, 0.470855, -0.542827, 0.336183, -2.08343, -2.16615, -0.129461, 0.469599, -0.542418, 0.335148, -2.08304, -2.16559, -0.128377, -0.00753952, 0.0279981, 0.014378, 0.0147592, 0.00944422, -0.00241354
0.0721167, 1.69206, -1.22642, -1.53891, -0.90012, -1.19224, 1.22867, -1.30263, 0.029866, -0.00101824, -0.00413482, 0.000844739, -0.00601479, 0.0113358, 6.62682e-05, 4.09797, 60.6134, 29.2777, 4.86725, 1.60785, 3.67557, -0.0228162, 0.000265898, -0.00118347, 0.00114365, 0.000983978, 2.02167e-05, 0.000138514, 0.0214035, -0.0242745, -0.0124357, -0.013569, 0.0307162, 6.07105e-05, 0.470847, -0.542799, 0.336197, -2.08341, -2.16616, -0.12944, 0.469614, -0.54241, 0.335145, -2.08303, -2.16562, -0.128354, -0.00777026, 0.0288765, 0.0148271, 0.0167923, 0.0106603, -0.00150876
0.0731167, 1.6921, -1.22643, -1.53891, -0.900123, -1.19225, 1.22868, -1.30263, 0.032138, -0.00324703, -0.00202946, 0.00060486, -0.0100722, 0.0123019, -0.000701626, 3.94721, 60.7245, 29.238, 4.86725, 1.62616, 3.69754, -0.00267457, 0.000248551, -0.00115325, 0.001158, 0.000973062, 1.41115e-05, 0.000119114, 0.0219559, -0.0259434, -0.0133693, -0.0138115, 0.0328643, 0.00222772, 0.47084, -0.54277, 0.336212, -2.08339, -2.16618, -0.129418, 0.469637, -0.542395, 0.335142, -2.08299, -2.16566, -0.12834, -0.00800365, 0.0297661, 0.0152818, 0.0182117, 0.0112173, -0.00211246
0.0741167, 1.69212, -1.22643, -1.53892, -0.900121, -1.19227, 1.22869, -1.30263, 0.0283903, -0.00214199, -0.00736415, 0.000434516, -0.0129315, 0.0142278, 4.10107e-05, 4.02259, 60.7245, 29.3531, 4.86725, 1.64447, 3.69021, -0.0164075, 0.000221115, -0.00113355, 0.00117255, 0.000968047, 2.95262e-06, 0.000121618, 0.0263114, -0.0231624, -0.0145764, -0.0179243, 0.0381254, -0.00636788, 0.470832, -0.542741, 0.336228, -2.08336, -2.16619, -0.129396, 0.469649, -0.542389, 0.335138, -2.08298, -2.16569, -0.128311, -0.00823965, 0.0306668, 0.015742, 0.0153119, 0.00788918, -0.0034351
0.0751167, 1.69212, -1.22643, -1.53892, -0.900121, -1.19227, 1.22869, -1.30263, 0.0283903, -0.00214199, -0.00736415, 0.000434516, -0.0129315, 0.0142278, 4.10107e-05, 4.02259, 60.7245, 29.3531, 4.86725, 1.64447, 3.69021, -0.0164075, 0.000188122, -0.00112609, 0.0011831, 0.000952321, 1.0235e-05, 0.000138762, 0.0272926, -0.0233769, -0.0148873, -0.0183121, 0.0387539, -0.00713388, 0.470823, -0.54271, 0.336243, -2.08334, -2.16621, -0.129373, 0.469649, -0.542389, 0.335138, -2.08298, -2.16569, -0.128311, -0.00847821, 0.0315785, 0.0162078, 0.0153119, 0.00788918, -0.0034351
0.0761167, 1.69216, -1.22644, -1.53892, -0.900121, -1.19228, 1.2287, -1.30263, 0.0332232, -0.00484465, -0.00528656, 0.000313134, -0.015459, 0.0153772, 0.000264801, 3.90754, 60.8713, 29.3531, 4.86725, 1.6756, 3.69021, -0.0228162, 0.000164897, -0.00109704, 0.00120195, 0.000940599, 8.87774e-06, 0.000129086, 0.0265452, -0.0266727, -0.0162219, -0.0180993, 0.0393607, -0.00305173, 0.470815, -0.542678, 0.33626, -2.08332, -2.16623, -0.129349, 0.46967, -0.542376, 0.335132, -2.08296, -2.16572, -0.1283, -0.0087193, 0.0325011, 0.016679, 0.0182868, 0.00989149, -0.00426628
0.0771167, 1.69216, -1.22644, -1.53892, -0.900121, -1.19228, 1.2287, -1.30263, 0.0332232, -0.00484465, -0.00528656, 0.000313134, -0.015459, 0.0153772, 0.000264801, 3.90754, 60.8713, 29.3531, 4.86725, 1.6756, 3.69021, -0.0228162, 0.000129932, -0.00108914, 0.00121312, 0.000923936, 1.65785e-05, 0.000147237, 0.0275497, -0.0268917, -0.0165399, -0.018495, 0.0400036, -0.00383479, 0.470806, -0.542646, 0.336276, -2.08329, -2.16625, -0.129324, 0.46967, -0.542376, 0.335132, -2.08296, -2.16572, -0.1283, -0.00896288, 0.0334345, 0.0171556, 0.0182868, 0.00989149, -0.00426628
0.0781167, 1.69216, -1.22644, -1.53892, -0.900121, -1.19228, 1.2287, -1.30263, 0.0332232, -0.00484465, -0.00528656, 0.000313134, -0.015459, 0.0153772, 0.000264801, 3.90754, 60.8713, 29.3531, 4.86725, 1.6756, 3.69021, -0.0228162, 9.39632e-05, -0.00108103, 0.00122462, 0.000906796, 2.44915e-05, 0.000165899, 0.0285657, -0.0271127, -0.0168614, -0.0188946, 0.0406536, -0.00462623, 0.470797, -0.542612, 0.336293, -2.08327, -2.16626, -0.129299, 0.46967, -0.542376, 0.335132, -2.08296, -2.16572, -0.1283, -0.00920893, 0.0343785, 0.0176375, 0.0182868, 0.00989149, -0.00426628
0.0791167, 1.69231, -1.22646, -1.53895, -0.90012, -1.19234, 1.22876, -1.30262, 0.0368298, -0.00619754, -0.00693429, -0.000583287, -0.0200465, 0.0185399, 0.000254609, 3.75678, 61.1292, 29.5752, 4.86725, 1.79828, 3.65451, -0.0292249, 9.64648e-05, -0.000991786, 0.00126295, 0.000915457, -2.34719e-05, 7.55003e-05, 0.0294304, -0.0293557, -0.0186009, -0.0212259, 0.04558, -0.00337263, 0.470788, -0.542578, 0.336311, -2.08324, -2.16628, -0.129273, 0.469748, -0.54233, 0.335109, -2.08285, -2.16586, -0.128225, -0.00945739, 0.0353331, 0.0181247, 0.0202464, 0.0103531, -0.00569927
0.0801167, 1.69234, -1.22646, -1.53895, -0.900123, -1.19235, 1.22877, -1.30262, 0.0399554, -0.00412766, -0.00402243, -0.00121851, -0.0206109, 0.0182873, 0.000644482, 3.75678, 61.1292, 29.5395, 4.90295, 1.82941, 3.66092, -0.0420422, 6.9596e-05, -0.00096343, 0.00127542, 0.000898906, -3.60979e-05, 6.70967e-05, 0.0281756, -0.031841, -0.0169549, -0.020183, 0.0486072, 0.000247067, 0.470779, -0.542543, 0.336329, -2.08322, -2.1663, -0.129247, 0.469767, -0.542318, 0.33511, -2.08283, -2.1659, -0.128205, -0.00970824, 0.0362982, 0.0186171, 0.0224924, 0.0124075, -0.00346303
0.0811167, 1.69238, -1.22647, -1.53896, -0.900123, -1.19236, 1.22879, -1.30263, 0.0407294, -0.00441918, -0.00766524, -0.000808165, -0.0201373, 0.0179329, -0.000519763, 3.6814, 61.2006, 29.611, 4.90295, 1.8349, 3.67557, -0.0164075, 4.28131e-05, -0.000931236, 0.00129741, 0.000893892, -4.06325e-05, 5.15357e-05, 0.0296577, -0.0317635, -0.0187646, -0.0238157, 0.0486476, -0.000588013, 0.470769, -0.542506, 0.336348, -2.08319, -2.16632, -0.12922, 0.46979, -0.542303, 0.335102, -2.0828, -2.16594, -0.128181, -0.00996144, 0.0372736, 0.0191147, 0.0221497, 0.0121952, -0.00498005
0.0821167, 1.69243, -1.22647, -1.53897, -0.900118, -1.19238, 1.2288, -1.30263, 0.0415644, -0.00210863, -0.00643167, 0.00122759, -0.0200762, 0.0176189, -0.00109248, 3.60603, 61.1649, 29.6506, 4.82758, 1.84772, 3.69021, 0.00373412, 1.48737e-05, -0.00089958, 0.00131214, 0.000881485, -5.40146e-05, 4.02049e-05, 0.0304309, -0.0321305, -0.017094, -0.0223649, 0.0511886, -0.00122424, 0.470759, -0.542469, 0.336367, -2.08316, -2.16634, -0.129192, 0.469812, -0.54229, 0.335101, -2.08277, -2.16598, -0.128154, -0.010217, 0.0382593, 0.0196175, 0.02235, 0.0121765, -0.00295903
0.0831167, 1.69246, -1.22646, -1.53898, -0.90012, -1.19239, 1.22882, -1.30262, 0.0361163, -0.000568831, -0.00774464, -0.000107277, -0.0153347, 0.0130042, 0.000492393, 3.6457, 61.1292, 29.6506, 4.86725, 1.85962, 3.69754, -0.0292249, -1.50874e-05, -0.000869567, 0.00132623, 0.000866458, -6.97632e-05, 3.56534e-05, 0.0322352, -0.0290334, -0.0172994, -0.0253944, 0.0472757, -0.00692346, 0.470749, -0.542431, 0.336386, -2.08313, -2.16636, -0.129163, 0.469832, -0.542278, 0.335101, -2.08275, -2.16602, -0.128127, -0.0104747, 0.0392552, 0.0201252, 0.0190575, 0.0112947, -0.00283936
0.0841167, 1.69251, -1.22646, -1.53899, -0.900123, -1.19241, 1.22883, -1.30263, 0.0383308, 0.000457275, -0.011259, -0.000904974, -0.0164262, 0.0140049, -0.00184187, 3.57032, 61.0934, 29.7617, 4.90295, 1.86603, 3.71127, 0.0293689, -4.43769e-05, -0.000836672, 0.00134574, 0.000861496, -8.24512e-05, 2.06544e-05, 0.0330517, -0.03011, -0.0184232, -0.0291641, 0.0507426, -0.00461789, 0.470738, -0.542392, 0.336407, -2.0831, -2.16638, -0.129134, 0.469855, -0.542263, 0.335096, -2.08272, -2.16607, -0.128091, -0.0107348, 0.0402611, 0.020638, 0.0198615, 0.0117124, -0.00359602
0.0851167, 1.69255, -1.22647, -1.53901, -0.900125, -1.19242, 1.22884, -1.30262, 0.0397385, -0.00219985, -0.0129334, -0.000601995, -0.017324, 0.0147207, 0.000704873, 3.49494, 61.2006, 29.8371, 4.90295, 1.87793, 3.72592, -0.0228162, -7.45358e-05, -0.00080245, 0.00136951, 0.000857471, -8.86581e-05, 1.12996e-05, 0.03446, -0.030851, -0.020892, -0.0311463, 0.0500082, -0.00794456, 0.470727, -0.542351, 0.336427, -2.08308, -2.1664, -0.129103, 0.469879, -0.542248, 0.335088, -2.08268, -2.1661, -0.12806, -0.010997, 0.0412769, 0.0211557, 0.0203004, 0.0117487, -0.00575717
0.0861167, 1.69259, -1.22647, -1.53902, -0.900123, -1.19244, 1.22886, -1.30263, 0.0420542, -0.00146584, -0.0133306, 0.000434878, -0.0187431, 0.0163468, -4.79843e-06, 3.49494, 61.2006, 29.8728, 4.86725, 1.90906, 3.71127, -0.00999879, -0.000108783, -0.000770943, 0.00138803, 0.000846391, -0.000103917, 4.65911e-06, 0.0353053, -0.0322098, -0.0207844, -0.0309748, 0.0534155, -0.00738939, 0.470716, -0.54231, 0.336448, -2.08304, -2.16642, -0.129072, 0.4699, -0.542236, 0.335085, -2.08266, -2.16615, -0.128027, -0.0112614, 0.0423026, 0.0216783, 0.0214279, 0.0119803, -0.00530113
0.0871167, 1.69264, -1.22647, -1.53903, -0.900131, -1.19246, 1.22887, -1.30262, 0.0435256, -0.00273993, -0.0135664, -0.00230779, -0.0194973, 0.0173626, 0.000234163, 3.37989, 61.2759, 29.9085, 4.97833, 1.93378, 3.70395, -0.0164075, -0.000139609, -0.000735281, 0.00141348, 0.000844129, -0.000109565, -8.55923e-06, 0.0353756, -0.0339692, -0.0223363, -0.0327198, 0.0542778, -0.00497871, 0.470705, -0.542268, 0.33647, -2.08301, -2.16645, -0.129041, 0.469924, -0.542219, 0.335075, -2.08262, -2.16619, -0.127993, -0.011528, 0.0433381, 0.0222057, 0.0228644, 0.0132586, -0.00637116
0.0881167, 1.69268, -1.22647, -1.53904, -0.900131, -1.19247, 1.22889, -1.30263, 0.040779, -0.00182621, -0.0129483, -0.00153797, -0.0199645, 0.013523, -0.00106459, 3.41956, 61.2759, 29.9085, 4.97833, 1.95758, 3.69021, 0.0165515, -0.000176403, -0.000703344, 0.00143335, 0.00083058, -0.000123632, -1.49418e-05, 0.0374259, -0.0318335, -0.0220219, -0.0353024, 0.0541948, -0.00781154, 0.470694, -0.542224, 0.336492, -2.08298, -2.16647, -0.129008, 0.469945, -0.542208, 0.335071, -2.08259, -2.16623, -0.127962, -0.0117966, 0.0443832, 0.0227379, 0.0205495, 0.012143, -0.0057811
0.0891167, 1.69273, -1.22648, -1.53905, -0.900129, -1.19249, 1.22891, -1.30262, 0.0424703, -0.00381563, -0.0126537, -0.0010249, -0.0194694, 0.0153196, 0.000985695, 3.30451, 61.387, 29.9085, 4.97833, 1.95758, 3.67557, -0.0292249, -0.000210821, -0.000665843, 0.00145777, 0.000817864, -0.000129992, -2.14154e-05, 0.0381756, -0.0333827, -0.0233038, -0.0338766, 0.053407, -0.00917301, 0.470682, -0.54218, 0.336515, -2.08295, -2.16649, -0.128975, 0.469971, -0.542192, 0.335063, -2.08256, -2.16627, -0.127937, -0.0120673, 0.0454378, 0.0232748, 0.0218066, 0.0127195, -0.00667387
0.0901167, 1.69278, -1.22648, -1.53907, -0.900136, -1.19251, 1.22892, -1.30262, 0.0413752, -0.00337874, -0.0142983, -0.00244619, -0.0200842, 0.0163941, 0.00089449, 3.15376, 61.4227, 29.9839, 5.05371, 1.9823, 3.66824, -0.0356336, -0.000243405, -0.000626912, 0.0014828, 0.000818591, -0.00014362, -3.8477e-05, 0.039919, -0.0331595, -0.0240367, -0.0355783, 0.0558029, -0.0108068, 0.47067, -0.542135, 0.336538, -2.08291, -2.16652, -0.128941, 0.469998, -0.542173, 0.335056, -2.08252, -2.16632, -0.12789, -0.0123401, 0.0465019, 0.0238164, 0.021348, 0.0121664, -0.00711953
0.0911167, 1.69282, -1.22649, -1.53908, -0.900139, -1.19253, 1.22893, -1.30262, 0.0408326, -0.00401556, -0.0128175, -0.00246578, -0.0200841, 0.0116792, 0.00134231, 3.11805, 61.4981, 29.9482, 5.08942, 1.99512, 3.68289, -0.0557752, -0.000280452, -0.000592086, 0.00150561, 0.000810797, -0.000154406, -4.53273e-05, 0.0405695, -0.0325146, -0.0246385, -0.0388059, 0.0534604, -0.0119411, 0.470657, -0.542088, 0.336562, -2.08288, -2.16654, -0.128906, 0.470021, -0.542158, 0.33505, -2.08249, -2.16636, -0.127854, -0.0126148, 0.0475753, 0.0243626, 0.0204312, 0.0126637, -0.0072488
0.0921167, 1.69287, -1.22649, -1.53909, -0.900139, -1.19256, 1.22894, -1.30262, 0.0454421, -0.00267691, -0.0103652, -0.00164367, -0.0200527, 0.00848415, -0.000800545, 3.003, 61.4981, 29.9839, 5.08942, 2.00702, 3.69021, -0.00999879, -0.000319879, -0.000557854, 0.00152839, 0.000810623, -0.000173389, -5.48941e-05, 0.0389544, -0.0349899, -0.023757, -0.040084, 0.05384, -0.00569895, 0.470645, -0.542041, 0.336586, -2.08285, -2.16657, -0.128871, 0.470043, -0.542145, 0.335045, -2.08245, -2.16641, -0.1278, -0.0128915, 0.048658, 0.0249134, 0.0226004, 0.0153096, -0.00565364
0.0931167, 1.69292, -1.22648, -1.53911, -0.900145, -1.19258, 1.22896, -1.30262, 0.047753, 0.000813942, -0.0116264, -0.00285889, -0.0199301, 0.0110745, 0.00041574, 2.92762, 61.387, 30.0236, 5.16479, 2.01343, 3.69021, -0.0356336, -0.000358215, -0.000521101, 0.00154679, 0.000802396, -0.000198976, -6.14166e-05, 0.0389197, -0.0370081, -0.0225847, -0.0399713, 0.0595054, -0.00510179, 0.470632, -0.541992, 0.336611, -2.08281, -2.16659, -0.128834, 0.470068, -0.54213, 0.335045, -2.08243, -2.16646, -0.127748, -0.0131701, 0.0497497, 0.0254687, 0.0243795, 0.0163407, -0.00399773
0.0941167, 1.69297, -1.22648, -1.53912, -0.90015, -1.1926, 1.22897, -1.30262, 0.0512405, -0.000292518, -0.00939431, -0.00366906, -0.0195336, 0.0123423, -0.000197558, 2.77686, 61.4227, 30.0593, 5.24017, 2.01343, 3.71127, -0.0228162, -0.000395783, -0.00048129, 0.00157198, 0.000798203, -0.000213083, -7.7599e-05, 0.0380061, -0.0400855, -0.0229993, -0.0382053, 0.0594917, -1.96248e-05, 0.470619, -0.541942, 0.336637, -2.08277, -2.16662, -0.128797, 0.470095, -0.542112, 0.335038, -2.08238, -2.16651, -0.127703, -0.0134506, 0.0508506, 0.0260284, 0.0271241, 0.0185367, -0.0038009
0.0951167, 1.69302, -1.22649, -1.53913, -0.900152, -1.19263, 1.22898, -1.30262, 0.0499892, -0.00279341, -0.0109715, -0.00328119, -0.0192788, 0.00905931, 0.000580372, 2.66181, 61.5338, 30.095, 5.27588, 2.01343, 3.7186, -0.0420422, -0.000436919, -0.000444509, 0.00160134, 0.000798867, -0.000219278, -8.37268e-05, 0.0400422, -0.0387455, -0.0255732, -0.0426087, 0.0559555, -0.00391925, 0.470605, -0.541891, 0.336663, -2.08274, -2.16665, -0.128759, 0.470118, -0.542095, 0.335028, -2.08234, -2.16655, -0.127658, -0.013733, 0.0519604, 0.0265925, 0.0254836, 0.0179764, -0.00605305
0.0961167, 1.69307, -1.22648, -1.53913, -0.900158, -1.19265, 1.22899, -1.30262, 0.0480192, 0.00157144, -0.00544277, -0.00395064, -0.0184267, 0.0115248, -0.000562521, 2.58643, 61.387, 29.9839, 5.35126, 1.99512, 3.7186, -0.0164075, -0.000475826, -0.000405529, 0.00161533, 0.00078248, -0.000246047, -9.66949e-05, 0.0404467, -0.0394818, -0.0211999, -0.0353417, 0.0612267, -0.00219442, 0.470592, -0.541839, 0.33669, -2.0827, -2.16667, -0.128721, 0.470145, -0.542078, 0.335033, -2.08231, -2.16661, -0.127612, -0.0140172, 0.053079, 0.027161, 0.0261112, 0.018056, -0.00125185
0.0971167, 1.69312, -1.22648, -1.53914, -0.900165, -1.19268, 1.229, -1.30262, 0.048347, 0.000212438, -0.0082339, -0.00439696, -0.023697, 0.0185329, 0.00477825, 2.43568, 61.4227, 30.0236, 5.42664, 2.00702, 3.70395, -0.0292249, -0.00051717, -0.00036516, 0.00164055, 0.000780479, -0.000266707, -0.000110432, 0.0438616, -0.0402433, -0.0228321, -0.0349847, 0.0686558, -0.0108318, 0.470578, -0.541786, 0.336717, -2.08266, -2.1667, -0.128681, 0.470171, -0.54206, 0.335028, -2.08227, -2.16666, -0.127555, -0.0143032, 0.0542063, 0.0277337, 0.0266513, 0.0160955, -0.00284346
0.0981167, 1.69317, -1.22648, -1.53916, -0.90017, -1.19271, 1.22901, -1.30262, 0.0516764, 0.000976866, -0.0120429, -0.0068709, -0.023092, 0.0130726, 0.00381274, 2.28492, 61.387, 30.1346, 5.46234, 2.02533, 3.72592, -0.0356336, -0.000560409, -0.000326618, 0.00166536, 0.000784118, -0.000289272, -0.000115879, 0.0429029, -0.0413052, -0.0251145, -0.0448715, 0.0675648, -0.00699447, 0.470563, -0.541732, 0.336744, -2.08262, -2.16673, -0.128641, 0.470196, -0.542043, 0.335023, -2.08223, -2.16671, -0.127488, -0.0145909, 0.0553423, 0.0283107, 0.0273051, 0.0185739, -0.004405
0.0991167, 1.69322, -1.22648, -1.53916, -0.900182, -1.19274, 1.22902, -1.30261, 0.0530066, -0.00194719, -0.00787677, -0.00836575, -0.0265452, 0.00959212, 0.00330895, 2.17384, 61.4981, 30.095, 5.6131, 2.01984, 3.73324, -0.0484509, -0.00060237, -0.000285306, 0.00169224, 0.000778167, -0.000301286, -0.000130775, 0.042828, -0.0424043, -0.0263241, -0.0474926, 0.0664413, -0.0039124, 0.470549, -0.541677, 0.336773, -2.08258, -2.16676, -0.128599, 0.470223, -0.542024, 0.335017, -2.08219, -2.16676, -0.127443, -0.0148804, 0.0564869, 0.0288918, 0.0280663, 0.0200252, -0.00504116
0.100117, 1.69327, -1.22647, -1.53917, -0.900184, -1.19277, 1.22903, -1.30262, 0.0510989, 0.000465121, -0.00499811, -0.00577118, -0.0294837, 0.00698474, 1.77764e-05, 2.05878, 61.4227, 30.0593, 5.6131, 2.02533, 3.74057, 0.0165515, -0.000647379, -0.00024608, 0.00171156, 0.000767147, -0.000324695, -0.00014575, 0.0451689, -0.0406673, -0.0240449, -0.0473523, 0.0702715, -0.00537149, 0.470534, -0.54162, 0.336802, -2.08254, -2.16679, -0.128557, 0.470249, -0.542007, 0.335019, -2.08215, -2.16683, -0.127391, -0.0151716, 0.0576399, 0.0294771, 0.0262114, 0.0184455, -0.00251448
0.101117, 1.69332, -1.22647, -1.53918, -0.900195, -1.1928, 1.22903, -1.30262, 0.0519664, -0.000525128, -0.00636713, -0.00659141, -0.0312405, 0.00506507, 0.00163439, 1.98341, 61.4584, 30.1703, 5.72418, 2.01984, 3.74698, -0.0228162, -0.000694697, -0.000208337, 0.00173908, 0.000770262, -0.000342931, -0.000148888, 0.0463148, -0.0408263, -0.025832, -0.0521166, 0.0707539, -0.00759831, 0.470519, -0.541563, 0.336831, -2.08249, -2.16682, -0.128514, 0.470272, -0.54199, 0.335013, -2.08211, -2.16687, -0.127327, -0.0154644, 0.0588012, 0.0300665, 0.0260541, 0.0187575, -0.00387253
0.102117, 1.69337, -1.22648, -1.53918, -0.900201, -1.19283, 1.22904, -1.30261, 0.0513775, -0.0012781, -0.00280897, -0.00543142, -0.0334011, 0.00358991, 0.00145031, 1.83265, 61.4981, 30.095, 5.76385, 2.03174, 3.7543, -0.0292249, -0.000739492, -0.000166155, 0.00176288, 0.000760249, -0.000357201, -0.000159583, 0.0477822, -0.040625, -0.0253454, -0.0511915, 0.0714882, -0.00897297, 0.470503, -0.541504, 0.336861, -2.08245, -2.16685, -0.128471, 0.470299, -0.54197, 0.335011, -2.08207, -2.16692, -0.127281, -0.0157588, 0.0599708, 0.0306599, 0.0256313, 0.0183964, -0.00301999
0.103117, 1.69342, -1.22647, -1.53918, -0.900209, -1.19287, 1.22904, -1.30261, 0.0475538, 7.59601e-05, -0.00211824, -0.00537323, -0.0296912, 0.00221408, 0.00177147, 1.68189, 61.4584, 30.095, 5.83527, 2.03174, 3.76895, -0.0484509, -0.000786089, -0.000125404, 0.00178546, 0.000754149, -0.000376962, -0.000168356, 0.0496157, -0.038992, -0.0246167, -0.0498018, 0.0697492, -0.0125396, 0.470487, -0.541444, 0.336892, -2.08241, -2.16688, -0.128426, 0.470325, -0.541951, 0.335011, -2.08203, -2.16698, -0.127224, -0.0160548, 0.0611486, 0.0312573, 0.0237999, 0.0175845, -0.00193673
0.104117, 1.69347, -1.22647, -1.53918, -0.90022, -1.1929, 1.22904, -1.30261, 0.0520196, -0.000877376, -0.00252437, -0.0063348, -0.0276101, 0.00256236, -0.000445049, 1.49146, 61.4981, 30.1346, 5.95032, 2.05005, 3.74698, -0.00267457, -0.000832859, -8.26194e-05, 0.00181172, 0.000750442, -0.000393414, -0.000188456, 0.0484189, -0.0422207, -0.0260566, -0.0505942, 0.0683223, -0.00552552, 0.470471, -0.541383, 0.336923, -2.08236, -2.16691, -0.128381, 0.470352, -0.54193, 0.335008, -2.08197, -2.16704, -0.127168, -0.0163524, 0.0623344, 0.0318586, 0.0266299, 0.0203099, -0.00267251
0.105117, 1.69352, -1.22648, -1.53918, -0.900226, -1.19293, 1.22905, -1.30261, 0.0494025, -0.00318337, -0.00182106, -0.00510446, -0.0295745, 0.00137009, 0.000738687, 1.41608, 61.6092, 30.1346, 5.98602, 2.03815, 3.76163, -0.0292249, -0.000885618, -4.36549e-05, 0.00183866, 0.00074018, -0.000406824, -0.000190026, 0.0515656, -0.0404706, -0.0273628, -0.0516191, 0.0676195, -0.011628, 0.470455, -0.54132, 0.336955, -2.08231, -2.16694, -0.128334, 0.470376, -0.541914, 0.335004, -2.08194, -2.16709, -0.127119, -0.0166515, 0.0635282, 0.0324637, 0.0246515, 0.0185248, -0.00379036
0.106117, 1.69357, -1.22647, -1.53918, -0.900234, -1.19297, 1.22905, -1.30261, 0.0499574, 0.00186363, -0.00215287, -0.00738569, -0.0268314, 0.00133794, 0.00100621, 1.22962, 61.5695, 30.1703, 6.02173, 2.03815, 3.7543, -0.0420422, -0.000933812, -5.21009e-07, 0.00186101, 0.000735739, -0.000428478, -0.000199139, 0.0509814, -0.0417086, -0.0252681, -0.0518903, 0.0714402, -0.0096692, 0.470438, -0.541257, 0.336987, -2.08227, -2.16698, -0.128287, 0.470403, -0.541893, 0.335005, -2.08189, -2.16714, -0.127056, -0.0169521, 0.0647298, 0.0330727, 0.0256443, 0.0200354, -0.00106142
0.107117, 1.69357, -1.22647, -1.53918, -0.900234, -1.19297, 1.22905, -1.30261, 0.0499574, 0.00186363, -0.00215287, -0.00738569, -0.0268314, 0.00133794, 0.00100621, 1.22962, 61.5695, 30.1703, 6.02173, 2.03815, 3.7543, -0.0420422, -0.00100344, 1.47281e-05, 0.00188313, 0.000702674, -0.000413673, -0.000163564, 0.0522825, -0.0419771, -0.0256758, -0.0523784, 0.0722606, -0.0106601, 0.470421, -0.541192, 0.337021, -2.08222, -2.16701, -0.128239, 0.470403, -0.541893, 0.335005, -2.08189, -2.16714, -0.127056, -0.0172541, 0.0659392, 0.0336855, 0.0256443, 0.0200354, -0.00106142
0.108117, 1.69362, -1.22647, -1.53918, -0.900245, -1.193, 1.22905, -1.30261, 0.0505742, 0.00233246, -0.00151295, -0.0102651, -0.0292824, 0.00178682, 0.000700079, 1.03919, 61.5338, 30.1703, 6.09711, 2.03174, 3.73324, -0.0420422, -0.00105461, 5.78074e-05, 0.00190609, 0.000694728, -0.000434852, -0.000178471, 0.0528166, -0.0431453, -0.0259747, -0.0544841, 0.0760133, -0.00874148, 0.470404, -0.541126, 0.337054, -2.08217, -2.16705, -0.12819, 0.47043, -0.541872, 0.335007, -2.08184, -2.16721, -0.126996, -0.0175576, 0.0671563, 0.0343019, 0.026517, 0.0208216, -0.000859456
0.109117, 1.69372, -1.22646, -1.53918, -0.900271, -1.19307, 1.22905, -1.3026, 0.0528561, 0.000750587, -0.00217795, -0.0154526, -0.0324427, 0.00173009, 0.000579609, 0.737679, 61.5695, 30.206, 6.28357, 2.00702, 3.70395, -0.0420422, -0.00108924, 0.000125601, 0.00193537, 0.000721647, -0.000485229, -0.00023304, 0.0524854, -0.0453999, -0.0283942, -0.0600283, 0.0783992, -0.00417559, 0.470387, -0.541059, 0.337088, -2.08212, -2.16708, -0.12814, 0.47048, -0.541832, 0.335005, -2.08175, -2.16732, -0.126871, -0.0178624, 0.068381, 0.034922, 0.0283623, 0.0228412, -0.00264803
0.110117, 1.69376, -1.22646, -1.53918, -0.900282, -1.1931, 1.22905, -1.3026, 0.0476235, 0.00273652, -0.00148475, -0.0141914, -0.0336959, 0.0012019, 0.000161397, 0.626595, 61.6092, 30.206, 6.28357, 2.00061, 3.70395, -0.0356336, -0.00114585, 0.000166013, 0.00196092, 0.000714529, -0.000503703, -0.0002394, 0.0563714, -0.0423008, -0.0269959, -0.0593859, 0.0816564, -0.0111594, 0.470369, -0.54099, 0.337123, -2.08207, -2.16712, -0.128089, 0.470504, -0.541814, 0.335005, -2.0817, -2.16738, -0.12681, -0.0181686, 0.0696132, 0.0355458, 0.0251585, 0.0198924, -0.00114861
0.111117, 1.69381, -1.22646, -1.53918, -0.900294, -1.19314, 1.22905, -1.3026, 0.0445563, 0.00132448, -0.000179202, -0.0174067, -0.0338382, 0.00134627, 0.000354219, 0.475838, 61.6449, 30.1703, 6.32324, 1.97681, 3.69021, -0.0420422, -0.00120154, 0.000208517, 0.00198449, 0.000702862, -0.000522752, -0.000248392, 0.0580169, -0.0418367, -0.0280533, -0.0598537, 0.0813783, -0.0119712, 0.470351, -0.540921, 0.337159, -2.08202, -2.16715, -0.128038, 0.470529, -0.541794, 0.335007, -2.08166, -2.16744, -0.126753, -0.0184762, 0.0708527, 0.036173, 0.0244103, 0.0196511, -0.00180603
0.112117, 1.69385, -1.22645, -1.53918, -0.900311, -1.19317, 1.22905, -1.3026, 0.0415865, 0.00514142, -0.000137908, -0.017578, -0.0355916, 0.000924792, -0.000468984, 0.360787, 61.6092, 30.1703, 6.39465, 1.99512, 3.69021, -0.0228162, -0.00126074, 0.000247968, 0.00200885, 0.000697092, -0.000546073, -0.000252063, 0.0605618, -0.0401433, -0.0261215, -0.0608015, 0.0871706, -0.0155866, 0.470332, -0.54085, 0.337195, -2.08197, -2.16719, -0.127985, 0.470551, -0.541776, 0.335009, -2.08162, -2.16749, -0.126683, -0.018785, 0.0720996, 0.0368038, 0.0225784, 0.0180187, 0.000391225
0.113117, 1.6939, -1.22644, -1.53918, -0.900334, -1.19321, 1.22905, -1.3026, 0.0392922, 0.00388056, -0.000940987, -0.0187954, -0.0409166, 0.000365722, 0.000167272, 0.245735, 61.6092, 30.206, 6.5097, 1.99512, 3.69754, -0.0356336, -0.00131832, 0.000289633, 0.00203301, 0.000693461, -0.000570404, -0.000260404, 0.0638499, -0.038583, -0.027667, -0.0653003, 0.0909343, -0.020591, 0.470313, -0.540778, 0.337232, -2.08192, -2.16723, -0.127932, 0.470576, -0.541756, 0.335011, -2.08157, -2.16756, -0.12661, -0.0190951, 0.0733536, 0.0374381, 0.0207761, 0.0161982, -0.00096078
0.114117, 1.69394, -1.22643, -1.53918, -0.900352, -1.19324, 1.22905, -1.3026, 0.0416109, 0.00602996, -0.00240093, -0.0175872, -0.0393117, 0.000801695, 0.000861408, 0.0949785, 61.6092, 30.2814, 6.54541, 1.9704, 3.68289, -0.0557752, -0.00137862, 0.000331785, 0.00205863, 0.000689221, -0.000595522, -0.000264543, 0.0643628, -0.0398524, -0.0272607, -0.0655572, 0.0928895, -0.0212846, 0.470294, -0.540705, 0.337269, -2.08186, -2.16726, -0.127878, 0.4706, -0.541736, 0.335013, -2.08153, -2.16761, -0.126536, -0.0194064, 0.0746148, 0.0380757, 0.0217682, 0.016946, -4.11627e-05
0.115117, 1.69398, -1.22642, -1.53918, -0.90037, -1.19327, 1.22905, -1.3026, 0.0455802, 0.0100416, 0.000990053, -0.0169088, -0.03923, 0.00108851, -0.00138949, -0.0161054, 61.6449, 30.1703, 6.58508, 1.97681, 3.66824, -0.00267457, -0.00143979, 0.000372432, 0.00208046, 0.000674423, -0.000615754, -0.000276994, 0.0630936, -0.0427857, -0.0242132, -0.0627633, 0.0976615, -0.0151578, 0.470275, -0.54063, 0.337307, -2.08181, -2.1673, -0.127822, 0.470622, -0.541717, 0.335019, -2.08148, -2.16768, -0.126478, -0.0197189, 0.075883, 0.0387168, 0.0244533, 0.0191267, 0.00371339
0.116117, 1.69402, -1.2264, -1.53918, -0.900399, -1.1933, 1.22905, -1.30261, 0.0401115, 0.0124183, 0.00110278, -0.0213103, -0.0334224, 0.00124293, 0.0031763, -0.166862, 61.5695, 30.2814, 6.69617, 1.95758, 3.65451, 0.0165515, -0.00149895, 0.000416042, 0.00210322, 0.000669503, -0.000643007, -0.000292471, 0.0642077, -0.0416344, -0.0235189, -0.0613778, 0.0964181, -0.0203511, 0.470255, -0.540554, 0.337346, -2.08175, -2.16734, -0.127766, 0.470648, -0.541694, 0.335025, -2.08142, -2.16776, -0.126401, -0.0200326, 0.0771581, 0.0393611, 0.0230592, 0.0191479, 0.00490672
0.117117, 1.69406, -1.22639, -1.53918, -0.900423, -1.19333, 1.22905, -1.3026, 0.0419811, 0.00979879, 5.67084e-05, -0.022658, -0.0349334, 0.00110636, 0.00299494, -0.317619, 61.6806, 30.3211, 6.73187, 1.96399, 3.64718, 0.00373412, -0.00156312, 0.000457967, 0.00213124, 0.000663357, -0.000663373, -0.000294615, 0.0651038, -0.0429323, -0.0261552, -0.0647721, 0.0960884, -0.0191444, 0.470235, -0.540477, 0.337386, -2.0817, -2.16738, -0.127709, 0.470671, -0.541674, 0.335025, -2.08138, -2.16781, -0.12633, -0.0203474, 0.07844, 0.0400087, 0.0239766, 0.0200059, 0.00277149
0.118117, 1.6941, -1.22638, -1.53918, -0.90045, -1.19336, 1.22905, -1.3026, 0.0396812, 0.0147701, 0.00115298, -0.0238506, -0.0356376, 0.00155623, 0.00304463, -0.43267, 61.6449, 30.2814, 6.77154, 1.96399, 3.62521, -0.0164075, -0.00162648, 0.000500792, 0.00215209, 0.000647723, -0.000690466, -0.00030436, 0.0666475, -0.0422886, -0.0232841, -0.0640541, 0.10267, -0.021269, 0.470215, -0.540398, 0.337426, -2.08164, -2.16742, -0.127651, 0.470695, -0.541653, 0.335033, -2.08133, -2.16788, -0.126263, -0.0206634, 0.0797287, 0.0406595, 0.0231853, 0.0193047, 0.00603865
0.119117, 1.69414, -1.22637, -1.53918, -0.900477, -1.19339, 1.22905, -1.3026, 0.038678, 0.0157928, -0.000854214, -0.0239192, -0.0358795, 0.00127849, 0.00249363, -0.583427, 61.7163, 30.3568, 6.77154, 1.95758, 3.6188, -0.0228162, -0.00169257, 0.000542653, 0.0021785, 0.000639316, -0.000712057, -0.000307514, 0.0688059, -0.04157, -0.0238121, -0.0664678, 0.104725, -0.0237641, 0.470194, -0.540319, 0.337466, -2.08158, -2.16746, -0.127592, 0.470717, -0.541633, 0.335036, -2.08129, -2.16794, -0.126192, -0.0209804, 0.081024, 0.0413134, 0.0222137, 0.0185208, 0.00585985
0.120117, 1.69417, -1.22636, -1.53917, -0.900505, -1.19342, 1.22905, -1.3026, 0.0401591, 0.0134137, -0.0004642, -0.0271992, -0.0312091, 0.00112632, 0.000848959, -0.694511, 61.7917, 30.3568, 6.77154, 1.94568, 3.61148, 0.00373412, -0.00176009, 0.000583491, 0.00220561, 0.000628149, -0.000727533, -0.000318765, 0.0677757, -0.0440246, -0.0260538, -0.0665846, 0.0996407, -0.0170423, 0.470173, -0.540238, 0.337508, -2.08152, -2.1675, -0.127533, 0.470739, -0.541613, 0.335039, -2.08123, -2.16801, -0.12613, -0.0212984, 0.0823259, 0.0419705, 0.0242256, 0.0212898, 0.00438488
0.121117, 1.69421, -1.22634, -1.53918, -0.900538, -1.19344, 1.22905, -1.3026, 0.0422216, 0.0115827, -0.00199375, -0.0265993, -0.0279197, 0.0010242, 0.00143937, -0.845268, 61.8671, 30.4322, 6.77154, 1.93927, 3.60415, -0.0164075, -0.00182674, 0.000626786, 0.00223239, 0.000619809, -0.00074778, -0.000324208, 0.0682719, -0.0454454, -0.0281447, -0.0671821, 0.0960625, -0.0167786, 0.470152, -0.540155, 0.33755, -2.08146, -2.16755, -0.127472, 0.470762, -0.54159, 0.335043, -2.08118, -2.16807, -0.126059, -0.0216174, 0.0836343, 0.0426306, 0.025267, 0.0224911, 0.00285841
0.122117, 1.69423, -1.22633, -1.53917, -0.900575, -1.19347, 1.22905, -1.3026, 0.0357985, 0.00978813, -0.00126995, -0.0301397, -0.0255158, 0.00149814, 0.00152986, -0.920646, 61.9742, 30.4322, 6.80725, 1.93378, 3.58218, -0.0292249, -0.00189751, 0.000666965, 0.00225782, 0.000605652, -0.000770104, -0.000327221, 0.0710803, -0.0434324, -0.0295008, -0.0663763, 0.093485, -0.0199871, 0.47013, -0.540072, 0.337592, -2.0814, -2.16759, -0.12741, 0.470782, -0.541571, 0.335048, -2.08113, -2.16814, -0.12599, -0.0219375, 0.084949, 0.0432937, 0.0229931, 0.0211559, 0.00181153
0.123117, 1.69426, -1.22631, -1.53917, -0.900617, -1.19349, 1.22905, -1.3026, 0.0361105, 0.0142115, 0.00150332, -0.0305603, -0.0286979, 0.00123727, 0.00132894, -1.07537, 61.9742, 30.4679, 6.88263, 1.93378, 3.57577, -0.0356336, -0.00196443, 0.000711011, 0.0022802, 0.000592652, -0.0007959, -0.000340945, 0.0718462, -0.0439804, -0.0264572, -0.0660545, 0.101124, -0.0199945, 0.470108, -0.539987, 0.337635, -2.08134, -2.16763, -0.127348, 0.470806, -0.541547, 0.335058, -2.08108, -2.16822, -0.125917, -0.0222584, 0.08627, 0.0439598, 0.0233652, 0.02128, 0.00534719
0.124117, 1.69429, -1.22628, -1.53917, -0.900655, -1.19352, 1.22905, -1.3026, 0.0319541, 0.0172868, 0.00281544, -0.0343413, -0.0262254, 0.00109698, -0.000518352, -1.18645, 61.9742, 30.5433, 6.84296, 1.93378, 3.56845, 0.00373412, -0.00203616, 0.00075119, 0.00230296, 0.000580928, -0.000820814, -0.000346806, 0.0729316, -0.0432002, -0.0249515, -0.065295, 0.1031, -0.0186117, 0.470086, -0.5399, 0.337679, -2.08127, -2.16768, -0.127284, 0.470826, -0.541526, 0.335067, -2.08102, -2.16828, -0.125842, -0.0225803, 0.0875972, 0.0446288, 0.0223642, 0.0212734, 0.00735975
0.125117, 1.69431, -1.22627, -1.53917, -0.900698, -1.19354, 1.22906, -1.30259, 0.0281825, 0.0191516, 0.003737, -0.035133, -0.0246041, 0.00100323, 0.000203373, -1.26183, 62.1249, 30.6186, 6.84296, 1.93927, 3.56112, -0.00999879, -0.00211154, 0.000790461, 0.002331, 0.000565175, -0.000838243, -0.000347487, 0.075108, -0.0418356, -0.0238995, -0.0639755, 0.104368, -0.0224896, 0.470063, -0.539813, 0.337724, -2.08121, -2.16772, -0.127219, 0.470844, -0.541507, 0.335071, -2.08098, -2.16835, -0.125778, -0.0229031, 0.0889305, 0.0453006, 0.0208031, 0.0202398, 0.00877711
0.126117, 1.69434, -1.22625, -1.53916, -0.900749, -1.19356, 1.22906, -1.30259, 0.0270863, 0.0202257, 0.00617133, -0.0406245, -0.0233837, 0.00148311, 0.000640536, -1.41259, 62.1606, 30.6186, 6.91833, 1.94568, 3.53915, -0.0228162, -0.00218176, 0.000834354, 0.0023541, 0.000550169, -0.000862547, -0.000362119, 0.0746053, -0.0433628, -0.0235153, -0.0637322, 0.105867, -0.0187209, 0.47004, -0.539724, 0.337769, -2.08114, -2.16777, -0.127154, 0.470867, -0.541482, 0.335081, -2.08092, -2.16843, -0.125706, -0.0232267, 0.0902698, 0.0459753, 0.0220025, 0.0220843, 0.00986024
0.127117, 1.69436, -1.22622, -1.53916, -0.900799, -1.19358, 1.22906, -1.30259, 0.0254427, 0.024908, 0.00717231, -0.0429242, -0.017518, 0.00149773, 0.00068706, -1.52764, 62.1606, 30.6544, 6.91833, 1.94568, 3.52542, -0.0292249, -0.00225509, 0.000876076, 0.00237387, 0.000533472, -0.000892995, -0.00037447, 0.0742906, -0.0439873, -0.0210936, -0.0610845, 0.106721, -0.0171026, 0.470017, -0.539634, 0.337815, -2.08108, -2.16781, -0.127088, 0.470887, -0.541459, 0.335095, -2.08086, -2.16851, -0.125628, -0.0235512, 0.0916151, 0.0466527, 0.0223843, 0.0233986, 0.0129576
0.128117, 1.69438, -1.2262, -1.53916, -0.900859, -1.19359, 1.22906, -1.3026, 0.0250728, 0.0226657, 0.00299275, -0.0493859, -0.018067, 0.0015413, -0.000745656, -1.6784, 62.2717, 30.7654, 6.99371, 1.95209, 3.51077, 0.00373412, -0.00232786, 0.000920195, 0.00240112, 0.000524516, -0.00091633, -0.000393235, 0.0751833, -0.0447624, -0.0252187, -0.0686837, 0.106691, -0.0136124, 0.469994, -0.539542, 0.337862, -2.08101, -2.16786, -0.12702, 0.470909, -0.541433, 0.335102, -2.08079, -2.16859, -0.125549, -0.0238765, 0.0929661, 0.0473329, 0.0227126, 0.0245348, 0.00940138
0.129117, 1.69439, -1.22617, -1.53915, -0.900913, -1.19361, 1.22906, -1.30259, 0.018045, 0.0221688, 0.00799788, -0.0535241, -0.0183003, 0.00157027, -0.000246989, -1.6784, 62.3431, 30.8051, 6.91833, 1.95209, 3.49612, -0.00267457, -0.00240793, 0.000956935, 0.00242267, 0.000502174, -0.000939937, -0.000393142, 0.0775906, -0.0428962, -0.0243978, -0.0658414, 0.107128, -0.0161814, 0.46997, -0.539449, 0.337909, -2.08094, -2.16791, -0.126952, 0.470924, -0.541414, 0.335115, -2.08075, -2.16866, -0.125482, -0.0242025, 0.094323, 0.0480157, 0.0206482, 0.0233104, 0.0105822
0.130117, 1.6944, -1.22614, -1.53915, -0.900983, -1.19362, 1.22906, -1.3026, 0.0156258, 0.0278394, 0.00464388, -0.0616717, -0.0230937, 0.00182689, -0.00110453, -1.78948, 62.4185, 30.8765, 7.02942, 1.95758, 3.47507, 0.0229602, -0.00248272, 0.00100011, 0.0024465, 0.000488282, -0.000967492, -0.000414661, 0.0788527, -0.0424544, -0.0236929, -0.0743336, 0.1186, -0.0149988, 0.469946, -0.539355, 0.337957, -2.08087, -2.16796, -0.126882, 0.470945, -0.541388, 0.335126, -2.08068, -2.16875, -0.125402, -0.0245292, 0.0956855, 0.0487012, 0.0199578, 0.0233017, 0.0117828
0.131117, 1.69441, -1.22611, -1.53915, -0.901053, -1.19363, 1.22906, -1.3026, 0.0120932, 0.0248607, 0.00440222, -0.0626289, -0.0180027, 0.00176058, -0.000729177, -1.82915, 62.5296, 30.9876, 7.06909, 1.97681, 3.46042, 0.0229602, -0.00256059, 0.00104014, 0.00247332, 0.000474617, -0.000984687, -0.000428738, 0.0809238, -0.0415465, -0.0259455, -0.0729242, 0.112329, -0.0174748, 0.469921, -0.539259, 0.338006, -2.0808, -2.168, -0.126812, 0.470963, -0.541364, 0.335135, -2.08061, -2.16883, -0.125331, -0.0248567, 0.0970535, 0.0493892, 0.0187195, 0.0229318, 0.00995539
0.132117, 1.69442, -1.22609, -1.53914, -0.90112, -1.19364, 1.22906, -1.3026, 0.0121496, 0.0263068, 0.0050352, -0.0655573, -0.0141011, 0.00117381, -0.000718096, -1.97991, 62.7478, 31.063, 7.06909, 1.99512, 3.46042, 0.0293689, -0.00263728, 0.0010845, 0.00250221, 0.000457778, -0.000996344, -0.00045198, 0.0804044, -0.0429328, -0.0257924, -0.0728745, 0.11142, -0.0143831, 0.469896, -0.539162, 0.338055, -2.08073, -2.16805, -0.126741, 0.470984, -0.541336, 0.335143, -2.08053, -2.16892, -0.125269, -0.0251848, 0.0984271, 0.0500798, 0.0197646, 0.0248569, 0.010833
0.133117, 1.69442, -1.22606, -1.53913, -0.901189, -1.19365, 1.22906, -1.3026, 0.00852052, 0.0264571, 0.00422317, -0.0669447, -0.01067, 0.00183376, -0.000237336, -1.97991, 62.8986, 31.063, 7.02942, 2.00061, 3.43204, 0.0229602, -0.00271973, 0.00112219, 0.00252373, 0.000431765, -0.00101619, -0.000457151, 0.0826309, -0.0418538, -0.026403, -0.0720352, 0.110064, -0.0175794, 0.469871, -0.539064, 0.338106, -2.08066, -2.1681, -0.126669, 0.470999, -0.541314, 0.335158, -2.08048, -2.169, -0.125206, -0.0255136, 0.099806, 0.0507728, 0.0184229, 0.0240857, 0.0106137
0.134117, 1.69442, -1.22603, -1.53913, -0.901271, -1.19366, 1.22906, -1.3026, 0.00775915, 0.0313593, 0.0039138, -0.0700645, -0.00791272, 0.00203636, -0.000629915, -2.05529, 62.97, 31.1741, 7.06909, 2.00061, 3.41006, 0.0357776, -0.00280007, 0.00116297, 0.00254817, 0.000416642, -0.00104044, -0.00047489, 0.0826094, -0.0426084, -0.0244727, -0.0723362, 0.113982, -0.0156337, 0.469845, -0.538964, 0.338156, -2.08059, -2.16815, -0.126595, 0.471016, -0.541288, 0.335171, -2.0804, -2.16909, -0.125127, -0.025843, 0.10119, 0.0514683, 0.0189231, 0.025231, 0.0131944
0.135117, 1.69442, -1.22601, -1.53912, -0.901353, -1.19366, 1.22906, -1.3026, 0.0080079, 0.0283996, 0.00381721, -0.075525, -0.00543386, 0.00186624, 0.000294404, -2.16637, 63.1921, 31.2891, 7.1048, 1.98871, 3.39633, 0.0165515, -0.00288133, 0.0012055, 0.00257977, 0.000400312, -0.00104938, -0.000491996, 0.0821609, -0.0445416, -0.0274954, -0.0748274, 0.110341, -0.0117992, 0.46982, -0.538862, 0.338208, -2.08052, -2.16821, -0.126521, 0.471035, -0.54126, 0.335177, -2.08033, -2.16917, -0.125063, -0.026173, 0.10258, 0.0521662, 0.0203936, 0.0276116, 0.0109144
0.136117, 1.69442, -1.22597, -1.53912, -0.901439, -1.19366, 1.22906, -1.3026, 0.00644412, 0.0290428, 0.00379107, -0.0783235, -0.00451304, 0.00124418, -0.000514105, -2.20605, 63.3032, 31.4002, 7.1048, 2.00061, 3.39633, 0.0357776, -0.00296313, 0.00124717, 0.00260584, 0.000383663, -0.0010683, -0.00051347, 0.0832214, -0.0445485, -0.0279566, -0.0765351, 0.111046, -0.0109148, 0.469793, -0.53876, 0.33826, -2.08044, -2.16826, -0.126446, 0.471052, -0.541233, 0.33519, -2.08025, -2.16926, -0.12499, -0.0265036, 0.103974, 0.0528664, 0.0200959, 0.028032, 0.0109951
0.137117, 1.69441, -1.22594, -1.53911, -0.901528, -1.19366, 1.22906, -1.3026, 0.00129213, 0.0311691, 0.00584134, -0.0784374, -0.00334593, -0.00330653, -0.000612727, -2.20605, 63.3389, 31.4359, 7.14447, 2.00061, 3.38168, 0.0431018, -0.00304661, 0.00128659, 0.00262771, 0.000363246, -0.00109048, -0.000531348, 0.0856499, -0.0415872, -0.026602, -0.0777794, 0.110602, -0.0155889, 0.469767, -0.538656, 0.338313, -2.08036, -2.16831, -0.12637, 0.471067, -0.541206, 0.335207, -2.08017, -2.16935, -0.124916, -0.0268347, 0.105374, 0.0535689, 0.0169563, 0.0266993, 0.0127557
0.138117, 1.69441, -1.2259, -1.53911, -0.901616, -1.19366, 1.22906, -1.3026, 0.0033911, 0.0347676, 0.00618904, -0.082952, -0.00339907, -0.00205168, 0.000338458, -2.3211, 63.4103, 31.5113, 7.1048, 2.02533, 3.36703, 0.0229602, -0.00312874, 0.00133141, 0.00265313, 0.000342156, -0.00110888, -0.000552952, 0.0846166, -0.044275, -0.0254572, -0.0791143, 0.116229, -0.0115537, 0.46974, -0.538551, 0.338366, -2.08029, -2.16836, -0.126293, 0.471088, -0.541176, 0.335221, -2.08009, -2.16945, -0.124846, -0.0271662, 0.106779, 0.0542736, 0.0193162, 0.0290692, 0.0146637
0.139117, 1.6944, -1.22586, -1.5391, -0.901712, -1.19366, 1.22906, -1.3026, -0.0020596, 0.0360365, 0.00331656, -0.0865533, -0.00225229, -0.000880293, -1.10017e-05, -2.28143, 63.4103, 31.5867, 7.06909, 2.01984, 3.34598, 0.0293689, -0.00321619, 0.00136997, 0.002676, 0.00032098, -0.00113351, -0.00056875, 0.0878568, -0.0421227, -0.026322, -0.0813833, 0.118393, -0.0155762, 0.469713, -0.538444, 0.338421, -2.08021, -2.16842, -0.126215, 0.471101, -0.54115, 0.335238, -2.08002, -2.16954, -0.124768, -0.0274983, 0.108188, 0.0549806, 0.0169299, 0.0273192, 0.0140863
0.140117, 1.69439, -1.22583, -1.53909, -0.90181, -1.19366, 1.22906, -1.3026, -0.00384958, 0.0324248, 0.0044264, -0.0892163, -0.00184725, -0.00518969, -0.000244155, -2.3211, 63.5968, 31.6581, 7.02942, 2.02533, 3.33865, 0.0357776, -0.00330376, 0.00141196, 0.00270798, 0.000302373, -0.00114428, -0.000590731, 0.0889613, -0.0415216, -0.0291797, -0.0858019, 0.113377, -0.0151662, 0.469685, -0.538336, 0.338476, -2.08013, -2.16847, -0.126136, 0.471118, -0.541122, 0.335247, -2.07994, -2.16963, -0.124701, -0.0278308, 0.109602, 0.0556897, 0.0159331, 0.0280548, 0.0118224
0.141117, 1.69438, -1.2258, -1.53908, -0.901919, -1.19366, 1.22906, -1.3026, -0.00309242, 0.0334781, 0.00596929, -0.0938036, -0.00133821, -0.00401216, -0.000162366, -2.3211, 63.6325, 31.6977, 7.1048, 2.02533, 3.33865, 0.0357776, -0.00338861, 0.00145482, 0.0027345, 0.000285939, -0.00116314, -0.000619929, 0.0883887, -0.0437807, -0.0290586, -0.0859416, 0.115864, -0.0107193, 0.469658, -0.538226, 0.338531, -2.08005, -2.16853, -0.126055, 0.471135, -0.54109, 0.335262, -2.07985, -2.16973, -0.124623, -0.0281637, 0.111021, 0.0564009, 0.0178419, 0.0301222, 0.0126685
0.142117, 1.69436, -1.22576, -1.53907, -0.902026, -1.19366, 1.22906, -1.3026, -0.00745294, 0.0391433, 0.00400697, -0.0977708, -0.000768714, -0.00176663, -0.000107941, -2.24175, 63.5968, 31.7335, 7.06909, 2.01984, 3.30295, 0.0357776, -0.0034804, 0.00149276, 0.00275761, 0.000260992, -0.00118866, -0.00063605, 0.090674, -0.0425279, -0.0270353, -0.0867291, 0.123429, -0.0135992, 0.469629, -0.538115, 0.338588, -2.07997, -2.16858, -0.125974, 0.471148, -0.541064, 0.33528, -2.07977, -2.16983, -0.124545, -0.028497, 0.112445, 0.0571142, 0.016428, 0.0289275, 0.015068
0.143117, 1.69434, -1.22572, -1.53906, -0.902144, -1.19365, 1.22906, -1.30259, -0.00684317, 0.0427891, 0.00456775, -0.106234, -0.000335138, -0.00563183, 0.00111506, -2.3211, 63.7079, 31.8088, 7.1048, 2.01343, 3.2883, 0.00373412, -0.00356568, 0.00153964, 0.0027882, 0.000245536, -0.00120581, -0.000668772, 0.0884788, -0.0444155, -0.0267171, -0.0937507, 0.126475, -0.0076025, 0.469601, -0.538002, 0.338645, -2.07989, -2.16864, -0.125892, 0.471168, -0.541029, 0.335292, -2.07967, -2.16994, -0.124466, -0.0288307, 0.113873, 0.0578295, 0.0179103, 0.0325601, 0.0163746
0.144117, 1.69432, -1.22569, -1.53905, -0.902263, -1.19365, 1.22906, -1.3026, -0.012384, 0.0441851, 0.00997357, -0.107223, -0.000268441, -0.00464934, 0.000268827, -2.28143, 63.7436, 31.8088, 7.06909, 2.01343, 3.29562, 0.0165515, -0.00365637, 0.00157926, 0.00281438, 0.000225291, -0.00122389, -0.000696047, 0.0910168, -0.0429222, -0.0242254, -0.0881886, 0.128809, -0.00990535, 0.469572, -0.537889, 0.338703, -2.07981, -2.1687, -0.125809, 0.471182, -0.540999, 0.335309, -2.07958, -2.17004, -0.12439, -0.0291647, 0.115306, 0.0585467, 0.0162844, 0.0310429, 0.0192098
0.145117, 1.69429, -1.22565, -1.53904, -0.902387, -1.19365, 1.22906, -1.3026, -0.0154993, 0.0412138, 0.0132006, -0.112927, 2.46364e-05, -0.00768128, -0.000295372, -2.28143, 63.819, 31.8445, 7.1048, 2.00702, 3.28097, 0.0293689, -0.00374789, 0.00162099, 0.00284423, 0.000206209, -0.00124064, -0.000726253, 0.0914849, -0.0428366, -0.0262032, -0.0908893, 0.125261, -0.0068547, 0.469543, -0.537773, 0.338761, -2.07972, -2.16875, -0.125725, 0.471196, -0.540968, 0.335323, -2.07948, -2.17015, -0.124313, -0.029499, 0.116743, 0.0592659, 0.01581, 0.0323178, 0.0179064
0.146117, 1.69427, -1.22561, -1.53902, -0.902514, -1.19364, 1.22906, -1.3026, -0.0193411, 0.0406777, 0.0163005, -0.115119, 0.000431917, -0.00535101, -0.000434178, -2.3568, 63.819, 31.8445, 7.06909, 1.99512, 3.26724, 0.0357776, -0.00383753, 0.001666, 0.00286977, 0.000183129, -0.0012644, -0.000762552, 0.0936536, -0.0424829, -0.0258025, -0.0870075, 0.12637, -0.00809201, 0.469513, -0.537657, 0.338821, -2.07964, -2.16881, -0.12564, 0.471214, -0.540934, 0.335341, -2.07939, -2.17027, -0.124233, -0.0298335, 0.118184, 0.059987, 0.0152263, 0.0315433, 0.0187007
0.147117, 1.69424, -1.22558, -1.53901, -0.902646, -1.19364, 1.22906, -1.3026, -0.0198697, 0.0336446, 0.0160849, -0.122259, 0.00540393, -0.00330763, -0.000560647, -2.39648, 63.9658, 31.9556, 7.02942, 1.9823, 3.24527, 0.0431018, -0.00393338, 0.00170567, 0.00290441, 0.000167302, -0.00127532, -0.000790298, 0.093254, -0.0450996, -0.0312747, -0.0875429, 0.117882, -0.00167215, 0.469484, -0.537538, 0.338881, -2.07955, -2.16887, -0.125554, 0.471227, -0.540903, 0.335351, -2.07928, -2.17037, -0.124157, -0.0301683, 0.119629, 0.0607099, 0.0172794, 0.0343364, 0.013996
0.148117, 1.69421, -1.22554, -1.53898, -0.902783, -1.19364, 1.22906, -1.30259, -0.0234151, 0.035794, 0.0202218, -0.125629, 0.00373937, -0.00743695, 0.00108435, -2.43218, 64.0768, 31.8842, 6.99371, 1.98871, 3.24527, 0.00373412, -0.00402811, 0.00174762, 0.00293466, 0.000145087, -0.00129179, -0.000819002, 0.0942219, -0.0438894, -0.0296774, -0.0897158, 0.120227, -0.00362733, 0.469453, -0.537419, 0.338941, -2.07946, -2.16893, -0.125467, 0.471241, -0.54087, 0.335366, -2.07919, -2.17048, -0.12408, -0.0305034, 0.121079, 0.0614347, 0.0158402, 0.0345352, 0.0161884
0.149117, 1.69417, -1.2255, -1.53896, -0.902924, -1.19363, 1.22906, -1.3026, -0.0261874, 0.0377178, 0.021409, -0.131441, 0.00345166, -0.00489111, 0.000248223, -2.47185, 64.0372, 31.8842, 6.95801, 1.9704, 3.22421, 0.0165515, -0.00412333, 0.00178805, 0.00295936, 0.000120051, -0.0013145, -0.000853301, 0.0951813, -0.0445212, -0.0290526, -0.0893254, 0.124947, -0.00114952, 0.469423, -0.537298, 0.339003, -2.07938, -2.16899, -0.125378, 0.471254, -0.540838, 0.335387, -2.07909, -2.1706, -0.124001, -0.0308386, 0.122533, 0.0621611, 0.0162021, 0.0349769, 0.0173635
0.150117, 1.69413, -1.22547, -1.53893, -0.903072, -1.19363, 1.22906, -1.3026, -0.0274321, 0.036462, 0.0272218, -0.13645, 0.00251155, -0.00379551, -0.000309205, -2.54723, 64.2236, 31.8088, 6.95801, 1.9704, 3.22421, 0.0293689, -0.00421856, 0.0018314, 0.00299177, 9.45604e-05, -0.00132443, -0.00089513, 0.0950186, -0.0463648, -0.0287436, -0.0865667, 0.126009, 0.00392064, 0.469392, -0.537175, 0.339065, -2.07929, -2.16905, -0.125289, 0.471269, -0.540802, 0.335401, -2.07897, -2.17072, -0.123934, -0.031174, 0.12399, 0.0628893, 0.0177176, 0.0366329, 0.0183614
0.151117, 1.69409, -1.22543, -1.53891, -0.903226, -1.19362, 1.22906, -1.3026, -0.0316317, 0.0364385, 0.0258693, -0.143218, 0.00274772, -0.00238889, -0.000952099, -2.62261, 64.2593, 31.8445, 6.95801, 1.94568, 3.20956, 0.0495105, -0.00431543, 0.00187348, 0.0030208, 6.90659e-05, -0.00134261, -0.000936133, 0.0968257, -0.0458518, -0.0303279, -0.0895407, 0.127997, 0.00462241, 0.469361, -0.537051, 0.339128, -2.0792, -2.16911, -0.125199, 0.471282, -0.540768, 0.335419, -2.07886, -2.17084, -0.123858, -0.0315095, 0.125452, 0.0636192, 0.016883, 0.0365312, 0.0172654
0.152117, 1.69404, -1.22539, -1.53889, -0.903383, -1.19362, 1.22906, -1.3026, -0.0361252, 0.0372181, 0.0271171, -0.15065, 0.00171283, -0.000570973, 0.000348628, -2.77337, 64.2593, 31.9199, 6.91833, 1.95209, 3.17386, 0.0229602, -0.00441363, 0.00191586, 0.0030506, 4.58044e-05, -0.00136314, -0.000972712, 0.0982472, -0.0456944, -0.0305581, -0.0906777, 0.131919, 0.00447756, 0.469329, -0.536926, 0.339191, -2.07911, -2.16918, -0.125108, 0.471296, -0.540733, 0.335437, -2.07876, -2.17097, -0.123776, -0.0318451, 0.126917, 0.0643506, 0.0164415, 0.0366234, 0.0175558
0.153117, 1.69399, -1.22535, -1.53885, -0.90354, -1.19361, 1.22906, -1.3026, -0.0416134, 0.0368802, 0.0321307, -0.152391, 0.00123066, -0.000606257, 0.000469791, -2.84875, 64.295, 31.9556, 6.84296, 1.95209, 3.17386, 0.0165515, -0.00451692, 0.00195282, 0.00307773, 1.56708e-05, -0.001382, -0.00100227, 0.100822, -0.0441129, -0.029431, -0.0871134, 0.132591, 0.00156177, 0.469298, -0.536799, 0.339256, -2.07902, -2.16924, -0.125016, 0.471304, -0.540702, 0.335457, -2.07866, -2.17108, -0.123701, -0.0321808, 0.128386, 0.0650837, 0.0146772, 0.0353096, 0.0190577
0.154117, 1.69393, -1.22531, -1.53881, -0.903719, -1.1936, 1.22906, -1.3026, -0.0434835, 0.03961, 0.0322292, -0.160035, 0.00180255, 0.000206516, 7.58444e-05, -2.88445, 64.3347, 31.8842, 6.91833, 1.92737, 3.1528, 0.0229602, -0.0046151, 0.001994, 0.00310218, -2.10258e-05, -0.00140126, -0.00105169, 0.100657, -0.04523, -0.0291793, -0.0897299, 0.136825, 0.00583095, 0.469265, -0.53667, 0.339321, -2.07892, -2.1693, -0.124922, 0.471316, -0.540665, 0.335482, -2.07854, -2.17122, -0.123634, -0.0325166, 0.129859, 0.0658182, 0.015465, 0.0369604, 0.0200296
0.155117, 1.69386, -1.22527, -1.53878, -0.903896, -1.1936, 1.22906, -1.3026, -0.0499457, 0.0392369, 0.0318622, -0.165002, 0.00125164, 0.000824575, -0.000424148, -2.95983, 64.4815, 31.9556, 6.95801, 1.92737, 3.13083, 0.0357776, -0.00471874, 0.00203244, 0.00313547, -4.56104e-05, -0.00141474, -0.00109397, 0.103919, -0.0429905, -0.0303297, -0.0917234, 0.138431, 0.00278726, 0.469233, -0.53654, 0.339387, -2.07883, -2.16937, -0.124828, 0.471325, -0.54063, 0.335497, -2.07842, -2.17135, -0.123558, -0.0328524, 0.131335, 0.0665543, 0.0129818, 0.0352924, 0.0192019
0.156117, 1.69379, -1.22523, -1.53874, -0.904085, -1.19359, 1.22906, -1.30259, -0.0579972, 0.0397593, 0.0332788, -0.1717, 0.0048981, 0.000997073, 0.00114139, -3.03521, 64.5926, 31.9556, 6.99371, 1.94568, 3.11618, -0.00267457, -0.00482191, 0.00207127, 0.00316359, -7.75316e-05, -0.00143503, -0.00113655, 0.106042, -0.0409302, -0.0305216, -0.0910973, 0.137266, -0.000130351, 0.4692, -0.536409, 0.339453, -2.07873, -2.16943, -0.124733, 0.471334, -0.540595, 0.335519, -2.07831, -2.17149, -0.123482, -0.0331882, 0.132814, 0.0672918, 0.0106705, 0.0346139, 0.0194917
0.157117, 1.69372, -1.22517, -1.53869, -0.904284, -1.19358, 1.22906, -1.3026, -0.0624426, 0.0485548, 0.0366406, -0.179847, 0.00883073, 0.00137323, -0.000188502, -3.18597, 64.4815, 31.9953, 7.02942, 1.93378, 3.09512, 0.0229602, -0.00492018, 0.00211283, 0.00318189, -0.000107896, -0.00147057, -0.00119632, 0.10492, -0.0414612, -0.0255364, -0.0890366, 0.144341, 0.00553602, 0.469167, -0.536276, 0.33952, -2.07864, -2.1695, -0.124636, 0.471345, -0.540554, 0.335552, -2.07818, -2.17165, -0.123389, -0.033524, 0.134297, 0.0680307, 0.0110235, 0.0364726, 0.0253091
0.158117, 1.69364, -1.22514, -1.53864, -0.904481, -1.19357, 1.22906, -1.3026, -0.0684248, 0.0462793, 0.0415516, -0.18523, 0.0111027, 0.00167575, -0.00134637, -3.22564, 64.7394, 32.0707, 7.02942, 1.93927, 3.07315, 0.0559192, -0.00502891, 0.00214765, 0.00321457, -0.00014708, -0.00147577, -0.00123993, 0.106342, -0.0408038, -0.026038, -0.0858031, 0.14132, 0.00750768, 0.469133, -0.536142, 0.339588, -2.07854, -2.16956, -0.124539, 0.47135, -0.540521, 0.33557, -2.07806, -2.17178, -0.123335, -0.0338597, 0.135784, 0.0687709, 0.0100736, 0.0366041, 0.0253576
0.159117, 1.69355, -1.2251, -1.53859, -0.904685, -1.19356, 1.22906, -1.30259, -0.0752126, 0.0484287, 0.0462294, -0.190954, 0.0133521, 0.00131437, 0.0010352, -3.30102, 64.8505, 32.1064, 6.99371, 1.93378, 3.06674, 0.00373412, -0.00513625, 0.00218253, 0.00323874, -0.00019048, -0.00149179, -0.00128313, 0.107591, -0.0395163, -0.0240948, -0.0830422, 0.14242, 0.00522905, 0.469099, -0.536006, 0.339657, -2.07844, -2.16963, -0.124441, 0.471354, -0.540485, 0.335597, -2.07795, -2.17192, -0.123273, -0.0341954, 0.137273, 0.0695125, 0.00858551, 0.0365082, 0.0278693
0.160117, 1.69345, -1.22504, -1.53854, -0.904895, -1.19355, 1.22906, -1.30259, -0.0768443, 0.0518552, 0.0503469, -0.196743, 0.0137743, 0.0011174, 0.00143612, -3.3764, 64.8862, 32.2532, 6.99371, 1.95758, 3.05942, -0.0164075, -0.00524464, 0.00221608, 0.00326022, -0.000226824, -0.00151763, -0.00132771, 0.106911, -0.0408366, -0.0218572, -0.0822002, 0.146584, 0.00917061, 0.469065, -0.535869, 0.339727, -2.07834, -2.1697, -0.124341, 0.471357, -0.54045, 0.335627, -2.07784, -2.17206, -0.123192, -0.0345309, 0.138766, 0.0702554, 0.00963633, 0.0383943, 0.030883
0.161117, 1.69336, -1.225, -1.53847, -0.905118, -1.19353, 1.22906, -1.30259, -0.0795964, 0.047785, 0.0538577, -0.209048, 0.0156585, 0.00231604, 0.00044879, -3.52715, 65.0687, 32.2532, 7.02942, 1.94568, 3.01639, -0.00267457, -0.00534943, 0.00225592, 0.00328462, -0.000274581, -0.00153424, -0.00139279, 0.105482, -0.0434445, -0.0249534, -0.0835225, 0.143354, 0.0194547, 0.469031, -0.53573, 0.339797, -2.07824, -2.16977, -0.124241, 0.471366, -0.540409, 0.335656, -2.0777, -2.17223, -0.123135, -0.0348663, 0.140262, 0.0709994, 0.0117301, 0.0418938, 0.0287024
0.162117, 1.69326, -1.22494, -1.53841, -0.905344, -1.19351, 1.22906, -1.30259, -0.0900527, 0.0511347, 0.0572892, -0.213748, 0.0152174, 0.00125582, 6.18353e-05, -3.60253, 65.1083, 32.3285, 6.91833, 1.9823, 3.02371, 0.00373412, -0.00545604, 0.00229136, 0.00330154, -0.000321739, -0.00155908, -0.00144802, 0.109278, -0.0391943, -0.0224905, -0.082577, 0.147382, 0.0138931, 0.468996, -0.53559, 0.339868, -2.07814, -2.16984, -0.12414, 0.47137, -0.54037, 0.335693, -2.07758, -2.17239, -0.123066, -0.0352016, 0.141761, 0.0717447, 0.00740802, 0.0390785, 0.031439
0.163117, 1.69315, -1.22489, -1.53835, -0.905576, -1.19349, 1.22906, -1.30259, -0.0985927, 0.0472799, 0.0586051, -0.218712, 0.0162184, 0.00163831, -0.000433494, -3.6422, 65.2908, 32.4793, 6.84296, 1.9823, 3.00174, 0.0165515, -0.0055669, 0.00232539, 0.00332637, -0.000370652, -0.00157238, -0.00150444, 0.113129, -0.0362777, -0.0250101, -0.0825513, 0.143977, 0.0101831, 0.468961, -0.535448, 0.33994, -2.07804, -2.16991, -0.124037, 0.471372, -0.540332, 0.335722, -2.07745, -2.17254, -0.123011, -0.0355366, 0.143262, 0.0724911, 0.00422114, 0.0370303, 0.029204
0.164117, 1.69303, -1.22484, -1.53828, -0.905828, -1.19347, 1.22906, -1.30259, -0.105921, 0.0475395, 0.0606929, -0.22913, 0.0144398, 0.00108268, 0.000185723, -3.6422, 65.4733, 32.5904, 6.80725, 2.05005, 3.00174, 0.00373412, -0.00567506, 0.00236072, 0.00334984, -0.00041538, -0.00159048, -0.00157066, 0.114731, -0.0348254, -0.0257426, -0.0864057, 0.146968, 0.0106795, 0.468925, -0.535305, 0.340012, -2.07793, -2.16998, -0.123934, 0.471376, -0.540291, 0.335754, -2.07731, -2.17271, -0.122945, -0.0358715, 0.144767, 0.0732387, 0.00247814, 0.0370001, 0.0290317
0.165117, 1.69291, -1.22479, -1.53821, -0.906089, -1.19345, 1.22906, -1.30259, -0.112295, 0.0456217, 0.0654744, -0.245045, 0.0144053, 0.0017658, 0.000632442, -3.71758, 65.6241, 32.7015, 6.77154, 2.08667, 2.97336, -0.00999879, -0.00578093, 0.00239829, 0.00337187, -0.000462274, -0.00160797, -0.00164577, 0.113705, -0.0360716, -0.0274918, -0.0889472, 0.147337, 0.0190296, 0.468889, -0.53516, 0.340086, -2.07783, -2.17005, -0.123829, 0.471381, -0.540245, 0.335788, -2.07716, -2.17289, -0.122883, -0.0362061, 0.146274, 0.0739872, 0.00328286, 0.0398452, 0.0281695
0.166117, 1.69278, -1.22473, -1.53813, -0.906357, -1.19342, 1.22906, -1.30259, -0.12453, 0.0491567, 0.0701815, -0.24923, 0.0187237, 0.00198564, 0.000150361, -3.71758, 65.6955, 32.8879, 6.73187, 2.1297, 2.95138, -0.00267457, -0.0058899, 0.00243186, 0.00339107, -0.000513146, -0.00162696, -0.00171905, 0.117356, -0.0316919, -0.0242005, -0.0830376, 0.148112, 0.0135594, 0.468853, -0.535014, 0.34016, -2.07772, -2.17012, -0.123723, 0.471382, -0.540202, 0.335825, -2.07701, -2.17307, -0.122822, -0.0365405, 0.147784, 0.0747369, -0.00113737, 0.0370507, 0.0317573
0.167117, 1.69264, -1.22468, -1.53804, -0.906638, -1.19339, 1.22906, -1.30259, -0.133036, 0.049656, 0.0767885, -0.260763, 0.021937, 0.00209964, 0.000371508, -3.6422, 65.8423, 32.9633, 6.77154, 2.17914, 2.93033, -0.00999879, -0.00599893, 0.00246539, 0.00340878, -0.000572099, -0.00164424, -0.00179414, 0.117271, -0.0312916, -0.0232224, -0.0803722, 0.147387, 0.0181068, 0.468816, -0.534866, 0.340234, -2.07762, -2.17019, -0.123617, 0.471383, -0.540158, 0.335864, -2.07686, -2.17325, -0.122772, -0.0368746, 0.149297, 0.0754875, -0.00182777, 0.0384829, 0.0335018
0.168117, 1.6925, -1.22462, -1.53797, -0.906916, -1.19335, 1.22907, -1.30259, -0.134151, 0.0511515, 0.0781264, -0.26807, 0.0244718, 0.00193928, 0.000485031, -3.6422, 65.9534, 33.1855, 6.77154, 2.22858, 2.91568, -0.0164075, -0.00611117, 0.00249707, 0.00342854, -0.000626662, -0.00165946, -0.00186811, 0.116274, -0.0330258, -0.0233491, -0.0819156, 0.148256, 0.0235797, 0.46878, -0.534717, 0.34031, -2.07751, -2.17026, -0.123509, 0.471382, -0.540114, 0.335902, -2.07671, -2.17344, -0.122717, -0.0372084, 0.150812, 0.076239, -0.000468237, 0.0410838, 0.034224
0.169117, 1.69235, -1.22456, -1.53787, -0.907211, -1.19332, 1.22907, -1.30258, -0.138324, 0.0523558, 0.0843661, -0.2764, 0.0317408, 0.00183312, 8.59953e-05, -3.6422, 66.0645, 33.1855, 6.77154, 2.25879, 2.90103, -0.00999879, -0.00621728, 0.00253365, 0.00344286, -0.000695956, -0.00167151, -0.00195895, 0.114403, -0.0346749, -0.021883, -0.0769683, 0.144692, 0.031394, 0.468742, -0.534566, 0.340386, -2.0774, -2.17034, -0.123401, 0.471385, -0.540064, 0.335946, -2.07655, -2.17364, -0.122682, -0.0375418, 0.15233, 0.0769914, 0.00083555, 0.0443044, 0.0366567
0.170117, 1.69219, -1.2245, -1.53778, -0.907522, -1.19327, 1.22907, -1.30258, -0.145233, 0.0523133, 0.0863837, -0.285978, 0.0369108, 0.00200028, 0.00440396, -3.60253, 66.2112, 33.2966, 6.77154, 2.29541, 2.87997, -0.00267457, -0.00632592, 0.00256637, 0.00346254, -0.000752462, -0.00168072, -0.00204803, 0.114818, -0.0341665, -0.0226674, -0.0767233, 0.142007, 0.0301704, 0.468705, -0.534414, 0.340463, -2.07729, -2.17041, -0.123291, 0.471384, -0.540015, 0.335986, -2.07638, -2.17384, -0.122635, -0.0378749, 0.15385, 0.0777447, -1.26305e-05, 0.0455122, 0.0365899
0.171117, 1.69203, -1.22444, -1.53768, -0.907837, -1.19323, 1.22907, -1.30258, -0.149681, 0.0523851, 0.0847242, -0.293371, 0.0367622, 0.00133225, 0.00284608, -3.60253, 66.358, 33.4076, 6.77154, 2.31372, 2.87997, 0.0101428, -0.00643687, 0.00259715, 0.00348169, -0.000812347, -0.00168767, -0.00213831, 0.116515, -0.033156, -0.0245909, -0.0822284, 0.143484, 0.0317844, 0.468667, -0.53426, 0.340541, -2.07718, -2.17049, -0.12318, 0.471381, -0.539966, 0.336027, -2.07621, -2.17403, -0.122594, -0.0382076, 0.155372, 0.0784988, -0.00135562, 0.0456064, 0.0352196
0.172117, 1.69203, -1.22444, -1.53768, -0.907837, -1.19323, 1.22907, -1.30258, -0.149681, 0.0523851, 0.0847242, -0.293371, 0.0367622, 0.00133225, 0.00284608, -3.60253, 66.358, 33.4076, 6.77154, 2.31372, 2.87997, 0.0101428, -0.00660398, 0.00263047, 0.0035341, -0.000890894, -0.00165524, -0.00205629, 0.118151, -0.0334348, -0.0250929, -0.082759, 0.144474, 0.0306176, 0.468629, -0.534104, 0.340619, -2.07707, -2.17056, -0.123068, 0.471381, -0.539966, 0.336027, -2.07621, -2.17403, -0.122594, -0.0385399, 0.156897, 0.0792537, -0.00135562, 0.0456064, 0.0352196
0.173117, 1.69203, -1.22444, -1.53768, -0.907837, -1.19323, 1.22907, -1.30258, -0.149681, 0.0523851, 0.0847242, -0.293371, 0.0367622, 0.00133225, 0.00284608, -3.60253, 66.358, 33.4076, 6.77154, 2.31372, 2.87997, 0.0101428, -0.00677273, 0.00266406, 0.00358702, -0.000970197, -0.00162255, -0.00197352, 0.11979, -0.0337128, -0.0255953, -0.0832886, 0.145464, 0.0294508, 0.46859, -0.533947, 0.340699, -2.07696, -2.17064, -0.122956, 0.471381, -0.539966, 0.336027, -2.07621, -2.17403, -0.122594, -0.0388718, 0.158424, 0.0800094, -0.00135562, 0.0456064, 0.0352196
0.174117, 1.69203, -1.22444, -1.53768, -0.907837, -1.19323, 1.22907, -1.30258, -0.149681, 0.0523851, 0.0847242, -0.293371, 0.0367622, 0.00133225, 0.00284608, -3.60253, 66.358, 33.4076, 6.77154, 2.31372, 2.87997, 0.0101428, -0.00694311, 0.00269791, 0.00364044, -0.00105026, -0.00158958, -0.00189, 0.121431, -0.03399, -0.0260982, -0.0838174, 0.146454, 0.0282839, 0.468551, -0.533789, 0.340779, -2.07684, -2.17071, -0.122842, 0.471381, -0.539966, 0.336027, -2.07621, -2.17403, -0.122594, -0.0392032, 0.159952, 0.0807657, -0.00135562, 0.0456064, 0.0352196
0.175117, 1.69131, -1.22418, -1.53728, -0.909195, -1.19301, 1.22906, -1.30257, -0.175902, 0.0644292, 0.0967515, -0.331276, 0.0553761, -0.00378471, 0.00181659, -3.56683, 66.727, 33.8559, 6.58508, 2.4245, 2.85159, -0.0164075, -0.00687604, 0.00272154, 0.00354938, -0.00105908, -0.00171394, -0.00254127, 0.115519, -0.0309516, -0.0197162, -0.0829111, 0.143575, 0.0471667, 0.468512, -0.533629, 0.340859, -2.07673, -2.17079, -0.122727, 0.471366, -0.539752, 0.336207, -2.07547, -2.17488, -0.12243, -0.0395341, 0.161483, 0.0815227, -0.00469336, 0.0518661, 0.0432906
0.176117, 1.69112, -1.22412, -1.53717, -0.909566, -1.19295, 1.22905, -1.30257, -0.183851, 0.0604733, 0.10301, -0.34395, 0.0546589, -0.00702317, 0.00548334, -3.48748, 66.9095, 33.9313, 6.62079, 2.46112, 2.83694, -0.00267457, -0.0069854, 0.00275259, 0.0035709, -0.00112252, -0.00170827, -0.00266067, 0.115779, -0.0300746, -0.0219563, -0.086279, 0.140148, 0.048419, 0.468473, -0.533468, 0.340941, -2.07661, -2.17087, -0.122611, 0.471362, -0.539694, 0.33625, -2.07526, -2.1751, -0.122403, -0.0398646, 0.163016, 0.0822803, -0.00597239, 0.0534431, 0.0418274
0.177117, 1.69092, -1.22405, -1.53705, -0.909945, -1.19289, 1.22905, -1.30257, -0.190655, 0.0600693, 0.109753, -0.351565, 0.0591513, -0.00536327, 0.00462348, -3.3764, 66.9849, 34.0424, 6.58508, 2.49225, 2.83694, -0.0164075, -0.00709407, 0.00278499, 0.00358923, -0.00118846, -0.0017083, -0.00277878, 0.116072, -0.0302029, -0.020871, -0.080047, 0.137977, 0.0528105, 0.468433, -0.533304, 0.341023, -2.07649, -2.17095, -0.122494, 0.471358, -0.539634, 0.336296, -2.07505, -2.17533, -0.122371, -0.0401944, 0.164551, 0.0830385, -0.00610933, 0.0545317, 0.0436096
0.178117, 1.69071, -1.22399, -1.53694, -0.910328, -1.19282, 1.22905, -1.30256, -0.195082, 0.062015, 0.114112, -0.359652, 0.0665069, -0.00303522, 0.00884883, -3.26134, 67.0959, 34.1892, 6.5097, 2.53528, 2.80856, -0.0356336, -0.00720693, 0.00281475, 0.00361324, -0.00125056, -0.00170222, -0.00289113, 0.11495, -0.0317465, -0.0193891, -0.0743928, 0.136386, 0.0546415, 0.468392, -0.53314, 0.341106, -2.07637, -2.17103, -0.122376, 0.471352, -0.539576, 0.336337, -2.07484, -2.17555, -0.12234, -0.0405238, 0.166087, 0.0837972, -0.00487485, 0.0570264, 0.045952
0.179117, 1.69051, -1.22392, -1.53682, -0.910725, -1.19276, 1.22905, -1.30256, -0.198756, 0.0620252, 0.117465, -0.370468, 0.068, -0.00186409, 0.00631271, -3.15026, 67.1317, 34.1892, 6.35895, 2.56549, 2.79391, -0.0292249, -0.00731406, 0.00284945, 0.00363297, -0.00131729, -0.00169754, -0.00302582, 0.114118, -0.0333125, -0.019915, -0.0749175, 0.137433, 0.0639537, 0.468352, -0.532974, 0.34119, -2.07626, -2.17111, -0.122257, 0.47135, -0.539511, 0.336384, -2.07461, -2.1758, -0.122314, -0.0408525, 0.167625, 0.0845564, -0.00368815, 0.0595419, 0.0462665
0.180117, 1.69028, -1.22385, -1.53671, -0.911143, -1.19268, 1.22905, -1.30256, -0.203288, 0.0634616, 0.120615, -0.37889, 0.0695312, -0.000987555, 0.00939729, -2.95983, 67.0959, 34.2646, 6.35895, 2.58472, 2.77926, -0.0292249, -0.00742185, 0.00288123, 0.00365232, -0.00138063, -0.00169613, -0.00316205, 0.114247, -0.0337469, -0.0193348, -0.0744813, 0.139492, 0.0645851, 0.468311, -0.532806, 0.341275, -2.07613, -2.17119, -0.122137, 0.471345, -0.539445, 0.336432, -2.07438, -2.17605, -0.12228, -0.0411807, 0.169165, 0.0853161, -0.00354495, 0.0608895, 0.0475656
0.181117, 1.69006, -1.22379, -1.53658, -0.91156, -1.1926, 1.22905, -1.30256, -0.209343, 0.0636055, 0.122357, -0.391256, 0.0750845, 0.000448537, 0.0074974, -2.77337, 67.207, 34.2646, 6.32324, 2.61493, 2.74356, -0.0420422, -0.0075296, 0.00291523, 0.00367459, -0.00145378, -0.00167935, -0.00330385, 0.113554, -0.0345373, -0.0204348, -0.0746652, 0.13763, 0.0728534, 0.46827, -0.532637, 0.34136, -2.07601, -2.17127, -0.122016, 0.471341, -0.539377, 0.336477, -2.07414, -2.1763, -0.122272, -0.0415082, 0.170706, 0.0860762, -0.00314953, 0.0633216, 0.0473193
0.182117, 1.68984, -1.22372, -1.53645, -0.911993, -1.19252, 1.22905, -1.30255, -0.214567, 0.0679428, 0.121558, -0.405475, 0.0797326, 0.000917278, 0.00556664, -2.69799, 67.1674, 34.34, 6.28357, 2.62775, 2.7225, -0.0420422, -0.00763075, 0.00295567, 0.00369223, -0.00152296, -0.00167523, -0.00346252, 0.112157, -0.0353935, -0.0203854, -0.0790407, 0.140545, 0.0819713, 0.468228, -0.532466, 0.341446, -2.07589, -2.17135, -0.121894, 0.471344, -0.539301, 0.336529, -2.07388, -2.17658, -0.122247, -0.0418351, 0.172249, 0.0868367, -0.00266962, 0.0662798, 0.0483137
0.183117, 1.68962, -1.22365, -1.53632, -0.912428, -1.19244, 1.22904, -1.30255, -0.215854, 0.0658418, 0.125255, -0.413122, 0.0833932, 0.00157536, 0.00860812, -2.58294, 67.207, 34.3757, 6.17248, 2.62775, 2.6932, -0.0356336, -0.00773593, 0.00299225, 0.00371319, -0.00159182, -0.00166265, -0.00361629, 0.110852, -0.0378343, -0.0217456, -0.0777208, 0.137242, 0.0862326, 0.468187, -0.532294, 0.341533, -2.07577, -2.17143, -0.121771, 0.471343, -0.539228, 0.336578, -2.07362, -2.17684, -0.12223, -0.0421613, 0.173793, 0.0875976, -0.000662308, 0.069437, 0.0478468
0.184117, 1.68938, -1.22358, -1.53618, -0.912875, -1.19236, 1.22904, -1.30255, -0.225367, 0.0685158, 0.126784, -0.424254, 0.0807986, 0.00173921, 0.0103325, -2.47185, 67.207, 34.451, 6.0614, 2.65155, 2.67215, -0.0164075, -0.00784427, 0.00302744, 0.00373425, -0.00166533, -0.00165429, -0.00377099, 0.113348, -0.0351674, -0.0212226, -0.0816871, 0.143738, 0.0834784, 0.468144, -0.53212, 0.34162, -2.07564, -2.17152, -0.121646, 0.47134, -0.539156, 0.336627, -2.07337, -2.17711, -0.122212, -0.0424869, 0.175339, 0.0883587, -0.00351549, 0.0683151, 0.0488365
0.185117, 1.68915, -1.2235, -1.53605, -0.913339, -1.19227, 1.22904, -1.30254, -0.22997, 0.0712347, 0.131293, -0.433583, 0.0839693, 0.00190508, 0.00851728, -2.39648, 67.1674, 34.5264, 6.02173, 2.66437, 2.65018, -0.0356336, -0.00794526, 0.00306761, 0.00375438, -0.00172735, -0.00164808, -0.0039401, 0.112435, -0.0360124, -0.0195985, -0.0802668, 0.145404, 0.0909075, 0.468102, -0.531945, 0.341709, -2.07552, -2.1716, -0.121521, 0.471341, -0.539075, 0.336679, -2.07309, -2.1774, -0.122179, -0.0428117, 0.176886, 0.0891202, -0.00295882, 0.0705614, 0.0513131
0.186117, 1.6889, -1.22343, -1.53591, -0.913803, -1.19218, 1.22903, -1.30253, -0.234867, 0.0723219, 0.134882, -0.444083, 0.0902589, -0.00371626, 0.00711181, -2.24175, 67.1674, 34.6018, 5.83527, 2.70099, 2.6575, -0.0557752, -0.00805279, 0.00310041, 0.00377323, -0.00179837, -0.00163501, -0.00409754, 0.110432, -0.0361139, -0.0199155, -0.0838728, 0.140187, 0.0993041, 0.468059, -0.531768, 0.341798, -2.07539, -2.17169, -0.121395, 0.471335, -0.539, 0.336732, -2.07283, -2.17767, -0.122162, -0.0431357, 0.178434, 0.0898818, -0.00327066, 0.0741421, 0.0520652
