alisrour97/Franka_experiments/Real_Robot_scripts/servo-franka/Data_5_ki/log_dyn_PI_k_ki_10.csv
Time,q1,q2,q3,q4,q5,q6,q7,dq1,dq2,dq3,dq4,dq5,dq6,dq7,t1,t2,t3,t4,t5,t6,t7,ex1,ex2,ex3,ex4,ex5,ex6,ev1,ev2,ev3,ev4,ev5,ev6,xd,yd,zd,uxd,uyd,uzd,x,y,z,ux,uy,uz,vxd,vyd,vzd,vx,vy,vz
4.88281e-07, 1.69083, -1.22828, -1.53984, -0.900238, -1.1925, 1.2278, -1.30273, -0.00249394, -0.00199364, 0.00165393, -0.00203368, 0.00579721, 0.00641278, -8.84534e-05, 0.928108, 64.295, 32.3285, 7.06909, 2.94086, 3.99783, 0.0101428, 6.09576e-05, -0.00231338, 0.00239089, 0.00299862, 0.00191801, 0.00131964, -0.000131515, -0.00121003, -0.000175853, 0.0089808, -0.00356505, 0.00217896, 0.471008, -0.543389, 0.335894, -2.08385, -2.16584, -0.129887, 0.468608, -0.543054, 0.33361, -2.08265, -2.16218, -0.128339, 0, 0, 0, 0.00119741, 0.000206403, -0.000189691
0.0120059, 1.69083, -1.22828, -1.53983, -0.900252, -1.19244, 1.22785, -1.30273, 0.000368503, 0.00476208, 0.000791472, -0.00138221, 0.00501884, 0.00153289, 0.00137157, 0.85273, 64.3347, 32.2532, 7.06909, 2.89142, 3.99783, -0.0292249, 7.42097e-05, -0.00229324, 0.00238322, 0.00292475, 0.00194176, 0.00127743, -0.00200285, -0.00141326, 0.00299913, 0.00404358, 0.00148461, 0.00216488, 0.471008, -0.543389, 0.335894, -2.08385, -2.16584, -0.129887, 0.468629, -0.543043, 0.333621, -2.08265, -2.16225, -0.12848, 3.52292e-06, 9.08712e-06, 4.70091e-06, 0.0014516, 0.00158257, 0.00323437
0.0130059, 1.69083, -1.22828, -1.53983, -0.900252, -1.19244, 1.22785, -1.30273, 0.000368503, 0.00476208, 0.000791472, -0.00138221, 0.00501884, 0.00153289, 0.00137157, 0.85273, 64.3347, 32.2532, 7.06909, 2.89142, 3.99783, -0.0292249, 7.41874e-05, -0.00229325, 0.00238323, 0.00292474, 0.00194176, 0.00127744, -0.00197421, -0.00140206, 0.00298906, 0.0040311, 0.00150374, 0.00214113, 0.471008, -0.543389, 0.335894, -2.08385, -2.16584, -0.129887, 0.468629, -0.543043, 0.333621, -2.08265, -2.16225, -0.12848, 1.40551e-05, 3.62649e-05, 1.87583e-05, 0.0014516, 0.00158257, 0.00323437
0.0140059, 1.69083, -1.22828, -1.53983, -0.900252, -1.19244, 1.22785, -1.30273, 0.000368503, 0.00476208, 0.000791472, -0.00138221, 0.00501884, 0.00153289, 0.00137157, 0.85273, 64.3347, 32.2532, 7.06909, 2.89142, 3.99783, -0.0292249, 7.41271e-05, -0.00229327, 0.00238325, 0.00292471, 0.00194178, 0.00127747, -0.00192664, -0.00138345, 0.00297232, 0.00401039, 0.00153551, 0.0021017, 0.471008, -0.543389, 0.335894, -2.08385, -2.16584, -0.129887, 0.468629, -0.543043, 0.333621, -2.08265, -2.16225, -0.12848, 3.15416e-05, 8.14084e-05, 4.21042e-05, 0.0014516, 0.00158257, 0.00323437
0.0150059, 1.69083, -1.22828, -1.53983, -0.900252, -1.19244, 1.22785, -1.30273, 0.000368503, 0.00476208, 0.000791472, -0.00138221, 0.00501884, 0.00153289, 0.00137157, 0.85273, 64.3347, 32.2532, 7.06909, 2.89142, 3.99783, -0.0292249, 7.40099e-05, -0.00229332, 0.00238329, 0.00292465, 0.0019418, 0.00127754, -0.00186028, -0.0013575, 0.00294898, 0.00398153, 0.00157982, 0.00204672, 0.471008, -0.543389, 0.335894, -2.08385, -2.16584, -0.129887, 0.468629, -0.543043, 0.333621, -2.08265, -2.16225, -0.12848, 5.59279e-05, 0.000144393, 7.4671e-05, 0.0014516, 0.00158257, 0.00323437
0.0160059, 1.69083, -1.22828, -1.53983, -0.900252, -1.19244, 1.22785, -1.30273, 0.000368503, 0.00476208, 0.000791472, -0.00138221, 0.00501884, 0.00153289, 0.00137157, 0.85273, 64.3347, 32.2532, 7.06909, 2.89142, 3.99783, -0.0292249, 7.38172e-05, -0.0022934, 0.00238336, 0.00292456, 0.00194185, 0.00127764, -0.00177525, -0.00132426, 0.00291908, 0.00394459, 0.00163658, 0.00197631, 0.471008, -0.543389, 0.335894, -2.08385, -2.16584, -0.129886, 0.468629, -0.543043, 0.333621, -2.08265, -2.16225, -0.12848, 8.71593e-05, 0.000225094, 0.000116391, 0.0014516, 0.00158257, 0.00323437
0.0170059, 1.69083, -1.22828, -1.53983, -0.900252, -1.19244, 1.22785, -1.30273, 0.000368503, 0.00476208, 0.000791472, -0.00138221, 0.00501884, 0.00153289, 0.00137157, 0.85273, 64.3347, 32.2532, 7.06909, 2.89142, 3.99783, -0.0292249, 7.35303e-05, -0.00229351, 0.00238346, 0.00292442, 0.00194192, 0.0012778, -0.00167169, -0.0012838, 0.00288267, 0.00389964, 0.00170569, 0.0018906, 0.471008, -0.543389, 0.335894, -2.08385, -2.16584, -0.129886, 0.468629, -0.543043, 0.333621, -2.08265, -2.16225, -0.12848, 0.000125182, 0.000323387, 0.000167197, 0.0014516, 0.00158257, 0.00323437
0.0180059, 1.69083, -1.22828, -1.53983, -0.900252, -1.19244, 1.22785, -1.30273, 0.000368503, 0.00476208, 0.000791472, -0.00138221, 0.00501884, 0.00153289, 0.00137157, 0.85273, 64.3347, 32.2532, 7.06909, 2.89142, 3.99783, -0.0292249, 7.31308e-05, -0.00229366, 0.0023836, 0.00292422, 0.00194202, 0.00127802, -0.00154972, -0.00123617, 0.0028398, 0.00384677, 0.00178706, 0.00178972, 0.471008, -0.543388, 0.335894, -2.08385, -2.16584, -0.129886, 0.468629, -0.543043, 0.333621, -2.08265, -2.16225, -0.12848, 0.00016994, 0.000439148, 0.000227022, 0.0014516, 0.00158257, 0.00323437
0.0190059, 1.69083, -1.22828, -1.53983, -0.900252, -1.19244, 1.22785, -1.30273, 0.000368503, 0.00476208, 0.000791472, -0.00138221, 0.00501884, 0.00153289, 0.00137157, 0.85273, 64.3347, 32.2532, 7.06909, 2.89142, 3.99783, -0.0292249, 7.26005e-05, -0.00229387, 0.00238379, 0.00292396, 0.00194214, 0.0012783, -0.00140948, -0.00118142, 0.00279052, 0.00378605, 0.00188059, 0.00167378, 0.471009, -0.543388, 0.335895, -2.08385, -2.16584, -0.129886, 0.468629, -0.543043, 0.333621, -2.08265, -2.16225, -0.12848, 0.000221382, 0.000572255, 0.000295798, 0.0014516, 0.00158257, 0.00323437
0.0200059, 1.69083, -1.22828, -1.53983, -0.900252, -1.19244, 1.22785, -1.30273, 0.000368503, 0.00476208, 0.000791472, -0.00138221, 0.00501884, 0.00153289, 0.00137157, 0.85273, 64.3347, 32.2532, 7.06909, 2.89142, 3.99783, -0.0292249, 7.19211e-05, -0.00229414, 0.00238403, 0.00292363, 0.00194231, 0.00127867, -0.00125109, -0.00111961, 0.00273487, 0.00371754, 0.00198619, 0.00154291, 0.471009, -0.543387, 0.335895, -2.08384, -2.16584, -0.129885, 0.468629, -0.543043, 0.333621, -2.08265, -2.16225, -0.12848, 0.000279451, 0.000722584, 0.000373459, 0.0014516, 0.00158257, 0.00323437
0.0210059, 1.69083, -1.22828, -1.53983, -0.900252, -1.19244, 1.22785, -1.30273, 0.000368503, 0.00476208, 0.000791472, -0.00138221, 0.00501884, 0.00153289, 0.00137157, 0.85273, 64.3347, 32.2532, 7.06909, 2.89142, 3.99783, -0.0292249, 7.10746e-05, -0.00229447, 0.00238433, 0.00292321, 0.00194251, 0.00127913, -0.00107469, -0.00105081, 0.00267292, 0.00364134, 0.00210378, 0.00139723, 0.471009, -0.543386, 0.335895, -2.08384, -2.16584, -0.129884, 0.468629, -0.543043, 0.333621, -2.08265, -2.16225, -0.12848, 0.000344096, 0.000890012, 0.000459939, 0.0014516, 0.00158257, 0.00323437
0.0220059, 1.69083, -1.22828, -1.53983, -0.900252, -1.19244, 1.22785, -1.30273, 0.000368503, 0.00476208, 0.000791472, -0.00138221, 0.00501884, 0.00153289, 0.00137157, 0.85273, 64.3347, 32.2532, 7.06909, 2.89142, 3.99783, -0.0292249, 7.00431e-05, -0.00229487, 0.00238469, 0.00292271, 0.00194275, 0.0012797, -0.000880402, -0.000975058, 0.0026047, 0.0035575, 0.00223324, 0.00123688, 0.47101, -0.543385, 0.335896, -2.08384, -2.16584, -0.129884, 0.468629, -0.543043, 0.333621, -2.08265, -2.16225, -0.12848, 0.000415261, 0.00107442, 0.00055517, 0.0014516, 0.00158257, 0.00323437
0.0230059, 1.69085, -1.22828, -1.5398, -0.900244, -1.19236, 1.2279, -1.30272, 0.00592722, 0.000483085, 0.0049454, -0.00114757, 0.00532911, 0.00796548, 0.000752781, 0.6623, 64.295, 32.031, 6.99371, 2.73212, 3.85501, -0.101552, 9.00565e-05, -0.00226329, 0.00236939, 0.00281764, 0.00197589, 0.00124297, -0.00291567, -0.00598383, 0.0017907, 0.01172, 0.000929629, 0.00914243, 0.47101, -0.543384, 0.335896, -2.08384, -2.16585, -0.129883, 0.468661, -0.543023, 0.333639, -2.08265, -2.16231, -0.128633, 0.000492895, 0.00127568, 0.000659086, 0.00642938, 0.00412333, 0.00269945
0.0240059, 1.69084, -1.22828, -1.5398, -0.900242, -1.19236, 1.22791, -1.30273, 0.00342721, -0.000584281, 0.00357174, -5.8953e-05, 0.00904071, 0.00648768, -0.000718849, 0.701973, 64.3347, 32.031, 6.95801, 2.7193, 3.84036, -0.0685925, 8.62617e-05, -0.00226483, 0.00237029, 0.00280697, 0.00198066, 0.00124457, -0.00175963, -0.00417248, 0.000749103, 0.0116874, -0.00383933, 0.0076052, 0.471011, -0.543383, 0.335897, -2.08384, -2.16585, -0.129882, 0.46866, -0.543026, 0.333638, -2.08265, -2.16231, -0.128648, 0.000576942, 0.00149367, 0.000771622, 0.00470815, 0.00328625, 0.00165865
0.0250059, 1.69085, -1.22829, -1.5398, -0.900246, -1.19235, 1.22791, -1.30273, 0.00527888, -0.00455552, 0.00144824, -0.00330037, 0.00492298, 0.00717483, -0.00122522, 0.586922, 64.1125, 31.8088, 6.95801, 2.63965, 3.77627, -0.0484509, 8.93623e-05, -0.00225759, 0.00237415, 0.00279821, 0.00198761, 0.00122915, -0.0015981, -0.00519753, -0.00291067, 0.00624074, -0.00344307, 0.0102504, 0.471011, -0.543381, 0.335898, -2.08384, -2.16585, -0.129881, 0.468668, -0.54302, 0.333636, -2.08263, -2.16233, -0.128665, 0.00066735, 0.00172827, 0.000892711, 0.00569594, 0.00396662, -0.00188997
0.0260059, 1.69086, -1.2283, -1.53981, -0.900249, -1.19235, 1.22792, -1.30272, 0.00727284, -0.00997038, -0.00381176, -0.00472644, 0.00323414, 0.00805643, 0.00138724, 0.436165, 63.7079, 31.4716, 6.91833, 2.51697, 3.69754, -0.10796, 8.95336e-05, -0.00225165, 0.00238641, 0.00280211, 0.00199912, 0.00123009, -0.000619962, -0.00567185, -0.0082762, 6.21057e-05, -0.00631433, 0.00764565, 0.471012, -0.543379, 0.335899, -2.08384, -2.16585, -0.129879, 0.468674, -0.543016, 0.333624, -2.08263, -2.16232, -0.128671, 0.000764066, 0.00197936, 0.00102229, 0.00610764, 0.00409729, -0.00722455
0.0270059, 1.69087, -1.2283, -1.53982, -0.900251, -1.19235, 1.22793, -1.30272, 0.00761735, -0.006196, -0.00655177, -0.00417877, 0.00752806, 0.00831754, 0.000178838, 0.325081, 62.9343, 31.063, 6.80725, 2.36316, 3.62521, -0.0878186, 8.62503e-05, -0.00225029, 0.00239241, 0.00281039, 0.00199272, 0.00123002, -0.000933589, -0.00561387, -0.00704783, 0.000297365, -0.0056154, 0.00853183, 0.471013, -0.543377, 0.3359, -2.08384, -2.16585, -0.129878, 0.468676, -0.543016, 0.333619, -2.08262, -2.16232, -0.128654, 0.000867038, 0.00224682, 0.00116028, 0.00618583, 0.00448294, -0.00582321
0.0280059, 1.69087, -1.22831, -1.53984, -0.900253, -1.19236, 1.22793, -1.30272, 0.00789724, -0.00392062, -0.0102092, -0.000830952, 0.000268478, 0.00679705, -0.00205091, 0.21003, 62.2717, 30.6901, 6.69617, 2.23407, 3.59683, -0.0292249, 8.06716e-05, -0.00225144, 0.00240645, 0.00283534, 0.00199269, 0.00123266, 0.00205722, -0.00312209, -0.00679701, -0.00600023, 0.0019897, 0.00363138, 0.471014, -0.543375, 0.335901, -2.08384, -2.16585, -0.129876, 0.468675, -0.543017, 0.333605, -2.08261, -2.16231, -0.128624, 0.000976211, 0.00253053, 0.00130664, 0.00392245, 0.00167346, -0.00581825
0.0290059, 1.69088, -1.22833, -1.53987, -0.90026, -1.19237, 1.22793, -1.30272, 0.0145153, -0.00707849, -0.0114649, -0.00242154, -0.00197351, 0.00495328, 9.07864e-05, 0.0949785, 61.7917, 30.2457, 6.62079, 2.14252, 3.58951, -0.0685925, 7.49071e-05, -0.00225172, 0.00242675, 0.00286513, 0.00199927, 0.00124063, -0.000227318, -0.00631518, -0.00993777, -0.011936, 0.000408208, 0.00786267, 0.471015, -0.543372, 0.335903, -2.08383, -2.16585, -0.129874, 0.468676, -0.543017, 0.333586, -2.0826, -2.16229, -0.128595, 0.00109153, 0.00283037, 0.00146128, 0.00703163, 0.00484274, -0.00850657
0.0300059, 1.69089, -1.22835, -1.5399, -0.900268, -1.19239, 1.22793, -1.30272, 0.0150964, -0.00878014, -0.0203045, -0.00450431, -0.00570916, 0.0031439, -0.00139754, 0.0196001, 61.4227, 29.9839, 6.58508, 2.10498, 3.59683, -0.0292249, 6.52404e-05, -0.00225358, 0.00245491, 0.00290927, 0.00200362, 0.00124192, 0.00177089, -0.00469366, -0.0146661, -0.0243449, 0.00186212, 0.00601035, 0.471016, -0.543369, 0.335904, -2.08383, -2.16585, -0.129871, 0.468674, -0.543019, 0.333558, -2.08257, -2.16227, -0.128548, 0.00121295, 0.00314621, 0.00162416, 0.00543435, 0.00384727, -0.0132738
0.0310059, 1.6909, -1.22836, -1.53993, -0.900272, -1.1924, 1.22793, -1.30272, 0.0157172, -0.00791954, -0.0228868, -0.00519802, -0.00901608, 0.00323184, -0.000694333, -0.0557783, 61.0934, 29.5752, 6.5097, 2.08667, 3.56845, -0.0356336, 5.65652e-05, -0.00225366, 0.00247766, 0.00294234, 0.00200364, 0.0012511, 0.00275793, -0.0042324, -0.0153197, -0.0285747, 0.00595014, 0.00387781, 0.471017, -0.543366, 0.335906, -2.08383, -2.16586, -0.129869, 0.468675, -0.543021, 0.333536, -2.08256, -2.16225, -0.128508, 0.00134042, 0.00347794, 0.00179519, 0.00511285, 0.00328627, -0.0138874
0.0320059, 1.69091, -1.22839, -1.53997, -0.900294, -1.19243, 1.22794, -1.30272, 0.016888, -0.0150948, -0.0314625, -0.00771333, -0.0126811, 0.00567677, 0.000520456, -0.0161054, 60.9824, 29.3134, 6.65649, 2.10498, 3.47507, -0.0621838, 4.44642e-05, -0.00225471, 0.00251328, 0.00299244, 0.00200367, 0.0012596, 0.00528342, -0.00395687, -0.0229026, -0.0377944, 0.00406451, 0.000510489, 0.471019, -0.543362, 0.335908, -2.08383, -2.16586, -0.129866, 0.468674, -0.543024, 0.333501, -2.08254, -2.16222, -0.128449, 0.00147388, 0.00382545, 0.00197432, 0.00478763, 0.00229631, -0.0215795
0.0330059, 1.69091, -1.22841, -1.54002, -0.900304, -1.19245, 1.22795, -1.30272, 0.0136626, -0.0173164, -0.0358345, -0.00808569, -0.0141584, 0.0067483, 0.000109611, 0.059273, 60.7602, 29.0912, 6.62079, 2.09308, 3.39633, -0.0557752, 3.02391e-05, -0.00225888, 0.00254016, 0.00303725, 0.00199425, 0.00127438, 0.00850147, -0.00137673, -0.0256814, -0.0413981, 0.00405553, -0.00480235, 0.47102, -0.543358, 0.33591, -2.08382, -2.16586, -0.129863, 0.468671, -0.54303, 0.333474, -2.08253, -2.1622, -0.128385, 0.00161328, 0.0041886, 0.00216148, 0.00236497, -0.000195448, -0.0245578
0.0340059, 1.69093, -1.22842, -1.54006, -0.90031, -1.19247, 1.22797, -1.30272, 0.0151407, -0.0142335, -0.0380237, -0.00754944, -0.0198004, 0.00799328, 7.30743e-05, -0.0161054, 60.6134, 28.8294, 6.54541, 2.08118, 3.30295, -0.0557752, 1.95507e-05, -0.00225636, 0.00256507, 0.00307453, 0.0019817, 0.00128116, 0.00981712, -0.00108032, -0.0246806, -0.0447531, 0.012769, -0.00709878, 0.471022, -0.543354, 0.335912, -2.08382, -2.16586, -0.12986, 0.468675, -0.543032, 0.33345, -2.08252, -2.16218, -0.128327, 0.00175856, 0.00456728, 0.0023566, 0.00229741, -0.00128181, -0.0235697
0.0350059, 1.69094, -1.22845, -1.5401, -0.900311, -1.19249, 1.22798, -1.30272, 0.0135015, -0.0190447, -0.0393569, -0.00541194, -0.0224548, 0.00827179, -0.00045991, 0.0196001, 60.6491, 28.6826, 6.39465, 2.02533, 3.22421, -0.0420422, 3.1166e-06, -0.00225862, 0.00259779, 0.00311481, 0.00198169, 0.00129726, 0.0128685, 0.000877124, -0.0277203, -0.0462234, 0.0104093, -0.0118319, 0.471024, -0.543349, 0.335915, -2.08382, -2.16586, -0.129856, 0.468674, -0.543039, 0.333418, -2.08252, -2.16215, -0.128277, 0.00190969, 0.00496137, 0.00255964, 0.000492978, -0.00351245, -0.0267826
0.0360066, 1.69096, -1.22846, -1.54013, -0.900316, -1.19252, 1.22799, -1.30271, 0.015383, -0.013955, -0.0334016, -0.00821969, -0.0195109, 0.0073996, 0.00606919, 0.059273, 60.4666, 28.3851, 6.28357, 1.96399, 3.17386, -0.0878186, -7.28234e-06, -0.00225765, 0.00261484, 0.00314755, 0.00196051, 0.00131283, 0.00925322, -0.00177301, -0.0233314, -0.0417899, 0.0128574, -0.0106467, 0.471026, -0.543344, 0.335917, -2.08381, -2.16587, -0.129852, 0.468677, -0.543041, 0.333402, -2.08252, -2.16214, -0.128214, 0.0020666, 0.00537076, 0.00277051, 0.00332572, -0.000100988, -0.0217569
0.0370066, 1.69098, -1.22846, -1.54018, -0.900333, -1.19255, 1.228, -1.30271, 0.0169364, -0.00878566, -0.0381612, -0.010688, -0.0227251, 0.00654184, 0.0041988, 0.0949785, 60.3555, 28.3454, 6.32324, 1.91546, 3.13083, -0.0814099, -1.54155e-05, -0.00225405, 0.00263893, 0.00320197, 0.00193428, 0.00131229, 0.00933305, -0.00156891, -0.0226353, -0.0493684, 0.0210792, -0.00890441, 0.471028, -0.543338, 0.33592, -2.08381, -2.16587, -0.129848, 0.468682, -0.54304, 0.33338, -2.0825, -2.16214, -0.128123, 0.00222924, 0.00579533, 0.00298915, 0.00331249, 0.000129263, -0.0208572
0.0380066, 1.691, -1.22846, -1.54022, -0.900347, -1.19257, 1.22801, -1.30271, 0.0162792, -0.00658246, -0.0365992, -0.0145588, -0.0238432, 0.0150783, 0.00285437, 0.21003, 60.3198, 28.2343, 6.32324, 1.8349, 3.10977, -0.0750012, -2.30336e-05, -0.00225025, 0.00265701, 0.00324262, 0.00190833, 0.00131066, 0.00952483, -0.00355754, -0.0207053, -0.0428527, 0.0289379, -0.00486154, 0.47103, -0.543332, 0.335923, -2.0838, -2.16587, -0.129843, 0.468688, -0.543038, 0.333364, -2.08249, -2.16214, -0.128047, 0.00239756, 0.00623496, 0.00321551, 0.00554342, 0.000163911, -0.0188148
0.0390066, 1.69102, -1.22846, -1.54026, -0.900357, -1.1926, 1.22802, -1.30271, 0.0152996, -0.00639396, -0.0324378, -0.0132566, -0.0253092, 0.00983665, 0.00188495, 0.360787, 60.3555, 28.274, 6.28357, 1.76807, 3.13815, -0.0685925, -3.26188e-05, -0.00224805, 0.00267535, 0.00328728, 0.00187953, 0.00131372, 0.00968616, -0.00213821, -0.0195114, -0.0438656, 0.0276354, -0.00488436, 0.471033, -0.543326, 0.335927, -2.0838, -2.16588, -0.129838, 0.468692, -0.543038, 0.333348, -2.08248, -2.16214, -0.127963, 0.00257152, 0.00668953, 0.00344951, 0.00434876, 0.00021733, -0.0173841
0.0400066, 1.69103, -1.22846, -1.5403, -0.900385, -1.19262, 1.22803, -1.30271, 0.0170311, -0.00198863, -0.0369746, -0.0168817, -0.027326, 0.00994761, 0.00142117, 0.6623, 60.3555, 28.3851, 6.43433, 1.72504, 3.19583, -0.0685925, -4.01555e-05, -0.00224638, 0.00269316, 0.00334403, 0.00184112, 0.00131001, 0.00928098, -0.00263995, -0.0192865, -0.0505095, 0.0347202, -0.00287592, 0.471035, -0.543319, 0.33593, -2.08379, -2.16588, -0.129833, 0.468696, -0.543036, 0.333332, -2.08246, -2.16215, -0.127856, 0.00275106, 0.00715892, 0.0036911, 0.00502298, 0.00107264, -0.0168727
0.0410066, 1.69105, -1.22845, -1.54033, -0.900401, -1.19266, 1.22803, -1.30271, 0.019316, -0.00431992, -0.0351731, -0.0146746, -0.0294747, 0.00381404, 0.000833499, 0.963814, 60.4666, 28.4208, 6.39465, 1.70032, 3.29562, -0.0621838, -4.74534e-05, -0.0022447, 0.00270838, 0.00339249, 0.00181057, 0.00131031, 0.00905926, -0.00222753, -0.0205449, -0.0549834, 0.0312224, -0.00218988, 0.471038, -0.543312, 0.335934, -2.08379, -2.16589, -0.129827, 0.4687, -0.543034, 0.33332, -2.08244, -2.16215, -0.127766, 0.00293613, 0.00764302, 0.00394021, 0.00474272, 0.00195237, -0.0178193
0.0420066, 1.69106, -1.22844, -1.54037, -0.900425, -1.19269, 1.22803, -1.30271, 0.0146235, -0.000841492, -0.0380501, -0.0158777, -0.0262953, 0.00450353, 0.000648223, 1.41608, 60.5023, 28.6429, 6.47003, 1.6756, 3.38901, -0.0621838, -5.82527e-05, -0.00224666, 0.00272248, 0.00344298, 0.0017699, 0.00131439, 0.0110253, 0.000428466, -0.0195637, -0.0551863, 0.032913, -0.00639659, 0.471041, -0.543304, 0.335938, -2.08378, -2.16589, -0.129821, 0.468701, -0.543034, 0.333309, -2.08243, -2.16215, -0.127662, 0.00312667, 0.00814172, 0.00419678, 0.00238652, 0.000250317, -0.0168188
0.0430066, 1.69107, -1.22844, -1.54039, -0.900444, -1.19272, 1.22804, -1.30271, 0.0144999, -8.51133e-05, -0.0337661, -0.0172489, -0.0306035, 0.00124829, -0.00024442, 1.87232, 60.6134, 28.754, 6.43433, 1.70581, 3.46042, -0.0420422, -6.85488e-05, -0.00224622, 0.00273499, 0.00347936, 0.00173466, 0.00131228, 0.0107683, 0.000738739, -0.0182556, -0.0570723, 0.0357796, -0.0042617, 0.471044, -0.543295, 0.335942, -2.08378, -2.16589, -0.129815, 0.468705, -0.543034, 0.333299, -2.08242, -2.16217, -0.12758, 0.00332265, 0.00865489, 0.00446074, 0.00231067, 0.000803181, -0.015214
0.0440066, 1.69109, -1.22843, -1.54043, -0.900462, -1.19276, 1.22805, -1.30271, 0.0133268, 0.00479008, -0.0318846, -0.0205935, -0.0335958, 0.00486559, -0.000110883, 2.24921, 60.6848, 29.0555, 6.35895, 1.73694, 3.49612, -0.0420422, -7.87226e-05, -0.00224274, 0.00274744, 0.00351764, 0.00168943, 0.00131028, 0.0109805, 0.000295687, -0.0150026, -0.05491, 0.0453793, -0.00326459, 0.471048, -0.543286, 0.335947, -2.08377, -2.1659, -0.129808, 0.468711, -0.543033, 0.33329, -2.08242, -2.16219, -0.127485, 0.003524, 0.00918243, 0.00473204, 0.00307966, 0.000638625, -0.0117768
0.0450066, 1.69111, -1.22843, -1.54045, -0.900485, -1.19279, 1.22807, -1.30271, 0.0175707, 0.00357979, -0.0313949, -0.0241253, -0.0317188, 0.00913546, 0.00071111, 2.55073, 60.8356, 29.2777, 6.32324, 1.78638, 3.48971, -0.0621838, -8.47381e-05, -0.00223217, 0.0027595, 0.00354848, 0.00164215, 0.00129702, 0.00870836, -0.00375792, -0.0160792, -0.0525748, 0.0455419, 0.00361978, 0.471051, -0.543277, 0.335952, -2.08376, -2.1659, -0.129801, 0.468725, -0.543027, 0.333281, -2.08241, -2.16222, -0.127397, 0.00373068, 0.00972421, 0.00501061, 0.00721437, 0.00375535, -0.0123311
0.0460066, 1.69114, -1.22843, -1.54047, -0.900499, -1.19283, 1.22809, -1.30271, 0.0191866, 0.00364494, -0.0286271, -0.0224424, -0.0300832, 0.0114119, -0.00142942, 2.77686, 61.0934, 29.5395, 6.09711, 1.8349, 3.50345, -0.00999879, -9.16547e-05, -0.00222098, 0.00277321, 0.00357394, 0.00160325, 0.00127748, 0.0084106, -0.00515297, -0.0149169, -0.0471038, 0.0455059, 0.00728161, 0.471055, -0.543267, 0.335957, -2.08375, -2.16591, -0.129793, 0.46874, -0.543022, 0.333271, -2.08238, -2.16226, -0.127324, 0.00394263, 0.0102801, 0.00529638, 0.00885089, 0.00448353, -0.0108936
0.0470066, 1.69117, -1.22844, -1.54049, -0.90052, -1.19287, 1.22811, -1.30271, 0.01853, 0.00127102, -0.0272241, -0.0232838, -0.0338663, 0.0126362, 0.00123916, 3.07838, 61.4584, 29.8371, 5.95032, 1.89624, 3.52542, -0.0685925, -0.000101355, -0.00221171, 0.00279274, 0.00360286, 0.0015688, 0.00127159, 0.00985745, -0.00482862, -0.0159992, -0.0473259, 0.0472092, 0.00367058, 0.471059, -0.543256, 0.335962, -2.08375, -2.16592, -0.129785, 0.468753, -0.543017, 0.333256, -2.08237, -2.16228, -0.12725, 0.00415982, 0.0108501, 0.00558931, 0.00875683, 0.0037783, -0.011884
0.0480066, 1.6912, -1.22844, -1.54051, -0.900533, -1.19292, 1.22813, -1.30271, 0.0225424, -0.00158895, -0.0259939, -0.0214551, -0.0362485, 0.0125703, -0.00159883, 3.34419, 61.756, 30.1346, 5.68848, 1.94568, 3.57577, -0.00267457, -0.000111344, -0.00220248, 0.00280771, 0.00363061, 0.00152757, 0.00125496, 0.00970958, -0.00642414, -0.0174211, -0.0476699, 0.0465701, 0.00821929, 0.471064, -0.543245, 0.335968, -2.08374, -2.16592, -0.129777, 0.468766, -0.543013, 0.333245, -2.08235, -2.16231, -0.12717, 0.00438218, 0.0114339, 0.00588931, 0.0105159, 0.00479233, -0.0130133
0.0490066, 1.69123, -1.22845, -1.54052, -0.900544, -1.19296, 1.22815, -1.30271, 0.0260087, -0.00356815, -0.0223543, -0.0203198, -0.04173, 0.0117858, -0.000544905, 3.57032, 62.0496, 30.3211, 5.42664, 1.9704, 3.64718, -0.0164075, -0.000119837, -0.00219109, 0.00281771, 0.00364639, 0.00148447, 0.00124279, 0.00956956, -0.00779165, -0.0176056, -0.0481551, 0.048896, 0.00903735, 0.471068, -0.543234, 0.335974, -2.08373, -2.16593, -0.129768, 0.468782, -0.543008, 0.333239, -2.08234, -2.16235, -0.127101, 0.00460967, 0.0120315, 0.00619634, 0.0120974, 0.00561265, -0.012908
0.0500066, 1.69126, -1.22846, -1.54053, -0.900557, -1.19301, 1.22817, -1.30271, 0.0303809, -0.00932005, -0.0182682, -0.0205294, -0.0415834, 0.0164986, -0.000116645, 3.72108, 62.5296, 30.579, 5.2005, 2.00061, 3.71127, -0.0228162, -0.000130635, -0.002179, 0.00283847, 0.00367022, 0.00145084, 0.00123001, 0.00836095, -0.0117513, -0.0196101, -0.0419477, 0.0457015, 0.0147113, 0.471073, -0.543221, 0.335981, -2.08372, -2.16594, -0.129759, 0.468799, -0.543003, 0.333223, -2.08233, -2.16238, -0.127033, 0.00484224, 0.0126428, 0.00651033, 0.0161686, 0.00788797, -0.0145054
0.0510066, 1.69129, -1.22846, -1.54055, -0.900569, -1.19305, 1.22819, -1.30271, 0.0306068, -0.00639357, -0.017578, -0.017778, -0.0406467, 0.0207425, -0.000308173, 3.98292, 62.8589, 30.8051, 4.97833, 2.01343, 3.7543, -0.0164075, -0.000142453, -0.00216823, 0.00285209, 0.00368737, 0.00140694, 0.00121933, 0.00957759, -0.0119623, -0.0171346, -0.0359776, 0.0501091, 0.0127732, 0.471078, -0.543208, 0.335987, -2.08371, -2.16594, -0.129749, 0.468814, -0.542999, 0.333214, -2.08232, -2.16242, -0.126961, 0.00507984, 0.0132677, 0.00683122, 0.01675, 0.00693952, -0.0119354
0.0520066, 1.69132, -1.22848, -1.54056, -0.900583, -1.1931, 1.22822, -1.30271, 0.0340553, -0.00772683, -0.0197429, -0.0151146, -0.0459742, 0.024482, 3.71226e-05, 4.24873, 63.3389, 30.8765, 4.86725, 2.05646, 3.7836, -0.0228162, -0.000154911, -0.00215624, 0.00286811, 0.00370046, 0.00136559, 0.00120664, 0.0115261, -0.0127695, -0.0184051, -0.0367722, 0.0554581, 0.0101638, 0.471083, -0.543195, 0.335994, -2.0837, -2.16595, -0.129738, 0.468831, -0.542995, 0.333203, -2.08231, -2.16246, -0.126895, 0.00532241, 0.013906, 0.00715894, 0.0178226, 0.00588282, -0.0131889
0.0530066, 1.69135, -1.22848, -1.54057, -0.900605, -1.19315, 1.22825, -1.30271, 0.0352172, -0.00426555, -0.0181078, -0.0154921, -0.0485196, 0.0230759, -0.00044606, 4.43916, 63.6325, 31.063, 4.86725, 2.06195, 3.79733, -0.00999879, -0.000163325, -0.00213949, 0.00288142, 0.0037154, 0.00131376, 0.00118124, 0.0112818, -0.0129248, -0.0162645, -0.0381049, 0.0607128, 0.011439, 0.471088, -0.54318, 0.336002, -2.08369, -2.16596, -0.129728, 0.468853, -0.542986, 0.333196, -2.08229, -2.16252, -0.126818, 0.00556992, 0.0145576, 0.00749345, 0.0182939, 0.00645272, -0.0107075
0.0540066, 1.69138, -1.22848, -1.54058, -0.900631, -1.1932, 1.22828, -1.30271, 0.0343, -0.000249184, -0.0168717, -0.0211845, -0.050838, 0.0277688, -0.000294442, 4.701, 63.8547, 31.2494, 4.97833, 2.08118, 3.7836, -0.00999879, -0.000173786, -0.00212487, 0.00289283, 0.00373507, 0.00125116, 0.00116371, 0.0110208, -0.0141565, -0.014039, -0.0365376, 0.0697861, 0.0145476, 0.471094, -0.543166, 0.336009, -2.08368, -2.16597, -0.129716, 0.468873, -0.542979, 0.33319, -2.08228, -2.16257, -0.126723, 0.00582231, 0.0152225, 0.00783467, 0.0198475, 0.00708341, -0.00816556
0.0550066, 1.69142, -1.22849, -1.54059, -0.900637, -1.19326, 1.22831, -1.30271, 0.0395489, -0.00371923, -0.0151029, -0.0166271, -0.0535647, 0.029569, 0.000280622, 4.85175, 64.2236, 31.4002, 4.86725, 2.12421, 3.81198, -0.0228162, -0.000189241, -0.00211057, 0.00290914, 0.00374531, 0.00120079, 0.00115242, 0.0114393, -0.0162089, -0.0151864, -0.0339392, 0.0695841, 0.0145931, 0.4711, -0.54315, 0.336017, -2.08367, -2.16597, -0.129705, 0.468894, -0.542976, 0.333179, -2.08228, -2.16262, -0.12665, 0.00607953, 0.0159004, 0.00818254, 0.022128, 0.00760914, -0.00907768
0.0560066, 1.69145, -1.2285, -1.5406, -0.900656, -1.19332, 1.22834, -1.30271, 0.0358887, -0.00633598, -0.0119855, -0.0209005, -0.0499435, 0.0310822, 0.000900808, 5.04218, 64.5926, 31.4716, 4.94263, 2.14252, 3.84768, -0.0420422, -0.000202496, -0.002096, 0.00292392, 0.00375507, 0.00114979, 0.00113817, 0.0115597, -0.0161137, -0.0161409, -0.0301837, 0.0652959, 0.0162743, 0.471106, -0.543134, 0.336026, -2.08366, -2.16598, -0.129692, 0.468914, -0.54297, 0.33317, -2.08227, -2.16267, -0.126577, 0.00634154, 0.0165914, 0.00853701, 0.0222646, 0.0083243, -0.00968156
0.0570066, 1.69149, -1.2285, -1.5406, -0.900677, -1.19338, 1.22837, -1.30271, 0.040018, -0.00479425, -0.00910318, -0.0215493, -0.0514134, 0.0303402, 0.000364416, 5.19294, 64.8108, 31.5113, 5.05371, 2.14252, 3.9191, -0.0356336, -0.000213369, -0.00207943, 0.00293414, 0.00376677, 0.00108882, 0.00111441, 0.00974958, -0.0184735, -0.0148405, -0.0301178, 0.0681607, 0.0217219, 0.471113, -0.543117, 0.336034, -2.08364, -2.16599, -0.129679, 0.468937, -0.542961, 0.333167, -2.08226, -2.16273, -0.126492, 0.00660828, 0.0172953, 0.00889802, 0.0248701, 0.0107122, -0.00782716
0.0580066, 1.69153, -1.2285, -1.54061, -0.900695, -1.19343, 1.2284, -1.30271, 0.0419125, -0.00619766, -0.0105691, -0.024113, -0.0523738, 0.0261117, -0.000468205, 5.26832, 64.9973, 31.6977, 5.12909, 2.13611, 3.96945, -0.0164075, -0.000226015, -0.00206335, 0.00294857, 0.00378561, 0.00102988, 0.00109223, 0.0090855, -0.0187042, -0.0172703, -0.0374599, 0.0663308, 0.0250648, 0.471119, -0.543099, 0.336043, -2.08363, -2.166, -0.129666, 0.46896, -0.542953, 0.333159, -2.08225, -2.16279, -0.1264, 0.00687971, 0.0180119, 0.00926549, 0.02526, 0.0124679, -0.00976303
0.0590066, 1.69157, -1.2285, -1.54061, -0.900711, -1.19349, 1.22843, -1.30271, 0.0430929, -0.000191861, -0.00715005, -0.0226229, -0.0562643, 0.0277648, -0.0005488, 5.3437, 65.144, 31.6977, 5.2005, 2.09308, 4.0198, -0.00999879, -0.00023777, -0.00204638, 0.00295482, 0.00378625, 0.000968316, 0.00106879, 0.00944821, -0.0191002, -0.0125033, -0.034135, 0.0765137, 0.0246145, 0.471126, -0.543081, 0.336053, -2.08362, -2.16601, -0.129652, 0.468984, -0.542945, 0.33316, -2.08224, -2.16286, -0.126325, 0.00715578, 0.0187412, 0.00963939, 0.0261173, 0.0121222, -0.00475043
0.0600066, 1.69161, -1.22851, -1.54062, -0.900723, -1.19355, 1.22846, -1.3027, 0.0438542, -0.00169126, -0.00827835, -0.0175933, -0.060294, 0.0341635, 0.00156744, 5.41908, 65.4019, 31.8445, 5.24017, 2.06836, 4.06283, -0.0621838, -0.000255783, -0.00203237, 0.00297142, 0.00379962, 0.000910033, 0.00106212, 0.0132194, -0.0186491, -0.0128398, -0.0296217, 0.0816658, 0.0163615, 0.471134, -0.543062, 0.336063, -2.0836, -2.16602, -0.129638, 0.469005, -0.542941, 0.33315, -2.08224, -2.16291, -0.126238, 0.00743644, 0.0194831, 0.0100196, 0.0260708, 0.00917436, -0.00527388
0.0610066, 1.69165, -1.22852, -1.54062, -0.900726, -1.19362, 1.22849, -1.3027, 0.0469756, -0.00675941, -0.00650541, -0.0142661, -0.0683087, 0.0283495, 0.000536722, 5.38337, 65.6955, 31.8842, 5.16479, 2.05646, 4.12692, -0.0484509, -0.000272119, -0.0020157, 0.0029858, 0.00380578, 0.000856629, 0.00104532, 0.0146949, -0.0177908, -0.0156741, -0.0365177, 0.0805213, 0.0151905, 0.471141, -0.543042, 0.336073, -2.08359, -2.16603, -0.129623, 0.46903, -0.542934, 0.333143, -2.08223, -2.16296, -0.126163, 0.00772164, 0.0202374, 0.0104062, 0.0254491, 0.00887286, -0.00788906
0.0620066, 1.6917, -1.22853, -1.54063, -0.900734, -1.19369, 1.22853, -1.3027, 0.0474354, -0.00572237, -0.00697926, -0.0106607, -0.0695875, 0.0256035, 0.00494085, 5.41908, 65.9177, 31.9953, 5.16479, 2.03815, 4.14889, -0.0420422, -0.000291795, -0.00200084, 0.00300109, 0.00381455, 0.000794008, 0.00103279, 0.016335, -0.0161851, -0.0152756, -0.0385215, 0.081514, 0.00675822, 0.471149, -0.543021, 0.336083, -2.08357, -2.16604, -0.129607, 0.469053, -0.54293, 0.333135, -2.08223, -2.16302, -0.126076, 0.00801134, 0.0210041, 0.0107989, 0.0242086, 0.00789311, -0.00730861
0.0630066, 1.69174, -1.22854, -1.54063, -0.900747, -1.19375, 1.22856, -1.3027, 0.0463567, -0.00796956, -0.00375772, -0.0129109, -0.0653612, 0.0279199, 0.00393315, 5.38337, 66.1359, 31.9556, 5.24017, 2.00702, 4.17727, -0.0484509, -0.000306682, -0.00198275, 0.00301579, 0.0038203, 0.00074039, 0.00100993, 0.0159107, -0.01728, -0.0157929, -0.0331401, 0.0774518, 0.0110162, 0.471157, -0.543, 0.336094, -2.08356, -2.16606, -0.129591, 0.469079, -0.54292, 0.333129, -2.08221, -2.16308, -0.126001, 0.00830549, 0.021783, 0.0111979, 0.0255622, 0.00921559, -0.00738794
0.0640066, 1.69179, -1.22854, -1.54064, -0.900746, -1.19382, 1.22859, -1.30271, 0.0474884, -0.00896264, -0.00605629, -0.0100434, -0.062551, 0.025774, 0.00244881, 5.38337, 66.3223, 32.1064, 5.12909, 1.98871, 4.1846, -0.0356336, -0.000329639, -0.00196965, 0.00303144, 0.00382945, 0.000678873, 0.00100416, 0.0168796, -0.016492, -0.0173304, -0.0349444, 0.0735779, 0.0102912, 0.471166, -0.542978, 0.336106, -2.08354, -2.16607, -0.129574, 0.469101, -0.542918, 0.333121, -2.08222, -2.16313, -0.125913, 0.00860403, 0.0225739, 0.011603, 0.0250528, 0.00925429, -0.00862747
0.0650066, 1.69183, -1.22855, -1.54064, -0.900761, -1.1939, 1.22862, -1.3027, 0.0482597, -0.00803948, -0.00581927, -0.0141559, -0.0668564, 0.0292741, 0.00209596, 5.38337, 66.4334, 32.1818, 5.27588, 2.01343, 4.17727, -0.0420422, -0.000349741, -0.0019537, 0.00304536, 0.00384299, 0.000604755, 0.000988645, 0.0172444, -0.0177016, -0.0172993, -0.0360388, 0.080681, 0.0129933, 0.471175, -0.542955, 0.336118, -2.08352, -2.16608, -0.129557, 0.469125, -0.542912, 0.333116, -2.08222, -2.1632, -0.125807, 0.00890693, 0.0233769, 0.0120141, 0.026578, 0.00974227, -0.00827899
0.0660066, 1.69183, -1.22855, -1.54064, -0.900761, -1.1939, 1.22862, -1.3027, 0.0482597, -0.00803948, -0.00581927, -0.0141559, -0.0668564, 0.0292741, 0.00209596, 5.38337, 66.4334, 32.1818, 5.27588, 2.01343, 4.17727, -0.0420422, -0.000374747, -0.00196332, 0.00305413, 0.00383079, 0.000610475, 0.00100198, 0.0181027, -0.0173738, -0.0175969, -0.0363895, 0.0812439, 0.0123034, 0.471184, -0.542931, 0.33613, -2.0835, -2.16609, -0.129539, 0.469125, -0.542912, 0.333116, -2.08222, -2.1632, -0.125807, 0.00921413, 0.0241918, 0.0124312, 0.026578, 0.00974227, -0.00827899
0.0670066, 1.69192, -1.22856, -1.54065, -0.90078, -1.19404, 1.22868, -1.30271, 0.0464917, -0.00557318, -0.00458578, -0.00994757, -0.0701488, 0.028737, -0.000602807, 5.38337, 66.5802, 32.2532, 5.38696, 2.00061, 4.2203, 0.00373412, -0.000394575, -0.00192803, 0.00307371, 0.00386455, 0.000473071, 0.00096453, 0.0211145, -0.0148128, -0.0153791, -0.0351864, 0.0861967, 0.00832082, 0.471193, -0.542906, 0.336143, -2.08349, -2.16611, -0.12952, 0.46917, -0.542903, 0.333105, -2.08221, -2.16332, -0.125615, 0.0095256, 0.0250185, 0.0128543, 0.0245209, 0.0071491, -0.00605552
0.0680066, 1.69192, -1.22856, -1.54065, -0.90078, -1.19404, 1.22868, -1.30271, 0.0464917, -0.00557318, -0.00458578, -0.00994757, -0.0701488, 0.028737, -0.000602807, 5.38337, 66.5802, 32.2532, 5.38696, 2.00061, 4.2203, 0.00373412, -0.000421318, -0.00193832, 0.00308308, 0.0038515, 0.000479176, 0.000978778, 0.0219974, -0.0144759, -0.0156852, -0.0355464, 0.0867753, 0.00761199, 0.471203, -0.542881, 0.336156, -2.08347, -2.16612, -0.129501, 0.46917, -0.542903, 0.333105, -2.08221, -2.16332, -0.125615, 0.00984127, 0.0258569, 0.0132832, 0.0245209, 0.0071491, -0.00605552
0.0690066, 1.69201, -1.22855, -1.54065, -0.900796, -1.19419, 1.22874, -1.30271, 0.0477343, -0.00191031, -0.00263693, -0.00840719, -0.0720983, 0.0317431, -0.00125178, 5.26832, 66.5445, 32.3285, 5.53772, 1.9823, 4.27798, 0.0229602, -0.000440066, -0.00190172, 0.00309345, 0.00388405, 0.000324614, 0.00093739, 0.0227518, -0.0150977, -0.0127364, -0.0316531, 0.0938771, 0.00764177, 0.471213, -0.542854, 0.336169, -2.08345, -2.16613, -0.129481, 0.469217, -0.542892, 0.333104, -2.08221, -2.16345, -0.125407, 0.0101611, 0.0267069, 0.013718, 0.0255963, 0.00682661, -0.00284495
0.0700066, 1.69206, -1.22855, -1.54067, -0.900799, -1.19427, 1.22876, -1.30271, 0.0508185, 0.000616438, -0.00612404, -0.00591009, -0.0772136, 0.0325373, -0.000306157, 5.15327, 66.4691, 32.515, 5.53772, 1.9704, 4.29904, 0.0101428, -0.000466177, -0.00189046, 0.00310549, 0.00390348, 0.000245331, 0.00093783, 0.0246141, -0.0148317, -0.0125442, -0.0358496, 0.101682, 0.00340133, 0.471223, -0.542827, 0.336183, -2.08343, -2.16615, -0.129461, 0.469239, -0.542888, 0.333102, -2.08222, -2.1635, -0.125284, 0.0104851, 0.0275683, 0.0141585, 0.0257289, 0.00580916, -0.0024953
0.0710066, 1.69211, -1.22854, -1.54067, -0.900807, -1.19435, 1.22879, -1.3027, 0.0532005, 0.00436921, -0.00408599, -0.00593228, -0.076828, 0.0287843, 0.00129419, 5.04218, 66.4334, 32.515, 5.6131, 1.9704, 4.31369, -0.0292249, -0.000487508, -0.00187543, 0.00311354, 0.00391582, 0.000167289, 0.000923388, 0.0232312, -0.0154731, -0.0103866, -0.0375821, 0.103801, 0.00446886, 0.471234, -0.542799, 0.336197, -2.08341, -2.16616, -0.12944, 0.469265, -0.542879, 0.333104, -2.08222, -2.16357, -0.125172, 0.0108131, 0.0284411, 0.0146048, 0.0267264, 0.00774209, 0.000276315
0.0720066, 1.69217, -1.22854, -1.54066, -0.9008, -1.19443, 1.22882, -1.30271, 0.0565486, 0.00323643, -0.00272646, -0.000600107, -0.076598, 0.0318097, -9.03732e-05, 4.85175, 66.4334, 32.515, 5.46234, 1.97681, 4.29904, -0.00267457, -0.000512765, -0.00185979, 0.00312069, 0.00391658, 8.86021e-05, 0.000914663, 0.0243491, -0.0166481, -0.0100646, -0.0321195, 0.104144, 0.00449765, 0.471245, -0.54277, 0.336212, -2.08339, -2.16618, -0.129418, 0.469292, -0.542874, 0.333108, -2.08223, -2.16364, -0.12507, 0.0111452, 0.0293251, 0.0150567, 0.0282842, 0.00752165, 0.000837012
0.0730066, 1.69222, -1.22853, -1.54067, -0.900804, -1.19451, 1.22885, -1.30271, 0.0561698, 0.00332835, -0.00274751, -0.00465831, -0.0754774, 0.0252572, -0.000749694, 4.77637, 66.3937, 32.5547, 5.50201, 1.95758, 4.26333, 0.0165515, -0.000538462, -0.0018466, 0.00312812, 0.0039219, 8.92291e-06, 0.000903711, 0.0233461, -0.0159049, -0.0114574, -0.0395438, 0.101035, 0.0079442, 0.471256, -0.542741, 0.336228, -2.08336, -2.16619, -0.129396, 0.469317, -0.542868, 0.333111, -2.08223, -2.16371, -0.124962, 0.0114812, 0.0302203, 0.0155142, 0.0277913, 0.00959076, 9.73279e-05
0.0740066, 1.69228, -1.22852, -1.54067, -0.900801, -1.19459, 1.22887, -1.30271, 0.0579628, 0.00639418, -0.00183306, -0.00170569, -0.0747409, 0.0300955, -8.10371e-06, 4.62562, 66.358, 32.5547, 5.42664, 1.93927, 4.22763, 0.00373412, -0.000563637, -0.00183112, 0.00313439, 0.00392476, -7.20813e-05, 0.000894417, 0.0242642, -0.0169642, -0.00892147, -0.0332001, 0.106248, 0.00625461, 0.471268, -0.54271, 0.336243, -2.08334, -2.16621, -0.129373, 0.469345, -0.54286, 0.333117, -2.08224, -2.16378, -0.124855, 0.0118212, 0.0311266, 0.0159772, 0.0293149, 0.0092447, 0.00288977
0.0750066, 1.69234, -1.22853, -1.54067, -0.900804, -1.19466, 1.2289, -1.3027, 0.0595013, 0.000300786, -0.00122309, -0.00224488, -0.0750476, 0.0237449, 0.00146539, 4.43916, 66.5445, 32.5547, 5.46234, 1.93927, 4.19192, -0.0356336, -0.000588096, -0.00181254, 0.00315242, 0.00393222, -0.000135618, 0.000879472, 0.0242215, -0.0166023, -0.013332, -0.0397215, 0.0979779, 0.00630661, 0.47128, -0.542678, 0.33626, -2.08332, -2.16623, -0.129349, 0.469376, -0.542849, 0.333111, -2.08223, -2.16385, -0.12476, 0.012165, 0.0320437, 0.0164457, 0.0291353, 0.0108673, -0.000979293
0.0760066, 1.69239, -1.22853, -1.54067, -0.900794, -1.19474, 1.22893, -1.3027, 0.0564905, 0.00115762, -0.000816172, 0.000897464, -0.0705729, 0.0236351, 0.000511757, 4.43916, 66.6516, 32.5547, 5.35126, 1.93927, 4.15622, -0.0228162, -0.000621314, -0.0018033, 0.00316421, 0.0039304, -0.000203918, 0.000881048, 0.0264052, -0.0143791, -0.0124394, -0.0357398, 0.0953495, 0.00242737, 0.471292, -0.542646, 0.336276, -2.08329, -2.16625, -0.129324, 0.469398, -0.542848, 0.33311, -2.08224, -2.1639, -0.124668, 0.0125127, 0.0329717, 0.0169196, 0.0273745, 0.00941056, 0.000105129
0.0770066, 1.69245, -1.22853, -1.54067, -0.900789, -1.19482, 1.22896, -1.3027, 0.0588865, -0.0013383, 0.000949089, 0.00220824, -0.0712184, 0.0193413, 0.000348332, 4.24873, 66.7627, 32.6261, 5.27588, 1.92737, 4.10586, -0.0228162, -0.000648068, -0.0017849, 0.00317929, 0.0039347, -0.000272744, 0.000867081, 0.0262624, -0.0145545, -0.013941, -0.0385833, 0.0917617, 0.0036968, 0.471305, -0.542612, 0.336293, -2.08327, -2.16626, -0.129299, 0.469429, -0.542837, 0.333108, -2.08224, -2.16397, -0.12457, 0.0128642, 0.0339105, 0.0173989, 0.0278415, 0.0107285, -0.000881576
0.0780066, 1.69251, -1.22853, -1.54067, -0.900783, -1.19489, 1.22899, -1.3027, 0.057663, -0.00228913, -3.20478e-05, 0.00941177, -0.0722438, 0.0214363, -0.000237126, 4.17335, 66.8381, 32.6658, 5.2005, 1.93378, 4.04086, -0.00999879, -0.00067699, -0.00176784, 0.00319095, 0.00392916, -0.000344999, 0.00085428, 0.0306525, -0.0119894, -0.0139479, -0.0349797, 0.0927367, -0.00482493, 0.471318, -0.542578, 0.336311, -2.08324, -2.16628, -0.129273, 0.46946, -0.542829, 0.333109, -2.08224, -2.16405, -0.124478, 0.0132194, 0.0348598, 0.0178835, 0.025794, 0.00723878, -0.0010062
0.0790066, 1.69259, -1.22854, -1.54066, -0.900779, -1.19497, 1.22903, -1.3027, 0.0618582, -0.00384981, 0.00277452, 0.00671256, -0.0732569, 0.02141, 0.00079538, 4.02259, 66.9492, 32.5547, 5.2005, 1.93927, 4.01248, -0.0356336, -0.000700434, -0.00174397, 0.00320345, 0.00392134, -0.000412464, 0.000830859, 0.0287585, -0.0149707, -0.0148144, -0.0354806, 0.0928517, 0.000885564, 0.471331, -0.542543, 0.336329, -2.08322, -2.1663, -0.129247, 0.469498, -0.542814, 0.33311, -2.08222, -2.16413, -0.124394, 0.0135784, 0.0358197, 0.0183733, 0.0290304, 0.0103253, -0.00116927
0.0800066, 1.69265, -1.22854, -1.54067, -0.900777, -1.19504, 1.22906, -1.3027, 0.0619917, -0.00403093, -0.00143591, 0.00798029, -0.0788189, 0.0217032, 0.000770633, 3.98292, 67.0206, 32.7015, 5.2005, 1.95209, 3.97677, -0.0420422, -0.000729859, -0.00172531, 0.0032217, 0.00392944, -0.000484977, 0.00081663, 0.0321157, -0.0130598, -0.0165686, -0.0413475, 0.0982067, -0.00474868, 0.471345, -0.542506, 0.336348, -2.08319, -2.16632, -0.12922, 0.46953, -0.542803, 0.333106, -2.08222, -2.1642, -0.124286, 0.013941, 0.03679, 0.0188684, 0.0275426, 0.00817174, -0.00286851
0.0810066, 1.69272, -1.22854, -1.54067, -0.900772, -1.19512, 1.22909, -1.3027, 0.066443, -0.00346077, -0.00168144, 0.00666654, -0.0781089, 0.0267655, 0.00075338, 3.90754, 67.0602, 32.7372, 5.16479, 1.95758, 3.94107, -0.0484509, -0.000757111, -0.00170302, 0.00323506, 0.0039226, -0.000557017, 0.000796541, 0.0311654, -0.0164151, -0.0166488, -0.0385059, 0.101648, 0.000111532, 0.471359, -0.542469, 0.336367, -2.08316, -2.16634, -0.129192, 0.469567, -0.54279, 0.333107, -2.08221, -2.16429, -0.124195, 0.0143072, 0.0377706, 0.0193685, 0.0312226, 0.0102422, -0.00240254
0.0820066, 1.69279, -1.22854, -1.54068, -0.900774, -1.19519, 1.22913, -1.3027, 0.0663378, -0.00469693, -0.00372892, 0.00399249, -0.0770556, 0.0293421, 2.92349e-05, 3.98292, 67.1674, 32.8522, 5.2005, 1.95209, 3.94107, -0.0356336, -0.000785811, -0.00168277, 0.00325635, 0.00392453, -0.000616987, 0.000774103, 0.0320587, -0.0168095, -0.0186015, -0.0393371, 0.101871, 0.0016475, 0.471373, -0.542431, 0.336386, -2.08313, -2.16636, -0.129163, 0.469602, -0.542776, 0.333101, -2.08218, -2.16437, -0.124105, 0.014677, 0.0387614, 0.0198738, 0.0319476, 0.0106678, -0.00397603
0.0830066, 1.69287, -1.22855, -1.54068, -0.900774, -1.19526, 1.22916, -1.3027, 0.0663005, -0.00397238, -0.00149546, 0.00202115, -0.0770738, 0.0309547, -0.000453953, 3.94721, 67.207, 32.8126, 5.24017, 1.96399, 3.94839, -0.0228162, -0.000810237, -0.00165652, 0.00327199, 0.00391506, -0.000681877, 0.000740698, 0.0321829, -0.0175052, -0.0178761, -0.0372736, 0.104118, 0.00404004, 0.471388, -0.542392, 0.336407, -2.0831, -2.16638, -0.129134, 0.469644, -0.542758, 0.333101, -2.08216, -2.16446, -0.124024, 0.0150503, 0.0397623, 0.0203841, 0.0330471, 0.0114637, -0.00279001
0.0840066, 1.69294, -1.22854, -1.54068, -0.90077, -1.19532, 1.2292, -1.3027, 0.0675786, 1.53972e-05, -0.00271336, 0.0033263, -0.0758039, 0.0280928, -0.00030168, 3.98292, 67.0959, 32.8879, 5.16479, 1.94568, 3.94839, -0.0228162, -0.000837535, -0.00163431, 0.00328419, 0.00390666, -0.000750651, 0.000717711, 0.0323992, -0.0168592, -0.0164646, -0.0398991, 0.106334, 0.00292278, 0.471403, -0.542351, 0.336427, -2.08308, -2.1664, -0.129103, 0.469682, -0.542742, 0.333104, -2.08214, -2.16455, -0.123936, 0.0154271, 0.0407732, 0.0208993, 0.0328386, 0.0120176, -0.000894743
0.0850066, 1.69302, -1.22854, -1.54069, -0.900781, -1.19538, 1.22924, -1.30271, 0.0706437, -0.00161127, -0.00260898, -0.00114722, -0.0767242, 0.0313377, -0.00142111, 4.06226, 67.1674, 32.9236, 5.31555, 1.97681, 3.93374, 0.0101428, -0.000860595, -0.00160467, 0.0033054, 0.00390288, -0.000813267, 0.000672196, 0.0314315, -0.0197123, -0.01825, -0.0405707, 0.108256, 0.0099208, 0.471419, -0.54231, 0.336448, -2.08304, -2.16642, -0.129072, 0.469727, -0.542719, 0.3331, -2.0821, -2.16466, -0.12385, 0.0158074, 0.041794, 0.0214195, 0.0359679, 0.014387, -0.0020749
0.0860066, 1.6931, -1.22854, -1.54069, -0.900784, -1.19545, 1.22928, -1.3027, 0.0734154, -0.00103751, -0.00347621, -0.000643519, -0.0724208, 0.0373369, 0.000511196, 4.13764, 67.1674, 32.999, 5.31555, 2.00061, 3.94107, -0.0292249, -0.000885575, -0.00157622, 0.00332178, 0.00389127, -0.000879173, 0.000640787, 0.031332, -0.0221656, -0.0181467, -0.0346793, 0.109082, 0.0104446, 0.471435, -0.542268, 0.33647, -2.08301, -2.16645, -0.129041, 0.469771, -0.542697, 0.333101, -2.08208, -2.16476, -0.123768, 0.016191, 0.0428246, 0.0219445, 0.0388021, 0.0156023, -0.00150756
0.0870066, 1.69318, -1.22855, -1.54069, -0.900784, -1.19551, 1.22932, -1.30271, 0.0716668, -0.00502586, -0.00229771, -0.00252914, -0.0690972, 0.0375506, -0.0020663, 4.21302, 67.3538, 32.999, 5.27588, 2.02533, 3.94107, 0.0357776, -0.000912652, -0.00154694, 0.00334522, 0.00387356, -0.000930165, 0.000597328, 0.0321297, -0.0218862, -0.0206057, -0.0333062, 0.10323, 0.0138365, 0.471451, -0.542224, 0.336492, -2.08298, -2.16647, -0.129008, 0.469817, -0.542676, 0.333095, -2.08203, -2.16486, -0.123707, 0.016578, 0.0438649, 0.0224743, 0.0388492, 0.0162216, -0.00352105
0.0880066, 1.69327, -1.22856, -1.5407, -0.900799, -1.19557, 1.22936, -1.3027, 0.075211, -0.0059284, -0.00411544, -0.00540427, -0.0665718, 0.037509, 0.000555551, 4.24873, 67.4649, 33.1101, 5.42664, 2.04364, 3.94839, -0.0164075, -0.000934948, -0.00151324, 0.00337161, 0.00387015, -0.000986755, 0.000552402, 0.0307606, -0.0240733, -0.02275, -0.0361742, 0.10145, 0.0163537, 0.471468, -0.54218, 0.336515, -2.08295, -2.16649, -0.128975, 0.469867, -0.542648, 0.333087, -2.08198, -2.16497, -0.123625, 0.0169683, 0.0449148, 0.0230089, 0.0412953, 0.0190441, -0.00495885
0.0890066, 1.69335, -1.22856, -1.5407, -0.900796, -1.19563, 1.2294, -1.30271, 0.0764729, -0.00477202, -0.00366053, -0.00114817, -0.0657994, 0.0417641, -0.000850109, 4.36378, 67.5006, 33.1498, 5.31555, 2.09308, 3.95572, 0.0165515, -0.000964027, -0.00148519, 0.00339074, 0.00385162, -0.0010462, 0.000516521, 0.0326636, -0.0243347, -0.0213971, -0.0302414, 0.104435, 0.0148551, 0.471485, -0.542135, 0.336538, -2.08291, -2.16652, -0.128941, 0.469913, -0.542628, 0.333086, -2.08195, -2.16507, -0.123555, 0.0173618, 0.0459742, 0.0235482, 0.0420692, 0.0180282, -0.00338675
0.0900066, 1.69344, -1.22857, -1.54071, -0.900809, -1.19569, 1.22945, -1.3027, 0.0762881, -0.0057682, -0.00503047, -0.00347173, -0.0599516, 0.0450961, -9.18514e-05, 4.51453, 67.6117, 33.2609, 5.42664, 2.13611, 3.97677, 0.00373412, -0.000990188, -0.00145363, 0.00341748, 0.00384339, -0.00110136, 0.000472266, 0.0327432, -0.0253708, -0.0228805, -0.0274163, 0.101318, 0.016385, 0.471503, -0.542088, 0.336562, -2.08288, -2.16654, -0.128906, 0.469962, -0.542601, 0.333079, -2.0819, -2.16518, -0.123478, 0.0177586, 0.047043, 0.0240921, 0.0434494, 0.0192899, -0.00435188
0.0910066, 1.69353, -1.22858, -1.54071, -0.900808, -1.19574, 1.22949, -1.30271, 0.0777534, -0.0055072, -0.00594585, -0.000632123, -0.0605564, 0.0428972, -0.000773183, 4.51453, 67.6831, 33.3719, 5.35126, 2.18555, 3.99142, 0.0229602, -0.00101788, -0.00142098, 0.00344118, 0.00382561, -0.00115648, 0.000429605, 0.0341226, -0.0244926, -0.0233171, -0.0297172, 0.101579, 0.0144836, 0.471521, -0.542041, 0.336586, -2.08285, -2.16657, -0.128871, 0.470013, -0.542576, 0.333074, -2.08186, -2.16528, -0.123411, 0.0181585, 0.048121, 0.0246406, 0.043007, 0.019037, -0.00442141
0.0920066, 1.69362, -1.22858, -1.54072, -0.900816, -1.19579, 1.22954, -1.30271, 0.0836596, -0.00542818, -0.00479443, -0.00443395, -0.059913, 0.0407136, -0.000278001, 4.55024, 67.7585, 33.4076, 5.38696, 2.20386, 4.0198, 0.0165515, -0.00104149, -0.00138505, 0.00346502, 0.00380624, -0.00120723, 0.000377382, 0.0309099, -0.0281012, -0.0242817, -0.0334575, 0.101244, 0.0230161, 0.471539, -0.541992, 0.336611, -2.08281, -2.16659, -0.128834, 0.470067, -0.542546, 0.333071, -2.08181, -2.1654, -0.12335, 0.0185616, 0.0492083, 0.0251936, 0.0468612, 0.0235953, -0.00443423
0.0930066, 1.69371, -1.22858, -1.54072, -0.900822, -1.19585, 1.22959, -1.3027, 0.0897923, -0.00537713, -0.004956, -0.00326118, -0.0563971, 0.0401704, 0.000289456, 4.58991, 67.8339, 33.483, 5.38696, 2.2652, 4.0198, 0.00373412, -0.0010678, -0.00134917, 0.00348856, 0.00378865, -0.00126783, 0.000329283, 0.0289593, -0.0311139, -0.0249132, -0.0332703, 0.0990015, 0.027664, 0.471558, -0.541942, 0.336637, -2.08277, -2.16662, -0.128797, 0.470121, -0.542517, 0.333068, -2.08176, -2.16552, -0.123275, 0.0189677, 0.0503046, 0.0257511, 0.0501815, 0.0268409, -0.00429113
0.0940066, 1.69382, -1.22859, -1.54073, -0.900825, -1.1959, 1.22963, -1.3027, 0.0936122, -0.0044163, -0.00766306, -0.00396304, -0.0524176, 0.0395804, 0.000430383, 4.55024, 67.8696, 33.6695, 5.31555, 2.29541, 4.02713, -0.00267457, -0.001091, -0.00131014, 0.00351412, 0.00377472, -0.00132063, 0.00027447, 0.027836, -0.0328204, -0.0260583, -0.0355923, 0.0975219, 0.0310092, 0.471577, -0.541891, 0.336663, -2.08274, -2.16665, -0.128759, 0.470179, -0.542484, 0.333064, -2.0817, -2.16564, -0.123205, 0.0193769, 0.05141, 0.0263131, 0.0522117, 0.0293032, -0.0047388
0.0950066, 1.69391, -1.2286, -1.54074, -0.900835, -1.19595, 1.22968, -1.30271, 0.0951373, -0.00637512, -0.00594194, -0.00391813, -0.0544503, 0.0440515, -0.000662473, 4.701, 68.0164, 33.7052, 5.35126, 2.33295, 4.03445, 0.0229602, -0.00111994, -0.00127671, 0.00354241, 0.00375464, -0.00136746, 0.000222787, 0.0290305, -0.0341543, -0.0266848, -0.031985, 0.100139, 0.0328413, 0.471597, -0.541839, 0.33669, -2.0827, -2.16667, -0.128721, 0.470232, -0.542455, 0.333057, -2.08164, -2.16576, -0.123146, 0.0197891, 0.0525242, 0.0268794, 0.0539768, 0.0293909, -0.0050176
0.0960066, 1.694, -1.2286, -1.54074, -0.90084, -1.196, 1.22972, -1.30271, 0.0905492, -0.00508323, -0.00572305, -0.00117951, -0.0555783, 0.041941, -0.000441619, 4.74067, 68.0521, 33.7806, 5.27588, 2.36957, 4.04819, 0.0229602, -0.00114827, -0.00124276, 0.00356727, 0.00373688, -0.00142025, 0.000173961, 0.0328986, -0.030022, -0.025818, -0.0325011, 0.101667, 0.024463, 0.471617, -0.541786, 0.336717, -2.08266, -2.1667, -0.128681, 0.470286, -0.542424, 0.333055, -2.08159, -2.16588, -0.123078, 0.0202043, 0.0536472, 0.02745, 0.0504391, 0.0263896, -0.00406328
0.0970066, 1.6941, -1.2286, -1.54075, -0.900851, -1.19605, 1.22976, -1.3027, 0.0918102, -0.00431529, -0.00641271, -0.00196236, -0.0566316, 0.0411482, 0.000180328, 4.701, 68.0917, 33.8917, 5.31555, 2.39978, 4.04819, 0.0101428, -0.00117253, -0.00120326, 0.00359334, 0.00372312, -0.00147545, 0.000117856, 0.0334896, -0.030056, -0.0262623, -0.0352458, 0.10383, 0.0241434, 0.471637, -0.541732, 0.336744, -2.08262, -2.16673, -0.128641, 0.470346, -0.542389, 0.333052, -2.08152, -2.166, -0.123002, 0.0206224, 0.0547789, 0.0280249, 0.0508966, 0.027008, -0.00401994
0.0980066, 1.6942, -1.2286, -1.54076, -0.900865, -1.19611, 1.2298, -1.3027, 0.0933151, -0.00371092, -0.00278046, -0.00549992, -0.0577516, 0.0398083, 0.000357595, 4.74067, 68.1274, 33.967, 5.35126, 2.44281, 4.07016, 0.00373412, -0.00119862, -0.00116624, 0.00362001, 0.00371046, -0.00152898, 5.73545e-05, 0.0322381, -0.0314984, -0.0257146, -0.0360696, 0.105586, 0.0289669, 0.471658, -0.541677, 0.336773, -2.08258, -2.16676, -0.128599, 0.470404, -0.542353, 0.333049, -2.08145, -2.16613, -0.122927, 0.0210433, 0.0559192, 0.028604, 0.0527326, 0.029361, -0.00275111
0.0990066, 1.6943, -1.2286, -1.54075, -0.900872, -1.19616, 1.22984, -1.30271, 0.093364, -0.00414351, -0.00158159, -0.0032351, -0.0578347, 0.0385965, -0.000473668, 4.81605, 68.1989, 33.967, 5.31555, 2.46112, 4.09122, 0.0229602, -0.00122807, -0.00113219, 0.00364262, 0.00368717, -0.00158277, 2.20965e-06, 0.0337745, -0.0305528, -0.025754, -0.0355546, 0.105128, 0.0274684, 0.471679, -0.54162, 0.336802, -2.08254, -2.16679, -0.128557, 0.470459, -0.542321, 0.33305, -2.08139, -2.16626, -0.122862, 0.0214671, 0.057068, 0.0291872, 0.0522673, 0.02896, -0.00241584
0.100007, 1.6944, -1.22861, -1.54077, -0.900882, -1.19621, 1.22988, -1.30271, 0.0970857, -0.0031127, -0.00437683, -0.00563874, -0.0585525, 0.0387002, -7.84098e-05, 4.74067, 68.3496, 34.1178, 5.31555, 2.49866, 4.09122, 0.0165515, -0.00125773, -0.00109541, 0.00367537, 0.00368109, -0.00163356, -5.30233e-05, 0.0332564, -0.0321461, -0.0270732, -0.0403383, 0.108098, 0.0303084, 0.471701, -0.541563, 0.336831, -2.08249, -2.16682, -0.128514, 0.470517, -0.542286, 0.333041, -2.08132, -2.16638, -0.12278, 0.0218936, 0.0582252, 0.0297746, 0.0542173, 0.030899, -0.00310057
0.101007, 1.6945, -1.22861, -1.54077, -0.900896, -1.19627, 1.22992, -1.3027, 0.0961763, 0.000415032, -0.00360008, -0.00817502, -0.0581099, 0.0380124, 0.000422452, 4.74067, 68.3853, 34.1535, 5.35126, 2.51056, 4.10586, 0.00373412, -0.00128614, -0.00106031, 0.00370046, 0.00366454, -0.00168521, -0.000110436, 0.0334826, -0.0317369, -0.0255056, -0.0412805, 0.111844, 0.030625, 0.471723, -0.541504, 0.336861, -2.08245, -2.16685, -0.128471, 0.470575, -0.54225, 0.333041, -2.08125, -2.1665, -0.122708, 0.0223229, 0.0593907, 0.030366, 0.0543046, 0.0315841, -0.00098393
0.102007, 1.6946, -1.2286, -1.54077, -0.900917, -1.19632, 1.22996, -1.3027, 0.0951018, 0.00375262, -0.0031205, -0.0118503, -0.0583464, 0.0333078, 0.00028164, 4.701, 68.3853, 34.1892, 5.46234, 2.53528, 4.10586, 0.00373412, -0.00131249, -0.00102309, 0.00372484, 0.0036549, -0.00174403, -0.000176044, 0.0332488, -0.0306249, -0.0246579, -0.0468224, 0.114089, 0.0320417, 0.471746, -0.541444, 0.336892, -2.08241, -2.16688, -0.128426, 0.470634, -0.542211, 0.333042, -2.08117, -2.16664, -0.122621, 0.022755, 0.0605644, 0.0309614, 0.0536492, 0.0328125, 0.000518687
0.103007, 1.6947, -1.2286, -1.54078, -0.900929, -1.19637, 1.22999, -1.3027, 0.0981826, 0.00276113, -0.00468551, -0.0117452, -0.0535097, 0.0346059, 0.00188319, 4.62562, 68.5321, 34.3043, 5.46234, 2.55359, 4.11319, -0.0420422, -0.00134501, -0.000989483, 0.00375498, 0.00364568, -0.00179543, -0.000222017, 0.0327421, -0.0323872, -0.0262589, -0.0457972, 0.110778, 0.0333061, 0.471769, -0.541383, 0.336923, -2.08236, -2.16691, -0.128381, 0.470691, -0.542176, 0.333038, -2.08111, -2.16676, -0.122538, 0.0231896, 0.0617462, 0.0315607, 0.0557659, 0.0348153, -0.000439412
0.104007, 1.6948, -1.2286, -1.54077, -0.900952, -1.19643, 1.23003, -1.3027, 0.0952354, 0.00404085, -0.00305912, -0.0113314, -0.0544544, 0.0309259, -0.000439961, 4.55024, 68.6035, 34.3043, 5.57739, 2.56549, 4.11319, 0.00373412, -0.00137393, -0.000953654, 0.00377984, 0.00363389, -0.0018543, -0.000291324, 0.0347712, -0.0296527, -0.0254682, -0.0477363, 0.11157, 0.031813, 0.471792, -0.54132, 0.336955, -2.08231, -2.16694, -0.128334, 0.47075, -0.542137, 0.333039, -2.08103, -2.1669, -0.122452, 0.0236269, 0.0629361, 0.0321639, 0.0535771, 0.0337659, 0.00071493
0.105007, 1.6949, -1.2286, -1.54078, -0.900968, -1.19649, 1.23006, -1.3027, 0.0955689, 0.00405309, -0.00366143, -0.0121124, -0.0557066, 0.0325992, 0.00045268, 4.43916, 68.7146, 34.3757, 5.6131, 2.59021, 4.12051, -0.0164075, -0.00140873, -0.00092197, 0.00380803, 0.00362833, -0.0019142, -0.000342201, 0.0361914, -0.0296001, -0.0260841, -0.0482936, 0.114369, 0.0302517, 0.471816, -0.541257, 0.336987, -2.08227, -2.16698, -0.128287, 0.470806, -0.542102, 0.333038, -2.08096, -2.16702, -0.122356, 0.0240668, 0.0641338, 0.032771, 0.0539943, 0.0336545, 0.000495319
0.106007, 1.69499, -1.22859, -1.54078, -0.900991, -1.19655, 1.23009, -1.3027, 0.0976176, 0.00355915, -0.00240464, -0.0145517, -0.0611225, 0.033831, 0.000539147, 4.36378, 68.7146, 34.3757, 5.72418, 2.60852, 4.12051, -0.0228162, -0.00144174, -0.000891152, 0.00383059, 0.00361774, -0.00197581, -0.000399649, 0.0368034, -0.0306659, -0.0266952, -0.0506385, 0.119943, 0.0321504, 0.47184, -0.541192, 0.337021, -2.08222, -2.16701, -0.128239, 0.470861, -0.542066, 0.333043, -2.08089, -2.16716, -0.122263, 0.0245092, 0.0653394, 0.0333819, 0.0555014, 0.0343954, 0.000374614
0.107007, 1.69509, -1.22858, -1.54078, -0.901017, -1.19661, 1.23012, -1.30269, 0.0993478, 0.000417129, -0.00333909, -0.0172068, -0.0650494, 0.0342281, 0.00181749, 4.17335, 68.8257, 34.451, 5.87494, 2.62134, 4.13424, -0.0621838, -0.00147478, -0.000858875, 0.00385953, 0.00361765, -0.00203433, -0.000457355, 0.0378185, -0.0312752, -0.0297327, -0.0552142, 0.121405, 0.0322258, 0.471865, -0.541126, 0.337054, -2.08217, -2.16705, -0.12819, 0.470918, -0.542027, 0.333042, -2.08081, -2.16729, -0.12216, 0.0249541, 0.0665526, 0.0339965, 0.0564796, 0.0350989, -0.00218654
0.108007, 1.69518, -1.22858, -1.54078, -0.901043, -1.19667, 1.23015, -1.30269, 0.094408, 0.0054655, -0.00174985, -0.0212367, -0.0626758, 0.0308155, 0.000703038, 4.09797, 68.9011, 34.5621, 5.98602, 2.62134, 4.12692, -0.0484509, -0.00151228, -0.000831955, 0.00388624, 0.00361847, -0.0020973, -0.000511605, 0.0384784, -0.0287504, -0.0272371, -0.0568876, 0.123715, 0.0324437, 0.47189, -0.541059, 0.337088, -2.08212, -2.16708, -0.12814, 0.470971, -0.541991, 0.333043, -2.08074, -2.16742, -0.122051, 0.0254015, 0.0677736, 0.0346148, 0.0545235, 0.0351795, 0.00087214
0.109007, 1.69527, -1.22856, -1.54078, -0.901067, -1.19674, 1.23017, -1.30269, 0.0949343, 0.00687455, -6.15107e-05, -0.023374, -0.0605806, 0.0319698, -6.02522e-06, 3.98292, 68.9368, 34.5264, 6.0614, 2.60852, 4.14157, -0.0356336, -0.00154975, -0.000806529, 0.00390619, 0.00361056, -0.00216244, -0.000562394, 0.0381211, -0.029758, -0.0264741, -0.0548924, 0.124896, 0.036024, 0.471916, -0.54099, 0.337123, -2.08207, -2.16712, -0.128089, 0.471022, -0.541956, 0.333052, -2.08067, -2.16755, -0.121948, 0.0258513, 0.069002, 0.0352367, 0.0559951, 0.0366872, 0.00227108
0.110007, 1.69536, -1.22855, -1.54078, -0.901094, -1.1968, 1.23019, -1.30269, 0.093849, 0.00826104, -0.00243708, -0.025098, -0.0635623, 0.024037, 0.000233343, 3.79646, 69.0836, 34.6375, 6.13678, 2.59021, 4.14157, -0.0420422, -0.00158958, -0.000781739, 0.00393484, 0.0036161, -0.00222287, -0.000611867, 0.0395196, -0.0268126, -0.0278191, -0.0662794, 0.125909, 0.0330455, 0.471942, -0.540921, 0.337159, -2.08202, -2.16715, -0.128038, 0.471073, -0.54192, 0.333052, -2.08059, -2.16767, -0.121834, 0.0263034, 0.0702379, 0.0358623, 0.0535082, 0.0366243, 0.00144363
0.111007, 1.69545, -1.22853, -1.54077, -0.901128, -1.19686, 1.23021, -1.30269, 0.0937156, 0.0122394, 0.000290301, -0.0280173, -0.0658514, 0.0227314, 0.000901547, 3.57032, 69.1193, 34.5621, 6.28357, 2.5719, 4.14157, -0.0621838, -0.00162307, -0.00075291, 0.00395403, 0.00361507, -0.00229181, -0.000675593, 0.0393985, -0.0268104, -0.0254654, -0.0676041, 0.13202, 0.0342525, 0.471968, -0.54085, 0.337195, -2.08197, -2.16719, -0.127985, 0.471129, -0.541878, 0.333063, -2.08051, -2.16781, -0.12172, 0.0267579, 0.0714811, 0.0364913, 0.0540444, 0.0376269, 0.0044154
0.112007, 1.69554, -1.22851, -1.54077, -0.901163, -1.19693, 1.23023, -1.30269, 0.0917943, 0.0140532, 0.00247302, -0.0292976, -0.0633214, 0.0186687, 0.000363673, 3.41956, 69.1946, 34.6018, 6.39465, 2.56549, 4.09854, -0.0557752, -0.0016623, -0.000728378, 0.00397577, 0.00361727, -0.00236393, -0.000732919, 0.0396407, -0.0254171, -0.0245078, -0.0686996, 0.130495, 0.0348399, 0.471995, -0.540778, 0.337232, -2.08192, -2.16723, -0.127932, 0.471181, -0.541841, 0.333072, -2.08043, -2.16795, -0.121596, 0.0272147, 0.0727316, 0.0371239, 0.0531553, 0.0384329, 0.00599935
0.113007, 1.69562, -1.22849, -1.54076, -0.901204, -1.197, 1.23025, -1.30269, 0.0911278, 0.0163794, 0.00115665, -0.034311, -0.0658001, 0.0197212, -0.000266177, 3.22913, 69.2303, 34.6375, 6.54541, 2.55359, 4.07016, -0.0420422, -0.00170202, -0.000704054, 0.00399623, 0.0036211, -0.00244278, -0.000790098, 0.040424, -0.0253063, -0.0246213, -0.0726576, 0.13672, 0.036686, 0.472023, -0.540705, 0.337269, -2.08186, -2.16726, -0.127878, 0.471233, -0.541802, 0.333082, -2.08036, -2.16809, -0.121464, 0.0276737, 0.0739892, 0.0377598, 0.0535293, 0.0389305, 0.00640541
0.114007, 1.69571, -1.22847, -1.54076, -0.901245, -1.19707, 1.23026, -1.30269, 0.0905994, 0.0186414, 0.00419023, -0.0392903, -0.0722995, 0.0205662, -0.000177451, 3.04267, 69.3771, 34.6375, 6.62079, 2.54718, 4.04086, -0.0420422, -0.00174193, -0.000680212, 0.0040178, 0.00362583, -0.00251665, -0.000849496, 0.0410406, -0.0255414, -0.0232487, -0.0748684, 0.145798, 0.038656, 0.472051, -0.54063, 0.337307, -2.08181, -2.1673, -0.127822, 0.471286, -0.541763, 0.333092, -2.08027, -2.16823, -0.121334, 0.028135, 0.0752539, 0.0383992, 0.0543004, 0.0393869, 0.00829728
0.115007, 1.69579, -1.22844, -1.54075, -0.901285, -1.19714, 1.23028, -1.30268, 0.0868735, 0.0216088, 0.00629225, -0.0422428, -0.0778664, 0.0160045, 0.00503614, 2.89191, 69.3414, 34.6375, 6.65649, 2.54718, 4.0198, -0.0484509, -0.00178512, -0.000662353, 0.00403076, 0.00362772, -0.00260109, -0.000899565, 0.0430736, -0.0224638, -0.0218217, -0.0806489, 0.151933, 0.0304007, 0.472079, -0.540554, 0.337346, -2.08175, -2.16734, -0.127766, 0.471333, -0.541727, 0.333111, -2.08021, -2.16837, -0.121196, 0.0285984, 0.0765256, 0.0390419, 0.0518207, 0.0383022, 0.0101311
0.116007, 1.69587, -1.22841, -1.54074, -0.901328, -1.1972, 1.23029, -1.30268, 0.085118, 0.0232665, 0.00780108, -0.0447084, -0.0765375, 0.0123476, 0.00352983, 2.66181, 69.4525, 34.6375, 6.69617, 2.52887, 4.00516, -0.0420422, -0.00182433, -0.00063852, 0.00404971, 0.00363208, -0.00267505, -0.000960985, 0.0433534, -0.0212408, -0.0213408, -0.0831483, 0.151608, 0.0324203, 0.472108, -0.540477, 0.337386, -2.0817, -2.16738, -0.127709, 0.471386, -0.541685, 0.333125, -2.08012, -2.16852, -0.121065, 0.0290639, 0.0778042, 0.0396878, 0.0510945, 0.0391792, 0.0112469
0.117007, 1.69596, -1.22839, -1.54073, -0.901384, -1.19727, 1.2303, -1.30268, 0.0807154, 0.0262755, 0.0113818, -0.0491917, -0.0759433, 0.0137766, 0.00266053, 2.43568, 69.635, 34.6732, 6.84296, 2.51697, 4.00516, -0.0420422, -0.00186258, -0.000614483, 0.00407205, 0.00364345, -0.00274731, -0.00103113, 0.0443365, -0.0201704, -0.0190272, -0.0801859, 0.155705, 0.0336823, 0.472137, -0.540398, 0.337426, -2.08164, -2.16742, -0.127651, 0.47144, -0.54164, 0.333136, -2.08002, -2.16867, -0.120928, 0.0295316, 0.0790895, 0.040337, 0.050618, 0.0390944, 0.0140623
0.118007, 1.69604, -1.22836, -1.54072, -0.901431, -1.19734, 1.23031, -1.30268, 0.0838814, 0.0271263, 0.0100325, -0.049042, -0.0760129, 0.010994, 0.00152946, 2.32459, 69.7461, 34.7486, 6.84296, 2.52338, 3.9841, -0.0292249, -0.00190777, -0.000596174, 0.00408923, 0.00365091, -0.00283188, -0.00108775, 0.044253, -0.0206336, -0.0198556, -0.0846714, 0.156284, 0.0360698, 0.472167, -0.540319, 0.337466, -2.08158, -2.16746, -0.127592, 0.471489, -0.541601, 0.333152, -2.07994, -2.16882, -0.120781, 0.0300013, 0.0803815, 0.0409894, 0.0515171, 0.0406162, 0.0138951
0.119007, 1.69611, -1.22832, -1.54071, -0.901485, -1.19741, 1.23032, -1.30268, 0.0793668, 0.0317786, 0.0108724, -0.0497871, -0.0757002, 0.0131091, 0.00119251, 2.24921, 69.8215, 34.7486, 6.88263, 2.51697, 3.97677, -0.0292249, -0.00195052, -0.000577853, 0.00410337, 0.00365623, -0.00291445, -0.00115046, 0.0469557, -0.0182406, -0.0169686, -0.0817253, 0.162442, 0.0319648, 0.472197, -0.540238, 0.337508, -2.08152, -2.1675, -0.127533, 0.471539, -0.54156, 0.333172, -2.07985, -2.16897, -0.120638, 0.030473, 0.0816802, 0.0416449, 0.0498105, 0.0387024, 0.0170591
0.120007, 1.6962, -1.22829, -1.5407, -0.901536, -1.19748, 1.23032, -1.30268, 0.0765365, 0.0334449, 0.0119101, -0.0519012, -0.0768121, 0.0107645, 0.00139937, 2.02308, 69.9683, 34.8597, 6.84296, 2.54718, 3.94839, -0.0420422, -0.0019947, -0.000557761, 0.00412166, 0.00366707, -0.00299807, -0.00121119, 0.048563, -0.0162093, -0.0164376, -0.0843063, 0.164759, 0.0298465, 0.472228, -0.540155, 0.33755, -2.08146, -2.16755, -0.127472, 0.47159, -0.541518, 0.333189, -2.07977, -2.16912, -0.120487, 0.0309467, 0.0829853, 0.0423035, 0.0483375, 0.0382528, 0.0180579
0.121007, 1.69627, -1.22825, -1.54069, -0.901592, -1.19755, 1.23033, -1.30268, 0.0761652, 0.0355062, 0.0121384, -0.0545411, -0.0761102, 0.00872057, -0.000156643, 1.98341, 70.0793, 35.0104, 6.84296, 2.54718, 3.92642, -0.00999879, -0.00204168, -0.000542339, 0.00413767, 0.00367736, -0.00308351, -0.00126921, 0.0487298, -0.0157813, -0.0161391, -0.0870871, 0.166313, 0.0325861, 0.472259, -0.540072, 0.337592, -2.0814, -2.16759, -0.12741, 0.471638, -0.541477, 0.333208, -2.07968, -2.16927, -0.120333, 0.0314223, 0.0842969, 0.0429652, 0.0484049, 0.0393359, 0.0190022
0.122007, 1.69636, -1.22821, -1.54067, -0.901654, -1.19762, 1.23034, -1.30268, 0.0741066, 0.0391313, 0.0150815, -0.0533238, -0.0726132, 0.00741271, 0.000680576, 1.79694, 70.1151, 35.0461, 6.84296, 2.58472, 3.89804, -0.0292249, -0.00208456, -0.000521407, 0.00414967, 0.00368538, -0.0031793, -0.00133641, 0.0496146, -0.014441, -0.0132767, -0.0833352, 0.166928, 0.0300772, 0.472291, -0.539987, 0.337635, -2.08134, -2.16763, -0.127348, 0.471692, -0.541432, 0.333232, -2.07959, -2.16944, -0.120171, 0.0318998, 0.0856148, 0.0436298, 0.0476871, 0.039285, 0.0223993
0.123007, 1.69643, -1.22817, -1.54067, -0.901714, -1.19769, 1.23035, -1.30268, 0.073921, 0.0397945, 0.012281, -0.0548559, -0.0691983, 0.00616648, -0.00166173, 1.75727, 70.2261, 35.1572, 6.80725, 2.60303, 3.87607, 0.0293689, -0.00213311, -0.000506036, 0.00416634, 0.00369646, -0.00326742, -0.00140261, 0.0503447, -0.0138084, -0.01467, -0.0864445, 0.16537, 0.0322925, 0.472323, -0.5399, 0.337679, -2.08127, -2.16768, -0.127284, 0.47174, -0.541391, 0.333252, -2.0795, -2.1696, -0.120013, 0.0323792, 0.0869389, 0.0442973, 0.0475113, 0.0400747, 0.0215985
0.124007, 1.69651, -1.22811, -1.54065, -0.901782, -1.19776, 1.23035, -1.30268, 0.0807898, 0.0447397, 0.0119058, -0.059225, -0.067538, 0.00931676, -0.000117359, 1.57081, 70.1508, 35.1969, 6.77154, 2.64606, 3.86966, 0.00373412, -0.00217445, -0.000484086, 0.00417471, 0.00370714, -0.00337023, -0.00147642, 0.0469982, -0.0187192, -0.0130537, -0.0864678, 0.172027, 0.0405708, 0.472355, -0.539813, 0.337724, -2.08121, -2.16772, -0.127219, 0.471796, -0.541342, 0.333281, -2.0794, -2.16977, -0.11984, 0.0328604, 0.0882692, 0.0449678, 0.0528329, 0.0446739, 0.0242268
0.125007, 1.69659, -1.22807, -1.54064, -0.901852, -1.19783, 1.23036, -1.30268, 0.0764678, 0.0476763, 0.0122279, -0.0635402, -0.070659, 0.00764444, -4.7473e-05, 1.53114, 70.2261, 35.3437, 6.77154, 2.68268, 3.84768, 0.00373412, -0.00222269, -0.000468323, 0.00419059, 0.00372023, -0.00346239, -0.00153935, 0.0491469, -0.0160784, -0.0122065, -0.0907372, 0.177801, 0.037989, 0.472389, -0.539724, 0.337769, -2.08114, -2.16777, -0.127154, 0.471846, -0.541297, 0.333303, -2.07931, -2.16993, -0.119673, 0.0333434, 0.0896055, 0.045641, 0.0507939, 0.0436458, 0.0254888
0.126007, 1.69667, -1.22802, -1.54062, -0.90192, -1.1979, 1.23037, -1.30268, 0.0783187, 0.0476505, 0.0119646, -0.0656403, -0.0674295, 0.00634079, 0.000500052, 1.41608, 70.2618, 35.3834, 6.73187, 2.70099, 3.82663, -0.00999879, -0.00226976, -0.000449859, 0.00420329, 0.00372693, -0.00355768, -0.00161062, 0.0483862, -0.0171367, -0.0133003, -0.092398, 0.175649, 0.0409772, 0.472422, -0.539634, 0.337815, -2.08108, -2.16781, -0.127088, 0.471899, -0.541251, 0.333328, -2.07922, -2.17011, -0.119509, 0.0338281, 0.0909478, 0.0463171, 0.0522669, 0.0459529, 0.0251688
0.127007, 1.69674, -1.22797, -1.54061, -0.901992, -1.19797, 1.23037, -1.30268, 0.0739753, 0.0511382, 0.00998938, -0.0672546, -0.066235, 0.00980592, -0.00134475, 1.41608, 70.1508, 35.4944, 6.69617, 2.75592, 3.81198, 0.0357776, -0.00232021, -0.000436612, 0.00421145, 0.0037375, -0.0036643, -0.00167999, 0.0514628, -0.0148881, -0.0121281, -0.0908893, 0.180882, 0.038253, 0.472456, -0.539542, 0.337862, -2.08101, -2.16786, -0.12702, 0.471948, -0.541207, 0.333359, -2.07912, -2.17028, -0.119329, 0.0343145, 0.092296, 0.0469959, 0.0506709, 0.0439874, 0.0266018
0.128007, 1.69681, -1.22791, -1.5406, -0.902065, -1.19804, 1.23038, -1.30268, 0.0738936, 0.0508107, 0.00857821, -0.0685591, -0.0746718, 0.00824043, -0.0004088, 1.41608, 70.1508, 35.6055, 6.65649, 2.80536, 3.7836, 0.0229602, -0.00237153, -0.000422768, 0.00422473, 0.00375072, -0.00376365, -0.0017445, 0.0543625, -0.0131265, -0.0136109, -0.098564, 0.187817, 0.0338079, 0.472491, -0.539449, 0.337909, -2.08094, -2.16791, -0.126952, 0.471998, -0.541163, 0.333385, -2.07903, -2.17045, -0.119152, 0.0348026, 0.09365, 0.0476774, 0.0494556, 0.0426295, 0.0254278
0.129007, 1.69689, -1.22787, -1.54059, -0.902141, -1.19812, 1.23038, -1.30268, 0.0788797, 0.0497088, 0.00835464, -0.0696875, -0.0754201, 0.00547398, -2.54398e-05, 1.34071, 70.1904, 35.6809, 6.62079, 2.83649, 3.79733, 0.0165515, -0.00242082, -0.000405095, 0.00424218, 0.00377038, -0.00386125, -0.00181813, 0.0532402, -0.0150325, -0.0154809, -0.103426, 0.18716, 0.0379049, 0.472526, -0.539355, 0.337957, -2.08087, -2.16796, -0.126882, 0.472052, -0.541114, 0.333407, -2.07892, -2.17063, -0.118969, 0.0352924, 0.0950097, 0.0483616, 0.0517367, 0.0454664, 0.0243784
0.130007, 1.69697, -1.2278, -1.54058, -0.902222, -1.1982, 1.23038, -1.30268, 0.0817376, 0.051929, 0.00820073, -0.0736602, -0.0720129, 0.00966019, 0.0002277, 1.305, 69.9683, 35.7523, 6.58508, 2.87952, 3.77627, 0.0101428, -0.00246986, -0.000388894, 0.00425027, 0.00378768, -0.00397511, -0.00189186, 0.0517992, -0.0180682, -0.0150516, -0.100986, 0.190017, 0.0438893, 0.472561, -0.539259, 0.338006, -2.0808, -2.168, -0.126812, 0.472105, -0.541065, 0.33344, -2.07882, -2.17081, -0.118772, 0.0357837, 0.096375, 0.0490484, 0.0552229, 0.0483212, 0.0256152
0.131007, 1.69704, -1.22776, -1.54057, -0.902303, -1.19827, 1.23039, -1.30268, 0.080566, 0.04712, 0.0110941, -0.0775085, -0.0692449, 0.00766307, -0.00079216, 1.26533, 70.004, 35.8277, 6.58508, 2.92163, 3.76163, 0.0357776, -0.00252047, -0.000371031, 0.00426772, 0.00380228, -0.00407209, -0.00197201, 0.0516996, -0.0182792, -0.017997, -0.101482, 0.182998, 0.0484266, 0.472597, -0.539162, 0.338055, -2.08073, -2.16805, -0.126741, 0.47216, -0.541014, 0.333464, -2.07871, -2.17099, -0.118594, 0.0362765, 0.0977458, 0.0497377, 0.055812, 0.0502504, 0.0234048
0.132007, 1.69712, -1.2277, -1.54055, -0.90239, -1.19834, 1.23039, -1.30269, 0.0748298, 0.0494173, 0.0149856, -0.0802154, -0.0714359, 0.00639891, -0.000795267, 1.305, 69.9326, 35.8277, 6.58508, 2.95917, 3.74057, 0.0431018, -0.00257228, -0.000356056, 0.00428135, 0.00381495, -0.0041732, -0.00204934, 0.0541726, -0.0152921, -0.0159439, -0.100929, 0.187174, 0.0451127, 0.472634, -0.539064, 0.338106, -2.08066, -2.1681, -0.126669, 0.472213, -0.540964, 0.333492, -2.0786, -2.17118, -0.118413, 0.0367709, 0.0991221, 0.0504295, 0.0534985, 0.0487417, 0.0258382
0.133007, 1.69719, -1.22765, -1.54054, -0.902473, -1.19841, 1.23039, -1.30268, 0.0749015, 0.0518553, 0.0129577, -0.0831284, -0.0729024, 0.00965422, -1.84717e-05, 1.305, 69.8215, 35.9031, 6.5097, 2.98389, 3.73324, 0.0293689, -0.00262527, -0.000341251, 0.00429735, 0.00383234, -0.00427204, -0.00212261, 0.0555437, -0.015471, -0.0158427, -0.102264, 0.193731, 0.0443552, 0.472671, -0.538964, 0.338156, -2.08059, -2.16815, -0.126595, 0.472266, -0.540914, 0.333519, -2.07849, -2.17136, -0.118228, 0.0372668, 0.100504, 0.0511238, 0.0542313, 0.0487625, 0.0264156
0.134007, 1.69727, -1.22761, -1.54051, -0.902564, -1.19848, 1.2304, -1.30268, 0.0765983, 0.0470925, 0.0166207, -0.0835638, -0.0746684, 0.00766026, -1.00044e-05, 1.22962, 69.8572, 35.7523, 6.47003, 3.026, 3.7186, 0.0293689, -0.00267358, -0.000319611, 0.00431691, 0.00384286, -0.00436121, -0.00221493, 0.0559313, -0.0161492, -0.0181626, -0.103013, 0.190234, 0.04655, 0.472708, -0.538862, 0.338208, -2.08052, -2.16821, -0.126521, 0.472326, -0.540856, 0.333543, -2.07836, -2.17155, -0.118061, 0.0377641, 0.101891, 0.0518204, 0.0553339, 0.0501514, 0.0247402
0.135007, 1.69735, -1.22755, -1.5405, -0.902663, -1.19855, 1.2304, -1.30268, 0.074036, 0.0530045, 0.011481, -0.0879462, -0.0801955, 0.00666918, 0.000232422, 1.18995, 69.635, 35.792, 6.47003, 3.05072, 3.69021, 0.0229602, -0.00272305, -0.000298751, 0.0043335, 0.00386426, -0.00447074, -0.0023058, 0.0587413, -0.0133261, -0.0175602, -0.112651, 0.201736, 0.0420831, 0.472746, -0.53876, 0.33826, -2.08044, -2.16826, -0.126446, 0.472386, -0.540799, 0.33357, -2.07823, -2.17176, -0.117861, 0.0382628, 0.103283, 0.0525195, 0.0531466, 0.0485539, 0.0256917
0.136007, 1.69743, -1.2275, -1.54049, -0.902755, -1.19863, 1.23041, -1.30268, 0.0772327, 0.0495191, 0.015902, -0.0895761, -0.0758091, 0.0064232, 0.000393606, 1.18995, 69.5993, 35.7523, 6.39465, 3.10016, 3.64718, 0.0165515, -0.00277852, -0.000281421, 0.0043549, 0.00387766, -0.00456774, -0.00238773, 0.0568015, -0.0162283, -0.0189591, -0.109042, 0.195442, 0.0490401, 0.472785, -0.538656, 0.338313, -2.08036, -2.16831, -0.12637, 0.472443, -0.540746, 0.333593, -2.07811, -2.17195, -0.11768, 0.0387628, 0.10468, 0.0532208, 0.0564188, 0.0522076, 0.0252181
0.137007, 1.69751, -1.22746, -1.54047, -0.90285, -1.19871, 1.23041, -1.30268, 0.0750754, 0.0486948, 0.0148895, -0.089836, -0.0768165, 0.00484094, -0.000211339, 1.22962, 69.4882, 35.7523, 6.28357, 3.14319, 3.63986, 0.0293689, -0.00283558, -0.000266962, 0.00437661, 0.00389693, -0.00466497, -0.00246972, 0.0594761, -0.0139639, -0.0203681, -0.112176, 0.195615, 0.0458158, 0.472824, -0.538551, 0.338366, -2.08029, -2.16836, -0.126293, 0.472498, -0.540693, 0.333616, -2.07799, -2.17213, -0.117491, 0.0392642, 0.106082, 0.0539245, 0.0547098, 0.0510853, 0.0241913
0.138007, 1.69758, -1.22741, -1.54046, -0.902949, -1.19878, 1.23041, -1.30268, 0.0775416, 0.0457383, 0.014295, -0.0912198, -0.0725531, 0.00398548, -0.000377521, 1.26533, 69.3414, 35.7523, 6.20819, 3.1734, 3.62521, 0.0357776, -0.00289187, -0.000250969, 0.00439915, 0.00391835, -0.00476355, -0.00255572, 0.0589014, -0.0153792, -0.0232214, -0.113279, 0.189931, 0.0497068, 0.472864, -0.538444, 0.338421, -2.08021, -2.16842, -0.126215, 0.472555, -0.540638, 0.333639, -2.07786, -2.17233, -0.117298, 0.0397669, 0.107489, 0.0546303, 0.0564959, 0.0535581, 0.022123
0.139007, 1.69766, -1.22737, -1.54043, -0.903056, -1.19886, 1.23042, -1.30268, 0.080266, 0.0445337, 0.0141323, -0.0941098, -0.0734788, 0.00359862, 0.00191901, 1.26533, 69.27, 35.6055, 6.20819, 3.19263, 3.60415, -0.0228162, -0.00294469, -0.000229278, 0.00442427, 0.00393164, -0.00485521, -0.00264915, 0.0585924, -0.0168197, -0.0250652, -0.116599, 0.190606, 0.0511505, 0.472904, -0.538336, 0.338476, -2.08013, -2.16847, -0.126136, 0.472617, -0.540578, 0.33366, -2.07772, -2.17253, -0.117121, 0.0402709, 0.108901, 0.0553384, 0.0583572, 0.0556203, 0.021012
0.140007, 1.69774, -1.22731, -1.54042, -0.903164, -1.19894, 1.23042, -1.30268, 0.0841757, 0.0493065, 0.0135807, -0.0982708, -0.0750552, 0.00809494, 0.00127975, 1.305, 68.9725, 35.6055, 6.17248, 3.22925, 3.58218, -0.0228162, -0.00300088, -0.00021216, 0.00444281, 0.00395408, -0.00496755, -0.00274033, 0.0575423, -0.019846, -0.023338, -0.116592, 0.200353, 0.0572986, 0.472944, -0.538226, 0.338531, -2.08005, -2.16853, -0.126055, 0.472676, -0.54052, 0.333688, -2.07759, -2.17273, -0.116911, 0.040776, 0.110318, 0.0560486, 0.0619125, 0.057944, 0.0234924
0.141007, 1.69781, -1.22727, -1.54039, -0.903272, -1.19901, 1.23042, -1.30268, 0.083299, 0.0453557, 0.0157462, -0.0974339, -0.0748633, 0.00588434, 0.000616115, 1.38038, 68.9725, 35.4944, 6.09711, 3.22925, 3.58218, -0.0164075, -0.00305849, -0.000194353, 0.0044709, 0.00396715, -0.00505351, -0.00283582, 0.0593169, -0.0186867, -0.0254355, -0.116879, 0.195867, 0.056408, 0.472985, -0.538115, 0.338588, -2.07997, -2.16858, -0.125974, 0.472736, -0.540461, 0.333708, -2.07744, -2.17294, -0.116738, 0.0412824, 0.111739, 0.0567608, 0.0612507, 0.0578828, 0.0218976
0.142007, 1.69789, -1.22722, -1.54037, -0.903386, -1.19909, 1.23043, -1.30268, 0.0804162, 0.0503479, 0.0194723, -0.100896, -0.0756918, 0.00958154, 0.000173616, 1.45576, 68.79, 35.4191, 6.0614, 3.25397, 3.56845, -0.00999879, -0.00311629, -0.000177567, 0.0044931, 0.00398239, -0.0051543, -0.00293267, 0.0603702, -0.0184315, -0.0216897, -0.112094, 0.204261, 0.0573165, 0.473027, -0.538002, 0.338645, -2.07989, -2.16864, -0.125892, 0.472796, -0.540401, 0.333733, -2.0773, -2.17315, -0.116547, 0.0417899, 0.113165, 0.0574751, 0.0616917, 0.0576865, 0.0261574
0.143007, 1.69796, -1.22718, -1.54034, -0.903503, -1.19916, 1.23043, -1.30268, 0.0746737, 0.0519933, 0.0223203, -0.105826, -0.0758234, 0.00706072, -0.000630068, 1.53114, 68.6789, 35.3437, 5.98602, 3.26587, 3.56845, 0.0101428, -0.00317498, -0.000161138, 0.00451922, 0.00399893, -0.00524752, -0.00303293, 0.0619797, -0.0157464, -0.0208305, -0.113712, 0.205774, 0.0569108, 0.473069, -0.537889, 0.338703, -2.07981, -2.1687, -0.125809, 0.472855, -0.540341, 0.333756, -2.07715, -2.17336, -0.116361, 0.0422985, 0.114595, 0.0581914, 0.0596175, 0.0572784, 0.0275618
0.144007, 1.69803, -1.22712, -1.54031, -0.903622, -1.19924, 1.23043, -1.30268, 0.0732606, 0.0529675, 0.0242922, -0.110386, -0.0755828, 0.00548318, -0.000419915, 1.60651, 68.4567, 35.2683, 5.95032, 3.27228, 3.56112, 0.0101428, -0.0032328, -0.000142047, 0.00453901, 0.00400687, -0.00535357, -0.0031354, 0.062041, -0.015477, -0.0207671, -0.11564, 0.206954, 0.0591636, 0.473111, -0.537773, 0.338761, -2.07972, -2.16875, -0.125725, 0.472918, -0.540279, 0.333786, -2.07701, -2.17358, -0.116171, 0.0428082, 0.11603, 0.0589097, 0.0598657, 0.0586315, 0.0283426
0.145007, 1.6981, -1.22708, -1.54028, -0.903752, -1.19932, 1.23044, -1.30268, 0.067423, 0.0507054, 0.0256819, -0.117571, -0.0755268, 0.00430529, -0.000279846, 1.75727, 68.3496, 35.1969, 5.95032, 3.27228, 3.5538, 0.0101428, -0.0032924, -0.000126197, 0.0045641, 0.00401966, -0.00544989, -0.00323954, 0.0637975, -0.0133249, -0.0229178, -0.118661, 0.205384, 0.0591473, 0.473154, -0.537657, 0.338821, -2.07964, -2.16881, -0.12564, 0.472979, -0.540217, 0.33381, -2.07685, -2.1738, -0.115985, 0.0433189, 0.117469, 0.0596298, 0.0582149, 0.0585693, 0.026739
0.146007, 1.69816, -1.22703, -1.54025, -0.903879, -1.1994, 1.23044, -1.30268, 0.0618921, 0.0491126, 0.0262326, -0.12304, -0.0807686, 0.00288286, 0.000288227, 1.83265, 68.2385, 35.1572, 5.95032, 3.29059, 3.56112, -0.00267457, -0.00335407, -0.000110658, 0.00458799, 0.00402992, -0.00555016, -0.00334001, 0.0670705, -0.0101625, -0.0247657, -0.124267, 0.208623, 0.0553156, 0.473198, -0.537538, 0.338881, -2.07955, -2.16887, -0.125554, 0.473039, -0.540155, 0.333837, -2.0767, -2.17402, -0.115796, 0.0438306, 0.118913, 0.0603519, 0.0556272, 0.0569224, 0.025236
0.147007, 1.69823, -1.22699, -1.54021, -0.904015, -1.19948, 1.23044, -1.30269, 0.0609496, 0.0464852, 0.029447, -0.12709, -0.0802126, 0.00186359, -0.00221529, 1.90803, 68.1989, 35.1215, 5.95032, 3.31531, 3.56845, 0.0623279, -0.00341473, -9.37118e-05, 0.00461474, 0.00404152, -0.00564715, -0.00345666, 0.0671562, -0.0104652, -0.0262889, -0.124622, 0.206125, 0.0610716, 0.473242, -0.537419, 0.338941, -2.07946, -2.16893, -0.125467, 0.473101, -0.540091, 0.333861, -2.07654, -2.17425, -0.115609, 0.0443433, 0.12036, 0.0610757, 0.0563888, 0.0585311, 0.0244335
0.148007, 1.69829, -1.22694, -1.54018, -0.904156, -1.19956, 1.23044, -1.30269, 0.0597148, 0.0517121, 0.0315557, -0.13003, -0.0782094, 0.00583842, -0.000764743, 2.02308, 68.1274, 35.2326, 5.95032, 3.297, 3.58218, 0.0431018, -0.00347797, -8.13066e-05, 0.00464284, 0.00405895, -0.00574123, -0.00355981, 0.0674372, -0.0110861, -0.0229813, -0.119685, 0.212698, 0.0614096, 0.473287, -0.537298, 0.339003, -2.07938, -2.16899, -0.125378, 0.47316, -0.540027, 0.333885, -2.07638, -2.17447, -0.115417, 0.044857, 0.121812, 0.0618013, 0.0576657, 0.0592288, 0.028363
0.149007, 1.69834, -1.22689, -1.54013, -0.904294, -1.19963, 1.23044, -1.30269, 0.0560133, 0.0494137, 0.033161, -0.128172, -0.0772802, 0.00415287, -0.000509798, 2.09846, 68.0521, 35.2326, 5.91064, 3.297, 3.58951, 0.0431018, -0.00354153, -6.89747e-05, 0.00466413, 0.00406463, -0.00584002, -0.00366554, 0.0706825, -0.00815327, -0.0239866, -0.118619, 0.209381, 0.0558397, 0.473332, -0.537175, 0.339065, -2.07929, -2.16905, -0.125289, 0.473219, -0.539964, 0.333916, -2.07622, -2.1747, -0.115232, 0.0453715, 0.123267, 0.0625286, 0.0553427, 0.0575023, 0.0276951
0.150007, 1.6984, -1.22684, -1.54009, -0.904442, -1.19972, 1.23044, -1.30268, 0.0540795, 0.0499985, 0.0374472, -0.134746, -0.0817531, 0.00235368, 0.000168784, 2.17384, 68.0164, 35.2326, 5.95032, 3.3208, 3.61148, 0.0293689, -0.00360558, -5.73533e-05, 0.00468678, 0.00407514, -0.00594164, -0.00377386, 0.0708674, -0.00787828, -0.0236022, -0.121806, 0.213967, 0.0584038, 0.473377, -0.537051, 0.339128, -2.0792, -2.16911, -0.125199, 0.473278, -0.539899, 0.333946, -2.07606, -2.17493, -0.115038, 0.0458869, 0.124727, 0.0632577, 0.0556092, 0.0587083, 0.0287855
0.151007, 1.69845, -1.22679, -1.54004, -0.90458, -1.19979, 1.23044, -1.30269, 0.051089, 0.0522469, 0.0399377, -0.138453, -0.0791627, 0.00213956, -0.00110816, 2.28492, 67.9053, 35.2683, 5.83527, 3.297, 3.60415, 0.0623279, -0.00367413, -4.98914e-05, 0.00470444, 0.00407078, -0.00604049, -0.00387632, 0.0713633, -0.00710429, -0.0223009, -0.120268, 0.215012, 0.06083, 0.473423, -0.536926, 0.339191, -2.07911, -2.16918, -0.125108, 0.473333, -0.539839, 0.333982, -2.07592, -2.17516, -0.114862, 0.0464031, 0.12619, 0.0639883, 0.0554266, 0.059449, 0.0307517
0.152007, 1.6985, -1.22674, -1.53998, -0.904736, -1.19986, 1.23044, -1.30269, 0.0490845, 0.0486704, 0.0455959, -0.146863, -0.0785225, 0.00219329, -0.000976121, 2.24921, 68.0164, 35.2683, 5.91064, 3.3089, 3.58951, 0.0687366, -0.00373665, -3.46049e-05, 0.00472835, 0.00406897, -0.00613388, -0.00399921, 0.0703158, -0.0084297, -0.023974, -0.119478, 0.212249, 0.0679358, 0.47347, -0.536799, 0.339256, -2.07902, -2.16924, -0.125016, 0.473397, -0.539769, 0.334013, -2.07574, -2.1754, -0.11469, 0.0469202, 0.127658, 0.0647206, 0.0571632, 0.0622645, 0.0299505
0.153007, 1.69854, -1.2267, -1.53993, -0.904885, -1.19994, 1.23044, -1.30269, 0.0438972, 0.0464889, 0.0442065, -0.15154, -0.0778476, 0.000816673, -0.000888097, 2.3603, 68.1274, 35.3834, 5.79956, 3.3089, 3.61148, 0.0751453, -0.00380968, -3.11571e-05, 0.00475455, 0.00406936, -0.00622037, -0.00409851, 0.0729903, -0.00561655, -0.0267805, -0.123736, 0.210148, 0.0652752, 0.473517, -0.53667, 0.339321, -2.07892, -2.1693, -0.124922, 0.473449, -0.539709, 0.33404, -2.07559, -2.17562, -0.114519, 0.047438, 0.129128, 0.0654544, 0.0548704, 0.0613952, 0.0275954
0.154007, 1.69858, -1.22664, -1.53987, -0.905046, -1.20001, 1.23044, -1.30269, 0.0477038, 0.0525285, 0.0522208, -0.154925, -0.0775291, 0.000670662, -0.000354698, 2.39997, 68.0521, 35.3834, 5.79956, 3.31531, 3.61148, 0.0687366, -0.00387633, -2.18224e-05, 0.00476599, 0.00405685, -0.00633122, -0.00421326, 0.069514, -0.00922671, -0.0215809, -0.118901, 0.216736, 0.0741148, 0.473565, -0.53654, 0.339387, -2.07883, -2.16937, -0.124828, 0.473508, -0.539643, 0.334085, -2.07543, -2.17588, -0.114338, 0.0479565, 0.130603, 0.0661897, 0.0590648, 0.0656727, 0.0338825
0.155007, 1.69861, -1.22658, -1.53981, -0.905215, -1.20009, 1.23044, -1.30269, 0.0437786, 0.0533925, 0.0530894, -0.160087, -0.0723222, 0.000541768, 0.000712976, 2.47535, 68.1274, 35.4548, 5.79956, 3.31531, 3.61148, 0.0431018, -0.00394573, -1.63865e-05, 0.00478559, 0.0040508, -0.00642648, -0.00432493, 0.0699631, -0.00829702, -0.0218261, -0.118156, 0.214514, 0.0746714, 0.473613, -0.536409, 0.339453, -2.07873, -2.16943, -0.124733, 0.473564, -0.539577, 0.334121, -2.07527, -2.17612, -0.114164, 0.0484757, 0.132081, 0.0669265, 0.0586674, 0.0667025, 0.03434
0.156007, 1.69864, -1.22653, -1.53974, -0.905387, -1.20016, 1.23044, -1.30268, 0.0421216, 0.0579563, 0.0556633, -0.165719, -0.0728431, 0.000160906, 0.000746589, 2.51106, 68.1631, 35.4548, 5.72418, 3.3089, 3.6188, 0.0357776, -0.00401337, -9.61096e-06, 0.00480098, 0.00403681, -0.00652265, -0.00444464, 0.0696752, -0.00828011, -0.0194836, -0.119046, 0.220571, 0.0777331, 0.473662, -0.536276, 0.33952, -2.07864, -2.1695, -0.124636, 0.473621, -0.539509, 0.334163, -2.0751, -2.17637, -0.113998, 0.0489955, 0.133562, 0.0676647, 0.0592554, 0.0681108, 0.0374378
0.157007, 1.69866, -1.22648, -1.53967, -0.905563, -1.20022, 1.23044, -1.30269, 0.0314391, 0.0551713, 0.0550462, -0.16781, -0.0677316, 0.000431785, -1.08974e-05, 2.66181, 68.4567, 35.5698, 5.68848, 3.28418, 3.61148, 0.0495105, -0.00408893, -8.96224e-06, 0.00482681, 0.00402439, -0.0066044, -0.00455651, 0.0747687, -0.00275412, -0.0216027, -0.11715, 0.21457, 0.0700842, 0.473711, -0.536142, 0.339588, -2.07854, -2.16956, -0.124539, 0.473673, -0.539445, 0.334194, -2.07493, -2.17661, -0.113843, 0.049516, 0.135047, 0.0684043, 0.0543807, 0.0646382, 0.0354863
0.158007, 1.69868, -1.22643, -1.53959, -0.905747, -1.20029, 1.23044, -1.30269, 0.0262044, 0.054324, 0.0613733, -0.173608, -0.0661783, 0.000599058, -7.26263e-06, 2.70148, 68.6035, 35.5301, 5.57739, 3.31531, 3.60415, 0.0495105, -0.00415869, -3.51298e-06, 0.00484251, 0.00400159, -0.00669751, -0.00468182, 0.0753973, -0.00186583, -0.0209057, -0.113311, 0.213461, 0.0723912, 0.473761, -0.536006, 0.339657, -2.07844, -2.16963, -0.124441, 0.47373, -0.539376, 0.334236, -2.07476, -2.17687, -0.113689, 0.0500371, 0.136535, 0.0691452, 0.0540717, 0.0653586, 0.0368502
0.159007, 1.6987, -1.22638, -1.53953, -0.905945, -1.20035, 1.23044, -1.30268, 0.0206452, 0.053438, 0.0652787, -0.181754, -0.0587253, -0.00035057, 0.00121586, 2.81654, 68.7543, 35.792, 5.6131, 3.3089, 3.62521, 0.0165515, -0.0042303, -1.99938e-06, 0.00486506, 0.00399727, -0.00678791, -0.00480316, 0.0746981, -0.00134679, -0.0215119, -0.110892, 0.207278, 0.0760256, 0.473811, -0.535869, 0.339727, -2.07834, -2.1697, -0.124341, 0.473784, -0.539306, 0.334272, -2.07458, -2.17712, -0.113515, 0.0505588, 0.138026, 0.0698875, 0.0540272, 0.0676081, 0.0371204
0.160007, 1.69871, -1.22631, -1.53944, -0.906149, -1.20042, 1.23044, -1.30268, 0.0164541, 0.0597659, 0.0691438, -0.189157, -0.0588603, -0.00021125, 0.000810577, 2.92762, 68.7543, 35.7523, 5.57739, 3.32721, 3.62521, 0.0165515, -0.00430032, -1.90713e-07, 0.00487413, 0.00397326, -0.00689135, -0.00493393, 0.0745683, -0.000628471, -0.0177509, -0.110334, 0.215033, 0.0792779, 0.473862, -0.53573, 0.339797, -2.07824, -2.16977, -0.124241, 0.473839, -0.539235, 0.334323, -2.07441, -2.17739, -0.11335, 0.0510809, 0.13952, 0.0706309, 0.0539812, 0.0686253, 0.0416238
0.161007, 1.69872, -1.22626, -1.53936, -0.906346, -1.20048, 1.23044, -1.30268, 0.0111288, 0.0541331, 0.0737392, -0.192929, -0.0582856, -0.000123986, 0.000777744, 3.003, 69.0479, 35.9031, 5.46234, 3.32721, 3.62521, 0.0101428, -0.00437633, -3.13362e-07, 0.00489527, 0.00394948, -0.00697564, -0.00505569, 0.0768402, 0.00109733, -0.0202058, -0.10797, 0.209851, 0.0787059, 0.473913, -0.53559, 0.339868, -2.07814, -2.16984, -0.12414, 0.473893, -0.539167, 0.334361, -2.07423, -2.17765, -0.113202, 0.0516036, 0.141018, 0.0713756, 0.0527781, 0.0681732, 0.0396547
0.162007, 1.69873, -1.22619, -1.53928, -0.906554, -1.20054, 1.23044, -1.30268, 0.00886117, 0.0573532, 0.0791235, -0.197753, -0.0587464, -7.00218e-05, 4.37791e-05, 3.003, 69.0479, 35.9784, 5.42664, 3.35834, 3.62521, 0.0229602, -0.00444676, 1.56847e-06, 0.0049034, 0.0039265, -0.00708179, -0.00519212, 0.0766523, 0.00103958, -0.0174801, -0.105643, 0.214479, 0.0826078, 0.473965, -0.535448, 0.33994, -2.07804, -2.16991, -0.124037, 0.473949, -0.539093, 0.334414, -2.07405, -2.17793, -0.113031, 0.0521267, 0.142518, 0.0721215, 0.053465, 0.0694466, 0.0431215
0.163007, 1.69872, -1.22613, -1.53918, -0.906769, -1.2006, 1.23044, -1.30268, 0.00747063, 0.0590924, 0.0830788, -0.204047, -0.0591292, -0.000579739, -0.000445531, 3.11805, 69.1946, 36.0538, 5.38696, 3.38855, 3.63986, 0.0357776, -0.00452059, -5.44498e-07, 0.00491714, 0.00389727, -0.00716966, -0.00532653, 0.0759999, 0.000480544, -0.0164307, -0.105971, 0.217548, 0.0877957, 0.474018, -0.535305, 0.340012, -2.07793, -2.16998, -0.123934, 0.474002, -0.539021, 0.334462, -2.07386, -2.17821, -0.112885, 0.0526502, 0.144021, 0.0728685, 0.0545672, 0.0714593, 0.0449883
0.164007, 1.69872, -1.22607, -1.5391, -0.906988, -1.20066, 1.23044, -1.30268, 0.0042927, 0.0577323, 0.0818786, -0.208314, -0.0540177, -0.000108118, -0.000568288, 3.19343, 69.4525, 36.3117, 5.31555, 3.40137, 3.63254, 0.0431018, -0.00459603, -1.52267e-06, 0.00493728, 0.00387629, -0.00725747, -0.00545865, 0.0771255, 0.00142219, -0.018592, -0.106454, 0.213576, 0.088519, 0.474071, -0.53516, 0.340086, -2.07783, -2.17005, -0.123829, 0.474056, -0.538948, 0.334504, -2.07367, -2.17848, -0.112728, 0.0531742, 0.145527, 0.0736165, 0.0541142, 0.0721384, 0.0434629
0.165007, 1.69872, -1.226, -1.539, -0.907224, -1.20071, 1.23043, -1.30268, 0.00106999, 0.0624026, 0.0844346, -0.216482, -0.0544703, -0.00166044, -0.000107591, 3.30451, 69.4882, 36.4228, 5.31555, 3.40137, 3.67557, 0.0357776, -0.00466491, -8.22182e-07, 0.00494955, 0.0038509, -0.00734806, -0.0056114, 0.0766634, 0.00197961, -0.0165806, -0.109313, 0.21931, 0.0918253, 0.474124, -0.535014, 0.34016, -2.07772, -2.17012, -0.123723, 0.474112, -0.538868, 0.334555, -2.07346, -2.17877, -0.112575, 0.0536985, 0.147036, 0.0743657, 0.054149, 0.0737713, 0.0462903
0.166007, 1.69871, -1.22594, -1.5389, -0.907464, -1.20076, 1.23043, -1.30268, -0.00137295, 0.0599342, 0.092104, -0.221395, -0.0567314, -0.00110296, -0.000342994, 3.41956, 69.635, 36.5378, 5.27588, 3.44989, 3.67557, 0.0431018, -0.00473512, 3.39314e-08, 0.00496264, 0.00382228, -0.00743904, -0.00576646, 0.0769955, 0.00160098, -0.0163408, -0.105868, 0.219872, 0.0957505, 0.474178, -0.534866, 0.340234, -2.07762, -2.17019, -0.123617, 0.474169, -0.538788, 0.334607, -2.07325, -2.17907, -0.112424, 0.0542231, 0.148547, 0.0751158, 0.0550797, 0.0749349, 0.0472157
0.167007, 1.69871, -1.22588, -1.5388, -0.907708, -1.20081, 1.23043, -1.30269, -0.00129678, 0.0602785, 0.0965117, -0.227419, -0.0517294, -0.00154611, -0.00094074, 3.45527, 69.8215, 36.6092, 5.2005, 3.44989, 3.69754, 0.0623279, -0.00480265, 4.4811e-06, 0.00498049, 0.00378944, -0.00751485, -0.00593261, 0.0747489, -0.000430459, -0.0159929, -0.103462, 0.217173, 0.104302, 0.474232, -0.534717, 0.34031, -2.07751, -2.17026, -0.123509, 0.47423, -0.538702, 0.334654, -2.07302, -2.17938, -0.112293, 0.054748, 0.150061, 0.0758669, 0.0575607, 0.0787073, 0.0485888
0.168007, 1.69869, -1.22582, -1.5387, -0.907956, -1.20085, 1.23043, -1.30269, -0.00497872, 0.0633301, 0.0968155, -0.233269, -0.048538, -0.00153712, -0.00062716, 3.6457, 69.8929, 36.7957, 5.05371, 3.46271, 3.71127, 0.0623279, -0.00487682, 1.60277e-06, 0.00499703, 0.00375924, -0.00759805, -0.00608404, 0.0752455, 0.000572318, -0.015263, -0.104227, 0.21899, 0.105451, 0.474287, -0.534566, 0.340386, -2.0774, -2.17034, -0.123401, 0.474285, -0.538622, 0.334703, -2.07281, -2.17967, -0.112149, 0.0552732, 0.151577, 0.0766189, 0.0571393, 0.0795757, 0.0500214
0.169007, 1.69867, -1.22576, -1.5386, -0.908216, -1.20089, 1.23042, -1.30268, -0.00918885, 0.0682411, 0.102227, -0.24539, -0.0476653, -0.00156559, 5.66116e-05, 3.90754, 69.9683, 36.9068, 5.01404, 3.51764, 3.72592, 0.0495105, -0.00494806, 7.749e-07, 0.00501198, 0.00372538, -0.00768129, -0.0062424, 0.0733266, -0.000111546, -0.0124621, -0.104343, 0.224791, 0.112829, 0.474343, -0.534414, 0.340463, -2.07729, -2.17041, -0.123291, 0.474342, -0.538538, 0.334754, -2.07259, -2.17997, -0.112009, 0.0557986, 0.153096, 0.0773717, 0.058388, 0.0825951, 0.0538137
0.170007, 1.69865, -1.2257, -1.53848, -0.908483, -1.20093, 1.23042, -1.30268, -0.010389, 0.0668145, 0.10854, -0.254264, -0.0452059, -0.001585, 3.77411e-05, 4.09797, 70.1151, 36.9068, 4.90295, 3.52954, 3.74057, 0.0495105, -0.00501403, 4.34935e-06, 0.00502683, 0.00368279, -0.00775239, -0.00642319, 0.0711192, -0.00221885, -0.0127641, -0.102375, 0.222737, 0.122141, 0.474399, -0.53426, 0.340541, -2.07718, -2.17049, -0.12318, 0.474403, -0.538447, 0.334807, -2.07234, -2.1803, -0.111892, 0.0563242, 0.154618, 0.0781255, 0.0609202, 0.0864391, 0.0545382
0.171007, 1.69864, -1.22563, -1.53837, -0.908758, -1.20097, 1.23042, -1.30268, -0.0154277, 0.0664079, 0.105779, -0.260196, -0.0400923, -0.00129308, 0.000533787, 4.3241, 70.1151, 37.0933, 4.75616, 3.57257, 3.74698, 0.0357776, -0.00508102, 9.37143e-06, 0.00504098, 0.00364234, -0.00783713, -0.00660334, 0.0728083, -0.00026917, -0.0150831, -0.104818, 0.219823, 0.121099, 0.474456, -0.534104, 0.340619, -2.07707, -2.17056, -0.123068, 0.474467, -0.538356, 0.334861, -2.0721, -2.18063, -0.111758, 0.05685, 0.156141, 0.07888, 0.059479, 0.0865554, 0.0528118
0.172007, 1.69861, -1.22556, -1.53826, -0.909039, -1.201, 1.23042, -1.30268, -0.01751, 0.0683529, 0.104765, -0.264821, -0.0353937, -0.00167514, 0.000593217, 4.62562, 70.1508, 37.244, 4.60541, 3.59729, 3.76895, 0.0293689, -0.00514832, 9.85775e-06, 0.00505451, 0.00360948, -0.00791669, -0.00678325, 0.0729996, 0.000230697, -0.0154269, -0.106146, 0.21914, 0.122904, 0.474513, -0.533947, 0.340699, -2.07696, -2.17064, -0.122956, 0.474527, -0.538264, 0.334917, -2.07186, -2.18095, -0.11162, 0.0573759, 0.157667, 0.0796352, 0.0595046, 0.0879204, 0.0532173
0.173007, 1.69859, -1.22549, -1.53814, -0.90934, -1.20103, 1.23041, -1.30268, -0.0188553, 0.0686942, 0.108667, -0.273535, -0.0332557, -0.00216739, 0.000632837, 4.92713, 70.2261, 37.3194, 4.56573, 3.65863, 3.79733, 0.0229602, -0.00521114, 1.49602e-05, 0.00507084, 0.00357549, -0.00799353, -0.00698201, 0.071262, -0.00117372, -0.0155654, -0.106613, 0.219015, 0.130572, 0.47457, -0.533789, 0.340779, -2.07684, -2.17071, -0.122842, 0.474592, -0.538165, 0.334971, -2.07159, -2.1813, -0.111487, 0.0579019, 0.159194, 0.0803912, 0.0613607, 0.0912498, 0.0540571
0.174007, 1.69856, -1.22542, -1.53802, -0.90965, -1.20106, 1.23041, -1.30268, -0.0228866, 0.067565, 0.111722, -0.283503, -0.0308652, -0.00144453, 0.000421891, 5.22865, 70.2261, 37.3908, 4.53003, 3.70166, 3.79733, 0.0229602, -0.0052721, 2.26671e-05, 0.00508769, 0.0035423, -0.00807261, -0.00718618, 0.0707382, -0.00148491, -0.0168028, -0.10696, 0.217887, 0.136655, 0.474629, -0.533629, 0.340859, -2.07673, -2.17079, -0.122727, 0.474659, -0.538062, 0.335026, -2.07131, -2.18165, -0.11135, 0.0584279, 0.160724, 0.0811479, 0.0621301, 0.0934984, 0.0536633
0.175007, 1.69853, -1.22535, -1.53791, -0.909951, -1.20108, 1.23041, -1.30267, -0.0257917, 0.0680839, 0.113328, -0.287593, -0.0288056, -0.00123398, 0.0024514, 5.53413, 70.3015, 37.5019, 4.34357, 3.7392, 3.80466, -0.0356336, -0.0053386, 2.63727e-05, 0.00510556, 0.00350745, -0.0081502, -0.00737499, 0.0716294, -0.00070304, -0.0168788, -0.10643, 0.218013, 0.135612, 0.474687, -0.533468, 0.340941, -2.07661, -2.17087, -0.122611, 0.474724, -0.537964, 0.33508, -2.07105, -2.18198, -0.111213, 0.0589541, 0.162256, 0.0819052, 0.061914, 0.0941245, 0.0542378
0.176007, 1.69851, -1.22527, -1.53779, -0.910264, -1.20111, 1.23041, -1.30267, -0.0269978, 0.0720199, 0.116104, -0.295507, -0.0237144, -0.0010937, 0.00092219, 5.79597, 70.2261, 37.5416, 4.1214, 3.80603, 3.81198, -0.0164075, -0.00539963, 3.37548e-05, 0.00511758, 0.00347341, -0.00823707, -0.00758765, 0.0694485, -0.00217581, -0.0151609, -0.105334, 0.219358, 0.144653, 0.474746, -0.533304, 0.341023, -2.07649, -2.17095, -0.122494, 0.474793, -0.537859, 0.335141, -2.07077, -2.18235, -0.111068, 0.0594802, 0.16379, 0.0826631, 0.0638958, 0.09762, 0.0569779
0.177007, 1.69848, -1.2252, -1.53766, -0.910592, -1.20113, 1.2304, -1.30267, -0.0248605, 0.0707103, 0.121224, -0.304847, -0.0222686, -0.0012715, 0.00132687, 6.06178, 70.1904, 37.5773, 4.00635, 3.81244, 3.82663, -0.0356336, -0.00545722, 4.39115e-05, 0.00513329, 0.00343808, -0.00831371, -0.00780961, 0.0660397, -0.00588394, -0.0160667, -0.105733, 0.218431, 0.156335, 0.474806, -0.53314, 0.341106, -2.07637, -2.17103, -0.122376, 0.474864, -0.537749, 0.335199, -2.07047, -2.18272, -0.110935, 0.0600063, 0.165325, 0.0834216, 0.0679502, 0.102833, 0.0572381
0.178007, 1.69846, -1.22513, -1.53754, -0.910918, -1.20115, 1.2304, -1.30267, -0.0254498, 0.0702523, 0.121394, -0.311719, -0.0177382, -0.00561684, 0.00112194, 6.28791, 70.2618, 37.6169, 3.74451, 3.84906, 3.82663, -0.0420422, -0.00551581, 5.56886e-05, 0.00515223, 0.0033959, -0.00838229, -0.00803545, 0.0645035, -0.0062129, -0.0181365, -0.111039, 0.213744, 0.162399, 0.474866, -0.532974, 0.34119, -2.07626, -2.17111, -0.122257, 0.474938, -0.537637, 0.335255, -2.07017, -2.1831, -0.110816, 0.0605324, 0.166863, 0.0841806, 0.06866, 0.106216, 0.0561785
0.179007, 1.69843, -1.22505, -1.53741, -0.911256, -1.20116, 1.23041, -1.30267, -0.0238053, 0.0694633, 0.122003, -0.318669, -0.0194982, -0.00332811, 0.000985318, 6.55372, 70.2261, 37.6526, 3.55804, 3.8985, 3.80466, -0.0484509, -0.00557529, 6.62667e-05, 0.00516935, 0.00335853, -0.00846313, -0.00826071, 0.0638118, -0.00841261, -0.0197689, -0.113482, 0.217216, 0.168814, 0.474927, -0.532806, 0.341275, -2.07613, -2.17119, -0.122137, 0.475011, -0.537525, 0.335313, -2.06986, -2.18348, -0.110679, 0.0610583, 0.168402, 0.0849401, 0.0712898, 0.108789, 0.0553571
0.180007, 1.69839, -1.22498, -1.53728, -0.911597, -1.20118, 1.2304, -1.30267, -0.0264252, 0.0702479, 0.123952, -0.327854, -0.01561, -0.00278801, -0.000767275, 6.85523, 70.2618, 37.6169, 3.41125, 3.93512, 3.81198, -0.00999879, -0.00563333, 7.62435e-05, 0.00518665, 0.00331672, -0.00853143, -0.0084983, 0.0626305, -0.00922711, -0.0202632, -0.113967, 0.216731, 0.177075, 0.474989, -0.532637, 0.34136, -2.07601, -2.17127, -0.122016, 0.475084, -0.53741, 0.335373, -2.06955, -2.18387, -0.11056, 0.0615842, 0.169942, 0.0857, 0.0725631, 0.111609, 0.0557828
0.181007, 1.69836, -1.22491, -1.53716, -0.911945, -1.20119, 1.2304, -1.30266, -0.0299672, 0.0738206, 0.12574, -0.335229, -0.0122634, -0.00181092, 0.000912637, 7.08137, 70.3015, 37.6883, 3.18512, 3.95984, 3.80466, -0.0484509, -0.00569076, 8.87348e-05, 0.00520656, 0.00327824, -0.00860285, -0.00873127, 0.0623276, -0.00905678, -0.018848, -0.113235, 0.219501, 0.17908, 0.47505, -0.532466, 0.341446, -2.07589, -2.17135, -0.121894, 0.47516, -0.537293, 0.33543, -2.06923, -2.18425, -0.110433, 0.0621099, 0.171484, 0.0864603, 0.0729688, 0.113228, 0.0579943
0.182007, 1.69833, -1.22482, -1.53702, -0.912299, -1.2012, 1.2304, -1.30266, -0.028021, 0.0745907, 0.127761, -0.341116, -0.0151518, -0.00137491, -0.000815729, 7.38288, 70.1508, 37.6169, 3.07404, 4.00287, 3.80466, -0.00999879, -0.00574738, 9.99261e-05, 0.00521644, 0.00323187, -0.00868677, -0.00897473, 0.0614138, -0.0109307, -0.0190936, -0.116005, 0.224379, 0.186704, 0.475113, -0.532294, 0.341533, -2.07577, -2.17143, -0.121771, 0.475236, -0.537175, 0.335498, -2.06891, -2.18466, -0.110301, 0.0626355, 0.173028, 0.087221, 0.0753207, 0.115801, 0.0585883
0.183007, 1.69829, -1.22474, -1.53688, -0.912664, -1.20121, 1.2304, -1.30266, -0.0278746, 0.0737501, 0.130132, -0.346431, -0.0132922, -0.000499794, 0.00420934, 7.60902, 70.1904, 37.6169, 2.99866, 4.06421, 3.79001, -0.00999879, -0.0058029, 0.000114642, 0.00523513, 0.00319076, -0.00876249, -0.00922733, 0.0606517, -0.0123713, -0.0199587, -0.115454, 0.223839, 0.187091, 0.475176, -0.53212, 0.34162, -2.07564, -2.17152, -0.121646, 0.475315, -0.537053, 0.335558, -2.06858, -2.18507, -0.110172, 0.0631608, 0.174573, 0.087982, 0.07722, 0.118298, 0.0585624
0.184007, 1.69825, -1.22466, -1.53675, -0.913031, -1.20122, 1.2304, -1.30266, -0.031029, 0.070937, 0.132815, -0.349304, -0.0104664, -0.000190129, 0.00343968, 7.83515, 70.1904, 37.6883, 2.88757, 4.08893, 3.7836, -0.0164075, -0.00585922, 0.000126939, 0.00525421, 0.00315249, -0.00883358, -0.00947588, 0.0619638, -0.0115233, -0.0214188, -0.113218, 0.21989, 0.188386, 0.475239, -0.531945, 0.341709, -2.07552, -2.1716, -0.121521, 0.475392, -0.53693, 0.335619, -2.06824, -2.18547, -0.110043, 0.0636859, 0.176119, 0.0887433, 0.0768964, 0.118729, 0.0577118
0.185007, 1.69821, -1.22458, -1.53661, -0.913402, -1.20122, 1.2304, -1.30265, -0.0332914, 0.0729151, 0.135148, -0.355457, -0.00908827, 7.37953e-05, 0.00306491, 8.06129, 70.1508, 37.6526, 2.81219, 4.13196, 3.77627, -0.0292249, -0.00591741, 0.000138454, 0.00526775, 0.00310434, -0.00891542, -0.00972307, 0.0618069, -0.01157, -0.0206985, -0.113294, 0.222245, 0.192279, 0.475303, -0.531768, 0.341798, -2.07539, -2.17169, -0.121395, 0.47547, -0.536808, 0.335686, -2.06792, -2.18588, -0.109913, 0.0642108, 0.177667, 0.0895048, 0.0774954, 0.120326, 0.0592081
0.186007, 1.69818, -1.22449, -1.53647, -0.913786, -1.20123, 1.2304, -1.30265, -0.0324735, 0.0751576, 0.138008, -0.361736, -0.00780294, 0.000267425, 0.00202872, 8.17634, 70.0793, 37.6883, 2.70111, 4.16858, 3.76895, -0.0228162, -0.00596924, 0.000155842, 0.0052842, 0.00306717, -0.00899707, -0.00999054, 0.0601115, -0.0134242, -0.0198116, -0.113514, 0.224997, 0.2002, 0.475368, -0.53159, 0.341888, -2.07526, -2.17177, -0.121268, 0.475553, -0.536677, 0.335751, -2.06756, -2.18631, -0.109772, 0.0647353, 0.179216, 0.0902666, 0.0798404, 0.123504, 0.0610411
0.187007, 1.69813, -1.22441, -1.53633, -0.914165, -1.20124, 1.2304, -1.30263, -0.0379708, 0.0788466, 0.138138, -0.371023, -0.00664567, 0.000681038, 0.00797386, 8.40247, 70.0436, 37.6883, 2.59003, 4.19971, 3.7543, -0.0685925, -0.00603011, 0.000164235, 0.00529885, 0.0030209, -0.0090772, -0.0102304, 0.0608256, -0.0119389, -0.0191423, -0.11633, 0.229627, 0.196158, 0.475433, -0.53141, 0.341978, -2.07513, -2.17186, -0.121139, 0.475629, -0.536555, 0.335818, -2.06724, -2.18671, -0.109639, 0.0652596, 0.180765, 0.0910285, 0.0789442, 0.124177, 0.062408
0.188007, 1.69809, -1.22433, -1.53619, -0.914562, -1.20124, 1.2304, -1.30263, -0.0382295, 0.0796901, 0.137273, -0.376589, -0.00553018, 0.000695458, 0.0111671, 8.47785, 70.0793, 37.728, 2.59003, 4.22351, 3.74698, -0.0814099, -0.00608551, 0.000178945, 0.00532057, 0.00298256, -0.00915199, -0.0104968, 0.060751, -0.0123619, -0.0202727, -0.119645, 0.231154, 0.196359, 0.475498, -0.531228, 0.34207, -2.075, -2.17194, -0.12101, 0.47571, -0.536424, 0.335879, -2.06688, -2.18714, -0.109505, 0.0657834, 0.182316, 0.0917906, 0.0798435, 0.125993, 0.0620512
