alisrour97/Franka_experiments/Real_Robot_scripts/servo-franka/Data_5_ki/log_dyn_PI0_5.csv
Time,q1,q2,q3,q4,q5,q6,q7,dq1,dq2,dq3,dq4,dq5,dq6,dq7,t1,t2,t3,t4,t5,t6,t7,ex1,ex2,ex3,ex4,ex5,ex6,ev1,ev2,ev3,ev4,ev5,ev6,xd,yd,zd,uxd,uyd,uzd,x,y,z,ux,uy,uz,vxd,vyd,vzd,vx,vy,vz
7.32422e-07, 1.69101, -1.22847, -1.53989, -0.900731, -1.19223, 1.22803, -1.3026, 0.00410666, 0.00456893, -0.00423305, -0.00665015, 0.00299512, 0.00420733, -0.00101899, -0.392998, 64.6283, 32.2175, 8.0014, 2.48584, 3.7836, -0.172963, 0.000286191, -0.00203669, 0.00257879, 0.00300045, 0.0021568, 0.000772068, -0.00335822, -0.0041051, 0.000368035, -0.00213497, 0.00525303, 0.00965869, 0.471008, -0.543389, 0.335894, -2.08385, -2.16584, -0.129887, 0.46887, -0.542795, 0.333446, -2.08196, -2.16263, -0.128668, -4.06186e-05, 0.000124715, 6.6488e-05, 0.00395238, 0.00355136, 0.000827377
0.0170942, 1.69102, -1.22843, -1.53988, -0.900727, -1.1922, 1.22803, -1.30261, 0.00659501, 0.0104464, -0.000643319, 0.00146246, 0.00141328, 8.55476e-05, 0.000192099, 0.245735, 64.4815, 32.2532, 7.92602, 2.49866, 3.79733, -0.21233, 0.000303285, -0.00202468, 0.00255316, 0.00297381, 0.0021458, 0.000742953, -0.00336215, -0.00331004, 0.00569532, 0.000593085, 0.00957421, 0.00480392, 0.471008, -0.543389, 0.335894, -2.08385, -2.16584, -0.129887, 0.468883, -0.54278, 0.333481, -2.08195, -2.16269, -0.128687, -6.68636e-05, 0.000218577, 0.000115026, 0.00332426, 0.00279662, 0.00616077
0.0180945, 1.69102, -1.22843, -1.53988, -0.900727, -1.1922, 1.22803, -1.30261, 0.00659501, 0.0104464, -0.000643319, 0.00146246, 0.00141328, 8.55476e-05, 0.000192099, 0.245735, 64.4815, 32.2532, 7.92602, 2.49866, 3.79733, -0.21233, 0.000303262, -0.00202467, 0.00255317, 0.0029738, 0.00214581, 0.000742965, -0.00325128, -0.00333613, 0.00565967, 0.000545973, 0.00964657, 0.00471414, 0.471008, -0.543389, 0.335894, -2.08385, -2.16584, -0.129887, 0.468883, -0.54278, 0.333481, -2.08195, -2.16269, -0.128687, -9.5592e-05, 0.000321476, 0.000168224, 0.00332426, 0.00279662, 0.00616077
0.0190945, 1.69102, -1.22843, -1.53988, -0.900727, -1.1922, 1.22803, -1.30261, 0.00659501, 0.0104464, -0.000643319, 0.00146246, 0.00141328, 8.55476e-05, 0.000192099, 0.245735, 64.4815, 32.2532, 7.92602, 2.49866, 3.79733, -0.21233, 0.0003032, -0.00202466, 0.00255319, 0.00297377, 0.00214582, 0.000742998, -0.00313031, -0.00336454, 0.00562078, 0.000494654, 0.00972549, 0.00461626, 0.471008, -0.543389, 0.335894, -2.08385, -2.16584, -0.129887, 0.468883, -0.54278, 0.333481, -2.08195, -2.16269, -0.128687, -0.000126895, 0.000433757, 0.000226255, 0.00332426, 0.00279662, 0.00616077
0.0200945, 1.69102, -1.22843, -1.53988, -0.900727, -1.1922, 1.22803, -1.30261, 0.00659501, 0.0104464, -0.000643319, 0.00146246, 0.00141328, 8.55476e-05, 0.000192099, 0.245735, 64.4815, 32.2532, 7.92602, 2.49866, 3.79733, -0.21233, 0.00030308, -0.00202463, 0.00255323, 0.00297371, 0.00214585, 0.000743062, -0.00299887, -0.00339537, 0.00557854, 0.000438982, 0.0098112, 0.00450998, 0.471008, -0.543389, 0.335894, -2.08385, -2.16584, -0.129887, 0.468883, -0.54278, 0.333481, -2.08195, -2.16269, -0.128687, -0.000160861, 0.000555757, 0.000289294, 0.00332426, 0.00279662, 0.00616077
0.0210945, 1.69102, -1.22843, -1.53988, -0.900727, -1.1922, 1.22803, -1.30261, 0.00659501, 0.0104464, -0.000643319, 0.00146246, 0.00141328, 8.55476e-05, 0.000192099, 0.245735, 64.4815, 32.2532, 7.92602, 2.49866, 3.79733, -0.21233, 0.000302883, -0.00202458, 0.00255329, 0.00297362, 0.0021459, 0.000743167, -0.0028566, -0.0034287, 0.00553283, 0.000378814, 0.00990394, 0.00439504, 0.471008, -0.543389, 0.335894, -2.08385, -2.16584, -0.129886, 0.468883, -0.54278, 0.333481, -2.08195, -2.16269, -0.128687, -0.000197581, 0.000687809, 0.000357511, 0.00332426, 0.00279662, 0.00616077
0.0220945, 1.69102, -1.22843, -1.53988, -0.900727, -1.1922, 1.22803, -1.30261, 0.00659501, 0.0104464, -0.000643319, 0.00146246, 0.00141328, 8.55476e-05, 0.000192099, 0.245735, 64.4815, 32.2532, 7.92602, 2.49866, 3.79733, -0.21233, 0.00030259, -0.00202451, 0.00255339, 0.00297348, 0.00214597, 0.000743323, -0.00270315, -0.0034646, 0.00548354, 0.000314009, 0.0100039, 0.00427114, 0.471008, -0.543389, 0.335894, -2.08385, -2.16584, -0.129886, 0.468883, -0.54278, 0.333481, -2.08195, -2.16269, -0.128687, -0.000237139, 0.000830243, 0.000431075, 0.00332426, 0.00279662, 0.00616077
0.0230945, 1.69102, -1.22843, -1.53988, -0.900727, -1.1922, 1.22803, -1.30261, 0.00659501, 0.0104464, -0.000643319, 0.00146246, 0.00141328, 8.55476e-05, 0.000192099, 0.245735, 64.4815, 32.2532, 7.92602, 2.49866, 3.79733, -0.21233, 0.000302181, -0.00202442, 0.00255352, 0.00297328, 0.00214606, 0.000743541, -0.00253818, -0.00350314, 0.00543057, 0.000244429, 0.0101114, 0.00413801, 0.471008, -0.543388, 0.335894, -2.08385, -2.16584, -0.129886, 0.468883, -0.54278, 0.333481, -2.08195, -2.16269, -0.128687, -0.000279621, 0.000983381, 0.00051015, 0.00332426, 0.00279662, 0.00616077
0.0240945, 1.69102, -1.22843, -1.53988, -0.900727, -1.1922, 1.22803, -1.30261, 0.00659501, 0.0104464, -0.000643319, 0.00146246, 0.00141328, 8.55476e-05, 0.000192099, 0.245735, 64.4815, 32.2532, 7.92602, 2.49866, 3.79733, -0.21233, 0.000301639, -0.00202429, 0.00255369, 0.00297302, 0.00214619, 0.00074383, -0.00236133, -0.00354441, 0.00537379, 0.000169941, 0.0102266, 0.0039954, 0.471008, -0.543388, 0.335895, -2.08385, -2.16584, -0.129886, 0.468883, -0.54278, 0.333481, -2.08195, -2.16269, -0.128687, -0.00032511, 0.00114754, 0.000594898, 0.00332426, 0.00279662, 0.00616077
0.0250945, 1.69102, -1.22843, -1.53988, -0.900727, -1.1922, 1.22803, -1.30261, 0.00659501, 0.0104464, -0.000643319, 0.00146246, 0.00141328, 8.55476e-05, 0.000192099, 0.245735, 64.4815, 32.2532, 7.92602, 2.49866, 3.79733, -0.21233, 0.000300944, -0.00202412, 0.00255392, 0.00297269, 0.00214635, 0.000744199, -0.00217228, -0.00358847, 0.00531312, 9.0413e-05, 0.0103496, 0.00384303, 0.471007, -0.543387, 0.335895, -2.08384, -2.16584, -0.129885, 0.468883, -0.54278, 0.333481, -2.08195, -2.16269, -0.128687, -0.000373687, 0.00132303, 0.000685479, 0.00332426, 0.00279662, 0.00616077
0.0260945, 1.69102, -1.22843, -1.53988, -0.900727, -1.1922, 1.22803, -1.30261, 0.00659501, 0.0104464, -0.000643319, 0.00146246, 0.00141328, 8.55476e-05, 0.000192099, 0.245735, 64.4815, 32.2532, 7.92602, 2.49866, 3.79733, -0.21233, 0.000300078, -0.00202392, 0.0025542, 0.00297227, 0.00214655, 0.00074466, -0.00197071, -0.0036354, 0.00524844, 5.71757e-06, 0.0104808, 0.00368067, 0.471007, -0.543386, 0.335895, -2.08384, -2.16584, -0.129884, 0.468883, -0.54278, 0.333481, -2.08195, -2.16269, -0.128687, -0.000425431, 0.00151016, 0.000782046, 0.00332426, 0.00279662, 0.00616077
0.0270945, 1.69099, -1.22837, -1.53985, -0.900686, -1.1922, 1.22804, -1.30262, -0.00530939, 0.0101549, 0.0020214, 0.00177711, 0.000259406, 0.000676415, -0.000873535, 0.551216, 64.184, 32.0707, 7.66418, 2.44922, 3.77627, -0.147328, 0.000283725, -0.0020463, 0.00249958, 0.00290612, 0.00209374, 0.000789867, 0.00338022, 0.00261278, 0.00667457, 0.00420765, 0.0109909, -0.00655365, 0.471007, -0.543385, 0.335896, -2.08384, -2.16584, -0.129884, 0.468863, -0.542804, 0.333533, -2.08206, -2.16269, -0.128701, -0.000480419, 0.00170921, 0.00088475, -0.00272802, -0.00276208, 0.00702953
0.0280945, 1.69098, -1.22837, -1.53984, -0.900678, -1.1922, 1.22804, -1.30261, -0.00365554, 0.0108533, 0.00422062, 0.0020419, 0.000175681, 0.000993907, -0.00390854, 0.551216, 64.184, 31.9556, 7.62848, 2.44922, 3.76163, -0.186696, 0.00028082, -0.00204735, 0.00249325, 0.00289234, 0.00208936, 0.000800163, 0.00248154, 0.00126629, 0.00776949, 0.00620129, 0.0119443, -0.00128514, 0.471007, -0.543384, 0.335896, -2.08384, -2.16585, -0.129883, 0.468862, -0.542807, 0.33354, -2.08208, -2.16269, -0.12871, -0.000538724, 0.00192048, 0.000993739, -0.00143417, -0.00177703, 0.00831856
0.0290945, 1.69098, -1.22837, -1.53985, -0.900671, -1.19219, 1.22804, -1.30261, -0.00638836, 0.00273186, -0.00390503, 0.00314096, 0.0026284, 0.00252789, -0.003513, 0.586922, 63.9658, 31.8445, 7.5531, 2.38147, 3.71127, -0.172963, 0.00027454, -0.00205154, 0.00249297, 0.00288745, 0.00209046, 0.000811842, 0.00637473, 0.00372126, 0.000467945, 0.00174244, 0.00309866, -0.00846772, 0.471006, -0.543383, 0.335897, -2.08384, -2.16585, -0.129882, 0.468858, -0.542812, 0.33354, -2.08209, -2.16268, -0.128714, -0.000600418, 0.00214425, 0.00110915, -0.00407202, -0.00437339, 0.000694041
0.0300945, 1.69098, -1.22837, -1.53984, -0.900666, -1.1922, 1.22804, -1.30261, -0.0019781, 0.00261302, -0.00238404, 0.00362816, 0.000806866, 0.0032792, -0.00409908, 0.475838, 63.3389, 31.4002, 7.36664, 2.2771, 3.66824, -0.133595, 0.000273404, -0.00204963, 0.00249059, 0.00288405, 0.00208566, 0.00081165, 0.00495259, 0.00109267, 0.000757047, 0.00230262, 0.00500806, -0.00403531, 0.471006, -0.543381, 0.335898, -2.08384, -2.16585, -0.129881, 0.468859, -0.542812, 0.333543, -2.0821, -2.16268, -0.128712, -0.00066557, 0.00238079, 0.00123113, -0.00155239, -0.00266982, 0.00124298
0.0310945, 1.69098, -1.22837, -1.53986, -0.900666, -1.1922, 1.22804, -1.30261, -0.00369285, -0.00190953, -0.00688278, -2.98925e-05, 0.00332542, 0.00378001, -0.00366906, 0.436165, 62.7121, 31.0273, 7.21588, 2.19104, 3.62521, -0.114369, 0.000265225, -0.00205298, 0.00249915, 0.00289613, 0.00208297, 0.000825773, 0.00580417, 0.00151372, -0.00395483, -0.00198069, -0.000584333, -0.00440556, 0.471005, -0.543379, 0.335899, -2.08384, -2.16585, -0.129879, 0.468855, -0.542817, 0.333534, -2.08211, -2.16267, -0.128693, -0.000734245, 0.00263035, 0.0013598, -0.00218121, -0.00255297, -0.00340043
0.0320945, 1.69099, -1.22839, -1.53987, -0.900665, -1.19221, 1.22804, -1.30261, -0.00161187, -0.00465068, -0.0131291, -0.00105273, -0.00398742, 0.00197761, -0.00163089, 0.245735, 62.1606, 30.6186, 6.99371, 2.09949, 3.63986, -0.140919, 0.000260577, -0.00205144, 0.00251458, 0.00291735, 0.00209046, 0.000833598, 0.0076698, 0.00226031, -0.0082809, -0.01358, 0.00252359, -0.0091162, 0.471005, -0.543377, 0.3359, -2.08384, -2.16585, -0.129878, 0.468856, -0.542817, 0.333519, -2.0821, -2.16265, -0.128675, -0.000806507, 0.00289319, 0.0014953, -0.00308856, -0.00349667, -0.00780364
0.0330945, 1.69098, -1.22839, -1.5399, -0.900665, -1.19222, 1.22805, -1.3026, -0.0025923, -0.00166474, -0.0172323, -0.000201406, -0.00582531, 0.00158977, -0.00121341, 0.285408, 61.5338, 30.3211, 6.80725, 2.03174, 3.63254, -0.140919, 0.000246821, -0.00206027, 0.00252469, 0.0029384, 0.00208228, 0.00086191, 0.00955135, 0.00398879, -0.00794197, -0.0176816, 0.00716338, -0.0141282, 0.471004, -0.543375, 0.335901, -2.08384, -2.16585, -0.129876, 0.468846, -0.542827, 0.333509, -2.08212, -2.16262, -0.128639, -0.000882416, 0.00316954, 0.00163773, -0.00481118, -0.00520075, -0.00756643
0.0340945, 1.69099, -1.2284, -1.53993, -0.900671, -1.19223, 1.22805, -1.30261, 0.000520776, -0.000754171, -0.0196213, -0.00133425, -0.00901413, 0.00265362, -0.00212425, 0.170357, 61.0934, 29.9839, 6.69617, 2.01343, 3.58951, -0.10796, 0.00023935, -0.00205799, 0.00254299, 0.00296309, 0.00207997, 0.000864839, 0.00930013, 0.00251973, -0.00858247, -0.0214114, 0.0117605, -0.0116338, 0.471003, -0.543372, 0.335903, -2.08383, -2.16585, -0.129874, 0.468848, -0.542829, 0.333491, -2.08211, -2.16261, -0.128606, -0.000962028, 0.00345964, 0.00178723, -0.00345573, -0.00450395, -0.00805465
0.0350945, 1.69099, -1.22842, -1.53996, -0.900683, -1.19225, 1.22806, -1.30261, -0.00174776, -0.00420397, -0.0230222, -0.0047268, -0.0126208, 0.00546516, -2.90632e-05, 0.245735, 60.8356, 29.722, 6.69617, 2.03174, 3.48971, -0.147328, 0.000224503, -0.00206322, 0.00256665, 0.0029978, 0.00207504, 0.000883823, 0.0116599, 0.00339129, -0.0120265, -0.0253073, 0.0133256, -0.0160351, 0.471002, -0.543369, 0.335904, -2.08383, -2.16585, -0.129871, 0.468841, -0.542837, 0.333467, -2.08211, -2.16258, -0.128559, -0.0010454, 0.0037637, 0.0019439, -0.00444948, -0.00603518, -0.0116386
0.0360945, 1.69098, -1.22843, -1.53999, -0.900694, -1.19227, 1.22808, -1.30261, -0.00327, -0.00194261, -0.0268822, -0.00706264, -0.020378, 0.00737341, -0.000818579, 0.325081, 60.538, 29.3888, 6.69617, 2.06836, 3.38901, -0.127186, 0.000210196, -0.00206667, 0.00258452, 0.00302471, 0.00206069, 0.000900375, 0.0143093, 0.00489375, -0.0122544, -0.031468, 0.0234994, -0.0194676, 0.471002, -0.543366, 0.335906, -2.08383, -2.16586, -0.129869, 0.468837, -0.542845, 0.333449, -2.08212, -2.16256, -0.12851, -0.00113257, 0.00408193, 0.00210783, -0.00595063, -0.00835897, -0.0120656
0.0370945, 1.69099, -1.22844, -1.54003, -0.900701, -1.19228, 1.22809, -1.30261, 0.000910968, -0.00286285, -0.0303239, -0.00671311, -0.0193612, 0.00810303, -0.00106035, 0.325081, 60.3555, 29.2023, 6.62079, 2.05005, 3.30295, -0.114369, 0.00019565, -0.00206845, 0.00260805, 0.00305718, 0.00205339, 0.000916567, 0.0135909, 0.0028862, -0.0142382, -0.0340825, 0.0226656, -0.0169868, 0.471001, -0.543362, 0.335908, -2.08383, -2.16586, -0.129866, 0.468834, -0.542852, 0.333425, -2.08212, -2.16254, -0.128462, -0.0012236, 0.00441451, 0.00227914, -0.00413402, -0.00692969, -0.0138022
0.0380945, 1.69098, -1.22846, -1.54006, -0.900708, -1.19231, 1.2281, -1.3026, 0.00215524, -0.00563546, -0.0279937, -0.00574223, -0.0190788, 0.00753827, 0.000721226, 0.400459, 60.2802, 28.8294, 6.5097, 2.04364, 3.24527, -0.153737, 0.000180074, -0.00207166, 0.00262931, 0.00308197, 0.00204816, 0.000938509, 0.0133598, 0.00192892, -0.0151407, -0.0325251, 0.0194432, -0.0174222, 0.470999, -0.543358, 0.33591, -2.08382, -2.16586, -0.129863, 0.468829, -0.542861, 0.333404, -2.08213, -2.16251, -0.128424, -0.00131852, 0.00476163, 0.0024579, -0.00331376, -0.00617631, -0.0145075
0.0390945, 1.69099, -1.22847, -1.54009, -0.900711, -1.19233, 1.22811, -1.3026, 0.00398958, -0.00397116, -0.0310538, -0.00494037, -0.021781, 0.0104969, -0.000287619, 0.436165, 60.062, 28.6429, 6.39465, 1.98871, 3.22421, -0.133595, 0.000166179, -0.002074, 0.00264611, 0.00311546, 0.00203183, 0.000957471, 0.0144972, 0.00132301, -0.0151002, -0.0338189, 0.0252142, -0.0180209, 0.470998, -0.543354, 0.335912, -2.08382, -2.16586, -0.12986, 0.468825, -0.542867, 0.333388, -2.08214, -2.16249, -0.128365, -0.00141737, 0.00512346, 0.00264421, -0.00276532, -0.00691882, -0.014476
0.0400945, 1.691, -1.22847, -1.54013, -0.900718, -1.19235, 1.22812, -1.3026, 0.0070819, -0.00086911, -0.0308657, -0.00812369, -0.0198933, 0.0135352, -0.00139538, 0.400459, 59.9152, 28.4961, 6.32324, 1.95209, 3.18851, -0.101552, 0.000154483, -0.00207145, 0.00266379, 0.00315014, 0.00200935, 0.000964991, 0.0122046, -0.00196297, -0.0136786, -0.0320362, 0.0288875, -0.0107332, 0.470997, -0.543349, 0.335915, -2.08382, -2.16586, -0.129856, 0.468826, -0.542871, 0.333371, -2.08213, -2.16248, -0.1283, -0.00152019, 0.00550014, 0.00283813, 0.0003829, -0.00436317, -0.0126216
0.0410945, 1.69101, -1.22848, -1.54016, -0.900725, -1.19237, 1.22813, -1.30261, 0.00769154, -0.00517965, -0.0312235, -0.00674796, -0.0222337, 0.00971869, -0.00192623, 0.436165, 59.9152, 28.3851, 6.20819, 1.89075, 3.18851, -0.0750012, 0.000140268, -0.00207255, 0.00268632, 0.00319027, 0.00199827, 0.000977645, 0.0133023, -0.00114586, -0.0166478, -0.0367329, 0.0248159, -0.0120139, 0.470995, -0.543344, 0.335917, -2.08381, -2.16587, -0.129852, 0.468824, -0.542877, 0.333349, -2.08213, -2.16246, -0.128239, -0.00162701, 0.00589181, 0.00303974, -0.00060794, -0.00463163, -0.0154975
0.0420945, 1.69102, -1.22847, -1.5402, -0.900743, -1.19239, 1.22814, -1.3026, 0.00903689, -0.000302435, -0.031561, -0.00654826, -0.0244618, 0.00808561, -0.000310278, 0.436165, 59.7287, 28.274, 6.24786, 1.8349, 3.15921, -0.101552, 0.00013272, -0.00206627, 0.00269763, 0.00322368, 0.00196278, 0.000982908, 0.0130912, -0.0012589, -0.0142268, -0.0393776, 0.0310256, -0.0138245, 0.470994, -0.543338, 0.33592, -2.08381, -2.16587, -0.129848, 0.468828, -0.542877, 0.333339, -2.08213, -2.16246, -0.128161, -0.00173785, 0.0062986, 0.00324909, -0.00052599, -0.00438445, -0.0128683
0.0430945, 1.69102, -1.22848, -1.54023, -0.900751, -1.19242, 1.22815, -1.3026, 0.00721451, 0.0049678, -0.0330161, -0.0055069, -0.022085, 0.00601882, -0.0011973, 0.551216, 59.7644, 28.2343, 6.13678, 1.79828, 3.1528, -0.0750012, 0.000118197, -0.0020661, 0.00271367, 0.00325745, 0.00193787, 0.000995638, 0.0137897, 0.000355284, -0.011731, -0.0403062, 0.0335447, -0.0160151, 0.470992, -0.543332, 0.335923, -2.0838, -2.16587, -0.129843, 0.468827, -0.542883, 0.333324, -2.08213, -2.16246, -0.128092, -0.00185274, 0.00672061, 0.00346625, -0.00213782, -0.00510222, -0.0102465
0.0440945, 1.69103, -1.22847, -1.54026, -0.90077, -1.19245, 1.22816, -1.3026, 0.00446143, 0.00571239, -0.0301092, -0.00822493, -0.0257833, 0.00877473, -0.0015156, 0.737679, 59.6573, 28.1589, 6.17248, 1.78638, 3.15921, -0.0557752, 0.000106018, -0.00206454, 0.00272073, 0.00329241, 0.00189041, 0.00100196, 0.0150232, 0.000598801, -0.0104042, -0.0380859, 0.0389464, -0.0162629, 0.470991, -0.543326, 0.335927, -2.0838, -2.16588, -0.129838, 0.468827, -0.542887, 0.333319, -2.08214, -2.16247, -0.128, -0.0019717, 0.00715794, 0.00369125, -0.00240787, -0.00609685, -0.00889531
0.0450945, 1.69103, -1.22846, -1.5403, -0.900788, -1.19248, 1.22818, -1.3026, 0.00566526, 0.00709107, -0.0322706, -0.0128057, -0.0293121, 0.0111831, -0.00077704, 0.928108, 59.6573, 28.274, 6.20819, 1.79187, 3.15921, -0.0621838, 9.12747e-05, -0.00206361, 0.00273511, 0.00333432, 0.00184955, 0.0010144, 0.0148886, -0.000846687, -0.011004, -0.0419784, 0.0452943, -0.0144323, 0.470989, -0.543319, 0.33593, -2.08379, -2.16588, -0.129833, 0.468826, -0.542892, 0.333306, -2.08215, -2.16246, -0.127906, -0.00209472, 0.00761066, 0.00392413, -0.00111375, -0.00535981, -0.00927742
0.0460945, 1.69103, -1.22845, -1.54033, -0.900814, -1.19252, 1.2282, -1.3026, 0.00438869, 0.00841825, -0.0342377, -0.0171252, -0.0320228, 0.0130161, -0.000283665, 1.22962, 59.6573, 28.4208, 6.28357, 1.80469, 3.15921, -0.0685925, 7.50887e-05, -0.00206349, 0.00274937, 0.00337568, 0.00180408, 0.00102659, 0.0156907, -0.000867186, -0.0114542, -0.0453189, 0.0505319, -0.0146792, 0.470987, -0.543312, 0.335934, -2.08379, -2.16589, -0.129827, 0.468824, -0.542899, 0.333293, -2.08216, -2.16246, -0.127807, -0.00222183, 0.00807884, 0.00416491, -0.00120792, -0.0056133, -0.00960622
0.0470945, 1.69103, -1.22844, -1.54036, -0.900838, -1.19256, 1.22822, -1.3026, 0.00277101, 0.00783031, -0.0306147, -0.0223062, -0.0351959, 0.0141073, -0.000428716, 1.57081, 59.5819, 28.4961, 6.32324, 1.84772, 3.16653, -0.0621838, 5.9452e-05, -0.00206139, 0.00275772, 0.00340575, 0.00175114, 0.00103474, 0.0154376, -0.00172727, -0.0112184, -0.0451513, 0.0535886, -0.0113154, 0.470984, -0.543304, 0.335938, -2.08378, -2.16589, -0.129821, 0.468824, -0.542905, 0.333286, -2.08217, -2.16248, -0.127713, -0.00235303, 0.00856251, 0.00441363, -0.000480668, -0.00488085, -0.00911138
0.0480945, 1.69104, -1.22845, -1.5404, -0.900867, -1.1926, 1.22823, -1.3026, 0.0027397, 0.00296293, -0.0310882, -0.0259867, -0.037623, 0.014073, 0.00042458, 1.87232, 59.693, 28.7183, 6.35895, 1.89624, 3.19583, -0.0814099, 4.21148e-05, -0.00205978, 0.00277712, 0.00345177, 0.00170766, 0.00104889, 0.0159233, -0.00237719, -0.0149296, -0.0490964, 0.0514085, -0.0103477, 0.470982, -0.543295, 0.335942, -2.08378, -2.16589, -0.129815, 0.468823, -0.542911, 0.333269, -2.08218, -2.16247, -0.12761, -0.00248832, 0.00906169, 0.00467028, -8.35886e-05, -0.00426348, -0.0126142
0.0490945, 1.69105, -1.22844, -1.54042, -0.900885, -1.19264, 1.22826, -1.3026, 0.00237235, 0.00481569, -0.0284714, -0.0253987, -0.0378864, 0.0142862, 0.00126513, 2.05878, 59.7287, 28.8294, 6.24786, 1.90906, 3.22421, -0.10796, 2.70634e-05, -0.002053, 0.00278802, 0.00347744, 0.00165948, 0.00105488, 0.0161749, -0.00260423, -0.0129698, -0.0464818, 0.0537052, -0.0113718, 0.47098, -0.543286, 0.335947, -2.08377, -2.1659, -0.129808, 0.468828, -0.542915, 0.33326, -2.08219, -2.16249, -0.127525, -0.00262768, 0.00957641, 0.00493487, 8.36588e-05, -0.00428946, -0.0104603
0.0500945, 1.69105, -1.22844, -1.54045, -0.900907, -1.19268, 1.22828, -1.30259, 0.00324575, 0.00444618, -0.0284296, -0.0211778, -0.0438487, 0.00926321, 0.000367756, 2.32459, 59.8398, 29.0159, 6.09711, 1.95758, 3.26724, -0.0951428, 9.57355e-06, -0.0020472, 0.00280406, 0.00351032, 0.00161227, 0.00106319, 0.0182908, -0.000703227, -0.0132524, -0.0519879, 0.0557602, -0.0157268, 0.470977, -0.543277, 0.335952, -2.08376, -2.1659, -0.129801, 0.468831, -0.54292, 0.333246, -2.08219, -2.1625, -0.127433, -0.00277111, 0.0101066, 0.00520739, -0.0018927, -0.00588253, -0.0107378
0.0510945, 1.69106, -1.22844, -1.54048, -0.900931, -1.19273, 1.2283, -1.3026, 0.00585264, 0.00183832, -0.0287597, -0.0195197, -0.0433752, 0.00841893, -0.000501526, 2.51106, 59.9152, 29.238, 5.98602, 1.99512, 3.36062, -0.0750012, -6.06265e-06, -0.00203938, 0.00281861, 0.00354497, 0.0015615, 0.00106406, 0.0183422, -0.00181696, -0.01507, -0.0528662, 0.0526949, -0.0141523, 0.470974, -0.543267, 0.335957, -2.08375, -2.16591, -0.129793, 0.468836, -0.542923, 0.333234, -2.0822, -2.16252, -0.127336, -0.00291859, 0.0106523, 0.00548782, -0.000991737, -0.00506226, -0.0122936
0.0520945, 1.69108, -1.22844, -1.5405, -0.900952, -1.19278, 1.22832, -1.30259, 0.00773162, 0.000868412, -0.0241462, -0.0165285, -0.0438782, 0.0126902, 0.00136054, 2.70148, 59.9509, 29.3888, 5.79956, 2.05646, 3.45309, -0.120778, -2.29968e-05, -0.00203107, 0.00283021, 0.00357435, 0.00150452, 0.00107645, 0.0186785, -0.00389946, -0.0135074, -0.0445559, 0.0541532, -0.0151905, 0.470971, -0.543256, 0.335962, -2.08375, -2.16592, -0.129785, 0.468841, -0.542927, 0.333226, -2.08221, -2.16253, -0.127236, -0.0030701, 0.0112135, 0.00577613, 0.00100515, -0.00498824, -0.0105774
0.0530945, 1.69109, -1.22845, -1.54053, -0.900971, -1.19283, 1.22834, -1.30259, 0.0117298, 0.000988726, -0.0223792, -0.0144172, -0.0424611, 0.0103651, 0.000431907, 2.92762, 60.0977, 29.611, 5.6131, 2.06836, 3.57577, -0.10796, -4.24569e-05, -0.00202442, 0.00284817, 0.00361124, 0.00145585, 0.00108431, 0.0172518, -0.00585767, -0.0131276, -0.0442335, 0.0521926, -0.0113362, 0.470968, -0.543245, 0.335968, -2.08374, -2.16592, -0.129777, 0.468845, -0.542932, 0.33321, -2.08222, -2.16255, -0.127137, -0.0032256, 0.01179, 0.00607228, 0.00276796, -0.00298138, -0.00974397
0.0540945, 1.69111, -1.22845, -1.54056, -0.900985, -1.19289, 1.22836, -1.30259, 0.0155356, -0.00305041, -0.0218581, -0.0141526, -0.0467369, 0.0151336, -0.00018708, 2.96729, 60.2802, 29.8728, 5.35126, 2.09949, 3.65451, -0.0951428, -6.03743e-05, -0.0020125, 0.00286761, 0.00364822, 0.00140547, 0.00108682, 0.0178889, -0.00863487, -0.0152664, -0.0426922, 0.0545072, -0.00879431, 0.470965, -0.543234, 0.335974, -2.08373, -2.16593, -0.129768, 0.468854, -0.542934, 0.333194, -2.08222, -2.16256, -0.127035, -0.00338507, 0.0123818, 0.00637623, 0.00532759, -0.0025756, -0.0117346
0.0550945, 1.69112, -1.22846, -1.54057, -0.901007, -1.19295, 1.22839, -1.30259, 0.0103465, -0.00151878, -0.0191095, -0.0148284, -0.0500884, 0.0179986, -0.000124945, 3.19343, 60.4309, 29.9085, 5.24017, 2.1297, 3.74698, -0.0951428, -7.99771e-05, -0.00200307, 0.00288009, 0.00367058, 0.00134873, 0.00109356, 0.020893, -0.00662517, -0.01317, -0.0390114, 0.0603352, -0.0137318, 0.470962, -0.543221, 0.335981, -2.08372, -2.16594, -0.129759, 0.46886, -0.542939, 0.333185, -2.08224, -2.16259, -0.126943, -0.00354847, 0.0129888, 0.00668792, 0.00334068, -0.00533938, -0.00975826
0.0560945, 1.69114, -1.22846, -1.54059, -0.901037, -1.19301, 1.22842, -1.30259, 0.0115081, -0.00290173, -0.0169815, -0.0185735, -0.0527211, 0.0171218, -0.000829451, 3.34419, 60.538, 30.0593, 5.27588, 2.16724, 3.79733, -0.0750012, -9.65739e-05, -0.00198941, 0.0028952, 0.00370476, 0.00128607, 0.00108701, 0.0200529, -0.00820884, -0.0140971, -0.0414841, 0.061338, -0.00895934, 0.470958, -0.543208, 0.335987, -2.08371, -2.16594, -0.129749, 0.46887, -0.54294, 0.333174, -2.08223, -2.16262, -0.126832, -0.00371575, 0.0136108, 0.00700727, 0.00469141, -0.00368039, -0.0102718
0.0570945, 1.69115, -1.22846, -1.54061, -0.901058, -1.19307, 1.22844, -1.30258, 0.0115554, -0.000575119, -0.018483, -0.018448, -0.0586031, 0.021153, -0.00102781, 3.53065, 60.6491, 30.206, 5.2005, 2.18555, 3.84768, -0.0621838, -0.000118274, -0.00197975, 0.00290891, 0.00373914, 0.00121922, 0.00109608, 0.0224349, -0.00812889, -0.0131124, -0.04207, 0.0709987, -0.0120934, 0.470955, -0.543195, 0.335994, -2.0837, -2.16595, -0.129738, 0.468876, -0.542945, 0.333163, -2.08225, -2.16265, -0.126715, -0.00388686, 0.0142477, 0.0073342, 0.00456159, -0.00554984, -0.00933973
0.0580945, 1.69117, -1.22847, -1.54063, -0.901081, -1.19315, 1.22846, -1.30258, 0.0116054, -0.00754074, -0.0188977, -0.01907, -0.0639004, 0.0193112, 0.0005354, 3.72108, 60.9824, 30.3211, 5.16479, 2.22217, 3.89804, -0.0951428, -0.000142639, -0.00197019, 0.00293106, 0.00377434, 0.00116394, 0.0011075, 0.0245155, -0.00757106, -0.0178252, -0.0476734, 0.0680249, -0.015449, 0.470951, -0.54318, 0.336002, -2.08369, -2.16596, -0.129728, 0.468882, -0.542951, 0.333145, -2.08226, -2.16266, -0.126608, -0.00406174, 0.0148993, 0.00766863, 0.00373372, -0.00625006, -0.0139648
0.0590945, 1.69119, -1.22847, -1.54064, -0.901107, -1.19322, 1.22848, -1.30258, 0.0166785, -0.00714709, -0.0173561, -0.0222818, -0.067333, 0.0173644, 8.55951e-05, 3.83216, 61.0934, 30.3568, 5.24017, 2.24689, 3.96213, -0.0878186, -0.000162173, -0.00195625, 0.00294456, 0.00381156, 0.00109102, 0.00110433, 0.0221503, -0.0108204, -0.0181549, -0.052187, 0.0710718, -0.00815612, 0.470947, -0.543166, 0.336009, -2.08368, -2.16597, -0.129716, 0.468892, -0.542953, 0.333136, -2.08226, -2.1627, -0.126482, -0.00424034, 0.0155655, 0.00801045, 0.00670349, -0.00306478, -0.0136797
0.0600945, 1.6912, -1.22848, -1.54067, -0.901132, -1.19331, 1.2285, -1.30258, 0.0170554, -0.00867472, -0.0167721, -0.0234175, -0.0703898, 0.0161139, -0.000417708, 3.94721, 61.2759, 30.5433, 5.27588, 2.28351, 4.0198, -0.0750012, -0.000187821, -0.00194689, 0.00296535, 0.00386291, 0.00101918, 0.00111207, 0.0228731, -0.0110073, -0.0193634, -0.0552089, 0.0719807, -0.00757323, 0.470942, -0.54315, 0.336017, -2.08367, -2.16597, -0.129705, 0.468897, -0.542959, 0.333119, -2.08227, -2.16272, -0.12634, -0.00442257, 0.0162459, 0.00835954, 0.00669012, -0.00290418, -0.0146418
0.0610945, 1.69122, -1.22849, -1.54067, -0.901162, -1.19338, 1.22852, -1.30258, 0.0161494, -0.0107109, -0.0131973, -0.0230741, -0.0745, 0.0152037, -0.000515871, 4.09797, 61.4981, 30.4679, 5.38696, 2.24048, 4.07748, -0.0685925, -0.000207488, -0.00193239, 0.00298171, 0.00389648, 0.000957711, 0.00110786, 0.0242892, -0.0106288, -0.0195126, -0.0549563, 0.0730632, -0.00887615, 0.470938, -0.543134, 0.336026, -2.08366, -2.16598, -0.129692, 0.468907, -0.542959, 0.333108, -2.08227, -2.16275, -0.126229, -0.00460838, 0.0169405, 0.00871578, 0.00617179, -0.00360022, -0.0146411
0.0620945, 1.69124, -1.2285, -1.54068, -0.90119, -1.19346, 1.22854, -1.30258, 0.0156401, -0.00851144, -0.0127173, -0.0245989, -0.0779327, 0.0151649, 0.000130774, 4.24873, 61.7163, 30.4679, 5.46234, 2.20935, 4.12051, -0.0814099, -0.000231073, -0.00192091, 0.00299949, 0.00393645, 0.000892734, 0.00110851, 0.0251971, -0.0105055, -0.0184781, -0.0569382, 0.0786264, -0.0102476, 0.470933, -0.543117, 0.336034, -2.08364, -2.16599, -0.129679, 0.468915, -0.542962, 0.333095, -2.08227, -2.16278, -0.126105, -0.00479766, 0.0176488, 0.00907903, 0.00592951, -0.00395242, -0.0133934
0.0630945, 1.69126, -1.2285, -1.5407, -0.901213, -1.19354, 1.22855, -1.30258, 0.0171604, -0.00782706, -0.0118931, -0.0246225, -0.0800167, 0.0147286, -0.00113354, 4.3241, 61.8274, 30.579, 5.50201, 2.15442, 4.16995, -0.0484509, -0.000255319, -0.00190927, 0.00301687, 0.00398174, 0.00082453, 0.00111173, 0.0254253, -0.011357, -0.0181499, -0.0580705, 0.0812967, -0.00838623, 0.470929, -0.543099, 0.336043, -2.08363, -2.166, -0.129666, 0.468922, -0.542966, 0.333083, -2.08227, -2.16281, -0.125972, -0.00499035, 0.0183707, 0.00944913, 0.00660739, -0.00347132, -0.0127604
0.0640945, 1.69128, -1.22851, -1.54071, -0.901237, -1.19363, 1.22856, -1.30258, 0.0198428, -0.00924546, -0.00946908, -0.0276769, -0.0873656, 0.0147646, -0.00194251, 4.3241, 62.0139, 30.6186, 5.53772, 2.12421, 4.21298, -0.0164075, -0.000279741, -0.0018961, 0.00303679, 0.00403073, 0.000756173, 0.00111042, 0.025207, -0.0133547, -0.018933, -0.0616465, 0.086628, -0.0041365, 0.470924, -0.543081, 0.336053, -2.08362, -2.16601, -0.129652, 0.46893, -0.542968, 0.333068, -2.08226, -2.16284, -0.125835, -0.00518633, 0.0191057, 0.00982594, 0.00837043, -0.00231813, -0.0131835
0.0650945, 1.69131, -1.22852, -1.54072, -0.901266, -1.19373, 1.22858, -1.30258, 0.0215455, -0.0110171, -0.00997143, -0.027994, -0.0884139, 0.0159247, -0.00129502, 4.3241, 62.2321, 30.6186, 5.6131, 2.09949, 4.2203, -0.0164075, -0.000302506, -0.00187887, 0.00305732, 0.00407877, 0.000683809, 0.00110399, 0.0257588, -0.0145989, -0.0204389, -0.0624521, 0.0869317, -0.00401252, 0.470918, -0.543062, 0.336063, -2.0836, -2.16602, -0.129638, 0.468942, -0.542967, 0.333054, -2.08225, -2.16288, -0.125695, -0.00538552, 0.0198537, 0.0102093, 0.00937913, -0.00183202, -0.0144104
0.0660945, 1.69133, -1.22854, -1.54073, -0.901294, -1.19382, 1.22858, -1.30258, 0.0220043, -0.0141168, -0.00892911, -0.0300609, -0.0889992, 0.0114568, -0.000863354, 4.36378, 62.5296, 30.6901, 5.6488, 2.06836, 4.24228, -0.0164075, -0.000329706, -0.00186664, 0.00308523, 0.00413891, 0.000622523, 0.00110648, 0.0254806, -0.0148572, -0.0228502, -0.0673329, 0.0827688, -0.00246034, 0.470913, -0.543042, 0.336073, -2.08359, -2.16603, -0.129623, 0.468949, -0.542969, 0.333032, -2.08224, -2.1629, -0.125551, -0.0055878, 0.0206142, 0.0105989, 0.00933736, -0.00041534, -0.0163664
0.0670945, 1.69136, -1.22856, -1.54074, -0.901314, -1.19393, 1.22859, -1.30258, 0.02617, -0.0143743, -0.0119068, -0.0234364, -0.0907639, 0.00914981, -0.000338218, 4.36378, 62.7478, 30.6544, 5.57739, 2.08118, 4.23495, -0.0228162, -0.000357344, -0.00185258, 0.00310649, 0.00419087, 0.000550047, 0.00111054, 0.0271786, -0.0147579, -0.0238212, -0.0706272, 0.0831021, -0.00734381, 0.470907, -0.543021, 0.336083, -2.08357, -2.16604, -0.129607, 0.468957, -0.542972, 0.333017, -2.08224, -2.16293, -0.125404, -0.00579309, 0.0213869, 0.0109948, 0.00905881, -0.00117357, -0.0171897
0.0680945, 1.69138, -1.22856, -1.54075, -0.901342, -1.19403, 1.2286, -1.30258, 0.0202654, -0.0112403, -0.0114076, -0.0239143, -0.0907815, 0.0122643, 0.000995219, 4.47486, 62.8232, 30.7654, 5.6131, 2.06836, 4.2203, -0.0557752, -0.000388772, -0.00184293, 0.00312598, 0.00424871, 0.000466712, 0.00112468, 0.030435, -0.0123371, -0.0215532, -0.0668769, 0.0881457, -0.0145756, 0.470902, -0.543, 0.336094, -2.08356, -2.16606, -0.129591, 0.468962, -0.542979, 0.333003, -2.08225, -2.16295, -0.125237, -0.00600136, 0.0221719, 0.0113968, 0.00663246, -0.00405193, -0.0149799
0.0690945, 1.6914, -1.22857, -1.54076, -0.90137, -1.19414, 1.2286, -1.30258, 0.0238864, -0.0108479, -0.0130415, -0.0264902, -0.0917291, 0.0095363, 0.00137555, 4.55024, 62.97, 30.8408, 5.6131, 2.06836, 4.21298, -0.0750012, -0.000420034, -0.00183282, 0.00314765, 0.00431037, 0.000388001, 0.00113527, 0.0291284, -0.0142338, -0.0229567, -0.0732111, 0.0889631, -0.0109058, 0.470896, -0.542978, 0.336106, -2.08354, -2.16607, -0.129574, 0.468966, -0.542984, 0.332988, -2.08225, -2.16297, -0.125071, -0.00621258, 0.0229689, 0.0118049, 0.00821764, -0.00167098, -0.0158126
0.0700945, 1.69143, -1.22858, -1.54077, -0.901402, -1.19425, 1.22861, -1.30258, 0.0215318, -0.00893569, -0.0102713, -0.0301877, -0.0921058, 0.0134464, 0.000679673, 4.55024, 63.0453, 30.8765, 5.68848, 2.06195, 4.16995, -0.0685925, -0.000449252, -0.00181805, 0.00316648, 0.00436968, 0.000298435, 0.00113562, 0.0296779, -0.0150605, -0.0211721, -0.0691372, 0.09374, -0.0088074, 0.470889, -0.542955, 0.336118, -2.08352, -2.16608, -0.129557, 0.468975, -0.542986, 0.332976, -2.08225, -2.16301, -0.124898, -0.0064267, 0.0237778, 0.012219, 0.00891378, -0.00164484, -0.0137466
0.0710945, 1.69145, -1.22859, -1.54078, -0.901425, -1.19436, 1.22861, -1.30258, 0.0256995, -0.0110166, -0.0122407, -0.0298601, -0.0969153, 0.010204, 0.000927831, 4.55024, 63.2635, 30.9519, 5.6488, 2.04364, 4.16354, -0.0814099, -0.000482043, -0.00180641, 0.0031908, 0.00443253, 0.000223311, 0.00114657, 0.0300236, -0.016076, -0.0238262, -0.0769372, 0.0948048, -0.00843036, 0.470883, -0.542931, 0.33613, -2.0835, -2.16609, -0.129539, 0.46898, -0.54299, 0.332959, -2.08225, -2.16303, -0.124733, -0.00664368, 0.0245986, 0.0126391, 0.00962716, -0.000715241, -0.0160316
0.0720945, 1.69147, -1.2286, -1.54079, -0.90145, -1.19447, 1.22862, -1.30257, 0.0233792, -0.00907418, -0.00966906, -0.0280822, -0.0997806, 0.00891073, 0.00136454, 4.66529, 63.3389, 30.9876, 5.6488, 2.01343, 4.12692, -0.101552, -0.000518223, -0.00179924, 0.00320901, 0.00449076, 0.00013911, 0.00116487, 0.0321951, -0.0144341, -0.0217974, -0.0761367, 0.0986296, -0.0131799, 0.470876, -0.542906, 0.336143, -2.08349, -2.16611, -0.12952, 0.468981, -0.542998, 0.332948, -2.08226, -2.16305, -0.124562, -0.00686349, 0.0254311, 0.0130651, 0.00791968, -0.00240612, -0.0138892
0.0730945, 1.69149, -1.2286, -1.5408, -0.901473, -1.19459, 1.22862, -1.30257, 0.0252595, -0.00602436, -0.00964232, -0.0279968, -0.102135, 0.00728419, 0.000401064, 4.62562, 63.3389, 31.1027, 5.57739, 1.9823, 4.10586, -0.0878186, -0.000552598, -0.00178831, 0.00322503, 0.00455448, 4.48443e-05, 0.0011795, 0.0323041, -0.0150578, -0.0205074, -0.07898, 0.103426, -0.0119805, 0.470869, -0.542881, 0.336156, -2.08347, -2.16612, -0.129501, 0.468986, -0.543004, 0.33294, -2.08227, -2.16308, -0.124375, -0.00708609, 0.0262753, 0.013497, 0.00837096, -0.00184217, -0.0122195
0.0740945, 1.69152, -1.22859, -1.5408, -0.901502, -1.1947, 1.22862, -1.30257, 0.0232668, -0.0031622, -0.00587897, -0.0306012, -0.104263, 0.00527899, 0.000538642, 4.58991, 63.3032, 31.063, 5.6131, 1.95758, 4.10586, -0.0951428, -0.000583496, -0.00177444, 0.00323768, 0.00461174, -4.81269e-05, 0.00118442, 0.0325041, -0.0147312, -0.0182092, -0.0794696, 0.107543, -0.0114889, 0.470862, -0.542854, 0.336169, -2.08345, -2.16613, -0.129481, 0.468994, -0.543006, 0.332935, -2.08227, -2.16312, -0.124197, -0.00731145, 0.027131, 0.0139346, 0.00791039, -0.00155068, -0.00953356
0.0750945, 1.69154, -1.2286, -1.5408, -0.901528, -1.19482, 1.22862, -1.30257, 0.0214367, -0.00376445, -0.00420339, -0.0316583, -0.106153, 0.0051589, 8.78269e-05, 4.55024, 63.3746, 31.063, 5.6131, 1.94568, 4.07016, -0.0878186, -0.00061782, -0.0017596, 0.00325244, 0.00466182, -0.000141626, 0.00119025, 0.0340048, -0.0142175, -0.0183224, -0.0796241, 0.108957, -0.0124638, 0.470855, -0.542827, 0.336183, -2.08343, -2.16615, -0.129461, 0.469002, -0.54301, 0.332929, -2.08228, -2.16316, -0.124026, -0.00753952, 0.0279981, 0.014378, 0.00721961, -0.00216887, -0.00941907
0.0760945, 1.69157, -1.2286, -1.5408, -0.901551, -1.19494, 1.22863, -1.30257, 0.0207717, -0.0050975, -0.00477855, -0.0284618, -0.107672, 0.0047622, 0.000567177, 4.47486, 63.4857, 31.1384, 5.57739, 1.93927, 4.04086, -0.101552, -0.000655746, -0.00174841, 0.00327096, 0.00472111, -0.000230929, 0.00120605, 0.0366939, -0.0130157, -0.0191634, -0.0800477, 0.10902, -0.0178963, 0.470847, -0.542799, 0.336197, -2.08341, -2.16616, -0.12944, 0.469006, -0.543016, 0.332919, -2.08229, -2.16318, -0.123847, -0.00777026, 0.0288765, 0.0148271, 0.00585536, -0.00386546, -0.0101809
0.0770945, 1.69159, -1.22861, -1.54081, -0.901571, -1.19506, 1.22863, -1.30258, 0.0194506, -0.00765928, -0.00510873, -0.0253917, -0.113622, 0.00467562, -0.00182593, 4.43916, 63.6682, 31.2137, 5.50201, 1.93378, 4.00516, -0.0420422, -0.000696359, -0.00173666, 0.00329059, 0.00477466, -0.000320154, 0.00121672, 0.0406198, -0.0110984, -0.0205975, -0.08212, 0.111617, -0.0223379, 0.47084, -0.54277, 0.336212, -2.08339, -2.16618, -0.129418, 0.469011, -0.543024, 0.332908, -2.0823, -2.16322, -0.123674, -0.00800365, 0.0297661, 0.0152818, 0.00379698, -0.00671023, -0.0116927
0.0780945, 1.69162, -1.22861, -1.54081, -0.901589, -1.19518, 1.22864, -1.30257, 0.0242196, -0.00421379, -0.00528891, -0.0232674, -0.114061, 0.0079166, 0.00122412, 4.2884, 63.7793, 31.2891, 5.42664, 1.94568, 4.00516, -0.10796, -0.000735967, -0.00172243, 0.00330868, 0.00483213, -0.000415977, 0.0012387, 0.0402481, -0.0139645, -0.0186119, -0.079491, 0.117625, -0.0235947, 0.470832, -0.542741, 0.336228, -2.08336, -2.16619, -0.129396, 0.469018, -0.54303, 0.332899, -2.08232, -2.16324, -0.123489, -0.00823965, 0.0306668, 0.015742, 0.00648262, -0.0056294, -0.00930113
0.0790945, 1.69165, -1.22861, -1.54082, -0.90161, -1.1953, 1.22864, -1.30257, 0.0236035, -0.00251432, -0.00621428, -0.023519, -0.114646, 0.00654679, 0.000341362, 4.17335, 63.7793, 31.4002, 5.42664, 1.9704, 3.9841, -0.0951428, -0.000776137, -0.00170926, 0.00332392, 0.00488988, -0.000515663, 0.00125636, 0.0414356, -0.0133777, -0.0183699, -0.0820313, 0.119808, -0.0245395, 0.470823, -0.54271, 0.336243, -2.08334, -2.16621, -0.129373, 0.469023, -0.543036, 0.332893, -2.08233, -2.16327, -0.123299, -0.00847821, 0.0315785, 0.0162078, 0.00571019, -0.00595138, -0.00876263
0.0800945, 1.69168, -1.22862, -1.54082, -0.90163, -1.19542, 1.22864, -1.30257, 0.0269341, -0.00322641, -0.00504548, -0.023572, -0.114597, 0.00527393, -0.000518411, 4.02259, 64.0015, 31.4359, 5.42664, 1.98871, 3.96945, -0.0750012, -0.000815305, -0.00169094, 0.0033469, 0.00494343, -0.000600753, 0.00126329, 0.0406166, -0.0154696, -0.0189784, -0.0830813, 0.119102, -0.0205293, 0.470815, -0.542678, 0.33626, -2.08332, -2.16623, -0.129349, 0.469034, -0.543039, 0.33288, -2.08233, -2.16331, -0.123129, -0.0087193, 0.0325011, 0.016679, 0.00750689, -0.00404012, -0.00882889
0.0810945, 1.69171, -1.22863, -1.54083, -0.901649, -1.19554, 1.22865, -1.30257, 0.0325772, -0.00346285, -0.00517745, -0.0214354, -0.119453, 0.00992983, -0.00156631, 3.87183, 64.0768, 31.5113, 5.46234, 2.00702, 3.93374, -0.0420422, -0.000856044, -0.00167441, 0.00336626, 0.00499662, -0.000691518, 0.00127206, 0.0412468, -0.0186668, -0.0190695, -0.0816906, 0.125798, -0.0182358, 0.470806, -0.542646, 0.336276, -2.08329, -2.16625, -0.129324, 0.469042, -0.543043, 0.33287, -2.08234, -2.16335, -0.122953, -0.00896288, 0.0334345, 0.0171556, 0.0104762, -0.00358245, -0.00863717
0.0820945, 1.69174, -1.22863, -1.54083, -0.901663, -1.19566, 1.22866, -1.30257, 0.0317122, -0.00623896, -0.00432477, -0.0180999, -0.118665, 0.00855004, -0.000298222, 3.79646, 64.2593, 31.547, 5.42664, 2.03174, 3.89804, -0.0621838, -0.000900905, -0.00165842, 0.00338513, 0.00503871, -0.000782398, 0.00129258, 0.0434143, -0.0176941, -0.0203324, -0.0806931, 0.121981, -0.0233464, 0.470797, -0.542612, 0.336293, -2.08327, -2.16626, -0.129299, 0.46905, -0.54305, 0.332862, -2.08236, -2.16338, -0.122786, -0.00920893, 0.0343785, 0.0176375, 0.00929147, -0.00462422, -0.00970864
0.0830945, 1.69178, -1.22863, -1.54083, -0.90168, -1.19578, 1.22867, -1.30257, 0.0329554, -0.00390543, -0.00467486, -0.0173826, -0.117777, 0.00615582, -0.0009448, 3.6457, 64.2593, 31.6224, 5.46234, 2.05005, 3.89804, -0.0420422, -0.000942364, -0.00163989, 0.00340206, 0.00509063, -0.000878418, 0.00130255, 0.0435349, -0.0180127, -0.0195809, -0.082725, 0.12305, -0.0228225, 0.470788, -0.542578, 0.336311, -2.08324, -2.16628, -0.129273, 0.46906, -0.543053, 0.332856, -2.08236, -2.16342, -0.122605, -0.00945739, 0.0353331, 0.0181247, 0.00939345, -0.00389076, -0.00850777
0.0840945, 1.69181, -1.22864, -1.54084, -0.901696, -1.1959, 1.22867, -1.30257, 0.0338446, -0.00584689, -0.00490114, -0.017717, -0.117411, 0.00498826, -0.000867226, 3.49494, 64.4061, 31.6977, 5.53772, 2.07477, 3.88339, -0.0356336, -0.000984139, -0.00161886, 0.00342562, 0.0051399, -0.000960857, 0.00131369, 0.0441112, -0.018635, -0.0213239, -0.0846302, 0.120975, -0.0224845, 0.470779, -0.542543, 0.336329, -2.08322, -2.1663, -0.129247, 0.469072, -0.543055, 0.332843, -2.08236, -2.16346, -0.122439, -0.00970824, 0.0362982, 0.0186171, 0.00972187, -0.00320073, -0.00984463
0.0850945, 1.69185, -1.22865, -1.54085, -0.901709, -1.19602, 1.22868, -1.30257, 0.0369957, -0.00635358, -0.00588188, -0.0169536, -0.116208, 0.00772709, 0.000642553, 3.37989, 64.5172, 31.8088, 5.57739, 2.08118, 3.89804, -0.0685925, -0.00102973, -0.00159961, 0.0034469, 0.00518709, -0.00105116, 0.00133134, 0.0442868, -0.020935, -0.02212, -0.0831253, 0.121615, -0.0224202, 0.470769, -0.542506, 0.336348, -2.08319, -2.16632, -0.12922, 0.469083, -0.54306, 0.332833, -2.08238, -2.16349, -0.122266, -0.00996144, 0.0372736, 0.0191147, 0.0117433, -0.00218072, -0.0102305
0.0860945, 1.69189, -1.22866, -1.54085, -0.901721, -1.19613, 1.22869, -1.30257, 0.0318399, -0.00756229, -0.00569649, -0.016194, -0.119665, 0.00909044, -0.000792335, 3.30451, 64.664, 31.8842, 5.6131, 2.09308, 3.93374, -0.0356336, -0.00107602, -0.00158049, 0.00347016, 0.00523403, -0.00113451, 0.0013461, 0.048757, -0.0180125, -0.0226019, -0.0827495, 0.124342, -0.0286026, 0.470759, -0.542469, 0.336367, -2.08316, -2.16634, -0.129192, 0.469093, -0.543064, 0.332822, -2.08238, -2.16352, -0.1221, -0.010217, 0.0382593, 0.0196175, 0.00871427, -0.00565515, -0.0108073
0.0870945, 1.69193, -1.22866, -1.54086, -0.901738, -1.19625, 1.2287, -1.30256, 0.034521, -0.00579642, -0.00547709, -0.0174611, -0.118701, 0.0113075, 0.00069248, 3.22913, 64.6997, 31.9556, 5.72418, 2.11139, 3.94107, -0.0685925, -0.00112088, -0.00155817, 0.00349127, 0.00528189, -0.00122741, 0.00136055, 0.0480956, -0.0205554, -0.021944, -0.0814623, 0.127284, -0.0267649, 0.470749, -0.542431, 0.336386, -2.08313, -2.16636, -0.129163, 0.469106, -0.543066, 0.332813, -2.08239, -2.16356, -0.121922, -0.0104747, 0.0392552, 0.0201252, 0.0109966, -0.0040017, -0.00962489
0.0880945, 1.69197, -1.22868, -1.54086, -0.901756, -1.19637, 1.22871, -1.30256, 0.0372525, -0.00816573, -0.00542138, -0.0181888, -0.116421, 0.012177, 0.00117373, 3.11805, 64.8862, 32.031, 5.83527, 2.09308, 3.96945, -0.0878186, -0.00116571, -0.00153312, 0.00351839, 0.00532865, -0.00130875, 0.00136905, 0.0475965, -0.0229559, -0.023827, -0.0809791, 0.124328, -0.0239113, 0.470738, -0.542392, 0.336407, -2.0831, -2.16638, -0.129134, 0.469121, -0.543066, 0.332799, -2.08239, -2.1636, -0.121758, -0.0107348, 0.0402611, 0.020638, 0.0130475, -0.00211375, -0.0109675
0.0890945, 1.69201, -1.22868, -1.54087, -0.90177, -1.19649, 1.22872, -1.30256, 0.0414028, -0.00799709, -0.00621777, -0.0169224, -0.115695, 0.00899506, 0.00105375, 3.04267, 64.9973, 32.1421, 5.87494, 2.09949, 3.97677, -0.0951428, -0.00121305, -0.00150933, 0.00354297, 0.00537648, -0.00139791, 0.00138144, 0.0468986, -0.0245946, -0.024672, -0.084554, 0.123102, -0.0217978, 0.470727, -0.542351, 0.336427, -2.08308, -2.1664, -0.129103, 0.469135, -0.543067, 0.332787, -2.08239, -2.16364, -0.121583, -0.010997, 0.0412769, 0.0211557, 0.014366, -0.000210603, -0.0112261
0.0900945, 1.69205, -1.2287, -1.54087, -0.901783, -1.19662, 1.22873, -1.30256, 0.0398491, -0.0095664, -0.005077, -0.0131523, -0.119707, 0.016776, -4.34825e-05, 3.04267, 65.1797, 32.1818, 5.91064, 2.10498, 3.96213, -0.0750012, -0.00126424, -0.00148731, 0.00356836, 0.00541837, -0.0014849, 0.0013958, 0.0513202, -0.0243191, -0.024252, -0.077202, 0.128921, -0.0271379, 0.470716, -0.54231, 0.336448, -2.08304, -2.16642, -0.129072, 0.469146, -0.543072, 0.332774, -2.0824, -2.16368, -0.121416, -0.0112614, 0.0423026, 0.0216783, 0.0140032, -0.00362575, -0.0109655
0.0910945, 1.69209, -1.22871, -1.54088, -0.901795, -1.19674, 1.22874, -1.30256, 0.0406582, -0.00978586, -0.00505795, -0.0123806, -0.124664, 0.0169984, 0.00535549, 2.96729, 65.3265, 32.2532, 5.91064, 2.15442, 3.96945, -0.0951428, -0.0013148, -0.0014619, 0.00359362, 0.00546458, -0.00157975, 0.00141136, 0.0533233, -0.0243288, -0.0246346, -0.0795073, 0.133558, -0.0349141, 0.470705, -0.542268, 0.33647, -2.08301, -2.16645, -0.129041, 0.469161, -0.543075, 0.332763, -2.08241, -2.16372, -0.121235, -0.011528, 0.0433381, 0.0222057, 0.0138059, -0.0045084, -0.0111266
0.0920945, 1.69214, -1.22871, -1.54089, -0.901813, -1.19687, 1.22875, -1.30256, 0.0436843, -0.00826808, -0.00690058, -0.0165917, -0.126975, 0.0127909, 0.00419423, 2.92762, 65.4019, 32.4039, 5.98602, 2.17273, 3.96945, -0.101552, -0.00136509, -0.00143602, 0.00361919, 0.0055188, -0.00167957, 0.00142635, 0.0521176, -0.0258262, -0.0258514, -0.0886176, 0.136184, -0.0296323, 0.470694, -0.542224, 0.336492, -2.08298, -2.16647, -0.129008, 0.469177, -0.543076, 0.332751, -2.08241, -2.16376, -0.12104, -0.0117966, 0.0443832, 0.0227379, 0.0149448, -0.00202327, -0.0116549
0.0930945, 1.69219, -1.22873, -1.54091, -0.901831, -1.19701, 1.22876, -1.30256, 0.0476568, -0.0115299, -0.0097989, -0.0176468, -0.128906, 0.0135081, 0.00210271, 2.81654, 65.6598, 32.6261, 6.09711, 2.20386, 3.99142, -0.0750012, -0.00141606, -0.00140752, 0.0036567, 0.00558713, -0.001768, 0.00142953, 0.0525342, -0.0279964, -0.0294419, -0.0932564, 0.136001, -0.0255288, 0.470682, -0.54218, 0.336515, -2.08295, -2.16649, -0.128975, 0.469194, -0.543075, 0.332728, -2.08239, -2.16381, -0.120841, -0.0120673, 0.0454378, 0.0232748, 0.0167255, -0.000737611, -0.0147945
0.0940945, 1.69224, -1.22874, -1.54092, -0.901843, -1.19714, 1.22877, -1.30256, 0.0456235, -0.0102743, -0.00913226, -0.0156736, -0.125269, 0.00916643, 0.00161924, 2.77686, 65.7709, 32.7372, 6.09711, 2.22217, 4.0198, -0.0750012, -0.00146851, -0.00138076, 0.00368496, 0.0056417, -0.00186161, 0.00144501, 0.0537395, -0.0263671, -0.0288275, -0.0938388, 0.132564, -0.0281688, 0.47067, -0.542135, 0.336538, -2.08291, -2.16652, -0.128941, 0.469209, -0.543076, 0.332714, -2.08239, -2.16385, -0.12065, -0.0123401, 0.0465019, 0.0238164, 0.0148928, -0.00102536, -0.013783
0.0950945, 1.69229, -1.22875, -1.54093, -0.901853, -1.19728, 1.22877, -1.30256, 0.0496673, -0.00851194, -0.00878033, -0.0134891, -0.127689, 0.0109409, 0.00025922, 2.77686, 65.8423, 32.8522, 6.0614, 2.24689, 4.04086, -0.0484509, -0.00152395, -0.00135598, 0.00371156, 0.00570112, -0.00196378, 0.00146177, 0.0541765, -0.0284788, -0.0277775, -0.0930039, 0.137834, -0.0262923, 0.470657, -0.542088, 0.336562, -2.08288, -2.16654, -0.128906, 0.469223, -0.543079, 0.332703, -2.0824, -2.16389, -0.120444, -0.0126148, 0.0475753, 0.0243626, 0.0167821, -0.000456095, -0.0123325
0.0960945, 1.69235, -1.22876, -1.54093, -0.901874, -1.19741, 1.22878, -1.30256, 0.0504362, -0.00910227, -0.00979634, -0.0146686, -0.124219, 0.0119463, 0.00378136, 2.73719, 65.9891, 32.8879, 6.13678, 2.25879, 4.07016, -0.0164075, -0.00157496, -0.00132517, 0.00374102, 0.0057591, -0.00206016, 0.00146533, 0.0543329, -0.0298293, -0.028968, -0.0925708, 0.135846, -0.0282313, 0.470645, -0.542041, 0.336586, -2.08285, -2.16657, -0.128871, 0.469241, -0.543076, 0.332689, -2.08239, -2.16394, -0.120246, -0.0128915, 0.048658, 0.0249134, 0.0178167, 0.000711861, -0.013023
0.0970945, 1.6924, -1.22876, -1.54094, -0.901895, -1.19755, 1.22878, -1.30255, 0.0484123, -0.00699168, -0.010916, -0.0190538, -0.126642, 0.00864945, 0.00493484, 2.70148, 66.0287, 32.9236, 6.24786, 2.27161, 4.08389, -0.0685925, -0.0016282, -0.00129568, 0.00376812, 0.00582383, -0.00216904, 0.00147996, 0.0552777, -0.0288082, -0.0292747, -0.0995745, 0.139443, -0.0298361, 0.470632, -0.541992, 0.336611, -2.08281, -2.16659, -0.128834, 0.469259, -0.543075, 0.332678, -2.08239, -2.16399, -0.120026, -0.0131701, 0.0497497, 0.0254687, 0.0165424, 0.000875893, -0.0128857
0.0980945, 1.69246, -1.22877, -1.54096, -0.901912, -1.19769, 1.22878, -1.30255, 0.0502443, -0.00716338, -0.0104374, -0.0204986, -0.126897, 0.00530535, 0.00365075, 2.62611, 66.1359, 33.0387, 6.28357, 2.25879, 4.12051, -0.0685925, -0.00168122, -0.00126438, 0.00379934, 0.00589079, -0.00226806, 0.00148652, 0.0548394, -0.0298584, -0.0301617, -0.103611, 0.138733, -0.0262468, 0.470619, -0.541942, 0.336637, -2.08277, -2.16662, -0.128797, 0.469278, -0.543071, 0.332664, -2.08237, -2.16404, -0.119813, -0.0134506, 0.0508506, 0.0260284, 0.0172627, 0.00259003, -0.0131662
0.0990945, 1.69252, -1.22877, -1.54096, -0.901931, -1.19783, 1.22878, -1.30255, 0.0517923, -0.0073715, -0.0113753, -0.0215754, -0.12863, 0.00839864, 0.00246712, 2.55073, 66.2469, 33.0744, 6.32324, 2.27161, 4.13424, -0.0621838, -0.00173455, -0.00123142, 0.00382831, 0.005953, -0.00237155, 0.00149009, 0.0559049, -0.0314307, -0.0309467, -0.103773, 0.14244, -0.0245215, 0.470605, -0.541891, 0.336663, -2.08274, -2.16665, -0.128759, 0.469298, -0.543067, 0.332652, -2.08236, -2.1641, -0.119601, -0.013733, 0.0519604, 0.0265925, 0.0185613, 0.00283468, -0.0135907
0.100094, 1.69257, -1.22879, -1.54099, -0.901944, -1.19798, 1.22879, -1.30256, 0.0554757, -0.00927412, -0.0164676, -0.0178675, -0.134597, 0.00649432, 0.000627029, 2.51106, 66.4334, 33.2966, 6.28357, 2.28351, 4.13424, -0.0292249, -0.00179658, -0.00120474, 0.00386672, 0.00602681, -0.00246787, 0.0015075, 0.0587844, -0.0310347, -0.034085, -0.112105, 0.145373, -0.0276078, 0.470592, -0.541839, 0.33669, -2.0827, -2.16667, -0.128721, 0.469312, -0.54307, 0.33263, -2.08235, -2.16413, -0.119381, -0.0140172, 0.053079, 0.027161, 0.0178722, 0.00157627, -0.016555
0.101094, 1.69264, -1.22879, -1.54099, -0.901965, -1.19812, 1.22879, -1.30256, 0.0595263, -0.00701653, -0.00987769, -0.0199983, -0.133748, 0.00550959, 0.000570258, 2.39997, 66.4691, 33.2212, 6.32324, 2.28351, 4.12051, -0.0292249, -0.0018497, -0.00116921, 0.00389354, 0.006087, -0.0025751, 0.00150714, 0.0557258, -0.0350857, -0.0313891, -0.10869, 0.147112, -0.019229, 0.470578, -0.541786, 0.336717, -2.08266, -2.1667, -0.128681, 0.469334, -0.543064, 0.332622, -2.08233, -2.1642, -0.119166, -0.0143032, 0.0542063, 0.0277337, 0.0216198, 0.0054798, -0.0129714
0.102094, 1.69269, -1.22879, -1.54101, -0.901981, -1.19826, 1.22879, -1.30256, 0.0589982, -0.00551183, -0.0129778, -0.0196615, -0.138253, 0.00471916, 0.000494351, 2.43568, 66.5048, 33.3362, 6.28357, 2.28992, 4.10586, -0.0292249, -0.00191194, -0.00114148, 0.00392449, 0.00615618, -0.00268339, 0.00152631, 0.0585935, -0.0337401, -0.0319717, -0.114288, 0.152838, -0.0239245, 0.470563, -0.541732, 0.336744, -2.08262, -2.16673, -0.128641, 0.469349, -0.543065, 0.332608, -2.08233, -2.16424, -0.118937, -0.0145909, 0.0553423, 0.0283107, 0.0200728, 0.00381839, -0.0133725
0.103094, 1.69275, -1.2288, -1.54102, -0.902007, -1.1984, 1.22879, -1.30256, 0.0606098, -0.00710742, -0.013291, -0.019337, -0.137083, -0.00556939, 0.00065256, 2.28492, 66.6516, 33.3719, 6.35895, 2.31372, 4.09854, -0.0356336, -0.00196621, -0.00110393, 0.00395974, 0.00622407, -0.00278051, 0.00152288, 0.0581146, -0.0330519, -0.0343421, -0.123651, 0.146024, -0.0234725, 0.470549, -0.541677, 0.336773, -2.08258, -2.16676, -0.128599, 0.469372, -0.543056, 0.332592, -2.0823, -2.1643, -0.118722, -0.0148804, 0.0564869, 0.0288918, 0.0189917, 0.00577124, -0.0150367
0.104094, 1.69281, -1.22881, -1.54103, -0.902029, -1.19854, 1.22879, -1.30256, 0.0594522, -0.00826415, -0.0136542, -0.0171591, -0.140111, -0.00393878, 0.000261907, 2.20954, 66.8024, 33.4076, 6.35895, 2.32654, 4.09122, -0.0292249, -0.00202573, -0.00107021, 0.003996, 0.00629187, -0.0028767, 0.00152859, 0.0614628, -0.0320874, -0.0350304, -0.123324, 0.148735, -0.0282389, 0.470534, -0.54162, 0.336802, -2.08254, -2.16679, -0.128557, 0.469392, -0.543052, 0.332575, -2.08228, -2.16435, -0.118507, -0.0151716, 0.0576399, 0.0294771, 0.0178358, 0.00368448, -0.0156198
0.105094, 1.69287, -1.22882, -1.54105, -0.902057, -1.19868, 1.22879, -1.30255, 0.0593596, -0.00717942, -0.0125267, -0.0231535, -0.142839, -0.00354122, 0.00144348, 2.09846, 66.8738, 33.5187, 6.43433, 2.33295, 4.10586, -0.0621838, -0.00208362, -0.00103465, 0.00403201, 0.00636739, -0.00297757, 0.00153365, 0.0612231, -0.0335833, -0.0351654, -0.126454, 0.1535, -0.0256022, 0.470519, -0.541563, 0.336831, -2.08249, -2.16682, -0.128514, 0.469413, -0.543044, 0.332559, -2.08225, -2.1644, -0.118278, -0.0154644, 0.0588012, 0.0300665, 0.0190239, 0.00516674, -0.015173
0.106094, 1.69293, -1.22882, -1.54106, -0.902087, -1.19882, 1.22879, -1.30256, 0.0580861, -0.00562116, -0.0098983, -0.0247103, -0.140211, -0.00264044, -0.000459617, 2.02308, 66.9095, 33.5584, 6.5097, 2.34485, 4.10586, -0.0228162, -0.00214315, -0.000999816, 0.004065, 0.00643683, -0.00308184, 0.00153168, 0.0614703, -0.0343776, -0.0337807, -0.123028, 0.154061, -0.0224516, 0.470503, -0.541504, 0.336861, -2.08245, -2.16685, -0.128471, 0.469433, -0.543038, 0.332546, -2.08222, -2.16447, -0.118051, -0.0157588, 0.0599708, 0.0306599, 0.019584, 0.00591387, -0.0132752
0.107094, 1.69298, -1.22883, -1.54108, -0.90212, -1.19897, 1.22879, -1.30255, 0.0556199, -0.00634564, -0.0127736, -0.0291797, -0.139449, -0.00169875, 0.000941387, 2.02308, 67.0206, 33.6695, 6.62079, 2.38147, 4.09854, -0.0557752, -0.00220813, -0.000968611, 0.00410404, 0.00651338, -0.00318372, 0.00154548, 0.0631143, -0.0340183, -0.0360282, -0.12664, 0.154483, -0.0244356, 0.470487, -0.541444, 0.336892, -2.08241, -2.16688, -0.128426, 0.469449, -0.543035, 0.332527, -2.0822, -2.16451, -0.117817, -0.0160548, 0.0611486, 0.0312573, 0.0189074, 0.00579903, -0.0151406
0.108094, 1.69305, -1.22883, -1.54109, -0.902145, -1.1991, 1.22879, -1.30255, 0.0595908, -0.00423024, -0.00828807, -0.0272308, -0.132645, -0.00128979, 0.000885271, 1.79694, 67.0206, 33.6338, 6.62079, 2.38147, 4.09854, -0.0621838, -0.00226567, -0.000929231, 0.00413475, 0.00657709, -0.00328436, 0.00154562, 0.0607797, -0.0376782, -0.0334992, -0.119173, 0.151698, -0.0187744, 0.470471, -0.541383, 0.336923, -2.08236, -2.16691, -0.128381, 0.469474, -0.543024, 0.332518, -2.08217, -2.16458, -0.117599, -0.0163524, 0.0623344, 0.0318586, 0.0222734, 0.00905682, -0.0117941
0.109094, 1.6931, -1.22883, -1.5411, -0.902178, -1.19925, 1.22879, -1.30255, 0.0615098, 0.00312843, -0.0108805, -0.0276881, -0.132821, -0.00070656, 0.00108014, 1.72157, 67.0602, 33.7052, 6.69617, 2.39429, 4.09122, -0.0750012, -0.00232943, -0.000894479, 0.00416905, 0.00664906, -0.00339175, 0.00155295, 0.0610333, -0.0386173, -0.0305951, -0.121387, 0.160547, -0.0191062, 0.470455, -0.54132, 0.336955, -2.08231, -2.16694, -0.128334, 0.469493, -0.543018, 0.332505, -2.08215, -2.16463, -0.117363, -0.0166515, 0.0635282, 0.0324637, 0.0230303, 0.00959529, -0.00838986
0.110094, 1.69316, -1.22884, -1.54112, -0.902216, -1.19939, 1.22879, -1.30255, 0.0598803, 0.00015311, -0.0119617, -0.0316231, -0.137748, -5.08898e-05, 0.000494165, 1.64619, 67.1674, 33.7449, 6.80725, 2.40619, 4.07748, -0.0685925, -0.00239358, -0.000858279, 0.00420702, 0.00671914, -0.0034925, 0.00155016, 0.0634207, -0.0382773, -0.0335261, -0.126402, 0.163122, -0.0197547, 0.470438, -0.541257, 0.336987, -2.08227, -2.16698, -0.128287, 0.469513, -0.543011, 0.332489, -2.08212, -2.1647, -0.117136, -0.0169521, 0.0647298, 0.0330727, 0.0223705, 0.00887612, -0.0110343
0.111094, 1.69321, -1.22884, -1.54113, -0.90225, -1.19952, 1.22879, -1.30255, 0.0563962, 0.000531933, -0.0127923, -0.0327457, -0.136413, -0.00060891, 0.000338016, 1.53114, 67.1674, 33.7806, 6.84296, 2.41809, 4.09122, -0.0685925, -0.00245855, -0.000822924, 0.0042408, 0.00678651, -0.00359525, 0.00155629, 0.0657483, -0.036733, -0.0340259, -0.127443, 0.162982, -0.0230069, 0.470421, -0.541192, 0.337021, -2.08222, -2.16701, -0.128239, 0.469533, -0.543004, 0.332478, -2.08209, -2.16476, -0.116909, -0.0172541, 0.0659392, 0.0336855, 0.020595, 0.00779984, -0.0112274
0.112094, 1.69327, -1.22884, -1.54114, -0.902295, -1.19967, 1.22879, -1.30255, 0.0546318, 0.000677016, -0.0111048, -0.0332767, -0.136172, -0.000726975, 0.000469133, 1.38038, 67.1674, 33.8559, 6.99371, 2.44281, 4.09854, -0.0750012, -0.00252187, -0.000784383, 0.00427674, 0.00685986, -0.00370179, 0.00155287, 0.0672592, -0.0364318, -0.0337406, -0.12641, 0.163575, -0.0245284, 0.470404, -0.541126, 0.337054, -2.08217, -2.16705, -0.12819, 0.469555, -0.542993, 0.332465, -2.08206, -2.16483, -0.116671, -0.0175576, 0.0671563, 0.0343019, 0.0200585, 0.00746967, -0.0105538
0.113094, 1.69332, -1.22883, -1.54115, -0.902337, -1.1998, 1.22878, -1.30255, 0.0534898, 0.00069314, -0.0102155, -0.0356546, -0.1349, -0.00588461, -0.000394499, 1.22962, 67.1674, 33.8202, 7.1048, 2.43732, 4.11319, -0.0557752, -0.00258697, -0.000747305, 0.00430915, 0.00692461, -0.00380679, 0.00154908, 0.0674039, -0.0359488, -0.0345447, -0.130956, 0.160937, -0.0228771, 0.470387, -0.541059, 0.337088, -2.08212, -2.16708, -0.12814, 0.469576, -0.542984, 0.332456, -2.08202, -2.1649, -0.116443, -0.0178624, 0.068381, 0.034922, 0.019248, 0.00865522, -0.0107352
0.114094, 1.69337, -1.22884, -1.54116, -0.90238, -1.19995, 1.22878, -1.30255, 0.0522122, -0.0011198, -0.0115956, -0.0365613, -0.134186, -0.00435274, 0.00464919, 1.07887, 67.2427, 33.8559, 7.18018, 2.44281, 4.11319, -0.0621838, -0.00265653, -0.000711577, 0.00434693, 0.00699281, -0.0039096, 0.00155329, 0.0694963, -0.0358559, -0.0364389, -0.13137, 0.16028, -0.0297698, 0.470369, -0.54099, 0.337123, -2.08207, -2.16712, -0.128089, 0.469595, -0.542977, 0.332442, -2.08199, -2.16496, -0.116212, -0.0181686, 0.0696132, 0.0355458, 0.0188572, 0.00810892, -0.0123029
0.115094, 1.69342, -1.22884, -1.54116, -0.902433, -1.20009, 1.22878, -1.30255, 0.0481065, -0.00144574, -0.011729, -0.0419554, -0.133641, -0.00322408, 0.00325408, 0.928108, 67.2784, 33.8559, 7.33093, 2.44281, 4.11319, -0.0557752, -0.0027233, -0.000674077, 0.00438348, 0.00706166, -0.0040112, 0.00154673, 0.0711177, -0.0352799, -0.0375261, -0.132692, 0.161248, -0.0285796, 0.470351, -0.540921, 0.337159, -2.08202, -2.16715, -0.128038, 0.469615, -0.542966, 0.33243, -2.08195, -2.16504, -0.115982, -0.0184762, 0.0708527, 0.036173, 0.0179955, 0.00789078, -0.0129821
0.116094, 1.69346, -1.22883, -1.54117, -0.902484, -1.20023, 1.22878, -1.30255, 0.0467755, 0.000808617, -0.00952303, -0.0448893, -0.132678, -0.00627981, 0.0021921, 0.701973, 67.207, 33.8917, 7.44202, 2.44281, 4.09122, -0.0484509, -0.0027913, -0.000636179, 0.00441596, 0.00713207, -0.00412502, 0.00154238, 0.0710076, -0.0353605, -0.0364356, -0.134452, 0.162106, -0.0259621, 0.470332, -0.54085, 0.337195, -2.08197, -2.16719, -0.127985, 0.469636, -0.542956, 0.332423, -2.08191, -2.16512, -0.115736, -0.018785, 0.0720996, 0.0368038, 0.0178052, 0.00908348, -0.01126
0.117094, 1.69351, -1.22884, -1.54117, -0.902535, -1.20037, 1.22878, -1.30255, 0.0439499, -0.000219634, -0.00792809, -0.0453131, -0.136357, -0.00448842, 0.00144453, 0.551216, 67.2427, 33.9313, 7.47772, 2.44281, 4.08389, -0.0420422, -0.00286363, -0.000601196, 0.00445233, 0.00719435, -0.00422507, 0.00154689, 0.074161, -0.034357, -0.036644, -0.133567, 0.165665, -0.0290921, 0.470313, -0.540778, 0.337232, -2.08192, -2.16723, -0.127932, 0.469653, -0.542948, 0.332411, -2.08188, -2.16518, -0.115512, -0.0190951, 0.0733536, 0.0374381, 0.016604, 0.00721439, -0.0112879
0.118094, 1.69354, -1.22883, -1.54117, -0.902593, -1.20051, 1.22878, -1.30255, 0.0379922, -0.000924261, -0.0048459, -0.0496534, -0.139791, -0.00318478, 0.00112839, 0.436165, 67.2784, 33.8917, 7.5531, 2.44281, 4.07748, -0.0420422, -0.00293709, -0.000566855, 0.00448503, 0.00725324, -0.00433261, 0.00154882, 0.0771137, -0.0326669, -0.0365583, -0.133029, 0.169257, -0.0315332, 0.470294, -0.540705, 0.337269, -2.08186, -2.16726, -0.127878, 0.46967, -0.542941, 0.332404, -2.08185, -2.16526, -0.115283, -0.0194064, 0.0746148, 0.0380757, 0.0147198, 0.00547614, -0.0109693
0.119094, 1.69359, -1.22883, -1.54117, -0.902659, -1.20065, 1.22878, -1.30255, 0.0370027, 0.00459127, -0.003597, -0.0536587, -0.142214, -0.00163178, -0.000310511, 0.170357, 67.207, 33.8917, 7.66418, 2.43732, 4.05551, -0.00999879, -0.00300525, -0.000525938, 0.00451676, 0.00731966, -0.00444796, 0.00153229, 0.0776054, -0.0334147, -0.0336511, -0.133488, 0.1786, -0.0289181, 0.470275, -0.54063, 0.337307, -2.08181, -2.1673, -0.127822, 0.469692, -0.542927, 0.332399, -2.0818, -2.16535, -0.115038, -0.0197189, 0.075883, 0.0387168, 0.0152831, 0.00584609, -0.00755678
0.120094, 1.69362, -1.22882, -1.54117, -0.902724, -1.20079, 1.22878, -1.30255, 0.0353759, 0.00687523, -0.00360082, -0.0557558, -0.139677, -0.00132965, -0.00133469, 0.059273, 67.207, 33.9313, 7.73956, 2.43732, 4.05551, 0.0229602, -0.00308122, -0.000493128, 0.0045501, 0.00738116, -0.0045548, 0.0015305, 0.0783975, -0.0335461, -0.0329149, -0.133101, 0.179931, -0.0279035, 0.470255, -0.540554, 0.337346, -2.08175, -2.16734, -0.127766, 0.469707, -0.54292, 0.332392, -2.08177, -2.16543, -0.114806, -0.0200326, 0.0771581, 0.0393611, 0.0151597, 0.00623295, -0.00631195
0.121094, 1.69365, -1.22882, -1.54117, -0.902792, -1.20093, 1.22877, -1.30255, 0.0383237, 0.00764487, 0.00287417, -0.0594499, -0.137744, -0.00079651, -0.000345313, -0.206535, 67.2427, 33.967, 7.77924, 2.44281, 4.04819, 0.0101428, -0.00315383, -0.000454516, 0.00458558, 0.00744608, -0.00466067, 0.00152307, 0.0756361, -0.0377591, -0.0312112, -0.128689, 0.180266, -0.0200641, 0.470235, -0.540477, 0.337386, -2.0817, -2.16738, -0.127709, 0.469727, -0.542908, 0.332384, -2.08172, -2.16551, -0.11457, -0.0203474, 0.07844, 0.0400087, 0.0190147, 0.010161, -0.00368705
0.122094, 1.69369, -1.22882, -1.54117, -0.90286, -1.20106, 1.22878, -1.30255, 0.0351261, 0.00498995, 0.00312309, -0.0613054, -0.140189, 0.000112877, 5.94736e-05, -0.392998, 67.4252, 33.9313, 7.77924, 2.44281, 4.02713, 0.00373412, -0.00323086, -0.000417344, 0.00462573, 0.0075045, -0.0047578, 0.00151894, 0.0786591, -0.0366408, -0.0331228, -0.129937, 0.180983, -0.0236785, 0.470215, -0.540398, 0.337426, -2.08164, -2.16742, -0.127651, 0.469745, -0.542898, 0.332371, -2.08168, -2.16559, -0.114349, -0.0206634, 0.0797287, 0.0406595, 0.0176253, 0.00871131, -0.00535619
0.123094, 1.69371, -1.22882, -1.54117, -0.902934, -1.2012, 1.22878, -1.30255, 0.0328348, 0.00665402, 0.00539717, -0.0638826, -0.137334, 0.000515779, 0.00031625, -0.583427, 67.4649, 33.9313, 7.81494, 2.4245, 4.01248, -0.00267457, -0.00330855, -0.000381484, 0.00466086, 0.00756516, -0.0048658, 0.00151559, 0.0791582, -0.0369784, -0.0319745, -0.127497, 0.181378, -0.0229871, 0.470194, -0.540319, 0.337466, -2.08158, -2.16746, -0.127592, 0.469762, -0.542888, 0.332364, -2.08164, -2.16567, -0.114114, -0.0209804, 0.081024, 0.0413134, 0.0177093, 0.00935363, -0.00365602
0.124094, 1.69374, -1.22882, -1.54117, -0.903011, -1.20134, 1.22878, -1.30255, 0.0340512, 0.00633977, 0.00238982, -0.0648582, -0.135932, -0.00400073, 0.00146097, -0.76989, 67.576, 34.0027, 7.81494, 2.4245, 3.99783, -0.0356336, -0.00338906, -0.00034637, 0.0047003, 0.00763009, -0.00497155, 0.00151723, 0.0796339, -0.0369643, -0.0342517, -0.134584, 0.17888, -0.0241066, 0.470173, -0.540238, 0.337508, -2.08152, -2.1675, -0.127533, 0.469777, -0.542879, 0.332353, -2.0816, -2.16574, -0.113875, -0.0212984, 0.0823259, 0.0419705, 0.0173114, 0.0105351, -0.00532075
0.125094, 1.69377, -1.22881, -1.54117, -0.903095, -1.20148, 1.22878, -1.30255, 0.0327004, 0.00268821, 0.00361025, -0.0687663, -0.134914, -0.00234552, 0.00123341, -0.996025, 67.6831, 33.9313, 7.85065, 2.4245, 3.97677, -0.0420422, -0.00346821, -0.000308997, 0.00473759, 0.00768885, -0.00507786, 0.00150883, 0.0805332, -0.0380653, -0.0367318, -0.134058, 0.176331, -0.0218317, 0.470152, -0.540155, 0.33755, -2.08146, -2.16755, -0.127472, 0.469795, -0.542867, 0.332345, -2.08155, -2.16583, -0.113642, -0.0216174, 0.0836343, 0.0426306, 0.0180341, 0.0113837, -0.00728331
0.126094, 1.69379, -1.22879, -1.54116, -0.903173, -1.20162, 1.22878, -1.30255, 0.0300104, 0.00943924, 0.00266679, -0.0697792, -0.13455, -0.00136484, 0.000364112, -1.15075, 67.5363, 33.9313, 7.77924, 2.43732, 3.96213, -0.0292249, -0.00355129, -0.000277049, 0.00476397, 0.00774875, -0.00520264, 0.00151128, 0.0824468, -0.0369891, -0.0334428, -0.133878, 0.184178, -0.0242731, 0.47013, -0.540072, 0.337592, -2.0814, -2.16759, -0.12741, 0.469807, -0.54286, 0.332348, -2.08153, -2.16592, -0.113387, -0.0219375, 0.084949, 0.0432937, 0.0168377, 0.0102605, -0.00363408
0.127094, 1.6938, -1.22879, -1.54116, -0.90327, -1.20176, 1.22878, -1.30254, 0.0280226, 0.00705852, 0.00532813, -0.0788138, -0.134234, -0.000930311, 0.0012385, -1.30151, 67.6831, 33.9313, 7.92602, 2.44922, 3.95572, -0.0557752, -0.00363308, -0.000241249, 0.00480558, 0.00781895, -0.00530969, 0.0015037, 0.0817205, -0.0388107, -0.0354466, -0.135685, 0.183225, -0.0188187, 0.470108, -0.539987, 0.337635, -2.08134, -2.16763, -0.127348, 0.469822, -0.542848, 0.332336, -2.08147, -2.16601, -0.113139, -0.0222584, 0.08627, 0.0439598, 0.0182349, 0.0126849, -0.00489193
0.128094, 1.69382, -1.22877, -1.54116, -0.903361, -1.2019, 1.22878, -1.30254, 0.0235229, 0.00644737, 0.0031427, -0.0817979, -0.133895, 0.000271532, 0.00107234, -1.45226, 67.6474, 33.967, 7.92602, 2.45563, 3.92642, -0.0621838, -0.00371684, -0.000205491, 0.00483668, 0.00787542, -0.00543109, 0.00149953, 0.0848237, -0.0371154, -0.0370985, -0.13769, 0.184069, -0.0224588, 0.470086, -0.5399, 0.337679, -2.08127, -2.16768, -0.127284, 0.469838, -0.542839, 0.332336, -2.08144, -2.1661, -0.11289, -0.0225803, 0.0875972, 0.0446288, 0.0162769, 0.0111293, -0.00627996
0.129094, 1.69384, -1.22876, -1.54116, -0.903458, -1.20203, 1.22878, -1.30254, 0.0201945, 0.0049781, 0.00484232, -0.0850802, -0.13313, 0.000815918, -2.41081e-05, -1.60302, 67.6474, 34.0027, 7.9657, 2.46112, 3.90536, -0.0420422, -0.00380071, -0.00017048, 0.00487089, 0.00793942, -0.00554687, 0.00149319, 0.0864478, -0.0367786, -0.0380398, -0.137056, 0.183205, -0.0217435, 0.470063, -0.539813, 0.337724, -2.08121, -2.16772, -0.127219, 0.469852, -0.542827, 0.332332, -2.08139, -2.16619, -0.112637, -0.0229031, 0.0889305, 0.0453006, 0.0156458, 0.0109898, -0.00677767
0.130094, 1.69385, -1.22875, -1.54116, -0.90356, -1.20216, 1.22878, -1.30254, 0.017729, 0.00471809, 0.00373966, -0.0895062, -0.133502, 0.000977732, 0.00097251, -1.75378, 67.7585, 34.0027, 8.0014, 2.48035, 3.89071, -0.0685925, -0.00388455, -0.000135039, 0.00490868, 0.00800288, -0.0056519, 0.00148293, 0.0880112, -0.0364656, -0.0394977, -0.140304, 0.184611, -0.023013, 0.47004, -0.539724, 0.337769, -2.08114, -2.16777, -0.127154, 0.469866, -0.542814, 0.332326, -2.08134, -2.16628, -0.112396, -0.0232267, 0.0902698, 0.0459753, 0.0150158, 0.0109963, -0.00777404
0.131094, 1.69385, -1.22872, -1.54116, -0.903656, -1.20229, 1.22878, -1.30255, 0.012374, 0.00987487, 0.00194868, -0.0939668, -0.133284, -0.00334682, -0.000568434, -1.75378, 67.6474, 34.0424, 7.92602, 2.48584, 3.86966, -0.0356336, -0.00397589, -0.000107352, 0.00493533, 0.00805898, -0.00577553, 0.00148649, 0.0899166, -0.0335558, -0.0382597, -0.146911, 0.188643, -0.0248491, 0.470017, -0.539634, 0.337815, -2.08108, -2.16781, -0.127088, 0.469873, -0.542809, 0.332331, -2.08131, -2.16637, -0.112141, -0.0235512, 0.0916151, 0.0466527, 0.0119073, 0.0101462, -0.00607589
0.132094, 1.69387, -1.22871, -1.54116, -0.90377, -1.20242, 1.22879, -1.30255, 0.0147902, 0.00986712, -0.00017643, -0.098084, -0.128148, -0.00159873, -0.00159671, -2.01562, 67.8339, 34.1178, 8.0014, 2.48584, 3.84036, -0.00267457, -0.00405759, -6.5494e-05, 0.00497614, 0.00812366, -0.0058813, 0.00146181, 0.0886834, -0.0366461, -0.0400167, -0.147696, 0.18678, -0.0181985, 0.469994, -0.539542, 0.337862, -2.08101, -2.16786, -0.12702, 0.469893, -0.54279, 0.332324, -2.08123, -2.16648, -0.111898, -0.0238765, 0.0929661, 0.0473329, 0.0145571, 0.0131184, -0.00703813
0.133094, 1.69386, -1.22868, -1.54115, -0.903882, -1.20254, 1.22879, -1.30254, 0.00709486, 0.0138514, 0.00421801, -0.102113, -0.125842, -8.28319e-05, 0.000158438, -2.01562, 67.8696, 34.0781, 8.0014, 2.52338, 3.80466, -0.0356336, -0.0041478, -3.34447e-05, 0.00500462, 0.00817155, -0.00600127, 0.0014611, 0.0907871, -0.0347499, -0.0365963, -0.142367, 0.190331, -0.0223327, 0.46997, -0.539449, 0.337909, -2.08094, -2.16791, -0.126952, 0.469903, -0.54278, 0.332328, -2.0812, -2.16658, -0.111654, -0.0242025, 0.094323, 0.0480157, 0.0125502, 0.011794, -0.00324191
0.134094, 1.69386, -1.22865, -1.54115, -0.903999, -1.20267, 1.22879, -1.30254, 0.00330398, 0.0182181, -0.00112188, -0.105243, -0.127244, 0.000470093, 0.000582, -2.091, 67.8339, 34.2646, 8.0014, 2.53528, 3.7836, -0.0484509, -0.00423745, -1.62264e-06, 0.00503556, 0.00823813, -0.00612378, 0.0014571, 0.0940449, -0.0325191, -0.0365578, -0.148281, 0.197495, -0.0279587, 0.469946, -0.539355, 0.337957, -2.08087, -2.16796, -0.126882, 0.469913, -0.542768, 0.332331, -2.08115, -2.16667, -0.111387, -0.0245292, 0.0956855, 0.0487012, 0.0101241, 0.00983845, -0.00294998
0.135094, 1.69386, -1.22863, -1.54115, -0.904119, -1.20278, 1.22879, -1.30254, 0.00368517, 0.0198319, -0.000427058, -0.111015, -0.123809, 0.000936263, -8.54745e-05, -2.16637, 68.0164, 34.2646, 8.03711, 2.54169, 3.76163, -0.0356336, -0.0043255, 3.44998e-05, 0.00507105, 0.00829201, -0.00622852, 0.00143976, 0.0927134, -0.0348794, -0.0365978, -0.148836, 0.197916, -0.0215054, 0.469921, -0.539259, 0.338006, -2.0808, -2.168, -0.126812, 0.469927, -0.542753, 0.33233, -2.08109, -2.16678, -0.111153, -0.0248567, 0.0970535, 0.0493892, 0.0121043, 0.0126308, -0.00217075
0.136094, 1.69386, -1.2286, -1.54115, -0.904246, -1.2029, 1.2288, -1.30255, 0.000773993, 0.0237809, 0.0013396, -0.11576, -0.121882, 0.0018034, -0.00100549, -2.24175, 68.0917, 34.34, 8.07678, 2.56549, 3.72592, -0.00999879, -0.00441362, 7.21597e-05, 0.00510225, 0.00834797, -0.0063492, 0.00141853, 0.093056, -0.0352073, -0.0345362, -0.147631, 0.20182, -0.0190017, 0.469896, -0.539162, 0.338055, -2.08073, -2.16805, -0.126741, 0.469941, -0.542736, 0.332334, -2.08103, -2.1669, -0.110899, -0.0251848, 0.0984271, 0.0500798, 0.0121984, 0.0133663, 0.000492604
0.137094, 1.69385, -1.22858, -1.54115, -0.90437, -1.20302, 1.2288, -1.30255, -0.00213412, 0.024388, 0.00183554, -0.119438, -0.119977, 0.00190867, -0.00141561, -2.28143, 68.2742, 34.451, 8.0014, 2.57831, 3.70395, 0.0101428, -0.00450802, 0.000103726, 0.00513807, 0.00840969, -0.00646119, 0.00141015, 0.0942136, -0.0349935, -0.0348148, -0.147991, 0.202025, -0.0184843, 0.469871, -0.539064, 0.338106, -2.08066, -2.1681, -0.126669, 0.46995, -0.542724, 0.332333, -2.08097, -2.167, -0.110646, -0.0255136, 0.099806, 0.0507728, 0.0116929, 0.0136369, 0.00073916
0.138094, 1.69384, -1.22854, -1.54114, -0.904507, -1.20313, 1.22881, -1.30254, -0.00503783, 0.0252079, 0.000978703, -0.121989, -0.119163, 0.00197179, 4.01284e-05, -2.28143, 68.3099, 34.4867, 8.07678, 2.60852, 3.68289, -0.0164075, -0.00459767, 0.000139884, 0.00516752, 0.00846435, -0.00658129, 0.00139277, 0.09618, -0.034155, -0.0352966, -0.149531, 0.20331, -0.0218333, 0.469845, -0.538964, 0.338156, -2.08059, -2.16815, -0.126595, 0.469963, -0.542707, 0.33234, -2.08091, -2.16711, -0.110392, -0.025843, 0.10119, 0.0514683, 0.0105862, 0.0131179, 0.000682622
0.139094, 1.69383, -1.22851, -1.54114, -0.904631, -1.20325, 1.22881, -1.30254, -0.00629355, 0.0210676, 0.00168272, -0.122352, -0.118276, 0.00179665, -0.000210213, -2.3211, 68.5321, 34.6018, 7.92602, 2.63965, 3.66824, -0.00999879, -0.00469378, 0.000172041, 0.00520225, 0.00852035, -0.0066891, 0.00138929, 0.098161, -0.0340889, -0.0379507, -0.149517, 0.199235, -0.0228883, 0.46982, -0.538862, 0.338208, -2.08052, -2.16821, -0.126521, 0.469971, -0.542694, 0.332341, -2.08086, -2.16721, -0.110146, -0.026173, 0.10258, 0.0521662, 0.0101677, 0.0129553, -0.0015435
0.140094, 1.69382, -1.22848, -1.54114, -0.904769, -1.20336, 1.22881, -1.30254, -0.00497766, 0.0217632, 0.00153276, -0.130201, -0.116656, 0.00166108, 9.75117e-05, -2.3211, 68.6035, 34.7486, 7.9657, 2.65155, 3.65451, -0.0164075, -0.00478626, 0.000206928, 0.00523335, 0.00857751, -0.00680409, 0.00137008, 0.0963833, -0.0369941, -0.0392233, -0.153379, 0.200225, -0.0156682, 0.469793, -0.53876, 0.33826, -2.08044, -2.16826, -0.126446, 0.469982, -0.542677, 0.332347, -2.08079, -2.16732, -0.109893, -0.0265036, 0.103974, 0.0528664, 0.0126244, 0.0164278, -0.0019185
0.141094, 1.69381, -1.22844, -1.54113, -0.904903, -1.20346, 1.22881, -1.30254, -0.00730692, 0.0236581, 0.00397944, -0.130545, -0.111525, 0.00107341, 0.00522872, -2.43218, 68.7543, 34.7883, 7.89032, 2.66986, 3.65451, -0.0292249, -0.00487812, 0.000244123, 0.00526185, 0.00862572, -0.00691533, 0.00135084, 0.0970625, -0.0369174, -0.0376971, -0.149529, 0.198357, -0.0210902, 0.469767, -0.538656, 0.338313, -2.08036, -2.16831, -0.12637, 0.469996, -0.542658, 0.332357, -2.08073, -2.16744, -0.109653, -0.0268347, 0.105374, 0.0535689, 0.0123048, 0.0169216, 0.000189216
0.142094, 1.69379, -1.22841, -1.54114, -0.905042, -1.20357, 1.22881, -1.30254, -0.0119812, 0.0227697, 0.00323022, -0.130831, -0.107366, 0.000690117, 0.00387671, -2.43218, 69.0121, 34.9351, 7.81494, 2.68268, 3.65451, -0.0292249, -0.00497693, 0.000276822, 0.00529803, 0.00867947, -0.00702203, 0.00133984, 0.0999323, -0.0349232, -0.0387986, -0.148633, 0.194697, -0.0241759, 0.46974, -0.538551, 0.338366, -2.08029, -2.16836, -0.126293, 0.470004, -0.542643, 0.332358, -2.08066, -2.16754, -0.109409, -0.0271662, 0.106779, 0.0542736, 0.0100533, 0.0155749, -0.000571832
0.143094, 1.69378, -1.22836, -1.54113, -0.905197, -1.20368, 1.22881, -1.30254, -0.0136521, 0.0317528, 0.00365714, -0.137956, -0.109548, 0.000983498, 0.00287765, -2.50756, 69.0121, 35.0461, 7.85065, 2.7074, 3.63986, -0.0292249, -0.00506824, 0.00031613, 0.00532495, 0.00873664, -0.00714917, 0.00131012, 0.099629, -0.0355794, -0.0346937, -0.15191, 0.207064, -0.0204362, 0.469713, -0.538444, 0.338421, -2.08021, -2.16842, -0.126215, 0.470018, -0.542621, 0.332371, -2.08059, -2.16768, -0.109141, -0.0274983, 0.108188, 0.0549806, 0.0105268, 0.0166871, 0.00421495
0.144094, 1.69375, -1.22833, -1.54113, -0.905346, -1.20378, 1.22881, -1.30254, -0.0169644, 0.0331738, 0.00697885, -0.142227, -0.111209, 0.000641329, 0.00261303, -2.50756, 69.2303, 35.1572, 7.77924, 2.73761, 3.63986, -0.0420422, -0.00516799, 0.000348053, 0.00535881, 0.00879391, -0.00725987, 0.00130104, 0.100827, -0.0352729, -0.0335952, -0.151998, 0.210666, -0.019831, 0.469685, -0.538336, 0.338476, -2.08013, -2.16847, -0.126136, 0.470025, -0.542604, 0.332376, -2.08052, -2.16778, -0.108887, -0.0278308, 0.109602, 0.0556897, 0.00998076, 0.0167391, 0.00583455
0.145094, 1.69373, -1.22828, -1.54112, -0.9055, -1.20389, 1.22881, -1.30254, -0.0222618, 0.0421198, 0.00651296, -0.148264, -0.111662, 0.0004168, 0.00214429, -2.50756, 69.27, 35.2683, 7.70386, 2.74402, 3.63986, -0.0484509, -0.00526789, 0.000379677, 0.0053866, 0.0088507, -0.00738285, 0.00128827, 0.102256, -0.0335873, -0.0295481, -0.154653, 0.221154, -0.0210182, 0.469658, -0.538226, 0.338531, -2.08005, -2.16853, -0.126055, 0.470032, -0.542588, 0.332388, -2.08046, -2.1679, -0.10862, -0.0281637, 0.111021, 0.0564009, 0.00818057, 0.0160565, 0.0103771
0.146094, 1.69369, -1.22824, -1.54111, -0.905669, -1.204, 1.22881, -1.30254, -0.0263309, 0.0365674, 0.00777666, -0.155434, -0.112268, 0.000812338, 0.00107849, -2.50756, 69.5279, 35.308, 7.73956, 2.75592, 3.62521, -0.0356336, -0.0053679, 0.000413493, 0.0054229, 0.0089065, -0.00749283, 0.00126296, 0.103869, -0.0335282, -0.0335892, -0.157251, 0.217671, -0.0182727, 0.469629, -0.538115, 0.338588, -2.07997, -2.16858, -0.125974, 0.47004, -0.542569, 0.332392, -2.08038, -2.16802, -0.108368, -0.028497, 0.112445, 0.0571142, 0.00769848, 0.0165028, 0.00685366
0.147094, 1.69366, -1.22819, -1.54112, -0.905834, -1.20411, 1.22881, -1.30254, -0.0274475, 0.043783, 0.00197194, -0.160955, -0.108343, 0.000264243, 0.00104911, -2.58294, 69.4525, 35.4944, 7.66418, 2.78064, 3.63254, -0.0420422, -0.00547051, 0.000444361, 0.00544917, 0.00897098, -0.00762894, 0.00124899, 0.103971, -0.033599, -0.0326408, -0.16337, 0.223125, -0.0172688, 0.469601, -0.538002, 0.338645, -2.07989, -2.16864, -0.125892, 0.470045, -0.542552, 0.332406, -2.08032, -2.16814, -0.108078, -0.0288307, 0.113873, 0.0578295, 0.00748067, 0.0176895, 0.00848815
0.148094, 1.69362, -1.22814, -1.5411, -0.906015, -1.20422, 1.22881, -1.30253, -0.0319442, 0.0419142, 0.00543031, -0.167503, -0.110123, 0.000442893, 0.00198968, -2.50756, 69.5279, 35.4944, 7.70386, 2.79895, 3.62521, -0.0750012, -0.00557328, 0.000474828, 0.00547674, 0.00902442, -0.00775483, 0.00122982, 0.105387, -0.0333058, -0.0336461, -0.164109, 0.223975, -0.0169427, 0.469572, -0.537889, 0.338703, -2.07981, -2.1687, -0.125809, 0.47005, -0.542535, 0.33242, -2.08025, -2.16827, -0.10781, -0.0291647, 0.115306, 0.0585467, 0.00687424, 0.017866, 0.00800472
0.149094, 1.69358, -1.22809, -1.54109, -0.906193, -1.20433, 1.22881, -1.30253, -0.0346218, 0.0440239, 0.00604567, -0.174692, -0.111376, 0.00029186, 0.00605534, -2.58294, 69.5993, 35.5698, 7.70386, 2.81726, 3.62521, -0.0750012, -0.00567787, 0.000506333, 0.00550579, 0.00908401, -0.00788593, 0.00121193, 0.105898, -0.0335978, -0.0335307, -0.167616, 0.228508, -0.0186602, 0.469543, -0.537773, 0.338761, -2.07972, -2.16875, -0.125725, 0.470055, -0.542517, 0.332433, -2.08018, -2.1684, -0.107528, -0.029499, 0.116743, 0.0592659, 0.00686036, 0.018795, 0.00875035
0.150094, 1.69353, -1.22804, -1.54108, -0.906384, -1.20444, 1.22881, -1.30253, -0.0376495, 0.0448211, 0.00561915, -0.175928, -0.112487, 0.000192022, 0.00375368, -2.62261, 69.7104, 35.6809, 7.77924, 2.84198, 3.62521, -0.0557752, -0.00578408, 0.000535952, 0.00553756, 0.00914747, -0.00801421, 0.00118846, 0.108646, -0.0322236, -0.0337174, -0.169214, 0.231126, -0.0200022, 0.469513, -0.537657, 0.338821, -2.07964, -2.16881, -0.12564, 0.470058, -0.542499, 0.332444, -2.0801, -2.16853, -0.107245, -0.0298335, 0.118184, 0.059987, 0.0052581, 0.0174923, 0.0089094
0.151094, 1.69347, -1.22799, -1.54107, -0.906572, -1.20455, 1.22881, -1.30253, -0.0443714, 0.0478832, 0.00213709, -0.178625, -0.108702, 0.000634727, 0.00160339, -2.65832, 69.7104, 35.792, 7.81494, 2.8667, 3.61148, -0.0228162, -0.0058942, 0.000562204, 0.00556316, 0.00920328, -0.00814961, 0.00117106, 0.112115, -0.0291648, -0.0336385, -0.170693, 0.232436, -0.0237397, 0.469484, -0.537538, 0.338881, -2.07955, -2.16887, -0.125554, 0.470058, -0.542484, 0.332461, -2.08004, -2.16866, -0.106961, -0.0301683, 0.119629, 0.0607099, 0.0020123, 0.0153661, 0.00927666
0.152094, 1.69342, -1.22793, -1.54106, -0.906769, -1.20466, 1.22881, -1.30252, -0.0512035, 0.0481146, 0.00751417, -0.181577, -0.105152, 0.000421716, 0.00371766, -2.7337, 69.7858, 35.8277, 7.89032, 2.87952, 3.61148, -0.0878186, -0.00600268, 0.000590697, 0.00559088, 0.00925971, -0.00828023, 0.00115897, 0.113964, -0.0275795, -0.0321675, -0.165398, 0.230296, -0.0274264, 0.469453, -0.537419, 0.338941, -2.07946, -2.16893, -0.125467, 0.470059, -0.542467, 0.332477, -2.07997, -2.16879, -0.10668, -0.0305034, 0.121079, 0.0614347, 0.00022929, 0.0146962, 0.0112222
0.153094, 1.69336, -1.22788, -1.54104, -0.906965, -1.20476, 1.22881, -1.30252, -0.0507628, 0.0502969, 0.00853846, -0.187203, -0.107535, 0.000551335, 0.00242201, -2.88445, 69.7858, 35.8674, 7.89032, 2.89142, 3.60415, -0.0814099, -0.00611216, 0.00061976, 0.00561733, 0.00931126, -0.00840968, 0.00113705, 0.113735, -0.0292691, -0.031786, -0.168584, 0.235901, -0.0222675, 0.469423, -0.537298, 0.339003, -2.07938, -2.16899, -0.125378, 0.470061, -0.542448, 0.332494, -2.0799, -2.16892, -0.106406, -0.0308386, 0.122533, 0.0621611, 0.0015925, 0.0163937, 0.0123066
0.154094, 1.69329, -1.22782, -1.54103, -0.907174, -1.20487, 1.22881, -1.30252, -0.0556504, 0.0500876, 0.0103837, -0.193896, -0.103943, 9.5482e-05, 0.00175036, -2.95983, 69.8572, 35.9784, 7.9657, 2.88501, 3.61148, -0.0814099, -0.00622387, 0.000645094, 0.00564745, 0.00937499, -0.00853798, 0.00111903, 0.11436, -0.0289581, -0.0324679, -0.16868, 0.233785, -0.0196231, 0.469392, -0.537175, 0.339065, -2.07929, -2.16905, -0.125289, 0.470059, -0.54243, 0.332509, -2.07982, -2.16905, -0.106118, -0.031174, 0.12399, 0.0628893, 0.000949877, 0.0173254, 0.0122765
0.155094, 1.69323, -1.22776, -1.54101, -0.907385, -1.20497, 1.22881, -1.30252, -0.0614122, 0.0518421, 0.015495, -0.202752, -0.106074, 0.000876851, 0.00126868, -3.07488, 69.8572, 35.9388, 7.9657, 2.88501, 3.58951, -0.0814099, -0.00633532, 0.000673412, 0.0056725, 0.00942491, -0.00867161, 0.00109391, 0.11514, -0.0287624, -0.0309658, -0.168218, 0.238904, -0.0165326, 0.469361, -0.537051, 0.339128, -2.0792, -2.16911, -0.125199, 0.470059, -0.542412, 0.332529, -2.07975, -2.1692, -0.105839, -0.0315095, 0.125452, 0.0636192, 0.000514075, 0.0177805, 0.0143774
0.156094, 1.69316, -1.22771, -1.54099, -0.907613, -1.20507, 1.22881, -1.30252, -0.0682893, 0.0487305, 0.0156292, -0.207702, -0.103322, 0.000855381, 0.000210038, -3.18597, 70.0436, 36.0538, 8.03711, 2.89142, 3.58218, -0.0621838, -0.00644654, 0.000702356, 0.00570829, 0.00948646, -0.00879232, 0.00106058, 0.117999, -0.0266783, -0.0335863, -0.168954, 0.234671, -0.0180181, 0.469329, -0.536926, 0.339191, -2.07911, -2.16918, -0.125108, 0.47006, -0.542389, 0.332539, -2.07965, -2.16934, -0.105561, -0.0318451, 0.126917, 0.0643506, -0.00188727, 0.0167295, 0.0121507
0.157094, 1.69307, -1.22763, -1.54097, -0.907839, -1.20517, 1.22881, -1.30252, -0.0729103, 0.0594257, 0.0174754, -0.213129, -0.101095, -0.00387311, -0.000548714, -3.22564, 69.8215, 36.0895, 8.03711, 2.90332, 3.57577, -0.0420422, -0.006562, 0.000724784, 0.00572568, 0.00953853, -0.00894079, 0.00104127, 0.117725, -0.0250807, -0.0280663, -0.171958, 0.242326, -0.0169018, 0.469298, -0.536799, 0.339256, -2.07902, -2.16924, -0.125016, 0.470054, -0.542373, 0.332568, -2.07958, -2.16949, -0.105262, -0.0321808, 0.128386, 0.0650837, -0.00360561, 0.0175576, 0.0184312
0.158094, 1.69299, -1.22759, -1.54095, -0.908077, -1.20527, 1.22881, -1.30251, -0.0727899, 0.0565979, 0.0190677, -0.221657, -0.0994663, -0.00215856, 0.00042311, -3.4121, 70.0436, 36.1252, 8.11249, 2.90973, 3.5538, -0.0621838, -0.00667302, 0.000755499, 0.00576151, 0.00959358, -0.00905486, 0.00100562, 0.116507, -0.0281798, -0.0306954, -0.173123, 0.240673, -0.0100439, 0.469265, -0.53667, 0.339321, -2.07892, -2.1693, -0.124922, 0.470056, -0.542347, 0.33258, -2.07948, -2.16963, -0.104995, -0.0325166, 0.129859, 0.0658182, -0.000992682, 0.0207733, 0.0166561
0.159094, 1.69291, -1.22752, -1.54093, -0.908313, -1.20536, 1.22881, -1.3025, -0.0771556, 0.0608457, 0.021304, -0.226556, -0.0978212, -0.00146049, 0.00102635, -3.45177, 70.004, 36.2363, 8.11249, 2.90332, 3.54648, -0.0814099, -0.00679041, 0.000777744, 0.00578935, 0.00964948, -0.00918085, 0.000987065, 0.117467, -0.0277317, -0.0282988, -0.171653, 0.245015, -0.0103158, 0.469233, -0.53654, 0.339387, -2.07883, -2.16937, -0.124828, 0.470049, -0.542328, 0.332599, -2.0794, -2.16976, -0.104713, -0.0328524, 0.131335, 0.0665543, -0.00163712, 0.0209178, 0.0196274
0.160094, 1.69281, -1.22747, -1.54091, -0.908562, -1.20545, 1.2288, -1.30249, -0.0785558, 0.0589101, 0.0219532, -0.233922, -0.0969034, -0.00146446, 0.00121701, -3.52715, 70.0436, 36.276, 8.15216, 2.90973, 3.5538, -0.0951428, -0.00690916, 0.000799828, 0.00582146, 0.00970539, -0.00930285, 0.000962367, 0.117351, -0.0291335, -0.0306526, -0.174629, 0.243877, -0.00592208, 0.4692, -0.536409, 0.339453, -2.07873, -2.16943, -0.124733, 0.470042, -0.542308, 0.332615, -2.07931, -2.1699, -0.104435, -0.0331882, 0.132814, 0.0672918, -0.00066477, 0.0229353, 0.0180134
0.161094, 1.6927, -1.2274, -1.54087, -0.908821, -1.20554, 1.2288, -1.3025, -0.087863, 0.0580172, 0.0273743, -0.239111, -0.092179, -0.0050636, -0.000899876, -3.52715, 70.0436, 36.2363, 8.15216, 2.92804, 3.53274, -0.0484509, -0.0070263, 0.000822801, 0.00584773, 0.00975174, -0.0094276, 0.000923985, 0.119174, -0.0261918, -0.0303262, -0.172501, 0.238088, -0.00545862, 0.469167, -0.536276, 0.33952, -2.07864, -2.1695, -0.124636, 0.470035, -0.542286, 0.332638, -2.07921, -2.17006, -0.104164, -0.033524, 0.134297, 0.0680307, -0.00384604, 0.0224368, 0.0188931
0.162094, 1.6926, -1.22734, -1.54084, -0.90909, -1.20563, 1.2288, -1.30248, -0.0914209, 0.063731, 0.0291, -0.249875, -0.0886385, -0.00334857, 0.00087173, -3.56683, 70.0793, 36.276, 8.22754, 2.95276, 3.5181, -0.0878186, -0.00714376, 0.000846827, 0.00587642, 0.00980276, -0.00955397, 0.000894279, 0.11775, -0.0277911, -0.0280214, -0.17247, 0.243448, -0.000598839, 0.469133, -0.536142, 0.339588, -2.07854, -2.16956, -0.124539, 0.470029, -0.542263, 0.332659, -2.07912, -2.17021, -0.103885, -0.0338597, 0.135784, 0.0687709, -0.00254357, 0.0250522, 0.0220769
0.163094, 1.69248, -1.22728, -1.54081, -0.909375, -1.20572, 1.2288, -1.30247, -0.0984573, 0.0635617, 0.0293, -0.261703, -0.0855327, -0.00207637, 0.00623494, -3.60253, 70.1508, 36.3871, 8.33862, 2.96466, 3.50345, -0.114369, -0.00726162, 0.000870605, 0.00591164, 0.00985897, -0.00967171, 0.000854557, 0.118444, -0.0273854, -0.0297316, -0.174807, 0.243156, -0.00255349, 0.469099, -0.536006, 0.339657, -2.07844, -2.16963, -0.124441, 0.470023, -0.542237, 0.332674, -2.07901, -2.17037, -0.103609, -0.0341954, 0.137273, 0.0695125, -0.00331811, 0.0260988, 0.0210378
0.164094, 1.69236, -1.22721, -1.54077, -0.909656, -1.2058, 1.2288, -1.30247, -0.108751, 0.063281, 0.0359653, -0.266883, -0.0831461, -0.00116551, 0.0090067, -3.60253, 70.0793, 36.3514, 8.29895, 2.97107, 3.48971, -0.10796, -0.00737919, 0.000893019, 0.0059343, 0.00989947, -0.00979553, 0.000811936, 0.121329, -0.0246565, -0.0281581, -0.168536, 0.242047, -0.00814208, 0.469065, -0.535869, 0.339727, -2.07834, -2.1697, -0.124341, 0.470015, -0.542211, 0.332703, -2.07891, -2.17053, -0.103343, -0.0345309, 0.138766, 0.0702554, -0.00619379, 0.0243812, 0.0229836
0.165094, 1.69224, -1.22715, -1.54073, -0.909955, -1.20587, 1.2288, -1.30246, -0.114587, 0.0676619, 0.0378618, -0.277403, -0.0816199, -0.00123179, 0.00570907, -3.67791, 70.0793, 36.4228, 8.414, 2.98938, 3.49612, -0.0814099, -0.00749562, 0.000916963, 0.00596365, 0.00994948, -0.00991392, 0.000760416, 0.121292, -0.024418, -0.0265858, -0.170528, 0.246711, -0.00125149, 0.469031, -0.53573, 0.339797, -2.07824, -2.16977, -0.124241, 0.470008, -0.542182, 0.332725, -2.07878, -2.1707, -0.103073, -0.0348663, 0.140262, 0.0709994, -0.00669904, 0.0256641, 0.0252958
0.166094, 1.69211, -1.22708, -1.54069, -0.910254, -1.20594, 1.2288, -1.30245, -0.119028, 0.0645714, 0.0407051, -0.283985, -0.0750505, 6.69031e-05, 0.00972097, -3.75329, 70.0793, 36.4625, 8.37433, 2.98389, 3.46774, -0.101552, -0.00761262, 0.00094142, 0.00599108, 0.00998875, -0.0100266, 0.000714037, 0.121437, -0.0252148, -0.0284918, -0.167083, 0.240147, -0.00141335, 0.468996, -0.53559, 0.339868, -2.07814, -2.16984, -0.12414, 0.470001, -0.542152, 0.332751, -2.07867, -2.17087, -0.102818, -0.0352016, 0.141761, 0.0717447, -0.00630204, 0.0273474, 0.0241117
0.167094, 1.69197, -1.22701, -1.54064, -0.910553, -1.20601, 1.2288, -1.30244, -0.124728, 0.063917, 0.0425498, -0.290265, -0.0759418, -7.7697e-05, 0.0124086, -3.75329, 70.004, 36.4982, 8.22754, 3.00769, 3.46774, -0.114369, -0.00773633, 0.000958373, 0.00601319, 0.0100213, -0.0101446, 0.000680523, 0.123541, -0.023905, -0.0293213, -0.168717, 0.241396, -0.0047968, 0.468961, -0.535448, 0.33994, -2.07804, -2.16991, -0.124037, 0.469987, -0.542129, 0.332781, -2.07857, -2.17103, -0.102563, -0.0355366, 0.143262, 0.0724911, -0.00788643, 0.026839, 0.0237613
0.168094, 1.69183, -1.22694, -1.54058, -0.910882, -1.20608, 1.2288, -1.30243, -0.128512, 0.0634653, 0.0439994, -0.302883, -0.0709747, 0.00117891, 0.0135925, -3.86834, 70.0793, 36.5378, 8.29895, 3.00769, 3.43204, -0.101552, -0.0078508, 0.000985538, 0.00604375, 0.0100628, -0.0102548, 0.000612139, 0.121971, -0.025934, -0.0310403, -0.170012, 0.239402, 0.00255083, 0.468925, -0.535305, 0.340012, -2.07793, -2.16998, -0.123934, 0.469982, -0.542093, 0.332805, -2.07843, -2.17122, -0.102309, -0.0358715, 0.144767, 0.0732387, -0.0063204, 0.0302489, 0.0229862
0.169094, 1.69167, -1.22688, -1.54053, -0.911201, -1.20614, 1.2288, -1.30242, -0.139562, 0.0607446, 0.0467307, -0.305092, -0.0680448, 0.00153095, 0.0151078, -3.79296, 70.1151, 36.6489, 8.07678, 3.026, 3.41006, -0.10796, -0.0079774, 0.00100164, 0.00607052, 0.010091, -0.010365, 0.000576198, 0.126951, -0.0214188, -0.0319119, -0.166127, 0.235069, -0.0067684, 0.468889, -0.53516, 0.340086, -2.07783, -2.17005, -0.123829, 0.469966, -0.542068, 0.332832, -2.07833, -2.17138, -0.102065, -0.0362061, 0.146274, 0.0739872, -0.0109903, 0.0267654, 0.0222629
0.170094, 1.69151, -1.2268, -1.54046, -0.911539, -1.2062, 1.2288, -1.30241, -0.145099, 0.0667699, 0.0530962, -0.316509, -0.0651936, 0.0020202, 0.0159989, -3.86834, 70.0793, 36.5735, 8.11249, 3.03241, 3.38168, -0.10796, -0.0080942, 0.00102556, 0.00609118, 0.0101127, -0.0104761, 0.000514068, 0.125246, -0.0225526, -0.0278854, -0.163424, 0.240437, -0.000466596, 0.468853, -0.535014, 0.34016, -2.07772, -2.17012, -0.123723, 0.469958, -0.542033, 0.332867, -2.0782, -2.17157, -0.101829, -0.0365405, 0.147784, 0.0747369, -0.0100918, 0.0294002, 0.0272147
0.171094, 1.69135, -1.22673, -1.5404, -0.911882, -1.20626, 1.2288, -1.3024, -0.153895, 0.0647416, 0.0558356, -0.325282, -0.0645195, 0.00157937, 0.0163933, -3.82867, 70.0436, 36.7203, 8.07678, 3.08185, 3.37436, -0.101552, -0.00821743, 0.00104218, 0.00611705, 0.0101473, -0.010584, 0.000459915, 0.127587, -0.0203607, -0.0294312, -0.16464, 0.238939, -0.00145074, 0.468816, -0.534866, 0.340234, -2.07762, -2.17019, -0.123617, 0.469942, -0.542002, 0.332897, -2.07807, -2.17175, -0.10158, -0.0368746, 0.149297, 0.0754875, -0.0125741, 0.0287358, 0.0261553
0.172094, 1.69118, -1.22667, -1.54033, -0.912238, -1.20631, 1.2288, -1.30239, -0.160373, 0.0629202, 0.0631562, -0.345561, -0.0630453, 0.00153252, 0.0115592, -3.79296, 70.1508, 36.76, 8.07678, 3.10016, 3.36062, -0.0814099, -0.00833725, 0.00106403, 0.00614608, 0.0101702, -0.0106787, 0.00039067, 0.124408, -0.0230205, -0.0308942, -0.166876, 0.238051, 0.0176326, 0.46878, -0.534717, 0.34031, -2.07751, -2.17026, -0.123509, 0.469931, -0.541966, 0.332925, -2.07793, -2.17194, -0.101358, -0.0372084, 0.150812, 0.076239, -0.0104325, 0.0337349, 0.0258623
0.173094, 1.691, -1.2266, -1.54027, -0.912606, -1.20636, 1.2288, -1.30237, -0.165723, 0.0647159, 0.0607079, -0.351073, -0.0576857, 0.00181371, 0.00897575, -3.71758, 70.1508, 36.9068, 8.07678, 3.13129, 3.33865, -0.0878186, -0.00845955, 0.00108336, 0.00617623, 0.0102005, -0.0107788, 0.000326429, 0.126068, -0.0216984, -0.0317196, -0.168543, 0.23699, 0.0191655, 0.468742, -0.534566, 0.340386, -2.0774, -2.17034, -0.123401, 0.469917, -0.541931, 0.332952, -2.07778, -2.17213, -0.101121, -0.0375418, 0.15233, 0.0769914, -0.0120443, 0.0336788, 0.0255916
0.174094, 1.69081, -1.22652, -1.5402, -0.91298, -1.20641, 1.2288, -1.30235, -0.175955, 0.0718291, 0.0617918, -0.351618, -0.0588035, 0.00146408, 0.0126518, -3.56683, 70.0436, 37.0575, 8.03711, 3.1734, 3.33133, -0.120778, -0.00858394, 0.00109775, 0.00619761, 0.0102284, -0.010889, 0.000273324, 0.131359, -0.0161889, -0.0272746, -0.167165, 0.245424, 0.00461699, 0.468705, -0.534414, 0.340463, -2.07729, -2.17041, -0.123291, 0.469898, -0.541897, 0.332989, -2.07766, -2.17231, -0.100873, -0.0378749, 0.15385, 0.0777447, -0.0174744, 0.0290457, 0.0301122
0.175094, 1.69063, -1.22646, -1.54011, -0.913361, -1.20645, 1.2288, -1.30234, -0.177646, 0.0667843, 0.0658504, -0.362673, -0.0541578, 0.000963813, 0.0116959, -3.52715, 70.2261, 37.0575, 8.07678, 3.19812, 3.33133, -0.0557752, -0.00870042, 0.00112425, 0.00622704, 0.0102439, -0.0109749, 0.000183505, 0.129097, -0.0192312, -0.0308075, -0.167798, 0.238051, 0.0160428, 0.468667, -0.53426, 0.340541, -2.07718, -2.17049, -0.12318, 0.469891, -0.541853, 0.333019, -2.07749, -2.17252, -0.100668, -0.0382076, 0.155372, 0.0784988, -0.0149971, 0.0334787, 0.0276235
0.176094, 1.69043, -1.22638, -1.54004, -0.913753, -1.20648, 1.2288, -1.30232, -0.186829, 0.0719955, 0.0671441, -0.371467, -0.0499628, 0.00114199, 0.0176667, -3.3764, 70.1904, 37.2797, 8.03711, 3.20453, 3.31759, -0.0420422, -0.00882292, 0.00114117, 0.00625301, 0.0102696, -0.0110707, 0.000113651, 0.130615, -0.0169258, -0.028572, -0.167483, 0.241289, 0.00940565, 0.468629, -0.534104, 0.340619, -2.07707, -2.17056, -0.123068, 0.469874, -0.541814, 0.333052, -2.07733, -2.17272, -0.100437, -0.0385399, 0.156897, 0.0792537, -0.0174696, 0.0330591, 0.0304344
0.177094, 1.69024, -1.2263, -1.53995, -0.914154, -1.20652, 1.2288, -1.3023, -0.192856, 0.0723138, 0.0732313, -0.378647, -0.0479289, 0.000754436, 0.0250202, -3.30102, 70.1508, 37.2797, 7.89032, 3.23566, 3.31759, -0.101552, -0.00893987, 0.00116491, 0.00627234, 0.0102803, -0.0111701, 3.43651e-05, 0.131039, -0.0166338, -0.0274706, -0.164534, 0.240874, 0.00477627, 0.46859, -0.533947, 0.340699, -2.07696, -2.17064, -0.122956, 0.469863, -0.541768, 0.333094, -2.07718, -2.17293, -0.10022, -0.0388718, 0.158424, 0.0800094, -0.0180221, 0.033987, 0.0322254
0.178094, 1.69004, -1.22622, -1.53986, -0.91456, -1.20655, 1.22879, -1.30228, -0.192965, 0.0770521, 0.078942, -0.389219, -0.0454593, -0.004431, 0.0231096, -3.22564, 70.1904, 37.3551, 7.81494, 3.24756, 3.324, -0.0951428, -0.00905902, 0.00118643, 0.00629681, 0.0102975, -0.0112608, -5.09175e-05, 0.126939, -0.019441, -0.0250921, -0.168065, 0.242654, 0.0180435, 0.468551, -0.533789, 0.340779, -2.07684, -2.17071, -0.122842, 0.46985, -0.541723, 0.333131, -2.07701, -2.17314, -0.100004, -0.0392032, 0.159952, 0.0807657, -0.0156131, 0.0393345, 0.0358659
0.179094, 1.68982, -1.22615, -1.53977, -0.91498, -1.20658, 1.22879, -1.30226, -0.198424, 0.0770174, 0.0830147, -0.390438, -0.0392835, -0.00311147, 0.0256503, -3.07488, 70.2618, 37.3194, 7.73956, 3.26587, 3.31759, -0.0685925, -0.00917773, 0.00120738, 0.0063203, 0.0103063, -0.011345, -0.000144896, 0.128686, -0.0185602, -0.0239877, -0.160823, 0.238898, 0.014, 0.468512, -0.533629, 0.340859, -2.07673, -2.17079, -0.122727, 0.469836, -0.541676, 0.33317, -2.07683, -2.17336, -0.0998033, -0.0395341, 0.161483, 0.0815227, -0.0166976, 0.0389327, 0.0374784
0.180094, 1.68962, -1.22607, -1.53968, -0.915394, -1.2066, 1.22879, -1.30224, -0.196137, 0.0769502, 0.0850005, -0.399294, -0.0348877, -0.0018279, 0.0234961, -2.9995, 70.3372, 37.4305, 7.59277, 3.29059, 3.30295, -0.0557752, -0.0092976, 0.00123128, 0.00634517, 0.0103154, -0.0114317, -0.000236714, 0.125534, -0.0231717, -0.0250813, -0.161029, 0.237647, 0.027428, 0.468473, -0.533468, 0.340941, -2.07661, -2.17087, -0.122611, 0.469824, -0.541628, 0.333208, -2.07666, -2.17358, -0.0995989, -0.0398646, 0.163016, 0.0822803, -0.01259, 0.0439608, 0.0374834
0.181094, 1.68962, -1.22607, -1.53968, -0.915394, -1.2066, 1.22879, -1.30224, -0.196137, 0.0769502, 0.0850005, -0.399294, -0.0348877, -0.0018279, 0.0234961, -2.9995, 70.3372, 37.4305, 7.59277, 3.29059, 3.30295, -0.0557752, -0.0094727, 0.00126596, 0.00640031, 0.0102336, -0.0113974, -0.000150751, 0.12718, -0.0234461, -0.0255864, -0.161564, 0.238629, 0.0262559, 0.468433, -0.533304, 0.341023, -2.07649, -2.17095, -0.122494, 0.469824, -0.541628, 0.333208, -2.07666, -2.17358, -0.0995989, -0.0401944, 0.164551, 0.0830385, -0.01259, 0.0439608, 0.0374834
0.182094, 1.68962, -1.22607, -1.53968, -0.915394, -1.2066, 1.22879, -1.30224, -0.196137, 0.0769502, 0.0850005, -0.399294, -0.0348877, -0.0018279, 0.0234961, -2.9995, 70.3372, 37.4305, 7.59277, 3.29059, 3.30295, -0.0557752, -0.00964944, 0.0013009, 0.00645596, 0.0101509, -0.0113628, -6.4042e-05, 0.128828, -0.0237197, -0.0260919, -0.162097, 0.239611, 0.0250839, 0.468392, -0.53314, 0.341106, -2.07637, -2.17103, -0.122376, 0.469824, -0.541628, 0.333208, -2.07666, -2.17358, -0.0995989, -0.0405238, 0.166087, 0.0837972, -0.01259, 0.0439608, 0.0374834
0.183094, 1.68895, -1.22584, -1.53939, -0.916732, -1.20665, 1.22878, -1.30218, -0.215561, 0.0794921, 0.0966598, -0.430336, -0.0199558, -0.000363882, 0.0238564, -2.62261, 70.4483, 37.728, 7.36664, 3.40137, 3.28097, -0.0356336, -0.00965663, 0.00129497, 0.00642673, 0.0103593, -0.0116757, -0.000534353, 0.124338, -0.0239081, -0.0242711, -0.155897, 0.233141, 0.0420292, 0.468352, -0.532974, 0.34119, -2.07626, -2.17111, -0.122257, 0.46978, -0.541474, 0.33332, -2.07609, -2.17426, -0.0989795, -0.0408525, 0.167625, 0.0845564, -0.0128326, 0.0496671, 0.0407241
0.184094, 1.68871, -1.22577, -1.53928, -0.917192, -1.20666, 1.22878, -1.30215, -0.219453, 0.0755732, 0.101183, -0.441728, -0.016464, 0.00176604, 0.0230783, -2.54723, 70.5197, 37.7637, 7.18018, 3.44989, 3.22421, -0.0484509, -0.00977723, 0.00131764, 0.00645301, 0.0103602, -0.0117527, -0.00063875, 0.123253, -0.0261818, -0.0266872, -0.154122, 0.229088, 0.0512229, 0.468311, -0.532806, 0.341275, -2.07613, -2.17119, -0.122137, 0.469766, -0.54142, 0.333359, -2.07589, -2.17449, -0.0987911, -0.0411807, 0.169165, 0.0853161, -0.0110272, 0.052752, 0.0391872
0.185094, 1.68847, -1.22569, -1.53917, -0.917653, -1.20667, 1.22877, -1.30213, -0.227399, 0.0750447, 0.103074, -0.447394, -0.0129138, -0.00289541, 0.0264109, -2.39648, 70.6308, 37.6883, 7.06909, 3.47461, 3.20224, -0.0356336, -0.00989784, 0.00133858, 0.00647546, 0.0103547, -0.0118241, -0.000746003, 0.125184, -0.023113, -0.0276627, -0.156975, 0.224489, 0.0458891, 0.46827, -0.532637, 0.34136, -2.07601, -2.17127, -0.122016, 0.46975, -0.541366, 0.333403, -2.0757, -2.17473, -0.0986149, -0.0415082, 0.170706, 0.0860762, -0.0143696, 0.0523909, 0.0387967
0.186094, 1.68821, -1.22561, -1.53906, -0.918142, -1.20667, 1.22877, -1.30211, -0.233641, 0.0767556, 0.104348, -0.457736, -0.00961325, -0.00160444, 0.0285023, -2.20605, 70.6665, 37.8034, 7.1048, 3.48102, 3.18118, -0.0164075, -0.0100209, 0.00135621, 0.00650492, 0.0103649, -0.0118985, -0.000857159, 0.12556, -0.0229581, -0.027762, -0.157602, 0.225784, 0.0471896, 0.468228, -0.532466, 0.341446, -2.07589, -2.17135, -0.121894, 0.46973, -0.541312, 0.333441, -2.07549, -2.17497, -0.0984175, -0.0418351, 0.172249, 0.0868367, -0.0148306, 0.0535714, 0.0394092
0.187094, 1.68796, -1.22553, -1.53894, -0.918628, -1.20667, 1.22877, -1.30209, -0.24173, 0.0804353, 0.111614, -0.468973, -0.00742466, -0.00517958, 0.0323074, -2.01562, 70.7419, 37.7637, 6.95801, 3.49292, 3.15921, -0.0557752, -0.0101422, 0.0013758, 0.00652613, 0.0103551, -0.0119704, -0.000969986, 0.124783, -0.0219606, -0.0250183, -0.157711, 0.227276, 0.0481192, 0.468187, -0.532294, 0.341533, -2.07577, -2.17143, -0.121771, 0.469712, -0.541255, 0.333488, -2.07528, -2.17522, -0.0982439, -0.0421613, 0.173793, 0.0875976, -0.0160619, 0.0554212, 0.0430356
0.188094, 1.6877, -1.22545, -1.53881, -0.919124, -1.20667, 1.22877, -1.30206, -0.246777, 0.0808489, 0.113131, -0.476151, -0.00585576, -0.0033105, 0.0296858, -2.091, 70.8887, 37.728, 6.84296, 3.50574, 3.13815, -0.0750012, -0.0102602, 0.00139993, 0.00655161, 0.0103543, -0.0120397, -0.00109535, 0.12604, -0.0217464, -0.0253542, -0.157241, 0.228715, 0.0521146, 0.468144, -0.53212, 0.34162, -2.07564, -2.17152, -0.121646, 0.469699, -0.541193, 0.333532, -2.07506, -2.17547, -0.0980633, -0.0424869, 0.175339, 0.0883587, -0.0165535, 0.0557676, 0.0432826
0.189094, 1.68743, -1.22536, -1.5387, -0.919635, -1.20667, 1.22876, -1.30204, -0.257523, 0.081964, 0.118524, -0.487405, -0.0046681, -0.00722057, 0.025184, -1.94024, 70.8887, 37.8034, 6.77154, 3.51764, 3.13083, -0.0292249, -0.0103851, 0.00141402, 0.00657407, 0.0103585, -0.0121182, -0.00121478, 0.127215, -0.0187996, -0.0246864, -0.159616, 0.22826, 0.057584, 0.468102, -0.531945, 0.341709, -2.07552, -2.1716, -0.121521, 0.469675, -0.541137, 0.333579, -2.07485, -2.17573, -0.0978661, -0.0428117, 0.176886, 0.0891202, -0.0197332, 0.0559134, 0.0446292
0.190094, 1.68716, -1.22527, -1.53856, -0.920138, -1.20666, 1.22876, -1.30202, -0.266437, 0.0867401, 0.124502, -0.494909, -0.00291384, -0.00949172, 0.029072, -1.94024, 70.853, 37.7637, 6.58508, 3.50574, 3.10977, -0.0484509, -0.0105066, 0.00143454, 0.00658813, 0.0103444, -0.0122012, -0.00133566, 0.128294, -0.0164358, -0.0210968, -0.157984, 0.23155, 0.0535555, 0.468059, -0.531768, 0.341798, -2.07539, -2.17169, -0.121395, 0.469657, -0.541077, 0.333635, -2.07464, -2.17599, -0.0976839, -0.0431357, 0.178434, 0.0898818, -0.0222114, 0.0557409, 0.0488565
0.191094, 1.68687, -1.22518, -1.53843, -0.920671, -1.20666, 1.22876, -1.30199, -0.271216, 0.0852641, 0.128482, -0.503449, -0.00164979, -0.00593235, 0.0278086, -1.94024, 70.8887, 37.8034, 6.43433, 3.49292, 3.07315, -0.0814099, -0.0106294, 0.00145282, 0.00660895, 0.0103364, -0.0122797, -0.00146222, 0.12892, -0.0174209, -0.021712, -0.154841, 0.23222, 0.0587916, 0.468016, -0.53159, 0.341888, -2.07526, -2.17177, -0.121268, 0.469637, -0.541016, 0.333685, -2.07442, -2.17626, -0.097499, -0.043459, 0.179984, 0.0906437, -0.0215407, 0.0568128, 0.0488834
0.192094, 1.68659, -1.22509, -1.53829, -0.921213, -1.20665, 1.22876, -1.30196, -0.27906, 0.0841236, 0.134396, -0.509308, -0.00123631, -0.0028445, 0.0256531, -1.90453, 70.9244, 37.8391, 6.32324, 3.49292, 3.02371, -0.0878186, -0.0107521, 0.00147102, 0.00662889, 0.0103308, -0.0123616, -0.0015966, 0.131381, -0.0162324, -0.0209554, -0.149075, 0.233227, 0.0601579, 0.467972, -0.53141, 0.341978, -2.07513, -2.17186, -0.121139, 0.469617, -0.540953, 0.333737, -2.07419, -2.17654, -0.0973076, -0.0437815, 0.181534, 0.0914057, -0.0229034, 0.0557628, 0.0500613
