alisrour97/Franka_experiments/Real_Robot_scripts/servo-franka/Data_5_ki/log_dyn_PI_k_ki_14.csv
Time,q1,q2,q3,q4,q5,q6,q7,dq1,dq2,dq3,dq4,dq5,dq6,dq7,t1,t2,t3,t4,t5,t6,t7,ex1,ex2,ex3,ex4,ex5,ex6,ev1,ev2,ev3,ev4,ev5,ev6,xd,yd,zd,uxd,uyd,uzd,x,y,z,ux,uy,uz,vxd,vyd,vzd,vx,vy,vz
7.32422e-07, 1.6915, -1.22536, -1.53778, -0.900115, -1.19205, 1.2286, -1.30268, -0.00675981, -0.0014381, -0.00896568, -0.000598088, 0.000872004, -0.00260227, -0.0020286, -0.76989, 57.8522, 27.5281, 6.65649, 2.1178, 2.95871, -0.114369, 0.00103074, -0.00145652, -0.000107123, 9.81528e-05, -0.00090545, -0.000277223, 0.0043898, 0.00558442, -0.00397863, -0.0090501, -0.00300589, -0.00812638, 0.471008, -0.543389, 0.335894, -2.08385, -2.16584, -0.129887, 0.46953, -0.54244, 0.33621, -2.08396, -2.16664, -0.128897, 0, 0, 0, -0.00556386, -0.00394985, -0.0044416
0.0142305, 1.69147, -1.22538, -1.53785, -0.900109, -1.19204, 1.2286, -1.30269, -0.00520209, -0.00109678, -0.00438558, 0.000136941, 0.00114164, -3.57792e-05, -0.00134725, -0.809562, 57.8879, 27.4885, 6.69617, 2.12421, 2.95871, -0.0814099, 0.00100052, -0.00148862, -7.39054e-05, 0.000150026, -0.000876187, -0.000211986, 0.00315042, 0.00358083, -0.0019121, -0.00255784, -0.00192493, -0.00562821, 0.471008, -0.543389, 0.335894, -2.08385, -2.16584, -0.129887, 0.469488, -0.542474, 0.336167, -2.084, -2.1665, -0.128853, 3.52292e-06, 9.08712e-06, 4.70091e-06, -0.00352905, -0.0029533, -0.00226439
0.0152305, 1.69147, -1.22538, -1.53785, -0.900109, -1.19204, 1.2286, -1.30269, -0.00520209, -0.00109678, -0.00438558, 0.000136941, 0.00114164, -3.57792e-05, -0.00134725, -0.809562, 57.8879, 27.4885, 6.69617, 2.12421, 2.95871, -0.0814099, 0.00100049, -0.00148863, -7.38975e-05, 0.000150015, -0.000876182, -0.000211974, 0.00317905, 0.00359204, -0.00192218, -0.00257037, -0.00190577, -0.00565191, 0.471008, -0.543389, 0.335894, -2.08385, -2.16584, -0.129887, 0.469488, -0.542474, 0.336167, -2.084, -2.1665, -0.128853, 1.40551e-05, 3.62649e-05, 1.87583e-05, -0.00352905, -0.0029533, -0.00226439
0.0162307, 1.69147, -1.22538, -1.53785, -0.900109, -1.19204, 1.2286, -1.30269, -0.00520209, -0.00109678, -0.00438558, 0.000136941, 0.00114164, -3.57792e-05, -0.00134725, -0.809562, 57.8879, 27.4885, 6.69617, 2.12421, 2.95871, -0.0814099, 0.00100043, -0.00148866, -7.38762e-05, 0.000149985, -0.000876167, -0.000211941, 0.00322662, 0.00361064, -0.00193892, -0.00259116, -0.00187396, -0.00569127, 0.471008, -0.543389, 0.335894, -2.08385, -2.16584, -0.129887, 0.469488, -0.542474, 0.336167, -2.084, -2.1665, -0.128853, 3.15416e-05, 8.14084e-05, 4.21042e-05, -0.00352905, -0.0029533, -0.00226439
0.0172307, 1.69147, -1.22538, -1.53785, -0.900109, -1.19204, 1.2286, -1.30269, -0.00520209, -0.00109678, -0.00438558, 0.000136941, 0.00114164, -3.57792e-05, -0.00134725, -0.809562, 57.8879, 27.4885, 6.69617, 2.12421, 2.95871, -0.0814099, 0.00100032, -0.0014887, -7.38348e-05, 0.000149928, -0.000876139, -0.000211877, 0.00329298, 0.00363659, -0.00196226, -0.00262013, -0.0018296, -0.00574614, 0.471008, -0.543389, 0.335894, -2.08385, -2.16584, -0.129887, 0.469488, -0.542474, 0.336167, -2.084, -2.1665, -0.128853, 5.59279e-05, 0.000144393, 7.4671e-05, -0.00352905, -0.0029533, -0.00226439
0.0182307, 1.69147, -1.22538, -1.53785, -0.900109, -1.19204, 1.2286, -1.30269, -0.00520209, -0.00109678, -0.00438558, 0.000136941, 0.00114164, -3.57792e-05, -0.00134725, -0.809562, 57.8879, 27.4885, 6.69617, 2.12421, 2.95871, -0.0814099, 0.00100012, -0.00148878, -7.37668e-05, 0.000149833, -0.000876093, -0.000211771, 0.00337801, 0.00366983, -0.00199216, -0.00265722, -0.00177277, -0.00581642, 0.471008, -0.543389, 0.335894, -2.08385, -2.16584, -0.129886, 0.469488, -0.542474, 0.336167, -2.084, -2.1665, -0.128853, 8.71593e-05, 0.000225094, 0.000116391, -0.00352905, -0.0029533, -0.00226439
0.0192307, 1.69147, -1.22538, -1.53785, -0.900109, -1.19204, 1.2286, -1.30269, -0.00520209, -0.00109678, -0.00438558, 0.000136941, 0.00114164, -3.57792e-05, -0.00134725, -0.809562, 57.8879, 27.4885, 6.69617, 2.12421, 2.95871, -0.0814099, 0.000999836, -0.00148889, -7.36656e-05, 0.000149693, -0.000876024, -0.000211615, 0.00348157, 0.00371029, -0.00202857, -0.00270233, -0.00170358, -0.00590197, 0.471008, -0.543389, 0.335894, -2.08385, -2.16584, -0.129886, 0.469488, -0.542474, 0.336167, -2.084, -2.1665, -0.128853, 0.000125182, 0.000323387, 0.000167197, -0.00352905, -0.0029533, -0.00226439
0.0202307, 1.69147, -1.22538, -1.53785, -0.900109, -1.19204, 1.2286, -1.30269, -0.00520209, -0.00109678, -0.00438558, 0.000136941, 0.00114164, -3.57792e-05, -0.00134725, -0.809562, 57.8879, 27.4885, 6.69617, 2.12421, 2.95871, -0.0814099, 0.000999436, -0.00148905, -7.35247e-05, 0.000149497, -0.000875929, -0.000211397, 0.00360354, 0.00375793, -0.00207144, -0.00275541, -0.00162211, -0.00600267, 0.471008, -0.543388, 0.335894, -2.08385, -2.16584, -0.129886, 0.469488, -0.542474, 0.336167, -2.084, -2.1665, -0.128853, 0.00016994, 0.000439148, 0.000227022, -0.00352905, -0.0029533, -0.00226439
0.0212307, 1.69147, -1.22538, -1.53785, -0.900109, -1.19204, 1.2286, -1.30269, -0.00520209, -0.00109678, -0.00438558, 0.000136941, 0.00114164, -3.57792e-05, -0.00134725, -0.809562, 57.8879, 27.4885, 6.69617, 2.12421, 2.95871, -0.0814099, 0.000998905, -0.00148925, -7.33376e-05, 0.000149238, -0.000875803, -0.000211107, 0.00374378, 0.00381268, -0.00212073, -0.00281636, -0.00152846, -0.00611839, 0.471009, -0.543388, 0.335895, -2.08385, -2.16584, -0.129886, 0.469488, -0.542474, 0.336167, -2.084, -2.1665, -0.128853, 0.000221382, 0.000572255, 0.000295798, -0.00352905, -0.0029533, -0.00226439
0.0222307, 1.69147, -1.22538, -1.53785, -0.900109, -1.19204, 1.2286, -1.30269, -0.00520209, -0.00109678, -0.00438558, 0.000136941, 0.00114164, -3.57792e-05, -0.00134725, -0.809562, 57.8879, 27.4885, 6.69617, 2.12421, 2.95871, -0.0814099, 0.000998225, -0.00148952, -7.3098e-05, 0.000148905, -0.000875641, -0.000210737, 0.00390217, 0.00387448, -0.00217637, -0.00288513, -0.00142273, -0.00624901, 0.471009, -0.543387, 0.335895, -2.08384, -2.16584, -0.129885, 0.469488, -0.542474, 0.336167, -2.084, -2.1665, -0.128853, 0.000279451, 0.000722584, 0.000373459, -0.00352905, -0.0029533, -0.00226439
0.0232307, 1.69143, -1.22539, -1.53789, -0.900111, -1.19202, 1.2286, -1.30268, -0.00316649, -0.00241874, -0.00151639, 0.000420589, 0.00414889, 0.00191198, -0.000746102, -0.468376, 57.9236, 27.4528, 6.69617, 2.10498, 2.96603, -0.10796, 0.000976551, -0.00151387, -5.31806e-05, 0.000168887, -0.000848152, -0.000163715, 0.00239323, 0.00164207, -0.00189426, 0.00234935, -0.00427038, -0.00281789, 0.471009, -0.543386, 0.335895, -2.08384, -2.16584, -0.129884, 0.469464, -0.542492, 0.336145, -2.08402, -2.16643, -0.128853, 0.000344096, 0.000890012, 0.000459939, -0.00127866, -0.00124829, -0.00173244
0.0242307, 1.69142, -1.22539, -1.5379, -0.900109, -1.19202, 1.2286, -1.30269, -0.00392288, -0.00092782, -0.0039202, 0.00120855, 0.00286508, 0.00173231, -0.00195598, -0.392998, 57.8879, 27.5638, 6.65649, 2.11139, 2.95871, -0.0685925, 0.000969112, -0.00152111, -5.1265e-05, 0.0001734, -0.000849963, -0.000151205, 0.00375161, 0.00294487, -0.00180558, 2.62317e-05, -0.00163002, -0.00481971, 0.47101, -0.543385, 0.335896, -2.08384, -2.16584, -0.129884, 0.469458, -0.542499, 0.336143, -2.08403, -2.16642, -0.128844, 0.000415261, 0.00107442, 0.00055517, -0.00245683, -0.00247188, -0.00172119
0.0252307, 1.69142, -1.2254, -1.53789, -0.90011, -1.19202, 1.2286, -1.30268, -0.00265173, -0.00468563, -0.00646917, 0.00164102, -0.00557897, 0.00129467, -0.00154174, -0.392998, 57.7768, 27.4528, 6.62079, 2.06836, 2.95871, -0.0621838, 0.000967639, -0.00152073, -4.80879e-05, 0.000169588, -0.000844545, -0.000149333, 0.0060438, 0.0038211, -0.0050335, -0.00690883, 0.00162997, -0.00852907, 0.47101, -0.543384, 0.335896, -2.08384, -2.16585, -0.129883, 0.469458, -0.542499, 0.33614, -2.08404, -2.16641, -0.128853, 0.000492895, 0.00127568, 0.000659086, -0.00328884, -0.00407259, -0.00513393
0.0262307, 1.69142, -1.22539, -1.5379, -0.900114, -1.19202, 1.2286, -1.30269, -0.000867163, -0.00463903, -0.00556312, 0.00109409, -0.00067974, 0.000425423, -0.0017741, -0.43267, 57.4078, 27.3417, 6.62079, 1.9704, 2.97336, -0.0420422, 0.000967586, -0.00152015, -4.6455e-05, 0.000175643, -0.000846777, -0.00015269, 0.00406524, 0.00223636, -0.005013, -0.00522326, -0.00256837, -0.00416489, 0.471011, -0.543383, 0.335897, -2.08384, -2.16585, -0.129882, 0.469459, -0.542497, 0.336139, -2.08403, -2.16642, -0.128843, 0.000576942, 0.00149367, 0.000771622, -0.00169212, -0.00183961, -0.00474184
0.0272307, 1.69143, -1.2254, -1.5379, -0.900114, -1.19203, 1.2286, -1.30269, 0.00116461, -0.0080486, -0.00330542, 0.000279809, -0.00410966, 0.00347666, -0.00165767, -0.508049, 57.15, 27.1552, 6.5097, 1.92737, 3.01639, -0.0292249, 0.000966072, -0.00151853, -4.19789e-05, 0.000184334, -0.00085087, -0.000155107, 0.00401926, 0.000380462, -0.00625192, -0.0032877, -0.00149622, -0.00176852, 0.471011, -0.543381, 0.335898, -2.08384, -2.16585, -0.129881, 0.469462, -0.542496, 0.336135, -2.08402, -2.16642, -0.128828, 0.00066735, 0.00172827, 0.000892711, 0.000205419, -0.001293, -0.00589288
0.0282307, 1.69143, -1.22541, -1.53791, -0.900115, -1.19204, 1.2286, -1.30268, 0.0052842, -0.00841413, -0.00363242, 0.00169581, -0.00119974, 0.00171793, 0.000352785, -0.43267, 56.9318, 27.0441, 6.43433, 1.86603, 3.04477, -0.0685925, 0.000960288, -0.00152154, -3.57909e-05, 0.000190252, -0.000850787, -0.00014407, 0.00221837, -0.00146657, -0.00685096, -0.00385449, -0.00491544, -0.000342509, 0.471012, -0.543379, 0.335899, -2.08384, -2.16585, -0.129879, 0.469459, -0.542499, 0.336129, -2.08403, -2.16641, -0.128819, 0.000764066, 0.00197936, 0.00102229, 0.00206075, 0.000903762, -0.00613098
0.0292307, 1.69143, -1.22543, -1.53791, -0.900112, -1.19206, 1.2286, -1.30268, 0.00227189, -0.0116058, 0.00020139, 0.00353852, -0.00628674, 0.00576324, 0.00517022, -0.357292, 56.9675, 26.8934, 6.32324, 1.87244, 3.05942, -0.0750012, 0.000950716, -0.00152458, -2.54733e-05, 0.000190063, -0.000847134, -0.000132318, 0.00531618, -0.000153957, -0.00669283, 0.0016015, -0.00224248, -0.00978163, 0.471013, -0.543377, 0.3359, -2.08384, -2.16585, -0.129878, 0.469457, -0.542505, 0.336119, -2.08404, -2.16639, -0.12882, 0.000867038, 0.00224682, 0.00116028, 0.000969297, -0.00196509, -0.00627805
0.0302307, 1.69142, -1.22543, -1.53791, -0.900115, -1.19206, 1.22861, -1.30268, 0.0001356, -0.0126799, -0.00275876, 0.00221616, -0.00519799, 0.0050404, 0.00336348, -0.281914, 56.9675, 26.8577, 6.32324, 1.87793, 3.04477, -0.0621838, 0.000944655, -0.00152604, -2.0668e-05, 0.000190905, -0.000852527, -0.000129052, 0.00660103, 0.00137542, -0.00861257, -0.00162414, -0.00411974, -0.0102149, 0.471014, -0.543375, 0.335901, -2.08384, -2.16585, -0.129876, 0.469457, -0.542508, 0.336114, -2.08404, -2.16639, -0.128812, 0.000976211, 0.00253053, 0.00130664, -0.000472292, -0.00271695, -0.00818059
0.0312307, 1.69143, -1.22544, -1.53791, -0.900113, -1.19208, 1.22862, -1.30268, 0.00354904, -0.0116457, -0.00343681, 0.00313354, -0.00522075, 0.005717, 0.00229851, -0.281914, 57.0389, 26.8934, 6.24786, 1.90906, 2.99441, -0.0557752, 0.000936257, -0.00152656, -1.32083e-05, 0.000193449, -0.000861461, -0.000121464, 0.00579059, -0.000195151, -0.0083493, -0.00178113, -0.00245964, -0.00719312, 0.471015, -0.543372, 0.335903, -2.08383, -2.16585, -0.129874, 0.469457, -0.542512, 0.336107, -2.08405, -2.16639, -0.128797, 0.00109153, 0.00283037, 0.00146128, 0.00119209, -0.00159328, -0.00768754
0.0322307, 1.69143, -1.22545, -1.53791, -0.900116, -1.1921, 1.22863, -1.30269, 0.000155114, -0.0124317, -0.00286302, 0.00293669, -0.0090628, 0.00992461, 0.000294432, -0.166862, 57.1896, 26.8934, 6.20819, 1.92096, 2.96603, -0.0164075, 0.000928918, -0.00152688, -8.53683e-06, 0.000190165, -0.000871056, -0.000118054, 0.00872524, 0.00134219, -0.00820138, 0.000810882, 0.00208272, -0.00963872, 0.471016, -0.543369, 0.335904, -2.08383, -2.16585, -0.129871, 0.469458, -0.542516, 0.336103, -2.08406, -2.16639, -0.128788, 0.00121295, 0.00314621, 0.00162416, -0.000111531, -0.00426031, -0.0077877
0.0332307, 1.69142, -1.22545, -1.53791, -0.900118, -1.19211, 1.22865, -1.30268, 0.000911045, -0.0108143, -0.00150233, 0.00189752, -0.0123365, 0.0172132, 0.0015482, -0.0557783, 57.261, 26.8577, 6.20819, 1.94568, 2.95138, -0.0484509, 0.000920743, -0.00152861, -7.53948e-06, 0.000183445, -0.000885084, -0.000109995, 0.0093985, -0.000352371, -0.0064336, 0.00618463, 0.0102381, -0.0099914, 0.471017, -0.543366, 0.335906, -2.08383, -2.16586, -0.129869, 0.469458, -0.542521, 0.336102, -2.08408, -2.1664, -0.128778, 0.00134042, 0.00347794, 0.00179519, 0.00179622, -0.00479599, -0.00602667
0.0342307, 1.69142, -1.22545, -1.53791, -0.900118, -1.19212, 1.22866, -1.30268, -0.0023951, -0.00868685, -0.00308644, 0.00205503, -0.0126114, 0.0166288, 0.00115597, 0.0949785, 57.2968, 26.933, 6.17248, 1.90906, 2.97336, -0.0484509, 0.000911759, -0.00153165, -5.57595e-06, 0.000181176, -0.000897783, -9.7341e-05, 0.0114005, 0.00213464, -0.00572971, 0.00477081, 0.012526, -0.0141943, 0.471019, -0.543362, 0.335908, -2.08383, -2.16586, -0.129866, 0.469456, -0.542526, 0.336101, -2.08409, -2.16639, -0.128764, 0.00147388, 0.00382545, 0.00197432, -0.000457075, -0.00663509, -0.00538822
0.0352307, 1.69142, -1.22545, -1.53791, -0.900118, -1.19212, 1.22866, -1.30268, -0.0023951, -0.00868685, -0.00308644, 0.00205503, -0.0126114, 0.0166288, 0.00115597, 0.0949785, 57.2968, 26.933, 6.17248, 1.90906, 2.97336, -0.0484509, 0.000907543, -0.00153329, -4.09325e-06, 0.000179116, -0.000896792, -9.50563e-05, 0.0117831, 0.00228309, -0.00586367, 0.00460722, 0.0127804, -0.0145076, 0.47102, -0.543358, 0.33591, -2.08382, -2.16586, -0.129863, 0.469456, -0.542526, 0.336101, -2.08409, -2.16639, -0.128764, 0.00161328, 0.0041886, 0.00216148, -0.000457075, -0.00663509, -0.00538822
0.0362307, 1.69143, -1.22545, -1.53791, -0.900121, -1.19214, 1.22867, -1.30268, 0.00101885, -0.0072008, -0.00313408, 0.00133612, -0.0136362, 0.0164805, 0.00160951, 0.134651, 57.3364, 26.9687, 6.17248, 1.89075, 2.99441, -0.0685925, 0.000902545, -0.0015302, -2.28768e-06, 0.000174974, -0.000912475, -9.72853e-05, 0.0105085, 0.000539727, -0.00544019, 0.00304266, 0.0154617, -0.0116799, 0.471022, -0.543354, 0.335912, -2.08382, -2.16586, -0.12986, 0.469461, -0.542526, 0.336101, -2.0841, -2.16641, -0.128749, 0.00175856, 0.00456728, 0.0023566, 0.00139903, -0.00499191, -0.00462967
0.0372307, 1.69144, -1.22545, -1.5379, -0.90012, -1.19217, 1.22869, -1.30269, 0.00210673, -0.00337173, 0.000423342, 0.00256852, -0.0189108, 0.0160248, 0.00313028, 0.360787, 57.2968, 26.8934, 6.0614, 1.82941, 3.04477, -0.00267457, 0.000894768, -0.00152492, -6.64646e-06, 0.000161695, -0.000951532, -0.000100196, 0.0106952, 0.000487715, -0.00200137, 0.00385963, 0.0233414, -0.0136677, 0.471024, -0.543349, 0.335915, -2.08382, -2.16586, -0.129856, 0.469469, -0.542529, 0.336106, -2.08412, -2.16644, -0.128721, 0.00190969, 0.00496137, 0.00255964, 0.00173299, -0.00530928, -0.00106159
0.0382307, 1.69144, -1.22543, -1.53791, -0.900125, -1.19219, 1.2287, -1.30268, 0.00252211, 0.00181791, -0.0025108, -0.00226123, -0.0276154, 0.0160722, 0.00349926, 0.475838, 57.1143, 27.0084, 6.09711, 1.81018, 3.06674, -0.0292249, 0.000888219, -0.00152308, -1.0148e-05, 0.000166293, -0.000989952, -9.47136e-05, 0.0113552, 0.000924041, -0.000831858, -0.00483075, 0.0365776, -0.0141773, 0.471026, -0.543344, 0.335917, -2.08381, -2.16587, -0.129852, 0.469473, -0.542531, 0.336111, -2.08414, -2.16646, -0.128673, 0.0020666, 0.00537076, 0.00277051, 0.00152002, -0.00574927, 0.000214835
0.0392307, 1.69145, -1.22544, -1.53791, -0.900133, -1.19221, 1.22872, -1.30268, 0.00420253, -0.00153888, -0.000822175, -0.00270657, -0.024486, 0.016681, 0.00289199, 0.6623, 57.2253, 26.9687, 6.13678, 1.77997, 3.07315, -0.0356336, 0.00088149, -0.00151897, -6.84749e-06, 0.000158418, -0.00100933, -9.48574e-05, 0.0103359, -0.000766422, -0.00245782, -0.00231032, 0.0312495, -0.00996324, 0.471028, -0.543338, 0.33592, -2.08381, -2.16587, -0.129848, 0.469479, -0.542531, 0.33611, -2.08415, -2.16648, -0.128657, 0.00222924, 0.00579533, 0.00298915, 0.00327577, -0.00399905, -0.00106483
0.0402307, 1.69145, -1.22543, -1.53791, -0.900129, -1.19223, 1.22874, -1.30268, 0.00393321, 0.0040083, -0.00153338, -0.00165792, -0.0273967, 0.0161108, 0.00193198, 0.928108, 57.15, 27.0084, 5.98602, 1.76166, 3.10977, -0.0292249, 0.000870044, -0.0015202, -9.17482e-06, 0.000152468, -0.00103908, -8.61408e-05, 0.0113654, 0.000456153, 0.000495485, -0.00397787, 0.0391309, -0.0119811, 0.47103, -0.543332, 0.335923, -2.0838, -2.16587, -0.129843, 0.469481, -0.542537, 0.336113, -2.08417, -2.16649, -0.128628, 0.00239756, 0.00623496, 0.00321551, 0.00236666, -0.00508037, 0.00195482
0.0412307, 1.69146, -1.22544, -1.53791, -0.900135, -1.19226, 1.22876, -1.30268, 0.00813722, 0.00110536, -0.00106519, -0.00379289, -0.0258795, 0.0162757, 0.00218108, 1.15424, 57.2253, 27.0084, 5.95032, 1.77356, 3.13083, -0.0484509, 0.000860041, -0.00151723, -5.82346e-06, 0.000148882, -0.00106851, -8.02168e-05, 0.00924056, -0.0025303, -0.00171384, -0.00482949, 0.0356806, -0.00581497, 0.471033, -0.543326, 0.335927, -2.0838, -2.16588, -0.129838, 0.469487, -0.54254, 0.336112, -2.08419, -2.16651, -0.128597, 0.00257152, 0.00668953, 0.00344951, 0.00536738, -0.00206573, 0.00024697
0.0422307, 1.69146, -1.22543, -1.53791, -0.900139, -1.19229, 1.22878, -1.30267, 0.00641147, 0.000884204, -0.00157755, -0.0044926, -0.0240008, 0.0157899, 0.00186108, 1.45576, 57.2253, 27.0441, 5.87494, 1.76807, 3.16653, -0.0557752, 0.000848371, -0.00151696, -7.12065e-06, 0.000143517, -0.00110454, -7.19594e-05, 0.0099995, -0.00156383, -0.00224742, -0.00511891, 0.0340523, -0.00660213, 0.471035, -0.543319, 0.33593, -2.08379, -2.16588, -0.129833, 0.46949, -0.542545, 0.336115, -2.08422, -2.16652, -0.12856, 0.00275106, 0.00715892, 0.0036911, 0.00458962, -0.00230305, -0.000126933
0.0432307, 1.69148, -1.22543, -1.53792, -0.900143, -1.19232, 1.2288, -1.30268, 0.00874509, -0.000135275, -0.00283909, -0.00502676, -0.0284346, 0.0212229, 0.000359192, 1.60651, 57.261, 27.1195, 5.79956, 1.79187, 3.17386, -0.0292249, 0.000837549, -0.00151069, -2.0371e-06, 0.00014151, -0.0011421, -7.48279e-05, 0.0111174, -0.00308678, -0.00318851, -0.00448026, 0.0398912, -0.00481785, 0.471038, -0.543312, 0.335934, -2.08379, -2.16589, -0.129827, 0.469499, -0.542547, 0.336112, -2.08423, -2.16655, -0.128519, 0.00293613, 0.00764302, 0.00394021, 0.00630171, -0.00271537, -0.00102647
0.0442307, 1.69149, -1.22543, -1.53791, -0.900144, -1.19235, 1.22883, -1.30268, 0.00774898, 0.00235691, -0.00191084, -0.0036763, -0.0306025, 0.0205091, 0.000790543, 1.87232, 57.2968, 27.1195, 5.6488, 1.79187, 3.18118, -0.0420422, 0.000825246, -0.00150659, -1.45981e-06, 0.000127339, -0.00117769, -6.9791e-05, 0.0124088, -0.00176621, -0.00140169, -0.0045167, 0.0439361, -0.00816603, 0.471041, -0.543304, 0.335938, -2.08378, -2.16589, -0.129821, 0.469507, -0.542551, 0.336113, -2.08425, -2.16658, -0.128492, 0.00312667, 0.00814172, 0.00419678, 0.00528425, -0.00382062, 0.000833907
0.0452307, 1.6915, -1.22544, -1.53792, -0.900143, -1.19238, 1.22886, -1.30268, 0.0105167, 0.000972015, -0.00212269, -0.0019765, -0.0280982, 0.0191863, -0.000365134, 2.13416, 57.3364, 27.1552, 5.46234, 1.80469, 3.20956, -0.0164075, 0.000812382, -0.00150093, 1.62662e-06, 0.000117369, -0.00121572, -6.93645e-05, 0.0117671, -0.00275863, -0.00250519, -0.00464894, 0.0401574, -0.00544207, 0.471044, -0.543295, 0.335942, -2.08378, -2.16589, -0.129815, 0.469516, -0.542555, 0.336112, -2.08427, -2.16661, -0.128458, 0.00332265, 0.00865489, 0.00446074, 0.00640855, -0.00246349, 7.78864e-05
0.0462307, 1.69152, -1.22544, -1.53792, -0.900146, -1.19242, 1.2289, -1.30268, 0.017372, 0.000894582, -0.00142532, -0.00186453, -0.0268159, 0.0279355, 0.00027425, 2.32459, 57.3364, 27.1552, 5.31555, 1.8349, 3.23153, -0.0292249, 0.00080231, -0.00148879, 2.97293e-06, 0.000103598, -0.00126541, -7.45133e-05, 0.00982856, -0.00823399, -0.00207182, 0.00291593, 0.0438773, 0.000911887, 0.471048, -0.543286, 0.335947, -2.08377, -2.1659, -0.129808, 0.469532, -0.542555, 0.336113, -2.08429, -2.16665, -0.128417, 0.003524, 0.00918243, 0.00473204, 0.0120245, 0.000135515, 0.000912705
0.0472307, 1.69155, -1.22544, -1.53792, -0.90014, -1.19246, 1.22893, -1.30268, 0.0214221, 0.000781317, -0.00179307, 0.00312602, -0.0301726, 0.0290903, -0.00100565, 2.55073, 57.3364, 27.1909, 5.08942, 1.85321, 3.27456, 0.00373412, 0.000789053, -0.00147989, 3.96573e-06, 8.89317e-05, -0.00131271, -7.63136e-05, 0.0109517, -0.0089419, -0.00188485, 0.00353282, 0.0471689, 6.03208e-05, 0.471051, -0.543277, 0.335952, -2.08376, -2.1659, -0.129801, 0.469545, -0.542558, 0.336115, -2.08432, -2.16669, -0.128378, 0.00373068, 0.00972421, 0.00501061, 0.0129851, -0.000431188, 0.00118025
0.0482307, 1.69157, -1.22544, -1.53792, -0.90014, -1.1925, 1.22897, -1.30268, 0.0204657, 0.000659575, -0.00120111, 0.00171421, -0.032416, 0.0296445, 0.00033707, 2.81654, 57.3364, 27.1909, 4.94263, 1.86603, 3.324, -0.0228162, 0.000778042, -0.00146763, 6.24156e-06, 7.58443e-05, -0.00136139, -7.90117e-05, 0.0119328, -0.00844985, -0.00204661, 0.00270826, 0.0496039, -0.00193084, 0.471055, -0.543267, 0.335957, -2.08375, -2.16591, -0.129793, 0.469561, -0.542558, 0.336116, -2.08434, -2.16673, -0.128336, 0.00394263, 0.0102801, 0.00529638, 0.012735, -0.000839104, 0.0011689
0.0492307, 1.6916, -1.22544, -1.53792, -0.900142, -1.19255, 1.229, -1.30268, 0.0220724, -0.000291479, -0.0034963, 0.00305678, -0.03827, 0.0295926, 0.00119227, 3.11805, 57.3721, 27.306, 4.82758, 1.86603, 3.38901, -0.0484509, 0.000763774, -0.00145797, 1.22248e-05, 7.06001e-05, -0.00141167, -7.68749e-05, 0.0139401, -0.00776556, -0.00352864, -0.00200908, 0.0539011, -0.00591271, 0.471059, -0.543256, 0.335962, -2.08375, -2.16592, -0.129785, 0.469575, -0.54256, 0.336113, -2.08436, -2.16676, -0.128282, 0.00415982, 0.0108501, 0.00558931, 0.0122872, -0.00205079, -0.000292387
0.0502307, 1.69162, -1.22544, -1.53793, -0.900139, -1.19259, 1.22904, -1.30267, 0.0237108, -0.000116302, -0.00233409, 0.00176697, -0.0378917, 0.0348717, 0.00131706, 3.41956, 57.3721, 27.306, 4.68079, 1.85962, 3.43936, -0.0621838, 0.000748958, -0.00144678, 1.42555e-05, 5.51312e-05, -0.00146743, -7.25719e-05, 0.013659, -0.00994522, -0.00302778, 0.00266213, 0.0568715, -0.00310108, 0.471064, -0.543245, 0.335968, -2.08374, -2.16592, -0.129777, 0.469591, -0.542563, 0.336114, -2.08439, -2.1668, -0.128234, 0.00438218, 0.0114339, 0.00588931, 0.0146945, -0.0011771, 0.000479987
0.0512307, 1.69165, -1.22544, -1.53792, -0.900135, -1.19265, 1.22909, -1.30267, 0.0289031, -1.9022e-05, 0.000204761, -5.60199e-05, -0.0433813, 0.0356094, 0.000650877, 3.6814, 57.3721, 27.2306, 4.56573, 1.88434, 3.45309, -0.0557752, 0.00073387, -0.00143363, 1.17797e-05, 3.05114e-05, -0.00153328, -7.45925e-05, 0.0120654, -0.0129847, -0.00274908, 0.00104196, 0.0623986, 0.00315955, 0.471068, -0.543234, 0.335974, -2.08373, -2.16593, -0.129768, 0.469609, -0.542566, 0.33612, -2.08443, -2.16686, -0.128186, 0.00460967, 0.0120315, 0.00619634, 0.0179106, 0.0010756, 0.00121768
0.0522307, 1.69168, -1.22544, -1.53793, -0.900133, -1.1927, 1.22914, -1.30267, 0.0288657, -0.000804015, -0.00162854, 0.0017691, -0.0460614, 0.0407214, -0.0010165, 3.98292, 57.4078, 27.306, 4.45465, 1.87244, 3.46774, -0.0164075, 0.000716641, -0.00142085, 1.66505e-05, 1.29926e-05, -0.00159293, -7.84574e-05, 0.0147853, -0.0126335, -0.00337664, 0.00317266, 0.0667221, 0.000908767, 0.471073, -0.543221, 0.335981, -2.08372, -2.16594, -0.129759, 0.469627, -0.542569, 0.336118, -2.08446, -2.16691, -0.128136, 0.00484224, 0.0126428, 0.00651033, 0.0178673, -0.000916104, 0.00050055
0.0532307, 1.69171, -1.22545, -1.53793, -0.900133, -1.19275, 1.22918, -1.30267, 0.0317956, -0.00226633, -0.00192227, 0.00142061, -0.0450311, 0.044406, -0.000909291, 4.2884, 57.4832, 27.3417, 4.41894, 1.90265, 3.48239, -0.00999879, 0.000699307, -0.00140751, 2.3993e-05, -3.28245e-06, -0.00164927, -8.1334e-05, 0.0144177, -0.0148673, -0.00444617, 0.0055837, 0.066817, 0.00370176, 0.471078, -0.543208, 0.335987, -2.08371, -2.16594, -0.129749, 0.469646, -0.542572, 0.336115, -2.08448, -2.16696, -0.128087, 0.00507984, 0.0132677, 0.00683122, 0.0202839, 0.000328021, -0.000245108
0.0542307, 1.69174, -1.22545, -1.53793, -0.900133, -1.1928, 1.22924, -1.30267, 0.0310304, -0.0014862, -0.00211775, 0.00142959, -0.0483894, 0.0471159, -0.000601894, 4.58991, 57.4832, 27.3774, 4.37927, 1.92096, 3.49612, -0.00999879, 0.000680924, -0.00139342, 2.71886e-05, -2.32063e-05, -0.00171891, -8.28574e-05, 0.0163443, -0.0142464, -0.0040089, 0.00611222, 0.0721181, 0.000857653, 0.471083, -0.543195, 0.335994, -2.0837, -2.16595, -0.129738, 0.469666, -0.542575, 0.336115, -2.08452, -2.16701, -0.128029, 0.00532241, 0.013906, 0.00715894, 0.0199914, -0.00102837, 0.000234193
0.0552307, 1.69177, -1.22545, -1.53793, -0.900131, -1.19286, 1.22929, -1.30267, 0.0358511, -0.00180751, -0.00234062, -0.00165638, -0.0562549, 0.0485615, 7.66806e-05, 4.77637, 57.5189, 27.417, 4.34357, 1.95209, 3.52542, -0.0228162, 0.000664373, -0.00137635, 3.23779e-05, -3.82888e-05, -0.0017879, -8.80099e-05, 0.0157574, -0.0167231, -0.00506664, 0.000989176, 0.0798403, 0.00435075, 0.471088, -0.54318, 0.336002, -2.08369, -2.16596, -0.129728, 0.469689, -0.542576, 0.336114, -2.08454, -2.16707, -0.127965, 0.00556992, 0.0145576, 0.00749345, 0.0226531, 0.00046722, -0.000459561
0.0562307, 1.69181, -1.22545, -1.53793, -0.900127, -1.19292, 1.22934, -1.30266, 0.0349311, -0.00763027, -0.00156099, -0.000778839, -0.055872, 0.0494687, 0.00678748, 5.04218, 57.5189, 27.417, 4.30786, 1.94568, 3.56112, -0.0750012, 0.000644586, -0.00136235, 3.43954e-05, -6.05833e-05, -0.00185948, -7.88044e-05, 0.017537, -0.0161939, -0.00820262, 0.00242624, 0.0744809, -0.00399371, 0.471094, -0.543166, 0.336009, -2.08368, -2.16597, -0.129716, 0.469709, -0.54258, 0.336116, -2.08459, -2.16712, -0.127905, 0.00582231, 0.0152225, 0.00783467, 0.0223275, -0.000163938, -0.00347507
0.0572307, 1.69184, -1.22545, -1.53794, -0.900121, -1.19299, 1.22939, -1.30267, 0.0367677, -0.00561303, -0.00187631, 0.000861656, -0.0611172, 0.0505253, 0.00421482, 5.19294, 57.5189, 27.4528, 4.23248, 1.95758, 3.58951, -0.0557752, 0.000624924, -0.00134614, 3.74624e-05, -8.07437e-05, -0.00193473, -8.4788e-05, 0.0189418, -0.0160943, -0.00715062, 0.000993286, 0.0817124, -0.00356123, 0.4711, -0.54315, 0.336017, -2.08367, -2.16597, -0.129705, 0.469732, -0.542583, 0.336118, -2.08462, -2.16719, -0.12784, 0.00607953, 0.0159004, 0.00818254, 0.0225738, -0.00103864, -0.00230339
0.0582307, 1.69188, -1.22545, -1.53793, -0.900113, -1.19305, 1.22945, -1.30267, 0.0381642, 0.000400559, -0.000415976, 0.00205091, -0.0639149, 0.0521225, 0.00311131, 5.3437, 57.5943, 27.417, 4.1571, 1.93927, 3.59683, -0.0557752, 0.000603017, -0.00133069, 4.14787e-05, -0.000108665, -0.00200557, -8.50047e-05, 0.0192418, -0.0164567, -0.00311901, 0.00290541, 0.0911087, -0.0030422, 0.471106, -0.543134, 0.336026, -2.08366, -2.16598, -0.129692, 0.469754, -0.542587, 0.336118, -2.08466, -2.16725, -0.127787, 0.00634154, 0.0165914, 0.00853701, 0.0233547, -0.0012491, 0.00197447
0.0592307, 1.69192, -1.22545, -1.53794, -0.900108, -1.19312, 1.22951, -1.30267, 0.0386322, 0.0004961, -0.00111278, 0.00520897, -0.0661644, 0.0580659, 0.00230028, 5.49445, 57.5943, 27.4528, 4.1214, 1.92096, 3.59683, -0.0557752, 0.000580022, -0.00131572, 4.46951e-05, -0.00013052, -0.00208608, -8.01222e-05, 0.0219094, -0.0164385, -0.00262697, 0.00754454, 0.0962559, -0.00621347, 0.471113, -0.543117, 0.336034, -2.08364, -2.16599, -0.129679, 0.469776, -0.542591, 0.33612, -2.08471, -2.1673, -0.127716, 0.00660828, 0.0172953, 0.00889802, 0.023717, -0.00325503, 0.002408
0.0602307, 1.69196, -1.22546, -1.53793, -0.900102, -1.19318, 1.22957, -1.30267, 0.0385002, -0.00033269, -0.000742033, 0.00762448, -0.067868, 0.0583627, 0.000719734, 5.53413, 57.63, 27.4528, 4.08173, 1.90265, 3.58218, -0.0292249, 0.000558803, -0.00129757, 4.80272e-05, -0.000158335, -0.00216312, -8.61816e-05, 0.0238076, -0.0154777, -0.00287405, 0.00811896, 0.0972297, -0.00786028, 0.471119, -0.543099, 0.336043, -2.08363, -2.166, -0.129666, 0.469802, -0.542593, 0.336122, -2.08474, -2.16737, -0.127656, 0.00687971, 0.0180119, 0.00926549, 0.0230884, -0.00441372, 0.00226607
0.0612307, 1.692, -1.22545, -1.53794, -0.900096, -1.19325, 1.22963, -1.30267, 0.0374494, 0.00167029, -0.000494825, 0.0102932, -0.0646897, 0.0538596, 0.000132272, 5.6095, 57.5546, 27.4528, 4.00635, 1.89075, 3.56845, -0.0164075, 0.000534962, -0.00128129, 4.78245e-05, -0.000185911, -0.00225222, -8.59994e-05, 0.0244934, -0.0135382, -0.00184796, 0.00718065, 0.0946196, -0.0101159, 0.471126, -0.543081, 0.336053, -2.08362, -2.16601, -0.129652, 0.469826, -0.542598, 0.336127, -2.08479, -2.16744, -0.127582, 0.00715578, 0.0187412, 0.00963939, 0.0214895, -0.00459886, 0.00360544
0.0622307, 1.69203, -1.22546, -1.53794, -0.900083, -1.19332, 1.22969, -1.30266, 0.0348145, -0.00138829, -0.000329985, 0.00997454, -0.0660441, 0.0553351, 0.000895634, 5.76026, 57.6657, 27.4528, 3.89526, 1.86603, 3.54648, -0.0356336, 0.000504388, -0.0012704, 5.53644e-05, -0.000216505, -0.00232413, -6.74658e-05, 0.0270289, -0.0120334, -0.00363127, 0.00765331, 0.0938646, -0.014148, 0.471134, -0.543062, 0.336063, -2.0836, -2.16602, -0.129638, 0.469845, -0.542607, 0.336125, -2.08485, -2.16749, -0.127527, 0.00743644, 0.0194831, 0.0100196, 0.020294, -0.0061476, 0.00187701
0.0632307, 1.69208, -1.22547, -1.53794, -0.90008, -1.1934, 1.22975, -1.30266, 0.0389323, -0.00261629, -0.00740621, 0.00703517, -0.0688082, 0.0614398, 0.00141461, 5.64521, 57.7411, 27.4885, 3.89526, 1.87244, 3.5181, -0.0557752, 0.00048103, -0.00124966, 6.22156e-05, -0.00023902, -0.00241053, -7.35429e-05, 0.0278952, -0.0142824, -0.00722028, 0.00302612, 0.0992914, -0.0129639, 0.471141, -0.543042, 0.336073, -2.08359, -2.16603, -0.129623, 0.469874, -0.542609, 0.336124, -2.08488, -2.16756, -0.12745, 0.00772164, 0.0202374, 0.0104062, 0.0227265, -0.00560374, -0.00148279
0.0642307, 1.69211, -1.22547, -1.53794, -0.900074, -1.19347, 1.22981, -1.30266, 0.0331229, -0.00168984, -0.00463156, 0.00814594, -0.0702587, 0.0601544, 0.00123408, 5.76026, 57.7411, 27.4528, 3.89526, 1.86603, 3.5181, -0.0621838, 0.000451655, -0.00123809, 6.56301e-05, -0.00026511, -0.00249513, -6.2425e-05, 0.0310988, -0.0105365, -0.00562411, 0.00482622, 0.100846, -0.0193069, 0.471149, -0.543021, 0.336083, -2.08357, -2.16604, -0.129607, 0.469894, -0.542616, 0.336126, -2.08493, -2.16762, -0.127376, 0.00801134, 0.0210041, 0.0107989, 0.0194486, -0.00839932, 0.000102628
0.0652307, 1.69215, -1.22547, -1.53793, -0.90007, -1.19355, 1.22988, -1.30266, 0.0355694, -0.00192101, -0.00172144, 0.00899515, -0.0705152, 0.0644039, 0.000625596, 5.72059, 57.7768, 27.3774, 3.89526, 1.8349, 3.50345, -0.0557752, 0.000426449, -0.0012199, 6.9513e-05, -0.00029631, -0.00257841, -6.64183e-05, 0.0309891, -0.0126694, -0.00464672, 0.0106146, 0.103277, -0.016358, 0.471157, -0.543, 0.336094, -2.08356, -2.16606, -0.129591, 0.469921, -0.542618, 0.336129, -2.08497, -2.16769, -0.12731, 0.00830549, 0.021783, 0.0111979, 0.0219047, -0.00757466, 0.00141913
0.0662307, 1.69219, -1.22547, -1.53793, -0.900065, -1.19363, 1.22994, -1.30266, 0.0338751, -0.000414878, -0.00144536, 0.00661429, -0.0718447, 0.0674172, 0.000447242, 5.68488, 57.7411, 27.3774, 3.89526, 1.8349, 3.49612, -0.0557752, 0.000397845, -0.00120465, 7.09038e-05, -0.000321743, -0.0026746, -6.5833e-05, 0.0322421, -0.0123547, -0.00392571, 0.0117697, 0.108047, -0.0167677, 0.471166, -0.542978, 0.336106, -2.08354, -2.16607, -0.129574, 0.469946, -0.542623, 0.336134, -2.08502, -2.16777, -0.127224, 0.00860403, 0.0225739, 0.011603, 0.0219606, -0.00814439, 0.00235137
0.0672307, 1.69223, -1.22546, -1.53794, -0.900063, -1.19371, 1.23, -1.30267, 0.0354346, 0.00150958, -0.00295011, 0.00394466, -0.0722726, 0.0650637, -0.00113727, 5.64521, 57.6657, 27.4528, 3.93494, 1.81659, 3.48239, -0.0164075, 0.000367055, -0.00119093, 7.51878e-05, -0.00034094, -0.00277313, -6.25356e-05, 0.0315722, -0.0127261, -0.00428009, 0.00651378, 0.110089, -0.0128812, 0.471175, -0.542955, 0.336118, -2.08352, -2.16608, -0.129557, 0.469969, -0.54263, 0.336136, -2.08507, -2.16784, -0.127128, 0.00890693, 0.0233769, 0.0120141, 0.0225977, -0.00661011, 0.00250524
0.0682307, 1.69227, -1.22547, -1.53793, -0.900065, -1.19379, 1.23007, -1.30266, 0.0338365, 9.55686e-05, 0.00597244, 0.00525611, -0.0727737, 0.0634604, -0.000266486, 5.6095, 57.7054, 27.3774, 3.97064, 1.80469, 3.46774, -0.0292249, 0.000335837, -0.00117694, 8.03451e-05, -0.000367725, -0.00286567, -5.80069e-05, 0.0317341, -0.0124513, -0.0021187, 0.0130889, 0.108117, -0.0130166, 0.471184, -0.542931, 0.33613, -2.0835, -2.16609, -0.129539, 0.469993, -0.542635, 0.336138, -2.08512, -2.16791, -0.127045, 0.00921413, 0.0241918, 0.0124312, 0.0227152, -0.00629855, 0.00503987
0.0692307, 1.69231, -1.22546, -1.53793, -0.90006, -1.19388, 1.23013, -1.30266, 0.0381881, 0.00183985, 0.00438464, 0.00402411, -0.0736724, 0.0674514, 0.00129314, 5.45875, 57.63, 27.3774, 3.97064, 1.81018, 3.43936, -0.0685925, 0.000304209, -0.00116172, 8.2162e-05, -0.000392896, -0.00296912, -4.88728e-05, 0.0310605, -0.0151548, -0.00200294, 0.0132906, 0.113481, -0.0109816, 0.471193, -0.542906, 0.336143, -2.08349, -2.16611, -0.12952, 0.470019, -0.542641, 0.336144, -2.08517, -2.16799, -0.126949, 0.0095256, 0.0250185, 0.0128543, 0.025707, -0.00471307, 0.00559973
0.0702307, 1.69234, -1.22545, -1.53793, -0.900056, -1.19396, 1.2302, -1.30266, 0.0346198, 0.0038347, 0.00146211, 0.00390799, -0.0739945, 0.0711513, 0.000396921, 5.45875, 57.5189, 27.4528, 3.93494, 1.80469, 3.38901, -0.0557752, 0.000266456, -0.0011523, 8.1689e-05, -0.000422903, -0.00307887, -3.06118e-05, 0.0343607, -0.0129314, -0.0016717, 0.0140995, 0.118237, -0.0157517, 0.471203, -0.542881, 0.336156, -2.08347, -2.16612, -0.129501, 0.470039, -0.542653, 0.336151, -2.08525, -2.16805, -0.126849, 0.00984127, 0.0258569, 0.0132832, 0.0239335, -0.00727524, 0.00591144
0.0712307, 1.69238, -1.22545, -1.53793, -0.90006, -1.19406, 1.23027, -1.30265, 0.0335975, 0.00339894, 0.00296468, 0.00122741, -0.0751145, 0.0681318, 0.000746493, 5.38337, 57.4832, 27.3774, 4.00635, 1.823, 3.36703, -0.0685925, 0.000233943, -0.00113651, 8.39109e-05, -0.000451079, -0.00318602, -2.85006e-05, 0.0345498, -0.0122097, -0.00228756, 0.0107516, 0.117923, -0.0151227, 0.471213, -0.542854, 0.336169, -2.08345, -2.16613, -0.129481, 0.470066, -0.542658, 0.336157, -2.0853, -2.16814, -0.126752, 0.0101611, 0.0267069, 0.013718, 0.0235175, -0.00654676, 0.00573074
0.0722307, 1.69243, -1.22544, -1.53793, -0.900063, -1.19414, 1.23034, -1.30266, 0.0372363, 0.00310662, 0.00298169, 0.000109642, -0.0801202, 0.0712202, -0.000480311, 5.26832, 57.4475, 27.3417, 4.04602, 1.82941, 3.324, -0.0420422, 0.000201709, -0.00111837, 8.83855e-05, -0.000478969, -0.00329143, -3.35158e-05, 0.0348416, -0.0141661, -0.00283553, 0.00963599, 0.124064, -0.011701, 0.471223, -0.542827, 0.336183, -2.08343, -2.16615, -0.129461, 0.470096, -0.542661, 0.336161, -2.08534, -2.16823, -0.126656, 0.0104851, 0.0275683, 0.0141585, 0.0257864, -0.00580823, 0.0055256
0.0732307, 1.69247, -1.22545, -1.53793, -0.90006, -1.19424, 1.23041, -1.30266, 0.0365415, 0.00616184, 0.00211531, 0.00200088, -0.0836698, 0.0731281, -0.00126562, 5.15327, 57.5546, 27.3417, 3.97064, 1.82941, 3.29562, -0.0164075, 0.000164686, -0.00110306, 9.81399e-05, -0.000506444, -0.00338922, -3.08473e-05, 0.0374185, -0.0127437, -0.00119306, 0.00976985, 0.131432, -0.0156414, 0.471234, -0.542799, 0.336197, -2.08341, -2.16616, -0.12944, 0.470122, -0.542667, 0.33616, -2.08539, -2.1683, -0.126566, 0.0108131, 0.0284411, 0.0146048, 0.0248472, -0.00779058, 0.00723734
0.0742307, 1.69252, -1.22544, -1.53793, -0.90006, -1.19433, 1.23048, -1.30266, 0.0389393, 0.00164432, 0.00234106, 0.00145732, -0.0865531, 0.0733789, -0.000366004, 5.04218, 57.4078, 27.306, 3.97064, 1.84131, 3.29562, -0.0292249, 0.000130423, -0.00108599, 9.86766e-05, -0.000531539, -0.00350773, -2.88009e-05, 0.0381012, -0.0137007, -0.00426504, 0.0074623, 0.130134, -0.0152109, 0.471245, -0.54277, 0.336212, -2.08339, -2.16618, -0.129418, 0.470152, -0.542671, 0.336168, -2.08544, -2.16839, -0.126451, 0.0111452, 0.0293251, 0.0150567, 0.0260484, -0.00706842, 0.00452099
0.0752307, 1.69256, -1.22544, -1.53793, -0.900058, -1.19443, 1.23056, -1.30266, 0.0447204, 0.00097306, 0.000797217, -0.00436996, -0.0850771, 0.0737124, -0.000241737, 5.00251, 57.4078, 27.3417, 3.93494, 1.87244, 3.29562, -0.0292249, 9.18714e-05, -0.00107016, 0.000105387, -0.000560216, -0.00361732, -2.29171e-05, 0.0348717, -0.0178602, -0.00661451, 0.00299988, 0.12983, -0.00550167, 0.471256, -0.542741, 0.336228, -2.08336, -2.16619, -0.129396, 0.47018, -0.542678, 0.33617, -2.0855, -2.16848, -0.126349, 0.0114812, 0.0302203, 0.0155142, 0.0303368, -0.00245165, 0.00303285
0.0762307, 1.69261, -1.22545, -1.53792, -0.90006, -1.19452, 1.23063, -1.30265, 0.0402557, -0.0012069, 0.000585273, -0.00336633, -0.0924179, 0.0741004, 0.00153596, 4.9668, 57.4832, 27.3417, 3.93494, 1.88434, 3.29562, -0.0750012, 5.41098e-05, -0.00105231, 0.000114787, -0.000590963, -0.00372243, -1.78974e-05, 0.0398521, -0.0140136, -0.00788565, 0.000329551, 0.134281, -0.0158422, 0.471268, -0.54271, 0.336243, -2.08334, -2.16621, -0.129373, 0.47021, -0.542682, 0.33617, -2.08555, -2.16856, -0.126253, 0.0118212, 0.0311266, 0.0159772, 0.0269693, -0.00642563, 0.00158552
0.0772307, 1.69266, -1.22544, -1.53792, -0.900061, -1.19462, 1.23071, -1.30265, 0.043301, -3.86555e-05, 0.00126575, -0.00258399, -0.0927552, 0.0745638, 0.000313173, 4.92713, 57.4475, 27.306, 3.93494, 1.88434, 3.2883, -0.0557752, 1.71282e-05, -0.00103321, 0.000119509, -0.000625138, -0.00383523, -1.84506e-05, 0.0395551, -0.0153258, -0.00729898, 0.000781597, 0.136563, -0.0128638, 0.47128, -0.542678, 0.33626, -2.08332, -2.16623, -0.129349, 0.470243, -0.542686, 0.336176, -2.0856, -2.16865, -0.126153, 0.012165, 0.0320437, 0.0164457, 0.028635, -0.00525092, 0.00263952
0.0782307, 1.69271, -1.22544, -1.53793, -0.900068, -1.19471, 1.23079, -1.30265, 0.0447271, -7.77265e-05, -0.000796345, -0.00364792, -0.0937739, 0.0745679, 0.000921814, 4.92713, 57.4475, 27.3774, 4.00635, 1.90265, 3.29562, -0.0750012, -1.9424e-05, -0.00101325, 0.000130091, -0.000648067, -0.00394502, -2.40655e-05, 0.0402163, -0.0155183, -0.00860973, -0.00261129, 0.138274, -0.0132321, 0.471292, -0.542646, 0.336276, -2.08329, -2.16625, -0.129324, 0.470276, -0.542687, 0.336176, -2.08564, -2.16875, -0.126043, 0.0125127, 0.0329717, 0.0169196, 0.0291516, -0.00476605, 0.00171084
0.0792307, 1.69277, -1.22544, -1.53793, -0.900067, -1.19481, 1.23087, -1.30265, 0.0457238, 0.00167245, -0.000508201, -0.00178785, -0.0942311, 0.0759047, 0.00061526, 4.92713, 57.3721, 27.3774, 3.97064, 1.91546, 3.26724, -0.0750012, -5.8132e-05, -0.000993453, 0.000134666, -0.000682881, -0.00406216, -2.21075e-05, 0.041313, -0.0154975, -0.00749283, -0.000931154, 0.141549, -0.0143911, 0.471305, -0.542612, 0.336293, -2.08327, -2.16626, -0.129299, 0.47031, -0.54269, 0.336182, -2.0857, -2.16884, -0.125937, 0.0128642, 0.0339105, 0.0173989, 0.0295633, -0.0050823, 0.00312369
0.0802307, 1.69282, -1.22544, -1.53792, -0.900074, -1.19491, 1.23095, -1.30265, 0.0498594, 0.00108574, -0.00032178, -0.00217046, -0.090354, 0.0753513, -0.000301366, 4.92713, 57.3721, 27.3774, 4.00635, 1.93927, 3.27456, -0.0557752, -9.35959e-05, -0.000970151, 0.000142112, -0.000715147, -0.00417528, -3.51932e-05, 0.0395498, -0.0179048, -0.00843631, -0.000710752, 0.138316, -0.00844417, 0.471318, -0.542578, 0.336311, -2.08324, -2.16628, -0.129273, 0.470347, -0.542689, 0.336186, -2.08573, -2.16895, -0.125834, 0.0132194, 0.0348598, 0.0178835, 0.0322251, -0.0021472, 0.0028767
0.0812307, 1.69287, -1.22543, -1.53793, -0.900075, -1.19501, 1.23102, -1.30265, 0.0503673, 0.00330037, -0.00196499, -0.000719258, -0.0921154, 0.0745095, -0.00165857, 5.04218, 57.261, 27.4528, 3.97064, 1.96399, 3.29562, -0.0164075, -0.000134852, -0.000952763, 0.000149159, -0.000739785, -0.00429501, -3.7277e-05, 0.0411556, -0.0168002, -0.0079615, -0.00331129, 0.142207, -0.0100688, 0.471331, -0.542543, 0.336329, -2.08322, -2.1663, -0.129247, 0.470379, -0.542692, 0.33619, -2.08578, -2.16905, -0.125713, 0.0135784, 0.0358197, 0.0183733, 0.031557, -0.00289119, 0.00362016
0.0822307, 1.69294, -1.22543, -1.53793, -0.900078, -1.1951, 1.2311, -1.30265, 0.0568041, 0.00301902, -0.00213564, -0.000560134, -0.0886131, 0.0789741, -0.00110541, 5.04218, 57.2253, 27.4885, 3.97064, 1.98871, 3.31027, -0.0164075, -0.000169137, -0.000925402, 0.000158321, -0.000770092, -0.00440844, -5.421e-05, 0.0391909, -0.0211772, -0.0084603, 0.000711015, 0.142125, -0.00410304, 0.471345, -0.542506, 0.336348, -2.08319, -2.16632, -0.12922, 0.470421, -0.542687, 0.336193, -2.08581, -2.16917, -0.125606, 0.013941, 0.03679, 0.0188684, 0.0362021, 0.000277288, 0.00379376
0.0832307, 1.69301, -1.22543, -1.53793, -0.900079, -1.19521, 1.23118, -1.30266, 0.0564496, 0.00200035, -0.00141658, 0.000401324, -0.0920299, 0.0768802, -0.000974072, 5.11756, 57.2253, 27.4885, 3.93494, 2.04364, 3.34598, -0.00999879, -0.000207977, -0.0009019, 0.000167105, -0.000798336, -0.00452727, -6.35242e-05, 0.0410697, -0.0197493, -0.00918854, -0.00205824, 0.143407, -0.00702067, 0.471359, -0.542469, 0.336367, -2.08316, -2.16634, -0.129192, 0.47046, -0.542686, 0.336197, -2.08585, -2.16927, -0.12549, 0.0143072, 0.0377706, 0.0193685, 0.0351845, -0.000543965, 0.00332717
0.0842307, 1.69308, -1.22542, -1.53792, -0.900084, -1.1953, 1.23125, -1.30265, 0.0635411, 0.00392278, 0.000731436, 0.00115022, -0.0928749, 0.0800947, 0.000774942, 5.15327, 57.1143, 27.417, 3.89526, 2.06195, 3.38168, -0.0484509, -0.000240394, -0.000873719, 0.000170693, -0.000830572, -0.00464594, -8.12392e-05, 0.0390457, -0.0240026, -0.00763599, 0.00124487, 0.148292, -0.0025182, 0.471373, -0.542431, 0.336386, -2.08313, -2.16636, -0.129163, 0.470503, -0.542678, 0.336207, -2.08588, -2.16939, -0.125378, 0.014677, 0.0387614, 0.0198738, 0.0397859, 0.0023834, 0.00554933
0.0852307, 1.69314, -1.22542, -1.53793, -0.900086, -1.1954, 1.23133, -1.30265, 0.0668289, -0.000825425, -0.00387003, -0.00153396, -0.0950806, 0.078492, 0.00126274, 5.26832, 57.261, 27.6035, 3.85956, 2.1178, 3.39633, -0.0685925, -0.000283016, -0.000851989, 0.00019016, -0.000848134, -0.00475264, -8.11334e-05, 0.039522, -0.0247898, -0.0131057, -0.00779299, 0.145905, -0.00109859, 0.471388, -0.542392, 0.336407, -2.0831, -2.16638, -0.129134, 0.470541, -0.542677, 0.336201, -2.08591, -2.16948, -0.12526, 0.0150503, 0.0397623, 0.0203841, 0.0407631, 0.00378777, 0.000560596
0.0862307, 1.69321, -1.22541, -1.53793, -0.900087, -1.1955, 1.2314, -1.30265, 0.0666737, 0.00204297, 0.00151401, -0.000378627, -0.0961824, 0.0774606, 0.000604564, 5.38337, 57.15, 27.5638, 3.81988, 2.16083, 3.41006, -0.0621838, -0.000321034, -0.000827312, 0.000194142, -0.000880783, -0.0048755, -9.69736e-05, 0.0397078, -0.0246211, -0.00979574, -0.0041027, 0.149391, -0.000275659, 0.471403, -0.542351, 0.336427, -2.08308, -2.1664, -0.129103, 0.470582, -0.542673, 0.336211, -2.08595, -2.1696, -0.125143, 0.0154271, 0.0407732, 0.0208993, 0.0411, 0.00410013, 0.00432056
0.0872307, 1.69329, -1.22542, -1.53793, -0.90009, -1.1956, 1.23148, -1.30265, 0.0752141, -0.00124038, -0.00132326, -0.00279319, -0.0967069, 0.0732678, -0.000105512, 5.38337, 57.261, 27.6749, 3.78418, 2.20386, 3.38901, -0.0484509, -0.000357383, -0.000795768, 0.000211447, -0.000904975, -0.00498579, -0.000122481, 0.0368379, -0.0282884, -0.0142547, -0.0136249, 0.145836, 0.00865812, 0.471419, -0.54231, 0.336448, -2.08304, -2.16642, -0.129072, 0.47063, -0.542664, 0.336209, -2.08596, -2.16972, -0.125029, 0.0158074, 0.041794, 0.0214195, 0.0448756, 0.00879239, 0.000770177
0.0882307, 1.69336, -1.22542, -1.53794, -0.900088, -1.19571, 1.23156, -1.30266, 0.0720652, 0.000680567, -0.00244602, -0.00282899, -0.10224, 0.0732059, -0.00176571, 5.53413, 57.3364, 27.7503, 3.6731, 2.25879, 3.40365, -0.00267457, -0.000399317, -0.000770606, 0.000224243, -0.000934979, -0.00510034, -0.000138425, 0.0404492, -0.0252517, -0.0137346, -0.017045, 0.152946, 0.00396891, 0.471435, -0.542268, 0.33647, -2.08301, -2.16645, -0.129041, 0.470672, -0.54266, 0.33621, -2.08599, -2.16984, -0.124916, 0.016191, 0.0428246, 0.0219445, 0.0423776, 0.00605204, 0.001342
0.0892307, 1.69336, -1.22542, -1.53794, -0.900088, -1.19571, 1.23156, -1.30266, 0.0720652, 0.000680567, -0.00244602, -0.00282899, -0.10224, 0.0732059, -0.00176571, 5.53413, 57.3364, 27.7503, 3.6731, 2.25879, 3.40365, -0.00267457, -0.000444932, -0.000788098, 0.000240137, -0.000957111, -0.00509022, -0.000114296, 0.0415447, -0.0248375, -0.014112, -0.0174823, 0.15366, 0.00310348, 0.471451, -0.542224, 0.336492, -2.08298, -2.16647, -0.129008, 0.470672, -0.54266, 0.33621, -2.08599, -2.16984, -0.124916, 0.016578, 0.0438649, 0.0224743, 0.0423776, 0.00605204, 0.001342
0.0902307, 1.69352, -1.22541, -1.53794, -0.900092, -1.19591, 1.23171, -1.30265, 0.075724, 0.000129026, -0.00208169, -0.00295705, -0.100013, 0.0773976, -0.000942941, 5.68488, 57.3721, 27.79, 3.59772, 2.31372, 3.41739, 0.00373412, -0.000475761, -0.000713897, 0.00024898, -0.000987725, -0.00532747, -0.000176417, 0.0409454, -0.0275955, -0.0145218, -0.0135766, 0.154178, 0.00609192, 0.471468, -0.54218, 0.336515, -2.08295, -2.16649, -0.128975, 0.470764, -0.542641, 0.336217, -2.08603, -2.17007, -0.124682, 0.0169683, 0.0449148, 0.0230089, 0.045486, 0.00787197, 0.00148021
0.0912307, 1.69359, -1.2254, -1.53793, -0.900094, -1.196, 1.23178, -1.30265, 0.0811834, 0.00619505, -0.000375658, -0.00473284, -0.0992097, 0.0766576, -0.000628605, 5.76026, 57.261, 27.7503, 3.55804, 2.33844, 3.41739, 0.00373412, -0.000512576, -0.000685098, 0.000253574, -0.00102282, -0.00544631, -0.000199378, 0.037928, -0.0307806, -0.0113284, -0.0139499, 0.160132, 0.0128368, 0.471485, -0.542135, 0.336538, -2.08291, -2.16652, -0.128941, 0.470811, -0.54263, 0.33623, -2.08605, -2.1702, -0.124569, 0.0173618, 0.0459742, 0.0235482, 0.0490683, 0.0115533, 0.00554244
0.0922307, 1.69368, -1.2254, -1.53794, -0.900092, -1.19611, 1.23185, -1.30265, 0.0850942, 0.00368884, -0.00278581, -0.0021391, -0.0989759, 0.0714997, 0.00178499, 5.83564, 57.2968, 27.8614, 3.48663, 2.37598, 3.42471, -0.0557752, -0.000553937, -0.000657476, 0.000269161, -0.00104503, -0.00555857, -0.000210165, 0.038241, -0.0306781, -0.0143447, -0.0204468, 0.155674, 0.0100917, 0.471503, -0.542088, 0.336562, -2.08288, -2.16654, -0.128906, 0.470857, -0.542621, 0.336231, -2.08607, -2.17031, -0.124446, 0.0177586, 0.047043, 0.0240921, 0.0492639, 0.0127727, 0.00306237
0.0932307, 1.69376, -1.22539, -1.53794, -0.900093, -1.19621, 1.23192, -1.30265, 0.0872687, 0.00494362, -0.00357313, -0.0019168, -0.10614, 0.0726092, 0.000918742, 5.79597, 57.3364, 27.9368, 3.48663, 2.36957, 3.41739, -0.0484509, -0.000591286, -0.00062544, 0.000283009, -0.00106655, -0.00567365, -0.000238716, 0.0400463, -0.0306567, -0.0142507, -0.0240708, 0.164182, 0.00923649, 0.471521, -0.542041, 0.336586, -2.08285, -2.16657, -0.128871, 0.470908, -0.542607, 0.336235, -2.08608, -2.17044, -0.12432, 0.0181585, 0.048121, 0.0246406, 0.0497126, 0.0120538, 0.00342444
0.0942307, 1.69385, -1.22539, -1.53794, -0.90009, -1.19632, 1.23199, -1.30265, 0.0875313, 0.00294191, 0.000828868, 0.000117317, -0.109477, 0.0786253, 0.000137786, 5.79597, 57.3721, 27.9368, 3.41125, 2.41809, 3.40365, -0.0356336, -0.000633528, -0.000596225, 0.000295486, -0.00109265, -0.00579496, -0.000259782, 0.0422282, -0.0314513, -0.0134516, -0.0162382, 0.16818, 0.00864742, 0.471539, -0.541992, 0.336611, -2.08281, -2.16659, -0.128834, 0.470956, -0.542597, 0.33624, -2.08609, -2.17057, -0.124192, 0.0185616, 0.0492083, 0.0251936, 0.0510189, 0.0108983, 0.00440393
0.0952307, 1.69394, -1.22538, -1.53794, -0.900091, -1.19643, 1.23206, -1.30265, 0.084659, 0.00638781, -0.00175464, -0.000197827, -0.110978, 0.0780659, 9.18646e-05, 5.79597, 57.3364, 28.0478, 3.41125, 2.44281, 3.39633, -0.0356336, -0.000675459, -0.000567402, 0.000307515, -0.00110893, -0.00592293, -0.000280573, 0.045012, -0.0286858, -0.0126752, -0.0195551, 0.173431, 0.00343384, 0.471558, -0.541942, 0.336637, -2.08277, -2.16662, -0.128797, 0.471005, -0.542585, 0.336246, -2.08611, -2.1707, -0.124045, 0.0189677, 0.0503046, 0.0257511, 0.0487945, 0.00901217, 0.00538176
0.0962307, 1.69402, -1.22538, -1.53794, -0.900092, -1.19654, 1.23213, -1.30265, 0.0824548, 0.00466398, -0.000951332, -0.000338914, -0.11181, 0.072611, -0.00139681, 5.79597, 57.4832, 28.0478, 3.41125, 2.46112, 3.39633, 0.00373412, -0.000719233, -0.000539491, 0.000323299, -0.00113284, -0.00603732, -0.000306108, 0.0467075, -0.0261241, -0.0141892, -0.0243179, 0.17035, 0.0020887, 0.471577, -0.541891, 0.336663, -2.08274, -2.16665, -0.128759, 0.471053, -0.542574, 0.336249, -2.08611, -2.17082, -0.12392, 0.0193769, 0.05141, 0.0263131, 0.0466527, 0.00856958, 0.00426473
0.0972307, 1.69411, -1.22537, -1.53794, -0.900089, -1.19666, 1.2322, -1.30266, 0.0806213, 0.005288, -0.00139842, 0.000546806, -0.112452, 0.0704057, -0.002118, 5.79597, 57.5546, 28.0875, 3.37158, 2.47394, 3.34598, 0.0357776, -0.000766539, -0.000512687, 0.000337623, -0.00115693, -0.00616217, -0.000324546, 0.0488877, -0.0238895, -0.0143567, -0.0266338, 0.171067, -0.00113256, 0.471597, -0.541839, 0.33669, -2.0827, -2.16667, -0.128721, 0.4711, -0.542566, 0.336253, -2.08613, -2.17095, -0.123783, 0.0197891, 0.0525242, 0.0268794, 0.0449079, 0.00746413, 0.00439676
0.0982307, 1.6942, -1.22537, -1.53793, -0.900097, -1.19678, 1.23227, -1.30265, 0.0854702, 0.00576252, 0.000118606, -0.00244317, -0.116837, 0.0726937, -0.000937279, 5.76026, 57.63, 28.0478, 3.48663, 2.46112, 3.31027, 0.0229602, -0.00080975, -0.000482023, 0.000350592, -0.00117845, -0.00629247, -0.000351212, 0.0477601, -0.0270207, -0.0144023, -0.0279234, 0.177344, 0.00344079, 0.471617, -0.541786, 0.336717, -2.08266, -2.1667, -0.128681, 0.471152, -0.542552, 0.33626, -2.08614, -2.17109, -0.123638, 0.0202043, 0.0536472, 0.02745, 0.0484081, 0.00983918, 0.00500051
0.0992307, 1.69429, -1.22536, -1.53793, -0.900097, -1.19689, 1.23234, -1.30265, 0.0856518, 0.00292783, -0.00242724, -0.00255134, -0.120185, 0.0700388, 0.000595853, 5.64521, 57.7054, 28.1589, 3.52234, 2.44922, 3.26724, -0.00999879, -0.000857627, -0.000453968, 0.000366686, -0.00119758, -0.00642084, -0.000365949, 0.0500243, -0.0254436, -0.0176353, -0.0347937, 0.17691, -0.00103605, 0.471637, -0.541732, 0.336744, -2.08262, -2.16673, -0.128641, 0.471202, -0.542541, 0.336264, -2.08616, -2.17121, -0.12349, 0.0206224, 0.0547789, 0.0280249, 0.0472158, 0.00916632, 0.00208086
0.100231, 1.69437, -1.22535, -1.53793, -0.900099, -1.19702, 1.23241, -1.30265, 0.0846045, 0.00479715, 0.000698399, -0.00260162, -0.118183, 0.0667467, 0.00134667, 5.56983, 57.7411, 28.1986, 3.55804, 2.44922, 3.25992, -0.0356336, -0.000907676, -0.000429998, 0.000379862, -0.00121111, -0.00655573, -0.000377169, 0.0501031, -0.0245532, -0.0160823, -0.0341568, 0.176049, -0.00158159, 0.471658, -0.541677, 0.336773, -2.08258, -2.16676, -0.128599, 0.471248, -0.542533, 0.33627, -2.08619, -2.17134, -0.123327, 0.0210433, 0.0559192, 0.028604, 0.0468089, 0.00995374, 0.00420877
0.101231, 1.69447, -1.22535, -1.53792, -0.900104, -1.19714, 1.23248, -1.30265, 0.0841389, 0.00309428, 0.00254529, -0.00354678, -0.11578, 0.0683423, 0.000423065, 5.3437, 57.7768, 28.1232, 3.63342, 2.41809, 3.26724, -0.0228162, -0.000952446, -0.000398718, 0.000392245, -0.00123434, -0.00668683, -0.000407987, 0.0506996, -0.0249679, -0.0168087, -0.0310271, 0.173903, 0.000496005, 0.471679, -0.54162, 0.336802, -2.08254, -2.16679, -0.128557, 0.471302, -0.542517, 0.336279, -2.08619, -2.17148, -0.123181, 0.0214671, 0.057068, 0.0291872, 0.0476429, 0.0106431, 0.00396953
0.102231, 1.69455, -1.22534, -1.53792, -0.900107, -1.19727, 1.23255, -1.30265, 0.0824473, 0.00502342, 0.000170966, -0.0041646, -0.124583, 0.0706155, -0.000192673, 5.26832, 57.8125, 28.1986, 3.7088, 2.41809, 3.25259, -0.00999879, -0.0010061, -0.000375545, 0.000406206, -0.00125121, -0.00682523, -0.000421146, 0.0547719, -0.0226723, -0.0167139, -0.0355692, 0.185119, -0.00506394, 0.471701, -0.541563, 0.336831, -2.08249, -2.16682, -0.128514, 0.471348, -0.542509, 0.336286, -2.08622, -2.17161, -0.123018, 0.0218936, 0.0582252, 0.0297746, 0.0459314, 0.00766942, 0.00409103
0.103231, 1.69464, -1.22534, -1.53792, -0.900119, -1.1974, 1.23262, -1.30265, 0.0842281, 0.00283225, 0.00347121, -0.00633051, -0.125779, 0.067343, -0.000874434, 5.07789, 57.999, 28.1986, 3.85956, 2.39429, 3.23886, 0.0101428, -0.00105547, -0.000346367, 0.000426021, -0.00126661, -0.00695477, -0.000447845, 0.0539751, -0.0235856, -0.0179333, -0.0380368, 0.183122, -0.000460447, 0.471723, -0.541504, 0.336861, -2.08245, -2.16685, -0.128471, 0.4714, -0.542495, 0.336288, -2.08622, -2.17175, -0.122862, 0.0223229, 0.0593907, 0.030366, 0.0471995, 0.00984762, 0.00357352
0.104231, 1.69473, -1.22533, -1.53791, -0.900127, -1.19754, 1.23269, -1.30265, 0.0816557, 0.00491883, 0.00187736, -0.00600431, -0.127137, 0.0656809, -0.00180366, 4.92713, 58.0347, 28.2343, 3.93494, 2.38147, 3.20956, 0.0431018, -0.00110863, -0.00032064, 0.000438356, -0.00128637, -0.00709971, -0.000469427, 0.0566788, -0.0208298, -0.0176564, -0.0412664, 0.186293, -0.00456942, 0.471746, -0.541444, 0.336892, -2.08241, -2.16688, -0.128426, 0.47145, -0.542484, 0.336297, -2.08624, -2.17189, -0.122694, 0.022755, 0.0605644, 0.0309614, 0.0449906, 0.00819411, 0.00410924
0.105231, 1.69482, -1.22532, -1.5379, -0.900133, -1.19767, 1.23276, -1.30265, 0.0814851, 0.00468636, 0.004837, -0.00568885, -0.1271, 0.0689554, 1.82647e-05, 4.701, 58.1458, 28.2343, 4.00635, 2.35126, 3.18118, 0.0101428, -0.00116224, -0.000292765, 0.000454385, -0.0013126, -0.00723538, -0.000490316, 0.0578219, -0.0213239, -0.0168222, -0.0361285, 0.188225, -0.00635262, 0.471769, -0.541383, 0.336923, -2.08236, -2.16691, -0.128381, 0.471502, -0.542473, 0.336304, -2.08625, -2.17204, -0.122542, 0.0231896, 0.0617462, 0.0315607, 0.0459932, 0.00814074, 0.00534026
0.106231, 1.6949, -1.22531, -1.53789, -0.900144, -1.1978, 1.23283, -1.30265, 0.0808791, 0.0040173, 0.00910078, -0.00649548, -0.133097, 0.0610243, 1.21768e-05, 4.58991, 58.1458, 28.274, 4.1214, 2.34485, 3.18118, 0.0101428, -0.00122032, -0.000271811, 0.000465427, -0.00133444, -0.00738323, -0.000503277, 0.0586403, -0.0193319, -0.0169071, -0.0429072, 0.189137, -0.00717455, 0.471792, -0.54132, 0.336955, -2.08231, -2.16694, -0.128334, 0.471548, -0.542465, 0.336315, -2.08628, -2.17217, -0.122371, 0.0236269, 0.0629361, 0.0321639, 0.0444697, 0.00845196, 0.00579496
0.107231, 1.69499, -1.2253, -1.53788, -0.900154, -1.19794, 1.2329, -1.30265, 0.0821587, 0.00389044, 0.00931021, -0.00693752, -0.133615, 0.0604058, 0.000991462, 4.43916, 58.2568, 28.3097, 4.23248, 2.35675, 3.16653, -0.0164075, -0.00127798, -0.000248542, 0.000480873, -0.00135743, -0.00752272, -0.00051779, 0.0592014, -0.0195461, -0.0175177, -0.0443944, 0.190009, -0.00754481, 0.471816, -0.541257, 0.336987, -2.08227, -2.16698, -0.128287, 0.471597, -0.542455, 0.336323, -2.0863, -2.17231, -0.12221, 0.0240668, 0.0641338, 0.032771, 0.0451231, 0.00919897, 0.00570583
0.108231, 1.69507, -1.2253, -1.53787, -0.90017, -1.19807, 1.23297, -1.30265, 0.0832396, 0.00384144, 0.00947253, -0.00806525, -0.133523, 0.0642772, 0.00113569, 4.2884, 58.3679, 28.3454, 4.37927, 2.36316, 3.15921, -0.0292249, -0.00133516, -0.000224889, 0.000495945, -0.00137742, -0.00766542, -0.000534122, 0.0600006, -0.0206795, -0.0177875, -0.0420284, 0.192741, -0.00648761, 0.47184, -0.541192, 0.337021, -2.08222, -2.16701, -0.128239, 0.471647, -0.542444, 0.336331, -2.08632, -2.17245, -0.12204, 0.0245092, 0.0653394, 0.0333819, 0.0467183, 0.00970528, 0.00589171
0.109231, 1.69516, -1.22528, -1.53785, -0.900181, -1.19821, 1.23304, -1.30265, 0.0857428, 0.00919205, 0.00950178, -0.0103018, -0.138427, 0.067007, -0.00141301, 4.06226, 58.4036, 28.3851, 4.45465, 2.37598, 3.14548, 0.0293689, -0.00139146, -0.000199922, 0.000506736, -0.00140444, -0.00780965, -0.000561917, 0.0602269, -0.0219619, -0.0152505, -0.0433857, 0.204542, -0.0021947, 0.471865, -0.541126, 0.337054, -2.08217, -2.16705, -0.12819, 0.471698, -0.542431, 0.336345, -2.08633, -2.17261, -0.121878, 0.0249541, 0.0665526, 0.0339965, 0.0485483, 0.0103609, 0.00893691
0.110231, 1.69524, -1.22527, -1.53785, -0.900199, -1.19834, 1.2331, -1.30265, 0.0853088, 0.0079867, 0.0102399, -0.0129635, -0.137194, 0.0637699, -0.000467289, 3.90754, 58.5147, 28.5319, 4.56573, 2.39429, 3.15921, 0.0165515, -0.00144903, -0.00017711, 0.000525538, -0.00141606, -0.00794562, -0.000582842, 0.0602915, -0.0215346, -0.0167702, -0.0467603, 0.201736, -0.00144631, 0.47189, -0.541059, 0.337088, -2.08212, -2.16708, -0.12814, 0.471747, -0.542416, 0.336351, -2.08633, -2.17275, -0.121705, 0.0254015, 0.0677736, 0.0346148, 0.0485164, 0.0117336, 0.00805803
0.111231, 1.69532, -1.22526, -1.53783, -0.900222, -1.19847, 1.23317, -1.30265, 0.0854666, 0.0102424, 0.0103394, -0.0157159, -0.136175, 0.0663734, 0.000671818, 3.75678, 58.6258, 28.5715, 4.71649, 2.41809, 3.16653, -0.00999879, -0.00150591, -0.000154131, 0.000538295, -0.00144122, -0.00808383, -0.000606587, 0.0605208, -0.0223238, -0.016004, -0.0455535, 0.205511, -0.000652131, 0.471916, -0.54099, 0.337123, -2.08207, -2.16712, -0.128089, 0.471798, -0.542401, 0.336364, -2.08634, -2.1729, -0.121544, 0.0258513, 0.069002, 0.0352367, 0.049793, 0.0126522, 0.00937674
0.112231, 1.6954, -1.22525, -1.53781, -0.900237, -1.1986, 1.23323, -1.30265, 0.0838185, 0.00897944, 0.0129106, -0.0172181, -0.135867, 0.0634388, -0.00124754, 3.6814, 58.7329, 28.6429, 4.71649, 2.44281, 3.18118, 0.0357776, -0.00156795, -0.000135923, 0.000551083, -0.00146655, -0.0082207, -0.000627028, 0.0613237, -0.0212229, -0.0166606, -0.0467812, 0.203303, 0.00130363, 0.471942, -0.540921, 0.337159, -2.08202, -2.16715, -0.128038, 0.471844, -0.54239, 0.336377, -2.08635, -2.17304, -0.121384, 0.0263034, 0.0702379, 0.0358623, 0.0491528, 0.01315, 0.00926421
0.113231, 1.69549, -1.22523, -1.5378, -0.900262, -1.19873, 1.23329, -1.30265, 0.0885124, 0.00948045, 0.0106298, -0.020513, -0.135105, 0.0658677, 0.0003551, 3.49494, 58.7726, 28.754, 4.79187, 2.44922, 3.19583, 0.00373412, -0.0016225, -0.00011003, 0.000562569, -0.00148621, -0.00836379, -0.000658082, 0.060083, -0.0242311, -0.0181032, -0.0490203, 0.20581, 0.00538834, 0.471968, -0.54085, 0.337195, -2.08197, -2.16719, -0.127985, 0.471898, -0.54237, 0.336392, -2.08635, -2.1732, -0.121211, 0.0267579, 0.0714811, 0.0364913, 0.0525131, 0.0159676, 0.00856703
0.114231, 1.69557, -1.22522, -1.53777, -0.900286, -1.19886, 1.23335, -1.30265, 0.0900194, 0.011422, 0.016956, -0.0220675, -0.135271, 0.0645144, 0.000236733, 3.34419, 58.8837, 28.7937, 4.82758, 2.47394, 3.17386, 0.00373412, -0.00167922, -8.45659e-05, 0.000575599, -0.00151735, -0.00849796, -0.000691913, 0.058644, -0.0257421, -0.015576, -0.0460263, 0.207823, 0.0102823, 0.471995, -0.540778, 0.337232, -2.08192, -2.16723, -0.127932, 0.471952, -0.542351, 0.336407, -2.08635, -2.17336, -0.121059, 0.0272147, 0.0727316, 0.0371239, 0.0545214, 0.0183164, 0.0118706
0.115231, 1.69565, -1.22521, -1.53776, -0.900305, -1.19899, 1.23341, -1.30264, 0.0876183, 0.0144292, 0.0168533, -0.0216025, -0.135037, 0.0675817, 0.00114117, 3.26881, 59.0662, 28.9048, 4.79187, 2.49866, 3.16653, -0.0228162, -0.00174125, -6.53333e-05, 0.000591365, -0.00153852, -0.00862993, -0.000711091, 0.061174, -0.0243082, -0.0138271, -0.0429979, 0.212887, 0.00557003, 0.472023, -0.540705, 0.337269, -2.08186, -2.16726, -0.127878, 0.472, -0.542336, 0.336418, -2.08635, -2.1735, -0.120896, 0.0276737, 0.0739892, 0.0377598, 0.05371, 0.0167481, 0.0138873
0.116231, 1.69574, -1.22519, -1.53774, -0.900334, -1.19911, 1.23347, -1.30265, 0.0834105, 0.0159857, 0.0199224, -0.0254111, -0.130245, 0.0660494, 0.000523419, 3.15376, 59.1415, 29.0159, 4.79187, 2.51697, 3.13083, -0.0164075, -0.00179687, -3.95161e-05, 0.000602866, -0.00156561, -0.00876607, -0.000750471, 0.0613449, -0.0230706, -0.0127252, -0.0409505, 0.210615, 0.00738521, 0.472051, -0.54063, 0.337307, -2.08181, -2.1673, -0.127822, 0.472056, -0.542313, 0.336436, -2.08634, -2.17367, -0.120737, 0.028135, 0.0752539, 0.0383992, 0.0529851, 0.0176233, 0.0156272
0.117231, 1.69582, -1.22517, -1.53772, -0.900367, -1.19923, 1.23352, -1.30264, 0.0842995, 0.0190604, 0.0222562, -0.0251614, -0.126968, 0.0586626, 0.000586305, 3.15376, 59.2883, 29.1269, 4.79187, 2.54718, 3.13815, -0.0228162, -0.00185601, -1.90506e-05, 0.000616917, -0.00158386, -0.00889984, -0.00078316, 0.0601623, -0.0223842, -0.0112154, -0.0440604, 0.20805, 0.00908696, 0.472079, -0.540554, 0.337346, -2.08175, -2.16734, -0.127766, 0.472106, -0.542293, 0.336451, -2.08632, -2.17383, -0.120568, 0.0285984, 0.0765256, 0.0390419, 0.0527775, 0.0198027, 0.0179653
0.118231, 1.69591, -1.22516, -1.5377, -0.900397, -1.19936, 1.23357, -1.30265, 0.0882172, 0.0160701, 0.0199591, -0.0241619, -0.124609, 0.0577615, 0.00383772, 3.11805, 59.5065, 29.2777, 4.75616, 2.59021, 3.14548, 0.0101428, -0.00191534, 2.76926e-06, 0.000637091, -0.00159522, -0.00902481, -0.000821747, 0.0602583, -0.0236142, -0.0143964, -0.0466225, 0.203737, 0.00754014, 0.472108, -0.540477, 0.337386, -2.0817, -2.16738, -0.127709, 0.472158, -0.54227, 0.33646, -2.0863, -2.17399, -0.120401, 0.0290639, 0.0778042, 0.0396878, 0.0543575, 0.0215272, 0.0154169
0.119231, 1.69599, -1.22514, -1.53767, -0.900432, -1.19948, 1.23362, -1.30265, 0.0859795, 0.0207465, 0.0201532, -0.0257202, -0.121418, 0.0525547, 0.00199801, 3.19343, 59.5819, 29.3531, 4.68079, 2.58472, 3.1528, 0.0357776, -0.00197207, 2.33363e-05, 0.000647656, -0.00161518, -0.00915369, -0.000864546, 0.0604824, -0.0215554, -0.0126008, -0.0500106, 0.204135, 0.00855656, 0.472137, -0.540398, 0.337426, -2.08164, -2.16742, -0.127651, 0.47221, -0.542245, 0.33648, -2.08627, -2.17415, -0.120238, 0.0295316, 0.0790895, 0.040337, 0.0528472, 0.0222289, 0.0178693
0.120231, 1.69607, -1.22512, -1.53765, -0.900471, -1.1996, 1.23366, -1.30264, 0.0861345, 0.0186299, 0.0214945, -0.0311082, -0.120576, 0.0534177, 0.00281052, 3.19343, 59.7644, 29.4999, 4.64111, 2.62134, 3.15921, 0.00373412, -0.00202911, 4.584e-05, 0.000665487, -0.00162499, -0.00927914, -0.000901739, 0.0600086, -0.0228738, -0.0145107, -0.0509443, 0.203032, 0.0125473, 0.472167, -0.540319, 0.337466, -2.08158, -2.16746, -0.127592, 0.472264, -0.542218, 0.336494, -2.08624, -2.17431, -0.120067, 0.0300013, 0.0803815, 0.0409894, 0.0545459, 0.0243384, 0.0166678
0.121231, 1.69616, -1.2251, -1.53763, -0.900506, -1.19972, 1.2337, -1.30265, 0.0864673, 0.01781, 0.0204376, -0.0335134, -0.119253, 0.0486171, 0.00232983, 3.22913, 59.9152, 29.611, 4.53003, 2.63965, 3.18118, -0.00267457, -0.00208676, 6.58976e-05, 0.000680366, -0.00163714, -0.0094012, -0.000944641, 0.060048, -0.0221939, -0.0166125, -0.0571964, 0.199932, 0.0143559, 0.472197, -0.540238, 0.337508, -2.08152, -2.1675, -0.127533, 0.472316, -0.542191, 0.336511, -2.0862, -2.17447, -0.119901, 0.030473, 0.0816802, 0.0416449, 0.0542629, 0.0258916, 0.0152633
0.122231, 1.69624, -1.22508, -1.5376, -0.90055, -1.19984, 1.23374, -1.30265, 0.0852949, 0.018773, 0.0237006, -0.0363141, -0.118867, 0.0462017, 0.00198858, 3.26881, 59.9866, 29.6863, 4.45465, 2.67627, 3.17386, -0.00999879, -0.00214218, 8.87555e-05, 0.000691208, -0.00165071, -0.00953423, -0.000994464, 0.0600049, -0.0218082, -0.0158961, -0.0578353, 0.20026, 0.0166087, 0.472228, -0.540155, 0.33755, -2.08146, -2.16755, -0.127472, 0.472371, -0.542161, 0.336533, -2.08617, -2.17465, -0.119725, 0.0309467, 0.0829853, 0.0423035, 0.0543789, 0.0271139, 0.0166484
0.123231, 1.69632, -1.22505, -1.53758, -0.900588, -1.19996, 1.23378, -1.30264, 0.0834786, 0.0215436, 0.0203626, -0.0367726, -0.121794, 0.0446327, 0.00168615, 3.37989, 60.0977, 29.8728, 4.30786, 2.67627, 3.15921, -0.0164075, -0.00220394, 0.000105775, 0.000707864, -0.0016587, -0.00965815, -0.00102778, 0.062903, -0.0191249, -0.0160201, -0.0637051, 0.20574, 0.0118391, 0.472259, -0.540072, 0.337592, -2.0814, -2.16759, -0.12741, 0.472421, -0.542135, 0.336549, -2.08614, -2.1748, -0.11955, 0.0314223, 0.0842969, 0.0429652, 0.0522814, 0.0254685, 0.0168247
0.124231, 1.69641, -1.22503, -1.53755, -0.90064, -1.20008, 1.23381, -1.30265, 0.0850141, 0.0207742, 0.023586, -0.040575, -0.120513, 0.0433507, -4.30018e-06, 3.37989, 60.2087, 29.9482, 4.30786, 2.7074, 3.14548, 0.0165515, -0.00225793, 0.00013029, 0.000725126, -0.00166623, -0.00977938, -0.00109298, 0.0614811, -0.0208142, -0.0165221, -0.0640139, 0.204353, 0.0193014, 0.472291, -0.539987, 0.337635, -2.08134, -2.16763, -0.127348, 0.472478, -0.542099, 0.336566, -2.08607, -2.17498, -0.119379, 0.0318998, 0.0856148, 0.0436298, 0.0543755, 0.0283404, 0.0171603
0.125231, 1.6965, -1.22501, -1.53753, -0.900683, -1.2002, 1.23384, -1.30264, 0.0860385, 0.0232849, 0.0242742, -0.0397958, -0.120211, 0.0378163, 0.00128706, 3.37989, 60.3198, 30.095, 4.1571, 2.75043, 3.13083, -0.0164075, -0.00231712, 0.000150782, 0.000742637, -0.00166868, -0.00990478, -0.00113436, 0.0616282, -0.0197917, -0.0157108, -0.0681627, 0.204679, 0.0176404, 0.472323, -0.5399, 0.337679, -2.08127, -2.16768, -0.127284, 0.472533, -0.542068, 0.336583, -2.08603, -2.17514, -0.119195, 0.0323792, 0.0869389, 0.0442973, 0.0538722, 0.0293518, 0.0186389
0.126231, 1.69658, -1.22498, -1.5375, -0.900739, -1.20032, 1.23387, -1.30264, 0.0845884, 0.0234788, 0.0265621, -0.042196, -0.123468, 0.0329371, 0.00114732, 3.45527, 60.3555, 30.1703, 4.1214, 2.76233, 3.13083, -0.0228162, -0.00237293, 0.000171221, 0.000758748, -0.00166815, -0.010027, -0.00119337, 0.0625996, -0.0181349, -0.0159459, -0.073331, 0.206049, 0.0173697, 0.472355, -0.539813, 0.337724, -2.08121, -2.16772, -0.127219, 0.472587, -0.542032, 0.336603, -2.08596, -2.17532, -0.119012, 0.0328604, 0.0882692, 0.0449678, 0.0527289, 0.0296882, 0.0189798
0.127231, 1.69667, -1.22496, -1.53748, -0.900791, -1.20044, 1.2339, -1.30264, 0.0824434, 0.0217591, 0.0232031, -0.04591, -0.122276, 0.0301482, -0.000416882, 3.45527, 60.4666, 30.3211, 4.04602, 2.80536, 3.10977, 0.0101428, -0.00243278, 0.000189973, 0.000778909, -0.00166412, -0.0101483, -0.00124599, 0.0641958, -0.016311, -0.0192809, -0.0802508, 0.203375, 0.0178152, 0.472389, -0.539724, 0.337769, -2.08114, -2.16777, -0.127154, 0.472641, -0.541998, 0.336619, -2.0859, -2.17549, -0.118824, 0.0333434, 0.0896055, 0.045641, 0.0513268, 0.0298807, 0.0161716
0.128231, 1.69675, -1.22494, -1.53745, -0.900848, -1.20056, 1.23392, -1.30264, 0.0819917, 0.0208308, 0.0276377, -0.0496813, -0.124994, 0.0276061, 0.00120935, 3.53065, 60.5777, 30.3211, 4.00635, 2.83008, 3.10245, -0.0292249, -0.00249227, 0.000207558, 0.000797488, -0.00166374, -0.0102656, -0.00129577, 0.0641193, -0.0164039, -0.0194529, -0.0821405, 0.204356, 0.0191938, 0.472422, -0.539634, 0.337815, -2.08108, -2.16781, -0.127088, 0.472693, -0.541963, 0.336636, -2.08584, -2.17566, -0.118643, 0.0338281, 0.0909478, 0.0463171, 0.0518971, 0.0313293, 0.0166872
0.129231, 1.69684, -1.22491, -1.53742, -0.900909, -1.20068, 1.23394, -1.30264, 0.0837009, 0.0216357, 0.0274245, -0.0500811, -0.121452, 0.0254188, -0.000867287, 3.53065, 60.6134, 30.3211, 4.00635, 2.83649, 3.10245, 0.0165515, -0.00254762, 0.000227939, 0.00081581, -0.00165881, -0.0103792, -0.00136475, 0.0636905, -0.0168721, -0.0198804, -0.0834929, 0.202184, 0.0232872, 0.472456, -0.539542, 0.337862, -2.08101, -2.16786, -0.12702, 0.472749, -0.541923, 0.336656, -2.08576, -2.17584, -0.118462, 0.0343145, 0.092296, 0.0469959, 0.0528208, 0.0331869, 0.0169957
0.130231, 1.69692, -1.22489, -1.53739, -0.900975, -1.20079, 1.23395, -1.30264, 0.0786331, 0.0220538, 0.0262931, -0.0584802, -0.119301, 0.0237044, 0.00065894, 3.53065, 60.7959, 30.3568, 4.08173, 2.83649, 3.10245, -0.0164075, -0.00260572, 0.000247636, 0.000840399, -0.0016504, -0.0104888, -0.00142542, 0.0644656, -0.0151053, -0.0215753, -0.0886573, 0.201574, 0.0232019, 0.472491, -0.539449, 0.337909, -2.08094, -2.16791, -0.126952, 0.472805, -0.541882, 0.336669, -2.08568, -2.17601, -0.118279, 0.0348026, 0.09365, 0.0476774, 0.0515118, 0.0339587, 0.0159405
0.131231, 1.697, -1.22487, -1.53736, -0.901034, -1.2009, 1.23397, -1.30264, 0.0781894, 0.0234552, 0.0263415, -0.0609059, -0.117125, 0.0185518, 0.00116369, 3.53065, 60.7959, 30.3568, 4.00635, 2.83008, 3.08047, -0.0356336, -0.00266446, 0.000264506, 0.000859464, -0.00164415, -0.0105988, -0.0014831, 0.0642608, -0.0141536, -0.0219944, -0.0935647, 0.199756, 0.0240018, 0.472526, -0.539355, 0.337957, -2.08087, -2.16796, -0.126882, 0.472858, -0.541842, 0.336689, -2.0856, -2.17618, -0.118097, 0.0352924, 0.0950097, 0.0483616, 0.0510298, 0.0355437, 0.0162733
0.132231, 1.69708, -1.22485, -1.53733, -0.901106, -1.20102, 1.23398, -1.30264, 0.0752932, 0.0210503, 0.0301861, -0.0632479, -0.115828, 0.0132766, -0.000673027, 3.53065, 60.9427, 30.3211, 4.08173, 2.82367, 3.09512, 0.00373412, -0.00272246, 0.000282737, 0.000884692, -0.00163464, -0.0107009, -0.00155306, 0.064913, -0.0124203, -0.0231814, -0.0955958, 0.194476, 0.0262297, 0.472561, -0.539259, 0.338006, -2.0808, -2.168, -0.126812, 0.472914, -0.541799, 0.336703, -2.0855, -2.17636, -0.11792, 0.0357837, 0.096375, 0.0490484, 0.049772, 0.0363715, 0.0157431
0.133231, 1.69716, -1.22482, -1.53731, -0.901173, -1.20113, 1.23398, -1.30264, 0.0753059, 0.0196202, 0.0263247, -0.0631128, -0.114088, 0.00993954, 6.68719e-05, 3.53065, 60.9427, 30.4322, 4.08173, 2.79346, 3.09512, -0.00999879, -0.00278351, 0.000296944, 0.000908472, -0.00161977, -0.0108053, -0.00161043, 0.0666406, -0.0107999, -0.0261661, -0.101659, 0.191142, 0.0230383, 0.472597, -0.539162, 0.338055, -2.08073, -2.16805, -0.126741, 0.472965, -0.541758, 0.336719, -2.08541, -2.17652, -0.117732, 0.0362765, 0.0977458, 0.0497377, 0.048601, 0.0364224, 0.0132708
0.134231, 1.69725, -1.2248, -1.53727, -0.901245, -1.20124, 1.23399, -1.30264, 0.0759376, 0.0237351, 0.0293871, -0.063886, -0.114805, 0.00825651, -0.000933565, 3.49494, 60.9824, 30.4322, 4.1214, 2.81177, 3.07315, 0.0165515, -0.00284395, 0.000313771, 0.000933981, -0.0016063, -0.0109105, -0.00168025, 0.066504, -0.0108595, -0.0234343, -0.101413, 0.195809, 0.0253831, 0.472634, -0.539064, 0.338106, -2.08066, -2.1681, -0.126669, 0.47302, -0.541715, 0.336734, -2.08531, -2.1767, -0.117545, 0.0367709, 0.0991221, 0.0504295, 0.0492564, 0.0375186, 0.0166803
0.135231, 1.69733, -1.22477, -1.53724, -0.901317, -1.20135, 1.234, -1.30264, 0.0766065, 0.024073, 0.0316217, -0.0674699, -0.114521, 0.00635397, -0.00014376, 3.45527, 60.8713, 30.4322, 4.1571, 2.81177, 3.06674, 0.00373412, -0.00290512, 0.000327853, 0.000953009, -0.00159515, -0.0110223, -0.00174316, 0.0658342, -0.0115695, -0.023635, -0.103263, 0.196095, 0.0284441, 0.472671, -0.538964, 0.338156, -2.08059, -2.16815, -0.126595, 0.473073, -0.541672, 0.336757, -2.08522, -2.17688, -0.117352, 0.0372668, 0.100504, 0.0511238, 0.0504304, 0.0396232, 0.0172579
0.136231, 1.6974, -1.22474, -1.5372, -0.901392, -1.20146, 1.234, -1.30263, 0.0770565, 0.0235034, 0.0358065, -0.0724425, -0.113662, 0.00445782, 0.000890428, 3.41956, 60.907, 30.3211, 4.1571, 2.80536, 3.07315, -0.0228162, -0.00296467, 0.000343581, 0.000974811, -0.00158991, -0.0111198, -0.00181229, 0.0644199, -0.0128902, -0.023861, -0.10383, 0.195002, 0.0333982, 0.472708, -0.538862, 0.338208, -2.08052, -2.16821, -0.126521, 0.473128, -0.541626, 0.336777, -2.08512, -2.17706, -0.11718, 0.0377641, 0.101891, 0.0518204, 0.052186, 0.0424988, 0.0179081
0.137231, 1.69748, -1.22472, -1.53717, -0.901473, -1.20157, 1.234, -1.30264, 0.0792094, 0.026546, 0.0334355, -0.077673, -0.10924, 0.0038249, 0.000121093, 3.30451, 60.9427, 30.4322, 4.23248, 2.81177, 3.05942, -0.00999879, -0.00302509, 0.000358501, 0.00100203, -0.00156887, -0.0112182, -0.00188651, 0.0626238, -0.0146374, -0.0243057, -0.107466, 0.195725, 0.0400618, 0.472746, -0.53876, 0.33826, -2.08044, -2.16826, -0.126446, 0.473182, -0.541578, 0.336792, -2.08501, -2.17724, -0.116989, 0.0382628, 0.103283, 0.0525195, 0.0543458, 0.0458087, 0.0183896
0.138231, 1.69757, -1.2247, -1.53713, -0.901554, -1.20168, 1.234, -1.30263, 0.0798613, 0.025569, 0.0346343, -0.0809073, -0.111006, 0.00335077, 0.00103181, 3.22913, 60.9824, 30.4322, 4.26819, 2.83008, 3.04477, -0.0356336, -0.00308655, 0.000374933, 0.00102725, -0.00155861, -0.0113194, -0.00195864, 0.0629765, -0.0151289, -0.025472, -0.109879, 0.197136, 0.0415211, 0.472785, -0.538656, 0.338313, -2.08036, -2.16831, -0.12637, 0.473238, -0.54153, 0.33681, -2.0849, -2.17742, -0.116806, 0.0387628, 0.10468, 0.0532208, 0.0553076, 0.0470577, 0.0178696
0.139231, 1.69764, -1.22467, -1.53709, -0.901645, -1.20179, 1.234, -1.30263, 0.0793291, 0.0257249, 0.0377864, -0.0841672, -0.112784, 0.00242757, 0.000214389, 3.19343, 60.9824, 30.4679, 4.34357, 2.86029, 3.04477, -0.0228162, -0.00314515, 0.000391628, 0.00105084, -0.00154347, -0.0114213, -0.00204025, 0.0632942, -0.0151949, -0.0252621, -0.110727, 0.199305, 0.0444614, 0.472824, -0.538551, 0.338366, -2.08029, -2.16836, -0.126293, 0.473295, -0.541478, 0.336831, -2.08478, -2.17761, -0.116617, 0.0392642, 0.106082, 0.0539245, 0.0558973, 0.0481172, 0.0187301
0.140231, 1.69772, -1.22464, -1.53704, -0.901731, -1.20189, 1.234, -1.30264, 0.0780853, 0.0285554, 0.0378208, -0.0847624, -0.113239, 0.00176367, -0.00155157, 3.19343, 61.0181, 30.4679, 4.34357, 2.87311, 3.04477, 0.0229602, -0.00320665, 0.000406041, 0.00107417, -0.00153966, -0.0115134, -0.00212262, 0.0648883, -0.0138605, -0.0241601, -0.111885, 0.203127, 0.0442115, 0.472864, -0.538444, 0.338421, -2.08021, -2.16842, -0.126215, 0.473351, -0.541428, 0.336852, -2.08466, -2.17781, -0.11645, 0.0397669, 0.107489, 0.0546303, 0.0551738, 0.0477237, 0.0203221
0.141231, 1.6978, -1.22461, -1.537, -0.901819, -1.20199, 1.234, -1.30263, 0.0745572, 0.026131, 0.0391418, -0.0876846, -0.108437, 0.00155602, -0.000796327, 3.15376, 61.0934, 30.5433, 4.30786, 2.87952, 3.03744, 0.0165515, -0.00326717, 0.000422734, 0.00109847, -0.00153516, -0.0116055, -0.00220455, 0.0660543, -0.0127646, -0.0258725, -0.110272, 0.197681, 0.0436906, 0.472904, -0.538336, 0.338476, -2.08013, -2.16847, -0.126136, 0.473409, -0.541375, 0.336874, -2.08454, -2.178, -0.116281, 0.0402709, 0.108901, 0.0553384, 0.0545648, 0.0481978, 0.0191953
0.142231, 1.69787, -1.22458, -1.53695, -0.901915, -1.20209, 1.234, -1.30263, 0.0737552, 0.0260739, 0.0428264, -0.0906774, -0.105064, 0.000847806, 0.00045298, 3.19343, 61.0934, 30.5036, 4.30786, 2.88501, 3.04477, -0.00999879, -0.00332619, 0.000438752, 0.00111755, -0.00153927, -0.0116977, -0.00228731, 0.065497, -0.0133276, -0.025545, -0.10792, 0.195457, 0.046033, 0.472944, -0.538226, 0.338531, -2.08005, -2.16853, -0.126055, 0.473467, -0.54132, 0.336901, -2.08442, -2.1782, -0.11612, 0.040776, 0.110318, 0.0560486, 0.0556257, 0.0501397, 0.0202975
0.143231, 1.69794, -1.22456, -1.5369, -0.902021, -1.20218, 1.234, -1.30263, 0.0771829, 0.02506, 0.0453195, -0.0941802, -0.104548, 0.0006265, 0.000777095, 3.19343, 61.2759, 30.6186, 4.37927, 2.94635, 3.04477, -0.0228162, -0.00338519, 0.000457483, 0.00114774, -0.0015314, -0.011782, -0.00238116, 0.0638604, -0.015957, -0.0264431, -0.108469, 0.195125, 0.0524251, 0.472985, -0.538115, 0.338588, -2.07997, -2.16858, -0.125974, 0.473528, -0.541262, 0.336918, -2.08428, -2.1784, -0.115954, 0.0412824, 0.111739, 0.0567608, 0.0586619, 0.0534302, 0.0202908
0.144231, 1.69801, -1.22453, -1.53685, -0.902127, -1.20227, 1.234, -1.30262, 0.0718273, 0.0246951, 0.0483103, -0.0998041, -0.0921012, 0.000734906, 0.000755715, 3.26881, 61.3116, 30.6901, 4.41894, 2.94086, 3.03744, -0.0292249, -0.00344444, 0.000474653, 0.00116795, -0.0015388, -0.0118734, -0.00247577, 0.0630227, -0.0156016, -0.0266229, -0.102407, 0.185699, 0.0565501, 0.473027, -0.538002, 0.338645, -2.07989, -2.16864, -0.125892, 0.473589, -0.541204, 0.336945, -2.08414, -2.17861, -0.115797, 0.0417899, 0.113165, 0.0574751, 0.0587774, 0.0556953, 0.0209687
0.145231, 1.69808, -1.2245, -1.5368, -0.902229, -1.20235, 1.234, -1.30263, 0.0716715, 0.0297301, 0.0495841, -0.10108, -0.0889669, 0.000795683, -0.000479315, 3.30451, 61.387, 30.8051, 4.34357, 2.97107, 3.03012, -0.00267457, -0.00350546, 0.000490572, 0.00119096, -0.0015439, -0.0119577, -0.00257162, 0.0628437, -0.015729, -0.0238842, -0.100481, 0.189156, 0.0591797, 0.473069, -0.537889, 0.338703, -2.07981, -2.1687, -0.125809, 0.473648, -0.541146, 0.336971, -2.084, -2.17882, -0.115644, 0.0422985, 0.114595, 0.0581914, 0.0595151, 0.0568905, 0.0244136
0.146231, 1.69816, -1.22446, -1.53674, -0.902346, -1.20243, 1.234, -1.30262, 0.0686038, 0.0307256, 0.0523979, -0.108041, -0.0857434, 0.000793674, 0.000663966, 3.34419, 61.4584, 30.8408, 4.37927, 2.98389, 3.02371, -0.0292249, -0.00356094, 0.000511157, 0.00121294, -0.00155262, -0.0120401, -0.0026791, 0.062317, -0.0158417, -0.0236212, -0.0997948, 0.188811, 0.0623805, 0.473111, -0.537773, 0.338761, -2.07972, -2.16875, -0.125725, 0.473713, -0.541081, 0.336998, -2.08385, -2.17904, -0.115497, 0.0428082, 0.11603, 0.0589097, 0.0601295, 0.0588106, 0.0254697
0.147231, 1.69822, -1.22443, -1.53669, -0.90246, -1.20251, 1.234, -1.30262, 0.0672279, 0.0337771, 0.056089, -0.110432, -0.0828335, 3.98837e-05, 0.000205408, 3.34419, 61.5695, 30.9519, 4.30786, 2.98938, 3.03744, -0.0228162, -0.003619, 0.000529444, 0.00123533, -0.00156275, -0.0121191, -0.00278266, 0.0620039, -0.0158166, -0.0213593, -0.0970741, 0.189983, 0.0651124, 0.473154, -0.537657, 0.338821, -2.07964, -2.16881, -0.12564, 0.473776, -0.541018, 0.337026, -2.0837, -2.17926, -0.115354, 0.0433189, 0.117469, 0.0596298, 0.0606936, 0.0602131, 0.0284732
0.148231, 1.69828, -1.2244, -1.53662, -0.902583, -1.20259, 1.234, -1.30263, 0.0659171, 0.0328346, 0.0566052, -0.116689, -0.0810946, 4.11348e-05, -0.00155839, 3.49494, 61.6806, 31.0273, 4.30786, 2.99579, 3.03744, 0.0229602, -0.00367943, 0.000544144, 0.00125598, -0.00157977, -0.0121967, -0.00289186, 0.0618724, -0.0162256, -0.0230452, -0.099202, 0.189078, 0.0707797, 0.473198, -0.537538, 0.338881, -2.07955, -2.16887, -0.125554, 0.473836, -0.540955, 0.337056, -2.08355, -2.17949, -0.115219, 0.0438306, 0.118913, 0.0603519, 0.0615455, 0.0620622, 0.0275379
0.149231, 1.69835, -1.22436, -1.53656, -0.90271, -1.20266, 1.234, -1.30263, 0.065223, 0.031083, 0.0553421, -0.118, -0.0803377, -0.00077547, -0.000801498, 3.49494, 61.8274, 31.1741, 4.26819, 3.02051, 3.05942, 0.0165515, -0.0037355, 0.000564217, 0.00128001, -0.0015895, -0.0122718, -0.00300848, 0.0635025, -0.0153151, -0.0252606, -0.101874, 0.187455, 0.0690283, 0.473242, -0.537419, 0.338941, -2.07946, -2.16893, -0.125467, 0.473901, -0.540886, 0.337084, -2.08338, -2.17972, -0.115079, 0.0443433, 0.12036, 0.0610757, 0.0611288, 0.0621979, 0.0258533
0.150231, 1.6984, -1.22433, -1.53649, -0.902838, -1.20273, 1.234, -1.30262, 0.0591627, 0.0342656, 0.0568628, -0.118243, -0.0748702, -0.000508798, -0.000771639, 3.60603, 61.9385, 31.2137, 4.19281, 3.03882, 3.05942, 0.0229602, -0.00379484, 0.000579995, 0.00129738, -0.00161734, -0.0123456, -0.00311833, 0.0659733, -0.0122661, -0.0230754, -0.0972701, 0.186968, 0.064572, 0.473287, -0.537298, 0.339003, -2.07938, -2.16899, -0.125378, 0.473963, -0.540821, 0.337118, -2.08322, -2.17995, -0.114958, 0.044857, 0.121812, 0.0618013, 0.0587829, 0.0607412, 0.0284569
0.151231, 1.69846, -1.22429, -1.53642, -0.902972, -1.20279, 1.23399, -1.30262, 0.0564432, 0.0390813, 0.0594523, -0.125812, -0.0708458, -0.000841688, 0.000943675, 3.6457, 62.0853, 31.3248, 4.1571, 3.05713, 3.07315, -0.0164075, -0.00385129, 0.000597895, 0.00131723, -0.00163962, -0.0124135, -0.00323401, 0.0646178, -0.012615, -0.0207842, -0.0967129, 0.189703, 0.0681531, 0.473332, -0.537175, 0.339065, -2.07929, -2.16905, -0.125289, 0.474028, -0.54075, 0.337152, -2.08306, -2.18018, -0.114837, 0.0453715, 0.123267, 0.0625286, 0.0596854, 0.0632017, 0.031645
0.152231, 1.69851, -1.22425, -1.53635, -0.903104, -1.20285, 1.23399, -1.30262, 0.0535152, 0.0351812, 0.059714, -0.125668, -0.0630656, -0.00109906, 0.000866505, 3.72108, 62.2717, 31.5113, 4.00635, 3.07544, 3.0878, -0.0228162, -0.00391359, 0.000610846, 0.00133751, -0.00166345, -0.0124835, -0.00334414, 0.0662437, -0.011318, -0.0233776, -0.0934849, 0.180153, 0.0668619, 0.473377, -0.537051, 0.339128, -2.0792, -2.16911, -0.125199, 0.474088, -0.540684, 0.337185, -2.0829, -2.18041, -0.114714, 0.0458869, 0.124727, 0.0632577, 0.0588708, 0.0633933, 0.0296061
0.153231, 1.69856, -1.22421, -1.53627, -0.903244, -1.20291, 1.23399, -1.30261, 0.0487728, 0.0350943, 0.0635716, -0.129905, -0.0575671, -0.000729253, 0.00537885, 3.75678, 62.3431, 31.547, 3.89526, 3.10016, 3.0878, -0.0228162, -0.0039707, 0.000627978, 0.00135016, -0.00170317, -0.0125542, -0.00346598, 0.0667754, -0.0103933, -0.0229013, -0.0890585, 0.176692, 0.0639145, 0.473423, -0.536926, 0.339191, -2.07911, -2.16918, -0.125108, 0.474154, -0.540612, 0.337226, -2.08273, -2.18066, -0.114608, 0.0464031, 0.12619, 0.0639883, 0.0585064, 0.0642177, 0.0307567
0.154231, 1.69861, -1.22418, -1.5362, -0.903397, -1.20296, 1.23399, -1.30261, 0.042718, 0.0311486, 0.0645251, -0.14061, -0.0576838, -0.000212313, 0.0035113, 3.90754, 62.5653, 31.6581, 3.97064, 3.11847, 3.08047, -0.00999879, -0.00403189, 0.000641507, 0.00137193, -0.00173406, -0.0126171, -0.00358998, 0.0680789, -0.00915062, -0.0265293, -0.0928674, 0.174817, 0.0685384, 0.47347, -0.536799, 0.339256, -2.07902, -2.16924, -0.125016, 0.474215, -0.540542, 0.337259, -2.08256, -2.1809, -0.114499, 0.0469202, 0.127658, 0.0647206, 0.0576942, 0.0648946, 0.0277475
0.155231, 1.69865, -1.22414, -1.53611, -0.903555, -1.20301, 1.23399, -1.30262, 0.0441788, 0.0303761, 0.0680449, -0.143006, -0.0533889, 0.000131667, 0.00142025, 3.94721, 62.7121, 31.7731, 3.97064, 3.14319, 3.07315, 0.0229602, -0.00409044, 0.000657272, 0.00138943, -0.0017698, -0.0126838, -0.00372503, 0.0667664, -0.0111055, -0.0266398, -0.0894689, 0.171708, 0.0761573, 0.473517, -0.53667, 0.339321, -2.07892, -2.1693, -0.124922, 0.47428, -0.540468, 0.337298, -2.08237, -2.18116, -0.114392, 0.047438, 0.129128, 0.0654544, 0.0601106, 0.067766, 0.0285108
0.156231, 1.69869, -1.2241, -1.53603, -0.903714, -1.20306, 1.23399, -1.30262, 0.0421751, 0.0363375, 0.07554, -0.144914, -0.0495458, -0.0004533, 0.00117189, 3.98292, 62.8589, 31.8088, 3.97064, 3.1496, 3.0878, 0.0229602, -0.00414867, 0.000671923, 0.00140805, -0.00180666, -0.0127403, -0.00385886, 0.065666, -0.0113418, -0.0212138, -0.0822808, 0.174808, 0.0796871, 0.473565, -0.53654, 0.339387, -2.07883, -2.16937, -0.124828, 0.474344, -0.540392, 0.337336, -2.08218, -2.18142, -0.114295, 0.0479565, 0.130603, 0.0661897, 0.061039, 0.0695115, 0.034767
0.157231, 1.69872, -1.22405, -1.53595, -0.903877, -1.2031, 1.23399, -1.30261, 0.0434661, 0.0398292, 0.0748552, -0.152005, -0.0467312, -0.000572375, 0.000475343, 4.02259, 62.8986, 31.9953, 3.93494, 3.15509, 3.09512, 0.0357776, -0.00421023, 0.000684314, 0.00142465, -0.00184541, -0.0128058, -0.00398687, 0.0637549, -0.0131821, -0.0209905, -0.0854728, 0.177639, 0.0872775, 0.473613, -0.536409, 0.339453, -2.07873, -2.16943, -0.124733, 0.474407, -0.540318, 0.337376, -2.08201, -2.18167, -0.11419, 0.0484757, 0.132081, 0.0669265, 0.0633319, 0.0729256, 0.0359583
0.158231, 1.69875, -1.22402, -1.53586, -0.904047, -1.20315, 1.23399, -1.30261, 0.0383099, 0.0340056, 0.0810674, -0.15389, -0.0405455, -0.000652032, 0.000443493, 4.06226, 63.1564, 32.031, 3.89526, 3.17981, 3.10245, 0.0357776, -0.00427135, 0.00069779, 0.00144611, -0.00189173, -0.0128553, -0.00412339, 0.0650639, -0.0120087, -0.0227524, -0.0784066, 0.167312, 0.0878553, 0.473662, -0.536276, 0.33952, -2.07864, -2.1695, -0.124636, 0.474471, -0.540242, 0.337413, -2.08181, -2.18193, -0.114109, 0.0489955, 0.133562, 0.0676647, 0.0626654, 0.0733298, 0.0347951
0.159231, 1.69878, -1.22397, -1.53577, -0.904222, -1.20318, 1.23398, -1.3026, 0.0353283, 0.0427832, 0.086064, -0.159586, -0.0403698, -0.0009427, 0.00232339, 4.06226, 63.1564, 32.1818, 3.89526, 3.19812, 3.11618, -0.0164075, -0.00433235, 0.000707882, 0.00146021, -0.00193443, -0.0129153, -0.00425022, 0.0642916, -0.0116914, -0.0170007, -0.0762419, 0.176861, 0.0891394, 0.473711, -0.536142, 0.339588, -2.07854, -2.16956, -0.124539, 0.474532, -0.540165, 0.337457, -2.08163, -2.18218, -0.114012, 0.049516, 0.135047, 0.0684043, 0.0630701, 0.0746878, 0.0413451
0.160231, 1.69881, -1.22393, -1.53567, -0.904403, -1.20322, 1.23398, -1.3026, 0.0361883, 0.0405614, 0.091698, -0.166578, -0.0356199, -0.000628006, 0.00162014, 4.06226, 63.2278, 32.2532, 3.89526, 3.21643, 3.11618, -0.0164075, -0.00439116, 0.000721669, 0.00147471, -0.00198777, -0.01297, -0.00439634, 0.0614947, -0.0147706, -0.0178225, -0.0729966, 0.172203, 0.0999926, 0.473761, -0.536006, 0.339657, -2.07844, -2.16963, -0.124441, 0.474598, -0.540085, 0.337502, -2.08143, -2.18246, -0.113932, 0.0500371, 0.136535, 0.0691452, 0.0665248, 0.0792025, 0.0416029
0.161231, 1.69883, -1.22389, -1.53556, -0.904583, -1.20325, 1.23398, -1.30261, 0.030416, 0.0444169, 0.0959615, -0.172269, -0.0310419, -0.000689592, -8.72019e-05, 4.06226, 63.3389, 32.3285, 3.89526, 3.21094, 3.1235, 0.0165515, -0.00445183, 0.000732293, 0.00148909, -0.00205021, -0.0130111, -0.00454406, 0.0617529, -0.0133878, -0.0150755, -0.0692669, 0.173316, 0.103318, 0.473811, -0.535869, 0.339727, -2.07834, -2.1697, -0.124341, 0.474661, -0.540004, 0.337548, -2.08123, -2.18273, -0.113876, 0.0505588, 0.138026, 0.0698875, 0.0657889, 0.0799586, 0.045065
0.162231, 1.69885, -1.22384, -1.53545, -0.904775, -1.20328, 1.23397, -1.3026, 0.0268695, 0.0457135, 0.0982199, -0.179626, -0.0293624, -0.00127327, -1.80781e-05, 4.02259, 63.3746, 32.4396, 3.89526, 3.24756, 3.14548, 0.0165515, -0.00450997, 0.000745938, 0.00150283, -0.00210534, -0.0130636, -0.00469562, 0.0617094, -0.0129077, -0.0149311, -0.0704071, 0.174359, 0.106651, 0.473862, -0.53573, 0.339797, -2.07824, -2.16977, -0.124241, 0.474727, -0.53992, 0.337595, -2.08102, -2.18301, -0.1138, 0.0510809, 0.13952, 0.0706309, 0.0658393, 0.0814525, 0.0459746
0.163231, 1.69886, -1.2238, -1.53534, -0.904973, -1.2033, 1.23397, -1.3026, 0.0201306, 0.0460265, 0.104496, -0.183996, -0.0272321, -0.00135728, 0.00389972, 4.02259, 63.45, 32.4793, 3.85956, 3.26587, 3.15921, 0.0357776, -0.00456798, 0.00075796, 0.00151491, -0.00217271, -0.013105, -0.0048554, 0.0631995, -0.0108267, -0.0133175, -0.0655652, 0.173662, 0.102446, 0.473913, -0.53559, 0.339868, -2.07814, -2.16984, -0.12414, 0.474793, -0.539835, 0.337645, -2.08081, -2.1833, -0.113748, 0.0516036, 0.141018, 0.0713756, 0.0644121, 0.0811388, 0.0481543
0.164231, 1.69888, -1.22376, -1.53522, -0.905163, -1.20332, 1.23397, -1.3026, 0.0198783, 0.0430003, 0.107879, -0.18424, -0.0249009, -0.00144724, 0.00249654, 3.94721, 63.5214, 32.5904, 3.6731, 3.26587, 3.17386, 0.0495105, -0.00462815, 0.000770645, 0.0015293, -0.00224317, -0.0131419, -0.00500883, 0.0639092, -0.0110444, -0.0144578, -0.0625018, 0.169488, 0.105106, 0.473965, -0.535448, 0.33994, -2.07804, -2.16991, -0.124037, 0.474859, -0.53975, 0.337693, -2.0806, -2.18359, -0.113702, 0.0521267, 0.142518, 0.0721215, 0.0651391, 0.0821221, 0.0476589
0.165231, 1.69888, -1.22372, -1.5351, -0.905373, -1.20334, 1.23396, -1.3026, 0.0168399, 0.0467018, 0.115302, -0.190662, -0.0232668, -0.00150725, 0.00220573, 3.98292, 63.5968, 32.6261, 3.63342, 3.26587, 3.18851, 0.0431018, -0.0046866, 0.000782594, 0.00154224, -0.00231794, -0.0131777, -0.00517284, 0.0626718, -0.0115729, -0.0109112, -0.0581179, 0.172832, 0.110881, 0.474018, -0.535305, 0.340012, -2.07793, -2.16998, -0.123934, 0.474926, -0.539662, 0.337743, -2.08038, -2.18388, -0.113663, 0.0526502, 0.144021, 0.0728685, 0.0662867, 0.0843327, 0.0520817
0.166231, 1.69889, -1.22368, -1.53498, -0.90559, -1.20335, 1.23396, -1.3026, 0.0116671, 0.0460546, 0.115573, -0.206045, -0.0178142, -0.000733486, 0.00268184, 4.02259, 63.7079, 32.7372, 3.55804, 3.27777, 3.18118, 0.0165515, -0.00474504, 0.000795132, 0.00156016, -0.00239138, -0.0132046, -0.00534071, 0.0609652, -0.0123337, -0.013531, -0.0617736, 0.17034, 0.1196, 0.474071, -0.53516, 0.340086, -2.07783, -2.17005, -0.123829, 0.474993, -0.539571, 0.33779, -2.08014, -2.18417, -0.113631, 0.0531742, 0.145527, 0.0736165, 0.0674001, 0.0879572, 0.05048
0.167231, 1.69889, -1.22363, -1.53484, -0.905812, -1.20337, 1.23396, -1.30259, 0.00704129, 0.0475378, 0.121751, -0.212103, -0.0135102, -0.000488929, 0.0031796, 4.09797, 63.7079, 32.7372, 3.44696, 3.28418, 3.18118, -0.0164075, -0.00480083, 0.000808167, 0.00156873, -0.00247425, -0.0132393, -0.00551158, 0.060525, -0.0120681, -0.0115812, -0.0567613, 0.169435, 0.123041, 0.474124, -0.535014, 0.34016, -2.07772, -2.17012, -0.123723, 0.475061, -0.539478, 0.337846, -2.07992, -2.18448, -0.1136, 0.0536985, 0.147036, 0.0743657, 0.0677238, 0.0895927, 0.0532321
0.168231, 1.69889, -1.22359, -1.53471, -0.906048, -1.20338, 1.23396, -1.30259, 0.00370078, 0.0492107, 0.127205, -0.215934, -0.0114106, -5.46394e-05, 0.001502, 4.17335, 63.6682, 32.8126, 3.44696, 3.3208, 3.17386, 0.00373412, -0.00485585, 0.000822583, 0.00157984, -0.00255143, -0.0132784, -0.00569536, 0.0607659, -0.0116821, -0.00951454, -0.0523806, 0.170508, 0.126888, 0.474178, -0.534866, 0.340234, -2.07762, -2.17019, -0.123617, 0.475132, -0.539382, 0.337901, -2.07967, -2.1848, -0.113559, 0.0542231, 0.148547, 0.0751158, 0.0679601, 0.0905352, 0.0560002
0.169231, 1.69889, -1.22354, -1.53458, -0.906279, -1.20339, 1.23395, -1.30259, 0.00128132, 0.0457319, 0.128778, -0.220214, -0.00930821, -3.63916e-05, 0.000860169, 4.24873, 63.7079, 32.8879, 3.37158, 3.34552, 3.17386, 0.0101428, -0.004914, 0.000834663, 0.00159231, -0.00263091, -0.0133118, -0.0058754, 0.0617311, -0.0112684, -0.0120026, -0.0525294, 0.166561, 0.129255, 0.474232, -0.534717, 0.34031, -2.07751, -2.17026, -0.123509, 0.475201, -0.539288, 0.337955, -2.07943, -2.18512, -0.113525, 0.054748, 0.150061, 0.0758669, 0.0680146, 0.0914554, 0.054161
0.170231, 1.69889, -1.22349, -1.53444, -0.906522, -1.20339, 1.23395, -1.30259, 0.000359217, 0.0489063, 0.132217, -0.22736, -0.00679469, -0.00467903, -0.000812473, 4.2884, 63.6325, 32.999, 3.33588, 3.34552, 3.17386, 0.0495105, -0.00496829, 0.000850155, 0.00160394, -0.00271254, -0.0133447, -0.00606918, 0.0595845, -0.0117106, -0.010809, -0.0559371, 0.166813, 0.137518, 0.474287, -0.534566, 0.340386, -2.0774, -2.17034, -0.123401, 0.475273, -0.539188, 0.338011, -2.07917, -2.18545, -0.113494, 0.0552732, 0.151577, 0.0766189, 0.0689464, 0.0949311, 0.0564071
0.171231, 1.69888, -1.22345, -1.53429, -0.906771, -1.20339, 1.23395, -1.30259, -0.00203421, 0.0461811, 0.136098, -0.233141, -0.00612459, -0.00323597, -0.000250182, 4.39948, 63.6325, 32.9236, 3.30017, 3.37665, 3.16653, 0.0431018, -0.00502361, 0.000863935, 0.00161514, -0.00280084, -0.0133732, -0.00626334, 0.0599657, -0.0121287, -0.012108, -0.0541234, 0.165495, 0.140635, 0.474343, -0.534414, 0.340463, -2.07729, -2.17041, -0.123291, 0.475344, -0.539088, 0.338068, -2.07892, -2.18578, -0.113474, 0.0557986, 0.153096, 0.0773717, 0.069856, 0.0962907, 0.0558054
0.172231, 1.69887, -1.2234, -1.53416, -0.907023, -1.20339, 1.23395, -1.30258, -0.00380382, 0.0508005, 0.139053, -0.239315, -0.0048553, -0.00217695, 0.0010945, 4.51453, 63.6325, 32.9633, 3.22479, 3.38855, 3.15921, 0.0101428, -0.00508021, 0.000877545, 0.00162852, -0.0028866, -0.0134008, -0.0064517, 0.0592808, -0.0126676, -0.00954713, -0.0528457, 0.170928, 0.143542, 0.474399, -0.53426, 0.340541, -2.07718, -2.17049, -0.12318, 0.475416, -0.538988, 0.338124, -2.07866, -2.1861, -0.113451, 0.0563242, 0.154618, 0.0781255, 0.0709998, 0.0981253, 0.0591759
0.173231, 1.69886, -1.22334, -1.53401, -0.907289, -1.20339, 1.23395, -1.30257, -0.00495165, 0.05266, 0.140175, -0.244328, -0.00440097, -0.00143213, 0.00544784, 4.62562, 63.4103, 33.0387, 3.18512, 3.41327, 3.1528, 0.0101428, -0.00513206, 0.000893244, 0.00163345, -0.00297086, -0.0134447, -0.00665595, 0.059445, -0.0128839, -0.00916031, -0.0535828, 0.174153, 0.141943, 0.474456, -0.534104, 0.340619, -2.07707, -2.17056, -0.123068, 0.475491, -0.538882, 0.338189, -2.0784, -2.18646, -0.113409, 0.05685, 0.156141, 0.07888, 0.071768, 0.0994388, 0.0602808
0.174231, 1.69885, -1.2233, -1.53386, -0.907556, -1.20339, 1.23394, -1.30257, -0.00409211, 0.050932, 0.147588, -0.254322, -0.00379858, -0.00111839, 0.00428273, 4.66529, 63.45, 33.0744, 3.11371, 3.43158, 3.1528, 0.00373412, -0.0051836, 0.000913051, 0.00164999, -0.00305926, -0.0134659, -0.00687118, 0.0561768, -0.0164348, -0.00945842, -0.0520754, 0.173616, 0.155336, 0.474513, -0.533947, 0.340699, -2.07696, -2.17064, -0.122956, 0.475569, -0.538772, 0.338243, -2.07811, -2.18681, -0.113396, 0.0573759, 0.157667, 0.0796352, 0.0756971, 0.104403, 0.0611225
0.175231, 1.69884, -1.22325, -1.5337, -0.907829, -1.20339, 1.23394, -1.30257, -0.00615179, 0.0483523, 0.151925, -0.257315, -0.00314692, -0.0056339, 0.00269054, 4.81605, 63.4103, 33.0744, 2.99866, 3.4444, 3.1528, 0.0165515, -0.00523591, 0.000930046, 0.00165943, -0.00315509, -0.0134933, -0.00708656, 0.0565338, -0.0153903, -0.0106761, -0.0538002, 0.169269, 0.158669, 0.47457, -0.533789, 0.340779, -2.07684, -2.17071, -0.122842, 0.475646, -0.538663, 0.338305, -2.07783, -2.18717, -0.113384, 0.0579019, 0.159194, 0.0803912, 0.0751491, 0.105715, 0.0606574
0.176231, 1.69882, -1.22321, -1.53353, -0.908118, -1.20339, 1.23394, -1.30257, -0.0109181, 0.0488349, 0.154799, -0.262499, -0.00264363, -0.00397384, 0.000568207, 4.9668, 63.4103, 33.0744, 2.99866, 3.4563, 3.14548, 0.0559192, -0.00528438, 0.000951654, 0.001673, -0.00324988, -0.013517, -0.00732062, 0.0581173, -0.014116, -0.0102288, -0.0518835, 0.171343, 0.161002, 0.474629, -0.533629, 0.340859, -2.07673, -2.17079, -0.122727, 0.475727, -0.538548, 0.338365, -2.07753, -2.18755, -0.113375, 0.0584279, 0.160724, 0.0811479, 0.0744904, 0.105555, 0.0616575
0.177231, 1.69881, -1.22316, -1.53336, -0.908408, -1.20339, 1.23394, -1.30256, -0.01222, 0.0487928, 0.161199, -0.274081, -0.00228188, -0.00274485, 0.000553238, 5.04218, 63.3032, 33.0387, 2.92328, 3.4682, 3.13815, 0.0559192, -0.00533166, 0.000974491, 0.00168055, -0.00334787, -0.0135505, -0.00755392, 0.0555341, -0.0167332, -0.00992431, -0.0508638, 0.173292, 0.171908, 0.474687, -0.533468, 0.340941, -2.07661, -2.17087, -0.122611, 0.475811, -0.538431, 0.338431, -2.07723, -2.18793, -0.113359, 0.0589541, 0.162256, 0.0819052, 0.0775394, 0.109715, 0.0630223
0.178231, 1.6988, -1.22312, -1.53319, -0.90871, -1.20339, 1.23393, -1.30256, -0.0129218, 0.0491609, 0.160762, -0.282205, -0.0018176, -0.00680945, 0.000737009, 5.22865, 63.3032, 33.0744, 2.85187, 3.47461, 3.13815, 0.0495105, -0.00537755, 0.000998131, 0.00169378, -0.00344434, -0.0135719, -0.00779591, 0.0545554, -0.016763, -0.0118501, -0.0588286, 0.173088, 0.176915, 0.474746, -0.533304, 0.341023, -2.07649, -2.17095, -0.122494, 0.475895, -0.53831, 0.338492, -2.07692, -2.18832, -0.113353, 0.0594802, 0.16379, 0.0826631, 0.0779796, 0.11251, 0.0620277
0.179231, 1.69878, -1.22308, -1.53301, -0.909013, -1.20339, 1.23393, -1.30255, -0.0173625, 0.0479328, 0.163961, -0.296386, -0.00125597, -0.00890888, 0.00109808, 5.45875, 63.2278, 33.1101, 2.77649, 3.47461, 3.10977, 0.0357776, -0.00542779, 0.00101817, 0.00170594, -0.0035426, -0.0135986, -0.0080306, 0.0530123, -0.0170826, -0.0138845, -0.064277, 0.172406, 0.18517, 0.474806, -0.53314, 0.341106, -2.07637, -2.17103, -0.122376, 0.475977, -0.538193, 0.338555, -2.07661, -2.1887, -0.113342, 0.0600063, 0.165325, 0.0834216, 0.0786807, 0.115893, 0.0610028
0.180231, 1.69876, -1.22304, -1.53283, -0.909329, -1.20339, 1.23393, -1.30254, -0.0195806, 0.0481322, 0.169774, -0.29975, -0.00134521, -0.00651862, 0.00175508, 5.64521, 63.2278, 32.999, 2.70111, 3.48743, 3.10245, 0.0101428, -0.00547395, 0.00104243, 0.00172056, -0.00364107, -0.0136199, -0.0082761, 0.0536027, -0.0174013, -0.0123604, -0.0589408, 0.174786, 0.186857, 0.474866, -0.532974, 0.34119, -2.07626, -2.17111, -0.122257, 0.476063, -0.538069, 0.338617, -2.07629, -2.18909, -0.113337, 0.0605324, 0.166863, 0.0841806, 0.0796158, 0.116633, 0.063166
0.181231, 1.69874, -1.223, -1.53265, -0.909644, -1.20339, 1.23392, -1.30254, -0.0224304, 0.0461245, 0.170931, -0.303187, -0.000921695, -0.00498373, 0.0014626, 5.76026, 63.1921, 32.999, 2.55035, 3.48743, 3.10245, 0.00373412, -0.0055196, 0.0010675, 0.00173761, -0.00373316, -0.0136387, -0.00852876, 0.0554584, -0.0165253, -0.0138516, -0.0583225, 0.174399, 0.186926, 0.474927, -0.532806, 0.341275, -2.07613, -2.17119, -0.122137, 0.47615, -0.537942, 0.338677, -2.07596, -2.18949, -0.113327, 0.0610583, 0.168402, 0.0849401, 0.0792864, 0.116525, 0.0621994
0.182231, 1.69872, -1.22295, -1.53246, -0.909967, -1.20339, 1.23392, -1.30253, -0.0234444, 0.0442314, 0.17622, -0.30839, -0.0013113, -0.00835932, 0.00125382, 5.94672, 63.0453, 32.9633, 2.47894, 3.50574, 3.09512, -0.00267457, -0.0055667, 0.00109139, 0.00174984, -0.0038333, -0.0136667, -0.00877978, 0.0547491, -0.0167882, -0.0145725, -0.059823, 0.172362, 0.191948, 0.474989, -0.532637, 0.34136, -2.07601, -2.17127, -0.122016, 0.476237, -0.537817, 0.338742, -2.07563, -2.18989, -0.113316, 0.0615842, 0.169942, 0.0857, 0.0800189, 0.118889, 0.0623473
0.183231, 1.6987, -1.22291, -1.53227, -0.910309, -1.20339, 1.23391, -1.30252, -0.0272999, 0.0440541, 0.18427, -0.319111, -0.000210027, -0.00633421, 0.0045887, 6.13715, 62.97, 32.8879, 2.47894, 3.48743, 3.09512, 0.0229602, -0.00560852, 0.00111846, 0.00176561, -0.00393179, -0.0136837, -0.00905561, 0.0531664, -0.0182815, -0.0134329, -0.0555266, 0.173722, 0.197265, 0.47505, -0.532466, 0.341446, -2.07589, -2.17135, -0.121894, 0.476328, -0.537684, 0.338805, -2.07528, -2.19031, -0.113315, 0.0621099, 0.171484, 0.0864603, 0.0820203, 0.121893, 0.064424
0.184231, 1.69868, -1.22288, -1.53206, -0.910642, -1.20338, 1.23391, -1.30252, -0.0275837, 0.0357964, 0.190982, -0.321411, -0.000150516, -0.00398001, 0.00708061, 6.21253, 62.97, 32.7768, 2.32819, 3.48743, 3.07315, 0.0559192, -0.00565069, 0.00115018, 0.00178182, -0.00404835, -0.0136945, -0.00933362, 0.053804, -0.0197789, -0.0164867, -0.0498042, 0.167453, 0.198749, 0.475113, -0.532294, 0.341533, -2.07577, -2.17143, -0.121771, 0.476423, -0.537549, 0.338869, -2.07492, -2.19074, -0.11334, 0.0626355, 0.173028, 0.087221, 0.0839437, 0.123342, 0.0620194
0.185231, 1.69865, -1.22284, -1.53186, -0.910993, -1.20339, 1.23391, -1.30251, -0.0295573, 0.0362843, 0.194825, -0.329581, -0.000549028, -0.00175916, 0.010078, 6.36329, 62.8232, 32.7015, 2.32819, 3.49933, 3.03744, 0.0559192, -0.00569332, 0.0011781, 0.00179487, -0.00415326, -0.0137195, -0.00960981, 0.0532789, -0.0208842, -0.0161804, -0.0487381, 0.170888, 0.201506, 0.475176, -0.53212, 0.34162, -2.07564, -2.17152, -0.121646, 0.476516, -0.537414, 0.338936, -2.07457, -2.19118, -0.113337, 0.0631608, 0.174573, 0.087982, 0.0855665, 0.125413, 0.0631249
0.186231, 1.69863, -1.2228, -1.53164, -0.911347, -1.20339, 1.23391, -1.3025, -0.0312728, 0.0362542, 0.201291, -0.334309, -0.000812733, 9.97375e-05, 0.00838572, 6.51405, 62.6764, 32.5904, 2.29248, 3.51123, 2.99441, 0.0357776, -0.00573392, 0.00120926, 0.00180406, -0.00427288, -0.0137437, -0.00989555, 0.0531016, -0.0217742, -0.0148075, -0.044116, 0.173059, 0.207494, 0.475239, -0.531945, 0.341709, -2.07552, -2.1716, -0.121521, 0.476612, -0.537276, 0.339008, -2.07421, -2.19163, -0.11335, 0.0636859, 0.176119, 0.0887433, 0.0870335, 0.126971, 0.0652384
0.187231, 1.6986, -1.22277, -1.53143, -0.911696, -1.20338, 1.2339, -1.30249, -0.0316221, 0.0371101, 0.208877, -0.336668, -0.000546251, 0.000605495, 0.0121503, 6.6291, 62.6407, 32.5904, 2.17743, 3.51123, 2.97336, 0.00373412, -0.00577904, 0.00123729, 0.00182019, -0.0043902, -0.013755, -0.0101706, 0.0524587, -0.0228836, -0.0123773, -0.0384216, 0.174758, 0.207983, 0.475303, -0.531768, 0.341798, -2.07539, -2.17169, -0.121395, 0.476705, -0.537139, 0.339073, -2.07385, -2.19205, -0.113372, 0.0642108, 0.177667, 0.0895048, 0.088744, 0.128841, 0.0684596
0.188231, 1.69856, -1.22274, -1.5312, -0.912076, -1.20338, 1.2339, -1.30248, -0.0325501, 0.0353479, 0.214789, -0.346414, -0.00128302, 0.00154542, 0.00951709, 6.77985, 62.5653, 32.515, 2.29248, 3.53595, 2.93765, -0.00999879, -0.0058177, 0.0012699, 0.00183551, -0.00450286, -0.0137758, -0.0104745, 0.050711, -0.0250456, -0.0130237, -0.0379197, 0.17569, 0.219703, 0.475368, -0.53159, 0.341888, -2.07526, -2.17177, -0.121268, 0.476804, -0.536995, 0.339141, -2.07347, -2.19252, -0.113382, 0.0647353, 0.179216, 0.0902666, 0.0913295, 0.132319, 0.0687742
