alisrour97/Franka_experiments/Real_Robot_scripts/servo-franka/Data_5_ki/log_dyn_PI_k_ki_4.csv
Time,q1,q2,q3,q4,q5,q6,q7,dq1,dq2,dq3,dq4,dq5,dq6,dq7,t1,t2,t3,t4,t5,t6,t7,ex1,ex2,ex3,ex4,ex5,ex6,ev1,ev2,ev3,ev4,ev5,ev6,xd,yd,zd,uxd,uyd,uzd,x,y,z,ux,uy,uz,vxd,vyd,vzd,vx,vy,vz
9.76563e-07, 1.6914, -1.22578, -1.53808, -0.900144, -1.19201, 1.22839, -1.30264, -0.00509922, -0.00154344, -0.0103822, 0.00228051, 0.00137217, -0.00356652, 0.00020462, -0.543754, 58.8837, 28.0478, 6.77154, 2.00702, 3.36062, -0.153737, 0.000923026, -0.00158548, 0.000259845, 0.000551684, -0.000367541, -4.23039e-05, 0.00460845, 0.00566439, -0.00431524, -0.00978747, -0.00411114, -0.0117498, 0.471008, -0.543389, 0.335894, -2.08385, -2.16584, -0.129887, 0.46939, -0.542497, 0.335836, -2.0837, -2.1659, -0.128902, 0, 0, 0, -0.00564805, -0.00411717, -0.0048055
0.0122354, 1.69136, -1.2258, -1.53809, -0.900151, -1.19199, 1.22839, -1.30265, -0.00258511, -0.00379779, -0.00153735, -0.000351416, 0.000677062, -0.000117431, 0.000992859, -0.543754, 58.9194, 28.0875, 6.80725, 2.01343, 3.34598, -0.172963, 0.00090763, -0.00160524, 0.000276428, 0.000547848, -0.000323168, -1.43154e-05, 0.00158857, 0.00152202, -0.00270112, -0.00121688, -0.00433831, -0.00369237, 0.471008, -0.543389, 0.335894, -2.08385, -2.16584, -0.129887, 0.469362, -0.542516, 0.33581, -2.08371, -2.16582, -0.128952, 3.52292e-06, 9.08712e-06, 4.70091e-06, -0.00155723, -0.00120572, -0.00286313
0.0132358, 1.69136, -1.2258, -1.53809, -0.900151, -1.19199, 1.22839, -1.30265, -0.00258511, -0.00379779, -0.00153735, -0.000351416, 0.000677062, -0.000117431, 0.000992859, -0.543754, 58.9194, 28.0875, 6.80725, 2.01343, 3.34598, -0.172963, 0.000907607, -0.00160525, 0.000276436, 0.000547837, -0.000323163, -1.43033e-05, 0.0016172, 0.00153323, -0.0027112, -0.0012294, -0.00431916, -0.00371608, 0.471008, -0.543389, 0.335894, -2.08385, -2.16584, -0.129887, 0.469362, -0.542516, 0.33581, -2.08371, -2.16582, -0.128952, 1.40551e-05, 3.62649e-05, 1.87583e-05, -0.00155723, -0.00120572, -0.00286313
0.0142358, 1.69136, -1.2258, -1.53809, -0.900151, -1.19199, 1.22839, -1.30265, -0.00258511, -0.00379779, -0.00153735, -0.000351416, 0.000677062, -0.000117431, 0.000992859, -0.543754, 58.9194, 28.0875, 6.80725, 2.01343, 3.34598, -0.172963, 0.000907547, -0.00160527, 0.000276458, 0.000547808, -0.000323149, -1.42703e-05, 0.00166477, 0.00155183, -0.00272794, -0.00125018, -0.00428736, -0.00375545, 0.471008, -0.543389, 0.335894, -2.08385, -2.16584, -0.129887, 0.469362, -0.542516, 0.33581, -2.08371, -2.16582, -0.128952, 3.15416e-05, 8.14084e-05, 4.21042e-05, -0.00155723, -0.00120572, -0.00286313
0.0152358, 1.69136, -1.2258, -1.53809, -0.900151, -1.19199, 1.22839, -1.30265, -0.00258511, -0.00379779, -0.00153735, -0.000351416, 0.000677062, -0.000117431, 0.000992859, -0.543754, 58.9194, 28.0875, 6.80725, 2.01343, 3.34598, -0.172963, 0.00090743, -0.00160532, 0.000276499, 0.00054775, -0.000323121, -1.42063e-05, 0.00173113, 0.00157778, -0.00275128, -0.00127913, -0.004243, -0.00381034, 0.471008, -0.543389, 0.335894, -2.08385, -2.16584, -0.129887, 0.469362, -0.542516, 0.33581, -2.08371, -2.16582, -0.128952, 5.59279e-05, 0.000144393, 7.4671e-05, -0.00155723, -0.00120572, -0.00286313
0.0162358, 1.69136, -1.2258, -1.53809, -0.900151, -1.19199, 1.22839, -1.30265, -0.00258511, -0.00379779, -0.00153735, -0.000351416, 0.000677062, -0.000117431, 0.000992859, -0.543754, 58.9194, 28.0875, 6.80725, 2.01343, 3.34598, -0.172963, 0.000907237, -0.00160539, 0.000276567, 0.000547656, -0.000323075, -1.4101e-05, 0.00181616, 0.00161102, -0.00278118, -0.00131619, -0.00418619, -0.00388064, 0.471008, -0.543389, 0.335894, -2.08385, -2.16584, -0.129886, 0.469362, -0.542516, 0.33581, -2.08371, -2.16582, -0.128952, 8.71593e-05, 0.000225094, 0.000116391, -0.00155723, -0.00120572, -0.00286313
0.0172358, 1.69136, -1.2258, -1.53809, -0.900151, -1.19199, 1.22839, -1.30265, -0.00258511, -0.00379779, -0.00153735, -0.000351416, 0.000677062, -0.000117431, 0.000992859, -0.543754, 58.9194, 28.0875, 6.80725, 2.01343, 3.34598, -0.172963, 0.00090695, -0.00160551, 0.000276668, 0.000547515, -0.000323006, -1.39444e-05, 0.00191972, 0.00165148, -0.00281759, -0.00136127, -0.004117, -0.00396622, 0.471008, -0.543389, 0.335894, -2.08385, -2.16584, -0.129886, 0.469362, -0.542516, 0.33581, -2.08371, -2.16582, -0.128952, 0.000125182, 0.000323387, 0.000167197, -0.00155723, -0.00120572, -0.00286313
0.0182358, 1.69136, -1.2258, -1.53809, -0.900151, -1.19199, 1.22839, -1.30265, -0.00258511, -0.00379779, -0.00153735, -0.000351416, 0.000677062, -0.000117431, 0.000992859, -0.543754, 58.9194, 28.0875, 6.80725, 2.01343, 3.34598, -0.172963, 0.00090655, -0.00160566, 0.000276809, 0.00054732, -0.000322911, -1.37264e-05, 0.00204169, 0.00169912, -0.00286046, -0.00141431, -0.00403555, -0.00406695, 0.471008, -0.543388, 0.335894, -2.08385, -2.16584, -0.129886, 0.469362, -0.542516, 0.33581, -2.08371, -2.16582, -0.128952, 0.00016994, 0.000439148, 0.000227022, -0.00155723, -0.00120572, -0.00286313
0.0192361, 1.69136, -1.2258, -1.53809, -0.900151, -1.19199, 1.22839, -1.30265, -0.00258511, -0.00379779, -0.00153735, -0.000351416, 0.000677062, -0.000117431, 0.000992859, -0.543754, 58.9194, 28.0875, 6.80725, 2.01343, 3.34598, -0.172963, 0.000906019, -0.00160587, 0.000276996, 0.00054706, -0.000322784, -1.34371e-05, 0.00218193, 0.00175386, -0.00290975, -0.00147523, -0.00394192, -0.0041827, 0.471009, -0.543388, 0.335895, -2.08385, -2.16584, -0.129886, 0.469362, -0.542516, 0.33581, -2.08371, -2.16582, -0.128952, 0.000221382, 0.000572255, 0.000295798, -0.00155723, -0.00120572, -0.00286313
0.0202363, 1.69136, -1.2258, -1.53809, -0.900151, -1.19199, 1.22839, -1.30265, -0.00258511, -0.00379779, -0.00153735, -0.000351416, 0.000677062, -0.000117431, 0.000992859, -0.543754, 58.9194, 28.0875, 6.80725, 2.01343, 3.34598, -0.172963, 0.000905339, -0.00160614, 0.000277236, 0.000546727, -0.000322622, -1.30667e-05, 0.00234032, 0.00181567, -0.00296539, -0.00154395, -0.00383621, -0.00431337, 0.471009, -0.543387, 0.335895, -2.08384, -2.16584, -0.129885, 0.469362, -0.542516, 0.33581, -2.08371, -2.16582, -0.128952, 0.000279451, 0.000722584, 0.000373459, -0.00155723, -0.00120572, -0.00286313
0.0212366, 1.69136, -1.2258, -1.53809, -0.900151, -1.19199, 1.22839, -1.30265, -0.00258511, -0.00379779, -0.00153735, -0.000351416, 0.000677062, -0.000117431, 0.000992859, -0.543754, 58.9194, 28.0875, 6.80725, 2.01343, 3.34598, -0.172963, 0.000904492, -0.00160647, 0.000277535, 0.000546313, -0.000322421, -1.26053e-05, 0.00251671, 0.00188447, -0.00302735, -0.00162039, -0.00371851, -0.00445881, 0.471009, -0.543386, 0.335895, -2.08384, -2.16584, -0.129884, 0.469362, -0.542516, 0.33581, -2.08371, -2.16582, -0.128952, 0.000344096, 0.000890012, 0.000459939, -0.00155723, -0.00120572, -0.00286313
0.0222371, 1.69136, -1.2258, -1.53809, -0.900151, -1.19199, 1.22839, -1.30265, -0.00258511, -0.00379779, -0.00153735, -0.000351416, 0.000677062, -0.000117431, 0.000992859, -0.543754, 58.9194, 28.0875, 6.80725, 2.01343, 3.34598, -0.172963, 0.000903459, -0.00160687, 0.000277898, 0.000545808, -0.000322175, -1.20434e-05, 0.002711, 0.00196022, -0.00309557, -0.00170449, -0.00358891, -0.00461892, 0.47101, -0.543385, 0.335896, -2.08384, -2.16584, -0.129884, 0.469362, -0.542516, 0.33581, -2.08371, -2.16582, -0.128952, 0.000415261, 0.00107442, 0.00055517, -0.00155723, -0.00120572, -0.00286313
0.0232371, 1.69136, -1.2258, -1.53809, -0.900151, -1.19199, 1.22839, -1.30265, -0.00258511, -0.00379779, -0.00153735, -0.000351416, 0.000677062, -0.000117431, 0.000992859, -0.543754, 58.9194, 28.0875, 6.80725, 2.01343, 3.34598, -0.172963, 0.000902224, -0.00160735, 0.000278334, 0.000545204, -0.000321882, -1.13713e-05, 0.00292304, 0.00204286, -0.00317, -0.00179618, -0.00344751, -0.00479356, 0.47101, -0.543384, 0.335896, -2.08384, -2.16585, -0.129883, 0.469362, -0.542516, 0.33581, -2.08371, -2.16582, -0.128952, 0.000492895, 0.00127568, 0.000659086, -0.00155723, -0.00120572, -0.00286313
0.0242371, 1.69136, -1.2258, -1.53809, -0.900151, -1.19199, 1.22839, -1.30265, -0.00258511, -0.00379779, -0.00153735, -0.000351416, 0.000677062, -0.000117431, 0.000992859, -0.543754, 58.9194, 28.0875, 6.80725, 2.01343, 3.34598, -0.172963, 0.000900768, -0.00160792, 0.000278847, 0.000544491, -0.000321537, -1.05794e-05, 0.0031527, 0.00213232, -0.00325061, -0.00189536, -0.00329441, -0.00498261, 0.471011, -0.543383, 0.335897, -2.08384, -2.16585, -0.129882, 0.469362, -0.542516, 0.33581, -2.08371, -2.16582, -0.128952, 0.000576942, 0.00149367, 0.000771622, -0.00155723, -0.00120572, -0.00286313
0.0252373, 1.69136, -1.2258, -1.53809, -0.900151, -1.19199, 1.22839, -1.30265, -0.00258511, -0.00379779, -0.00153735, -0.000351416, 0.000677062, -0.000117431, 0.000992859, -0.543754, 58.9194, 28.0875, 6.80725, 2.01343, 3.34598, -0.172963, 0.000899074, -0.00160858, 0.000279443, 0.000543663, -0.000321135, -9.65842e-06, 0.00339987, 0.00222856, -0.00333733, -0.00200198, -0.00312968, -0.00518596, 0.471011, -0.543381, 0.335898, -2.08384, -2.16585, -0.129881, 0.469362, -0.542516, 0.33581, -2.08371, -2.16582, -0.128952, 0.00066735, 0.00172827, 0.000892711, -0.00155723, -0.00120572, -0.00286313
0.0262375, 1.69134, -1.22581, -1.53808, -0.90014, -1.19196, 1.22839, -1.30265, 0.00134695, -5.32906e-05, 9.68089e-05, 0.000172546, 0.00228101, 0.000985844, -0.00161312, -0.43267, 58.8837, 28.0478, 6.69617, 1.96399, 3.27456, -0.114369, 0.000889557, -0.00161756, 0.00028316, 0.000520025, -0.000292016, 2.53862e-06, 0.0011745, -0.000359066, -0.000689877, 0.000969188, -2.29089e-05, 0.00188646, 0.471012, -0.543379, 0.335899, -2.08384, -2.16585, -0.129879, 0.469354, -0.542524, 0.335806, -2.08372, -2.16581, -0.129005, 0.000764066, 0.00197936, 0.00102229, 0.00113977, 0.000940719, 0.000147991
0.0272375, 1.69134, -1.22581, -1.53809, -0.900137, -1.19196, 1.2284, -1.30265, -3.53225e-05, 0.000791219, -0.000865942, 0.00104344, 0.00188317, 0.00119932, 0.000382646, -0.392998, 58.844, 28.0875, 6.65649, 1.95758, 3.25992, -0.153737, 0.000884417, -0.00162063, 0.000282421, 0.000515397, -0.000295446, 1.49266e-05, 0.00254943, 0.000910827, -0.000421674, 0.000706068, 0.00138148, -0.00308, 0.471013, -0.543377, 0.3359, -2.08384, -2.16585, -0.129878, 0.469352, -0.542527, 0.335807, -2.08374, -2.1658, -0.129004, 0.000867038, 0.00224682, 0.00116028, 3.33408e-05, -0.000242434, 0.000375714
0.0282375, 1.69133, -1.22582, -1.53809, -0.900139, -1.19196, 1.2284, -1.30265, -0.00179074, -0.00555719, -0.00411874, 0.000695915, 0.00270564, 0.0015791, 0.000729815, -0.317619, 58.7329, 27.9725, 6.65649, 1.92096, 3.23886, -0.166554, 0.000879728, -0.00162408, 0.000286439, 0.000514667, -0.000289068, 2.09981e-05, 0.00468311, 0.00222857, -0.00532931, -0.00197348, -0.00504347, -0.00628091, 0.471014, -0.543375, 0.335901, -2.08384, -2.16585, -0.129876, 0.46935, -0.542529, 0.335804, -2.08374, -2.16579, -0.129009, 0.000976211, 0.00253053, 0.00130664, -0.00127439, -0.00136375, -0.00461526
0.0292375, 1.69134, -1.22581, -1.53808, -0.900139, -1.19196, 1.2284, -1.30265, -0.000268771, -0.00276348, 0.000528228, 0.0021346, -0.000213977, 0.00105248, -0.00073416, -0.357292, 58.2925, 27.6749, 6.58508, 1.85321, 3.23886, -0.133595, 0.000880558, -0.00162176, 0.000281986, 0.000509303, -0.000295624, 1.48826e-05, 0.0040386, 0.001478, -0.00207883, 0.000815503, -0.000299814, -0.00362311, 0.471015, -0.543372, 0.335903, -2.08383, -2.16585, -0.129874, 0.469353, -0.542526, 0.33581, -2.08374, -2.1658, -0.129007, 0.00109153, 0.00283037, 0.00146128, -0.000315167, -0.000897213, -0.0011736
0.0302375, 1.69134, -1.22582, -1.53809, -0.900142, -1.19197, 1.2284, -1.30265, 0.00158183, -0.00122482, -4.89157e-05, 0.00318647, -0.00394244, 0.000464108, -0.00411764, -0.43267, 57.9633, 27.5281, 6.5097, 1.81659, 3.24527, -0.0356336, 0.000876633, -0.00162162, 0.000288687, 0.000517029, -0.000297021, 9.01219e-06, 0.00451231, 0.00146083, -0.0014994, -0.00173841, 0.00421664, -0.00116229, 0.471016, -0.543369, 0.335904, -2.08383, -2.16585, -0.129871, 0.469355, -0.542526, 0.335804, -2.08373, -2.16581, -0.128995, 0.00121295, 0.00314621, 0.00162416, -0.000138724, -0.00113752, -0.000512619
0.0312375, 1.69134, -1.22581, -1.5381, -0.900144, -1.19197, 1.2284, -1.30265, 0.00550335, 0.00138716, -0.00137037, 0.00388767, -0.00592222, -0.000504538, -0.00152439, -0.357292, 57.5546, 27.417, 6.43433, 1.76166, 3.26724, -0.0685925, 0.000870829, -0.0016257, 0.000291841, 0.000526084, -0.000301395, 2.46159e-05, 0.00364682, 0.000232855, -0.000750823, -0.00486359, 0.0083371, -0.00213067, 0.471017, -0.543366, 0.335906, -2.08383, -2.16586, -0.129869, 0.469352, -0.542528, 0.335802, -2.08374, -2.16579, -0.128976, 0.00134042, 0.00347794, 0.00179519, 0.0012112, -1.63002e-05, 0.000494881
0.0322375, 1.69134, -1.22583, -1.5381, -0.900138, -1.19198, 1.2284, -1.30264, 0.00418546, -0.00270049, -0.0013782, 0.00611835, -0.00952798, 0.000477337, 0.000204443, -0.357292, 57.5189, 27.2663, 6.28357, 1.76166, 3.24527, -0.101552, 0.000861142, -0.00162774, 0.0003035, 0.000523523, -0.000291949, 3.94956e-05, 0.0064654, 0.00176619, -0.00281597, -0.00492726, 0.00771026, -0.00855455, 0.471019, -0.543362, 0.335908, -2.08383, -2.16586, -0.129866, 0.469351, -0.542532, 0.335791, -2.08375, -2.16577, -0.128984, 0.00147388, 0.00382545, 0.00197432, -0.000160435, -0.00219632, -0.00175635
0.0332375, 1.69135, -1.22584, -1.5381, -0.900141, -1.192, 1.22841, -1.30264, 0.00401294, -0.00353146, -0.00229213, 0.00491419, -0.0127733, 0.00136931, 0.000611013, -0.392998, 57.4078, 27.1552, 6.24786, 1.77997, 3.21689, -0.114369, 0.000856861, -0.00162685, 0.000310424, 0.000529238, -0.000293554, 3.98753e-05, 0.00757225, 0.00209033, -0.00384106, -0.00724105, 0.0103948, -0.00990542, 0.47102, -0.543358, 0.33591, -2.08382, -2.16586, -0.129863, 0.469353, -0.542531, 0.335785, -2.08374, -2.16577, -0.128973, 0.00161328, 0.0041886, 0.00216148, -0.000342162, -0.0027814, -0.00274338
0.0342375, 1.69134, -1.22585, -1.5381, -0.90015, -1.192, 1.22841, -1.30265, 0.000367403, -0.00626473, -0.00161529, 0.00151294, -0.0103722, 0.00250651, -0.00128808, -0.281914, 57.5189, 27.1195, 6.32324, 1.79828, 3.17386, -0.0685925, 0.000849079, -0.00162813, 0.000323015, 0.000533798, -0.000288991, 3.33638e-05, 0.00834318, 0.00288369, -0.00552604, -0.00599395, 0.00667728, -0.0077757, 0.471022, -0.543354, 0.335912, -2.08382, -2.16586, -0.12986, 0.469354, -0.542533, 0.335774, -2.08373, -2.16578, -0.12897, 0.00175856, 0.00456728, 0.0023566, -0.00102247, -0.00293696, -0.00430776
0.0352375, 1.69134, -1.22585, -1.5381, -0.90015, -1.192, 1.22841, -1.30265, 0.000367403, -0.00626473, -0.00161529, 0.00151294, -0.0103722, 0.00250651, -0.00128808, -0.281914, 57.5189, 27.1195, 6.32324, 1.79828, 3.17386, -0.0685925, 0.000844066, -0.00163008, 0.000324778, 0.000531348, -0.000287814, 3.6077e-05, 0.00875834, 0.00304464, -0.00567134, -0.00617091, 0.0069531, -0.00811533, 0.471024, -0.543349, 0.335915, -2.08382, -2.16586, -0.129856, 0.469354, -0.542533, 0.335774, -2.08373, -2.16578, -0.12897, 0.00190969, 0.00496137, 0.00255964, -0.00102247, -0.00293696, -0.00430776
0.0362375, 1.69134, -1.22588, -1.5381, -0.900159, -1.19203, 1.22843, -1.30264, 0.00101183, -0.00937521, -0.00141957, -0.000162747, -0.010802, 0.00662752, 0.00113424, -0.0557783, 57.7411, 27.1195, 6.35895, 1.85321, 3.1235, -0.10796, 0.000832193, -0.00163015, 0.000340529, 0.000537705, -0.000295105, 4.7718e-05, 0.00917531, 0.00167966, -0.00748322, -0.00395748, 0.00668532, -0.00878127, 0.471026, -0.543344, 0.335917, -2.08381, -2.16587, -0.129852, 0.469355, -0.542537, 0.335759, -2.08374, -2.16577, -0.128951, 0.0020666, 0.00537076, 0.00277051, 0.000447142, -0.00260451, -0.00599183
0.0372375, 1.69135, -1.22587, -1.5381, -0.900149, -1.19204, 1.22843, -1.30264, 0.00442262, -0.00596841, -0.00133552, 0.000768321, -0.0124887, 0.00503791, 0.000993522, -0.0557783, 57.7054, 27.1195, 6.17248, 1.84772, 3.11618, -0.114369, 0.000825466, -0.00162988, 0.000339352, 0.000528034, -0.000303218, 5.42108e-05, 0.00821149, 0.000675051, -0.00579953, -0.00604383, 0.0109882, -0.00703887, 0.471028, -0.543338, 0.33592, -2.08381, -2.16587, -0.129848, 0.469358, -0.542538, 0.335762, -2.08375, -2.16578, -0.128948, 0.00222924, 0.00579533, 0.00298915, 0.00163943, -0.00144643, -0.00399137
0.0382375, 1.69136, -1.22588, -1.5381, -0.900155, -1.19205, 1.22844, -1.30264, 0.00576219, -0.00689971, 0.00423069, -0.000613396, -0.00863198, 0.00757734, 0.0036639, -0.0161054, 57.8125, 27.1552, 6.20819, 1.82941, 3.1235, -0.0685925, 0.000821759, -0.00162534, 0.000346212, 0.000529833, -0.000308925, 4.1581e-05, 0.00609947, -0.00209984, -0.00457438, 0.00168573, 0.00826959, -0.00356328, 0.47103, -0.543332, 0.335923, -2.0838, -2.16587, -0.129843, 0.469365, -0.542534, 0.335758, -2.08373, -2.1658, -0.128937, 0.00239756, 0.00623496, 0.00321551, 0.00454774, 0.00100331, -0.0023112
0.0392375, 1.69137, -1.22587, -1.5381, -0.900154, -1.19206, 1.22844, -1.30264, 0.00519619, -0.00240549, 0.00312224, -0.00245178, -0.0100389, 0.00931329, 0.00283402, 0.0949785, 57.7054, 27.1552, 6.13678, 1.79828, 3.13815, -0.0685925, 0.000816465, -0.00162442, 0.000342761, 0.000525207, -0.000325821, 4.52771e-05, 0.00654748, -0.00189027, -0.00256855, 0.000954513, 0.0152915, -0.00315885, 0.471033, -0.543326, 0.335927, -2.0838, -2.16588, -0.129838, 0.469369, -0.542534, 0.335764, -2.08374, -2.16581, -0.12892, 0.00257152, 0.00668953, 0.00344951, 0.0046009, 0.000698315, -0.000159787
0.0402375, 1.69138, -1.22587, -1.5381, -0.900157, -1.19207, 1.22845, -1.30264, 0.0056855, -0.0035076, 0.00230783, -0.0055801, -0.00695966, 0.00724603, 0.00119956, 0.170357, 57.7768, 27.1552, 6.13678, 1.77997, 3.13083, -0.0420422, 0.000811642, -0.00162079, 0.000347124, 0.000524806, -0.000334758, 3.78783e-05, 0.00534729, -0.00251781, -0.00431929, -0.00198555, 0.0113202, 0.00195322, 0.471035, -0.543319, 0.33593, -2.08379, -2.16588, -0.129833, 0.469375, -0.542531, 0.335762, -2.08373, -2.16582, -0.128907, 0.00275106, 0.00715892, 0.0036911, 0.00530097, 0.00264772, -0.0014796
0.0412375, 1.69139, -1.22587, -1.53811, -0.900157, -1.19208, 1.22846, -1.30264, 0.0103392, -0.000843091, -5.49312e-05, -0.00342394, -0.00932717, 0.00879771, 0.00322393, 0.325081, 57.7054, 27.2306, 6.09711, 1.76166, 3.1528, -0.101552, 0.000804604, -0.00161983, 0.000348304, 0.000527345, -0.000352106, 4.61296e-05, 0.00529944, -0.00400363, -0.00357955, -0.00349368, 0.0171238, 0.000242688, 0.471038, -0.543312, 0.335934, -2.08379, -2.16589, -0.129827, 0.469379, -0.54253, 0.335764, -2.08374, -2.16583, -0.12888, 0.00293613, 0.00764302, 0.00394021, 0.00699496, 0.00312608, -0.000537448
0.0422375, 1.6914, -1.22586, -1.5381, -0.90016, -1.1921, 1.22846, -1.30264, 0.0112656, 0.00106983, 0.00185393, -0.00192132, -0.0113731, 0.0101562, -0.000601712, 0.475838, 57.63, 27.1552, 6.0614, 1.74884, 3.17386, -0.0228162, 0.000800987, -0.00161621, 0.000345468, 0.000523983, -0.000370407, 3.04325e-05, 0.00582543, -0.0043035, -0.00168355, -0.00108951, 0.0214969, 0.00343955, 0.471041, -0.543304, 0.335938, -2.08378, -2.16589, -0.129821, 0.469386, -0.542526, 0.33577, -2.08373, -2.16586, -0.128861, 0.00312667, 0.00814172, 0.00419678, 0.00757234, 0.00282601, 0.00150061
0.0432375, 1.69141, -1.22586, -1.5381, -0.900161, -1.19211, 1.22846, -1.30264, 0.0132947, 0.00237795, 0.000496222, -0.00685497, -0.0131561, 0.00666315, 0.00560731, 0.701973, 57.5546, 27.1909, 5.98602, 1.74335, 3.20224, -0.0557752, 0.00079381, -0.00161473, 0.000346062, 0.000525157, -0.000388844, 3.38364e-05, 0.00415076, -0.00523301, -0.00268406, -0.0089222, 0.0234765, 0.00183568, 0.471044, -0.543295, 0.335942, -2.08378, -2.16589, -0.129815, 0.469391, -0.542525, 0.335773, -2.08374, -2.16587, -0.128834, 0.00332265, 0.00865489, 0.00446074, 0.00860051, 0.00518455, 0.00100846
0.0442375, 1.69142, -1.22585, -1.5381, -0.900164, -1.19213, 1.22846, -1.30264, 0.0101479, 0.00151142, 0.00264987, -0.00365515, -0.0152157, 0.00301348, 0.00493183, 1.00349, 57.5546, 27.2306, 5.91064, 1.75525, 3.25992, -0.0750012, 0.000785674, -0.00161507, 0.000349096, 0.000532958, -0.000404926, 3.62795e-05, 0.0067136, -0.00203295, -0.0023342, -0.00946768, 0.0223464, -0.00348834, 0.471048, -0.543286, 0.335947, -2.08377, -2.1659, -0.129808, 0.469394, -0.542523, 0.335773, -2.08374, -2.16588, -0.128802, 0.003524, 0.00918243, 0.00473204, 0.00571039, 0.00299701, 0.00132409
0.0452375, 1.69143, -1.22585, -1.5381, -0.90017, -1.19214, 1.22847, -1.30264, 0.0110529, 0.000952201, 0.00301294, -0.00473613, -0.0157079, 0.00549, 0.00439503, 1.305, 57.5546, 27.1909, 5.83527, 1.74335, 3.29562, -0.0951428, 0.00078056, -0.00161083, 0.000351978, 0.000532553, -0.00041786, 2.94489e-05, 0.00689444, -0.00303347, -0.00271275, -0.00816827, 0.023894, -0.0015555, 0.471051, -0.543277, 0.335952, -2.08376, -2.1659, -0.129801, 0.469402, -0.542518, 0.335774, -2.08373, -2.1659, -0.128783, 0.00373068, 0.00972421, 0.00501061, 0.00690911, 0.00345953, 0.00117062
0.0462375, 1.69145, -1.22585, -1.5381, -0.90018, -1.19216, 1.22847, -1.30264, 0.0137756, -0.00117, 0.00131935, -0.00648031, -0.0216092, 0.00336294, 0.000996838, 1.53114, 57.63, 27.2306, 5.79956, 1.75525, 3.324, -0.0356336, 0.000777893, -0.00160271, 0.000360506, 0.000542713, -0.000428675, 5.94039e-06, 0.00725557, -0.00341202, -0.00533503, -0.0159208, 0.0262924, 0.00282289, 0.471055, -0.543267, 0.335957, -2.08375, -2.16591, -0.129793, 0.469414, -0.542509, 0.33577, -2.0837, -2.16593, -0.128755, 0.00394263, 0.0102801, 0.00529638, 0.00741728, 0.00407796, -0.00120037
0.0472375, 1.69147, -1.22585, -1.53811, -0.900174, -1.19218, 1.22848, -1.30264, 0.0132029, -0.000811166, 0.000223413, 0.000949712, -0.0171254, 0.00280753, 0.000630351, 1.87232, 57.63, 27.2663, 5.53772, 1.77997, 3.324, -0.0292249, 0.000765548, -0.00160113, 0.000363718, 0.000538171, -0.000449434, 1.37483e-05, 0.00956171, -0.00140391, -0.00471032, -0.0118721, 0.0224999, -0.00339591, 0.471059, -0.543256, 0.335962, -2.08375, -2.16592, -0.129785, 0.46942, -0.54251, 0.33577, -2.08371, -2.16594, -0.12873, 0.00415982, 0.0108501, 0.00558931, 0.0057342, 0.00219274, -0.000587802
0.0482375, 1.69149, -1.22586, -1.53811, -0.900171, -1.1922, 1.22849, -1.30264, 0.0130335, -0.00139937, -0.000644781, 0.00176695, -0.0179094, 0.00680749, 0.00155594, 2.20954, 57.6657, 27.306, 5.31555, 1.79187, 3.31759, -0.0557752, 0.000755553, -0.00159705, 0.000369268, 0.000538755, -0.000467671, 1.61088e-05, 0.0113021, -0.00139086, -0.00510362, -0.00941094, 0.0249198, -0.00637247, 0.471064, -0.543245, 0.335968, -2.08374, -2.16592, -0.129777, 0.469428, -0.542508, 0.335769, -2.08372, -2.16596, -0.128703, 0.00438218, 0.0114339, 0.00588931, 0.00599171, 0.00111838, -0.000945784
0.0492375, 1.69152, -1.22586, -1.53811, -0.900176, -1.19223, 1.2285, -1.30263, 0.0187153, -0.000950447, -0.00199957, 0.00310313, -0.0196126, 0.00497529, 0.00233836, 2.43568, 57.6657, 27.3774, 5.2005, 1.8349, 3.324, -0.0878186, 0.000750576, -0.00158621, 0.000377816, 0.000549663, -0.000491373, 4.09961e-06, 0.010191, -0.00326451, -0.00581405, -0.0134512, 0.0264151, -0.00445658, 0.471068, -0.543234, 0.335974, -2.08373, -2.16593, -0.129768, 0.469443, -0.542499, 0.335765, -2.0837, -2.16599, -0.128659, 0.00460967, 0.0120315, 0.00619634, 0.00802494, 0.00299904, -0.00122441
0.0502375, 1.69155, -1.22586, -1.53811, -0.900168, -1.19226, 1.22851, -1.30264, 0.0219113, -0.00324524, -0.000422285, 0.00752631, -0.0201335, 0.0116633, 0.000695176, 2.70148, 57.7768, 27.3417, 4.94263, 1.85962, 3.33865, -0.0621838, 0.000742642, -0.00157603, 0.000384774, 0.000545558, -0.000509176, -8.08457e-06, 0.0114148, -0.00530538, -0.00579264, -0.00535409, 0.0278933, -0.00342275, 0.471073, -0.543221, 0.335981, -2.08372, -2.16594, -0.129759, 0.469458, -0.542493, 0.335763, -2.08369, -2.16602, -0.128637, 0.00484224, 0.0126428, 0.00651033, 0.0103404, 0.00248257, -0.0011408
0.0512375, 1.69157, -1.22586, -1.53811, -0.900165, -1.19228, 1.22852, -1.30264, 0.0218141, -0.00217335, -0.0019881, 0.00548142, -0.023839, 0.0120101, -0.000692974, 3.07838, 57.7768, 27.417, 4.75616, 1.84772, 3.36703, -0.0292249, 0.000732838, -0.00156974, 0.000391421, 0.000551574, -0.000532079, -1.64246e-05, 0.0125037, -0.0048059, -0.00619514, -0.00929043, 0.0328801, -0.00288987, 0.471078, -0.543208, 0.335987, -2.08371, -2.16594, -0.129749, 0.46947, -0.542489, 0.335762, -2.08368, -2.16604, -0.128598, 0.00507984, 0.0132677, 0.00683122, 0.0101037, 0.00207392, -0.0013712
0.0522375, 1.69161, -1.22586, -1.53812, -0.900159, -1.19232, 1.22853, -1.30264, 0.0277701, -0.0014563, 8.29401e-05, 0.00749667, -0.0231705, 0.0126187, -0.000413774, 3.34419, 57.7768, 27.4885, 4.56573, 1.86603, 3.38901, -0.0292249, 0.000722729, -0.00156076, 0.000398103, 0.000557664, -0.000562403, -1.94522e-05, 0.0105596, -0.0079762, -0.00525413, -0.00682433, 0.0336626, 0.0016136, 0.471083, -0.543195, 0.335994, -2.0837, -2.16595, -0.129738, 0.469484, -0.542484, 0.33576, -2.08368, -2.16607, -0.128551, 0.00532241, 0.013906, 0.00715894, 0.0134768, 0.00461682, 9.15521e-05
0.0532375, 1.69164, -1.22586, -1.53812, -0.900158, -1.19235, 1.22854, -1.30263, 0.0295932, -0.000141195, 0.000340187, 0.00713716, -0.0221825, 0.00909478, 0.00121837, 3.57032, 57.7411, 27.4885, 4.45465, 1.87244, 3.40365, -0.0685925, 0.000716023, -0.00154912, 0.000401448, 0.000562589, -0.000596684, -2.86805e-05, 0.00958882, -0.00830328, -0.00508546, -0.009831, 0.0329458, 0.00197203, 0.471088, -0.54318, 0.336002, -2.08369, -2.16596, -0.129728, 0.469501, -0.542475, 0.335763, -2.08367, -2.1661, -0.128501, 0.00556992, 0.0145576, 0.00749345, 0.0140223, 0.00621438, 0.000733323
0.0542375, 1.69167, -1.22586, -1.53812, -0.90015, -1.19238, 1.22855, -1.30263, 0.0284194, -0.000933509, -0.00132278, 0.00877549, -0.0268579, 0.00593067, 0.00107672, 3.90754, 57.7768, 27.5638, 4.26819, 1.89624, 3.43204, -0.0750012, 0.000702486, -0.00154235, 0.000409415, 0.000568517, -0.000626327, -2.8466e-05, 0.0123141, -0.00562662, -0.00637222, -0.0156083, 0.03481, -0.00340191, 0.471094, -0.543166, 0.336009, -2.08368, -2.16597, -0.129716, 0.469514, -0.542472, 0.335761, -2.08368, -2.16613, -0.128453, 0.00582231, 0.0152225, 0.00783467, 0.0116528, 0.0042769, -0.000537966
0.0552375, 1.69171, -1.22586, -1.53813, -0.900159, -1.19242, 1.22856, -1.30263, 0.0309076, -0.000625459, -0.00164962, 0.00382886, -0.0306742, 0.00797273, -0.000245191, 4.24873, 57.7768, 27.6035, 4.34357, 1.92737, 3.46042, -0.0484509, 0.000693062, -0.00153161, 0.000420064, 0.000583596, -0.000660966, -4.69868e-05, 0.0114629, -0.00773409, -0.00719245, -0.0189051, 0.0402559, 0.00268761, 0.4711, -0.54315, 0.336017, -2.08367, -2.16597, -0.129705, 0.46953, -0.542464, 0.335756, -2.08365, -2.16617, -0.128391, 0.00607953, 0.0159004, 0.00818254, 0.0139545, 0.00600797, -0.000931672
0.0562375, 1.69174, -1.22587, -1.53813, -0.900155, -1.19247, 1.22857, -1.30263, 0.0311999, -0.00301777, -0.000979557, 0.00412214, -0.0382517, 0.00962099, 0.000597778, 4.51453, 57.8879, 27.6035, 4.26819, 1.96399, 3.48239, -0.0685925, 0.000681134, -0.00151942, 0.000429337, 0.00058645, -0.000695835, -5.57961e-05, 0.0139063, -0.0071628, -0.00844089, -0.020822, 0.0453127, -0.000887227, 0.471106, -0.543134, 0.336026, -2.08366, -2.16598, -0.129692, 0.469549, -0.542458, 0.335753, -2.08365, -2.16621, -0.128341, 0.00634154, 0.0165914, 0.00853701, 0.0136885, 0.00445534, -0.00217176
0.0572375, 1.69178, -1.22587, -1.53813, -0.900155, -1.19252, 1.22859, -1.30263, 0.0347125, -0.00117838, -0.00223333, 0.00260284, -0.038861, 0.0114041, 0.00112204, 4.77637, 57.8522, 27.6749, 4.26819, 1.98871, 3.48971, -0.0878186, 0.000668707, -0.00150878, 0.000436122, 0.000595796, -0.000740453, -6.35239e-05, 0.0130293, -0.00919222, -0.00830123, -0.0220707, 0.0493376, 0.00194959, 0.471113, -0.543117, 0.336034, -2.08364, -2.16599, -0.129679, 0.469566, -0.542451, 0.335753, -2.08365, -2.16624, -0.128273, 0.00660828, 0.0172953, 0.00889802, 0.0159557, 0.00608697, -0.00159817
0.0582375, 1.69181, -1.22587, -1.53813, -0.900153, -1.19256, 1.2286, -1.30263, 0.0331876, -0.00338536, -0.00142128, 0.00162628, -0.0383147, 0.0122088, 0.000281886, 5.07789, 57.9633, 27.6749, 4.26819, 1.98871, 3.51077, -0.0750012, 0.000652995, -0.00149978, 0.000447152, 0.00059941, -0.000774789, -7.10762e-05, 0.0141872, -0.00865708, -0.00955623, -0.021132, 0.0475738, 0.00214446, 0.471119, -0.543099, 0.336043, -2.08363, -2.166, -0.129666, 0.469582, -0.542447, 0.335749, -2.08364, -2.16628, -0.128222, 0.00687971, 0.0180119, 0.00926549, 0.0156888, 0.0058316, -0.00263338
0.0592375, 1.69186, -1.22588, -1.53813, -0.900145, -1.19262, 1.22862, -1.30263, 0.0391375, -0.00225789, -0.00182484, 0.00276572, -0.0390085, 0.0129774, -0.00173842, 5.19294, 57.9633, 27.7146, 4.19281, 2.01984, 3.52542, -0.0228162, 0.000638915, -0.00148705, 0.000456241, 0.000608912, -0.000820195, -8.57937e-05, 0.0128443, -0.0114172, -0.00939077, -0.0217423, 0.0502585, 0.00797792, 0.471126, -0.543081, 0.336053, -2.08362, -2.16601, -0.129652, 0.469602, -0.542441, 0.335746, -2.08363, -2.16633, -0.128153, 0.00715578, 0.0187412, 0.00963939, 0.0186793, 0.00797479, -0.00197132
0.0602375, 1.6919, -1.22588, -1.53813, -0.900147, -1.19266, 1.22863, -1.30263, 0.0347882, -0.00234122, -0.000250509, 0.000854514, -0.0423538, 0.0141735, -0.000679403, 5.41908, 57.999, 27.6749, 4.23248, 1.99512, 3.52542, -0.0356336, 0.000624373, -0.00147574, 0.000463453, 0.000610536, -0.000864894, -9.27304e-05, 0.0154563, -0.00922505, -0.00908324, -0.0214481, 0.0539555, 0.00330605, 0.471134, -0.543062, 0.336063, -2.0836, -2.16602, -0.129638, 0.469621, -0.542435, 0.335747, -2.08363, -2.16637, -0.128092, 0.00743644, 0.0194831, 0.0100196, 0.0168757, 0.00600064, -0.00162627
0.0612375, 1.69194, -1.22587, -1.53814, -0.900136, -1.19272, 1.22865, -1.30263, 0.0373896, -0.000726152, -0.0010665, 0.00312217, -0.0460075, 0.0179213, 0.000771387, 5.53413, 57.9633, 27.7146, 4.1214, 2.00061, 3.56112, -0.0685925, 0.000607512, -0.00146505, 0.000469154, 0.000619728, -0.000919451, -9.16267e-05, 0.0168964, -0.0099752, -0.00819093, -0.0201203, 0.060866, 0.000155601, 0.471141, -0.543042, 0.336073, -2.08359, -2.16603, -0.129623, 0.469639, -0.54243, 0.335748, -2.08364, -2.16641, -0.128011, 0.00772164, 0.0202374, 0.0104062, 0.0179943, 0.00522686, -0.000604739
0.0622375, 1.69199, -1.22587, -1.53813, -0.900128, -1.19278, 1.22866, -1.30263, 0.0369474, -0.000484518, -0.000689612, 0.00473824, -0.0482346, 0.0165025, 4.22552e-05, 5.6095, 57.9633, 27.7146, 4.00635, 1.98871, 3.59683, -0.0557752, 0.000591515, -0.00145243, 0.000476865, 0.000623819, -0.000966852, -0.000104743, 0.0185705, -0.00860859, -0.00807214, -0.0215362, 0.0625799, -0.00218585, 0.471149, -0.543021, 0.336083, -2.08357, -2.16604, -0.129607, 0.46966, -0.542424, 0.335748, -2.08363, -2.16646, -0.127944, 0.00801134, 0.0210041, 0.0107989, 0.0169838, 0.00426639, -0.000312965
0.0632375, 1.69203, -1.22588, -1.53813, -0.90012, -1.19283, 1.22868, -1.30263, 0.0375728, -0.00282898, -0.000443698, 0.00480341, -0.0494574, 0.0164439, -0.000715779, 5.76026, 58.0704, 27.7146, 3.93494, 1.96399, 3.61148, -0.0356336, 0.000571208, -0.00144301, 0.000487532, 0.000627341, -0.00101246, -0.000107391, 0.0195391, -0.00856874, -0.00967493, -0.0225403, 0.0617536, -0.00177587, 0.471157, -0.543, 0.336094, -2.08356, -2.16606, -0.129591, 0.469678, -0.54242, 0.335745, -2.08364, -2.1665, -0.127878, 0.00830549, 0.021783, 0.0111979, 0.0172149, 0.00433393, -0.00164569
0.0642375, 1.69208, -1.22588, -1.53813, -0.900111, -1.1929, 1.2287, -1.30263, 0.0417408, -0.00281424, 0.000644254, 0.00587414, -0.0520873, 0.0160536, -0.000950377, 5.76026, 58.11, 27.6749, 3.81988, 1.98871, 3.63254, -0.0228162, 0.000553567, -0.00142972, 0.0004958, 0.000630807, -0.00106392, -0.000117196, 0.0190893, -0.0101728, -0.00967339, -0.0236286, 0.0642396, 0.000610044, 0.471166, -0.542978, 0.336106, -2.08354, -2.16607, -0.129574, 0.4697, -0.542414, 0.335745, -2.08363, -2.16655, -0.127807, 0.00860403, 0.0225739, 0.011603, 0.0190994, 0.00563486, -0.00121793
0.0652375, 1.69212, -1.22589, -1.53814, -0.900112, -1.19296, 1.22872, -1.30263, 0.041825, -0.00271155, -0.00308795, 0.00638601, -0.0581827, 0.011967, 0.000825623, 5.87135, 58.1458, 27.8257, 3.85956, 1.99512, 3.63986, -0.0621838, 0.000531478, -0.00142039, 0.000510533, 0.000647863, -0.0011182, -0.000116312, 0.0215987, -0.00769109, -0.0115201, -0.0333874, 0.0680697, -0.00605355, 0.471175, -0.542955, 0.336118, -2.08352, -2.16608, -0.129557, 0.469718, -0.54241, 0.335739, -2.08364, -2.16658, -0.127715, 0.00890693, 0.0233769, 0.0120141, 0.0169473, 0.00414236, -0.00294429
0.0662375, 1.69217, -1.22589, -1.53813, -0.900103, -1.19303, 1.22874, -1.30262, 0.0444419, -0.00440629, 0.000546592, 0.00971737, -0.063632, 0.0137666, 0.00150071, 5.87135, 58.2568, 27.7146, 3.78418, 2.02533, 3.63254, -0.0878186, 0.00051101, -0.00140706, 0.000519618, 0.000647384, -0.00117329, -0.000121892, 0.0229505, -0.00847249, -0.0110397, -0.0304958, 0.0718484, -0.00779565, 0.471184, -0.542931, 0.33613, -2.0835, -2.16609, -0.129539, 0.469741, -0.542404, 0.335739, -2.08364, -2.16663, -0.127642, 0.00921413, 0.0241918, 0.0124312, 0.0181011, 0.00358107, -0.00228613
0.0672375, 1.69221, -1.22589, -1.53814, -0.900102, -1.1931, 1.22875, -1.30263, 0.0454931, -0.00117439, -0.00139377, 0.00696863, -0.0673603, 0.0137862, -0.000185677, 5.91102, 58.1815, 27.79, 3.78418, 2.05005, 3.65451, -0.0557752, 0.000487252, -0.00139902, 0.000528978, 0.000664491, -0.00124041, -0.000126695, 0.0233757, -0.00852799, -0.0105637, -0.035465, 0.0791044, -0.00560332, 0.471193, -0.542906, 0.336143, -2.08349, -2.16611, -0.12952, 0.469759, -0.542401, 0.335738, -2.08364, -2.16668, -0.127537, 0.0095256, 0.0250185, 0.0128543, 0.0185008, 0.00391709, -0.00146061
0.0682375, 1.69226, -1.22589, -1.53813, -0.900098, -1.19318, 1.22877, -1.30263, 0.0452259, -0.00254624, 2.64891e-06, 0.00849994, -0.0699266, 0.0185805, -0.000869287, 5.9864, 58.2568, 27.7503, 3.78418, 2.06836, 3.66092, -0.0356336, 0.000461408, -0.00139104, 0.000540673, 0.000671813, -0.00129835, -0.000125861, 0.025676, -0.00855768, -0.0105306, -0.0309776, 0.0825556, -0.00739119, 0.471203, -0.542881, 0.336156, -2.08347, -2.16612, -0.129501, 0.469777, -0.542399, 0.335735, -2.08365, -2.16673, -0.127451, 0.00984127, 0.0258569, 0.0132832, 0.0189305, 0.00248073, -0.00135656
0.0692375, 1.6923, -1.22588, -1.53813, -0.900096, -1.19325, 1.22879, -1.30263, 0.0459987, 0.000900909, 4.62131e-06, 0.00963861, -0.0663098, 0.0184859, -0.000104444, 6.0221, 58.1458, 27.7503, 3.78418, 2.06836, 3.65451, -0.0484509, 0.000436604, -0.0013833, 0.000544, 0.000677288, -0.00137132, -0.000127731, 0.0255108, -0.00872269, -0.00870629, -0.0290271, 0.0834921, -0.00795229, 0.471213, -0.542854, 0.336169, -2.08345, -2.16613, -0.129481, 0.469796, -0.542397, 0.335742, -2.08366, -2.16678, -0.127351, 0.0101611, 0.0267069, 0.013718, 0.0194757, 0.00322015, 0.000900232
0.0702375, 1.69234, -1.22588, -1.53814, -0.900096, -1.19332, 1.22881, -1.30262, 0.0441863, 0.00143578, -0.00175802, 0.0062991, -0.0726153, 0.0219029, 0.0013887, 6.0221, 58.11, 27.8257, 3.81988, 2.05005, 3.66824, -0.0878186, 0.000408621, -0.00137667, 0.000553583, 0.000692628, -0.00144459, -0.00012157, 0.0281518, -0.00770207, -0.0093949, -0.0321626, 0.0918292, -0.0120055, 0.471223, -0.542827, 0.336183, -2.08343, -2.16615, -0.129461, 0.469813, -0.542396, 0.335742, -2.08368, -2.16682, -0.127239, 0.0104851, 0.0275683, 0.0141585, 0.0188509, 0.0015381, 0.000282308
0.0712375, 1.69238, -1.22587, -1.53814, -0.900095, -1.1934, 1.22883, -1.30262, 0.0466077, 0.00439083, -0.00293364, 0.00473084, -0.0742159, 0.0205026, 0.000451289, 5.9864, 57.9633, 27.9011, 3.81988, 2.07477, 3.67557, -0.0750012, 0.000381214, -0.00136971, 0.000557812, 0.000707051, -0.00152776, -0.000118509, 0.0276648, -0.00836399, -0.0088598, -0.0363966, 0.0962845, -0.00919312, 0.471234, -0.542799, 0.336197, -2.08341, -2.16616, -0.12944, 0.469832, -0.542394, 0.335747, -2.0837, -2.16688, -0.127117, 0.0108131, 0.0284411, 0.0146048, 0.0198422, 0.00283678, 0.00131241
0.0722375, 1.69243, -1.22586, -1.53814, -0.900098, -1.19348, 1.22885, -1.30262, 0.0452387, 0.0029272, -0.00195456, 0.00262445, -0.07785, 0.0196229, -0.00115705, 5.94672, 57.9633, 27.9011, 3.85956, 2.04364, 3.67557, -0.0356336, 0.000354989, -0.00136055, 0.000566533, 0.00071635, -0.00159782, -0.000127386, 0.0291413, -0.00734082, -0.00998999, -0.0392872, 0.0980587, -0.00855722, 0.471245, -0.54277, 0.336212, -2.08339, -2.16618, -0.129418, 0.469852, -0.542389, 0.335749, -2.0837, -2.16694, -0.127015, 0.0111452, 0.0293251, 0.0150567, 0.0191649, 0.00239468, 0.000450526
0.0732375, 1.69247, -1.22586, -1.53814, -0.900093, -1.19356, 1.22887, -1.30262, 0.047408, 0.00472376, -0.00130213, 0.00297658, -0.07645, 0.0233834, -0.00100861, 5.91102, 57.9633, 27.9011, 3.81988, 2.01984, 3.67557, -0.0292249, 0.000323744, -0.00135397, 0.000574871, 0.000722811, -0.00167275, -0.000123248, 0.0290304, -0.00904787, -0.00876275, -0.0351937, 0.101173, -0.00686779, 0.471256, -0.542741, 0.336228, -2.08336, -2.16619, -0.129396, 0.469871, -0.542389, 0.335751, -2.08371, -2.16699, -0.126909, 0.0114812, 0.0302203, 0.0155142, 0.0212468, 0.0032813, 0.00208523
0.0742375, 1.69252, -1.22585, -1.53814, -0.900097, -1.19364, 1.22889, -1.30262, 0.0495999, 0.00514342, -0.000867412, 0.00128057, -0.0754341, 0.0216297, 0.00176908, 5.83564, 57.8879, 27.9011, 3.85956, 1.99512, 3.68289, -0.0951428, 0.000297555, -0.0013435, 0.000580465, 0.000735186, -0.00175516, -0.000123889, 0.027993, -0.010156, -0.00919589, -0.0373551, 0.100708, -0.0062147, 0.471268, -0.54271, 0.336243, -2.08334, -2.16621, -0.129373, 0.469894, -0.542383, 0.335757, -2.08373, -2.16705, -0.126789, 0.0118212, 0.0311266, 0.0159772, 0.0226405, 0.00532424, 0.00224776
0.0752375, 1.69257, -1.22584, -1.53813, -0.900097, -1.19373, 1.22891, -1.30262, 0.047305, 0.00723072, 0.00426888, 0.00102186, -0.0751785, 0.0199509, -0.00126195, 5.79597, 57.8522, 27.8257, 3.85956, 1.9823, 3.69754, -0.0292249, 0.00026753, -0.00133661, 0.000584432, 0.000745228, -0.00184015, -0.000131748, 0.0284065, -0.00914465, -0.00654502, -0.03419, 0.101998, -0.00347516, 0.47128, -0.542678, 0.33626, -2.08332, -2.16623, -0.129349, 0.469914, -0.54238, 0.335765, -2.08373, -2.16712, -0.126668, 0.012165, 0.0320437, 0.0164457, 0.0220863, 0.00538391, 0.00530054
0.0762375, 1.69262, -1.22583, -1.53813, -0.900095, -1.19382, 1.22893, -1.30262, 0.04962, 0.0051832, 0.00226803, 0.00173537, -0.0794426, 0.0185382, 0.00037945, 5.72059, 57.8522, 27.8614, 3.81988, 1.96399, 3.7186, -0.0621838, 0.000236179, -0.00132795, 0.000594091, 0.00075872, -0.00192109, -0.000125291, 0.0298746, -0.00886031, -0.00893861, -0.0397329, 0.103531, -0.00658874, 0.471292, -0.542646, 0.336276, -2.08329, -2.16625, -0.129324, 0.469935, -0.542376, 0.335767, -2.08375, -2.16717, -0.126546, 0.0125127, 0.0329717, 0.0169196, 0.0221162, 0.00521886, 0.00319206
0.0772375, 1.69267, -1.22584, -1.53813, -0.900097, -1.19392, 1.22895, -1.30262, 0.0488116, -0.000541386, -5.82167e-05, 0.0012515, -0.083509, 0.0220892, 0.000490362, 5.6095, 58.0347, 27.9368, 3.81988, 1.9704, 3.72592, -0.0685925, 0.00020346, -0.00131867, 0.000611372, 0.000780474, -0.00199761, -0.000126271, 0.0332802, -0.00802782, -0.013177, -0.0415559, 0.103731, -0.0102348, 0.471305, -0.542612, 0.336293, -2.08327, -2.16626, -0.129299, 0.469958, -0.542372, 0.335761, -2.08375, -2.16722, -0.126419, 0.0128642, 0.0339105, 0.0173989, 0.0216054, 0.00341251, -0.00101628
0.0782375, 1.69272, -1.22583, -1.53813, -0.900098, -1.19401, 1.22897, -1.30261, 0.0466158, -0.000156894, 0.00242008, 0.000905271, -0.0865864, 0.0214797, 0.00131028, 5.56983, 58.0347, 27.9725, 3.81988, 1.97681, 3.71127, -0.0951428, 0.000169226, -0.00131284, 0.000620669, 0.000796971, -0.00208281, -0.000120541, 0.0351444, -0.00646404, -0.0124016, -0.0415447, 0.10679, -0.0135614, 0.471318, -0.542578, 0.336311, -2.08324, -2.16628, -0.129273, 0.469978, -0.54237, 0.335764, -2.08377, -2.16728, -0.126288, 0.0132194, 0.0348598, 0.0178835, 0.0204951, 0.00233754, -7.25043e-06
0.0792375, 1.69277, -1.22583, -1.53813, -0.900098, -1.1941, 1.22899, -1.30262, 0.0480637, -0.00171481, 0.00416952, 0.000656717, -0.0890615, 0.0201198, -0.000109804, 5.53413, 58.11, 28.0121, 3.81988, 1.98871, 3.7186, -0.0685925, 0.000134618, -0.00130574, 0.000632697, 0.000815854, -0.00216662, -0.00012273, 0.035569, -0.00675712, -0.0132735, -0.0432271, 0.107206, -0.0112576, 0.471331, -0.542543, 0.336329, -2.08322, -2.1663, -0.129247, 0.469999, -0.542367, 0.335765, -2.08377, -2.16734, -0.126156, 0.0135784, 0.0358197, 0.0183733, 0.0211308, 0.00302446, -0.00045295
0.0802375, 1.69282, -1.22583, -1.53813, -0.900103, -1.1942, 1.22901, -1.30262, 0.0515532, 9.24068e-05, 0.00472584, -0.00128552, -0.0909881, 0.0198664, -0.00129389, 5.53413, 58.1815, 28.0875, 3.89526, 2.00061, 3.70395, -0.0356336, 9.8892e-05, -0.00129846, 0.000647079, 0.000836501, -0.00225176, -0.000127124, 0.0345302, -0.00856326, -0.012839, -0.0455747, 0.111371, -0.00614764, 0.471345, -0.542506, 0.336348, -2.08319, -2.16632, -0.12922, 0.470021, -0.542363, 0.335764, -2.08377, -2.1674, -0.12602, 0.013941, 0.03679, 0.0188684, 0.0232758, 0.00502842, 0.000577167
0.0812375, 1.69288, -1.22582, -1.53813, -0.900101, -1.1943, 1.22903, -1.30262, 0.0527214, -0.00138295, 0.00474615, 8.12902e-06, -0.0963515, 0.0193905, 0.000120762, 5.45875, 58.2568, 28.0478, 3.85956, 1.99512, 3.69754, -0.0621838, 6.52124e-05, -0.00128697, 0.000659585, 0.000850665, -0.00233609, -0.000129749, 0.0365739, -0.00787813, -0.0139746, -0.0485665, 0.114655, -0.0101217, 0.471359, -0.542469, 0.336367, -2.08316, -2.16634, -0.129192, 0.470047, -0.542357, 0.335765, -2.08378, -2.16747, -0.125891, 0.0143072, 0.0377706, 0.0193685, 0.0229909, 0.00413749, -0.000339656
0.0822375, 1.69295, -1.22583, -1.53813, -0.900108, -1.1944, 1.22905, -1.30261, 0.0576545, -0.000386942, 0.00190154, -0.00173537, -0.0956487, 0.0184605, 0.00130122, 5.3437, 58.3679, 28.1232, 3.93494, 1.99512, 3.70395, -0.0951428, 3.35468e-05, -0.00127274, 0.000678158, 0.000877689, -0.00241967, -0.000137285, 0.035169, -0.0100319, -0.0153382, -0.0534512, 0.115787, -0.0068793, 0.471373, -0.542431, 0.336386, -2.08313, -2.16636, -0.129163, 0.470076, -0.542346, 0.335761, -2.08377, -2.16753, -0.125748, 0.014677, 0.0387614, 0.0198738, 0.0254112, 0.00681432, -0.00102879
0.0832375, 1.693, -1.22581, -1.53813, -0.900111, -1.1945, 1.22906, -1.30261, 0.0583972, 0.00647625, 0.000807986, -0.0019753, -0.0949468, 0.0217999, -0.000115858, 5.3437, 58.2172, 28.1589, 3.97064, 1.98871, 3.7186, -0.0685925, 3.60186e-07, -0.00126243, 0.0006844, 0.000896101, -0.00251716, -0.000146338, 0.0356034, -0.0104748, -0.0118324, -0.0512485, 0.124504, -0.00576218, 0.471388, -0.542392, 0.336407, -2.0831, -2.16638, -0.129134, 0.470102, -0.542339, 0.335769, -2.08377, -2.16761, -0.1256, 0.0150503, 0.0397623, 0.0203841, 0.0263714, 0.00686609, 0.00286259
0.0842375, 1.69307, -1.22581, -1.53813, -0.900111, -1.1946, 1.22908, -1.30261, 0.0601175, 0.00226666, -0.00010773, -0.000469023, -0.0950631, 0.0203689, -0.00129794, 5.30799, 58.3282, 28.1986, 3.93494, 1.99512, 3.72592, -0.0356336, -3.40613e-05, -0.00124892, 0.000701681, 0.000916262, -0.0025996, -0.000159926, 0.0368136, -0.0103423, -0.0150036, -0.0536753, 0.120372, -0.00544537, 0.471403, -0.542351, 0.336427, -2.08308, -2.1664, -0.129103, 0.470132, -0.542329, 0.335767, -2.08376, -2.16769, -0.125465, 0.0154271, 0.0407732, 0.0208993, 0.0265444, 0.00716415, 6.30729e-05
0.0852375, 1.69313, -1.2258, -1.53813, -0.900115, -1.19469, 1.22909, -1.30261, 0.0597103, 0.00575979, -0.00162383, -0.00113843, -0.0949169, 0.0187224, 0.000118057, 5.3437, 58.2925, 28.274, 3.97064, 2.00061, 3.74698, -0.0621838, -6.91176e-05, -0.00123984, 0.000715024, 0.000943616, -0.00268639, -0.00016378, 0.0376535, -0.00924138, -0.0140732, -0.0567487, 0.123766, -0.0082715, 0.471419, -0.54231, 0.336448, -2.08304, -2.16642, -0.129072, 0.470157, -0.54232, 0.33577, -2.08375, -2.16775, -0.125316, 0.0158074, 0.041794, 0.0214195, 0.0258903, 0.00716707, 0.00140562
0.0862375, 1.6932, -1.2258, -1.53813, -0.900117, -1.1948, 1.22911, -1.30261, 0.0625141, 0.00263489, 0.00139866, -0.0041856, -0.0952312, 0.0135986, 0.00153677, 5.38337, 58.3679, 28.3097, 3.97064, 2.01343, 3.76163, -0.101552, -0.000105684, -0.00122893, 0.000731162, 0.000963887, -0.00276975, -0.000167918, 0.0357844, -0.0107015, -0.0162312, -0.0612723, 0.119247, -0.00371216, 0.471435, -0.542268, 0.33647, -2.08301, -2.16645, -0.129041, 0.470185, -0.542311, 0.335769, -2.08375, -2.16782, -0.125178, 0.016191, 0.0428246, 0.0219445, 0.0275855, 0.0104353, 4.47575e-05
0.0872375, 1.69327, -1.22579, -1.53813, -0.900117, -1.1949, 1.22912, -1.30261, 0.0665539, 0.00134008, 0.00364219, -0.00571186, -0.0950781, 0.00976786, -0.000196188, 5.3437, 58.4036, 28.3454, 3.93494, 2.01343, 3.77627, -0.0685925, -0.000139703, -0.00121474, 0.0007456, 0.00098602, -0.00285665, -0.000182349, 0.0338571, -0.01263, -0.0173335, -0.0644568, 0.116766, 0.00363068, 0.471451, -0.542224, 0.336492, -2.08298, -2.16647, -0.129008, 0.470216, -0.542298, 0.335772, -2.08374, -2.1679, -0.125034, 0.016578, 0.0438649, 0.0224743, 0.0297883, 0.0136282, -0.000274117
0.0882375, 1.69334, -1.22579, -1.53814, -0.900121, -1.195, 1.22913, -1.30261, 0.0670603, -0.00139105, -0.000548283, -0.00781739, -0.101232, 0.0103593, -0.00135149, 5.41908, 58.5147, 28.4961, 3.93494, 2.05646, 3.81198, -0.0356336, -0.000179186, -0.00120572, 0.00076643, 0.00102092, -0.00294227, -0.000193256, 0.0365238, -0.0116976, -0.0210644, -0.0722156, 0.120576, 0.00223335, 0.471468, -0.54218, 0.336515, -2.08295, -2.16649, -0.128975, 0.470243, -0.542289, 0.335767, -2.08372, -2.16797, -0.124877, 0.0169683, 0.0449148, 0.0230089, 0.0292082, 0.0125797, -0.00380819
0.0892375, 1.69341, -1.22578, -1.53813, -0.900126, -1.1951, 1.22914, -1.30261, 0.0712629, 0.00311924, 0.000975049, -0.0101378, -0.105313, 0.0119593, -0.000426277, 5.45875, 58.475, 28.4565, 3.97064, 2.08667, 3.8193, -0.0484509, -0.000211613, -0.00119128, 0.000778838, 0.00104583, -0.00303024, -0.000209467, 0.0353086, -0.0141713, -0.018653, -0.0731929, 0.130169, 0.00589541, 0.471485, -0.542135, 0.336538, -2.08291, -2.16652, -0.128941, 0.470275, -0.542274, 0.335773, -2.0837, -2.16805, -0.124727, 0.0173618, 0.0459742, 0.0235482, 0.0321167, 0.0145716, -0.000775242
0.0902375, 1.69348, -1.22578, -1.53814, -0.900129, -1.1952, 1.22915, -1.3026, 0.0693139, 0.00279344, -0.00256703, -0.00754452, -0.103585, 0.00833875, 0.00117388, 5.45875, 58.5861, 28.6072, 3.97064, 2.12421, 3.84036, -0.0878186, -0.000247654, -0.00117696, 0.000800635, 0.00107787, -0.0031107, -0.00022025, 0.0381189, -0.0109889, -0.0203442, -0.0775714, 0.127314, -0.00190818, 0.471503, -0.542088, 0.336562, -2.08288, -2.16654, -0.128906, 0.470307, -0.542259, 0.335769, -2.08368, -2.16812, -0.124577, 0.0177586, 0.047043, 0.0240921, 0.0293762, 0.012993, -0.00223894
0.0912375, 1.69356, -1.22578, -1.53813, -0.900127, -1.1953, 1.22916, -1.3026, 0.0741488, 0.00270086, 0.000822575, -0.00385595, -0.101592, 0.0106912, 0.000307868, 5.45875, 58.6972, 28.6429, 3.89526, 2.13611, 3.84036, -0.0750012, -0.000282499, -0.00116148, 0.000819006, 0.00110039, -0.00318664, -0.000236734, 0.0373477, -0.0137007, -0.0191225, -0.0710803, 0.127091, 0.00191142, 0.471521, -0.542041, 0.336586, -2.08285, -2.16657, -0.128871, 0.470341, -0.542242, 0.33577, -2.08365, -2.1682, -0.124441, 0.0181585, 0.048121, 0.0246406, 0.0325016, 0.0147581, -0.000447702
0.0922375, 1.69364, -1.22577, -1.53813, -0.900125, -1.1954, 1.22916, -1.30261, 0.0736284, 0.00412674, 5.58326e-05, -0.00124952, -0.101134, 0.00758553, -0.00125282, 5.49445, 58.6258, 28.6826, 3.81988, 2.17273, 3.85501, -0.0356336, -0.000317708, -0.00114772, 0.00083128, 0.00112736, -0.00327584, -0.000256095, 0.0391059, -0.0117163, -0.0188336, -0.0732513, 0.127146, -0.000470944, 0.471539, -0.541992, 0.336611, -2.08281, -2.16659, -0.128834, 0.470374, -0.542226, 0.335777, -2.08362, -2.16828, -0.124286, 0.0185616, 0.0492083, 0.0251936, 0.0309984, 0.0139825, 0.000179288
0.0932375, 1.69372, -1.22576, -1.53813, -0.900128, -1.1955, 1.22916, -1.3026, 0.0764814, 0.00240774, -0.00223463, -0.00116461, -0.101082, 0.00553618, 0.00208091, 5.53413, 58.6615, 28.7937, 3.81988, 2.22217, 3.86233, -0.114369, -0.000353733, -0.00113354, 0.000851409, 0.00116685, -0.00336064, -0.000265788, 0.0394328, -0.0121235, -0.0213688, -0.0779994, 0.125362, -0.00302289, 0.471558, -0.541942, 0.336637, -2.08277, -2.16662, -0.128797, 0.470408, -0.542208, 0.335776, -2.0836, -2.16835, -0.12412, 0.0189677, 0.0503046, 0.0257511, 0.0317304, 0.0151625, -0.00182954
0.0942375, 1.69381, -1.22576, -1.53814, -0.900129, -1.1956, 1.22917, -1.3026, 0.0816391, -0.00145967, -0.00384326, -0.000189886, -0.10049, 0.00834314, 0.000912558, 5.56983, 58.8083, 28.9048, 3.78418, 2.25879, 3.86966, -0.101552, -0.000391193, -0.00111768, 0.000877154, 0.00119821, -0.00343213, -0.000286948, 0.0394664, -0.0147309, -0.0244985, -0.0778025, 0.123347, 0.000975267, 0.471577, -0.541891, 0.336663, -2.08274, -2.16665, -0.128759, 0.470443, -0.54219, 0.335771, -2.08356, -2.16843, -0.123977, 0.0193769, 0.05141, 0.0263131, 0.0346299, 0.0168244, -0.00444334
0.0952375, 1.69389, -1.22575, -1.53814, -0.90013, -1.1957, 1.22917, -1.3026, 0.085002, 0.00497914, -0.0041417, -0.000313113, -0.0938369, 0.00634761, -0.000374972, 5.6095, 58.8083, 28.9802, 3.78418, 2.25879, 3.86966, -0.0750012, -0.000424277, -0.00110026, 0.000894429, 0.00122962, -0.00351135, -0.000316465, 0.0370314, -0.0164152, -0.0215943, -0.0771908, 0.124222, 0.00673675, 0.471597, -0.541839, 0.33669, -2.0827, -2.16667, -0.128721, 0.470481, -0.542167, 0.335774, -2.08351, -2.16852, -0.123826, 0.0197891, 0.0525242, 0.0268794, 0.0367425, 0.0199674, -0.000683968
0.0962375, 1.69399, -1.22574, -1.53814, -0.90013, -1.1958, 1.22916, -1.3026, 0.0845225, 0.00605808, -0.00134792, 0.000579386, -0.0903647, 0.00431225, -0.00147068, 5.53413, 58.844, 29.0555, 3.74451, 2.29541, 3.88339, -0.0420422, -0.000458929, -0.00108264, 0.00091467, 0.00126478, -0.00359029, -0.000345962, 0.0371051, -0.01599, -0.0204083, -0.074775, 0.121936, 0.00813171, 0.471617, -0.541786, 0.336717, -2.08266, -2.1667, -0.128681, 0.470519, -0.542144, 0.335776, -2.08346, -2.16861, -0.12367, 0.0202043, 0.0536472, 0.02745, 0.03678, 0.020818, 0.00105947
0.0972375, 1.69407, -1.22573, -1.53814, -0.90013, -1.19589, 1.22917, -1.3026, 0.082703, 0.0133571, 0.00192188, 0.00111656, -0.0921817, 0.00382531, -0.000980456, 5.64521, 58.844, 29.0912, 3.7088, 2.32654, 3.86966, -0.0420422, -0.000497286, -0.0010695, 0.000929313, 0.00128923, -0.00367339, -0.000364747, 0.0381962, -0.0145453, -0.0152378, -0.072493, 0.130909, 0.00526393, 0.471637, -0.541732, 0.336744, -2.08262, -2.16673, -0.128641, 0.470553, -0.542125, 0.335783, -2.08343, -2.1687, -0.12352, 0.0206224, 0.0547789, 0.0280249, 0.0359868, 0.0200185, 0.00661564
0.0982375, 1.69416, -1.22573, -1.53814, -0.900136, -1.19599, 1.22917, -1.3026, 0.0882726, 0.00861286, 0.00239936, -0.000169536, -0.0882536, 0.0028816, 9.2348e-05, 5.6095, 59.0305, 29.2023, 3.74451, 2.34485, 3.86966, -0.0621838, -0.000532453, -0.00105035, 0.000956325, 0.00132453, -0.00374107, -0.000390826, 0.036011, -0.0179477, -0.0188243, -0.0733957, 0.123537, 0.0115115, 0.471658, -0.541677, 0.336773, -2.08258, -2.16676, -0.128599, 0.470593, -0.5421, 0.335778, -2.08338, -2.16878, -0.123374, 0.0210433, 0.0559192, 0.028604, 0.0395935, 0.0240097, 0.00388664
0.0992375, 1.69425, -1.22572, -1.53814, -0.90014, -1.19608, 1.22917, -1.3026, 0.0921799, 0.00812789, 0.000507616, -0.00110006, -0.0910802, 0.00216961, -0.00068442, 5.56983, 59.1019, 29.2777, 3.78418, 2.38788, 3.86966, -0.0420422, -0.000566548, -0.00102942, 0.000978508, 0.00135791, -0.00381807, -0.00042605, 0.0361298, -0.0191216, -0.0205862, -0.078533, 0.126131, 0.0141678, 0.471679, -0.54162, 0.336802, -2.08254, -2.16679, -0.128557, 0.470636, -0.542073, 0.335779, -2.08332, -2.16888, -0.12322, 0.0214671, 0.057068, 0.0291872, 0.0411293, 0.0253614, 0.00267546
0.100238, 1.69434, -1.22571, -1.53814, -0.900145, -1.19618, 1.22917, -1.3026, 0.087079, 0.00840276, 0.00494536, -0.00254087, -0.0968429, 0.00190408, 0.000527064, 5.6095, 59.1415, 29.238, 3.85956, 2.40619, 3.86233, -0.0685925, -0.000602624, -0.00101135, 0.000994736, 0.00138049, -0.00389905, -0.000454276, 0.0393476, -0.0162007, -0.0192203, -0.0779087, 0.131463, 0.00841917, 0.471701, -0.541563, 0.336831, -2.08249, -2.16682, -0.128514, 0.470676, -0.542047, 0.335787, -2.08328, -2.16898, -0.123073, 0.0218936, 0.0582252, 0.0297746, 0.0388084, 0.0230096, 0.00420372
0.101238, 1.69444, -1.2257, -1.53814, -0.900145, -1.19627, 1.22917, -1.30259, 0.0891687, 0.00985855, -0.000422573, 3.61244e-05, -0.0923009, 0.00113792, 0.00133472, 5.53413, 59.2487, 29.4245, 3.78418, 2.43091, 3.86966, -0.0951428, -0.00064202, -0.000994344, 0.00101831, 0.00141664, -0.00397665, -0.000475639, 0.0404087, -0.015737, -0.0205092, -0.0806045, 0.129795, 0.00537736, 0.471723, -0.541504, 0.336861, -2.08245, -2.16685, -0.128471, 0.470716, -0.542023, 0.335787, -2.08324, -2.16906, -0.122912, 0.0223229, 0.0593907, 0.030366, 0.0387667, 0.0233061, 0.00337249
0.102238, 1.69453, -1.22569, -1.53814, -0.900146, -1.19637, 1.22917, -1.3026, 0.0846667, 0.00930026, 0.000199948, -0.00342563, -0.0928506, 0.00113474, -0.000839516, 5.56983, 59.4351, 29.4245, 3.78418, 2.43732, 3.86233, -0.0484509, -0.000682865, -0.000978079, 0.00103966, 0.00144012, -0.00405217, -0.000506674, 0.0426482, -0.0135785, -0.0212833, -0.0817987, 0.130613, 0.00529741, 0.471746, -0.541444, 0.336892, -2.08241, -2.16688, -0.128426, 0.470756, -0.542, 0.33579, -2.08318, -2.16916, -0.122768, 0.022755, 0.0605644, 0.0309614, 0.0370977, 0.0222969, 0.00292373
0.103238, 1.69462, -1.22568, -1.53814, -0.900159, -1.19647, 1.22917, -1.3026, 0.0872005, 0.00887202, 0.00191431, -0.0061143, -0.0937925, 0.000835131, -0.0010344, 5.49445, 59.5065, 29.4999, 3.93494, 2.46112, 3.86233, -0.0356336, -0.000720577, -0.000957487, 0.00106195, 0.00147471, -0.00413977, -0.000541748, 0.0418027, -0.0152825, -0.0218823, -0.0831728, 0.131823, 0.00989441, 0.471769, -0.541383, 0.336923, -2.08236, -2.16691, -0.128381, 0.4708, -0.541971, 0.335793, -2.08313, -2.16926, -0.122599, 0.0231896, 0.0617462, 0.0315607, 0.0391814, 0.0244773, 0.00300988
0.104238, 1.69472, -1.22567, -1.53814, -0.900167, -1.19657, 1.22917, -1.30259, 0.0859046, 0.00937797, 0.000884371, -0.00597469, -0.0937895, 0.000887002, 0.000531106, 5.41908, 59.6573, 29.5395, 4.00635, 2.46112, 3.85501, -0.0685925, -0.000759066, -0.000938256, 0.00108401, 0.00150425, -0.00421782, -0.000572091, 0.043841, -0.0138737, -0.0222859, -0.0841973, 0.133176, 0.00544742, 0.471792, -0.54132, 0.336955, -2.08231, -2.16694, -0.128334, 0.470843, -0.541943, 0.335796, -2.08308, -2.16936, -0.122444, 0.0236269, 0.0629361, 0.0321639, 0.0382728, 0.0236575, 0.00294292
0.105238, 1.69481, -1.22566, -1.53814, -0.90017, -1.19668, 1.22917, -1.30259, 0.084732, 0.00913155, 0.00160806, -0.00756567, -0.094351, 0.000906837, 0.00133742, 5.3437, 59.8398, 29.6506, 4.00635, 2.47394, 3.84768, -0.0951428, -0.00080401, -0.000923104, 0.00110898, 0.00153671, -0.00429876, -0.000592338, 0.0451338, -0.013171, -0.0227615, -0.0848847, 0.134273, 0.00405827, 0.471816, -0.541257, 0.336987, -2.08227, -2.16698, -0.128287, 0.470883, -0.541919, 0.335797, -2.08303, -2.16945, -0.12228, 0.0240668, 0.0641338, 0.032771, 0.0380419, 0.0236224, 0.00290232
0.106238, 1.6949, -1.22565, -1.53814, -0.900178, -1.19678, 1.22917, -1.30259, 0.0870767, 0.0108455, 0.00301694, -0.00638437, -0.0998445, 0.00118027, -0.000566452, 5.26832, 59.9509, 29.722, 4.04602, 2.49225, 3.83304, -0.0557752, -0.000848459, -0.000907412, 0.0011298, 0.00156759, -0.00438918, -0.000623498, 0.046366, -0.0133942, -0.0216161, -0.08611, 0.141311, 0.00505737, 0.47184, -0.541192, 0.337021, -2.08222, -2.16701, -0.128239, 0.470923, -0.541895, 0.335802, -2.08298, -2.16956, -0.12211, 0.0245092, 0.0653394, 0.0333819, 0.0387962, 0.0234453, 0.00444689
0.107238, 1.695, -1.22564, -1.53813, -0.90019, -1.19689, 1.22917, -1.30259, 0.0864165, 0.0119553, 0.00674869, -0.00982441, -0.103302, 0.000540461, -0.00112362, 5.15327, 60.062, 29.6863, 4.1214, 2.49866, 3.84036, -0.0356336, -0.000890119, -0.000889591, 0.00114961, 0.00159734, -0.00447683, -0.000657992, 0.0466472, -0.0134427, -0.0205713, -0.0869307, 0.1458, 0.00759072, 0.471865, -0.541126, 0.337054, -2.08217, -2.16705, -0.12819, 0.470967, -0.541866, 0.335809, -2.08292, -2.16966, -0.121942, 0.0249541, 0.0665526, 0.0339965, 0.0393399, 0.0242229, 0.00604848
0.108238, 1.69509, -1.22562, -1.53813, -0.900201, -1.197, 1.22917, -1.30259, 0.0875662, 0.0109146, 0.00809772, -0.0087434, -0.105937, 0.000378969, 0.000471623, 5.07789, 60.1334, 29.8371, 4.19281, 2.51056, 3.84036, -0.0685925, -0.000937876, -0.000876094, 0.0011708, 0.00163009, -0.0045713, -0.000677448, 0.0480604, -0.0132954, -0.0210649, -0.0873529, 0.147524, 0.00496815, 0.47189, -0.541059, 0.337088, -2.08212, -2.16708, -0.12814, 0.471006, -0.541842, 0.335815, -2.08288, -2.16976, -0.121762, 0.0254015, 0.0677736, 0.0346148, 0.0396751, 0.0241183, 0.00596554
0.109238, 1.69518, -1.22561, -1.53812, -0.900212, -1.19711, 1.22917, -1.30258, 0.0876079, 0.0111514, 0.0096598, -0.00714948, -0.108362, 0.000266642, 0.00102649, 4.92713, 60.2802, 29.8371, 4.23248, 2.52887, 3.84036, -0.0878186, -0.000983244, -0.000858235, 0.0011939, 0.00165903, -0.00466028, -0.00070839, 0.0499241, -0.0124546, -0.0206018, -0.0869324, 0.150281, 0.00198462, 0.471916, -0.54099, 0.337123, -2.08207, -2.16712, -0.128089, 0.471051, -0.541815, 0.335819, -2.08283, -2.16987, -0.121592, 0.0258513, 0.069002, 0.0352367, 0.0393728, 0.0234003, 0.00678299
0.110238, 1.69527, -1.2256, -1.53812, -0.900226, -1.19722, 1.22917, -1.30259, 0.0857334, 0.0122518, 0.00904338, -0.00589593, -0.109432, 0.000968152, -0.00219789, 4.85175, 60.3912, 29.9085, 4.26819, 2.52338, 3.8193, -0.00999879, -0.00103228, -0.000844451, 0.00121487, 0.0016876, -0.00475486, -0.000743748, 0.0527356, -0.0105154, -0.0202819, -0.086888, 0.153303, 0.000575899, 0.471942, -0.540921, 0.337159, -2.08202, -2.16715, -0.128038, 0.471091, -0.54179, 0.335826, -2.08278, -2.16999, -0.121416, 0.0263034, 0.0702379, 0.0358623, 0.0380059, 0.0217292, 0.00735028
0.111238, 1.69536, -1.22558, -1.53811, -0.900246, -1.19733, 1.22917, -1.30259, 0.087477, 0.0137945, 0.00854898, -0.0101777, -0.109635, 0.000924575, 0.0011796, 4.77637, 60.4666, 29.9839, 4.37927, 2.50415, 3.81198, -0.0814099, -0.00108156, -0.000832288, 0.00123637, 0.00172279, -0.00485051, -0.000764341, 0.0519868, -0.0118156, -0.0206813, -0.0901011, 0.156304, 0.00132271, 0.471968, -0.54085, 0.337195, -2.08197, -2.16719, -0.127985, 0.471131, -0.541764, 0.335833, -2.08273, -2.17009, -0.12123, 0.0267579, 0.0714811, 0.0364913, 0.0397174, 0.0238283, 0.00766059
0.112238, 1.69545, -1.22556, -1.53811, -0.900264, -1.19745, 1.22917, -1.30258, 0.0850165, 0.0140193, 0.0090263, -0.0159379, -0.110747, 0.000622288, 0.000786399, 4.58991, 60.5777, 30.0236, 4.45465, 2.51056, 3.81198, -0.0814099, -0.00113041, -0.000816973, 0.001259, 0.00175607, -0.00494678, -0.000793852, 0.0527531, -0.0111309, -0.0215219, -0.0932942, 0.158546, 0.00316368, 0.471995, -0.540778, 0.337232, -2.08192, -2.16723, -0.127932, 0.471174, -0.541736, 0.335839, -2.08268, -2.1702, -0.121045, 0.0272147, 0.0727316, 0.0371239, 0.0394889, 0.024422, 0.00736633
0.113238, 1.69554, -1.22555, -1.5381, -0.90029, -1.19756, 1.22917, -1.30258, 0.0827674, 0.0123629, 0.00625826, -0.0185159, -0.115078, 0.000690555, 4.95481e-05, 4.55024, 60.6491, 30.0593, 4.60541, 2.48584, 3.80466, -0.0685925, -0.00118168, -0.000804044, 0.00128052, 0.0017849, -0.0050457, -0.000825584, 0.0559084, -0.00902281, -0.0241554, -0.0991906, 0.161673, 0.000165238, 0.472023, -0.540705, 0.337269, -2.08186, -2.16726, -0.127878, 0.471216, -0.541709, 0.335847, -2.08263, -2.17031, -0.120861, 0.0276737, 0.0739892, 0.0377598, 0.037863, 0.0228783, 0.00498025
0.114238, 1.69562, -1.22553, -1.5381, -0.900307, -1.19767, 1.22917, -1.30259, 0.0829662, 0.013746, 0.00365492, -0.0200977, -0.118398, 0.00151485, -0.00118767, 4.43916, 60.7245, 30.2457, 4.60541, 2.47394, 3.77627, -0.0356336, -0.00123613, -0.000793138, 0.00130308, 0.00181856, -0.0051459, -0.000852788, 0.0578323, -0.00828653, -0.0248686, -0.10346, 0.167353, -0.000430556, 0.472051, -0.54063, 0.337307, -2.08181, -2.1673, -0.127822, 0.471256, -0.541684, 0.335854, -2.08258, -2.17042, -0.12067, 0.028135, 0.0752539, 0.0383992, 0.0376354, 0.0223214, 0.00464148
0.115238, 1.69571, -1.2255, -1.53808, -0.900331, -1.19779, 1.22917, -1.30258, 0.0869656, 0.0186565, 0.00963842, -0.022453, -0.116909, 0.00128366, -0.0012665, 4.2884, 60.7602, 30.2457, 4.64111, 2.46753, 3.76895, -0.0228162, -0.00128637, -0.000778334, 0.00132055, 0.00184434, -0.00524924, -0.000886931, 0.0546544, -0.0116395, -0.0208708, -0.0995398, 0.171718, 0.0079015, 0.472079, -0.540554, 0.337346, -2.08175, -2.16734, -0.127766, 0.4713, -0.541655, 0.335868, -2.08252, -2.17055, -0.120484, 0.0285984, 0.0765256, 0.0390419, 0.0414799, 0.026261, 0.00961878
0.116238, 1.6958, -1.22548, -1.53807, -0.900357, -1.1979, 1.22917, -1.30258, 0.0891324, 0.0185485, 0.0107672, -0.0209966, -0.116204, 0.00140018, 0.000105103, 4.17335, 60.8356, 30.2457, 4.68079, 2.47394, 3.7543, -0.0484509, -0.00133784, -0.000763444, 0.00134039, 0.00187102, -0.00535195, -0.000920324, 0.0551105, -0.0123281, -0.0208932, -0.098273, 0.17182, 0.00713524, 0.472108, -0.540477, 0.337386, -2.0817, -2.16738, -0.127709, 0.471345, -0.541625, 0.335879, -2.08247, -2.17067, -0.120296, 0.0290639, 0.0778042, 0.0396878, 0.0426508, 0.0271223, 0.010151
0.117238, 1.69589, -1.22546, -1.53806, -0.900382, -1.19801, 1.22917, -1.30258, 0.0897209, 0.0212536, 0.00972126, -0.0188653, -0.115329, 0.00120612, 0.000341336, 4.09797, 60.907, 30.3211, 4.68079, 2.46753, 3.74698, -0.0557752, -0.00139207, -0.000751291, 0.00136085, 0.00189874, -0.00545285, -0.000951007, 0.056597, -0.0115055, -0.0198859, -0.0983058, 0.174465, 0.00430851, 0.472137, -0.540398, 0.337426, -2.08164, -2.16742, -0.127651, 0.471388, -0.541596, 0.33589, -2.08242, -2.17079, -0.120108, 0.0295316, 0.0790895, 0.040337, 0.0423921, 0.0267507, 0.0115914
0.118238, 1.69589, -1.22546, -1.53806, -0.900382, -1.19801, 1.22917, -1.30258, 0.0897209, 0.0212536, 0.00972126, -0.0188653, -0.115329, 0.00120612, 0.000341336, 4.09797, 60.907, 30.3211, 4.68079, 2.46753, 3.74698, -0.0557752, -0.00147591, -0.000783158, 0.00138997, 0.00185818, -0.00543487, -0.0009074, 0.057956, -0.011, -0.0203505, -0.098821, 0.175334, 0.00325978, 0.472167, -0.540319, 0.337466, -2.08158, -2.16746, -0.127592, 0.471388, -0.541596, 0.33589, -2.08242, -2.17079, -0.120108, 0.0300013, 0.0803815, 0.0409894, 0.0423921, 0.0267507, 0.0115914
0.119238, 1.69589, -1.22546, -1.53806, -0.900382, -1.19801, 1.22917, -1.30258, 0.0897209, 0.0212536, 0.00972126, -0.0188653, -0.115329, 0.00120612, 0.000341336, 4.09797, 60.907, 30.3211, 4.68079, 2.46753, 3.74698, -0.0557752, -0.0015611, -0.000815535, 0.00141956, 0.00181697, -0.00541662, -0.000863111, 0.0593218, -0.0104922, -0.0208173, -0.0993378, 0.176207, 0.00220664, 0.472197, -0.540238, 0.337508, -2.08152, -2.1675, -0.127533, 0.471388, -0.541596, 0.33589, -2.08242, -2.17079, -0.120108, 0.030473, 0.0816802, 0.0416449, 0.0423921, 0.0267507, 0.0115914
0.120238, 1.69616, -1.22539, -1.53803, -0.900483, -1.19834, 1.22917, -1.30258, 0.0861163, 0.0233454, 0.0126871, -0.0254809, -0.113105, 0.000340114, -0.000573264, 4.02259, 61.1649, 30.579, 4.60541, 2.52887, 3.74698, -0.0292249, -0.0015517, -0.000709773, 0.0014257, 0.00197998, -0.00574845, -0.00107498, 0.0589774, -0.0100076, -0.019804, -0.0993673, 0.177213, 0.00642596, 0.472228, -0.540155, 0.33755, -2.08146, -2.16755, -0.127472, 0.471524, -0.541499, 0.335924, -2.08221, -2.17118, -0.119551, 0.0309467, 0.0829853, 0.0423035, 0.042409, 0.02822, 0.0133197
0.121238, 1.69625, -1.22538, -1.53801, -0.900522, -1.19844, 1.22918, -1.30258, 0.0880805, 0.0194355, 0.0162232, -0.0285867, -0.108992, 0.000464545, -0.00136552, 3.94721, 61.3513, 30.579, 4.56573, 2.55359, 3.74057, -0.00267457, -0.00160157, -0.000690755, 0.00144921, 0.00199811, -0.00583682, -0.00112966, 0.0573884, -0.0124694, -0.0218461, -0.0968718, 0.171004, 0.0139705, 0.472259, -0.540072, 0.337592, -2.0814, -2.16759, -0.12741, 0.471575, -0.541461, 0.335935, -2.08213, -2.17133, -0.119385, 0.0314223, 0.0842969, 0.0429652, 0.0452079, 0.0315188, 0.0121333
0.122238, 1.69634, -1.22535, -1.538, -0.900567, -1.19855, 1.22918, -1.30258, 0.0870509, 0.0222548, 0.0121153, -0.0329379, -0.105978, 0.000852564, 7.29973e-05, 3.98292, 61.4227, 30.7297, 4.60541, 2.57831, 3.72592, -0.0292249, -0.00165518, -0.000676228, 0.0014732, 0.00202424, -0.00593104, -0.00117693, 0.05797, -0.0119849, -0.0226315, -0.100902, 0.173054, 0.0132518, 0.472291, -0.539987, 0.337635, -2.08134, -2.16763, -0.127348, 0.471622, -0.541424, 0.335946, -2.08205, -2.17147, -0.119203, 0.0318998, 0.0856148, 0.0436298, 0.0451955, 0.032362, 0.0119483
0.123238, 1.69642, -1.22534, -1.53798, -0.900607, -1.19864, 1.22918, -1.30258, 0.0894126, 0.0194186, 0.0141714, -0.0349758, -0.0986872, 0.00161979, 0.00103201, 4.02259, 61.5695, 30.8051, 4.45465, 2.59021, 3.69754, -0.0557752, -0.00170892, -0.000660621, 0.00149796, 0.00204216, -0.0060157, -0.00122444, 0.0561774, -0.0146213, -0.0243913, -0.0971281, 0.165651, 0.0188327, 0.472323, -0.5399, 0.337679, -2.08127, -2.16768, -0.127284, 0.471671, -0.541387, 0.335957, -2.08197, -2.1716, -0.119039, 0.0323792, 0.0869389, 0.0442973, 0.0481751, 0.0358389, 0.0110722
0.124238, 1.69651, -1.22531, -1.53797, -0.900655, -1.19874, 1.22918, -1.30258, 0.0891101, 0.0220684, 0.014852, -0.0361345, -0.0989209, 0.00162258, 0.00017938, 4.02259, 61.6449, 30.9162, 4.41894, 2.62775, 3.68289, -0.0420422, -0.00176222, -0.000644529, 0.0015221, 0.00206536, -0.00610822, -0.00127716, 0.0570154, -0.0142331, -0.0232105, -0.0974349, 0.169428, 0.0195245, 0.472355, -0.539813, 0.337724, -2.08121, -2.16772, -0.127219, 0.471721, -0.541348, 0.335969, -2.08189, -2.17175, -0.11886, 0.0328604, 0.0882692, 0.0449678, 0.0483466, 0.0361447, 0.0127919
0.125238, 1.6966, -1.22528, -1.53795, -0.9007, -1.19884, 1.22918, -1.30258, 0.0876155, 0.0257088, 0.0173136, -0.0420736, -0.0988886, 0.00189566, -0.000829849, 4.06226, 61.6449, 30.9519, 4.30786, 2.66437, 3.66092, -0.0164075, -0.0018145, -0.000626703, 0.0015412, 0.00207868, -0.0062032, -0.00133609, 0.0564811, -0.0146156, -0.0213937, -0.0978217, 0.174389, 0.0243047, 0.472389, -0.539724, 0.337769, -2.08114, -2.16777, -0.127154, 0.471773, -0.541307, 0.335987, -2.0818, -2.1719, -0.118689, 0.0333434, 0.0896055, 0.045641, 0.049262, 0.0377474, 0.0153302
0.126238, 1.6967, -1.22526, -1.53793, -0.900751, -1.19893, 1.22918, -1.30258, 0.0904526, 0.0253795, 0.017159, -0.043908, -0.0977996, 0.00150124, 0.000396203, 4.06226, 61.6449, 31.063, 4.23248, 2.67627, 3.65451, -0.0420422, -0.00186545, -0.000607198, 0.0015642, 0.00209668, -0.00629261, -0.00139625, 0.0558867, -0.016121, -0.0225581, -0.0996367, 0.174146, 0.0267049, 0.472422, -0.539634, 0.337815, -2.08108, -2.16781, -0.127088, 0.471827, -0.541262, 0.336002, -2.08171, -2.17206, -0.118518, 0.0338281, 0.0909478, 0.0463171, 0.051185, 0.03992, 0.0149009
0.127238, 1.69679, -1.22524, -1.53791, -0.900805, -1.19903, 1.22918, -1.30257, 0.0890798, 0.0236811, 0.0205031, -0.0454473, -0.0985623, 0.000492278, 0.00518187, 4.09797, 61.8274, 31.0273, 4.1571, 2.72571, 3.66824, -0.0484509, -0.00191538, -0.000586201, 0.00158852, 0.00210843, -0.00637365, -0.00146231, 0.0569637, -0.0155157, -0.023084, -0.0991137, 0.173367, 0.0222037, 0.472456, -0.539542, 0.337862, -2.08101, -2.16786, -0.12702, 0.471883, -0.541215, 0.336016, -2.0816, -2.17222, -0.118362, 0.0343145, 0.092296, 0.0469959, 0.0510895, 0.0402595, 0.0149137
0.128238, 1.69687, -1.22521, -1.53789, -0.900865, -1.19912, 1.22918, -1.30257, 0.0862552, 0.0259628, 0.0192874, -0.0483888, -0.0988521, 0.000836871, 0.00411588, 4.21302, 61.8671, 31.1384, 4.1571, 2.76874, 3.65451, -0.0557752, -0.00196931, -0.000569408, 0.00161267, 0.00212607, -0.00646301, -0.001524, 0.0588972, -0.0138337, -0.0228856, -0.101308, 0.177211, 0.0212451, 0.472491, -0.539449, 0.337909, -2.08094, -2.16791, -0.126952, 0.471936, -0.541171, 0.336031, -2.08151, -2.17237, -0.11819, 0.0348026, 0.09365, 0.0476774, 0.0499808, 0.0396015, 0.0155466
0.129238, 1.69696, -1.22519, -1.53787, -0.900926, -1.19921, 1.22918, -1.30257, 0.0839278, 0.0230926, 0.0185186, -0.0539545, -0.0933346, 0.000829226, 0.00134102, 4.21302, 61.9742, 31.2494, 4.1571, 2.78705, 3.64718, -0.00999879, -0.00202147, -0.00054926, 0.00164012, 0.00214172, -0.00654382, -0.00159959, 0.0590456, -0.01378, -0.02599, -0.102488, 0.171215, 0.0270477, 0.472526, -0.539355, 0.337957, -2.08087, -2.16796, -0.126882, 0.471992, -0.541124, 0.336043, -2.08139, -2.17254, -0.118029, 0.0352924, 0.0950097, 0.0483616, 0.0503061, 0.0412873, 0.0131444
0.130238, 1.69705, -1.22516, -1.53784, -0.900983, -1.1993, 1.22918, -1.30257, 0.0863205, 0.0235901, 0.0196681, -0.0527121, -0.0943108, 0.000552851, 0.00253756, 4.2884, 61.9742, 31.2891, 4.08173, 2.81726, 3.64718, -0.0484509, -0.00207504, -0.000530775, 0.00166134, 0.00215051, -0.00663133, -0.00166625, 0.059656, -0.0143422, -0.0257523, -0.102429, 0.17318, 0.0262431, 0.472561, -0.539259, 0.338006, -2.0808, -2.168, -0.126812, 0.472047, -0.541077, 0.336062, -2.08129, -2.17271, -0.117867, 0.0357837, 0.096375, 0.0490484, 0.0513929, 0.0420383, 0.0139544
0.131238, 1.69715, -1.22513, -1.53782, -0.901049, -1.19939, 1.22918, -1.30257, 0.0865589, 0.0241347, 0.0230074, -0.0570535, -0.0902647, 9.73246e-05, 0.00236488, 4.2884, 62.0853, 31.3605, 4.08173, 2.84839, 3.65451, -0.0621838, -0.00212596, -0.000508687, 0.0016865, 0.00216395, -0.00671554, -0.00174121, 0.0580988, -0.0158559, -0.0253967, -0.100595, 0.171284, 0.032303, 0.472597, -0.539162, 0.338055, -2.08073, -2.16805, -0.126741, 0.472106, -0.541025, 0.336078, -2.08117, -2.17288, -0.117703, 0.0362765, 0.0977458, 0.0497377, 0.0533534, 0.0449582, 0.0151874
0.132238, 1.69723, -1.22511, -1.53779, -0.901118, -1.19947, 1.22918, -1.30257, 0.085356, 0.0262058, 0.0220755, -0.0666919, -0.0918669, 0.000607437, 0.00119137, 4.36378, 62.1249, 31.4359, 4.08173, 2.88501, 3.63986, -0.0484509, -0.00218107, -0.000491283, 0.00170919, 0.00217258, -0.00680276, -0.00181384, 0.0575827, -0.0165095, -0.0262212, -0.10644, 0.176735, 0.0386104, 0.472634, -0.539064, 0.338106, -2.08066, -2.1681, -0.126669, 0.472161, -0.540977, 0.336097, -2.08106, -2.17305, -0.11754, 0.0367709, 0.0991221, 0.0504295, 0.054451, 0.0469988, 0.0151241
0.133238, 1.69732, -1.22508, -1.53777, -0.90118, -1.19956, 1.22918, -1.30257, 0.08717, 0.0252578, 0.0214649, -0.0691657, -0.0879503, 0.000404972, -0.000299993, 4.3241, 62.2717, 31.5113, 4.00635, 2.89783, 3.63986, -0.0164075, -0.00223775, -0.000473381, 0.00173707, 0.00218018, -0.0068779, -0.00188759, 0.0569074, -0.0178542, -0.0279473, -0.107394, 0.173728, 0.043998, 0.472671, -0.538964, 0.338156, -2.08059, -2.16815, -0.126595, 0.472217, -0.540928, 0.336111, -2.08095, -2.17322, -0.11739, 0.0372668, 0.100504, 0.0511238, 0.0561994, 0.04937, 0.0141754
0.134238, 1.6974, -1.22505, -1.53774, -0.901249, -1.19964, 1.22918, -1.30256, 0.0857842, 0.0264124, 0.028267, -0.0658764, -0.0857772, 0.000269992, 0.0018022, 4.39948, 62.3431, 31.547, 4.00635, 2.92804, 3.63986, -0.0685925, -0.00229463, -0.000457335, 0.00175951, 0.00218225, -0.00695858, -0.00195079, 0.0579783, -0.0171879, -0.0248429, -0.0992101, 0.173167, 0.0404985, 0.472708, -0.538862, 0.338208, -2.08052, -2.16821, -0.126521, 0.472272, -0.540879, 0.336131, -2.08085, -2.17339, -0.117238, 0.0377641, 0.101891, 0.0518204, 0.0561932, 0.0491964, 0.0177943
0.135238, 1.69748, -1.22501, -1.53771, -0.901317, -1.19972, 1.22918, -1.30256, 0.0905855, 0.0323928, 0.0292413, -0.0661062, -0.0779613, 0.00045127, 0.00149089, 4.36378, 62.3074, 31.6224, 3.97064, 2.92163, 3.63254, -0.0750012, -0.00234924, -0.000438603, 0.00177688, 0.002181, -0.00704561, -0.00202561, 0.0549251, -0.0203527, -0.021752, -0.0954291, 0.173851, 0.0476145, 0.472746, -0.53876, 0.33826, -2.08044, -2.16826, -0.126446, 0.47233, -0.540827, 0.336157, -2.08074, -2.17357, -0.117084, 0.0382628, 0.103283, 0.0525195, 0.0598556, 0.0532697, 0.0219155
0.136238, 1.69757, -1.22499, -1.53767, -0.901389, -1.1998, 1.22918, -1.30257, 0.0878093, 0.0288525, 0.0317105, -0.0669982, -0.0736054, 0.00057212, 4.96297e-05, 4.3241, 62.4899, 31.6224, 3.97064, 2.95276, 3.62521, -0.0484509, -0.00240542, -0.000419098, 0.00180263, 0.00218115, -0.00712124, -0.00210866, 0.0563291, -0.0194616, -0.023435, -0.0919879, 0.167572, 0.0486975, 0.472785, -0.538656, 0.338313, -2.08036, -2.16831, -0.12637, 0.47239, -0.540774, 0.336175, -2.08061, -2.17375, -0.116939, 0.0387628, 0.10468, 0.0532208, 0.0594569, 0.0534993, 0.0207671
0.137238, 1.69765, -1.22496, -1.53765, -0.901467, -1.19987, 1.22918, -1.30257, 0.0847195, 0.0291198, 0.0299235, -0.0715576, -0.0783829, 0.000381418, -0.000649705, 4.3241, 62.5653, 31.7731, 4.00635, 2.94635, 3.62521, -0.0292249, -0.00246313, -0.000403356, 0.00182751, 0.00218916, -0.00719972, -0.00218815, 0.0590947, -0.0173126, -0.0248911, -0.0981384, 0.173028, 0.046757, 0.472824, -0.538551, 0.338366, -2.08029, -2.16836, -0.126293, 0.472446, -0.540721, 0.336195, -2.08049, -2.17393, -0.116782, 0.0392642, 0.106082, 0.0539245, 0.0578647, 0.0522997, 0.0196759
0.138238, 1.69773, -1.22493, -1.53762, -0.901546, -1.19995, 1.22919, -1.30256, 0.0830844, 0.0263672, 0.0298379, -0.0727256, -0.077754, 0.00130544, 0.00104689, 4.2884, 62.6407, 31.8842, 4.08173, 2.95276, 3.59683, -0.0685925, -0.00252281, -0.000386723, 0.00185201, 0.00218528, -0.00727842, -0.00225884, 0.0611987, -0.016387, -0.0270393, -0.0981893, 0.171225, 0.043579, 0.472864, -0.538444, 0.338421, -2.08021, -2.16842, -0.126215, 0.472503, -0.540669, 0.336215, -2.08037, -2.17411, -0.116635, 0.0397669, 0.107489, 0.0546303, 0.0574434, 0.0519172, 0.0179662
0.139238, 1.69782, -1.22489, -1.53758, -0.901634, -1.20002, 1.22918, -1.30256, 0.0837611, 0.0271581, 0.0324104, -0.0810443, -0.0730141, 5.64956e-05, -0.00145574, 4.17335, 62.7121, 31.8842, 4.19281, 2.97107, 3.6188, -0.00999879, -0.00257477, -0.000364776, 0.00187235, 0.00218695, -0.00736102, -0.0023577, 0.0582229, -0.0188116, -0.0274674, -0.0993375, 0.169066, 0.0557218, 0.472904, -0.538336, 0.338476, -2.08013, -2.16847, -0.126136, 0.472566, -0.540608, 0.336242, -2.08023, -2.17431, -0.116481, 0.0402709, 0.108901, 0.0553384, 0.0602391, 0.0564396, 0.0186325
0.140238, 1.69789, -1.22485, -1.53754, -0.901715, -1.20009, 1.22918, -1.30256, 0.0814323, 0.0314918, 0.0363283, -0.0823533, -0.0690651, 0.000308933, -0.000246061, 4.17335, 62.7478, 31.9199, 4.23248, 2.97748, 3.61148, -0.0292249, -0.00263331, -0.00034853, 0.00188977, 0.00217493, -0.00744133, -0.00243698, 0.0583664, -0.0183359, -0.0240809, -0.0942886, 0.171002, 0.055348, 0.472944, -0.538226, 0.338531, -2.08005, -2.16853, -0.126055, 0.472625, -0.540553, 0.336271, -2.08011, -2.1745, -0.116341, 0.040776, 0.110318, 0.0560486, 0.0604077, 0.0571772, 0.0226806
0.141238, 1.69797, -1.22481, -1.5375, -0.901801, -1.20017, 1.22918, -1.30255, 0.08149, 0.0328093, 0.038468, -0.0830236, -0.0712983, -6.53106e-05, 0.00106593, 4.09797, 62.8589, 31.9953, 4.26819, 2.99579, 3.6188, -0.0621838, -0.00269285, -0.000331028, 0.00191243, 0.00217, -0.00752225, -0.00251543, 0.0594594, -0.0179935, -0.0231791, -0.094523, 0.174832, 0.053799, 0.472985, -0.538115, 0.338588, -2.07997, -2.16858, -0.125974, 0.472685, -0.540496, 0.336295, -2.07999, -2.17469, -0.116191, 0.0412824, 0.111739, 0.0567608, 0.0606515, 0.0573672, 0.0241263
0.142238, 1.69805, -1.22478, -1.53746, -0.901896, -1.20024, 1.22918, -1.30255, 0.0775404, 0.0293957, 0.0368123, -0.0854513, -0.0680509, -4.35394e-05, 0.000954927, 4.06226, 63.0453, 32.0707, 4.37927, 3.00769, 3.6188, -0.0685925, -0.00275272, -0.000315354, 0.00193723, 0.00216889, -0.00759861, -0.0026027, 0.0620192, -0.0159116, -0.0264187, -0.0958344, 0.169928, 0.0513733, 0.473027, -0.538002, 0.338645, -2.07989, -2.16864, -0.125892, 0.472743, -0.540439, 0.336318, -2.07986, -2.17488, -0.116042, 0.0417899, 0.113165, 0.0574751, 0.059056, 0.0566685, 0.021315
0.143238, 1.69805, -1.22478, -1.53746, -0.901896, -1.20024, 1.22918, -1.30255, 0.0775404, 0.0293957, 0.0368123, -0.0854513, -0.0680509, -4.35394e-05, 0.000954927, 4.06226, 63.0453, 32.0707, 4.37927, 3.00769, 3.6188, -0.0685925, -0.00287237, -0.000360562, 0.00197869, 0.00211122, -0.0075738, -0.0025413, 0.0635224, -0.0153613, -0.0269282, -0.0963763, 0.170875, 0.0502407, 0.473069, -0.537889, 0.338703, -2.07981, -2.1687, -0.125809, 0.472743, -0.540439, 0.336318, -2.07986, -2.17488, -0.116042, 0.0422985, 0.114595, 0.0581914, 0.059056, 0.0566685, 0.021315
0.144238, 1.69805, -1.22478, -1.53746, -0.901896, -1.20024, 1.22918, -1.30255, 0.0775404, 0.0293957, 0.0368123, -0.0854513, -0.0680509, -4.35394e-05, 0.000954927, 4.06226, 63.0453, 32.0707, 4.37927, 3.00769, 3.6188, -0.0685925, -0.00299351, -0.000406329, 0.00202067, 0.00205283, -0.0075487, -0.00247918, 0.0650301, -0.0148097, -0.0274392, -0.0969185, 0.171825, 0.0491059, 0.473111, -0.537773, 0.338761, -2.07972, -2.16875, -0.125725, 0.472743, -0.540439, 0.336318, -2.07986, -2.17488, -0.116042, 0.0428082, 0.11603, 0.0589097, 0.059056, 0.0566685, 0.021315
0.145238, 1.69827, -1.22466, -1.53734, -0.902189, -1.20043, 1.22918, -1.30254, 0.0726105, 0.0360656, 0.046749, -0.0896491, -0.0635795, -0.00175955, 0.00102171, 3.79646, 63.3746, 32.2928, 4.60541, 3.00769, 3.59683, -0.0685925, -0.00293095, -0.000266509, 0.00199829, 0.00213585, -0.0078267, -0.00287425, 0.0636953, -0.0142011, -0.0209956, -0.0888565, 0.174492, 0.0528246, 0.473154, -0.537657, 0.338821, -2.07964, -2.16881, -0.12564, 0.472924, -0.540257, 0.336404, -2.07945, -2.17549, -0.115622, 0.0433189, 0.117469, 0.0596298, 0.0591607, 0.058416, 0.0286244
0.146238, 1.69834, -1.22461, -1.53729, -0.902291, -1.20049, 1.22917, -1.30253, 0.0715375, 0.0393231, 0.0432427, -0.0945199, -0.0664729, -0.00110509, 0.0049093, 3.72108, 63.3746, 32.3682, 4.60541, 3.00769, 3.58951, -0.0557752, -0.0029906, -0.000251256, 0.00201192, 0.00211884, -0.00790997, -0.00296521, 0.0652988, -0.0132449, -0.0213926, -0.0950892, 0.182037, 0.0482918, 0.473198, -0.537538, 0.338881, -2.07955, -2.16887, -0.125554, 0.472985, -0.540195, 0.336441, -2.07932, -2.1757, -0.11548, 0.0438306, 0.118913, 0.0603519, 0.0587675, 0.0582945, 0.0287394
0.147238, 1.69841, -1.22457, -1.53724, -0.902408, -1.20055, 1.22917, -1.30253, 0.0676531, 0.03634, 0.0455267, -0.100846, -0.06826, -0.00061795, 0.00220818, 3.6457, 63.5968, 32.3682, 4.71649, 2.99579, 3.58218, -0.0164075, -0.00304854, -0.000232625, 0.00203602, 0.00210014, -0.00797401, -0.00307429, 0.0668749, -0.0122639, -0.023481, -0.0967091, 0.182034, 0.0521146, 0.473242, -0.537419, 0.338941, -2.07946, -2.16893, -0.125467, 0.473049, -0.540129, 0.336469, -2.07916, -2.17592, -0.11536, 0.0443433, 0.12036, 0.0610757, 0.0582835, 0.0584609, 0.0271911
0.148238, 1.69847, -1.22453, -1.53719, -0.902516, -1.20061, 1.22917, -1.30253, 0.068689, 0.0369219, 0.0444426, -0.102153, -0.0646126, -0.000288977, 0.00681701, 3.53065, 63.7079, 32.4793, 4.68079, 2.97748, 3.57577, -0.0228162, -0.00311057, -0.000217403, 0.00205603, 0.00207944, -0.00804536, -0.00316819, 0.0670226, -0.0128395, -0.0242517, -0.0969337, 0.180977, 0.0492283, 0.473287, -0.537298, 0.339003, -2.07938, -2.16899, -0.125378, 0.473111, -0.540065, 0.336501, -2.07902, -2.17613, -0.115232, 0.044857, 0.121812, 0.0618013, 0.0593504, 0.0599101, 0.027115
0.149238, 1.69854, -1.22449, -1.53713, -0.902632, -1.20066, 1.22918, -1.30252, 0.0692254, 0.0352964, 0.0512441, -0.107249, -0.061991, -7.16142e-06, 0.00709977, 3.41956, 63.7793, 32.4039, 4.68079, 2.96466, 3.56845, -0.0750012, -0.00316927, -0.000198938, 0.00207227, 0.00205288, -0.00812031, -0.00326835, 0.0650308, -0.0152759, -0.0240241, -0.0926898, 0.17836, 0.0569691, 0.473332, -0.537175, 0.339065, -2.07929, -2.16905, -0.125289, 0.473176, -0.539997, 0.336537, -2.07887, -2.17635, -0.115107, 0.0453715, 0.123267, 0.0625286, 0.0622313, 0.0634068, 0.0282948
0.150238, 1.6986, -1.22444, -1.53708, -0.902751, -1.20071, 1.22918, -1.30251, 0.0648132, 0.0395815, 0.0514731, -0.113286, -0.0550848, 0.00020216, 0.00908696, 3.37989, 63.8547, 32.515, 4.64111, 2.94635, 3.56112, -0.0557752, -0.00323315, -0.000186829, 0.00208977, 0.00202697, -0.00819151, -0.00336389, 0.0649252, -0.0143501, -0.0225464, -0.0914738, 0.178433, 0.057109, 0.473377, -0.537051, 0.339128, -2.0792, -2.16911, -0.125199, 0.473236, -0.539933, 0.336573, -2.07873, -2.17656, -0.114983, 0.0458869, 0.124727, 0.0632577, 0.0618791, 0.0647043, 0.0305304
0.151238, 1.69866, -1.2244, -1.53702, -0.902884, -1.20077, 1.22917, -1.30251, 0.0645028, 0.0412624, 0.0531091, -0.12147, -0.0506164, -0.000184744, 0.00533323, 3.34419, 64.0015, 32.5904, 4.71649, 2.94086, 3.56845, -0.0164075, -0.00329311, -0.000170634, 0.00211513, 0.00201304, -0.00825501, -0.00347931, 0.0627315, -0.0161142, -0.0226552, -0.092549, 0.177858, 0.0688285, 0.473423, -0.536926, 0.339191, -2.07911, -2.16918, -0.125108, 0.473299, -0.539862, 0.336601, -2.07856, -2.17679, -0.114855, 0.0464031, 0.12619, 0.0639883, 0.0640691, 0.0684296, 0.031434
0.152238, 1.69872, -1.22435, -1.53696, -0.903011, -1.20081, 1.22917, -1.3025, 0.0605621, 0.0425747, 0.0559136, -0.121225, -0.0523288, 0.000111918, 0.00925323, 3.34419, 64.1483, 32.5904, 4.68079, 2.94635, 3.56112, -0.0292249, -0.00335474, -0.000155351, 0.00213348, 0.00198141, -0.00832019, -0.00358348, 0.0657516, -0.013606, -0.0211481, -0.0903435, 0.181355, 0.0603894, 0.47347, -0.536799, 0.339256, -2.07902, -2.16924, -0.125016, 0.473363, -0.539793, 0.336638, -2.0784, -2.17701, -0.114742, 0.0469202, 0.127658, 0.0647206, 0.062263, 0.0665732, 0.0332732
0.153238, 1.69877, -1.2243, -1.5369, -0.903143, -1.20086, 1.22917, -1.30249, 0.0578222, 0.0461015, 0.0603489, -0.120442, -0.0491686, 0.000318739, 0.0124896, 3.34419, 64.184, 32.6261, 4.60541, 2.95917, 3.5538, -0.0484509, -0.00341663, -0.000140723, 0.00214817, 0.0019482, -0.00839206, -0.00368746, 0.0668715, -0.0124181, -0.0177663, -0.0842743, 0.182903, 0.0557189, 0.473517, -0.53667, 0.339321, -2.07892, -2.1693, -0.124922, 0.473427, -0.539723, 0.336678, -2.07825, -2.17724, -0.114624, 0.047438, 0.129128, 0.0654544, 0.0617755, 0.0663702, 0.0372145
0.154238, 1.69882, -1.22425, -1.53684, -0.903289, -1.2009, 1.22917, -1.30248, 0.058028, 0.047612, 0.0595068, -0.128284, -0.0474754, 0.000463405, 0.00932842, 3.37989, 64.2593, 32.7015, 4.60541, 2.98938, 3.54648, -0.0484509, -0.00347745, -0.000125457, 0.00216614, 0.00192078, -0.0084628, -0.0038014, 0.065698, -0.0137481, -0.0187857, -0.0882733, 0.184851, 0.064939, 0.473565, -0.53654, 0.339387, -2.07883, -2.16937, -0.124828, 0.473492, -0.53965, 0.336717, -2.07809, -2.17748, -0.1145, 0.0479565, 0.130603, 0.0661897, 0.0635387, 0.0692188, 0.0370805
0.155238, 1.69888, -1.2242, -1.53677, -0.903434, -1.20094, 1.22918, -1.30247, 0.052864, 0.0488255, 0.0630187, -0.135182, -0.0450337, 0.000564937, 0.0109424, 3.37989, 64.3347, 32.7372, 4.53003, 2.98938, 3.53915, -0.0292249, -0.00353717, -0.000107932, 0.00218255, 0.00187973, -0.00852653, -0.00392605, 0.0661678, -0.0126983, -0.0180384, -0.0869083, 0.185326, 0.065591, 0.473613, -0.536409, 0.339453, -2.07873, -2.16943, -0.124733, 0.473559, -0.539574, 0.336757, -2.07791, -2.17773, -0.114399, 0.0484757, 0.132081, 0.0669265, 0.0630613, 0.0700721, 0.0385187
0.156238, 1.69892, -1.22415, -1.5367, -0.903592, -1.20097, 1.22918, -1.30246, 0.0510094, 0.0506236, 0.0656483, -0.144002, -0.0397588, 0.000602534, 0.013174, 3.41956, 64.3704, 32.7768, 4.56573, 3.026, 3.53274, -0.0356336, -0.00359541, -9.11393e-05, 0.00219961, 0.00184592, -0.00858991, -0.00404916, 0.0641533, -0.0140682, -0.017706, -0.0864116, 0.184379, 0.0710953, 0.473662, -0.536276, 0.33952, -2.07864, -2.1695, -0.124636, 0.473626, -0.539495, 0.336798, -2.07774, -2.17798, -0.114288, 0.0489955, 0.133562, 0.0676647, 0.0648856, 0.0735542, 0.0398505
0.157238, 1.69897, -1.2241, -1.53663, -0.903744, -1.201, 1.22918, -1.30245, 0.0489906, 0.0491779, 0.0677573, -0.145861, -0.0343423, 0.0012069, 0.0157679, 3.49494, 64.5172, 32.8126, 4.41894, 3.026, 3.51077, -0.0685925, -0.00365979, -7.79777e-05, 0.00221876, 0.0017996, -0.008645, -0.00416087, 0.0647324, -0.013886, -0.0184467, -0.0827739, 0.179746, 0.0698425, 0.473711, -0.536142, 0.339588, -2.07854, -2.16956, -0.124539, 0.473691, -0.539421, 0.336837, -2.07757, -2.17821, -0.114198, 0.049516, 0.135047, 0.0684043, 0.0652212, 0.0745721, 0.0397764
0.158238, 1.69901, -1.22404, -1.53655, -0.903911, -1.20103, 1.22918, -1.30245, 0.0462977, 0.0534748, 0.0671369, -0.15498, -0.0317448, 0.000526895, 0.00955961, 3.49494, 64.4418, 32.9236, 4.41894, 3.06354, 3.5181, -0.00999879, -0.00371796, -6.27519e-05, 0.00223127, 0.00176465, -0.00871382, -0.00430055, 0.0639077, -0.0138023, -0.0178606, -0.0868332, 0.183336, 0.0807069, 0.473761, -0.536006, 0.339657, -2.07844, -2.16963, -0.124441, 0.473758, -0.53934, 0.336884, -2.07738, -2.17848, -0.114083, 0.0500371, 0.136535, 0.0691452, 0.0656526, 0.0767818, 0.0412266
0.159238, 1.69905, -1.22399, -1.53648, -0.904082, -1.20106, 1.22918, -1.30244, 0.0417233, 0.0491654, 0.0711465, -0.158882, -0.0292354, 0.000346433, 0.00799849, 3.60603, 64.5529, 32.999, 4.30786, 3.08826, 3.5181, -0.0292249, -0.00377914, -4.87266e-05, 0.00225079, 0.00172196, -0.0087661, -0.00443044, 0.0653972, -0.0125608, -0.0198273, -0.0844048, 0.177832, 0.0828616, 0.473811, -0.535869, 0.339727, -2.07834, -2.1697, -0.124341, 0.473824, -0.53926, 0.336925, -2.07719, -2.17873, -0.113992, 0.0505588, 0.138026, 0.0698875, 0.0649192, 0.0770456, 0.0398398
0.160238, 1.69908, -1.22394, -1.53639, -0.904261, -1.20108, 1.22918, -1.30242, 0.0392376, 0.0506898, 0.0726051, -0.167168, -0.0274301, 0.00127849, 0.00700068, 3.6814, 64.5926, 32.999, 4.26819, 3.11206, 3.48971, -0.0557752, -0.00383855, -3.28542e-05, 0.00226593, 0.0016721, -0.00882378, -0.00456603, 0.0648846, -0.0130287, -0.0198845, -0.0854563, 0.17991, 0.0887816, 0.473862, -0.53573, 0.339797, -2.07824, -2.16977, -0.124241, 0.473892, -0.539177, 0.336971, -2.077, -2.179, -0.113902, 0.0510809, 0.13952, 0.0706309, 0.0658892, 0.0790763, 0.040591
0.161238, 1.69912, -1.22388, -1.53632, -0.904439, -1.2011, 1.22918, -1.30242, 0.0423329, 0.0527315, 0.0717876, -0.171773, -0.0254194, 0.000849612, 0.00936923, 3.6814, 64.5926, 33.2212, 4.1571, 3.11847, 3.48971, -0.0420422, -0.00389928, -1.84792e-05, 0.00228413, 0.0016313, -0.00887864, -0.00470329, 0.0632251, -0.015166, -0.0203437, -0.0886298, 0.181659, 0.0925864, 0.473913, -0.53559, 0.339868, -2.07814, -2.16984, -0.12414, 0.47396, -0.539093, 0.337014, -2.0768, -2.17926, -0.113805, 0.0516036, 0.141018, 0.0713756, 0.0684644, 0.08238, 0.0410666
0.162238, 1.69914, -1.22383, -1.53623, -0.904631, -1.20111, 1.22918, -1.30241, 0.0393769, 0.0532967, 0.076435, -0.178372, -0.0191442, 0.0011069, 0.0107119, 3.75678, 64.6283, 33.2212, 4.19281, 3.12488, 3.47507, -0.0164075, -0.00395775, -4.29998e-06, 0.0022998, 0.00157924, -0.00892613, -0.00484945, 0.0618961, -0.0159398, -0.0196459, -0.084617, 0.178413, 0.097268, 0.473965, -0.535448, 0.33994, -2.07804, -2.16991, -0.124037, 0.474028, -0.539006, 0.337061, -2.0766, -2.17953, -0.113727, 0.0521267, 0.142518, 0.0721215, 0.0697379, 0.0851224, 0.0426806
0.163238, 1.69918, -1.22377, -1.53614, -0.904821, -1.20113, 1.22918, -1.3024, 0.0393151, 0.0527409, 0.0781064, -0.183374, -0.0197296, 0.00100768, 0.0121903, 3.75678, 64.6997, 33.2966, 4.08173, 3.14319, 3.46774, -0.00267457, -0.00401682, 1.26426e-05, 0.00231715, 0.00152279, -0.00897305, -0.00499867, 0.0618076, -0.01665, -0.0206081, -0.086463, 0.179643, 0.0995638, 0.474018, -0.535305, 0.340012, -2.07793, -2.16998, -0.123934, 0.474099, -0.538918, 0.337107, -2.07639, -2.17981, -0.113654, 0.0526502, 0.144021, 0.0728685, 0.0709317, 0.0868924, 0.0424678
0.164238, 1.69919, -1.22372, -1.53605, -0.905018, -1.20114, 1.22918, -1.30238, 0.0338788, 0.0525816, 0.081935, -0.187427, -0.0157764, 0.000670637, 0.0153818, 3.98292, 64.7751, 33.2609, 3.97064, 3.1734, 3.46774, -0.0420422, -0.0040814, 2.16954e-05, 0.00233408, 0.00146072, -0.00901384, -0.00513464, 0.0629887, -0.0149695, -0.0201995, -0.0832389, 0.177024, 0.0965534, 0.474071, -0.53516, 0.340086, -2.07783, -2.17005, -0.123829, 0.474163, -0.538834, 0.337153, -2.07619, -2.18007, -0.113592, 0.0531742, 0.145527, 0.0736165, 0.069845, 0.0870936, 0.0434952
0.165238, 1.69922, -1.22366, -1.53596, -0.905217, -1.20114, 1.22918, -1.30237, 0.0323171, 0.0567439, 0.0811463, -0.191246, -0.017042, 0.000717499, 0.0166643, 3.98292, 64.664, 33.3719, 3.74451, 3.19263, 3.46042, -0.0557752, -0.00414149, 3.48393e-05, 0.00234723, 0.00140831, -0.00906651, -0.00528258, 0.0641415, -0.0140013, -0.0190161, -0.0862523, 0.183583, 0.0950164, 0.474124, -0.535014, 0.34016, -2.07772, -2.17012, -0.123723, 0.474231, -0.538745, 0.337205, -2.07598, -2.18035, -0.113506, 0.0536985, 0.147036, 0.0743657, 0.0695003, 0.0872404, 0.0452694
0.166238, 1.69923, -1.22361, -1.53586, -0.905426, -1.20115, 1.22918, -1.30236, 0.0268312, 0.0564721, 0.0887244, -0.197234, -0.0139542, 0.000986314, 0.01695, 4.02259, 64.8108, 33.4076, 3.63342, 3.22925, 3.44668, -0.0484509, -0.00420163, 4.93479e-05, 0.0023656, 0.00134424, -0.00910329, -0.00544179, 0.0642318, -0.0133886, -0.0175511, -0.0805485, 0.181805, 0.0980654, 0.474178, -0.534866, 0.340234, -2.07762, -2.17019, -0.123617, 0.474302, -0.538653, 0.337252, -2.07576, -2.18064, -0.11345, 0.0542231, 0.148547, 0.0751158, 0.0694796, 0.0884123, 0.047474
0.167238, 1.69925, -1.22354, -1.53576, -0.90565, -1.20115, 1.22918, -1.30236, 0.0217339, 0.0576558, 0.0946286, -0.205313, -0.0115865, 0.000928327, 0.0156308, 4.09797, 64.664, 33.4473, 3.55804, 3.26587, 3.43936, -0.00267457, -0.0042584, 6.36851e-05, 0.00237484, 0.00128184, -0.00915666, -0.00561402, 0.0638487, -0.012996, -0.0161645, -0.077864, 0.182224, 0.103859, 0.474232, -0.534717, 0.34031, -2.07751, -2.17026, -0.123509, 0.474373, -0.538558, 0.337309, -2.07553, -2.18095, -0.113376, 0.054748, 0.150061, 0.0758669, 0.0696568, 0.0900764, 0.0496675
0.168238, 1.69925, -1.22349, -1.53565, -0.905875, -1.20115, 1.22918, -1.30235, 0.0172671, 0.0596046, 0.0977996, -0.213905, -0.00886072, 0.000889789, 0.0171547, 4.21302, 64.6997, 33.5187, 3.48663, 3.27777, 3.43204, -0.0164075, -0.00431844, 7.65892e-05, 0.0023906, 0.00121478, -0.00919557, -0.00577825, 0.0634642, -0.0126219, -0.0154018, -0.0776489, 0.183369, 0.106677, 0.474287, -0.534566, 0.340386, -2.0774, -2.17034, -0.123401, 0.474442, -0.538463, 0.33736, -2.0753, -2.18125, -0.113319, 0.0552732, 0.151577, 0.0766189, 0.0698278, 0.0918399, 0.0512453
0.169238, 1.69926, -1.22342, -1.53554, -0.906103, -1.20115, 1.22918, -1.30233, 0.0125852, 0.0615769, 0.105754, -0.217122, 0.00224937, 0.00113546, 0.0143617, 4.24873, 64.5926, 33.5941, 3.37158, 3.297, 3.41739, -0.0557752, -0.00437682, 9.09797e-05, 0.00239938, 0.00114238, -0.00924557, -0.00594496, 0.0621349, -0.0127443, -0.0121645, -0.0665769, 0.176986, 0.114002, 0.474343, -0.534414, 0.340463, -2.07729, -2.17041, -0.123291, 0.474515, -0.538367, 0.337419, -2.07507, -2.18155, -0.113257, 0.0557986, 0.153096, 0.0773717, 0.0705565, 0.0941862, 0.0553961
0.170238, 1.69927, -1.22336, -1.53542, -0.906346, -1.20115, 1.22918, -1.30233, 0.00889388, 0.0621385, 0.107108, -0.222343, 0.000534514, 0.00126539, 0.00969146, 4.2884, 64.5172, 33.6338, 3.37158, 3.33362, 3.40365, -0.0292249, -0.00443411, 0.000104963, 0.00241162, 0.00107385, -0.00928928, -0.00612748, 0.0638224, -0.0112984, -0.0124142, -0.0685292, 0.180302, 0.118492, 0.474399, -0.53426, 0.340541, -2.07718, -2.17049, -0.12318, 0.474587, -0.538267, 0.337476, -2.07482, -2.18187, -0.113197, 0.0563242, 0.154618, 0.0781255, 0.0697014, 0.0940125, 0.0556944
0.171238, 1.69926, -1.2233, -1.53529, -0.90659, -1.20115, 1.22918, -1.30232, 0.0034766, 0.0652269, 0.116973, -0.23072, 0.000412439, 0.000334816, 0.00704888, 4.43916, 64.4418, 33.5584, 3.41125, 3.34003, 3.41739, -0.0228162, -0.00449325, 0.000115604, 0.00241656, 0.000990077, -0.00933378, -0.00630884, 0.062892, -0.0109955, -0.00859874, -0.0642321, 0.184023, 0.126565, 0.474456, -0.534104, 0.340619, -2.07707, -2.17056, -0.123068, 0.474656, -0.538169, 0.33754, -2.07458, -2.1822, -0.113152, 0.05685, 0.156141, 0.07888, 0.0700465, 0.0958624, 0.0603711
0.172238, 1.69926, -1.22324, -1.53517, -0.906838, -1.20116, 1.22918, -1.30231, 0.0031231, 0.0630571, 0.117361, -0.235406, -0.000861286, 0.000731722, 0.00508085, 4.43916, 64.4418, 33.6338, 3.41125, 3.37665, 3.40365, -0.0164075, -0.0045539, 0.000129947, 0.00242988, 0.000915907, -0.0093826, -0.006489, 0.0636542, -0.0112828, -0.0108651, -0.0670507, 0.184518, 0.130929, 0.474513, -0.533947, 0.340699, -2.07696, -2.17064, -0.122956, 0.47473, -0.538069, 0.337596, -2.07434, -2.18253, -0.113091, 0.0573759, 0.157667, 0.0796352, 0.0708024, 0.0969932, 0.0587626
0.173238, 1.69926, -1.22318, -1.53503, -0.907103, -1.20116, 1.22918, -1.3023, -0.00438244, 0.0622903, 0.119869, -0.248764, -0.000612573, 0.000758996, 0.00480088, 4.47486, 64.4061, 33.6338, 3.44696, 3.38214, 3.39633, -0.0420422, -0.00461012, 0.000144362, 0.00244006, 0.0008397, -0.00942632, -0.00668312, 0.0641112, -0.00993681, -0.0124283, -0.0705423, 0.185427, 0.135632, 0.47457, -0.533789, 0.340779, -2.07684, -2.17071, -0.122842, 0.474804, -0.537964, 0.337657, -2.07408, -2.18286, -0.113038, 0.0579019, 0.159194, 0.0803912, 0.069944, 0.0982444, 0.0579519
0.174238, 1.69925, -1.22311, -1.5349, -0.907357, -1.20116, 1.22918, -1.30229, -0.00298805, 0.061684, 0.123158, -0.250035, -0.00120011, 0.0007772, 0.00898247, 4.47486, 64.3704, 33.7052, 3.33588, 3.40686, 3.38901, -0.0621838, -0.00466991, 0.000157854, 0.00244806, 0.000756195, -0.00947308, -0.00686631, 0.064179, -0.0109162, -0.0123969, -0.0693231, 0.186299, 0.134165, 0.474629, -0.533629, 0.340859, -2.07673, -2.17079, -0.122727, 0.474878, -0.537861, 0.337721, -2.07384, -2.18319, -0.112987, 0.0584279, 0.160724, 0.0811479, 0.0714563, 0.0997488, 0.058697
0.175238, 1.69924, -1.22305, -1.53475, -0.907632, -1.20116, 1.22918, -1.30228, -0.00380509, 0.06111, 0.132569, -0.252997, -0.00138539, 0.000789352, 0.00958315, 4.55024, 64.3347, 33.6338, 3.33588, 3.42517, 3.38168, -0.0164075, -0.00472634, 0.000173272, 0.00245643, 0.000671045, -0.0095188, -0.00707378, 0.0633641, -0.0121349, -0.0102883, -0.0630462, 0.186579, 0.13864, 0.474687, -0.533468, 0.340941, -2.07661, -2.17087, -0.122611, 0.474954, -0.537754, 0.337785, -2.07357, -2.18355, -0.112941, 0.0589541, 0.162256, 0.0819052, 0.0732565, 0.101824, 0.0616209
0.176238, 1.69923, -1.223, -1.53461, -0.907902, -1.20116, 1.22918, -1.30227, -0.00433733, 0.0582574, 0.133047, -0.258549, -0.00176948, 0.000254931, 0.0134026, 4.62562, 64.4061, 33.6695, 3.30017, 3.44989, 3.38901, -0.0557752, -0.00478691, 0.000186214, 0.00247065, 0.000586362, -0.00955331, -0.00726609, 0.0637281, -0.0124669, -0.013116, -0.0665944, 0.185291, 0.138153, 0.474746, -0.533304, 0.341023, -2.07649, -2.17095, -0.122494, 0.475028, -0.537648, 0.337843, -2.07331, -2.18389, -0.112904, 0.0594802, 0.16379, 0.0826631, 0.0740174, 0.103443, 0.05952
0.177238, 1.69922, -1.22293, -1.53447, -0.908187, -1.20116, 1.22918, -1.30226, -0.00291957, 0.0614735, 0.137702, -0.267741, -0.00160214, 0.000441194, 0.00998161, 4.62562, 64.2593, 33.6695, 3.33588, 3.46271, 3.38168, -0.0557752, -0.00484111, 0.000204046, 0.00247833, 0.00050912, -0.00960685, -0.00747965, 0.0606423, -0.0154851, -0.0114369, -0.0671528, 0.190106, 0.152078, 0.474806, -0.53314, 0.341106, -2.07637, -2.17103, -0.122376, 0.475108, -0.537535, 0.33791, -2.07303, -2.18426, -0.112839, 0.0600063, 0.165325, 0.0834216, 0.0775026, 0.107914, 0.0623066
0.178238, 1.69921, -1.22288, -1.53432, -0.908479, -1.20116, 1.22918, -1.30225, -0.00853971, 0.0585157, 0.143457, -0.272932, -0.00146973, 0.000565376, 0.0111345, 4.77637, 64.3347, 33.7052, 3.30017, 3.47461, 3.37436, -0.0292249, -0.00489988, 0.000218297, 0.00249423, 0.000428564, -0.00964398, -0.00769032, 0.0622561, -0.0139819, -0.012084, -0.064362, 0.188087, 0.151617, 0.474866, -0.532974, 0.34119, -2.07626, -2.17111, -0.122257, 0.475185, -0.537424, 0.337969, -2.07275, -2.18461, -0.112794, 0.0605324, 0.166863, 0.0841806, 0.0765725, 0.107885, 0.062232
0.179238, 1.6992, -1.22282, -1.53417, -0.908769, -1.20116, 1.22918, -1.30223, -0.00689074, 0.0619122, 0.149049, -0.278458, -0.0011878, 0.00064817, 0.00840158, 4.81605, 64.295, 33.7052, 3.18512, 3.48102, 3.36703, -0.0292249, -0.00495519, 0.000237175, 0.00250391, 0.000339713, -0.00968841, -0.00790586, 0.0599127, -0.0164617, -0.00947921, -0.0624214, 0.19255, 0.162352, 0.474927, -0.532806, 0.341275, -2.07613, -2.17119, -0.122137, 0.475266, -0.537308, 0.338035, -2.07247, -2.18498, -0.112751, 0.0610583, 0.168402, 0.0849401, 0.0795888, 0.111462, 0.065838
0.180238, 1.69918, -1.22276, -1.53402, -0.909075, -1.20117, 1.22918, -1.30222, -0.00832249, 0.0622859, 0.150211, -0.287289, -0.001448, 0.000432102, 0.0118238, 4.9668, 64.2236, 33.8202, 3.14941, 3.49933, 3.36703, -0.0484509, -0.00501225, 0.00025344, 0.00251771, 0.000261353, -0.0097349, -0.00812441, 0.0592591, -0.0171346, -0.0105531, -0.0661915, 0.19478, 0.164545, 0.474989, -0.532637, 0.34136, -2.07601, -2.17127, -0.122016, 0.475346, -0.537193, 0.338097, -2.07217, -2.18535, -0.112692, 0.0615842, 0.169942, 0.0857, 0.0807191, 0.113844, 0.0656146
0.181238, 1.69916, -1.22269, -1.53385, -0.909387, -1.20117, 1.22918, -1.30221, -0.0162852, 0.060544, 0.158296, -0.293082, -0.00162698, 0.000288059, 0.0134249, 5.15327, 64.1125, 33.7449, 3.18512, 3.51764, 3.36703, -0.0484509, -0.00506483, 0.000272026, 0.00252183, 0.000168554, -0.0097853, -0.00835511, 0.0611692, -0.0147429, -0.00964514, -0.0615748, 0.193949, 0.162833, 0.47505, -0.532466, 0.341446, -2.07589, -2.17135, -0.121894, 0.475429, -0.537073, 0.338171, -2.07188, -2.18574, -0.112646, 0.0621099, 0.171484, 0.0864603, 0.0789791, 0.11325, 0.0670631
0.182238, 1.69915, -1.22263, -1.53367, -0.909707, -1.20117, 1.22917, -1.3022, -0.0132524, 0.0593706, 0.163082, -0.298861, -0.00198779, -7.92344e-05, 0.00933202, 5.22865, 64.1125, 33.7449, 3.14941, 3.54236, 3.37436, -0.0292249, -0.00511549, 0.000295223, 0.0025324, 7.97092e-05, -0.00983154, -0.00859881, 0.0588209, -0.0178462, -0.0101429, -0.06173, 0.1943, 0.176015, 0.475113, -0.532294, 0.341533, -2.07577, -2.17143, -0.121771, 0.475516, -0.536948, 0.338239, -2.07156, -2.18615, -0.112601, 0.0626355, 0.173028, 0.087221, 0.0824883, 0.117337, 0.0675844
0.183238, 1.69912, -1.22257, -1.5335, -0.910031, -1.20117, 1.22917, -1.30218, -0.0137637, 0.0603214, 0.164954, -0.304465, -0.00131589, -0.000595363, 0.0113261, 5.41908, 64.0372, 33.8202, 3.03833, 3.54236, 3.38901, -0.0164075, -0.00516922, 0.000314261, 0.00254345, -1.2532e-05, -0.00987165, -0.00883714, 0.0582975, -0.0184689, -0.0102525, -0.0632817, 0.195888, 0.17836, 0.475176, -0.53212, 0.34162, -2.07564, -2.17152, -0.121646, 0.4756, -0.536824, 0.338307, -2.07125, -2.18654, -0.112563, 0.0631608, 0.174573, 0.087982, 0.0836132, 0.119446, 0.068296
0.184238, 1.6991, -1.22252, -1.53331, -0.910367, -1.20117, 1.22917, -1.30217, -0.0160954, 0.0600894, 0.172864, -0.315183, -0.00110765, -0.000396912, 0.00951225, 5.56983, 64.0015, 33.7449, 3.03833, 3.54877, 3.38901, -0.0420422, -0.00521619, 0.0003393, 0.00255013, -0.000116898, -0.00991042, -0.00909229, 0.0560707, -0.0203511, -0.00944589, -0.0613957, 0.1971, 0.18996, 0.475239, -0.531945, 0.341709, -2.07552, -2.1716, -0.121521, 0.47569, -0.536693, 0.338381, -2.07093, -2.18696, -0.112542, 0.0636859, 0.176119, 0.0887433, 0.0859617, 0.123161, 0.0701293
0.185238, 1.69907, -1.22246, -1.53312, -0.910703, -1.20117, 1.22917, -1.30215, -0.0197216, 0.0609428, 0.177853, -0.319283, -0.000733205, -0.00472896, 0.0122621, 5.79597, 63.9261, 33.7052, 2.88757, 3.54877, 3.39633, -0.0557752, -0.00526889, 0.000359212, 0.00255757, -0.000218639, -0.0099527, -0.00934152, 0.0564147, -0.0187005, -0.00847515, -0.0625131, 0.19654, 0.188532, 0.475303, -0.531768, 0.341798, -2.07539, -2.17169, -0.121395, 0.475776, -0.536566, 0.338454, -2.07061, -2.18737, -0.112512, 0.0642108, 0.177667, 0.0895048, 0.0848983, 0.124144, 0.071855
0.186238, 1.69905, -1.2224, -1.53293, -0.91105, -1.20117, 1.22916, -1.30214, -0.0186083, 0.0577827, 0.179249, -0.330332, -0.000484882, -0.00350206, 0.00814845, 5.87135, 63.8904, 33.7449, 2.85187, 3.54877, 3.39633, -0.0292249, -0.00531591, 0.000385683, 0.0025708, -0.000313415, -0.00998814, -0.00960813, 0.0542949, -0.0217082, -0.0118312, -0.0663284, 0.195848, 0.203092, 0.475368, -0.53159, 0.341888, -2.07526, -2.17177, -0.121268, 0.475869, -0.536431, 0.338523, -2.07026, -2.1878, -0.112482, 0.0647353, 0.179216, 0.0902666, 0.0881993, 0.128439, 0.0695212
