alisrour97/Franka_experiments/Real_Robot_scripts/servo-franka/Data_5_ki/log_dyn_PI_k_ki_6.csv
Time,q1,q2,q3,q4,q5,q6,q7,dq1,dq2,dq3,dq4,dq5,dq6,dq7,t1,t2,t3,t4,t5,t6,t7,ex1,ex2,ex3,ex4,ex5,ex6,ev1,ev2,ev3,ev4,ev5,ev6,xd,yd,zd,uxd,uyd,uzd,x,y,z,ux,uy,uz,vxd,vyd,vzd,vx,vy,vz
1.2207e-06, 1.69133, -1.22661, -1.53823, -0.900111, -1.1918, 1.22839, -1.30268, 0.0062094, 0.0020177, 0.0010408, -0.00177986, 0.000382266, 0.00112423, -0.000850129, -0.694511, 59.8398, 28.274, 6.77154, 1.76807, 3.09512, -0.10796, 0.000812087, -0.0016213, 0.000793216, 0.000631103, 0.000624884, 6.85905e-06, -0.00365058, -0.00427626, 0.0010789, 0.000421161, 0.00253136, 0.00913255, 0.471008, -0.543389, 0.335894, -2.08385, -2.16584, -0.129887, 0.46933, -0.542532, 0.335274, -2.08319, -2.16522, -0.12982, 0, 0, 0, 0.00417915, 0.00361286, 0.00150303
0.0121365, 1.69135, -1.22658, -1.53825, -0.90012, -1.19181, 1.22841, -1.30269, 0.00112557, 0.00361933, -0.0062138, -0.000823655, -0.000642536, -0.000198996, -0.00108007, -0.76989, 60.062, 28.3454, 6.77154, 1.78638, 3.11618, -0.0557752, 0.00081679, -0.00160938, 0.000788494, 0.000640421, 0.000581459, -1.16989e-05, 0.000323252, 0.000455094, -0.000272765, -0.00617329, 0.00454743, -0.000366168, 0.471008, -0.543389, 0.335894, -2.08385, -2.16584, -0.129887, 0.469343, -0.542528, 0.33529, -2.0832, -2.16527, -0.129766, 3.52292e-06, 9.08712e-06, 4.70091e-06, -0.00044927, -0.000286673, -0.000301088
0.0131365, 1.69135, -1.22658, -1.53825, -0.90012, -1.19181, 1.22841, -1.30269, 0.00112557, 0.00361933, -0.0062138, -0.000823655, -0.000642536, -0.000198996, -0.00108007, -0.76989, 60.062, 28.3454, 6.77154, 1.78638, 3.11618, -0.0557752, 0.000816768, -0.00160939, 0.000788502, 0.00064041, 0.000581465, -1.16868e-05, 0.000351888, 0.000466301, -0.000282843, -0.0061858, 0.00456658, -0.000389886, 0.471008, -0.543389, 0.335894, -2.08385, -2.16584, -0.129887, 0.469343, -0.542528, 0.33529, -2.0832, -2.16527, -0.129766, 1.40551e-05, 3.62649e-05, 1.87583e-05, -0.00044927, -0.000286673, -0.000301088
0.0141365, 1.69135, -1.22658, -1.53825, -0.90012, -1.19181, 1.22841, -1.30269, 0.00112557, 0.00361933, -0.0062138, -0.000823655, -0.000642536, -0.000198996, -0.00108007, -0.76989, 60.062, 28.3454, 6.77154, 1.78638, 3.11618, -0.0557752, 0.000816707, -0.00160941, 0.000788523, 0.00064038, 0.000581479, -1.16538e-05, 0.000399453, 0.000484908, -0.000299578, -0.00620655, 0.00459838, -0.000429263, 0.471008, -0.543389, 0.335894, -2.08385, -2.16584, -0.129887, 0.469343, -0.542528, 0.33529, -2.0832, -2.16527, -0.129766, 3.15416e-05, 8.14084e-05, 4.21042e-05, -0.00044927, -0.000286673, -0.000301088
0.0151365, 1.69135, -1.22658, -1.53825, -0.90012, -1.19181, 1.22841, -1.30269, 0.00112557, 0.00361933, -0.0062138, -0.000823655, -0.000642536, -0.000198996, -0.00108007, -0.76989, 60.062, 28.3454, 6.77154, 1.78638, 3.11618, -0.0557752, 0.00081659, -0.00160945, 0.000788564, 0.000640323, 0.000581507, -1.15898e-05, 0.000465815, 0.000510858, -0.000322921, -0.00623548, 0.00464273, -0.000484172, 0.471008, -0.543389, 0.335894, -2.08385, -2.16584, -0.129887, 0.469343, -0.542528, 0.33529, -2.0832, -2.16527, -0.129766, 5.59279e-05, 0.000144393, 7.4671e-05, -0.00044927, -0.000286673, -0.000301088
0.0161367, 1.69135, -1.22658, -1.53825, -0.90012, -1.19181, 1.22841, -1.30269, 0.00112557, 0.00361933, -0.0062138, -0.000823655, -0.000642536, -0.000198996, -0.00108007, -0.76989, 60.062, 28.3454, 6.77154, 1.78638, 3.11618, -0.0557752, 0.000816397, -0.00160953, 0.000788632, 0.000640229, 0.000581553, -1.14846e-05, 0.000550844, 0.000544093, -0.000352823, -0.00627251, 0.00469954, -0.000554489, 0.471008, -0.543389, 0.335894, -2.08385, -2.16584, -0.129886, 0.469343, -0.542528, 0.33529, -2.0832, -2.16527, -0.129766, 8.71593e-05, 0.000225094, 0.000116391, -0.00044927, -0.000286673, -0.000301088
0.0171404, 1.69135, -1.22658, -1.53825, -0.90012, -1.19181, 1.22841, -1.30269, 0.00112557, 0.00361933, -0.0062138, -0.000823655, -0.000642536, -0.000198996, -0.00108007, -0.76989, 60.062, 28.3454, 6.77154, 1.78638, 3.11618, -0.0557752, 0.00081611, -0.00160964, 0.000788734, 0.000640088, 0.000581622, -1.1328e-05, 0.000654408, 0.000584557, -0.000389234, -0.00631756, 0.00476872, -0.000640089, 0.471008, -0.543389, 0.335894, -2.08385, -2.16584, -0.129886, 0.469343, -0.542528, 0.33529, -2.0832, -2.16527, -0.129766, 0.000125182, 0.000323387, 0.000167197, -0.00044927, -0.000286673, -0.000301088
0.0181406, 1.69135, -1.22658, -1.53825, -0.90012, -1.19181, 1.22841, -1.30269, 0.00112557, 0.00361933, -0.0062138, -0.000823655, -0.000642536, -0.000198996, -0.00108007, -0.76989, 60.062, 28.3454, 6.77154, 1.78638, 3.11618, -0.0557752, 0.00081571, -0.0016098, 0.000788875, 0.000639892, 0.000581717, -1.11101e-05, 0.000776376, 0.000632191, -0.000432104, -0.00637055, 0.00485017, -0.000740846, 0.471008, -0.543388, 0.335894, -2.08385, -2.16584, -0.129886, 0.469343, -0.542528, 0.33529, -2.0832, -2.16527, -0.129766, 0.00016994, 0.000439148, 0.000227022, -0.00044927, -0.000286673, -0.000301088
0.0191409, 1.69135, -1.22658, -1.53825, -0.90012, -1.19181, 1.22841, -1.30269, 0.00112557, 0.00361933, -0.0062138, -0.000823655, -0.000642536, -0.000198996, -0.00108007, -0.76989, 60.062, 28.3454, 6.77154, 1.78638, 3.11618, -0.0557752, 0.00081518, -0.00161001, 0.000789062, 0.000639632, 0.000581844, -1.0821e-05, 0.000916618, 0.000686939, -0.000481386, -0.00643141, 0.00494379, -0.000856637, 0.471009, -0.543388, 0.335895, -2.08385, -2.16584, -0.129886, 0.469343, -0.542528, 0.33529, -2.0832, -2.16527, -0.129766, 0.000221382, 0.000572255, 0.000295798, -0.00044927, -0.000286673, -0.000301088
0.0201414, 1.69135, -1.22658, -1.53825, -0.90012, -1.19181, 1.22841, -1.30269, 0.00112557, 0.00361933, -0.0062138, -0.000823655, -0.000642536, -0.000198996, -0.00108007, -0.76989, 60.062, 28.3454, 6.77154, 1.78638, 3.11618, -0.0557752, 0.0008145, -0.00161027, 0.000789301, 0.0006393, 0.000582006, -1.04507e-05, 0.001075, 0.000748743, -0.000537029, -0.00650007, 0.0050495, -0.000987338, 0.471009, -0.543387, 0.335895, -2.08384, -2.16584, -0.129885, 0.469343, -0.542528, 0.33529, -2.0832, -2.16527, -0.129766, 0.000279451, 0.000722584, 0.000373459, -0.00044927, -0.000286673, -0.000301088
0.0211416, 1.69135, -1.22658, -1.53825, -0.90012, -1.19181, 1.22841, -1.30269, 0.00112557, 0.00361933, -0.0062138, -0.000823655, -0.000642536, -0.000198996, -0.00108007, -0.76989, 60.062, 28.3454, 6.77154, 1.78638, 3.11618, -0.0557752, 0.000813653, -0.0016106, 0.0007896, 0.000638885, 0.000582207, -9.98955e-06, 0.0012514, 0.000817548, -0.000598985, -0.00657646, 0.00516719, -0.00113283, 0.471009, -0.543386, 0.335895, -2.08384, -2.16584, -0.129884, 0.469343, -0.542528, 0.33529, -2.0832, -2.16527, -0.129766, 0.000344096, 0.000890012, 0.000459939, -0.00044927, -0.000286673, -0.000301088
0.0221416, 1.69135, -1.22658, -1.53825, -0.90012, -1.19181, 1.22841, -1.30269, 0.00112557, 0.00361933, -0.0062138, -0.000823655, -0.000642536, -0.000198996, -0.00108007, -0.76989, 60.062, 28.3454, 6.77154, 1.78638, 3.11618, -0.0557752, 0.00081262, -0.001611, 0.000789964, 0.00063838, 0.000582452, -9.42785e-06, 0.00144569, 0.000893297, -0.000667206, -0.00666049, 0.00529678, -0.00129298, 0.47101, -0.543385, 0.335896, -2.08384, -2.16584, -0.129884, 0.469343, -0.542528, 0.33529, -2.0832, -2.16527, -0.129766, 0.000415261, 0.00107442, 0.00055517, -0.00044927, -0.000286673, -0.000301088
0.0231416, 1.69135, -1.22658, -1.53825, -0.90012, -1.19181, 1.22841, -1.30269, 0.00112557, 0.00361933, -0.0062138, -0.000823655, -0.000642536, -0.000198996, -0.00108007, -0.76989, 60.062, 28.3454, 6.77154, 1.78638, 3.11618, -0.0557752, 0.000811385, -0.00161149, 0.000790399, 0.000637775, 0.000582746, -8.756e-06, 0.00165773, 0.000975933, -0.000741642, -0.00675209, 0.00543817, -0.00146767, 0.47101, -0.543384, 0.335896, -2.08384, -2.16585, -0.129883, 0.469343, -0.542528, 0.33529, -2.0832, -2.16527, -0.129766, 0.000492895, 0.00127568, 0.000659086, -0.00044927, -0.000286673, -0.000301088
0.0241418, 1.69135, -1.22658, -1.53825, -0.90012, -1.19181, 1.22841, -1.30269, 0.00112557, 0.00361933, -0.0062138, -0.000823655, -0.000642536, -0.000198996, -0.00108007, -0.76989, 60.062, 28.3454, 6.77154, 1.78638, 3.11618, -0.0557752, 0.000809929, -0.00161205, 0.000790912, 0.000637062, 0.000583091, -7.96449e-06, 0.0018874, 0.0010654, -0.000822246, -0.0068512, 0.00559127, -0.00165678, 0.471011, -0.543383, 0.335897, -2.08384, -2.16585, -0.129882, 0.469343, -0.542528, 0.33529, -2.0832, -2.16527, -0.129766, 0.000576942, 0.00149367, 0.000771622, -0.00044927, -0.000286673, -0.000301088
0.0251418, 1.6914, -1.22661, -1.53829, -0.900142, -1.19181, 1.22844, -1.30269, 0.00508836, -0.00553395, -0.0028127, -0.00195606, -0.000192371, 0.00167544, -0.00396056, -1.0357, 60.5023, 28.6429, 6.95801, 1.8349, 3.0878, -0.0557752, 0.000825202, -0.00157957, 0.00082381, 0.000667525, 0.000590348, -6.55786e-05, 0.000303018, -0.00247163, -0.00527866, -0.00406157, -0.00280596, 0.00787371, 0.471011, -0.543381, 0.335898, -2.08384, -2.16585, -0.129881, 0.469374, -0.542504, 0.33526, -2.08312, -2.16532, -0.129744, 0.00066735, 0.00172827, 0.000892711, 0.00295606, 0.0023427, -0.00444107
0.0261418, 1.69141, -1.22661, -1.53829, -0.900145, -1.19181, 1.22844, -1.3027, 0.00689845, -0.00387783, -0.00385229, -0.0013508, 0.000990772, 0.000977807, -0.00391787, -1.0357, 60.5023, 28.7183, 6.95801, 1.80469, 3.09512, -0.0292249, 0.000825247, -0.00157715, 0.000827502, 0.000670824, 0.000591738, -7.25427e-05, -0.000303652, -0.00304182, -0.00484028, -0.00499509, -0.00222436, 0.00873803, 0.471012, -0.543379, 0.335899, -2.08384, -2.16585, -0.129879, 0.469377, -0.542502, 0.335257, -2.08311, -2.16533, -0.129741, 0.000764066, 0.00197936, 0.00102229, 0.00361636, 0.00314858, -0.00380167
0.0271418, 1.69141, -1.22663, -1.53829, -0.90015, -1.19181, 1.22844, -1.3027, 0.00828296, -0.00778331, -0.00411723, -0.00177082, 0.00133871, 0.00129349, -0.00354461, -1.0357, 60.4666, 28.6429, 6.99371, 1.78638, 3.08047, -0.00999879, 0.000824305, -0.00157433, 0.000836877, 0.000673493, 0.000601669, -8.10334e-05, -0.000372775, -0.00392376, -0.00742977, -0.00565161, -0.00596055, 0.00992576, 0.471013, -0.543377, 0.3359, -2.08384, -2.16585, -0.129878, 0.469381, -0.542499, 0.335249, -2.08309, -2.16533, -0.129748, 0.000867038, 0.00224682, 0.00116028, 0.00450416, 0.00391892, -0.00623645
0.0281418, 1.69142, -1.22663, -1.5383, -0.900152, -1.19181, 1.22844, -1.3027, 0.00617631, -0.00651768, -0.00503295, -0.00284189, 0.00431725, 0.000665377, -0.00327452, -1.0357, 60.1334, 28.4565, 6.91833, 1.69391, 3.0878, 0.0101428, 0.00082464, -0.00157129, 0.000843691, 0.000679467, 0.000608954, -8.93228e-05, -4.02672e-05, -0.00290137, -0.00720876, -0.0058152, -0.00716103, 0.00880318, 0.471014, -0.543375, 0.335901, -2.08384, -2.16585, -0.129876, 0.469384, -0.542495, 0.335244, -2.08307, -2.16533, -0.129748, 0.000976211, 0.00253053, 0.00130664, 0.00361214, 0.00379852, -0.00589266
0.0291418, 1.69143, -1.22664, -1.53832, -0.90016, -1.19181, 1.22844, -1.30269, 0.00954199, -0.00555944, -0.00776539, -0.00762722, 0.000695975, -0.000314481, -0.000611692, -1.11108, 59.7644, 28.3454, 6.88263, 1.62616, 3.10977, -0.0356336, 0.000824623, -0.00156662, 0.000857372, 0.000699835, 0.000612513, -9.00643e-05, -0.00154496, -0.0046503, -0.00865287, -0.0135981, -0.00281517, 0.0108465, 0.471015, -0.543372, 0.335903, -2.08383, -2.16585, -0.129874, 0.46939, -0.54249, 0.335231, -2.08306, -2.16533, -0.129727, 0.00109153, 0.00283037, 0.00146128, 0.00536816, 0.00587767, -0.00698317
0.0301418, 1.69144, -1.22666, -1.53833, -0.900167, -1.19182, 1.22844, -1.30269, 0.00929791, -0.00505993, -0.00827485, -0.00716068, 0.000988571, -0.00149028, -0.000738227, -1.07537, 59.5065, 28.1589, 6.80725, 1.60144, 3.14548, -0.0292249, 0.000821597, -0.00156568, 0.000872184, 0.000718304, 0.000621785, -9.31174e-05, -0.00108709, -0.00399908, -0.00868252, -0.0147703, -0.00293264, 0.00989488, 0.471016, -0.543369, 0.335904, -2.08383, -2.16585, -0.129871, 0.469391, -0.542488, 0.335218, -2.08304, -2.16532, -0.129714, 0.00121295, 0.00314621, 0.00162416, 0.00485449, 0.00571941, -0.00690101
0.0311418, 1.69144, -1.22667, -1.53834, -0.900175, -1.19183, 1.22844, -1.30269, 0.00898322, -0.00347401, -0.00975732, -0.00733004, 0.000569293, 0.00241794, -0.00103667, -1.0357, 59.324, 28.0121, 6.73187, 1.59595, 3.18118, -0.0164075, 0.000818364, -0.00156345, 0.000885765, 0.000731414, 0.000627799, -9.84991e-05, 2.3388e-07, -0.00410296, -0.00806326, -0.0129136, 0.0012567, 0.00886179, 0.471017, -0.543366, 0.335906, -2.08383, -2.16586, -0.129869, 0.469394, -0.542486, 0.335205, -2.08302, -2.16532, -0.129703, 0.00134042, 0.00347794, 0.00179519, 0.00514694, 0.00488664, -0.00629038
0.0321418, 1.69145, -1.22669, -1.53835, -0.900187, -1.19184, 1.22845, -1.30269, 0.00818974, -0.00670008, -0.0127483, -0.00889491, 0.000634343, 0.00643646, -0.000980828, -0.960319, 59.324, 27.9368, 6.73187, 1.58313, 3.18851, -0.00999879, 0.000814605, -0.00156031, 0.000905706, 0.000748256, 0.000639833, -0.000106436, 0.00158716, -0.00414003, -0.0109691, -0.0130508, 0.000525746, 0.00773109, 0.471019, -0.543362, 0.335908, -2.08383, -2.16586, -0.129866, 0.469398, -0.542483, 0.335187, -2.08299, -2.16532, -0.129695, 0.00147388, 0.00382545, 0.00197432, 0.00526925, 0.00411621, -0.00922791
0.0331418, 1.69145, -1.2267, -1.53837, -0.900195, -1.19185, 1.22846, -1.3027, 0.00186897, -0.00405703, -0.0150983, -0.00510488, -0.00668328, 0.0107543, -0.00238857, -0.76989, 59.2487, 28.0121, 6.65649, 1.64447, 3.15921, 0.0357776, 0.000804343, -0.00156223, 0.000920309, 0.000764061, 0.000632931, -0.000103347, 0.00803739, 0.000895704, -0.00914739, -0.0119192, 0.0111662, -0.00436403, 0.47102, -0.543358, 0.33591, -2.08382, -2.16586, -0.129863, 0.469398, -0.542487, 0.335173, -2.08299, -2.16531, -0.129667, 0.00161328, 0.0041886, 0.00216148, 0.000675937, -0.00237502, -0.00809118
0.0341418, 1.69146, -1.22672, -1.53837, -0.900213, -1.19186, 1.22847, -1.30269, 0.00342095, -0.00808154, -0.0122816, -0.00813323, -0.00520569, 0.0139701, 0.000785668, -0.694511, 59.4351, 27.9011, 6.69617, 1.65088, 3.13083, -0.0292249, 0.000804091, -0.00155248, 0.000939233, 0.000772441, 0.000640757, -0.000115979, 0.00668497, -0.00181922, -0.0108707, -0.00816086, 0.00793424, -0.00175941, 0.471022, -0.543354, 0.335912, -2.08382, -2.16586, -0.12986, 0.469409, -0.542479, 0.335156, -2.08296, -2.16532, -0.129663, 0.00175856, 0.00456728, 0.0023566, 0.00342202, -0.000284841, -0.00946962
0.0351418, 1.69147, -1.22675, -1.53839, -0.900225, -1.19187, 1.22849, -1.3027, 0.00265247, -0.0152543, -0.0136126, -0.00838324, -0.00850804, 0.0104031, -0.000719011, -0.543754, 59.5819, 27.9368, 6.65649, 1.65088, 3.13083, 0.00373412, 0.000797174, -0.00154835, 0.000959287, 0.000781, 0.000646209, -0.000124841, 0.0086038, -0.000154348, -0.0160076, -0.0147363, 0.00208747, -0.00275434, 0.471024, -0.543349, 0.335915, -2.08382, -2.16586, -0.129856, 0.469414, -0.542478, 0.335138, -2.08294, -2.16533, -0.129657, 0.00190969, 0.00496137, 0.00255964, 0.00179354, -0.00106264, -0.0145866
0.0361418, 1.69147, -1.22675, -1.53839, -0.900239, -1.19188, 1.2285, -1.30269, 0.0044641, -0.0120484, -0.0104087, -0.00914036, -0.00682295, 0.0121895, 0.000724797, -0.357292, 59.6176, 27.9368, 6.62079, 1.66369, 3.13815, -0.0292249, 0.000792755, -0.00154465, 0.000969394, 0.000786833, 0.000640028, -0.000128868, 0.00688867, -0.00219448, -0.0131831, -0.0101562, 0.00498714, -4.90396e-05, 0.471026, -0.543344, 0.335917, -2.08381, -2.16587, -0.129852, 0.46942, -0.542475, 0.33513, -2.08294, -2.16533, -0.12964, 0.0020666, 0.00537076, 0.00277051, 0.00402858, 0.000688784, -0.011382
0.0371418, 1.69148, -1.22676, -1.5384, -0.900249, -1.19188, 1.22852, -1.30269, 0.00763122, -0.00974302, -0.00970255, -0.00836811, -0.0039029, 0.00858912, -0.00122465, -0.242241, 59.6573, 28.0121, 6.54541, 1.63257, 3.1528, 0.0165515, 0.000788485, -0.00153767, 0.000981295, 0.000788379, 0.00063445, -0.000140185, 0.00484104, -0.00337802, -0.0121111, -0.0114307, 0.00339201, 0.00526432, 0.471028, -0.543338, 0.33592, -2.08381, -2.16587, -0.129848, 0.469428, -0.542472, 0.33512, -2.08292, -2.16535, -0.12963, 0.00222924, 0.00579533, 0.00298915, 0.00533866, 0.0030183, -0.00982275
0.0381418, 1.6915, -1.22677, -1.53841, -0.90026, -1.19189, 1.22853, -1.3027, 0.00700364, -0.00615438, -0.00870602, -0.0078444, -0.00695348, 0.00981971, -0.00130047, -0.131157, 59.6176, 27.9368, 6.47003, 1.61426, 3.18851, 0.0293689, 0.000786995, -0.00152872, 0.000986849, 0.0007853, 0.000621698, -0.000158863, 0.00592366, -0.00272167, -0.00959867, -0.0104622, 0.0102521, 0.00327756, 0.47103, -0.543332, 0.335923, -2.0838, -2.16587, -0.129843, 0.469439, -0.542466, 0.335117, -2.08291, -2.16538, -0.129618, 0.00239756, 0.00623496, 0.00321551, 0.00498097, 0.00197559, -0.00726378
0.0391418, 1.69151, -1.22677, -1.53841, -0.900276, -1.1919, 1.22855, -1.3027, 0.00771553, -0.00547123, -0.00840076, -0.0114865, -0.00919778, 0.0107326, -0.00138259, 0.059273, 59.6573, 28.0121, 6.43433, 1.58954, 3.23153, 0.0431018, 0.000784943, -0.00151949, 0.000997258, 0.000786783, 0.000612829, -0.000174531, 0.00541715, -0.00370445, -0.0097191, -0.0124356, 0.0138613, 0.00624273, 0.471033, -0.543326, 0.335927, -2.0838, -2.16588, -0.129838, 0.469451, -0.54246, 0.335109, -2.08289, -2.16541, -0.129604, 0.00257152, 0.00668953, 0.00344951, 0.00611394, 0.00298896, -0.00709973
0.0401418, 1.69153, -1.22678, -1.53842, -0.900287, -1.19191, 1.22857, -1.30269, 0.0124571, -0.00854887, -0.00622564, -0.0134119, -0.00989903, 0.011664, 5.63745e-05, 0.21003, 59.7287, 28.0121, 6.35895, 1.5401, 3.26724, 0.0165515, 0.000783782, -0.00150771, 0.00100663, 0.000781174, 0.000605433, -0.000190109, 0.00330829, -0.00713264, -0.0113626, -0.0121697, 0.0123316, 0.011634, 0.471035, -0.543319, 0.33593, -2.08379, -2.16588, -0.129833, 0.469465, -0.542452, 0.335103, -2.08287, -2.16544, -0.129599, 0.00275106, 0.00715892, 0.0036911, 0.00958235, 0.00593364, -0.00825713
0.0411418, 1.69154, -1.22678, -1.53842, -0.900311, -1.19192, 1.22859, -1.30269, 0.0134665, -0.00618864, -0.00545449, -0.0156411, -0.011664, 0.0127779, 0.00125436, 0.475838, 59.7287, 28.0478, 6.43433, 1.52179, 3.29562, -0.0164075, 0.000783195, -0.00149688, 0.00101212, 0.000780989, 0.000583579, -0.000208851, 0.0027904, -0.00809731, -0.0101458, -0.0125854, 0.0171946, 0.0127065, 0.471038, -0.543312, 0.335934, -2.08379, -2.16589, -0.129827, 0.469478, -0.542444, 0.335101, -2.08286, -2.16547, -0.129573, 0.00293613, 0.00764302, 0.00394021, 0.0107562, 0.00678127, -0.00675525
0.0421418, 1.69155, -1.22679, -1.53842, -0.900319, -1.19193, 1.22861, -1.30269, 0.0127822, -0.00140338, -0.00491598, -0.0113807, -0.0132111, 0.0129581, 0.000833289, 0.813057, 59.8398, 28.0875, 6.28357, 1.50989, 3.33865, -0.0164075, 0.000775254, -0.00149127, 0.00102014, 0.000770609, 0.000572848, -0.00021469, 0.00464434, -0.00642615, -0.00668561, -0.0103699, 0.0232369, 0.00795071, 0.471041, -0.543304, 0.335938, -2.08378, -2.16589, -0.129821, 0.469487, -0.542442, 0.335096, -2.08286, -2.16549, -0.129568, 0.00312667, 0.00814172, 0.00419678, 0.00946919, 0.00484876, -0.00331931
0.0431418, 1.69156, -1.22679, -1.53844, -0.900343, -1.19195, 1.22863, -1.30269, 0.0131904, -0.00250012, -0.00790274, -0.0160344, -0.0149746, 0.0122813, 0.000315956, 1.11457, 59.9152, 28.274, 6.32324, 1.5163, 3.40365, -0.00999879, 0.000772142, -0.001481, 0.00103202, 0.00078006, 0.000552738, -0.000235318, 0.00462677, -0.00665747, -0.00930417, -0.0169855, 0.0242252, 0.0104965, 0.471044, -0.543295, 0.335942, -2.08378, -2.16589, -0.129815, 0.4695, -0.542435, 0.335088, -2.08284, -2.16553, -0.129533, 0.00332265, 0.00865489, 0.00446074, 0.0098009, 0.00579175, -0.00564525
0.0441418, 1.69158, -1.2268, -1.53844, -0.900357, -1.19196, 1.22866, -1.30269, 0.0106832, -0.00318815, -0.00546629, -0.0163326, -0.0157856, 0.0219184, -0.00101172, 1.41608, 59.9866, 28.274, 6.20819, 1.50989, 3.44668, 0.0229602, 0.000768008, -0.00146963, 0.00103815, 0.000765878, 0.000535911, -0.000256878, 0.00692815, -0.00721595, -0.00810113, -0.0068992, 0.0291284, 0.0100704, 0.471048, -0.543286, 0.335947, -2.08377, -2.1659, -0.129808, 0.469515, -0.542429, 0.335085, -2.08282, -2.16557, -0.129527, 0.003524, 0.00918243, 0.00473204, 0.0106859, 0.00388503, -0.00456001
0.0451418, 1.69159, -1.22681, -1.53844, -0.900379, -1.19197, 1.22869, -1.3027, 0.0118365, -0.00637536, 0.000728805, -0.0180126, -0.017642, 0.025463, -0.00165907, 1.72157, 60.173, 28.3454, 6.17248, 1.53461, 3.46774, 0.0495105, 0.000762872, -0.00145791, 0.00105156, 0.000760813, 0.000521907, -0.000280755, 0.00623539, -0.00960447, -0.00795678, -0.000749705, 0.0293861, 0.015279, 0.471051, -0.543277, 0.335952, -2.08376, -2.1659, -0.129801, 0.46953, -0.542422, 0.335076, -2.0828, -2.16561, -0.129514, 0.00373068, 0.00972421, 0.00501061, 0.0132584, 0.00518643, -0.00410352
0.0461418, 1.6916, -1.22682, -1.53845, -0.900399, -1.19198, 1.22872, -1.30269, 0.0120121, -0.00667206, -0.00263588, -0.0154403, -0.018348, 0.02826, -0.000869621, 2.05878, 60.2802, 28.4961, 6.09711, 1.54651, 3.48239, 0.0431018, 0.000755535, -0.0014476, 0.00106467, 0.000757332, 0.000503758, -0.000295589, 0.00866477, -0.00874887, -0.00893586, -0.000664058, 0.0314358, 0.0100855, 0.471055, -0.543267, 0.335957, -2.08375, -2.16591, -0.129793, 0.469544, -0.542417, 0.335067, -2.08279, -2.16564, -0.129493, 0.00394263, 0.0102801, 0.00529638, 0.0126675, 0.0034596, -0.00513567
0.0471418, 1.69162, -1.22682, -1.53846, -0.900409, -1.192, 1.22875, -1.30269, 0.0172211, -0.00614841, -0.00321695, -0.0129791, -0.0197677, 0.0314977, -7.18208e-05, 2.32459, 60.3555, 28.5715, 5.87494, 1.58313, 3.46774, 0.0293689, 0.000747015, -0.00143529, 0.00107425, 0.000743037, 0.000480456, -0.000307408, 0.00837071, -0.0112111, -0.0086924, 0.00113312, 0.035099, 0.0110251, 0.471059, -0.543256, 0.335962, -2.08375, -2.16592, -0.129785, 0.46956, -0.542412, 0.335061, -2.08279, -2.16568, -0.129479, 0.00415982, 0.0108501, 0.00558931, 0.015342, 0.00438334, -0.00463107
0.0481418, 1.69165, -1.22684, -1.53846, -0.900423, -1.19202, 1.22879, -1.30269, 0.0235053, -0.00832068, -0.00358741, -0.013051, -0.0210434, 0.0284313, 0.00212173, 2.47535, 60.538, 28.6429, 5.72418, 1.62616, 3.46774, -0.0292249, 0.000741149, -0.0014183, 0.00108831, 0.000730965, 0.000460712, -0.000324238, 0.00638817, -0.0137849, -0.0109239, -0.00389967, 0.0330929, 0.0140339, 0.471064, -0.543245, 0.335968, -2.08374, -2.16592, -0.129777, 0.469581, -0.542404, 0.335051, -2.08278, -2.16572, -0.129465, 0.00438218, 0.0114339, 0.00588931, 0.017983, 0.00737338, -0.00630466
0.0491418, 1.69166, -1.22685, -1.53847, -0.900436, -1.19204, 1.22883, -1.30269, 0.0173776, -0.00894542, -0.00481932, -0.00965191, -0.021159, 0.0350613, 0.0014141, 2.81654, 60.6848, 28.754, 5.53772, 1.65088, 3.48239, -0.0292249, 0.00072819, -0.00140947, 0.00110089, 0.000718726, 0.00043761, -0.00033167, 0.0117752, -0.0103411, -0.010571, 0.00298521, 0.035853, 0.00458533, 0.471068, -0.543234, 0.335974, -2.08373, -2.16593, -0.129768, 0.469594, -0.542403, 0.335043, -2.08278, -2.16575, -0.129447, 0.00460967, 0.0120315, 0.00619634, 0.0149771, 0.00245726, -0.00638108
0.0501418, 1.6917, -1.22685, -1.53847, -0.900446, -1.19206, 1.22886, -1.30269, 0.0263513, -0.00853555, -0.00224961, -0.00683496, -0.0214749, 0.0347468, 0.000467717, 2.85224, 60.7959, 28.7183, 5.35126, 1.68201, 3.51077, -0.0164075, 0.000725754, -0.00138859, 0.00110809, 0.000699194, 0.000411936, -0.000363222, 0.00872444, -0.0148496, -0.00975223, 0.00452163, 0.0366505, 0.0125281, 0.471073, -0.543221, 0.335981, -2.08372, -2.16594, -0.129759, 0.46962, -0.542391, 0.335041, -2.08276, -2.16582, -0.129437, 0.00484224, 0.0126428, 0.00651033, 0.0196325, 0.00613936, -0.00492144
0.0511418, 1.69172, -1.22686, -1.53848, -0.900456, -1.19208, 1.2289, -1.30269, 0.0250783, -0.00826893, -0.00576539, -0.00939492, -0.0206452, 0.0384883, -0.000197036, 3.07838, 60.907, 28.9048, 5.2005, 1.68201, 3.56112, -0.00267457, 0.000713532, -0.00137643, 0.00112201, 0.000687213, 0.000387843, -0.000375508, 0.0101194, -0.0146087, -0.0110316, 0.00381565, 0.0389334, 0.0122267, 0.471078, -0.543208, 0.335987, -2.08371, -2.16594, -0.129749, 0.469637, -0.542388, 0.335032, -2.08276, -2.16585, -0.129417, 0.00507984, 0.0132677, 0.00683122, 0.0196333, 0.00557414, -0.006073
0.0521426, 1.69174, -1.22688, -1.53848, -0.900463, -1.1921, 1.22894, -1.30269, 0.0249378, -0.00985939, -0.00377156, -0.00763916, -0.0205655, 0.0375941, 0.000139744, 3.26881, 61.0934, 28.9048, 5.05371, 1.69391, 3.58951, -0.00999879, 0.000702524, -0.00136054, 0.00113344, 0.000659973, 0.000365202, -0.000387918, 0.0110005, -0.0141042, -0.0113199, 0.00526253, 0.0369983, 0.0106845, 0.471083, -0.543195, 0.335994, -2.0837, -2.16595, -0.129738, 0.469658, -0.542382, 0.335025, -2.08276, -2.1659, -0.129415, 0.00532241, 0.013906, 0.00715894, 0.0193932, 0.00536633, -0.0061515
0.0531426, 1.69176, -1.22688, -1.53849, -0.900475, -1.19212, 1.22899, -1.30268, 0.0231896, -0.00656174, -0.00505881, -0.00796784, -0.0199388, 0.0428133, 0.000330397, 3.53065, 61.0934, 29.0159, 4.97833, 1.69391, 3.58218, -0.0164075, 0.000687693, -0.00134888, 0.00113979, 0.00063588, 0.000324653, -0.000394246, 0.0127409, -0.0136725, -0.0095737, 0.00907056, 0.0428625, 0.00803384, 0.471088, -0.54318, 0.336002, -2.08369, -2.16596, -0.129728, 0.469675, -0.542381, 0.335024, -2.08278, -2.16594, -0.129391, 0.00556992, 0.0145576, 0.00749345, 0.0193351, 0.00401342, -0.00434979
0.0541426, 1.69179, -1.22689, -1.53849, -0.900484, -1.19214, 1.22904, -1.30268, 0.025377, -0.00947021, -0.00509526, -0.00938199, -0.0249242, 0.0456953, 0.000220171, 3.6457, 61.3116, 29.0912, 4.94263, 1.71222, 3.60415, -0.0164075, 0.000675839, -0.0013315, 0.00115384, 0.000615426, 0.000296199, -0.000412073, 0.0136175, -0.0149588, -0.0115963, 0.00767688, 0.0461279, 0.00934162, 0.471094, -0.543166, 0.336009, -2.08368, -2.16597, -0.129716, 0.469698, -0.542375, 0.335015, -2.08277, -2.166, -0.129375, 0.00582231, 0.0152225, 0.00783467, 0.0208304, 0.00417695, -0.00618071
0.0551426, 1.69181, -1.22689, -1.5385, -0.900492, -1.19217, 1.22909, -1.30268, 0.025224, -0.00547196, -0.00512969, -0.00977869, -0.0232534, 0.0483773, 0.000621429, 3.83216, 61.2759, 29.1666, 4.90295, 1.71222, 3.61148, -0.0292249, 0.000661136, -0.00131775, 0.00115741, 0.000586255, 0.000250749, -0.000420409, 0.0138593, -0.0152875, -0.00931975, 0.0106289, 0.0505723, 0.00903359, 0.4711, -0.54315, 0.336017, -2.08367, -2.16597, -0.129705, 0.469718, -0.542373, 0.335017, -2.08279, -2.16605, -0.129351, 0.00607953, 0.0159004, 0.00818254, 0.0215071, 0.00427963, -0.00363236
0.0561426, 1.69184, -1.22689, -1.53851, -0.9005, -1.19219, 1.22914, -1.30269, 0.0257816, -0.00624171, -0.00599546, -0.00871658, -0.0225897, 0.054897, -0.00151855, 3.98292, 61.387, 29.2777, 4.94263, 1.72504, 3.6188, 0.0229602, 0.00064614, -0.00130263, 0.00116897, 0.000563446, 0.000215602, -0.000438868, 0.015453, -0.0162132, -0.00964105, 0.0159011, 0.0529437, 0.0100277, 0.471106, -0.543134, 0.336026, -2.08366, -2.16598, -0.129692, 0.46974, -0.542369, 0.335011, -2.08279, -2.16611, -0.12933, 0.00634154, 0.0165914, 0.00853701, 0.0227392, 0.00348475, -0.00387045
0.0571426, 1.69187, -1.22689, -1.53851, -0.900506, -1.19222, 1.22919, -1.30269, 0.0289311, -0.0041576, -0.00397988, -0.00980301, -0.0259866, 0.0501486, -0.000537686, 4.02259, 61.387, 29.2777, 4.94263, 1.71863, 3.63254, 0.0101428, 0.000633819, -0.00128361, 0.00117298, 0.000527107, 0.000172856, -0.000456142, 0.0140342, -0.0170036, -0.00869273, 0.0108157, 0.0560051, 0.0123065, 0.471113, -0.543117, 0.336034, -2.08364, -2.16599, -0.129679, 0.469765, -0.542363, 0.335013, -2.0828, -2.16617, -0.129316, 0.00660828, 0.0172953, 0.00889802, 0.0237788, 0.00547606, -0.00237691
0.0581426, 1.6919, -1.2269, -1.53851, -0.900513, -1.19224, 1.22924, -1.30269, 0.0229107, -0.00620275, -0.00882494, -0.00917316, -0.0245721, 0.0506768, -0.00107056, 4.13764, 61.5338, 29.2777, 5.01404, 1.73053, 3.66824, 0.0293689, 0.00061707, -0.00126768, 0.00118327, 0.000493872, 0.000136601, -0.000471402, 0.0186262, -0.0126374, -0.0114247, 0.00844858, 0.0536416, 0.00391573, 0.471119, -0.543099, 0.336043, -2.08363, -2.166, -0.129666, 0.469788, -0.54236, 0.335009, -2.08281, -2.16623, -0.129304, 0.00687971, 0.0180119, 0.00926549, 0.0197558, 0.00190027, -0.00528736
0.0591426, 1.69192, -1.22691, -1.53851, -0.900519, -1.19227, 1.22929, -1.30269, 0.0248022, -0.00673163, -0.00815229, -0.007769, -0.0274306, 0.0513869, -0.000476372, 4.24873, 61.6449, 29.3531, 5.05371, 1.71863, 3.69754, 0.0229602, 0.000599071, -0.00125312, 0.00119424, 0.000465056, 9.99634e-05, -0.000480762, 0.0195194, -0.0130268, -0.0116055, 0.0083349, 0.0562045, 0.00271856, 0.471126, -0.543081, 0.336053, -2.08362, -2.16601, -0.129652, 0.46981, -0.542357, 0.335004, -2.08282, -2.16628, -0.129286, 0.00715578, 0.0187412, 0.00963939, 0.0204463, 0.00179172, -0.00524244
0.0601426, 1.69195, -1.22691, -1.53851, -0.900525, -1.1923, 1.22935, -1.30268, 0.0277552, -0.00448626, -0.00488616, -0.00748672, -0.0250148, 0.0568817, 0.000903105, 4.2884, 61.6449, 29.3134, 5.12909, 1.71222, 3.7186, -0.00999879, 0.00058331, -0.00123476, 0.00119771, 0.00042368, 5.21638e-05, -0.000493562, 0.0182726, -0.0161317, -0.00903184, 0.0166341, 0.0595474, 0.00572025, 0.471134, -0.543062, 0.336063, -2.0836, -2.16602, -0.129638, 0.469836, -0.542352, 0.335008, -2.08284, -2.16635, -0.12927, 0.00743644, 0.0194831, 0.0100196, 0.0238764, 0.00349633, -0.00222144
0.0611426, 1.69199, -1.22692, -1.53852, -0.900523, -1.19233, 1.22941, -1.30268, 0.0275151, -0.00558818, -0.00614039, -0.00447124, -0.0273788, 0.0611, 0.00155149, 4.2884, 61.756, 29.4245, 5.08942, 1.69391, 3.73324, -0.0356336, 0.000562493, -0.00121771, 0.00120858, 0.000387031, 9.38311e-06, -0.000497773, 0.0213393, -0.0153249, -0.00959779, 0.0191539, 0.0628039, 0.000182637, 0.471141, -0.543042, 0.336073, -2.08359, -2.16603, -0.129623, 0.469861, -0.542351, 0.335004, -2.08286, -2.16641, -0.129253, 0.00772164, 0.0202374, 0.0104062, 0.0234456, 0.00127705, -0.00284506
0.0621426, 1.69202, -1.22693, -1.53852, -0.900518, -1.19236, 1.22947, -1.30268, 0.0264958, -0.00632307, -0.00430696, -0.00245169, -0.0298925, 0.05964, 0.00150904, 4.3241, 61.8671, 29.4245, 5.05371, 1.69391, 3.74057, -0.0484509, 0.000539928, -0.0012021, 0.00121633, 0.000340396, -3.31009e-05, -0.000500887, 0.0232317, -0.0137788, -0.00945317, 0.0190411, 0.0636139, -0.00314422, 0.471149, -0.543021, 0.336083, -2.08357, -2.16604, -0.129607, 0.469885, -0.54235, 0.335003, -2.08289, -2.16646, -0.129246, 0.00801134, 0.0210041, 0.0107989, 0.0222648, 8.97358e-05, -0.00255624
0.0631426, 1.69205, -1.22694, -1.53852, -0.900515, -1.19239, 1.22953, -1.30268, 0.0254672, -0.00848364, -0.00395935, -0.000936007, -0.0320767, 0.0636192, 0.000768659, 4.36378, 62.0496, 29.4642, 5.01404, 1.70032, 3.74057, -0.0420422, 0.000515613, -0.00118645, 0.00122843, 0.000297446, -7.38273e-05, -0.000505529, 0.0259355, -0.0131322, -0.0102688, 0.0221489, 0.0655706, -0.00592941, 0.471157, -0.543, 0.336094, -2.08356, -2.16606, -0.129591, 0.469909, -0.542351, 0.334997, -2.08291, -2.16652, -0.129237, 0.00830549, 0.021783, 0.0111979, 0.021981, -0.00170172, -0.00336247
0.0641426, 1.69209, -1.22695, -1.53852, -0.900515, -1.19242, 1.2296, -1.30268, 0.0299312, -0.00825374, -0.00359481, 0.0051247, -0.0289439, 0.0577259, -0.00118299, 4.3241, 62.1606, 29.4999, 5.05371, 1.70581, 3.72592, 0.00373412, 0.000494714, -0.00116558, 0.00123941, 0.000251024, -0.000118214, -0.000521406, 0.0252524, -0.0132987, -0.0102058, 0.0206671, 0.0604487, -0.00432541, 0.471166, -0.542978, 0.336106, -2.08354, -2.16607, -0.129574, 0.469939, -0.542347, 0.334994, -2.08292, -2.16659, -0.129228, 0.00860403, 0.0225739, 0.011603, 0.0224237, -0.000239013, -0.00279426
0.0651426, 1.69213, -1.22696, -1.53853, -0.900506, -1.19246, 1.22967, -1.30268, 0.0319442, -0.0081006, -0.00424979, 0.00645654, -0.0323543, 0.0630331, -0.000551303, 4.3241, 62.2717, 29.5752, 4.94263, 1.73694, 3.70395, -0.00267457, 0.000468865, -0.00114876, 0.00124849, 0.000205552, -0.000168945, -0.000521511, 0.0269465, -0.0142766, -0.0100951, 0.0231058, 0.0665618, -0.00627006, 0.471175, -0.542955, 0.336118, -2.08352, -2.16608, -0.129557, 0.469965, -0.542347, 0.334992, -2.08296, -2.16665, -0.12921, 0.00890693, 0.0233769, 0.0120141, 0.0237684, -0.00108518, -0.00256629
0.0661426, 1.69216, -1.22696, -1.53853, -0.900504, -1.19249, 1.22973, -1.30268, 0.0334337, -0.00540013, -0.00373592, 0.00463557, -0.0292511, 0.0657799, -0.000842256, 4.3241, 62.2717, 29.611, 4.94263, 1.74884, 3.71127, 0.0101428, 0.00044594, -0.00113005, 0.0012538, 0.00015979, -0.00022527, -0.000531909, 0.0259103, -0.0160837, -0.00871253, 0.0261672, 0.0688032, -0.0023616, 0.471184, -0.542931, 0.33613, -2.0835, -2.16609, -0.129539, 0.469993, -0.542344, 0.334995, -2.08298, -2.16672, -0.129187, 0.00921413, 0.0241918, 0.0124312, 0.0258936, 0.000614657, -0.000678036
0.0671426, 1.6922, -1.22697, -1.53853, -0.900503, -1.19252, 1.2298, -1.30268, 0.0343131, -0.00703356, -0.00254125, 0.0042668, -0.0356652, 0.0687573, 0.000184479, 4.3241, 62.4185, 29.611, 4.90295, 1.74884, 3.69754, -0.00999879, 0.000423553, -0.0011084, 0.00126473, 0.000108307, -0.000268799, -0.000544459, 0.0277638, -0.0163898, -0.00938422, 0.0260095, 0.0744555, -0.00443483, 0.471193, -0.542906, 0.336143, -2.08349, -2.16611, -0.12952, 0.470025, -0.542339, 0.334993, -2.083, -2.16679, -0.129183, 0.0095256, 0.0250185, 0.0128543, 0.0265533, -0.000272339, -0.00121498
0.0681426, 1.69223, -1.22697, -1.53853, -0.900496, -1.19256, 1.22986, -1.30267, 0.0324378, -0.00728735, -0.00349538, 0.00386606, -0.0362878, 0.0709493, 0.00205576, 4.43916, 62.5296, 29.6863, 4.86725, 1.75525, 3.68289, -0.0621838, 0.000392808, -0.0010957, 0.00127549, 6.23561e-05, -0.000317858, -0.000534749, 0.0299338, -0.015258, -0.0099412, 0.0265098, 0.0764164, -0.00917364, 0.471203, -0.542881, 0.336156, -2.08347, -2.16612, -0.129501, 0.470048, -0.542342, 0.33499, -2.08304, -2.16684, -0.129164, 0.00984127, 0.0258569, 0.0132832, 0.025797, -0.00153716, -0.00163823
0.0691426, 1.69228, -1.22697, -1.53854, -0.9005, -1.19259, 1.22993, -1.30267, 0.0370557, -0.00309488, -0.00412197, 0.00188188, -0.0365063, 0.0710807, 0.00113315, 4.43916, 62.4542, 29.7617, 4.90295, 1.75525, 3.70395, -0.0557752, 0.000371189, -0.00107482, 0.00128104, 2.19977e-05, -0.000378348, -0.000551866, 0.0279775, -0.0177634, -0.00851603, 0.0243028, 0.0817793, -0.00311422, 0.471213, -0.542854, 0.336169, -2.08345, -2.16613, -0.129481, 0.470079, -0.542335, 0.334994, -2.08305, -2.16692, -0.129129, 0.0101611, 0.0267069, 0.013718, 0.0286004, 0.00112849, 0.000431121
0.0701426, 1.69232, -1.22697, -1.53854, -0.900503, -1.19263, 1.22999, -1.30268, 0.0397928, -0.00122795, -0.00360456, 0.000431366, -0.0322697, 0.0663449, -0.00168597, 4.47486, 62.4185, 29.7974, 4.94263, 1.76166, 3.73324, 0.0101428, 0.000347402, -0.00105571, 0.00128735, -2.14692e-05, -0.000435635, -0.000572919, 0.025621, -0.0189442, -0.00831113, 0.0212859, 0.0785991, 0.00458709, 0.471223, -0.542827, 0.336183, -2.08343, -2.16615, -0.129461, 0.470109, -0.54233, 0.334998, -2.08306, -2.16701, -0.129101, 0.0104851, 0.0275683, 0.0141585, 0.0300264, 0.00433386, 0.00140351
0.0711426, 1.69236, -1.22696, -1.53855, -0.900495, -1.19266, 1.23006, -1.30267, 0.0408482, 0.000944666, -0.00501752, 0.00305743, -0.0293723, 0.0679899, 0.00104616, 4.55024, 62.3431, 29.9085, 4.82758, 1.77356, 3.7543, -0.0484509, 0.000319068, -0.00103961, 0.00129137, -6.70934e-05, -0.000498084, -0.00056515, 0.026536, -0.0189383, -0.00740014, 0.0237224, 0.0796997, 0.000117675, 0.471234, -0.542799, 0.336197, -2.08341, -2.16616, -0.12944, 0.470137, -0.542329, 0.335003, -2.08311, -2.16707, -0.129066, 0.0108131, 0.0284411, 0.0146048, 0.0304149, 0.00416326, 0.00260753
0.0721426, 1.6924, -1.22696, -1.53855, -0.900489, -1.1927, 1.23012, -1.30267, 0.0434275, -0.000298195, -0.00335703, 0.00469569, -0.0268995, 0.0692818, -1.46405e-05, 4.55024, 62.3828, 29.9085, 4.71649, 1.77997, 3.77627, -0.0292249, 0.000293231, -0.00101869, 0.00129755, -0.000120619, -0.000553778, -0.000578216, 0.0262211, -0.0204937, -0.00765713, 0.0273463, 0.0775107, 0.00319627, 0.471245, -0.54277, 0.336212, -2.08339, -2.16618, -0.129418, 0.470169, -0.542324, 0.335007, -2.08313, -2.16715, -0.129049, 0.0111452, 0.0293251, 0.0150567, 0.03228, 0.00546223, 0.00280715
0.0731426, 1.69244, -1.22696, -1.53855, -0.90049, -1.19273, 1.23019, -1.30267, 0.0395496, -0.00103398, -0.00401027, 0.00317467, -0.030151, 0.0710215, 0.000702316, 4.66529, 62.4185, 29.9839, 4.71649, 1.79828, 3.77627, -0.0484509, 0.00026557, -0.00100016, 0.00130831, -0.000165963, -0.000605819, -0.000586897, 0.0294644, -0.01815, -0.00850032, 0.0262084, 0.0809773, -0.00215516, 0.471256, -0.542741, 0.336228, -2.08336, -2.16619, -0.129396, 0.4702, -0.542319, 0.335007, -2.08315, -2.16722, -0.129025, 0.0114812, 0.0302203, 0.0155142, 0.0303621, 0.00318862, 0.00200033
0.0741426, 1.69249, -1.22695, -1.53856, -0.900488, -1.19277, 1.23026, -1.30267, 0.0416402, 0.00190916, -0.00444351, 0.00298482, -0.0289912, 0.0728388, 0.0012142, 4.701, 62.3074, 30.0593, 4.68079, 1.84772, 3.7543, -0.0685925, 0.000238557, -0.000979316, 0.0013125, -0.000211877, -0.000675806, -0.000596318, 0.0292027, -0.019335, -0.00722998, 0.0273968, 0.0845905, -0.00106531, 0.471268, -0.54271, 0.336243, -2.08334, -2.16621, -0.129373, 0.470233, -0.542313, 0.335014, -2.08318, -2.16731, -0.128983, 0.0118212, 0.0311266, 0.0159772, 0.0319228, 0.00420711, 0.00372221
0.0751426, 1.69254, -1.22695, -1.53856, -0.900485, -1.19281, 1.23032, -1.30267, 0.0423195, 0.000437577, -0.00296741, 0.00294277, -0.031811, 0.0740217, 0.000572105, 4.77637, 62.3431, 30.0593, 4.64111, 1.87244, 3.74057, -0.0621838, 0.00021154, -0.000958073, 0.00132178, -0.000261213, -0.000729553, -0.000611864, 0.0303646, -0.0195436, -0.00784077, 0.0277647, 0.0865798, -0.000689922, 0.47128, -0.542678, 0.33626, -2.08332, -2.16623, -0.129349, 0.470267, -0.542306, 0.335016, -2.08319, -2.16739, -0.128961, 0.012165, 0.0320437, 0.0164457, 0.0324951, 0.00408005, 0.00340105
0.0761426, 1.6926, -1.22695, -1.53857, -0.900482, -1.19285, 1.23039, -1.30267, 0.0456023, 0.000291733, -0.00458053, 0.00281572, -0.034371, 0.070508, -0.000127223, 4.74067, 62.3431, 30.1703, 4.60541, 1.90906, 3.7186, -0.0484509, 0.00018802, -0.000930519, 0.00133122, -0.000306733, -0.000790845, -0.000634283, 0.0303335, -0.0198307, -0.00933543, 0.021133, 0.0876501, 0.000958815, 0.471292, -0.542646, 0.336276, -2.08329, -2.16625, -0.129324, 0.470307, -0.542294, 0.335019, -2.0832, -2.16748, -0.128927, 0.0125127, 0.0329717, 0.0169196, 0.0330742, 0.00528072, 0.00239511
0.0771426, 1.69265, -1.22695, -1.53857, -0.900477, -1.19288, 1.23046, -1.30267, 0.043498, -0.00073352, -0.00481978, 0.00365437, -0.0313124, 0.0713897, -0.00127161, 4.89143, 62.3828, 30.2457, 4.53003, 1.93927, 3.72592, -0.0164075, 0.000156485, -0.000911985, 0.00134301, -0.000353079, -0.000845222, -0.0006445, 0.0321376, -0.018569, -0.0100595, 0.0233537, 0.0850837, -0.000567797, 0.471305, -0.542612, 0.336293, -2.08327, -2.16626, -0.129299, 0.470339, -0.542289, 0.335019, -2.08322, -2.16756, -0.128899, 0.0128642, 0.0339105, 0.0173989, 0.032205, 0.00449776, 0.00191811
0.0781426, 1.69271, -1.22696, -1.53857, -0.900472, -1.19292, 1.23052, -1.30267, 0.0455692, -0.00299466, -0.00321532, 0.00420998, -0.0285826, 0.0721426, -0.00135637, 4.89143, 62.4899, 30.2457, 4.45465, 1.95758, 3.73324, -0.00267457, 0.000130287, -0.000886342, 0.00135692, -0.000399651, -0.000894141, -0.000667761, 0.0317957, -0.0199952, -0.0111291, 0.0260352, 0.0815289, 0.00200565, 0.471318, -0.542578, 0.336311, -2.08324, -2.16628, -0.129273, 0.470378, -0.542278, 0.335018, -2.08322, -2.16765, -0.128878, 0.0132194, 0.0348598, 0.0178835, 0.0339336, 0.00600846, 0.00135602
0.0791426, 1.69276, -1.22696, -1.53857, -0.900464, -1.19296, 1.23059, -1.30267, 0.0472808, -0.00292445, -0.00214515, 0.00541298, -0.03208, 0.0682215, -0.000632977, 5.00251, 62.5296, 30.2457, 4.34357, 2.00061, 3.73324, -0.00999879, 0.000100167, -0.000863997, 0.0013675, -0.000451652, -0.000949047, -0.000681118, 0.0324562, -0.0193792, -0.0113246, 0.0218404, 0.0830637, 0.000461574, 0.471331, -0.542543, 0.336329, -2.08322, -2.1663, -0.129247, 0.470415, -0.54227, 0.335021, -2.08323, -2.16773, -0.128855, 0.0135784, 0.0358197, 0.0183733, 0.0336945, 0.00632114, 0.00156918
0.0801426, 1.69282, -1.22697, -1.53858, -0.900457, -1.193, 1.23065, -1.30266, 0.0533677, -0.00454809, -0.00319454, 0.00537779, -0.0338595, 0.0703103, 0.00174815, 5.04218, 62.6407, 30.3211, 4.26819, 2.02533, 3.7186, -0.0685925, 7.03653e-05, -0.000838666, 0.00138265, -0.00050184, -0.00100057, -0.000693056, 0.0316985, -0.0224416, -0.0131434, 0.0204083, 0.0848585, 0.00224427, 0.471345, -0.542506, 0.336348, -2.08319, -2.16632, -0.12922, 0.470454, -0.542259, 0.335019, -2.08324, -2.16781, -0.128832, 0.013941, 0.03679, 0.0188684, 0.037022, 0.00844624, 0.000292245
0.0811426, 1.69289, -1.22697, -1.53858, -0.900451, -1.19304, 1.23072, -1.30266, 0.0544305, -0.00386727, -0.00296581, 0.00535286, -0.0395209, 0.0670643, 0.00116544, 5.11756, 62.6764, 30.3568, 4.19281, 2.03174, 3.71127, -0.0685925, 4.2056e-05, -0.000813073, 0.0013947, -0.000548704, -0.00105667, -0.000714192, 0.0329204, -0.0214491, -0.0133624, 0.0146177, 0.0892654, 0.00128806, 0.471359, -0.542469, 0.336367, -2.08316, -2.16634, -0.129192, 0.470494, -0.542247, 0.335021, -2.08325, -2.16791, -0.128802, 0.0143072, 0.0377706, 0.0193685, 0.0364337, 0.00821344, 0.000416887
0.0821426, 1.69295, -1.22698, -1.53858, -0.900443, -1.19308, 1.23078, -1.30266, 0.0582573, -0.0034134, -0.00197789, 0.0087643, -0.0394988, 0.0650541, 0.000776957, 5.19294, 62.7121, 30.3568, 4.1214, 2.05005, 3.69021, -0.0685925, 1.32863e-05, -0.00078587, 0.00140792, -0.000597282, -0.001113, -0.0007373, 0.0328105, -0.0222384, -0.0130094, 0.0143929, 0.0891392, 0.00211661, 0.471373, -0.542431, 0.336386, -2.08313, -2.16636, -0.129163, 0.470537, -0.542234, 0.335022, -2.08325, -2.168, -0.128772, 0.014677, 0.0387614, 0.0198738, 0.0376011, 0.0092916, 0.00126358
0.0831426, 1.69302, -1.22697, -1.53859, -0.900442, -1.19312, 1.23084, -1.30267, 0.0572316, -0.00144038, -0.00391755, 0.00613886, -0.0396205, 0.0676171, -0.00192343, 5.30799, 62.6764, 30.4679, 4.1214, 2.06836, 3.69021, -0.00267457, -1.48171e-05, -0.00076041, 0.00142124, -0.000635079, -0.00117133, -0.000766213, 0.034046, -0.0219283, -0.0129853, 0.0135247, 0.0934849, 0.00426712, 0.471388, -0.542392, 0.336407, -2.0831, -2.16638, -0.129134, 0.470577, -0.542219, 0.335024, -2.08324, -2.1681, -0.128729, 0.0150503, 0.0397623, 0.0203841, 0.0377109, 0.00905663, 0.00161557
0.0841426, 1.69308, -1.22698, -1.53859, -0.900439, -1.19317, 1.23091, -1.30267, 0.0571757, -0.00355871, -0.00261208, 0.00524258, -0.039524, 0.0646481, -0.00128229, 5.38337, 62.7875, 30.4679, 4.08173, 2.08667, 3.69021, -0.00267457, -4.34272e-05, -0.000732116, 0.00143537, -0.000682523, -0.00122787, -0.000792984, 0.0344664, -0.0214302, -0.0145166, 0.011113, 0.090513, 0.00421136, 0.471403, -0.542351, 0.336427, -2.08308, -2.1664, -0.129103, 0.470621, -0.542204, 0.335026, -2.08324, -2.1682, -0.128696, 0.0154271, 0.0407732, 0.0208993, 0.03755, 0.00986748, 0.000568707
0.0851426, 1.69315, -1.22698, -1.53859, -0.900437, -1.19321, 1.23097, -1.30267, 0.0600527, -0.00404291, -0.00350491, 0.00449677, -0.0439751, 0.0623894, -0.00085486, 5.45875, 62.8589, 30.5433, 4.04602, 2.10498, 3.69754, -0.00267457, -7.42596e-05, -0.000705555, 0.00145342, -0.000722723, -0.00128207, -0.00081739, 0.0349151, -0.0217426, -0.0159411, 0.00503017, 0.093473, 0.00452426, 0.471419, -0.54231, 0.336448, -2.08304, -2.16642, -0.129072, 0.470664, -0.542189, 0.335023, -2.08323, -2.1683, -0.128658, 0.0158074, 0.041794, 0.0214195, 0.0382068, 0.0106775, -0.000396899
0.0861426, 1.69322, -1.22697, -1.53858, -0.900434, -1.19326, 1.23103, -1.30266, 0.058607, 0.000738404, 0.000261634, 0.00405073, -0.0469474, 0.0659167, -6.12803e-05, 5.56983, 62.7121, 30.4322, 4.00635, 2.10498, 3.69021, -0.0164075, -0.000102548, -0.000679005, 0.00145797, -0.000775555, -0.00134839, -0.000843909, 0.0362269, -0.0215052, -0.0118406, 0.00999124, 0.102871, 0.00257378, 0.471435, -0.542268, 0.33647, -2.08301, -2.16645, -0.129041, 0.470707, -0.542173, 0.335035, -2.08323, -2.16841, -0.12862, 0.016191, 0.0428246, 0.0219445, 0.0385519, 0.00977359, 0.00398113
0.0871426, 1.69329, -1.22697, -1.53859, -0.900436, -1.1933, 1.23109, -1.30266, 0.0646026, -0.000342948, -0.00149617, 0.00279414, -0.0495382, 0.0678524, 0.000433864, 5.64521, 62.7478, 30.5036, 4.00635, 2.1178, 3.69754, -0.0292249, -0.000131427, -0.000650121, 0.00147464, -0.000813048, -0.00140688, -0.000874617, 0.0354594, -0.0245094, -0.0137942, 0.00688521, 0.105992, 0.00655004, 0.471451, -0.542224, 0.336492, -2.08298, -2.16647, -0.129008, 0.470753, -0.542155, 0.335036, -2.08322, -2.16851, -0.128573, 0.016578, 0.0438649, 0.0224743, 0.04184, 0.0119973, 0.00260876
0.0881426, 1.69336, -1.22698, -1.53859, -0.900434, -1.19335, 1.23115, -1.30266, 0.0659881, -3.17758e-05, 0.0030496, 0.00276822, -0.0528047, 0.0648702, -0.000422834, 5.72059, 62.8589, 30.4679, 3.97064, 2.16083, 3.70395, -0.00999879, -0.000161856, -0.000622916, 0.00149164, -0.00085273, -0.00145982, -0.000906739, 0.035298, -0.0247546, -0.0127161, 0.00611095, 0.107971, 0.00901334, 0.471468, -0.54218, 0.336515, -2.08295, -2.16649, -0.128975, 0.470797, -0.542137, 0.335036, -2.0832, -2.16861, -0.128534, 0.0169683, 0.0449148, 0.0230089, 0.0425094, 0.0130516, 0.00422519
0.0891426, 1.69344, -1.22698, -1.53859, -0.900437, -1.1934, 1.2312, -1.30266, 0.0687781, -0.00155148, 0.000537401, 0.00106294, -0.0542342, 0.0631154, 0.000904905, 5.72059, 62.9343, 30.5433, 4.00635, 2.17914, 3.69754, -0.0420422, -0.000191276, -0.000592875, 0.00151126, -0.000887316, -0.00151574, -0.0009355, 0.0354288, -0.0253847, -0.0154222, -8.3038e-05, 0.107884, 0.00940179, 0.471485, -0.542135, 0.336538, -2.08291, -2.16652, -0.128941, 0.470845, -0.542116, 0.335035, -2.08318, -2.16871, -0.128484, 0.0173618, 0.0459742, 0.0235482, 0.0434381, 0.0144244, 0.00205265
0.0901426, 1.69351, -1.22699, -1.53859, -0.900432, -1.19344, 1.23126, -1.30266, 0.0690146, -0.00253005, 0.000558947, 0.00241857, -0.0508642, 0.0614061, -0.000108807, 5.79597, 63.0057, 30.5433, 3.93494, 2.20386, 3.69754, -0.0228162, -0.000225748, -0.000566637, 0.00152851, -0.000933362, -0.00157028, -0.00096494, 0.0360914, -0.0248775, -0.0163525, 9.83588e-05, 0.103921, 0.00972975, 0.471503, -0.542088, 0.336562, -2.08288, -2.16654, -0.128906, 0.470889, -0.5421, 0.335035, -2.08317, -2.16882, -0.128448, 0.0177586, 0.047043, 0.0240921, 0.0433189, 0.0149612, 0.00159063
0.0911426, 1.69359, -1.22698, -1.5386, -0.900437, -1.19349, 1.23132, -1.30266, 0.0710256, 0.00478502, -0.00207532, 0.000806796, -0.052799, 0.0602542, -0.000309897, 5.79597, 62.8589, 30.6544, 3.97064, 2.22217, 3.69754, -0.0164075, -0.000256048, -0.000538595, 0.00154101, -0.000963563, -0.00164223, -0.000996574, 0.035971, -0.0249118, -0.0138074, -0.00501297, 0.113338, 0.010403, 0.471521, -0.542041, 0.336586, -2.08285, -2.16657, -0.128871, 0.470936, -0.542079, 0.335042, -2.08315, -2.16893, -0.128377, 0.0181585, 0.048121, 0.0246406, 0.0438428, 0.0157692, 0.00466979
0.0921426, 1.69367, -1.22698, -1.5386, -0.900432, -1.19354, 1.23138, -1.30266, 0.0711492, 0.0017673, -0.00210588, 0.00232333, -0.0539312, 0.0594188, 0.00148882, 5.83564, 62.9343, 30.6901, 3.89526, 2.23407, 3.69021, -0.0621838, -0.000290377, -0.000510625, 0.00156072, -0.00100339, -0.00169701, -0.00102272, 0.0379362, -0.0239806, -0.0158553, -0.00629531, 0.111463, 0.00616006, 0.471539, -0.541992, 0.336611, -2.08281, -2.16659, -0.128834, 0.470983, -0.54206, 0.335041, -2.08314, -2.16903, -0.128332, 0.0185616, 0.0492083, 0.0251936, 0.043313, 0.0151924, 0.00292473
0.0931426, 1.69375, -1.22699, -1.5386, -0.900438, -1.1936, 1.23143, -1.30266, 0.0796262, -0.00116486, -0.00131926, -0.000197686, -0.0547106, 0.0537765, 0.000483923, 5.79597, 63.0453, 30.6901, 3.97064, 2.24048, 3.69754, -0.0484509, -0.000321218, -0.000479088, 0.00158376, -0.00103362, -0.00175226, -0.00106616, 0.0342445, -0.0279371, -0.0189879, -0.0140763, 0.107567, 0.0170074, 0.471558, -0.541942, 0.336637, -2.08277, -2.16662, -0.128797, 0.471033, -0.542036, 0.335038, -2.0831, -2.16914, -0.128276, 0.0189677, 0.0503046, 0.0257511, 0.0474205, 0.0205804, 0.000838866
0.0941426, 1.69382, -1.22698, -1.53859, -0.900438, -1.19365, 1.23149, -1.30266, 0.0791155, 0.000342991, 1.92087e-05, -0.000119289, -0.0547555, 0.0551291, -0.000152103, 5.91102, 63.0057, 30.6544, 3.97064, 2.23407, 3.68289, -0.0356336, -0.000356831, -0.000453427, 0.00159523, -0.00108057, -0.00181846, -0.00109326, 0.0353829, -0.027644, -0.0178682, -0.0119627, 0.110419, 0.0167622, 0.471577, -0.541891, 0.336663, -2.08274, -2.16665, -0.128759, 0.471079, -0.542018, 0.335046, -2.08309, -2.16925, -0.128226, 0.0193769, 0.05141, 0.0263131, 0.0476204, 0.0203783, 0.00233902
0.0951426, 1.6939, -1.22698, -1.5386, -0.900438, -1.1937, 1.23154, -1.30266, 0.0825578, 0.000372319, -0.00077479, -0.000905368, -0.0549761, 0.0499164, -0.00132211, 5.87135, 63.0057, 30.6901, 4.00635, 2.22858, 3.70395, -0.00267457, -0.000390893, -0.000424808, 0.00161388, -0.00111221, -0.00188064, -0.00113028, 0.0344511, -0.0281907, -0.0192852, -0.0186515, 0.10904, 0.0206461, 0.471597, -0.541839, 0.33669, -2.0827, -2.16667, -0.128721, 0.471127, -0.541995, 0.335048, -2.08306, -2.16937, -0.128163, 0.0197891, 0.0525242, 0.0268794, 0.0484927, 0.0226536, 0.00163331
0.0961426, 1.69398, -1.22698, -1.5386, -0.900442, -1.19376, 1.23159, -1.30266, 0.0841022, -0.00140728, 0.000918934, -0.00152457, -0.0562884, 0.0466853, -0.00111876, 5.87135, 63.0811, 30.7654, 4.04602, 2.25238, 3.71127, 0.00373412, -0.000426774, -0.00039818, 0.001635, -0.0011391, -0.00194123, -0.00116381, 0.034497, -0.0283422, -0.0205875, -0.0217315, 0.107503, 0.0219908, 0.471617, -0.541786, 0.336717, -2.08266, -2.1667, -0.128681, 0.471174, -0.541973, 0.335048, -2.08304, -2.16948, -0.128096, 0.0202043, 0.0536472, 0.02745, 0.0490132, 0.0239382, 0.000905877
0.0971426, 1.69407, -1.22697, -1.5386, -0.900445, -1.19381, 1.23164, -1.30266, 0.0812982, -2.21613e-05, 0.000902992, -0.00184632, -0.0560776, 0.0486552, -0.000508483, 5.76026, 63.0453, 30.7654, 4.08173, 2.25238, 3.72592, -0.00267457, -0.000459133, -0.000367798, 0.00165175, -0.00116781, -0.00200704, -0.00120376, 0.0368718, -0.026748, -0.0199111, -0.0200015, 0.1104, 0.0180033, 0.471637, -0.541732, 0.336744, -2.08262, -2.16673, -0.128641, 0.471226, -0.541947, 0.335054, -2.083, -2.1696, -0.128024, 0.0206224, 0.0547789, 0.0280249, 0.0479518, 0.0225553, 0.00182986
0.0981426, 1.69416, -1.22697, -1.5386, -0.900445, -1.19387, 1.23168, -1.30266, 0.0862251, 0.00386002, 0.00165499, -0.000391708, -0.0604088, 0.049664, 0.000169638, 5.72059, 63.0057, 30.7297, 4.04602, 2.25238, 3.7543, -0.0164075, -0.000495115, -0.000340673, 0.0016678, -0.00119716, -0.00207446, -0.00123629, 0.0367457, -0.0284929, -0.0177385, -0.0206891, 0.119065, 0.0188295, 0.471658, -0.541677, 0.336773, -2.08258, -2.16676, -0.128599, 0.471274, -0.541924, 0.33506, -2.08298, -2.16971, -0.127951, 0.0210433, 0.0559192, 0.028604, 0.0501915, 0.0235605, 0.0045198
0.0991426, 1.69423, -1.22697, -1.5386, -0.900448, -1.19394, 1.23172, -1.30266, 0.0863857, 0.00109607, 0.000431441, -0.00426135, -0.0596722, 0.0463521, 0.00058781, 5.72059, 63.0811, 30.7654, 4.08173, 2.25879, 3.76895, -0.0292249, -0.000535509, -0.000317764, 0.00168925, -0.00122073, -0.0021366, -0.00126309, 0.0367549, -0.0283069, -0.0210503, -0.026856, 0.115279, 0.0207232, 0.471679, -0.54162, 0.336802, -2.08254, -2.16679, -0.128557, 0.471319, -0.541903, 0.33506, -2.08295, -2.16981, -0.127875, 0.0214671, 0.057068, 0.0291872, 0.0503079, 0.0252014, 0.0018368
0.100143, 1.69432, -1.22696, -1.53859, -0.900451, -1.19399, 1.23177, -1.30266, 0.085213, 0.00394795, 0.000410127, -0.00310267, -0.0588652, 0.0495804, -0.000320204, 5.64521, 63.0811, 30.7654, 4.08173, 2.25879, 3.7543, -0.00999879, -0.000571464, -0.000288699, 0.00170502, -0.00125509, -0.00220393, -0.0013039, 0.0387454, -0.0275564, -0.019291, -0.0231946, 0.119706, 0.0187211, 0.471701, -0.541563, 0.336831, -2.08249, -2.16682, -0.128514, 0.471371, -0.541877, 0.335068, -2.08292, -2.16994, -0.127806, 0.0218936, 0.0582252, 0.0297746, 0.0501239, 0.0240926, 0.00387622
0.101143, 1.6944, -1.22695, -1.5386, -0.900462, -1.19405, 1.23181, -1.30266, 0.0874828, 0.00220783, -0.00139795, -0.00802373, -0.0537341, 0.0458011, -0.000213469, 5.56983, 63.1168, 30.8408, 4.19281, 2.2652, 3.77627, -0.00999879, -0.000609847, -0.000265394, 0.00172677, -0.00126682, -0.00226817, -0.00133888, 0.0366262, -0.0290688, -0.022513, -0.0289752, 0.113312, 0.0250864, 0.471723, -0.541504, 0.336861, -2.08245, -2.16685, -0.128471, 0.471417, -0.541852, 0.33507, -2.08288, -2.17005, -0.127713, 0.0223229, 0.0593907, 0.030366, 0.0518668, 0.0279091, 0.00156707
0.102143, 1.69449, -1.22694, -1.53859, -0.900468, -1.19411, 1.23185, -1.30266, 0.0848818, 0.0100686, 0.0017354, -0.00752301, -0.0585207, 0.0438289, -0.00112566, 5.53413, 63.0057, 30.7297, 4.26819, 2.25238, 3.77627, 0.0165515, -0.000645447, -0.000239236, 0.00173677, -0.00129886, -0.00233952, -0.00138218, 0.0385139, -0.0265389, -0.0171682, -0.0293524, 0.124564, 0.0217985, 0.471746, -0.541444, 0.336892, -2.08241, -2.16688, -0.128426, 0.471466, -0.541825, 0.335084, -2.08284, -2.17018, -0.127637, 0.022755, 0.0605644, 0.0309614, 0.0500406, 0.0262932, 0.00722604
0.103143, 1.69457, -1.22693, -1.5386, -0.900475, -1.19417, 1.23189, -1.30266, 0.0880147, 0.00582246, -0.00315308, -0.00967466, -0.0623303, 0.0436503, -0.000987797, 5.41908, 63.1921, 30.9162, 4.30786, 2.24048, 3.74057, 0.0229602, -0.000686523, -0.000213359, 0.00176417, -0.00131324, -0.00240004, -0.00141805, 0.0398728, -0.027071, -0.0223036, -0.0378966, 0.124779, 0.0221332, 0.471769, -0.541383, 0.336923, -2.08236, -2.16691, -0.128381, 0.471515, -0.541799, 0.335081, -2.0828, -2.17029, -0.127549, 0.0231896, 0.0617462, 0.0315607, 0.0508669, 0.0269444, 0.0025274
0.104143, 1.69466, -1.22691, -1.53859, -0.900486, -1.19423, 1.23192, -1.30266, 0.0879715, 0.00807489, 0.000535161, -0.0118644, -0.0615507, 0.0420618, 0.000290905, 5.26832, 63.0453, 30.8051, 4.37927, 2.25879, 3.74057, -0.00267457, -0.000721601, -0.000186419, 0.00177223, -0.00134045, -0.00247905, -0.00146021, 0.0391877, -0.0274682, -0.0205394, -0.0370065, 0.126355, 0.023747, 0.471792, -0.54132, 0.336955, -2.08231, -2.16694, -0.128334, 0.471567, -0.541769, 0.335099, -2.08276, -2.17042, -0.127457, 0.0236269, 0.0629361, 0.0321639, 0.0517417, 0.0285574, 0.00496624
0.105143, 1.69475, -1.22691, -1.53859, -0.900495, -1.19429, 1.23196, -1.30266, 0.0876406, 0.00458374, -0.000449374, -0.010329, -0.0592963, 0.0361606, 0.000939922, 5.11756, 63.2278, 30.8408, 4.45465, 2.23407, 3.74057, -0.0228162, -0.000761656, -0.000161253, 0.00179667, -0.00135845, -0.00253486, -0.00149791, 0.0405245, -0.0255327, -0.0236667, -0.0419508, 0.118847, 0.0207834, 0.471816, -0.541257, 0.336987, -2.08227, -2.16698, -0.128287, 0.471616, -0.54174, 0.3351, -2.08271, -2.17053, -0.127378, 0.0240668, 0.0641338, 0.032771, 0.0501826, 0.028834, 0.00233818
0.106143, 1.69483, -1.22689, -1.53859, -0.900498, -1.19435, 1.23199, -1.30266, 0.0866426, 0.00941261, -0.00287624, -0.00654291, -0.058756, 0.0367637, 0.000863973, 5.00251, 63.2278, 30.9519, 4.41894, 2.23407, 3.73324, -0.0292249, -0.000805993, -0.000141811, 0.00181392, -0.00137647, -0.00260228, -0.00152474, 0.0433663, -0.0233062, -0.0214929, -0.0414309, 0.12413, 0.014505, 0.47184, -0.541192, 0.337021, -2.08222, -2.16701, -0.128239, 0.471661, -0.541716, 0.335109, -2.08268, -2.17064, -0.127284, 0.0245092, 0.0653394, 0.0333819, 0.0485881, 0.0268071, 0.00472485
0.107143, 1.69491, -1.22688, -1.53857, -0.900512, -1.19441, 1.23202, -1.30266, 0.086632, 0.0122086, 0.00385409, -0.0073295, -0.0587501, 0.037218, -0.000136095, 4.85175, 63.2635, 30.8408, 4.53003, 2.24689, 3.72592, -0.00999879, -0.000844983, -0.000117103, 0.00182889, -0.00140088, -0.00266965, -0.00156853, 0.042788, -0.0242094, -0.017963, -0.0357669, 0.127583, 0.0183745, 0.471865, -0.541126, 0.337054, -2.08217, -2.16705, -0.12819, 0.471711, -0.541685, 0.335121, -2.08263, -2.17077, -0.127198, 0.0249541, 0.0665526, 0.0339965, 0.0500459, 0.0280888, 0.0088865
0.108143, 1.695, -1.22686, -1.53857, -0.900523, -1.19447, 1.23204, -1.30266, 0.0833463, 0.0151135, 0.00108149, -0.00599838, -0.0526337, 0.0370991, -0.00178615, 4.701, 63.2635, 30.9162, 4.56573, 2.22217, 3.73324, 0.0357776, -0.0008882, -9.77458e-05, 0.00184602, -0.00141395, -0.00273662, -0.00160673, 0.0450092, -0.0217118, -0.0173357, -0.0345642, 0.126199, 0.0152777, 0.47189, -0.541059, 0.337088, -2.08212, -2.16708, -0.12814, 0.471757, -0.541657, 0.335131, -2.08258, -2.17089, -0.127099, 0.0254015, 0.0677736, 0.0346148, 0.0481057, 0.0269154, 0.00985821
0.109143, 1.69507, -1.22685, -1.53856, -0.900538, -1.19453, 1.23207, -1.30266, 0.0801414, 0.0126041, 0.00397452, -0.0123032, -0.0550961, 0.0325027, -0.00146203, 4.58991, 63.3389, 30.9162, 4.64111, 2.25879, 3.73324, 0.0431018, -0.000932816, -7.91828e-05, 0.00186392, -0.00143056, -0.00280154, -0.0016427, 0.0454955, -0.0202765, -0.0193383, -0.0403737, 0.124547, 0.0169186, 0.471916, -0.54099, 0.337123, -2.08207, -2.16712, -0.128089, 0.471802, -0.541629, 0.335141, -2.08254, -2.17101, -0.127005, 0.0258513, 0.069002, 0.0352367, 0.0470666, 0.0279105, 0.00847206
0.110143, 1.69515, -1.22683, -1.53855, -0.900555, -1.19459, 1.2321, -1.30266, 0.0807546, 0.0145362, 0.0101589, -0.0138428, -0.0555445, 0.0298564, 8.6545e-06, 4.47486, 63.3746, 30.8765, 4.71649, 2.2652, 3.71127, 0.0165515, -0.00097573, -5.88452e-05, 0.0018794, -0.00145517, -0.00286395, -0.00168385, 0.0444033, -0.0209914, -0.0169294, -0.0386238, 0.126114, 0.0191755, 0.471942, -0.540921, 0.337159, -2.08202, -2.16715, -0.128038, 0.471849, -0.541599, 0.335154, -2.08249, -2.17113, -0.126921, 0.0263034, 0.0702379, 0.0358623, 0.0482831, 0.0298863, 0.0116231
0.111143, 1.69523, -1.22682, -1.53855, -0.900572, -1.19464, 1.23211, -1.30266, 0.0822492, 0.0131811, 0.0040671, -0.0117706, -0.0554246, 0.031732, 0.000480488, 4.3241, 63.4103, 31.0273, 4.79187, 2.25879, 3.71127, 0.00373412, -0.0010214, -4.25541e-05, 0.00190083, -0.00146068, -0.00292302, -0.00171534, 0.0472262, -0.0201907, -0.0199621, -0.0421285, 0.126699, 0.014498, 0.471968, -0.54085, 0.337195, -2.08197, -2.16719, -0.127985, 0.471893, -0.541569, 0.335161, -2.08243, -2.17124, -0.126818, 0.0267579, 0.0714811, 0.0364913, 0.0479307, 0.028774, 0.00884576
0.112143, 1.69531, -1.2268, -1.53854, -0.90059, -1.1947, 1.23213, -1.30266, 0.0824102, 0.0170639, 0.0024919, -0.0133512, -0.061603, 0.0289709, 0.000557684, 4.21302, 63.4857, 31.063, 4.86725, 2.28992, 3.69754, -0.00267457, -0.00106903, -2.69558e-05, 0.00191906, -0.00147612, -0.00298571, -0.00174835, 0.0488963, -0.0185945, -0.0191568, -0.0497256, 0.135364, 0.012063, 0.471995, -0.540778, 0.337232, -2.08192, -2.16723, -0.127932, 0.471936, -0.54154, 0.335172, -2.08239, -2.17135, -0.126722, 0.0272147, 0.0727316, 0.0371239, 0.046887, 0.0281848, 0.0100652
0.113143, 1.6954, -1.22678, -1.53854, -0.90061, -1.19476, 1.23215, -1.30266, 0.0861394, 0.0188557, 0.0036093, -0.0147693, -0.0596457, 0.0266328, 0.00013443, 3.94721, 63.4857, 31.1384, 4.94263, 2.2771, 3.69021, 0.00373412, -0.00110976, -4.3994e-06, 0.0019375, -0.00148841, -0.00304437, -0.00179871, 0.0470987, -0.0204621, -0.0187567, -0.0514631, 0.135405, 0.0175458, 0.472023, -0.540705, 0.337269, -2.08186, -2.16726, -0.127878, 0.471987, -0.541503, 0.335185, -2.08232, -2.17148, -0.126627, 0.0276737, 0.0739892, 0.0377598, 0.0491601, 0.0312358, 0.011316
0.114143, 1.69547, -1.22675, -1.53853, -0.900629, -1.19481, 1.23216, -1.30266, 0.0809791, 0.0237522, 0.00523634, -0.0146002, -0.0545569, 0.0251417, -0.000859816, 3.87183, 63.45, 31.1741, 4.97833, 2.28992, 3.67557, 0.0293689, -0.00115952, 6.82514e-06, 0.00195078, -0.00150273, -0.00311071, -0.0018316, 0.0488126, -0.0175244, -0.0155957, -0.0481887, 0.135951, 0.014658, 0.472051, -0.54063, 0.337307, -2.08181, -2.1673, -0.127822, 0.472028, -0.541475, 0.335202, -2.08227, -2.1716, -0.126524, 0.028135, 0.0752539, 0.0383992, 0.0468714, 0.0301994, 0.0149038
0.115143, 1.69555, -1.22673, -1.53852, -0.900652, -1.19487, 1.23218, -1.30266, 0.0808796, 0.0248818, 0.00644522, -0.0154613, -0.0556898, 0.0193053, -0.000810569, 3.6457, 63.5214, 31.2137, 5.05371, 2.31372, 3.66092, 0.0357776, -0.00120443, 2.57507e-05, 0.0019693, -0.00151498, -0.00317132, -0.0018782, 0.0491962, -0.0161566, -0.0155896, -0.0535354, 0.135976, 0.0144095, 0.472079, -0.540554, 0.337346, -2.08175, -2.16734, -0.127766, 0.472076, -0.54144, 0.335215, -2.0822, -2.17173, -0.126424, 0.0285984, 0.0765256, 0.0390419, 0.0459849, 0.0310335, 0.0155362
0.116143, 1.69563, -1.2267, -1.5385, -0.900673, -1.19492, 1.23219, -1.30266, 0.0796264, 0.0277231, 0.00906971, -0.0147124, -0.0602292, 0.0143714, -0.000303021, 3.45527, 63.4857, 31.1741, 5.05371, 2.32013, 3.66092, 0.0293689, -0.00124974, 4.19526e-05, 0.00197953, -0.00153477, -0.00323641, -0.00192403, 0.050892, -0.0137781, -0.0137119, -0.0573604, 0.140678, 0.0106597, 0.472108, -0.540477, 0.337386, -2.0817, -2.16738, -0.127709, 0.472122, -0.541406, 0.335236, -2.08214, -2.17186, -0.126328, 0.0290639, 0.0778042, 0.0396878, 0.0442107, 0.0302491, 0.0178491
0.117143, 1.6957, -1.22668, -1.53849, -0.900702, -1.19497, 1.2322, -1.30266, 0.0793525, 0.0276648, 0.00914362, -0.0219816, -0.0594874, 0.0159236, 0.000272704, 3.37989, 63.5611, 31.2137, 5.12909, 2.32654, 3.64718, 0.0165515, -0.00129695, 5.68248e-05, 0.00199687, -0.00154937, -0.00329275, -0.0019651, 0.0502022, -0.0151252, -0.0150369, -0.0595121, 0.142272, 0.0154293, 0.472137, -0.540398, 0.337426, -2.08164, -2.16742, -0.127651, 0.472167, -0.541371, 0.335251, -2.08207, -2.17198, -0.126233, 0.0295316, 0.0790895, 0.040337, 0.0459496, 0.0324764, 0.0172545
0.118143, 1.69578, -1.22665, -1.53849, -0.900737, -1.19503, 1.23221, -1.30266, 0.0768303, 0.0315234, 0.00482026, -0.0249146, -0.0602776, 0.0118525, 0.000656521, 3.26881, 63.5968, 31.4359, 5.24017, 2.36957, 3.64718, 0.00373412, -0.0013466, 6.90623e-05, 0.00201744, -0.00154253, -0.00336045, -0.00200416, 0.0520825, -0.0121949, -0.0154027, -0.0683893, 0.146094, 0.0116715, 0.472167, -0.540319, 0.337466, -2.08158, -2.16746, -0.127592, 0.47221, -0.541336, 0.335264, -2.08201, -2.1721, -0.126102, 0.0300013, 0.0803815, 0.0409894, 0.0435514, 0.0318429, 0.0173474
0.119143, 1.69585, -1.22663, -1.53847, -0.90076, -1.19508, 1.23221, -1.30266, 0.0784254, 0.0279614, 0.0112, -0.022819, -0.059646, 0.00910053, 0.000200321, 3.15376, 63.6682, 31.4002, 5.16479, 2.38147, 3.63986, 0.0101428, -0.00139389, 8.40766e-05, 0.0020307, -0.00156414, -0.00341462, -0.0020502, 0.051952, -0.0128636, -0.0157348, -0.0649737, 0.140986, 0.0141429, 0.472197, -0.540238, 0.337508, -2.08152, -2.1675, -0.127533, 0.472257, -0.541299, 0.335284, -2.08194, -2.17223, -0.126016, 0.030473, 0.0816802, 0.0416449, 0.0446751, 0.0333502, 0.0176746
0.120143, 1.69593, -1.2266, -1.53845, -0.900795, -1.19513, 1.23222, -1.30266, 0.0775566, 0.0262835, 0.0110007, -0.0303999, -0.0545487, 0.00676271, -0.00179923, 3.11805, 63.819, 31.4359, 5.2005, 2.39978, 3.63986, 0.0623279, -0.00144123, 9.86693e-05, 0.00204826, -0.00157559, -0.00346905, -0.00210645, 0.0503997, -0.0136992, -0.0184756, -0.0689265, 0.135517, 0.0225064, 0.472228, -0.540155, 0.33755, -2.08146, -2.16755, -0.127472, 0.472303, -0.54126, 0.335301, -2.08185, -2.17237, -0.125919, 0.0309467, 0.0829853, 0.0423035, 0.0458232, 0.0366437, 0.0158406
0.121143, 1.69601, -1.22657, -1.53844, -0.900827, -1.19518, 1.23222, -1.30266, 0.0781344, 0.0262995, 0.0111764, -0.0322534, -0.0513734, 0.00557278, -0.00119949, 3.04267, 63.9261, 31.5867, 5.16479, 2.43091, 3.62521, 0.0623279, -0.00149085, 0.000112161, 0.00206742, -0.00157989, -0.00352666, -0.00215256, 0.0501752, -0.0140917, -0.0192685, -0.0698108, 0.133394, 0.0241845, 0.472259, -0.540072, 0.337592, -2.0814, -2.16759, -0.12741, 0.472349, -0.541222, 0.335317, -2.08177, -2.17249, -0.125808, 0.0314223, 0.0842969, 0.0429652, 0.0466539, 0.0383154, 0.0157419
0.122143, 1.69609, -1.22653, -1.53843, -0.900867, -1.19524, 1.23222, -1.30266, 0.0796015, 0.0296681, 0.00845441, -0.0344473, -0.0488111, 0.00461514, -0.000799659, 2.92762, 63.8904, 31.7335, 5.2005, 2.46112, 3.61148, 0.0623279, -0.0015357, 0.000129375, 0.00208014, -0.00158095, -0.00359809, -0.00220983, 0.0498923, -0.0144588, -0.0191936, -0.073329, 0.135482, 0.0255836, 0.472291, -0.539987, 0.337635, -2.08134, -2.16763, -0.127348, 0.472399, -0.541179, 0.33534, -2.08169, -2.17264, -0.12568, 0.0318998, 0.0856148, 0.0436298, 0.0474916, 0.0399172, 0.0165129
0.123143, 1.69616, -1.2265, -1.53841, -0.900909, -1.19528, 1.23223, -1.30266, 0.0731127, 0.0270044, 0.0130836, -0.0383084, -0.0467082, 0.00364152, -0.000533106, 3.003, 64.0768, 31.7335, 5.2005, 2.48584, 3.60415, 0.0623279, -0.00158517, 0.00014289, 0.00209804, -0.00159647, -0.00364995, -0.00226381, 0.0517932, -0.0120829, -0.0198767, -0.0707281, 0.13135, 0.0241899, 0.472323, -0.5399, 0.337679, -2.08127, -2.16768, -0.127284, 0.472446, -0.541138, 0.335358, -2.0816, -2.17278, -0.125587, 0.0323792, 0.0869389, 0.0442973, 0.0456458, 0.0393671, 0.0162877
0.124143, 1.69624, -1.22646, -1.53841, -0.90095, -1.19533, 1.23223, -1.30266, 0.076572, 0.0303861, 0.00811326, -0.0423967, -0.049548, 0.00369896, 0.00205209, 3.003, 64.0372, 31.9556, 5.12909, 2.50415, 3.57577, -0.00267457, -0.00163449, 0.000156837, 0.00211228, -0.00159961, -0.00371894, -0.00230858, 0.0517141, -0.013172, -0.0208699, -0.0790409, 0.138764, 0.0241455, 0.472355, -0.539813, 0.337724, -2.08121, -2.16772, -0.127219, 0.472494, -0.541097, 0.335381, -2.08152, -2.17291, -0.125461, 0.0328604, 0.0882692, 0.0449678, 0.0471755, 0.0409746, 0.0159555
0.125143, 1.69632, -1.22642, -1.5384, -0.900994, -1.19537, 1.23223, -1.30266, 0.0792102, 0.0336668, 0.00725125, -0.0467229, -0.0478117, 0.00290233, 0.000893345, 3.003, 64.0768, 32.0707, 5.08942, 2.54169, 3.56845, 0.0101428, -0.00168053, 0.000174826, 0.00212968, -0.00160438, -0.00377812, -0.00237326, 0.0500934, -0.0149292, -0.0205337, -0.0823776, 0.141635, 0.0307338, 0.472389, -0.539724, 0.337769, -2.08114, -2.16777, -0.127154, 0.472546, -0.54105, 0.335401, -2.08142, -2.17306, -0.125347, 0.0333434, 0.0896055, 0.045641, 0.0493662, 0.0439357, 0.0171559
0.126143, 1.69641, -1.22639, -1.53837, -0.901039, -1.19541, 1.23224, -1.30266, 0.0804339, 0.0332939, 0.0100807, -0.0472421, -0.0455402, 0.00260124, 0.000595563, 3.04267, 64.1125, 32.031, 5.01404, 2.55359, 3.5538, 0.0101428, -0.00172526, 0.000194108, 0.00214256, -0.00162196, -0.00383502, -0.00244131, 0.0497622, -0.0159068, -0.0203928, -0.0800967, 0.14005, 0.033736, 0.472422, -0.539634, 0.337815, -2.08108, -2.16781, -0.127088, 0.4726, -0.541001, 0.335427, -2.08132, -2.17322, -0.12525, 0.0338281, 0.0909478, 0.0463171, 0.0508215, 0.0456261, 0.0179915
0.127143, 1.69649, -1.22635, -1.53836, -0.901086, -1.19546, 1.23223, -1.30266, 0.0805851, 0.0358679, 0.00923046, -0.0488621, -0.045038, 0.00209829, -0.00129838, 3.11805, 64.1483, 32.1064, 4.90295, 2.59662, 3.54648, 0.0559192, -0.00177465, 0.000208686, 0.00215945, -0.00162778, -0.00389378, -0.00250705, 0.0504078, -0.0155914, -0.0199419, -0.0821463, 0.143064, 0.0358296, 0.472456, -0.539542, 0.337862, -2.08101, -2.16786, -0.12702, 0.47265, -0.540955, 0.335449, -2.08122, -2.17337, -0.125136, 0.0343145, 0.092296, 0.0469959, 0.0510361, 0.0462546, 0.0190263
0.128143, 1.69657, -1.22631, -1.53834, -0.90114, -1.1955, 1.23223, -1.30266, 0.0823835, 0.0376775, 0.0117364, -0.0517061, -0.0434989, 0.00146851, -0.000865586, 3.11805, 64.184, 32.1818, 4.86725, 2.61493, 3.54648, 0.0559192, -0.00181963, 0.000228634, 0.00217763, -0.00163231, -0.00395122, -0.00258081, 0.0491125, -0.0171653, -0.0190167, -0.0817785, 0.144343, 0.0402601, 0.472491, -0.539449, 0.337909, -2.08094, -2.16791, -0.126952, 0.472705, -0.540903, 0.335471, -2.08111, -2.17353, -0.125022, 0.0348026, 0.09365, 0.0476774, 0.0530834, 0.0488146, 0.0207716
0.129143, 1.69665, -1.22628, -1.53832, -0.901199, -1.19554, 1.23223, -1.30266, 0.0830689, 0.0326657, 0.0164937, -0.0542594, -0.0377456, -0.00843827, 0.000168928, 3.15376, 64.3704, 32.1421, 4.79187, 2.63324, 3.5538, 0.0357776, -0.00186427, 0.000248923, 0.002199, -0.00163923, -0.0039982, -0.00265754, 0.0467874, -0.0173468, -0.0220326, -0.0858229, 0.130589, 0.0453258, 0.472526, -0.539355, 0.337957, -2.08087, -2.16796, -0.126882, 0.472761, -0.540848, 0.33549, -2.08098, -2.17369, -0.124921, 0.0352924, 0.0950097, 0.0483616, 0.0535527, 0.0529394, 0.0188309
0.130143, 1.69674, -1.22623, -1.53831, -0.901258, -1.19558, 1.23223, -1.30266, 0.0858723, 0.0361971, 0.0113609, -0.0558106, -0.0386303, -0.00608159, 0.000349978, 3.22913, 64.2593, 32.3285, 4.75616, 2.66437, 3.54648, 0.0293689, -0.00191235, 0.000266969, 0.0022157, -0.00164114, -0.00406538, -0.00272797, 0.0476607, -0.0180961, -0.0224197, -0.0900689, 0.137472, 0.0453656, 0.472561, -0.539259, 0.338006, -2.0808, -2.168, -0.126812, 0.472816, -0.540797, 0.335514, -2.08087, -2.17385, -0.124792, 0.0357837, 0.096375, 0.0490484, 0.054812, 0.0535348, 0.0189769
0.131143, 1.69682, -1.2262, -1.5383, -0.901318, -1.19562, 1.23223, -1.30266, 0.0838752, 0.0370358, 0.0142278, -0.0575938, -0.0397028, -0.0045999, 0.000708036, 3.34419, 64.3347, 32.3682, 4.68079, 2.7074, 3.54648, 0.0165515, -0.00196038, 0.000286286, 0.00223472, -0.00164986, -0.00412322, -0.00280278, 0.0491434, -0.0174743, -0.021411, -0.0877681, 0.140743, 0.0445029, 0.472597, -0.539162, 0.338055, -2.08073, -2.16805, -0.126741, 0.472873, -0.540743, 0.335537, -2.08076, -2.17402, -0.124679, 0.0362765, 0.0977458, 0.0497377, 0.0547804, 0.0532609, 0.0204535
0.132143, 1.6969, -1.22616, -1.53828, -0.901382, -1.19566, 1.23223, -1.30266, 0.0817562, 0.0378457, 0.0165773, -0.0583066, -0.039983, -0.00347573, -0.00051132, 3.49494, 64.4061, 32.4039, 4.64111, 2.73761, 3.54648, 0.0431018, -0.00200926, 0.000304307, 0.00225345, -0.00166052, -0.00417886, -0.00288254, 0.0509217, -0.0164764, -0.0204828, -0.0853459, 0.143098, 0.044172, 0.472634, -0.539064, 0.338106, -2.08066, -2.1681, -0.126669, 0.472928, -0.54069, 0.335561, -2.08063, -2.17419, -0.124571, 0.0367709, 0.0991221, 0.0504295, 0.0543833, 0.0526966, 0.0218197
0.133143, 1.69698, -1.22611, -1.53827, -0.901445, -1.19569, 1.23223, -1.30267, 0.080953, 0.0372663, 0.012405, -0.0610964, -0.038987, -0.00235274, -0.000815598, 3.60603, 64.4061, 32.5547, 4.56573, 2.73761, 3.53915, 0.0559192, -0.00205991, 0.000320147, 0.00227332, -0.00166331, -0.00423551, -0.00296015, 0.0527402, -0.015707, -0.0230476, -0.0893408, 0.143679, 0.04337, 0.472671, -0.538964, 0.338156, -2.08059, -2.16815, -0.126595, 0.472982, -0.540636, 0.335583, -2.08051, -2.17436, -0.124451, 0.0372668, 0.100504, 0.0511238, 0.0540838, 0.0526417, 0.0197255
0.134143, 1.69707, -1.22607, -1.53824, -0.901512, -1.19573, 1.23223, -1.30266, 0.0810754, 0.0369194, 0.0177902, -0.0643223, -0.0401638, -0.00206989, -0.000781091, 3.6814, 64.5172, 32.4793, 4.45465, 2.78705, 3.54648, 0.0623279, -0.00210664, 0.000342984, 0.00229159, -0.00168178, -0.00428957, -0.00304687, 0.0523461, -0.0168213, -0.0222618, -0.0870371, 0.145301, 0.047371, 0.472708, -0.538862, 0.338208, -2.08052, -2.16821, -0.126521, 0.473044, -0.540577, 0.335609, -2.08038, -2.17454, -0.124352, 0.0377641, 0.101891, 0.0518204, 0.0557105, 0.0543466, 0.0212236
0.135143, 1.69715, -1.22603, -1.53821, -0.901585, -1.19577, 1.23223, -1.30267, 0.0792821, 0.039462, 0.017637, -0.0675421, -0.0402467, -0.00128126, -0.000995445, 3.72108, 64.5172, 32.4396, 4.45465, 2.81177, 3.53915, 0.0751453, -0.00215369, 0.00036361, 0.00230851, -0.00169632, -0.00434577, -0.00313685, 0.0535333, -0.0160494, -0.0216036, -0.088096, 0.149461, 0.0473802, 0.472746, -0.53876, 0.33826, -2.08044, -2.16826, -0.126446, 0.473103, -0.540518, 0.335636, -2.08025, -2.17472, -0.124245, 0.0382628, 0.103283, 0.0525195, 0.055511, 0.0544327, 0.0224146
0.136143, 1.69723, -1.22599, -1.5382, -0.901661, -1.1958, 1.23223, -1.30266, 0.0800187, 0.0443158, 0.0190566, -0.068772, -0.039588, -0.000203734, 0.00126915, 3.79646, 64.5172, 32.5904, 4.41894, 2.81726, 3.5181, 0.0229602, -0.00220505, 0.00038236, 0.0023288, -0.00170451, -0.00440776, -0.00321354, 0.053525, -0.0166156, -0.0188592, -0.0864254, 0.155256, 0.0466215, 0.472785, -0.538656, 0.338313, -2.08036, -2.16831, -0.12637, 0.473162, -0.54046, 0.335661, -2.08012, -2.1749, -0.124123, 0.0387628, 0.10468, 0.0532208, 0.0566835, 0.0554441, 0.0258096
0.137143, 1.6973, -1.22594, -1.53817, -0.901733, -1.19583, 1.23223, -1.30266, 0.0798671, 0.0420932, 0.0208256, -0.0688966, -0.0346554, -0.000775446, 0.00108346, 3.90754, 64.5172, 32.5904, 4.34357, 2.83008, 3.53274, 0.0165515, -0.00225607, 0.000398642, 0.00234467, -0.00172146, -0.0044605, -0.00329532, 0.0538258, -0.0168098, -0.0201034, -0.0838482, 0.149539, 0.0481846, 0.472824, -0.538551, 0.338366, -2.08029, -2.16836, -0.126293, 0.473218, -0.540402, 0.33569, -2.08, -2.17507, -0.12402, 0.0392642, 0.106082, 0.0539245, 0.0573445, 0.0567484, 0.0252323
0.138143, 1.69737, -1.22589, -1.53814, -0.901817, -1.19586, 1.23223, -1.30266, 0.0796284, 0.0433303, 0.0221539, -0.0725946, -0.0355202, -0.000589781, 0.00119702, 4.02259, 64.5172, 32.5904, 4.41894, 2.83649, 3.53274, 0.00373412, -0.00230715, 0.000415341, 0.00236233, -0.0017388, -0.00451386, -0.00338276, 0.0540986, -0.0170965, -0.019891, -0.0850745, 0.152744, 0.0502832, 0.472864, -0.538444, 0.338421, -2.08021, -2.16842, -0.126215, 0.473276, -0.540343, 0.335719, -2.07986, -2.17526, -0.123916, 0.0397669, 0.107489, 0.0546303, 0.0581542, 0.0578669, 0.026097
0.139143, 1.69746, -1.22585, -1.53812, -0.901893, -1.19589, 1.23223, -1.30266, 0.0768232, 0.0432139, 0.0214426, -0.0734897, -0.0314089, -0.000447799, 0.000798016, 3.98292, 64.5529, 32.6658, 4.34357, 2.84198, 3.53274, 0.00373412, -0.00235882, 0.000435198, 0.00238327, -0.0017536, -0.00456697, -0.00347228, 0.0559196, -0.0155365, -0.0206882, -0.0842142, 0.150305, 0.0486088, 0.472904, -0.538336, 0.338476, -2.08013, -2.16847, -0.126136, 0.473337, -0.540281, 0.335744, -2.07972, -2.17544, -0.123809, 0.0402709, 0.108901, 0.0553384, 0.0571419, 0.0575344, 0.0257878
0.140143, 1.69753, -1.2258, -1.53809, -0.901984, -1.19592, 1.23223, -1.30266, 0.0734958, 0.0452774, 0.0185342, -0.0767341, -0.0282474, -0.000848119, -0.00163813, 3.98292, 64.5172, 32.7015, 4.45465, 2.84198, 3.54648, 0.0623279, -0.00240907, 0.000453729, 0.00240173, -0.00177026, -0.00461976, -0.00357514, 0.0576644, -0.0135745, -0.0213332, -0.0870451, 0.15089, 0.0491017, 0.472944, -0.538226, 0.338531, -2.08005, -2.16853, -0.126055, 0.473397, -0.540218, 0.335774, -2.07957, -2.17565, -0.123704, 0.040776, 0.110318, 0.0560486, 0.0557326, 0.0572408, 0.0256559
0.141143, 1.6976, -1.22576, -1.53806, -0.902069, -1.19595, 1.23222, -1.30266, 0.0738527, 0.0428211, 0.0172708, -0.0792732, -0.0260024, -0.000596132, -0.00132944, 3.98292, 64.6283, 32.7015, 4.45465, 2.84839, 3.54648, 0.0687366, -0.00246271, 0.000470762, 0.00242376, -0.00178994, -0.00466438, -0.00366786, 0.0583118, -0.0139104, -0.0240848, -0.0888964, 0.147989, 0.050435, 0.472985, -0.538115, 0.338588, -2.07997, -2.16858, -0.125974, 0.473457, -0.540156, 0.3358, -2.07942, -2.17583, -0.123609, 0.0412824, 0.111739, 0.0567608, 0.0564951, 0.058458, 0.0235409
0.142143, 1.69767, -1.22572, -1.53803, -0.902159, -1.19598, 1.23222, -1.30266, 0.0761458, 0.0409975, 0.0225862, -0.0848837, -0.0290483, -0.000420461, 0.00175856, 3.90754, 64.6283, 32.7015, 4.49432, 2.8548, 3.54648, -0.00267457, -0.00251543, 0.000488494, 0.00244171, -0.00181201, -0.00471648, -0.00375607, 0.0567902, -0.0165455, -0.0246542, -0.0891977, 0.149927, 0.0549643, 0.473027, -0.538002, 0.338645, -2.07989, -2.16864, -0.125892, 0.473517, -0.540092, 0.33583, -2.07928, -2.17602, -0.123508, 0.0417899, 0.113165, 0.0574751, 0.0595548, 0.0615899, 0.0238426
0.143143, 1.69774, -1.22566, -1.538, -0.902251, -1.196, 1.23222, -1.30266, 0.0727608, 0.0477778, 0.0255578, -0.090277, -0.0314034, -2.63195e-05, -0.000760406, 3.90754, 64.5172, 32.7372, 4.56573, 2.86029, 3.53915, 0.0495105, -0.00257029, 0.000503493, 0.00245531, -0.00183872, -0.00477361, -0.00385414, 0.0574351, -0.0154892, -0.0206611, -0.0893634, 0.159942, 0.0582476, 0.473069, -0.537889, 0.338703, -2.07981, -2.1687, -0.125809, 0.473576, -0.540029, 0.335866, -2.07914, -2.17623, -0.123407, 0.0422985, 0.114595, 0.0581914, 0.0591909, 0.061728, 0.0284375
0.144143, 1.69781, -1.22561, -1.53797, -0.902349, -1.19602, 1.23222, -1.30266, 0.0709534, 0.0471612, 0.0277792, -0.0924431, -0.0279828, -0.00461515, 0.00118848, 3.87183, 64.5172, 32.7768, 4.60541, 2.8548, 3.53274, 0.00373412, -0.00262515, 0.000519041, 0.00247487, -0.00186008, -0.00482231, -0.00394627, 0.0575395, -0.0143417, -0.0213652, -0.0911692, 0.155202, 0.0574884, 0.473111, -0.537773, 0.338761, -2.07972, -2.16875, -0.125725, 0.473635, -0.539965, 0.335896, -2.07899, -2.17642, -0.123307, 0.0428082, 0.11603, 0.0589097, 0.0585339, 0.0631167, 0.0284822
0.145143, 1.69787, -1.22557, -1.53792, -0.902452, -1.19604, 1.23222, -1.30266, 0.0698809, 0.0459731, 0.0321466, -0.0960218, -0.0251773, -0.00372568, -0.00137782, 3.83216, 64.5529, 32.7015, 4.68079, 2.84198, 3.53915, 0.0623279, -0.00267989, 0.000535529, 0.00249286, -0.00189439, -0.00486711, -0.00405532, 0.0571898, -0.0152393, -0.0213892, -0.0874561, 0.153113, 0.0640493, 0.473154, -0.537657, 0.338821, -2.07964, -2.16881, -0.12564, 0.473696, -0.539898, 0.335929, -2.07883, -2.17663, -0.123226, 0.0433189, 0.117469, 0.0596298, 0.0599286, 0.064945, 0.0292039
0.146143, 1.69787, -1.22557, -1.53792, -0.902452, -1.19604, 1.23222, -1.30266, 0.0698809, 0.0459731, 0.0321466, -0.0960218, -0.0251773, -0.00372568, -0.00137782, 3.83216, 64.5529, 32.7015, 4.68079, 2.84198, 3.53915, 0.0623279, -0.00280409, 0.000488692, 0.00253582, -0.00195432, -0.00484163, -0.00399176, 0.0587065, -0.0146853, -0.0219027, -0.0879974, 0.154069, 0.0629117, 0.473198, -0.537538, 0.338881, -2.07955, -2.16887, -0.125554, 0.473696, -0.539898, 0.335929, -2.07883, -2.17663, -0.123226, 0.0438306, 0.118913, 0.0603519, 0.0599286, 0.064945, 0.0292039
0.147143, 1.69787, -1.22557, -1.53792, -0.902452, -1.19604, 1.23222, -1.30266, 0.0698809, 0.0459731, 0.0321466, -0.0960218, -0.0251773, -0.00372568, -0.00137782, 3.83216, 64.5529, 32.7015, 4.68079, 2.84198, 3.53915, 0.0623279, -0.0029298, 0.000441292, 0.0025793, -0.00201497, -0.00481588, -0.00392746, 0.0602275, -0.01413, -0.0224175, -0.0885389, 0.155028, 0.0617721, 0.473242, -0.537419, 0.338941, -2.07946, -2.16893, -0.125467, 0.473696, -0.539898, 0.335929, -2.07883, -2.17663, -0.123226, 0.0443433, 0.12036, 0.0610757, 0.0599286, 0.064945, 0.0292039
0.148143, 1.69806, -1.22543, -1.5378, -0.902774, -1.19609, 1.23222, -1.30266, 0.0644688, 0.0450557, 0.0372391, -0.108224, -0.0196863, -0.00449082, 0.00213866, 3.6814, 64.664, 32.8126, 4.71649, 2.87311, 3.5538, 0.00373412, -0.00285096, 0.000579353, 0.00255402, -0.00198462, -0.00499452, -0.00435705, 0.0583605, -0.0146144, -0.0231561, -0.0877867, 0.150782, 0.0667517, 0.473287, -0.537298, 0.339003, -2.07938, -2.16899, -0.125378, 0.473877, -0.539697, 0.336023, -2.07836, -2.17724, -0.122967, 0.044857, 0.121812, 0.0618013, 0.0608264, 0.0683745, 0.0294723
0.149143, 1.69811, -1.22539, -1.53775, -0.902893, -1.19611, 1.23221, -1.30266, 0.0596968, 0.0437226, 0.0374276, -0.106761, -0.0193943, -0.00279993, 0.0019344, 3.72108, 64.7394, 32.8126, 4.75616, 2.87311, 3.53915, -0.00999879, -0.00291011, 0.000591438, 0.00257472, -0.00202011, -0.00503266, -0.00446122, 0.0626511, -0.0114493, -0.0237969, -0.0852643, 0.150718, 0.0600311, 0.473332, -0.537175, 0.339065, -2.07929, -2.16905, -0.125289, 0.473935, -0.539629, 0.336055, -2.0782, -2.17745, -0.122889, 0.0453715, 0.123267, 0.0625286, 0.0583263, 0.0655504, 0.0290106
0.150143, 1.69816, -1.22534, -1.53771, -0.903009, -1.19612, 1.23221, -1.30266, 0.0599624, 0.044675, 0.0398824, -0.110381, -0.0198925, -0.00239932, 0.000543613, 3.60603, 64.7394, 32.8522, 4.71649, 2.89142, 3.54648, 0.0101428, -0.00296686, 0.000606602, 0.00259254, -0.00205806, -0.00507317, -0.00457475, 0.0625134, -0.0122625, -0.0233651, -0.0852266, 0.153413, 0.0647038, 0.473377, -0.537051, 0.339128, -2.0792, -2.16911, -0.125199, 0.473998, -0.539558, 0.336091, -2.07803, -2.17767, -0.122812, 0.0458869, 0.124727, 0.0632577, 0.0596679, 0.0671166, 0.0301615
0.151143, 1.69821, -1.22529, -1.53766, -0.903134, -1.19613, 1.23221, -1.30266, 0.0571324, 0.0472472, 0.0418262, -0.114052, -0.0146029, -0.00206689, 0.000599768, 3.60603, 64.7751, 32.8879, 4.71649, 2.88501, 3.5538, 0.00373412, -0.00302602, 0.000617723, 0.00261144, -0.0020939, -0.005111, -0.00468375, 0.0625457, -0.011865, -0.0220245, -0.0824283, 0.152881, 0.0665729, 0.473423, -0.536926, 0.339191, -2.07911, -2.16918, -0.125108, 0.474057, -0.539488, 0.336127, -2.07786, -2.17788, -0.122734, 0.0464031, 0.12619, 0.0639883, 0.0598439, 0.0683263, 0.032225
0.152143, 1.69825, -1.22523, -1.53761, -0.903262, -1.19614, 1.23221, -1.30266, 0.0530413, 0.0499887, 0.044436, -0.118418, -0.0157362, -0.000982452, -0.00177029, 3.6814, 64.7751, 32.999, 4.64111, 2.89142, 3.53915, 0.0623279, -0.00308986, 0.000624933, 0.00262752, -0.00213337, -0.00515795, -0.00478974, 0.0641344, -0.0104485, -0.0203091, -0.081502, 0.158142, 0.0684003, 0.47347, -0.536799, 0.339256, -2.07902, -2.16924, -0.125016, 0.474112, -0.539421, 0.336165, -2.0777, -2.1781, -0.122649, 0.0469202, 0.127658, 0.0647206, 0.0590797, 0.0679001, 0.0344543
0.153143, 1.6983, -1.22518, -1.53757, -0.903394, -1.19614, 1.23221, -1.30266, 0.0554803, 0.053992, 0.0468671, -0.122712, -0.012676, -0.000765262, -0.000705478, 3.6814, 64.8108, 33.1101, 4.60541, 2.91614, 3.53915, 0.0495105, -0.00315256, 0.000633419, 0.00264863, -0.00216919, -0.00519384, -0.00489579, 0.0618265, -0.0129233, -0.0183207, -0.0803832, 0.161001, 0.0744702, 0.473517, -0.53667, 0.339321, -2.07892, -2.1693, -0.124922, 0.47417, -0.539351, 0.336199, -2.07753, -2.17831, -0.12257, 0.047438, 0.129128, 0.0654544, 0.0620589, 0.0714584, 0.0374262
0.154143, 1.69834, -1.22513, -1.5375, -0.903534, -1.19615, 1.2322, -1.30266, 0.0510833, 0.0569935, 0.0489474, -0.12642, -0.0142775, -0.000355536, 3.83077e-05, 3.6814, 64.8505, 33.0744, 4.60541, 2.92163, 3.53274, 0.0357776, -0.00321039, 0.000647123, 0.0026645, -0.00221717, -0.00523299, -0.00501798, 0.0638635, -0.0109111, -0.016597, -0.0803401, 0.166541, 0.0718852, 0.473565, -0.53654, 0.339387, -2.07883, -2.16937, -0.124828, 0.474233, -0.539275, 0.33624, -2.07735, -2.17855, -0.122502, 0.0479565, 0.130603, 0.0661897, 0.0607201, 0.0705688, 0.0396177
0.155143, 1.69838, -1.22507, -1.53744, -0.903681, -1.19615, 1.23221, -1.30266, 0.0467827, 0.055489, 0.0545244, -0.134857, -0.0108591, -2.77966e-05, 0.000974974, 3.72108, 64.9219, 33.1101, 4.60541, 2.92804, 3.52542, 0.0101428, -0.00327043, 0.000658045, 0.00268014, -0.00226477, -0.00527361, -0.00514064, 0.0631409, -0.0112495, -0.0169471, -0.0776111, 0.163636, 0.076785, 0.473613, -0.536409, 0.339453, -2.07873, -2.16943, -0.124733, 0.474294, -0.5392, 0.336282, -2.07717, -2.17878, -0.122431, 0.0484757, 0.132081, 0.0669265, 0.0615381, 0.072829, 0.0401097
0.156143, 1.69842, -1.22502, -1.53738, -0.903832, -1.19615, 1.2322, -1.30265, 0.0455335, 0.0528364, 0.0588636, -0.137886, -0.00966066, 0.000477474, 0.00139597, 3.6814, 65.0687, 33.1498, 4.56573, 2.97107, 3.51077, -0.00999879, -0.00333092, 0.000669977, 0.00270133, -0.00230793, -0.00530814, -0.00526593, 0.0634974, -0.0116812, -0.0178013, -0.0748397, 0.16119, 0.0791596, 0.473662, -0.536276, 0.33952, -2.07864, -2.1695, -0.124636, 0.474356, -0.539124, 0.336318, -2.07699, -2.17902, -0.122361, 0.0489955, 0.133562, 0.0676647, 0.0624726, 0.0741082, 0.0399363
0.157143, 1.69845, -1.22496, -1.53732, -0.903989, -1.19615, 1.2322, -1.30265, 0.04081, 0.0563566, 0.0604684, -0.147643, -0.00753583, -0.000259117, 0.000659378, 3.79646, 65.1083, 33.2609, 4.53003, 2.98389, 3.52542, -0.00267457, -0.00339326, 0.000676724, 0.00271516, -0.00235543, -0.00534939, -0.00538655, 0.0630794, -0.0109424, -0.0168724, -0.0772611, 0.164198, 0.0840358, 0.473711, -0.536142, 0.339588, -2.07854, -2.16956, -0.124539, 0.474414, -0.539048, 0.336363, -2.07681, -2.17926, -0.122287, 0.049516, 0.135047, 0.0684043, 0.0622791, 0.0758311, 0.0416829
0.158143, 1.69848, -1.2249, -1.53726, -0.90415, -1.19615, 1.2322, -1.30265, 0.0402996, 0.0582576, 0.0626799, -0.149956, -0.00548939, 0.000614885, -3.51325e-05, 3.79646, 65.1797, 33.3362, 4.45465, 2.98389, 3.50345, 0.0101428, -0.00345455, 0.000687772, 0.00273246, -0.00240499, -0.00538906, -0.00551766, 0.0632078, -0.0113258, -0.0157196, -0.0750374, 0.165876, 0.086805, 0.473761, -0.536006, 0.339657, -2.07844, -2.16963, -0.124441, 0.474477, -0.53897, 0.336405, -2.07661, -2.1795, -0.122218, 0.0500371, 0.136535, 0.0691452, 0.0632374, 0.0770347, 0.0435308
0.159143, 1.6985, -1.22485, -1.53719, -0.904313, -1.19615, 1.2322, -1.30266, 0.0341594, 0.0580205, 0.06839, -0.15367, -0.00421217, 0.000390293, -0.000735499, 3.90754, 65.3265, 33.3719, 4.34357, 2.98938, 3.50345, 0.0293689, -0.00352017, 0.000692679, 0.00274926, -0.00245627, -0.00542449, -0.00564306, 0.0649486, -0.00923398, -0.0145818, -0.0710546, 0.165241, 0.086702, 0.473811, -0.535869, 0.339727, -2.07834, -2.1697, -0.124341, 0.474534, -0.538895, 0.336448, -2.07643, -2.17975, -0.122153, 0.0505588, 0.138026, 0.0698875, 0.0617889, 0.0765392, 0.0451998
0.160143, 1.69853, -1.22479, -1.53712, -0.904491, -1.19615, 1.2322, -1.30265, 0.0321556, 0.0557288, 0.0718819, -0.161713, -0.00354468, 0.00051674, 0.000221744, 3.90754, 65.4376, 33.4473, 4.34357, 3.0022, 3.49612, 0.0101428, -0.00358024, 0.000703907, 0.00276756, -0.0025045, -0.00546251, -0.00578283, 0.0643673, -0.0100703, -0.0162185, -0.0718313, 0.163896, 0.0915946, 0.473862, -0.53573, 0.339797, -2.07824, -2.16977, -0.124241, 0.474597, -0.538812, 0.33649, -2.07622, -2.18, -0.122082, 0.0510809, 0.13952, 0.0706309, 0.0630612, 0.0788947, 0.0443895
0.161143, 1.69855, -1.22473, -1.53705, -0.90466, -1.19615, 1.2322, -1.30265, 0.0256097, 0.0579764, 0.0736511, -0.166805, -0.00188133, 0.000333452, 0.000622548, 3.98292, 65.513, 33.5584, 4.23248, 2.98389, 3.49612, -0.00267457, -0.00364585, 0.000709741, 0.00278494, -0.00255693, -0.00549658, -0.0059109, 0.066401, -0.00737061, -0.0151955, -0.0714666, 0.165807, 0.0893889, 0.473913, -0.53559, 0.339868, -2.07814, -2.16984, -0.12414, 0.474657, -0.538734, 0.336534, -2.07603, -2.18025, -0.122018, 0.0516036, 0.141018, 0.0713756, 0.0610146, 0.0781055, 0.0459234
0.162143, 1.69857, -1.22468, -1.53697, -0.904843, -1.19615, 1.2322, -1.30265, 0.0248726, 0.0556766, 0.0735628, -0.171982, -0.00184232, 0.000451379, 0.00139838, 4.02259, 65.6241, 33.5941, 4.1571, 2.99579, 3.48971, -0.0292249, -0.00370867, 0.00071914, 0.00280223, -0.00261142, -0.00553483, -0.0060511, 0.0669883, -0.00758126, -0.0177817, -0.0745125, 0.16498, 0.0912755, 0.473965, -0.535448, 0.33994, -2.07804, -2.16991, -0.124037, 0.47472, -0.538651, 0.336579, -2.07582, -2.18051, -0.121952, 0.0521267, 0.142518, 0.0721215, 0.061672, 0.0794286, 0.0440192
0.163143, 1.69859, -1.22463, -1.53689, -0.905028, -1.19614, 1.23219, -1.30265, 0.0242319, 0.0523404, 0.072756, -0.177127, -0.00133868, 0.000837243, -0.00076317, 4.06226, 65.8066, 33.6695, 4.04602, 2.99579, 3.47507, 0.0165515, -0.00377319, 0.000727573, 0.0028249, -0.00266479, -0.00556206, -0.00619615, 0.067729, -0.00783477, -0.0212095, -0.0778317, 0.162923, 0.0959975, 0.474018, -0.535305, 0.340012, -2.07793, -2.16998, -0.123934, 0.474782, -0.538568, 0.336619, -2.07561, -2.18077, -0.121895, 0.0526502, 0.144021, 0.0728685, 0.0623446, 0.0807329, 0.0412602
0.164143, 1.69861, -1.22456, -1.53682, -0.905226, -1.19615, 1.23219, -1.30265, 0.023054, 0.0552195, 0.0743299, -0.180792, -0.00165347, 0.000553504, -0.00050878, 4.13764, 65.7709, 33.7806, 3.93494, 3.0141, 3.47507, 0.0165515, -0.00383749, 0.000734217, 0.00283904, -0.00271233, -0.00561297, -0.00634346, 0.0681589, -0.00753142, -0.0199712, -0.0787293, 0.167097, 0.0972207, 0.474071, -0.53516, 0.340086, -2.07783, -2.17005, -0.123829, 0.474844, -0.538484, 0.336668, -2.0754, -2.18105, -0.121807, 0.0531742, 0.145527, 0.0736165, 0.0626365, 0.0816124, 0.0431767
0.165143, 1.69861, -1.2245, -1.53674, -0.905425, -1.19615, 1.23219, -1.30265, 0.0194622, 0.0545151, 0.0733566, -0.192571, -0.00140181, 0.000636776, -0.000101828, 4.3241, 65.8423, 33.8559, 3.74451, 3.02051, 3.46774, 0.0101428, -0.00390706, 0.000736082, 0.0028554, -0.00276632, -0.0056573, -0.0064789, 0.068049, -0.00744286, -0.0227128, -0.0850444, 0.168236, 0.102055, 0.474124, -0.535014, 0.34016, -2.07772, -2.17012, -0.123723, 0.474902, -0.538404, 0.336715, -2.0752, -2.18131, -0.121731, 0.0536985, 0.147036, 0.0743657, 0.0629614, 0.0836418, 0.0412395
0.166143, 1.69863, -1.22444, -1.53665, -0.905639, -1.19615, 1.23219, -1.30265, 0.0174103, 0.0549494, 0.0815553, -0.203094, -0.00165931, 0.00120179, 0.000915459, 4.36378, 65.878, 33.8202, 3.6731, 3.03882, 3.44668, -0.0164075, -0.0039679, 0.00074693, 0.00287042, -0.00282077, -0.00570363, -0.00663847, 0.0657457, -0.009534, -0.0213768, -0.08269, 0.170525, 0.110902, 0.474178, -0.534866, 0.340234, -2.07762, -2.17019, -0.123617, 0.474968, -0.538313, 0.336765, -2.07497, -2.1816, -0.121655, 0.0542231, 0.148547, 0.0751158, 0.0655382, 0.0873206, 0.0435935
0.167143, 1.69864, -1.22437, -1.53656, -0.905859, -1.19615, 1.23219, -1.30264, 0.0147938, 0.0595767, 0.0814151, -0.209305, -0.00205669, 0.00134176, 0.00108502, 4.43916, 65.8423, 33.8917, 3.55804, 3.06354, 3.43204, -0.0292249, -0.00402997, 0.000756016, 0.00288362, -0.00287431, -0.00575559, -0.00680022, 0.0663174, -0.00872203, -0.01997, -0.0856048, 0.177017, 0.112134, 0.474232, -0.534717, 0.34031, -2.07751, -2.17026, -0.123509, 0.475034, -0.538223, 0.336818, -2.07474, -2.18189, -0.121571, 0.054748, 0.150061, 0.0758669, 0.0653361, 0.088019, 0.0456748
0.168143, 1.69863, -1.22431, -1.53647, -0.906081, -1.19615, 1.23219, -1.30264, 0.0093091, 0.057521, 0.085435, -0.215778, -0.00207551, 0.00170684, 0.00442406, 4.66529, 65.9177, 33.9313, 3.48663, 3.08185, 3.41006, -0.00267457, -0.00409956, 0.00075838, 0.00290097, -0.00293291, -0.00579945, -0.00695265, 0.0678069, -0.00730568, -0.0208702, -0.0847376, 0.17632, 0.109844, 0.474287, -0.534566, 0.340386, -2.0774, -2.17034, -0.123401, 0.475094, -0.538138, 0.336866, -2.07453, -2.18218, -0.121499, 0.0552732, 0.151577, 0.0766189, 0.0644751, 0.0881359, 0.0453585
0.169143, 1.69863, -1.22424, -1.53638, -0.906311, -1.19615, 1.23219, -1.30265, 0.00512687, 0.0610936, 0.0859802, -0.220395, -0.00252231, 0.00137414, 0.00239028, 4.77637, 65.7709, 34.0781, 3.41125, 3.11206, 3.40365, 0.0229602, -0.00416607, 0.000762091, 0.00291418, -0.00297803, -0.00585885, -0.00711398, 0.0694773, -0.00531006, -0.0195833, -0.086593, 0.18134, 0.110664, 0.474343, -0.534414, 0.340463, -2.07729, -2.17041, -0.123291, 0.475155, -0.538049, 0.33692, -2.0743, -2.18247, -0.121396, 0.0557986, 0.153096, 0.0773717, 0.0631323, 0.0877175, 0.0471951
0.170143, 1.69863, -1.22417, -1.53628, -0.906546, -1.19615, 1.23219, -1.30264, 0.00103088, 0.0611707, 0.0908024, -0.219622, -0.00240836, 0.0014578, 0.00188627, 4.92713, 65.8423, 34.0424, 3.33588, 3.13129, 3.38901, 0.0229602, -0.00423196, 0.000768132, 0.00293062, -0.00303899, -0.00590208, -0.00728194, 0.072086, -0.00311487, -0.0180402, -0.0818256, 0.181868, 0.107624, 0.474399, -0.53426, 0.340541, -2.07718, -2.17049, -0.12318, 0.475219, -0.537958, 0.336971, -2.07406, -2.18277, -0.121327, 0.0563242, 0.154618, 0.0781255, 0.0616397, 0.0863266, 0.0491489
0.171143, 1.69862, -1.22411, -1.53619, -0.906787, -1.19615, 1.23219, -1.30264, -0.00114942, 0.0649202, 0.0948158, -0.226315, -0.00297297, 0.00124251, 0.0019518, 5.04218, 65.7709, 34.1178, 3.2605, 3.16791, 3.38168, 0.0101428, -0.00429933, 0.000773072, 0.00294716, -0.00309023, -0.00595591, -0.00744828, 0.0715356, -0.00330383, -0.0157907, -0.0818617, 0.187256, 0.111762, 0.474456, -0.534104, 0.340619, -2.07707, -2.17056, -0.123068, 0.475283, -0.537866, 0.337023, -2.07383, -2.18308, -0.121235, 0.05685, 0.156141, 0.07888, 0.0624278, 0.0880607, 0.0522048
0.172143, 1.69862, -1.22403, -1.53609, -0.907037, -1.19615, 1.23219, -1.30264, -0.00365182, 0.0694368, 0.0924813, -0.233738, -0.00243108, -0.00383968, 0.00316129, 5.19294, 65.6241, 34.1535, 3.18512, 3.17981, 3.38168, -0.0356336, -0.00436498, 0.000778221, 0.00295858, -0.00314438, -0.00601619, -0.00761402, 0.071454, -0.00158736, -0.0158802, -0.0914168, 0.190561, 0.11238, 0.474513, -0.533947, 0.340699, -2.07696, -2.17064, -0.122956, 0.475348, -0.537772, 0.337081, -2.07359, -2.18339, -0.121139, 0.0573759, 0.157667, 0.0796352, 0.0612379, 0.0896, 0.0529446
0.173143, 1.69861, -1.22398, -1.53599, -0.907296, -1.19616, 1.23219, -1.30263, -0.00371708, 0.0654266, 0.097315, -0.24332, -0.00322064, -0.00267783, 0.00199368, 5.26832, 65.7709, 34.1535, 3.18512, 3.22284, 3.37436, -0.0292249, -0.00442877, 0.000788041, 0.00298395, -0.00319112, -0.00605741, -0.00780167, 0.0698484, -0.00412514, -0.0182681, -0.0919597, 0.189365, 0.122843, 0.47457, -0.533789, 0.340779, -2.07684, -2.17071, -0.122842, 0.475417, -0.537672, 0.337126, -2.07332, -2.1837, -0.121055, 0.0579019, 0.159194, 0.0803912, 0.0641387, 0.0931933, 0.0515037
0.174143, 1.6986, -1.22391, -1.53589, -0.907561, -1.19616, 1.23219, -1.30264, -0.005644, 0.0664376, 0.0978433, -0.246175, -0.00282993, -0.00234847, 0.000947028, 5.41908, 65.7709, 34.3043, 3.07404, 3.24115, 3.38168, -0.0164075, -0.004495, 0.000793451, 0.00300403, -0.00324224, -0.00610377, -0.0079863, 0.071192, -0.00325633, -0.0183039, -0.092582, 0.191391, 0.123683, 0.474629, -0.533629, 0.340859, -2.07673, -2.17079, -0.122727, 0.475482, -0.537575, 0.337177, -2.07306, -2.18402, -0.120969, 0.0584279, 0.160724, 0.0811479, 0.0638557, 0.0933609, 0.0520506
0.175143, 1.69859, -1.22385, -1.53577, -0.907823, -1.19616, 1.23219, -1.30263, -0.00701875, 0.0653043, 0.104286, -0.25012, -0.003043, -0.0020559, 0.000192198, 5.56983, 65.8423, 34.34, 2.88757, 3.27228, 3.38901, -0.00267457, -0.004562, 0.000799355, 0.00302117, -0.00330566, -0.00614926, -0.00817025, 0.0710436, -0.00393147, -0.017663, -0.0891076, 0.191515, 0.128407, 0.474687, -0.533468, 0.340941, -2.07661, -2.17087, -0.122611, 0.475549, -0.537476, 0.337231, -2.07281, -2.18435, -0.120897, 0.0589541, 0.162256, 0.0819052, 0.0650806, 0.0949734, 0.0534424
0.176143, 1.69858, -1.22378, -1.53565, -0.908103, -1.19616, 1.23219, -1.30264, -0.00800285, 0.0701734, 0.109005, -0.258215, -0.00294682, -0.00180611, -0.00100656, 5.72059, 65.8066, 34.3757, 2.92328, 3.297, 3.39633, 0.0293689, -0.00462362, 0.000809549, 0.00303572, -0.00336416, -0.00620439, -0.00837498, 0.0692049, -0.00534731, -0.0147219, -0.0885792, 0.197847, 0.136755, 0.474746, -0.533304, 0.341023, -2.07649, -2.17095, -0.122494, 0.475621, -0.537372, 0.337289, -2.07253, -2.1847, -0.120811, 0.0594802, 0.16379, 0.0826631, 0.06707, 0.0979432, 0.0573399
0.177143, 1.69857, -1.22372, -1.53553, -0.908391, -1.19616, 1.23219, -1.30263, -0.00787439, 0.0700811, 0.113014, -0.264985, -0.00284813, -0.00105599, 0.00501445, 5.83564, 65.9177, 34.5264, 2.88757, 3.3208, 3.38901, 0.00373412, -0.00468466, 0.000822145, 0.00305616, -0.00342116, -0.00625295, -0.00858211, 0.0679365, -0.00716031, -0.0147668, -0.0881514, 0.199426, 0.137582, 0.474806, -0.53314, 0.341106, -2.07637, -2.17103, -0.122376, 0.475695, -0.537264, 0.337342, -2.07224, -2.18505, -0.120729, 0.0600063, 0.165325, 0.0834216, 0.0693565, 0.100823, 0.0581875
0.178143, 1.69855, -1.22366, -1.5354, -0.90868, -1.19616, 1.23218, -1.30263, -0.00949721, 0.0672467, 0.119814, -0.280302, -0.00237495, -0.00106764, 0.00498439, 6.0221, 66.0287, 34.5264, 2.73682, 3.33362, 3.39633, -0.0292249, -0.00474444, 0.000833805, 0.00307059, -0.00349288, -0.00629489, -0.00878972, 0.064421, -0.01033, -0.0165819, -0.0897924, 0.198163, 0.151735, 0.474866, -0.532974, 0.34119, -2.07626, -2.17111, -0.122257, 0.475769, -0.537154, 0.337402, -2.07196, -2.1854, -0.120669, 0.0605324, 0.166863, 0.0841806, 0.0728309, 0.106256, 0.0575844
0.179143, 1.69854, -1.22359, -1.53526, -0.908982, -1.19617, 1.23218, -1.30263, -0.0097724, 0.071018, 0.123729, -0.29297, -0.00270339, -0.000781052, 0.00363847, 6.17286, 66.0287, 34.5621, 2.73682, 3.36383, 3.39633, -0.0292249, -0.00480291, 0.000847174, 0.00308396, -0.0035565, -0.00635108, -0.00901093, 0.0612598, -0.0129916, -0.0152362, -0.0924952, 0.204271, 0.164431, 0.474927, -0.532806, 0.341275, -2.07613, -2.17119, -0.122137, 0.475845, -0.537041, 0.337464, -2.07166, -2.18577, -0.120586, 0.0610583, 0.168402, 0.0849401, 0.0759424, 0.110839, 0.060066
0.180143, 1.69851, -1.22352, -1.53512, -0.909296, -1.19617, 1.23218, -1.30262, -0.0135037, 0.0690306, 0.126331, -0.297969, -0.00295597, -0.000572668, 0.00242495, 6.47437, 66.1002, 34.6018, 2.73682, 3.39496, 3.39633, -0.0228162, -0.00486319, 0.000858423, 0.00309988, -0.00362142, -0.00640364, -0.00923313, 0.0627392, -0.0119064, -0.0165031, -0.0926913, 0.20381, 0.166371, 0.474989, -0.532637, 0.34136, -2.07601, -2.17127, -0.122016, 0.47592, -0.536929, 0.337524, -2.07136, -2.18614, -0.120507, 0.0615842, 0.169942, 0.0857, 0.0753982, 0.11106, 0.0593869
0.181143, 1.69849, -1.22346, -1.53498, -0.909611, -1.19617, 1.23218, -1.30262, -0.0143369, 0.0646666, 0.130923, -0.30772, -0.00264944, -0.000692022, 9.87021e-05, 6.70448, 66.1755, 34.6732, 2.70111, 3.41327, 3.40365, 0.0229602, -0.00491992, 0.000873297, 0.00311633, -0.00368954, -0.00644815, -0.00946913, 0.0611647, -0.013887, -0.0192791, -0.0940494, 0.200775, 0.177642, 0.47505, -0.532466, 0.341446, -2.07589, -2.17135, -0.121894, 0.475998, -0.536811, 0.337585, -2.07105, -2.18653, -0.12044, 0.0621099, 0.171484, 0.0864603, 0.0777242, 0.114671, 0.0575789
0.182143, 1.69848, -1.22339, -1.53483, -0.909923, -1.19617, 1.23217, -1.30262, -0.0152537, 0.065301, 0.135437, -0.311203, -0.00244493, -0.000999205, 0.00500386, 6.81556, 66.2112, 34.7129, 2.51465, 3.43158, 3.41739, 0.0229602, -0.00497526, 0.000890316, 0.00312866, -0.00375935, -0.00649957, -0.00970328, 0.061043, -0.0142652, -0.0183032, -0.0922851, 0.202131, 0.175935, 0.475113, -0.532294, 0.341533, -2.07577, -2.17143, -0.121771, 0.476079, -0.536691, 0.337651, -2.07074, -2.18691, -0.120367, 0.0626355, 0.173028, 0.087221, 0.0786667, 0.116206, 0.0593097
0.183143, 1.69848, -1.22339, -1.53483, -0.909923, -1.19617, 1.23217, -1.30262, -0.0152537, 0.065301, 0.135437, -0.311203, -0.00244493, -0.000999205, 0.00500386, 6.81556, 66.2112, 34.7129, 2.51465, 3.43158, 3.41739, 0.0229602, -0.00515759, 0.0008221, 0.00319161, -0.00384693, -0.00646443, -0.00961206, 0.0626635, -0.0136895, -0.018844, -0.0928099, 0.203129, 0.174771, 0.475176, -0.53212, 0.34162, -2.07564, -2.17152, -0.121646, 0.476079, -0.536691, 0.337651, -2.07074, -2.18691, -0.120367, 0.0631608, 0.174573, 0.087982, 0.0786667, 0.116206, 0.0593097
0.184143, 1.69848, -1.22339, -1.53483, -0.909923, -1.19617, 1.23217, -1.30262, -0.0152537, 0.065301, 0.135437, -0.311203, -0.00244493, -0.000999205, 0.00500386, 6.81556, 66.2112, 34.7129, 2.51465, 3.43158, 3.41739, 0.0229602, -0.00534153, 0.000753288, 0.00325514, -0.00393526, -0.00642904, -0.0095201, 0.0642852, -0.0131138, -0.0193851, -0.0933333, 0.204127, 0.173608, 0.475239, -0.531945, 0.341709, -2.07552, -2.1716, -0.121521, 0.476079, -0.536691, 0.337651, -2.07074, -2.18691, -0.120367, 0.0636859, 0.176119, 0.0887433, 0.0786667, 0.116206, 0.0593097
0.185143, 1.69841, -1.22318, -1.53437, -0.910938, -1.19617, 1.23216, -1.30261, -0.0249334, 0.067398, 0.148879, -0.323046, -0.0017309, -0.00421829, 0.0102037, 7.56934, 66.1359, 34.7883, 2.29248, 3.47461, 3.42471, 0.0101428, -0.00513745, 0.000941231, 0.00316908, -0.00396817, -0.00665613, -0.0104549, 0.0631127, -0.0113956, -0.0153514, -0.0886781, 0.205134, 0.174681, 0.475303, -0.531768, 0.341798, -2.07539, -2.17169, -0.121395, 0.476326, -0.536316, 0.33785, -2.06974, -2.18813, -0.120144, 0.0642108, 0.177667, 0.0895048, 0.0776002, 0.11822, 0.0642955
0.186143, 1.69838, -1.22312, -1.53421, -0.911281, -1.19617, 1.23216, -1.3026, -0.02488, 0.0640983, 0.151822, -0.329033, -0.00206961, -0.0025804, 0.00721686, 7.75977, 66.1755, 34.824, 2.2171, 3.49933, 3.41006, 0.0229602, -0.00519405, 0.000958564, 0.00318633, -0.00404514, -0.00670147, -0.0107063, 0.0628196, -0.0129727, -0.0174554, -0.0885081, 0.204351, 0.183169, 0.475368, -0.53159, 0.341888, -2.07526, -2.17177, -0.121268, 0.47641, -0.53619, 0.337913, -2.06941, -2.18854, -0.120083, 0.0647353, 0.179216, 0.0902666, 0.0796029, 0.120452, 0.06297
