alisrour97/Franka_experiments/Real_Robot_scripts/servo-franka/Data2/log_dyn_INIT2_4.csv
Time,q1,q2,q3,q4,q5,q6,q7,dq1,dq2,dq3,dq4,dq5,dq6,dq7,t1,t2,t3,t4,t5,t6,t7,ex1,ex2,ex3,ex4,ex5,ex6,ev1,ev2,ev3,ev4,ev5,ev6,xd,yd,zd,uxd,uyd,uzd,x,y,z,ux,uy,uz,vxd,vyd,vzd,vx,vy,vz
4.88281e-07, 1.69145, -1.22548, -1.53785, -0.900062, -1.19195, 1.22839, -1.30254, -0.00924896, 0.00164299, -0.00574515, 0.00867123, 0.000983783, -0.00693533, -0.00116442, 0.813057, 57.8522, 27.9368, 6.17248, 2.19745, 3.36703, -0.336842, 0.00100941, -0.00153147, -4.51193e-06, 0.000267854, -0.000600719, -4.4226e-05, 0.00684252, 0.00930863, 1.68704e-05, -0.0049037, -0.0032191, -0.0179869, 0.471008, -0.543389, 0.335894, -2.08385, -2.16584, -0.129887, 0.469462, -0.54244, 0.336109, -2.08394, -2.16618, -0.129005, -1.48327e-05, 4.00419e-05, -1.29039e-06, -0.00906617, -0.00709854, -0.000766066
0.0120271, 1.69139, -1.22547, -1.53793, -0.899998, -1.19195, 1.22836, -1.30254, -0.00276378, 0.00444928, -0.0110171, 0.00924523, -0.00420749, -0.00798818, 0.00103441, 0.436165, 57.7054, 27.9011, 6.20819, 2.19104, 3.37436, -0.317616, 0.000952206, -0.00159904, 5.4941e-06, 0.00032394, -0.000598588, 0.000105441, 0.00592176, 0.00754481, -0.000554145, -0.0133397, 0.00383741, -0.0185891, 0.471008, -0.543389, 0.335894, -2.08385, -2.16584, -0.129887, 0.469377, -0.542514, 0.336084, -2.0841, -2.16594, -0.128909, -2.49008e-05, 7.8927e-05, 1.60533e-06, -0.00736822, -0.00599061, -0.00123726
0.0130271, 1.69139, -1.22547, -1.53793, -0.899998, -1.19195, 1.22836, -1.30254, -0.00276378, 0.00444928, -0.0110171, 0.00924523, -0.00420749, -0.00798818, 0.00103441, 0.436165, 57.7054, 27.9011, 6.20819, 2.19104, 3.37436, -0.317616, 0.000952197, -0.00159904, 5.49332e-06, 0.000323938, -0.000598597, 0.000105445, 0.00596483, 0.00753545, -0.000550345, -0.0133396, 0.00388551, -0.0185584, 0.471008, -0.543389, 0.335894, -2.08385, -2.16584, -0.129887, 0.469377, -0.542514, 0.336084, -2.0841, -2.16594, -0.128909, -3.59273e-05, 0.000121646, 4.81928e-06, -0.00736822, -0.00599061, -0.00123726
0.0140271, 1.69139, -1.22547, -1.53793, -0.899998, -1.19195, 1.22836, -1.30254, -0.00276378, 0.00444928, -0.0110171, 0.00924523, -0.00420749, -0.00798818, 0.00103441, 0.436165, 57.7054, 27.9011, 6.20819, 2.19104, 3.37436, -0.317616, 0.000952174, -0.00159904, 5.49121e-06, 0.000323932, -0.000598619, 0.000105456, 0.00601192, 0.00752524, -0.000546225, -0.0133395, 0.00393804, -0.0185248, 0.471008, -0.543389, 0.335894, -2.08385, -2.16584, -0.129887, 0.469377, -0.542514, 0.336084, -2.0841, -2.16594, -0.128909, -4.79476e-05, 0.000168349, 8.36616e-06, -0.00736822, -0.00599061, -0.00123726
0.0150271, 1.69139, -1.22547, -1.53793, -0.899998, -1.19195, 1.22836, -1.30254, -0.00276378, 0.00444928, -0.0110171, 0.00924523, -0.00420749, -0.00798818, 0.00103441, 0.436165, 57.7054, 27.9011, 6.20819, 2.19104, 3.37436, -0.317616, 0.000952127, -0.00159903, 5.48712e-06, 0.000323921, -0.000598664, 0.000105477, 0.00606318, 0.00751417, -0.000541775, -0.0133393, 0.00399517, -0.0184883, 0.471008, -0.543389, 0.335894, -2.08385, -2.16584, -0.129887, 0.469377, -0.542514, 0.336084, -2.0841, -2.16594, -0.128909, -6.09969e-05, 0.000219187, 1.22607e-05, -0.00736822, -0.00599061, -0.00123726
0.0160271, 1.69139, -1.22547, -1.53793, -0.899998, -1.19195, 1.22836, -1.30254, -0.00276378, 0.00444928, -0.0110171, 0.00924523, -0.00420749, -0.00798818, 0.00103441, 0.436165, 57.7054, 27.9011, 6.20819, 2.19104, 3.37436, -0.317616, 0.000952051, -0.00159901, 5.48041e-06, 0.000323902, -0.000598737, 0.000105511, 0.00611876, 0.00750221, -0.000536985, -0.013339, 0.00405706, -0.0184488, 0.471008, -0.543389, 0.335894, -2.08385, -2.16584, -0.129887, 0.469377, -0.542514, 0.336084, -2.0841, -2.16594, -0.128909, -7.51097e-05, 0.000274308, 1.65177e-05, -0.00736822, -0.00599061, -0.00123726
0.0170271, 1.69139, -1.22547, -1.53793, -0.899998, -1.19195, 1.22836, -1.30254, -0.00276378, 0.00444928, -0.0110171, 0.00924523, -0.00420749, -0.00798818, 0.00103441, 0.436165, 57.7054, 27.9011, 6.20819, 2.19104, 3.37436, -0.317616, 0.000951937, -0.00159898, 5.47044e-06, 0.000323874, -0.000598845, 0.000105562, 0.00617881, 0.00748931, -0.000531845, -0.0133386, 0.00412387, -0.0184063, 0.471008, -0.543389, 0.335894, -2.08385, -2.16584, -0.129887, 0.469377, -0.542514, 0.336084, -2.0841, -2.16594, -0.128909, -9.03198e-05, 0.000333859, 2.1152e-05, -0.00736822, -0.00599061, -0.00123726
0.0180271, 1.69139, -1.22547, -1.53793, -0.899998, -1.19195, 1.22836, -1.30254, -0.00276378, 0.00444928, -0.0110171, 0.00924523, -0.00420749, -0.00798818, 0.00103441, 0.436165, 57.7054, 27.9011, 6.20819, 2.19104, 3.37436, -0.317616, 0.000951778, -0.00159895, 5.45661e-06, 0.000323836, -0.000598996, 0.000105633, 0.00624348, 0.00747547, -0.000526348, -0.0133381, 0.00419575, -0.0183605, 0.471008, -0.543389, 0.335894, -2.08385, -2.16584, -0.129887, 0.469377, -0.542514, 0.336084, -2.0841, -2.16594, -0.128909, -0.000106661, 0.000397984, 2.61782e-05, -0.00736822, -0.00599061, -0.00123726
0.0190271, 1.69139, -1.22547, -1.53793, -0.899998, -1.19195, 1.22836, -1.30254, -0.00276378, 0.00444928, -0.0110171, 0.00924523, -0.00420749, -0.00798818, 0.00103441, 0.436165, 57.7054, 27.9011, 6.20819, 2.19104, 3.37436, -0.317616, 0.000951567, -0.0015989, 5.43829e-06, 0.000323784, -0.000599197, 0.000105727, 0.00631292, 0.00746064, -0.000520484, -0.0133375, 0.00427286, -0.0183115, 0.471008, -0.543389, 0.335894, -2.08385, -2.16584, -0.129887, 0.469377, -0.542514, 0.336084, -2.0841, -2.16594, -0.128909, -0.000124165, 0.000466826, 3.16113e-05, -0.00736822, -0.00599061, -0.00123726
0.0200271, 1.69139, -1.22547, -1.53793, -0.899998, -1.19195, 1.22836, -1.30254, -0.00276378, 0.00444928, -0.0110171, 0.00924523, -0.00420749, -0.00798818, 0.00103441, 0.436165, 57.7054, 27.9011, 6.20819, 2.19104, 3.37436, -0.317616, 0.000951296, -0.00159884, 5.41489e-06, 0.000323718, -0.000599455, 0.000105847, 0.00638725, 0.0074448, -0.000514245, -0.0133367, 0.00435534, -0.0182591, 0.471008, -0.543388, 0.335894, -2.08385, -2.16584, -0.129887, 0.469377, -0.542514, 0.336084, -2.0841, -2.16594, -0.128909, -0.000142864, 0.000540525, 3.74658e-05, -0.00736822, -0.00599061, -0.00123726
0.0210271, 1.69139, -1.22547, -1.53793, -0.899998, -1.19195, 1.22836, -1.30254, -0.00276378, 0.00444928, -0.0110171, 0.00924523, -0.00420749, -0.00798818, 0.00103441, 0.436165, 57.7054, 27.9011, 6.20819, 2.19104, 3.37436, -0.317616, 0.000950959, -0.00159877, 5.38582e-06, 0.000323635, -0.000599776, 0.000105997, 0.00646663, 0.00742793, -0.000507624, -0.0133359, 0.00444336, -0.0182032, 0.471008, -0.543388, 0.335894, -2.08384, -2.16584, -0.129888, 0.469377, -0.542514, 0.336084, -2.0841, -2.16594, -0.128909, -0.000162789, 0.000619218, 4.37565e-05, -0.00736822, -0.00599061, -0.00123726
0.0220271, 1.69139, -1.22547, -1.53793, -0.899998, -1.19195, 1.22836, -1.30254, -0.00276378, 0.00444928, -0.0110171, 0.00924523, -0.00420749, -0.00798818, 0.00103441, 0.436165, 57.7054, 27.9011, 6.20819, 2.19104, 3.37436, -0.317616, 0.000950547, -0.00159868, 5.3505e-06, 0.000323534, -0.000600168, 0.00010618, 0.00655118, 0.00741001, -0.000500612, -0.0133348, 0.00453705, -0.0181437, 0.471008, -0.543388, 0.335894, -2.08384, -2.16584, -0.129888, 0.469377, -0.542514, 0.336084, -2.0841, -2.16594, -0.128909, -0.000183971, 0.000703042, 5.04979e-05, -0.00736822, -0.00599061, -0.00123726
0.0230271, 1.69135, -1.22545, -1.53799, -0.899942, -1.19196, 1.22836, -1.30254, -0.00237493, 0.00207716, -0.00764995, 0.00339219, -0.000495065, -0.000468258, -0.010376, -0.317619, 57.5546, 27.8257, 6.39465, 2.22217, 3.37436, -0.336842, 0.00090164, -0.00164776, 1.09856e-05, 0.000353524, -0.000615707, 0.000232857, 0.00430452, 0.00343795, -0.000864226, -0.00517338, 0.00325983, 0.00174829, 0.471008, -0.543387, 0.335894, -2.08384, -2.16584, -0.129888, 0.469329, -0.542563, 0.336073, -2.08423, -2.1658, -0.128847, -0.000206438, 0.000792126, 5.77046e-05, -0.00351722, -0.00346508, -0.0013601
0.0240271, 1.69135, -1.22545, -1.538, -0.899935, -1.19197, 1.22835, -1.30255, 0.00152039, 0.000224533, -0.010845, 0.00403173, -0.000444581, -0.000160618, -0.00381707, -0.508049, 57.0786, 27.6035, 6.28357, 2.1178, 3.36703, -0.199513, 0.00089572, -0.00165283, 1.27914e-05, 0.000364306, -0.000621324, 0.000239341, 0.00372508, 0.00184096, -0.00316558, -0.00812443, 0.00189957, -0.00294698, 0.471007, -0.543387, 0.335894, -2.08384, -2.16584, -0.129889, 0.469324, -0.542568, 0.33607, -2.08423, -2.16579, -0.128829, -0.000230219, 0.000886601, 6.53909e-05, -0.00204987, -0.00237901, -0.00358303
0.0250271, 1.69136, -1.22546, -1.53801, -0.899937, -1.19198, 1.22836, -1.30255, 0.00322234, 0.000431218, -0.0104831, 0.00287938, -0.00325014, 0.000380016, -0.00467262, -0.619133, 56.8921, 27.417, 6.28357, 2.06195, 3.3533, -0.140919, 0.00089243, -0.00165175, 2.04247e-05, 0.000374408, -0.000625452, 0.000239092, 0.00324525, 0.000764732, -0.00310938, -0.00943854, 0.00491114, -0.000102921, 0.471007, -0.543386, 0.335894, -2.08384, -2.16584, -0.129889, 0.469325, -0.542569, 0.336062, -2.08422, -2.16579, -0.128815, -0.000255341, 0.00098659, 7.35711e-05, -0.00101528, -0.00176993, -0.00347732
0.0260271, 1.69135, -1.22545, -1.53802, -0.899935, -1.19199, 1.22836, -1.30255, 0.00185594, 0.00232396, -0.0112879, 0.00466172, -0.00500579, -0.000542699, -0.00359204, -0.619133, 56.6342, 27.2663, 6.17248, 1.99512, 3.37436, -0.127186, 0.000886102, -0.00165652, 2.05422e-05, 0.0003881, -0.000642024, 0.000255608, 0.0047254, 0.00244953, -0.00203602, -0.0105415, 0.00774965, -0.00502871, 0.471007, -0.543385, 0.335894, -2.08384, -2.16584, -0.12989, 0.46932, -0.542575, 0.336061, -2.08424, -2.16578, -0.128781, -0.00028183, 0.00109222, 8.22592e-05, -0.00263272, -0.0033597, -0.00258772
0.0270271, 1.69136, -1.22546, -1.53803, -0.899933, -1.19202, 1.22836, -1.30254, 0.0019461, -0.000344888, -0.0113829, 0.0049788, -0.00852933, 0.00832742, -0.00115023, -0.658806, 56.6739, 27.2306, 6.09711, 1.9823, 3.39633, -0.160145, 0.000878604, -0.00165885, 2.98593e-05, 0.000410483, -0.000654904, 0.000275497, 0.00678603, 0.00118914, -0.00280709, -0.00463877, 0.0124675, -0.00875907, 0.471007, -0.543384, 0.335894, -2.08384, -2.16584, -0.129891, 0.469318, -0.54258, 0.336051, -2.08426, -2.16575, -0.128742, -0.000309711, 0.0012036, 9.14692e-05, -0.00135598, -0.00511239, -0.00369767
0.0280271, 1.69136, -1.22547, -1.53804, -0.899942, -1.19204, 1.22836, -1.30254, 0.00341336, -0.00346021, -0.00730328, 0.00080156, -0.015947, 0.00633545, -0.000511646, -0.619133, 56.781, 27.1552, 6.20819, 1.97681, 3.39633, -0.166554, 0.000873308, -0.0016597, 3.83028e-05, 0.000434529, -0.000672463, 0.000281368, 0.0057223, -0.000165619, -0.0040122, -0.00873229, 0.0147316, -0.00468174, 0.471007, -0.543383, 0.335894, -2.08384, -2.16584, -0.129891, 0.469316, -0.542583, 0.336042, -2.08426, -2.16575, -0.128698, -0.000339009, 0.00132085, 0.000101215, -0.000113811, -0.00370407, -0.00475361
0.0290271, 1.69136, -1.22546, -1.53805, -0.899945, -1.19208, 1.22836, -1.30254, 0.00369983, -0.000792327, -0.00912294, 0.000594984, -0.0224457, 0.00613395, -0.00202316, -0.543754, 56.8207, 27.1552, 6.20819, 2.00061, 3.36062, -0.120778, 0.000864538, -0.00166319, 3.91827e-05, 0.000455164, -0.000708117, 0.000290204, 0.00704858, 0.000738749, -0.00314082, -0.0134424, 0.0228925, -0.00572546, 0.471006, -0.543382, 0.335894, -2.08384, -2.16584, -0.129892, 0.469313, -0.542591, 0.33604, -2.08427, -2.16575, -0.128639, -0.000369746, 0.00144407, 0.00011151, -0.000968865, -0.00506132, -0.0040615
0.0300271, 1.69136, -1.22547, -1.53806, -0.899948, -1.19211, 1.22836, -1.30255, 0.00420207, -0.00495588, -0.00717541, 0.000442115, -0.0260097, 0.00453021, -0.00157611, -0.468376, 57.0032, 27.1552, 6.20819, 1.98871, 3.36062, -0.114369, 0.000856313, -0.00166554, 4.7191e-05, 0.000479828, -0.000730122, 0.000296427, 0.00744019, 0.000672577, -0.00507283, -0.0152892, 0.020916, -0.00563752, 0.471006, -0.543381, 0.335894, -2.08384, -2.16584, -0.129893, 0.46931, -0.542596, 0.336031, -2.08428, -2.16575, -0.128589, -0.000401943, 0.00157338, 0.000122367, -0.000990711, -0.00501852, -0.00602113
0.0310271, 1.69137, -1.22546, -1.53806, -0.899959, -1.19215, 1.22837, -1.30254, 0.00249883, -0.000824548, -0.00476848, -0.00319764, -0.0289916, 0.00362209, 0.000177481, -0.43267, 56.8921, 27.1195, 6.35895, 1.98871, 3.3533, -0.147328, 0.000853255, -0.00166475, 4.41432e-05, 0.00050347, -0.000773138, 0.000298925, 0.00685437, 0.00094076, -0.00227818, -0.016484, 0.0272894, -0.00570758, 0.471006, -0.54338, 0.335895, -2.08384, -2.16584, -0.129894, 0.469311, -0.542599, 0.336034, -2.08429, -2.16576, -0.12852, -0.00043562, 0.00170887, 0.000133799, -0.00121229, -0.00474582, -0.0031512
0.0320271, 1.69137, -1.22547, -1.53806, -0.899959, -1.19219, 1.22836, -1.30254, 0.000302155, -0.00156703, -0.00696826, -0.000342951, -0.0310655, 0.00215411, 0.00107339, -0.357292, 56.9318, 27.1195, 6.28357, 1.9823, 3.36703, -0.172963, 0.000845148, -0.00166686, 4.69958e-05, 0.000527248, -0.00080514, 0.000312504, 0.00960577, 0.0036567, -0.00309875, -0.0190078, 0.0275033, -0.0129151, 0.471005, -0.543378, 0.335895, -2.08383, -2.16584, -0.129895, 0.469309, -0.542605, 0.33603, -2.0843, -2.16575, -0.128461, -0.000470796, 0.00185063, 0.00014582, -0.00389113, -0.00730515, -0.00429463
0.0330271, 1.69138, -1.22547, -1.53807, -0.899965, -1.19223, 1.22836, -1.30254, 0.00262008, -0.00750203, -0.00620654, -0.00420094, -0.0365807, 0.000808284, -0.000229612, -0.317619, 56.9318, 27.1552, 6.32324, 1.95758, 3.38901, -0.147328, 0.000839926, -0.00166518, 5.06499e-05, 0.000554108, -0.000841408, 0.000314866, 0.00894172, 0.00208893, -0.00707662, -0.024767, 0.0259659, -0.00722426, 0.471005, -0.543376, 0.335895, -2.08383, -2.16584, -0.129896, 0.46931, -0.542608, 0.336025, -2.08431, -2.16576, -0.128395, -0.000507488, 0.00199877, 0.000158442, -0.00252941, -0.00582498, -0.00815403
0.0340271, 1.69138, -1.22547, -1.53807, -0.899965, -1.19223, 1.22836, -1.30254, 0.00262008, -0.00750203, -0.00620654, -0.00420094, -0.0365807, 0.000808284, -0.000229612, -0.317619, 56.9318, 27.1552, 6.32324, 1.95758, 3.38901, -0.147328, 0.00083807, -0.00166479, 5.04976e-05, 0.000553643, -0.000843167, 0.000315679, 0.00909776, 0.00205668, -0.00706449, -0.0247633, 0.0261374, -0.00711645, 0.471004, -0.543375, 0.335895, -2.08383, -2.16584, -0.129898, 0.46931, -0.542608, 0.336025, -2.08431, -2.16576, -0.128395, -0.000545713, 0.00215336, 0.000171677, -0.00252941, -0.00582498, -0.00815403
0.0350271, 1.69141, -1.22546, -1.53807, -0.899966, -1.19233, 1.22836, -1.30254, 0.00475284, -0.00187071, -0.00325124, -0.00618116, -0.048929, -0.000584711, 0.00189441, -0.206535, 56.8207, 27.1552, 6.24786, 1.91546, 3.42471, -0.0951428, 0.000827832, -0.00166294, 4.59241e-05, 0.000603368, -0.000936652, 0.000325151, 0.0088727, 0.00161284, -0.00320401, -0.0299386, 0.0413984, -0.00811142, 0.471004, -0.543373, 0.335895, -2.08383, -2.16584, -0.129899, 0.469312, -0.542616, 0.336028, -2.08434, -2.16578, -0.128246, -0.000585484, 0.00231447, 0.000185536, -0.00199459, -0.00601775, -0.00430671
0.0360271, 1.69142, -1.22546, -1.53807, -0.899977, -1.19239, 1.22836, -1.30253, 0.00518906, -0.00157494, 0.0020965, -0.009631, -0.0499109, -0.000311334, 0.00297544, -0.131157, 56.8207, 27.2306, 6.32324, 1.88434, 3.42471, -0.133595, 0.000822701, -0.00166083, 4.7004e-05, 0.000636753, -0.000986371, 0.000334238, 0.00690549, -0.000311511, -0.00159948, -0.0271634, 0.0427911, -0.00338448, 0.471003, -0.54337, 0.335895, -2.08383, -2.16584, -0.129901, 0.469313, -0.542619, 0.336027, -2.08435, -2.16579, -0.128159, -0.000626814, 0.0024822, 0.000200032, -0.000126481, -0.00407617, -0.00246053
0.0370271, 1.69142, -1.22546, -1.53808, -0.899982, -1.19244, 1.22837, -1.30253, 0.00519155, -0.00296625, -0.000902657, -0.00935722, -0.0501461, -0.000148702, 0.00172517, 0.0949785, 56.8921, 27.3417, 6.28357, 1.84131, 3.42471, -0.120778, 0.000810708, -0.00166355, 5.23217e-05, 0.000669034, -0.00103265, 0.000348217, 0.00798311, 0.000210699, -0.00341283, -0.0297344, 0.0420409, -0.00374883, 0.471003, -0.543368, 0.335896, -2.08382, -2.16584, -0.129903, 0.46931, -0.542628, 0.33602, -2.08437, -2.16579, -0.128077, -0.000669715, 0.00265659, 0.000215176, -0.000717835, -0.00470786, -0.00438747
0.0380271, 1.69143, -1.22547, -1.53807, -0.899987, -1.1925, 1.22837, -1.30254, 0.00809764, -0.00392513, 0.00222028, -0.00619436, -0.051571, 0.00475562, 0.000362869, 0.21003, 56.9675, 27.2306, 6.24786, 1.82941, 3.42471, -0.0951428, 0.000803875, -0.00165927, 5.38613e-05, 0.000692225, -0.00108208, 0.00034697, 0.00804524, -0.00205366, -0.00213667, -0.0224257, 0.0444858, -0.00111273, 0.471002, -0.543365, 0.335896, -2.08382, -2.16584, -0.129904, 0.469314, -0.542631, 0.336017, -2.08438, -2.16581, -0.128003, -0.000714195, 0.00283772, 0.000230977, 0.00154742, -0.00469186, -0.00318946
0.0390271, 1.69144, -1.22547, -1.53807, -0.89999, -1.19256, 1.22837, -1.30254, 0.00462342, -0.00275505, 0.00257591, -0.00606675, -0.056253, 0.00255324, -0.000857145, 0.436165, 56.9675, 27.1909, 6.17248, 1.78638, 3.45309, -0.0621838, 0.000794042, -0.00166077, 5.29882e-05, 0.000720044, -0.00113371, 0.000353702, 0.0103269, 0.000774639, -0.00130026, -0.0255084, 0.0484636, -0.00472773, 0.471001, -0.543363, 0.335896, -2.08382, -2.16584, -0.129906, 0.469312, -0.542639, 0.336017, -2.0844, -2.16582, -0.127921, -0.000760263, 0.00302564, 0.000247448, -0.00121148, -0.00700094, -0.00261605
0.0400271, 1.69145, -1.22547, -1.53807, -0.899992, -1.19263, 1.22837, -1.30254, 0.00919268, -0.00277564, 0.000915028, -0.00215013, -0.0604878, 0.00552579, 0.00046924, 0.626595, 57.0032, 27.2306, 6.0614, 1.76166, 3.48239, -0.0878186, 0.000782937, -0.00166062, 5.66147e-05, 0.000756946, -0.00118987, 0.000368117, 0.0111511, -0.000729356, -0.00131908, -0.025186, 0.0534982, -0.0070538, 0.471001, -0.54336, 0.335896, -2.08381, -2.16584, -0.129908, 0.469312, -0.542646, 0.336012, -2.08442, -2.16582, -0.127824, -0.000807924, 0.0032204, 0.000264596, 0.000271723, -0.00755546, -0.00279078
0.0410271, 1.69146, -1.22548, -1.53807, -0.900001, -1.1927, 1.22837, -1.30253, 0.0126674, -0.00452667, -0.000130868, -0.00817999, -0.0648227, 0.00403865, 0.000652519, 0.813057, 57.1143, 27.2663, 6.0614, 1.76807, 3.48971, -0.0951428, 0.000772306, -0.00165992, 6.38398e-05, 0.000797272, -0.00124291, 0.000379133, 0.00911397, -0.00315578, -0.00385149, -0.0329561, 0.0554974, -0.000318031, 0.471, -0.543357, 0.335896, -2.08381, -2.16584, -0.129911, 0.469312, -0.542652, 0.336003, -2.08443, -2.16582, -0.127726, -0.000857184, 0.00342203, 0.000282433, 0.00248147, -0.00485349, -0.00503042
0.0420271, 1.69148, -1.22548, -1.53807, -0.90001, -1.19277, 1.22837, -1.30253, 0.0154341, -0.00483936, -0.000944517, -0.00854275, -0.06696, 0.00762159, -2.22943e-05, 1.00349, 57.1896, 27.306, 6.02173, 1.75525, 3.49612, -0.0814099, 0.000763347, -0.00165596, 6.87624e-05, 0.000835453, -0.0013028, 0.000381239, 0.00898385, -0.00510961, -0.00418681, -0.0321675, 0.0591082, 0.0024499, 0.470999, -0.543353, 0.335897, -2.08381, -2.16584, -0.129913, 0.469315, -0.542657, 0.335997, -2.08444, -2.16584, -0.127625, -0.000908043, 0.00363059, 0.000300968, 0.00436515, -0.00438487, -0.00538171
0.0430271, 1.6915, -1.22548, -1.53807, -0.90001, -1.19285, 1.22837, -1.30253, 0.0177318, -0.000218165, 0.000351403, -0.00637001, -0.0751552, 0.00555336, 0.000260985, 1.18995, 57.1896, 27.2663, 5.87494, 1.78638, 3.50345, -0.0878186, 0.000752406, -0.00165422, 6.803e-05, 0.000869054, -0.00136891, 0.000392123, 0.00952123, -0.00479977, -0.000994867, -0.0355756, 0.0694335, 0.000471722, 0.470998, -0.54335, 0.335897, -2.0838, -2.16584, -0.129916, 0.469317, -0.542664, 0.335996, -2.08446, -2.16585, -0.127522, -0.000960503, 0.00384608, 0.000320207, 0.00413774, -0.00520396, -0.0022848
0.0440271, 1.69152, -1.22548, -1.53807, -0.900015, -1.19292, 1.22837, -1.30253, 0.0210424, -0.000759159, 0.00110928, -0.00738766, -0.0752857, 0.00425992, -0.00050922, 1.305, 57.2253, 27.2306, 5.83527, 1.78638, 3.50345, -0.0685925, 0.000746204, -0.00164703, 7.00568e-05, 0.000905009, -0.00143022, 0.000387751, 0.00775952, -0.00682241, -0.00145574, -0.0371307, 0.06875, 0.005885, 0.470997, -0.543346, 0.335897, -2.0838, -2.16584, -0.129919, 0.469323, -0.542666, 0.335994, -2.08447, -2.16588, -0.127423, -0.00101456, 0.00406854, 0.000340161, 0.00602405, -0.00308853, -0.00250744
0.0450271, 1.69154, -1.22549, -1.53808, -0.900014, -1.193, 1.22837, -1.30253, 0.0218721, -0.00201042, -0.000993869, -0.00563647, -0.0802568, 0.00847866, -0.000317829, 1.49146, 57.2968, 27.306, 5.68848, 1.79187, 3.48971, -0.0685925, 0.000730993, -0.00164705, 7.7096e-05, 0.000948253, -0.00149321, 0.000407661, 0.010122, -0.00680819, -0.00234486, -0.0370075, 0.0739211, 0.00248306, 0.470996, -0.543342, 0.335898, -2.08379, -2.16583, -0.129921, 0.469322, -0.542676, 0.335985, -2.08449, -2.16587, -0.127312, -0.00107022, 0.00429798, 0.000360835, 0.00600662, -0.00505503, -0.00373105
0.0460271, 1.69156, -1.22549, -1.53807, -0.90001, -1.19308, 1.22837, -1.30253, 0.0273735, -0.000380464, 0.00205106, -0.0012346, -0.0836207, 0.00530763, 4.17103e-05, 1.60651, 57.261, 27.1909, 5.53772, 1.78638, 3.5181, -0.0750012, 0.000723499, -0.00164009, 7.18697e-05, 0.000977905, -0.00156648, 0.00041154, 0.00876829, -0.00850646, -0.000246254, -0.0372779, 0.0765753, 0.00417077, 0.470995, -0.543338, 0.335898, -2.08379, -2.16583, -0.129925, 0.469329, -0.54268, 0.335989, -2.08452, -2.1659, -0.127208, -0.00112746, 0.0045344, 0.000382238, 0.00767282, -0.0037358, -0.00147853
0.0470271, 1.69158, -1.22549, -1.53807, -0.900013, -1.19316, 1.22838, -1.30253, 0.0263202, -0.000995415, -0.00130709, -0.00390341, -0.0866991, 0.00328828, 0.000277344, 1.79694, 57.2968, 27.306, 5.50201, 1.79828, 3.53915, -0.0814099, 0.000710011, -0.00163742, 7.65706e-05, 0.00102594, -0.0016412, 0.000424292, 0.00984912, -0.00726599, -0.00226906, -0.0445488, 0.0781753, 0.00275693, 0.470994, -0.543333, 0.335898, -2.08379, -2.16583, -0.129928, 0.46933, -0.542688, 0.335982, -2.08454, -2.16591, -0.127081, -0.00118629, 0.0047778, 0.000404375, 0.00634075, -0.00429873, -0.0035842
0.0480271, 1.69161, -1.2255, -1.53807, -0.900011, -1.19325, 1.22838, -1.30253, 0.0296086, -0.00319198, -0.000858804, -0.00166705, -0.0885298, 0.00123317, -0.00150139, 1.9477, 57.4078, 27.306, 5.42664, 1.79187, 3.57577, -0.0356336, 0.000697982, -0.00163243, 8.15882e-05, 0.00106725, -0.00170853, 0.00042709, 0.00956925, -0.00819897, -0.0034234, -0.0464144, 0.0766193, 0.00563601, 0.470993, -0.543328, 0.335899, -2.08378, -2.16583, -0.129931, 0.469335, -0.542694, 0.335976, -2.08455, -2.16593, -0.12697, -0.00124669, 0.00502817, 0.000427252, 0.00716044, -0.0035561, -0.00468584
0.0490271, 1.69162, -1.2255, -1.53808, -0.900009, -1.19333, 1.22838, -1.30253, 0.0273556, -0.00124021, -0.00316155, -0.000804354, -0.0897114, 0.0011201, -0.00123144, 2.17384, 57.3721, 27.417, 5.38696, 1.77997, 3.57577, -0.0292249, 0.000681531, -0.00163279, 8.42487e-05, 0.00111271, -0.00178467, 0.000445293, 0.011601, -0.00619961, -0.00284341, -0.0481429, 0.0797634, 0.00102198, 0.470992, -0.543323, 0.335899, -2.08377, -2.16583, -0.129935, 0.469333, -0.542705, 0.335971, -2.08458, -2.16593, -0.126844, -0.00130866, 0.00528549, 0.000450875, 0.00519536, -0.0054757, -0.00434476
0.0500271, 1.69165, -1.2255, -1.53808, -0.90001, -1.19342, 1.22838, -1.30253, 0.0221375, -0.000787382, -0.000337378, -0.00193001, -0.0855988, 0.000970228, 0.000167524, 2.28492, 57.3721, 27.3417, 5.42664, 1.76807, 3.57577, -0.0557752, 0.000672263, -0.00162439, 8.35749e-05, 0.00114768, -0.00186082, 0.000452301, 0.0123891, -0.00450047, -0.00145308, -0.0435681, 0.0768218, -0.00163232, 0.47099, -0.543318, 0.3359, -2.08377, -2.16583, -0.129939, 0.469341, -0.542708, 0.33597, -2.0846, -2.16595, -0.126731, -0.00137217, 0.00554973, 0.000475247, 0.00351334, -0.00627312, -0.00301877
0.0510271, 1.69167, -1.2255, -1.53807, -0.900005, -1.19351, 1.22838, -1.30253, 0.0257454, -0.00225859, 0.000615611, 0.000127245, -0.0823239, 0.000577079, 0.00106497, 2.47535, 57.4475, 27.306, 5.35126, 1.74335, 3.58218, -0.0814099, 0.00065568, -0.00162318, 8.56209e-05, 0.00118614, -0.00193439, 0.000470328, 0.0109234, -0.0066114, -0.00189952, -0.0412409, 0.0726461, 0.00100144, 0.470989, -0.543313, 0.3359, -2.08376, -2.16583, -0.129943, 0.469341, -0.542719, 0.335966, -2.08463, -2.16596, -0.126616, -0.00143722, 0.00582086, 0.000500373, 0.00548794, -0.00439974, -0.00327058
0.0520271, 1.69169, -1.2255, -1.53808, -0.900003, -1.19361, 1.22838, -1.30253, 0.0229767, -0.00148355, -0.00125604, 0.00208248, -0.0859211, -0.000303368, -0.00098255, 2.62611, 57.4475, 27.3774, 5.38696, 1.75525, 3.60415, -0.0356336, 0.000638344, -0.00162271, 8.7986e-05, 0.00123941, -0.00202095, 0.000486346, 0.0139491, -0.00376663, -0.00174398, -0.0438845, 0.0760964, -0.00333094, 0.470987, -0.543307, 0.335901, -2.08376, -2.16583, -0.129947, 0.469341, -0.54273, 0.335962, -2.08465, -2.16597, -0.126471, -0.00150377, 0.00609884, 0.000526256, 0.00269423, -0.00724929, -0.00347525
0.0530271, 1.69171, -1.2255, -1.53807, -0.899996, -1.1937, 1.22838, -1.30253, 0.0217565, -0.000972404, 0.00176408, 0.00228495, -0.0920502, -0.000887853, -0.0016023, 2.73719, 57.4475, 27.2663, 5.35126, 1.73053, 3.62521, -0.00999879, 0.000622503, -0.00161978, 8.49428e-05, 0.00127579, -0.00210634, 0.000499312, 0.015312, -0.0028177, -0.000307845, -0.0442658, 0.081397, -0.00451436, 0.470986, -0.543301, 0.335901, -2.08375, -2.16583, -0.129951, 0.469343, -0.542739, 0.335963, -2.08469, -2.16599, -0.126347, -0.00157182, 0.00638361, 0.000552899, 0.00177916, -0.00856996, -0.00221365
0.0540271, 1.69173, -1.2255, -1.53808, -0.899993, -1.19381, 1.22838, -1.30253, 0.024511, -0.00147101, 0.000250275, 0.00156936, -0.0975076, -0.00106372, -0.000591857, 2.81654, 57.4832, 27.306, 5.35126, 1.73053, 3.63986, -0.0228162, 0.000602895, -0.00161973, 8.83298e-05, 0.00132903, -0.00219517, 0.000522586, 0.0155965, -0.00367766, -0.00137114, -0.0490741, 0.08585, -0.00453239, 0.470984, -0.543294, 0.335902, -2.08374, -2.16583, -0.129956, 0.469342, -0.542752, 0.335957, -2.08472, -2.16599, -0.1262, -0.00164135, 0.0066751, 0.000580303, 0.00254029, -0.00836034, -0.00330635
0.0550271, 1.69175, -1.22551, -1.53808, -0.899993, -1.19391, 1.22838, -1.30253, 0.0235561, -0.00180654, 0.000168531, -0.000682452, -0.0996731, -0.000656113, 0.00106471, 2.89191, 57.5189, 27.306, 5.42664, 1.6875, 3.63986, -0.0621838, 0.000583545, -0.00161957, 9.04225e-05, 0.00137866, -0.00228429, 0.000546577, 0.0161745, -0.00352685, -0.00179933, -0.0507336, 0.0879953, -0.00571877, 0.470983, -0.543288, 0.335902, -2.08374, -2.16583, -0.12996, 0.469341, -0.542764, 0.335952, -2.08476, -2.166, -0.126057, -0.00171231, 0.00697325, 0.000608468, 0.00232397, -0.00857293, -0.00378629
0.0560271, 1.69178, -1.2255, -1.53808, -0.899989, -1.19402, 1.22838, -1.30253, 0.0223803, -0.000362125, 0.000113615, 0.00272401, -0.102224, -0.000668899, 0.000202095, 2.85224, 57.4832, 27.306, 5.42664, 1.6756, 3.64718, -0.0484509, 0.000566553, -0.00161579, 8.94201e-05, 0.00143021, -0.00238217, 0.00056052, 0.0183903, -0.00184005, -0.000411558, -0.0500442, 0.0915163, -0.00970229, 0.470981, -0.543281, 0.335903, -2.08373, -2.16582, -0.129965, 0.469344, -0.542774, 0.335951, -2.08479, -2.16602, -0.125904, -0.00178469, 0.00727797, 0.000637396, 0.000696472, -0.0107386, -0.00268043
0.0570271, 1.6918, -1.22551, -1.53808, -0.89998, -1.19413, 1.22838, -1.30253, 0.0225224, -0.00107137, -0.00159375, 0.00386143, -0.105297, 0.000126435, -0.00105138, 2.89191, 57.5189, 27.3774, 5.35126, 1.6756, 3.63254, -0.0164075, 0.000541151, -0.00161881, 9.2185e-05, 0.00148121, -0.00247793, 0.00058892, 0.0200928, -0.00123876, -0.00118671, -0.0518029, 0.0940739, -0.0109333, 0.470979, -0.543273, 0.335904, -2.08372, -2.16582, -0.129971, 0.46934, -0.542791, 0.335945, -2.08483, -2.16602, -0.125753, -0.00185846, 0.00758918, 0.000667086, 5.51932e-05, -0.0120133, -0.00366253
0.0580271, 1.69182, -1.2255, -1.53808, -0.899977, -1.19425, 1.22838, -1.30253, 0.0212583, 0.00188815, 0.000608647, 0.00278593, -0.107233, -0.00043587, -0.000463046, 2.85224, 57.4078, 27.306, 5.35126, 1.66919, 3.64718, -0.0228162, 0.000521207, -0.0016183, 8.57345e-05, 0.00153311, -0.00258948, 0.00061441, 0.0202394, -0.000844806, 0.00122573, -0.0513176, 0.0985927, -0.0112602, 0.470977, -0.543266, 0.335904, -2.08371, -2.16582, -0.129976, 0.469339, -0.542804, 0.335949, -2.08488, -2.16604, -0.125585, -0.00193359, 0.00790677, 0.000697537, -0.000320905, -0.0122281, -0.00126105
0.0590271, 1.69185, -1.2255, -1.53808, -0.899976, -1.19437, 1.22838, -1.30252, 0.0217459, 0.00126173, 0.000406296, 0.00431666, -0.109612, -0.000545067, 0.00138711, 2.73719, 57.4078, 27.306, 5.38696, 1.69391, 3.65451, -0.0685925, 0.000500813, -0.00161479, 8.6086e-05, 0.00158992, -0.00269915, 0.000635335, 0.0213646, -0.000527775, 0.000989716, -0.0520762, 0.100111, -0.0146356, 0.470975, -0.543258, 0.335905, -2.0837, -2.16582, -0.129982, 0.469342, -0.542816, 0.335946, -2.08492, -2.16605, -0.125414, -0.00201003, 0.00823062, 0.000728745, -0.000682139, -0.0129916, -0.00162824
0.0600271, 1.69187, -1.2255, -1.53808, -0.899971, -1.19449, 1.22838, -1.30252, 0.0192114, 0.000843373, -0.000563955, 0.00409336, -0.115111, -0.000350792, 0.000925029, 2.73719, 57.4078, 27.3417, 5.35126, 1.69391, 3.65451, -0.0685925, 0.000474393, -0.00161914, 8.653e-05, 0.00164752, -0.00280421, 0.000667742, 0.0241073, 0.00152773, 0.000549173, -0.0550493, 0.104659, -0.018565, 0.470973, -0.54325, 0.335906, -2.08369, -2.16582, -0.129988, 0.469336, -0.542834, 0.335943, -2.08497, -2.16605, -0.125246, -0.00208776, 0.00856062, 0.000760709, -0.00273033, -0.0153857, -0.00239548
0.0610271, 1.69189, -1.22549, -1.53808, -0.899975, -1.19461, 1.22838, -1.30252, 0.0222653, 0.00316237, -0.00121089, 0.00436392, -0.11954, -0.000224422, 0.000854262, 2.66181, 57.2968, 27.3774, 5.42664, 1.69391, 3.65451, -0.0750012, 0.000452257, -0.00161826, 8.36075e-05, 0.00170729, -0.0029233, 0.000692669, 0.0239745, 0.000440278, 0.00159981, -0.0576939, 0.11114, -0.0173304, 0.470971, -0.543241, 0.335906, -2.08369, -2.16582, -0.129994, 0.469336, -0.542848, 0.335943, -2.08501, -2.16607, -0.125062, -0.00216672, 0.00889664, 0.000793423, -0.00168996, -0.0150358, -0.00133773
0.0620271, 1.69191, -1.22549, -1.53808, -0.899967, -1.19474, 1.22839, -1.30252, 0.0182529, 0.0021095, 0.000863401, 0.00753223, -0.122709, 0.000399999, -0.000413674, 2.58643, 57.2968, 27.306, 5.38696, 1.69391, 3.63986, -0.0484509, 0.000425989, -0.00161906, 8.22128e-05, 0.00175761, -0.00303468, 0.000720158, 0.0273989, 0.00319387, 0.00244994, -0.0547612, 0.112826, -0.0226164, 0.470969, -0.543232, 0.335907, -2.08368, -2.16582, -0.13, 0.469334, -0.542865, 0.335941, -2.08506, -2.16608, -0.124897, -0.0022469, 0.00923859, 0.000826888, -0.00436669, -0.0183183, -0.00091395
0.0630271, 1.69193, -1.2255, -1.53808, -0.899966, -1.19486, 1.22839, -1.30253, 0.0142385, -0.000355971, -0.000259449, 0.00564498, -0.123404, 0.00105187, -0.00197108, 2.55073, 57.3721, 27.3417, 5.38696, 1.65088, 3.6188, -0.00267457, 0.000399491, -0.00161973, 8.64897e-05, 0.00181574, -0.00314089, 0.000742991, 0.0296478, 0.00506954, 0.000637362, -0.0559689, 0.111756, -0.023866, 0.470967, -0.543223, 0.335908, -2.08367, -2.16581, -0.130006, 0.469332, -0.542882, 0.335934, -2.0851, -2.16609, -0.124729, -0.00232828, 0.00958644, 0.000861108, -0.00630616, -0.0199882, -0.0029625
0.0640271, 1.69195, -1.22549, -1.53807, -0.899971, -1.195, 1.22839, -1.30252, 0.0143886, 0.00236184, 0.0015904, 0.00153968, -0.125277, -7.46652e-05, 0.000381458, 2.51106, 57.261, 27.2663, 5.50201, 1.63898, 3.63986, -0.0484509, 0.00037554, -0.0016204, 8.13354e-05, 0.00187795, -0.00326706, 0.000771005, 0.0283312, 0.00413946, 0.00224137, -0.0579208, 0.116079, -0.0220321, 0.470965, -0.543213, 0.335909, -2.08366, -2.16581, -0.130013, 0.46933, -0.542897, 0.335936, -2.08515, -2.16611, -0.124536, -0.00241084, 0.00994017, 0.000896084, -0.00544892, -0.0185437, -0.0011675
0.0650271, 1.69197, -1.22548, -1.53808, -0.899966, -1.19513, 1.22839, -1.30252, 0.0193795, 0.00417355, 0.00013234, 0.00540594, -0.126824, -4.67902e-05, 0.000525642, 2.39997, 57.15, 27.306, 5.46234, 1.62616, 3.63986, -0.0557752, 0.000347938, -0.00162122, 7.71287e-05, 0.0019373, -0.00339527, 0.00080358, 0.0280641, 0.0025919, 0.00309443, -0.0586481, 0.119463, -0.0216471, 0.470962, -0.543204, 0.33591, -2.08365, -2.16581, -0.13002, 0.469328, -0.542915, 0.335937, -2.08521, -2.16612, -0.124343, -0.00249458, 0.0102997, 0.000931821, -0.00396571, -0.0179884, -0.000294896
0.0660271, 1.692, -1.22548, -1.53808, -0.899973, -1.19526, 1.22839, -1.30252, 0.0201016, 0.00278276, 8.82977e-05, 0.00143413, -0.127887, -2.89535e-05, 0.000350479, 2.28492, 57.15, 27.306, 5.57739, 1.61426, 3.63986, -0.0557752, 0.000325702, -0.00161726, 7.72888e-05, 0.00200131, -0.00351546, 0.000819448, 0.0272905, 0.00132589, 0.00170233, -0.0612561, 0.119735, -0.0173909, 0.47096, -0.543193, 0.335911, -2.08363, -2.16581, -0.130028, 0.46933, -0.542926, 0.335934, -2.08524, -2.16615, -0.124156, -0.00257947, 0.0106651, 0.000968322, -0.00286417, -0.0165929, -0.00155122
0.0670271, 1.69202, -1.22548, -1.53807, -0.89997, -1.19539, 1.22839, -1.30253, 0.0176419, 0.00185547, 0.000986938, 0.00227518, -0.128507, -0.000560157, -0.00146173, 2.28492, 57.15, 27.2663, 5.53772, 1.59595, 3.65451, -0.00999879, 0.000296883, -0.00161916, 7.53858e-05, 0.0020568, -0.00363474, 0.000845705, 0.0289751, 0.00281609, 0.00170301, -0.0605018, 0.119249, -0.0182592, 0.470957, -0.543183, 0.335912, -2.08362, -2.16581, -0.130035, 0.469327, -0.542944, 0.335932, -2.08529, -2.16616, -0.123978, -0.00266552, 0.0110363, 0.00100559, -0.00437796, -0.0179459, -0.00173036
0.0680271, 1.69205, -1.22547, -1.53807, -0.899969, -1.19553, 1.22839, -1.30252, 0.0218329, 0.00383566, 0.000657999, 0.00181009, -0.12424, 0.000170357, -0.000262381, 2.17384, 57.0389, 27.2663, 5.53772, 1.58954, 3.63986, -0.0292249, 0.000273012, -0.00161592, 7.12824e-05, 0.00211989, -0.00376294, 0.000868897, 0.026469, -0.000234616, 0.00255313, -0.0588385, 0.118694, -0.0134234, 0.470954, -0.543172, 0.335913, -2.08361, -2.1658, -0.130043, 0.469328, -0.542957, 0.335933, -2.08534, -2.16618, -0.123783, -0.00275269, 0.0114132, 0.00104363, -0.00147734, -0.0151009, -0.000555821
0.0690271, 1.69207, -1.22547, -1.53807, -0.89997, -1.19566, 1.2284, -1.30253, 0.0231937, 0.00506293, 0.00127391, 0.000498689, -0.13218, 0.000385783, -0.000649617, 2.13416, 56.9318, 27.2306, 5.57739, 1.61426, 3.63254, -0.0164075, 0.000245961, -0.00161489, 6.72209e-05, 0.00217728, -0.00389087, 0.000893207, 0.0272111, -0.000595671, 0.00329383, -0.0625112, 0.127062, -0.0126837, 0.470952, -0.54316, 0.335914, -2.0836, -2.1658, -0.130051, 0.469328, -0.542973, 0.335934, -2.08538, -2.16621, -0.123595, -0.00284098, 0.0117958, 0.00108244, -0.00115154, -0.0155502, 8.78327e-05
0.0700271, 1.6921, -1.22547, -1.53807, -0.899971, -1.19579, 1.2284, -1.30252, 0.0218452, 0.00337541, 0.00261254, 0.000497443, -0.132379, 0.000766524, 0.00173708, 2.05878, 56.9318, 27.1552, 5.57739, 1.62067, 3.6188, -0.0750012, 0.000221308, -0.0016105, 6.61735e-05, 0.00223305, -0.00401005, 0.000921496, 0.0281625, -0.000226641, 0.00290837, -0.0610058, 0.126028, -0.0155365, 0.470949, -0.543148, 0.335915, -2.08359, -2.1658, -0.130059, 0.46933, -0.542986, 0.335932, -2.08543, -2.16622, -0.123418, -0.00293038, 0.0121842, 0.00112203, -0.00158918, -0.0160567, -0.000390209
0.0710271, 1.69213, -1.22546, -1.53807, -0.899965, -1.19592, 1.2284, -1.30252, 0.0229875, 0.00484882, -0.000856748, 0.0022186, -0.127487, 0.000511548, -0.000299998, 2.02308, 56.8207, 27.2663, 5.50201, 1.61426, 3.6188, -0.0356336, 0.000193752, -0.00160903, 6.3248e-05, 0.00229496, -0.00413542, 0.000943918, 0.0281515, -0.000425503, 0.00272603, -0.0611957, 0.123897, -0.0136721, 0.470946, -0.543136, 0.335916, -2.08357, -2.1658, -0.130068, 0.46933, -0.543001, 0.335932, -2.08547, -2.16624, -0.123228, -0.00302087, 0.0125781, 0.0011624, -0.00148792, -0.0156156, -0.000534505
0.0720271, 1.69216, -1.22546, -1.53807, -0.899971, -1.19605, 1.2284, -1.30252, 0.0254787, 0.00416064, -0.000571153, -0.000191364, -0.124749, 0.00558094, -0.00114943, 1.9477, 56.781, 27.2663, 5.57739, 1.63257, 3.60415, -0.00999879, 0.000171131, -0.00160041, 6.46216e-05, 0.00235813, -0.00425982, 0.000954724, 0.0267269, -0.00373949, 0.00242861, -0.0568232, 0.124186, -0.00690723, 0.470943, -0.543124, 0.335917, -2.08356, -2.16579, -0.130077, 0.469336, -0.54301, 0.335928, -2.0855, -2.16627, -0.12304, -0.00311245, 0.0129778, 0.00120355, 0.0016685, -0.0136278, -0.000665952
0.0730271, 1.69219, -1.22546, -1.53807, -0.899966, -1.19618, 1.2284, -1.30252, 0.024121, 0.00101057, 0.000454459, 0.00263328, -0.131082, 0.00411234, -0.00103754, 1.98341, 56.8564, 27.2306, 5.46234, 1.63257, 3.60415, -0.00267457, 0.000142567, -0.00159758, 6.57808e-05, 0.00241571, -0.00437758, 0.000980731, 0.0297629, -0.00167632, 0.0013093, -0.0588381, 0.125587, -0.0121465, 0.47094, -0.543111, 0.335918, -2.08355, -2.16579, -0.130086, 0.469337, -0.543025, 0.335924, -2.08555, -2.16629, -0.122863, -0.00320508, 0.013383, 0.00124549, -0.000416095, -0.0161317, -0.00213922
0.0740271, 1.69222, -1.22545, -1.53807, -0.899965, -1.19631, 1.2284, -1.30252, 0.0232966, 0.00410743, -0.000532238, 0.00180772, -0.1307, 0.00303535, -0.000183065, 2.02308, 56.7096, 27.2663, 5.46234, 1.63257, 3.60415, -0.0164075, 0.000117913, -0.001592, 6.08423e-05, 0.00247843, -0.00450907, 0.000998856, 0.0300221, -0.00109186, 0.00264354, -0.0604309, 0.128385, -0.0132299, 0.470937, -0.543097, 0.33592, -2.08353, -2.16579, -0.130095, 0.46934, -0.543037, 0.335926, -2.08558, -2.16631, -0.122667, -0.00329877, 0.0137938, 0.00128822, -0.00103576, -0.0162065, -0.000802144
0.0750271, 1.69225, -1.22546, -1.53807, -0.899967, -1.19645, 1.22841, -1.30252, 0.0250162, 0.0019031, 0.000480398, 0.000316282, -0.131024, 0.00251517, 0.0020481, 2.09846, 56.7453, 27.2306, 5.50201, 1.63257, 3.59683, -0.0750012, 9.19509e-05, -0.00158469, 6.1899e-05, 0.00253858, -0.00463429, 0.00102388, 0.0292477, -0.0025569, 0.00139193, -0.0612681, 0.126774, -0.0117666, 0.470933, -0.543083, 0.335921, -2.08352, -2.16579, -0.130105, 0.469345, -0.543048, 0.335922, -2.08563, -2.16633, -0.12248, -0.00339351, 0.0142102, 0.00133174, 0.000259748, -0.0147724, -0.00191865
0.0760271, 1.69229, -1.22545, -1.53807, -0.899967, -1.19658, 1.22841, -1.30252, 0.0283052, 0.00293919, 0.00124829, 0.000240218, -0.135563, 0.00157077, -0.0010421, 2.09846, 56.6739, 27.1909, 5.50201, 1.62067, 3.60415, -0.00999879, 6.90766e-05, -0.00157509, 5.87541e-05, 0.00259961, -0.00476328, 0.00102947, 0.0287326, -0.00393223, 0.00204044, -0.0639563, 0.13157, -0.00626333, 0.47093, -0.543069, 0.335922, -2.0835, -2.16578, -0.130115, 0.469352, -0.543057, 0.335922, -2.08565, -2.16637, -0.122291, -0.00348927, 0.0146321, 0.00137605, 0.00154268, -0.0138855, -0.00119584
0.0770271, 1.69233, -1.22545, -1.53807, -0.899964, -1.19672, 1.22841, -1.30252, 0.0322281, 0.00195948, 0.000832196, 0.00111019, -0.134233, 0.00144239, -0.00167807, 2.17384, 56.6739, 27.1909, 5.46234, 1.60785, 3.59683, 0.0165515, 4.23843e-05, -0.00156642, 5.99591e-05, 0.0026598, -0.00488965, 0.00104431, 0.0275849, -0.00609203, 0.00124731, -0.0640523, 0.129976, -0.00197158, 0.470926, -0.543055, 0.335924, -2.08349, -2.16578, -0.130125, 0.469358, -0.543068, 0.335918, -2.08568, -2.1664, -0.122104, -0.00358604, 0.0150594, 0.00142116, 0.00353317, -0.0121141, -0.00182099
0.0780271, 1.69237, -1.22545, -1.53807, -0.899964, -1.19686, 1.22841, -1.30252, 0.0328973, 0.00223435, 0.000554799, 0.000756642, -0.139013, 0.00105455, -0.000881354, 2.20954, 56.6342, 27.1909, 5.46234, 1.62616, 3.59683, 0.0101428, 1.80404e-05, -0.00155585, 5.83663e-05, 0.0027261, -0.005025, 0.00105776, 0.0285578, -0.00596425, 0.00122824, -0.067066, 0.134514, -0.00326133, 0.470923, -0.543039, 0.335925, -2.08347, -2.16578, -0.130135, 0.469366, -0.543077, 0.335917, -2.08572, -2.16644, -0.121903, -0.00368381, 0.0154923, 0.00146708, 0.00334218, -0.0126439, -0.00194179
0.0790271, 1.69237, -1.22545, -1.53807, -0.899964, -1.19686, 1.22841, -1.30252, 0.0328973, 0.00223435, 0.000554799, 0.000756642, -0.139013, 0.00105455, -0.000881354, 2.20954, 56.6342, 27.1909, 5.46234, 1.62616, 3.59683, 0.0101428, 2.39503e-06, -0.00155276, 5.72977e-05, 0.00272191, -0.00503958, 0.00106424, 0.0290013, -0.00604611, 0.00125373, -0.0670353, 0.134986, -0.00297713, 0.470919, -0.543024, 0.335926, -2.08345, -2.16578, -0.130146, 0.469366, -0.543077, 0.335917, -2.08572, -2.16644, -0.121903, -0.00378258, 0.0159305, 0.0015138, 0.00334218, -0.0126439, -0.00194179
0.0800271, 1.69237, -1.22545, -1.53807, -0.899964, -1.19686, 1.22841, -1.30252, 0.0328973, 0.00223435, 0.000554799, 0.000756642, -0.139013, 0.00105455, -0.000881354, 2.20954, 56.6342, 27.1909, 5.46234, 1.62616, 3.59683, 0.0101428, -1.36936e-05, -0.00154959, 5.62039e-05, 0.00271759, -0.00505456, 0.0010709, 0.0294503, -0.00612873, 0.00127932, -0.0670036, 0.135464, -0.00268994, 0.470915, -0.543008, 0.335928, -2.08344, -2.16577, -0.130157, 0.469366, -0.543077, 0.335917, -2.08572, -2.16644, -0.121903, -0.00388232, 0.0163742, 0.00156132, 0.00334218, -0.0126439, -0.00194179
0.0810271, 1.69242, -1.22545, -1.53807, -0.899964, -1.197, 1.22842, -1.30252, 0.035043, 0.00232479, 0.00120509, 0.000516816, -0.136288, 0.00104401, 0.00158257, 2.17384, 56.5985, 27.1552, 5.46234, 1.59595, 3.58951, -0.0484509, -3.65869e-05, -0.00153537, 5.53996e-05, 0.00278322, -0.00518854, 0.00108434, 0.0281965, -0.00788945, 0.00144154, -0.0655659, 0.133853, -0.0013089, 0.470911, -0.542992, 0.335929, -2.08342, -2.16577, -0.130169, 0.469366, -0.543077, 0.335917, -2.08572, -2.16644, -0.121903, -0.00398302, 0.0168232, 0.00160966, 0.00496095, -0.0109098, -0.0015919
0.0820271, 1.69255, -1.22545, -1.53807, -0.899956, -1.19742, 1.22842, -1.30252, 0.0416634, 0.000431055, -0.000199748, 0.00199224, -0.142621, 0.00295438, -0.000631229, 2.3603, 56.6342, 27.1909, 5.35126, 1.61426, 3.59683, -0.0292249, -8.23944e-05, -0.00150763, 6.23691e-05, 0.00298796, -0.00554846, 0.00110911, 0.0280783, -0.0107846, -9.82416e-05, -0.068511, 0.138763, 0.00368533, 0.470907, -0.542975, 0.335931, -2.0834, -2.16577, -0.13018, 0.469402, -0.543109, 0.335902, -2.08583, -2.16656, -0.12112, -0.00408468, 0.0172776, 0.00165881, 0.00769089, -0.00998205, -0.00313262
0.0830271, 1.69259, -1.22545, -1.53807, -0.899954, -1.19757, 1.22842, -1.30252, 0.0439653, 0.00112259, -0.000133165, 0.0021673, -0.140606, 0.00275306, -0.00164152, 2.3603, 56.5985, 27.1909, 5.31555, 1.62616, 3.58218, 0.00373412, -0.00010891, -0.00149377, 6.12294e-05, 0.00305295, -0.00569146, 0.00111734, 0.0270736, -0.0123131, 0.000244619, -0.0678634, 0.13825, 0.00780702, 0.470903, -0.542958, 0.335933, -2.08338, -2.16576, -0.130192, 0.469413, -0.543117, 0.3359, -2.08586, -2.16661, -0.120914, -0.00418727, 0.0177373, 0.00170878, 0.00909128, -0.00852047, -0.00263448
0.0840271, 1.69264, -1.22545, -1.53807, -0.899949, -1.19771, 1.22843, -1.30252, 0.0448379, -0.00101484, 0.000746442, 0.00321104, -0.143078, 0.00201607, 0.000601073, 2.39997, 56.6739, 27.1552, 5.24017, 1.62616, 3.58218, -0.0420422, -0.000136184, -0.00148055, 6.36934e-05, 0.00311716, -0.00582258, 0.00113514, 0.0278988, -0.0124354, -0.000633844, -0.0686563, 0.138163, 0.00544135, 0.470899, -0.54294, 0.335934, -2.08336, -2.16576, -0.130204, 0.469423, -0.543125, 0.335895, -2.08589, -2.16663, -0.12072, -0.00429078, 0.0182023, 0.00175956, 0.00910785, -0.00872928, -0.00358365
0.0850271, 1.69269, -1.22545, -1.53807, -0.899946, -1.19785, 1.22843, -1.30252, 0.0454741, 0.000251461, 0.000497628, 0.00307092, -0.141191, 0.00253074, 0.000638075, 2.43568, 56.6342, 27.1552, 5.2005, 1.64447, 3.5538, -0.0484509, -0.000162359, -0.00146602, 6.24625e-05, 0.00318135, -0.00596248, 0.00114625, 0.0276613, -0.0131508, 4.28038e-05, -0.0675628, 0.13869, 0.00694887, 0.470895, -0.542922, 0.335936, -2.08334, -2.16576, -0.130217, 0.469434, -0.543133, 0.335894, -2.08592, -2.16667, -0.120518, -0.00439521, 0.0186725, 0.00181117, 0.00973414, -0.00809947, -0.00284915
0.0860271, 1.69274, -1.22546, -1.53807, -0.899941, -1.198, 1.22843, -1.30252, 0.0460063, -0.0015956, 0.000331752, 0.00204893, -0.148027, 0.0017888, 0.000696651, 2.47535, 56.7096, 27.1552, 5.2005, 1.64447, 3.5538, -0.0557752, -0.000190984, -0.0014519, 6.70224e-05, 0.00324722, -0.00609494, 0.00115974, 0.0290901, -0.0128636, -0.00129642, -0.0722117, 0.142715, 0.00627338, 0.47089, -0.542903, 0.335938, -2.08332, -2.16575, -0.13023, 0.469445, -0.543141, 0.335886, -2.08595, -2.1667, -0.120322, -0.00450054, 0.019148, 0.0018636, 0.00934497, -0.00883927, -0.00433324
0.0870271, 1.69279, -1.22546, -1.53806, -0.89994, -1.19814, 1.22844, -1.30252, 0.0484718, -0.000228512, 0.00105639, 0.00220241, -0.143868, 0.0018113, 0.00766175, 2.43568, 56.6739, 27.1195, 5.16479, 1.63898, 3.53915, 0.00373412, -0.000213437, -0.00143206, 6.60496e-05, 0.00331042, -0.00623274, 0.0011566, 0.0274247, -0.0148782, -0.000319058, -0.0697446, 0.141228, 0.0036347, 0.470886, -0.542884, 0.33594, -2.0833, -2.16575, -0.130243, 0.469461, -0.543143, 0.335885, -2.08596, -2.16676, -0.120125, -0.00460676, 0.0196287, 0.00191686, 0.0112265, -0.00678245, -0.00311721
0.0880271, 1.69285, -1.22546, -1.53807, -0.899935, -1.19828, 1.22844, -1.30252, 0.0489612, -0.000987559, -0.000966178, 0.00230442, -0.141531, 0.000993443, 0.00687462, 2.43568, 56.7096, 27.1909, 5.12909, 1.65088, 3.54648, -0.0228162, -0.000241418, -0.00141577, 6.9508e-05, 0.00337599, -0.00636856, 0.00116797, 0.0276764, -0.0149906, -0.00153778, -0.0711855, 0.138814, 0.0049519, 0.470881, -0.542864, 0.335942, -2.08328, -2.16574, -0.130257, 0.469474, -0.54315, 0.335878, -2.08599, -2.16679, -0.119927, -0.00471385, 0.0201145, 0.00197095, 0.0111967, -0.00635206, -0.00430958
0.0890271, 1.69289, -1.22545, -1.53806, -0.899935, -1.19842, 1.22844, -1.30252, 0.047425, 0.00194008, 0.00195434, 0.000701762, -0.138471, 0.0012138, 0.00564539, 2.51106, 56.5985, 27.0798, 5.16479, 1.63257, 3.53274, -0.0356336, -0.000266552, -0.00139954, 6.47461e-05, 0.00343098, -0.00650566, 0.00117411, 0.0269089, -0.0154226, 0.00112056, -0.0672489, 0.139764, 0.0087537, 0.470877, -0.542844, 0.335944, -2.08326, -2.16574, -0.13027, 0.469486, -0.543155, 0.335881, -2.08601, -2.16684, -0.11974, -0.00482181, 0.0206055, 0.00202587, 0.0115891, -0.00549582, -0.00152409
0.0900271, 1.69294, -1.22546, -1.53807, -0.899932, -1.19855, 1.22845, -1.30252, 0.0510929, -0.00130507, 0.000374872, 0.00360912, -0.137354, 0.000841363, 0.004679, 2.51106, 56.7096, 27.1195, 5.16479, 1.64447, 3.53274, -0.0484509, -0.000295396, -0.00138372, 7.12384e-05, 0.00349502, -0.00663157, 0.00118525, 0.0270233, -0.0167604, -0.00114231, -0.0678491, 0.135923, 0.0107897, 0.470872, -0.542823, 0.335946, -2.08324, -2.16574, -0.130285, 0.469498, -0.543161, 0.335871, -2.08603, -2.16687, -0.119554, -0.00493062, 0.0211016, 0.00208162, 0.0127387, -0.00470794, -0.00376143
0.0910271, 1.69299, -1.22546, -1.53807, -0.899934, -1.19869, 1.22845, -1.30252, 0.0500114, 0.000893194, -0.000585304, 6.97496e-05, -0.136061, 0.000856297, 0.00226305, 2.55073, 56.6342, 27.1552, 5.27588, 1.65088, 3.52542, -0.0164075, -0.000322484, -0.00136805, 7.02958e-05, 0.00356208, -0.0067726, 0.00118888, 0.0266988, -0.0169763, -0.000592433, -0.0693589, 0.137943, 0.0154871, 0.470867, -0.542802, 0.335948, -2.08322, -2.16573, -0.130299, 0.46951, -0.543166, 0.33587, -2.08605, -2.16692, -0.11935, -0.00504026, 0.0216028, 0.00213822, 0.0128531, -0.00396221, -0.00311852
0.0920271, 1.69304, -1.22546, -1.53806, -0.899925, -1.19883, 1.22846, -1.30252, 0.049688, 0.000595463, 0.000445016, 0.00200633, -0.139785, 0.000860223, 0.00151923, 2.43568, 56.6342, 27.1195, 5.2005, 1.66919, 3.5181, -0.00999879, -0.000348694, -0.00134781, 6.96354e-05, 0.00361669, -0.00690618, 0.00119284, 0.0284782, -0.0162192, -8.08832e-05, -0.0691979, 0.140988, 0.0137844, 0.470862, -0.542781, 0.33595, -2.08319, -2.16573, -0.130314, 0.469526, -0.54317, 0.335868, -2.08607, -2.16696, -0.119169, -0.00515073, 0.022109, 0.00219565, 0.0120693, -0.00532232, -0.00281089
0.0930271, 1.6931, -1.22547, -1.53807, -0.89993, -1.19896, 1.22846, -1.30252, 0.0547281, -0.00220148, -0.00137376, -0.00204148, -0.13754, 0.00058705, 0.000927469, 2.3603, 56.7453, 27.1909, 5.35126, 1.66369, 3.5181, -0.00267457, -0.000375841, -0.00132879, 7.82784e-05, 0.00368564, -0.0070328, 0.00119384, 0.025735, -0.0199843, -0.00319474, -0.0728576, 0.137423, 0.023159, 0.470857, -0.542759, 0.335952, -2.08317, -2.16572, -0.130329, 0.46954, -0.543172, 0.335857, -2.08608, -2.167, -0.118978, -0.00526201, 0.0226203, 0.00225393, 0.0155067, -0.0014667, -0.00551424
0.0940271, 1.69314, -1.22547, -1.53807, -0.899924, -1.1991, 1.22846, -1.30252, 0.0542258, 0.000202782, 0.000754597, 0.00185279, -0.136518, 0.00067281, 0.00272444, 2.32459, 56.6739, 27.1195, 5.35126, 1.6756, 3.51077, -0.0557752, -0.000405218, -0.00131312, 7.49017e-05, 0.00374071, -0.0071696, 0.0012107, 0.0267651, -0.0193835, -0.000425654, -0.0682614, 0.139072, 0.0190972, 0.470851, -0.542736, 0.335954, -2.08315, -2.16572, -0.130344, 0.469552, -0.543179, 0.335857, -2.08611, -2.16703, -0.118792, -0.0053741, 0.0231366, 0.00231306, 0.0149324, -0.00241957, -0.00286408
0.0950271, 1.69319, -1.22547, -1.53807, -0.899925, -1.19923, 1.22847, -1.30251, 0.0518281, -0.00153525, 0.000503064, 0.00294325, -0.136172, 0.000998707, 0.00192087, 2.24921, 56.7453, 27.1195, 5.42664, 1.69391, 3.49612, -0.0557752, -0.000434066, -0.00129448, 7.89708e-05, 0.00380178, -0.00730147, 0.00121848, 0.028864, -0.0179713, -0.00120134, -0.0672548, 0.137617, 0.0169354, 0.470846, -0.542713, 0.335957, -2.08312, -2.16571, -0.13036, 0.469566, -0.543183, 0.33585, -2.08613, -2.16707, -0.118605, -0.00548698, 0.0236579, 0.00237303, 0.0134568, -0.00390818, -0.00385496
0.0960271, 1.69324, -1.22547, -1.53807, -0.899922, -1.19937, 1.22847, -1.30252, 0.0506172, -0.0010235, 0.000335376, 0.00164392, -0.134951, 0.00118015, -0.00131975, 2.13416, 56.7453, 27.1195, 5.46234, 1.69391, 3.48239, 0.0165515, -0.000463852, -0.00127619, 8.03569e-05, 0.00385901, -0.00743548, 0.00121581, 0.029313, -0.0178081, -0.00103191, -0.067023, 0.137862, 0.0207691, 0.470841, -0.542689, 0.335959, -2.0831, -2.16571, -0.130376, 0.46958, -0.543187, 0.335846, -2.08614, -2.16712, -0.118422, -0.00560063, 0.0241841, 0.00243385, 0.0132027, -0.00385773, -0.00369261
0.0970271, 1.6933, -1.22548, -1.53807, -0.899924, -1.1995, 1.22848, -1.30251, 0.052116, -0.00151755, -0.000611634, 0.00196537, -0.134435, 0.00106233, 0.00134913, 1.90803, 56.781, 27.1552, 5.57739, 1.70032, 3.47507, -0.0420422, -0.000490537, -0.00125459, 8.49084e-05, 0.00392316, -0.0075663, 0.00122339, 0.0294107, -0.0185514, -0.00167344, -0.0677667, 0.137544, 0.0193604, 0.470835, -0.542665, 0.335962, -2.08307, -2.16571, -0.130393, 0.469597, -0.543188, 0.335839, -2.08615, -2.16716, -0.118234, -0.00571505, 0.0247152, 0.00249553, 0.0138111, -0.00329293, -0.00430282
0.0980271, 1.69334, -1.22547, -1.53807, -0.899923, -1.19963, 1.22848, -1.30252, 0.0488335, 0.00149395, -0.00124297, 0.00236168, -0.129158, 0.000440172, -0.000751883, 1.87232, 56.6739, 27.1909, 5.68848, 1.70032, 3.48239, 0.00373412, -0.000523278, -0.00124139, 8.17227e-05, 0.00398175, -0.00770605, 0.00123386, 0.030263, -0.0170282, 6.91503e-05, -0.0654151, 0.13638, 0.0196146, 0.470829, -0.54264, 0.335964, -2.08305, -2.1657, -0.13041, 0.469605, -0.543195, 0.335839, -2.08618, -2.1672, -0.118043, -0.00583022, 0.0252512, 0.00255806, 0.0122689, -0.0039301, -0.00260732
0.0990271, 1.6934, -1.22548, -1.53807, -0.899924, -1.19977, 1.22849, -1.30252, 0.0498752, 0.000160751, 0.000841787, -0.000349711, -0.129302, 0.00110967, 0.000515178, 1.68189, 56.7096, 27.1195, 5.79956, 1.69391, 3.46042, -0.0228162, -0.000551399, -0.00121914, 8.40419e-05, 0.00403658, -0.00783817, 0.00123322, 0.0293362, -0.0188149, -0.000320761, -0.0645704, 0.136224, 0.0230703, 0.470823, -0.542615, 0.335967, -2.08302, -2.16569, -0.130427, 0.469623, -0.543197, 0.335835, -2.08619, -2.16725, -0.117865, -0.00594613, 0.0257921, 0.00262146, 0.0138901, -0.00234006, -0.00283931
0.100027, 1.69344, -1.22548, -1.53807, -0.899922, -1.1999, 1.22849, -1.30251, 0.0496985, 0.000107168, 0.000561191, -0.000562637, -0.124978, 0.000741588, 0.00206369, 1.53114, 56.7096, 27.1195, 5.83527, 1.68201, 3.46042, -0.0685925, -0.000584991, -0.00120323, 8.58407e-05, 0.00409368, -0.00797157, 0.00124941, 0.0290744, -0.0192314, -0.000483151, -0.0631404, 0.133063, 0.0231908, 0.470817, -0.542589, 0.335969, -2.08299, -2.16569, -0.130444, 0.469634, -0.543203, 0.33583, -2.08622, -2.16728, -0.117682, -0.00606278, 0.0263379, 0.00268571, 0.0141743, -0.00149328, -0.00290799
0.101027, 1.69348, -1.22549, -1.53807, -0.899924, -1.20003, 1.22849, -1.30252, 0.0478416, -0.000763773, -0.00046109, -0.00268706, -0.126351, 0.00127564, 0.000919688, 1.45576, 56.7453, 27.1552, 5.95032, 1.66919, 3.43936, -0.0557752, -0.000621009, -0.00118963, 9.15193e-05, 0.00415485, -0.0081008, 0.00126229, 0.0304518, -0.0185396, -0.00147378, -0.0649537, 0.134369, 0.0237723, 0.470811, -0.542563, 0.335972, -2.08296, -2.16568, -0.130462, 0.469642, -0.543211, 0.335821, -2.08624, -2.16731, -0.117499, -0.00618014, 0.0268884, 0.00275083, 0.01338, -0.0021773, -0.0040156
0.102027, 1.69353, -1.22549, -1.53807, -0.899928, -1.20017, 1.2285, -1.30252, 0.049076, 0.000326036, 0.000527824, -0.000943621, -0.127925, 0.00112272, -0.00106834, 1.26533, 56.7096, 27.1195, 6.0614, 1.66919, 3.43204, -0.00999879, -0.000652905, -0.00117147, 9.08271e-05, 0.00421243, -0.00824052, 0.00126597, 0.0309663, -0.018888, -0.000287115, -0.06417, 0.137072, 0.02572, 0.470805, -0.542536, 0.335975, -2.08294, -2.16568, -0.13048, 0.469656, -0.543215, 0.335819, -2.08625, -2.16736, -0.117311, -0.0062982, 0.0274437, 0.00281681, 0.0136718, -0.0022987, -0.00286972
0.103027, 1.69358, -1.2255, -1.53807, -0.899925, -1.2003, 1.22851, -1.30252, 0.0506426, -0.00145308, -0.00131855, -0.000987469, -0.129242, 0.0018004, -0.00192246, 1.03919, 56.781, 27.1909, 6.09711, 1.66919, 3.40365, 0.0229602, -0.000687715, -0.00115279, 9.6746e-05, 0.00427034, -0.00837119, 0.00127372, 0.0317114, -0.0195584, -0.00198367, -0.0661636, 0.137485, 0.0272181, 0.470799, -0.542509, 0.335978, -2.08291, -2.16567, -0.130499, 0.469669, -0.54322, 0.33581, -2.08627, -2.16739, -0.117132, -0.00641697, 0.0280038, 0.00288366, 0.0141882, -0.00218356, -0.00461534
0.104027, 1.69362, -1.2255, -1.53807, -0.899926, -1.20043, 1.22851, -1.30251, 0.0489805, -0.00189674, -4.38174e-05, 0.0011003, -0.12454, 0.00174338, 0.000896352, 0.928108, 56.8207, 27.1552, 6.17248, 1.65729, 3.38901, -0.0356336, -0.000723146, -0.00113697, 9.94004e-05, 0.00432643, -0.00850246, 0.00129164, 0.0324798, -0.0190068, -0.00140303, -0.0616365, 0.133442, 0.023475, 0.470793, -0.542481, 0.33598, -2.08288, -2.16567, -0.130518, 0.46968, -0.543226, 0.335804, -2.08629, -2.16742, -0.116953, -0.00653641, 0.0285686, 0.00295138, 0.013567, -0.00248941, -0.00407848
0.105027, 1.69367, -1.2255, -1.53806, -0.899928, -1.20056, 1.22851, -1.30251, 0.0474719, 0.0030972, 0.00173403, 0.000430216, -0.126138, 0.00170522, 0.000603457, 0.701973, 56.6342, 27.0798, 6.20819, 1.64447, 3.37436, -0.0356336, -0.000755297, -0.00111693, 9.57015e-05, 0.00437841, -0.00864507, 0.00129604, 0.0329903, -0.0184424, 0.00218126, -0.0604541, 0.140205, 0.0234327, 0.470786, -0.542452, 0.335983, -2.08285, -2.16566, -0.130537, 0.469694, -0.543229, 0.335805, -2.08631, -2.16747, -0.11677, -0.00665653, 0.0291381, 0.00301998, 0.0130323, -0.00300147, -0.000534731
0.106027, 1.69372, -1.22551, -1.53807, -0.899932, -1.20069, 1.22852, -1.30252, 0.0452363, 0.000301563, 0.000227998, -0.0010775, -0.126885, 0.0014084, 0.000644081, 0.511544, 56.7096, 27.1195, 6.28357, 1.62067, 3.36703, -0.0420422, -0.000790554, -0.00109846, 0.000103502, 0.00443785, -0.00877136, 0.00130022, 0.0348181, -0.0172705, -8.23996e-05, -0.0629273, 0.138659, 0.0219392, 0.470779, -0.542423, 0.335986, -2.08282, -2.16566, -0.130557, 0.469707, -0.543233, 0.335794, -2.08632, -2.16751, -0.116594, -0.0067773, 0.0297122, 0.00308945, 0.0117253, -0.00392919, -0.00295092
0.107027, 1.69375, -1.2255, -1.53806, -0.899932, -1.20081, 1.22853, -1.30252, 0.0447889, -0.000241556, 0.00108002, -0.000419139, -0.123219, 0.00117653, -0.00173744, 0.400459, 56.5985, 27.0798, 6.28357, 1.60785, 3.36062, 0.0165515, -0.000828281, -0.00108442, 9.96047e-05, 0.00448596, -0.00890932, 0.00131154, 0.0349229, -0.0175021, 1.42128e-05, -0.0602922, 0.135476, 0.0253061, 0.470773, -0.542393, 0.335989, -2.08278, -2.16565, -0.130577, 0.469716, -0.54324, 0.335795, -2.08634, -2.16755, -0.11642, -0.00689872, 0.030291, 0.0031598, 0.0118428, -0.00345885, -0.00280966
0.108027, 1.6938, -1.22551, -1.53806, -0.89994, -1.20094, 1.22853, -1.30252, 0.0444188, -0.00354666, 0.00155523, -0.00181827, -0.125611, 0.00602961, -0.00068109, 0.170357, 56.5985, 27.0441, 6.35895, 1.60785, 3.34598, 0.00373412, -0.000860803, -0.00106198, 0.000102958, 0.00454089, -0.00904251, 0.00131228, 0.0364575, -0.0184712, -0.00147603, -0.057589, 0.13725, 0.024982, 0.470766, -0.542363, 0.335993, -2.08275, -2.16564, -0.130597, 0.469732, -0.543241, 0.335789, -2.08635, -2.1676, -0.116244, -0.00702078, 0.0308744, 0.00323103, 0.0126901, -0.00411896, -0.00447985
0.109027, 1.69384, -1.22552, -1.53806, -0.89994, -1.20107, 1.22854, -1.30252, 0.0442048, -0.00681372, 0.00103682, -0.00104388, -0.126038, 0.0100362, 5.64294e-05, 0.059273, 56.6342, 27.0441, 6.35895, 1.57764, 3.324, -0.00999879, -0.00090054, -0.00104555, 0.000105942, 0.00458852, -0.00917437, 0.0013282, 0.0382981, -0.0189316, -0.00308117, -0.0545716, 0.136909, 0.023408, 0.470759, -0.542332, 0.335996, -2.08272, -2.16564, -0.130618, 0.469743, -0.543248, 0.335782, -2.08638, -2.16763, -0.116076, -0.00714347, 0.0314625, 0.00330314, 0.0130358, -0.0050796, -0.00629506
0.110027, 1.69389, -1.22552, -1.53806, -0.899948, -1.2012, 1.22855, -1.30252, 0.0420597, -0.00430916, 0.00152643, -0.00316815, -0.127529, 0.00738567, 0.000276376, -0.0914839, 56.5985, 27.0084, 6.47003, 1.58954, 3.324, -0.0164075, -0.000936423, -0.00102669, 0.000106299, 0.00464195, -0.00931199, 0.00133085, 0.0389008, -0.0176904, -0.00181554, -0.0575333, 0.140031, 0.0229637, 0.470751, -0.542301, 0.335999, -2.08269, -2.16563, -0.130639, 0.469756, -0.543251, 0.335779, -2.08639, -2.16768, -0.115898, -0.00726676, 0.032055, 0.00337613, 0.0117411, -0.00532876, -0.00503026
0.111027, 1.69393, -1.22552, -1.53806, -0.899953, -1.20133, 1.22855, -1.30252, 0.0396522, -0.00636286, 0.00101762, -0.00294546, -0.128942, 0.00568231, 0.000185299, -0.206535, 56.5985, 27.0084, 6.5097, 1.59595, 3.31759, -0.0164075, -0.000975458, -0.0010092, 0.000108882, 0.00469657, -0.0094494, 0.00134309, 0.0410475, -0.0158651, -0.00316382, -0.0597522, 0.138865, 0.0201586, 0.470744, -0.542268, 0.336003, -2.08265, -2.16562, -0.13066, 0.469768, -0.543256, 0.335773, -2.08641, -2.16772, -0.115718, -0.00739066, 0.0326521, 0.00345001, 0.00982335, -0.00671677, -0.00656874
0.112027, 1.69397, -1.22552, -1.53805, -0.899957, -1.20146, 1.22856, -1.30252, 0.0387285, -0.00623593, 0.00160643, -0.00365587, -0.129578, 0.00969172, -0.00109638, -0.357292, 56.5231, 26.9687, 6.58508, 1.58954, 3.29562, 0.0165515, -0.00101363, -0.000990545, 0.000106773, 0.00474626, -0.00959237, 0.00134888, 0.0422626, -0.0163711, -0.0025469, -0.056169, 0.142125, 0.0216036, 0.470737, -0.542236, 0.336006, -2.08262, -2.16562, -0.130682, 0.46978, -0.543261, 0.335772, -2.08643, -2.16776, -0.115539, -0.00751515, 0.0332538, 0.00352478, 0.0102711, -0.00738867, -0.00609153
0.113027, 1.69402, -1.22552, -1.53805, -0.899957, -1.20159, 1.22857, -1.30252, 0.0429997, -0.00486491, 0.00107096, -0.002384, -0.130957, 0.00714587, -0.000492974, -0.583427, 56.5231, 26.9687, 6.58508, 1.60785, 3.29562, 0.0101428, -0.00105205, -0.00096953, 0.000107059, 0.00479831, -0.0097354, 0.00135802, 0.0413462, -0.0178466, -0.00217101, -0.0593433, 0.144061, 0.0237124, 0.470729, -0.542203, 0.33601, -2.08258, -2.16561, -0.130704, 0.469795, -0.543265, 0.335769, -2.08645, -2.16781, -0.115357, -0.00764022, 0.0338599, 0.00360044, 0.0116005, -0.00587454, -0.00554776
0.114027, 1.69406, -1.22553, -1.53806, -0.899964, -1.20172, 1.22858, -1.30251, 0.0414214, -0.003774, -0.000214049, -0.00321983, -0.131232, 0.00554873, 0.0021132, -0.619133, 56.5231, 27.0084, 6.65649, 1.60785, 3.2883, -0.0557752, -0.0010954, -0.00095479, 0.00011155, 0.00485663, -0.00987384, 0.00138164, 0.0424717, -0.0166794, -0.00212581, -0.0619596, 0.145342, 0.0199112, 0.470722, -0.542169, 0.336013, -2.08255, -2.1656, -0.130727, 0.469804, -0.543272, 0.335761, -2.08648, -2.16783, -0.115171, -0.00776586, 0.0344704, 0.00367699, 0.0103521, -0.00642974, -0.0055685
0.115027, 1.6941, -1.22552, -1.53806, -0.89997, -1.20185, 1.22858, -1.30251, 0.0455216, -0.00207882, -0.0001427, -0.00387984, -0.132576, 0.00354178, 0.00113786, -0.734184, 56.4874, 27.0084, 6.73187, 1.63257, 3.30295, -0.0484509, -0.00113509, -0.000935426, 0.000110285, 0.00491234, -0.0100226, 0.00138944, 0.0409597, -0.0186969, -0.00155587, -0.0649815, 0.147974, 0.0254251, 0.470714, -0.542134, 0.336017, -2.08251, -2.16559, -0.13075, 0.469817, -0.543276, 0.335759, -2.08649, -2.16788, -0.114981, -0.00789206, 0.0350854, 0.00375444, 0.0122073, -0.00432658, -0.00475476
0.116027, 1.69415, -1.22553, -1.53805, -0.89997, -1.20197, 1.22859, -1.30251, 0.0475994, -0.00251963, 0.000832887, -0.00256409, -0.128254, 0.00761091, 0.000521465, -0.809562, 56.5231, 26.9687, 6.73187, 1.64447, 3.29562, -0.0420422, -0.00117674, -0.000916719, 0.000110184, 0.00495258, -0.0101561, 0.00140033, 0.0404586, -0.0210856, -0.00102315, -0.0582422, 0.146542, 0.029265, 0.470706, -0.542099, 0.336021, -2.08248, -2.16559, -0.130773, 0.469829, -0.543282, 0.335756, -2.08651, -2.16792, -0.114823, -0.0080188, 0.0357048, 0.00383279, 0.0144679, -0.00319554, -0.00414621
0.117027, 1.69419, -1.22552, -1.53806, -0.899977, -1.2021, 1.2286, -1.30251, 0.0463002, -0.000233217, -0.00120798, -0.00345579, -0.129147, 0.00568139, -0.000126888, -0.884941, 56.4517, 27.0441, 6.80725, 1.65088, 3.29562, -0.0292249, -0.0012181, -0.000897859, 0.000110081, 0.00500726, -0.0103023, 0.00140918, 0.0415878, -0.0198032, -0.000591143, -0.0620738, 0.149423, 0.0284531, 0.470698, -0.542063, 0.336024, -2.08244, -2.16558, -0.130797, 0.469841, -0.543286, 0.335752, -2.08653, -2.16796, -0.114636, -0.00814607, 0.0363285, 0.00391203, 0.0131171, -0.00380594, -0.00377964
0.118027, 1.69424, -1.22552, -1.53806, -0.899983, -1.20222, 1.22861, -1.30252, 0.0470412, -0.000323402, -0.00080532, -0.00620303, -0.125493, 0.00397191, -0.00154251, -1.0357, 56.4517, 27.0441, 6.84296, 1.66369, 3.30295, 0.0101428, -0.00125612, -0.000875104, 0.000110032, 0.00505733, -0.0104406, 0.00140684, 0.0401085, -0.0211121, -0.00105441, -0.0628567, 0.146399, 0.0347976, 0.47069, -0.542027, 0.336028, -2.0824, -2.16557, -0.130821, 0.469857, -0.543286, 0.33575, -2.08653, -2.16802, -0.114464, -0.00827387, 0.0369566, 0.00399218, 0.0142263, -0.00159099, -0.00396674
0.119027, 1.69428, -1.22553, -1.53806, -0.899984, -1.20234, 1.22862, -1.30251, 0.0419107, -0.00117676, -0.00053688, -0.00438226, -0.128045, 0.0079248, 0.000192465, -1.07537, 56.4874, 27.0441, 6.84296, 1.6875, 3.29562, -0.0228162, -0.00130017, -0.000857002, 0.000109177, 0.00510197, -0.0105811, 0.0014247, 0.0445056, -0.0184228, -0.000554481, -0.0587206, 0.149911, 0.0260884, 0.470682, -0.54199, 0.336032, -2.08236, -2.16556, -0.130845, 0.469869, -0.543292, 0.335747, -2.08656, -2.16805, -0.114295, -0.00840218, 0.0375891, 0.00407323, 0.0115906, -0.00548723, -0.00400006
0.120027, 1.69432, -1.22552, -1.53806, -0.899984, -1.20246, 1.22862, -1.30251, 0.0420726, 0.000791471, -0.00035792, -0.00227147, -0.124132, 0.0109056, 0.00158645, -1.15075, 56.416, 27.0441, 6.80725, 1.68201, 3.2883, -0.0621838, -0.00134228, -0.000837032, 0.000105102, 0.00514843, -0.0107269, 0.00144006, 0.0450109, -0.0191273, 0.00123206, -0.0529247, 0.150613, 0.0247629, 0.470673, -0.541953, 0.336036, -2.08232, -2.16556, -0.13087, 0.469882, -0.543296, 0.335748, -2.08659, -2.16809, -0.114118, -0.008531, 0.0382258, 0.00415518, 0.0122496, -0.00559668, -0.00225667
0.121027, 1.69437, -1.22552, -1.53806, -0.899987, -1.20258, 1.22863, -1.30251, 0.0430175, 0.000456804, -0.00200185, -0.0016532, -0.121391, 0.0133575, 0.000549067, -1.26183, 56.416, 27.1195, 6.80725, 1.68201, 3.27456, -0.0484509, -0.00138392, -0.000814181, 0.000107667, 0.00519707, -0.0108641, 0.00144472, 0.0455108, -0.0200994, 0.000726443, -0.0507635, 0.149999, 0.02673, 0.470665, -0.541914, 0.33604, -2.08228, -2.16555, -0.130895, 0.469898, -0.543297, 0.335742, -2.0866, -2.16814, -0.11395, -0.0086603, 0.0388668, 0.00423804, 0.0130914, -0.00532961, -0.00278258
0.122027, 1.69442, -1.22552, -1.53806, -0.899993, -1.2027, 1.22864, -1.30252, 0.045243, 0.00117942, 0.00042867, -0.00296953, -0.124967, 0.00971641, -0.00105806, -1.30151, 56.3763, 27.0441, 6.88263, 1.71222, 3.28097, -0.00999879, -0.00142472, -0.000791819, 0.000103228, 0.00523859, -0.011008, 0.00144425, 0.0445414, -0.0210954, 0.00142547, -0.0542819, 0.152551, 0.0319995, 0.470656, -0.541875, 0.336045, -2.08224, -2.16554, -0.130921, 0.469913, -0.543299, 0.335744, -2.08661, -2.16819, -0.113783, -0.00879009, 0.039512, 0.00432181, 0.0139473, -0.00379414, -0.00188907
0.123027, 1.69446, -1.22552, -1.53806, -0.899995, -1.20282, 1.22865, -1.30252, 0.0451644, -0.000181586, -0.000549438, -0.00205781, -0.128121, 0.00777283, -0.00145133, -1.26183, 56.416, 27.0798, 6.88263, 1.74884, 3.26724, 0.0101428, -0.00147161, -0.000775267, 0.000104886, 0.00528809, -0.0111441, 0.00145847, 0.0462629, -0.0200924, 0.000273792, -0.0578848, 0.153475, 0.0303893, 0.470647, -0.541836, 0.336049, -2.0822, -2.16553, -0.130947, 0.469923, -0.543304, 0.335739, -2.08662, -2.16823, -0.113615, -0.00892034, 0.0401615, 0.0044065, 0.0128364, -0.00470607, -0.00318226
0.124027, 1.69451, -1.22552, -1.53806, -0.899998, -1.20294, 1.22865, -1.30251, 0.0466712, -0.00182138, 0.00595719, -0.00454712, -0.124701, 0.0108199, 0.000727893, -1.41259, 56.4874, 27.0798, 6.88263, 1.76166, 3.25992, -0.0356336, -0.00151231, -0.000748685, 0.000107698, 0.00533487, -0.0112808, 0.00146657, 0.0439572, -0.0237254, 0.00146503, -0.0493987, 0.151084, 0.0365844, 0.470638, -0.541796, 0.336053, -2.08216, -2.16552, -0.130973, 0.469942, -0.543303, 0.335733, -2.08664, -2.16827, -0.113449, -0.00905105, 0.0408151, 0.00449209, 0.0162943, -0.00181, -0.00167203
0.125027, 1.69455, -1.22552, -1.53806, -0.899999, -1.20306, 1.22866, -1.30251, 0.0502378, -0.00123667, 0.00449841, -0.00333508, -0.122354, 0.00859629, 0.000959999, -1.41259, 56.4874, 27.0798, 6.88263, 1.77997, 3.24527, -0.0484509, -0.00155727, -0.000727658, 0.000106136, 0.00537691, -0.0114205, 0.00147587, 0.0429537, -0.0251537, 0.00109696, -0.0513452, 0.149434, 0.0392665, 0.470629, -0.541755, 0.336058, -2.08212, -2.16551, -0.131, 0.469955, -0.543306, 0.335731, -2.08665, -2.16831, -0.113287, -0.00918221, 0.0414729, 0.0045786, 0.0175401, -4.44565e-05, -0.00183701
0.126027, 1.6946, -1.22553, -1.53807, -0.900002, -1.20317, 1.22867, -1.30251, 0.0491547, -0.00167648, 0.000795705, -0.00245114, -0.121064, 0.00714115, 0.000402654, -1.37688, 56.5231, 27.1909, 6.88263, 1.81018, 3.22421, -0.0420422, -0.00160552, -0.000708217, 0.000109099, 0.00542335, -0.0115584, 0.0014892, 0.0447781, -0.0236871, -0.000394236, -0.0546238, 0.148035, 0.0370308, 0.47062, -0.541714, 0.336063, -2.08207, -2.1655, -0.131027, 0.469967, -0.543311, 0.335725, -2.08667, -2.16835, -0.113121, -0.00931381, 0.0421348, 0.00466602, 0.0159563, -0.00101175, -0.00346482
0.127027, 1.69464, -1.22552, -1.53806, -0.899997, -1.20329, 1.22868, -1.30252, 0.0531319, 0.000540177, 0.00249732, -4.16654e-05, -0.119595, 0.00976157, -0.00166433, -1.41259, 56.4517, 27.1195, 6.80725, 1.8349, 3.23153, 0.0101428, -0.00165089, -0.000687252, 0.00010294, 0.00545912, -0.0116988, 0.00149488, 0.043811, -0.026393, 0.00188754, -0.049369, 0.150824, 0.0425859, 0.470611, -0.541671, 0.336067, -2.08203, -2.16549, -0.131055, 0.469981, -0.543313, 0.335728, -2.08668, -2.1684, -0.112965, -0.00944583, 0.0428008, 0.00475437, 0.0185756, 0.000367548, -0.00105684
0.128027, 1.69469, -1.22553, -1.53807, -0.9, -1.2034, 1.22869, -1.30252, 0.0539105, -0.00131977, 0.000216753, -0.000991104, -0.122327, 0.00834731, -0.000872189, -1.48797, 56.5231, 27.1909, 6.84296, 1.82941, 3.20224, 0.00373412, -0.00169435, -0.00066073, 0.000107422, 0.00550603, -0.0118326, 0.00149717, 0.0449143, -0.0262156, -0.000276652, -0.0544942, 0.151474, 0.0418087, 0.470601, -0.541629, 0.336072, -2.08198, -2.16548, -0.131083, 0.469999, -0.543312, 0.33572, -2.08668, -2.16845, -0.112805, -0.00957827, 0.043471, 0.00484363, 0.0182275, 0.000278675, -0.0032736
0.129027, 1.69474, -1.22553, -1.53807, -0.900002, -1.20352, 1.22869, -1.30251, 0.0487094, -0.000886942, 0.000311234, -0.000756817, -0.115213, 0.00613078, 0.000401891, -1.45226, 56.5231, 27.1909, 6.84296, 1.82941, 3.20224, -0.0228162, -0.00174222, -0.000640356, 0.000106849, 0.00555137, -0.0119734, 0.0015119, 0.0462801, -0.0237515, 0.00012995, -0.0520002, 0.145482, 0.0379976, 0.470592, -0.541585, 0.336077, -2.08194, -2.16548, -0.131111, 0.470012, -0.543315, 0.335718, -2.0867, -2.16848, -0.112639, -0.00971111, 0.0441452, 0.00493382, 0.0156991, -0.000560338, -0.00292318
0.130027, 1.69479, -1.22552, -1.53806, -0.900003, -1.20363, 1.2287, -1.30251, 0.0507815, -0.000596614, 0.00116776, 0.000258612, -0.118834, 0.00502024, 0.00148863, -1.52764, 56.5231, 27.1552, 6.80725, 1.81659, 3.18851, -0.0557752, -0.00178698, -0.000615289, 0.000104111, 0.00559161, -0.0121149, 0.00152, 0.0467428, -0.0243287, 0.000572161, -0.0536043, 0.148817, 0.0376437, 0.470582, -0.541541, 0.336082, -2.08189, -2.16547, -0.13114, 0.470029, -0.543314, 0.335717, -2.08671, -2.16853, -0.112478, -0.00984435, 0.0448234, 0.00502493, 0.0161762, -0.000382749, -0.00248791
0.131027, 1.69484, -1.22553, -1.53807, -0.900009, -1.20375, 1.2287, -1.30251, 0.0514019, -0.00216497, -0.000890946, -0.00164488, -0.112958, 0.00366514, -0.000228277, -1.56335, 56.5985, 27.2306, 6.88263, 1.823, 3.18851, -0.0228162, -0.00183436, -0.000591341, 0.000110201, 0.00564536, -0.0122523, 0.00152194, 0.0458766, -0.0252936, -0.00148708, -0.0548999, 0.142805, 0.0430523, 0.470572, -0.541496, 0.336087, -2.08185, -2.16546, -0.131169, 0.470044, -0.543314, 0.335708, -2.08671, -2.16858, -0.112308, -0.00997797, 0.0455056, 0.00511696, 0.0168997, 0.00151595, -0.0043243
0.132027, 1.69488, -1.22553, -1.53807, -0.899999, -1.20387, 1.22871, -1.30252, 0.0517645, -0.00144631, 0.000404396, 0.00146134, -0.112038, 0.0032247, -0.00161024, -1.60302, 56.5985, 27.1909, 6.77154, 1.79828, 3.17386, 0.0165515, -0.00188662, -0.000571236, 0.000107214, 0.00568215, -0.0123957, 0.00154031, 0.0467627, -0.0251452, -0.000212095, -0.0521595, 0.142897, 0.0433793, 0.470562, -0.541451, 0.336092, -2.0818, -2.16545, -0.131199, 0.470057, -0.54332, 0.335707, -2.08674, -2.16861, -0.11215, -0.010112, 0.0461918, 0.00520992, 0.0166974, 0.0011238, -0.00310955
0.133027, 1.69494, -1.22553, -1.53806, -0.900006, -1.204, 1.22871, -1.30251, 0.0506082, -0.00180167, 0.00432928, -0.000726612, -0.117659, 0.00205759, -9.01499e-05, -1.7141, 56.6342, 27.1552, 6.84296, 1.80469, 3.18118, -0.00999879, -0.00193279, -0.000544176, 0.000108454, 0.00573387, -0.0125447, 0.00154471, 0.0475347, -0.0249446, 0.0006608, -0.0531277, 0.147194, 0.0430236, 0.470552, -0.541404, 0.336097, -2.08175, -2.16543, -0.131229, 0.470075, -0.543318, 0.335703, -2.08674, -2.16866, -0.11197, -0.0102463, 0.0468819, 0.00530381, 0.0164236, 0.000908571, -0.00227139
0.134027, 1.69498, -1.22554, -1.53806, -0.900014, -1.20412, 1.22872, -1.30251, 0.0484832, -0.00213081, 0.0049533, -0.00227045, -0.120943, 0.00231982, -0.000568725, -1.63873, 56.6739, 27.0798, 6.91833, 1.79828, 3.15921, 0.00373412, -0.00198364, -0.000522532, 0.000107196, 0.00577384, -0.0126899, 0.00155253, 0.0493045, -0.0239982, 0.000644418, -0.0542186, 0.150435, 0.0423614, 0.470542, -0.541358, 0.336102, -2.0817, -2.16542, -0.131259, 0.470088, -0.54332, 0.335701, -2.08675, -2.16871, -0.111808, -0.010381, 0.047576, 0.00539863, 0.0154085, -0.000180113, -0.00244415
0.135027, 1.69503, -1.22554, -1.53806, -0.900015, -1.20425, 1.22873, -1.30251, 0.0496286, -0.00309224, 0.000931651, -0.00153073, -0.124297, 0.00188462, 0.00131627, -1.6784, 56.7453, 27.1909, 6.91833, 1.81659, 3.1528, -0.0420422, -0.00203911, -0.000502141, 0.000111865, 0.00583077, -0.012842, 0.00157299, 0.0512752, -0.0234345, -0.00130157, -0.059469, 0.152976, 0.0383277, 0.470531, -0.54131, 0.336108, -2.08165, -2.16541, -0.13129, 0.4701, -0.543326, 0.335692, -2.08677, -2.16874, -0.111619, -0.0105161, 0.048274, 0.00549438, 0.0147117, -0.00114659, -0.00456417
0.136027, 1.69508, -1.22554, -1.53807, -0.90002, -1.20438, 1.22873, -1.30251, 0.0482237, -0.00289766, -0.000971207, -0.00196133, -0.121604, 0.000823328, 0.00111487, -1.75378, 56.781, 27.2663, 6.95801, 1.81659, 3.16653, -0.0484509, -0.00209066, -0.00047876, 0.000113986, 0.00588697, -0.0129939, 0.00158552, 0.0522215, -0.0226201, -0.00192021, -0.0606803, 0.151282, 0.0379057, 0.470521, -0.541262, 0.336113, -2.0816, -2.1654, -0.131321, 0.470115, -0.543327, 0.335687, -2.08678, -2.16878, -0.111432, -0.0106515, 0.0489759, 0.00559107, 0.0137757, -0.00131538, -0.00520451
0.137027, 1.69512, -1.22554, -1.53807, -0.900021, -1.20451, 1.22873, -1.30251, 0.0486143, -0.00193248, -0.000519274, -0.00131717, -0.124841, 0.00138543, 0.000505891, -1.75378, 56.781, 27.2663, 6.95801, 1.8349, 3.14548, -0.0420422, -0.00214739, -0.000459828, 0.00011382, 0.00593659, -0.013148, 0.00160544, 0.0534655, -0.0226027, -0.00103865, -0.0608699, 0.155826, 0.0378533, 0.47051, -0.541213, 0.336119, -2.08155, -2.16539, -0.131353, 0.470125, -0.543333, 0.335683, -2.0868, -2.16882, -0.11125, -0.0107872, 0.0496816, 0.00568869, 0.0137014, -0.00197453, -0.00443436
0.138027, 1.69516, -1.22555, -1.53806, -0.900023, -1.20464, 1.22873, -1.30251, 0.0499183, -0.00221687, 0.000585183, -0.00088533, -0.126218, 0.000694845, -0.00135816, -1.78948, 56.8207, 27.2306, 6.95801, 1.823, 3.1528, 0.00373412, -0.00220226, -0.000439455, 0.000112505, 0.00598692, -0.0133013, 0.00161563, 0.0537323, -0.0232653, -0.000858254, -0.0610668, 0.156987, 0.041099, 0.470499, -0.541163, 0.336125, -2.0815, -2.16538, -0.131385, 0.470137, -0.543337, 0.335681, -2.08681, -2.16886, -0.11107, -0.0109232, 0.0503911, 0.00578725, 0.0142443, -0.00152769, -0.00422268
0.139027, 1.69521, -1.22555, -1.53806, -0.900031, -1.20477, 1.22873, -1.30251, 0.0476177, -0.00231353, 0.000462233, -0.00226607, -0.122577, 0.000766365, 0.000315264, -1.82915, 56.8564, 27.2306, 7.02942, 1.81018, 3.14548, -0.0292249, -0.00225734, -0.000418391, 0.000114456, 0.00604287, -0.0134543, 0.00163212, 0.054393, -0.0227949, -0.00100871, -0.0596178, 0.154743, 0.0399377, 0.470489, -0.541113, 0.33613, -2.08145, -2.16537, -0.131418, 0.470149, -0.54334, 0.335675, -2.08683, -2.1689, -0.110883, -0.0110595, 0.0511045, 0.00588674, 0.0136578, -0.00146166, -0.004364
0.140027, 1.69525, -1.22555, -1.53807, -0.900034, -1.2049, 1.22873, -1.30251, 0.0457106, -0.00330589, -0.000472979, -0.000679551, -0.124154, 0.000806078, 0.00119352, -1.86486, 56.9318, 27.2663, 6.99371, 1.79187, 3.13815, -0.0557752, -0.00231743, -0.000400935, 0.000118343, 0.00609645, -0.0136035, 0.0016573, 0.0570447, -0.0211573, -0.00156873, -0.0600706, 0.15566, 0.0352361, 0.470477, -0.541062, 0.336136, -2.0814, -2.16536, -0.13145, 0.470158, -0.543347, 0.335667, -2.08685, -2.16892, -0.110703, -0.0111962, 0.0518216, 0.00598718, 0.0119632, -0.00334171, -0.00518628
0.141027, 1.69529, -1.22555, -1.53806, -0.900042, -1.20503, 1.22874, -1.30251, 0.0461686, -0.00220415, 0.000560461, -0.0012913, -0.124505, 1.27766e-05, 0.000524413, -1.97991, 56.9318, 27.2306, 7.02942, 1.74884, 3.1528, -0.0484509, -0.00237218, -0.000378605, 0.000116638, 0.00614598, -0.0137586, 0.00166659, 0.0570577, -0.0216381, -0.000709227, -0.0601744, 0.157395, 0.0376512, 0.470466, -0.54101, 0.336142, -2.08134, -2.16535, -0.131484, 0.470171, -0.543348, 0.335665, -2.08686, -2.16897, -0.110522, -0.0113331, 0.0525425, 0.00608855, 0.0123395, -0.00274662, -0.00425627
0.142027, 1.69532, -1.22556, -1.53806, -0.900051, -1.20516, 1.22874, -1.30251, 0.0428413, -0.00314004, -0.000431155, -0.00179117, -0.12613, 0.000835764, -0.00107454, -1.94024, 57.0032, 27.2663, 7.06909, 1.73053, 3.13083, -0.00999879, -0.00243483, -0.000363571, 0.000120425, 0.00620091, -0.0139098, 0.00168636, 0.059828, -0.0197981, -0.0014001, -0.0607991, 0.158943, 0.0358168, 0.470455, -0.540957, 0.336148, -2.08129, -2.16533, -0.131518, 0.470177, -0.543356, 0.335657, -2.08687, -2.169, -0.11034, -0.0114702, 0.0532671, 0.00619087, 0.0104419, -0.0047243, -0.0052187
0.143027, 1.69536, -1.22556, -1.53806, -0.900058, -1.20529, 1.22874, -1.30251, 0.0398865, -0.00125827, -0.00119264, -0.00435013, -0.126602, 0.000567259, -0.00146235, -2.01562, 56.9675, 27.306, 7.06909, 1.70032, 3.13083, 0.0101428, -0.00249521, -0.00034611, 0.000119781, 0.00625515, -0.0140666, 0.001705, 0.0611673, -0.018549, -0.000754825, -0.0624084, 0.162006, 0.035376, 0.470443, -0.540904, 0.336154, -2.08123, -2.16532, -0.131552, 0.470185, -0.543362, 0.335654, -2.08688, -2.16904, -0.110152, -0.0116077, 0.0539954, 0.00629413, 0.009131, -0.00546982, -0.00465433
0.144027, 1.6954, -1.22556, -1.53806, -0.900063, -1.20541, 1.22874, -1.30251, 0.0368049, -0.00250938, 0.00404432, -0.00223621, -0.13209, 0.000385735, 0.00119524, -2.05529, 57.0389, 27.2306, 7.02942, 1.6756, 3.13083, -0.0484509, -0.00255545, -0.000327358, 0.000118485, 0.00630019, -0.0142186, 0.00172943, 0.0639958, -0.0167433, 0.000838043, -0.0590412, 0.165279, 0.0289171, 0.470432, -0.54085, 0.336161, -2.08118, -2.16531, -0.131586, 0.470194, -0.543367, 0.335651, -2.08691, -2.16907, -0.10998, -0.0117453, 0.0547273, 0.00639834, 0.0073537, -0.00785285, -0.00337143
0.145027, 1.69543, -1.22556, -1.53806, -0.900076, -1.20554, 1.22874, -1.30251, 0.0346944, -0.00167299, 0.00212875, -0.00345215, -0.131699, 0.000534096, 0.000559468, -2.091, 57.0389, 27.2663, 7.1048, 1.66369, 3.1235, -0.0420422, -0.00261781, -0.000310602, 0.000120165, 0.00635384, -0.0143726, 0.00174895, 0.0655793, -0.0156568, 0.00063508, -0.0604818, 0.166787, 0.0281461, 0.47042, -0.540795, 0.336167, -2.08112, -2.1653, -0.131621, 0.470202, -0.543373, 0.335646, -2.08692, -2.1691, -0.109797, -0.0118833, 0.0554629, 0.00650349, 0.00618257, -0.00869295, -0.00368628
0.146027, 1.69547, -1.22556, -1.53806, -0.900084, -1.20566, 1.22874, -1.30251, 0.0368414, -0.0020434, 0.000691964, -0.0016148, -0.131833, 0.000631585, 0.000881605, -2.16637, 57.0786, 27.306, 7.06909, 1.65729, 3.11618, -0.0557752, -0.00268147, -0.000293876, 0.000121403, 0.00640589, -0.014527, 0.00177322, 0.066293, -0.0163164, 8.26965e-05, -0.0610872, 0.167333, 0.0280254, 0.470408, -0.54074, 0.336174, -2.08106, -2.16528, -0.131657, 0.470209, -0.543379, 0.33564, -2.08694, -2.16913, -0.109615, -0.0120214, 0.0562022, 0.00660959, 0.00671014, -0.00854297, -0.00426172
0.147027, 1.6955, -1.22556, -1.53806, -0.900099, -1.20579, 1.22874, -1.30251, 0.034482, -0.000434286, -0.000223296, -0.00610551, -0.12845, 0.00015298, -0.00185367, -2.20605, 57.0389, 27.3417, 7.14447, 1.68201, 3.1235, 0.0101428, -0.00274546, -0.000278695, 0.000120775, 0.00646116, -0.014686, 0.00178787, 0.0660866, -0.0162116, 0.000180517, -0.0622606, 0.167074, 0.0334448, 0.470396, -0.540684, 0.33618, -2.08101, -2.16527, -0.131692, 0.470214, -0.543386, 0.335637, -2.08695, -2.16917, -0.109427, -0.0121598, 0.056945, 0.00671664, 0.00646441, -0.00761518, -0.004026
0.148027, 1.69552, -1.22556, -1.53806, -0.900111, -1.20591, 1.22874, -1.30251, 0.0318883, -0.000289554, 0.000799314, -0.00758973, -0.124466, 0.000375647, -0.000252436, -2.20605, 57.0389, 27.306, 7.14447, 1.68201, 3.11618, -0.0164075, -0.002811, -0.00026413, 0.000118672, 0.00650471, -0.0148393, 0.0018148, 0.066566, -0.015864, 0.000586565, -0.0594898, 0.164814, 0.0328259, 0.470384, -0.540627, 0.336187, -2.08095, -2.16526, -0.131729, 0.470219, -0.543393, 0.335635, -2.08697, -2.1692, -0.109256, -0.0122984, 0.0576914, 0.00682465, 0.00601266, -0.00741899, -0.00358585
0.149027, 1.69555, -1.22556, -1.53806, -0.900124, -1.20602, 1.22874, -1.30251, 0.0299363, -0.00112108, -0.000217623, -0.00872115, -0.121976, 0.000252226, 6.90686e-05, -2.20605, 57.0786, 27.3417, 7.14447, 1.6875, 3.11618, -0.0228162, -0.00287844, -0.00025036, 0.00012195, 0.00655369, -0.0149858, 0.00184476, 0.0676494, -0.0152245, -0.000312627, -0.0595222, 0.162757, 0.0323532, 0.470372, -0.540569, 0.336194, -2.08089, -2.16524, -0.131765, 0.470223, -0.543401, 0.335627, -2.08699, -2.16921, -0.109087, -0.0124372, 0.0584414, 0.0069336, 0.00524309, -0.0076234, -0.00451946
0.150027, 1.69555, -1.22556, -1.53806, -0.900124, -1.20602, 1.22874, -1.30251, 0.0299363, -0.00112108, -0.000217623, -0.00872115, -0.121976, 0.000252226, 6.90686e-05, -2.20605, 57.0786, 27.3417, 7.14447, 1.6875, 3.11618, -0.0228162, -0.00293766, -0.000240251, 0.000119035, 0.00653621, -0.0150394, 0.00186709, 0.0684158, -0.0153334, -0.000294117, -0.0594062, 0.163523, 0.0327732, 0.470359, -0.54051, 0.336201, -2.08083, -2.16523, -0.131802, 0.470223, -0.543401, 0.335627, -2.08699, -2.16921, -0.109087, -0.0125762, 0.0591949, 0.00704351, 0.00524309, -0.0076234, -0.00451946
0.151027, 1.69558, -1.22557, -1.53806, -0.900139, -1.20614, 1.22874, -1.3025, 0.0271408, -0.00241784, 0.0022326, -0.0104095, -0.11975, -0.000101771, 0.00150411, -2.28143, 57.15, 27.3774, 7.18018, 1.6875, 3.1235, -0.0621838, -0.00300532, -0.000225117, 0.00012266, 0.00658604, -0.0151873, 0.0018954, 0.0690644, -0.0148928, -0.000297956, -0.0568897, 0.160908, 0.0324207, 0.470347, -0.540451, 0.336208, -2.08077, -2.16522, -0.13184, 0.470228, -0.543407, 0.335619, -2.08701, -2.16923, -0.108916, -0.0127154, 0.0599519, 0.00715437, 0.00468893, -0.00752341, -0.00450519
0.152027, 1.69562, -1.22557, -1.53806, -0.900172, -1.20637, 1.22873, -1.3025, 0.0311539, -0.00339466, -2.2318e-05, -0.0148771, -0.12017, 0.000295283, -0.000473091, -2.39648, 57.2253, 27.4528, 7.21588, 1.6756, 3.10977, -0.0292249, -0.00308108, -0.000206958, 0.000128499, 0.00670137, -0.0154324, 0.00191707, 0.0674272, -0.0179109, -0.00244183, -0.0613952, 0.16195, 0.0415045, 0.470334, -0.540391, 0.336215, -2.0807, -2.1652, -0.131878, 0.470236, -0.54342, 0.335608, -2.08703, -2.16929, -0.108575, -0.0128547, 0.0607124, 0.00726618, 0.00742517, -0.00468323, -0.0063476
0.153027, 1.69564, -1.22557, -1.53806, -0.900185, -1.20649, 1.22874, -1.30251, 0.0301223, -0.0014279, 0.00520938, -0.0125566, -0.122384, 0.000197423, -0.000552753, -2.43218, 57.1896, 27.3774, 7.14447, 1.65729, 3.10977, -0.0228162, -0.00315042, -0.000193047, 0.000124088, 0.00673759, -0.0155861, 0.00194236, 0.0684891, -0.0175358, 0.000958586, -0.0563791, 0.165854, 0.0406652, 0.470321, -0.540331, 0.336222, -2.08064, -2.16519, -0.131916, 0.47024, -0.543428, 0.335608, -2.08706, -2.16932, -0.108414, -0.0129943, 0.0614763, 0.00737895, 0.00707764, -0.00551452, -0.00303904
0.154027, 1.69567, -1.22557, -1.53806, -0.900208, -1.2066, 1.22874, -1.30251, 0.0264233, -2.39171e-05, 0.000351151, -0.0134595, -0.12439, 0.000403309, -0.00158921, -2.47185, 57.15, 27.5281, 7.18018, 1.63898, 3.10245, 0.0101428, -0.00322048, -0.000179343, 0.000124814, 0.00679271, -0.0157468, 0.00196305, 0.0719441, -0.0146954, 0.000194424, -0.0610141, 0.170056, 0.036235, 0.470308, -0.540269, 0.33623, -2.08058, -2.16517, -0.131955, 0.470243, -0.543435, 0.335603, -2.08707, -2.16936, -0.108227, -0.0131339, 0.0622436, 0.00749268, 0.00420194, -0.00815554, -0.00414228
0.155027, 1.69568, -1.22557, -1.53806, -0.900233, -1.20672, 1.22874, -1.3025, 0.0235736, -0.000943969, 0.000537631, -0.0170965, -0.121858, 0.000540459, 0.000398592, -2.50756, 57.1896, 27.5281, 7.21588, 1.64447, 3.09512, -0.0292249, -0.00329106, -0.000166412, 0.000125991, 0.00684164, -0.0158991, 0.00199023, 0.0724832, -0.0143812, -0.000611452, -0.0607787, 0.168151, 0.0360054, 0.470295, -0.540207, 0.336237, -2.08051, -2.16516, -0.131994, 0.470246, -0.543442, 0.335597, -2.08708, -2.16938, -0.108054, -0.0132738, 0.0630144, 0.00760737, 0.00373987, -0.00780251, -0.00490283
0.156027, 1.6957, -1.22557, -1.53806, -0.900252, -1.20683, 1.22873, -1.3025, 0.0166107, -0.000629315, 0.00281112, -0.014229, -0.114437, 0.000360546, 0.000977805, -2.47185, 57.1896, 27.5638, 7.14447, 1.62616, 3.09512, -0.0484509, -0.00336561, -0.000156867, 0.000125617, 0.00688661, -0.0160517, 0.00202747, 0.0752162, -0.0111281, 0.00112076, -0.0529403, 0.162424, 0.0300297, 0.470282, -0.540144, 0.336245, -2.08045, -2.16514, -0.132034, 0.470245, -0.543452, 0.335593, -2.08711, -2.16939, -0.107885, -0.0134137, 0.0637885, 0.00772302, 0.000517972, -0.0101334, -0.00341404
0.157027, 1.69571, -1.22557, -1.53806, -0.900279, -1.20695, 1.22873, -1.3025, 0.016688, -0.000419546, 0.00229984, -0.016923, -0.115298, 0.000240543, 0.000414511, -2.39648, 57.1896, 27.5638, 7.14447, 1.65088, 3.09512, -0.0420422, -0.00344046, -0.000147548, 0.000127218, 0.00693279, -0.016202, 0.00205666, 0.075422, -0.0116736, 0.000698938, -0.0550281, 0.164353, 0.0329169, 0.470268, -0.54008, 0.336252, -2.08038, -2.16513, -0.132074, 0.470243, -0.543461, 0.335587, -2.08713, -2.16941, -0.107718, -0.0135538, 0.064566, 0.00783963, 0.000916209, -0.00946864, -0.00376771
0.158027, 1.69573, -1.22557, -1.53806, -0.900308, -1.20706, 1.22873, -1.30251, 0.0185229, -0.00195013, 0.000924524, -0.018969, -0.11068, 0.000160497, -0.00213116, -2.50756, 57.261, 27.6035, 7.14447, 1.66919, 3.09512, 0.0229602, -0.00350936, -0.000129475, 0.000130284, 0.00698079, -0.0163524, 0.00206321, 0.0743137, -0.0135686, -0.00107639, -0.0554224, 0.160132, 0.040423, 0.470255, -0.540016, 0.33626, -2.08032, -2.16511, -0.132115, 0.47025, -0.543463, 0.33558, -2.08712, -2.16946, -0.107552, -0.013694, 0.0653468, 0.00795721, 0.00256311, -0.00723423, -0.00528991
0.159027, 1.69574, -1.22557, -1.53806, -0.900333, -1.20717, 1.22873, -1.3025, 0.0150117, -0.000464873, 2.06205e-05, -0.0195666, -0.108713, 0.000107099, -0.000200068, -2.43218, 57.2253, 27.6392, 7.1048, 1.70581, 3.09512, -0.00999879, -0.00358681, -0.000121094, 0.000129296, 0.00702794, -0.0165114, 0.00209983, 0.0761443, -0.0118619, -0.000407285, -0.0548218, 0.160768, 0.03617, 0.470241, -0.53995, 0.336268, -2.08025, -2.1651, -0.132156, 0.470248, -0.543474, 0.335576, -2.08715, -2.16948, -0.107376, -0.0138343, 0.0661309, 0.00807574, 0.000812566, -0.0084326, -0.0047529
0.160027, 1.69574, -1.22557, -1.53805, -0.900359, -1.20728, 1.22874, -1.3025, 0.0125812, -0.000309916, 0.00336758, -0.0216424, -0.110129, 0.000342743, 0.00156204, -2.3568, 57.2253, 27.6392, 6.99371, 1.71863, 3.0878, -0.0557752, -0.00366488, -0.000112779, 0.000126436, 0.00706727, -0.0166681, 0.0021376, 0.0769998, -0.0115411, 0.000750524, -0.0527914, 0.16289, 0.0353755, 0.470227, -0.539884, 0.336276, -2.08018, -2.16508, -0.132197, 0.470246, -0.543485, 0.335574, -2.08718, -2.16949, -0.107211, -0.0139747, 0.0669183, 0.00819524, 0.000428308, -0.00868364, -0.00362121
0.161027, 1.69574, -1.22557, -1.53805, -0.900359, -1.20728, 1.22874, -1.3025, 0.0125812, -0.000309916, 0.00336758, -0.0216424, -0.110129, 0.000342743, 0.00156204, -2.3568, 57.2253, 27.6392, 6.99371, 1.71863, 3.0878, -0.0557752, -0.00373273, -0.000101498, 0.000123264, 0.00704696, -0.0167293, 0.00216279, 0.0778045, -0.0116497, 0.000766071, -0.0526588, 0.163686, 0.0358044, 0.470213, -0.539817, 0.336284, -2.08012, -2.16506, -0.132239, 0.470246, -0.543485, 0.335574, -2.08718, -2.16949, -0.107211, -0.0141153, 0.067709, 0.00831571, 0.000428308, -0.00868364, -0.00362121
0.162027, 1.69574, -1.22557, -1.53805, -0.900359, -1.20728, 1.22874, -1.3025, 0.0125812, -0.000309916, 0.00336758, -0.0216424, -0.110129, 0.000342743, 0.00156204, -2.3568, 57.2253, 27.6392, 6.99371, 1.71863, 3.0878, -0.0557752, -0.00380138, -9.0111e-05, 0.000120071, 0.00702637, -0.0167911, 0.00218823, 0.0786125, -0.0117582, 0.000781337, -0.0525247, 0.164484, 0.0362341, 0.470199, -0.539749, 0.336293, -2.08005, -2.16505, -0.132281, 0.470246, -0.543485, 0.335574, -2.08718, -2.16949, -0.107211, -0.0142558, 0.0685029, 0.00843714, 0.000428308, -0.00868364, -0.00362121
0.163027, 1.69577, -1.22556, -1.53805, -0.900468, -1.2076, 1.22873, -1.3025, 0.0113556, 0.000372182, 0.00171158, -0.0346859, -0.105637, -0.000531318, -0.00106305, -2.3211, 57.2253, 27.79, 6.88263, 1.77997, 3.10977, 0.00373412, -0.00388711, -7.43016e-05, 0.000130038, 0.00721397, -0.0171277, 0.00219284, 0.075421, -0.0141574, -0.00121698, -0.0584285, 0.163135, 0.0502084, 0.470185, -0.539681, 0.336301, -2.07998, -2.16503, -0.132324, 0.47025, -0.543499, 0.335559, -2.08718, -2.16959, -0.106703, -0.0143965, 0.0692999, 0.00855954, 0.00249253, -0.00432037, -0.00504402
0.164027, 1.69577, -1.22557, -1.53805, -0.900514, -1.20771, 1.22873, -1.3025, 0.00897257, -0.000587097, 0.000672651, -0.0388307, -0.102819, -8.29208e-05, 0.00556993, -2.20605, 57.261, 27.8257, 6.88263, 1.78638, 3.10245, -0.0420422, -0.00396468, -6.39559e-05, 0.000132626, 0.00726041, -0.0172803, 0.00221569, 0.0758705, -0.0140939, -0.00255088, -0.0591223, 0.161296, 0.0457619, 0.47017, -0.539612, 0.33631, -2.0799, -2.16502, -0.132367, 0.470249, -0.543505, 0.335552, -2.08719, -2.16962, -0.106537, -0.0145372, 0.0701002, 0.0086829, 0.00225691, -0.0037551, -0.00631136
0.165027, 1.69578, -1.22557, -1.53805, -0.900555, -1.20781, 1.22872, -1.3025, 0.00527144, -0.00215464, -0.000111674, -0.0393156, -0.101271, -0.00032653, 0.00409522, -2.13067, 57.3364, 27.8614, 6.77154, 1.80469, 3.10977, -0.0420422, -0.00404003, -5.11017e-05, 0.000135842, 0.00730702, -0.0174261, 0.00223112, 0.0781742, -0.0122501, -0.00363122, -0.0589817, 0.159119, 0.0446126, 0.470156, -0.539541, 0.336318, -2.07983, -2.165, -0.132411, 0.47025, -0.543508, 0.335545, -2.08718, -2.16965, -0.106379, -0.014678, 0.0709037, 0.00880724, 0.000321826, -0.00513155, -0.00756679
0.166027, 1.69578, -1.22556, -1.53804, -0.900595, -1.20791, 1.22872, -1.3025, 0.00569633, 0.000326814, -0.00163135, -0.0388581, -0.0950858, 5.35943e-05, 0.00277924, -2.05529, 57.261, 27.9368, 6.62079, 1.81659, 3.10245, -0.0356336, -0.00411813, -4.16203e-05, 0.000134054, 0.00735132, -0.0175793, 0.00225685, 0.0778355, -0.0129486, -0.0026391, -0.0566129, 0.157589, 0.0476815, 0.470141, -0.539471, 0.336327, -2.07976, -2.16498, -0.132455, 0.470248, -0.543514, 0.335542, -2.08719, -2.16967, -0.106216, -0.0148189, 0.0717102, 0.00893254, 0.000904747, -0.00411582, -0.00643554
0.167027, 1.69578, -1.22556, -1.53804, -0.900643, -1.208, 1.22872, -1.3025, 0.00196155, 0.000217876, 0.00140492, -0.0403205, -0.0900977, -0.000235528, 0.000134884, -1.94024, 57.261, 27.9725, 6.54541, 1.81659, 3.10977, 0.0165515, -0.00419333, -2.87264e-05, 0.000133663, 0.0073916, -0.0177262, 0.00226517, 0.0782446, -0.0123329, -0.00166796, -0.0519074, 0.15386, 0.0514783, 0.470126, -0.539399, 0.336336, -2.07969, -2.16496, -0.132499, 0.470249, -0.543516, 0.335539, -2.08718, -2.16972, -0.106066, -0.0149597, 0.0725199, 0.00905882, 0.000202316, -0.0038875, -0.00540212
0.168027, 1.69578, -1.22556, -1.53803, -0.900694, -1.20809, 1.22872, -1.3025, 0.00322696, 0.00324249, 0.00131709, -0.0442903, -0.0870481, -0.000157011, 0.0012344, -1.86486, 57.261, 27.9725, 6.47003, 1.8349, 3.10977, -0.00999879, -0.00426888, -1.54138e-05, 0.000133187, 0.00742718, -0.0178712, 0.00227958, 0.0764684, -0.0143343, -0.000525999, -0.0521428, 0.155653, 0.0564609, 0.470112, -0.539326, 0.336345, -2.07961, -2.16495, -0.132544, 0.47025, -0.543518, 0.335536, -2.08717, -2.16975, -0.105923, -0.0151006, 0.0733327, 0.00918606, 0.00203848, -0.00141557, -0.00393318
0.169027, 1.69577, -1.22556, -1.53802, -0.900748, -1.20818, 1.22872, -1.3025, 0.00112257, 0.00241976, 0.00250579, -0.0476251, -0.0845969, -0.000342027, -0.000276927, -1.78948, 57.261, 28.0478, 6.39465, 1.84772, 3.11618, 0.0229602, -0.00434423, -1.50073e-06, 0.000135261, 0.00746632, -0.0180123, 0.00228502, 0.0765769, -0.0144774, -0.000954991, -0.0513188, 0.153706, 0.0606589, 0.470096, -0.539253, 0.336354, -2.07954, -2.16493, -0.132589, 0.470252, -0.543518, 0.33553, -2.08715, -2.16979, -0.105781, -0.0152415, 0.0741485, 0.00931428, 0.00203031, -0.000631621, -0.00425535
0.170027, 1.69577, -1.22556, -1.53802, -0.900804, -1.20826, 1.22872, -1.3025, -0.000463978, 4.35147e-05, 0.00121532, -0.0492127, -0.0832277, 9.34509e-06, 0.00553951, -1.7141, 57.3364, 28.0875, 6.28357, 1.87244, 3.10977, -0.00267457, -0.00441749, 1.50711e-05, 0.000139052, 0.00750469, -0.0181474, 0.00228999, 0.0779146, -0.0140862, -0.00290627, -0.0520234, 0.151413, 0.0549999, 0.470081, -0.539179, 0.336364, -2.07946, -2.16491, -0.132635, 0.470256, -0.543514, 0.335523, -2.08713, -2.16983, -0.105647, -0.0153825, 0.0749674, 0.00944347, 0.00147718, -0.000840084, -0.00625772
0.171027, 1.69577, -1.22556, -1.53801, -0.900868, -1.20834, 1.22871, -1.30249, -0.0016594, 0.00426893, 0.00349135, -0.052405, -0.0816592, -0.000231126, 0.00584674, -1.63873, 57.2968, 28.1232, 6.24786, 1.89075, 3.11618, -0.0484509, -0.00448921, 3.1436e-05, 0.000139078, 0.00754394, -0.0182871, 0.00229298, 0.0771162, -0.0146955, -7.28468e-06, -0.0503146, 0.155149, 0.0582639, 0.470066, -0.539104, 0.336373, -2.07939, -2.16489, -0.132681, 0.470259, -0.543509, 0.335521, -2.08711, -2.16987, -0.105507, -0.0155234, 0.0757893, 0.00957364, 0.00202552, 0.000339702, -0.00316437
0.172027, 1.69576, -1.22555, -1.538, -0.900932, -1.20842, 1.22871, -1.30249, -0.00255963, 0.0062574, 0.00202179, -0.0566881, -0.0762956, 0.000625812, 0.00352949, -1.56335, 57.2968, 28.1589, 6.17248, 1.92096, 3.09512, -0.0292249, -0.00456356, 4.80206e-05, 0.000137335, 0.0075727, -0.0184309, 0.00229443, 0.0762344, -0.0157279, 0.000166077, -0.0499504, 0.154441, 0.0649492, 0.47005, -0.539028, 0.336383, -2.07931, -2.16487, -0.132728, 0.470263, -0.543506, 0.335519, -2.08709, -2.16992, -0.105376, -0.0156643, 0.0766142, 0.00970477, 0.00289102, 0.00205278, -0.00275949
0.173027, 1.69575, -1.22556, -1.53799, -0.901001, -1.20849, 1.22871, -1.30249, -0.00583571, 0.00294117, 0.00700627, -0.0595773, -0.0722887, 0.000145943, 0.00237343, -1.37688, 57.3721, 28.1986, 6.09711, 1.95209, 3.10245, -0.0228162, -0.00463976, 6.09585e-05, 0.000140185, 0.00760916, -0.0185647, 0.00229706, 0.0761164, -0.0159489, -0.000306889, -0.0451588, 0.148268, 0.0696355, 0.470035, -0.538951, 0.336392, -2.07923, -2.16485, -0.132775, 0.470263, -0.543504, 0.335513, -2.08706, -2.16996, -0.105247, -0.0158053, 0.0774421, 0.00983689, 0.00295055, 0.0030826, -0.00308778
0.174027, 1.69574, -1.22556, -1.53798, -0.901069, -1.20856, 1.22871, -1.3025, -0.00547941, 0.000597148, 0.00925198, -0.0620942, -0.0691172, 9.72964e-05, 0.000317579, -1.30151, 57.4475, 28.3097, 6.02173, 1.97681, 3.10245, 0.0165515, -0.00471475, 7.73773e-05, 0.000144983, 0.00764621, -0.0186973, 0.00229092, 0.0751886, -0.0176136, -0.00127354, -0.0430716, 0.144233, 0.0768778, 0.470019, -0.538874, 0.336402, -2.07915, -2.16483, -0.132822, 0.470267, -0.543499, 0.335505, -2.08703, -2.17001, -0.10512, -0.0159461, 0.0782729, 0.00996998, 0.00440293, 0.00505413, -0.00381821
0.175027, 1.69573, -1.22555, -1.53797, -0.901142, -1.20863, 1.22871, -1.30249, -0.00704869, 0.00383489, 0.0103665, -0.0617391, -0.066699, 0.00114993, 0.00106881, -1.15075, 57.4475, 28.3097, 5.98602, 2.00061, 3.07315, -0.00267457, -0.00478817, 9.39803e-05, 0.000144322, 0.00767289, -0.0188295, 0.00228665, 0.075919, -0.0173592, 0.0012553, -0.0392125, 0.146672, 0.0759852, 0.470003, -0.538796, 0.336412, -2.07907, -2.16481, -0.13287, 0.47027, -0.543492, 0.335504, -2.08699, -2.17006, -0.105005, -0.016087, 0.0791067, 0.010104, 0.00413224, 0.0047584, -0.00130309
0.176027, 1.69571, -1.22554, -1.53796, -0.901215, -1.20869, 1.22871, -1.30249, -0.00905558, 0.00397082, 0.00940749, -0.0660303, -0.0691879, 0.00127525, 0.00180464, -0.960319, 57.4078, 28.3851, 5.87494, 2.01984, 3.05942, -0.0292249, -0.00486579, 0.00010595, 0.000140039, 0.00769959, -0.0189698, 0.0022925, 0.0770887, -0.016873, 0.000543319, -0.0426422, 0.150141, 0.0761666, 0.469987, -0.538717, 0.336422, -2.07899, -2.16479, -0.132919, 0.470269, -0.54349, 0.335505, -2.08698, -2.17011, -0.104881, -0.0162278, 0.0799433, 0.0102391, 0.00352482, 0.00453422, -0.0020478
0.177027, 1.6957, -1.22555, -1.53795, -0.901295, -1.20875, 1.2287, -1.30249, -0.0118747, 0.000413406, 0.00736686, -0.0678087, -0.066723, 0.000341541, 0.00175938, -0.845268, 57.5189, 28.3851, 5.83527, 2.05005, 3.07315, -0.0420422, -0.00493754, 0.000124452, 0.000142939, 0.00773056, -0.0190935, 0.00227971, 0.0788634, -0.0156076, -0.0024505, -0.0446634, 0.145154, 0.0753459, 0.469971, -0.538637, 0.336433, -2.07891, -2.16477, -0.132968, 0.470274, -0.54348, 0.3355, -2.08693, -2.17016, -0.104771, -0.0163686, 0.0807828, 0.0103751, 0.00207616, 0.00404386, -0.00511539
0.178027, 1.69568, -1.22554, -1.53794, -0.901379, -1.20881, 1.22871, -1.30249, -0.00989289, 0.00453985, 0.00947761, -0.0700771, -0.0644581, -0.00365449, 4.73055e-05, -0.76989, 57.4832, 28.4961, 5.83527, 2.06195, 3.05209, -0.00999879, -0.0050075, 0.000145903, 0.000141606, 0.00775928, -0.0192285, 0.00225647, 0.0764688, -0.0171582, -5.14255e-05, -0.0461019, 0.146405, 0.0830794, 0.469954, -0.538556, 0.336443, -2.07883, -2.16475, -0.133017, 0.470282, -0.543467, 0.335499, -2.08687, -2.17023, -0.104654, -0.0165093, 0.0816252, 0.0105121, 0.00348658, 0.00693704, -0.00228349
0.179027, 1.69567, -1.22554, -1.53792, -0.901458, -1.20886, 1.2287, -1.30249, -0.0102816, 0.00499093, 0.011692, -0.0722286, -0.0623485, -0.00282483, -0.00114328, -0.619133, 57.5546, 28.4565, 5.72418, 2.06195, 3.05209, 0.0229602, -0.00507966, 0.000164623, 0.000139711, 0.00777558, -0.0193484, 0.00224088, 0.0760274, -0.0183028, 0.000789391, -0.0432314, 0.146416, 0.0879761, 0.469938, -0.538474, 0.336454, -2.07875, -2.16473, -0.133067, 0.470287, -0.543456, 0.335499, -2.08683, -2.17029, -0.104566, -0.01665, 0.0824704, 0.0106501, 0.00450601, 0.00813531, -0.00128722
0.180027, 1.69564, -1.22554, -1.5379, -0.90154, -1.20891, 1.2287, -1.30249, -0.011336, -0.000419458, 0.0135159, -0.0777167, -0.0566419, -0.00190333, 0.00022166, -0.43267, 57.7411, 28.5319, 5.6488, 2.07477, 3.04477, -0.00267457, -0.00515656, 0.000180037, 0.000142842, 0.00779723, -0.0194676, 0.00223257, 0.0748548, -0.0202893, -0.00239953, -0.0409106, 0.138012, 0.0937432, 0.469921, -0.538392, 0.336464, -2.07866, -2.16471, -0.133117, 0.470289, -0.543448, 0.335494, -2.08678, -2.17034, -0.104472, -0.0167906, 0.0833185, 0.010789, 0.0061868, 0.0107322, -0.00417546
0.181027, 1.69563, -1.22553, -1.53789, -0.901629, -1.20895, 1.2287, -1.30249, -0.00941052, 0.00148223, 0.0147944, -0.0798803, -0.0528509, -0.00121616, 0.00044485, -0.357292, 57.8125, 28.6072, 5.6131, 2.10498, 3.03744, -0.00999879, -0.00522772, 0.000202173, 0.000143291, 0.0078187, -0.0195925, 0.00220917, 0.0730965, -0.0227099, -0.00118171, -0.0384159, 0.138174, 0.0996092, 0.469904, -0.538309, 0.336475, -2.07858, -2.16469, -0.133167, 0.470297, -0.543434, 0.335491, -2.08673, -2.1704, -0.104375, -0.0169311, 0.0841693, 0.010929, 0.00844543, 0.0132306, -0.0026347
0.182027, 1.6956, -1.22553, -1.53787, -0.90172, -1.20899, 1.2287, -1.30249, -0.017191, 0.00202903, 0.0137467, -0.0836241, -0.0484295, -0.000703404, 0.00126536, -0.166862, 57.9236, 28.6429, 5.53772, 2.09308, 3.03012, -0.0356336, -0.00530169, 0.000219265, 0.000143338, 0.0078345, -0.0197072, 0.0021936, 0.0756583, -0.019677, -0.00129619, -0.0372162, 0.136343, 0.095803, 0.469887, -0.538224, 0.336486, -2.07849, -2.16467, -0.133218, 0.4703, -0.543422, 0.33549, -2.08667, -2.17046, -0.104294, -0.0170715, 0.0850228, 0.0110699, 0.00537025, 0.0114465, -0.00292754
0.183027, 1.69558, -1.22553, -1.53785, -0.901814, -1.20903, 1.2287, -1.30249, -0.0138074, -0.00138204, 0.0151753, -0.0873551, -0.0463318, -0.000354503, -0.00107469, -0.0914839, 58.0704, 28.7183, 5.50201, 2.11139, 3.02371, 0.0165515, -0.00537177, 0.000241993, 0.000145718, 0.00785342, -0.0198195, 0.00216179, 0.0735862, -0.0231444, -0.00347656, -0.0371095, 0.132616, 0.106665, 0.46987, -0.538139, 0.336497, -2.07841, -2.16465, -0.13327, 0.470308, -0.543404, 0.335486, -2.0866, -2.17053, -0.104215, -0.0172118, 0.0858791, 0.0112118, 0.00853403, 0.0148439, -0.00472016
0.184027, 1.69555, -1.22552, -1.53783, -0.901904, -1.20907, 1.2287, -1.30249, -0.0211144, -0.000397151, 0.0194259, -0.0882813, -0.04467, 0.000485272, -0.00094293, 0.134651, 58.0704, 28.7937, 5.38696, 2.1297, 3.00174, 0.0229602, -0.00544859, 0.000257112, 0.000139872, 0.00786024, -0.0199406, 0.00214899, 0.0761977, -0.0204174, -0.00105956, -0.0309721, 0.133054, 0.103143, 0.469853, -0.538053, 0.336508, -2.07832, -2.16463, -0.133322, 0.470309, -0.543395, 0.33549, -2.08656, -2.17059, -0.104138, -0.017352, 0.0867382, 0.0113547, 0.00586225, 0.0126277, -0.00253145
