alisrour97/Franka_experiments/Real_Robot_scripts/servo-franka/Data2/log_dyn_PI2_9.csv
Time,q1,q2,q3,q4,q5,q6,q7,dq1,dq2,dq3,dq4,dq5,dq6,dq7,t1,t2,t3,t4,t5,t6,t7,ex1,ex2,ex3,ex4,ex5,ex6,ev1,ev2,ev3,ev4,ev5,ev6,xd,yd,zd,uxd,uyd,uzd,x,y,z,ux,uy,uz,vxd,vyd,vzd,vx,vy,vz
7.32422e-07, 1.69086, -1.22936, -1.54073, -0.900576, -1.19248, 1.22704, -1.3025, -0.00492781, 0.00816129, 0.0029053, 0.00457522, 0.00652925, 0.00117468, -0.000320381, 0.928108, 66.8024, 34.34, 7.59277, 2.92163, 5.46817, -0.435719, -2.79027e-05, -0.00249665, 0.00345567, 0.00468299, 0.00329553, 0.00162889, 0.000919055, 0.00245163, 0.00687293, 0.0102674, 0.00261687, -0.00522204, 0.471008, -0.543389, 0.335894, -2.08385, -2.16584, -0.129887, 0.468396, -0.542985, 0.332553, -2.08138, -2.16044, -0.127852, -1.41255e-05, -9.11997e-05, -6.59526e-05, -0.00218164, -0.00215667, 0.00665178
0.0122278, 1.69083, -1.22933, -1.54072, -0.900555, -1.19242, 1.22706, -1.3025, -0.00391529, 0.00121595, 0.00102174, 0.00160624, 0.0045929, 0.00194597, 0.00135167, 0.888436, 67.0602, 34.34, 7.5531, 2.90973, 5.38211, -0.435719, -3.16523e-05, -0.00250458, 0.00342968, 0.00461408, 0.00330849, 0.00165058, 0.0010323, 0.00149896, 0.00175504, 0.00626125, -0.00191057, -0.00476584, 0.471008, -0.543389, 0.335894, -2.08385, -2.16584, -0.129887, 0.468384, -0.542995, 0.332578, -2.08144, -2.16043, -0.127954, -2.13283e-05, -0.000136675, -0.000102379, -0.00141809, -0.00148725, 0.00151555
0.0132278, 1.69083, -1.22933, -1.54072, -0.900555, -1.19242, 1.22706, -1.3025, -0.00391529, 0.00121595, 0.00102174, 0.00160624, 0.0045929, 0.00194597, 0.00135167, 0.888436, 67.0602, 34.34, 7.5531, 2.90973, 5.38211, -0.435719, -3.16408e-05, -0.00250458, 0.00342967, 0.00461407, 0.00330849, 0.00165057, 0.000977423, 0.00149027, 0.00178698, 0.00628965, -0.00190101, -0.00482663, 0.471008, -0.543389, 0.335894, -2.08385, -2.16584, -0.129887, 0.468384, -0.542995, 0.332578, -2.08144, -2.16043, -0.127954, -2.91898e-05, -0.000186294, -0.000142179, -0.00141809, -0.00148725, 0.00151555
0.0142278, 1.69083, -1.22933, -1.54072, -0.900555, -1.19242, 1.22706, -1.3025, -0.00391529, 0.00121595, 0.00102174, 0.00160624, 0.0045929, 0.00194597, 0.00135167, 0.888436, 67.0602, 34.34, 7.5531, 2.90973, 5.38211, -0.435719, -3.161e-05, -0.00250457, 0.00342965, 0.00461404, 0.0033085, 0.00165057, 0.000917795, 0.00148084, 0.00182174, 0.00632066, -0.00189046, -0.00489286, 0.471008, -0.543389, 0.335894, -2.08385, -2.16584, -0.129887, 0.468384, -0.542995, 0.332578, -2.08144, -2.16043, -0.127954, -3.77325e-05, -0.000240197, -0.00018547, -0.00141809, -0.00148725, 0.00151555
0.0152278, 1.69083, -1.22933, -1.54072, -0.900555, -1.19242, 1.22706, -1.3025, -0.00391529, 0.00121595, 0.00102174, 0.00160624, 0.0045929, 0.00194597, 0.00135167, 0.888436, 67.0602, 34.34, 7.5531, 2.90973, 5.38211, -0.435719, -3.15502e-05, -0.00250456, 0.00342962, 0.00461399, 0.00330851, 0.00165056, 0.000853266, 0.00147063, 0.00185941, 0.00635438, -0.00187888, -0.00496469, 0.471008, -0.543389, 0.335894, -2.08385, -2.16584, -0.129887, 0.468384, -0.542995, 0.332578, -2.08144, -2.16043, -0.127954, -4.69786e-05, -0.000298522, -0.00023237, -0.00141809, -0.00148725, 0.00151555
0.0162278, 1.69083, -1.22933, -1.54072, -0.900555, -1.19242, 1.22706, -1.3025, -0.00391529, 0.00121595, 0.00102174, 0.00160624, 0.0045929, 0.00194597, 0.00135167, 0.888436, 67.0602, 34.34, 7.5531, 2.90973, 5.38211, -0.435719, -3.14519e-05, -0.00250455, 0.00342956, 0.00461391, 0.00330853, 0.00165055, 0.000783687, 0.00145963, 0.00190007, 0.0063909, -0.00186622, -0.00504233, 0.471008, -0.54339, 0.335894, -2.08385, -2.16584, -0.129887, 0.468384, -0.542995, 0.332578, -2.08144, -2.16043, -0.127954, -5.69498e-05, -0.000361405, -0.000282992, -0.00141809, -0.00148725, 0.00151555
0.0172278, 1.69083, -1.22933, -1.54072, -0.900555, -1.19242, 1.22706, -1.3025, -0.00391529, 0.00121595, 0.00102174, 0.00160624, 0.0045929, 0.00194597, 0.00135167, 0.888436, 67.0602, 34.34, 7.5531, 2.90973, 5.38211, -0.435719, -3.1306e-05, -0.00250452, 0.00342948, 0.00461379, 0.00330856, 0.00165053, 0.000708911, 0.0014478, 0.00194383, 0.00643031, -0.00185244, -0.00512594, 0.471008, -0.54339, 0.335894, -2.08385, -2.16584, -0.129886, 0.468384, -0.542995, 0.332578, -2.08144, -2.16043, -0.127954, -6.7667e-05, -0.000428975, -0.000337449, -0.00141809, -0.00148725, 0.00151555
0.0182278, 1.69083, -1.22933, -1.54072, -0.900555, -1.19242, 1.22706, -1.3025, -0.00391529, 0.00121595, 0.00102174, 0.00160624, 0.0045929, 0.00194597, 0.00135167, 0.888436, 67.0602, 34.34, 7.5531, 2.90973, 5.38211, -0.435719, -3.11032e-05, -0.00250449, 0.00342936, 0.00461361, 0.00330861, 0.0016505, 0.000628796, 0.00143513, 0.00199077, 0.0064727, -0.00183749, -0.0052157, 0.471008, -0.54339, 0.335893, -2.08385, -2.16584, -0.129886, 0.468384, -0.542995, 0.332578, -2.08144, -2.16043, -0.127954, -7.91509e-05, -0.000501362, -0.000395848, -0.00141809, -0.00148725, 0.00151555
0.0192278, 1.69083, -1.22933, -1.54072, -0.900555, -1.19242, 1.22706, -1.3025, -0.00391529, 0.00121595, 0.00102174, 0.00160624, 0.0045929, 0.00194597, 0.00135167, 0.888436, 67.0602, 34.34, 7.5531, 2.90973, 5.38211, -0.435719, -3.08344e-05, -0.00250445, 0.00342921, 0.00461339, 0.00330866, 0.00165047, 0.000543204, 0.0014216, 0.00204097, 0.00651816, -0.00182133, -0.00531179, 0.471008, -0.54339, 0.335893, -2.08385, -2.16584, -0.129886, 0.468384, -0.542995, 0.332578, -2.08144, -2.16043, -0.127954, -9.14213e-05, -0.000578688, -0.000458296, -0.00141809, -0.00148725, 0.00151555
0.0202278, 1.69083, -1.22933, -1.54072, -0.900555, -1.19242, 1.22706, -1.3025, -0.00391529, 0.00121595, 0.00102174, 0.00160624, 0.0045929, 0.00194597, 0.00135167, 0.888436, 67.0602, 34.34, 7.5531, 2.90973, 5.38211, -0.435719, -3.04907e-05, -0.00250439, 0.00342901, 0.0046131, 0.00330874, 0.00165042, 0.000452002, 0.00140717, 0.00209453, 0.00656679, -0.00180393, -0.00541438, 0.471008, -0.54339, 0.335893, -2.08385, -2.16584, -0.129885, 0.468384, -0.542995, 0.332578, -2.08144, -2.16043, -0.127954, -0.000104498, -0.000661074, -0.000524897, -0.00141809, -0.00148725, 0.00151555
0.0212278, 1.69084, -1.22934, -1.54072, -0.900552, -1.1924, 1.22709, -1.30249, -0.000145274, -0.0019585, 0.00443694, -0.00140414, 0.00331922, 0.00473372, 0.000935885, 0.813057, 67.1317, 34.3757, 7.59277, 2.88501, 5.22372, -0.428395, -2.66634e-05, -0.00249377, 0.00342734, 0.00457933, 0.00331429, 0.00164131, -0.00207814, -0.00242508, 0.00112434, 0.00914956, -0.00235922, 0.00252597, 0.471008, -0.543391, 0.335893, -2.08385, -2.16584, -0.129885, 0.468395, -0.542992, 0.332579, -2.08144, -2.16045, -0.127998, -0.000118398, -0.000748633, -0.000595748, 0.00226982, 0.00122914, 0.000763893
0.0222278, 1.69084, -1.22933, -1.54073, -0.900552, -1.1924, 1.22709, -1.3025, -0.000150915, -0.000440057, 0.00241939, -0.000896974, 0.00250307, 0.00414195, -0.000562871, 0.813057, 67.0959, 34.4153, 7.59277, 2.88501, 5.20267, -0.396351, -2.7789e-05, -0.00249509, 0.00342681, 0.00457862, 0.00331249, 0.00163855, -0.00165089, -0.00174004, 0.00138085, 0.0069158, -0.000369815, 0.00218744, 0.471008, -0.543391, 0.335892, -2.08385, -2.16584, -0.129884, 0.468393, -0.542993, 0.332579, -2.08144, -2.16045, -0.127997, -0.000133141, -0.000841478, -0.000670947, 0.00159547, 0.000646992, 0.000896313
0.0232278, 1.69083, -1.22935, -1.54073, -0.90055, -1.1924, 1.22709, -1.3025, -0.000141158, -0.0143107, 5.05684e-05, -0.00503606, 0.00392092, -0.00229941, -0.00183331, 0.813057, 67.0206, 34.2289, 7.51739, 2.83008, 5.10928, -0.356984, -3.16048e-05, -0.00249566, 0.00343939, 0.00458079, 0.00332841, 0.00164392, -0.00217942, -0.00149625, -0.00867968, -0.00315542, -0.0180081, 0.00657932, 0.471008, -0.543392, 0.335892, -2.08385, -2.16584, -0.129884, 0.468392, -0.542996, 0.332566, -2.08144, -2.16043, -0.128009, -0.000148743, -0.000939713, -0.000750586, 0.000954331, 0.00260904, -0.00902797
0.0242278, 1.69084, -1.22936, -1.54075, -0.900553, -1.1924, 1.2271, -1.3025, -0.000653394, -0.0102111, -0.00891638, -0.00429134, 0.00400865, -0.00303422, -0.00244291, 0.701973, 66.3223, 33.9313, 7.40631, 2.66986, 4.90146, -0.324025, -3.35172e-05, -0.00249398, 0.00344935, 0.00459267, 0.00332834, 0.00164747, -0.00046302, 0.000725163, -0.00931596, -0.0107575, -0.0138459, 0.00154348, 0.471008, -0.543393, 0.335891, -2.08385, -2.16584, -0.129883, 0.468394, -0.542997, 0.332555, -2.08144, -2.16043, -0.127995, -0.00016522, -0.00104344, -0.000834754, -0.0012423, 0.000817873, -0.00993985
0.0252278, 1.69085, -1.22936, -1.54077, -0.900561, -1.19241, 1.2271, -1.3025, 0.00373548, -0.00855208, -0.0150083, -0.00481939, 0.00388018, -0.00442646, -0.00379875, 0.511544, 65.3662, 33.4473, 7.33093, 2.50415, 4.70096, -0.265431, -3.21173e-05, -0.0024914, 0.00346197, 0.00462403, 0.00332553, 0.00164497, -0.00169752, -0.000498071, -0.0108538, -0.0180885, -0.0121775, 0.00455588, 0.471007, -0.543393, 0.335891, -2.08385, -2.16584, -0.129882, 0.468395, -0.542994, 0.332542, -2.08142, -2.16042, -0.127956, -0.000182589, -0.00115275, -0.000923534, -0.000137674, 0.00221405, -0.0113925
0.0262278, 1.69086, -1.22937, -1.54081, -0.900568, -1.19242, 1.22709, -1.3025, 0.00580423, -0.00794604, -0.0174635, -0.0043413, 0.00283135, -0.00781268, -0.00449919, 0.360787, 64.3704, 32.8522, 7.21588, 2.35126, 4.55722, -0.21233, -3.25598e-05, -0.00249286, 0.00347988, 0.00467083, 0.00332941, 0.00164723, -0.00229446, -0.000388581, -0.0116294, -0.0236443, -0.0121845, 0.00519424, 0.471007, -0.543394, 0.33589, -2.08385, -2.16584, -0.129881, 0.468393, -0.542993, 0.332524, -2.08139, -2.1604, -0.127907, -0.000200863, -0.00126774, -0.00101701, -0.000314649, 0.00280328, -0.0121558
0.0272278, 1.69087, -1.22939, -1.54085, -0.900571, -1.19243, 1.22708, -1.3025, 0.00640132, -0.00973129, -0.0276002, -0.00250369, -0.000218707, -0.0110449, -0.00418625, 0.245735, 63.5611, 32.3285, 7.02942, 2.25879, 4.42813, -0.180287, -4.02486e-05, -0.00249996, 0.00351002, 0.00473451, 0.0033417, 0.00166586, 0.000377304, 0.00236524, -0.0162519, -0.036042, -0.0125302, -0.002143, 0.471007, -0.543395, 0.335889, -2.08384, -2.16584, -0.129879, 0.468385, -0.542997, 0.332492, -2.08137, -2.16034, -0.127846, -0.000220057, -0.00138849, -0.00111525, -0.00315546, 0.000643666, -0.01715
0.0282278, 1.69089, -1.22942, -1.54091, -0.900587, -1.19245, 1.22706, -1.30249, 0.0165013, -0.010701, -0.0353795, -0.0048571, -0.0028749, -0.00822299, -0.00136668, -0.0161054, 62.8589, 31.7731, 6.99371, 2.17914, 4.27798, -0.218739, -4.19356e-05, -0.00249878, 0.00354875, 0.00481511, 0.00335231, 0.00167437, -0.00241648, -0.00270855, -0.0201081, -0.0443451, -0.00885603, 0.00230344, 0.471007, -0.543396, 0.335888, -2.08384, -2.16584, -0.129878, 0.468385, -0.542994, 0.332453, -2.08133, -2.1603, -0.127765, -0.000240182, -0.00151507, -0.00121833, 0.00165252, 0.00407629, -0.0207802
0.0292278, 1.6909, -1.22944, -1.54098, -0.90059, -1.19248, 1.22705, -1.30249, 0.0162574, -0.015589, -0.0432905, -0.00301842, -0.0077513, -0.00643039, 0.00221296, -0.0914839, 62.1964, 31.1741, 6.80725, 2.17914, 4.13424, -0.180287, -5.62121e-05, -0.00251007, 0.00358649, 0.00490117, 0.00335152, 0.0017046, 0.00132579, -0.000647058, -0.0252768, -0.0514079, -0.00846773, -0.00862749, 0.471007, -0.543398, 0.335887, -2.08384, -2.16584, -0.129876, 0.468372, -0.543004, 0.332413, -2.08132, -2.16023, -0.127664, -0.000261251, -0.00164757, -0.00132632, -0.000480202, 0.000960477, -0.0265105
0.0302278, 1.69091, -1.22948, -1.54105, -0.900611, -1.19251, 1.22704, -1.30248, 0.0114156, -0.0218573, -0.0514532, -0.00697171, -0.0098959, -0.00327596, 0.00280376, -0.0914839, 61.7917, 30.6544, 6.84296, 2.14252, 3.94107, -0.205922, -6.75159e-05, -0.00251648, 0.00363902, 0.00499726, 0.0033671, 0.00172135, 0.00516165, 0.00216472, -0.031784, -0.0583673, -0.0106529, -0.0152219, 0.471007, -0.543399, 0.335886, -2.08384, -2.16584, -0.129874, 0.468364, -0.543008, 0.332358, -2.08128, -2.16017, -0.12757, -0.000283275, -0.00178604, -0.00143928, -0.0034082, -0.00207839, -0.0335593
0.0312278, 1.69093, -1.22952, -1.54112, -0.900621, -1.19253, 1.22703, -1.30249, 0.0147366, -0.0237044, -0.0565582, -0.0102458, -0.0160076, -0.00667902, 0.000695379, -0.242241, 61.4227, 30.095, 6.77154, 2.10498, 3.7836, -0.166554, -7.73395e-05, -0.0025204, 0.00369075, 0.00509448, 0.0033829, 0.0017353, 0.00463611, 0.00173072, -0.0355075, -0.0707803, -0.0084237, -0.0116048, 0.471006, -0.543401, 0.335885, -2.08384, -2.16584, -0.129872, 0.468359, -0.543012, 0.332304, -2.08123, -2.16011, -0.127475, -0.000306264, -0.00193055, -0.00155726, -0.00315103, -0.00111323, -0.0372855
0.0322278, 1.69093, -1.22955, -1.5412, -0.900628, -1.19257, 1.22703, -1.30248, 0.0126285, -0.0270992, -0.0661499, -0.0108277, -0.026038, -0.00570973, 0.00189749, -0.206535, 61.0181, 29.5395, 6.62079, 2.08667, 3.64718, -0.199513, -9.45139e-05, -0.00253215, 0.00373753, 0.00518656, 0.00338701, 0.00177243, 0.00960827, 0.00535462, -0.040691, -0.0831511, -0.00247812, -0.0224567, 0.471006, -0.543402, 0.335883, -2.08384, -2.16584, -0.12987, 0.468346, -0.543024, 0.332255, -2.08122, -2.16003, -0.127371, -0.000330225, -0.00208114, -0.00168032, -0.00680365, -0.00552297, -0.0431893
0.0332278, 1.69096, -1.22958, -1.54128, -0.900639, -1.1926, 1.22702, -1.30248, 0.015929, -0.0279762, -0.0691102, -0.0100245, -0.0269854, -0.00676412, 0.00189961, -0.357292, 60.6848, 29.1666, 6.54541, 2.02533, 3.56112, -0.21233, -0.00010333, -0.00253431, 0.00378724, 0.0052889, 0.00339022, 0.00178871, 0.00897785, 0.00446487, -0.0423058, -0.0872142, -0.00283133, -0.0218209, 0.471006, -0.543404, 0.335882, -2.08384, -2.16584, -0.129868, 0.468342, -0.543027, 0.332203, -2.08118, -2.15997, -0.127257, -0.000355167, -0.00223786, -0.0018085, -0.00602092, -0.0047724, -0.044841
0.0342278, 1.69098, -1.2296, -1.54136, -0.900652, -1.19263, 1.22702, -1.30248, 0.0171568, -0.0243462, -0.0702819, -0.00943721, -0.0275946, -0.00737813, 0.00546854, -0.468376, 60.3198, 28.9048, 6.47003, 1.96399, 3.47507, -0.199513, -0.000111123, -0.00253538, 0.00382882, 0.00538805, 0.00337466, 0.0018011, 0.00839195, 0.00433438, -0.0405153, -0.0885733, 0.00109447, -0.0257354, 0.471005, -0.543406, 0.33588, -2.08384, -2.16584, -0.129865, 0.468339, -0.54303, 0.332159, -2.08115, -2.15993, -0.127127, -0.000381096, -0.00240075, -0.00194184, -0.0058729, -0.00462714, -0.0431193
0.0352278, 1.691, -1.22962, -1.54143, -0.900654, -1.19267, 1.22701, -1.30249, 0.0214842, -0.0241917, -0.0701837, -0.00321169, -0.0328393, -0.00554579, 0.00119926, -0.468376, 60.062, 28.6072, 6.28357, 1.89624, 3.44668, -0.120778, -0.000123136, -0.00254092, 0.00386586, 0.00547774, 0.00335815, 0.00182146, 0.00932533, 0.00350888, -0.0394841, -0.0869449, 0.00607647, -0.0245696, 0.471005, -0.543408, 0.335878, -2.08384, -2.16584, -0.129862, 0.468332, -0.543039, 0.332119, -2.08113, -2.15988, -0.127006, -0.000408018, -0.00256985, -0.00208038, -0.00500487, -0.00584267, -0.0424093
0.0362278, 1.69103, -1.22964, -1.54151, -0.900672, -1.19271, 1.22701, -1.30248, 0.0187784, -0.0231433, -0.0741253, -0.00794719, -0.0365243, -0.00414204, 0.00189776, -0.468376, 59.9152, 28.4961, 6.35895, 1.823, 3.42471, -0.140919, -0.000129491, -0.00254014, 0.00390449, 0.00557249, 0.00333468, 0.00183418, 0.0105197, 0.00481972, -0.04054, -0.0925209, 0.0114548, -0.027156, 0.471005, -0.543411, 0.335877, -2.08384, -2.16583, -0.129859, 0.468331, -0.543042, 0.332078, -2.0811, -2.15984, -0.126873, -0.000435936, -0.00274516, -0.00222414, -0.00633746, -0.00708825, -0.0437416
0.0372278, 1.69105, -1.22964, -1.54159, -0.900688, -1.19274, 1.22702, -1.30248, 0.0191745, -0.0172803, -0.0743798, -0.010212, -0.0396534, 0.00525246, 0.00271616, -0.43267, 59.8398, 28.4208, 6.39465, 1.75525, 3.41739, -0.172963, -0.000134774, -0.00253877, 0.00393663, 0.00566037, 0.00330388, 0.00185072, 0.0105892, 0.00284459, -0.0365823, -0.0865752, 0.0247855, -0.0271144, 0.471004, -0.543413, 0.335874, -2.08384, -2.16583, -0.129855, 0.468331, -0.543044, 0.332043, -2.08109, -2.1598, -0.126739, -0.000464854, -0.00292672, -0.00237315, -0.00424847, -0.00786682, -0.0400529
0.0382278, 1.69106, -1.22964, -1.54167, -0.900713, -1.19278, 1.22702, -1.30248, 0.018488, -0.0133959, -0.0762175, -0.0144258, -0.03273, 0.00270373, 0.00105949, -0.206535, 59.8041, 28.5715, 6.54541, 1.69391, 3.43936, -0.147328, -0.00014316, -0.00254396, 0.00396689, 0.00575843, 0.00326295, 0.00186569, 0.00782493, 0.00233949, -0.0355921, -0.0886112, 0.0222273, -0.0213305, 0.471004, -0.543416, 0.335872, -2.08384, -2.16583, -0.129852, 0.468325, -0.543051, 0.33201, -2.08107, -2.15977, -0.126584, -0.000494774, -0.00311453, -0.00252743, -0.00383711, -0.00545736, -0.0388157
0.0392278, 1.69108, -1.22964, -1.54173, -0.900732, -1.19282, 1.22702, -1.30248, 0.014229, -0.0120548, -0.0701253, -0.0155357, -0.0333257, 0.00434001, -0.00158647, 0.059273, 59.9866, 28.5715, 6.62079, 1.65729, 3.48971, -0.0814099, -0.000150092, -0.00254743, 0.00399142, 0.0058371, 0.0032264, 0.00187606, 0.0080738, 0.00316151, -0.0323028, -0.0817579, 0.0244683, -0.0194649, 0.471003, -0.543419, 0.33587, -2.08384, -2.16583, -0.129848, 0.46832, -0.543057, 0.331982, -2.08106, -2.15975, -0.126455, -0.000525695, -0.00330858, -0.00268698, -0.00456137, -0.00643701, -0.0357412
0.0402278, 1.69109, -1.22964, -1.5418, -0.900758, -1.19287, 1.22702, -1.30248, 0.0138327, -0.008854, -0.070791, -0.0211653, -0.039583, 0.00116583, -0.000708827, 0.360787, 60.0977, 28.7937, 6.77154, 1.65729, 3.54648, -0.0878186, -0.000155746, -0.00255215, 0.00401197, 0.00592553, 0.00317667, 0.00189106, 0.0071097, 0.00355812, -0.0315557, -0.090233, 0.0317817, -0.0185318, 0.471003, -0.543422, 0.335867, -2.08384, -2.16583, -0.129843, 0.468315, -0.543063, 0.331958, -2.08105, -2.15973, -0.126301, -0.000557617, -0.00350887, -0.00285182, -0.00499698, -0.00581674, -0.0350067
0.0412278, 1.6911, -1.22963, -1.54185, -0.900786, -1.19291, 1.22702, -1.30247, 0.0129709, -0.00944092, -0.0627019, -0.0250527, -0.0399266, 0.00319637, 0.000357028, 0.701973, 60.3555, 28.9405, 6.91833, 1.66919, 3.60415, -0.10796, -0.000159439, -0.00255507, 0.00403112, 0.00600809, 0.00312825, 0.00190416, 0.00477221, 0.00136026, -0.0292125, -0.0831807, 0.0323315, -0.013527, 0.471002, -0.543426, 0.335864, -2.08384, -2.16583, -0.129839, 0.468311, -0.543067, 0.331936, -2.08105, -2.15971, -0.126155, -0.000590537, -0.00371538, -0.00302192, -0.00283389, -0.00398633, -0.0325666
0.0422278, 1.6911, -1.22962, -1.54191, -0.900823, -1.19296, 1.22702, -1.30247, 0.0126954, -0.00281971, -0.0646897, -0.0265639, -0.0418163, 0.00110424, 0.00436557, 1.03919, 60.4666, 29.3134, 7.14447, 1.73053, 3.64718, -0.0951428, -0.0001622, -0.0025597, 0.00404595, 0.0061007, 0.0030649, 0.00191074, 0.0041719, 0.00221013, -0.0262566, -0.0876077, 0.0397556, -0.018477, 0.471002, -0.543429, 0.335861, -2.08384, -2.16583, -0.129834, 0.468305, -0.543072, 0.331918, -2.08104, -2.1597, -0.125982, -0.000624453, -0.00392809, -0.0031973, -0.00363134, -0.00409613, -0.0297044
0.0432278, 1.69111, -1.22961, -1.54196, -0.900842, -1.19301, 1.22702, -1.30248, 0.0112192, 3.90456e-05, -0.0585695, -0.0253913, -0.0407456, 0.000652804, 0.00113165, 1.305, 60.7959, 29.6506, 7.14447, 1.73053, 3.66092, -0.0356336, -0.000168567, -0.00256434, 0.00406314, 0.00617452, 0.00301672, 0.00192303, 0.00314505, 0.00219013, -0.0220587, -0.0809735, 0.0410079, -0.0147729, 0.471001, -0.543433, 0.335858, -2.08384, -2.16582, -0.129829, 0.468299, -0.543079, 0.331897, -2.08103, -2.15968, -0.125845, -0.000659358, -0.00414696, -0.00337792, -0.00353137, -0.00394653, -0.0255812
0.0442278, 1.69112, -1.22961, -1.54201, -0.900868, -1.19307, 1.22702, -1.30247, 0.0109358, 0.00179383, -0.0536374, -0.0246404, -0.0467817, -0.000330915, 0.00205677, 1.53114, 61.1649, 29.9839, 7.14447, 1.78638, 3.69021, -0.0621838, -0.000171497, -0.00256689, 0.00407854, 0.00625136, 0.00296454, 0.00193424, 0.00315441, 0.00249634, -0.0190931, -0.0796389, 0.0468847, -0.0166102, 0.471, -0.543437, 0.335855, -2.08383, -2.16582, -0.129823, 0.468296, -0.543084, 0.331879, -2.08103, -2.15967, -0.125701, -0.000695248, -0.00437195, -0.00356376, -0.00376565, -0.00464973, -0.0228309
0.0452278, 1.69114, -1.22961, -1.54205, -0.900888, -1.19312, 1.22702, -1.30247, 0.0101638, 0.000201437, -0.0503982, -0.0226063, -0.0420575, -0.00103256, 0.00255986, 1.64619, 61.6806, 30.3568, 7.06909, 1.85321, 3.7186, -0.0878186, -0.000173552, -0.00256648, 0.00409456, 0.00632151, 0.00291548, 0.00194237, 0.00231057, 0.00233551, -0.0184651, -0.0741098, 0.0407356, -0.0167929, 0.471, -0.543442, 0.335851, -2.08383, -2.16582, -0.129818, 0.468295, -0.543088, 0.331859, -2.08103, -2.15966, -0.125567, -0.000732114, -0.004603, -0.00375481, -0.00364945, -0.00413781, -0.0222758
0.0462278, 1.69116, -1.22961, -1.54209, -0.900901, -1.19318, 1.22702, -1.30247, 0.0112477, 0.00325496, -0.0447728, -0.0218867, -0.0468882, -0.00210266, 0.00141129, 1.68189, 62.1606, 30.7297, 6.88263, 1.89624, 3.76163, -0.0750012, -0.000175757, -0.00256676, 0.00410708, 0.00638949, 0.00286419, 0.00195264, 0.00118233, 0.00164402, -0.0145649, -0.0717889, 0.0468788, -0.0144884, 0.470999, -0.543446, 0.335848, -2.08383, -2.16582, -0.129812, 0.468293, -0.543093, 0.331843, -2.08102, -2.15965, -0.125433, -0.000769946, -0.00484006, -0.003951, -0.0028961, -0.003833, -0.0184666
0.0472278, 1.69117, -1.22961, -1.54212, -0.900916, -1.19323, 1.22701, -1.30247, 0.0139579, 0.00424216, -0.0404099, -0.0186762, -0.045349, -0.00445461, 0.00392305, 1.75727, 62.7121, 31.1027, 6.69617, 1.93378, 3.84768, -0.0292249, -0.000176288, -0.00256806, 0.00411973, 0.00645551, 0.00282287, 0.00195447, -0.000879108, 0.00029654, -0.0121754, -0.0679614, 0.0450442, -0.0148682, 0.470998, -0.543451, 0.335844, -2.08383, -2.16582, -0.129805, 0.468291, -0.543096, 0.331826, -2.08101, -2.15964, -0.125311, -0.000808735, -0.00508306, -0.00415231, -0.00157652, -0.0023535, -0.0160292
0.0482278, 1.69118, -1.22961, -1.54216, -0.900929, -1.1933, 1.227, -1.30248, 0.0134461, 0.00355569, -0.037877, -0.0173914, -0.0494638, -0.00687001, 0.00285752, 1.79694, 63.3389, 31.5113, 6.54541, 1.97681, 3.95572, -0.0228162, -0.000179188, -0.00257051, 0.00413488, 0.00652537, 0.00277873, 0.0019608, -0.000448098, 0.00127297, -0.0115168, -0.0689689, 0.0463085, -0.0159034, 0.470997, -0.543456, 0.33584, -2.08383, -2.16582, -0.129798, 0.468287, -0.543102, 0.331807, -2.081, -2.15963, -0.125182, -0.000848468, -0.00533191, -0.00435868, -0.00255226, -0.00316919, -0.0156226
0.0492278, 1.6912, -1.22962, -1.54218, -0.900939, -1.19336, 1.22699, -1.30247, 0.016993, 0.00313499, -0.0324101, -0.0164706, -0.0526666, -0.00792907, 0.00467215, 1.79694, 63.9658, 31.7731, 6.39465, 2.02533, 4.04819, -0.0878186, -0.000180942, -0.00257223, 0.00414426, 0.00658548, 0.00273103, 0.00197574, -0.00259815, -0.000980346, -0.00980397, -0.0665899, 0.0477546, -0.0137948, 0.470997, -0.543461, 0.335835, -2.08383, -2.16581, -0.129791, 0.468284, -0.543107, 0.331793, -2.08101, -2.15962, -0.125058, -0.000889131, -0.00558652, -0.00457004, -0.000357494, -0.00147262, -0.0138772
0.0502278, 1.69121, -1.22962, -1.54221, -0.900957, -1.19343, 1.22698, -1.30247, 0.019464, 0.00128014, -0.0301775, -0.0154143, -0.0593801, -0.00709424, 0.0033845, 1.79694, 64.5529, 32.1064, 6.35895, 2.06195, 4.09854, -0.0878186, -0.000181861, -0.00257216, 0.00415619, 0.00665098, 0.00267873, 0.00198007, -0.00254608, -0.0020018, -0.00983689, -0.0669132, 0.0517363, -0.0124659, 0.470996, -0.543467, 0.335831, -2.08383, -2.16581, -0.129784, 0.468283, -0.543112, 0.331776, -2.081, -2.15962, -0.124925, -0.00093071, -0.0058468, -0.00478633, 0.000621681, -0.00173746, -0.0141649
0.0512278, 1.69122, -1.22963, -1.54223, -0.900977, -1.19351, 1.22697, -1.30247, 0.0161317, -0.000219844, -0.02766, -0.0169953, -0.0652211, -0.00682315, 0.000288487, 1.87232, 65.144, 32.4039, 6.43433, 2.12421, 4.15622, -0.0292249, -0.000185636, -0.00257728, 0.00416827, 0.00671978, 0.00262687, 0.00198773, -0.00103398, -0.000393452, -0.00966605, -0.0673758, 0.0550891, -0.0123343, 0.470995, -0.543473, 0.335826, -2.08383, -2.16581, -0.129776, 0.468277, -0.54312, 0.331759, -2.081, -2.15961, -0.124788, -0.000973186, -0.00611264, -0.00500747, -0.00096689, -0.00358821, -0.0144034
0.0522278, 1.69124, -1.22962, -1.54226, -0.900989, -1.19358, 1.22697, -1.30247, 0.0172122, 0.000981534, -0.0275995, -0.0169637, -0.0725704, -0.00716169, 0.000344047, 1.79694, 65.513, 32.7768, 6.47003, 2.14801, 4.22763, -0.0292249, -0.000187702, -0.00257952, 0.00417123, 0.00678515, 0.00255604, 0.00200086, -0.000508455, -0.000137267, -0.00883295, -0.07092, 0.0622453, -0.0141579, 0.470994, -0.543479, 0.335821, -2.08382, -2.16581, -0.129768, 0.468273, -0.543128, 0.331751, -2.08101, -2.15961, -0.124634, -0.00101654, -0.00638391, -0.00523338, -0.00121723, -0.004517, -0.0138805
0.0532278, 1.69125, -1.22962, -1.54227, -0.901014, -1.19366, 1.22696, -1.30247, 0.0177885, -0.00291303, -0.0221605, -0.0212064, -0.0782553, -0.00739537, 0.000817874, 1.72157, 66.0645, 32.9236, 6.69617, 2.17273, 4.29904, -0.0420422, -0.000185046, -0.00257789, 0.00418084, 0.0068537, 0.00249782, 0.00199559, -0.00199728, -0.0018074, -0.00964447, -0.071262, 0.0630281, -0.00991807, 0.470993, -0.543485, 0.335816, -2.08382, -2.1658, -0.129759, 0.468274, -0.54313, 0.331737, -2.081, -2.15962, -0.124491, -0.00106076, -0.00666049, -0.00546395, 0.000323886, -0.00313056, -0.0147319
0.0542278, 1.69125, -1.22962, -1.54229, -0.901024, -1.19375, 1.22695, -1.30247, 0.01464, -0.000523616, -0.0203087, -0.0163541, -0.0826681, -0.00782841, 0.00161394, 1.79694, 66.3937, 33.1498, 6.73187, 2.19104, 4.37778, -0.0685925, -0.000194123, -0.00258897, 0.00418227, 0.00692022, 0.00242172, 0.00202903, 0.000748263, 0.00128647, -0.00658924, -0.0688963, 0.0682464, -0.019082, 0.470992, -0.543492, 0.33581, -2.08382, -2.1658, -0.12975, 0.468262, -0.543146, 0.331729, -2.08104, -2.1596, -0.124328, -0.00110581, -0.00694224, -0.0056991, -0.00260238, -0.00671957, -0.0122827
0.0552278, 1.69127, -1.22962, -1.54231, -0.901042, -1.19385, 1.22694, -1.30247, 0.0137483, -0.00318033, -0.0180848, -0.0163003, -0.0854645, -0.0089354, 0.00113997, 1.68189, 66.7627, 33.3362, 6.91833, 2.19745, 4.47848, -0.0685925, -0.000195497, -0.00259072, 0.00419008, 0.00699663, 0.00234957, 0.00203483, 0.00106013, 0.00182529, -0.00720823, -0.0690828, 0.0672475, -0.0197285, 0.470991, -0.543499, 0.335805, -2.08382, -2.1658, -0.12974, 0.468259, -0.543153, 0.331715, -2.08104, -2.1596, -0.12416, -0.00115168, -0.007229, -0.00593872, -0.00319768, -0.00724101, -0.0131656
0.0562278, 1.69128, -1.22961, -1.54232, -0.901059, -1.19394, 1.22692, -1.30247, 0.015077, 0.00107326, -0.0163112, -0.0160055, -0.0855394, -0.0185448, -0.0011248, 1.60651, 66.9849, 33.3719, 7.1048, 2.14801, 4.58652, -0.0164075, -0.000196876, -0.00259473, 0.00418808, 0.00706179, 0.00226861, 0.00204214, -0.00150939, 0.00262467, -0.00473743, -0.0754246, 0.0667718, -0.0160702, 0.47099, -0.543506, 0.335799, -2.08382, -2.16579, -0.129731, 0.468254, -0.543162, 0.331711, -2.08105, -2.15961, -0.123995, -0.00119834, -0.00752062, -0.00618267, -0.0040451, -0.00540884, -0.0105469
0.0572278, 1.69129, -1.22961, -1.54235, -0.90108, -1.19404, 1.22691, -1.30247, 0.0149254, 0.000881189, -0.0186278, -0.0196496, -0.0863821, -0.0151744, -0.000951219, 1.57081, 67.207, 33.5584, 7.33093, 2.11139, 4.64328, -0.00999879, -0.000201157, -0.0026, 0.00419543, 0.00714173, 0.00218854, 0.00205679, -0.00183529, 0.00173044, -0.00567248, -0.0764364, 0.0694892, -0.0149825, 0.470988, -0.543514, 0.335793, -2.08381, -2.16579, -0.12972, 0.468247, -0.543173, 0.331697, -2.08106, -2.1596, -0.123814, -0.00124576, -0.00781692, -0.00643084, -0.003245, -0.00520294, -0.0116949
0.0582278, 1.69131, -1.2296, -1.54237, -0.901097, -1.19415, 1.2269, -1.30247, 0.0168855, 0.00455364, -0.0179894, -0.0181573, -0.0918105, -0.013564, 0.000579652, 1.45576, 67.3895, 33.6338, 7.51739, 2.07477, 4.72201, -0.0420422, -0.000203106, -0.00260368, 0.00419753, 0.00721886, 0.00210296, 0.00206972, -0.0018203, 0.00118074, -0.00283333, -0.0760981, 0.0783842, -0.0178709, 0.470987, -0.543521, 0.335786, -2.08381, -2.16579, -0.12971, 0.468242, -0.543183, 0.331689, -2.08108, -2.1596, -0.12363, -0.00129392, -0.00811772, -0.00668309, -0.00264083, -0.00593295, -0.00916261
0.0592278, 1.69132, -1.22961, -1.54238, -0.90111, -1.19426, 1.22689, -1.30247, 0.0158034, 0.0038027, -0.0197545, -0.0143901, -0.0959885, -0.0153294, 0.000915313, 1.305, 67.576, 33.6695, 7.59277, 2.05005, 4.76504, -0.0557752, -0.000207198, -0.00260682, 0.0042033, 0.00729411, 0.00201906, 0.00208877, 0.000510352, 0.00367238, -0.00326209, -0.0790269, 0.0800267, -0.0252129, 0.470986, -0.54353, 0.335779, -2.08381, -2.16578, -0.129699, 0.468237, -0.543194, 0.331676, -2.0811, -2.1596, -0.123449, -0.00134278, -0.00842284, -0.00693927, -0.00511036, -0.00857494, -0.0101284
0.0602278, 1.69134, -1.22962, -1.5424, -0.901125, -1.19437, 1.22688, -1.30247, 0.0202856, 0.00140839, -0.0173451, -0.0156841, -0.103719, -0.0121989, -0.000832664, 1.18995, 67.8339, 33.6695, 7.70386, 2.00702, 4.80075, -0.0164075, -0.000212341, -0.00260998, 0.00421298, 0.00737115, 0.00193772, 0.0021006, -0.000625655, 0.000640469, -0.00374302, -0.0791065, 0.0857242, -0.0196938, 0.470984, -0.543538, 0.335772, -2.08381, -2.16578, -0.129687, 0.468233, -0.543206, 0.331659, -2.08111, -2.1596, -0.123269, -0.00139231, -0.00873205, -0.00719924, -0.00218997, -0.00756461, -0.0107787
0.0612278, 1.69136, -1.22962, -1.54242, -0.901131, -1.19449, 1.22688, -1.30247, 0.0205101, -0.00176707, -0.0166023, -0.0141698, -0.109782, -0.010219, -0.000781076, 1.07887, 68.0164, 33.7052, 7.70386, 1.97681, 4.84378, -0.00999879, -0.000221192, -0.00261561, 0.00422151, 0.00744801, 0.00185006, 0.00212597, 0.000916753, 0.000931129, -0.00475884, -0.0789354, 0.0884341, -0.0228716, 0.470983, -0.543547, 0.335765, -2.0838, -2.16578, -0.129675, 0.468226, -0.543223, 0.331642, -2.08113, -2.15959, -0.12308, -0.00144249, -0.00904515, -0.00746282, -0.00251216, -0.00925603, -0.0122759
0.0622278, 1.69137, -1.22963, -1.54244, -0.901145, -1.19461, 1.22688, -1.30247, 0.0195911, -0.00176911, -0.0160507, -0.0150849, -0.115341, -0.00667351, 0.000199903, 1.00349, 68.0917, 33.7449, 7.77924, 1.96399, 4.83005, -0.0292249, -0.000228851, -0.00262023, 0.00422738, 0.00752401, 0.00175328, 0.00215023, 0.00205629, 0.00106782, -0.00411368, -0.0780381, 0.0948586, -0.025973, 0.470982, -0.543556, 0.335758, -2.0838, -2.16577, -0.129663, 0.46822, -0.543238, 0.331627, -2.08117, -2.15958, -0.122883, -0.00149327, -0.00936199, -0.00772991, -0.00263539, -0.0108027, -0.0120786
0.0632278, 1.69139, -1.22964, -1.54246, -0.901157, -1.19474, 1.22687, -1.30247, 0.01683, -0.00456917, -0.017808, -0.0148381, -0.118048, -0.00872607, 0.0018351, 0.888436, 68.2742, 33.7449, 7.81494, 1.92737, 4.82272, -0.0750012, -0.000235829, -0.00262284, 0.00423981, 0.00760292, 0.0016671, 0.00217489, 0.00393399, 0.0035623, -0.00615772, -0.0820894, 0.0933749, -0.0326727, 0.47098, -0.543565, 0.33575, -2.0838, -2.16577, -0.12965, 0.468215, -0.543253, 0.331606, -2.08119, -2.15957, -0.122693, -0.00154466, -0.00968246, -0.00800043, -0.00518511, -0.0127645, -0.0145831
0.0642278, 1.6914, -1.22964, -1.54247, -0.901174, -1.19487, 1.22687, -1.30247, 0.0160342, -0.000623529, -0.0176309, -0.0164244, -0.120659, -0.00505873, -0.00117929, 0.85273, 68.1989, 33.6695, 7.92602, 1.90265, 4.78702, -0.00999879, -0.000242826, -0.0026268, 0.00423964, 0.00767349, 0.00155644, 0.00218852, 0.00396002, 0.0032606, -0.00340665, -0.0800327, 0.101454, -0.0303603, 0.470979, -0.543575, 0.335742, -2.0838, -2.16576, -0.129636, 0.46821, -0.54327, 0.331598, -2.08122, -2.15959, -0.122488, -0.00159663, -0.0100065, -0.00827433, -0.00483511, -0.0135252, -0.0121537
0.0652278, 1.69142, -1.22965, -1.5425, -0.901181, -1.195, 1.22687, -1.30247, 0.0165292, -0.00344765, -0.0203453, -0.0141028, -0.126464, -0.00810046, -0.000782591, 0.777352, 68.3496, 33.7052, 7.89032, 1.87244, 4.78702, -0.00999879, -0.000254622, -0.00263381, 0.00424994, 0.00775186, 0.00146087, 0.00222064, 0.00571138, 0.00508997, -0.00576461, -0.0867468, 0.101985, -0.0359306, 0.470977, -0.543585, 0.335734, -2.08379, -2.16576, -0.129623, 0.468201, -0.54329, 0.331578, -2.08126, -2.15957, -0.122288, -0.00164918, -0.0103339, -0.00855153, -0.00673769, -0.0152937, -0.0149754
0.0662278, 1.69144, -1.22965, -1.54252, -0.901191, -1.19513, 1.22687, -1.30247, 0.0169185, -0.000164314, -0.0237291, -0.0142742, -0.131559, -0.00526239, 0.000430412, 0.701973, 68.2742, 33.6695, 7.92602, 1.8349, 4.76504, -0.0356336, -0.000262817, -0.00263923, 0.00425005, 0.00782983, 0.00134667, 0.00224797, 0.00682429, 0.00549182, -0.00459428, -0.0892524, 0.111193, -0.0404496, 0.470975, -0.543595, 0.335725, -2.08379, -2.16576, -0.129608, 0.468195, -0.543309, 0.331568, -2.0813, -2.15957, -0.122069, -0.00170228, -0.0106648, -0.00883197, -0.00710994, -0.0169198, -0.0142606
0.0672278, 1.69145, -1.22964, -1.54254, -0.90121, -1.19526, 1.22688, -1.30247, 0.0170473, 0.00276708, -0.0183854, -0.016207, -0.129662, -0.00350655, 0.00198439, 0.626595, 68.1631, 33.5584, 8.03711, 1.77997, 4.75131, -0.0814099, -0.000266995, -0.00264071, 0.00424768, 0.00790344, 0.00122766, 0.00226911, 0.00426035, 0.00349525, -0.000865232, -0.0826159, 0.113378, -0.0375069, 0.470974, -0.543606, 0.335716, -2.08379, -2.16575, -0.129594, 0.468192, -0.543324, 0.331561, -2.08134, -2.15958, -0.12185, -0.00175593, -0.0109989, -0.0091156, -0.00512586, -0.0152148, -0.0105248
0.0682278, 1.69147, -1.22964, -1.54256, -0.901215, -1.1954, 1.22688, -1.30248, 0.0164221, 0.00205334, -0.0193319, -0.0101114, -0.134459, -0.00244662, -0.000845692, 0.586922, 68.1631, 33.5187, 7.9657, 1.75525, 4.74399, -0.0228162, -0.000277518, -0.00264767, 0.00424965, 0.00797716, 0.00111794, 0.00229604, 0.00728616, 0.00565307, -0.000411178, -0.0815983, 0.11673, -0.043138, 0.470972, -0.543617, 0.335707, -2.08378, -2.16575, -0.129578, 0.468183, -0.543345, 0.331548, -2.08139, -2.15958, -0.121639, -0.0018101, -0.0113362, -0.00940234, -0.00721048, -0.0186974, -0.0107671
0.0692278, 1.69149, -1.22963, -1.54259, -0.901222, -1.19553, 1.22688, -1.30247, 0.0208849, 0.00319579, -0.0240864, -0.00965016, -0.133809, -5.12559e-05, -0.00103737, 0.475838, 68.0917, 33.5187, 7.92602, 1.76166, 4.69363, -0.00999879, -0.000287035, -0.00265215, 0.00425035, 0.00805504, 0.000995756, 0.00232921, 0.00606759, 0.00354356, -0.00114464, -0.0835125, 0.119055, -0.0414957, 0.47097, -0.543628, 0.335698, -2.08378, -2.16574, -0.129563, 0.468177, -0.543366, 0.331537, -2.08144, -2.15958, -0.12141, -0.00186479, -0.0116765, -0.00969213, -0.0052286, -0.0176356, -0.0116561
0.0702278, 1.69151, -1.22963, -1.54261, -0.90123, -1.19566, 1.22689, -1.30247, 0.0209192, 0.00484633, -0.0250446, -0.0081698, -0.131964, 0.00134567, 2.13509e-05, 0.360787, 67.9807, 33.4076, 7.9657, 1.71863, 4.6506, -0.0292249, -0.000292499, -0.00265417, 0.00424823, 0.00812417, 0.000880269, 0.00235647, 0.00593721, 0.00353085, 5.30482e-05, -0.0811963, 0.119936, -0.0441699, 0.470968, -0.54364, 0.335688, -2.08378, -2.16574, -0.129546, 0.468173, -0.543384, 0.331529, -2.08149, -2.15959, -0.121197, -0.00191999, -0.0120199, -0.00998491, -0.00523224, -0.018034, -0.0107463
0.0712278, 1.69154, -1.22961, -1.54263, -0.901233, -1.1958, 1.2269, -1.30247, 0.0259716, 0.0076806, -0.0236497, -0.00745876, -0.131167, 0.00365285, 0.00099822, 0.170357, 67.7942, 33.3362, 7.89032, 1.70032, 4.57187, -0.0557752, -0.000297538, -0.00265407, 0.00424178, 0.00819425, 0.000749754, 0.00238549, 0.0030619, 8.04772e-05, 0.00249432, -0.0775581, 0.123397, -0.0403854, 0.470966, -0.543652, 0.335678, -2.08377, -2.16573, -0.12953, 0.468172, -0.543402, 0.331524, -2.08154, -2.1596, -0.120968, -0.00197567, -0.0123662, -0.0102806, -0.00185598, -0.0157761, -0.00829022
0.0722278, 1.69156, -1.2296, -1.54266, -0.901235, -1.19593, 1.2269, -1.30247, 0.027587, 0.00862008, -0.023393, -0.00476328, -0.130963, 0.00472244, -0.000792101, 0.059273, 67.6474, 33.2966, 7.85065, 1.68201, 4.50686, -0.0164075, -0.000304917, -0.00265731, 0.00423812, 0.00826601, 0.000625749, 0.00241298, 0.00268837, -0.000533369, 0.00376762, -0.0749516, 0.124615, -0.0396762, 0.470964, -0.543664, 0.335668, -2.08377, -2.16572, -0.129512, 0.468167, -0.543422, 0.331517, -2.08159, -2.1596, -0.120743, -0.00203183, -0.0127153, -0.0105792, -0.00126609, -0.0159272, -0.00729221
0.0732278, 1.69156, -1.2296, -1.54266, -0.901235, -1.19593, 1.2269, -1.30247, 0.027587, 0.00862008, -0.023393, -0.00476328, -0.130963, 0.00472244, -0.000792101, 0.059273, 67.6474, 33.2966, 7.85065, 1.68201, 4.50686, -0.0164075, -0.000290781, -0.00265502, 0.00422958, 0.00825248, 0.000628277, 0.00241108, 0.00229631, -0.00059509, 0.00401313, -0.0746966, 0.124738, -0.0401693, 0.470962, -0.543677, 0.335657, -2.08377, -2.16572, -0.129495, 0.468167, -0.543422, 0.331517, -2.08159, -2.1596, -0.120743, -0.00208844, -0.0130671, -0.0108805, -0.00126609, -0.0159272, -0.00729221
0.0742278, 1.69156, -1.2296, -1.54266, -0.901235, -1.19593, 1.2269, -1.30247, 0.027587, 0.00862008, -0.023393, -0.00476328, -0.130963, 0.00472244, -0.000792101, 0.059273, 67.6474, 33.2966, 7.85065, 1.68201, 4.50686, -0.0164075, -0.000276253, -0.00265267, 0.00422081, 0.00823854, 0.000630864, 0.00240914, 0.00190124, -0.000657273, 0.00426096, -0.0744385, 0.124863, -0.0406676, 0.47096, -0.54369, 0.335646, -2.08376, -2.16571, -0.129476, 0.468167, -0.543422, 0.331517, -2.08159, -2.1596, -0.120743, -0.00214551, -0.0134215, -0.0111846, -0.00126609, -0.0159272, -0.00729221
0.0752278, 1.69156, -1.2296, -1.54266, -0.901235, -1.19593, 1.2269, -1.30247, 0.027587, 0.00862008, -0.023393, -0.00476328, -0.130963, 0.00472244, -0.000792101, 0.059273, 67.6474, 33.2966, 7.85065, 1.68201, 4.50686, -0.0164075, -0.00026133, -0.00265026, 0.00421179, 0.00822418, 0.00063351, 0.00240714, 0.00150325, -0.000719901, 0.00451105, -0.0741771, 0.124991, -0.0411711, 0.470958, -0.543704, 0.335635, -2.08376, -2.16571, -0.129457, 0.468167, -0.543422, 0.331517, -2.08159, -2.1596, -0.120743, -0.00220301, -0.0137786, -0.0114914, -0.00126609, -0.0159272, -0.00729221
0.0762278, 1.69168, -1.2296, -1.54277, -0.90122, -1.19647, 1.22695, -1.30247, 0.0273952, 0.00192802, -0.02779, 0.00893249, -0.133671, 0.0162953, 0.000736972, -0.357292, 67.6474, 33.0387, 7.62848, 1.6756, 4.14157, -0.0621838, -0.000333905, -0.00265715, 0.00424258, 0.00852767, 0.000160758, 0.00254127, 0.00850158, 0.00123477, 0.00219538, -0.0630283, 0.125496, -0.058232, 0.470956, -0.543717, 0.335624, -2.08375, -2.1657, -0.129438, 0.468159, -0.543503, 0.331464, -2.08181, -2.1596, -0.119895, -0.00226092, -0.014138, -0.0118008, -0.00311052, -0.0229195, -0.0109142
0.0772278, 1.69172, -1.2296, -1.54281, -0.901212, -1.19662, 1.22697, -1.30247, 0.0329019, 0.00213623, -0.0274972, 0.0103526, -0.137974, 0.0191489, -0.00144135, -0.508049, 67.6117, 33.0387, 7.59277, 1.68201, 4.04819, -0.00999879, -0.000340618, -0.00265401, 0.00424279, 0.00859588, 3.15769e-05, 0.00256657, 0.00714879, -0.00168991, 0.00284131, -0.0621978, 0.130817, -0.053665, 0.470954, -0.543731, 0.335612, -2.08375, -2.16569, -0.129418, 0.468161, -0.543524, 0.331451, -2.08186, -2.15962, -0.119666, -0.00231925, -0.0144999, -0.0121127, -0.000272713, -0.0219255, -0.0104676
0.0782278, 1.69175, -1.22961, -1.54283, -0.901201, -1.19676, 1.22699, -1.30247, 0.0343539, -0.000234533, -0.0253055, 0.0123844, -0.141508, 0.0164494, -0.000723456, -0.543754, 67.6831, 32.9633, 7.51739, 1.6875, 3.96945, -0.0164075, -0.000349731, -0.00265376, 0.00424692, 0.0086595, -8.35526e-05, 0.00260339, 0.0068795, -0.00165297, 0.00245848, -0.0634672, 0.129885, -0.0553282, 0.470951, -0.543746, 0.3356, -2.08374, -2.16569, -0.129398, 0.468159, -0.543547, 0.331433, -2.08192, -2.15961, -0.119454, -0.00237796, -0.014864, -0.0124272, -0.000391867, -0.0219664, -0.0111172
0.0792278, 1.69179, -1.22961, -1.54287, -0.901191, -1.19691, 1.227, -1.30247, 0.0365131, -0.000147544, -0.0287849, 0.0089795, -0.143527, 0.0139155, 0.00145054, -0.619133, 67.6831, 32.9633, 7.51739, 1.68201, 3.90536, -0.0685925, -0.000356514, -0.00265053, 0.00424907, 0.00873129, -0.00021208, 0.00263869, 0.00535152, -0.00237697, 0.000741621, -0.0713199, 0.131117, -0.0552505, 0.470949, -0.543761, 0.335587, -2.08374, -2.16568, -0.129377, 0.46816, -0.543568, 0.331417, -2.08198, -2.15961, -0.11922, -0.00243706, -0.0152304, -0.012744, 0.000154931, -0.0205305, -0.0129144
0.0802278, 1.69183, -1.22961, -1.5429, -0.901183, -1.19706, 1.22701, -1.30247, 0.0340479, -9.17546e-05, -0.0311181, 0.0088294, -0.144958, 0.0110311, 0.00022109, -0.658806, 67.6831, 32.9633, 7.5531, 1.66919, 3.86966, -0.0484509, -0.000362149, -0.00264767, 0.00425193, 0.00880739, -0.000339224, 0.00266671, 0.0064452, 1.84592e-05, 7.5329e-05, -0.0759432, 0.131129, -0.0584486, 0.470946, -0.543776, 0.335575, -2.08373, -2.16567, -0.129355, 0.46816, -0.543588, 0.331401, -2.08203, -2.15962, -0.118983, -0.00249652, -0.0155988, -0.0130633, -0.0022821, -0.0219742, -0.0139881
0.0812278, 1.69188, -1.22961, -1.54294, -0.901171, -1.19721, 1.22703, -1.30247, 0.038508, -0.00154628, -0.0336169, 0.0104977, -0.141927, 0.0133145, -0.000802007, -0.694511, 67.6117, 32.999, 7.51739, 1.66919, 3.83304, -0.0228162, -0.000367509, -0.00264394, 0.00425104, 0.00887791, -0.000471499, 0.00269989, 0.00483775, -0.00252212, -0.00120461, -0.07448, 0.12864, -0.0551606, 0.470944, -0.543792, 0.335562, -2.08373, -2.16567, -0.129333, 0.468161, -0.543609, 0.331388, -2.08209, -2.15962, -0.118745, -0.00255634, -0.0159693, -0.0133848, 9.12202e-05, -0.0204569, -0.0154017
0.0822278, 1.69192, -1.22962, -1.54298, -0.901159, -1.19736, 1.22704, -1.30247, 0.0390387, -0.00296094, -0.0356132, 0.00775858, -0.143815, 0.00866208, -0.00128063, -0.734184, 67.6831, 33.0387, 7.51739, 1.66369, 3.85501, -0.00267457, -0.000373187, -0.00264215, 0.00425801, 0.00896288, -0.000592367, 0.00273248, 0.00380351, -0.00210067, -0.00328046, -0.0823644, 0.127004, -0.0538539, 0.470941, -0.543808, 0.335548, -2.08372, -2.16566, -0.129311, 0.46816, -0.543629, 0.331367, -2.08213, -2.15961, -0.118503, -0.0026165, -0.0163418, -0.0137086, -0.000502616, -0.0195063, -0.017602
0.0832278, 1.69196, -1.22962, -1.54302, -0.901151, -1.19751, 1.22704, -1.30247, 0.0374757, -0.0045002, -0.0359927, 0.0111746, -0.148932, 0.00919931, 0.00206239, -0.694511, 67.6474, 33.0387, 7.5531, 1.65088, 3.89071, -0.0814099, -0.000378825, -0.00264118, 0.00426207, 0.00904812, -0.000721036, 0.00277636, 0.00637377, -2.49735e-06, -0.00344206, -0.0826042, 0.129764, -0.0641257, 0.470939, -0.543824, 0.335534, -2.08372, -2.16565, -0.129287, 0.468159, -0.543651, 0.331348, -2.08219, -2.1596, -0.11825, -0.00267698, -0.0167161, -0.0140346, -0.00257276, -0.0224791, -0.018422
0.0842278, 1.69201, -1.22963, -1.54306, -0.901145, -1.19767, 1.22705, -1.30247, 0.0413408, -0.00684376, -0.0404468, 0.00663637, -0.15427, 0.0146092, 0.000425507, -0.734184, 67.7942, 33.0744, 7.62848, 1.65088, 3.91269, -0.0557752, -0.0003827, -0.00263583, 0.00427421, 0.00913977, -0.000843367, 0.00280141, 0.00565141, -0.00289252, -0.00647969, -0.0869501, 0.135451, -0.0590781, 0.470936, -0.543841, 0.33552, -2.08371, -2.16564, -0.129264, 0.468161, -0.543669, 0.331321, -2.08223, -2.1596, -0.117998, -0.00273778, -0.0170921, -0.0143627, 0.000115758, -0.0215565, -0.0217259
0.0852278, 1.69205, -1.22964, -1.54311, -0.901135, -1.19783, 1.22707, -1.30247, 0.0408449, -0.00663321, -0.0397654, 0.00651292, -0.15317, 0.0144808, -0.00192036, -0.619133, 67.8696, 33.0744, 7.70386, 1.64447, 3.93374, 0.00373412, -0.000390793, -0.00263426, 0.00428473, 0.00922326, -0.000967302, 0.00283246, 0.00502047, -0.00292503, -0.00584176, -0.0856256, 0.134789, -0.0569698, 0.470933, -0.543858, 0.335506, -2.08371, -2.16563, -0.129239, 0.46816, -0.543692, 0.331295, -2.08227, -2.15959, -0.117753, -0.00279888, -0.0174699, -0.0146928, 8.78105e-05, -0.0214082, -0.0213294
0.0862278, 1.6921, -1.22965, -1.54315, -0.901124, -1.19799, 1.22708, -1.30247, 0.0443005, -0.00465274, -0.0423871, 0.00746936, -0.153048, 0.0155031, -0.000771608, -0.658806, 67.8696, 33.0744, 7.73956, 1.65088, 3.92642, -0.00999879, -0.000393234, -0.00262701, 0.00429119, 0.00930947, -0.00109982, 0.00286228, 0.00379288, -0.00441754, -0.00528353, -0.0865943, 0.137538, -0.0573488, 0.470931, -0.543875, 0.335491, -2.0837, -2.16563, -0.129214, 0.468164, -0.543711, 0.331274, -2.08232, -2.1596, -0.117495, -0.00286026, -0.0178492, -0.015025, 0.00149348, -0.0206004, -0.0209657
0.0872278, 1.69215, -1.22966, -1.5432, -0.901118, -1.19815, 1.22709, -1.30247, 0.0448474, -0.00494521, -0.0461231, 0.00541834, -0.15231, 0.0159115, 0.0018931, -0.619133, 67.941, 33.1498, 7.89032, 1.66369, 3.92642, -0.0750012, -0.000399643, -0.00262405, 0.00430392, 0.00940285, -0.00122767, 0.00290504, 0.00321192, -0.00474756, -0.00677509, -0.0899462, 0.137458, -0.0597591, 0.470928, -0.543893, 0.335476, -2.0837, -2.16562, -0.129189, 0.468164, -0.543733, 0.331245, -2.08238, -2.15958, -0.117232, -0.00292192, -0.0182301, -0.0153591, 0.00168593, -0.0201649, -0.0226927
0.0882278, 1.6922, -1.22967, -1.54326, -0.901109, -1.1983, 1.22711, -1.30247, 0.0444848, -0.00518975, -0.0495588, 0.00590638, -0.151834, 0.0194415, 0.000787353, -0.543754, 68.0164, 33.2609, 7.9657, 1.65729, 3.95572, -0.0621838, -0.000406198, -0.00262117, 0.00431963, 0.00949697, -0.0013487, 0.00294083, 0.0040948, -0.00459359, -0.00746192, -0.089103, 0.138898, -0.0614632, 0.470925, -0.543911, 0.335461, -2.08369, -2.16561, -0.129163, 0.468163, -0.543755, 0.331213, -2.08242, -2.15956, -0.116976, -0.00298385, -0.0186124, -0.0156951, 0.00147644, -0.0213195, -0.0238392
0.0892278, 1.69225, -1.22967, -1.54331, -0.901096, -1.19846, 1.22712, -1.30247, 0.0429674, -0.00812482, -0.0485546, 0.0072738, -0.15074, 0.0187371, -0.00117052, -0.543754, 67.941, 33.2212, 8.0014, 1.63898, 3.96213, -0.0164075, -0.000407091, -0.00261347, 0.00432445, 0.00957867, -0.00147909, 0.00296467, 0.00451045, -0.00372755, -0.00834668, -0.087395, 0.134646, -0.0618546, 0.470922, -0.54393, 0.335445, -2.08368, -2.1656, -0.129136, 0.468168, -0.543774, 0.331192, -2.08246, -2.15957, -0.116724, -0.00304602, -0.0189961, -0.016033, 0.00053159, -0.0220129, -0.0250887
0.0902278, 1.69231, -1.2297, -1.54336, -0.901094, -1.19861, 1.22714, -1.30247, 0.0468031, -0.0127203, -0.04889, 0.00361103, -0.154894, 0.0178811, -0.000780341, -0.619133, 68.0917, 33.2212, 8.22754, 1.62616, 3.97677, -0.0164075, -0.000408494, -0.00260389, 0.0043446, 0.00967499, -0.00159757, 0.00298786, 0.00251377, -0.006167, -0.0116632, -0.0927786, 0.133699, -0.0572506, 0.470919, -0.543949, 0.335429, -2.08368, -2.16559, -0.129109, 0.468173, -0.543791, 0.331156, -2.08249, -2.15956, -0.116468, -0.00310843, -0.019381, -0.0163726, 0.00271234, -0.0198168, -0.0284685
0.0912278, 1.69235, -1.22971, -1.54343, -0.901082, -1.19877, 1.22715, -1.30247, 0.0499061, -0.0140325, -0.0541615, 0.00869213, -0.152909, 0.0175306, 0.00141255, -0.583427, 68.1631, 33.2966, 8.26324, 1.60785, 3.9841, -0.0685925, -0.000415766, -0.00260127, 0.00436076, 0.00976847, -0.00172074, 0.00303522, 0.00298865, -0.0060851, -0.0135063, -0.094658, 0.130777, -0.0632316, 0.470916, -0.543968, 0.335413, -2.08367, -2.16558, -0.129081, 0.468173, -0.543815, 0.331122, -2.08254, -2.15954, -0.116207, -0.00317106, -0.0197671, -0.0167139, 0.00251695, -0.0203918, -0.0307009
0.0922278, 1.69241, -1.22971, -1.54349, -0.901076, -1.19892, 1.22717, -1.30247, 0.0510072, -0.0117343, -0.0583329, 0.00754878, -0.151081, 0.0164435, -0.000278998, -0.619133, 68.0917, 33.2609, 8.37433, 1.57123, 4.01248, -0.0356336, -0.000416705, -0.00259331, 0.00437087, 0.00985942, -0.0018534, 0.00306017, 0.00190648, -0.00624878, -0.0136507, -0.0986063, 0.131604, -0.06146, 0.470912, -0.543988, 0.335396, -2.08366, -2.16557, -0.129052, 0.468177, -0.543834, 0.331095, -2.08258, -2.15954, -0.11594, -0.00323391, -0.0201544, -0.0170569, 0.00257336, -0.0196818, -0.0310239
0.0932278, 1.69246, -1.22972, -1.54355, -0.901069, -1.19908, 1.22719, -1.30247, 0.0516986, -0.0118618, -0.0614712, 0.00677939, -0.150365, 0.0158306, -0.00113543, -0.658806, 68.0917, 33.2212, 8.48541, 1.55932, 4.04086, -0.00999879, -0.000419929, -0.00258697, 0.00438611, 0.00995716, -0.00198296, 0.00309048, 0.00139096, -0.00628763, -0.0147422, -0.101723, 0.131054, -0.0610797, 0.470909, -0.544008, 0.335379, -2.08366, -2.16556, -0.129023, 0.468179, -0.543854, 0.331063, -2.08262, -2.15953, -0.115669, -0.00329695, -0.0205426, -0.0174015, 0.0024903, -0.0193917, -0.0323676
0.0942278, 1.69252, -1.22973, -1.54361, -0.901064, -1.19924, 1.22721, -1.30247, 0.0529569, -0.0110675, -0.0637596, 0.00215336, -0.155238, 0.0180896, -0.000282237, -0.734184, 68.0521, 33.1855, 8.63617, 1.55292, 4.11319, -0.0228162, -0.000420459, -0.00258011, 0.00439839, 0.0100561, -0.00211417, 0.00312195, 0.000627328, -0.00753796, -0.0152941, -0.106028, 0.137742, -0.0599373, 0.470906, -0.544029, 0.335362, -2.08365, -2.16555, -0.128993, 0.468182, -0.543873, 0.331033, -2.08266, -2.15953, -0.115393, -0.00336018, -0.0209318, -0.0177477, 0.00362787, -0.018891, -0.033179
0.0952278, 1.69257, -1.22973, -1.54368, -0.901055, -1.19939, 1.22722, -1.30247, 0.0527452, -0.00666003, -0.0637125, 0.00671977, -0.153713, 0.0155323, 0.00103255, -0.76989, 67.9807, 33.1855, 8.71155, 1.5401, 4.1846, -0.0557752, -0.00042236, -0.00257431, 0.00441097, 0.010157, -0.00224766, 0.0031604, 0.000656711, -0.0060948, -0.0119664, -0.10461, 0.13939, -0.0656273, 0.470903, -0.54405, 0.335344, -2.08364, -2.16554, -0.128963, 0.468184, -0.543894, 0.331002, -2.08271, -2.15951, -0.115112, -0.00342359, -0.0213219, -0.0180953, 0.00224632, -0.0198809, -0.030201
0.0962278, 1.69263, -1.22974, -1.54376, -0.901045, -1.19955, 1.22723, -1.30247, 0.0535767, -0.00422609, -0.0666236, 0.011072, -0.157001, 0.0182734, 0.000179738, -0.845268, 67.941, 33.1855, 8.74725, 1.5163, 4.2496, -0.0420422, -0.000425168, -0.00257085, 0.00442667, 0.0102653, -0.00237544, 0.00319476, 0.00245381, -0.00522118, -0.0104649, -0.103858, 0.145881, -0.0708893, 0.470899, -0.544071, 0.335326, -2.08363, -2.16553, -0.128932, 0.468184, -0.543916, 0.330968, -2.08274, -2.15949, -0.114828, -0.00348715, -0.0217127, -0.0184443, 0.00142936, -0.0223126, -0.0293192
0.0972278, 1.69268, -1.22975, -1.54383, -0.901037, -1.1997, 1.22724, -1.30247, 0.0559722, -0.00662025, -0.0688164, 0.0101198, -0.154372, 0.0161079, -0.000117533, -0.996025, 67.941, 33.1855, 8.82263, 1.47876, 4.31369, -0.0356336, -0.00042524, -0.00256415, 0.00444498, 0.0103752, -0.00250027, 0.00322862, 0.000595159, -0.00640104, -0.012803, -0.107134, 0.140766, -0.0681027, 0.470896, -0.544093, 0.335307, -2.08363, -2.16552, -0.1289, 0.468186, -0.543934, 0.330932, -2.08277, -2.15947, -0.114545, -0.00355087, -0.0221042, -0.0187947, 0.00239127, -0.0204614, -0.0317268
0.0982278, 1.69274, -1.22974, -1.5439, -0.901037, -1.19986, 1.22726, -1.30247, 0.0558138, -0.000818561, -0.0677766, 0.00452664, -0.153251, 0.0147731, -0.000315714, -1.07537, 67.7585, 33.0744, 8.97339, 1.46045, 4.37137, -0.0292249, -0.000422861, -0.00255727, 0.00445313, 0.0104834, -0.00264515, 0.00325732, -0.00253046, -0.00759303, -0.00959856, -0.108643, 0.145573, -0.0630155, 0.470892, -0.544115, 0.335289, -2.08362, -2.16551, -0.128868, 0.468189, -0.543952, 0.330905, -2.08281, -2.15947, -0.114243, -0.00361472, -0.0224964, -0.0191465, 0.00352421, -0.0182117, -0.0284667
0.0992278, 1.69278, -1.22974, -1.54398, -0.901028, -1.20001, 1.22726, -1.30247, 0.0528993, -0.00246842, -0.0677296, 0.00223449, -0.146635, 0.0144035, -0.00143118, -1.0357, 67.6831, 32.999, 9.04877, 1.41742, 4.4144, 0.00373412, -0.000426374, -0.00255913, 0.0044635, 0.0105871, -0.00277275, 0.00329986, -0.00356539, -0.00725375, -0.010465, -0.106285, 0.138603, -0.0611, 0.470888, -0.544138, 0.335269, -2.08361, -2.1655, -0.128835, 0.468183, -0.543977, 0.330875, -2.08286, -2.15945, -0.113962, -0.00367869, -0.0228891, -0.0194995, 0.00305229, -0.0174634, -0.0295045
0.100228, 1.69284, -1.22974, -1.54406, -0.901033, -1.20017, 1.22727, -1.30247, 0.0532728, -0.00365917, -0.0709934, -0.00297228, -0.146611, 0.0140641, 0.00124993, -1.22613, 67.6117, 33.0387, 9.27094, 1.38721, 4.45743, -0.0557752, -0.000421694, -0.00255192, 0.00447944, 0.0107103, -0.00290679, 0.00332849, -0.00497129, -0.00807664, -0.0127897, -0.111706, 0.138123, -0.0609662, 0.470885, -0.54416, 0.33525, -2.0836, -2.16549, -0.128801, 0.468186, -0.543993, 0.33084, -2.08288, -2.15943, -0.113653, -0.00374278, -0.0232822, -0.0198537, 0.00367379, -0.0160775, -0.0319619
0.101228, 1.6929, -1.22974, -1.54414, -0.901025, -1.20032, 1.22728, -1.30247, 0.0536608, 0.000257799, -0.0752559, 0.000838899, -0.150718, 0.00968394, 0.001308, -1.30151, 67.4649, 33.0387, 9.30664, 1.35608, 4.49313, -0.0685925, -0.000422008, -0.00255011, 0.00448897, 0.0108214, -0.00304466, 0.00336992, -0.00357741, -0.00540633, -0.0115481, -0.118749, 0.143368, -0.0680998, 0.470881, -0.544184, 0.33523, -2.08359, -2.16547, -0.128767, 0.468183, -0.544015, 0.330811, -2.08293, -2.15941, -0.113352, -0.00380697, -0.0236758, -0.020209, 0.00103804, -0.0181474, -0.0312248
0.102228, 1.69295, -1.22973, -1.54421, -0.901023, -1.20047, 1.22728, -1.30247, 0.054726, 0.000547567, -0.0718593, 0.00170436, -0.150213, 0.0058137, -0.000111342, -1.41259, 67.4252, 32.8879, 9.42169, 1.33136, 4.54349, -0.0420422, -0.000418271, -0.00254708, 0.00449711, 0.0109323, -0.00317803, 0.00339892, -0.00546701, -0.00582683, -0.0101446, -0.118292, 0.141256, -0.0652282, 0.470877, -0.544207, 0.33521, -2.08358, -2.16546, -0.128732, 0.468182, -0.544033, 0.330783, -2.08296, -2.1594, -0.113056, -0.00387125, -0.0240696, -0.0205654, 0.00137795, -0.0168743, -0.0299156
0.103228, 1.693, -1.22973, -1.54429, -0.901022, -1.20062, 1.22728, -1.30248, 0.0527447, 0.000786023, -0.0754103, 0.00238695, -0.149847, 0.00347041, -0.00200701, -1.52764, 67.3895, 32.8522, 9.53278, 1.31305, 4.57919, 0.0101428, -0.000416613, -0.0025475, 0.00450945, 0.0110568, -0.00331022, 0.0034356, -0.00443573, -0.00359884, -0.0109605, -0.122284, 0.140319, -0.0680867, 0.470873, -0.544231, 0.335189, -2.08357, -2.16545, -0.128697, 0.468177, -0.544054, 0.330751, -2.08299, -2.15937, -0.112745, -0.00393561, -0.0244637, -0.0209229, -0.000905168, -0.0182523, -0.0311696
0.104228, 1.69305, -1.22972, -1.54437, -0.901009, -1.20077, 1.22728, -1.30247, 0.0536024, 0.00281179, -0.0722316, 0.00639768, -0.145038, 0.00195022, 0.000594775, -1.75378, 67.2784, 32.7015, 9.4931, 1.28833, 4.60757, -0.0420422, -0.000410931, -0.00254396, 0.00451658, 0.0111665, -0.003436, 0.00347739, -0.00602084, -0.00404585, -0.00796761, -0.116293, 0.137329, -0.0709114, 0.470869, -0.544256, 0.335168, -2.08357, -2.16544, -0.128661, 0.468176, -0.544071, 0.330724, -2.08303, -2.15934, -0.112456, -0.00400003, -0.0248579, -0.0212814, -0.000469121, -0.0175234, -0.0283411
0.105228, 1.6931, -1.22973, -1.54445, -0.90101, -1.20092, 1.22727, -1.30247, 0.0528885, 0.000713499, -0.0790108, 0.00245214, -0.145685, 0.00208724, 0.00161722, -1.78948, 67.3181, 32.6658, 9.60815, 1.27002, 4.60025, -0.0750012, -0.000410414, -0.00254675, 0.00453309, 0.0112898, -0.00355718, 0.00352336, -0.00558364, -0.00337393, -0.0117912, -0.124002, 0.136812, -0.0731926, 0.470865, -0.544281, 0.335147, -2.08356, -2.16543, -0.128624, 0.468169, -0.544093, 0.330687, -2.08306, -2.1593, -0.112155, -0.0040645, -0.0252522, -0.0216408, -0.00133096, -0.0177892, -0.032523
0.106228, 1.69315, -1.22972, -1.54454, -0.901011, -1.20106, 1.22727, -1.30247, 0.0529796, 0.00289936, -0.0796281, 0.00196298, -0.141541, 0.00123583, 9.48023e-05, -1.97991, 67.207, 32.5904, 9.75494, 1.2453, 4.6149, -0.0484509, -0.000402997, -0.00254388, 0.00454322, 0.0114102, -0.00368443, 0.00355104, -0.00718934, -0.00376385, -0.0105671, -0.123059, 0.135456, -0.0707415, 0.470861, -0.544306, 0.335125, -2.08355, -2.16541, -0.128586, 0.468167, -0.54411, 0.330656, -2.08308, -2.15929, -0.111853, -0.00412902, -0.0256465, -0.022001, -0.00101821, -0.0167704, -0.0314379
0.107228, 1.69321, -1.22971, -1.54462, -0.901007, -1.20121, 1.22727, -1.30248, 0.0528902, 0.00356508, -0.0842904, 0.000298043, -0.142327, 0.00111404, -0.00210694, -2.16637, 67.1317, 32.5547, 9.83032, 1.20318, 4.6149, 0.0101428, -0.000397501, -0.00254267, 0.00455388, 0.011533, -0.00381293, 0.00358137, -0.00704033, -0.00319604, -0.0117483, -0.127985, 0.137347, -0.0702922, 0.470857, -0.544332, 0.335103, -2.08354, -2.1654, -0.128548, 0.468163, -0.544128, 0.330624, -2.0831, -2.15926, -0.111546, -0.00419356, -0.0260407, -0.0223621, -0.00168864, -0.0171535, -0.0329708
0.108228, 1.69325, -1.2297, -1.54471, -0.901008, -1.20136, 1.22726, -1.30247, 0.0540043, 0.00654731, -0.0847153, 0.000310889, -0.14471, 0.000180419, -0.000183922, -2.28143, 66.9492, 32.515, 9.98108, 1.20868, 4.63595, -0.0228162, -0.000394278, -0.00254567, 0.00456206, 0.0116576, -0.00394862, 0.00362727, -0.00778118, -0.00331376, -0.00996093, -0.129827, 0.142098, -0.0728239, 0.470853, -0.544358, 0.335081, -2.08353, -2.16539, -0.128509, 0.468155, -0.54415, 0.330595, -2.08314, -2.15923, -0.111227, -0.00425812, -0.0264347, -0.0227239, -0.00159596, -0.017086, -0.0314568
0.109228, 1.69325, -1.2297, -1.54471, -0.901008, -1.20136, 1.22726, -1.30247, 0.0540043, 0.00654731, -0.0847153, 0.000310889, -0.14471, 0.000180419, -0.000183922, -2.28143, 66.9492, 32.515, 9.98108, 1.20868, 4.63595, -0.0228162, -0.00036479, -0.0025409, 0.0045436, 0.0116263, -0.0039443, 0.00362339, -0.00822393, -0.00338332, -0.00966092, -0.129472, 0.142307, -0.0734582, 0.470849, -0.544384, 0.335058, -2.08352, -2.16537, -0.12847, 0.468155, -0.54415, 0.330595, -2.08314, -2.15923, -0.111227, -0.00432269, -0.0268285, -0.0230865, -0.00159596, -0.017086, -0.0314568
0.110228, 1.69334, -1.22968, -1.54487, -0.900997, -1.20165, 1.22726, -1.30247, 0.0518883, 0.00716716, -0.0839484, 0.00276785, -0.141275, -0.000773666, 0.000732059, -2.58294, 66.7627, 32.3682, 10.0565, 1.17206, 4.67257, -0.0557752, -0.000387724, -0.00255215, 0.00457585, 0.0118893, -0.00420708, 0.00371712, -0.00799612, -0.00204415, -0.00834471, -0.126132, 0.139517, -0.0777568, 0.470844, -0.544411, 0.335035, -2.08351, -2.16536, -0.12843, 0.468139, -0.544195, 0.330537, -2.08322, -2.15916, -0.11062, -0.00438725, -0.027222, -0.0234497, -0.00294109, -0.0179616, -0.030514
0.111228, 1.69339, -1.22968, -1.54496, -0.901003, -1.2018, 1.22726, -1.30247, 0.0477729, 0.00473664, -0.0819602, 0.000375811, -0.139345, -0.000423971, -0.00120738, -2.7337, 66.7627, 32.3682, 10.2786, 1.17847, 4.67257, -0.00999879, -0.000382403, -0.00255303, 0.00458832, 0.0120123, -0.00433537, 0.00375095, -0.00786002, -0.00101399, -0.00885888, -0.12354, 0.135824, -0.0767637, 0.47084, -0.544438, 0.335012, -2.08349, -2.16534, -0.128389, 0.468133, -0.544215, 0.330502, -2.08325, -2.15913, -0.110309, -0.00445179, -0.0276151, -0.0238135, -0.00404898, -0.0184523, -0.0313744
0.112228, 1.69343, -1.22967, -1.54504, -0.900996, -1.20194, 1.22726, -1.30247, 0.0448066, 0.00739555, -0.0842192, 0.0041603, -0.132457, 5.74753e-05, -0.000567562, -2.88445, 66.5802, 32.2532, 10.2786, 1.16565, 4.66525, -0.0164075, -0.000375945, -0.00255382, 0.00459061, 0.0121139, -0.00446171, 0.00379325, -0.00695361, 0.0010217, -0.00707358, -0.11906, 0.13299, -0.0831382, 0.470836, -0.544466, 0.334988, -2.08348, -2.16533, -0.128348, 0.468127, -0.544236, 0.330477, -2.08329, -2.15911, -0.110023, -0.00451631, -0.0280078, -0.0241779, -0.00604791, -0.0200975, -0.0300527
0.113228, 1.69347, -1.22966, -1.54512, -0.900995, -1.20208, 1.22726, -1.30247, 0.0440003, 0.00574226, -0.086706, 0.000994595, -0.131934, 8.99582e-05, -0.000887001, -2.95983, 66.5445, 32.2928, 10.3897, 1.16565, 4.66525, -0.00267457, -0.000373695, -0.00255923, 0.00460066, 0.0122279, -0.004585, 0.00383989, -0.00741205, 0.0010493, -0.0090112, -0.122118, 0.131564, -0.0824457, 0.470831, -0.544494, 0.334964, -2.08347, -2.16531, -0.128305, 0.468117, -0.544261, 0.330443, -2.08333, -2.15907, -0.109725, -0.00458078, -0.0283999, -0.0245428, -0.00622877, -0.0197404, -0.0322589
0.114228, 1.69351, -1.22965, -1.54519, -0.900988, -1.20222, 1.22726, -1.30247, 0.0460313, 0.00640913, -0.0827642, 0.00345409, -0.131681, 0.00036997, 0.00110409, -3.15026, 66.4334, 32.1064, 10.4294, 1.15375, 4.65793, -0.0484509, -0.00036529, -0.00255904, 0.00460154, 0.0123208, -0.00470608, 0.00387934, -0.00892008, -0.000380945, -0.00665547, -0.117025, 0.132, -0.0832835, 0.470826, -0.544522, 0.334939, -2.08346, -2.1653, -0.128263, 0.468112, -0.544281, 0.330419, -2.08337, -2.15904, -0.109453, -0.00464521, -0.0287914, -0.0249081, -0.00483084, -0.0189466, -0.0301093
0.115228, 1.69356, -1.22965, -1.54527, -0.900988, -1.20235, 1.22726, -1.30248, 0.0434135, 0.00602287, -0.0814148, 0.00445516, -0.130822, 0.000546963, -0.00143408, -3.30102, 66.358, 32.1064, 10.5008, 1.12903, 4.6506, 0.0101428, -0.000357314, -0.00255975, 0.00460767, 0.0124235, -0.00482517, 0.00391245, -0.00830084, 0.0008725, -0.00580858, -0.114089, 0.130935, -0.0839133, 0.470822, -0.544551, 0.334914, -2.08345, -2.16528, -0.128219, 0.468106, -0.544301, 0.33039, -2.0834, -2.15902, -0.109171, -0.00470957, -0.0291822, -0.0252738, -0.00609347, -0.0201302, -0.0296954
0.116228, 1.69359, -1.22964, -1.54535, -0.900985, -1.20249, 1.22726, -1.30247, 0.0405051, 0.00567584, -0.0792606, 0.00513621, -0.131125, 0.000657695, -0.000210069, -3.4121, 66.2866, 32.0707, 10.5762, 1.12262, 4.64328, -0.00999879, -0.000351057, -0.00256368, 0.00461198, 0.0125243, -0.00494375, 0.00395854, -0.00759399, 0.00221854, -0.00468646, -0.111139, 0.130819, -0.0883187, 0.470817, -0.54458, 0.334889, -2.08344, -2.16527, -0.128175, 0.468097, -0.544323, 0.330361, -2.08344, -2.15898, -0.108891, -0.00477385, -0.0295723, -0.0256399, -0.00743503, -0.0214457, -0.0290207
0.117228, 1.69364, -1.22964, -1.54542, -0.900974, -1.20262, 1.22726, -1.30248, 0.0382481, 0.00377651, -0.0736571, 0.0114425, -0.131021, 0.000963429, -0.000886031, -3.6422, 66.2866, 31.9953, 10.5405, 1.11072, 4.62955, 0.0101428, -0.000340485, -0.002562, 0.00461406, 0.012608, -0.00505148, 0.00399248, -0.00614482, 0.00373099, -0.0025033, -0.102397, 0.128211, -0.0933023, 0.470812, -0.54461, 0.334863, -2.08342, -2.16525, -0.12813, 0.468093, -0.544342, 0.330335, -2.08347, -2.15896, -0.108641, -0.00483806, -0.0299616, -0.0260062, -0.00887648, -0.0236631, -0.0274082
0.118228, 1.69368, -1.22964, -1.54549, -0.900967, -1.20275, 1.22726, -1.30247, 0.0345093, 0.00344016, -0.0711838, 0.00703683, -0.131017, 0.00119708, 0.00157945, -3.79296, 66.2469, 31.9953, 10.6158, 1.10431, 4.6149, -0.0484509, -0.000332889, -0.00256448, 0.00461654, 0.0126966, -0.0051647, 0.00404116, -0.00668695, 0.00428953, -0.00191359, -0.101177, 0.128326, -0.0950538, 0.470808, -0.54464, 0.334837, -2.08341, -2.16524, -0.128084, 0.468085, -0.544364, 0.330308, -2.08352, -2.15892, -0.108377, -0.00490216, -0.0303499, -0.0263728, -0.00949562, -0.0236296, -0.0270908
0.119228, 1.69371, -1.22964, -1.54556, -0.900955, -1.20288, 1.22726, -1.30247, 0.0346932, 0.00312451, -0.0701263, 0.0118178, -0.130161, 0.00107851, -0.000642453, -3.94372, 66.2112, 32.031, 10.6158, 1.09241, 4.60757, -0.00267457, -0.000326897, -0.00256886, 0.00461904, 0.0127826, -0.00527404, 0.00408433, -0.00616458, 0.00492283, -0.000774942, -0.0973911, 0.126987, -0.0967042, 0.470803, -0.54467, 0.334811, -2.0834, -2.16522, -0.128038, 0.468075, -0.544389, 0.33028, -2.08357, -2.15888, -0.108121, -0.00496616, -0.0307373, -0.0267396, -0.0101308, -0.0247336, -0.026394
0.120228, 1.69374, -1.22964, -1.54562, -0.900939, -1.20301, 1.22726, -1.30247, 0.0364567, 0.000316652, -0.0675307, 0.0171012, -0.131261, 0.00126843, -0.000665661, -4.0191, 66.2866, 31.9953, 10.5405, 1.10431, 4.59292, 0.00373412, -0.000321823, -0.00257373, 0.00462113, 0.0128566, -0.00537635, 0.00413317, -0.00586736, 0.00462306, -0.000546094, -0.093116, 0.124853, -0.0992904, 0.470798, -0.544701, 0.334784, -2.08339, -2.1652, -0.127991, 0.468065, -0.544414, 0.330253, -2.08362, -2.15884, -0.107883, -0.00503004, -0.0311236, -0.0271065, -0.00987614, -0.0254363, -0.0265904
0.121228, 1.69379, -1.22964, -1.54569, -0.900925, -1.20314, 1.22726, -1.30248, 0.0381652, -0.000626452, -0.064117, 0.0182552, -0.132097, 0.00135942, -0.000918492, -4.24523, 66.3223, 32.031, 10.5762, 1.12262, 4.57919, 0.0165515, -0.000311112, -0.00257377, 0.00462329, 0.0129361, -0.00547819, 0.00417093, -0.00716396, 0.00330449, 0.000495501, -0.0898555, 0.124624, -0.097648, 0.470793, -0.544732, 0.334757, -2.08337, -2.16519, -0.127943, 0.46806, -0.544434, 0.330225, -2.08365, -2.15881, -0.10764, -0.0050938, -0.0315088, -0.0274735, -0.00863003, -0.0246474, -0.0257696
0.122228, 1.69382, -1.22964, -1.54574, -0.900909, -1.20326, 1.22726, -1.30247, 0.0398209, 0.00134385, -0.0581784, 0.019868, -0.127017, 0.000130263, 0.00179517, -4.35632, 66.2469, 31.9199, 10.5762, 1.11072, 4.60025, -0.0484509, -0.000300131, -0.00257616, 0.00461582, 0.0129974, -0.00558098, 0.00422021, -0.0103894, 0.00129229, 0.00408611, -0.0822779, 0.121606, -0.0963393, 0.470788, -0.544764, 0.33473, -2.08336, -2.16517, -0.127895, 0.468052, -0.544456, 0.330207, -2.08371, -2.15877, -0.107415, -0.00515741, -0.0318928, -0.0278405, -0.00666364, -0.0223161, -0.0221551
0.123228, 1.69386, -1.22964, -1.5458, -0.900889, -1.20339, 1.22726, -1.30247, 0.0379332, -3.34323e-05, -0.0572482, 0.0189368, -0.122897, 0.00141218, 0.00119678, -4.47137, 66.2866, 31.9556, 10.5405, 1.10431, 4.56454, -0.0484509, -0.000293058, -0.00257924, 0.00461462, 0.0130623, -0.00568292, 0.00426624, -0.0110105, 0.00118635, 0.00398081, -0.0783197, 0.117686, -0.0955923, 0.470782, -0.544796, 0.334702, -2.08335, -2.16515, -0.127846, 0.468043, -0.544482, 0.330182, -2.08376, -2.15874, -0.107186, -0.00522087, -0.0322756, -0.0282076, -0.00664715, -0.0220651, -0.0225332
0.124228, 1.6939, -1.22963, -1.54585, -0.900873, -1.20351, 1.22726, -1.30248, 0.0414875, 0.00173996, -0.0584393, 0.0178839, -0.124453, 0.0012149, -0.00160964, -4.65783, 66.2112, 31.9556, 10.6516, 1.086, 4.55722, 0.0165515, -0.000277665, -0.00257615, 0.00460588, 0.0131261, -0.00579365, 0.00429138, -0.012954, -0.000656419, 0.00457932, -0.0807629, 0.121168, -0.0901458, 0.470777, -0.544828, 0.334674, -2.08333, -2.16513, -0.127796, 0.468041, -0.5445, 0.330164, -2.08379, -2.15873, -0.106951, -0.00528417, -0.032657, -0.0285745, -0.00491647, -0.0205443, -0.0220667
0.125228, 1.69393, -1.22964, -1.54591, -0.900843, -1.20364, 1.22727, -1.30248, 0.038197, -0.00143922, -0.0555677, 0.0224637, -0.125994, 0.00159146, -0.00131046, -4.73321, 66.3223, 31.9199, 10.5405, 1.07959, 4.53616, 0.0229602, -0.000272351, -0.00258115, 0.00460403, 0.013182, -0.00588839, 0.00434614, -0.0105386, 0.00169112, 0.00486505, -0.0758755, 0.118982, -0.0974424, 0.470772, -0.54486, 0.334645, -2.08332, -2.16511, -0.127746, 0.46803, -0.544528, 0.330139, -2.08385, -2.15869, -0.106737, -0.0053473, -0.0330371, -0.0289414, -0.00722708, -0.0234489, -0.022451
0.126228, 1.69397, -1.22964, -1.54596, -0.900824, -1.20377, 1.22727, -1.30247, 0.0352957, 0.00163842, -0.0545636, 0.0204368, -0.122246, 0.00214727, 0.00204249, -4.77288, 66.2112, 31.9199, 10.6516, 1.06769, 4.50686, -0.0557752, -0.000261872, -0.00258387, 0.00459326, 0.0132393, -0.00600064, 0.0044042, -0.011448, 0.00215636, 0.00725652, -0.0726066, 0.11953, -0.100898, 0.470766, -0.544894, 0.334616, -2.0833, -2.1651, -0.127694, 0.468022, -0.544552, 0.330122, -2.08393, -2.15865, -0.106502, -0.00541024, -0.0334157, -0.0293081, -0.00769631, -0.023316, -0.0203006
0.127228, 1.69402, -1.22964, -1.54602, -0.900801, -1.2039, 1.22727, -1.30247, 0.0429378, 0.000256648, -0.0530728, 0.0198019, -0.124648, 0.00194106, 0.00136166, -4.96331, 66.2469, 32.031, 10.7269, 1.06769, 4.49313, -0.0557752, -0.000248171, -0.00258103, 0.00458994, 0.0133032, -0.00610364, 0.00444413, -0.0151775, -0.00233531, 0.00678727, -0.0737899, 0.120528, -0.0928345, 0.470761, -0.544927, 0.334587, -2.08329, -2.16508, -0.127643, 0.468019, -0.544573, 0.330098, -2.08397, -2.15862, -0.106271, -0.00547299, -0.0337927, -0.0296745, -0.00342339, -0.0197549, -0.0206959
0.128228, 1.69405, -1.22963, -1.54606, -0.900773, -1.20403, 1.22728, -1.30248, 0.0439911, 0.00184122, -0.0513196, 0.0213596, -0.126737, 0.00288843, -0.00200835, -4.96331, 66.1755, 31.9953, 10.7269, 1.0741, 4.4501, 0.0229602, -0.000238587, -0.00258318, 0.00457542, 0.0133501, -0.00621979, 0.00448276, -0.0156027, -0.00286367, 0.00890338, -0.0713095, 0.124311, -0.090357, 0.470756, -0.544961, 0.334557, -2.08327, -2.16506, -0.12759, 0.468011, -0.544599, 0.330085, -2.08403, -2.1586, -0.106045, -0.00553554, -0.0341681, -0.0300408, -0.00289288, -0.0200138, -0.0189238
0.129228, 1.69409, -1.22964, -1.54611, -0.900742, -1.20417, 1.22728, -1.30248, 0.0490065, -0.000443188, -0.0510338, 0.0255765, -0.127468, 0.00273994, -0.0013389, -4.99902, 66.2469, 31.9953, 10.7269, 1.06769, 4.42813, 0.0229602, -0.000229375, -0.00258419, 0.00456629, 0.0133994, -0.00632947, 0.00453223, -0.0167267, -0.0047882, 0.0082819, -0.070113, 0.122629, -0.0904963, 0.47075, -0.544995, 0.334527, -2.08326, -2.16504, -0.127537, 0.468004, -0.544626, 0.330065, -2.0841, -2.15857, -0.105821, -0.00559787, -0.0345419, -0.0304067, -0.00109633, -0.0191035, -0.019791
0.130228, 1.69414, -1.22964, -1.54615, -0.900711, -1.20431, 1.22728, -1.30247, 0.049013, -0.00205887, -0.0495267, 0.024721, -0.1334, 0.00260691, 0.0015149, -4.99902, 66.3223, 31.9556, 10.7626, 1.06769, 4.40707, -0.0420422, -0.00021732, -0.00258389, 0.004558, 0.0134483, -0.00643084, 0.00458795, -0.016414, -0.00465027, 0.00805703, -0.0718121, 0.126078, -0.0944805, 0.470744, -0.545029, 0.334497, -2.08324, -2.16502, -0.127483, 0.467999, -0.54465, 0.330045, -2.08416, -2.15853, -0.105604, -0.00565998, -0.0349139, -0.0307722, -0.00129317, -0.0197553, -0.020423
0.131228, 1.69418, -1.22965, -1.5462, -0.900676, -1.20445, 1.22729, -1.30247, 0.0498557, -0.00926664, -0.0514823, 0.0280344, -0.13759, 0.0028233, 0.00175592, -5.03869, 66.3937, 32.031, 10.7626, 1.0741, 4.37778, -0.0621838, -0.000207818, -0.00258383, 0.00455167, 0.0134985, -0.006537, 0.00464237, -0.0143294, -0.00379379, 0.00386446, -0.0741025, 0.122577, -0.0996093, 0.470739, -0.545064, 0.334466, -2.08323, -2.165, -0.127428, 0.467993, -0.544676, 0.330022, -2.08423, -2.15849, -0.105381, -0.00572185, -0.0352841, -0.0311374, -0.00229527, -0.0215748, -0.0252236
0.132228, 1.69423, -1.22965, -1.54625, -0.90064, -1.20459, 1.22729, -1.30248, 0.0504364, -0.00669649, -0.0509647, 0.0296092, -0.135591, 0.00239104, -0.00150815, -5.07439, 66.3937, 32.031, 10.8023, 1.06128, 4.36404, 0.0101428, -0.000194797, -0.00258194, 0.00453818, 0.0135461, -0.00665121, 0.00467867, -0.0153177, -0.00402119, 0.00602337, -0.0718237, 0.123378, -0.0969869, 0.470733, -0.5451, 0.334435, -2.08321, -2.16498, -0.127372, 0.467989, -0.544701, 0.330006, -2.08429, -2.15848, -0.105153, -0.00578347, -0.0356524, -0.0315021, -0.0020825, -0.0212895, -0.023311
0.133228, 1.69427, -1.22966, -1.54629, -0.900596, -1.20473, 1.22729, -1.30248, 0.0493107, -0.00837984, -0.0484622, 0.0335566, -0.13994, 0.00318789, -0.000768077, -5.03869, 66.5445, 32.0707, 10.7269, 1.0741, 4.32101, 0.00373412, -0.000188061, -0.00258395, 0.00453181, 0.0135922, -0.00675628, 0.00474123, -0.0134948, -0.00269542, 0.00690656, -0.0686861, 0.125378, -0.103188, 0.470727, -0.545135, 0.334403, -2.08319, -2.16496, -0.127316, 0.467981, -0.544731, 0.329982, -2.08436, -2.15843, -0.104933, -0.00584484, -0.0360188, -0.0318663, -0.0033691, -0.0236455, -0.0230431
0.134228, 1.69433, -1.22967, -1.54634, -0.900553, -1.20487, 1.22729, -1.30247, 0.053382, -0.0124045, -0.0489181, 0.0344026, -0.141261, 0.00185411, 0.00118337, -5.07439, 66.6913, 32.0707, 10.7269, 1.03107, 4.32834, -0.0420422, -0.000173793, -0.00258006, 0.00452453, 0.0136394, -0.00685541, 0.0047896, -0.0148863, -0.00446007, 0.00447522, -0.0710263, 0.122194, -0.103098, 0.470721, -0.545171, 0.334371, -2.08318, -2.16494, -0.127259, 0.467978, -0.544754, 0.32996, -2.08442, -2.1584, -0.104718, -0.00590595, -0.0363832, -0.0322299, -0.00180973, -0.0221905, -0.025649
0.135228, 1.69438, -1.22969, -1.54639, -0.900506, -1.20501, 1.2273, -1.30247, 0.0549047, -0.0130151, -0.050127, 0.0392197, -0.143023, 0.00204997, 0.00129754, -5.03869, 66.8738, 32.1064, 10.6873, 1.00635, 4.30636, -0.0557752, -0.000163488, -0.00257898, 0.00451931, 0.0136843, -0.00695328, 0.00484472, -0.0138788, -0.00392739, 0.00460836, -0.0703563, 0.123114, -0.10776, 0.470716, -0.545208, 0.334339, -2.08316, -2.16492, -0.127202, 0.467973, -0.544781, 0.329935, -2.08449, -2.15835, -0.104506, -0.00596678, -0.0367455, -0.032593, -0.00236138, -0.0235896, -0.0260198
0.136228, 1.69443, -1.2297, -1.54642, -0.900455, -1.20516, 1.2273, -1.30248, 0.0534925, -0.0107974, -0.0475733, 0.0404696, -0.144335, 0.00613586, -0.000830395, -4.99902, 66.9492, 31.9953, 10.6158, 0.988036, 4.29263, -0.00999879, -0.000150685, -0.00257616, 0.00450484, 0.0137179, -0.00705968, 0.00489129, -0.0133364, -0.00392853, 0.00773137, -0.0637861, 0.128356, -0.108058, 0.47071, -0.545245, 0.334306, -2.08314, -2.16489, -0.127143, 0.46797, -0.544807, 0.329918, -2.08456, -2.15833, -0.104298, -0.00602732, -0.0371056, -0.0329554, -0.0022818, -0.0249646, -0.0233828
0.137228, 1.69449, -1.2297, -1.54647, -0.900407, -1.2053, 1.2273, -1.30248, 0.0551525, -0.00830152, -0.0451225, 0.0418842, -0.149306, 0.00471694, -0.000824864, -4.96331, 66.9849, 31.9953, 10.6516, 0.969725, 4.28531, -0.00267457, -0.000135839, -0.00257055, 0.00449236, 0.0137598, -0.00717205, 0.00493769, -0.0139586, -0.0041727, 0.0103851, -0.0641433, 0.134272, -0.108909, 0.470704, -0.545282, 0.334273, -2.08313, -2.16487, -0.127084, 0.467969, -0.544831, 0.3299, -2.08462, -2.1583, -0.104073, -0.00608756, -0.0374636, -0.0333171, -0.00201824, -0.0251056, -0.021036
0.138228, 1.69455, -1.22972, -1.54651, -0.900352, -1.20545, 1.22731, -1.30247, 0.0579738, -0.0117675, -0.0441597, 0.0447102, -0.148549, 0.00473337, 0.00114551, -4.99902, 67.2427, 32.031, 10.6158, 0.932189, 4.2496, -0.0484509, -0.000122305, -0.00256359, 0.00448824, 0.0137984, -0.00726746, 0.004992, -0.0148157, -0.00551426, 0.00922991, -0.0619241, 0.130303, -0.110453, 0.470697, -0.545319, 0.33424, -2.08311, -2.16485, -0.127025, 0.46797, -0.544856, 0.329873, -2.08469, -2.15826, -0.103868, -0.0061475, -0.0378192, -0.0336781, -0.000812575, -0.0243827, -0.0224487
0.139228, 1.69461, -1.22972, -1.54655, -0.900291, -1.20559, 1.22731, -1.30247, 0.0567715, -0.0102281, -0.0448199, 0.0468166, -0.144582, 0.00389786, 0.00150966, -4.88793, 67.207, 31.9953, 10.5762, 0.932189, 4.23495, -0.0685925, -0.000111777, -0.00256272, 0.00447002, 0.0138299, -0.00738329, 0.00505994, -0.0149379, -0.00457196, 0.0104855, -0.0596589, 0.128266, -0.113577, 0.470691, -0.545357, 0.334206, -2.08309, -2.16483, -0.126964, 0.467964, -0.544886, 0.329859, -2.08478, -2.15822, -0.103649, -0.00620712, -0.0381726, -0.0340383, -0.00176881, -0.0248466, -0.0215199
0.140228, 1.69467, -1.22973, -1.5466, -0.900239, -1.20573, 1.22731, -1.30248, 0.0588875, -0.0120196, -0.046237, 0.0485153, -0.145028, 0.00274838, -0.00143497, -4.77288, 67.2784, 31.9953, 10.6516, 0.895568, 4.23495, -0.00267457, -9.74729e-05, -0.00255914, 0.00446014, 0.0138705, -0.00748448, 0.005103, -0.0153541, -0.00495966, 0.00926427, -0.0613893, 0.126572, -0.111499, 0.470685, -0.545395, 0.334172, -2.08307, -2.1648, -0.126903, 0.467961, -0.544912, 0.329837, -2.08484, -2.15819, -0.103435, -0.00626642, -0.0385235, -0.0343977, -0.00150205, -0.0245831, -0.0230336
0.141228, 1.69473, -1.22974, -1.54665, -0.900177, -1.20587, 1.22731, -1.30248, 0.0625143, -0.0126182, -0.047274, 0.0520822, -0.146132, 0.00167334, -0.001194, -4.73321, 67.3181, 31.9953, 10.6516, 0.883666, 4.24228, 0.00373412, -8.34831e-05, -0.00255516, 0.00444903, 0.0139113, -0.0075881, 0.00516138, -0.0159328, -0.00576191, 0.00907189, -0.0622596, 0.126534, -0.112825, 0.470679, -0.545434, 0.334138, -2.08305, -2.16478, -0.126841, 0.467959, -0.544938, 0.329815, -2.08491, -2.15815, -0.103217, -0.00632538, -0.038872, -0.0347562, -0.000787243, -0.0242978, -0.0235189
0.142228, 1.6948, -1.22975, -1.5467, -0.900115, -1.20602, 1.22731, -1.30247, 0.0619994, -0.0121316, -0.0492518, 0.0530319, -0.146952, 0.00119982, 0.0016454, -4.6975, 67.3181, 31.9199, 10.7269, 0.870848, 4.24228, -0.0621838, -6.86682e-05, -0.00255036, 0.00443573, 0.0139484, -0.00769453, 0.00522165, -0.0153448, -0.00477222, 0.00908971, -0.063795, 0.127796, -0.11892, 0.470673, -0.545473, 0.334103, -2.08303, -2.16476, -0.126778, 0.467957, -0.544964, 0.329796, -2.08499, -2.15811, -0.102999, -0.006384, -0.0392179, -0.0351138, -0.0018121, -0.0252675, -0.0239181
0.143228, 1.69486, -1.22976, -1.54675, -0.900045, -1.20616, 1.22731, -1.30247, 0.0617571, -0.0110957, -0.0496048, 0.0589046, -0.147374, 0.000354456, 0.00109694, -4.65783, 67.2784, 31.9199, 10.7269, 0.858946, 4.25601, -0.0621838, -5.57506e-05, -0.00254745, 0.00442427, 0.0139891, -0.00779823, 0.00528348, -0.0139231, -0.00308532, 0.0106371, -0.0617362, 0.128534, -0.124796, 0.470666, -0.545512, 0.334068, -2.08301, -2.16473, -0.126715, 0.467953, -0.544992, 0.329774, -2.08506, -2.15806, -0.102779, -0.00644226, -0.0395612, -0.0354704, -0.00344426, -0.027321, -0.0229121
0.144228, 1.69493, -1.22977, -1.5468, -0.899979, -1.20631, 1.22731, -1.30248, 0.0646263, -0.00971803, -0.0523764, 0.0611745, -0.152165, 1.24362e-05, -0.00120149, -4.62212, 67.207, 31.8842, 10.8023, 0.834227, 4.26333, -0.00999879, -4.19675e-05, -0.00254279, 0.00441115, 0.0140274, -0.00790875, 0.00533726, -0.0135567, -0.00311708, 0.0109361, -0.0655354, 0.134042, -0.125293, 0.47066, -0.545551, 0.334033, -2.08299, -2.16471, -0.126651, 0.467951, -0.54502, 0.329754, -2.08514, -2.15802, -0.102555, -0.00650015, -0.0399019, -0.035826, -0.00344526, -0.0280679, -0.0230306
0.145228, 1.69499, -1.22977, -1.54686, -0.899904, -1.20646, 1.22731, -1.30247, 0.0656831, -0.00709574, -0.0540353, 0.0641571, -0.154826, 4.38404e-05, 0.000148443, -4.54675, 67.0602, 31.8445, 10.838, 0.791197, 4.26333, -0.0356336, -3.23269e-05, -0.00254411, 0.0043966, 0.0140678, -0.00801916, 0.00541667, -0.0128975, -0.00245202, 0.0125797, -0.0663048, 0.139046, -0.130649, 0.470653, -0.545591, 0.333997, -2.08297, -2.16469, -0.126586, 0.467944, -0.545053, 0.329734, -2.08523, -2.15796, -0.102325, -0.00655767, -0.0402399, -0.0361806, -0.00407929, -0.0293362, -0.0218428
0.146228, 1.69506, -1.22978, -1.54691, -0.899824, -1.20661, 1.22731, -1.30247, 0.0652788, -0.0101822, -0.0563785, 0.0681191, -0.152644, -0.000215378, -0.00112174, -4.54675, 66.9849, 31.8445, 10.8023, 0.754576, 4.27066, -0.00267457, -2.32101e-05, -0.00254363, 0.00438565, 0.0141121, -0.00813032, 0.00548823, -0.0116337, -0.00122717, 0.0107719, -0.0655118, 0.134135, -0.134251, 0.470647, -0.545631, 0.333961, -2.08295, -2.16466, -0.12652, 0.467937, -0.545086, 0.32971, -2.08532, -2.1579, -0.10209, -0.00661481, -0.0405751, -0.036534, -0.0053841, -0.0306917, -0.0241369
0.147228, 1.69513, -1.22979, -1.54697, -0.899753, -1.20677, 1.22731, -1.30247, 0.0630527, -0.0108106, -0.0546817, 0.0712957, -0.150919, -0.000394856, 0.00121886, -4.47137, 66.8381, 31.6977, 10.8777, 0.723448, 4.27798, -0.0557752, -1.21251e-05, -0.00254229, 0.00436984, 0.0141494, -0.00824821, 0.00556351, -0.0107471, 0.000208519, 0.0118335, -0.0611742, 0.131843, -0.140871, 0.47064, -0.545672, 0.333924, -2.08293, -2.16464, -0.126454, 0.467932, -0.545118, 0.329691, -2.08542, -2.15785, -0.101855, -0.00667155, -0.0409074, -0.0368864, -0.00680128, -0.0321211, -0.0235312
0.148228, 1.6952, -1.2298, -1.54703, -0.899674, -1.20692, 1.22731, -1.30247, 0.0664065, -0.0132221, -0.055794, 0.0756425, -0.149777, -0.00024824, 0.00104993, -4.47137, 66.7627, 31.6581, 10.8777, 0.680419, 4.27798, -0.0621838, -1.18626e-06, -0.00254034, 0.00436294, 0.0141958, -0.00835095, 0.00563252, -0.0110945, -0.000760549, 0.0107574, -0.0597534, 0.128707, -0.141976, 0.470633, -0.545713, 0.333887, -2.08291, -2.16461, -0.126387, 0.467927, -0.545149, 0.329663, -2.08549, -2.15779, -0.101626, -0.00672789, -0.0412368, -0.0372375, -0.00594331, -0.0319026, -0.0249231
0.149228, 1.69526, -1.22981, -1.5471, -0.89959, -1.20708, 1.22731, -1.30247, 0.0662543, -0.012494, -0.0603022, 0.078861, -0.154093, -0.000154245, -4.603e-05, -4.35632, 66.5802, 31.6224, 10.8777, 0.668517, 4.27798, -0.0420422, 2.30152e-06, -0.00254568, 0.00435057, 0.0142402, -0.00847068, 0.00571903, -0.00872949, 0.00129372, 0.0103789, -0.0636253, 0.133324, -0.148141, 0.470627, -0.545754, 0.33385, -2.08289, -2.16458, -0.126319, 0.467915, -0.545189, 0.329639, -2.0856, -2.15772, -0.101378, -0.00678382, -0.0415633, -0.0375874, -0.00798095, -0.0345901, -0.0259452
0.150228, 1.69533, -1.22982, -1.54716, -0.89951, -1.20724, 1.22731, -1.30248, 0.0679204, -0.00967489, -0.059536, 0.079528, -0.157989, -0.000874288, -0.00196347, -4.32061, 66.4334, 31.547, 10.9491, 0.662108, 4.29904, 0.0101428, 8.72858e-06, -0.00254826, 0.00434292, 0.0142917, -0.00858446, 0.00579856, -0.00936158, 0.000946096, 0.0125803, -0.0646636, 0.139225, -0.146865, 0.47062, -0.545796, 0.333812, -2.08287, -2.16456, -0.126251, 0.467905, -0.545225, 0.32961, -2.08569, -2.15765, -0.101129, -0.00683932, -0.0418868, -0.0379361, -0.00762524, -0.034613, -0.0240338
0.151228, 1.6954, -1.22983, -1.54722, -0.899423, -1.2074, 1.22731, -1.30247, 0.0674864, -0.0098089, -0.0603995, 0.0826872, -0.157108, -0.000847799, 0.00113243, -4.35632, 66.2469, 31.4002, 10.9134, 0.680419, 4.30636, -0.0557752, 1.64024e-05, -0.00254941, 0.00433001, 0.0143337, -0.00870163, 0.00588593, -0.00859008, 0.00189854, 0.0129568, -0.0630142, 0.138478, -0.153965, 0.470613, -0.545838, 0.333774, -2.08285, -2.16453, -0.126182, 0.467897, -0.545262, 0.329586, -2.0858, -2.15758, -0.100886, -0.0068944, -0.0422071, -0.0382834, -0.00858863, -0.0357917, -0.0240973
0.152228, 1.69546, -1.22984, -1.54729, -0.899345, -1.20757, 1.22731, -1.30247, 0.0646269, -0.0101726, -0.0638388, 0.0821152, -0.155683, -0.000560454, 0.00122967, -4.28094, 66.0645, 31.3605, 10.9888, 0.674925, 4.30636, -0.0685925, 2.08721e-05, -0.00255448, 0.0043228, 0.014389, -0.00882067, 0.00597423, -0.00737131, 0.00372664, 0.0119186, -0.0645628, 0.137578, -0.158216, 0.470606, -0.54588, 0.333736, -2.08282, -2.1645, -0.126112, 0.467885, -0.545301, 0.329556, -2.0859, -2.15751, -0.100625, -0.00694903, -0.0425243, -0.0386293, -0.0104655, -0.0372279, -0.0255964
0.153228, 1.69554, -1.22985, -1.54736, -0.899263, -1.20773, 1.22731, -1.30247, 0.0674789, -0.00569155, -0.0708266, 0.0819267, -0.163634, -9.88096e-05, 0.000345062, -4.28094, 65.8066, 31.2494, 11.0641, 0.680419, 4.29904, -0.0557752, 2.85016e-05, -0.00255559, 0.00431303, 0.0144406, -0.00894236, 0.00605836, -0.006398, 0.00418784, 0.0123116, -0.0736898, 0.149703, -0.161118, 0.470599, -0.545922, 0.333697, -2.0828, -2.16448, -0.126041, 0.467877, -0.545337, 0.329528, -2.086, -2.15744, -0.100365, -0.00700322, -0.0428383, -0.0389739, -0.0109296, -0.038582, -0.025688
0.154228, 1.69561, -1.22987, -1.54744, -0.899169, -1.2079, 1.22731, -1.30248, 0.0687189, -0.00922587, -0.0747771, 0.0855478, -0.160725, -0.000334471, -0.00197401, -4.24523, 65.6955, 31.2137, 10.9888, 0.693236, 4.30636, 0.00373412, 2.92654e-05, -0.00256276, 0.00430899, 0.0144934, -0.00905352, 0.00615244, -0.00570937, 0.0046085, 0.00953489, -0.0743977, 0.143981, -0.162253, 0.470592, -0.545965, 0.333659, -2.08278, -2.16445, -0.12597, 0.467863, -0.545381, 0.329494, -2.0861, -2.15735, -0.100112, -0.00705695, -0.0431491, -0.039317, -0.0114871, -0.0391638, -0.0288652
0.155228, 1.69568, -1.22988, -1.54752, -0.899085, -1.20805, 1.22731, -1.30247, 0.0673559, -0.0105434, -0.0754611, 0.0843717, -0.166321, -0.00103478, 0.000379417, -4.24523, 65.4019, 31.1027, 11.0641, 0.680419, 4.32834, -0.0420422, 3.67541e-05, -0.00256622, 0.00429942, 0.0145474, -0.00917098, 0.0062415, -0.00452238, 0.00592609, 0.00868006, -0.0782405, 0.14735, -0.167761, 0.470585, -0.546008, 0.333619, -2.08275, -2.16442, -0.125898, 0.467852, -0.545418, 0.329465, -2.0862, -2.15727, -0.0998521, -0.00711021, -0.0434565, -0.0396587, -0.0128471, -0.040566, -0.0301904
0.156228, 1.69575, -1.22988, -1.54759, -0.898993, -1.20822, 1.22731, -1.30247, 0.0694433, -0.00846464, -0.0779333, 0.0833633, -0.162546, -0.000417085, 0.00099893, -4.24523, 65.1083, 30.9162, 11.0245, 0.680419, 4.32101, -0.0621838, 4.25839e-05, -0.0025698, 0.00428675, 0.0145945, -0.00929382, 0.00633824, -0.00645526, 0.00441634, 0.00913803, -0.078275, 0.147314, -0.166086, 0.470578, -0.546052, 0.33358, -2.08273, -2.16439, -0.125825, 0.467842, -0.545458, 0.329439, -2.08631, -2.15719, -0.0995924, -0.007163, -0.0437605, -0.0399988, -0.011442, -0.03897, -0.0298293
0.157228, 1.69582, -1.2299, -1.54768, -0.898903, -1.20838, 1.22731, -1.30247, 0.0646407, -0.00971288, -0.0772704, 0.0811923, -0.158821, -0.00105682, 0.000428594, -4.24523, 64.9219, 30.8765, 11.0245, 0.662108, 4.34207, -0.0557752, 4.59411e-05, -0.00257679, 0.00428175, 0.0146528, -0.00940774, 0.00643247, -0.00614841, 0.00613883, 0.00880509, -0.076491, 0.142987, -0.16745, 0.470571, -0.546096, 0.33354, -2.08271, -2.16437, -0.125751, 0.467827, -0.545499, 0.329405, -2.08641, -2.1571, -0.0993291, -0.0072153, -0.0440611, -0.0403373, -0.0132161, -0.0395931, -0.0304862
0.158228, 1.69589, -1.22991, -1.54776, -0.898812, -1.20854, 1.22731, -1.30248, 0.0682207, -0.0104952, -0.0850824, 0.0854863, -0.156925, -0.000195079, -0.00168096, -4.28094, 64.7394, 30.8051, 11.0245, 0.656615, 4.32834, -0.00267457, 4.98627e-05, -0.0025821, 0.00427613, 0.0147089, -0.00952456, 0.00652288, -0.005419, 0.00605531, 0.00636974, -0.0798898, 0.141689, -0.169309, 0.470564, -0.54614, 0.333499, -2.08268, -2.16434, -0.125677, 0.467815, -0.545541, 0.329371, -2.08651, -2.15702, -0.0990648, -0.0072671, -0.0443582, -0.0406742, -0.0132542, -0.0402333, -0.033343
0.159228, 1.69595, -1.22992, -1.54785, -0.89872, -1.2087, 1.22731, -1.30247, 0.0674224, -0.0141815, -0.0836396, 0.0883111, -0.159775, -0.000400686, 0.000846049, -4.16985, 64.5529, 30.6901, 11.0641, 0.650206, 4.33566, -0.0557752, 4.9895e-05, -0.00259305, 0.00426868, 0.0147627, -0.00964286, 0.0066347, -0.00400499, 0.00712884, 0.0054109, -0.0785798, 0.140227, -0.175953, 0.470556, -0.546184, 0.333458, -2.08266, -2.16431, -0.125602, 0.467796, -0.545587, 0.329339, -2.08663, -2.15692, -0.0987986, -0.00731841, -0.0446518, -0.0410095, -0.014365, -0.0418199, -0.0348075
0.160228, 1.69603, -1.22994, -1.54793, -0.898622, -1.20886, 1.22731, -1.30247, 0.0671512, -0.0165832, -0.0857248, 0.0892213, -0.156967, -0.000266649, 0.00103875, -4.20556, 64.4815, 30.579, 11.0245, 0.631896, 4.33566, -0.0685925, 5.33987e-05, -0.00259813, 0.00426296, 0.0148142, -0.00975761, 0.00673862, -0.00385366, 0.00742539, 0.00368928, -0.0783009, 0.135994, -0.177881, 0.470549, -0.546229, 0.333417, -2.08263, -2.16428, -0.125526, 0.467784, -0.545629, 0.329304, -2.08675, -2.15682, -0.0985387, -0.0073692, -0.0449417, -0.0413431, -0.0147743, -0.0420074, -0.036854
0.161228, 1.6961, -1.22995, -1.54801, -0.898526, -1.20903, 1.22731, -1.30247, 0.0675572, -0.0139311, -0.0842619, 0.0897996, -0.159604, 9.38575e-05, 0.000217783, -4.13018, 64.3704, 30.4679, 10.9888, 0.619078, 4.32834, -0.0557752, 5.56316e-05, -0.00260539, 0.00425569, 0.0148646, -0.00987562, 0.00683765, -0.00418016, 0.00730838, 0.00617027, -0.0770509, 0.141181, -0.178105, 0.470542, -0.546274, 0.333376, -2.08261, -2.16425, -0.12545, 0.467769, -0.545673, 0.329271, -2.08686, -2.15673, -0.0982764, -0.00741948, -0.0452279, -0.0416749, -0.0146206, -0.0423469, -0.0346891
0.162228, 1.69616, -1.22997, -1.5481, -0.898423, -1.2092, 1.22731, -1.30248, 0.0681739, -0.0167917, -0.0828972, 0.0940215, -0.161411, -0.000208428, -0.0018215, -4.0548, 64.3347, 30.4679, 10.9134, 0.607176, 4.33566, -0.00267457, 5.25958e-05, -0.00261798, 0.00425269, 0.0149215, -0.00998979, 0.00695044, -0.00324364, 0.00783121, 0.00577801, -0.0749115, 0.139547, -0.179724, 0.470534, -0.546319, 0.333334, -2.08258, -2.16422, -0.125373, 0.467749, -0.545722, 0.329232, -2.08698, -2.15662, -0.0980088, -0.00746922, -0.0455105, -0.042005, -0.0151745, -0.0435154, -0.0355333
0.163228, 1.69623, -1.22998, -1.54818, -0.898323, -1.20936, 1.22731, -1.30247, 0.0693166, -0.0146316, -0.0818429, 0.0986279, -0.156562, 0.000403783, 0.000481088, -4.0191, 64.2593, 30.3568, 10.9134, 0.570555, 4.32101, -0.0484509, 5.54242e-05, -0.00262531, 0.00424312, 0.0149655, -0.0101057, 0.00705775, -0.00402249, 0.00737419, 0.00833279, -0.0685599, 0.137956, -0.183569, 0.470527, -0.546364, 0.333292, -2.08255, -2.16419, -0.125295, 0.467734, -0.545767, 0.3292, -2.0871, -2.15652, -0.0977533, -0.00751843, -0.0457892, -0.0423333, -0.0146928, -0.0433982, -0.0332335
0.164228, 1.6963, -1.22999, -1.54827, -0.898219, -1.20952, 1.22731, -1.30247, 0.0702002, -0.0142771, -0.0830572, 0.102963, -0.164249, -0.000273196, 0.000829351, -3.97942, 64.1125, 30.3211, 10.8777, 0.552245, 4.33566, -0.0621838, 5.64318e-05, -0.00263535, 0.00423252, 0.0150159, -0.0102272, 0.00717308, -0.0017979, 0.00903981, 0.00892924, -0.0714311, 0.144352, -0.190687, 0.470519, -0.54641, 0.33325, -2.08253, -2.16416, -0.125216, 0.467717, -0.545814, 0.329169, -2.08723, -2.15642, -0.0974837, -0.00756709, -0.0460641, -0.0426597, -0.0163017, -0.0460293, -0.0332582
0.165228, 1.6963, -1.22999, -1.54827, -0.898219, -1.20952, 1.22731, -1.30247, 0.0702002, -0.0142771, -0.0830572, 0.102963, -0.164249, -0.000273196, 0.000829351, -3.97942, 64.1125, 30.3211, 10.8777, 0.552245, 4.33566, -0.0621838, 0.000108253, -0.00262706, 0.00419733, 0.0149481, -0.0102234, 0.00716656, -0.00211391, 0.00899229, 0.00920942, -0.0709779, 0.144706, -0.191368, 0.470512, -0.546456, 0.333207, -2.0825, -2.16412, -0.125137, 0.467717, -0.545814, 0.329169, -2.08723, -2.15642, -0.0974837, -0.0076152, -0.0463352, -0.0429842, -0.0163017, -0.0460293, -0.0332582
0.166228, 1.6963, -1.22999, -1.54827, -0.898219, -1.20952, 1.22731, -1.30247, 0.0702002, -0.0142771, -0.0830572, 0.102963, -0.164249, -0.000273196, 0.000829351, -3.97942, 64.1125, 30.3211, 10.8777, 0.552245, 4.33566, -0.0621838, 0.000160389, -0.00261873, 0.00416187, 0.0148797, -0.0102197, 0.00716001, -0.00242575, 0.00894548, 0.00948826, -0.0705235, 0.145062, -0.192048, 0.470504, -0.546503, 0.333164, -2.08247, -2.16409, -0.125057, 0.467717, -0.545814, 0.329169, -2.08723, -2.15642, -0.0974837, -0.00766275, -0.0466022, -0.0433068, -0.0163017, -0.0460293, -0.0332582
0.167228, 1.6963, -1.22999, -1.54827, -0.898219, -1.20952, 1.22731, -1.30247, 0.0702002, -0.0142771, -0.0830572, 0.102963, -0.164249, -0.000273196, 0.000829351, -3.97942, 64.1125, 30.3211, 10.8777, 0.552245, 4.33566, -0.0621838, 0.000212837, -0.00261036, 0.00412612, 0.0148105, -0.0102161, 0.00715342, -0.00273335, 0.00889939, 0.00976576, -0.0700679, 0.145421, -0.192727, 0.470496, -0.546549, 0.333121, -2.08245, -2.16406, -0.124976, 0.467717, -0.545814, 0.329169, -2.08723, -2.15642, -0.0974837, -0.00770973, -0.0468653, -0.0436274, -0.0163017, -0.0460293, -0.0332582
0.168228, 1.69659, -1.23005, -1.54863, -0.89778, -1.2102, 1.22731, -1.30247, 0.070521, -0.0149823, -0.08911, 0.10602, -0.168086, -1.05736e-06, 0.00150258, -3.60253, 64.1125, 30.2457, 10.7626, 0.557738, 4.33566, -0.0621838, 4.83647e-05, -0.00268176, 0.00420518, 0.0152121, -0.010699, 0.00764267, -0.000208419, 0.0108597, 0.00797588, -0.0752196, 0.148522, -0.200567, 0.470489, -0.546596, 0.333077, -2.08242, -2.16403, -0.124894, 0.46764, -0.546014, 0.329025, -2.08774, -2.15597, -0.0964171, -0.00775613, -0.0471243, -0.043946, -0.0182876, -0.0485873, -0.0356672
0.169228, 1.69666, -1.23007, -1.54872, -0.897669, -1.21038, 1.22731, -1.30247, 0.0732001, -0.0161797, -0.0914752, 0.108545, -0.173226, -0.000509296, 0.000493092, -3.52715, 64.184, 30.3568, 10.7269, 0.557738, 4.34939, -0.0484509, 4.48447e-05, -0.00269449, 0.00420199, 0.0152712, -0.0108199, 0.00776754, 0.000597708, 0.0109634, 0.00690872, -0.07903, 0.151692, -0.202608, 0.470481, -0.546643, 0.333034, -2.08239, -2.164, -0.124812, 0.46762, -0.546066, 0.328984, -2.08787, -2.15585, -0.0961337, -0.00780194, -0.0473792, -0.0442625, -0.0184508, -0.0494788, -0.0371578
0.170228, 1.69674, -1.23007, -1.54881, -0.897552, -1.21055, 1.2273, -1.30247, 0.0724415, -0.0117908, -0.0897178, 0.11413, -0.168449, -0.00115331, 0.000599995, -3.45177, 64.0372, 30.3211, 10.6516, 0.576048, 4.37137, -0.0557752, 4.60293e-05, -0.0027049, 0.00418375, 0.0153162, -0.0109547, 0.00788506, 0.000517126, 0.0119662, 0.0111464, -0.0722391, 0.151536, -0.20676, 0.470473, -0.546691, 0.332989, -2.08236, -2.16396, -0.124729, 0.467602, -0.546115, 0.328958, -2.08801, -2.15575, -0.0958519, -0.00784715, -0.04763, -0.044577, -0.0193291, -0.0503408, -0.0332405
0.171228, 1.69681, -1.23009, -1.54891, -0.897441, -1.21071, 1.2273, -1.30248, 0.0699889, -0.0140681, -0.0940148, 0.112803, -0.173048, -0.00076885, -0.00156669, -3.30102, 64.1125, 30.3925, 10.6873, 0.582457, 4.37137, -0.00267457, 4.36642e-05, -0.00271762, 0.0041804, 0.0153708, -0.0110699, 0.00800432, 0.00294794, 0.0141979, 0.00855779, -0.0778594, 0.153894, -0.210022, 0.470465, -0.546738, 0.332945, -2.08233, -2.16393, -0.124645, 0.467581, -0.546166, 0.328917, -2.08813, -2.15563, -0.0955784, -0.00789177, -0.0478765, -0.0448893, -0.02162, -0.0526821, -0.0364071
0.172228, 1.69688, -1.2301, -1.54901, -0.897319, -1.21089, 1.2273, -1.30247, 0.0702233, -0.0145843, -0.0986176, 0.118483, -0.175866, -0.000749911, 0.000922227, -3.18597, 64.1483, 30.3925, 10.5762, 0.564147, 4.37778, -0.0557752, 3.9153e-05, -0.00273228, 0.00417083, 0.0154177, -0.0111924, 0.00814223, 0.00577467, 0.0164535, 0.00769664, -0.08017, 0.155898, -0.22105, 0.470457, -0.546786, 0.3329, -2.0823, -2.16389, -0.124561, 0.467559, -0.54622, 0.328882, -2.08828, -2.1555, -0.0953035, -0.00793577, -0.0481188, -0.0451995, -0.0238508, -0.055676, -0.0379261
0.173228, 1.69697, -1.23011, -1.54911, -0.897198, -1.21106, 1.2273, -1.30247, 0.073909, -0.0140831, -0.102015, 0.118531, -0.180154, -0.00104246, 0.00108954, -3.26134, 64.1483, 30.3925, 10.5008, 0.588866, 4.39242, -0.0685925, 4.10301e-05, -0.0027395, 0.00416256, 0.0154737, -0.0113196, 0.00825868, 0.00533904, 0.0155158, 0.00689713, -0.085442, 0.16053, -0.221344, 0.470449, -0.546834, 0.332855, -2.08227, -2.16386, -0.124476, 0.467544, -0.546268, 0.328846, -2.08841, -2.15539, -0.0950151, -0.00797915, -0.0483568, -0.0455074, -0.023005, -0.0553228, -0.0389873
0.174228, 1.69704, -1.23012, -1.54922, -0.897077, -1.21124, 1.2273, -1.30247, 0.0711076, -0.012868, -0.101535, 0.120865, -0.177675, -0.000966235, 0.000963716, -3.11059, 64.1125, 30.3925, 10.4651, 0.588866, 4.39975, -0.0750012, 3.50417e-05, -0.00275584, 0.00415291, 0.0155318, -0.0114541, 0.00839479, 0.0062947, 0.0172385, 0.00852306, -0.0817298, 0.159761, -0.225691, 0.470441, -0.546883, 0.332809, -2.08224, -2.16383, -0.12439, 0.46752, -0.546325, 0.32881, -2.08855, -2.15526, -0.0947143, -0.00802191, -0.0485903, -0.0458132, -0.0246679, -0.0568199, -0.0377747
0.175228, 1.69712, -1.23013, -1.54933, -0.896949, -1.21142, 1.22729, -1.30247, 0.0751619, -0.0146707, -0.105627, 0.123174, -0.181028, -0.00142404, -0.00176502, -3.07488, 64.184, 30.4322, 10.3897, 0.607176, 4.4208, -0.00999879, 2.78567e-05, -0.00277214, 0.00414871, 0.0155992, -0.0115855, 0.00853011, 0.00651585, 0.0166091, 0.00638386, -0.0865498, 0.161091, -0.224663, 0.470433, -0.546931, 0.332763, -2.08221, -2.16379, -0.124304, 0.467496, -0.546382, 0.328768, -2.08869, -2.15513, -0.0944058, -0.00806403, -0.0488195, -0.0461166, -0.02416, -0.0569137, -0.040245
0.176228, 1.69721, -1.23014, -1.54944, -0.896827, -1.21161, 1.22729, -1.30247, 0.0768819, -0.0132245, -0.108204, 0.125851, -0.184751, -0.00176316, 1.01145e-05, -2.9995, 64.1483, 30.4679, 10.3897, 0.650206, 4.44278, -0.0420422, 2.21614e-05, -0.00278656, 0.00414178, 0.0156685, -0.0117293, 0.00866738, 0.00736798, 0.0171973, 0.0068848, -0.0892573, 0.165819, -0.230266, 0.470425, -0.54698, 0.332717, -2.08218, -2.16375, -0.124217, 0.467473, -0.546438, 0.328728, -2.08884, -2.155, -0.0940815, -0.00810551, -0.0490442, -0.0464177, -0.0247379, -0.0580807, -0.0401617
0.177228, 1.69729, -1.23015, -1.54956, -0.896691, -1.21179, 1.22729, -1.30247, 0.0792145, -0.0139041, -0.11008, 0.131371, -0.186145, -0.00171797, 0.000752728, -2.95983, 64.184, 30.5036, 10.2786, 0.668517, 4.45743, -0.0621838, 1.51544e-05, -0.00280109, 0.00413492, 0.0157282, -0.0118642, 0.0088139, 0.0084161, 0.0175786, 0.00675021, -0.0888975, 0.166429, -0.235558, 0.470417, -0.547029, 0.332671, -2.08215, -2.16372, -0.124129, 0.467451, -0.546496, 0.328688, -2.089, -2.15486, -0.0937752, -0.00814634, -0.0492643, -0.0467165, -0.0251275, -0.0593308, -0.0407409
0.178228, 1.69738, -1.23016, -1.54967, -0.896561, -1.21198, 1.22729, -1.30247, 0.0822382, -0.00868886, -0.113755, 0.12953, -0.182274, -0.00138267, 0.000739178, -2.84875, 64.1125, 30.5036, 10.2786, 0.680419, 4.46383, -0.0685925, 9.18698e-06, -0.00281621, 0.00412307, 0.0157903, -0.0120113, 0.00895287, 0.00583716, 0.0156928, 0.00844603, -0.0903955, 0.169561, -0.232204, 0.470409, -0.547078, 0.332624, -2.08211, -2.16368, -0.12404, 0.467428, -0.546553, 0.328653, -2.08915, -2.15473, -0.093454, -0.00818651, -0.0494799, -0.0470129, -0.0233057, -0.0571825, -0.0390285
0.179228, 1.69746, -1.23017, -1.54979, -0.89643, -1.21217, 1.22729, -1.30248, 0.0850489, -0.0106169, -0.117481, 0.131487, -0.184762, -0.00173558, -0.00167735, -2.7337, 64.1483, 30.579, 10.2786, 0.711547, 4.48581, -0.00999879, 3.84876e-06, -0.00283063, 0.00411903, 0.0158628, -0.0121476, 0.00908483, 0.00629979, 0.0155039, 0.00637658, -0.094386, 0.170081, -0.231935, 0.470401, -0.547128, 0.332577, -2.08208, -2.16365, -0.123951, 0.467406, -0.546609, 0.32861, -2.08929, -2.1546, -0.0931322, -0.00822601, -0.0496909, -0.0473069, -0.0232244, -0.0575254, -0.0414427
0.180228, 1.69756, -1.23017, -1.54991, -0.89628, -1.21235, 1.22728, -1.30248, 0.0885332, -0.00944785, -0.119493, 0.139361, -0.186036, -0.00193695, -0.000406159, -2.69799, 64.0768, 30.579, 10.1279, 0.736266, 4.50686, -0.0292249, -3.21533e-06, -0.00284565, 0.00410569, 0.0159205, -0.0122914, 0.00923636, 0.00735972, 0.0158664, 0.00753554, -0.0931944, 0.172168, -0.238767, 0.470393, -0.547178, 0.33253, -2.08205, -2.16361, -0.123861, 0.467383, -0.546669, 0.328575, -2.08945, -2.15446, -0.0928164, -0.00826484, -0.0498971, -0.0475984, -0.0235398, -0.0589707, -0.0407399
0.181228, 1.69765, -1.23018, -1.55003, -0.896138, -1.21254, 1.22728, -1.30247, 0.0891278, -0.0112221, -0.121662, 0.135621, -0.189823, -0.0021051, 0.000712572, -2.58294, 64.1125, 30.6186, 10.1279, 0.736266, 4.52884, -0.0557752, -9.87399e-06, -0.00286011, 0.00410049, 0.0159848, -0.0124251, 0.00938499, 0.00707599, 0.0154782, 0.00545029, -0.0985562, 0.174351, -0.238905, 0.470384, -0.547228, 0.332482, -2.08201, -2.16357, -0.12377, 0.46736, -0.546727, 0.328533, -2.08961, -2.15432, -0.0925032, -0.00830299, -0.0500987, -0.0478874, -0.0232853, -0.0585567, -0.0430563
0.182228, 1.69775, -1.23019, -1.55014, -0.895989, -1.21272, 1.22728, -1.30247, 0.0907923, -0.0114668, -0.118398, 0.141752, -0.185599, -0.00218329, 0.00142448, -2.50756, 64.1125, 30.579, 10.0168, 0.760985, 4.54989, -0.0814099, -1.58577e-05, -0.00287324, 0.00408942, 0.016042, -0.0125672, 0.00953423, 0.00640815, 0.0148459, 0.00745262, -0.0907364, 0.170307, -0.241067, 0.470376, -0.547278, 0.332434, -2.08198, -2.16353, -0.123678, 0.467339, -0.546785, 0.328495, -2.08977, -2.15418, -0.0921885, -0.00834046, -0.0502955, -0.0481739, -0.0226321, -0.058375, -0.0412836
0.183228, 1.69784, -1.2302, -1.55027, -0.895841, -1.21291, 1.22728, -1.30248, 0.0940342, -0.0155472, -0.121207, 0.144093, -0.181205, -0.0025406, -0.00145784, -2.39648, 64.1483, 30.6186, 9.98108, 0.760985, 4.57919, -0.0164075, -2.23159e-05, -0.00288708, 0.00408412, 0.0161064, -0.0127016, 0.00967462, 0.00545838, 0.0135077, 0.00442051, -0.0908001, 0.162978, -0.237445, 0.470368, -0.547328, 0.332386, -2.08195, -2.1635, -0.123586, 0.467317, -0.546843, 0.328452, -2.08991, -2.15404, -0.0918739, -0.00837722, -0.0504874, -0.0484579, -0.0214906, -0.0571096, -0.0444604
0.184228, 1.69795, -1.23021, -1.5504, -0.89569, -1.21308, 1.22727, -1.30248, 0.0976391, -0.0124349, -0.124187, 0.147266, -0.182582, -0.0064843, -0.000971895, -2.3211, 64.184, 30.7297, 9.9057, 0.748168, 4.59292, -0.0164075, -2.56643e-05, -0.00289712, 0.00407676, 0.0161667, -0.0128364, 0.00981772, 0.00475659, 0.0136526, 0.00541645, -0.0957798, 0.165729, -0.239816, 0.470359, -0.547378, 0.332338, -2.08191, -2.16346, -0.123493, 0.467299, -0.546898, 0.328411, -2.09006, -2.1539, -0.0915624, -0.00841329, -0.0506745, -0.0487392, -0.0216545, -0.0567624, -0.0436436
0.185228, 1.69805, -1.23022, -1.55051, -0.895538, -1.21326, 1.22727, -1.30248, 0.098304, -0.0101441, -0.123489, 0.148697, -0.182912, -0.0054935, -0.000885289, -2.16637, 64.2236, 30.6901, 9.87, 0.729857, 4.6149, -0.00999879, -2.84623e-05, -0.00290738, 0.004067, 0.0162173, -0.0129677, 0.00995851, 0.00447449, 0.0133613, 0.00753751, -0.0932193, 0.169038, -0.240999, 0.470351, -0.547429, 0.332289, -2.08188, -2.16342, -0.1234, 0.46728, -0.546954, 0.328372, -2.09021, -2.15376, -0.0912647, -0.00844864, -0.0508567, -0.0490179, -0.0213206, -0.0569791, -0.0417937
