alisrour97/Franka_experiments/Real_Robot_scripts/servo-franka/Data2/log_dyn_INIT2_0.csv
Time,q1,q2,q3,q4,q5,q6,q7,dq1,dq2,dq3,dq4,dq5,dq6,dq7,t1,t2,t3,t4,t5,t6,t7,ex1,ex2,ex3,ex4,ex5,ex6,ev1,ev2,ev3,ev4,ev5,ev6,xd,yd,zd,uxd,uyd,uzd,x,y,z,ux,uy,uz,vxd,vyd,vzd,vx,vy,vz
4.88281e-07, 1.69145, -1.22493, -1.53724, -0.899912, -1.19176, 1.22859, -1.30255, -0.00135894, 0.00508193, -0.00193825, 7.10335e-05, 0.00678239, 0.00039972, -0.00195677, -0.920646, 55.4559, 25.7032, 6.35895, 1.46686, 2.93033, -0.258107, 0.00116288, -0.00140932, -0.000578813, -0.000645703, -0.00102789, -0.000277733, -0.000719695, 0.000361027, 0.00241933, 0.0024672, -0.000161036, 0.00184944, 0.471008, -0.543389, 0.335894, -2.08385, -2.16584, -0.129887, 0.469579, -0.542389, 0.336685, -2.08442, -2.16697, -0.129562, -1.48327e-05, 4.00419e-05, -1.29039e-06, -0.000313799, 0.000363409, 0.00251018
0.0140149, 1.69146, -1.22488, -1.53725, -0.899919, -1.19171, 1.2286, -1.30256, 0.00238832, 0.0032718, -0.00146511, 0.000145794, 0.000909905, 0.000127396, 0.00145166, -0.996025, 55.5313, 25.7389, 6.32324, 1.49158, 2.923, -0.303883, 0.00117929, -0.00139959, -0.000605048, -0.00066189, -0.00105073, -0.000306255, -0.00111361, -0.0011379, 0.00131782, -0.000782307, 0.00282618, 0.000389449, 0.471008, -0.543389, 0.335894, -2.08385, -2.16584, -0.129887, 0.46959, -0.542376, 0.336716, -2.08442, -2.16701, -0.129586, -2.49008e-05, 7.8927e-05, 1.60533e-06, 0.00111927, 0.00102204, 0.00144139
0.0150149, 1.69146, -1.22488, -1.53725, -0.899919, -1.19171, 1.2286, -1.30256, 0.00238832, 0.0032718, -0.00146511, 0.000145794, 0.000909905, 0.000127396, 0.00145166, -0.996025, 55.5313, 25.7389, 6.32324, 1.49158, 2.923, -0.303883, 0.00117929, -0.00139959, -0.000605049, -0.000661892, -0.00105074, -0.000306251, -0.00107055, -0.00114726, 0.00132162, -0.000782268, 0.00287426, 0.00042025, 0.471008, -0.543389, 0.335894, -2.08385, -2.16584, -0.129887, 0.46959, -0.542376, 0.336716, -2.08442, -2.16701, -0.129586, -3.59273e-05, 0.000121646, 4.81928e-06, 0.00111927, 0.00102204, 0.00144139
0.0160149, 1.69146, -1.22488, -1.53725, -0.899919, -1.19171, 1.2286, -1.30256, 0.00238832, 0.0032718, -0.00146511, 0.000145794, 0.000909905, 0.000127396, 0.00145166, -0.996025, 55.5313, 25.7389, 6.32324, 1.49158, 2.923, -0.303883, 0.00117926, -0.00139958, -0.000605051, -0.000661898, -0.00105076, -0.000306241, -0.00102346, -0.00115746, 0.00132574, -0.000782153, 0.00292678, 0.000453851, 0.471008, -0.543389, 0.335894, -2.08385, -2.16584, -0.129887, 0.46959, -0.542376, 0.336716, -2.08442, -2.16701, -0.129586, -4.79476e-05, 0.000168349, 8.36616e-06, 0.00111927, 0.00102204, 0.00144139
0.0170149, 1.69146, -1.22488, -1.53725, -0.899919, -1.19171, 1.2286, -1.30256, 0.00238832, 0.0032718, -0.00146511, 0.000145794, 0.000909905, 0.000127396, 0.00145166, -0.996025, 55.5313, 25.7389, 6.32324, 1.49158, 2.923, -0.303883, 0.00117921, -0.00139957, -0.000605055, -0.000661909, -0.00105081, -0.00030622, -0.000972199, -0.00116853, 0.00133019, -0.000781955, 0.00298389, 0.000490353, 0.471008, -0.543389, 0.335894, -2.08385, -2.16584, -0.129887, 0.46959, -0.542376, 0.336716, -2.08442, -2.16701, -0.129586, -6.09969e-05, 0.000219187, 1.22607e-05, 0.00111927, 0.00102204, 0.00144139
0.0180149, 1.69146, -1.22488, -1.53725, -0.899919, -1.19171, 1.2286, -1.30256, 0.00238832, 0.0032718, -0.00146511, 0.000145794, 0.000909905, 0.000127396, 0.00145166, -0.996025, 55.5313, 25.7389, 6.32324, 1.49158, 2.923, -0.303883, 0.00117914, -0.00139956, -0.000605062, -0.000661928, -0.00105088, -0.000306186, -0.000916616, -0.0011805, 0.00133498, -0.000781664, 0.00304576, 0.000529855, 0.471008, -0.543389, 0.335894, -2.08385, -2.16584, -0.129887, 0.46959, -0.542376, 0.336716, -2.08442, -2.16701, -0.129586, -7.51097e-05, 0.000274308, 1.65177e-05, 0.00111927, 0.00102204, 0.00144139
0.0190149, 1.69146, -1.22488, -1.53725, -0.899919, -1.19171, 1.2286, -1.30256, 0.00238832, 0.0032718, -0.00146511, 0.000145794, 0.000909905, 0.000127396, 0.00145166, -0.996025, 55.5313, 25.7389, 6.32324, 1.49158, 2.923, -0.303883, 0.00117902, -0.00139953, -0.000605072, -0.000661956, -0.00105099, -0.000306135, -0.000856563, -0.00119339, 0.00134012, -0.000781273, 0.00311255, 0.000572455, 0.471008, -0.543389, 0.335894, -2.08385, -2.16584, -0.129887, 0.46959, -0.542376, 0.336716, -2.08442, -2.16701, -0.129586, -9.03198e-05, 0.000333859, 2.1152e-05, 0.00111927, 0.00102204, 0.00144139
0.0200149, 1.69146, -1.22488, -1.53725, -0.899919, -1.19171, 1.2286, -1.30256, 0.00238832, 0.0032718, -0.00146511, 0.000145794, 0.000909905, 0.000127396, 0.00145166, -0.996025, 55.5313, 25.7389, 6.32324, 1.49158, 2.923, -0.303883, 0.00117887, -0.0013995, -0.000605086, -0.000661994, -0.00105114, -0.000306064, -0.000791892, -0.00120724, 0.00134562, -0.000780773, 0.0031844, 0.000618247, 0.471008, -0.543389, 0.335894, -2.08385, -2.16584, -0.129887, 0.46959, -0.542376, 0.336716, -2.08442, -2.16701, -0.129586, -0.000106661, 0.000397984, 2.61782e-05, 0.00111927, 0.00102204, 0.00144139
0.0210149, 1.69146, -1.22488, -1.53725, -0.899919, -1.19171, 1.2286, -1.30256, 0.00238832, 0.0032718, -0.00146511, 0.000145794, 0.000909905, 0.000127396, 0.00145166, -0.996025, 55.5313, 25.7389, 6.32324, 1.49158, 2.923, -0.303883, 0.00117865, -0.00139945, -0.000605104, -0.000662046, -0.00105134, -0.00030597, -0.00072246, -0.00122207, 0.00135148, -0.000780155, 0.00326149, 0.000667326, 0.471008, -0.543389, 0.335894, -2.08385, -2.16584, -0.129887, 0.46959, -0.542376, 0.336716, -2.08442, -2.16701, -0.129586, -0.000124165, 0.000466826, 3.16113e-05, 0.00111927, 0.00102204, 0.00144139
0.0220149, 1.69146, -1.22488, -1.53725, -0.899919, -1.19171, 1.2286, -1.30256, 0.00238832, 0.0032718, -0.00146511, 0.000145794, 0.000909905, 0.000127396, 0.00145166, -0.996025, 55.5313, 25.7389, 6.32324, 1.49158, 2.923, -0.303883, 0.00117838, -0.00139939, -0.000605127, -0.000662112, -0.0010516, -0.000305849, -0.000648125, -0.0012379, 0.00135772, -0.00077941, 0.00334395, 0.000719785, 0.471008, -0.543388, 0.335894, -2.08385, -2.16584, -0.129887, 0.46959, -0.542376, 0.336716, -2.08442, -2.16701, -0.129586, -0.000142864, 0.000540525, 3.74658e-05, 0.00111927, 0.00102204, 0.00144139
0.0230149, 1.69148, -1.22486, -1.53725, -0.899922, -1.19169, 1.2286, -1.30256, 0.0020959, 0.00177631, -0.00167288, 0.000514052, 0.000505214, 0.000122733, -0.000271164, -1.11108, 55.6424, 25.7786, 6.35895, 1.45404, 2.93033, -0.291066, 0.00119063, -0.00138935, -0.000614503, -0.000668747, -0.00105374, -0.00032966, -6.31247e-05, -0.000952926, 0.000479198, -0.00105715, 0.00224366, 0.00167685, 0.471008, -0.543388, 0.335894, -2.08384, -2.16584, -0.129888, 0.4696, -0.542364, 0.336727, -2.0844, -2.16704, -0.129594, -0.000162789, 0.000619218, 4.37565e-05, 0.000803946, 0.000646764, 0.000498012
0.0240149, 1.69147, -1.22487, -1.53725, -0.899924, -1.19169, 1.2286, -1.30256, -0.000358098, -0.000436632, -0.000187363, 0.000414592, 0.00034408, 8.18213e-05, -0.000274731, -1.0357, 55.7138, 25.7389, 6.35895, 1.45404, 2.93033, -0.291066, 0.00118941, -0.00139051, -0.0006127, -0.000671867, -0.00104714, -0.000328703, 0.00101188, 0.00010816, -0.000174037, 0.000279341, 8.36877e-05, 0.000103308, 0.471008, -0.543388, 0.335894, -2.08384, -2.16584, -0.129888, 0.469599, -0.542365, 0.336725, -2.0844, -2.16704, -0.129605, -0.000183971, 0.000703042, 5.04979e-05, -0.000262091, -0.000273561, -0.000275131
0.0250149, 1.69147, -1.22487, -1.53725, -0.89993, -1.19169, 1.2286, -1.30257, -0.000232826, 5.57376e-07, 0.00154543, -0.00143293, 0.000234839, -0.00021672, -0.00171168, -1.0357, 55.567, 25.6675, 6.43433, 1.45404, 2.93765, -0.251698, 0.00119075, -0.00138924, -0.000613173, -0.000668183, -0.00105138, -0.000337781, 8.5168e-05, -0.000622676, 0.000414589, 0.00062041, 0.000616006, 0.00413465, 0.471008, -0.543387, 0.335894, -2.08384, -2.16584, -0.129888, 0.4696, -0.542363, 0.336726, -2.08439, -2.16705, -0.129598, -0.000206438, 0.000792126, 5.77046e-05, 0.000433444, 0.000669706, 0.0004351
0.0260149, 1.69148, -1.22486, -1.53725, -0.899926, -1.19169, 1.2286, -1.30257, -0.000150787, 0.00166717, 0.00195824, 0.00168361, 0.00243251, -0.00119564, -0.00434745, -1.0357, 55.3448, 25.6278, 6.32324, 1.3927, 2.96603, -0.166554, 0.00119161, -0.00138828, -0.000615447, -0.000665991, -0.00105491, -0.000344563, 0.000284879, -0.000103056, 0.00188879, 0.00276314, -0.000200026, 0.00510076, 0.471007, -0.543387, 0.335894, -2.08384, -2.16584, -0.129889, 0.469601, -0.542362, 0.336729, -2.08438, -2.16706, -0.129593, -0.000230219, 0.000886601, 6.53909e-05, -4.89305e-05, 0.000318854, 0.00188311
0.0270149, 1.69147, -1.22487, -1.53724, -0.899931, -1.1917, 1.2286, -1.30257, 0.00128155, -0.000268771, 0.00297587, 0.00208075, -0.00247229, -0.00211952, 0.000915671, -0.960319, 55.3845, 25.5564, 6.28357, 1.38721, 3.00174, -0.140919, 0.00119085, -0.00138685, -0.000612078, -0.000668313, -0.00105213, -0.000343749, 0.000715672, -0.000331781, 0.00102039, 0.000377087, 0.00148184, -0.000149784, 0.471007, -0.543386, 0.335894, -2.08384, -2.16584, -0.129889, 0.469602, -0.542361, 0.336725, -2.08438, -2.16706, -0.129599, -0.000255341, 0.00098659, 7.35711e-05, 0.000138435, 0.00013657, 0.000960057
0.0280149, 1.69148, -1.22486, -1.53724, -0.899936, -1.1917, 1.2286, -1.30257, 0.00349417, 0.00346875, 0.00252006, -0.00175166, -0.00176691, -0.00300671, -0.00146043, -0.920646, 55.3448, 25.6675, 6.28357, 1.3808, 3.04477, -0.0750012, 0.00119316, -0.00138363, -0.000615125, -0.000663543, -0.00106458, -0.000355015, -0.00179215, -0.0022202, 0.00233355, -0.00232023, 0.00474234, 0.00779207, 0.471007, -0.543385, 0.335894, -2.08384, -2.16584, -0.12989, 0.469605, -0.542359, 0.336728, -2.08437, -2.16707, -0.129582, -0.00028183, 0.00109222, 8.22592e-05, 0.00195566, 0.00259314, 0.0025977
0.0290149, 1.69148, -1.22488, -1.53725, -0.899935, -1.19171, 1.22861, -1.30257, 0.00103974, -0.00464709, 0.000627769, 0.00034906, -0.000766823, -0.0033269, -0.000458369, -0.845268, 55.6424, 25.8539, 6.20819, 1.36249, 3.08047, -0.0814099, 0.00118959, -0.00138215, -0.000608766, -0.000666445, -0.00106063, -0.000351249, 0.000976368, -0.000268128, -0.0026984, -0.00307881, -0.0043339, 0.00216862, 0.471007, -0.543384, 0.335894, -2.08384, -2.16584, -0.129891, 0.469606, -0.54236, 0.336722, -2.08438, -2.16707, -0.12959, -0.000309711, 0.0012036, 9.14692e-05, -0.000104421, 0.000666002, -0.00273261
0.0300149, 1.69148, -1.22487, -1.53724, -0.899936, -1.19171, 1.22861, -1.30257, 0.00549633, -0.00244775, 0.00234735, 4.79033e-05, -0.00183048, 0.00218201, 0.00112354, -0.76989, 55.7495, 25.9253, 6.20819, 1.3927, 3.0878, -0.114369, 0.00118977, -0.00137922, -0.000614241, -0.00067549, -0.00107279, -0.000350849, -0.000761789, -0.00400879, -0.000579122, 0.00207062, 0.00162932, 0.00576949, 0.471007, -0.543383, 0.335894, -2.08384, -2.16584, -0.129891, 0.469609, -0.54236, 0.336727, -2.08439, -2.16708, -0.129588, -0.000339009, 0.00132085, 0.000101215, 0.00361645, 0.00232606, -0.00047319
0.0310149, 1.69148, -1.22487, -1.53724, -0.899939, -1.19172, 1.22862, -1.30257, 0.00409468, -0.00489503, 0.000967315, -0.00103469, -0.00252343, 0.00157267, 0.0011427, -0.619133, 55.9003, 26.1118, 6.24786, 1.42383, 3.09512, -0.120778, 0.00118633, -0.00138029, -0.00061421, -0.000676675, -0.00107939, -0.000346642, 0.000261381, -0.00310366, -0.00262485, -0.000487272, -0.000262628, 0.00454308, 0.471006, -0.543382, 0.335894, -2.08384, -2.16584, -0.129892, 0.469607, -0.542362, 0.336727, -2.08439, -2.16708, -0.129583, -0.000369746, 0.00144407, 0.00011151, 0.0026445, 0.00171703, -0.00261442
0.0320149, 1.69148, -1.22487, -1.53723, -0.899939, -1.19172, 1.22863, -1.30257, 0.00320137, -0.00473634, 0.00135847, 0.000134276, -0.00291393, 0.00551342, 0.0011164, -0.468376, 55.9717, 26.1118, 6.20819, 1.45404, 3.10977, -0.127186, 0.00118678, -0.00137614, -0.000621324, -0.000696857, -0.00108759, -0.000350929, 0.00152494, -0.00311108, -0.00182544, 0.00380915, 0.00215153, 0.00281113, 0.471006, -0.543381, 0.335894, -2.08384, -2.16584, -0.129893, 0.469612, -0.542361, 0.336734, -2.0844, -2.16709, -0.129599, -0.000401943, 0.00157338, 0.000122367, 0.00269376, 0.000476169, -0.00201053
0.0330149, 1.69149, -1.22487, -1.53723, -0.899935, -1.19172, 1.22863, -1.30256, 0.00536469, -0.00384468, 0.000103588, 0.000846772, -0.00182367, 0.0081752, 0.00134082, -0.43267, 56.0074, 26.2983, 6.17248, 1.44855, 3.13083, -0.140919, 0.00118644, -0.00137233, -0.000622434, -0.000699269, -0.00109475, -0.00035099, 0.00114898, -0.0045669, -0.0015165, 0.00561595, 0.00369596, 0.00394168, 0.471006, -0.54338, 0.335895, -2.08384, -2.16584, -0.129894, 0.469615, -0.54236, 0.336735, -2.08441, -2.1671, -0.129595, -0.00043562, 0.00170887, 0.000133799, 0.00411172, 0.000994827, -0.00167957
0.0340149, 1.69149, -1.22486, -1.53722, -0.899939, -1.19172, 1.22864, -1.30256, 0.00489502, -0.00161683, 0.00376116, -0.000329177, -0.00127915, 0.00862859, 0.00119718, -0.317619, 55.9717, 26.2983, 6.20819, 1.44855, 3.19583, -0.147328, 0.0011886, -0.00136722, -0.000627367, -0.000706497, -0.00110575, -0.000356228, 0.000113481, -0.00534057, 0.00100009, 0.00916011, 0.00570468, 0.00665833, 0.471005, -0.543378, 0.335895, -2.08383, -2.16584, -0.129895, 0.46962, -0.542357, 0.33674, -2.08441, -2.16711, -0.129594, -0.000470796, 0.00185063, 0.00014582, 0.00490304, 0.00180317, 0.000954785
0.0350149, 1.69149, -1.22486, -1.53722, -0.899937, -1.19172, 1.22864, -1.30256, 0.00561878, -0.000994587, 0.0014875, 0.000571912, -0.000425579, 0.00546073, -0.00061048, -0.242241, 55.9717, 26.3736, 6.17248, 1.43573, 3.23153, -0.10796, 0.00118865, -0.00136363, -0.000630646, -0.000711904, -0.00111375, -0.0003628, 0.000125714, -0.00468306, 0.00037835, 0.00518836, 0.00431407, 0.00767506, 0.471005, -0.543376, 0.335895, -2.08383, -2.16584, -0.129896, 0.469623, -0.542356, 0.336743, -2.08441, -2.16713, -0.129593, -0.000507488, 0.00199877, 0.000158442, 0.00418767, 0.00200803, 0.000371403
0.0360149, 1.6915, -1.22486, -1.53721, -0.899935, -1.19173, 1.22864, -1.30256, 0.00847698, 0.000234637, 0.00154914, 0.0011836, -0.00451439, 0.0033624, 0.000104826, -0.131157, 55.936, 26.3736, 6.13678, 1.43024, 3.25992, -0.120778, 0.00118947, -0.00135891, -0.000636702, -0.000725816, -0.00112169, -0.000366444, -0.000345973, -0.00532637, 0.00088345, 0.00147067, 0.00804778, 0.00798915, 0.471004, -0.543375, 0.335895, -2.08383, -2.16584, -0.129898, 0.469628, -0.542354, 0.336749, -2.08441, -2.16714, -0.129603, -0.000545713, 0.00215336, 0.000171677, 0.00479329, 0.00257685, 0.000937207
0.0370149, 1.6915, -1.22486, -1.5372, -0.899932, -1.19173, 1.22865, -1.30256, 0.00738713, -0.000631936, 0.00145087, 0.00169242, -0.00340287, 0.00709328, -0.000614372, -0.0161054, 55.9717, 26.3736, 6.09711, 1.43024, 3.27456, -0.101552, 0.00118793, -0.00135467, -0.000638236, -0.000736277, -0.00112786, -0.000367655, 0.000722786, -0.00544086, 0.000809824, 0.00548778, 0.008226, 0.00764137, 0.471004, -0.543373, 0.335895, -2.08383, -2.16584, -0.129899, 0.469631, -0.542353, 0.336751, -2.08442, -2.16715, -0.12961, -0.000585484, 0.00231447, 0.000185536, 0.00490344, 0.00169888, 0.000709033
0.0380149, 1.69151, -1.22486, -1.5372, -0.899929, -1.19173, 1.22866, -1.30256, 0.00754279, 0.00362704, 0.00265957, 0.001945, -0.00164801, 0.00997146, -0.00208414, 0.059273, 55.936, 26.449, 6.0614, 1.40552, 3.28097, -0.0557752, 0.00118838, -0.00134792, -0.000640818, -0.000744233, -0.00113826, -0.000377659, 0.000187741, -0.00636459, 0.00403148, 0.0103166, 0.0125457, 0.0102618, 0.471003, -0.54337, 0.335895, -2.08383, -2.16584, -0.129901, 0.469638, -0.542351, 0.336753, -2.08441, -2.16717, -0.12961, -0.000626814, 0.0024822, 0.000200032, 0.00588181, 0.00193669, 0.00395986
0.0390149, 1.69152, -1.22486, -1.5372, -0.899924, -1.19174, 1.22867, -1.30256, 0.00854149, 0.00103878, 0.000506826, 0.00304603, -0.00510569, 0.00739041, -0.00137378, 0.0949785, 56.0074, 26.5244, 5.98602, 1.3927, 3.2883, -0.0557752, 0.00118673, -0.0013423, -0.000638303, -0.000745999, -0.00114347, -0.000379781, 0.00136126, -0.00552378, 0.00163582, 0.00474227, 0.0117868, 0.00753899, 0.471003, -0.543368, 0.335896, -2.08382, -2.16584, -0.129903, 0.469643, -0.54235, 0.33675, -2.08441, -2.16717, -0.129609, -0.000669715, 0.00265659, 0.000215176, 0.00495467, 0.00128692, 0.00145267
0.0400149, 1.69153, -1.22486, -1.5372, -0.899922, -1.19174, 1.22867, -1.30256, 0.00537657, 0.000910912, 0.00247388, 0.0028555, -0.00822018, 0.00970386, 0.00379286, 0.285408, 56.0074, 26.449, 5.95032, 1.38721, 3.31027, -0.0557752, 0.00118393, -0.00133963, -0.000641666, -0.000756234, -0.00115263, -0.000379538, 0.00335193, -0.00424845, 0.00261696, 0.00741848, 0.0153468, -0.000555904, 0.471002, -0.543365, 0.335896, -2.08382, -2.16584, -0.129904, 0.469645, -0.54235, 0.336753, -2.08442, -2.16718, -0.129613, -0.000714195, 0.00283772, 0.000230977, 0.00374313, -0.000700423, 0.00216671
0.0410149, 1.69153, -1.22487, -1.5372, -0.899919, -1.19175, 1.22868, -1.30256, 0.00515672, -0.00721566, 0.00109361, 0.00282388, -0.00716127, 0.00798469, 0.00438686, 0.400459, 56.0828, 26.4847, 5.91064, 1.41192, 3.29562, -0.0951428, 0.00118156, -0.00133293, -0.000639671, -0.000762196, -0.00116181, -0.00037874, 0.00431054, -0.00388198, -0.00277209, 0.00455933, 0.00582598, -0.00138117, 0.471001, -0.543363, 0.335896, -2.08382, -2.16584, -0.129906, 0.469651, -0.542349, 0.336751, -2.08443, -2.16719, -0.129612, -0.000760263, 0.00302564, 0.000247448, 0.0031708, -0.000644272, -0.00327584
0.0420149, 1.69155, -1.22487, -1.53719, -0.899911, -1.19176, 1.22869, -1.30256, 0.00839426, -0.00696946, 0.00270199, 0.00363997, -0.00961654, 0.005239, 0.00369945, 0.511544, 56.1581, 26.4094, 5.83527, 1.41192, 3.31759, -0.10796, 0.00117922, -0.00132562, -0.000639136, -0.000774707, -0.00116821, -0.000380783, 0.00315215, -0.00505479, -0.002342, 0.00234861, 0.00686004, 0.00186961, 0.471001, -0.54336, 0.335896, -2.08381, -2.16584, -0.129908, 0.469658, -0.542348, 0.33675, -2.08443, -2.1672, -0.129622, -0.000807924, 0.0032204, 0.000264596, 0.00426852, 0.000675882, -0.00268956
0.0430149, 1.69155, -1.22488, -1.53719, -0.899903, -1.19176, 1.22871, -1.30256, 0.00342861, -0.0074488, 0.00103057, 0.00502071, -0.00696001, 0.00923908, 0.00269142, 0.6623, 56.2653, 26.449, 5.72418, 1.40552, 3.30295, -0.10796, 0.00117321, -0.00132117, -0.000634718, -0.000781675, -0.00117308, -0.000373222, 0.00625573, -0.00274889, -0.00239436, 0.00699291, 0.00624599, -0.00299816, 0.471, -0.543357, 0.335896, -2.08381, -2.16584, -0.129911, 0.469661, -0.54235, 0.336745, -2.08444, -2.1672, -0.129626, -0.000857184, 0.00342203, 0.000282433, 0.00202547, -0.00227272, -0.00313569
0.0440149, 1.69157, -1.22488, -1.53719, -0.8999, -1.19177, 1.22872, -1.30255, 0.00777009, -0.00518849, 0.000804988, 0.00417907, -0.00996176, 0.0124796, 0.00196312, 0.737679, 56.2653, 26.449, 5.68848, 1.41742, 3.2883, -0.10796, 0.00117283, -0.00131125, -0.000635183, -0.000786321, -0.0011899, -0.000380461, 0.00504885, -0.00558876, -0.0011914, 0.00733775, 0.0130062, 0.00174324, 0.470999, -0.543353, 0.335897, -2.08381, -2.16584, -0.129913, 0.46967, -0.542347, 0.336745, -2.08444, -2.16721, -0.129617, -0.000908043, 0.00363059, 0.000300968, 0.00481107, -0.00094166, -0.0018276
0.0450149, 1.69159, -1.22488, -1.53719, -0.899895, -1.19178, 1.22873, -1.30255, 0.00993742, -0.00362596, 0.00155314, 0.00371159, -0.0122303, 0.00984218, 0.00119802, 0.85273, 56.2653, 26.4094, 5.6488, 1.43024, 3.27456, -0.101552, 0.00117182, -0.0013007, -0.000637456, -0.000796972, -0.00120892, -0.000388432, 0.0040338, -0.00631803, -0.000404699, 0.00422154, 0.0154123, 0.00477748, 0.470998, -0.54335, 0.335897, -2.0838, -2.16584, -0.129916, 0.46968, -0.542344, 0.336748, -2.08444, -2.16724, -0.129613, -0.000960503, 0.00384608, 0.000320207, 0.00547905, 0.000184672, -0.000895993
0.0460149, 1.6916, -1.22488, -1.53719, -0.899892, -1.19179, 1.22875, -1.30256, 0.00945086, -0.00254254, 0.00110177, 0.00330776, -0.0136077, 0.00732181, -0.00131039, 0.928108, 56.2653, 26.4094, 5.6131, 1.43573, 3.27456, -0.0420422, 0.00117017, -0.00128992, -0.000638858, -0.00080721, -0.00122935, -0.000399217, 0.00435602, -0.00546611, -0.000164986, 0.000974002, 0.0166707, 0.00661256, 0.470997, -0.543346, 0.335897, -2.0838, -2.16584, -0.129919, 0.46969, -0.542342, 0.336749, -2.08445, -2.16726, -0.129608, -0.00101456, 0.00406854, 0.000340161, 0.00459436, 1.7273e-05, -0.000663704
0.0470149, 1.69162, -1.22489, -1.53719, -0.899881, -1.19181, 1.22876, -1.30256, 0.0113218, -0.00355218, 0.00161949, 0.00573026, -0.0106237, 0.00937783, -0.000802365, 1.03919, 56.3406, 26.3736, 5.46234, 1.44855, 3.29562, -0.0420422, 0.00116552, -0.00128148, -0.000638012, -0.0008155, -0.00124542, -0.000398387, 0.00408614, -0.00684205, -0.000138201, 0.00539059, 0.014298, 0.00726087, 0.470996, -0.543342, 0.335898, -2.08379, -2.16583, -0.129921, 0.469698, -0.542342, 0.336747, -2.08445, -2.16727, -0.129604, -0.00107022, 0.00429798, 0.000360835, 0.00590418, 0.000565346, -0.000616178
0.0480149, 1.69163, -1.22489, -1.5372, -0.899879, -1.19182, 1.22878, -1.30255, 0.0117501, -0.0064318, -0.000646261, 0.00381913, -0.00833118, 0.0162191, -0.000956205, 1.18995, 56.3763, 26.449, 5.46234, 1.46045, 3.30295, -0.0292249, 0.00116233, -0.00127097, -0.000635689, -0.000818888, -0.00126594, -0.00040206, 0.00457435, -0.00872149, -0.00229858, 0.00921721, 0.0135218, 0.00940152, 0.470995, -0.543338, 0.335898, -2.08379, -2.16583, -0.129925, 0.469707, -0.54234, 0.336744, -2.08446, -2.16729, -0.12959, -0.00112746, 0.0045344, 0.000382238, 0.0076634, 0.000729367, -0.00286043
0.0490149, 1.69165, -1.22488, -1.5372, -0.899873, -1.19183, 1.22879, -1.30255, 0.0115273, -0.00293343, -0.000402852, 0.00749029, -0.00571924, 0.0163763, 0.00531289, 1.38038, 56.3049, 26.449, 5.38696, 1.44855, 3.31759, -0.0621838, 0.00115879, -0.00126275, -0.00064102, -0.000829537, -0.00129144, -0.000399483, 0.00511978, -0.00812749, 0.000394033, 0.0128687, 0.0148648, 0.00080368, 0.470994, -0.543333, 0.335898, -2.08379, -2.16583, -0.129928, 0.469715, -0.54234, 0.336749, -2.08447, -2.1673, -0.129579, -0.00118629, 0.0047778, 0.000404375, 0.0071281, -4.56237e-06, -0.000246362
0.0500149, 1.69166, -1.22489, -1.5372, -0.899873, -1.19185, 1.22881, -1.30255, 0.00909593, -0.00386305, -0.00108279, 0.00433006, -0.00899002, 0.0118509, 0.00372541, 1.53114, 56.3763, 26.4847, 5.42664, 1.46045, 3.33133, -0.0557752, 0.00115598, -0.00125088, -0.000637005, -0.000832814, -0.00131015, -0.000409239, 0.00592496, -0.00622274, -0.00108423, 0.00562018, 0.0149075, 0.00151411, 0.470993, -0.543328, 0.335899, -2.08378, -2.16583, -0.129931, 0.469725, -0.542337, 0.336745, -2.08447, -2.16733, -0.129568, -0.00124669, 0.00502817, 0.000427252, 0.00514084, -0.000399427, -0.00175077
0.0510149, 1.69169, -1.22489, -1.5372, -0.899867, -1.19186, 1.22883, -1.30255, 0.0112219, -0.00108268, -0.000706119, 0.00484837, -0.0105429, 0.0131072, 0.00229062, 1.64619, 56.3049, 26.4847, 5.35126, 1.44855, 3.34598, -0.0420422, 0.00115388, -0.00123849, -0.000640543, -0.000841506, -0.00133839, -0.00041797, 0.00548593, -0.00742172, 0.00077089, 0.00647715, 0.0198466, 0.00438452, 0.470992, -0.543323, 0.335899, -2.08377, -2.16583, -0.129935, 0.469736, -0.542334, 0.336748, -2.08448, -2.16735, -0.129554, -0.00130866, 0.00528549, 0.000450875, 0.0063276, 5.47751e-05, 0.000136616
0.0520149, 1.6917, -1.22489, -1.5372, -0.899869, -1.19188, 1.22885, -1.30255, 0.0101464, -0.00252554, 0.00037628, 0.00254584, -0.0121625, 0.0138907, 0.00298451, 1.87232, 56.3763, 26.449, 5.38696, 1.44855, 3.36703, -0.0750012, 0.00114831, -0.00122884, -0.000639425, -0.000850511, -0.00136274, -0.000419551, 0.00586249, -0.00756324, 0.000133007, 0.00631072, 0.0205138, 0.00482626, 0.47099, -0.543318, 0.3359, -2.08377, -2.16583, -0.129939, 0.469745, -0.542333, 0.336746, -2.08449, -2.16737, -0.129543, -0.00137217, 0.00554973, 0.000475247, 0.00639588, 5.1308e-05, -0.000531632
0.0530149, 1.69172, -1.22489, -1.5372, -0.899867, -1.19189, 1.22886, -1.30255, 0.0148695, -0.000113238, -0.00150353, 0.00264406, -0.0174716, 0.0138882, 0.00216722, 1.87232, 56.3049, 26.5244, 5.35126, 1.44214, 3.40365, -0.0750012, 0.00114821, -0.00121348, -0.000641219, -0.000851948, -0.00139386, -0.000432789, 0.00527853, -0.00927367, 0.000667226, 0.00172327, 0.0278151, 0.0076765, 0.470989, -0.543313, 0.3359, -2.08376, -2.16583, -0.129943, 0.469759, -0.542328, 0.336748, -2.08448, -2.1674, -0.129518, -0.00143722, 0.00582086, 0.000500373, 0.00803746, 0.00088673, 6.00561e-05
0.0540149, 1.69173, -1.22489, -1.5372, -0.899864, -1.19191, 1.22888, -1.30254, 0.0159019, 0.00077754, 0.00169555, 0.00268163, -0.0169688, 0.0141603, 0.00626203, 2.09846, 56.2653, 26.4094, 5.31555, 1.43024, 3.43936, -0.0750012, 0.00114359, -0.00120324, -0.000647502, -0.000868602, -0.00142461, -0.000434891, 0.00428631, -0.010551, 0.00231854, 0.00493587, 0.0285482, 0.0064543, 0.470987, -0.543307, 0.335901, -2.08376, -2.16583, -0.129947, 0.469768, -0.542327, 0.336754, -2.0845, -2.16743, -0.12951, -0.00150377, 0.00609884, 0.000526256, 0.00927072, 0.00194229, 0.00183199
0.0550149, 1.69175, -1.22489, -1.5372, -0.899859, -1.19193, 1.2289, -1.30255, 0.01643, -0.00130112, 0.000207326, 0.00277855, -0.0174984, 0.0196018, 0.00513961, 2.20954, 56.3406, 26.449, 5.27588, 1.44214, 3.46042, -0.0878186, 0.00113692, -0.00119149, -0.00064545, -0.000875866, -0.00145235, -0.000438878, 0.00554836, -0.0115951, 0.0010573, 0.00792199, 0.0300165, 0.00734973, 0.470986, -0.543301, 0.335901, -2.08375, -2.16583, -0.129951, 0.469779, -0.542327, 0.336751, -2.08451, -2.16745, -0.129495, -0.00157182, 0.00638361, 0.000552899, 0.0102451, 0.00121814, 0.000385781
0.0560149, 1.69177, -1.22489, -1.5372, -0.899856, -1.19195, 1.22892, -1.30255, 0.0167421, -0.00174481, -0.000693264, 0.00590132, -0.0171809, 0.0191037, 0.00209864, 2.32459, 56.3763, 26.4847, 5.24017, 1.43573, 3.47507, -0.0420422, 0.00113075, -0.00117931, -0.000645046, -0.000884703, -0.00148223, -0.00044618, 0.00674611, -0.0109259, 0.000871477, 0.00826154, 0.0291807, 0.0078452, 0.470984, -0.543294, 0.335902, -2.08374, -2.16583, -0.129956, 0.469789, -0.542326, 0.33675, -2.08451, -2.16748, -0.129479, -0.00164135, 0.0066751, 0.000580303, 0.00954334, 0.000328437, 6.38347e-05
0.0570149, 1.69179, -1.22489, -1.5372, -0.899858, -1.19197, 1.22895, -1.30255, 0.0218785, 0.000475593, 0.00130386, 0.0033982, -0.016962, 0.0181642, 0.00120012, 2.3603, 56.3049, 26.4094, 5.27588, 1.43024, 3.50345, -0.0292249, 0.00113007, -0.00116224, -0.000648602, -0.000894202, -0.00151744, -0.000463984, 0.00325081, -0.0145877, 0.00220176, 0.00750371, 0.0313203, 0.0172073, 0.470983, -0.543288, 0.335902, -2.08374, -2.16583, -0.12996, 0.469805, -0.54232, 0.336753, -2.08451, -2.16752, -0.129461, -0.00171231, 0.00697325, 0.000608468, 0.0130524, 0.00402235, 0.00183786
0.0580149, 1.69181, -1.2249, -1.5372, -0.899846, -1.19199, 1.22897, -1.30255, 0.0205825, -0.0013771, -5.6676e-05, 0.00592354, -0.0210799, 0.0185025, 0.0014816, 2.47535, 56.3763, 26.449, 5.12909, 1.42383, 3.51077, -0.0420422, 0.00111821, -0.00115366, -0.00064748, -0.000906091, -0.00154705, -0.000454737, 0.00619612, -0.0127513, 0.00110311, 0.0059546, 0.0331737, 0.0116356, 0.470981, -0.543281, 0.335903, -2.08373, -2.16582, -0.129965, 0.469812, -0.542324, 0.336751, -2.08453, -2.16753, -0.129448, -0.00178469, 0.00727797, 0.000637396, 0.0112118, 0.00151344, 0.000379902
0.0590149, 1.69183, -1.2249, -1.5372, -0.899848, -1.19201, 1.22899, -1.30255, 0.0212554, -0.000935862, -0.000871426, 0.00244689, -0.0249857, 0.0184605, 0.000430764, 2.51106, 56.3763, 26.4847, 5.2005, 1.43573, 3.5181, -0.0228162, 0.00111366, -0.00113872, -0.000645983, -0.000906717, -0.00158287, -0.000468005, 0.00607719, -0.0133693, 0.000573356, 0.00167985, 0.0375122, 0.0148918, 0.470979, -0.543273, 0.335904, -2.08372, -2.16582, -0.129971, 0.469825, -0.54232, 0.336749, -2.08453, -2.16756, -0.129419, -0.00185846, 0.00758918, 0.000667086, 0.0117318, 0.002049, -0.000113719
0.0600149, 1.69185, -1.2249, -1.5372, -0.899837, -1.19203, 1.22901, -1.30255, 0.0210752, 0.000197964, 0.00025545, 0.00762244, -0.0232203, 0.02356, 0.00111558, 2.58643, 56.3406, 26.449, 5.08942, 1.44214, 3.5181, -0.0420422, 0.00110482, -0.00112735, -0.000651029, -0.000923416, -0.00161993, -0.000464746, 0.00784797, -0.0134829, 0.00283885, 0.010521, 0.039527, 0.0108352, 0.470977, -0.543266, 0.335904, -2.08371, -2.16582, -0.129976, 0.469835, -0.542322, 0.336753, -2.08455, -2.16758, -0.129405, -0.00193359, 0.00790677, 0.000697537, 0.0119154, 0.000274199, 0.00187518
0.0610149, 1.69187, -1.2249, -1.53721, -0.899837, -1.19206, 1.22904, -1.30254, 0.0224929, -0.00164127, -0.000664032, 0.00452048, -0.0259955, 0.0273593, 0.00181431, 2.58643, 56.416, 26.4847, 5.12909, 1.44214, 3.51077, -0.0685925, 0.00109854, -0.0011111, -0.000647611, -0.000926423, -0.00165627, -0.000471641, 0.00793785, -0.0152899, 0.0012858, 0.00989616, 0.0425741, 0.0131272, 0.470975, -0.543258, 0.335905, -2.0837, -2.16582, -0.129982, 0.46985, -0.542319, 0.336749, -2.08456, -2.16761, -0.129378, -0.00201003, 0.00823062, 0.000728745, 0.0135907, 0.000822622, 0.000304366
0.0620149, 1.6919, -1.2249, -1.5372, -0.899836, -1.19209, 1.22906, -1.30254, 0.0233028, -0.00110169, 0.000393195, 0.00328881, -0.0245553, 0.0248232, 0.00151233, 2.58643, 56.416, 26.449, 5.12909, 1.46045, 3.52542, -0.0750012, 0.00109266, -0.00109468, -0.000649975, -0.000936678, -0.00169892, -0.000481281, 0.00672465, -0.0159581, 0.00156142, 0.0086351, 0.0411034, 0.0165128, 0.470973, -0.54325, 0.335906, -2.08369, -2.16582, -0.129988, 0.469864, -0.542316, 0.33675, -2.08456, -2.16765, -0.129353, -0.00208776, 0.00856062, 0.000760709, 0.0141469, 0.00233529, 0.00077668
0.0630149, 1.69192, -1.2249, -1.53721, -0.899833, -1.19211, 1.22909, -1.30254, 0.0199054, 0.000187931, -0.000572589, 0.00564342, -0.02265, 0.0237733, 0.0010573, 2.62611, 56.3763, 26.4847, 5.12909, 1.46045, 3.5181, -0.0750012, 0.00108464, -0.00108004, -0.000652726, -0.000944289, -0.00174561, -0.000483424, 0.00886376, -0.0134223, 0.00241208, 0.00953516, 0.0404298, 0.0119314, 0.470971, -0.543241, 0.335906, -2.08369, -2.16582, -0.129994, 0.469877, -0.542315, 0.336752, -2.08458, -2.16768, -0.12932, -0.00216672, 0.00889664, 0.000793423, 0.0116428, 0.000324656, 0.00139346
0.0640149, 1.69194, -1.2249, -1.5372, -0.899827, -1.19214, 1.22912, -1.30254, 0.0204046, 0.000956282, 0.0022171, 0.00828464, -0.0249565, 0.023148, 0.000266955, 2.66181, 56.3406, 26.3736, 5.08942, 1.44214, 3.50345, -0.0621838, 0.00107656, -0.00106419, -0.000658614, -0.000966077, -0.00178987, -0.00049027, 0.0095054, -0.0132803, 0.00416079, 0.0116171, 0.0427479, 0.0116904, 0.470969, -0.543232, 0.335907, -2.08368, -2.16582, -0.13, 0.469892, -0.542315, 0.336757, -2.0846, -2.16772, -0.129306, -0.0022469, 0.00923859, 0.000826888, 0.0115071, -0.000242005, 0.0030581
0.0650149, 1.69196, -1.2249, -1.5372, -0.899827, -1.19217, 1.22914, -1.30254, 0.0218695, 0.00146957, -0.000284888, 0.00517804, -0.0273895, 0.0215068, 0.00328132, 2.66181, 56.3049, 26.449, 5.12909, 1.44214, 3.5181, -0.0164075, 0.00106755, -0.00104991, -0.000659383, -0.000966226, -0.00183905, -0.000499906, 0.00906937, -0.0138423, 0.00294499, 0.00523092, 0.0452992, 0.0110423, 0.470967, -0.543223, 0.335908, -2.08367, -2.16581, -0.130006, 0.469904, -0.542314, 0.336757, -2.0846, -2.16776, -0.129264, -0.00232828, 0.00958644, 0.000861108, 0.0119275, 0.000746683, 0.00194252
0.0660149, 1.69199, -1.2249, -1.5372, -0.899822, -1.19221, 1.22917, -1.30254, 0.0235005, 0.000142122, 0.000738305, 0.00703985, -0.0293793, 0.025502, 0.00260585, 2.62611, 56.3406, 26.4094, 5.12909, 1.44855, 3.5181, -0.0164075, 0.00105821, -0.00103331, -0.000661315, -0.000977933, -0.00188667, -0.000505878, 0.0099761, -0.0151205, 0.0030779, 0.00921439, 0.0477828, 0.0117864, 0.470965, -0.543213, 0.335909, -2.08366, -2.16581, -0.130013, 0.469919, -0.542313, 0.336757, -2.08462, -2.16779, -0.129236, -0.00241084, 0.00994017, 0.000896084, 0.0131587, 0.000237238, 0.00192918
0.0670149, 1.692, -1.2249, -1.5372, -0.89982, -1.19223, 1.22919, -1.30255, 0.0248941, 9.29662e-05, 0.000492361, 0.00444848, -0.0299521, 0.0283913, 0.00130497, 2.70148, 56.3406, 26.4094, 5.16479, 1.43024, 3.52542, 0.00373412, 0.00104649, -0.00102049, -0.000662999, -0.000987711, -0.00193317, -0.000509075, 0.00942077, -0.0169727, 0.00280727, 0.00981051, 0.0503089, 0.0166637, 0.470962, -0.543204, 0.33591, -2.08365, -2.16581, -0.13002, 0.469929, -0.542314, 0.336758, -2.08463, -2.16782, -0.129207, -0.00249458, 0.0102997, 0.000931821, 0.0148952, 0.00126272, 0.00172798
0.0680149, 1.69203, -1.2249, -1.5372, -0.899815, -1.19227, 1.22922, -1.30254, 0.0259612, 0.000895859, 0.00199879, 0.00424372, -0.0310791, 0.0306045, 0.00232598, 2.66181, 56.3049, 26.3379, 5.12909, 1.43024, 3.53274, -0.0292249, 0.00103715, -0.00100343, -0.000667429, -0.00100221, -0.00198347, -0.000511886, 0.00931539, -0.0182152, 0.00394749, 0.0123532, 0.0534735, 0.0174556, 0.47096, -0.543193, 0.335911, -2.08363, -2.16581, -0.130028, 0.469944, -0.542313, 0.336761, -2.08465, -2.16786, -0.12918, -0.00257947, 0.0106651, 0.000968322, 0.0160886, 0.00160743, 0.00286909
0.0690149, 1.69206, -1.2249, -1.5372, -0.899812, -1.1923, 1.22925, -1.30254, 0.0244438, 0.00152426, -0.00180937, 0.00232607, -0.0319536, 0.0277867, 0.00172712, 2.58643, 56.2653, 26.3379, 5.16479, 1.43024, 3.53274, -0.0292249, 0.00102826, -0.000984875, -0.000669597, -0.00101149, -0.00203548, -0.000520996, 0.0104123, -0.0165719, 0.00255547, 0.00556393, 0.0541993, 0.0163409, 0.470957, -0.543183, 0.335912, -2.08362, -2.16581, -0.130035, 0.469961, -0.542311, 0.336762, -2.08466, -2.1679, -0.129146, -0.00266552, 0.0110363, 0.00100559, 0.0143504, 0.0010429, 0.00141088
0.0700149, 1.69208, -1.2249, -1.5372, -0.899803, -1.19234, 1.22928, -1.30254, 0.024563, 0.00185064, -0.00146801, 0.00579029, -0.0322141, 0.0305838, 0.00199585, 2.58643, 56.2296, 26.3379, 5.12909, 1.42383, 3.52542, -0.0484509, 0.00101407, -0.000972483, -0.000674964, -0.00102183, -0.00209185, -0.00051455, 0.0120065, -0.0164735, 0.00361481, 0.00985286, 0.056204, 0.0134835, 0.470954, -0.543172, 0.335913, -2.08361, -2.1658, -0.130043, 0.469971, -0.542314, 0.336766, -2.08469, -2.16793, -0.129108, -0.00275269, 0.0114132, 0.00104363, 0.0142605, -0.000321188, 0.00224998
0.0710149, 1.69211, -1.2249, -1.5372, -0.899797, -1.19237, 1.22931, -1.30254, 0.0232485, -0.00108219, -0.000246978, 0.00430996, -0.0374678, 0.0281639, 0.00119247, 2.51106, 56.1938, 26.2983, 5.12909, 1.42383, 3.51077, -0.0420422, 0.00100329, -0.000954078, -0.000678416, -0.00103186, -0.00214915, -0.000521248, 0.0133544, -0.0153747, 0.00200156, 0.00564691, 0.0568164, 0.0134109, 0.470952, -0.54316, 0.335914, -2.0836, -2.1658, -0.130051, 0.469987, -0.542313, 0.336768, -2.08471, -2.16797, -0.129069, -0.00284098, 0.0117958, 0.00108244, 0.0130649, -0.00106555, 0.000519383
0.0720149, 1.69213, -1.2249, -1.5372, -0.899793, -1.19241, 1.22934, -1.30254, 0.0235744, -0.000984429, -0.000311895, 0.00321063, -0.0367003, 0.0306288, 0.00185277, 2.51106, 56.1938, 26.2983, 5.12909, 1.42383, 3.51077, -0.0685925, 0.000989271, -0.000939873, -0.000680683, -0.00104156, -0.00220265, -0.000518027, 0.0133838, -0.0164016, 0.00210824, 0.0075493, 0.0580349, 0.0145193, 0.470949, -0.543148, 0.335915, -2.08359, -2.1658, -0.130059, 0.469999, -0.542315, 0.336769, -2.08473, -2.168, -0.129034, -0.00293038, 0.0121842, 0.00112203, 0.014006, -0.000680472, 0.000628565
0.0730149, 1.69215, -1.2249, -1.5372, -0.89979, -1.19245, 1.22937, -1.30254, 0.0247142, -1.82977e-05, -0.000318363, 0.000722978, -0.0358889, 0.0279105, 0.00105366, 2.47535, 56.1581, 26.2983, 5.2005, 1.41742, 3.50345, -0.0621838, 0.000975697, -0.000922901, -0.000683561, -0.00105212, -0.00226348, -0.00051856, 0.0120032, -0.0172477, 0.00205142, 0.00430277, 0.0576709, 0.0191338, 0.470946, -0.543136, 0.335916, -2.08357, -2.1658, -0.130068, 0.470014, -0.542316, 0.33677, -2.08475, -2.16803, -0.128992, -0.00302087, 0.0125781, 0.0011624, 0.014709, 0.00112006, 0.000801695
0.0740149, 1.69218, -1.2249, -1.5372, -0.899783, -1.19249, 1.2294, -1.30254, 0.0225828, 0.000767899, 0.000540152, 0.00385725, -0.0353412, 0.0293816, -0.000476386, 2.43568, 56.1185, 26.2626, 5.2005, 1.41192, 3.52542, -0.0292249, 0.000962595, -0.000905989, -0.000686421, -0.00106069, -0.00232039, -0.00052381, 0.014073, -0.0158948, 0.00352032, 0.00849638, 0.0587695, 0.0166666, 0.470943, -0.543124, 0.335917, -2.08356, -2.16579, -0.130077, 0.470028, -0.542316, 0.336772, -2.08477, -2.16807, -0.128953, -0.00311245, 0.0129778, 0.00120355, 0.0133937, -0.000805541, 0.00201211
0.0750149, 1.69221, -1.2249, -1.5372, -0.899777, -1.19252, 1.22943, -1.30254, 0.0247473, -0.00276822, 0.000297983, 0.00205125, -0.0394587, 0.0329262, 0.000188535, 2.3603, 56.1185, 26.2626, 5.24017, 1.41192, 3.50345, -0.0420422, 0.000949175, -0.000887497, -0.000688621, -0.00107132, -0.00237923, -0.0005261, 0.0145585, -0.0177968, 0.0013329, 0.00798832, 0.0610477, 0.0185509, 0.47094, -0.543111, 0.335918, -2.08355, -2.16579, -0.130086, 0.470044, -0.542316, 0.336773, -2.08479, -2.16811, -0.128915, -0.00320508, 0.013383, 0.00124549, 0.0151389, -0.000464129, -0.000238865
0.0760149, 1.69223, -1.2249, -1.5372, -0.899772, -1.19256, 1.22946, -1.30254, 0.0246989, -0.00312081, 0.00108009, 0.000838109, -0.0386357, 0.0338992, -0.00130882, 2.3603, 56.1581, 26.2229, 5.27588, 1.42383, 3.51077, -0.00267457, 0.000933285, -0.00087135, -0.000689643, -0.00108412, -0.00243477, -0.000531057, 0.0144438, -0.0185326, 0.00134799, 0.00932606, 0.0610027, 0.0219933, 0.470937, -0.543097, 0.33592, -2.08353, -2.16579, -0.130095, 0.470058, -0.542318, 0.336772, -2.0848, -2.16815, -0.128883, -0.00329877, 0.0137938, 0.00128822, 0.0157767, 8.78884e-05, -0.00018586
0.0770149, 1.69226, -1.2249, -1.5372, -0.899766, -1.19261, 1.22949, -1.30254, 0.0261037, 0.000257438, 0.00152033, 0.00302183, -0.0375389, 0.0343002, -0.000346251, 2.28492, 56.0471, 26.1872, 5.31555, 1.42383, 3.52542, -0.0164075, 0.000920865, -0.000852407, -0.000697343, -0.00109399, -0.00250293, -0.000535029, 0.0142947, -0.0191236, 0.00377737, 0.011704, 0.063937, 0.0213059, 0.470933, -0.543083, 0.335921, -2.08352, -2.16579, -0.130105, 0.470074, -0.542317, 0.336778, -2.08483, -2.16819, -0.128835, -0.00339351, 0.0142102, 0.00133174, 0.0163548, 0.00030124, 0.00226147
0.0780149, 1.69228, -1.22489, -1.5372, -0.89976, -1.19265, 1.22952, -1.30254, 0.0288412, -0.00238101, -0.00383013, 0.00481812, -0.0413585, 0.0354655, 0.000731852, 2.28492, 56.0074, 26.2626, 5.35126, 1.43573, 3.5181, -0.0420422, 0.000902721, -0.000836764, -0.000700486, -0.00110114, -0.00257172, -0.000527875, 0.0162865, -0.0192313, 0.000566989, 0.0065061, 0.0657388, 0.0178229, 0.47093, -0.543069, 0.335922, -2.0835, -2.16578, -0.130115, 0.470087, -0.54232, 0.336779, -2.08486, -2.16822, -0.128782, -0.00348927, 0.0146321, 0.00137605, 0.016322, -0.000743607, -0.0011773
0.0790149, 1.69231, -1.22489, -1.5372, -0.89975, -1.19269, 1.22955, -1.30254, 0.0295573, 0.000498019, -0.00189957, 0.00380565, -0.0392126, 0.0359284, 2.31213e-05, 2.20954, 55.9003, 26.2229, 5.35126, 1.42383, 3.5181, -0.0292249, 0.000888086, -0.00081791, -0.000707165, -0.00111257, -0.00263962, -0.000531498, 0.015042, -0.0205514, 0.00282899, 0.00927161, 0.0675242, 0.0220085, 0.470926, -0.543055, 0.335924, -2.08349, -2.16578, -0.130125, 0.470103, -0.54232, 0.336785, -2.08488, -2.16827, -0.128736, -0.00358604, 0.0150594, 0.00142116, 0.0175809, 0.000617873, 0.00125465
0.0800149, 1.69235, -1.22489, -1.5372, -0.899744, -1.19274, 1.22958, -1.30253, 0.0298917, -0.000818426, -0.00240003, 0.00121904, -0.0377669, 0.0306291, 0.00148093, 2.13416, 55.936, 26.2626, 5.42664, 1.41742, 3.54648, -0.0685925, 0.000872664, -0.000798747, -0.000705247, -0.0011125, -0.0026992, -0.00053091, 0.0139593, -0.0205284, 0.00105761, 0.00353976, 0.0631468, 0.0236903, 0.470923, -0.543039, 0.335925, -2.08347, -2.16578, -0.130135, 0.470119, -0.54232, 0.336781, -2.08489, -2.1683, -0.128686, -0.00368381, 0.0154923, 0.00146708, 0.0173572, 0.00239192, -0.000279642
0.0810149, 1.69238, -1.22489, -1.53719, -0.899736, -1.19278, 1.22961, -1.30254, 0.0299912, 5.31845e-05, 0.00260745, 0.00442689, -0.0408751, 0.0282618, 9.5321e-06, 2.05878, 55.9003, 26.0761, 5.42664, 1.40552, 3.53274, -0.0420422, 0.000859842, -0.000776785, -0.000713937, -0.00113359, -0.00276486, -0.000543277, 0.0145482, -0.0200284, 0.00360228, 0.00602487, 0.0652553, 0.0240916, 0.470919, -0.543024, 0.335926, -2.08345, -2.16578, -0.130146, 0.470138, -0.542317, 0.336789, -2.08491, -2.16835, -0.128655, -0.00378258, 0.0159305, 0.0015138, 0.0168724, 0.00183591, 0.00220283
0.0820149, 1.6924, -1.22489, -1.5372, -0.899726, -1.19283, 1.22963, -1.30254, 0.0273216, 0.000786164, -0.00181104, 0.00347503, -0.0395319, 0.0309592, -0.000464171, 2.09846, 55.8606, 26.2229, 5.42664, 1.41192, 3.52542, -0.0292249, 0.000837711, -0.000764301, -0.000714297, -0.00112849, -0.00283495, -0.000532926, 0.0167686, -0.0186831, 0.00273989, 0.00518508, 0.0669903, 0.0213648, 0.470915, -0.543008, 0.335928, -2.08344, -2.16577, -0.130157, 0.470148, -0.542323, 0.336787, -2.08494, -2.16838, -0.128588, -0.00388232, 0.0163742, 0.00156132, 0.0154777, 0.000165551, 0.00109381
0.0830149, 1.69243, -1.22488, -1.5372, -0.899717, -1.19287, 1.22966, -1.30254, 0.0274929, 0.00122634, 0.00130434, 0.00582249, -0.0379632, 0.0276398, -6.89438e-05, 2.05878, 55.8249, 26.1118, 5.42664, 1.40552, 3.53274, -0.0356336, 0.000822134, -0.000746257, -0.000722454, -0.00113977, -0.00290189, -0.000534582, 0.0164939, -0.0184454, 0.00415121, 0.00691252, 0.0645795, 0.0213939, 0.470911, -0.542992, 0.335929, -2.08342, -2.16577, -0.130169, 0.470163, -0.542322, 0.336793, -2.08496, -2.16842, -0.128544, -0.00398302, 0.0168232, 0.00160966, 0.015181, 0.000658347, 0.00258521
0.0840149, 1.69247, -1.22489, -1.5372, -0.89971, -1.19292, 1.22968, -1.30253, 0.0315705, 0.000717825, 0.0008045, 0.00360048, -0.0409478, 0.0259626, 0.000431114, 1.98341, 55.8249, 26.1118, 5.46234, 1.3927, 3.5181, -0.0484509, 0.000806363, -0.000725385, -0.000724037, -0.00114167, -0.0029691, -0.000535493, 0.0150517, -0.020593, 0.00302982, 0.00193594, 0.0665265, 0.0259256, 0.470907, -0.542975, 0.335931, -2.0834, -2.16577, -0.13018, 0.47018, -0.54232, 0.336793, -2.08497, -2.16845, -0.12849, -0.00408468, 0.0172776, 0.00165881, 0.0171319, 0.00279793, 0.00168633
0.0850149, 1.69251, -1.22489, -1.5372, -0.899698, -1.19297, 1.22971, -1.30254, 0.0347034, 0.000403746, -0.0012757, 0.00994567, -0.0393374, 0.0288905, -0.00140624, 1.90803, 55.8249, 26.1872, 5.42664, 1.3927, 3.5181, -0.00267457, 0.000787996, -0.000705535, -0.000725183, -0.00114278, -0.00303856, -0.000542261, 0.0164551, -0.0213748, 0.0031091, 0.00595374, 0.0665033, 0.0251499, 0.470903, -0.542958, 0.335933, -2.08338, -2.16576, -0.130192, 0.470197, -0.542321, 0.336793, -2.08498, -2.1685, -0.128434, -0.00418727, 0.0177373, 0.00170878, 0.0178635, 0.0018922, 0.00157224
0.0860149, 1.69254, -1.22489, -1.53719, -0.899686, -1.19302, 1.22973, -1.30254, 0.0376477, 0.000213062, 0.00171139, 0.0106371, -0.0426167, 0.0264015, -0.000936169, 1.79694, 55.8249, 26.0761, 5.42664, 1.39911, 3.5181, -0.00267457, 0.000772926, -0.000683788, -0.000730633, -0.0011505, -0.00310542, -0.000549711, 0.0156058, -0.0226606, 0.0038033, 0.00477063, 0.0680979, 0.0276225, 0.470899, -0.54294, 0.335934, -2.08336, -2.16576, -0.130204, 0.470215, -0.542318, 0.336797, -2.085, -2.16854, -0.128387, -0.00429078, 0.0182023, 0.00175956, 0.0190388, 0.00314147, 0.0024014
0.0870149, 1.69258, -1.22488, -1.53719, -0.899678, -1.19307, 1.22976, -1.30254, 0.0381448, 0.0018632, 0.00111348, 0.011097, -0.045591, 0.0203281, -0.000623118, 1.75727, 55.7495, 26.0761, 5.42664, 1.41742, 3.50345, -0.00267457, 0.000754359, -0.000664515, -0.000735226, -0.00115124, -0.00318183, -0.000550832, 0.015922, -0.0213431, 0.00408826, -0.00209727, 0.069694, 0.0263817, 0.470895, -0.542922, 0.335936, -2.08334, -2.16576, -0.130217, 0.470231, -0.542318, 0.3368, -2.08502, -2.16858, -0.128323, -0.00439521, 0.0186725, 0.00181117, 0.0176404, 0.00320161, 0.00272461
0.0880149, 1.69262, -1.22488, -1.5372, -0.899664, -1.19312, 1.22978, -1.30254, 0.0380101, 0.00371623, -0.000113485, 0.0123621, -0.0470569, 0.0154618, -0.000143398, 1.60651, 55.6424, 26.1118, 5.38696, 1.41742, 3.49612, -0.00999879, 0.000737929, -0.000642775, -0.000740422, -0.00114875, -0.00325716, -0.000553141, 0.0167017, -0.0197683, 0.00452108, -0.00726509, 0.0708097, 0.0238492, 0.47089, -0.542903, 0.335938, -2.08332, -2.16575, -0.13023, 0.470249, -0.542315, 0.336803, -2.08503, -2.16862, -0.128257, -0.00450054, 0.019148, 0.0018636, 0.0160062, 0.00277597, 0.00313025
0.0890149, 1.69265, -1.22488, -1.5372, -0.899652, -1.19317, 1.2298, -1.30254, 0.0363612, 0.0016186, -0.00241514, 0.00919643, -0.0487229, 0.0210293, 0.00109176, 1.64619, 55.6781, 26.0761, 5.38696, 1.43024, 3.49612, -0.0420422, 0.000716428, -0.000626233, -0.000742526, -0.0011488, -0.00332522, -0.000544967, 0.0185729, -0.0201045, 0.00264106, -0.00659824, 0.0737317, 0.0224397, 0.470886, -0.542884, 0.33594, -2.0833, -2.16575, -0.130243, 0.470262, -0.542317, 0.336803, -2.08505, -2.16865, -0.128201, -0.00460676, 0.0196287, 0.00191686, 0.016235, 0.00171374, 0.00102544
0.0900149, 1.69268, -1.22488, -1.5372, -0.899642, -1.19322, 1.22982, -1.30254, 0.0333399, 0.00189653, -0.00272016, 0.0090285, -0.049223, 0.0208513, 0.000728257, 1.64619, 55.6424, 26.1118, 5.42664, 1.42383, 3.48971, -0.0420422, 0.000696025, -0.000608549, -0.000746466, -0.00114693, -0.00339838, -0.000542918, 0.0204757, -0.0183884, 0.00284391, -0.00680409, 0.0747955, 0.0199593, 0.470881, -0.542864, 0.335942, -2.08328, -2.16574, -0.130257, 0.470276, -0.542317, 0.336806, -2.08507, -2.16869, -0.128138, -0.00471385, 0.0201145, 0.00197095, 0.01449, 0.000219445, 0.00103501
0.0910149, 1.69272, -1.22487, -1.53719, -0.899631, -1.19327, 1.22983, -1.30254, 0.0360039, 0.0038495, -0.000349142, 0.00774333, -0.0490261, 0.0200611, 0.000723178, 1.57081, 55.5313, 26.0404, 5.38696, 1.40552, 3.49612, -0.0484509, 0.000680328, -0.000586949, -0.000755195, -0.00114708, -0.00347374, -0.000548843, 0.018601, -0.0205166, 0.00446781, -0.00614359, 0.0767512, 0.0252094, 0.470877, -0.542844, 0.335944, -2.08326, -2.16574, -0.13027, 0.470293, -0.542313, 0.336813, -2.08508, -2.16873, -0.128076, -0.00482181, 0.0206055, 0.00202587, 0.0164991, 0.00239807, 0.00292035
0.0920149, 1.69276, -1.22487, -1.5372, -0.89963, -1.19333, 1.22985, -1.30254, 0.0348029, 0.00348437, -0.00122258, 0.00532523, -0.0493316, 0.0194255, 7.637e-06, 1.49146, 55.4916, 26.0761, 5.53772, 1.3927, 3.50345, -0.0356336, 0.000664009, -0.00056423, -0.000756124, -0.00113294, -0.00355044, -0.000560573, 0.0191323, -0.0201764, 0.00364185, -0.00855646, 0.0770901, 0.0266553, 0.470872, -0.542823, 0.335946, -2.08324, -2.16574, -0.130285, 0.470312, -0.542308, 0.336813, -2.08508, -2.16878, -0.127998, -0.00493062, 0.0211016, 0.00208162, 0.0160398, 0.00248342, 0.00208769
0.0930149, 1.6928, -1.22487, -1.53719, -0.899615, -1.19338, 1.22986, -1.30254, 0.0387889, 0.0013874, 0.00083223, 0.00826145, -0.0457433, 0.0190305, -0.00145279, 1.45576, 55.5313, 26.0007, 5.50201, 1.3927, 3.51077, 0.00373412, 0.000644284, -0.000543599, -0.000757584, -0.00113116, -0.00361629, -0.000566817, 0.0177583, -0.0225763, 0.00332461, -0.00478899, 0.0721249, 0.0320317, 0.470867, -0.542802, 0.335948, -2.08322, -2.16573, -0.130299, 0.470328, -0.542306, 0.336813, -2.08508, -2.16882, -0.127944, -0.00504026, 0.0216028, 0.00213822, 0.0182661, 0.00448893, 0.001972
0.0940149, 1.69285, -1.22487, -1.53719, -0.899605, -1.19343, 1.22988, -1.30254, 0.0430323, 8.41006e-05, 0.000467855, 0.00954171, -0.0468878, 0.0148482, -0.00144311, 1.38038, 55.567, 26.0007, 5.50201, 1.3808, 3.49612, 0.0165515, 0.000627766, -0.000519676, -0.000758497, -0.00112226, -0.00368484, -0.000577607, 0.0167581, -0.023828, 0.00203977, -0.00938621, 0.0702734, 0.0348721, 0.470862, -0.542781, 0.33595, -2.08319, -2.16573, -0.130314, 0.470348, -0.5423, 0.336812, -2.08508, -2.16886, -0.127881, -0.00515073, 0.022109, 0.00219565, 0.0193233, 0.0062328, 0.000878328
0.0950149, 1.69285, -1.22487, -1.53719, -0.899605, -1.19343, 1.22988, -1.30254, 0.0430323, 8.41006e-05, 0.000467855, 0.00954171, -0.0468878, 0.0148482, -0.00144311, 1.38038, 55.567, 26.0007, 5.50201, 1.3808, 3.49612, 0.0165515, 0.000605434, -0.000515374, -0.000759917, -0.00112836, -0.00370556, -0.000568566, 0.017276, -0.0239197, 0.00206575, -0.00934306, 0.0708176, 0.035197, 0.470857, -0.542759, 0.335952, -2.08317, -2.16572, -0.130329, 0.470348, -0.5423, 0.336812, -2.08508, -2.16886, -0.127881, -0.00526201, 0.0226203, 0.00225393, 0.0193233, 0.0062328, 0.000878328
0.0960149, 1.69285, -1.22487, -1.53719, -0.899605, -1.19343, 1.22988, -1.30254, 0.0430323, 8.41006e-05, 0.000467855, 0.00954171, -0.0468878, 0.0148482, -0.00144311, 1.38038, 55.567, 26.0007, 5.50201, 1.3808, 3.49612, 0.0165515, 0.000582585, -0.000510981, -0.000761362, -0.00113461, -0.00372676, -0.000559329, 0.0177991, -0.024012, 0.00209174, -0.0092989, 0.0713668, 0.0355245, 0.470851, -0.542736, 0.335954, -2.08315, -2.16572, -0.130344, 0.470348, -0.5423, 0.336812, -2.08508, -2.16886, -0.127881, -0.0053741, 0.0231366, 0.00231306, 0.0193233, 0.0062328, 0.000878328
0.0970149, 1.69285, -1.22487, -1.53719, -0.899605, -1.19343, 1.22988, -1.30254, 0.0430323, 8.41006e-05, 0.000467855, 0.00954171, -0.0468878, 0.0148482, -0.00144311, 1.38038, 55.567, 26.0007, 5.50201, 1.3808, 3.49612, 0.0165515, 0.000559212, -0.000506496, -0.000762834, -0.00114102, -0.00374843, -0.000549894, 0.0183273, -0.0241049, 0.00211772, -0.00925373, 0.0719208, 0.0358546, 0.470846, -0.542713, 0.335957, -2.08312, -2.16571, -0.13036, 0.470348, -0.5423, 0.336812, -2.08508, -2.16886, -0.127881, -0.00548698, 0.0236579, 0.00237303, 0.0193233, 0.0062328, 0.000878328
0.0980149, 1.69293, -1.22486, -1.53719, -0.899587, -1.19355, 1.2299, -1.30254, 0.037743, 0.00287734, 0.00126009, 0.006319, -0.0523128, 0.013284, 0.000342101, 1.34071, 55.4202, 25.965, 5.57739, 1.35608, 3.49612, -0.0164075, 0.000540478, -0.000470839, -0.000770518, -0.00111463, -0.00388512, -0.000555811, 0.0207325, -0.0211432, 0.00376334, -0.0128736, 0.0790105, 0.0305107, 0.470841, -0.542689, 0.335959, -2.0831, -2.16571, -0.130376, 0.470362, -0.542299, 0.336814, -2.0851, -2.16889, -0.127799, -0.00560063, 0.0241841, 0.00243385, 0.0163985, 0.00400861, 0.00227815
0.0990149, 1.69305, -1.22487, -1.53719, -0.89956, -1.19374, 1.22993, -1.30253, 0.037801, 0.000848974, -5.3134e-05, 0.0067927, -0.0592327, 0.0162095, 0.0004443, 1.18995, 55.4202, 26.0007, 5.6488, 1.36249, 3.51077, -0.0420422, 0.000523353, -0.000418618, -0.000768686, -0.00104582, -0.00407301, -0.000580403, 0.0235273, -0.0207279, 0.00246133, -0.0145971, 0.0847163, 0.0274706, 0.470835, -0.542665, 0.335962, -2.08307, -2.16571, -0.130393, 0.470426, -0.542285, 0.336815, -2.08511, -2.16903, -0.127481, -0.00571505, 0.0247152, 0.00249553, 0.0159229, 0.00196525, 0.000630675
0.100015, 1.69309, -1.22487, -1.53719, -0.899553, -1.1938, 1.22993, -1.30254, 0.0409563, 0.0014002, 0.000784317, 0.00752078, -0.0564877, 0.0119229, -0.000890571, 1.15424, 55.3845, 25.965, 5.68848, 1.33777, 3.5181, -0.00999879, 0.000502909, -0.00039669, -0.000771154, -0.00102857, -0.00415249, -0.000589067, 0.0216663, -0.0220913, 0.0026606, -0.0163606, 0.0814427, 0.032931, 0.470829, -0.54264, 0.335964, -2.08305, -2.1657, -0.13041, 0.470443, -0.542279, 0.336816, -2.08511, -2.16907, -0.127399, -0.00583022, 0.0252512, 0.00255806, 0.0171097, 0.00436403, 0.00113815
0.101015, 1.69314, -1.22486, -1.5372, -0.899544, -1.19387, 1.22994, -1.30254, 0.0441012, 0.00269596, -0.00125197, 0.0058413, -0.0602921, 0.00980335, -0.00133968, 1.11457, 55.3091, 26.0404, 5.68848, 1.35608, 3.49612, 0.0101428, 0.000478997, -0.000376582, -0.000773489, -0.00100445, -0.00424195, -0.000589911, 0.0211515, -0.0231302, 0.00214195, -0.0228744, 0.0857539, 0.0360135, 0.470823, -0.542615, 0.335967, -2.08302, -2.16569, -0.130427, 0.470458, -0.542277, 0.336816, -2.08511, -2.16911, -0.127299, -0.00594613, 0.0257921, 0.00262146, 0.0179942, 0.00553637, 0.000737619
0.102015, 1.69319, -1.22486, -1.5372, -0.899542, -1.19393, 1.22994, -1.30254, 0.0478044, 0.000961523, 8.46683e-05, 0.0050098, -0.0616293, 0.00704499, -0.000655749, 1.00349, 55.3448, 26.0007, 5.79956, 1.33136, 3.50345, 0.00373412, 0.000462433, -0.000350532, -0.000772301, -0.000979742, -0.00431505, -0.000606554, 0.0196769, -0.0251005, 0.00106737, -0.0257832, 0.0844331, 0.0402763, 0.470817, -0.542589, 0.335969, -2.08299, -2.16569, -0.130444, 0.470479, -0.542267, 0.336814, -2.08509, -2.16915, -0.127216, -0.00606278, 0.0263379, 0.00268571, 0.0197532, 0.00778555, -8.942e-05
0.103015, 1.69323, -1.22487, -1.53719, -0.899532, -1.19399, 1.22995, -1.30254, 0.0449918, -0.00345914, 0.00264837, 0.0040631, -0.0596172, 0.00555345, -0.000199797, 1.00349, 55.3845, 25.8896, 5.79956, 1.34418, 3.49612, -0.00267457, 0.000440597, -0.000328059, -0.000774496, -0.000965691, -0.00439163, -0.000612194, 0.0205425, -0.0243145, -0.000711448, -0.0242396, 0.078058, 0.0401972, 0.470811, -0.542563, 0.335972, -2.08296, -2.16568, -0.130462, 0.470496, -0.542261, 0.336815, -2.08509, -2.16919, -0.127142, -0.00618014, 0.0268884, 0.00275083, 0.0188176, 0.00772466, -0.00189235
0.104015, 1.69328, -1.22486, -1.53719, -0.899525, -1.19406, 1.22996, -1.30254, 0.0437693, -0.0016427, 0.000925466, 0.00559405, -0.0621614, 0.00492133, -0.000845267, 0.963814, 55.3448, 25.9253, 5.83527, 1.34967, 3.47507, 0.0165515, 0.000417767, -0.000304755, -0.000775504, -0.00094257, -0.00447849, -0.000623373, 0.022726, -0.0226462, -4.25166e-06, -0.0263554, 0.0821692, 0.0369267, 0.470805, -0.542536, 0.335975, -2.08294, -2.16568, -0.13048, 0.470514, -0.542256, 0.336815, -2.08508, -2.16924, -0.127047, -0.0062982, 0.0274437, 0.00281681, 0.0171381, 0.00594671, -0.00141888
0.105015, 1.69332, -1.22487, -1.53719, -0.899516, -1.19412, 1.22996, -1.30254, 0.0459342, -0.00222162, -0.000314716, 0.00440103, -0.0634297, 0.00415278, -8.87881e-05, 0.928108, 55.3845, 25.965, 5.83527, 1.33777, 3.46042, 0.00373412, 0.000393506, -0.00028419, -0.000772642, -0.000914555, -0.00455308, -0.000621663, 0.0224635, -0.0237349, -0.0011051, -0.0295888, 0.0830966, 0.0386871, 0.470799, -0.542509, 0.335978, -2.08291, -2.16567, -0.130499, 0.470529, -0.542251, 0.33681, -2.08508, -2.16926, -0.126959, -0.00641697, 0.0280038, 0.00288366, 0.0180573, 0.00698159, -0.00243164
0.106015, 1.69337, -1.22486, -1.53719, -0.899513, -1.19419, 1.22996, -1.30253, 0.0477593, 0.00180374, -0.000212565, 0.0049037, -0.0642794, 0.00301553, 0.00163623, 0.888436, 55.2377, 25.965, 5.91064, 1.32587, 3.46042, -0.0420422, 0.000371558, -0.000261719, -0.000778319, -0.00088766, -0.00464749, -0.000623547, 0.0220125, -0.0243845, 0.0011956, -0.0305229, 0.0878411, 0.0383693, 0.470793, -0.542481, 0.33598, -2.08288, -2.16567, -0.130518, 0.470546, -0.542245, 0.336815, -2.08508, -2.1693, -0.126852, -0.00653641, 0.0285686, 0.00295138, 0.0186542, 0.00766282, -4.25123e-05
0.107015, 1.69341, -1.22486, -1.53719, -0.899502, -1.19426, 1.22996, -1.30253, 0.0458525, -0.00057958, 0.000784244, 0.00789146, -0.0654125, 0.00270424, 0.000378748, 0.85273, 55.3091, 25.9253, 5.87494, 1.32587, 3.44668, -0.0228162, 0.000346603, -0.000240087, -0.000777103, -0.000863594, -0.0047245, -0.000628272, 0.0245375, -0.0227789, 0.000664688, -0.028882, 0.086455, 0.0356206, 0.470786, -0.542452, 0.335983, -2.08285, -2.16566, -0.130537, 0.470562, -0.54224, 0.336812, -2.08507, -2.16934, -0.126767, -0.00665653, 0.0291381, 0.00301998, 0.0170028, 0.00575605, -0.000844236
0.108015, 1.69346, -1.22487, -1.53719, -0.899503, -1.19433, 1.22996, -1.30253, 0.0453225, -0.00130533, 0.0013565, 0.00658861, -0.0658635, 0.00248431, 0.000252501, 0.777352, 55.3448, 25.8896, 5.98602, 1.31305, 3.43204, -0.0228162, 0.000324618, -0.000215758, -0.000775889, -0.000836529, -0.00480493, -0.000640854, 0.0249855, -0.0228943, 0.000295065, -0.0293229, 0.0866616, 0.036855, 0.470779, -0.542423, 0.335986, -2.08282, -2.16566, -0.130557, 0.47058, -0.542232, 0.33681, -2.08506, -2.16938, -0.126676, -0.0067773, 0.0297122, 0.00308945, 0.0170002, 0.00595045, -0.00121392
0.109015, 1.6935, -1.22486, -1.53719, -0.899496, -1.19439, 1.22996, -1.30254, 0.0438324, 0.000737417, 0.00173839, 0.0115584, -0.0669037, 0.00230295, -0.000577649, 0.737679, 55.2734, 25.8539, 5.98602, 1.31946, 3.41739, -0.00267457, 0.000299558, -0.000194034, -0.000780267, -0.000813501, -0.00489452, -0.000646989, 0.0276181, -0.0209253, 0.00241201, -0.0268076, 0.0895581, 0.0320202, 0.470773, -0.542393, 0.335989, -2.08278, -2.16565, -0.130577, 0.470596, -0.542226, 0.336812, -2.08505, -2.16942, -0.126581, -0.00689872, 0.030291, 0.0031598, 0.0150848, 0.00352188, 0.00059428
0.110015, 1.69355, -1.22486, -1.53719, -0.899492, -1.19446, 1.22996, -1.30254, 0.0438928, 0.000444513, -0.000512382, 0.0111038, -0.0661605, -0.00744308, -0.00180925, 0.6623, 55.2734, 25.9253, 6.02173, 1.28284, 3.41006, 0.0357776, 0.000273788, -0.000171981, -0.000777396, -0.000783863, -0.00497399, -0.000656111, 0.0273917, -0.0190727, 0.000538054, -0.0370945, 0.0846482, 0.0332208, 0.470766, -0.542363, 0.335993, -2.08275, -2.16564, -0.130597, 0.470612, -0.54222, 0.336808, -2.08504, -2.16946, -0.126488, -0.00702078, 0.0308744, 0.00323103, 0.0130364, 0.0045427, -0.00109394
0.111015, 1.69359, -1.22486, -1.53719, -0.899486, -1.19453, 1.22996, -1.30254, 0.0452035, 0.000261019, 0.000492976, 0.00852015, -0.0677677, -0.00595202, -1.93722e-05, 0.6623, 55.2734, 25.8896, 6.02173, 1.30755, 3.41739, 0.00373412, 0.000244896, -0.000154068, -0.000778264, -0.000755872, -0.00505774, -0.000650457, 0.026918, -0.0207573, 0.00051705, -0.0370442, 0.0873404, 0.0352982, 0.470759, -0.542332, 0.335996, -2.08272, -2.16564, -0.130618, 0.470624, -0.542217, 0.336807, -2.08504, -2.16948, -0.126392, -0.00714347, 0.0314625, 0.00330314, 0.0145786, 0.00567162, -0.00102063
0.112015, 1.69363, -1.22486, -1.53719, -0.899484, -1.19459, 1.22996, -1.30254, 0.0416013, 0.00191076, -0.000507058, 0.00559028, -0.0683794, -0.00399841, -0.000250273, 0.586922, 55.1981, 25.9253, 6.0614, 1.31305, 3.40365, 0.0101428, 0.000219014, -0.000130179, -0.000779062, -0.000728122, -0.00514863, -0.000658591, 0.0286253, -0.0195752, 0.00111633, -0.0371398, 0.0912937, 0.0341884, 0.470751, -0.542301, 0.335999, -2.08269, -2.16563, -0.130639, 0.470642, -0.54221, 0.336806, -2.08503, -2.16953, -0.126291, -0.00726676, 0.032055, 0.00337613, 0.0133587, 0.00443758, -0.000587761
0.113015, 1.69363, -1.22486, -1.53719, -0.899484, -1.19459, 1.22996, -1.30254, 0.0416013, 0.00191076, -0.000507058, 0.00559028, -0.0683794, -0.00399841, -0.000250273, 0.586922, 55.1981, 25.9253, 6.0614, 1.31305, 3.40365, 0.0101428, 0.000186608, -0.00012415, -0.000780954, -0.0007372, -0.00517849, -0.000645791, 0.0292309, -0.0196761, 0.00114146, -0.0370771, 0.0919201, 0.0345544, 0.470744, -0.542268, 0.336003, -2.08265, -2.16562, -0.13066, 0.470642, -0.54221, 0.336806, -2.08503, -2.16953, -0.126291, -0.00739066, 0.0326521, 0.00345001, 0.0133587, 0.00443758, -0.000587761
0.114015, 1.69372, -1.22486, -1.53719, -0.899477, -1.19472, 1.22996, -1.30253, 0.0432166, 0.00196564, 0.000330932, 0.00658482, -0.0655367, -0.0019994, 0.00070257, 0.400459, 55.1624, 25.8896, 6.0614, 1.31305, 3.39633, -0.0228162, 0.000164358, -8.54675e-05, -0.000781796, -0.000680391, -0.00532008, -0.000664778, 0.0288794, -0.0212922, 0.00172412, -0.0329848, 0.0911714, 0.0360543, 0.470737, -0.542236, 0.336006, -2.08262, -2.16562, -0.130682, 0.470674, -0.542198, 0.336806, -2.08502, -2.1696, -0.126108, -0.00751515, 0.0332538, 0.00352478, 0.014857, 0.00536324, 6.70658e-05
0.115015, 1.69376, -1.22486, -1.53719, -0.899474, -1.19479, 1.22996, -1.30253, 0.0400791, 0.000464029, -0.000614803, 0.00727043, -0.0662166, -0.00156033, 0.000231022, 0.325081, 55.1981, 25.9253, 6.09711, 1.30755, 3.39633, -0.0164075, 0.000135124, -6.50254e-05, -0.000778995, -0.000650311, -0.00539918, -0.000667957, 0.0316168, -0.0193462, 0.000834534, -0.0329991, 0.0909934, 0.0325393, 0.470729, -0.542203, 0.33601, -2.08258, -2.16561, -0.130704, 0.470688, -0.542193, 0.336802, -2.085, -2.16963, -0.126017, -0.00764022, 0.0338599, 0.00360044, 0.0128555, 0.00332511, -0.00110533
0.116015, 1.6938, -1.22486, -1.53719, -0.89947, -1.19486, 1.22996, -1.30253, 0.0386579, -0.000627049, 0.000425194, 0.00557066, -0.0671622, -0.000668237, 0.000154015, 0.21003, 55.2377, 25.8896, 6.09711, 1.31305, 3.38168, -0.0164075, 0.000103525, -4.48558e-05, -0.00077867, -0.000625779, -0.00548581, -0.000667626, 0.0325315, -0.0192904, 0.000506478, -0.0323676, 0.0918026, 0.0332755, 0.470722, -0.542169, 0.336013, -2.08255, -2.1656, -0.130727, 0.470702, -0.542189, 0.336799, -2.085, -2.16966, -0.125925, -0.00776586, 0.0344704, 0.00367699, 0.0126956, 0.00308179, -0.0014951
0.117015, 1.69384, -1.22486, -1.53719, -0.899474, -1.19492, 1.22996, -1.30254, 0.0395681, 0.0005037, 0.00111856, 0.00249331, -0.0633487, -0.000844672, -0.000134682, 0.134651, 55.1981, 25.8539, 6.17248, 1.31305, 3.38901, -0.00999879, 7.5581e-05, -2.27332e-05, -0.000781782, -0.000599254, -0.00557653, -0.000676187, 0.0308093, -0.021089, 0.000945969, -0.0315798, 0.0906184, 0.0391247, 0.470714, -0.542134, 0.336017, -2.08251, -2.16559, -0.13075, 0.470717, -0.542182, 0.336801, -2.08499, -2.1697, -0.125827, -0.00789206, 0.0350854, 0.00375444, 0.0143197, 0.0054035, -0.000770326
0.118015, 1.69388, -1.22486, -1.53719, -0.899472, -1.19498, 1.22996, -1.30254, 0.0389275, 0.000331085, -8.95957e-05, 0.00206929, -0.0644826, -0.000659049, -0.00178521, -0.0161054, 55.1981, 25.8896, 6.17248, 1.30755, 3.38901, 0.0357776, 4.55322e-05, -1.40381e-08, -0.000780142, -0.000572399, -0.00565997, -0.000685613, 0.0321102, -0.0206253, 0.000435016, -0.0330532, 0.0922149, 0.0399301, 0.470706, -0.542099, 0.336021, -2.08248, -2.16559, -0.130773, 0.470733, -0.542175, 0.336798, -2.08497, -2.16974, -0.125737, -0.0080188, 0.0357048, 0.00383279, 0.0137588, 0.00479937, -0.00138694
0.119015, 1.69392, -1.22486, -1.53719, -0.899474, -1.19505, 1.22996, -1.30254, 0.0388754, 0.00188762, 0.000775422, 0.000849624, -0.061725, -0.00024005, -0.000478062, -0.0557783, 55.1266, 25.8539, 6.20819, 1.31946, 3.38168, 0.0165515, 1.30499e-05, 1.95399e-05, -0.000783776, -0.000548486, -0.00575408, -0.000683874, 0.0315694, -0.0214817, 0.00154859, -0.0310146, 0.0924159, 0.0413329, 0.470698, -0.542063, 0.336024, -2.08244, -2.16558, -0.130797, 0.470746, -0.542171, 0.3368, -2.08497, -2.16978, -0.125638, -0.00814607, 0.0363285, 0.00391203, 0.0145082, 0.00582016, -0.000151032
0.120015, 1.69395, -1.22486, -1.53719, -0.899473, -1.19512, 1.22996, -1.30254, 0.0367013, 0.00125576, -0.000318319, 0.000795401, -0.059506, 0.000328538, 0.000664636, -0.131157, 55.1266, 25.8896, 6.20819, 1.32587, 3.36703, -0.00999879, -2.11025e-05, 3.89497e-05, -0.000783975, -0.000524808, -0.00584208, -0.000682468, 0.0330676, -0.0205513, 0.000971506, -0.0301139, 0.0909177, 0.0387005, 0.47069, -0.542027, 0.336028, -2.0824, -2.16557, -0.130821, 0.470758, -0.542168, 0.336798, -2.08496, -2.16981, -0.125547, -0.00827387, 0.0369566, 0.00399218, 0.0134849, 0.0050209, -0.000847967
0.121015, 1.69399, -1.22486, -1.53719, -0.899478, -1.19518, 1.22996, -1.30254, 0.0358775, -3.17448e-08, -0.00197549, -0.000226014, -0.0575757, 0.000415912, 0.000443091, -0.242241, 55.1624, 25.965, 6.24786, 1.32587, 3.36062, -0.00999879, -5.44058e-05, 5.89885e-05, -0.000779422, -0.000490107, -0.005926, -0.000682246, 0.0338687, -0.0203873, -0.000420621, -0.030981, 0.0889656, 0.0392558, 0.470682, -0.54199, 0.336032, -2.08236, -2.16556, -0.130845, 0.470771, -0.542162, 0.336791, -2.08495, -2.16983, -0.125448, -0.00840218, 0.0375891, 0.00407323, 0.0131715, 0.00507235, -0.00226294
0.122015, 1.69402, -1.22486, -1.53719, -0.899474, -1.19524, 1.22996, -1.30254, 0.0351574, 0.000833705, 0.000446219, 0.000906148, -0.0562979, 0.00024692, -0.00068795, -0.357292, 55.1266, 25.8896, 6.20819, 1.33136, 3.36062, 0.0165515, -8.90097e-05, 7.89708e-05, -0.000783706, -0.000475982, -0.00601386, -0.000682519, 0.0343118, -0.020356, 0.00113056, -0.0276258, 0.0890473, 0.0406471, 0.470673, -0.541953, 0.336036, -2.08232, -2.16556, -0.13087, 0.470784, -0.542159, 0.336794, -2.08495, -2.16987, -0.125368, -0.008531, 0.0382258, 0.00415518, 0.0130846, 0.00503022, -0.000719408
0.123015, 1.69405, -1.22485, -1.53719, -0.899484, -1.1953, 1.22996, -1.30254, 0.0328542, 0.00231792, 0.000297458, -0.00199056, -0.0506503, 0.000684383, -0.000933351, -0.392998, 55.0513, 25.8896, 6.32324, 1.32587, 3.34598, 0.0293689, -0.000121549, 0.000100469, -0.000784821, -0.000452775, -0.00610257, -0.000690112, 0.0339422, -0.020478, 0.00172676, -0.0255719, 0.0869828, 0.0433387, 0.470665, -0.541914, 0.33604, -2.08228, -2.16555, -0.130895, 0.470798, -0.542152, 0.336793, -2.08493, -2.16991, -0.125278, -0.0086603, 0.0388668, 0.00423804, 0.013086, 0.00594901, 4.77369e-06
0.124015, 1.69409, -1.22486, -1.53719, -0.899484, -1.19535, 1.22996, -1.30254, 0.0332267, -0.000218796, 0.00019829, -0.00125458, -0.0554768, 0.000981715, 0.000835828, -0.508049, 55.1266, 25.8896, 6.32324, 1.33777, 3.33133, -0.00999879, -0.000156977, 0.000120666, -0.000782711, -0.000429384, -0.00618358, -0.000685814, 0.0359026, -0.0201682, 0.000339762, -0.0274821, 0.0891811, 0.0400549, 0.470656, -0.541875, 0.336045, -2.08224, -2.16554, -0.130921, 0.470811, -0.542147, 0.336789, -2.08492, -2.16994, -0.125195, -0.00879009, 0.039512, 0.00432181, 0.0126678, 0.00486229, -0.0015797
0.125015, 1.69413, -1.22485, -1.53719, -0.899494, -1.19541, 1.22996, -1.30253, 0.0363684, 0.000781527, -0.00163106, -0.00970508, -0.0543619, 0.000641671, 0.00103194, -0.619133, 55.087, 25.965, 6.43433, 1.33136, 3.33133, -0.0228162, -0.000190236, 0.000143379, -0.000781886, -0.000401513, -0.00627359, -0.000691498, 0.0326887, -0.0236506, -0.00107017, -0.0331915, 0.0907444, 0.0502228, 0.470647, -0.541836, 0.336049, -2.0822, -2.16553, -0.130947, 0.470826, -0.542139, 0.336787, -2.08491, -2.16997, -0.1251, -0.00892034, 0.0401615, 0.0044065, 0.0158474, 0.00904825, -0.00249099
0.126015, 1.69416, -1.22486, -1.53719, -0.899492, -1.19546, 1.22996, -1.30254, 0.0353614, -0.000407474, -0.00015936, -0.00602832, -0.0530714, 0.000689444, 0.000925317, -0.734184, 55.1266, 25.9253, 6.39465, 1.31305, 3.324, -0.0292249, -0.000225512, 0.000164392, -0.000782639, -0.000387021, -0.00635082, -0.000695369, 0.0344465, -0.0228021, -0.000656316, -0.0293835, 0.0887494, 0.0476684, 0.470638, -0.541796, 0.336053, -2.08216, -2.16552, -0.130973, 0.470839, -0.542133, 0.336786, -2.08489, -2.17001, -0.125032, -0.00905105, 0.0408151, 0.00449209, 0.0149489, 0.0078681, -0.00224783
0.127015, 1.69419, -1.22486, -1.53719, -0.899498, -1.19552, 1.22996, -1.30254, 0.0370306, -0.000272003, 0.000728972, -0.00614684, -0.0528787, 0.000452426, 0.00014216, -0.809562, 55.1266, 25.8896, 6.47003, 1.31946, 3.324, -0.0164075, -0.000262296, 0.000184181, -0.000782886, -0.000365132, -0.00643648, -0.000695623, 0.0340741, -0.0240022, -0.000365307, -0.0289453, 0.0892957, 0.0510843, 0.470629, -0.541755, 0.336058, -2.08212, -2.16551, -0.131, 0.470851, -0.542128, 0.336784, -2.08488, -2.17004, -0.124948, -0.00918221, 0.0414729, 0.0045786, 0.0160138, 0.00889881, -0.00185377
0.128015, 1.69422, -1.22486, -1.53719, -0.8995, -1.19557, 1.22996, -1.30254, 0.0342922, -0.000181601, -0.000349242, -0.00437143, -0.0482839, 0.000804841, -0.000142586, -0.845268, 55.1266, 25.9253, 6.47003, 1.31946, 3.31027, -0.00999879, -0.0003005, 0.000203587, -0.000783109, -0.000348164, -0.00651831, -0.000693737, 0.0358347, -0.0225652, -0.000251447, -0.026093, 0.0863125, 0.0485273, 0.47062, -0.541714, 0.336063, -2.08207, -2.1655, -0.131027, 0.470863, -0.542123, 0.336782, -2.08488, -2.17007, -0.124873, -0.00931381, 0.0421348, 0.00466602, 0.0145158, 0.00774622, -0.00188766
0.129015, 1.69426, -1.22486, -1.53719, -0.899503, -1.19562, 1.22996, -1.30254, 0.0350285, -0.000121267, 0.000602386, -0.00404746, -0.0499564, 0.000261242, -0.00206175, -0.996025, 55.1266, 25.8896, 6.5097, 1.34418, 3.31759, 0.0431018, -0.000335286, 0.000226337, -0.000783007, -0.000326348, -0.00659899, -0.000705521, 0.0363487, -0.02289, 0.000103761, -0.0263874, 0.0880962, 0.0511779, 0.470611, -0.541671, 0.336067, -2.08203, -2.16549, -0.131055, 0.470878, -0.542115, 0.336781, -2.08485, -2.17011, -0.124796, -0.00944583, 0.0428008, 0.00475437, 0.0147404, 0.00786392, -0.00154079
0.130015, 1.69429, -1.22486, -1.53719, -0.899504, -1.19567, 1.22996, -1.30254, 0.0297582, -0.000916212, 0.000401588, -0.00285218, -0.0497189, 0.000713657, -0.000153794, -1.0357, 55.1624, 25.8896, 6.5097, 1.32587, 3.30295, 0.0101428, -0.000374292, 0.000247228, -0.000783125, -0.000316814, -0.00667673, -0.000700939, 0.0398476, -0.0198613, 7.608e-05, -0.024658, 0.0877741, 0.0434128, 0.470601, -0.541629, 0.336072, -2.08198, -2.16548, -0.131083, 0.47089, -0.542109, 0.336779, -2.08484, -2.17013, -0.124734, -0.00957827, 0.043471, 0.00484363, 0.0117102, 0.0049595, -0.00193689
0.131015, 1.69432, -1.22487, -1.5372, -0.899514, -1.19572, 1.22996, -1.30254, 0.0296924, -0.00237416, -0.00325875, -0.00461531, -0.0515291, 0.00128729, 0.000643456, -1.11108, 55.2377, 26.0404, 6.62079, 1.36249, 3.28097, -0.00999879, -0.000413737, 0.000267971, -0.000774524, -0.00028767, -0.00675211, -0.000700617, 0.0413656, -0.0196126, -0.00224133, -0.0290621, 0.0891853, 0.0421488, 0.470592, -0.541585, 0.336077, -2.08194, -2.16548, -0.131111, 0.470903, -0.542103, 0.336768, -2.08482, -2.17016, -0.124654, -0.00971111, 0.0441452, 0.00493382, 0.0112998, 0.00448622, -0.0043667
0.132015, 1.69435, -1.22487, -1.53719, -0.899509, -1.19576, 1.22996, -1.30253, 0.032273, -0.00158286, -0.000409265, -0.00140018, -0.0468332, 0.00109385, 0.00114105, -1.15075, 55.2377, 25.965, 6.54541, 1.35608, 3.27456, -0.0292249, -0.000453267, 0.000288297, -0.000778708, -0.000282777, -0.00682971, -0.000695891, 0.0402346, -0.021425, -0.000458957, -0.0232701, 0.0863335, 0.0447196, 0.470582, -0.541541, 0.336082, -2.08189, -2.16547, -0.13114, 0.470915, -0.542097, 0.33677, -2.08482, -2.17018, -0.124598, -0.00984435, 0.0448234, 0.00502493, 0.0130014, 0.00607977, -0.00239584
0.133015, 1.69438, -1.22486, -1.53719, -0.899519, -1.19581, 1.22996, -1.30253, 0.0319186, 0.000707938, -0.000272845, -0.00590932, -0.0484546, 0.000727948, 0.000998057, -1.22613, 55.1624, 25.965, 6.62079, 1.3689, 3.27456, -0.0356336, -0.000489909, 0.000311151, -0.000781502, -0.000265838, -0.00691529, -0.000702461, 0.0397802, -0.0220744, 0.00031929, -0.0260264, 0.090853, 0.0483401, 0.470572, -0.541496, 0.336087, -2.08185, -2.16546, -0.131169, 0.470929, -0.542088, 0.336772, -2.0848, -2.17022, -0.124522, -0.00997797, 0.0455056, 0.00511696, 0.0135289, 0.00711708, -0.00148598
0.134015, 1.69441, -1.22486, -1.53719, -0.89952, -1.19584, 1.22996, -1.30254, 0.0317635, -0.000363307, -0.00101712, -0.00425054, -0.0444791, 0.00102687, -0.000555332, -1.30151, 55.1981, 26.0007, 6.62079, 1.35608, 3.25992, -0.00267457, -0.000530204, 0.000332716, -0.000779983, -0.00025463, -0.00698868, -0.000706428, 0.0405417, -0.0221146, -0.000290935, -0.0237651, 0.0872812, 0.0496876, 0.470562, -0.541451, 0.336092, -2.0818, -2.16545, -0.131199, 0.470942, -0.542081, 0.336768, -2.08478, -2.17025, -0.124465, -0.010112, 0.0461918, 0.00520992, 0.013441, 0.00714918, -0.00211807
0.135015, 1.69444, -1.22486, -1.53719, -0.899526, -1.19588, 1.22996, -1.30254, 0.0295776, -0.00117026, 0.00015714, -0.00390216, -0.0421265, 0.00068386, -0.000370221, -1.30151, 55.2377, 25.965, 6.65649, 1.36249, 3.25992, -0.00267457, -0.000570201, 0.000354163, -0.000780326, -0.000246807, -0.00706212, -0.00070944, 0.0416495, -0.0213402, -0.000196126, -0.0214196, 0.084917, 0.0488109, 0.470552, -0.541404, 0.336097, -2.08175, -2.16543, -0.131229, 0.470955, -0.542074, 0.336767, -2.08476, -2.17029, -0.124413, -0.0102463, 0.0468819, 0.00530381, 0.0125778, 0.00669965, -0.00208287
0.136015, 1.69448, -1.22487, -1.53719, -0.899529, -1.19592, 1.22996, -1.30254, 0.0317889, -0.00161542, 0.00010476, -0.00277637, -0.0353883, 0.000726633, -0.00167097, -1.45226, 55.2734, 25.965, 6.65649, 1.34967, 3.25259, 0.0357776, -0.000608789, 0.000378918, -0.000779433, -0.000237626, -0.00713502, -0.00072051, 0.0404284, -0.023201, -0.000421457, -0.0180534, 0.0796592, 0.0539623, 0.470542, -0.541358, 0.336102, -2.0817, -2.16542, -0.131259, 0.470971, -0.542064, 0.336765, -2.08473, -2.17033, -0.12436, -0.010381, 0.047576, 0.00539863, 0.0142492, 0.00871249, -0.00207756
0.137015, 1.69451, -1.22486, -1.53719, -0.899534, -1.19596, 1.22996, -1.30254, 0.0305196, 0.00714971, -0.0016934, -0.00198212, -0.036003, 0.000992643, -0.00111398, -1.48797, 55.1981, 26.0404, 6.65649, 1.37439, 3.23886, 0.0357776, -0.000650391, 0.000400308, -0.000781129, -0.000224221, -0.00721783, -0.000723953, 0.0416106, -0.021921, 0.00431868, -0.018265, 0.0897547, 0.0506389, 0.470531, -0.54131, 0.336108, -2.08165, -2.16541, -0.13129, 0.470984, -0.542057, 0.336764, -2.08472, -2.17036, -0.124293, -0.0105161, 0.048274, 0.00549438, 0.0130539, 0.00745242, 0.00254854
0.138015, 1.69454, -1.22486, -1.53719, -0.899538, -1.19599, 1.22996, -1.30254, 0.0327461, 0.00530508, -0.000200913, -0.00462875, -0.0353196, 0.000424099, 0.000681501, -1.52764, 55.1981, 26.0007, 6.65649, 1.3689, 3.24527, -0.00267457, -0.000690242, 0.00042382, -0.000782445, -0.000218116, -0.00729058, -0.00072313, 0.0402205, -0.0241387, 0.00324471, -0.018792, 0.0880046, 0.0547453, 0.470521, -0.541262, 0.336113, -2.0816, -2.1654, -0.131321, 0.470998, -0.542047, 0.336764, -2.0847, -2.17039, -0.124243, -0.0106515, 0.0489759, 0.00559107, 0.0150437, 0.00978692, 0.00173363
0.139015, 1.69456, -1.22486, -1.53719, -0.899544, -1.19602, 1.22996, -1.30254, 0.0304467, 0.00301265, -0.00106196, -0.00435507, -0.0310771, 0.000519863, 0.000725602, -1.52764, 55.2377, 26.0404, 6.69617, 1.37439, 3.23886, -0.00999879, -0.000733327, 0.000444952, -0.000780211, -0.000208987, -0.00736048, -0.000722495, 0.0416155, -0.0232817, 0.00177736, -0.0171063, 0.0829804, 0.0536516, 0.47051, -0.541213, 0.336119, -2.08155, -2.16539, -0.131353, 0.47101, -0.542039, 0.33676, -2.08468, -2.17041, -0.124194, -0.0107872, 0.0496816, 0.00568869, 0.0140499, 0.00930956, 0.00018764
0.140015, 1.6946, -1.22486, -1.53719, -0.899544, -1.19606, 1.22996, -1.30254, 0.0336946, 0.00147618, -0.00154319, -0.00223127, -0.0230714, 0.000888939, -2.48919e-05, -1.60302, 55.2734, 26.0761, 6.65649, 1.3689, 3.22421, 0.00373412, -0.000774923, 0.00046862, -0.000780579, -0.000201769, -0.00743247, -0.000727055, 0.0402238, -0.0256487, 0.000868066, -0.0130137, 0.0757419, 0.0586484, 0.470499, -0.541163, 0.336125, -2.0815, -2.16538, -0.131385, 0.471025, -0.54203, 0.336759, -2.08466, -2.17044, -0.124146, -0.0109232, 0.0503911, 0.00578725, 0.016194, 0.0116342, -0.000467119
0.141015, 1.69463, -1.22487, -1.53719, -0.899547, -1.19608, 1.22996, -1.30253, 0.031298, 0.00121135, -0.0010288, -0.00401719, -0.0215928, 0.00113503, 0.00144147, -1.60302, 55.2734, 26.0761, 6.62079, 1.3689, 3.20956, -0.0356336, -0.000817735, 0.00049147, -0.000780724, -0.000199423, -0.00750079, -0.000725327, 0.0411362, -0.0251184, 0.000813977, -0.012062, 0.0751733, 0.0575403, 0.470489, -0.541113, 0.33613, -2.08145, -2.16537, -0.131418, 0.471038, -0.542021, 0.336757, -2.08464, -2.17047, -0.124106, -0.0110595, 0.0511045, 0.00588674, 0.0155602, 0.0114342, -0.000550486
0.142015, 1.69465, -1.22487, -1.53719, -0.899553, -1.19611, 1.22996, -1.30253, 0.0297419, 0.000977982, -0.000685864, -0.00625445, -0.0204563, 0.000485325, 0.000723619, -1.60302, 55.2734, 26.0761, 6.62079, 1.3689, 3.21689, -0.0292249, -0.00086128, 0.000513482, -0.00078081, -0.000193645, -0.0075712, -0.000728656, 0.0415529, -0.0249277, 0.000530603, -0.0125459, 0.0745548, 0.0596417, 0.470477, -0.541062, 0.336136, -2.0814, -2.16536, -0.13145, 0.471051, -0.542012, 0.336756, -2.08462, -2.1705, -0.124062, -0.0111962, 0.0518216, 0.00598718, 0.0152387, 0.0117771, -0.000791748
0.143015, 1.69468, -1.22487, -1.53719, -0.899554, -1.19614, 1.22996, -1.30253, 0.0283278, -5.54168e-05, -0.000457242, -0.00618812, -0.0204056, 0.000866012, 0.000245054, -1.60302, 55.3091, 26.0761, 6.54541, 1.38721, 3.20224, -0.0228162, -0.00090616, 0.000536167, -0.000782482, -0.000194565, -0.00764256, -0.000729894, 0.0430163, -0.0243627, 0.000142716, -0.011731, 0.0743462, 0.0592268, 0.470466, -0.54101, 0.336142, -2.08134, -2.16535, -0.131484, 0.471064, -0.542004, 0.336755, -2.0846, -2.17053, -0.124024, -0.0113331, 0.0525425, 0.00608855, 0.0145776, 0.0110915, -0.00128857
0.144015, 1.69471, -1.22487, -1.53719, -0.899566, -1.19616, 1.22997, -1.30254, 0.0299874, 5.89156e-05, 0.000968221, -0.00973797, -0.0190595, 0.00108591, -0.000311349, -1.7141, 55.3091, 26.1515, 6.62079, 1.37439, 3.18851, -0.00999879, -0.000945919, 0.000564456, -0.000779341, -0.000187291, -0.00770883, -0.000746256, 0.0414078, -0.0266358, 0.000167793, -0.0115009, 0.0744827, 0.0660823, 0.470455, -0.540957, 0.336148, -2.08129, -2.16533, -0.131518, 0.471082, -0.541989, 0.336751, -2.08456, -2.17057, -0.123984, -0.0114702, 0.0532671, 0.00619087, 0.0166532, 0.0134958, -0.0009803
0.145015, 1.69474, -1.22487, -1.5372, -0.899568, -1.19618, 1.22997, -1.30254, 0.0245469, -0.00165207, 0.000898504, -0.00960905, -0.0234978, 0.000995169, -0.00142827, -1.6784, 55.3845, 26.1515, 6.58508, 1.3927, 3.18118, 0.0229602, -0.00099379, 0.000585571, -0.000777783, -0.000185496, -0.00777628, -0.000746992, 0.0456584, -0.0231675, -0.000534941, -0.0128504, 0.0769421, 0.0606344, 0.470443, -0.540904, 0.336154, -2.08123, -2.16532, -0.131552, 0.471093, -0.541982, 0.336748, -2.08454, -2.17059, -0.123948, -0.0116077, 0.0539954, 0.00629413, 0.0131828, 0.00999454, -0.00213615
0.146015, 1.69477, -1.22487, -1.53719, -0.899573, -1.1962, 1.22997, -1.30254, 0.029487, -0.00104746, 0.000788771, -0.0095412, -0.0178048, 0.00147722, -0.0014269, -1.75378, 55.3845, 26.1515, 6.54541, 1.39911, 3.15921, 0.0357776, -0.00103663, 0.000611688, -0.000778912, -0.000185095, -0.00784487, -0.000757095, 0.0431104, -0.0267304, -0.000420345, -0.010454, 0.0740179, 0.0677228, 0.470432, -0.54085, 0.336161, -2.08118, -2.16531, -0.131586, 0.471109, -0.541969, 0.336747, -2.0845, -2.17063, -0.123914, -0.0117453, 0.0547273, 0.00639834, 0.0165148, 0.0133737, -0.00162927
0.147015, 1.6948, -1.22488, -1.5372, -0.89958, -1.19622, 1.22996, -1.30254, 0.027188, -0.00316352, -0.000167045, -0.00726756, -0.0180547, 0.000713522, -0.000239188, -1.7141, 55.4916, 26.1872, 6.54541, 1.41192, 3.16653, 0.0165515, -0.00108425, 0.000633162, -0.000774296, -0.000182251, -0.00790311, -0.000756002, 0.045933, -0.0247448, -0.00161056, -0.0107045, 0.0722774, 0.0621842, 0.47042, -0.540795, 0.336167, -2.08112, -2.1653, -0.131621, 0.471121, -0.54196, 0.336741, -2.08448, -2.17065, -0.123887, -0.0118833, 0.0554629, 0.00650349, 0.0144543, 0.0114274, -0.00308531
0.148015, 1.69482, -1.22488, -1.53719, -0.899591, -1.19624, 1.22996, -1.30254, 0.0265939, -0.00207868, 0.000830599, -0.00972944, -0.0134634, 0.000746931, 0.000552618, -1.7141, 55.4916, 26.1515, 6.58508, 1.41192, 3.15921, -0.00267457, -0.00112665, 0.000660272, -0.000775766, -0.000186633, -0.00796837, -0.000767545, 0.0449982, -0.0257482, -0.000916891, -0.00854709, 0.0705034, 0.0653859, 0.470408, -0.54074, 0.336174, -2.08106, -2.16528, -0.131657, 0.471138, -0.541945, 0.336741, -2.08444, -2.17069, -0.123863, -0.0120214, 0.0562022, 0.00660959, 0.0153103, 0.013024, -0.00218063
0.149015, 1.69485, -1.22488, -1.53719, -0.8996, -1.19625, 1.22997, -1.30253, 0.03015, -0.00229106, -0.000201427, -0.00726937, -0.0143355, 0.00100657, 0.00182647, -1.75378, 55.5313, 26.1872, 6.58508, 1.41192, 3.14548, -0.0420422, -0.00117061, 0.000688029, -0.000773491, -0.000186902, -0.00803185, -0.000775077, 0.0453366, -0.0270743, -0.0012118, -0.00890951, 0.0718479, 0.0651073, 0.470396, -0.540684, 0.33618, -2.08101, -2.16527, -0.131692, 0.471155, -0.541931, 0.336738, -2.08441, -2.17072, -0.123835, -0.0121598, 0.056945, 0.00671664, 0.0164986, 0.0135359, -0.00246143
0.150015, 1.69487, -1.22488, -1.53719, -0.899602, -1.19626, 1.22996, -1.30253, 0.0229852, -0.000582292, 0.000760977, -0.00681302, -0.0149777, 0.00121357, 0.000742932, -1.63873, 55.4916, 26.1515, 6.5097, 1.41192, 3.13083, -0.0292249, -0.00122183, 0.000706491, -0.00077631, -0.000196214, -0.00809375, -0.000770396, 0.0491988, -0.0231641, 0.000618381, -0.00661587, 0.0746147, 0.0593561, 0.470384, -0.540627, 0.336187, -2.08095, -2.16526, -0.131729, 0.471163, -0.541924, 0.336739, -2.08439, -2.17074, -0.123819, -0.0122984, 0.0576914, 0.00682465, 0.0126656, 0.0100213, -0.0010389
0.151015, 1.6949, -1.22489, -1.53719, -0.899611, -1.19627, 1.22996, -1.30253, 0.0215961, -0.00390187, 0.00288385, -0.00746081, -0.0159484, 0.00108031, 0.000495288, -1.6784, 55.6424, 26.1872, 6.47003, 1.42383, 3.1235, -0.0292249, -0.0012688, 0.000732851, -0.000769736, -0.000198503, -0.00814636, -0.00077955, 0.0504445, -0.0229389, -0.000590061, -0.00559349, 0.0726755, 0.0599762, 0.470372, -0.540569, 0.336194, -2.08089, -2.16524, -0.131765, 0.471179, -0.54191, 0.336731, -2.08435, -2.17077, -0.123806, -0.0124372, 0.0584414, 0.0069336, 0.0123039, 0.00972257, -0.00231527
0.152015, 1.69492, -1.22489, -1.5372, -0.899626, -1.19628, 1.22996, -1.30254, 0.0225718, -0.000828415, 0.000456996, -0.00985369, -0.0116719, 0.00122883, -0.000381885, -1.6784, 55.567, 26.2626, 6.5097, 1.41742, 3.10977, -0.00999879, -0.00131534, 0.000757679, -0.000772028, -0.000198753, -0.00821763, -0.000790371, 0.0494453, -0.0241564, -3.76888e-06, -0.00651571, 0.0734781, 0.0645519, 0.470359, -0.54051, 0.336201, -2.08083, -2.16523, -0.131802, 0.471193, -0.541897, 0.336732, -2.08432, -2.17081, -0.123772, -0.0125762, 0.0591949, 0.00704351, 0.0133667, 0.0114227, -0.00150944
0.153015, 1.69494, -1.2249, -1.5372, -0.899631, -1.19629, 1.22997, -1.30254, 0.0223178, -0.00481397, -0.000307303, -0.00981438, -0.00897636, 0.000310587, -0.00123793, -1.63873, 55.7495, 26.2983, 6.47003, 1.42383, 3.1235, 0.0165515, -0.00136738, 0.00078001, -0.000765256, -0.00020725, -0.00826517, -0.000793333, 0.0502617, -0.0241898, -0.00266584, -0.00690158, 0.0676533, 0.0661541, 0.470347, -0.540451, 0.336208, -2.08077, -2.16522, -0.13184, 0.471204, -0.541887, 0.336723, -2.08428, -2.17083, -0.123772, -0.0127154, 0.0599519, 0.00715437, 0.0131933, 0.0117934, -0.00415895
0.154015, 1.69497, -1.22489, -1.5372, -0.899642, -1.19629, 1.22997, -1.30254, 0.0239582, -0.0023687, -3.74307e-05, -0.00746082, -0.00626173, 0.000986948, -0.00106265, -1.6784, 55.7138, 26.2983, 6.47003, 1.41192, 3.10245, 0.0229602, -0.00141451, 0.000806327, -0.000766875, -0.000213569, -0.00832988, -0.00080414, 0.0502388, -0.0251231, -0.000820542, -0.00362603, 0.0687915, 0.0669681, 0.470334, -0.540391, 0.336215, -2.0807, -2.1652, -0.131878, 0.47122, -0.541873, 0.336724, -2.08425, -2.17086, -0.123752, -0.0128547, 0.0607124, 0.00726618, 0.0140544, 0.0123281, -0.0022541
0.155015, 1.69499, -1.22489, -1.5372, -0.899658, -1.19629, 1.22997, -1.30254, 0.0242635, -0.00157508, 0.000100625, -0.0098271, -0.00400113, 0.000657963, -0.000471073, -1.6784, 55.7138, 26.2983, 6.5097, 1.3927, 3.10245, 0.0165515, -0.00146209, 0.000831712, -0.000767319, -0.000222571, -0.00838746, -0.000814652, 0.0495906, -0.0261362, -0.000667891, -0.00372677, 0.0685543, 0.0699884, 0.470321, -0.540331, 0.336222, -2.08064, -2.16519, -0.131916, 0.471234, -0.541858, 0.336723, -2.08421, -2.1709, -0.123744, -0.0129943, 0.0614763, 0.00737895, 0.0149094, 0.0137516, -0.0019226
0.156015, 1.695, -1.22491, -1.5372, -0.899665, -1.19629, 1.22997, -1.30254, 0.0195663, -0.00540871, -0.000766753, -0.00871068, -0.00398699, 0.000981175, -0.000551408, -1.60302, 55.9003, 26.3379, 6.43433, 1.41742, 3.0878, 0.0229602, -0.00151712, 0.000852349, -0.000762146, -0.000235545, -0.00843497, -0.000812893, 0.0533804, -0.0233407, -0.00277411, -0.00315162, 0.0654734, 0.0645375, 0.470308, -0.540269, 0.33623, -2.08058, -2.16517, -0.131955, 0.471244, -0.54185, 0.336716, -2.08418, -2.17091, -0.123749, -0.0131339, 0.0622436, 0.00749268, 0.0120407, 0.0109927, -0.00440373
0.157015, 1.69502, -1.2249, -1.53719, -0.899685, -1.19629, 1.22996, -1.30253, 0.0219424, -0.00100508, -0.000440531, -0.0115293, -0.00252022, 0.000925383, 0.00203989, -1.63873, 55.7892, 26.3379, 6.5097, 1.40552, 3.08047, -0.0420422, -0.001563, 0.000879603, -0.000765009, -0.000241622, -0.00849793, -0.000822548, 0.0514761, -0.025543, -0.000582921, -0.00343395, 0.069715, 0.0677617, 0.470295, -0.540207, 0.336237, -2.08051, -2.16516, -0.131994, 0.471259, -0.541832, 0.336718, -2.08414, -2.17095, -0.123732, -0.0132738, 0.0630144, 0.00760737, 0.0141122, 0.0133932, -0.00189661
0.158015, 1.69504, -1.2249, -1.53719, -0.899701, -1.19629, 1.22997, -1.30253, 0.019535, -0.00233878, 0.00291607, -0.0117615, -0.00190742, 0.00112555, 0.00135993, -1.63873, 55.8606, 26.3379, 6.5097, 1.40552, 3.06674, -0.0420422, -0.00161435, 0.000905028, -0.000762869, -0.000257028, -0.00855098, -0.00083189, 0.0525906, -0.0250715, -5.01815e-05, 0.000222883, 0.0684905, 0.0685451, 0.470282, -0.540144, 0.336245, -2.08045, -2.16514, -0.132034, 0.471273, -0.541818, 0.336714, -2.0841, -2.17098, -0.123737, -0.0134137, 0.0637885, 0.00772302, 0.0135634, 0.0129654, -0.00142031
0.159015, 1.69505, -1.2249, -1.53719, -0.899716, -1.19629, 1.22997, -1.30253, 0.0146665, -0.0015579, 0.00141163, -0.0118807, -0.00120471, 0.00102163, -4.28168e-05, -1.63873, 55.8606, 26.3736, 6.5097, 1.39911, 3.05942, -0.0164075, -0.00166792, 0.000927582, -0.000763549, -0.000267427, -0.00861256, -0.0008354, 0.0556027, -0.0222578, 0.000127368, 2.07428e-05, 0.0693876, 0.0651732, 0.470268, -0.54008, 0.336252, -2.08038, -2.16513, -0.132074, 0.471285, -0.541806, 0.336713, -2.08407, -2.171, -0.123726, -0.0135538, 0.064566, 0.00783963, 0.0107324, 0.010625, -0.00152179
0.160015, 1.69507, -1.22491, -1.53719, -0.899727, -1.19629, 1.22997, -1.30253, 0.0143018, -0.0036361, 0.00116818, -0.0102283, -0.000490171, 0.00040982, 0.000208814, -1.63873, 55.9717, 26.3736, 6.43433, 1.38721, 3.06674, -0.0228162, -0.00172283, 0.000949631, -0.000760538, -0.000278484, -0.00866261, -0.000835838, 0.0570993, -0.021757, -0.000969923, 0.000398286, 0.0670737, 0.0637054, 0.470255, -0.540016, 0.33626, -2.08032, -2.16511, -0.132115, 0.471295, -0.541795, 0.336709, -2.08403, -2.17102, -0.123729, -0.013694, 0.0653468, 0.00795721, 0.0101079, 0.0100813, -0.00271226
0.161015, 1.69508, -1.22491, -1.53719, -0.899747, -1.19628, 1.22997, -1.30253, 0.012927, -0.00158813, 0.00339016, -0.0140815, -0.000185303, 0.000815747, -0.000606776, -1.60302, 55.936, 26.4094, 6.43433, 1.3808, 3.05209, -0.00267457, -0.00177859, 0.000970536, -0.000762104, -0.000288888, -0.00872686, -0.000840387, 0.0566811, -0.0224162, 0.000606194, 0.00151063, 0.0700124, 0.0681065, 0.470241, -0.53995, 0.336268, -2.08025, -2.1651, -0.132156, 0.471304, -0.541784, 0.336709, -2.084, -2.17105, -0.123717, -0.0138343, 0.0661309, 0.00807574, 0.0106702, 0.0110597, -0.000996154
0.162015, 1.69509, -1.22492, -1.53719, -0.899761, -1.19628, 1.22997, -1.30254, 0.0136758, -0.0053271, 0.00664546, -0.0145689, 4.19129e-05, 0.000815099, -0.00182867, -1.63873, 56.1185, 26.3736, 6.32324, 1.37439, 3.04477, 0.0357776, -0.00183482, 0.000994615, -0.000756981, -0.000304639, -0.00877569, -0.00085318, 0.056642, -0.0237196, -0.00053393, 0.00391621, 0.0667459, 0.0726392, 0.470227, -0.539884, 0.336276, -2.08018, -2.16508, -0.132197, 0.471317, -0.541771, 0.336702, -2.08395, -2.17108, -0.123728, -0.0139747, 0.0669183, 0.00819524, 0.0117886, 0.0121213, -0.00203971
0.163015, 1.6951, -1.22491, -1.53719, -0.899788, -1.19628, 1.22997, -1.30254, 0.0102367, 0.000717895, 0.00239487, -0.0223083, 0.000652177, 0.00108593, -0.000981755, -1.63873, 55.936, 26.4847, 6.39465, 1.35608, 3.03012, 0.0293689, -0.00188843, 0.00101711, -0.000761459, -0.000308433, -0.00884764, -0.00085885, 0.0568924, -0.0228914, 0.000658062, -0.00178339, 0.0740685, 0.0736544, 0.470213, -0.539817, 0.336284, -2.08012, -2.16506, -0.132239, 0.471327, -0.541757, 0.336705, -2.08391, -2.17112, -0.123702, -0.0141153, 0.067709, 0.00831571, 0.0108761, 0.0124438, -0.000760817
0.164015, 1.69511, -1.22492, -1.53718, -0.899808, -1.19628, 1.22997, -1.30254, 0.00682882, -0.00378999, 0.00285406, -0.0215515, 0.000394335, 0.000961315, -0.000417144, -1.60302, 56.1185, 26.449, 6.32324, 1.35608, 3.02371, 0.0229602, -0.00194764, 0.00103822, -0.000757151, -0.000322805, -0.00889951, -0.000862966, 0.059825, -0.021032, -0.00153546, -0.000975742, 0.0703223, 0.0697115, 0.470199, -0.539749, 0.336293, -2.08005, -2.16505, -0.132281, 0.471336, -0.541746, 0.336699, -2.08387, -2.17114, -0.123708, -0.0142558, 0.0685029, 0.00843714, 0.00890679, 0.0106112, -0.00321548
0.165015, 1.69512, -1.22492, -1.53718, -0.89983, -1.19628, 1.22996, -1.30253, 0.00518224, -0.00252643, 0.00221941, -0.0217395, -0.000445616, 0.000640876, 0.00117997, -1.60302, 56.1185, 26.449, 6.28357, 1.37439, 3.02371, -0.0164075, -0.00200603, 0.00105923, -0.000759852, -0.000339087, -0.00896316, -0.000859941, 0.0614562, -0.0199711, -0.000967911, -0.00178753, 0.0729196, 0.0664769, 0.470185, -0.539681, 0.336301, -2.07998, -2.16503, -0.132324, 0.471345, -0.541735, 0.3367, -2.08385, -2.17116, -0.123705, -0.0143965, 0.0692999, 0.00855954, 0.0077896, 0.00966585, -0.00276298
0.166015, 1.69512, -1.22492, -1.53718, -0.899853, -1.19628, 1.22997, -1.30253, 0.00216386, -0.00168412, 0.00156746, -0.0219286, -0.000557189, 0.000698518, 0.00149872, -1.52764, 56.1185, 26.5958, 6.24786, 1.3808, 3.01639, -0.0356336, -0.00206932, 0.00107681, -0.000757855, -0.000344808, -0.00902925, -0.000851761, 0.0636405, -0.0182966, -0.000548086, -0.0017763, 0.0746489, 0.0634129, 0.47017, -0.539612, 0.33631, -2.0799, -2.16502, -0.132367, 0.471351, -0.541727, 0.336696, -2.08382, -2.17118, -0.123687, -0.0145372, 0.0701002, 0.0086829, 0.0060748, 0.00817508, -0.00252429
0.167015, 1.69512, -1.22492, -1.53718, -0.899885, -1.19628, 1.22997, -1.30253, 0.00396719, -0.00205064, 0.00589633, -0.0261312, -0.00106669, 0.00100821, 4.97114e-05, -1.48797, 56.1581, 26.6712, 6.24786, 1.39911, 3.00174, -0.00999879, -0.00212952, 0.00109823, -0.000756325, -0.000351366, -0.00909786, -0.000860182, 0.0616695, -0.0211212, 0.000124608, -0.000141487, 0.0758079, 0.0726793, 0.470156, -0.539541, 0.336318, -2.07983, -2.165, -0.132411, 0.47136, -0.541715, 0.336693, -2.08378, -2.17121, -0.123669, -0.014678, 0.0709037, 0.00880724, 0.00870808, 0.0109388, -0.00151515
0.168015, 1.69513, -1.22492, -1.53717, -0.899914, -1.19627, 1.22997, -1.30253, 0.00726963, 1.56046e-05, 0.0095888, -0.0283173, -0.000723927, 0.000672142, 0.0002705, -1.52764, 56.2296, 26.5958, 6.20819, 1.39911, 3.00174, -0.0164075, -0.00218644, 0.00112348, -0.000757328, -0.00037108, -0.00915763, -0.000873615, 0.0592913, -0.0241559, 0.00214294, 0.00171426, 0.0782821, 0.0799276, 0.470141, -0.539471, 0.336327, -2.07976, -2.16498, -0.132455, 0.471373, -0.541699, 0.336693, -2.08374, -2.17125, -0.123676, -0.0148189, 0.0717102, 0.00893254, 0.0115862, 0.0139045, 0.000881114
0.169015, 1.69513, -1.22492, -1.53716, -0.899943, -1.19627, 1.22997, -1.30253, 0.00281246, 0.000264895, 0.0110179, -0.0290887, -0.000729576, 0.000448095, -0.00104037, -1.41259, 56.2296, 26.7069, 6.13678, 1.40552, 3.00174, 0.0165515, -0.00225166, 0.0011401, -0.000758109, -0.000383167, -0.00922529, -0.000873724, 0.0615232, -0.0221399, 0.00292015, 0.00323904, 0.0790733, 0.0786319, 0.470126, -0.539399, 0.336336, -2.07969, -2.16496, -0.132499, 0.471377, -0.541691, 0.336691, -2.0837, -2.17127, -0.123666, -0.0149597, 0.0725199, 0.00905882, 0.00954563, 0.0123051, 0.00147796
0.170015, 1.69513, -1.22492, -1.53716, -0.899977, -1.19627, 1.22997, -1.30254, 0.00554342, -0.000467753, 0.00994717, -0.0303468, -0.00140911, 0.00134989, -0.00191428, -1.41259, 56.2653, 26.7823, 6.09711, 1.43024, 2.97336, 0.0495105, -0.00231243, 0.00116261, -0.000757885, -0.000393181, -0.00929334, -0.000886489, 0.0612878, -0.0239764, 0.00188183, 0.00182434, 0.0804268, 0.0830145, 0.470112, -0.539326, 0.336345, -2.07961, -2.16495, -0.132544, 0.471387, -0.541678, 0.336689, -2.08366, -2.17131, -0.123654, -0.0151006, 0.0733327, 0.00918606, 0.0111926, 0.0135932, 0.000556476
0.171015, 1.69513, -1.22493, -1.53716, -0.900012, -1.19627, 1.22996, -1.30254, 0.00349475, 0.00123604, 0.00603011, -0.0307114, -0.00182643, 0.00117119, -0.000767562, -1.37688, 56.3406, 26.8577, 6.02173, 1.45404, 2.96603, 0.0357776, -0.00237656, 0.00118185, -0.000754965, -0.000399308, -0.009358, -0.000888783, 0.0636431, -0.0222191, 0.00155472, -0.00151385, 0.0834207, 0.0785437, 0.470096, -0.539253, 0.336354, -2.07954, -2.16493, -0.132589, 0.471393, -0.541666, 0.336685, -2.08362, -2.17134, -0.123642, -0.0152415, 0.0741485, 0.00931428, 0.00937375, 0.0120633, 3.74151e-05
0.172015, 1.69512, -1.22493, -1.53714, -0.900053, -1.19627, 1.22996, -1.30253, 0.00104236, -0.000567849, 0.00978329, -0.0319341, -0.000780857, 0.000780796, 0.000200369, -1.30151, 56.416, 26.7823, 5.98602, 1.44214, 2.96603, 0.0165515, -0.00243703, 0.00120415, -0.000757733, -0.00042103, -0.0094203, -0.000901096, 0.0643462, -0.0219614, 0.00175863, 0.00170084, 0.0811789, 0.0788558, 0.470081, -0.539179, 0.336364, -2.07946, -2.16491, -0.132635, 0.471403, -0.541651, 0.336686, -2.08357, -2.17138, -0.12365, -0.0153825, 0.0749674, 0.00944347, 0.00901079, 0.0121467, 0.000259253
0.173015, 1.69512, -1.22493, -1.53713, -0.900097, -1.19627, 1.22996, -1.30253, 0.000123713, 0.000827974, 0.0111764, -0.0368692, 0.00318564, 0.000791798, 0.00135428, -1.26183, 56.3763, 26.8934, 5.98602, 1.46045, 2.95871, -0.0164075, -0.00250143, 0.00122278, -0.00075897, -0.000426312, -0.00949494, -0.000904064, 0.0629154, -0.0233232, 0.00243619, 0.00282856, 0.0804688, 0.0835349, 0.470066, -0.539104, 0.336373, -2.07939, -2.16489, -0.132681, 0.471409, -0.541639, 0.336686, -2.08353, -2.1714, -0.123627, -0.0155234, 0.0757893, 0.00957364, 0.0102034, 0.0143328, 0.00123855
0.174015, 1.69512, -1.22493, -1.53712, -0.900136, -1.19627, 1.22996, -1.30253, 0.000350094, -0.00183758, 0.00690164, -0.0379657, 0.0024871, 0.000799133, 0.00114021, -1.26183, 56.4874, 26.9687, 5.87494, 1.46045, 2.95138, -0.0228162, -0.00256608, 0.00124557, -0.000755418, -0.000441501, -0.00955788, -0.000913349, 0.0646316, -0.0230276, -0.000793245, -0.00186332, 0.079598, 0.083125, 0.47005, -0.539028, 0.336383, -2.07931, -2.16487, -0.132728, 0.471418, -0.541626, 0.336681, -2.08349, -2.17144, -0.123628, -0.0156643, 0.0766142, 0.00970477, 0.00971182, 0.013963, -0.00208585
0.175015, 1.69511, -1.22493, -1.53712, -0.900181, -1.19627, 1.22996, -1.30253, -0.00216435, -0.000233169, 0.00691003, -0.0401785, 0.0057455, 0.000261488, 0.00485335, -1.15075, 56.4517, 27.0441, 5.83527, 1.47327, 2.95871, -0.00267457, -0.00263257, 0.00126288, -0.000759528, -0.000449683, -0.00963637, -0.000919931, 0.0650779, -0.0224583, -6.44545e-05, -0.00117618, 0.0792056, 0.0803764, 0.470035, -0.538951, 0.336392, -2.07923, -2.16485, -0.132775, 0.471422, -0.541614, 0.336683, -2.08345, -2.17147, -0.123606, -0.0158053, 0.0774421, 0.00983689, 0.00904798, 0.0142127, -0.0012929
0.176015, 1.6951, -1.22493, -1.5371, -0.90023, -1.19626, 1.22996, -1.30253, -0.00536728, -0.000873163, 0.0126019, -0.0424067, 0.00439218, 0.000954219, 0.0039101, -1.11108, 56.4874, 27.0084, 5.79956, 1.47327, 2.93765, -0.00999879, -0.00269536, 0.00128675, -0.000761167, -0.000467121, -0.00970699, -0.00093707, 0.065893, -0.0222495, 0.0015082, 0.00329392, 0.0805739, 0.0828511, 0.470019, -0.538874, 0.336402, -2.07915, -2.16483, -0.132822, 0.471433, -0.541598, 0.336684, -2.08339, -2.17152, -0.123603, -0.0159461, 0.0782729, 0.00996998, 0.00878972, 0.0139836, 0.000263554
0.177015, 1.69509, -1.22492, -1.53709, -0.900278, -1.19626, 1.22996, -1.30253, -0.00641879, 0.00256387, 0.0158957, -0.0461197, 0.00246789, 0.00012752, 0.00192584, -0.996025, 56.4874, 27.0084, 5.72418, 1.49707, 2.95138, 0.0165515, -0.00276022, 0.00130709, -0.000764605, -0.000479435, -0.00978, -0.000952554, 0.0653738, -0.022741, 0.00416911, 0.003385, 0.0860817, 0.088363, 0.470003, -0.538796, 0.336412, -2.07907, -2.16481, -0.13287, 0.47144, -0.541584, 0.336686, -2.08334, -2.17156, -0.123593, -0.016087, 0.0791067, 0.010104, 0.00922195, 0.0149314, 0.00308548
0.178015, 1.69508, -1.22493, -1.53707, -0.900329, -1.19626, 1.22995, -1.30253, -0.00791767, -0.00140351, 0.0135889, -0.0488185, 0.00124922, 0.00035628, 0.0022228, -0.845268, 56.6342, 27.0798, 5.6488, 1.5163, 2.94406, -0.00267457, -0.00283027, 0.00132513, -0.000759857, -0.000491404, -0.0098438, -0.000957382, 0.0672358, -0.0221865, 0.000759809, -0.000233367, 0.0844197, 0.0879391, 0.469987, -0.538717, 0.336422, -2.07899, -2.16479, -0.132919, 0.471444, -0.541572, 0.336679, -2.0833, -2.17159, -0.123591, -0.0162278, 0.0799433, 0.0102391, 0.00847059, 0.0144478, -0.000428343
0.179015, 1.69507, -1.22493, -1.53707, -0.900391, -1.19626, 1.22995, -1.30253, -0.00712569, -0.00162301, 0.0108523, -0.0526897, 0.000629036, 0.000474879, 0.00192326, -0.76989, 56.6739, 27.1909, 5.6488, 1.5282, 2.93765, -0.00999879, -0.00289519, 0.00134774, -0.000757516, -0.00049295, -0.00991933, -0.000976327, 0.0673257, -0.0230804, -0.000899791, -0.00464268, 0.0861536, 0.0913258, 0.469971, -0.538637, 0.336433, -2.07891, -2.16477, -0.132968, 0.471453, -0.541555, 0.336676, -2.08323, -2.17163, -0.123567, -0.0163686, 0.0807828, 0.0103751, 0.00916504, 0.0155011, -0.00197743
0.180015, 1.69506, -1.22493, -1.53705, -0.900451, -1.19625, 1.22995, -1.30253, -0.0065767, -0.00090149, 0.0116456, -0.0549557, 0.00421324, 0.000859121, 0.000189069, -0.694511, 56.6739, 27.1909, 5.6131, 1.54651, 2.923, 0.0229602, -0.00295821, 0.00137334, -0.000759813, -0.00050905, -0.00999382, -0.00100232, 0.0663602, -0.0245994, -0.000506016, -0.00291195, 0.0851303, 0.0976063, 0.469954, -0.538556, 0.336443, -2.07883, -2.16475, -0.133017, 0.471465, -0.541535, 0.336678, -2.08317, -2.17169, -0.123562, -0.0165093, 0.0816252, 0.0105121, 0.0105216, 0.0173005, -0.00135062
0.181015, 1.69504, -1.22493, -1.53703, -0.900509, -1.19625, 1.22995, -1.30253, -0.00795819, -0.000465607, 0.0112129, -0.0546628, 0.00238449, 0.000844015, -0.000761601, -0.543754, 56.6739, 27.2306, 5.50201, 1.57123, 2.91568, 0.0495105, -0.00302696, 0.00139272, -0.000762103, -0.000520574, -0.0100707, -0.00101716, 0.0683314, -0.0235723, -0.000276447, -0.00361161, 0.0878525, 0.0965476, 0.469938, -0.538474, 0.336454, -2.07875, -2.16473, -0.133067, 0.471471, -0.541521, 0.336678, -2.08312, -2.17173, -0.123549, -0.01665, 0.0824704, 0.0106501, 0.00943944, 0.0161224, -0.00127431
0.182015, 1.69503, -1.22494, -1.53701, -0.900577, -1.19625, 1.22995, -1.30253, -0.00933786, -0.0018793, 0.0150758, -0.0596041, 0.00172069, -0.00410305, 7.26649e-05, -0.508049, 56.7453, 27.2306, 5.46234, 1.57764, 2.91568, 0.0357776, -0.00308999, 0.00141863, -0.000760984, -0.000531228, -0.0101402, -0.00104922, 0.067294, -0.0237319, -0.000788791, -0.00694595, 0.085534, 0.100761, 0.469921, -0.538392, 0.336464, -2.07866, -2.16471, -0.133117, 0.471482, -0.541499, 0.336677, -2.08304, -2.17179, -0.123544, -0.0167906, 0.0833185, 0.010789, 0.00940181, 0.0180835, -0.00148567
0.183015, 1.69501, -1.22494, -1.537, -0.90064, -1.19625, 1.22994, -1.30254, -0.0172661, -0.00142613, 0.0128729, -0.0621635, 0.000304441, -0.00794999, -0.000168995, -0.317619, 56.8921, 27.306, 5.38696, 1.60785, 2.91568, 0.0431018, -0.00316099, 0.00143701, -0.000759949, -0.000540978, -0.0102127, -0.00106456, 0.0712337, -0.0187049, -0.00156164, -0.0126689, 0.0862166, 0.0942923, 0.469904, -0.538309, 0.336475, -2.07858, -2.16469, -0.133167, 0.471486, -0.541485, 0.336674, -2.08298, -2.17183, -0.123534, -0.0169311, 0.0841693, 0.010929, 0.00436181, 0.0149559, -0.00258633
0.184015, 1.695, -1.22493, -1.53698, -0.900711, -1.19624, 1.22994, -1.30253, -0.0144608, 0.00511585, 0.0177222, -0.067926, -0.000505347, -0.00572248, 0.00138577, -0.357292, 56.781, 27.3774, 5.31555, 1.63257, 2.90835, 0.00373412, -0.0032229, 0.00146455, -0.000765508, -0.000549551, -0.0102979, -0.00109421, 0.0678702, -0.0227133, 0.00324264, -0.00933304, 0.0956314, 0.10295, 0.469887, -0.538224, 0.336486, -2.07849, -2.16467, -0.133218, 0.4715, -0.541462, 0.33668, -2.08291, -2.17189, -0.123512, -0.0170715, 0.0850228, 0.0110699, 0.00828126, 0.0185399, 0.00270123
0.185015, 1.69498, -1.22493, -1.53696, -0.900782, -1.19624, 1.22994, -1.30253, -0.0209998, 0.0013161, 0.0197526, -0.0675327, -0.000622293, -0.00382668, 0.00170011, -0.166862, 56.8921, 27.3774, 5.2005, 1.64447, 2.89462, -0.0164075, -0.00329357, 0.00148533, -0.000765321, -0.000567221, -0.0103706, -0.00111254, 0.0719334, -0.0198222, 0.00231623, -0.00492339, 0.0933536, 0.0972964, 0.46987, -0.538139, 0.336497, -2.07841, -2.16465, -0.13327, 0.471506, -0.541445, 0.336678, -2.08286, -2.17194, -0.123512, -0.0172118, 0.0858791, 0.0112118, 0.0053735, 0.015412, 0.00136373
