alisrour97/Franka_experiments/Real_Robot_scripts/servo-franka/Data2/log_dyn_INIT2_3.csv
Time,q1,q2,q3,q4,q5,q6,q7,dq1,dq2,dq3,dq4,dq5,dq6,dq7,t1,t2,t3,t4,t5,t6,t7,ex1,ex2,ex3,ex4,ex5,ex6,ev1,ev2,ev3,ev4,ev5,ev6,xd,yd,zd,uxd,uyd,uzd,x,y,z,ux,uy,uz,vxd,vyd,vzd,vx,vy,vz
9.76563e-07, 1.69141, -1.22535, -1.5376, -0.899925, -1.19192, 1.22842, -1.30255, -0.00593541, 0.00109173, -0.0104475, 0.00737126, 2.57767e-05, 0.00102135, 0.000437115, -0.131157, 56.9675, 27.1909, 6.32324, 2.11139, 3.26724, -0.311207, 0.00101774, -0.00153845, -0.000193375, -6.93155e-05, -0.000683389, -1.35732e-05, 0.00703655, 0.0066272, -0.00162826, -0.0037198, 0.0014698, -0.0177545, 0.471008, -0.543389, 0.335894, -2.08385, -2.16584, -0.129887, 0.46945, -0.542468, 0.33629, -2.08421, -2.16628, -0.129274, -1.48327e-05, 4.00419e-05, -1.29039e-06, -0.00644064, -0.00692719, -0.00250142
0.0123052, 1.69139, -1.22535, -1.53768, -0.899905, -1.19193, 1.22841, -1.30254, -0.000795585, -0.00150061, -0.00923488, 0.00230115, -8.91499e-05, 3.20341e-05, 0.00093814, -0.468376, 57.0032, 27.2306, 6.35895, 2.11139, 3.26724, -0.317616, 0.000984638, -0.00157029, -0.000171189, -8.7606e-06, -0.000694634, 7.20638e-05, 0.00320526, 0.00253676, -0.0037784, -0.00699884, -0.000940547, -0.00812522, 0.471008, -0.543389, 0.335894, -2.08385, -2.16584, -0.129887, 0.469411, -0.542508, 0.336263, -2.08429, -2.16616, -0.129184, -2.49008e-05, 7.8927e-05, 1.60533e-06, -0.00258016, -0.00260764, -0.00415028
0.0133054, 1.69139, -1.22535, -1.53768, -0.899905, -1.19193, 1.22841, -1.30254, -0.000795585, -0.00150061, -0.00923488, 0.00230115, -8.91499e-05, 3.20341e-05, 0.00093814, -0.468376, 57.0032, 27.2306, 6.35895, 2.11139, 3.26724, -0.317616, 0.000984629, -0.00157029, -0.00017119, -8.76274e-06, -0.000694643, 7.20678e-05, 0.00324832, 0.00252739, -0.0037746, -0.0069988, -0.000892454, -0.00809443, 0.471008, -0.543389, 0.335894, -2.08385, -2.16584, -0.129887, 0.469411, -0.542508, 0.336263, -2.08429, -2.16616, -0.129184, -3.59273e-05, 0.000121646, 4.81928e-06, -0.00258016, -0.00260764, -0.00415028
0.0143054, 1.69139, -1.22535, -1.53768, -0.899905, -1.19193, 1.22841, -1.30254, -0.000795585, -0.00150061, -0.00923488, 0.00230115, -8.91499e-05, 3.20341e-05, 0.00093814, -0.468376, 57.0032, 27.2306, 6.35895, 2.11139, 3.26724, -0.317616, 0.000984605, -0.00157028, -0.000171192, -8.76854e-06, -0.000694666, 7.20785e-05, 0.00329541, 0.00251719, -0.00377048, -0.00699868, -0.000839927, -0.00806085, 0.471008, -0.543389, 0.335894, -2.08385, -2.16584, -0.129887, 0.469411, -0.542508, 0.336263, -2.08429, -2.16616, -0.129184, -4.79476e-05, 0.000168349, 8.36616e-06, -0.00258016, -0.00260764, -0.00415028
0.0153054, 1.69139, -1.22535, -1.53768, -0.899905, -1.19193, 1.22841, -1.30254, -0.000795585, -0.00150061, -0.00923488, 0.00230115, -8.91499e-05, 3.20341e-05, 0.00093814, -0.468376, 57.0032, 27.2306, 6.35895, 2.11139, 3.26724, -0.317616, 0.000984559, -0.00157027, -0.000171196, -8.77983e-06, -0.00069471, 7.20993e-05, 0.00334667, 0.00250612, -0.00376603, -0.00699847, -0.000782804, -0.00802436, 0.471008, -0.543389, 0.335894, -2.08385, -2.16584, -0.129887, 0.469411, -0.542508, 0.336263, -2.08429, -2.16616, -0.129184, -6.09969e-05, 0.000219187, 1.22607e-05, -0.00258016, -0.00260764, -0.00415028
0.0163054, 1.69139, -1.22535, -1.53768, -0.899905, -1.19193, 1.22841, -1.30254, -0.000795585, -0.00150061, -0.00923488, 0.00230115, -8.91499e-05, 3.20341e-05, 0.00093814, -0.468376, 57.0032, 27.2306, 6.35895, 2.11139, 3.26724, -0.317616, 0.000984482, -0.00157026, -0.000171203, -8.79846e-06, -0.000694783, 7.21335e-05, 0.00340225, 0.00249415, -0.00376124, -0.00699818, -0.000720922, -0.00798488, 0.471008, -0.543389, 0.335894, -2.08385, -2.16584, -0.129887, 0.469411, -0.542508, 0.336263, -2.08429, -2.16616, -0.129184, -7.51097e-05, 0.000274308, 1.65177e-05, -0.00258016, -0.00260764, -0.00415028
0.0173093, 1.69139, -1.22535, -1.53768, -0.899905, -1.19193, 1.22841, -1.30254, -0.000795585, -0.00150061, -0.00923488, 0.00230115, -8.91499e-05, 3.20341e-05, 0.00093814, -0.468376, 57.0032, 27.2306, 6.35895, 2.11139, 3.26724, -0.317616, 0.000984368, -0.00157023, -0.000171213, -8.82625e-06, -0.000694891, 7.21844e-05, 0.00346231, 0.00248126, -0.0037561, -0.00699778, -0.000654124, -0.0079423, 0.471008, -0.543389, 0.335894, -2.08385, -2.16584, -0.129887, 0.469411, -0.542508, 0.336263, -2.08429, -2.16616, -0.129184, -9.03198e-05, 0.000333859, 2.1152e-05, -0.00258016, -0.00260764, -0.00415028
0.0183093, 1.69139, -1.22535, -1.53768, -0.899905, -1.19193, 1.22841, -1.30254, -0.000795585, -0.00150061, -0.00923488, 0.00230115, -8.91499e-05, 3.20341e-05, 0.00093814, -0.468376, 57.0032, 27.2306, 6.35895, 2.11139, 3.26724, -0.317616, 0.00098421, -0.0015702, -0.000171226, -8.86505e-06, -0.000695043, 7.22553e-05, 0.00352698, 0.00246741, -0.0037506, -0.00699728, -0.000582251, -0.00789654, 0.471008, -0.543389, 0.335894, -2.08385, -2.16584, -0.129887, 0.469411, -0.542508, 0.336263, -2.08429, -2.16616, -0.129184, -0.000106661, 0.000397984, 2.61782e-05, -0.00258016, -0.00260764, -0.00415028
0.0193096, 1.69139, -1.22535, -1.53768, -0.899905, -1.19193, 1.22841, -1.30254, -0.000795585, -0.00150061, -0.00923488, 0.00230115, -8.91499e-05, 3.20341e-05, 0.00093814, -0.468376, 57.0032, 27.2306, 6.35895, 2.11139, 3.26724, -0.317616, 0.000983999, -0.00157015, -0.000171245, -8.91668e-06, -0.000695244, 7.23493e-05, 0.00359641, 0.00245258, -0.00374474, -0.00699665, -0.00050515, -0.00784748, 0.471008, -0.543389, 0.335894, -2.08385, -2.16584, -0.129887, 0.469411, -0.542508, 0.336263, -2.08429, -2.16616, -0.129184, -0.000124165, 0.000466826, 3.16113e-05, -0.00258016, -0.00260764, -0.00415028
0.0203096, 1.69139, -1.22535, -1.53768, -0.899905, -1.19193, 1.22841, -1.30254, -0.000795585, -0.00150061, -0.00923488, 0.00230115, -8.91499e-05, 3.20341e-05, 0.00093814, -0.468376, 57.0032, 27.2306, 6.35895, 2.11139, 3.26724, -0.317616, 0.000983728, -0.00157009, -0.000171268, -8.98299e-06, -0.000695501, 7.24698e-05, 0.00367075, 0.00243675, -0.0037385, -0.0069959, -0.000422671, -0.00779505, 0.471008, -0.543388, 0.335894, -2.08385, -2.16584, -0.129887, 0.469411, -0.542508, 0.336263, -2.08429, -2.16616, -0.129184, -0.000142864, 0.000540525, 3.74658e-05, -0.00258016, -0.00260764, -0.00415028
0.0213105, 1.69139, -1.22535, -1.53768, -0.899905, -1.19193, 1.22841, -1.30254, -0.000795585, -0.00150061, -0.00923488, 0.00230115, -8.91499e-05, 3.20341e-05, 0.00093814, -0.468376, 57.0032, 27.2306, 6.35895, 2.11139, 3.26724, -0.317616, 0.000983391, -0.00157002, -0.000171297, -9.06581e-06, -0.000695822, 7.26198e-05, 0.00375013, 0.00241988, -0.00373188, -0.00699501, -0.000334663, -0.00773915, 0.471008, -0.543388, 0.335894, -2.08384, -2.16584, -0.129888, 0.469411, -0.542508, 0.336263, -2.08429, -2.16616, -0.129184, -0.000162789, 0.000619218, 4.37565e-05, -0.00258016, -0.00260764, -0.00415028
0.0223108, 1.69139, -1.22535, -1.53768, -0.899905, -1.19193, 1.22841, -1.30254, -0.000795585, -0.00150061, -0.00923488, 0.00230115, -8.91499e-05, 3.20341e-05, 0.00093814, -0.468376, 57.0032, 27.2306, 6.35895, 2.11139, 3.26724, -0.317616, 0.000982979, -0.00156993, -0.000171333, -9.16698e-06, -0.000696214, 7.28026e-05, 0.00383468, 0.00240195, -0.00372487, -0.00699397, -0.000240984, -0.0076797, 0.471008, -0.543388, 0.335894, -2.08384, -2.16584, -0.129888, 0.469411, -0.542508, 0.336263, -2.08429, -2.16616, -0.129184, -0.000183971, 0.000703042, 5.04979e-05, -0.00258016, -0.00260764, -0.00415028
0.023311, 1.69139, -1.22535, -1.53768, -0.899905, -1.19193, 1.22841, -1.30254, -0.000795585, -0.00150061, -0.00923488, 0.00230115, -8.91499e-05, 3.20341e-05, 0.00093814, -0.468376, 57.0032, 27.2306, 6.35895, 2.11139, 3.26724, -0.317616, 0.000982486, -0.00156982, -0.000171375, -9.28835e-06, -0.000696683, 7.30212e-05, 0.00392456, 0.00238294, -0.00371746, -0.00699278, -0.000141491, -0.00761661, 0.471008, -0.543387, 0.335894, -2.08384, -2.16584, -0.129888, 0.469411, -0.542508, 0.336263, -2.08429, -2.16616, -0.129184, -0.000206438, 0.000792126, 5.77046e-05, -0.00258016, -0.00260764, -0.00415028
0.024311, 1.69137, -1.22536, -1.53777, -0.899937, -1.19193, 1.22842, -1.30254, -0.000188186, -0.00529799, -0.0106353, -0.000116284, 0.000199504, -0.000305003, 0.00156708, -0.694511, 57.1896, 27.3417, 6.54541, 2.09308, 3.25259, -0.317616, 0.000965531, -0.00158408, -0.000126391, 8.36677e-05, -0.000692868, 9.51239e-05, 0.0035962, 0.00168837, -0.00683258, -0.00993465, -0.00390058, -0.00597558, 0.471007, -0.543387, 0.335894, -2.08384, -2.16584, -0.129889, 0.469395, -0.542518, 0.336216, -2.08426, -2.16609, -0.129083, -0.000230219, 0.000886601, 6.53909e-05, -0.00203444, -0.0016811, -0.00718851
0.025311, 1.69137, -1.22536, -1.53777, -0.899937, -1.19193, 1.22842, -1.30254, -0.000188186, -0.00529799, -0.0106353, -0.000116284, 0.000199504, -0.000305003, 0.00156708, -0.694511, 57.1896, 27.3417, 6.54541, 2.09308, 3.25259, -0.317616, 0.000964854, -0.00158393, -0.000126449, 8.35005e-05, -0.000693512, 9.54236e-05, 0.00369708, 0.00166712, -0.00682436, -0.0099331, -0.00378905, -0.00590497, 0.471007, -0.543386, 0.335894, -2.08384, -2.16584, -0.129889, 0.469395, -0.542518, 0.336216, -2.08426, -2.16609, -0.129083, -0.000255341, 0.00098659, 7.35711e-05, -0.00203444, -0.0016811, -0.00718851
0.026311, 1.69137, -1.22537, -1.53778, -0.899939, -1.19193, 1.22842, -1.30255, -0.000170486, -0.00546654, -0.00980358, 0.000763578, 0.000573841, 6.78864e-05, -0.000176064, -0.694511, 57.261, 27.417, 6.5097, 2.08118, 3.24527, -0.284657, 0.000961921, -0.00158437, -0.000119552, 9.11469e-05, -0.000690352, 9.49001e-05, 0.00386379, 0.00157194, -0.00646588, -0.00830475, -0.0040923, -0.00431013, 0.471007, -0.543385, 0.335894, -2.08384, -2.16584, -0.12989, 0.469395, -0.542519, 0.336209, -2.08426, -2.16609, -0.129078, -0.00028183, 0.00109222, 8.22592e-05, -0.00194697, -0.00179133, -0.00685459
0.027311, 1.69138, -1.22538, -1.5378, -0.899943, -1.19193, 1.22842, -1.30255, -0.000123615, -0.00991746, -0.0120609, -0.0013732, 0.00024064, 0.000267482, -0.00370654, -0.694511, 57.0786, 27.306, 6.47003, 1.93927, 3.23886, -0.180287, 0.000957478, -0.001585, -0.000101356, 0.000112015, -0.000674766, 9.37348e-05, 0.00430454, 0.00136132, -0.0101514, -0.0116534, -0.00769593, 9.26611e-05, 0.471007, -0.543384, 0.335894, -2.08384, -2.16584, -0.129891, 0.469393, -0.54252, 0.336191, -2.08423, -2.16607, -0.129072, -0.000309711, 0.0012036, 9.14692e-05, -0.00188179, -0.00153917, -0.0105593
0.028311, 1.69138, -1.22538, -1.53781, -0.899941, -1.19193, 1.22842, -1.30255, 0.000826614, -0.00596695, -0.00809546, -0.000822233, -0.00222628, 0.00937796, -0.00443775, -0.734184, 56.7453, 27.1195, 6.32324, 1.86603, 3.24527, -0.127186, 0.000956454, -0.00158397, -0.000102503, 0.00011792, -0.000684999, 9.4803e-05, 0.00439545, -0.00108632, -0.00558828, -0.00097204, 0.00261911, 0.00237926, 0.471007, -0.543383, 0.335894, -2.08384, -2.16584, -0.129891, 0.469394, -0.54252, 0.336192, -2.08424, -2.16608, -0.129055, -0.000339009, 0.00132085, 0.000101215, 0.000701366, -0.0021139, -0.00613169
0.029311, 1.69138, -1.22539, -1.53782, -0.899948, -1.19194, 1.22842, -1.30255, -0.00122641, -0.00525477, -0.00825725, -0.00489802, -0.00523364, 0.00595331, -0.00414532, -0.658806, 56.7453, 27.0441, 6.35895, 1.823, 3.27456, -0.0951428, 0.000950751, -0.00158665, -9.27625e-05, 0.000137067, -0.000689382, 0.000102228, 0.00442823, 0.000135437, -0.00597659, -0.00705093, 0.00454271, 0.00261113, 0.471006, -0.543382, 0.335894, -2.08384, -2.16584, -0.129892, 0.469391, -0.542523, 0.336181, -2.08423, -2.16606, -0.12903, -0.000369746, 0.00144407, 0.00011151, -0.000562398, -0.00201325, -0.00647309
0.030311, 1.69138, -1.2254, -1.53783, -0.899951, -1.19195, 1.22843, -1.30255, 0.00129793, -0.00376835, -0.0092707, -0.00616203, -0.00750824, 0.00482994, -0.00276356, -0.619133, 56.9675, 27.0084, 6.32324, 1.77997, 3.26724, -0.0951428, 0.000944653, -0.00158713, -8.11799e-05, 0.000148276, -0.000688599, 0.000112258, 0.00346611, -0.000923695, -0.00585987, -0.0108378, 0.00772783, 0.00364053, 0.471006, -0.543381, 0.335894, -2.08384, -2.16584, -0.129893, 0.46939, -0.542526, 0.336169, -2.08424, -2.16605, -0.129018, -0.000401943, 0.00157338, 0.000122367, 0.000432977, -0.000908727, -0.00622958
0.031311, 1.69138, -1.22541, -1.53783, -0.899953, -1.19197, 1.22843, -1.30254, 0.00111179, -0.00617333, -0.0098977, -0.00386695, -0.0098388, 0.00393358, -0.000418236, -0.619133, 57.1143, 26.9687, 6.28357, 1.75525, 3.25992, -0.133595, 0.000939794, -0.00158634, -7.62385e-05, 0.000156619, -0.000700088, 0.000122155, 0.00509415, 0.000157784, -0.00723324, -0.0123255, 0.00677995, -0.0018449, 0.471006, -0.54338, 0.335895, -2.08384, -2.16584, -0.129894, 0.46939, -0.542528, 0.336164, -2.08425, -2.16604, -0.128997, -0.00043562, 0.00170887, 0.000133799, -0.000672141, -0.00221334, -0.00779435
0.032311, 1.69138, -1.22541, -1.53784, -0.899961, -1.19199, 1.22844, -1.30254, -0.00167238, -0.00375724, -0.00774395, -0.0040212, -0.0129026, 0.00481911, 0.000941869, -0.508049, 57.2253, 26.9687, 6.32324, 1.76807, 3.20956, -0.166554, 0.000932331, -0.00158887, -7.24464e-05, 0.000169015, -0.000720702, 0.000131129, 0.00644626, 0.00150447, -0.00483654, -0.0105377, 0.0120816, -0.00575275, 0.471005, -0.543378, 0.335895, -2.08383, -2.16584, -0.129895, 0.469388, -0.542534, 0.336159, -2.08426, -2.16604, -0.128963, -0.000470796, 0.00185063, 0.00014582, -0.00191739, -0.00383042, -0.00558504
0.033311, 1.69138, -1.22541, -1.53785, -0.899962, -1.19201, 1.22845, -1.30254, -0.00190428, -0.0049706, -0.00778498, -0.00521339, -0.00964932, 0.00478399, 0.000153187, -0.468376, 57.3364, 27.0441, 6.28357, 1.76166, 3.17386, -0.153737, 0.000924813, -0.00158994, -6.82002e-05, 0.000178082, -0.00073803, 0.000141034, 0.00582216, 0.000962526, -0.00570868, -0.00971882, 0.00845668, -0.0029523, 0.471005, -0.543376, 0.335895, -2.08383, -2.16584, -0.129896, 0.469386, -0.542539, 0.336154, -2.08427, -2.16603, -0.128935, -0.000507488, 0.00199877, 0.000158442, -0.00146664, -0.00290972, -0.00635307
0.034311, 1.69138, -1.22541, -1.53785, -0.899963, -1.19203, 1.22845, -1.30255, 8.62565e-05, -0.0022862, -0.00583432, -0.00318637, -0.0128703, 0.00337595, -0.00135594, -0.392998, 57.2968, 27.0441, 6.24786, 1.77997, 3.17386, -0.114369, 0.000918216, -0.00159144, -7.07667e-05, 0.000185973, -0.000766247, 0.000142791, 0.00552315, 0.000592822, -0.00337593, -0.00985456, 0.0129991, -0.00133227, 0.471004, -0.543375, 0.335895, -2.08383, -2.16584, -0.129898, 0.469385, -0.542544, 0.336155, -2.08428, -2.16604, -0.128899, -0.000545713, 0.00215336, 0.000171677, -0.00106212, -0.00280389, -0.00400117
0.035311, 1.69138, -1.22541, -1.53785, -0.899966, -1.19205, 1.22845, -1.30255, 0.00177165, -0.00237752, -0.00613604, -0.00253374, -0.013955, 0.000796898, -0.00188731, -0.317619, 57.3364, 27.1195, 6.24786, 1.76807, 3.21689, -0.0878186, 0.000912697, -0.00159212, -6.69809e-05, 0.00020294, -0.000784622, 0.00014427, 0.00514909, 0.000404693, -0.00374886, -0.0128192, 0.0127126, -0.000104335, 0.471004, -0.543373, 0.335895, -2.08383, -2.16584, -0.129899, 0.469384, -0.542547, 0.336151, -2.08428, -2.16605, -0.128863, -0.000585484, 0.00231447, 0.000185536, -0.000940842, -0.00220838, -0.00430317
0.036311, 1.69139, -1.2254, -1.53785, -0.899972, -1.19208, 1.22845, -1.30254, 0.00400083, 0.00106942, -0.00268989, -0.00199628, -0.0191471, -0.000177565, -3.75077e-05, -0.281914, 57.2253, 27.0441, 6.24786, 1.74335, 3.23886, -0.120778, 0.0009123, -0.00158789, -7.35421e-05, 0.000208168, -0.000815779, 0.000145283, 0.00436645, -0.000540424, -0.000618319, -0.0128692, 0.0198999, -0.000250024, 0.471003, -0.54337, 0.335895, -2.08383, -2.16584, -0.129901, 0.469387, -0.542546, 0.336157, -2.08429, -2.16606, -0.128827, -0.000626814, 0.0024822, 0.000200032, 4.67517e-05, -0.00171121, -0.00110452
0.037311, 1.6914, -1.22541, -1.53785, -0.899973, -1.19211, 1.22845, -1.30254, 0.00459992, 0.00446508, -0.00382833, -0.000633171, -0.0233182, -0.000819541, -2.50077e-05, -0.206535, 57.3364, 27.1195, 6.20819, 1.73053, 3.25992, -0.120778, 0.000905556, -0.00158687, -6.60346e-05, 0.000224243, -0.000831824, 0.000151229, 0.00535263, 0.00024068, 0.00108735, -0.0155206, 0.0265458, -0.0027511, 0.471003, -0.543368, 0.335896, -2.08382, -2.16584, -0.129903, 0.469388, -0.542549, 0.336149, -2.0843, -2.16606, -0.128794, -0.000669715, 0.00265659, 0.000215176, -0.000679392, -0.00280493, 0.000465292
0.038311, 1.69141, -1.22541, -1.53786, -0.899974, -1.19213, 1.22846, -1.30254, 0.00697696, 0.00269871, -0.00535455, 0.000240349, -0.0262023, -0.00126721, 0.000729312, -0.206535, 57.3721, 27.2306, 6.17248, 1.70581, 3.28097, -0.140919, 0.000902171, -0.00158254, -6.31405e-05, 0.000240655, -0.000856418, 0.00015629, 0.00575028, -0.000292681, -0.000519274, -0.0186802, 0.0272203, -0.00346984, 0.471002, -0.543365, 0.335896, -2.08382, -2.16584, -0.129904, 0.469392, -0.542549, 0.336146, -2.0843, -2.16606, -0.128752, -0.000714195, 0.00283772, 0.000230977, -0.000234975, -0.00274723, -0.00118312
0.039311, 1.69141, -1.22542, -1.53785, -0.899975, -1.19216, 1.22846, -1.30254, 0.00735769, 0.000453803, -0.00195936, 0.000865884, -0.0279528, -0.00107179, -0.00120921, -0.0161054, 57.4475, 27.1552, 6.13678, 1.66919, 3.2883, -0.0951428, 0.000896325, -0.00158104, -6.19922e-05, 0.000245818, -0.000876218, 0.000155616, 0.00582925, -0.000881088, -0.00053515, -0.0163023, 0.0264581, -0.000485078, 0.471001, -0.543363, 0.335896, -2.08382, -2.16584, -0.129906, 0.469392, -0.542552, 0.336144, -2.08431, -2.16607, -0.128728, -0.000760263, 0.00302564, 0.000247448, 0.000308861, -0.00261074, -0.00121234
0.040311, 1.69141, -1.22542, -1.53786, -0.899975, -1.19218, 1.22846, -1.30255, 0.00790864, -0.00105447, -0.00318416, 0.0014081, -0.024964, -0.00122385, 0.0030815, 0.170357, 57.5189, 27.2306, 6.09711, 1.64447, 3.30295, -0.0557752, 0.000887118, -0.0015822, -5.74064e-05, 0.000262039, -0.000900146, 0.000161942, 0.005734, -0.00123029, -0.00180753, -0.0160585, 0.0226968, -0.00413145, 0.471001, -0.54336, 0.335896, -2.08381, -2.16584, -0.129908, 0.469391, -0.542558, 0.336138, -2.08431, -2.16607, -0.128688, -0.000807924, 0.0032204, 0.000264596, 0.000560609, -0.00211179, -0.00244731
0.041311, 1.69142, -1.22543, -1.53786, -0.899983, -1.19222, 1.22847, -1.30254, 0.00527939, -0.00223115, -0.00220878, -6.21665e-05, -0.027468, 0.00375215, 0.00222854, 0.360787, 57.5943, 27.2306, 6.13678, 1.62067, 3.31027, -0.0484509, 0.000880963, -0.00157995, -5.34966e-05, 0.000278645, -0.000928256, 0.000165087, 0.00759107, -0.000945854, -0.00176432, -0.0124319, 0.0262451, -0.00479668, 0.471, -0.543357, 0.335896, -2.08381, -2.16584, -0.129911, 0.469392, -0.54256, 0.336134, -2.08432, -2.16607, -0.128643, -0.000857184, 0.00342203, 0.000282433, 0.000295277, -0.00376179, -0.00266653
0.042311, 1.69143, -1.22544, -1.53786, -0.899987, -1.19225, 1.22847, -1.30254, 0.00847016, -0.00708255, -0.00237224, -0.00321893, -0.0296462, 0.00187015, 0.00232843, 0.475838, 57.7054, 27.2663, 6.13678, 1.60785, 3.33865, -0.0621838, 0.000875361, -0.00157598, -4.60788e-05, 0.000298263, -0.000950239, 0.000164046, 0.00618203, -0.0029542, -0.00542645, -0.0176186, 0.0228806, 0.000434785, 0.470999, -0.543353, 0.335897, -2.08381, -2.16584, -0.129913, 0.469395, -0.542561, 0.336126, -2.08432, -2.16608, -0.128601, -0.000908043, 0.00363059, 0.000300968, 0.00206755, -0.0015162, -0.00610588
0.043311, 1.69143, -1.22545, -1.53786, -0.899982, -1.19229, 1.22848, -1.30254, 0.00734604, -0.00828756, -0.000794658, 0.000244076, -0.0320487, 0.00569769, 0.00302357, 0.737679, 57.8522, 27.2306, 6.02173, 1.62067, 3.3533, -0.0951428, 0.000863259, -0.00157687, -4.26104e-05, 0.000304827, -0.000976684, 0.000183582, 0.00858445, -0.00232237, -0.00468104, -0.012303, 0.0253363, -0.00427572, 0.470998, -0.54335, 0.335897, -2.0838, -2.16584, -0.129916, 0.469394, -0.542569, 0.336121, -2.08434, -2.16607, -0.128568, -0.000960503, 0.00384608, 0.000320207, 0.00149694, -0.00381304, -0.00570451
0.044311, 1.69144, -1.22545, -1.53786, -0.899975, -1.19232, 1.22848, -1.30254, 0.009356, -0.00562418, -0.00232929, 0.00337047, -0.0334934, 0.00337336, 0.00220365, 0.888436, 57.8522, 27.306, 5.87494, 1.62067, 3.38168, -0.0951428, 0.000853851, -0.00157581, -4.10137e-05, 0.000321927, -0.00100998, 0.000195815, 0.00895338, -0.00189121, -0.00352049, -0.0149314, 0.0281533, -0.00532568, 0.470997, -0.543346, 0.335897, -2.0838, -2.16584, -0.129919, 0.469394, -0.542574, 0.336118, -2.08436, -2.16607, -0.128516, -0.00101456, 0.00406854, 0.000340161, 0.00106738, -0.00415109, -0.00458292
0.045311, 1.69146, -1.22546, -1.53786, -0.899976, -1.19236, 1.22849, -1.30253, 0.0117693, -0.00642226, -0.00158008, -9.7632e-05, -0.0349674, 0.00244719, 0.00133878, 1.00349, 57.9633, 27.306, 5.83527, 1.63257, 3.38901, -0.0878186, 0.000847234, -0.00156938, -3.58992e-05, 0.000334067, -0.0010394, 0.000197802, 0.00720108, -0.00387773, -0.00439631, -0.0178506, 0.0286909, 0.000994799, 0.470996, -0.543342, 0.335898, -2.08379, -2.16583, -0.129921, 0.4694, -0.542575, 0.336112, -2.08437, -2.16608, -0.128476, -0.00107022, 0.00429798, 0.000360835, 0.00290138, -0.00197556, -0.00521492
0.046311, 1.69147, -1.22546, -1.53786, -0.899974, -1.19241, 1.22849, -1.30254, 0.0107097, -0.00517249, -0.00107379, 0.00121967, -0.0407473, 0.00663841, 0.00494201, 1.22962, 57.999, 27.306, 5.76385, 1.64447, 3.38901, -0.0484509, 0.00083719, -0.00156766, -3.61221e-05, 0.000347638, -0.00108014, 0.000200311, 0.00965553, -0.00321877, -0.00285623, -0.0155511, 0.0368214, -0.0063614, 0.470995, -0.543338, 0.335898, -2.08379, -2.16583, -0.129925, 0.469401, -0.542581, 0.336111, -2.08438, -2.16609, -0.128422, -0.00112746, 0.0045344, 0.000382238, 0.00232946, -0.00442631, -0.00403402
0.047311, 1.69148, -1.22546, -1.53787, -0.899974, -1.19245, 1.2285, -1.30254, 0.00956641, -0.00172691, -0.00240161, 0.00145187, -0.0453503, 0.00951075, 0.00358675, 1.34071, 57.9236, 27.3774, 5.72418, 1.66369, 3.39633, -0.0420422, 0.000829994, -0.0015618, -3.70895e-05, 0.000369155, -0.00113147, 0.000201709, 0.0116355, -0.00228587, -0.000938808, -0.015775, 0.0457428, -0.00841489, 0.470994, -0.543333, 0.335898, -2.08379, -2.16583, -0.129928, 0.469406, -0.542583, 0.336111, -2.08439, -2.16611, -0.128349, -0.00118629, 0.0047778, 0.000404375, 0.00147902, -0.00647095, -0.0023979
0.048311, 1.69151, -1.22546, -1.53787, -0.899973, -1.19249, 1.22851, -1.30254, 0.0126445, -0.00294588, -0.00254057, 0.00158619, -0.0491282, 0.00671292, 0.00255089, 1.41608, 57.999, 27.417, 5.68848, 1.69391, 3.41006, -0.0356336, 0.000824137, -0.0015526, -3.29386e-05, 0.000387555, -0.00117071, 0.000201381, 0.0111636, -0.00309431, -0.00207405, -0.0205922, 0.0466045, -0.00560065, 0.470993, -0.543328, 0.335899, -2.08378, -2.16583, -0.129931, 0.469414, -0.542583, 0.336106, -2.08439, -2.16613, -0.128293, -0.00124669, 0.00502817, 0.000427252, 0.00216816, -0.00554686, -0.00344714
0.049311, 1.69152, -1.22546, -1.53787, -0.899968, -1.19254, 1.22852, -1.30254, 0.0120636, -0.00282267, -0.00170232, 0.00265799, -0.0462013, 0.00459353, 0.00176104, 1.60651, 58.0347, 27.417, 5.6131, 1.69391, 3.42471, -0.0292249, 0.00081498, -0.00154673, -3.30569e-05, 0.000400827, -0.00121644, 0.000206599, 0.0110128, -0.00266794, -0.00169364, -0.0197192, 0.0433992, -0.00476311, 0.470992, -0.543323, 0.335899, -2.08377, -2.16583, -0.129935, 0.469419, -0.542587, 0.336105, -2.08441, -2.16614, -0.128235, -0.00130866, 0.00528549, 0.000450875, 0.00168874, -0.00521662, -0.00301168
0.050311, 1.69154, -1.22546, -1.53787, -0.89996, -1.19259, 1.22852, -1.30253, 0.0148758, -0.00189942, -0.00281178, 0.00424841, -0.0438504, 0.00666493, 0.0030928, 1.79694, 58.0347, 27.4885, 5.50201, 1.69391, 3.46774, -0.0750012, 0.000802186, -0.00154526, -3.19319e-05, 0.000421929, -0.00126332, 0.000226609, 0.0103957, -0.0043757, -0.00127085, -0.0173837, 0.0437262, -0.0042889, 0.47099, -0.543318, 0.3359, -2.08377, -2.16583, -0.129939, 0.469419, -0.542594, 0.336102, -2.08444, -2.16614, -0.128165, -0.00137217, 0.00554973, 0.000475247, 0.00332398, -0.00433829, -0.00252556
0.051311, 1.69155, -1.22546, -1.53788, -0.89996, -1.19264, 1.22853, -1.30253, 0.0172167, -0.000444297, -0.00187936, 0.00274075, -0.0468904, 0.00493543, 0.00222939, 1.98341, 57.999, 27.4885, 5.50201, 1.69391, 3.47507, -0.0750012, 0.000793849, -0.00153824, -3.22647e-05, 0.0004383, -0.00131314, 0.000231456, 0.00927179, -0.00555939, -0.000550178, -0.0204343, 0.0472521, -0.000207435, 0.470989, -0.543313, 0.3359, -2.08376, -2.16583, -0.129943, 0.469425, -0.542597, 0.336102, -2.08446, -2.16615, -0.1281, -0.00143722, 0.00582086, 0.000500373, 0.00442692, -0.00302012, -0.00165007
0.052311, 1.69158, -1.22547, -1.53788, -0.899958, -1.19269, 1.22854, -1.30253, 0.0167497, -0.00290458, -0.00218456, 0.00175853, -0.0487351, 0.00386285, 0.000628552, 2.13416, 58.11, 27.5281, 5.50201, 1.68201, 3.47507, -0.0484509, 0.000783973, -0.00152947, -2.70145e-05, 0.000454325, -0.00135792, 0.000231427, 0.0100209, -0.00515993, -0.00228855, -0.0230821, 0.0461785, 0.00125787, 0.470987, -0.543307, 0.335901, -2.08376, -2.16583, -0.129947, 0.469433, -0.5426, 0.336095, -2.08446, -2.16617, -0.128041, -0.00150377, 0.00609884, 0.000526256, 0.00392547, -0.00323033, -0.00344501
0.053311, 1.69159, -1.22547, -1.53788, -0.899955, -1.19274, 1.22855, -1.30253, 0.0153902, -0.00194383, -0.0014591, 0.00204889, -0.0461709, 0.00742667, 0.000513263, 2.32459, 58.11, 27.5281, 5.46234, 1.6875, 3.48239, -0.0484509, 0.000771846, -0.0015244, -2.78339e-05, 0.000471251, -0.00141446, 0.00024029, 0.0106181, -0.00543995, -0.00102173, -0.0177158, 0.0469972, 0.0011665, 0.470986, -0.543301, 0.335901, -2.08375, -2.16583, -0.129951, 0.469437, -0.542605, 0.336094, -2.08449, -2.16618, -0.127968, -0.00157182, 0.00638361, 0.000552899, 0.00420422, -0.00371866, -0.00226873
0.054311, 1.69161, -1.22547, -1.53788, -0.899945, -1.19279, 1.22856, -1.30254, 0.0134504, -0.00213669, -0.00180999, 0.00392577, -0.0428837, 0.00620682, -0.00101131, 2.55073, 58.1458, 27.5638, 5.35126, 1.65729, 3.46774, -0.00999879, 0.000757271, -0.00152069, -2.7549e-05, 0.000482872, -0.00146457, 0.00025069, 0.0116442, -0.00407927, -0.000984208, -0.0163644, 0.0436274, 0.000268343, 0.470984, -0.543294, 0.335902, -2.08374, -2.16583, -0.129956, 0.46944, -0.542613, 0.336092, -2.08451, -2.1662, -0.127908, -0.00164135, 0.0066751, 0.000580303, 0.00281389, -0.00450167, -0.00232266
0.055311, 1.69163, -1.22548, -1.53788, -0.899942, -1.19284, 1.22857, -1.30253, 0.0168127, -0.00142865, -0.000372977, 0.00258822, -0.05016, 0.00844741, 0.000565594, 2.58643, 58.1458, 27.5281, 5.35126, 1.63898, 3.49612, -0.0420422, 0.000750005, -0.00150937, -2.76326e-05, 0.000496825, -0.00151565, 0.000250847, 0.0113617, -0.00615429, -0.000201021, -0.0176304, 0.0518538, 0.00162328, 0.470983, -0.543288, 0.335902, -2.08374, -2.16583, -0.12996, 0.469449, -0.542613, 0.336092, -2.08452, -2.16622, -0.127846, -0.00171231, 0.00697325, 0.000608468, 0.00483347, -0.00396019, -0.00153994
0.056311, 1.69165, -1.22548, -1.53788, -0.899935, -1.1929, 1.22858, -1.30253, 0.0193069, -0.000955571, -0.0002498, 0.003467, -0.0570423, 0.00562111, 0.0011628, 2.73719, 58.1458, 27.5281, 5.27588, 1.65088, 3.5181, -0.0621838, 0.000736719, -0.00150431, -2.84141e-05, 0.000514386, -0.00157258, 0.000263284, 0.0118199, -0.00613902, -0.000113702, -0.0230967, 0.0568876, 0.000664769, 0.470981, -0.543281, 0.335903, -2.08373, -2.16582, -0.129965, 0.469453, -0.542619, 0.336091, -2.08455, -2.16623, -0.127772, -0.00178469, 0.00727797, 0.000637396, 0.00476543, -0.00412194, -0.00149558
0.057311, 1.69165, -1.22548, -1.53788, -0.899935, -1.1929, 1.22858, -1.30253, 0.0193069, -0.000955571, -0.0002498, 0.003467, -0.0570423, 0.00562111, 0.0011628, 2.73719, 58.1458, 27.5281, 5.27588, 1.65088, 3.5181, -0.0621838, 0.000729378, -0.0015028, -2.89628e-05, 0.00051248, -0.00157948, 0.000266407, 0.0121344, -0.00620081, -9.23265e-05, -0.0230827, 0.0572281, 0.000875048, 0.470979, -0.543273, 0.335904, -2.08372, -2.16582, -0.129971, 0.469453, -0.542619, 0.336091, -2.08455, -2.16623, -0.127772, -0.00185846, 0.00758918, 0.000667086, 0.00476543, -0.00412194, -0.00149558
0.058311, 1.69169, -1.22549, -1.53788, -0.899923, -1.19303, 1.2286, -1.30253, 0.0208415, -0.00579952, 0.000815776, 0.00408533, -0.061051, 0.00708043, 0.000491221, 2.89191, 58.2568, 27.4885, 5.12909, 1.63257, 3.5538, -0.0557752, 0.00071062, -0.00148956, -2.66924e-05, 0.000550868, -0.0016886, 0.000278381, 0.0131423, -0.00707744, -0.00240157, -0.0230815, 0.0566771, 0.00198987, 0.470977, -0.543266, 0.335904, -2.08371, -2.16582, -0.129976, 0.469465, -0.542629, 0.336086, -2.08459, -2.16626, -0.127623, -0.00193359, 0.00790677, 0.000697537, 0.00551848, -0.00440763, -0.00392835
0.059311, 1.69171, -1.22548, -1.53788, -0.899917, -1.19308, 1.22861, -1.30253, 0.0166563, -0.00319394, -0.00121987, 0.00447763, -0.0598264, 0.00572217, -0.00111381, 3.003, 58.2172, 27.5638, 5.05371, 1.62616, 3.54648, -0.0164075, 0.000693842, -0.00148584, -2.61876e-05, 0.00057207, -0.00175135, 0.000288959, 0.0152364, -0.00418956, -0.00141489, -0.0244058, 0.0579224, -0.0012789, 0.470975, -0.543258, 0.335905, -2.0837, -2.16582, -0.129982, 0.469468, -0.542638, 0.336083, -2.08461, -2.16628, -0.12754, -0.00201003, 0.00823062, 0.000728745, 0.00266857, -0.00642136, -0.00316117
0.060311, 1.69174, -1.22548, -1.53788, -0.899909, -1.19315, 1.22862, -1.30254, 0.0223, -0.000650563, -0.000813612, 0.00474145, -0.0641555, 0.00382021, -0.00147595, 3.003, 58.1458, 27.5638, 4.97833, 1.63898, 3.56112, 0.00373412, 0.000680741, -0.00147787, -2.96263e-05, 0.00059379, -0.00182187, 0.000294463, 0.0134734, -0.0065523, -0.000180627, -0.028236, 0.0635438, 0.0033435, 0.470973, -0.54325, 0.335906, -2.08369, -2.16582, -0.129988, 0.469474, -0.542643, 0.336085, -2.08463, -2.1663, -0.12745, -0.00208776, 0.00856062, 0.000760709, 0.00493204, -0.00444421, -0.00170803
0.061311, 1.69175, -1.22549, -1.53788, -0.899909, -1.19322, 1.22863, -1.30253, 0.0206778, -0.00541839, 0.000292537, 0.00139258, -0.0625295, 0.00350032, -0.000228547, 3.11805, 58.2172, 27.5281, 5.05371, 1.65729, 3.54648, -0.0164075, 0.000664339, -0.00147167, -2.9233e-05, 0.000609702, -0.00188801, 0.000308893, 0.0134104, -0.00686246, -0.0029741, -0.0285123, 0.0578465, 0.00481363, 0.470971, -0.543241, 0.335906, -2.08369, -2.16582, -0.129994, 0.469479, -0.54265, 0.336083, -2.08466, -2.16632, -0.12737, -0.00216672, 0.00889664, 0.000793423, 0.00505967, -0.00360293, -0.00443329
0.062311, 1.69178, -1.22548, -1.53788, -0.899905, -1.19329, 1.22865, -1.30253, 0.0263202, -0.00314908, 0.00112284, 0.00404487, -0.0654573, 0.00342167, 0.00104151, 3.07838, 58.1815, 27.4885, 5.05371, 1.65088, 3.52542, -0.0484509, 0.000651598, -0.00146127, -3.21366e-05, 0.000627604, -0.00195988, 0.000317059, 0.0122177, -0.00926347, -0.0012584, -0.0286179, 0.0627234, 0.00640047, 0.470969, -0.543232, 0.335907, -2.08368, -2.16582, -0.13, 0.469488, -0.542654, 0.336084, -2.08469, -2.16634, -0.127283, -0.0022469, 0.00923859, 0.000826888, 0.00739671, -0.00224937, -0.00259299
0.063311, 1.6918, -1.22549, -1.53788, -0.899899, -1.19335, 1.22866, -1.30252, 0.0262466, -0.00237842, -0.000179613, 0.00388173, -0.0679436, 0.0081348, 0.00144563, 3.07838, 58.1815, 27.5281, 5.01404, 1.65088, 3.50345, -0.0685925, 0.000634625, -0.00145339, -3.14581e-05, 0.000646368, -0.00202944, 0.000330846, 0.0137334, -0.00966585, -0.000845806, -0.0267995, 0.0683347, 0.00482944, 0.470967, -0.543223, 0.335908, -2.08367, -2.16581, -0.130006, 0.469494, -0.542661, 0.336082, -2.08472, -2.16635, -0.127196, -0.00232828, 0.00958644, 0.000861108, 0.00778644, -0.0034448, -0.0023991
0.064311, 1.69182, -1.22549, -1.53788, -0.899891, -1.19342, 1.22868, -1.30253, 0.0251965, -0.00179488, -0.00188309, 0.00676279, -0.0694106, 0.0109197, -1.56121e-05, 3.11805, 58.1815, 27.6035, 4.97833, 1.63898, 3.49612, -0.0420422, 0.000616012, -0.00144746, -3.19579e-05, 0.000663851, -0.00209905, 0.000343277, 0.0162901, -0.00853558, -0.000381118, -0.0249521, 0.0717033, 0.00164911, 0.470965, -0.543213, 0.335909, -2.08366, -2.16581, -0.130013, 0.469498, -0.54267, 0.33608, -2.08475, -2.16637, -0.127112, -0.00241084, 0.00994017, 0.000896084, 0.00668351, -0.00573297, -0.00226856
0.065311, 1.69184, -1.22549, -1.53788, -0.89989, -1.19349, 1.22869, -1.30253, 0.0214543, -0.00354158, -0.000327463, 0.00408019, -0.0701736, 0.0125311, -7.42322e-06, 3.15376, 58.1458, 27.5638, 5.01404, 1.62067, 3.50345, -0.0420422, 0.000599796, -0.00143959, -3.36165e-05, 0.000682622, -0.00217154, 0.000351385, 0.017681, -0.00761907, -0.000864448, -0.0233706, 0.0717989, 0.00105922, 0.470962, -0.543204, 0.33591, -2.08365, -2.16581, -0.13002, 0.469504, -0.542676, 0.33608, -2.08477, -2.1664, -0.127024, -0.00249458, 0.0102997, 0.000931821, 0.00571688, -0.00670954, -0.00289869
0.066311, 1.69186, -1.22548, -1.53788, -0.899894, -1.19356, 1.22871, -1.30253, 0.0235569, -0.00189549, 0.000616845, 0.000334024, -0.0698781, 0.00963102, -0.00193549, 3.11805, 58.11, 27.5281, 5.12909, 1.57764, 3.49612, 0.0101428, 0.000585982, -0.00142796, -3.47822e-05, 0.000706615, -0.0022514, 0.000345837, 0.0152924, -0.00934649, -0.000424903, -0.0268762, 0.0724948, 0.00910816, 0.47096, -0.543193, 0.335911, -2.08363, -2.16581, -0.130028, 0.469514, -0.542679, 0.336079, -2.08479, -2.16644, -0.126924, -0.00257947, 0.0106651, 0.000968322, 0.00728753, -0.00398298, -0.00210934
0.067311, 1.69189, -1.22548, -1.53789, -0.899888, -1.19363, 1.22872, -1.30253, 0.0239242, -0.0015409, -0.000424037, 0.00137957, -0.069859, 0.0110655, -6.79447e-05, 3.11805, 58.11, 27.5638, 5.08942, 1.53461, 3.5181, -0.0228162, 0.00056733, -0.00142026, -3.52484e-05, 0.000726317, -0.00232568, 0.000362134, 0.0161427, -0.0094659, -0.000308441, -0.0260359, 0.0739327, 0.00643653, 0.470957, -0.543183, 0.335912, -2.08362, -2.16581, -0.130035, 0.46952, -0.542686, 0.336077, -2.08482, -2.16645, -0.126832, -0.00266552, 0.0110363, 0.00100559, 0.00735549, -0.0044642, -0.00209299
0.068311, 1.69191, -1.22549, -1.53788, -0.899888, -1.1937, 1.22874, -1.30253, 0.0257583, -0.00207042, 0.00148051, 0.00251113, -0.0696481, 0.0122453, 0.000905399, 3.04267, 58.1458, 27.4885, 5.16479, 1.48517, 3.53274, -0.0484509, 0.000553253, -0.00140734, -3.61089e-05, 0.000745619, -0.00240107, 0.000364629, 0.0157785, -0.010899, 0.000244235, -0.0230124, 0.0740583, 0.00753304, 0.470954, -0.543172, 0.335913, -2.08361, -2.1658, -0.130043, 0.46953, -0.542689, 0.336077, -2.08484, -2.16648, -0.126742, -0.00275269, 0.0114132, 0.00104363, 0.0087065, -0.00375404, -0.00149606
0.069311, 1.69193, -1.22548, -1.53788, -0.899887, -1.19378, 1.22875, -1.30253, 0.021488, 0.00273267, 0.0018222, 0.00206807, -0.0707635, 0.0140259, -0.00132824, 3.07838, 57.9633, 27.4528, 5.16479, 1.46686, 3.53274, 0.00373412, 0.000534466, -0.00140018, -4.45741e-05, 0.000765533, -0.00249439, 0.000370972, 0.0178056, -0.0088476, 0.00353355, -0.0208134, 0.0809391, 0.00589831, 0.470952, -0.54316, 0.335914, -2.0836, -2.1658, -0.130051, 0.469536, -0.542697, 0.336083, -2.08487, -2.16652, -0.126633, -0.00284098, 0.0117958, 0.00108244, 0.0067612, -0.0059636, 0.00153724
0.070311, 1.69196, -1.22548, -1.53788, -0.899886, -1.19386, 1.22877, -1.30253, 0.0263058, 3.43812e-05, 0.00121478, 0.00083899, -0.0714677, 0.0197294, 0.00131926, 3.04267, 58.0347, 27.4528, 5.2005, 1.44855, 3.53915, -0.0557752, 0.000516425, -0.00138925, -4.35463e-05, 0.000787084, -0.00257325, 0.000383557, 0.0168108, -0.0128074, 0.00183691, -0.0182399, 0.0823669, 0.00886909, 0.470949, -0.543148, 0.335915, -2.08359, -2.1658, -0.130059, 0.469544, -0.542702, 0.33608, -2.0849, -2.16654, -0.126536, -0.00293038, 0.0121842, 0.00112203, 0.0105296, -0.00416918, -6.35123e-05
0.071311, 1.69198, -1.22548, -1.53788, -0.899883, -1.19394, 1.22879, -1.30252, 0.0237466, -0.000900018, 0.00164505, 0.000780945, -0.078091, 0.0243739, 0.0011174, 3.003, 58.0704, 27.417, 5.2005, 1.46686, 3.53915, -0.0621838, 0.00049624, -0.00137873, -4.36419e-05, 0.000806509, -0.00265763, 0.000396921, 0.0201209, -0.0116556, 0.00200632, -0.016596, 0.0894834, 0.00486246, 0.470946, -0.543136, 0.335916, -2.08357, -2.1658, -0.130068, 0.469553, -0.54271, 0.336078, -2.08493, -2.16656, -0.126436, -0.00302087, 0.0125781, 0.0011624, 0.00941359, -0.00711618, -0.000335836
0.072311, 1.69201, -1.22548, -1.53788, -0.899883, -1.19402, 1.22881, -1.30252, 0.0264575, 0.000169416, 0.000261474, 0.00287548, -0.0820443, 0.0283303, -0.000238012, 2.89191, 58.0347, 27.4528, 5.24017, 1.46045, 3.52542, -0.0356336, 0.000478467, -0.0013651, -4.51064e-05, 0.000829199, -0.00274845, 0.000399043, 0.0213211, -0.0128008, 0.00266955, -0.0155148, 0.0961635, 0.00532039, 0.470943, -0.543124, 0.335917, -2.08356, -2.16579, -0.130077, 0.469564, -0.542714, 0.336077, -2.08496, -2.1666, -0.126327, -0.00311245, 0.0129778, 0.00120355, 0.0105329, -0.00795659, 0.000138768
0.073311, 1.69204, -1.22548, -1.53788, -0.899877, -1.1941, 1.22882, -1.30252, 0.0236397, 6.36009e-05, 0.00100952, 0.00717391, -0.0845705, 0.0263267, -0.000395735, 2.85224, 58.0347, 27.417, 5.16479, 1.44855, 3.5181, -0.0292249, 0.000458304, -0.00135408, -4.65103e-05, 0.0008476, -0.00283233, 0.000408386, 0.0244015, -0.00981714, 0.00346887, -0.0152834, 0.0970587, -0.0012886, 0.47094, -0.543111, 0.335918, -2.08355, -2.16579, -0.130086, 0.469573, -0.542721, 0.336076, -2.08499, -2.16663, -0.12623, -0.00320508, 0.013383, 0.00124549, 0.00759999, -0.0108379, 0.000580826
0.074311, 1.69207, -1.22548, -1.53787, -0.899882, -1.19418, 1.22884, -1.30253, 0.0276951, 0.00260385, 0.00160103, 0.00356676, -0.0825144, 0.0240963, -0.000975676, 2.81654, 57.9236, 27.3774, 5.24017, 1.45404, 3.52542, -0.00999879, 0.000441472, -0.00133984, -5.22692e-05, 0.000867982, -0.00293035, 0.000406549, 0.020942, -0.0128597, 0.00428478, -0.0178455, 0.0976533, 0.0076517, 0.470937, -0.543097, 0.33592, -2.08353, -2.16579, -0.130095, 0.469585, -0.542724, 0.33608, -2.08501, -2.16668, -0.126117, -0.00329877, 0.0137938, 0.00128822, 0.0104504, -0.00701271, 0.00187484
0.075311, 1.6921, -1.22548, -1.53788, -0.899882, -1.19426, 1.22886, -1.30253, 0.0307755, 0.00170814, 0.000139329, 0.00195317, -0.0849026, 0.0175622, 6.17942e-05, 2.77686, 57.9236, 27.417, 5.27588, 1.44214, 3.53915, -0.0292249, 0.000420509, -0.00132804, -5.0263e-05, 0.000896156, -0.00301955, 0.000413431, 0.0197015, -0.0133236, 0.00230654, -0.0271995, 0.0962695, 0.00984465, 0.470933, -0.543083, 0.335921, -2.08352, -2.16579, -0.130105, 0.469594, -0.542731, 0.336076, -2.08503, -2.1667, -0.126004, -0.00339351, 0.0142102, 0.00133174, 0.0107031, -0.00504764, 0.000143631
0.076311, 1.69213, -1.22548, -1.53787, -0.899881, -1.19435, 1.22888, -1.30252, 0.0317243, -0.000261894, 0.00185612, 0.00161002, -0.0871926, 0.0179083, 0.00149938, 2.66181, 57.8522, 27.3417, 5.27588, 1.44214, 3.53915, -0.0685925, 0.000402716, -0.00131125, -5.44797e-05, 0.00091326, -0.00311709, 0.000419966, 0.019924, -0.0141557, 0.00171818, -0.0269051, 0.0967583, 0.0100149, 0.47093, -0.543069, 0.335922, -2.0835, -2.16578, -0.130115, 0.469608, -0.542734, 0.336078, -2.08506, -2.16674, -0.125896, -0.00348927, 0.0146321, 0.00137605, 0.0114251, -0.0047204, -0.000453013
0.077311, 1.69215, -1.22548, -1.53787, -0.899879, -1.19443, 1.22891, -1.30252, 0.0288938, -0.00450897, 0.00123741, 0.00130428, -0.0836445, 0.0229516, 0.000524966, 2.70148, 57.8879, 27.3417, 5.27588, 1.42383, 3.53915, -0.0557752, 0.000378848, -0.00129998, -5.45197e-05, 0.000931164, -0.0032085, 0.00043107, 0.0218793, -0.0140068, -0.000420768, -0.0214487, 0.0925574, 0.00971951, 0.470926, -0.543055, 0.335924, -2.08349, -2.16578, -0.130125, 0.469616, -0.542742, 0.336076, -2.0851, -2.16677, -0.125792, -0.00358604, 0.0150594, 0.00142116, 0.0111725, -0.00589933, -0.00281972
0.078311, 1.69219, -1.22548, -1.53787, -0.899878, -1.19452, 1.22893, -1.30252, 0.0284233, -0.000878988, 0.00166016, 0.00104272, -0.0819525, 0.0214189, 7.8781e-05, 2.66181, 57.7768, 27.306, 5.27588, 1.43573, 3.54648, -0.0484509, 0.000358544, -0.00128497, -6.00606e-05, 0.0009497, -0.00331174, 0.000434972, 0.0215188, -0.013801, 0.00174106, -0.021339, 0.0944788, 0.0109177, 0.470923, -0.543039, 0.335925, -2.08347, -2.16578, -0.130135, 0.469629, -0.542748, 0.336079, -2.08513, -2.16682, -0.125677, -0.00368381, 0.0154923, 0.00146708, 0.0109347, -0.00545239, -0.000577353
0.079311, 1.69221, -1.22548, -1.53787, -0.899875, -1.1946, 1.22895, -1.30253, 0.0304979, -0.00312881, 0.000271551, 0.00166026, -0.0890424, 0.0196999, -0.00113422, 2.66181, 57.7411, 27.3417, 5.24017, 1.43024, 3.57577, -0.0164075, 0.000336088, -0.00127298, -6.04596e-05, 0.000974115, -0.00340288, 0.00044099, 0.0229532, -0.0135932, -0.00021564, -0.0275313, 0.0977656, 0.0109153, 0.470919, -0.543024, 0.335926, -2.08345, -2.16578, -0.130146, 0.469638, -0.542754, 0.336077, -2.08515, -2.16685, -0.125567, -0.00378258, 0.0159305, 0.0015138, 0.0106091, -0.00613671, -0.00267981
0.080311, 1.69225, -1.22548, -1.53787, -0.89988, -1.19468, 1.22897, -1.30253, 0.030835, -0.00260311, 0.00194427, -0.000558971, -0.0851914, 0.0193538, -0.000756107, 2.58643, 57.7411, 27.2663, 5.31555, 1.41742, 3.58218, -0.0164075, 0.000320778, -0.00125204, -6.09726e-05, 0.000990232, -0.00349032, 0.000430762, 0.0213969, -0.0150169, 0.000353102, -0.0256046, 0.0955415, 0.0151899, 0.470915, -0.543008, 0.335928, -2.08344, -2.16577, -0.130157, 0.469656, -0.542752, 0.336076, -2.08516, -2.1669, -0.125473, -0.00388232, 0.0163742, 0.00156132, 0.0118961, -0.00418581, -0.00187203
0.081311, 1.69228, -1.22547, -1.53788, -0.89988, -1.19476, 1.22899, -1.30252, 0.0323911, 0.000475125, -0.000467058, -0.000299579, -0.0872415, 0.0238436, -0.000504042, 2.58643, 57.63, 27.3417, 5.31555, 1.41192, 3.58951, -0.0164075, 0.000298514, -0.00123769, -6.38446e-05, 0.00101541, -0.00359335, 0.000441187, 0.022317, -0.0160265, 0.00168698, -0.0245864, 0.103174, 0.0146457, 0.470911, -0.542992, 0.335929, -2.08342, -2.16577, -0.130169, 0.469667, -0.542758, 0.336076, -2.08519, -2.16694, -0.125351, -0.00398302, 0.0168232, 0.00160966, 0.0128851, -0.00480922, -0.00068069
0.082311, 1.69232, -1.22547, -1.53787, -0.899878, -1.19485, 1.22901, -1.30252, 0.0342959, 0.000861023, 0.00145187, -0.000144918, -0.0894021, 0.0215423, 0.000850789, 2.55073, 57.5943, 27.2663, 5.31555, 1.41742, 3.6188, -0.0484509, 0.000279525, -0.00122058, -6.87268e-05, 0.00103246, -0.00368827, 0.000442209, 0.0217275, -0.0168114, 0.00234031, -0.0260625, 0.1046, 0.0155186, 0.470907, -0.542975, 0.335931, -2.0834, -2.16577, -0.13018, 0.469681, -0.54276, 0.336079, -2.08522, -2.16698, -0.125247, -0.00408468, 0.0172776, 0.00165881, 0.01357, -0.00384125, 8.11302e-05
0.083311, 1.69235, -1.22547, -1.53787, -0.899882, -1.19493, 1.22903, -1.30252, 0.03875, 0.000355807, 0.00096791, -0.000890729, -0.0856488, 0.0155248, 0.00056721, 2.51106, 57.5943, 27.2663, 5.35126, 1.41192, 3.63986, -0.0484509, 0.000260564, -0.00120218, -6.70777e-05, 0.00106115, -0.00378142, 0.000437871, 0.018775, -0.0188101, 0.00102666, -0.0310141, 0.0987763, 0.0221772, 0.470903, -0.542958, 0.335933, -2.08338, -2.16576, -0.130192, 0.469696, -0.54276, 0.336076, -2.08523, -2.16702, -0.125133, -0.00418727, 0.0177373, 0.00170878, 0.01531, -0.000181981, -0.00076735
0.084311, 1.69239, -1.22548, -1.53787, -0.899883, -1.19501, 1.22905, -1.30252, 0.0383729, 7.35482e-05, 0.000645273, -0.000562994, -0.0831953, 0.0162274, -0.000571283, 2.51106, 57.5943, 27.2663, 5.35126, 1.41192, 3.64718, -0.0228162, 0.000239249, -0.00118443, -6.64982e-05, 0.00108221, -0.00387485, 0.000438459, 0.0191915, -0.0189644, 0.000899041, -0.0293185, 0.097313, 0.0236323, 0.470899, -0.54294, 0.335934, -2.08336, -2.16576, -0.130204, 0.46971, -0.542763, 0.336073, -2.08524, -2.16706, -0.125027, -0.00429078, 0.0182023, 0.00175956, 0.0153711, -0.000101867, -0.000912431
0.085311, 1.69243, -1.22547, -1.53788, -0.89988, -1.19509, 1.22907, -1.30252, 0.0387955, 0.00168953, -0.000497838, 0.000483008, -0.0863861, 0.0167373, -0.000380846, 2.47535, 57.5189, 27.306, 5.31555, 1.42383, 3.65451, -0.0228162, 0.000218757, -0.00116637, -6.93587e-05, 0.00110439, -0.00397256, 0.000440339, 0.0205574, -0.0185576, 0.0016422, -0.0307524, 0.102289, 0.0215989, 0.470895, -0.542922, 0.335936, -2.08334, -2.16576, -0.130217, 0.469725, -0.542764, 0.336074, -2.08527, -2.1671, -0.124915, -0.00439521, 0.0186725, 0.00181117, 0.0149365, -0.00111124, -0.000327758
0.086311, 1.69246, -1.22547, -1.53787, -0.899878, -1.19518, 1.22909, -1.30252, 0.0402194, 0.00186951, 0.000596127, 0.000339345, -0.0796684, 0.0226986, -0.000728608, 2.39997, 57.4832, 27.2663, 5.31555, 1.44855, 3.63986, -0.00999879, 0.000198049, -0.00114613, -7.33546e-05, 0.00111914, -0.00407343, 0.000437596, 0.0194064, -0.0215129, 0.0025873, -0.0217216, 0.10041, 0.026575, 0.47089, -0.542903, 0.335938, -2.08332, -2.16575, -0.13023, 0.469741, -0.542766, 0.336076, -2.08529, -2.16716, -0.12481, -0.00450054, 0.019148, 0.0018636, 0.0177756, 0.000476281, 0.0007472
0.087311, 1.6925, -1.22547, -1.53787, -0.899877, -1.19525, 1.22912, -1.30252, 0.0441192, 0.00294054, 0.000397418, 0.000239235, -0.0788662, 0.0219838, 0.00144705, 2.32459, 57.4078, 27.2663, 5.31555, 1.46045, 3.63254, -0.0621838, 0.000178981, -0.00112493, -7.50759e-05, 0.00113664, -0.00416625, 0.000438296, 0.0178363, -0.0237178, 0.00288995, -0.022654, 0.101125, 0.0288013, 0.470886, -0.542884, 0.33594, -2.0833, -2.16575, -0.130243, 0.469759, -0.542765, 0.336076, -2.08531, -2.1672, -0.124709, -0.00460676, 0.0196287, 0.00191686, 0.0198261, 0.00255102, 0.0012766
0.088311, 1.69254, -1.22547, -1.53787, -0.89988, -1.19534, 1.22913, -1.30252, 0.0400319, -0.00020918, 0.00110016, -0.00150119, -0.0739105, 0.0270467, 0.000964702, 2.28492, 57.3721, 27.2306, 5.38696, 1.47876, 3.60415, -0.0621838, 0.000160158, -0.00110329, -7.71865e-05, 0.0011573, -0.00426324, 0.000430793, 0.0193269, -0.023567, 0.00173114, -0.0157566, 0.0969359, 0.0291515, 0.470881, -0.542864, 0.335942, -2.08328, -2.16574, -0.130257, 0.469777, -0.542763, 0.336076, -2.08532, -2.16725, -0.124602, -0.00471385, 0.0201145, 0.00197095, 0.0195802, 0.00173841, -4.14016e-05
0.089311, 1.69258, -1.22547, -1.53787, -0.899879, -1.19541, 1.22915, -1.30251, 0.0399775, -0.00125959, 0.00249668, -0.00099348, -0.0741719, 0.0252921, 0.00111786, 2.24921, 57.4078, 27.1552, 5.38696, 1.47876, 3.59683, -0.0750012, 0.000140401, -0.00108143, -7.64129e-05, 0.00117466, -0.004351, 0.000425663, 0.0196767, -0.0234264, 0.00155408, -0.0159785, 0.0956236, 0.0294141, 0.470877, -0.542844, 0.335944, -2.08326, -2.16574, -0.13027, 0.469794, -0.542762, 0.336074, -2.08532, -2.16729, -0.124508, -0.00482181, 0.0206055, 0.00202587, 0.0193381, 0.00190588, -0.000211982
0.090311, 1.69262, -1.22547, -1.53787, -0.899882, -1.19549, 1.22917, -1.30252, 0.0391742, 0.00154504, 0.00166445, -0.00158485, -0.0746905, 0.0231545, 0.00557343, 2.24921, 57.2968, 27.1552, 5.42664, 1.48517, 3.61148, -0.0621838, 0.000119486, -0.0010624, -7.96361e-05, 0.00119709, -0.00444862, 0.000421359, 0.0201461, -0.0225509, 0.00270765, -0.0186724, 0.0984015, 0.0243714, 0.470872, -0.542823, 0.335946, -2.08324, -2.16574, -0.130285, 0.469809, -0.542762, 0.336075, -2.08534, -2.16734, -0.124399, -0.00493062, 0.0211016, 0.00208162, 0.0184138, 0.00172469, 0.000935635
0.091311, 1.69266, -1.22547, -1.53787, -0.899884, -1.19557, 1.22919, -1.30252, 0.0403714, 0.000869762, 0.000274418, -0.00188767, -0.0744057, 0.0224455, 0.00269947, 2.17384, 57.2968, 27.1909, 5.46234, 1.47876, 3.60415, -0.0228162, 9.99122e-05, -0.00103904, -7.74133e-05, 0.00121975, -0.0045391, 0.000407987, 0.0202564, -0.0230518, 0.00167769, -0.0207181, 0.0978342, 0.0284516, 0.470867, -0.542802, 0.335948, -2.08322, -2.16573, -0.130299, 0.469828, -0.542758, 0.336071, -2.08533, -2.16739, -0.124298, -0.00504026, 0.0216028, 0.00213822, 0.0187712, 0.00229695, -5.75263e-05
0.092311, 1.6927, -1.22547, -1.53787, -0.89988, -1.19564, 1.22921, -1.30252, 0.0403587, 0.000459642, -0.000745075, -0.000420144, -0.0740757, 0.0165336, 0.00189372, 2.13416, 57.2968, 27.2306, 5.42664, 1.47327, 3.61148, -0.0164075, 7.74571e-05, -0.00102006, -7.84466e-05, 0.00124075, -0.00462858, 0.000407729, 0.0207829, -0.0215914, 0.000785309, -0.0258869, 0.0947077, 0.0278969, 0.470862, -0.542781, 0.33595, -2.08319, -2.16573, -0.130314, 0.469843, -0.542758, 0.33607, -2.08534, -2.16743, -0.124198, -0.00515073, 0.022109, 0.00219565, 0.0171889, 0.00236143, -0.000919511
0.093311, 1.69274, -1.22546, -1.53787, -0.899879, -1.19571, 1.22922, -1.30252, 0.0370826, 0.00532039, 0.00126652, -0.001113, -0.0784812, 0.0175138, 0.00174841, 2.09846, 57.0786, 27.1552, 5.46234, 1.46045, 3.60415, -0.0228162, 5.84915e-05, -0.000998103, -8.66034e-05, 0.00125613, -0.00472794, 0.000403931, 0.0226378, -0.0199468, 0.00455045, -0.024694, 0.104018, 0.0251413, 0.470857, -0.542759, 0.335952, -2.08317, -2.16572, -0.130329, 0.469861, -0.542755, 0.336077, -2.08536, -2.16748, -0.124096, -0.00526201, 0.0226203, 0.00225393, 0.0156388, 0.000392524, 0.00261645
0.094311, 1.69278, -1.22547, -1.53787, -0.899881, -1.19579, 1.22924, -1.30251, 0.0355582, 0.00180888, 0.000844347, -0.00166828, -0.0780116, 0.023044, 0.00328482, 2.02308, 57.15, 27.1552, 5.50201, 1.46686, 3.58951, -0.0750012, 3.67259e-05, -0.000975194, -8.24988e-05, 0.00127716, -0.00481385, 0.000403414, 0.0245779, -0.0203625, 0.00285523, -0.0203132, 0.103452, 0.0229451, 0.470851, -0.542736, 0.335954, -2.08315, -2.16572, -0.130344, 0.469879, -0.542753, 0.336071, -2.08537, -2.16752, -0.124001, -0.0053741, 0.0231366, 0.00231306, 0.0159504, -0.000727127, 0.000686373
0.095311, 1.69283, -1.22546, -1.53787, -0.899884, -1.19586, 1.22926, -1.30251, 0.038137, 0.00458888, 0.000562898, -0.00287413, -0.0778157, 0.0265555, 0.0023297, 1.90803, 57.0032, 27.1552, 5.57739, 1.47876, 3.58951, -0.0750012, 1.96407e-05, -0.000949898, -8.80248e-05, 0.0012982, -0.00491222, 0.000389887, 0.0237196, -0.0227375, 0.00442325, -0.018102, 0.108559, 0.0277224, 0.470846, -0.542713, 0.335957, -2.08312, -2.16571, -0.13036, 0.4699, -0.542746, 0.336076, -2.08537, -2.16757, -0.123895, -0.00548698, 0.0236579, 0.00237303, 0.0182356, 0.000497223, 0.00235571
0.096311, 1.69287, -1.22547, -1.53787, -0.899881, -1.19593, 1.22927, -1.30251, 0.0383196, -0.000412451, -0.00311568, -0.00191511, -0.0764153, 0.0249726, 0.000437299, 1.87232, 57.15, 27.1552, 5.57739, 1.46045, 3.58218, -0.0420422, -4.22749e-06, -0.000929659, -8.15439e-05, 0.0013187, -0.0049853, 0.000383543, 0.0252618, -0.022032, 0.000190275, -0.0219952, 0.102367, 0.0280768, 0.470841, -0.542689, 0.335959, -2.0831, -2.16571, -0.130376, 0.469915, -0.542744, 0.336067, -2.08536, -2.16761, -0.123815, -0.00560063, 0.0241841, 0.00243385, 0.0173196, 0.000126476, -0.00198241
0.097311, 1.69292, -1.22547, -1.53787, -0.89988, -1.196, 1.22928, -1.30252, 0.0413052, 0.00229496, -0.000604793, -0.00127601, -0.0759373, 0.018918, -0.000579252, 1.72157, 57.0389, 27.0798, 5.57739, 1.46686, 3.57577, -0.0164075, -2.11645e-05, -0.000902575, -8.66947e-05, 0.00133377, -0.00507735, 0.000364676, 0.0231557, -0.0229972, 0.00209357, -0.0247168, 0.102114, 0.0331207, 0.470835, -0.542665, 0.335962, -2.08307, -2.16571, -0.130393, 0.469937, -0.542737, 0.336071, -2.08536, -2.16767, -0.123723, -0.00571505, 0.0247152, 0.00249553, 0.0181625, 0.00248252, 0.000256802
0.098311, 1.69296, -1.22547, -1.53788, -0.899885, -1.19607, 1.2293, -1.30251, 0.0433393, 0.00150858, -0.00321984, -0.00032699, -0.0753199, 0.0146787, -0.00032718, 1.57081, 57.0389, 27.1909, 5.68848, 1.45404, 3.56112, -0.0164075, -4.12813e-05, -0.000877705, -8.09163e-05, 0.0013669, -0.00516302, 0.000355262, 0.0231356, -0.0228701, 0.000381969, -0.0302768, 0.0994492, 0.0333382, 0.470829, -0.54264, 0.335964, -2.08305, -2.1657, -0.13041, 0.469957, -0.54273, 0.336064, -2.08535, -2.16771, -0.123617, -0.00583022, 0.0252512, 0.00255806, 0.0178577, 0.00329802, -0.00136423
0.099311, 1.693, -1.22547, -1.53786, -0.899884, -1.19614, 1.22931, -1.30251, 0.0411087, 0.00266011, 0.00112348, 4.25509e-05, -0.0751004, 0.0112002, 0.00128418, 1.57081, 56.9675, 27.0441, 5.68848, 1.44855, 3.5538, -0.0557752, -6.38375e-05, -0.000857121, -8.69679e-05, 0.00137809, -0.00525207, 0.000351679, 0.0233621, -0.021761, 0.00248528, -0.0287279, 0.0988851, 0.0316703, 0.470823, -0.542615, 0.335967, -2.08302, -2.16569, -0.130427, 0.469973, -0.542727, 0.336069, -2.08536, -2.16776, -0.123532, -0.00594613, 0.0257921, 0.00262146, 0.0167189, 0.00324471, 0.000773385
0.100311, 1.69305, -1.22547, -1.53787, -0.899885, -1.1962, 1.22932, -1.30251, 0.044284, 0.00259659, -0.000208961, -0.000611443, -0.075038, 0.0127114, 0.00160138, 1.38038, 56.9318, 27.0798, 5.72418, 1.44214, 3.56112, -0.0750012, -8.32367e-05, -0.000830668, -8.72532e-05, 0.00140114, -0.00534081, 0.000342384, 0.0227383, -0.0238363, 0.00187777, -0.0292982, 0.100342, 0.0347898, 0.470817, -0.542589, 0.335969, -2.08299, -2.16569, -0.130444, 0.469994, -0.542719, 0.336068, -2.08535, -2.1678, -0.123435, -0.00606278, 0.0263379, 0.00268571, 0.0186305, 0.00458606, 0.000271558
0.101311, 1.69308, -1.22547, -1.53787, -0.899887, -1.19628, 1.22933, -1.30251, 0.0429057, 0.00172204, -0.000231353, 0.00203246, -0.0706572, 0.0147524, 0.000855113, 1.34071, 56.9318, 27.0798, 5.76385, 1.44855, 3.54648, -0.0685925, -0.000109307, -0.000810268, -8.4395e-05, 0.00142666, -0.00542963, 0.000339826, 0.0241246, -0.023446, 0.00199767, -0.024062, 0.0971979, 0.0336843, 0.470811, -0.542563, 0.335972, -2.08296, -2.16568, -0.130462, 0.470009, -0.542717, 0.336063, -2.08535, -2.16784, -0.123334, -0.00618014, 0.0268884, 0.00275083, 0.018178, 0.00373388, 0.000249953
0.102311, 1.69313, -1.22547, -1.53786, -0.899887, -1.19635, 1.22934, -1.30251, 0.043166, 0.00290449, 0.00144717, 0.000898138, -0.0718386, 0.0112716, -0.000869323, 1.11457, 56.8564, 27.0084, 5.79956, 1.44855, 3.53915, -0.0292249, -0.000127574, -0.00078157, -8.68756e-05, 0.00144599, -0.00551982, 0.000317356, 0.0236438, -0.0234463, 0.00283654, -0.0265956, 0.0982093, 0.0373848, 0.470805, -0.542536, 0.335975, -2.08294, -2.16568, -0.13048, 0.470032, -0.542708, 0.336064, -2.08534, -2.1679, -0.123242, -0.0062982, 0.0274437, 0.00281681, 0.0180736, 0.00463433, 0.00121838
0.103311, 1.69318, -1.22547, -1.53786, -0.899889, -1.19642, 1.22935, -1.30251, 0.0396537, 0.00276647, 0.00267624, -0.000880694, -0.0676215, 0.0130966, -0.00154889, 1.03919, 56.8207, 26.933, 5.87494, 1.43573, 3.53915, -0.00267457, -0.00014955, -0.000757087, -8.8221e-05, 0.00146553, -0.0056077, 0.000302445, 0.0243555, -0.0229976, 0.003312, -0.0222358, 0.0960814, 0.0385149, 0.470799, -0.542509, 0.335978, -2.08291, -2.16567, -0.130499, 0.470051, -0.542701, 0.336064, -2.08533, -2.16796, -0.123151, -0.00641697, 0.0280038, 0.00288366, 0.0175499, 0.00440013, 0.00165646
0.104311, 1.69322, -1.22547, -1.53786, -0.899893, -1.19649, 1.22936, -1.30251, 0.0403707, -0.0003957, -1.79108e-05, -0.00213753, -0.0686009, 0.0151096, -0.000513471, 0.963814, 56.781, 27.0084, 5.95032, 1.41192, 3.52542, -0.0164075, -0.000173313, -0.000733148, -8.59818e-05, 0.00149348, -0.00569754, 0.000294472, 0.0255052, -0.0236219, 0.000492587, -0.0242111, 0.0956395, 0.0380796, 0.470793, -0.542481, 0.33598, -2.08288, -2.16567, -0.130518, 0.47007, -0.542695, 0.33606, -2.08532, -2.168, -0.123049, -0.00653641, 0.0285686, 0.00295138, 0.0179931, 0.00429243, -0.00125851
0.105311, 1.69326, -1.22547, -1.53786, -0.899893, -1.19656, 1.22938, -1.3025, 0.0408599, 0.000304877, 0.000886955, -0.00126539, -0.0703782, 0.0159376, 0.000614995, 0.888436, 56.7453, 26.9687, 5.95032, 1.41192, 3.52542, -0.0420422, -0.000198089, -0.000709467, -8.86239e-05, 0.00150986, -0.00578927, 0.000293205, 0.026304, -0.0238971, 0.00142201, -0.0230657, 0.0986839, 0.0368519, 0.470786, -0.542452, 0.335983, -2.08285, -2.16566, -0.130537, 0.470088, -0.542691, 0.336061, -2.08533, -2.16804, -0.122957, -0.00665653, 0.0291381, 0.00301998, 0.0182108, 0.00394137, -0.000406161
0.106311, 1.69331, -1.22547, -1.53785, -0.899895, -1.19663, 1.22938, -1.3025, 0.0406799, 0.00167378, 0.00316792, -0.00155909, -0.0710909, 0.0124481, 0.00116189, 0.701973, 56.6739, 26.8577, 5.98602, 1.3927, 3.51077, -0.0621838, -0.000217593, -0.000680035, -9.25031e-05, 0.00152905, -0.00588357, 0.000273219, 0.0260498, -0.0236176, 0.00272213, -0.0243685, 0.0993841, 0.0375614, 0.470779, -0.542423, 0.335986, -2.08282, -2.16566, -0.130557, 0.470111, -0.54268, 0.336064, -2.08531, -2.1681, -0.122861, -0.0067773, 0.0297122, 0.00308945, 0.0178493, 0.00455405, 0.000994178
0.107311, 1.69335, -1.22547, -1.53786, -0.899906, -1.1967, 1.22939, -1.3025, 0.0409269, 0.000965925, 0.00126034, -0.00447608, -0.0674869, 0.00980169, 0.000270395, 0.626595, 56.6739, 26.8934, 6.13678, 1.3927, 3.49612, -0.0484509, -0.000242267, -0.000655585, -9.03041e-05, 0.00155883, -0.00597751, 0.000261783, 0.0251414, -0.024108, 0.00100066, -0.0280839, 0.0954227, 0.041907, 0.470773, -0.542393, 0.335989, -2.08278, -2.16565, -0.130577, 0.47013, -0.542673, 0.336061, -2.0853, -2.16815, -0.122754, -0.00689872, 0.030291, 0.0031598, 0.0181224, 0.00631672, -0.000508962
0.108311, 1.6934, -1.22546, -1.53786, -0.899903, -1.19677, 1.2294, -1.3025, 0.0429263, 0.00405798, 0.000827943, -0.00198869, -0.0684942, 0.0120231, 0.000692211, 0.475838, 56.5231, 26.8934, 6.09711, 1.36249, 3.48971, -0.0621838, -0.000266802, -0.000631263, -9.55692e-05, 0.00158135, -0.00607484, 0.000256506, 0.0258032, -0.0249336, 0.00312933, -0.0257991, 0.100911, 0.0410454, 0.470766, -0.542363, 0.335993, -2.08275, -2.16564, -0.130597, 0.470148, -0.542667, 0.336064, -2.0853, -2.1682, -0.122651, -0.00702078, 0.0308744, 0.00323103, 0.0189266, 0.00595179, 0.00153455
0.109311, 1.69344, -1.22547, -1.53785, -0.899906, -1.19684, 1.22941, -1.30251, 0.0427327, 0.000857746, 0.0031412, -0.0022033, -0.07013, 0.00920447, -0.00197744, 0.400459, 56.5985, 26.7823, 6.13678, 1.36249, 3.48239, 0.00373412, -0.000292254, -0.000606314, -9.33126e-05, 0.00160262, -0.00615841, 0.000234228, 0.0262773, -0.0247383, 0.00182592, -0.0272755, 0.0981481, 0.0446853, 0.470759, -0.542332, 0.335996, -2.08272, -2.16564, -0.130618, 0.470167, -0.54266, 0.336061, -2.08528, -2.16825, -0.122566, -0.00714347, 0.0314625, 0.00330314, 0.0185788, 0.00626604, 0.000250816
0.110311, 1.69349, -1.22546, -1.53785, -0.899908, -1.19691, 1.22941, -1.30251, 0.0403387, 0.0013438, 0.00208722, -0.00226621, -0.0665658, 0.00709594, -0.000807799, 0.285408, 56.5628, 26.7823, 6.17248, 1.36249, 3.47507, -0.00999879, -0.000316707, -0.000580727, -9.51577e-05, 0.0016286, -0.00625219, 0.00022607, 0.0271729, -0.0233303, 0.00169203, -0.0279263, 0.0952954, 0.0422439, 0.470751, -0.542301, 0.335999, -2.08269, -2.16563, -0.130639, 0.470186, -0.542652, 0.336061, -2.08527, -2.1683, -0.122464, -0.00726676, 0.032055, 0.00337613, 0.0170772, 0.00593746, 9.35064e-05
0.111311, 1.69353, -1.22546, -1.53785, -0.899911, -1.19698, 1.22942, -1.30251, 0.0418058, 0.000848426, 0.00222152, -0.00231761, -0.0681618, 0.00629805, -6.24134e-05, 0.170357, 56.5628, 26.7466, 6.20819, 1.34418, 3.44668, -0.0228162, -0.000342836, -0.000555152, -9.50235e-05, 0.00165048, -0.00634203, 0.000217086, 0.0273634, -0.0239733, 0.00132105, -0.029467, 0.0963858, 0.0428935, 0.470744, -0.542268, 0.336003, -2.08265, -2.16562, -0.13066, 0.470206, -0.542645, 0.33606, -2.08526, -2.16834, -0.122371, -0.00739066, 0.0326521, 0.00345001, 0.0175892, 0.00643107, -0.000249131
0.112311, 1.69358, -1.22546, -1.53785, -0.899911, -1.19705, 1.22942, -1.3025, 0.0418645, 0.00145806, 0.000641906, -0.00152377, -0.0702984, 0.00434855, 0.00118015, 0.0949785, 56.5231, 26.7823, 6.20819, 1.34967, 3.45309, -0.0557752, -0.000371309, -0.000533422, -9.45332e-05, 0.00168285, -0.00643319, 0.000217129, 0.0286749, -0.0230437, 0.00108478, -0.0330456, 0.0984486, 0.0398875, 0.470737, -0.542236, 0.336006, -2.08262, -2.16562, -0.130682, 0.470221, -0.542639, 0.336057, -2.08526, -2.16837, -0.122264, -0.00751515, 0.0332538, 0.00352478, 0.0165755, 0.0057367, -0.000585365
0.113311, 1.69362, -1.22546, -1.53784, -0.899916, -1.19712, 1.22942, -1.3025, 0.0436502, 0.00261579, 0.00218826, -0.0027631, -0.067687, 0.00318943, 0.000787552, -0.0557783, 56.4517, 26.7069, 6.28357, 1.3689, 3.45309, -0.0557752, -0.000393689, -0.000505296, -9.85056e-05, 0.00170905, -0.00652782, 0.000197962, 0.0270567, -0.0247578, 0.00196529, -0.0321821, 0.0975913, 0.0450922, 0.470729, -0.542203, 0.33601, -2.08258, -2.16561, -0.130704, 0.470243, -0.542627, 0.336061, -2.08524, -2.16843, -0.122163, -0.00764022, 0.0338599, 0.00360044, 0.0181361, 0.00787506, 0.000559384
0.114311, 1.69367, -1.22546, -1.53784, -0.899918, -1.19719, 1.22943, -1.3025, 0.0399231, 0.00172385, 0.00145665, -0.00183008, -0.0657116, 0.00366652, 1.69994e-05, -0.131157, 56.4517, 26.7069, 6.28357, 1.3927, 3.41739, -0.0420422, -0.000424053, -0.000482068, -9.88778e-05, 0.00173396, -0.0066242, 0.000191533, 0.0295058, -0.0227563, 0.00157451, -0.0304848, 0.0958088, 0.0420648, 0.470722, -0.542169, 0.336013, -2.08255, -2.1656, -0.130727, 0.470259, -0.542623, 0.336059, -2.08523, -2.16848, -0.122061, -0.00776586, 0.0344704, 0.00367699, 0.0160864, 0.00604631, -7.29764e-05
0.115311, 1.69371, -1.22546, -1.53784, -0.899924, -1.19726, 1.22943, -1.30251, 0.0395668, 0.00113422, 0.00180468, -0.0029743, -0.0677903, 0.0026077, -0.00144629, -0.166862, 56.4517, 26.6712, 6.35895, 1.38721, 3.41739, -0.00267457, -0.000450589, -0.000456305, -9.75654e-05, 0.00176209, -0.00671178, 0.00017323, 0.0302344, -0.0225591, 0.00114601, -0.0325398, 0.0971139, 0.0440279, 0.470714, -0.542134, 0.336017, -2.08251, -2.16559, -0.13075, 0.470278, -0.542613, 0.336057, -2.0852, -2.16853, -0.121966, -0.00789206, 0.0350854, 0.00375444, 0.0157744, 0.00600088, -0.000527626
0.116311, 1.69376, -1.22546, -1.53784, -0.899927, -1.19733, 1.22943, -1.30251, 0.0414188, 0.00074489, 0.00120189, -0.00281134, -0.0654144, 0.00264087, -0.00120122, -0.281914, 56.4517, 26.6712, 6.39465, 1.39911, 3.39633, 0.00373412, -0.000477825, -0.000429654, -9.78856e-05, 0.00179013, -0.00680525, 0.000160064, 0.029784, -0.02384, 0.00065284, -0.0321005, 0.0955286, 0.0463591, 0.470706, -0.542099, 0.336021, -2.08248, -2.16559, -0.130773, 0.470298, -0.542604, 0.336055, -2.08519, -2.16858, -0.121864, -0.0080188, 0.0357048, 0.00383279, 0.0168929, 0.00719497, -0.000905804
0.117311, 1.6938, -1.22546, -1.53784, -0.899932, -1.1974, 1.22944, -1.30251, 0.0403517, 0.000488151, -3.48806e-05, -0.00363241, -0.0682416, 0.00266627, -0.000800562, -0.317619, 56.4517, 26.7069, 6.47003, 1.41192, 3.37436, 0.00373412, -0.000507915, -0.000406006, -9.75007e-05, 0.00181872, -0.00689822, 0.000152046, 0.0314931, -0.0230017, 3.90811e-05, -0.0346476, 0.0983777, 0.044462, 0.470698, -0.542063, 0.336024, -2.08244, -2.16558, -0.130797, 0.470314, -0.542597, 0.336054, -2.08517, -2.16862, -0.121763, -0.00814607, 0.0363285, 0.00391203, 0.0159684, 0.00619272, -0.00167554
0.118311, 1.69384, -1.22546, -1.53785, -0.899935, -1.19746, 1.22944, -1.3025, 0.0410507, 0.00652552, -0.000951966, -0.00963718, -0.0654814, 0.00184642, 0.000924541, -0.392998, 56.4517, 26.7466, 6.5097, 1.41742, 3.37436, -0.0356336, -0.000537737, -0.000381263, -9.5474e-05, 0.00185178, -0.00698963, 0.000147856, 0.0290198, -0.0247309, 0.00234234, -0.0372395, 0.103006, 0.0494366, 0.47069, -0.542027, 0.336028, -2.0824, -2.16557, -0.130821, 0.470332, -0.542589, 0.33605, -2.08516, -2.16865, -0.121658, -0.00827387, 0.0369566, 0.00399218, 0.0175622, 0.008977, 0.00101158
0.119311, 1.69389, -1.22546, -1.53784, -0.899938, -1.19753, 1.22944, -1.3025, 0.0407838, 0.00569802, -0.000635163, -0.00778144, -0.0683516, 0.011069, 0.000379142, -0.43267, 56.416, 26.7466, 6.54541, 1.43024, 3.36703, -0.0292249, -0.000567866, -0.000356455, -9.71734e-05, 0.00187858, -0.00708456, 0.000138338, 0.0318646, -0.0257052, 0.0030847, -0.0293556, 0.109559, 0.0477097, 0.470682, -0.54199, 0.336032, -2.08236, -2.16556, -0.130845, 0.47035, -0.542581, 0.33605, -2.08514, -2.1687, -0.121557, -0.00840218, 0.0375891, 0.00407323, 0.0185377, 0.00672728, 0.0013494
0.120311, 1.69394, -1.22546, -1.53784, -0.89994, -1.1976, 1.22944, -1.30251, 0.0431464, 0.0033478, 0.00133941, -0.0055787, -0.0654756, 0.00821104, -0.00045921, -0.583427, 56.4517, 26.6712, 6.54541, 1.43573, 3.36703, -0.00999879, -0.000596173, -0.000327929, -9.50501e-05, 0.0019051, -0.00717184, 0.000120802, 0.0310608, -0.0268334, 0.00234885, -0.0282199, 0.103859, 0.0512814, 0.470673, -0.541953, 0.336036, -2.08232, -2.16556, -0.13087, 0.470371, -0.542569, 0.336047, -2.08512, -2.16875, -0.121466, -0.008531, 0.0382258, 0.00415518, 0.01948, 0.00831896, 0.000795073
0.121311, 1.69397, -1.22546, -1.53784, -0.899946, -1.19767, 1.22944, -1.30251, 0.0403534, 0.00252012, -0.000870592, -0.00577568, -0.0691042, 0.0060978, -0.00152676, -0.543754, 56.4517, 26.7466, 6.62079, 1.46686, 3.36703, 0.0229602, -0.00063192, -0.000307962, -9.28675e-05, 0.00193854, -0.00726634, 0.000116963, 0.0339361, -0.0242456, 0.00104579, -0.0333385, 0.105707, 0.0478747, 0.470665, -0.541914, 0.33604, -2.08228, -2.16555, -0.130895, 0.470383, -0.542565, 0.336043, -2.0851, -2.16879, -0.121359, -0.0086603, 0.0388668, 0.00423804, 0.0168235, 0.00621739, -0.00078121
0.122311, 1.69402, -1.22546, -1.53784, -0.899946, -1.19774, 1.22944, -1.30251, 0.0461724, 0.00365951, -0.000580613, -0.00407043, -0.0657569, 0.00477038, -0.000543066, -0.694511, 56.3763, 26.7466, 6.62079, 1.46686, 3.36062, 0.0101428, -0.00066254, -0.000280969, -9.49866e-05, 0.00196652, -0.00736443, 0.000108367, 0.0315383, -0.0273992, 0.00164761, -0.0325847, 0.104128, 0.0527672, 0.470656, -0.541875, 0.336045, -2.08224, -2.16554, -0.130921, 0.470403, -0.542556, 0.336043, -2.08509, -2.16883, -0.121255, -0.00879009, 0.039512, 0.00432181, 0.0197785, 0.00926745, 0.000174723
0.123311, 1.69407, -1.22545, -1.53785, -0.899948, -1.19781, 1.22944, -1.3025, 0.0453238, 0.00260182, -0.00215048, -0.00287861, -0.0639614, 0.00353113, 0.00109606, -0.76989, 56.3763, 26.822, 6.62079, 1.48517, 3.36062, -0.0292249, -0.00069581, -0.000256027, -9.44953e-05, 0.00199832, -0.00746167, 0.000106258, 0.0328742, -0.02648, 0.000593104, -0.033509, 0.10164, 0.0494967, 0.470647, -0.541836, 0.336049, -2.0822, -2.16553, -0.130947, 0.47042, -0.542548, 0.336041, -2.08508, -2.16887, -0.121147, -0.00892034, 0.0401615, 0.0044065, 0.0187406, 0.00872454, -0.000964263
0.124311, 1.69411, -1.22544, -1.53784, -0.899952, -1.19787, 1.22943, -1.30251, 0.0430703, 0.00528983, 0.000329463, -0.00287803, -0.0671881, 0.00261724, 0.000256024, -0.76989, 56.2296, 26.7466, 6.65649, 1.49707, 3.36062, -0.0164075, -0.000728646, -0.000233079, -0.000101299, 0.00202148, -0.00756073, 9.85056e-05, 0.0343054, -0.0251758, 0.00312014, -0.0329805, 0.106955, 0.0485532, 0.470638, -0.541796, 0.336053, -2.08216, -2.16552, -0.130973, 0.470436, -0.54254, 0.336046, -2.08507, -2.16892, -0.121048, -0.00905105, 0.0408151, 0.00449209, 0.0174524, 0.00751936, 0.00142999
0.125311, 1.69415, -1.22545, -1.53784, -0.899955, -1.19794, 1.22944, -1.3025, 0.0423166, 0.00278254, 0.00021955, -0.00293951, -0.0700867, 0.00248472, 0.000645425, -0.809562, 56.2653, 26.7466, 6.69617, 1.52179, 3.34598, -0.0292249, -0.000764824, -0.000209669, -9.99163e-05, 0.00205071, -0.00765607, 9.64578e-05, 0.0361144, -0.0245484, 0.00165577, -0.0345816, 0.107441, 0.0468834, 0.470629, -0.541755, 0.336058, -2.08212, -2.16551, -0.131, 0.470451, -0.542534, 0.336043, -2.08505, -2.16895, -0.120946, -0.00918221, 0.0414729, 0.0045786, 0.0167074, 0.00659371, -0.00019503
0.126311, 1.69419, -1.22545, -1.53785, -0.899947, -1.19801, 1.22943, -1.30251, 0.0425323, 0.000160192, -0.000688921, 0.00056918, -0.0668559, 0.00153324, -0.00150248, -0.884941, 56.3406, 26.7823, 6.58508, 1.5282, 3.3533, 0.0229602, -0.000803523, -0.000187158, -9.78195e-05, 0.00207538, -0.00774515, 9.35121e-05, 0.0374346, -0.0240679, 0.000202511, -0.0332201, 0.102148, 0.0472564, 0.47062, -0.541714, 0.336063, -2.08207, -2.1655, -0.131027, 0.470466, -0.54253, 0.336039, -2.08504, -2.16899, -0.120856, -0.00931381, 0.0421348, 0.00466602, 0.0160913, 0.00615913, -0.00173616
0.127311, 1.69419, -1.22545, -1.53785, -0.899947, -1.19801, 1.22943, -1.30251, 0.0425323, 0.000160192, -0.000688921, 0.00056918, -0.0668559, 0.00153324, -0.00150248, -0.884941, 56.3406, 26.7823, 6.58508, 1.5282, 3.3533, 0.0229602, -0.000846173, -0.000179484, -0.000100136, 0.00206317, -0.00778416, 0.000110029, 0.038111, -0.0241741, 0.000225452, -0.0331373, 0.102838, 0.0476502, 0.470611, -0.541671, 0.336067, -2.08203, -2.16549, -0.131055, 0.470466, -0.54253, 0.336039, -2.08504, -2.16899, -0.120856, -0.00944583, 0.0428008, 0.00475437, 0.0160913, 0.00615913, -0.00173616
0.128311, 1.69428, -1.22545, -1.53785, -0.899958, -1.19814, 1.22944, -1.30251, 0.0396134, 0.00131937, -0.00151269, -0.00155329, -0.0659092, 0.00129083, -0.000905107, -0.996025, 56.2653, 26.822, 6.69617, 1.55932, 3.33865, 0.0293689, -0.000875602, -0.000137915, -9.90573e-05, 0.00212897, -0.00793958, 8.44042e-05, 0.0393078, -0.0230133, 0.000478061, -0.0339977, 0.10395, 0.0463227, 0.470601, -0.541629, 0.336072, -2.08198, -2.16548, -0.131083, 0.470499, -0.542514, 0.336037, -2.08501, -2.16907, -0.120656, -0.00957827, 0.043471, 0.00484363, 0.014853, 0.00556115, -0.00155156
0.129311, 1.69432, -1.22544, -1.53785, -0.899963, -1.19821, 1.22944, -1.30251, 0.0446176, 0.00174365, -8.0467e-05, -0.00282813, -0.0641885, 0.000651731, -0.000128679, -1.11108, 56.2296, 26.7823, 6.77154, 1.57764, 3.34598, 0.0165515, -0.000910997, -0.000111617, -0.000101149, 0.00215507, -0.00803957, 7.66504e-05, 0.0366421, -0.0265354, 0.000753886, -0.0337432, 0.103525, 0.053257, 0.470592, -0.541585, 0.336077, -2.08194, -2.16548, -0.131111, 0.470517, -0.542505, 0.336037, -2.085, -2.16911, -0.120554, -0.00971111, 0.0441452, 0.00493382, 0.0181511, 0.00897091, -0.000880191
0.130311, 1.69436, -1.22544, -1.53784, -0.89996, -1.19827, 1.22944, -1.3025, 0.0441859, 0.00118408, 0.000781551, -0.000979421, -0.0622448, 0.00102386, 0.001847, -1.18645, 56.2296, 26.7466, 6.73187, 1.58313, 3.33133, -0.0356336, -0.000950136, -8.75959e-05, -0.000103002, 0.00217174, -0.00813206, 7.81763e-05, 0.0375972, -0.0264346, 0.0010619, -0.0307709, 0.102027, 0.0507122, 0.470582, -0.541541, 0.336082, -2.08189, -2.16547, -0.13114, 0.470533, -0.542498, 0.336037, -2.08499, -2.16915, -0.120471, -0.00984435, 0.0448234, 0.00502493, 0.0179639, 0.00865509, -0.000633598
0.131311, 1.6944, -1.22545, -1.53785, -0.899955, -1.19833, 1.22944, -1.3025, 0.0405973, -0.000957619, -0.0003142, 0.00109377, -0.0611641, 0.000988965, 0.00123134, -1.26183, 56.3049, 26.7823, 6.65649, 1.59595, 3.324, -0.0356336, -0.000992723, -6.53016e-05, -0.000100223, 0.0021936, -0.00822139, 8.48178e-05, 0.040718, -0.024025, -8.78542e-05, -0.0298212, 0.099468, 0.0462434, 0.470572, -0.541496, 0.336087, -2.08185, -2.16546, -0.131169, 0.470547, -0.542494, 0.336032, -2.08498, -2.16917, -0.120384, -0.00997797, 0.0455056, 0.00511696, 0.0154961, 0.00633635, -0.00209464
0.132311, 1.69444, -1.22544, -1.53785, -0.899965, -1.19839, 1.22944, -1.3025, 0.0370142, 0.000301782, -0.000209479, -0.00197446, -0.0596218, 0.000685655, 0.000346177, -1.30151, 56.2653, 26.7823, 6.77154, 1.58954, 3.324, -0.0228162, -0.00103011, -4.00689e-05, -0.000100974, 0.00221776, -0.00831603, 7.49095e-05, 0.0416189, -0.0229211, 0.000447575, -0.0299879, 0.100174, 0.0472209, 0.470562, -0.541451, 0.336092, -2.0818, -2.16545, -0.131199, 0.470563, -0.542485, 0.336031, -2.08496, -2.16922, -0.120292, -0.010112, 0.0461918, 0.00520992, 0.0143129, 0.00600474, -0.00158283
0.133311, 1.69447, -1.22545, -1.53785, -0.899963, -1.19845, 1.22944, -1.30251, 0.0337267, -0.000717701, -0.0019029, -0.00039758, -0.058753, 0.000714221, -0.000989916, -1.30151, 56.3049, 26.8577, 6.73187, 1.58954, 3.31759, 0.0101428, -0.00107634, -2.13015e-05, -9.86397e-05, 0.00224099, -0.00840756, 7.84471e-05, 0.0445325, -0.0206541, -0.00033259, -0.0297907, 0.099038, 0.0438287, 0.470552, -0.541404, 0.336097, -2.08175, -2.16543, -0.131229, 0.470574, -0.542483, 0.336026, -2.08495, -2.16925, -0.120203, -0.0102463, 0.0468819, 0.00530381, 0.0119929, 0.00384694, -0.00264938
0.134311, 1.69452, -1.22545, -1.53785, -0.899966, -1.19851, 1.22944, -1.30251, 0.0378065, -0.000471619, -0.000433389, -0.00120004, -0.0582257, 0.000490966, -0.00160938, -1.45226, 56.3049, 26.822, 6.77154, 1.58954, 3.31759, 0.0357776, -0.00111402, 6.89159e-06, -9.93067e-05, 0.00226073, -0.00850061, 6.74209e-05, 0.0427267, -0.0235041, 3.84931e-06, -0.0293462, 0.0995613, 0.0504616, 0.470542, -0.541358, 0.336102, -2.0817, -2.16542, -0.131259, 0.470593, -0.542472, 0.336025, -2.08493, -2.16929, -0.120119, -0.010381, 0.047576, 0.00539863, 0.0146514, 0.00639071, -0.00202804
0.135311, 1.69452, -1.22545, -1.53785, -0.899966, -1.19851, 1.22944, -1.30251, 0.0378065, -0.000471619, -0.000433389, -0.00120004, -0.0582257, 0.000490966, -0.00160938, -1.45226, 56.3049, 26.822, 6.77154, 1.58954, 3.31759, 0.0357776, -0.00116219, 1.54129e-05, -0.000101822, 0.00224679, -0.00854453, 8.58662e-05, 0.0434359, -0.0236119, 2.52544e-05, -0.0292528, 0.10028, 0.0508673, 0.470531, -0.54131, 0.336108, -2.08165, -2.16541, -0.13129, 0.470593, -0.542472, 0.336025, -2.08493, -2.16929, -0.120119, -0.0105161, 0.048274, 0.00549438, 0.0146514, 0.00639071, -0.00202804
0.136311, 1.69459, -1.22545, -1.53785, -0.899979, -1.19863, 1.22944, -1.30251, 0.0365103, 0.00035448, 8.57813e-05, -0.00313921, -0.0557132, 0.0012286, 0.000742785, -1.52764, 56.3049, 26.822, 6.88263, 1.57764, 3.2883, -0.0164075, -0.00119848, 5.5201e-05, -9.96113e-05, 0.002302, -0.00869194, 6.34134e-05, 0.0435406, -0.0239205, 0.000577186, -0.0275318, 0.100236, 0.0504199, 0.470521, -0.541262, 0.336113, -2.0816, -2.1654, -0.131321, 0.470623, -0.542458, 0.336022, -2.0849, -2.16937, -0.119941, -0.0106515, 0.0489759, 0.00559107, 0.014849, 0.006917, -0.00141464
0.137311, 1.69463, -1.22546, -1.53785, -0.899977, -1.19868, 1.22944, -1.30251, 0.0358531, -0.00319446, 5.71846e-05, -0.00350422, -0.0604343, 0.00109659, 0.000495191, -1.63873, 56.4517, 26.822, 6.80725, 1.57123, 3.28097, -0.0164075, -0.00124335, 7.98778e-05, -9.41829e-05, 0.0023195, -0.00877476, 6.33786e-05, 0.0457116, -0.0232463, -0.00151698, -0.0301436, 0.101245, 0.0492127, 0.47051, -0.541213, 0.336119, -2.08155, -2.16539, -0.131353, 0.470639, -0.542451, 0.336014, -2.08488, -2.1694, -0.11987, -0.0107872, 0.0496816, 0.00568869, 0.0140431, 0.00577926, -0.00370709
0.138311, 1.69466, -1.22545, -1.53785, -0.899986, -1.19874, 1.22944, -1.30251, 0.0305374, 0.0013062, 3.81209e-05, -0.00520112, -0.0599896, 0.000735746, -0.000890575, -1.6784, 56.3049, 26.822, 6.91833, 1.58313, 3.28097, 0.0165515, -0.00128546, 0.000103244, -0.000100271, 0.00234175, -0.00887923, 5.87816e-05, 0.0477367, -0.0206477, 0.00116065, -0.0297802, 0.1059, 0.0472968, 0.470499, -0.541163, 0.336125, -2.0815, -2.16538, -0.131385, 0.470653, -0.542443, 0.336018, -2.08487, -2.16944, -0.119772, -0.0109232, 0.0503911, 0.00578725, 0.0114853, 0.00396474, -0.00120679
0.139311, 1.6947, -1.22545, -1.53784, -0.899988, -1.1988, 1.22944, -1.30251, 0.0344259, 0.000872423, 2.54123e-05, -0.0036673, -0.059426, 0.000494014, -0.00157706, -1.78948, 56.3049, 26.822, 6.91833, 1.58954, 3.28097, 0.0431018, -0.00132851, 0.000128776, -0.000101927, 0.00235983, -0.00897381, 5.30308e-05, 0.0470946, -0.0226205, 0.000905277, -0.0295464, 0.105605, 0.051081, 0.470489, -0.541113, 0.33613, -2.08145, -2.16537, -0.131418, 0.470669, -0.542434, 0.336018, -2.08485, -2.16948, -0.119689, -0.0110595, 0.0511045, 0.00588674, 0.0132871, 0.00543504, -0.00132125
0.140311, 1.69474, -1.22544, -1.53785, -0.899991, -1.19885, 1.22944, -1.30251, 0.0318118, 0.00151085, -0.00258152, -0.00577778, -0.0586279, 0.00033198, -0.000542747, -1.78948, 56.2653, 26.933, 6.91833, 1.58954, 3.28097, 0.0293689, -0.0013763, 0.000149347, -0.000101895, 0.00238089, -0.00906702, 6.09201e-05, 0.0486703, -0.0213245, 0.000210895, -0.032036, 0.106524, 0.0487278, 0.470477, -0.541062, 0.336136, -2.0814, -2.16536, -0.13145, 0.470681, -0.542429, 0.336016, -2.08484, -2.16951, -0.119603, -0.0111962, 0.0518216, 0.00598718, 0.0118891, 0.00465199, -0.00211696
0.141311, 1.69477, -1.22545, -1.53785, -0.899999, -1.1989, 1.22944, -1.30251, 0.0297749, -0.00159031, -0.000792991, -0.00515756, -0.0530943, 0.000460657, 0.00109623, -1.78948, 56.3763, 26.8934, 6.95801, 1.58313, 3.27456, -0.00999879, -0.00142368, 0.000172081, -9.73052e-05, 0.00239547, -0.00914874, 6.12885e-05, 0.0493357, -0.0211689, -0.00076561, -0.0273398, 0.0994667, 0.0477234, 0.470466, -0.54101, 0.336142, -2.08134, -2.16535, -0.131484, 0.470694, -0.542423, 0.336009, -2.08482, -2.16954, -0.119537, -0.0113331, 0.0525425, 0.00608855, 0.0115861, 0.00486296, -0.00308201
0.142311, 1.6948, -1.22545, -1.53785, -0.900006, -1.19895, 1.22944, -1.3025, 0.0292549, -0.00198754, -0.000528662, -0.00455685, -0.0591784, 0.000579856, 0.00120554, -1.82915, 56.416, 26.8934, 6.99371, 1.59595, 3.26724, -0.0228162, -0.0014697, 0.000196697, -9.74488e-05, 0.00240928, -0.00923933, 6.18781e-05, 0.0516807, -0.0202418, -0.000750726, -0.0293943, 0.104771, 0.0450795, 0.470455, -0.540957, 0.336148, -2.08129, -2.16533, -0.131518, 0.470709, -0.542415, 0.336007, -2.08481, -2.16957, -0.119464, -0.0114702, 0.0532671, 0.00619087, 0.0106104, 0.00323305, -0.00330846
0.143311, 1.69483, -1.22546, -1.53785, -0.900011, -1.199, 1.22944, -1.3025, 0.0271354, -0.00215973, -0.000352442, -0.00558934, -0.0588754, 0.00065895, -0.000417011, -1.78948, 56.4517, 26.8934, 6.95801, 1.60785, 3.25992, 0.0101428, -0.00152129, 0.000215877, -9.60899e-05, 0.00242185, -0.00932651, 6.66303e-05, 0.0529856, -0.0194747, -0.000793295, -0.0291125, 0.105148, 0.046118, 0.470443, -0.540904, 0.336154, -2.08123, -2.16532, -0.131552, 0.470718, -0.542411, 0.336003, -2.08479, -2.1696, -0.119395, -0.0116077, 0.0539954, 0.00629413, 0.0097541, 0.002649, -0.00343201
0.144311, 1.69486, -1.22546, -1.53785, -0.90002, -1.19904, 1.22944, -1.3025, 0.0284484, -0.00143943, -0.00116298, -0.0080995, -0.0582995, 0.000711402, -4.0648e-05, -1.86486, 56.4517, 26.933, 6.99371, 1.60785, 3.25259, 0.00373412, -0.00156718, 0.000241382, -9.46565e-05, 0.00243633, -0.0094123, 6.20224e-05, 0.0523941, -0.0208018, -0.00105199, -0.0307284, 0.106492, 0.0494441, 0.470432, -0.54085, 0.336161, -2.08118, -2.16531, -0.131586, 0.470734, -0.542401, 0.336, -2.08477, -2.16963, -0.119327, -0.0117453, 0.0547273, 0.00639834, 0.0109114, 0.00406184, -0.00353354
0.145311, 1.6949, -1.22546, -1.53785, -0.900024, -1.19909, 1.22944, -1.30251, 0.0301946, -0.000959333, -0.00161054, -0.00514186, -0.0525427, 0.000746161, -0.00148516, -1.97991, 56.4517, 26.9687, 6.95801, 1.59595, 3.24527, 0.0431018, -0.001614, 0.000266567, -9.507e-05, 0.00245231, -0.0095016, 5.18779e-05, 0.0521524, -0.0217955, -0.000599181, -0.027139, 0.102837, 0.0521504, 0.47042, -0.540795, 0.336167, -2.08112, -2.1653, -0.131621, 0.470749, -0.542392, 0.335998, -2.08474, -2.16968, -0.119255, -0.0118833, 0.0554629, 0.00650349, 0.0117746, 0.00500794, -0.00297676
0.146311, 1.69492, -1.22546, -1.53785, -0.90004, -1.19913, 1.22944, -1.3025, 0.0285224, -0.00147456, -0.000238475, -0.00863337, -0.0487905, 0.00100654, 0.000705314, -1.97991, 56.4874, 26.933, 7.02942, 1.60144, 3.23153, -0.00267457, -0.00166166, 0.000290581, -9.41791e-05, 0.00246407, -0.0095871, 5.30026e-05, 0.0516603, -0.0224687, -0.000779492, -0.0252936, 0.100308, 0.0537154, 0.470408, -0.54074, 0.336174, -2.08106, -2.16528, -0.131657, 0.470763, -0.542382, 0.335996, -2.08472, -2.16971, -0.119191, -0.0120214, 0.0562022, 0.00660959, 0.0122849, 0.0062903, -0.00299466
0.147311, 1.69495, -1.22546, -1.53784, -0.900049, -1.19916, 1.22944, -1.30251, 0.0273905, -0.00181809, 0.00160425, -0.0117883, -0.0459582, 0.000671376, 0.000470209, -1.97991, 56.5231, 26.8577, 6.99371, 1.60144, 3.23153, -0.00267457, -0.00170952, 0.000315111, -9.47178e-05, 0.00246876, -0.00966725, 4.54195e-05, 0.0510367, -0.0232367, -0.000725846, -0.0239007, 0.0983643, 0.057857, 0.470396, -0.540684, 0.33618, -2.08101, -2.16527, -0.131692, 0.470777, -0.542372, 0.335994, -2.08469, -2.16975, -0.119141, -0.0121598, 0.056945, 0.00671664, 0.0128936, 0.00767356, -0.00276285
0.148311, 1.69498, -1.22546, -1.53785, -0.900062, -1.1992, 1.22944, -1.3025, 0.0267299, -0.00297518, -0.00152895, -0.0128295, -0.0433635, 0.000719116, 0.00105946, -1.97991, 56.5985, 26.9687, 7.02942, 1.58954, 3.22421, -0.0228162, -0.0017612, 0.000337556, -8.94094e-05, 0.00248499, -0.00974939, 5.01043e-05, 0.0520416, -0.0229801, -0.00260574, -0.0257711, 0.0961513, 0.0573371, 0.470384, -0.540627, 0.336187, -2.08095, -2.16526, -0.131729, 0.470789, -0.542364, 0.335987, -2.08467, -2.16977, -0.119076, -0.0122984, 0.0576914, 0.00682465, 0.0124671, 0.00771259, -0.00466394
0.149311, 1.695, -1.22546, -1.53785, -0.900072, -1.19924, 1.22944, -1.3025, 0.0238064, -0.00114814, -0.00194732, -0.011781, -0.0421787, 0.000479609, 0.000468947, -2.01562, 56.5628, 27.0084, 6.99371, 1.59595, 3.22421, -0.0164075, -0.00181108, 0.000361411, -9.02477e-05, 0.00249377, -0.00983424, 4.49581e-05, 0.0540658, -0.021195, -0.00138154, -0.0245835, 0.0974845, 0.0547047, 0.470372, -0.540569, 0.336194, -2.08089, -2.16524, -0.131765, 0.470803, -0.542355, 0.335986, -2.08465, -2.1698, -0.119017, -0.0124372, 0.0584414, 0.0069336, 0.0106663, 0.00619956, -0.00361432
0.150311, 1.69502, -1.22546, -1.53785, -0.900082, -1.19927, 1.22944, -1.30251, 0.0221517, -0.00160058, -0.00296865, -0.0111948, -0.0374223, 0.00113369, -0.00212878, -1.94024, 56.5985, 27.0798, 6.95801, 1.62616, 3.20224, 0.0495105, -0.00186751, 0.000379944, -8.86415e-05, 0.00250126, -0.00991829, 4.88869e-05, 0.0551255, -0.0207281, -0.0017727, -0.0221056, 0.0941841, 0.0566972, 0.470359, -0.54051, 0.336201, -2.08083, -2.16523, -0.131802, 0.470811, -0.542351, 0.335982, -2.08463, -2.16983, -0.118961, -0.0125762, 0.0591949, 0.00704351, 0.0100866, 0.00594998, -0.0040466
0.151311, 1.69505, -1.22547, -1.53785, -0.900097, -1.1993, 1.22944, -1.30251, 0.0246522, -0.00190222, -0.00114388, -0.0124206, -0.0373538, 0.000993263, -0.00118182, -2.01562, 56.6342, 27.0441, 6.99371, 1.62616, 3.19583, 0.0431018, -0.00191459, 0.000408218, -8.76194e-05, 0.00250462, -0.00999479, 3.40283e-05, 0.0540392, -0.0228241, -0.00160507, -0.0214688, 0.0945995, 0.0606222, 0.470347, -0.540451, 0.336208, -2.08077, -2.16522, -0.13184, 0.470828, -0.542337, 0.335979, -2.08459, -2.16988, -0.118919, -0.0127154, 0.0599519, 0.00715437, 0.0120078, 0.00784216, -0.00366653
0.152311, 1.69508, -1.22547, -1.53785, -0.900107, -1.19933, 1.22944, -1.30251, 0.0238592, -0.00219613, -0.000762588, -0.0107131, -0.0339155, 0.000933527, -0.000516616, -1.97991, 56.6739, 27.0441, 6.91833, 1.65729, 3.18851, 0.0357776, -0.00196763, 0.000430915, -8.85517e-05, 0.00250524, -0.0100744, 3.73495e-05, 0.0549327, -0.022554, -0.00135861, -0.0185642, 0.0920275, 0.0594473, 0.470334, -0.540391, 0.336215, -2.0807, -2.1652, -0.131878, 0.47084, -0.542329, 0.335978, -2.08457, -2.1699, -0.118875, -0.0128547, 0.0607124, 0.00726618, 0.0116419, 0.00767217, -0.00344759
0.153311, 1.69509, -1.22547, -1.53785, -0.900122, -1.19935, 1.22944, -1.30251, 0.0192762, -0.00313449, -0.00134361, -0.0113471, -0.0305097, 0.00116495, 0.000367666, -1.90453, 56.7453, 27.0798, 6.91833, 1.66919, 3.17386, 0.0165515, -0.0020227, 0.00045081, -8.5998e-05, 0.0025101, -0.010148, 4.21215e-05, 0.0571227, -0.0205734, -0.00192825, -0.0168464, 0.0891415, 0.0559021, 0.470321, -0.540331, 0.336222, -2.08064, -2.16519, -0.131916, 0.470849, -0.542321, 0.335974, -2.08455, -2.16992, -0.118833, -0.0129943, 0.0614763, 0.00737895, 0.00958505, 0.00628191, -0.00418548
0.154311, 1.69511, -1.22547, -1.53786, -0.90014, -1.19937, 1.22944, -1.3025, 0.0167084, -0.00292486, -0.00442222, -0.0140568, -0.0225508, 0.00104795, 0.00170317, -1.86486, 56.781, 27.2306, 6.88263, 1.66369, 3.16653, -0.0228162, -0.0020757, 0.000473628, -8.19147e-05, 0.00251972, -0.010221, 4.3834e-05, 0.057281, -0.0201777, -0.00314368, -0.016693, 0.0839163, 0.0560217, 0.470308, -0.540269, 0.33623, -2.08058, -2.16517, -0.131955, 0.470861, -0.54231, 0.335968, -2.08452, -2.16995, -0.118787, -0.0131339, 0.0622436, 0.00749268, 0.00901215, 0.00706797, -0.00528765
0.155311, 1.69514, -1.22547, -1.53785, -0.900157, -1.19939, 1.22944, -1.3025, 0.0176296, -0.00287791, -0.000349688, -0.0169497, -0.0177263, 0.000698666, 0.000389463, -1.94024, 56.8207, 27.1195, 6.88263, 1.6875, 3.16653, -0.00267457, -0.00212427, 0.00050222, -8.35505e-05, 0.0025146, -0.0102951, 2.63435e-05, 0.0549495, -0.022646, -0.00215545, -0.0125898, 0.0806385, 0.0647821, 0.470295, -0.540207, 0.336237, -2.08051, -2.16516, -0.131994, 0.470878, -0.542295, 0.335968, -2.08448, -2.16999, -0.118759, -0.0132738, 0.0630144, 0.00760737, 0.011289, 0.01009, -0.00390857
0.156311, 1.69516, -1.22547, -1.53785, -0.90017, -1.19941, 1.22944, -1.3025, 0.0154794, -0.000990573, -0.00190356, -0.0164264, -0.0181026, -0.00422748, 0.000259642, -1.90453, 56.781, 27.1909, 6.77154, 1.69391, 3.16653, -0.00267457, -0.00217924, 0.000523501, -8.37773e-05, 0.00251862, -0.0103699, 2.7303e-05, 0.0565572, -0.020178, -0.00182524, -0.0175439, 0.081161, 0.0618241, 0.470282, -0.540144, 0.336245, -2.08045, -2.16514, -0.132034, 0.470888, -0.542285, 0.335966, -2.08445, -2.17002, -0.118719, -0.0134137, 0.0637885, 0.00772302, 0.00875712, 0.00912288, -0.00364871
0.157311, 1.69518, -1.22548, -1.53785, -0.900195, -1.19942, 1.22944, -1.30251, 0.0116582, -0.00242361, -0.00126904, -0.016591, -0.0181563, -0.0032094, -0.00125106, -1.90453, 56.8564, 27.1909, 6.80725, 1.69391, 3.16653, 0.0357776, -0.00223057, 0.000549782, -8.00919e-05, 0.00252008, -0.0104374, 9.5291e-06, 0.0591204, -0.018497, -0.00215547, -0.0156287, 0.0809154, 0.0604537, 0.470268, -0.54008, 0.336252, -2.08038, -2.16513, -0.132074, 0.470903, -0.54227, 0.335961, -2.0844, -2.17006, -0.118691, -0.0135538, 0.064566, 0.00783963, 0.0070219, 0.00735308, -0.00421539
0.158311, 1.6952, -1.22547, -1.53785, -0.900211, -1.19944, 1.22944, -1.3025, 0.00961136, -0.000780516, -0.00260927, -0.0162012, -0.0188678, -0.00192429, -0.000121962, -1.94024, 56.8207, 27.2663, 6.69617, 1.71222, 3.1528, 0.0165515, -0.00228519, 0.000573762, -8.17739e-05, 0.0025183, -0.010515, 7.6549e-06, 0.061335, -0.0172585, -0.00136682, -0.0152428, 0.0845479, 0.056484, 0.470255, -0.540016, 0.33626, -2.08032, -2.16511, -0.132115, 0.470915, -0.542259, 0.335961, -2.08437, -2.17009, -0.118655, -0.013694, 0.0653468, 0.00795721, 0.00575735, 0.00577369, -0.00363564
0.159311, 1.69521, -1.22548, -1.53785, -0.900233, -1.19944, 1.22944, -1.3025, 0.0116356, -0.00311879, -0.00173951, -0.0176777, -0.0140502, -0.00150285, 0.00113939, -1.86486, 56.9318, 27.2663, 6.65649, 1.71222, 3.1528, -0.0164075, -0.00234033, 0.000597184, -7.79431e-05, 0.00251235, -0.0105756, 3.82792e-06, 0.0599311, -0.0196507, -0.00270827, -0.012957, 0.0794132, 0.0610307, 0.470241, -0.53995, 0.336268, -2.08025, -2.1651, -0.132156, 0.470927, -0.542246, 0.335956, -2.08434, -2.17012, -0.118642, -0.0138343, 0.0661309, 0.00807574, 0.0079054, 0.00825625, -0.00469647
0.160311, 1.69522, -1.22548, -1.53785, -0.900258, -1.19945, 1.22944, -1.3025, 0.00624319, -0.00291441, -0.00292291, -0.0210978, -0.010708, -0.000624353, 0.000759597, -1.75378, 56.9675, 27.3417, 6.58508, 1.71863, 3.13815, -0.0164075, -0.00239903, 0.000617099, -7.5288e-05, 0.00250864, -0.0106423, -9.27503e-08, 0.0617753, -0.0178237, -0.00310764, -0.0123293, 0.07832, 0.0600673, 0.470227, -0.539884, 0.336276, -2.08018, -2.16508, -0.132197, 0.470935, -0.542237, 0.335951, -2.0843, -2.17015, -0.11862, -0.0139747, 0.0669183, 0.00819524, 0.00599513, 0.00721053, -0.00521074
0.161311, 1.69523, -1.22548, -1.53786, -0.900282, -1.19945, 1.22944, -1.3025, 0.0111991, -0.00277816, -0.00454706, -0.0215543, -0.00888202, -0.00026871, -0.000239588, -1.75378, 57.0032, 27.4528, 6.54541, 1.74335, 3.13083, 0.00373412, -0.00245484, 0.000641337, -7.24626e-05, 0.00250769, -0.0107104, -7.91652e-06, 0.0602447, -0.0208002, -0.0038896, -0.0134328, 0.078238, 0.0666265, 0.470213, -0.539817, 0.336284, -2.08012, -2.16506, -0.132239, 0.470947, -0.542223, 0.335947, -2.08426, -2.17018, -0.118595, -0.0141153, 0.067709, 0.00831571, 0.00874243, 0.00976201, -0.00571546
0.162311, 1.69525, -1.22548, -1.53785, -0.90031, -1.19945, 1.22944, -1.30251, 0.01081, -0.0018521, -0.00386659, -0.025063, -0.00630487, -6.79548e-07, -0.000871802, -1.7141, 57.0032, 27.4885, 6.5097, 1.73694, 3.1235, 0.0229602, -0.00251004, 0.000665357, -7.31415e-05, 0.00250037, -0.0107783, -1.95646e-05, 0.059472, -0.0219179, -0.00354088, -0.0128069, 0.0782397, 0.0715576, 0.470199, -0.539749, 0.336293, -2.08005, -2.16505, -0.132281, 0.470959, -0.542209, 0.335946, -2.08421, -2.17022, -0.118578, -0.0142558, 0.0685029, 0.00843714, 0.00970365, 0.0113124, -0.00516599
0.163311, 1.69525, -1.22548, -1.53785, -0.900341, -1.19946, 1.22944, -1.30251, 0.00972608, -0.00123473, -0.00257773, -0.0275818, 0.00450866, 0.000438568, -0.000581201, -1.63873, 57.0032, 27.4885, 6.47003, 1.74335, 3.10977, 0.0229602, -0.00256714, 0.000687081, -7.32556e-05, 0.00249394, -0.0108446, -2.75456e-05, 0.0575942, -0.0234948, -0.00298872, -0.00712231, 0.0711202, 0.0770824, 0.470185, -0.539681, 0.336301, -2.07998, -2.16503, -0.132324, 0.470969, -0.542196, 0.335945, -2.08417, -2.17025, -0.118562, -0.0143965, 0.0692999, 0.00855954, 0.0110899, 0.0139439, -0.00425369
0.164311, 1.69525, -1.22549, -1.53785, -0.900375, -1.19945, 1.22944, -1.30251, 0.00498146, -0.00518485, -0.00348172, -0.0303661, 0.00252558, 0.000511442, -0.000624826, -1.52764, 57.1896, 27.5638, 6.47003, 1.76807, 3.10245, 0.0293689, -0.00262756, 0.00070757, -6.44013e-05, 0.00249244, -0.0109002, -3.74687e-05, 0.0606695, -0.0212684, -0.00573903, -0.00956788, 0.0698094, 0.0742878, 0.47017, -0.539612, 0.33631, -2.0799, -2.16502, -0.132367, 0.470977, -0.542184, 0.335934, -2.08412, -2.17027, -0.118552, -0.0145372, 0.0701002, 0.0086829, 0.00873854, 0.0120494, -0.00726752
0.165311, 1.69526, -1.22549, -1.53785, -0.900407, -1.19945, 1.22944, -1.3025, 0.00237964, -0.000360517, -0.00232115, -0.0298349, 0.00224758, 0.000573076, 0.00127887, -1.45226, 57.1896, 27.5638, 6.35895, 1.76166, 3.09512, -0.0164075, -0.00268567, 0.000730004, -6.66554e-05, 0.00248038, -0.0109686, -3.92288e-05, 0.0621486, -0.0198904, -0.00225822, -0.0074189, 0.0754735, 0.0701571, 0.470156, -0.539541, 0.336318, -2.07983, -2.165, -0.132411, 0.470987, -0.542171, 0.335935, -2.08409, -2.1703, -0.11854, -0.014678, 0.0709037, 0.00880724, 0.00740779, 0.0107888, -0.00390449
0.166311, 1.69527, -1.22548, -1.53784, -0.900448, -1.19945, 1.22944, -1.3025, 0.00220285, 1.76601e-05, 0.000668989, -0.0361586, 0.00174326, 0.000352686, 0.00085258, -1.45226, 57.1896, 27.6035, 6.39465, 1.76166, 3.09512, -0.0164075, -0.00274123, 0.000755818, -6.54332e-05, 0.0024764, -0.0110377, -5.72905e-05, 0.0605894, -0.021737, -0.00185746, -0.0080367, 0.0773339, 0.0776411, 0.470141, -0.539471, 0.336327, -2.07976, -2.16498, -0.132455, 0.471, -0.542153, 0.335933, -2.08404, -2.17035, -0.11852, -0.0148189, 0.0717102, 0.00893254, 0.00906939, 0.0131506, -0.00319771
0.167311, 1.69526, -1.22549, -1.53784, -0.900483, -1.19945, 1.22944, -1.30251, -0.00252361, -0.00230038, -0.000127188, -0.034038, 0.000430299, 0.000484368, -0.000889675, -1.26183, 57.2968, 27.6392, 6.28357, 1.78638, 3.0878, 0.0229602, -0.00280624, 0.00077284, -6.26072e-05, 0.00246628, -0.0111009, -6.10402e-05, 0.0648096, -0.0184962, -0.00292378, -0.00756588, 0.0766822, 0.0725166, 0.470126, -0.539399, 0.336336, -2.07969, -2.16496, -0.132499, 0.471005, -0.542144, 0.335928, -2.084, -2.17037, -0.118513, -0.0149597, 0.0725199, 0.00905882, 0.00581064, 0.00982796, -0.00469797
0.168311, 1.69526, -1.22549, -1.53784, -0.900522, -1.19945, 1.22944, -1.3025, -0.00133567, 0.00174985, -0.0016515, -0.0366361, 0.00110278, 0.000577662, 0.00157702, -1.26183, 57.2968, 27.7146, 6.20819, 1.76807, 3.08047, -0.0356336, -0.00286612, 0.000794899, -6.29667e-05, 0.00246183, -0.0111722, -6.52842e-05, 0.0641416, -0.0196023, -0.00148787, -0.00942117, 0.0814024, 0.0733512, 0.470112, -0.539326, 0.336345, -2.07961, -2.16495, -0.132544, 0.471014, -0.54213, 0.335927, -2.08396, -2.1704, -0.118491, -0.0151006, 0.0733327, 0.00918606, 0.00680464, 0.0111221, -0.00308653
0.169311, 1.69526, -1.22549, -1.53784, -0.900566, -1.19945, 1.22944, -1.30251, -0.00322884, -0.00198954, -0.00271684, -0.0396179, 0.00063504, 0.00037272, -0.00111879, -1.15075, 57.4475, 27.79, 6.17248, 1.77356, 3.08047, 0.0229602, -0.00292832, 0.000815841, -5.76482e-05, 0.00245882, -0.0112355, -8.22784e-05, 0.0655925, -0.019108, -0.00438195, -0.0120662, 0.079051, 0.0766271, 0.470096, -0.539253, 0.336354, -2.07954, -2.16493, -0.132589, 0.471022, -0.542116, 0.33592, -2.0839, -2.17044, -0.118478, -0.0152415, 0.0741485, 0.00931428, 0.00611725, 0.0109432, -0.00603414
0.170311, 1.69525, -1.22549, -1.53783, -0.900613, -1.19945, 1.22944, -1.30251, -0.00372076, 0.00109529, 0.00134276, -0.0417607, 0.00070429, 0.000239189, -0.000745861, -1.07537, 57.4832, 27.79, 6.13678, 1.76807, 3.08047, 0.0229602, -0.00298848, 0.000838599, -5.91145e-05, 0.00244791, -0.0113065, -9.82865e-05, 0.0648293, -0.0200578, -0.00140702, -0.00913418, 0.0827318, 0.0799976, 0.470081, -0.539179, 0.336364, -2.07946, -2.16491, -0.132635, 0.471032, -0.542101, 0.335921, -2.08385, -2.17048, -0.118466, -0.0153825, 0.0749674, 0.00944347, 0.00700924, 0.012088, -0.00288221
0.171311, 1.69525, -1.22549, -1.53782, -0.900661, -1.19945, 1.22944, -1.3025, -0.00326225, -0.00141167, 0.0012317, -0.0432221, -0.000353983, 0.00120365, 0.00143554, -1.0357, 57.5943, 27.79, 6.09711, 1.79187, 3.05209, -0.0292249, -0.00304984, 0.00086293, -5.7108e-05, 0.00243576, -0.0113749, -0.00010981, 0.0656075, -0.0208351, -0.00304947, -0.00970549, 0.0825562, 0.079632, 0.470066, -0.539104, 0.336373, -2.07939, -2.16489, -0.132681, 0.471043, -0.542085, 0.335917, -2.0838, -2.17052, -0.118458, -0.0155234, 0.0757893, 0.00957364, 0.00761346, 0.0124361, -0.00452557
0.172311, 1.69526, -1.22549, -1.53781, -0.900713, -1.19945, 1.22944, -1.3025, -0.000301882, -0.000598671, -0.000596902, -0.0464981, -0.000192406, 0.000797208, -2.63178e-05, -1.11108, 57.5943, 27.8614, 6.02173, 1.79187, 3.05209, -0.00267457, -0.0031076, 0.000890205, -5.8635e-05, 0.00243071, -0.0114529, -0.000137461, 0.0643936, -0.0229455, -0.00386002, -0.0133866, 0.0843664, 0.0864819, 0.47005, -0.539028, 0.336383, -2.07931, -2.16487, -0.132728, 0.471057, -0.542065, 0.335918, -2.08374, -2.17058, -0.118434, -0.0156643, 0.0766142, 0.00970477, 0.00950591, 0.0146784, -0.00507153
0.173311, 1.69524, -1.22549, -1.5378, -0.900768, -1.19944, 1.22944, -1.3025, -0.00364545, 0.000384167, 0.00295186, -0.0469723, -9.55842e-05, 0.00079882, 0.000965799, -0.960319, 57.7054, 27.8614, 5.98602, 1.79187, 3.04477, -0.0292249, -0.00317096, 0.000911594, -5.83795e-05, 0.00241822, -0.0115221, -0.000150765, 0.0657218, -0.0218973, -0.00190388, -0.00971294, 0.0857954, 0.0847628, 0.470035, -0.538951, 0.336392, -2.07923, -2.16485, -0.132775, 0.471065, -0.54205, 0.335917, -2.08369, -2.17062, -0.118426, -0.0158053, 0.0774421, 0.00983689, 0.00844273, 0.0138439, -0.00319304
0.174311, 1.69523, -1.22549, -1.53779, -0.900822, -1.19944, 1.22944, -1.3025, -0.00905804, 0.00113302, -0.00115322, -0.0486926, -0.000276567, 0.00107214, 0.00111858, -0.809562, 57.8125, 28.0121, 5.87494, 1.79828, 3.03012, -0.0420422, -0.00324028, 0.000928626, -5.39193e-05, 0.00241443, -0.0115939, -0.000154475, 0.0693187, -0.0186455, -0.00282617, -0.0129203, 0.0879016, 0.0791626, 0.470019, -0.538874, 0.336402, -2.07915, -2.16483, -0.132822, 0.471069, -0.542039, 0.33591, -2.08364, -2.17065, -0.118406, -0.0159461, 0.0782729, 0.00996998, 0.00515582, 0.0111343, -0.00444692
0.175311, 1.69522, -1.22548, -1.53778, -0.900884, -1.19944, 1.22944, -1.3025, -0.0119705, 0.00527171, 0.00490636, -0.0547985, -0.00040335, 0.000170021, -0.00142442, -0.694511, 57.7768, 28.0478, 5.83527, 1.80469, 3.04477, 0.0165515, -0.0033027, 0.000950485, -5.94802e-05, 0.00240796, -0.0116793, -0.000181193, 0.0679092, -0.0192912, 0.000982145, -0.0104299, 0.0925723, 0.087401, 0.470003, -0.538796, 0.336412, -2.07907, -2.16481, -0.13287, 0.471078, -0.542023, 0.335915, -2.08358, -2.17071, -0.118378, -0.016087, 0.0791067, 0.010104, 0.00575191, 0.012786, -0.000355799
0.176311, 1.69521, -1.22549, -1.53777, -0.900944, -1.19944, 1.22944, -1.3025, -0.0133227, 0.00161204, 0.00635794, -0.0587188, -0.000255111, 0.000382961, -0.000949611, -0.619133, 57.8879, 28.0875, 5.76385, 1.80469, 3.03744, 0.0165515, -0.00336711, 0.000972501, -5.82221e-05, 0.00240116, -0.0117508, -0.000200001, 0.0682486, -0.0198959, -0.00110293, -0.0107185, 0.0899597, 0.0902837, 0.469987, -0.538717, 0.336422, -2.07899, -2.16479, -0.132919, 0.471086, -0.542006, 0.335912, -2.08352, -2.17075, -0.118364, -0.0162278, 0.0799433, 0.0102391, 0.00615093, 0.0136449, -0.00235638
0.177311, 1.6952, -1.22549, -1.53776, -0.901004, -1.19944, 1.22944, -1.3025, -0.0102919, 0.000450305, 0.00856399, -0.0604324, 0.00441468, 0.000254067, -0.000158356, -0.583427, 58.0704, 28.0875, 5.6488, 1.80469, 3.03744, 0.00373412, -0.00343143, 0.000996019, -5.65866e-05, 0.00238941, -0.0118195, -0.000220442, 0.0659621, -0.0229985, -0.00142438, -0.00795794, 0.085856, 0.0970817, 0.469971, -0.538637, 0.336433, -2.07891, -2.16477, -0.132968, 0.471096, -0.541988, 0.33591, -2.08346, -2.1708, -0.118359, -0.0163686, 0.0807828, 0.0103751, 0.00901243, 0.0169257, -0.00227487
0.178311, 1.69518, -1.22549, -1.53774, -0.901076, -1.19943, 1.22944, -1.3025, -0.015843, -0.00164653, 0.0111697, -0.0652283, 0.00732879, 0.000439715, 0.00111513, -0.357292, 58.1815, 28.1589, 5.68848, 1.823, 3.03012, -0.0292249, -0.00349859, 0.00101592, -5.4426e-05, 0.00238464, -0.0118956, -0.000236272, 0.0669685, -0.0219207, -0.00208848, -0.00560772, 0.0823937, 0.0972419, 0.469954, -0.538556, 0.336443, -2.07883, -2.16475, -0.133017, 0.471102, -0.541972, 0.335906, -2.0834, -2.17084, -0.118338, -0.0165093, 0.0816252, 0.0105121, 0.00780982, 0.0168358, -0.00292543
0.179311, 1.69517, -1.22549, -1.53773, -0.901146, -1.19943, 1.22943, -1.3025, -0.0143251, -0.000877097, 0.01022, -0.0671356, 0.00532979, 0.000529805, 0.00121814, -0.357292, 58.3282, 28.2343, 5.6488, 1.82941, 3.02371, -0.0420422, -0.0035617, 0.0010421, -5.07434e-05, 0.002382, -0.0119694, -0.000261351, 0.0671201, -0.0229159, -0.00229863, -0.00820518, 0.0859657, 0.0996053, 0.469938, -0.538474, 0.336454, -2.07875, -2.16473, -0.133067, 0.471114, -0.541951, 0.335902, -2.08333, -2.17089, -0.118319, -0.01665, 0.0824704, 0.0106501, 0.00866232, 0.0176093, -0.00305551
0.180311, 1.69515, -1.22549, -1.53772, -0.901221, -1.19943, 1.22943, -1.30249, -0.0169301, 0.00140732, 0.00932098, -0.0686126, 0.00318254, -0.000155946, 0.00104945, -0.206535, 58.4036, 28.3097, 5.6131, 1.85321, 3.03744, -0.0484509, -0.00362864, 0.0010637, -5.16232e-05, 0.00237573, -0.0120523, -0.000282647, 0.0690245, -0.0213212, -0.0013861, -0.0105344, 0.0906105, 0.0977327, 0.469921, -0.538392, 0.336464, -2.07866, -2.16471, -0.133117, 0.471121, -0.541934, 0.335902, -2.08327, -2.17094, -0.118295, -0.0167906, 0.0833185, 0.010789, 0.00703689, 0.0163674, -0.00227611
0.181311, 1.69513, -1.22549, -1.5377, -0.901294, -1.19942, 1.22943, -1.3025, -0.021697, 9.72729e-07, 0.0103969, -0.0719833, 0.00318309, -0.000104357, -0.000724519, -0.0557783, 58.475, 28.3097, 5.53772, 1.8349, 3.03744, -0.00999879, -0.00369504, 0.00108516, -5.44686e-05, 0.00236188, -0.0121281, -0.000311382, 0.0709296, -0.0197297, -0.00203302, -0.0103888, 0.090156, 0.0987376, 0.469904, -0.538309, 0.336475, -2.07858, -2.16469, -0.133167, 0.471129, -0.541915, 0.335904, -2.0832, -2.171, -0.118287, -0.0169311, 0.0841693, 0.010929, 0.005356, 0.0153746, -0.00303488
0.182311, 1.6951, -1.22549, -1.53768, -0.901369, -1.19942, 1.22943, -1.3025, -0.0214373, -0.00121269, 0.00962003, -0.0713755, 0.00125659, -6.98654e-05, -0.00170372, 0.059273, 58.5504, 28.3851, 5.46234, 1.86603, 3.03744, 0.0229602, -0.00376459, 0.00110549, -5.53987e-05, 0.0023529, -0.0122094, -0.000335604, 0.0725314, -0.0195203, -0.00293424, -0.0116321, 0.0913896, 0.0988855, 0.469887, -0.538224, 0.336486, -2.07849, -2.16467, -0.133218, 0.471135, -0.541899, 0.335904, -2.08314, -2.17105, -0.118269, -0.0170715, 0.0850228, 0.0110699, 0.00503438, 0.0147838, -0.00403861
0.183311, 1.69509, -1.22549, -1.53767, -0.901448, -1.19942, 1.22943, -1.3025, -0.0192734, -0.00215928, 0.0112473, -0.0718737, 0.00105329, -0.00474192, -0.000186375, 0.0949785, 58.6258, 28.4961, 5.42664, 1.86603, 3.03744, -0.00267457, -0.00383124, 0.00112983, -5.46239e-05, 0.00234654, -0.0122895, -0.000362369, 0.0716054, -0.0203761, -0.00351021, -0.0148454, 0.089162, 0.101089, 0.46987, -0.538139, 0.336497, -2.07841, -2.16465, -0.13327, 0.471144, -0.541878, 0.335902, -2.08307, -2.17111, -0.11825, -0.0172118, 0.0858791, 0.0112118, 0.00569395, 0.0166837, -0.00434957
