alisrour97/Franka_experiments/Real_Robot_scripts/servo-franka/Data2/log_dyn_INIT2_13.csv
Time,q1,q2,q3,q4,q5,q6,q7,dq1,dq2,dq3,dq4,dq5,dq6,dq7,t1,t2,t3,t4,t5,t6,t7,ex1,ex2,ex3,ex4,ex5,ex6,ev1,ev2,ev3,ev4,ev5,ev6,xd,yd,zd,uxd,uyd,uzd,x,y,z,ux,uy,uz,vxd,vyd,vzd,vx,vy,vz
2.44141e-07, 1.69128, -1.23026, -1.54123, -0.900793, -1.19277, 1.22745, -1.30251, -0.00437184, -0.00343794, -0.00770253, 0.00441041, 0.00129226, -0.0197375, -0.00166393, 0.360787, 70.0436, 36.7203, 8.18787, 3.6037, 5.00949, -0.382618, -6.19211e-05, -0.00224228, 0.00417681, 0.00515083, 0.00368197, 0.00133318, 0.00287041, 0.00819939, -0.00561676, -0.0208053, -0.0142381, -0.00966692, 0.471008, -0.543389, 0.335894, -2.08385, -2.16584, -0.129887, 0.468636, -0.54289, 0.33184, -2.08062, -2.1604, -0.127795, -1.48327e-05, 4.00419e-05, -1.29039e-06, -0.00830374, -0.00226465, -0.00574583
0.0120923, 1.69124, -1.23029, -1.54134, -0.900797, -1.19276, 1.22738, -1.30251, -0.00332542, -0.00292975, -0.0137775, -0.00018422, 0.00105521, -0.01591, 0.00026174, 0.134651, 70.1151, 36.8354, 8.22754, 3.57898, 4.97287, -0.396351, -9.47329e-05, -0.00229497, 0.00423819, 0.00529588, 0.0037551, 0.00141829, 0.00273882, 0.00699008, -0.00782741, -0.0252091, -0.0107717, -0.0095103, 0.471008, -0.543389, 0.335894, -2.08385, -2.16584, -0.129887, 0.468566, -0.542924, 0.331763, -2.0806, -2.16016, -0.127675, -2.49008e-05, 7.8927e-05, 1.60533e-06, -0.00719055, -0.00170613, -0.0079418
0.0130923, 1.69124, -1.23029, -1.54134, -0.900797, -1.19276, 1.22738, -1.30251, -0.00332542, -0.00292975, -0.0137775, -0.00018422, 0.00105521, -0.01591, 0.00026174, 0.134651, 70.1151, 36.8354, 8.22754, 3.57898, 4.97287, -0.396351, -9.47418e-05, -0.00229497, 0.00423819, 0.00529588, 0.00375509, 0.00141829, 0.00278189, 0.00698071, -0.00782361, -0.0252091, -0.0107235, -0.00947964, 0.471008, -0.543389, 0.335894, -2.08385, -2.16584, -0.129887, 0.468566, -0.542924, 0.331763, -2.0806, -2.16016, -0.127675, -3.59273e-05, 0.000121646, 4.81928e-06, -0.00719055, -0.00170613, -0.0079418
0.0140923, 1.69124, -1.23029, -1.54134, -0.900797, -1.19276, 1.22738, -1.30251, -0.00332542, -0.00292975, -0.0137775, -0.00018422, 0.00105521, -0.01591, 0.00026174, 0.134651, 70.1151, 36.8354, 8.22754, 3.57898, 4.97287, -0.396351, -9.47658e-05, -0.00229497, 0.00423819, 0.00529587, 0.00375507, 0.0014183, 0.00282898, 0.00697051, -0.00781949, -0.025209, -0.0106709, -0.00944619, 0.471008, -0.543389, 0.335894, -2.08385, -2.16584, -0.129887, 0.468566, -0.542924, 0.331763, -2.0806, -2.16016, -0.127675, -4.79476e-05, 0.000168349, 8.36616e-06, -0.00719055, -0.00170613, -0.0079418
0.0150923, 1.69124, -1.23029, -1.54134, -0.900797, -1.19276, 1.22738, -1.30251, -0.00332542, -0.00292975, -0.0137775, -0.00018422, 0.00105521, -0.01591, 0.00026174, 0.134651, 70.1151, 36.8354, 8.22754, 3.57898, 4.97287, -0.396351, -9.48124e-05, -0.00229496, 0.00423818, 0.00529586, 0.00375502, 0.00141832, 0.00288024, 0.00695944, -0.00781504, -0.0252089, -0.0106136, -0.00940986, 0.471008, -0.543389, 0.335894, -2.08385, -2.16584, -0.129887, 0.468566, -0.542924, 0.331763, -2.0806, -2.16016, -0.127675, -6.09969e-05, 0.000219187, 1.22607e-05, -0.00719055, -0.00170613, -0.0079418
0.0160923, 1.69124, -1.23029, -1.54134, -0.900797, -1.19276, 1.22738, -1.30251, -0.00332542, -0.00292975, -0.0137775, -0.00018422, 0.00105521, -0.01591, 0.00026174, 0.134651, 70.1151, 36.8354, 8.22754, 3.57898, 4.97287, -0.396351, -9.48892e-05, -0.00229494, 0.00423817, 0.00529584, 0.00375495, 0.00141836, 0.00293582, 0.00694748, -0.00781025, -0.0252086, -0.0105517, -0.00937055, 0.471008, -0.543389, 0.335894, -2.08385, -2.16584, -0.129887, 0.468566, -0.542924, 0.331763, -2.0806, -2.16016, -0.127675, -7.51097e-05, 0.000274308, 1.65177e-05, -0.00719055, -0.00170613, -0.0079418
0.0170923, 1.69124, -1.23029, -1.54134, -0.900797, -1.19276, 1.22738, -1.30251, -0.00332542, -0.00292975, -0.0137775, -0.00018422, 0.00105521, -0.01591, 0.00026174, 0.134651, 70.1151, 36.8354, 8.22754, 3.57898, 4.97287, -0.396351, -9.50036e-05, -0.00229491, 0.00423816, 0.00529581, 0.00375484, 0.00141841, 0.00299588, 0.00693458, -0.00780511, -0.0252083, -0.0104847, -0.00932815, 0.471008, -0.543389, 0.335894, -2.08385, -2.16584, -0.129887, 0.468566, -0.542924, 0.331763, -2.0806, -2.16016, -0.127675, -9.03198e-05, 0.000333859, 2.1152e-05, -0.00719055, -0.00170613, -0.0079418
0.0180923, 1.69124, -1.23029, -1.54134, -0.900797, -1.19276, 1.22738, -1.30251, -0.00332542, -0.00292975, -0.0137775, -0.00018422, 0.00105521, -0.01591, 0.00026174, 0.134651, 70.1151, 36.8354, 8.22754, 3.57898, 4.97287, -0.396351, -9.5163e-05, -0.00229488, 0.00423815, 0.00529577, 0.00375469, 0.00141848, 0.00306055, 0.00692073, -0.00779962, -0.0252078, -0.0104128, -0.00928257, 0.471008, -0.543389, 0.335894, -2.08385, -2.16584, -0.129887, 0.468566, -0.542924, 0.331763, -2.0806, -2.16016, -0.127675, -0.000106661, 0.000397984, 2.61782e-05, -0.00719055, -0.00170613, -0.0079418
0.0190923, 1.69124, -1.23029, -1.54134, -0.900797, -1.19276, 1.22738, -1.30251, -0.00332542, -0.00292975, -0.0137775, -0.00018422, 0.00105521, -0.01591, 0.00026174, 0.134651, 70.1151, 36.8354, 8.22754, 3.57898, 4.97287, -0.396351, -9.53748e-05, -0.00229483, 0.00423813, 0.00529572, 0.00375449, 0.00141858, 0.00312998, 0.0069059, -0.00779375, -0.0252073, -0.0103355, -0.00923372, 0.471008, -0.543389, 0.335894, -2.08385, -2.16584, -0.129887, 0.468566, -0.542924, 0.331763, -2.0806, -2.16016, -0.127675, -0.000124165, 0.000466826, 3.16113e-05, -0.00719055, -0.00170613, -0.0079418
0.0200923, 1.69124, -1.23029, -1.54134, -0.900797, -1.19276, 1.22738, -1.30251, -0.00332542, -0.00292975, -0.0137775, -0.00018422, 0.00105521, -0.01591, 0.00026174, 0.134651, 70.1151, 36.8354, 8.22754, 3.57898, 4.97287, -0.396351, -9.56464e-05, -0.00229478, 0.00423811, 0.00529566, 0.00375423, 0.0014187, 0.00320432, 0.00689007, -0.00778751, -0.0252066, -0.0102529, -0.00918151, 0.471008, -0.543388, 0.335894, -2.08385, -2.16584, -0.129887, 0.468566, -0.542924, 0.331763, -2.0806, -2.16016, -0.127675, -0.000142864, 0.000540525, 3.74658e-05, -0.00719055, -0.00170613, -0.0079418
0.0210923, 1.69124, -1.23029, -1.54134, -0.900797, -1.19276, 1.22738, -1.30251, -0.00332542, -0.00292975, -0.0137775, -0.00018422, 0.00105521, -0.01591, 0.00026174, 0.134651, 70.1151, 36.8354, 8.22754, 3.57898, 4.97287, -0.396351, -9.5985e-05, -0.0022947, 0.00423808, 0.00529557, 0.00375391, 0.00141885, 0.0032837, 0.0068732, -0.00778089, -0.0252057, -0.0101648, -0.00912584, 0.471008, -0.543388, 0.335894, -2.08384, -2.16584, -0.129888, 0.468566, -0.542924, 0.331763, -2.0806, -2.16016, -0.127675, -0.000162789, 0.000619218, 4.37565e-05, -0.00719055, -0.00170613, -0.0079418
0.0220923, 1.69124, -1.23029, -1.54134, -0.900797, -1.19276, 1.22738, -1.30251, -0.00332542, -0.00292975, -0.0137775, -0.00018422, 0.00105521, -0.01591, 0.00026174, 0.134651, 70.1151, 36.8354, 8.22754, 3.57898, 4.97287, -0.396351, -9.63981e-05, -0.00229461, 0.00423804, 0.00529547, 0.00375352, 0.00141903, 0.00336826, 0.00685527, -0.00777388, -0.0252048, -0.0100709, -0.00906664, 0.471008, -0.543388, 0.335894, -2.08384, -2.16584, -0.129888, 0.468566, -0.542924, 0.331763, -2.0806, -2.16016, -0.127675, -0.000183971, 0.000703042, 5.04979e-05, -0.00719055, -0.00170613, -0.0079418
0.0230923, 1.69119, -1.23035, -1.54146, -0.900823, -1.19275, 1.2273, -1.30251, -0.00102765, -0.00729461, -0.00827777, 0.00109937, 0.000379853, -0.006975, -0.00133439, -0.0161054, 70.8173, 37.0575, 8.37433, 3.51123, 5.14499, -0.356984, -0.000130406, -0.00234877, 0.00432616, 0.00547716, 0.00385437, 0.00149156, 0.00314908, 0.00321974, -0.00755106, -0.0130576, -0.00973771, -0.00376727, 0.471008, -0.543387, 0.335894, -2.08384, -2.16584, -0.129888, 0.46851, -0.542946, 0.331673, -2.08053, -2.15996, -0.127569, -0.000206438, 0.000792126, 5.77046e-05, -0.00358198, -0.00128624, -0.0077901
0.0240923, 1.69119, -1.23035, -1.54147, -0.900833, -1.19274, 1.22729, -1.3025, 0.000185751, -0.00318803, -0.00813949, -0.00186347, 0.000253245, -0.0059327, 0.00151791, -0.0557783, 70.7419, 37.0179, 8.48541, 3.51123, 5.16696, -0.421986, -0.000127059, -0.00234787, 0.00432905, 0.00549474, 0.00385444, 0.00149053, 0.00155974, 0.00172934, -0.00546252, -0.0133449, -0.00462483, -0.00281724, 0.471007, -0.543387, 0.335894, -2.08384, -2.16584, -0.129889, 0.468511, -0.542942, 0.33167, -2.08052, -2.15995, -0.12755, -0.000230219, 0.000886601, 6.53909e-05, -0.00209874, 0.000116807, -0.00551839
0.0250923, 1.69118, -1.23036, -1.54148, -0.90084, -1.19274, 1.22728, -1.30251, -0.0026103, -0.0070084, -0.0156023, -0.00468498, -0.00153774, -0.00685648, -0.00139556, 0.059273, 70.4086, 36.76, 8.48541, 3.43158, 5.10928, -0.356984, -0.000131692, -0.00235353, 0.00433807, 0.00551129, 0.0038622, 0.00149363, 0.00420997, 0.00427517, -0.0106712, -0.0227254, -0.00668696, -0.00422184, 0.471007, -0.543386, 0.335894, -2.08384, -2.16584, -0.129889, 0.468505, -0.542945, 0.331661, -2.08051, -2.15994, -0.12754, -0.000255341, 0.00098659, 7.35711e-05, -0.00475964, -0.00170204, -0.010988
0.0260923, 1.69118, -1.23036, -1.54153, -0.900842, -1.19275, 1.22727, -1.30251, -0.00177236, -0.00761244, -0.0333869, -0.0014852, -0.00270419, -0.00563603, -0.00432122, 0.059273, 69.4168, 36.4625, 8.26324, 3.21094, 4.99484, -0.265431, -0.000140375, -0.00236382, 0.00435602, 0.00556468, 0.00386455, 0.00151237, 0.00898077, 0.00754853, -0.0168219, -0.0364311, -0.00473088, -0.0121074, 0.471007, -0.543385, 0.335894, -2.08384, -2.16584, -0.12989, 0.468494, -0.54295, 0.331642, -2.0805, -2.15989, -0.127482, -0.00028183, 0.00109222, 8.22592e-05, -0.00810669, -0.00549352, -0.0176944
0.0270923, 1.6912, -1.23035, -1.54158, -0.900849, -1.19275, 1.22725, -1.30251, 0.00408402, -0.000674684, -0.0393864, -0.0031078, -0.00779961, -0.00949378, -0.0036268, -0.166862, 67.9053, 35.8277, 8.03711, 2.95917, 4.87308, -0.245289, -0.000141709, -0.00236748, 0.00437397, 0.00563805, 0.00385612, 0.00152277, 0.00722897, 0.00634585, -0.0157271, -0.048518, 0.0052894, -0.0102372, 0.471007, -0.543384, 0.335894, -2.08384, -2.16584, -0.129891, 0.46849, -0.542948, 0.331625, -2.08047, -2.15986, -0.127392, -0.000309711, 0.0012036, 9.14692e-05, -0.00695657, -0.00377198, -0.0163686
0.0280923, 1.69121, -1.23035, -1.54164, -0.900862, -1.19276, 1.22722, -1.3025, 0.00539585, 0.00148435, -0.0473071, -0.00726944, -0.00782366, -0.0178139, -0.00387593, -0.281914, 66.2866, 34.8993, 7.77924, 2.7193, 4.76504, -0.205922, -0.000145697, -0.00237704, 0.00440237, 0.00573455, 0.00386067, 0.00153868, 0.00610581, 0.00762819, -0.0186209, -0.0646846, 0.00438299, -0.00881363, 0.471007, -0.543383, 0.335894, -2.08384, -2.16584, -0.129891, 0.468479, -0.542947, 0.331596, -2.08043, -2.1598, -0.127289, -0.000339009, 0.00132085, 0.000101215, -0.00841118, -0.00215294, -0.0190033
0.0290923, 1.69123, -1.23037, -1.54173, -0.900873, -1.19278, 1.22717, -1.30251, 0.00887338, -0.00444102, -0.0599, -0.00965137, -0.013971, -0.0292759, -0.00550007, -0.508049, 64.9219, 34.0781, 7.47772, 2.51697, 4.66525, -0.127186, -0.000154232, -0.00238809, 0.00445407, 0.00586831, 0.00388198, 0.00155504, 0.00713916, 0.0100439, -0.0280644, -0.0907, -0.000898821, -0.00955363, 0.471006, -0.543382, 0.335894, -2.08384, -2.16584, -0.129892, 0.468466, -0.542947, 0.331544, -2.08037, -2.15972, -0.127161, -0.000369746, 0.00144407, 0.00011151, -0.0111584, -0.00169513, -0.0284053
0.0300923, 1.69125, -1.23041, -1.54183, -0.900898, -1.19281, 1.22713, -1.3025, 0.0126476, -0.0120083, -0.0718012, -0.015494, -0.0207402, -0.0329768, -0.00315809, -0.658806, 63.6682, 33.1855, 7.33093, 2.36316, 4.55722, -0.140919, -0.000164557, -0.00240071, 0.00451798, 0.00602292, 0.00390759, 0.00157546, 0.00796149, 0.0100175, -0.0380496, -0.11149, -0.00318076, -0.0107733, 0.471006, -0.543381, 0.335894, -2.08384, -2.16584, -0.129893, 0.468451, -0.542946, 0.33148, -2.08029, -2.15963, -0.127015, -0.000401943, 0.00157338, 0.000122367, -0.0114954, -0.000839579, -0.0383825
0.0310923, 1.69126, -1.23046, -1.54194, -0.900917, -1.19284, 1.22708, -1.3025, 0.0175306, -0.0214283, -0.0762467, -0.0155889, -0.0245522, -0.0364612, -0.000172613, -0.76989, 62.5653, 32.2175, 7.02942, 2.30823, 4.34939, -0.193104, -0.000182889, -0.00241797, 0.00459134, 0.00618876, 0.00393502, 0.00161423, 0.00806719, 0.00892103, -0.0457237, -0.121794, -0.0105526, -0.0119715, 0.471006, -0.54338, 0.335895, -2.08384, -2.16584, -0.129894, 0.468432, -0.542952, 0.331405, -2.08023, -2.15951, -0.126856, -0.00043562, 0.00170887, 0.000133799, -0.0107072, 0.000417701, -0.0459981
0.0320923, 1.69128, -1.23052, -1.54206, -0.900943, -1.19288, 1.22705, -1.3025, 0.0146214, -0.0334886, -0.0870536, -0.0190632, -0.031622, -0.0381728, -0.000352435, -0.734184, 61.6806, 31.2891, 6.84296, 2.24689, 4.09854, -0.186696, -0.000204907, -0.00243635, 0.00467671, 0.00636484, 0.00397025, 0.00164827, 0.0130102, 0.012571, -0.0571114, -0.13824, -0.0165715, -0.0188114, 0.471005, -0.543378, 0.335895, -2.08383, -2.16584, -0.129895, 0.46841, -0.54296, 0.331318, -2.08015, -2.15938, -0.126694, -0.000470796, 0.00185063, 0.00014582, -0.0146219, -0.00271689, -0.0578877
0.0330923, 1.6913, -1.23058, -1.54218, -0.900968, -1.19293, 1.227, -1.3025, 0.0175801, -0.0449187, -0.0933307, -0.0207006, -0.0374114, -0.0402902, -0.000234956, -0.76989, 61.0538, 30.3925, 6.62079, 2.20935, 3.86233, -0.186696, -0.00022611, -0.00245319, 0.00476813, 0.00654845, 0.00401363, 0.00167972, 0.0146134, 0.0124728, -0.0666106, -0.150477, -0.023457, -0.0191715, 0.471005, -0.543376, 0.335895, -2.08383, -2.16584, -0.129896, 0.468391, -0.542966, 0.331226, -2.08006, -2.15925, -0.126533, -0.000507488, 0.00199877, 0.000158442, -0.0148462, -0.00268517, -0.0675066
0.0340923, 1.69132, -1.23063, -1.54231, -0.900996, -1.19298, 1.22696, -1.3025, 0.0158823, -0.0461635, -0.103411, -0.0232215, -0.041491, -0.0392492, 0.00031808, -0.76989, 60.2802, 29.611, 6.47003, 2.17273, 3.67557, -0.199513, -0.00024668, -0.00247065, 0.00485116, 0.00674231, 0.00403075, 0.00171394, 0.017878, 0.014877, -0.0710721, -0.161332, -0.0198596, -0.0252462, 0.471004, -0.543375, 0.335895, -2.08383, -2.16584, -0.129898, 0.468371, -0.542972, 0.331141, -2.07998, -2.15913, -0.126334, -0.000545713, 0.00215336, 0.000171677, -0.0173298, -0.00516504, -0.072333
0.0350923, 1.69132, -1.23063, -1.54231, -0.900996, -1.19298, 1.22696, -1.3025, 0.0158823, -0.0461635, -0.103411, -0.0232215, -0.041491, -0.0392492, 0.00031808, -0.76989, 60.2802, 29.611, 6.47003, 2.17273, 3.67557, -0.199513, -0.000248711, -0.00247021, 0.00485099, 0.00674179, 0.00402884, 0.00171483, 0.0180408, 0.0148434, -0.0710595, -0.161328, -0.0196807, -0.0251347, 0.471004, -0.543373, 0.335895, -2.08383, -2.16584, -0.129899, 0.468371, -0.542972, 0.331141, -2.07998, -2.15913, -0.126334, -0.000585484, 0.00231447, 0.000185536, -0.0173298, -0.00516504, -0.072333
0.0360923, 1.69136, -1.23073, -1.54258, -0.901042, -1.19307, 1.22687, -1.3025, 0.0206252, -0.0437328, -0.123223, -0.0189918, -0.0436349, -0.0405225, -0.00262782, -0.734184, 59.2883, 28.3097, 6.0614, 2.01343, 3.41739, -0.133595, -0.00029238, -0.00250728, 0.00502022, 0.00713015, 0.00406778, 0.00178846, 0.02151, 0.0171453, -0.0764082, -0.179307, -0.014896, -0.0313483, 0.471003, -0.54337, 0.335895, -2.08383, -2.16584, -0.129901, 0.468328, -0.542989, 0.330968, -2.07983, -2.15888, -0.125937, -0.000626814, 0.0024822, 0.000200032, -0.0197391, -0.00769297, -0.078069
0.0370923, 1.69139, -1.23076, -1.54272, -0.901066, -1.19312, 1.22684, -1.30249, 0.0247331, -0.0429201, -0.12676, -0.0231239, -0.0450779, -0.0364807, -0.00148061, -0.734184, 58.8837, 27.8614, 5.95032, 1.94568, 3.29562, -0.140919, -0.000312481, -0.00252027, 0.00509488, 0.00732512, 0.00405483, 0.00182657, 0.0200023, 0.0139553, -0.0776055, -0.182101, -0.0099804, -0.0268865, 0.471003, -0.543368, 0.335896, -2.08382, -2.16584, -0.129903, 0.468313, -0.542995, 0.330892, -2.07977, -2.15877, -0.125706, -0.000669715, 0.00265659, 0.000215176, -0.0166933, -0.0057151, -0.0790983
0.0380923, 1.69142, -1.23079, -1.54286, -0.901098, -1.19317, 1.22682, -1.30249, 0.0283967, -0.0373922, -0.128031, -0.0260543, -0.0507348, -0.033901, -3.76387e-05, -0.619133, 58.6972, 27.6392, 5.98602, 1.87244, 3.18118, -0.166554, -0.000332717, -0.00253273, 0.00516627, 0.00751323, 0.00403351, 0.00186137, 0.0188419, 0.0117061, -0.0751618, -0.185112, 0.00210501, -0.024623, 0.471002, -0.543365, 0.335896, -2.08382, -2.16584, -0.129904, 0.468298, -0.543002, 0.330819, -2.07972, -2.15867, -0.125475, -0.000714195, 0.00283772, 0.000230977, -0.0144448, -0.00467233, -0.0765572
0.0390923, 1.69144, -1.23079, -1.54299, -0.901138, -1.19323, 1.2268, -1.30249, 0.0265166, -0.0295386, -0.128696, -0.0303336, -0.0545171, -0.0232027, -2.50925e-05, -0.43267, 58.5147, 27.4528, 6.13678, 1.79828, 3.0878, -0.166554, -0.000348945, -0.00254145, 0.0052262, 0.00769245, 0.00399151, 0.00188673, 0.0198906, 0.0105001, -0.0703309, -0.179231, 0.0188833, -0.0243476, 0.471001, -0.543363, 0.335896, -2.08382, -2.16584, -0.129906, 0.468287, -0.543007, 0.330758, -2.07967, -2.1586, -0.125234, -0.000760263, 0.00302564, 0.000247448, -0.0130745, -0.00621389, -0.0719696
0.0400923, 1.69146, -1.2308, -1.54312, -0.901183, -1.19328, 1.22678, -1.30248, 0.0210928, -0.0227905, -0.129539, -0.0358645, -0.0530772, -0.0229212, -0.000966164, -0.0557783, 58.5861, 27.4528, 6.39465, 1.72504, 3.08047, -0.140919, -0.000367774, -0.00255428, 0.00528213, 0.00786559, 0.00394536, 0.00191502, 0.0201589, 0.0123355, -0.0670987, -0.180245, 0.0251242, -0.0238396, 0.471001, -0.54336, 0.335896, -2.08381, -2.16584, -0.129908, 0.468272, -0.543014, 0.3307, -2.07963, -2.15853, -0.124995, -0.000807924, 0.0032204, 0.000264596, -0.014829, -0.00685647, -0.0687473
0.0410923, 1.69147, -1.23078, -1.54325, -0.901229, -1.19333, 1.22677, -1.30248, 0.0125406, -0.0121549, -0.130038, -0.0385542, -0.0525232, -0.0211422, -0.000644109, 0.400459, 58.5861, 27.7146, 6.62079, 1.66919, 3.16653, -0.140919, -0.000388468, -0.00257182, 0.00532872, 0.00804538, 0.00387807, 0.00195129, 0.0225737, 0.0163932, -0.0607694, -0.177906, 0.0363411, -0.0303822, 0.471, -0.543357, 0.335896, -2.08381, -2.16584, -0.129911, 0.468253, -0.543025, 0.330652, -2.0796, -2.15846, -0.124726, -0.000857184, 0.00342203, 0.000282433, -0.0186158, -0.0101791, -0.0627324
0.0420923, 1.69148, -1.23078, -1.54337, -0.901276, -1.19339, 1.22675, -1.30248, 0.0130311, -0.0100441, -0.124162, -0.0411248, -0.0484677, -0.0128099, -0.000700674, 0.85273, 58.9908, 27.9011, 6.88263, 1.64447, 3.33133, -0.133595, -0.000406802, -0.00258469, 0.00537568, 0.0082081, 0.00381982, 0.00197844, 0.020473, 0.0125133, -0.0570914, -0.164742, 0.0393398, -0.0233159, 0.470999, -0.543353, 0.335897, -2.08381, -2.16584, -0.129913, 0.468238, -0.543033, 0.330603, -2.07957, -2.1584, -0.124487, -0.000908043, 0.00363059, 0.000300968, -0.0147342, -0.00830393, -0.0588731
0.0430923, 1.69148, -1.23075, -1.54348, -0.901323, -1.19345, 1.22674, -1.30249, 0.0111946, 0.00397193, -0.117656, -0.0411946, -0.0509309, -0.0101776, -0.0023999, 1.41608, 59.1772, 28.274, 7.06909, 1.64447, 3.48239, -0.0814099, -0.000426107, -0.00260072, 0.00540476, 0.00835788, 0.00373507, 0.00200518, 0.0196426, 0.0123761, -0.0462064, -0.156462, 0.0563799, -0.0212173, 0.470998, -0.54335, 0.335897, -2.0838, -2.16584, -0.129916, 0.468221, -0.543045, 0.330572, -2.07955, -2.15836, -0.124235, -0.000960503, 0.00384608, 0.000320207, -0.0142863, -0.00893855, -0.047981
0.0440923, 1.69148, -1.23073, -1.54358, -0.901372, -1.19351, 1.22674, -1.30249, 0.0046465, 0.00798327, -0.114432, -0.0441818, -0.0575812, -0.0106322, -0.00400743, 1.9477, 59.6573, 28.754, 7.25555, 1.65088, 3.58218, -0.0164075, -0.000446415, -0.00261575, 0.00543657, 0.00850322, 0.00365261, 0.00203064, 0.0221241, 0.0156788, -0.0427926, -0.157179, 0.0656614, -0.0240557, 0.470997, -0.543346, 0.335897, -2.0838, -2.16584, -0.129919, 0.468204, -0.543057, 0.330539, -2.07954, -2.15832, -0.123991, -0.00101456, 0.00406854, 0.000340161, -0.0174268, -0.0118265, -0.0448759
0.0450923, 1.69148, -1.23072, -1.54367, -0.901418, -1.19357, 1.22674, -1.30249, 0.00598088, 0.00789246, -0.10614, -0.0460205, -0.0638549, -0.0101176, -0.00290898, 2.3603, 60.4309, 29.2777, 7.40631, 1.69391, 3.66092, -0.00999879, -0.00046594, -0.00262699, 0.00546792, 0.00863407, 0.00357437, 0.00205532, 0.0208126, 0.0136123, -0.040167, -0.153485, 0.070897, -0.0201775, 0.470996, -0.543342, 0.335898, -2.08379, -2.16583, -0.129921, 0.468192, -0.543068, 0.330505, -2.07953, -2.15829, -0.123768, -0.00107022, 0.00429798, 0.000360835, -0.0153707, -0.0106219, -0.0421214
0.0460923, 1.69147, -1.2307, -1.54377, -0.901467, -1.19364, 1.22673, -1.30248, 0.00199057, 0.00970271, -0.104434, -0.0453891, -0.0645644, -0.00950879, 0.00390409, 2.85224, 61.3116, 30.0236, 7.47772, 1.76166, 3.73324, -0.0420422, -0.000490927, -0.0026455, 0.00549879, 0.00877004, 0.00349179, 0.00209555, 0.0226953, 0.0156473, -0.0381278, -0.15072, 0.0735699, -0.0307757, 0.470995, -0.543338, 0.335898, -2.08379, -2.16583, -0.129925, 0.468172, -0.543084, 0.330472, -2.07954, -2.15824, -0.123533, -0.00112746, 0.0045344, 0.000382238, -0.0173194, -0.0126412, -0.0403175
0.0470923, 1.69148, -1.23068, -1.54385, -0.901497, -1.19371, 1.22673, -1.30248, 0.00512052, 0.0100821, -0.0952015, -0.0424999, -0.0651632, -0.0098616, 0.00444884, 3.07838, 62.2717, 30.7297, 7.29126, 1.84131, 3.82663, -0.0814099, -0.000513411, -0.0026585, 0.0055205, 0.00888902, 0.00340317, 0.00213475, 0.0205545, 0.012981, -0.0344061, -0.142307, 0.0738048, -0.0263776, 0.470994, -0.543333, 0.335898, -2.08379, -2.16583, -0.129928, 0.468158, -0.543099, 0.330448, -2.07956, -2.1582, -0.123311, -0.00118629, 0.0047778, 0.000404375, -0.0146576, -0.0107481, -0.0363685
0.0480923, 1.69148, -1.23067, -1.54393, -0.901535, -1.19378, 1.22672, -1.30248, 0.00569925, 0.00892944, -0.0855317, -0.0395724, -0.0664438, -0.0108608, 0.00179887, 3.22913, 63.45, 31.4716, 7.18018, 1.94568, 3.94107, -0.0420422, -0.000532324, -0.00267011, 0.00554558, 0.00901537, 0.0033229, 0.00215838, 0.0196762, 0.0118441, -0.0313472, -0.134096, 0.0726255, -0.0213172, 0.470993, -0.543328, 0.335899, -2.08378, -2.16583, -0.129931, 0.468145, -0.543109, 0.330421, -2.07955, -2.15817, -0.123091, -0.00124669, 0.00502817, 0.000427252, -0.0135035, -0.010055, -0.0332232
0.0490923, 1.69149, -1.23064, -1.544, -0.901562, -1.19385, 1.2267, -1.30248, 0.00428415, 0.0168759, -0.0810535, -0.0369105, -0.0710722, -0.014431, 0.00216351, 3.30451, 64.4418, 32.2175, 6.91833, 2.02533, 4.13424, -0.0621838, -0.000552272, -0.00268555, 0.00555773, 0.0091368, 0.00322885, 0.00219253, 0.0202552, 0.0137036, -0.0249243, -0.133275, 0.0822863, -0.0248068, 0.470992, -0.543323, 0.335899, -2.08377, -2.16583, -0.129935, 0.468128, -0.543123, 0.330407, -2.07957, -2.15814, -0.122861, -0.00130866, 0.00528549, 0.000450875, -0.0151699, -0.0114342, -0.0268914
0.0500923, 1.69149, -1.23062, -1.54407, -0.901586, -1.19392, 1.22669, -1.30248, 0.00277878, 0.0167802, -0.0775443, -0.0324089, -0.0738869, -0.0162936, 0.00208077, 3.37989, 65.6955, 32.9633, 6.65649, 2.08667, 4.31369, -0.0750012, -0.000575146, -0.00270299, 0.00557553, 0.00925458, 0.00314894, 0.00223432, 0.0221687, 0.0155344, -0.0231704, -0.130764, 0.0832009, -0.0292309, 0.47099, -0.543318, 0.3359, -2.08377, -2.16583, -0.129939, 0.46811, -0.543138, 0.330387, -2.07958, -2.1581, -0.122649, -0.00137217, 0.00554973, 0.000475247, -0.01693, -0.013404, -0.0253772
0.0510923, 1.69148, -1.23059, -1.54413, -0.90162, -1.194, 1.22666, -1.30248, 0.00218894, 0.0194943, -0.0729912, -0.0286565, -0.0764865, -0.0175286, 0.00150996, 3.41956, 66.727, 33.6338, 6.5097, 2.16083, 4.49313, -0.0750012, -0.000594189, -0.00271922, 0.00558404, 0.00937521, 0.00305063, 0.00226159, 0.0230173, 0.0164064, -0.0194908, -0.126953, 0.0870838, -0.0310924, 0.470989, -0.543313, 0.3359, -2.08376, -2.16583, -0.129943, 0.468093, -0.543151, 0.330376, -2.07959, -2.15808, -0.122418, -0.00143722, 0.00582086, 0.000500373, -0.0177026, -0.0145728, -0.0218243
0.0520923, 1.69148, -1.23056, -1.54419, -0.901645, -1.19409, 1.22665, -1.30248, -0.00274179, 0.0182902, -0.0712432, -0.0313355, -0.0732135, -0.0162107, -0.000834054, 3.37989, 67.7585, 34.3757, 6.32324, 2.22858, 4.6149, -0.0228162, -0.000618335, -0.00273751, 0.00559469, 0.00949351, 0.00295153, 0.0022987, 0.0239264, 0.01758, -0.0195577, -0.123333, 0.0840962, -0.0291255, 0.470987, -0.543307, 0.335901, -2.08376, -2.16583, -0.129947, 0.468074, -0.543168, 0.330363, -2.07961, -2.15805, -0.122187, -0.00150377, 0.00609884, 0.000526256, -0.0189111, -0.01523, -0.0219704
0.0530923, 1.69148, -1.23053, -1.54425, -0.901676, -1.19417, 1.22663, -1.30248, -0.000787846, 0.0214138, -0.0662916, -0.0305009, -0.0799139, -0.0158708, 0.00168317, 3.34419, 68.7543, 34.9708, 6.28357, 2.28351, 4.75131, -0.0814099, -0.000638863, -0.00275331, 0.00560269, 0.00960917, 0.00285209, 0.00233733, 0.0236549, 0.0164805, -0.015896, -0.121468, 0.0928724, -0.0301799, 0.470986, -0.543301, 0.335901, -2.08375, -2.16583, -0.129951, 0.468057, -0.543181, 0.330353, -2.07964, -2.15802, -0.121959, -0.00157182, 0.00638361, 0.000552899, -0.0177585, -0.015196, -0.0183192
0.0540923, 1.69148, -1.2305, -1.54431, -0.901707, -1.19426, 1.22661, -1.30247, -0.00434394, 0.0230196, -0.0628764, -0.031216, -0.0845958, -0.0150989, 0.00141127, 3.37989, 69.7858, 35.5698, 6.32324, 2.32654, 4.87308, -0.0878186, -0.000664392, -0.00277262, 0.0056136, 0.00972798, 0.0027498, 0.0023779, 0.0254696, 0.0180688, -0.0135608, -0.119626, 0.0987283, -0.0325518, 0.470984, -0.543294, 0.335902, -2.08374, -2.16583, -0.129956, 0.468036, -0.543199, 0.330339, -2.07966, -2.15798, -0.121724, -0.00164135, 0.0066751, 0.000580303, -0.019265, -0.0171206, -0.01622
0.0550923, 1.69147, -1.23046, -1.54436, -0.901745, -1.19435, 1.22659, -1.30248, -0.00541892, 0.0288746, -0.0641841, -0.0349909, -0.0827257, -0.0145821, -0.0002071, 3.34419, 70.484, 36.0538, 6.5097, 2.35126, 4.99484, -0.0557752, -0.000685387, -0.00278909, 0.00561429, 0.00984808, 0.00262755, 0.00240594, 0.0245578, 0.017805, -0.0109773, -0.120558, 0.103974, -0.0286208, 0.470983, -0.543288, 0.335902, -2.08374, -2.16583, -0.12996, 0.468019, -0.543214, 0.330336, -2.07968, -2.15797, -0.12147, -0.00171231, 0.00697325, 0.000608468, -0.0190117, -0.0163094, -0.0135074
0.0560923, 1.69146, -1.23042, -1.54442, -0.901778, -1.19445, 1.22657, -1.30248, -0.00976261, 0.0302868, -0.0612968, -0.0330754, -0.0863751, -0.014236, -0.00156699, 3.45527, 71.1465, 36.4982, 6.65649, 2.38147, 5.11661, -0.0164075, -0.000712637, -0.00281236, 0.00561592, 0.0099695, 0.00250661, 0.00244686, 0.0273909, 0.0204724, -0.00857245, -0.117711, 0.108366, -0.032887, 0.470981, -0.543281, 0.335903, -2.08373, -2.16582, -0.129965, 0.467995, -0.543235, 0.330332, -2.07971, -2.15795, -0.121214, -0.00178469, 0.00727797, 0.000637396, -0.0215597, -0.019281, -0.0114636
0.0570923, 1.69146, -1.23038, -1.54447, -0.901812, -1.19455, 1.22654, -1.30248, -0.00926057, 0.0313122, -0.0590555, -0.0321182, -0.0928173, -0.0148179, 0.000672612, 3.41956, 71.6623, 36.7957, 6.84296, 2.39429, 5.26034, -0.0621838, -0.000733956, -0.00282865, 0.0056176, 0.0100946, 0.00238489, 0.0024838, 0.0284253, 0.0207974, -0.00708841, -0.118787, 0.114523, -0.036358, 0.470979, -0.543273, 0.335904, -2.08372, -2.16582, -0.129971, 0.467978, -0.543249, 0.330328, -2.07974, -2.15793, -0.120953, -0.00185846, 0.00758918, 0.000667086, -0.0218674, -0.0202329, -0.0101195
0.0580923, 1.69146, -1.23034, -1.54452, -0.901849, -1.19464, 1.22652, -1.30247, -0.00908637, 0.0369434, -0.0553438, -0.0322911, -0.0907262, -0.0154423, 0.00117687, 3.37989, 72.067, 36.9822, 7.06909, 2.33295, 5.41049, -0.0814099, -0.000753561, -0.00284401, 0.00561772, 0.0102133, 0.00226753, 0.00251356, 0.0268677, 0.019915, -0.00252215, -0.114722, 0.118245, -0.0339814, 0.470977, -0.543266, 0.335904, -2.08371, -2.16582, -0.129976, 0.467961, -0.543261, 0.330326, -2.07976, -2.15792, -0.120706, -0.00193359, 0.00790677, 0.000697537, -0.020952, -0.0190448, -0.00536518
0.0590923, 1.69145, -1.23031, -1.54459, -0.901882, -1.19474, 1.22649, -1.30248, -0.00858351, 0.0372172, -0.0588148, -0.0346122, -0.0950239, -0.0252949, -0.000898546, 3.45527, 72.4716, 37.2797, 7.25555, 2.30823, 5.56064, -0.0356336, -0.000782933, -0.00286795, 0.00562867, 0.0103534, 0.00215198, 0.00255605, 0.0267962, 0.0219734, -0.00475443, -0.129461, 0.117939, -0.0322782, 0.470975, -0.543258, 0.335905, -2.0837, -2.16582, -0.129982, 0.467936, -0.543281, 0.330312, -2.07978, -2.15788, -0.120435, -0.00201003, 0.00823062, 0.000728745, -0.0231673, -0.0183909, -0.00746513
0.0600923, 1.69146, -1.23029, -1.54465, -0.901915, -1.19485, 1.22646, -1.30248, -0.00453113, 0.0319409, -0.0563216, -0.0328423, -0.0977373, -0.0263475, -0.00130189, 3.37989, 72.8406, 37.3551, 7.44202, 2.25879, 5.66867, -0.0164075, -0.000806894, -0.00288413, 0.00564189, 0.0104897, 0.00204335, 0.00258723, 0.0262471, 0.01999, -0.00700491, -0.129683, 0.114576, -0.0288013, 0.470973, -0.54325, 0.335906, -2.08369, -2.16582, -0.129988, 0.467918, -0.543295, 0.330296, -2.07979, -2.15786, -0.120177, -0.00208776, 0.00856062, 0.000760709, -0.021365, -0.0170908, -0.00962998
0.0610923, 1.69147, -1.23025, -1.54471, -0.901948, -1.19495, 1.22643, -1.30248, 0.00536973, 0.0335335, -0.0574046, -0.0333159, -0.100503, -0.0316416, 0.00083441, 3.26881, 72.9517, 37.3908, 7.5531, 2.22858, 5.76938, -0.0621838, -0.000827166, -0.00289831, 0.00565284, 0.0106367, 0.00192912, 0.00262025, 0.0221399, 0.0157653, -0.00746012, -0.138139, 0.116647, -0.0220151, 0.470971, -0.543241, 0.335906, -2.08369, -2.16582, -0.129994, 0.467902, -0.543306, 0.330284, -2.07979, -2.15783, -0.119901, -0.00216672, 0.00889664, 0.000793423, -0.0173883, -0.0124569, -0.00953634
0.0620923, 1.69149, -1.23024, -1.54478, -0.901982, -1.19506, 1.22639, -1.30248, 0.00646774, 0.0252354, -0.0634034, -0.0334134, -0.101404, -0.0344146, 0.0003241, 3.15376, 73.1738, 37.5019, 7.66418, 2.16724, 5.83346, -0.0557752, -0.000851905, -0.00291313, 0.00567868, 0.0107956, 0.00182828, 0.00265178, 0.0238438, 0.0165993, -0.0147475, -0.147119, 0.108545, -0.0231038, 0.470969, -0.543232, 0.335907, -2.08368, -2.16582, -0.13, 0.467885, -0.543318, 0.330256, -2.07978, -2.15779, -0.119627, -0.0022469, 0.00923859, 0.000826888, -0.0185037, -0.0127085, -0.0169381
0.0630923, 1.6915, -1.23024, -1.54485, -0.902009, -1.19517, 1.22636, -1.30248, 0.00798579, 0.0196447, -0.0620754, -0.0312521, -0.0989448, -0.0392012, -0.00198409, 3.003, 73.3563, 37.3551, 7.66418, 2.14801, 5.84079, 0.00373412, -0.000876134, -0.00292588, 0.00570477, 0.0109452, 0.00173513, 0.00267508, 0.0234053, 0.0164271, -0.0177319, -0.148631, 0.0987409, -0.0193914, 0.470967, -0.543223, 0.335908, -2.08367, -2.16581, -0.130006, 0.46787, -0.543329, 0.330227, -2.07976, -2.15776, -0.119371, -0.00232828, 0.00958644, 0.000861108, -0.0185366, -0.0114608, -0.0197879
0.0640923, 1.69152, -1.23023, -1.54492, -0.90204, -1.19527, 1.22632, -1.30248, 0.0112046, 0.0154841, -0.0656331, -0.033236, -0.0967412, -0.0414509, 0.00037561, 2.89191, 73.392, 37.244, 7.66418, 2.11139, 5.80508, -0.0420422, -0.000901602, -0.00294057, 0.00573216, 0.0111011, 0.00164129, 0.00271285, 0.0221896, 0.0148368, -0.0220507, -0.154446, 0.0925886, -0.0174846, 0.470965, -0.543213, 0.335909, -2.08366, -2.16581, -0.130013, 0.467853, -0.543341, 0.330198, -2.07976, -2.15771, -0.119107, -0.00241084, 0.00994017, 0.000896084, -0.0172305, -0.00917615, -0.0238765
0.0650923, 1.69153, -1.23023, -1.545, -0.902074, -1.19538, 1.22628, -1.30248, 0.0109875, 0.013575, -0.0661561, -0.0314802, -0.0985748, -0.0426851, 0.00123594, 2.89191, 73.3563, 37.1686, 7.66418, 2.05005, 5.7474, -0.0685925, -0.000929205, -0.00295651, 0.00576715, 0.0112658, 0.00155463, 0.00275096, 0.0236821, 0.0157778, -0.0231792, -0.156108, 0.09185, -0.0206824, 0.470962, -0.543204, 0.33591, -2.08365, -2.16581, -0.13002, 0.467834, -0.543353, 0.33016, -2.07974, -2.15765, -0.11884, -0.00249458, 0.0102997, 0.000931821, -0.0182414, -0.0101545, -0.0251587
0.0660923, 1.69154, -1.23023, -1.54507, -0.902113, -1.19548, 1.22624, -1.30248, 0.0116907, 0.0125333, -0.0704198, -0.0347695, -0.0963039, -0.0435055, 0.000350882, 2.85224, 73.2849, 36.9822, 7.70386, 2.00702, 5.67599, -0.0557752, -0.000953528, -0.00297024, 0.00580321, 0.0114369, 0.0014697, 0.00277621, 0.0232067, 0.0152203, -0.0258384, -0.161225, 0.0895191, -0.0172463, 0.47096, -0.543193, 0.335911, -2.08363, -2.16581, -0.130028, 0.467818, -0.543362, 0.330122, -2.07971, -2.1576, -0.11857, -0.00257947, 0.0106651, 0.000968322, -0.0178826, -0.00888709, -0.027691
0.0670923, 1.69156, -1.23021, -1.54515, -0.902148, -1.19559, 1.22619, -1.30248, 0.0173898, 0.0149121, -0.0692338, -0.0341126, -0.100325, -0.0450013, -0.00173154, 2.85224, 73.0627, 36.7203, 7.62848, 1.99512, 5.62564, -0.00267457, -0.000976436, -0.00298513, 0.00583126, 0.0116086, 0.00137722, 0.00279851, 0.0214368, 0.0126561, -0.0243201, -0.163715, 0.0949098, -0.0107019, 0.470957, -0.543183, 0.335912, -2.08362, -2.16581, -0.130035, 0.4678, -0.54337, 0.330092, -2.07968, -2.15756, -0.118292, -0.00266552, 0.0110363, 0.00100559, -0.0154163, -0.0068972, -0.0259571
0.0680923, 1.69157, -1.23021, -1.54523, -0.902188, -1.19569, 1.22614, -1.30248, 0.0193169, 0.0135596, -0.0726147, -0.038478, -0.0971333, -0.0478792, -0.00115343, 2.96729, 72.9517, 36.4982, 7.59277, 1.93927, 5.62564, -0.00267457, -0.0010007, -0.00300387, 0.00586667, 0.011791, 0.00129971, 0.00282861, 0.0195621, 0.0112796, -0.0272403, -0.170143, 0.0905963, -0.00584069, 0.470954, -0.543172, 0.335913, -2.08361, -2.1658, -0.130043, 0.467778, -0.543378, 0.330055, -2.07964, -2.1575, -0.118016, -0.00275269, 0.0114132, 0.00104363, -0.0143016, -0.00416295, -0.0285528
0.0690923, 1.69159, -1.23019, -1.54531, -0.902232, -1.19579, 1.22608, -1.30248, 0.0170118, 0.0158366, -0.076234, -0.0384564, -0.0960882, -0.055085, 0.00143578, 3.003, 72.6938, 36.3117, 7.5531, 1.91546, 5.62564, -0.0621838, -0.0010199, -0.00301925, 0.00589622, 0.0119775, 0.00121334, 0.00285675, 0.020559, 0.0144038, -0.0276442, -0.178496, 0.0890148, -0.0119354, 0.470952, -0.54316, 0.335914, -2.0836, -2.1658, -0.130051, 0.46776, -0.543382, 0.330024, -2.0796, -2.15745, -0.117728, -0.00284098, 0.0117958, 0.00108244, -0.0174889, -0.00483003, -0.0289736
0.0700923, 1.69161, -1.23016, -1.54538, -0.902274, -1.19588, 1.22602, -1.30248, 0.0161644, 0.0259879, -0.0753855, -0.0404966, -0.0948899, -0.0534736, 0.00143243, 3.003, 72.3248, 35.9784, 7.47772, 1.89075, 5.56796, -0.0750012, -0.00103601, -0.00303181, 0.00591771, 0.0121545, 0.00111994, 0.00287482, 0.0195716, 0.0139511, -0.0214394, -0.17574, 0.0994589, -0.0101608, 0.470949, -0.543148, 0.335915, -2.08359, -2.1658, -0.130059, 0.467744, -0.543383, 0.330002, -2.07956, -2.15741, -0.117444, -0.00293038, 0.0121842, 0.00112203, -0.0169371, -0.00440454, -0.0226678
0.0710923, 1.69163, -1.23014, -1.54547, -0.902319, -1.19597, 1.22596, -1.30248, 0.0175104, 0.0269049, -0.0806427, -0.0428903, -0.0931162, -0.055122, -0.00172343, 3.04267, 71.9559, 35.9031, 7.40631, 1.85321, 5.46084, -0.00267457, -0.00105456, -0.00304551, 0.00594345, 0.0123396, 0.00102483, 0.00288747, 0.0191491, 0.0136506, -0.0232747, -0.182184, 0.0990996, -0.0052827, 0.470946, -0.543136, 0.335916, -2.08357, -2.1658, -0.130068, 0.467727, -0.543386, 0.329975, -2.07951, -2.15738, -0.11715, -0.00302087, 0.0125781, 0.0011624, -0.016809, -0.00329797, -0.0243832
0.0720923, 1.69164, -1.23011, -1.54555, -0.902359, -1.19606, 1.22591, -1.30248, 0.0208599, 0.0281141, -0.0781714, -0.0389194, -0.0899453, -0.0511743, 7.20449e-05, 3.11805, 71.5512, 35.6809, 7.25555, 1.87793, 5.33175, -0.0356336, -0.00107295, -0.00305931, 0.00596432, 0.0125189, 0.000926789, 0.00291205, 0.0184165, 0.0110768, -0.0209466, -0.173624, 0.099732, -0.00477934, 0.470943, -0.543124, 0.335917, -2.08356, -2.16579, -0.130077, 0.46771, -0.543389, 0.329954, -2.07948, -2.15733, -0.116859, -0.00311245, 0.0129778, 0.00120355, -0.0142722, -0.00242822, -0.0220073
0.0730923, 1.69167, -1.23008, -1.54562, -0.902402, -1.19615, 1.22584, -1.30248, 0.0213769, 0.0287424, -0.0794699, -0.0372586, -0.0862389, -0.0542249, 0.00103159, 3.15376, 71.1465, 35.4548, 7.14447, 1.87244, 5.23105, -0.0621838, -0.00108597, -0.00306825, 0.00598414, 0.0126966, 0.000833168, 0.00292408, 0.0182515, 0.0114686, -0.0210668, -0.174893, 0.0962144, -0.00584148, 0.47094, -0.543111, 0.335918, -2.08355, -2.16579, -0.130086, 0.467698, -0.543386, 0.329933, -2.07943, -2.1573, -0.116576, -0.00320508, 0.013383, 0.00124549, -0.0147663, -0.00185743, -0.0220467
0.0740923, 1.6917, -1.23004, -1.54571, -0.90244, -1.19624, 1.22578, -1.30248, 0.0244873, 0.0316262, -0.0811609, -0.0380956, -0.0853492, -0.0573922, 0.000925252, 3.07838, 70.6308, 35.3834, 6.95801, 1.91546, 5.15231, -0.0685925, -0.00109872, -0.00307715, 0.00600317, 0.0128841, 0.000734553, 0.00293633, 0.0166304, 0.0102963, -0.0204868, -0.179314, 0.0975292, -0.00226583, 0.470937, -0.543097, 0.33592, -2.08353, -2.16579, -0.130095, 0.467686, -0.543383, 0.329914, -2.07938, -2.15727, -0.116277, -0.00329877, 0.0137938, 0.00128822, -0.0137265, 0.000112685, -0.0212148
0.0750923, 1.69173, -1.23001, -1.54579, -0.902475, -1.19633, 1.22571, -1.30248, 0.0277259, 0.0340132, -0.0826095, -0.0331508, -0.0887712, -0.0557713, -0.00182445, 3.07838, 70.2261, 35.3437, 6.69617, 1.95758, 5.09463, -0.00267457, -0.00111464, -0.00308822, 0.00602413, 0.0130683, 0.000641018, 0.00294911, 0.0180154, 0.0098966, -0.0189, -0.178699, 0.103734, -0.0022788, 0.470933, -0.543083, 0.335921, -2.08352, -2.16579, -0.130105, 0.467671, -0.543382, 0.329893, -2.07933, -2.15723, -0.115987, -0.00339351, 0.0142102, 0.00133174, -0.0133148, -0.00106629, -0.019832
0.0760923, 1.69176, -1.22999, -1.54586, -0.902504, -1.19642, 1.22565, -1.30248, 0.0292812, 0.0265979, -0.077462, -0.0292616, -0.0880356, -0.0523659, 0.000241856, 3.11805, 70.0793, 35.308, 6.39465, 2.03174, 4.98019, -0.0420422, -0.00113498, -0.00309794, 0.00605238, 0.0132393, 0.000559448, 0.00297223, 0.0187187, 0.00805054, -0.0206646, -0.169891, 0.0973015, -0.00305552, 0.47093, -0.543069, 0.335922, -2.0835, -2.16578, -0.130115, 0.467658, -0.543383, 0.329863, -2.07928, -2.15719, -0.115723, -0.00348927, 0.0146321, 0.00137605, -0.0116056, -0.000990553, -0.0216953
0.0770923, 1.69179, -1.22997, -1.54594, -0.902535, -1.1965, 1.22561, -1.30248, 0.0324492, 0.0249659, -0.0751398, -0.028265, -0.0902405, -0.0449423, 0.00114465, 3.07838, 69.7858, 35.3437, 6.17248, 2.06195, 4.72934, -0.0685925, -0.00114914, -0.00309859, 0.00607424, 0.0134, 0.000466292, 0.00298086, 0.0189261, 0.00485586, -0.020163, -0.162566, 0.101519, -0.000994709, 0.470926, -0.543055, 0.335924, -2.08349, -2.16578, -0.130125, 0.467653, -0.543379, 0.329841, -2.07924, -2.15717, -0.115461, -0.00358604, 0.0150594, 0.00142116, -0.00848618, -0.000713847, -0.0212838
0.0780923, 1.69182, -1.22994, -1.54601, -0.902568, -1.19659, 1.22556, -1.30248, 0.0319244, 0.0270395, -0.0723519, -0.0301192, -0.0922894, -0.0415202, 0.000525793, 3.15376, 69.4882, 35.3437, 6.0614, 2.10498, 4.52151, -0.0621838, -0.00116781, -0.00310379, 0.00609263, 0.0135554, 0.000365692, 0.00299431, 0.0190515, 0.00379895, -0.0178605, -0.158695, 0.107392, 0.00161906, 0.470923, -0.543039, 0.335925, -2.08347, -2.16578, -0.130135, 0.467644, -0.54338, 0.329821, -2.07921, -2.15715, -0.115196, -0.00368381, 0.0154923, 0.00146708, -0.00744055, -0.000716252, -0.0190161
0.0790923, 1.69186, -1.22994, -1.54608, -0.902592, -1.19668, 1.22552, -1.30248, 0.0336038, 0.0184959, -0.075057, -0.0272008, -0.0945836, -0.0363139, -0.000870135, 3.15376, 69.4882, 35.4191, 5.91064, 2.16724, 4.36404, -0.0292249, -0.00118872, -0.0031068, 0.00612335, 0.0137097, 0.000287246, 0.00300602, 0.0219381, 0.00306414, -0.0230497, -0.157184, 0.103791, 0.000555745, 0.470919, -0.543024, 0.335926, -2.08345, -2.16578, -0.130146, 0.467637, -0.543381, 0.329789, -2.07916, -2.15711, -0.114956, -0.00378258, 0.0159305, 0.0015138, -0.00688968, -0.00229665, -0.0245645
0.0800923, 1.6919, -1.22993, -1.54616, -0.902615, -1.19678, 1.22548, -1.30247, 0.0394949, 0.0193953, -0.0723199, -0.0254411, -0.0932995, -0.04088, 0.00159008, 3.07838, 69.3414, 35.5698, 5.79956, 2.27161, 4.31369, -0.0878186, -0.00120881, -0.00310875, 0.00614952, 0.0138763, 0.00018921, 0.00302816, 0.0189273, 0.00028543, -0.0219769, -0.158126, 0.101767, 0.00435009, 0.470915, -0.543008, 0.335928, -2.08344, -2.16577, -0.130157, 0.467631, -0.54338, 0.329762, -2.07913, -2.15708, -0.114681, -0.00388232, 0.0163742, 0.00156132, -0.00428356, 0.00106824, -0.0230735
0.0810923, 1.69194, -1.22993, -1.54623, -0.90263, -1.19687, 1.22543, -1.30247, 0.0368182, 0.0108691, -0.0712767, -0.0207956, -0.0939097, -0.045431, 0.00106007, 3.04267, 69.4525, 35.6412, 5.68848, 2.29541, 4.29904, -0.0878186, -0.00123084, -0.00311012, 0.0061812, 0.0140267, 0.000114345, 0.00304831, 0.0221317, 0.00331163, -0.0261982, -0.159524, 0.0914373, -0.00106225, 0.470911, -0.542992, 0.335929, -2.08342, -2.16577, -0.130169, 0.467626, -0.543381, 0.329729, -2.07909, -2.15704, -0.114449, -0.00398302, 0.0168232, 0.00160966, -0.00744431, -0.00111875, -0.0276005
0.0820923, 1.69194, -1.22993, -1.54623, -0.90263, -1.19687, 1.22543, -1.30247, 0.0368182, 0.0108691, -0.0712767, -0.0207956, -0.0939097, -0.045431, 0.00106007, 3.04267, 69.4525, 35.6412, 5.68848, 2.29541, 4.29904, -0.0878186, -0.00124791, -0.00310676, 0.00618005, 0.0140221, 9.85806e-05, 0.0030554, 0.022592, 0.00322733, -0.0261726, -0.159491, 0.0919266, -0.000772506, 0.470907, -0.542975, 0.335931, -2.0834, -2.16577, -0.13018, 0.467626, -0.543381, 0.329729, -2.07909, -2.15704, -0.114449, -0.00408468, 0.0172776, 0.00165881, -0.00744431, -0.00111875, -0.0276005
0.0830923, 1.69194, -1.22993, -1.54623, -0.90263, -1.19687, 1.22543, -1.30247, 0.0368182, 0.0108691, -0.0712767, -0.0207956, -0.0939097, -0.045431, 0.00106007, 3.04267, 69.4525, 35.6412, 5.68848, 2.29541, 4.29904, -0.0878186, -0.00126545, -0.00310332, 0.00617887, 0.0140173, 8.23956e-05, 0.00306268, 0.0230576, 0.0031423, -0.026147, -0.159456, 0.0924213, -0.000479917, 0.470903, -0.542958, 0.335933, -2.08338, -2.16576, -0.130192, 0.467626, -0.543381, 0.329729, -2.07909, -2.15704, -0.114449, -0.00418727, 0.0177373, 0.00170878, -0.00744431, -0.00111875, -0.0276005
0.0840923, 1.69194, -1.22993, -1.54623, -0.90263, -1.19687, 1.22543, -1.30247, 0.0368182, 0.0108691, -0.0712767, -0.0207956, -0.0939097, -0.045431, 0.00106007, 3.04267, 69.4525, 35.6412, 5.68848, 2.29541, 4.29904, -0.0878186, -0.00128346, -0.0030998, 0.00617766, 0.0140125, 6.57854e-05, 0.00307013, 0.0235287, 0.00305654, -0.0261212, -0.159421, 0.0929213, -0.000184518, 0.470899, -0.54294, 0.335934, -2.08336, -2.16576, -0.130204, 0.467626, -0.543381, 0.329729, -2.07909, -2.15704, -0.114449, -0.00429078, 0.0182023, 0.00175956, -0.00744431, -0.00111875, -0.0276005
0.0850923, 1.69194, -1.22993, -1.54623, -0.90263, -1.19687, 1.22543, -1.30247, 0.0368182, 0.0108691, -0.0712767, -0.0207956, -0.0939097, -0.045431, 0.00106007, 3.04267, 69.4525, 35.6412, 5.68848, 2.29541, 4.29904, -0.0878186, -0.00130194, -0.00309618, 0.00617642, 0.0140075, 4.87455e-05, 0.00307778, 0.0240051, 0.00297007, -0.0260954, -0.159385, 0.0934266, 0.000113659, 0.470895, -0.542922, 0.335936, -2.08334, -2.16576, -0.130217, 0.467626, -0.543381, 0.329729, -2.07909, -2.15704, -0.114449, -0.00439521, 0.0186725, 0.00181117, -0.00744431, -0.00111875, -0.0276005
0.0860923, 1.69217, -1.22994, -1.54655, -0.902691, -1.19738, 1.22535, -1.30247, 0.0480776, -0.00015287, -0.0654945, -0.00591693, -0.106105, -0.0139724, 0.000223762, 2.62611, 69.7461, 36.1252, 6.20819, 2.41809, 4.04086, -0.0814099, -0.00136253, -0.00308183, 0.0063209, 0.0146544, -0.000369439, 0.00312923, 0.0293988, -0.00575122, -0.0263039, -0.128284, 0.107342, -0.00157841, 0.47089, -0.542903, 0.335938, -2.08332, -2.16575, -0.13023, 0.467633, -0.543399, 0.329578, -2.07899, -2.15696, -0.113318, -0.00450054, 0.019148, 0.0018636, 0.00134663, -0.00557634, -0.0288574
0.0870923, 1.69223, -1.22995, -1.54661, -0.902701, -1.19749, 1.22535, -1.30247, 0.0502574, -0.0057802, -0.0620339, -0.00571394, -0.108607, -0.00737769, -0.000562898, 2.39997, 70.004, 36.1649, 6.43433, 2.44281, 4.07748, -0.0621838, -0.00138816, -0.00306564, 0.00635505, 0.0147691, -0.000466316, 0.00313557, 0.0299538, -0.00866801, -0.0278848, -0.121376, 0.10742, 0.00247897, 0.470886, -0.542884, 0.33594, -2.0833, -2.16575, -0.130243, 0.467644, -0.543399, 0.329542, -2.07896, -2.15696, -0.113106, -0.00460676, 0.0196287, 0.00191686, 0.0041161, -0.00527889, -0.0305401
0.0880923, 1.69228, -1.22997, -1.54667, -0.902705, -1.19761, 1.22536, -1.30247, 0.0529172, -0.00878499, -0.0620538, -0.00786711, -0.109525, -0.00483401, 0.000574173, 2.24921, 70.2261, 36.3117, 6.62079, 2.44922, 4.05551, -0.0878186, -0.00142152, -0.00305274, 0.00638959, 0.0148791, -0.000574076, 0.00315898, 0.0293532, -0.011143, -0.0298525, -0.12126, 0.107266, 0.00593656, 0.470881, -0.542864, 0.335942, -2.08328, -2.16574, -0.130257, 0.467652, -0.543407, 0.329504, -2.07896, -2.15695, -0.112886, -0.00471385, 0.0201145, 0.00197095, 0.00638784, -0.00379385, -0.0324106
0.0890923, 1.69233, -1.22999, -1.54673, -0.902713, -1.19772, 1.22537, -1.30247, 0.0555328, -0.012525, -0.0622401, -0.00592979, -0.114004, 0.00196002, -0.00107528, 2.20954, 70.5197, 36.3514, 6.80725, 2.44922, 4.02713, -0.0484509, -0.00145543, -0.00303851, 0.00642334, 0.0149796, -0.000682609, 0.00317149, 0.0312338, -0.0130436, -0.0313709, -0.117379, 0.111045, 0.00732618, 0.470877, -0.542844, 0.335944, -2.08326, -2.16574, -0.13027, 0.467662, -0.543414, 0.329467, -2.07895, -2.15696, -0.112678, -0.00482181, 0.0206055, 0.00202587, 0.00819071, -0.00484581, -0.0342057
0.0900923, 1.6924, -1.23003, -1.54679, -0.902728, -1.19784, 1.22539, -1.30248, 0.0640854, -0.0194297, -0.0628276, -0.00701188, -0.11357, 0.00738362, -0.00119157, 2.02308, 70.9998, 36.3871, 7.1048, 2.44281, 3.99142, -0.0356336, -0.0014827, -0.00301325, 0.00646796, 0.0150863, -0.000779525, 0.00316558, 0.028853, -0.0192428, -0.0357549, -0.115369, 0.107495, 0.0172106, 0.470872, -0.542823, 0.335946, -2.08324, -2.16574, -0.130285, 0.467681, -0.543412, 0.32942, -2.07892, -2.15697, -0.112477, -0.00493062, 0.0211016, 0.00208162, 0.0140284, -0.00106646, -0.0382957
0.0910923, 1.69246, -1.23006, -1.54684, -0.902729, -1.19797, 1.22541, -1.30247, 0.0655002, -0.022307, -0.0599201, -0.00497193, -0.118054, 0.0102677, 0.000426326, 1.90803, 71.4044, 36.276, 7.14447, 2.44281, 3.9841, -0.0685925, -0.00151525, -0.00299324, 0.00650359, 0.0151805, -0.000884265, 0.00317932, 0.0301806, -0.0202692, -0.0359293, -0.111866, 0.109984, 0.0155076, 0.470867, -0.542802, 0.335948, -2.08322, -2.16573, -0.130299, 0.467696, -0.543417, 0.329381, -2.07891, -2.15698, -0.112279, -0.00504026, 0.0216028, 0.00213822, 0.0149852, -0.00180558, -0.0386497
0.0920923, 1.69253, -1.23009, -1.5469, -0.902739, -1.19809, 1.22542, -1.30247, 0.0634452, -0.0242532, -0.0601538, -0.00627529, -0.116095, 0.0127442, 0.000996295, 1.79694, 71.8091, 36.3871, 7.29126, 2.41809, 3.96945, -0.0878186, -0.00154746, -0.00297231, 0.00654587, 0.0152896, -0.000988542, 0.00318826, 0.0313088, -0.0201645, -0.0369952, -0.109425, 0.108273, 0.0149766, 0.470862, -0.542781, 0.33595, -2.08319, -2.16573, -0.130314, 0.467712, -0.54342, 0.329336, -2.07889, -2.15698, -0.112067, -0.00515073, 0.022109, 0.00219565, 0.0147721, -0.00225167, -0.0398178
0.0930923, 1.69259, -1.23012, -1.54696, -0.902754, -1.19822, 1.22544, -1.30248, 0.0641169, -0.0255716, -0.059094, -0.0148988, -0.119938, 0.0127105, -0.00150594, 1.72157, 72.2137, 36.4625, 7.47772, 2.41809, 4.00516, -0.0292249, -0.00158018, -0.0029521, 0.0065888, 0.0154049, -0.00109696, 0.00318746, 0.0296347, -0.0223283, -0.038601, -0.11457, 0.111335, 0.0252946, 0.470857, -0.542759, 0.335952, -2.08317, -2.16572, -0.130329, 0.467726, -0.543422, 0.32929, -2.07886, -2.15699, -0.111845, -0.00526201, 0.0226203, 0.00225393, 0.0167033, 0.000250474, -0.0411503
0.0940923, 1.69266, -1.23015, -1.54702, -0.902765, -1.19835, 1.22545, -1.30247, 0.0673993, -0.0247959, -0.0556148, -0.0129167, -0.117643, 0.0129066, -0.000529243, 1.64619, 72.547, 36.4228, 7.59277, 2.39978, 4.04086, -0.0420422, -0.0016106, -0.00292862, 0.00662581, 0.0155106, -0.00120981, 0.00319021, 0.0280698, -0.0247305, -0.0367698, -0.10974, 0.110625, 0.028561, 0.470851, -0.542736, 0.335954, -2.08315, -2.16572, -0.130344, 0.467744, -0.543423, 0.32925, -2.07884, -2.15701, -0.111629, -0.0053741, 0.0231366, 0.00231306, 0.0190003, 0.00212869, -0.0391126
0.0950923, 1.69272, -1.23018, -1.54708, -0.902786, -1.19847, 1.22547, -1.30248, 0.0634525, -0.0241977, -0.063978, -0.014863, -0.120816, 0.0128702, -0.000590187, 1.60651, 72.8763, 36.5735, 7.85065, 2.38788, 4.08389, -0.0356336, -0.00164122, -0.00290561, 0.00666875, 0.015632, -0.00132315, 0.00318875, 0.0320633, -0.0211568, -0.039401, -0.118783, 0.114918, 0.0216948, 0.470846, -0.542713, 0.335957, -2.08312, -2.16571, -0.13036, 0.467761, -0.543422, 0.329205, -2.07881, -2.15702, -0.111396, -0.00548698, 0.0236579, 0.00237303, 0.0153666, -0.00103171, -0.0421652
0.0960923, 1.69279, -1.2302, -1.54714, -0.902803, -1.19859, 1.22548, -1.30247, 0.0635883, -0.0230654, -0.0653594, -0.016202, -0.121742, 0.0127862, 0.00130196, 1.57081, 73.1738, 36.5378, 7.9657, 2.34485, 4.13424, -0.0814099, -0.00167064, -0.00288022, 0.00670632, 0.0157374, -0.00143627, 0.0031895, 0.032498, -0.021235, -0.0393907, -0.121003, 0.117559, 0.0204496, 0.470841, -0.542689, 0.335959, -2.0831, -2.16571, -0.130376, 0.467781, -0.543421, 0.329165, -2.07879, -2.15704, -0.111181, -0.00560063, 0.0241841, 0.00243385, 0.0153472, -0.000931764, -0.042165
0.0970923, 1.69285, -1.23022, -1.5472, -0.902823, -1.19872, 1.2255, -1.30248, 0.0622312, -0.0187907, -0.0662356, -0.0181774, -0.123413, 0.0126983, -0.000827445, 1.60651, 73.3206, 36.6092, 8.11249, 2.32013, 4.1846, -0.0356336, -0.0017028, -0.00285827, 0.00673863, 0.015847, -0.00156501, 0.00318693, 0.0331726, -0.0205669, -0.0373584, -0.122931, 0.123876, 0.0222277, 0.470835, -0.542665, 0.335962, -2.08307, -2.16571, -0.130393, 0.467797, -0.543422, 0.32913, -2.07877, -2.15707, -0.110946, -0.00571505, 0.0247152, 0.00249553, 0.0146636, -0.00140698, -0.0401824
0.0980923, 1.69292, -1.23023, -1.54727, -0.902843, -1.19884, 1.22552, -1.30248, 0.0633522, -0.0159458, -0.0676686, -0.0196106, -0.12361, 0.0167695, -0.000788989, 1.53114, 73.4674, 36.7203, 8.26324, 2.2652, 4.2496, -0.0292249, -0.00173204, -0.0028328, 0.00677099, 0.0159627, -0.00169638, 0.00318293, 0.0333022, -0.022028, -0.0360681, -0.121295, 0.129728, 0.0240899, 0.470829, -0.54264, 0.335964, -2.08305, -2.1657, -0.13041, 0.467817, -0.54342, 0.329095, -2.07874, -2.1571, -0.110703, -0.00583022, 0.0252512, 0.00255806, 0.0160591, -0.00113696, -0.0389112
0.0990923, 1.69298, -1.23023, -1.54734, -0.902866, -1.19897, 1.22553, -1.30247, 0.0629893, -0.0132178, -0.0696531, -0.0173319, -0.1207, 0.0149005, -5.12746e-05, 1.53114, 73.5785, 36.8711, 8.414, 2.25238, 4.32834, -0.0420422, -0.00176618, -0.00281254, 0.00680479, 0.0160849, -0.00183158, 0.00319041, 0.0340801, -0.0209893, -0.0349584, -0.121876, 0.129639, 0.0212787, 0.470823, -0.542615, 0.335967, -2.08302, -2.16569, -0.130427, 0.467831, -0.543422, 0.329058, -2.07872, -2.15711, -0.110447, -0.00594613, 0.0257921, 0.00262146, 0.0149743, -0.00157718, -0.0378427
0.100092, 1.69304, -1.23023, -1.54741, -0.902891, -1.19909, 1.22554, -1.30247, 0.0650644, -0.00796825, -0.0708355, -0.01995, -0.122539, 0.0126925, 0.00142388, 1.57081, 73.5428, 37.0179, 8.60046, 2.21576, 4.42813, -0.0814099, -0.00179857, -0.00279296, 0.00683153, 0.0162046, -0.00197291, 0.00319891, 0.0328512, -0.0219131, -0.0329085, -0.126735, 0.136265, 0.023172, 0.470817, -0.542589, 0.335969, -2.08299, -2.16569, -0.130444, 0.467845, -0.543423, 0.329029, -2.07871, -2.15713, -0.110188, -0.00606278, 0.0263379, 0.00268571, 0.0158104, -9.6096e-05, -0.0355918
0.101092, 1.69311, -1.23023, -1.54747, -0.902914, -1.19922, 1.22556, -1.30248, 0.0672146, -0.00354262, -0.0728895, -0.0207471, -0.123951, 0.0105812, -0.00196687, 1.45576, 73.4674, 37.0933, 8.74725, 2.19104, 4.54349, -0.00267457, -0.001828, -0.00276884, 0.00685503, 0.0163275, -0.0021245, 0.00318803, 0.0323116, -0.0223973, -0.0313939, -0.131299, 0.141634, 0.0281556, 0.470811, -0.542563, 0.335972, -2.08296, -2.16568, -0.130462, 0.467863, -0.543421, 0.329003, -2.07869, -2.15718, -0.109918, -0.00618014, 0.0268884, 0.00275083, 0.0162122, 0.000774048, -0.0339626
0.102092, 1.69317, -1.23022, -1.54754, -0.902939, -1.19935, 1.22556, -1.30248, 0.0644822, -0.0015218, -0.0727904, -0.020819, -0.125949, 0.0135777, -0.00131125, 1.38038, 73.4317, 37.244, 8.85834, 2.17914, 4.66525, -0.00267457, -0.00185984, -0.00274804, 0.0068827, 0.0164563, -0.00226843, 0.00319027, 0.0345688, -0.0212797, -0.029742, -0.128917, 0.14727, 0.0245607, 0.470805, -0.542536, 0.335975, -2.08294, -2.16568, -0.13048, 0.467878, -0.543421, 0.328973, -2.07866, -2.1572, -0.109647, -0.0062982, 0.0274437, 0.00281681, 0.0151196, -0.00119923, -0.0325848
0.103092, 1.69323, -1.23022, -1.54762, -0.902963, -1.19947, 1.22557, -1.30247, 0.0637631, -0.00184621, -0.0713891, -0.0208325, -0.126567, 0.0116089, 0.00109252, 1.38038, 73.4674, 37.3194, 8.97339, 2.14801, 4.77969, -0.0557752, -0.00189551, -0.00272976, 0.00691249, 0.0165804, -0.00240824, 0.00320412, 0.0351067, -0.0208001, -0.0295374, -0.129547, 0.146986, 0.0222722, 0.470799, -0.542509, 0.335978, -2.08291, -2.16567, -0.130499, 0.46789, -0.543423, 0.32894, -2.07865, -2.15721, -0.109386, -0.00641697, 0.0280038, 0.00288366, 0.0145488, -0.00122049, -0.0323862
0.104092, 1.69329, -1.23021, -1.54768, -0.902989, -1.19959, 1.22558, -1.30247, 0.0633456, 0.00220553, -0.0695461, -0.0234502, -0.122855, 0.00946377, 0.000965708, 1.22962, 73.3206, 37.3551, 9.04877, 2.1297, 4.90878, -0.0621838, -0.00192497, -0.00270813, 0.00693336, 0.0167058, -0.00255609, 0.00320308, 0.0333919, -0.021531, -0.0270014, -0.128826, 0.147615, 0.0266324, 0.470793, -0.542481, 0.33598, -2.08288, -2.16567, -0.130518, 0.467905, -0.54342, 0.328917, -2.07863, -2.15724, -0.109116, -0.00653641, 0.0285686, 0.00295138, 0.0151897, 0.000675857, -0.0295702
0.105092, 1.69335, -1.2302, -1.54775, -0.903016, -1.19972, 1.22558, -1.30248, 0.0644623, 0.0040708, -0.069137, -0.0256002, -0.120794, 0.00416796, -0.00227232, 1.15424, 73.2095, 37.4305, 9.12018, 2.1297, 5.0159, 0.0165515, -0.00195831, -0.00269084, 0.00695745, 0.0168353, -0.00269927, 0.00319968, 0.0316303, -0.022034, -0.0265407, -0.133075, 0.145947, 0.0340145, 0.470786, -0.542452, 0.335983, -2.08285, -2.16566, -0.130537, 0.467916, -0.543419, 0.32889, -2.0786, -2.15727, -0.108848, -0.00665653, 0.0291381, 0.00301998, 0.0155252, 0.00293488, -0.028788
0.106092, 1.69341, -1.2302, -1.54782, -0.903048, -1.19984, 1.22558, -1.30248, 0.0608053, 0.0044786, -0.0687537, -0.0280269, -0.123336, 0.00174069, -0.000531535, 1.00349, 73.1342, 37.5019, 9.23523, 2.1297, 5.0809, -0.00999879, -0.00199122, -0.00267251, 0.00698345, 0.0169703, -0.00284474, 0.00320433, 0.0332471, -0.019944, -0.0264801, -0.13651, 0.147911, 0.0304609, 0.470779, -0.542423, 0.335986, -2.08282, -2.16566, -0.130557, 0.467928, -0.543418, 0.328862, -2.07858, -2.15729, -0.10857, -0.0067773, 0.0297122, 0.00308945, 0.0133778, 0.00181845, -0.0288485
0.107092, 1.69347, -1.23019, -1.54789, -0.903073, -1.19996, 1.22557, -1.30247, 0.0579176, 0.00465729, -0.0718245, -0.0238463, -0.128449, 0.00086519, 0.00157842, 0.85273, 73.0627, 37.4662, 9.23523, 2.10498, 5.11661, -0.0621838, -0.00202513, -0.00265465, 0.00700681, 0.0170982, -0.00298777, 0.00321508, 0.0378846, -0.0161893, -0.0267523, -0.139837, 0.152208, 0.0190128, 0.470773, -0.542393, 0.335989, -2.08278, -2.16565, -0.130577, 0.46794, -0.543417, 0.328836, -2.07856, -2.1573, -0.108303, -0.00689872, 0.030291, 0.0031598, 0.0096644, -0.0022923, -0.029658
0.108092, 1.69353, -1.23018, -1.54796, -0.903111, -1.20008, 1.22557, -1.30248, 0.0574924, 0.00570416, -0.0742568, -0.0269722, -0.12555, 0.00056727, -0.000168421, 0.626595, 72.9517, 37.5416, 9.34631, 2.12421, 5.13766, -0.0292249, -0.00205659, -0.00263532, 0.00703269, 0.0172411, -0.0031359, 0.00320846, 0.037547, -0.0165612, -0.0274077, -0.142131, 0.151745, 0.02321, 0.470766, -0.542363, 0.335993, -2.08275, -2.16564, -0.130597, 0.467952, -0.543413, 0.328808, -2.07852, -2.15733, -0.108016, -0.00702078, 0.0308744, 0.00323103, 0.00987781, -0.00125769, -0.0301935
0.109092, 1.69358, -1.23017, -1.54803, -0.903148, -1.2002, 1.22557, -1.30248, 0.0569458, 0.0077954, -0.0693649, -0.029199, -0.121672, 0.00068469, -0.00157034, 0.400459, 72.916, 37.4662, 9.4574, 2.10498, 5.14499, 0.0101428, -0.00208763, -0.00261484, 0.00706037, 0.0173757, -0.00327229, 0.00319802, 0.0357769, -0.0181543, -0.0247, -0.136657, 0.151184, 0.029957, 0.470759, -0.542332, 0.335996, -2.08272, -2.16564, -0.130618, 0.467966, -0.543407, 0.328779, -2.07847, -2.15736, -0.107751, -0.00714347, 0.0314625, 0.00330314, 0.0113809, 0.000725273, -0.0272211
0.110092, 1.69363, -1.23016, -1.54809, -0.903181, -1.20032, 1.22556, -1.30248, 0.0565498, 0.00889415, -0.0659305, -0.0284119, -0.120984, -0.000195276, 0.000411167, 0.285408, 72.7692, 37.3908, 9.4574, 2.13611, 5.17428, -0.0292249, -0.00212348, -0.00260144, 0.00707949, 0.0175068, -0.00341992, 0.00320977, 0.0357514, -0.0183707, -0.0227552, -0.133491, 0.151627, 0.0290901, 0.470751, -0.542301, 0.335999, -2.08269, -2.16563, -0.130639, 0.467972, -0.543408, 0.328757, -2.07846, -2.15737, -0.107477, -0.00726676, 0.032055, 0.00337613, 0.0115438, 0.00105188, -0.0252318
0.111092, 1.69369, -1.23015, -1.54815, -0.903215, -1.20044, 1.22555, -1.30247, 0.0557681, 0.00872554, -0.0656024, -0.0276184, -0.12325, -0.000585078, 0.00149481, -0.0557783, 72.6581, 37.2797, 9.4574, 2.1297, 5.19534, -0.0621838, -0.00215178, -0.00257866, 0.00710058, 0.0176389, -0.00356216, 0.00320248, 0.0372924, -0.0175875, -0.0225829, -0.134043, 0.153652, 0.0263062, 0.470744, -0.542268, 0.336003, -2.08265, -2.16562, -0.13066, 0.467988, -0.543399, 0.328735, -2.07842, -2.1574, -0.107209, -0.00739066, 0.0326521, 0.00345001, 0.0107, 6.9888e-05, -0.0252059
0.112092, 1.69375, -1.23015, -1.54822, -0.903258, -1.20056, 1.22554, -1.30248, 0.0578639, 0.00513005, -0.0633165, -0.0334747, -0.12196, -0.00564969, -0.000698878, -0.281914, 72.6938, 37.2043, 9.56848, 2.16083, 5.21731, -0.0164075, -0.00218493, -0.00255941, 0.00712993, 0.0177787, -0.00369992, 0.00319105, 0.0343113, -0.019861, -0.0252299, -0.139172, 0.147572, 0.0376547, 0.470737, -0.542236, 0.336006, -2.08262, -2.16562, -0.130682, 0.468, -0.543394, 0.328703, -2.07836, -2.15743, -0.106938, -0.00751515, 0.0332538, 0.00352478, 0.0126418, 0.00411952, -0.0273486
0.113092, 1.6938, -1.23014, -1.54828, -0.903295, -1.20068, 1.22553, -1.30248, 0.0600679, 0.00834268, -0.0596303, -0.0351188, -0.11428, -0.00529688, -0.000974545, -0.508049, 72.6184, 37.1686, 9.56848, 2.14252, 5.25302, -0.00267457, -0.00221713, -0.00254019, 0.00715177, 0.0179091, -0.00383992, 0.00318438, 0.0309379, -0.0231089, -0.0223422, -0.132824, 0.145286, 0.0461426, 0.470729, -0.542203, 0.33601, -2.08258, -2.16561, -0.130704, 0.468012, -0.543388, 0.32868, -2.07832, -2.15746, -0.106675, -0.00764022, 0.0338599, 0.00360044, 0.0157436, 0.00774357, -0.0239945
0.114092, 1.69385, -1.23013, -1.54833, -0.903333, -1.2008, 1.22552, -1.30248, 0.0543147, 0.00589919, -0.0578683, -0.0360383, -0.114885, -0.00864625, 0.000333648, -0.694511, 72.6184, 37.0575, 9.56848, 2.17273, 5.26034, -0.0292249, -0.00225372, -0.00252408, 0.00717587, 0.0180362, -0.00397745, 0.00318765, 0.0334548, -0.0198572, -0.0232405, -0.134153, 0.142092, 0.0410126, 0.470722, -0.542169, 0.336013, -2.08255, -2.1656, -0.130727, 0.468021, -0.543385, 0.328653, -2.07829, -2.15748, -0.106417, -0.00776586, 0.0344704, 0.00367699, 0.0124291, 0.0058755, -0.0251006
0.115092, 1.6939, -1.23012, -1.54838, -0.903381, -1.20091, 1.22552, -1.30247, 0.0494667, 0.00761952, -0.0587213, -0.0399486, -0.113507, -0.00600054, 0.000934509, -0.845268, 72.4716, 37.0179, 9.67957, 2.15442, 5.25302, -0.0484509, -0.00228474, -0.00250363, 0.00719325, 0.0181585, -0.00412264, 0.00317764, 0.0350959, -0.0185639, -0.0225668, -0.132832, 0.144848, 0.0394444, 0.470714, -0.542134, 0.336017, -2.08251, -2.16559, -0.13075, 0.468034, -0.543378, 0.328634, -2.07825, -2.15751, -0.106159, -0.00789206, 0.0350854, 0.00375444, 0.0110954, 0.00471373, -0.0245764
0.116092, 1.69394, -1.2301, -1.54843, -0.90342, -1.20103, 1.22551, -1.30248, 0.0488249, 0.0118724, -0.0561865, -0.0421515, -0.113486, -0.00465235, -0.00202185, -0.996025, 72.3248, 36.9822, 9.64386, 2.15442, 5.26034, 0.0229602, -0.00232056, -0.0024876, 0.00720813, 0.0182774, -0.00426909, 0.00316906, 0.0345925, -0.0194286, -0.0192947, -0.129933, 0.15037, 0.0451832, 0.470706, -0.542099, 0.336021, -2.08248, -2.16559, -0.130773, 0.468043, -0.543375, 0.328617, -2.07822, -2.15755, -0.105903, -0.0080188, 0.0357048, 0.00383279, 0.0119336, 0.00535953, -0.0212165
0.117092, 1.69399, -1.23011, -1.54848, -0.903469, -1.20115, 1.2255, -1.30248, 0.0512044, 0.00876275, -0.0501822, -0.0435953, -0.11312, -0.00752864, -0.0013479, -1.26183, 72.4359, 36.9068, 9.71924, 2.14801, 5.2457, 0.0229602, -0.00235246, -0.00246515, 0.00723123, 0.0183976, -0.00440432, 0.0031525, 0.0324107, -0.0218411, -0.0195564, -0.12824, 0.146053, 0.0515515, 0.470698, -0.542063, 0.336024, -2.08244, -2.16558, -0.130797, 0.468057, -0.543366, 0.328592, -2.07817, -2.15759, -0.105659, -0.00814607, 0.0363285, 0.00391203, 0.0141272, 0.00827871, -0.0211289
0.118092, 1.69403, -1.2301, -1.54852, -0.903513, -1.20127, 1.22549, -1.30248, 0.0515264, 0.00639999, -0.0473627, -0.0436558, -0.117778, -0.0100235, 0.00127154, -1.33721, 72.4359, 36.9068, 9.75494, 2.14252, 5.23837, -0.0356336, -0.00239044, -0.00244904, 0.007249, 0.0185123, -0.00454788, 0.00315675, 0.0331768, -0.0217026, -0.0201511, -0.130303, 0.146814, 0.0495234, 0.47069, -0.542027, 0.336028, -2.0824, -2.16557, -0.130821, 0.468066, -0.543363, 0.328572, -2.07815, -2.15762, -0.10541, -0.00827387, 0.0369566, 0.00399218, 0.0138673, 0.00823833, -0.0217526
0.119092, 1.69407, -1.23009, -1.54856, -0.90355, -1.20139, 1.22548, -1.30247, 0.0475464, 0.00608253, -0.0482894, -0.0400352, -0.116694, -0.0117836, 0.00132241, -1.48797, 72.5113, 36.9068, 9.64386, 2.15442, 5.22372, -0.0484509, -0.00242922, -0.00243277, 0.00726683, 0.0186255, -0.0046872, 0.00315845, 0.0364713, -0.0183981, -0.0200726, -0.129763, 0.144993, 0.0426552, 0.470682, -0.54199, 0.336032, -2.08236, -2.16556, -0.130845, 0.468075, -0.543361, 0.328552, -2.07812, -2.15764, -0.105169, -0.00840218, 0.0375891, 0.00407323, 0.0105615, 0.00547082, -0.0220104
0.120092, 1.69407, -1.23009, -1.54856, -0.90355, -1.20139, 1.22548, -1.30247, 0.0475464, 0.00608253, -0.0482894, -0.0400352, -0.116694, -0.0117836, 0.00132241, -1.48797, 72.5113, 36.9068, 9.64386, 2.15442, 5.22372, -0.0484509, -0.00246748, -0.00242577, 0.00726465, 0.0186146, -0.00472194, 0.0031736, 0.0371182, -0.0185025, -0.0200485, -0.129689, 0.145659, 0.04303, 0.470673, -0.541953, 0.336036, -2.08232, -2.16556, -0.13087, 0.468075, -0.543361, 0.328552, -2.07812, -2.15764, -0.105169, -0.008531, 0.0382258, 0.00415518, 0.0105615, 0.00547082, -0.0220104
0.121092, 1.69407, -1.23009, -1.54856, -0.90355, -1.20139, 1.22548, -1.30247, 0.0475464, 0.00608253, -0.0482894, -0.0400352, -0.116694, -0.0117836, 0.00132241, -1.48797, 72.5113, 36.9068, 9.64386, 2.15442, 5.22372, -0.0484509, -0.00250639, -0.00241867, 0.00726245, 0.0186036, -0.00475726, 0.00318899, 0.0377695, -0.0186071, -0.0200245, -0.129614, 0.146329, 0.0434065, 0.470665, -0.541914, 0.33604, -2.08228, -2.16555, -0.130895, 0.468075, -0.543361, 0.328552, -2.07812, -2.15764, -0.105169, -0.0086603, 0.0388668, 0.00423804, 0.0105615, 0.00547082, -0.0220104
0.122092, 1.69419, -1.23009, -1.54868, -0.903687, -1.20176, 1.22546, -1.30248, 0.0389731, 0.0023304, -0.0417921, -0.0404055, -0.123435, -0.0143297, 0.000437036, -1.82915, 72.8049, 37.1329, 9.67957, 2.24689, 5.13766, -0.0164075, -0.00255097, -0.00238435, 0.00732604, 0.0189676, -0.00511438, 0.00314873, 0.0421655, -0.0139813, -0.0197045, -0.128355, 0.146825, 0.0374846, 0.470656, -0.541875, 0.336045, -2.08224, -2.16554, -0.130921, 0.4681, -0.543355, 0.328486, -2.07802, -2.15773, -0.104434, -0.00879009, 0.039512, 0.00432181, 0.00598364, 0.00153644, -0.0221597
0.123092, 1.69423, -1.2301, -1.54871, -0.903731, -1.20188, 1.22545, -1.30247, 0.0390743, -0.000455991, -0.0403655, -0.0408577, -0.121663, -0.0148709, 0.00147815, -2.01562, 72.916, 37.1329, 9.67957, 2.28351, 5.11661, -0.0484509, -0.00258989, -0.00236536, 0.00734458, 0.0190766, -0.00525305, 0.0031443, 0.042194, -0.0146517, -0.0209374, -0.127133, 0.142977, 0.0386614, 0.470647, -0.541836, 0.336049, -2.0822, -2.16553, -0.130947, 0.46811, -0.54335, 0.328465, -2.07799, -2.15777, -0.1042, -0.00892034, 0.0401615, 0.0044065, 0.00647919, 0.00237843, -0.0233185
0.124092, 1.69426, -1.2301, -1.54874, -0.903773, -1.20202, 1.22544, -1.30248, 0.0374319, -0.00329602, -0.0387943, -0.0398007, -0.121639, -0.00950437, -0.000947345, -2.13067, 73.0627, 37.244, 9.64386, 2.35126, 5.06625, 0.00373412, -0.00263552, -0.00235175, 0.00736382, 0.0191888, -0.00539843, 0.00314372, 0.0443787, -0.0149235, -0.0213397, -0.1205, 0.143197, 0.0397937, 0.470638, -0.541796, 0.336053, -2.08216, -2.16552, -0.130973, 0.468116, -0.543351, 0.328443, -2.07796, -2.1578, -0.103955, -0.00905105, 0.0408151, 0.00449209, 0.00668489, 0.000950827, -0.0239823
0.125092, 1.6943, -1.23009, -1.54877, -0.903818, -1.20214, 1.22544, -1.30248, 0.0379468, -0.00103089, -0.0357887, -0.0412419, -0.125968, -0.010364, 0.000826499, -2.3211, 73.027, 37.2797, 9.67957, 2.40619, 5.0159, -0.0356336, -0.0026764, -0.0023342, 0.00737504, 0.019293, -0.0055506, 0.00314335, 0.0443368, -0.0154941, -0.0192041, -0.121097, 0.149243, 0.040108, 0.470629, -0.541755, 0.336058, -2.08212, -2.16551, -0.131, 0.468125, -0.543348, 0.328429, -2.07794, -2.15783, -0.103713, -0.00918221, 0.0414729, 0.0045786, 0.00720058, 0.00134321, -0.0218
0.126092, 1.69433, -1.23008, -1.5488, -0.903863, -1.20227, 1.22543, -1.30247, 0.0372713, 0.0036962, -0.0344854, -0.0455614, -0.122813, -0.00960461, 0.000788358, -2.47185, 72.9874, 37.3551, 9.71924, 2.41809, 4.92984, -0.0420422, -0.00271896, -0.00231689, 0.00738562, 0.0193935, -0.00570462, 0.00314156, 0.0427983, -0.0168315, -0.0164429, -0.119261, 0.152701, 0.0452013, 0.47062, -0.541714, 0.336063, -2.08207, -2.1655, -0.131027, 0.468135, -0.543346, 0.328416, -2.07791, -2.15787, -0.103473, -0.00931381, 0.0421348, 0.00466602, 0.00845011, 0.00315134, -0.0187881
0.127092, 1.69437, -1.23008, -1.54883, -0.903902, -1.2024, 1.22542, -1.30248, 0.0358129, 0.00375292, -0.0330139, -0.0444039, -0.13025, -0.00478968, -0.00093249, -2.58294, 72.9517, 37.5416, 9.71924, 2.44281, 4.8511, -0.00267457, -0.00276712, -0.00230461, 0.00739951, 0.0195039, -0.00585952, 0.00314709, 0.0461238, -0.0161696, -0.0151894, -0.11639, 0.161677, 0.0431212, 0.470611, -0.541671, 0.336067, -2.08203, -2.16549, -0.131055, 0.468139, -0.543348, 0.328399, -2.07789, -2.1579, -0.103221, -0.00944583, 0.0428008, 0.00475437, 0.00782446, 0.000314028, -0.0179654
0.128092, 1.69441, -1.23008, -1.54885, -0.903946, -1.20252, 1.22542, -1.30248, 0.0375584, 0.00107889, -0.0304788, -0.0411706, -0.130564, -0.00984964, -0.000350393, -2.80907, 73.027, 37.5416, 9.75494, 2.44281, 4.75131, -0.00999879, -0.00280986, -0.00228352, 0.00741269, 0.0195971, -0.00600853, 0.0031406, 0.0462365, -0.0160742, -0.0159152, -0.117591, 0.1571, 0.0429565, 0.470601, -0.541629, 0.336072, -2.08198, -2.16548, -0.131083, 0.468151, -0.543344, 0.328383, -2.07787, -2.15795, -0.102996, -0.00957827, 0.043471, 0.00484363, 0.00757468, 0.000983015, -0.0186092
0.129092, 1.69444, -1.23007, -1.54888, -0.903988, -1.20266, 1.22542, -1.30247, 0.0391208, 0.000139174, -0.0282048, -0.0450779, -0.131262, -0.0095298, 0.00169918, -2.92413, 73.0627, 37.6526, 9.79462, 2.46112, 4.66525, -0.0621838, -0.00285956, -0.00226993, 0.00742546, 0.0196989, -0.0061662, 0.00315436, 0.0448619, -0.0183381, -0.0162408, -0.117711, 0.157883, 0.0471499, 0.470592, -0.541585, 0.336077, -2.08194, -2.16548, -0.131111, 0.468157, -0.543347, 0.328367, -2.07786, -2.15797, -0.10275, -0.00971111, 0.0441452, 0.00493382, 0.00964123, 0.00316015, -0.0186958
0.130092, 1.69448, -1.23007, -1.5489, -0.904027, -1.20279, 1.22542, -1.30247, 0.0359926, 0.00354504, -0.0237127, -0.0448188, -0.131902, -0.00495903, 0.000624164, -3.11059, 73.0627, 37.6526, 9.83032, 2.47394, 4.58652, -0.0484509, -0.00290695, -0.00225105, 0.00743376, 0.0197903, -0.00633051, 0.00315414, 0.0463803, -0.0181499, -0.0120286, -0.10911, 0.164332, 0.047175, 0.470582, -0.541541, 0.336082, -2.08189, -2.16547, -0.13114, 0.468167, -0.543347, 0.328356, -2.07785, -2.15802, -0.102512, -0.00984435, 0.0448234, 0.00502493, 0.00953032, 0.00167785, -0.0146812
0.131092, 1.69451, -1.23006, -1.54893, -0.904061, -1.20293, 1.22542, -1.30248, 0.0317909, 0.00194339, -0.020496, -0.0420531, -0.132334, -0.00149745, -0.00151667, -3.22564, 73.0984, 37.6526, 9.75494, 2.49225, 4.50686, 0.00373412, -0.00295894, -0.00223589, 0.00744419, 0.0198813, -0.00649076, 0.00315868, 0.0496709, -0.0164775, -0.0109077, -0.101586, 0.164884, 0.044597, 0.470572, -0.541496, 0.336087, -2.08185, -2.16546, -0.131169, 0.468174, -0.543351, 0.328342, -2.07784, -2.15806, -0.102277, -0.00997797, 0.0455056, 0.00511696, 0.00788807, -0.0011306, -0.01395
0.132092, 1.69455, -1.23007, -1.54895, -0.904104, -1.20307, 1.22541, -1.30247, 0.0314319, -0.00275466, -0.0239031, -0.0442446, -0.132618, -0.00134577, 0.000684307, -3.45177, 73.2849, 37.7637, 9.87, 2.51056, 4.49313, -0.0420422, -0.00300796, -0.00221645, 0.00746397, 0.0199883, -0.00664454, 0.0031631, 0.0510761, -0.0163353, -0.0151266, -0.105855, 0.161648, 0.0427682, 0.470562, -0.541451, 0.336092, -2.0818, -2.16545, -0.131199, 0.468184, -0.54335, 0.328319, -2.07782, -2.15809, -0.102033, -0.010112, 0.0461918, 0.00520992, 0.00750916, -0.00117928, -0.0182402
0.133092, 1.69458, -1.23007, -1.54897, -0.904139, -1.2032, 1.22542, -1.30247, 0.0335051, -0.00160286, -0.0220076, -0.0400055, -0.13659, -0.000454182, 0.000964831, -3.52715, 73.2849, 37.6883, 9.87, 2.50415, 4.46383, -0.0557752, -0.00306024, -0.00219961, 0.00746902, 0.020065, -0.00680867, 0.00317233, 0.0524948, -0.0167001, -0.0131785, -0.103386, 0.166814, 0.0407732, 0.470552, -0.541404, 0.336097, -2.08175, -2.16543, -0.131229, 0.468193, -0.543353, 0.328311, -2.07782, -2.15814, -0.10181, -0.0102463, 0.0468819, 0.00530381, 0.00786294, -0.00217606, -0.0164594
0.134092, 1.69462, -1.23007, -1.54899, -0.904174, -1.20334, 1.22542, -1.30248, 0.0340057, -0.00339904, -0.0212167, -0.0399034, -0.136354, -4.44865e-06, -0.000102765, -3.67791, 73.392, 37.7637, 9.87, 2.52887, 4.44278, -0.0356336, -0.00311452, -0.00218182, 0.00748425, 0.0201598, -0.00697062, 0.00317902, 0.0530057, -0.0173512, -0.0139076, -0.102281, 0.165731, 0.0431525, 0.470542, -0.541358, 0.336102, -2.0817, -2.16542, -0.131259, 0.468202, -0.543357, 0.328292, -2.07781, -2.15817, -0.101571, -0.010381, 0.047576, 0.00539863, 0.00837102, -0.00184407, -0.0171869
0.135092, 1.69466, -1.23008, -1.54901, -0.904207, -1.20348, 1.22543, -1.30248, 0.0366382, -0.00649633, -0.0188651, -0.0367044, -0.139324, 0.00985698, -0.000780587, -3.79296, 73.5785, 37.7637, 9.87, 2.52338, 4.4144, -0.0164075, -0.0031694, -0.00216186, 0.00750249, 0.0202444, -0.00712246, 0.00318331, 0.0548965, -0.020188, -0.0137227, -0.0921037, 0.170371, 0.044325, 0.470531, -0.54131, 0.336108, -2.08165, -2.16541, -0.13129, 0.468212, -0.543359, 0.32827, -2.0778, -2.15821, -0.101354, -0.0105161, 0.048274, 0.00549438, 0.0111454, -0.0029209, -0.0172949
0.136092, 1.6947, -1.23009, -1.54902, -0.904239, -1.20362, 1.22543, -1.30247, 0.035645, -0.0068308, -0.0145739, -0.0379084, -0.142244, 0.00920083, 0.00117503, -3.90404, 73.6896, 37.6526, 9.87, 2.52338, 4.35672, -0.0621838, -0.00322349, -0.00214058, 0.00751297, 0.0203216, -0.00728636, 0.00319283, 0.0553439, -0.0203373, -0.0125433, -0.0906047, 0.172654, 0.0439302, 0.470521, -0.541262, 0.336113, -2.0816, -2.1654, -0.131321, 0.468225, -0.543362, 0.328256, -2.0778, -2.15825, -0.101133, -0.0106515, 0.0489759, 0.00559107, 0.0112196, -0.00283674, -0.0161115
0.137092, 1.69474, -1.2301, -1.54904, -0.904276, -1.20377, 1.22545, -1.30248, 0.0366838, -0.00791363, -0.011054, -0.0392611, -0.143354, 0.0135615, -0.000199991, -4.09447, 73.8364, 37.6526, 9.9057, 2.51056, 4.29263, -0.0356336, -0.00327803, -0.00211628, 0.00753012, 0.0204089, -0.00745278, 0.00319039, 0.0552428, -0.0226661, -0.011786, -0.0850406, 0.175307, 0.0492995, 0.47051, -0.541213, 0.336119, -2.08155, -2.16539, -0.131353, 0.46824, -0.543362, 0.328235, -2.07778, -2.1583, -0.1009, -0.0107872, 0.0496816, 0.00568869, 0.0134343, -0.00205035, -0.0153243
0.138092, 1.69479, -1.23012, -1.54906, -0.904309, -1.20392, 1.22545, -1.30247, 0.0387994, -0.0103244, -0.0107044, -0.039872, -0.145007, 0.0115738, 0.00108738, -4.20556, 74.0546, 37.6169, 9.9057, 2.50415, 4.24228, -0.0685925, -0.00333472, -0.00209457, 0.00754873, 0.0204997, -0.00761443, 0.0031993, 0.0551108, -0.0236535, -0.0134199, -0.0879409, 0.17415, 0.0507098, 0.470499, -0.541163, 0.336125, -2.0815, -2.16538, -0.131385, 0.468252, -0.543365, 0.328213, -2.07777, -2.15834, -0.100667, -0.0109232, 0.0503911, 0.00578725, 0.0142202, -0.000912938, -0.0168507
0.139092, 1.69483, -1.23012, -1.54907, -0.904336, -1.20408, 1.22546, -1.30247, 0.0385405, -0.00684139, -0.0113158, -0.0350014, -0.149527, 0.0103529, 0.000724917, -4.24523, 74.0546, 37.6169, 9.83032, 2.46112, 4.1846, -0.0685925, -0.00339487, -0.0020754, 0.00755597, 0.0205809, -0.00779681, 0.00321402, 0.0579698, -0.021621, -0.0109435, -0.0888917, 0.181062, 0.0450489, 0.470489, -0.541113, 0.33613, -2.08145, -2.16537, -0.131418, 0.468262, -0.543371, 0.328202, -2.07778, -2.15838, -0.100423, -0.0110595, 0.0511045, 0.00588674, 0.0122506, -0.003491, -0.0146971
0.140092, 1.69488, -1.23013, -1.54909, -0.90437, -1.20424, 1.22547, -1.30247, 0.0444101, -0.00889144, -0.015609, -0.0375644, -0.15431, 0.0088713, 0.00119535, -4.39599, 74.241, 37.6526, 9.87, 2.44922, 4.14157, -0.0878186, -0.00345123, -0.00204867, 0.00757445, 0.0206761, -0.00797319, 0.00321586, 0.0572099, -0.0240477, -0.0144164, -0.0983414, 0.183703, 0.0494379, 0.470477, -0.541062, 0.336136, -2.0814, -2.16536, -0.13145, 0.468279, -0.543372, 0.328179, -2.07777, -2.15843, -0.100172, -0.0111962, 0.0518216, 0.00598718, 0.0143825, -0.00137886, -0.0179823
0.141092, 1.69492, -1.23014, -1.5491, -0.904407, -1.2044, 1.22547, -1.30247, 0.0393161, -0.0085027, -0.00992929, -0.0368659, -0.156328, 0.0123082, 0.000322185, -4.28094, 74.3521, 37.5773, 9.94141, 2.4126, 4.10586, -0.0750012, -0.00351238, -0.00202986, 0.00758557, 0.0207631, -0.00815361, 0.0032247, 0.0599465, -0.0225629, -0.0114923, -0.0900637, 0.187559, 0.0471354, 0.470466, -0.54101, 0.336142, -2.08134, -2.16535, -0.131484, 0.468288, -0.543377, 0.328164, -2.07777, -2.15848, -0.099925, -0.0113331, 0.0525425, 0.00608855, 0.0129715, -0.00387563, -0.0153829
0.142092, 1.69496, -1.23014, -1.54912, -0.904444, -1.20456, 1.22548, -1.30247, 0.0409064, -0.00964913, -0.0126009, -0.0351266, -0.15915, 0.0134617, -2.25686e-05, -4.24523, 74.3878, 37.6526, 9.98108, 2.39978, 4.10586, -0.0685925, -0.00357411, -0.00201043, 0.00759804, 0.0208635, -0.00834336, 0.00323552, 0.0618263, -0.0226087, -0.0128142, -0.092128, 0.190138, 0.0457633, 0.470455, -0.540957, 0.336148, -2.08129, -2.16533, -0.131518, 0.468298, -0.543382, 0.328148, -2.07777, -2.15852, -0.0996543, -0.0114702, 0.0532671, 0.00619087, 0.0129012, -0.00479632, -0.0168858
0.143092, 1.69501, -1.23015, -1.54913, -0.904487, -1.20473, 1.22548, -1.30247, 0.0439983, -0.00844642, -0.0117432, -0.0357669, -0.161893, 0.00954816, 0.000459672, -4.28094, 74.4632, 37.6169, 10.0922, 2.39429, 4.11319, -0.0814099, -0.00362991, -0.00198347, 0.00761043, 0.0209583, -0.00852994, 0.00323438, 0.0608609, -0.0237017, -0.0123514, -0.096602, 0.192538, 0.048736, 0.470443, -0.540904, 0.336154, -2.08123, -2.16532, -0.131552, 0.468315, -0.543381, 0.328132, -2.07776, -2.15858, -0.0993946, -0.0116077, 0.0539954, 0.00629413, 0.0138378, -0.00314, -0.0162104
0.144092, 1.69504, -1.23015, -1.54915, -0.904527, -1.2049, 1.22548, -1.30246, 0.0407433, -0.00665398, -0.0120031, -0.038597, -0.162334, 0.0108905, 0.00152715, -4.09447, 74.4989, 37.6169, 10.1675, 2.35126, 4.13424, -0.114369, -0.00369483, -0.00196685, 0.00762125, 0.0210562, -0.00872225, 0.00325387, 0.0623302, -0.0227309, -0.0114661, -0.0964251, 0.196252, 0.0470398, 0.470432, -0.54085, 0.336161, -2.08118, -2.16531, -0.131586, 0.468322, -0.543388, 0.328117, -2.07777, -2.15862, -0.099124, -0.0117453, 0.0547273, 0.00639834, 0.0128181, -0.00403542, -0.0154373
0.145092, 1.69509, -1.23015, -1.54916, -0.90457, -1.20507, 1.22548, -1.30246, 0.0413745, -0.0019784, -0.0160318, -0.0406523, -0.16269, 0.00703983, -0.000914679, -4.0191, 74.3878, 37.6526, 10.2429, 2.31372, 4.16354, -0.0621838, -0.00375305, -0.00194426, 0.00762659, 0.0211567, -0.00892146, 0.00325332, 0.0622806, -0.0220911, -0.0107453, -0.104014, 0.200492, 0.0501117, 0.47042, -0.540795, 0.336167, -2.08112, -2.1653, -0.131621, 0.468335, -0.543389, 0.328108, -2.07776, -2.15868, -0.098846, -0.0118833, 0.0554629, 0.00650349, 0.0120669, -0.00338879, -0.0145966
0.146092, 1.69513, -1.23014, -1.54917, -0.904612, -1.20523, 1.22548, -1.30246, 0.0470724, 0.000338656, -0.0102055, -0.0415098, -0.162942, 0.00483303, -0.000372427, -4.0191, 74.3124, 37.5773, 10.2786, 2.2652, 4.17727, -0.0685925, -0.00380959, -0.00191887, 0.00762895, 0.0212491, -0.00912156, 0.00325133, 0.0586664, -0.026174, -0.00791005, -0.10189, 0.202627, 0.058968, 0.470408, -0.54074, 0.336174, -2.08106, -2.16528, -0.131657, 0.46835, -0.543387, 0.328102, -2.07775, -2.15875, -0.0985766, -0.0120214, 0.0562022, 0.00660959, 0.0159791, 0.000647107, -0.011251
0.147092, 1.69517, -1.23014, -1.54918, -0.904661, -1.20541, 1.22548, -1.30246, 0.0432558, -0.0016167, -0.00776438, -0.046855, -0.168966, 0.00343707, 0.00192185, -3.82867, 74.3878, 37.5773, 10.3897, 2.24689, 4.1846, -0.127186, -0.0038731, -0.00189914, 0.00764032, 0.021351, -0.00931696, 0.00326359, 0.0602475, -0.0248683, -0.00881856, -0.105734, 0.205885, 0.0572155, 0.470396, -0.540684, 0.33618, -2.08101, -2.16527, -0.131692, 0.46836, -0.543391, 0.328087, -2.07775, -2.15879, -0.0983005, -0.0121598, 0.056945, 0.00671664, 0.0145623, -8.15533e-05, -0.0122532
0.148092, 1.69521, -1.23013, -1.54919, -0.904702, -1.20558, 1.22548, -1.30245, 0.0388167, 0.00229644, -0.00906224, -0.0442768, -0.168149, 0.00211359, 0.00104388, -3.67791, 74.241, 37.5773, 10.354, 2.20935, 4.19925, -0.120778, -0.00393685, -0.00188003, 0.00764303, 0.0214468, -0.0095215, 0.00327599, 0.063351, -0.0214496, -0.00645775, -0.105284, 0.208889, 0.0513875, 0.470384, -0.540627, 0.336187, -2.08095, -2.16526, -0.131729, 0.468369, -0.543395, 0.32808, -2.07775, -2.15884, -0.0980221, -0.0122984, 0.0576914, 0.00682465, 0.011212, -0.0029093, -0.010203
0.149092, 1.69525, -1.23012, -1.5492, -0.904753, -1.20574, 1.22548, -1.30246, 0.0406957, 0.00408485, -0.0117694, -0.0434164, -0.163572, 0.00141135, -0.00123686, -3.60253, 74.1299, 37.6526, 10.354, 2.19104, 4.20657, -0.0685925, -0.00399583, -0.00185579, 0.00764862, 0.0215479, -0.00972266, 0.00326787, 0.0629609, -0.0222905, -0.00638784, -0.105751, 0.207491, 0.055351, 0.470372, -0.540569, 0.336194, -2.08089, -2.16524, -0.131765, 0.468382, -0.543393, 0.328071, -2.07773, -2.15891, -0.097744, -0.0124372, 0.0584414, 0.0069336, 0.0119023, -0.00174848, -0.00999298
0.150092, 1.69528, -1.23012, -1.5492, -0.904803, -1.2059, 1.22547, -1.30245, 0.0330135, 0.00445304, -0.00694954, -0.0417762, -0.16029, 0.000366171, 0.00516916, -3.4121, 74.0546, 37.5773, 10.3143, 2.18555, 4.22763, -0.101552, -0.00405982, -0.00183771, 0.00765106, 0.0216373, -0.00991989, 0.00328072, 0.0658197, -0.0187585, -0.00391388, -0.098769, 0.204722, 0.0437003, 0.470359, -0.54051, 0.336201, -2.08083, -2.16523, -0.131802, 0.46839, -0.543396, 0.328065, -2.07774, -2.15896, -0.097481, -0.0125762, 0.0591949, 0.00704351, 0.00843397, -0.00435066, -0.00778762
0.151092, 1.69531, -1.23011, -1.54921, -0.904859, -1.20606, 1.22547, -1.30245, 0.0323239, 0.00461406, -0.00528291, -0.0489422, -0.157533, -0.000653172, 0.00479329, -3.30102, 73.9832, 37.5773, 10.3143, 2.17273, 4.25601, -0.127186, -0.00411925, -0.00181412, 0.00765599, 0.0217313, -0.0101144, 0.00327804, 0.063771, -0.0205031, -0.00427477, -0.10004, 0.20339, 0.0517936, 0.470347, -0.540451, 0.336208, -2.08077, -2.16522, -0.13184, 0.468403, -0.543394, 0.328057, -2.07772, -2.15902, -0.0972178, -0.0127154, 0.0599519, 0.00715437, 0.00994944, -0.00144071, -0.00776691
0.152092, 1.69534, -1.23011, -1.54921, -0.904921, -1.20622, 1.22546, -1.30244, 0.0294775, 0.00389245, -0.00317413, -0.053985, -0.155239, -0.002185, 0.00672352, -3.22564, 73.9474, 37.5416, 10.3143, 2.14801, 4.30636, -0.0878186, -0.00417977, -0.00179307, 0.00766288, 0.0218309, -0.0103049, 0.00327425, 0.0633317, -0.0205098, -0.00463083, -0.100319, 0.201028, 0.0536652, 0.470334, -0.540391, 0.336215, -2.0807, -2.1652, -0.131878, 0.468413, -0.543391, 0.328047, -2.0777, -2.15908, -0.0969528, -0.0128547, 0.0607124, 0.00726618, 0.00978858, -0.000189337, -0.00794108
0.153092, 1.69537, -1.2301, -1.54921, -0.904979, -1.20638, 1.22545, -1.30244, 0.0312411, 0.00610734, -0.00155363, -0.0569021, -0.158268, -0.0131814, 0.00998493, -3.18597, 73.7967, 37.5019, 10.2786, 2.13611, 4.37778, -0.0951428, -0.00424176, -0.00177351, 0.00766304, 0.0219255, -0.0105053, 0.00327831, 0.0613932, -0.0201454, -0.00415369, -0.111155, 0.201321, 0.0547132, 0.470321, -0.540331, 0.336222, -2.08064, -2.16519, -0.131916, 0.468422, -0.54339, 0.328043, -2.07769, -2.15914, -0.0966831, -0.0129943, 0.0614763, 0.00737895, 0.00923253, 0.00239865, -0.00704358
0.154092, 1.69539, -1.2301, -1.5492, -0.905029, -1.20654, 1.22545, -1.30243, 0.0227394, 0.00406098, -0.00200584, -0.0558247, -0.156083, -0.0113515, 0.00821423, -2.9995, 73.7967, 37.3908, 10.0922, 2.1178, 4.42813, -0.114369, -0.00431264, -0.0017609, 0.00766589, 0.0220085, -0.0106953, 0.00329715, 0.0662867, -0.0157727, -0.00474786, -0.107196, 0.198745, 0.048144, 0.470308, -0.540269, 0.33623, -2.08058, -2.16517, -0.131955, 0.468424, -0.543397, 0.328036, -2.0777, -2.15918, -0.0964356, -0.0131339, 0.0622436, 0.00749268, 0.00488583, -0.00175298, -0.00815885
0.155092, 1.69541, -1.23009, -1.54921, -0.905099, -1.20671, 1.22544, -1.30243, 0.0212801, 0.00613306, -0.0027454, -0.0590616, -0.158273, -0.0149103, 0.00634766, -2.88445, 73.6499, 37.4305, 10.0922, 2.09308, 4.48581, -0.120778, -0.0043783, -0.0017451, 0.00766692, 0.0221115, -0.0109034, 0.00330218, 0.0667939, -0.0147089, -0.00442974, -0.112947, 0.201886, 0.050649, 0.470295, -0.540207, 0.336237, -2.08051, -2.16516, -0.131994, 0.468429, -0.543399, 0.328032, -2.07769, -2.15924, -0.0961495, -0.0132738, 0.0630144, 0.00760737, 0.00371545, -0.00157623, -0.00778157
0.156092, 1.69543, -1.23008, -1.5492, -0.905161, -1.20687, 1.22543, -1.30243, 0.0228725, 0.00658841, 0.00575543, -0.0618732, -0.164785, -0.0130972, 0.00301196, -2.88445, 73.5428, 37.3551, 9.94141, 2.08667, 4.54989, -0.0750012, -0.00444496, -0.00172824, 0.00766589, 0.0222005, -0.0111058, 0.00330348, 0.0657202, -0.0174707, -0.00144136, -0.108354, 0.209121, 0.0603347, 0.470282, -0.540144, 0.336245, -2.08045, -2.16514, -0.132034, 0.468435, -0.5434, 0.328029, -2.07768, -2.1593, -0.0958855, -0.0134137, 0.0637885, 0.00772302, 0.00640615, -9.32003e-05, -0.004636
0.157092, 1.69544, -1.23007, -1.54921, -0.905239, -1.20703, 1.22542, -1.30242, 0.0199225, 0.00791429, 0.00148362, -0.0685784, -0.166139, -0.0106753, 0.00801531, -2.84875, 73.392, 37.4662, 9.98108, 2.08667, 4.58652, -0.10796, -0.00451189, -0.00171261, 0.00767047, 0.0223064, -0.0113107, 0.00331034, 0.0671251, -0.0169144, -0.00270893, -0.113049, 0.214349, 0.0562206, 0.470268, -0.54008, 0.336252, -2.08038, -2.16513, -0.132074, 0.46844, -0.543401, 0.328021, -2.07766, -2.15935, -0.0956001, -0.0135538, 0.064566, 0.00783963, 0.00571671, -0.000525369, -0.00597963
0.158092, 1.69545, -1.23006, -1.5492, -0.90531, -1.2072, 1.22541, -1.30241, 0.0143885, 0.00954174, -0.00326047, -0.070518, -0.167478, -0.00860865, 0.00720094, -2.80907, 73.2095, 37.3908, 9.9057, 2.09308, 4.6149, -0.140919, -0.0045834, -0.00170107, 0.00766795, 0.0223989, -0.0115213, 0.00333034, 0.0711122, -0.0136857, -0.00318838, -0.115825, 0.219125, 0.0509571, 0.470255, -0.540016, 0.33626, -2.08032, -2.16511, -0.132115, 0.46844, -0.543406, 0.32802, -2.07768, -2.1594, -0.0953227, -0.013694, 0.0653468, 0.00795721, 0.00248319, -0.00373889, -0.00687099
0.159092, 1.69545, -1.23004, -1.5492, -0.905385, -1.20736, 1.22541, -1.30241, 0.0111185, 0.0106275, -0.00171693, -0.0690085, -0.166969, -0.00712073, 0.0030741, -2.80907, 73.027, 37.3551, 9.83032, 2.07477, 4.64328, -0.0814099, -0.00465519, -0.00168887, 0.0076668, 0.0224912, -0.0117309, 0.00333595, 0.0734376, -0.0122109, -0.001471, -0.111522, 0.220913, 0.0518355, 0.470241, -0.53995, 0.336268, -2.08025, -2.1651, -0.132156, 0.468441, -0.543411, 0.328017, -2.07767, -2.15946, -0.0950486, -0.0138343, 0.0661309, 0.00807574, 0.00102148, -0.00558015, -0.00538476
0.160092, 1.69545, -1.23003, -1.54919, -0.905469, -1.20752, 1.2254, -1.3024, 0.00679376, 0.0114448, -0.000593282, -0.0756784, -0.163181, -0.00580881, 0.00685608, -2.7337, 72.8406, 37.3194, 9.83032, 2.08667, 4.66525, -0.0750012, -0.00472832, -0.00168045, 0.00766539, 0.0225897, -0.0119415, 0.00335112, 0.0732663, -0.0122367, -0.00118268, -0.109881, 0.220455, 0.051839, 0.470227, -0.539884, 0.336276, -2.08018, -2.16508, -0.132197, 0.468439, -0.543417, 0.328014, -2.07767, -2.15951, -0.0947661, -0.0139747, 0.0669183, 0.00819524, 0.000912803, -0.00466666, -0.00495899
0.161092, 1.69545, -1.23001, -1.54919, -0.905555, -1.20768, 1.2254, -1.30239, 0.00631567, 0.0118974, 0.00031959, -0.0813848, -0.160337, -0.00405843, 0.00570453, -2.77337, 72.6581, 37.2797, 9.83032, 2.09308, 4.66525, -0.0878186, -0.00480181, -0.00166894, 0.00766459, 0.0226833, -0.0121558, 0.00336609, 0.0719901, -0.0141538, -0.0012127, -0.108675, 0.220663, 0.0593315, 0.470213, -0.539817, 0.336284, -2.08012, -2.16506, -0.132239, 0.468439, -0.543421, 0.328011, -2.07768, -2.15956, -0.0944856, -0.0141153, 0.067709, 0.00831571, 0.00263995, -0.00252957, -0.00472985
0.162092, 1.69544, -1.23001, -1.54918, -0.905645, -1.20784, 1.22539, -1.30239, 0.00392629, 0.00969376, 0.00265184, -0.0846456, -0.15847, -0.00362494, 0.00456861, -2.7337, 72.5827, 37.1686, 9.79462, 2.10498, 4.68631, -0.0951428, -0.00487721, -0.00166144, 0.00766667, 0.022777, -0.0123572, 0.00337929, 0.0722839, -0.014401, -0.00197442, -0.106612, 0.217992, 0.06319, 0.470199, -0.539749, 0.336293, -2.08005, -2.16505, -0.132281, 0.468435, -0.543427, 0.328005, -2.07767, -2.15961, -0.0942187, -0.0142558, 0.0685029, 0.00843714, 0.00273025, -0.00189411, -0.00541904
0.163092, 1.69543, -1.22999, -1.54918, -0.905737, -1.208, 1.22538, -1.30238, -0.00090776, 0.0148117, 0.00341137, -0.0867846, -0.156608, -0.00360626, 0.00168715, -2.69799, 72.3605, 37.0933, 9.75494, 2.11139, 4.7156, -0.0484509, -0.00495372, -0.0016558, 0.00766292, 0.0228721, -0.0125711, 0.00339204, 0.073619, -0.0125277, 0.00128556, -0.104759, 0.222287, 0.0644246, 0.470185, -0.539681, 0.336301, -2.07998, -2.16503, -0.132324, 0.468429, -0.543434, 0.328005, -2.07767, -2.15966, -0.0939382, -0.0143965, 0.0692999, 0.00855954, 0.000891557, -0.00300526, -0.00223805
0.164092, 1.69541, -1.22999, -1.54917, -0.905835, -1.20815, 1.22537, -1.30237, -0.0058859, 0.0109718, 0.00218442, -0.0944081, -0.155279, -0.00248259, 0.000928106, -2.7337, 72.3248, 37.0933, 9.79462, 2.11139, 4.7156, -0.0356336, -0.0050292, -0.00164801, 0.00766862, 0.0229687, -0.0127656, 0.00340227, 0.0748414, -0.0117438, -0.00210818, -0.107265, 0.219281, 0.0673626, 0.47017, -0.539612, 0.33631, -2.0799, -2.16502, -0.132367, 0.468425, -0.543437, 0.327995, -2.07766, -2.15971, -0.0936765, -0.0145372, 0.0701002, 0.0086829, -0.000111531, -0.00290934, -0.00563835
0.165092, 1.6954, -1.22997, -1.54917, -0.905932, -1.2083, 1.22536, -1.30236, -0.00520364, 0.0101096, 0.00315216, -0.0966011, -0.149636, -0.00646649, 0.00781932, -2.69799, 72.2137, 37.0179, 9.71924, 2.1178, 4.7156, -0.0951428, -0.00510463, -0.00164178, 0.00766851, 0.0230623, -0.0129638, 0.00341923, 0.0730616, -0.012821, -0.00296956, -0.108274, 0.212877, 0.0658066, 0.470156, -0.539541, 0.336318, -2.07983, -2.165, -0.132411, 0.46842, -0.543441, 0.327991, -2.07765, -2.15975, -0.0934139, -0.014678, 0.0709037, 0.00880724, 0.000726782, -0.00016718, -0.00611985
0.166092, 1.69537, -1.22995, -1.54916, -0.906036, -1.20844, 1.22534, -1.30235, -0.00873991, 0.0159592, 0.00372135, -0.0992534, -0.149834, -0.00967626, 0.00525966, -2.62261, 71.9559, 36.9465, 9.67957, 2.11139, 4.72201, -0.0814099, -0.00517936, -0.00163662, 0.00766434, 0.0231588, -0.013169, 0.00342852, 0.0737277, -0.0109149, 0.000247537, -0.11072, 0.218115, 0.0676172, 0.470141, -0.539471, 0.336327, -2.07976, -2.16498, -0.132455, 0.468413, -0.543444, 0.327992, -2.07764, -2.1598, -0.0931422, -0.0148189, 0.0717102, 0.00893254, -0.00117092, -0.000604155, -0.00287145
0.167092, 1.69535, -1.22994, -1.54916, -0.906141, -1.20858, 1.22533, -1.30235, -0.0125524, 0.0157197, 0.00160779, -0.100762, -0.150977, -0.0121196, 0.00199021, -2.62261, 71.8845, 36.9822, 9.60815, 2.13611, 4.72934, -0.0292249, -0.00525661, -0.00163205, 0.00766859, 0.0232637, -0.0133658, 0.00343936, 0.0762268, -0.00825616, -0.000828344, -0.115247, 0.218494, 0.0674574, 0.470126, -0.539399, 0.336336, -2.07969, -2.16496, -0.132499, 0.468405, -0.543447, 0.327984, -2.07762, -2.15984, -0.0928702, -0.0149597, 0.0725199, 0.00905882, -0.00391238, -0.00220281, -0.00412646
0.168092, 1.69533, -1.22992, -1.54916, -0.906247, -1.20872, 1.22531, -1.30233, -0.0173685, 0.0198138, 0.00280668, -0.101865, -0.150047, -0.0180812, 0.00408063, -2.54723, 71.7734, 36.9068, 9.56848, 2.1178, 4.72201, -0.0951428, -0.00533378, -0.00162887, 0.00766814, 0.0233579, -0.0135591, 0.00345758, 0.0774406, -0.00504882, 0.00161878, -0.118203, 0.21952, 0.0626878, 0.470112, -0.539326, 0.336345, -2.07961, -2.16495, -0.132544, 0.468396, -0.54345, 0.327981, -2.07761, -2.15988, -0.0926133, -0.0151006, 0.0733327, 0.00918606, -0.00711764, -0.00310869, -0.00168291
0.169092, 1.69531, -1.22991, -1.54915, -0.906362, -1.20886, 1.22529, -1.30232, -0.0181776, 0.018907, 0.00352024, -0.107518, -0.145615, -0.0227671, 0.00788722, -2.58294, 71.698, 36.8354, 9.53278, 2.12421, 4.7156, -0.101552, -0.00540659, -0.0016218, 0.00766932, 0.0234613, -0.0137525, 0.00346221, 0.0755373, -0.00574674, 0.000178769, -0.122026, 0.213955, 0.0652476, 0.470096, -0.539253, 0.336354, -2.07954, -2.16493, -0.132589, 0.468391, -0.543447, 0.327977, -2.07758, -2.15992, -0.0923479, -0.0152415, 0.0741485, 0.00931428, -0.00668446, -0.000157387, -0.00269998
0.170092, 1.69527, -1.22989, -1.54915, -0.906475, -1.209, 1.22527, -1.30232, -0.0243977, 0.0209715, 0.00549631, -0.106636, -0.143267, -0.0250135, 0.00795289, -2.50756, 71.5155, 36.8354, 9.4574, 2.14801, 4.67898, -0.0356336, -0.00548637, -0.00162402, 0.00766702, 0.0235681, -0.0139512, 0.003471, 0.0780878, -0.00232885, 0.00236252, -0.119459, 0.213331, 0.0603156, 0.470081, -0.539179, 0.336364, -2.07946, -2.16491, -0.132635, 0.468376, -0.543452, 0.327976, -2.07756, -2.15997, -0.0920735, -0.0153825, 0.0749674, 0.00944347, -0.0100598, -0.00234411, -0.000720636
0.171092, 1.69524, -1.22988, -1.54915, -0.906585, -1.20913, 1.22524, -1.30231, -0.0292708, 0.0123482, 0.00391601, -0.106147, -0.139885, -0.0218658, 0.0104839, -2.43218, 71.6266, 36.8354, 9.38202, 2.14252, 4.63595, -0.0292249, -0.00556988, -0.00162632, 0.00767434, 0.0236706, -0.014133, 0.00349064, 0.0819851, -0.00041905, -0.00268773, -0.116148, 0.204234, 0.0536303, 0.470066, -0.539104, 0.336373, -2.07939, -2.16489, -0.132681, 0.468362, -0.543458, 0.327965, -2.07754, -2.15999, -0.0918201, -0.0155234, 0.0757893, 0.00957364, -0.01215, -0.00465101, -0.00614015
0.172092, 1.69519, -1.22985, -1.54915, -0.906705, -1.20926, 1.22522, -1.3023, -0.0328432, 0.015548, 0.0051248, -0.110726, -0.137988, -0.023704, 0.00991103, -2.3568, 71.4798, 36.8711, 9.34631, 2.14252, 4.57187, -0.0814099, -0.00565146, -0.00163, 0.00767168, 0.0237763, -0.0143322, 0.00351506, 0.0819509, 0.000424844, -0.000976769, -0.116982, 0.205959, 0.0562018, 0.47005, -0.539028, 0.336383, -2.07931, -2.16487, -0.132728, 0.468345, -0.543462, 0.327964, -2.07753, -2.16002, -0.0915456, -0.0156643, 0.0766142, 0.00970477, -0.0130688, -0.00409735, -0.00429464
0.173092, 1.69516, -1.22983, -1.54914, -0.906825, -1.20939, 1.22519, -1.30229, -0.0359116, 0.0193806, 0.00558478, -0.115145, -0.135923, -0.0249177, 0.00711171, -2.39648, 71.4044, 36.7957, 9.27094, 2.14252, 4.50046, -0.0750012, -0.00572869, -0.00162871, 0.00766959, 0.0238795, -0.0145244, 0.00352146, 0.0818743, 0.00103427, 0.000891412, -0.117816, 0.208517, 0.0610428, 0.470035, -0.538951, 0.336392, -2.07923, -2.16485, -0.132775, 0.468334, -0.543462, 0.327963, -2.0775, -2.16006, -0.0912834, -0.0158053, 0.0774421, 0.00983689, -0.0137489, -0.00351397, -0.00229363
0.174092, 1.69512, -1.22981, -1.54914, -0.906948, -1.20951, 1.22516, -1.30229, -0.039473, 0.0234919, 0.00402695, -0.117316, -0.134021, -0.0261083, 0.0023813, -2.39648, 71.4044, 36.7957, 9.23523, 2.13611, 4.43545, 0.00373412, -0.00580878, -0.00163164, 0.00767073, 0.0239857, -0.0147066, 0.0035258, 0.0831086, 0.00280869, 0.0025586, -0.119334, 0.211377, 0.0643312, 0.470019, -0.538874, 0.336402, -2.07915, -2.16483, -0.132822, 0.468318, -0.543463, 0.327959, -2.07746, -2.1601, -0.0910286, -0.0159461, 0.0782729, 0.00996998, -0.0155509, -0.00423934, -0.000662661
0.175092, 1.69507, -1.2298, -1.54914, -0.907069, -1.20963, 1.22513, -1.30227, -0.0411764, 0.0195631, 0.00607295, -0.12022, -0.130048, -0.0226023, 0.00890762, -2.43218, 71.4401, 36.7957, 9.12018, 2.16724, 4.37778, -0.0557752, -0.00589187, -0.00163527, 0.00767399, 0.0240901, -0.0148886, 0.00355207, 0.0833626, 0.00147309, 0.000932817, -0.11389, 0.20692, 0.0615485, 0.470003, -0.538796, 0.336412, -2.07907, -2.16481, -0.13287, 0.468302, -0.543465, 0.327952, -2.07744, -2.16011, -0.0907743, -0.016087, 0.0791067, 0.010104, -0.0144075, -0.00334115, -0.00222081
0.176092, 1.69502, -1.22977, -1.54913, -0.907196, -1.20975, 1.2251, -1.30226, -0.0474131, 0.0184103, 0.0102295, -0.123516, -0.121433, -0.024034, 0.00688026, -2.39648, 71.4044, 36.6846, 9.04877, 2.17914, 4.29904, -0.0621838, -0.00597368, -0.00164027, 0.00766976, 0.0241918, -0.015078, 0.00356769, 0.0833892, 0.00265521, 0.00142755, -0.108049, 0.198574, 0.0655907, 0.469987, -0.538717, 0.336422, -2.07899, -2.16479, -0.132919, 0.468284, -0.543467, 0.327953, -2.07742, -2.16014, -0.0905168, -0.0162278, 0.0799433, 0.0102391, -0.0157069, -0.00265874, -0.00157095
0.177092, 1.69497, -1.22975, -1.54913, -0.907327, -1.20987, 1.22508, -1.30225, -0.0480179, 0.0206616, 0.00657245, -0.130198, -0.118892, -0.024843, 0.00460657, -2.39648, 71.3687, 36.7203, 8.97339, 2.17914, 4.21298, -0.0484509, -0.00605811, -0.00164575, 0.00766987, 0.0242953, -0.0152655, 0.00357956, 0.0825152, 0.00196261, 0.000492091, -0.113493, 0.199943, 0.0725761, 0.469971, -0.538637, 0.336433, -2.07891, -2.16477, -0.132968, 0.468265, -0.54347, 0.327949, -2.07739, -2.16018, -0.0902602, -0.0163686, 0.0807828, 0.0103751, -0.0152218, -0.000778482, -0.00224612
0.178092, 1.69492, -1.22973, -1.54912, -0.907458, -1.20999, 1.22505, -1.30225, -0.04759, 0.0168127, 0.00964245, -0.132373, -0.118098, -0.0253758, 0.00692987, -2.43218, 71.4401, 36.6489, 8.85834, 2.19745, 4.12692, -0.0164075, -0.0061405, -0.00164862, 0.00766908, 0.0243909, -0.0154463, 0.00358451, 0.0820425, 0.000512157, -0.00106621, -0.112136, 0.196094, 0.0748416, 0.469954, -0.538556, 0.336443, -2.07883, -2.16475, -0.133017, 0.468249, -0.54347, 0.327947, -2.07735, -2.16022, -0.0900203, -0.0165093, 0.0816252, 0.0105121, -0.0139883, 0.000840121, -0.00362253
0.179092, 1.69487, -1.2297, -1.54912, -0.907597, -1.2101, 1.22502, -1.30224, -0.0481549, 0.0204798, 0.00535107, -0.136295, -0.113431, -0.0217398, 0.00601664, -2.43218, 71.3687, 36.7203, 8.78693, 2.22858, 4.05551, -0.0356336, -0.00622235, -0.0016523, 0.00766617, 0.0244988, -0.0156394, 0.0035944, 0.0820133, -0.000505922, -0.000638961, -0.111862, 0.199145, 0.0784997, 0.469938, -0.538474, 0.336454, -2.07875, -2.16473, -0.133067, 0.468232, -0.54347, 0.327947, -2.07732, -2.16025, -0.0897542, -0.01665, 0.0824704, 0.0106501, -0.0130952, 0.00169143, -0.00309622
0.180092, 1.69481, -1.22968, -1.54911, -0.907735, -1.21021, 1.22499, -1.30222, -0.0477593, 0.0237892, 0.00717527, -0.134656, -0.114073, -0.0242286, 0.0038125, -2.47185, 71.4044, 36.7203, 8.67188, 2.24689, 3.99783, -0.0164075, -0.00630594, -0.00165636, 0.00766591, 0.0245996, -0.0158222, 0.00360443, 0.082377, -0.000205135, 0.00196759, -0.111575, 0.202316, 0.0805968, 0.469921, -0.538392, 0.336464, -2.07866, -2.16471, -0.133117, 0.468214, -0.543469, 0.327945, -2.07728, -2.16029, -0.089507, -0.0167906, 0.0833185, 0.010789, -0.0134219, 0.00175596, -0.000440368
0.181092, 1.69481, -1.22968, -1.54911, -0.907735, -1.21021, 1.22499, -1.30222, -0.0477593, 0.0237892, 0.00717527, -0.134656, -0.114073, -0.0242286, 0.0038125, -2.47185, 71.4044, 36.7203, 8.67188, 2.24689, 3.99783, -0.0164075, -0.00639102, -0.00164283, 0.00766228, 0.0245735, -0.0158974, 0.00363549, 0.0832438, -0.000310658, 0.00197591, -0.111413, 0.20316, 0.0810252, 0.469904, -0.538309, 0.336475, -2.07858, -2.16469, -0.133167, 0.468214, -0.543469, 0.327945, -2.07728, -2.16029, -0.089507, -0.0169311, 0.0841693, 0.010929, -0.0134219, 0.00175596, -0.000440368
0.182092, 1.69476, -1.22965, -1.54911, -0.907874, -1.21032, 1.22496, -1.30222, -0.0484448, 0.0272068, 0.006216, -0.13603, -0.115128, -0.0256598, 0.00170608, -2.58294, 71.4044, 36.6846, 8.52509, 2.28992, 3.92642, 0.0165515, -0.0064744, -0.00164336, 0.00765981, 0.0246727, -0.0160895, 0.00363744, 0.0839628, 0.000283882, 0.00339323, -0.114082, 0.207701, 0.0831483, 0.469887, -0.538224, 0.336486, -2.07849, -2.16467, -0.133218, 0.4682, -0.543467, 0.327944, -2.07724, -2.16033, -0.0892538, -0.0170715, 0.0850228, 0.0110699, -0.0140732, 0.00165089, 0.000996136
0.183092, 1.69476, -1.22965, -1.54911, -0.907874, -1.21032, 1.22496, -1.30222, -0.0484448, 0.0272068, 0.006216, -0.13603, -0.115128, -0.0256598, 0.00170608, -2.58294, 71.4044, 36.6846, 8.52509, 2.28992, 3.92642, 0.0165515, -0.00656122, -0.00162962, 0.00765614, 0.024646, -0.0161663, 0.00366904, 0.0848352, 0.000178904, 0.00340085, -0.113918, 0.208549, 0.0835769, 0.46987, -0.538139, 0.336497, -2.07841, -2.16465, -0.13327, 0.4682, -0.543467, 0.327944, -2.07724, -2.16033, -0.0892538, -0.0172118, 0.0858791, 0.0112118, -0.0140732, 0.00165089, 0.000996136
0.184092, 1.69476, -1.22965, -1.54911, -0.907874, -1.21032, 1.22496, -1.30222, -0.0484448, 0.0272068, 0.006216, -0.13603, -0.115128, -0.0256598, 0.00170608, -2.58294, 71.4044, 36.6846, 8.52509, 2.28992, 3.92642, 0.0165515, -0.00664892, -0.00161579, 0.00765245, 0.0246191, -0.0162438, 0.00370091, 0.0857104, 7.41936e-05, 0.00340813, -0.113752, 0.209398, 0.0840055, 0.469853, -0.538053, 0.336508, -2.07832, -2.16463, -0.133322, 0.4682, -0.543467, 0.327944, -2.07724, -2.16033, -0.0892538, -0.017352, 0.0867382, 0.0113547, -0.0140732, 0.00165089, 0.000996136
0.185092, 1.69453, -1.22955, -1.54908, -0.908476, -1.21073, 1.22487, -1.30218, -0.0572762, 0.027824, 0.00916251, -0.146869, -0.10836, -0.0206805, 0.00815249, -2.58294, 71.4798, 36.76, 8.26324, 2.36957, 3.77627, 0.00373412, -0.00672103, -0.00166032, 0.0076599, 0.0250829, -0.0167548, 0.00360059, 0.0858056, 0.000314724, 0.00415169, -0.107174, 0.208299, 0.0824497, 0.469836, -0.537967, 0.33652, -2.07823, -2.1646, -0.133374, 0.46814, -0.543452, 0.327938, -2.07705, -2.16052, -0.0882868, -0.0174921, 0.0875999, 0.0114985, -0.0144192, 0.00229119, 0.0018591
0.186092, 1.69447, -1.22952, -1.54907, -0.908631, -1.21083, 1.22485, -1.30218, -0.0562852, 0.0281048, 0.0110325, -0.152538, -0.106119, -0.020044, 0.00475027, -2.54723, 71.4401, 36.7203, 8.18787, 2.4126, 3.76163, 0.0431018, -0.00680378, -0.00166021, 0.00765259, 0.0251702, -0.0169452, 0.00358865, 0.0837894, -0.00231787, 0.00417041, -0.106594, 0.208314, 0.0938625, 0.469818, -0.537879, 0.336531, -2.07815, -2.16458, -0.133427, 0.468126, -0.543446, 0.327943, -2.077, -2.16059, -0.0880516, -0.0176321, 0.0884643, 0.0116434, -0.012003, 0.00525602, 0.00225598
0.187092, 1.6944, -1.22948, -1.54907, -0.908792, -1.21092, 1.22483, -1.30217, -0.0597911, 0.0288971, 0.00885034, -0.155249, -0.098191, -0.024373, 0.00544227, -2.47185, 71.3687, 36.8354, 8.11249, 2.4126, 3.7543, -0.00267457, -0.00688727, -0.00166035, 0.00764947, 0.0252645, -0.0171333, 0.00358767, 0.0837919, -0.000739494, 0.00326478, -0.10909, 0.20154, 0.094022, 0.4698, -0.537791, 0.336543, -2.07806, -2.16456, -0.13348, 0.468112, -0.54344, 0.327944, -2.07695, -2.16064, -0.0878103, -0.0177719, 0.0893313, 0.0117892, -0.0137508, 0.00619712, 0.00155074
