alisrour97/Franka_experiments/Real_Robot_scripts/servo-franka/Data2/log_dyn_INIT2_9.csv
Time,q1,q2,q3,q4,q5,q6,q7,dq1,dq2,dq3,dq4,dq5,dq6,dq7,t1,t2,t3,t4,t5,t6,t7,ex1,ex2,ex3,ex4,ex5,ex6,ev1,ev2,ev3,ev4,ev5,ev6,xd,yd,zd,uxd,uyd,uzd,x,y,z,ux,uy,uz,vxd,vyd,vzd,vx,vy,vz
7.32422e-07, 1.69145, -1.22926, -1.54036, -0.90082, -1.19228, 1.22734, -1.30251, -0.00498249, -0.00245772, -0.0152074, 0.00769561, -0.00177117, 0.00184097, 0.00200615, 0.0196001, 67.3895, 34.5621, 7.92602, 3.06354, 4.91611, -0.40276, 0.000401652, -0.00196847, 0.00330254, 0.004202, 0.00319482, 0.000578499, 0.00845002, 0.00700593, -0.00534406, -0.00831371, 0.000112176, -0.0214764, 0.471008, -0.543389, 0.335894, -2.08385, -2.16584, -0.129887, 0.468921, -0.542548, 0.332768, -2.08056, -2.16183, -0.128404, -1.48327e-05, 4.00419e-05, -1.29039e-06, -0.00690247, -0.00776619, -0.00637844
0.0141753, 1.69143, -1.22926, -1.54048, -0.900758, -1.19233, 1.22735, -1.3025, -0.000828055, -0.0058769, -0.0116347, 0.00382509, -0.00484189, 0.00148695, 0.0013571, -0.43267, 67.4649, 34.6375, 8.07678, 3.09375, 4.88681, -0.409169, 0.000337897, -0.00201825, 0.00333745, 0.00429464, 0.00314635, 0.000735989, 0.00564436, 0.00352173, -0.00686765, -0.00970178, -0.000668999, -0.0125522, 0.471008, -0.543389, 0.335894, -2.08385, -2.16584, -0.129887, 0.46886, -0.542625, 0.332712, -2.08073, -2.16162, -0.128237, -2.49008e-05, 7.8927e-05, 1.60533e-06, -0.00358815, -0.00458042, -0.00754954
0.0151753, 1.69143, -1.22926, -1.54048, -0.900758, -1.19233, 1.22735, -1.3025, -0.000828055, -0.0058769, -0.0116347, 0.00382509, -0.00484189, 0.00148695, 0.0013571, -0.43267, 67.4649, 34.6375, 8.07678, 3.09375, 4.88681, -0.409169, 0.000337888, -0.00201825, 0.00333745, 0.00429464, 0.00314634, 0.000735993, 0.00568743, 0.00351237, -0.00686385, -0.00970178, -0.00062084, -0.0125215, 0.471008, -0.543389, 0.335894, -2.08385, -2.16584, -0.129887, 0.46886, -0.542625, 0.332712, -2.08073, -2.16162, -0.128237, -3.59273e-05, 0.000121646, 4.81928e-06, -0.00358815, -0.00458042, -0.00754954
0.0161768, 1.69143, -1.22926, -1.54048, -0.900758, -1.19233, 1.22735, -1.3025, -0.000828055, -0.0058769, -0.0116347, 0.00382509, -0.00484189, 0.00148695, 0.0013571, -0.43267, 67.4649, 34.6375, 8.07678, 3.09375, 4.88681, -0.409169, 0.000337864, -0.00201824, 0.00333745, 0.00429463, 0.00314632, 0.000736004, 0.00573452, 0.00350217, -0.00685973, -0.00970171, -0.000568241, -0.012488, 0.471008, -0.543389, 0.335894, -2.08385, -2.16584, -0.129887, 0.46886, -0.542625, 0.332712, -2.08073, -2.16162, -0.128237, -4.79476e-05, 0.000168349, 8.36616e-06, -0.00358815, -0.00458042, -0.00754954
0.0171768, 1.69143, -1.22926, -1.54048, -0.900758, -1.19233, 1.22735, -1.3025, -0.000828055, -0.0058769, -0.0116347, 0.00382509, -0.00484189, 0.00148695, 0.0013571, -0.43267, 67.4649, 34.6375, 8.07678, 3.09375, 4.88681, -0.409169, 0.000337817, -0.00201823, 0.00333745, 0.00429462, 0.00314628, 0.000736024, 0.00578578, 0.0034911, -0.00685528, -0.00970156, -0.00051104, -0.0124517, 0.471008, -0.543389, 0.335894, -2.08385, -2.16584, -0.129887, 0.46886, -0.542625, 0.332712, -2.08073, -2.16162, -0.128237, -6.09969e-05, 0.000219187, 1.22607e-05, -0.00358815, -0.00458042, -0.00754954
0.0181768, 1.69143, -1.22926, -1.54048, -0.900758, -1.19233, 1.22735, -1.3025, -0.000828055, -0.0058769, -0.0116347, 0.00382509, -0.00484189, 0.00148695, 0.0013571, -0.43267, 67.4649, 34.6375, 8.07678, 3.09375, 4.88681, -0.409169, 0.000337741, -0.00201821, 0.00333744, 0.0042946, 0.0031462, 0.000736059, 0.00584136, 0.00347913, -0.00685049, -0.00970132, -0.000449074, -0.0124123, 0.471008, -0.543389, 0.335894, -2.08385, -2.16584, -0.129887, 0.46886, -0.542625, 0.332712, -2.08073, -2.16162, -0.128237, -7.51097e-05, 0.000274308, 1.65177e-05, -0.00358815, -0.00458042, -0.00754954
0.019186, 1.69143, -1.22926, -1.54048, -0.900758, -1.19233, 1.22735, -1.3025, -0.000828055, -0.0058769, -0.0116347, 0.00382509, -0.00484189, 0.00148695, 0.0013571, -0.43267, 67.4649, 34.6375, 8.07678, 3.09375, 4.88681, -0.409169, 0.000337626, -0.00201819, 0.00333743, 0.00429458, 0.00314609, 0.00073611, 0.00590142, 0.00346623, -0.00684535, -0.00970098, -0.000382184, -0.0123699, 0.471008, -0.543389, 0.335894, -2.08385, -2.16584, -0.129887, 0.46886, -0.542625, 0.332712, -2.08073, -2.16162, -0.128237, -9.03198e-05, 0.000333859, 2.1152e-05, -0.00358815, -0.00458042, -0.00754954
0.020186, 1.69143, -1.22926, -1.54048, -0.900758, -1.19233, 1.22735, -1.3025, -0.000828055, -0.0058769, -0.0116347, 0.00382509, -0.00484189, 0.00148695, 0.0013571, -0.43267, 67.4649, 34.6375, 8.07678, 3.09375, 4.88681, -0.409169, 0.000337467, -0.00201815, 0.00333741, 0.00429454, 0.00314594, 0.000736181, 0.00596609, 0.00345239, -0.00683985, -0.00970054, -0.000310213, -0.0123243, 0.471008, -0.543389, 0.335894, -2.08385, -2.16584, -0.129887, 0.46886, -0.542625, 0.332712, -2.08073, -2.16162, -0.128237, -0.000106661, 0.000397984, 2.61782e-05, -0.00358815, -0.00458042, -0.00754954
0.021186, 1.69143, -1.22926, -1.54048, -0.900758, -1.19233, 1.22735, -1.3025, -0.000828055, -0.0058769, -0.0116347, 0.00382509, -0.00484189, 0.00148695, 0.0013571, -0.43267, 67.4649, 34.6375, 8.07678, 3.09375, 4.88681, -0.409169, 0.000337255, -0.00201811, 0.0033374, 0.00429448, 0.00314574, 0.000736275, 0.00603552, 0.00343756, -0.00683399, -0.00969998, -0.000233008, -0.0122754, 0.471008, -0.543389, 0.335894, -2.08385, -2.16584, -0.129887, 0.46886, -0.542625, 0.332712, -2.08073, -2.16162, -0.128237, -0.000124165, 0.000466826, 3.16113e-05, -0.00358815, -0.00458042, -0.00754954
0.022186, 1.69143, -1.22926, -1.54048, -0.900758, -1.19233, 1.22735, -1.3025, -0.000828055, -0.0058769, -0.0116347, 0.00382509, -0.00484189, 0.00148695, 0.0013571, -0.43267, 67.4649, 34.6375, 8.07678, 3.09375, 4.88681, -0.409169, 0.000336984, -0.00201805, 0.00333737, 0.00429442, 0.00314549, 0.000736396, 0.00610986, 0.00342172, -0.00682775, -0.0096993, -0.000150416, -0.0122231, 0.471008, -0.543388, 0.335894, -2.08385, -2.16584, -0.129887, 0.46886, -0.542625, 0.332712, -2.08073, -2.16162, -0.128237, -0.000142864, 0.000540525, 3.74658e-05, -0.00358815, -0.00458042, -0.00754954
0.023186, 1.69143, -1.22926, -1.54048, -0.900758, -1.19233, 1.22735, -1.3025, -0.000828055, -0.0058769, -0.0116347, 0.00382509, -0.00484189, 0.00148695, 0.0013571, -0.43267, 67.4649, 34.6375, 8.07678, 3.09375, 4.88681, -0.409169, 0.000336646, -0.00201798, 0.00333734, 0.00429433, 0.00314516, 0.000736547, 0.00618924, 0.00340485, -0.00682113, -0.00969849, -6.22888e-05, -0.0121674, 0.471008, -0.543388, 0.335894, -2.08384, -2.16584, -0.129888, 0.46886, -0.542625, 0.332712, -2.08073, -2.16162, -0.128237, -0.000162789, 0.000619218, 4.37565e-05, -0.00358815, -0.00458042, -0.00754954
0.024186, 1.69143, -1.22926, -1.54048, -0.900758, -1.19233, 1.22735, -1.3025, -0.000828055, -0.0058769, -0.0116347, 0.00382509, -0.00484189, 0.00148695, 0.0013571, -0.43267, 67.4649, 34.6375, 8.07678, 3.09375, 4.88681, -0.409169, 0.000336233, -0.00201789, 0.00333731, 0.00429423, 0.00314477, 0.00073673, 0.0062738, 0.00338692, -0.00681412, -0.00969754, 3.15175e-05, -0.0121082, 0.471008, -0.543388, 0.335894, -2.08384, -2.16584, -0.129888, 0.46886, -0.542625, 0.332712, -2.08073, -2.16162, -0.128237, -0.000183971, 0.000703042, 5.04979e-05, -0.00358815, -0.00458042, -0.00754954
0.025186, 1.69141, -1.22926, -1.5406, -0.900752, -1.19237, 1.22736, -1.30251, -0.00183192, -0.00469296, -0.0175266, -0.00103733, -0.00314955, -0.00673241, -0.00289641, -0.658806, 67.0959, 34.5264, 8.03711, 3.06903, 4.80807, -0.317616, 0.000291484, -0.00205394, 0.00337738, 0.00440227, 0.00310131, 0.000823212, 0.00528412, 0.0052259, -0.00953426, -0.0232489, -0.00338113, -0.00680795, 0.471008, -0.543387, 0.335894, -2.08384, -2.16584, -0.129888, 0.468824, -0.542664, 0.332666, -2.08078, -2.16151, -0.128065, -0.000206438, 0.000792126, 5.77046e-05, -0.0055808, -0.00317084, -0.0100193
0.026186, 1.69142, -1.22928, -1.54063, -0.900757, -1.19237, 1.22736, -1.3025, 0.000456584, -0.00844883, -0.0258848, -0.00441011, -0.000564585, -0.00354836, -0.00291429, -0.734184, 66.4691, 34.1892, 7.92602, 2.89142, 4.63595, -0.291066, 0.000286992, -0.00205404, 0.0033975, 0.00443471, 0.0031081, 0.000831871, 0.00526152, 0.00370625, -0.0150083, -0.0288601, -0.0066549, -0.00458839, 0.471007, -0.543387, 0.335894, -2.08384, -2.16584, -0.129889, 0.468823, -0.542664, 0.332646, -2.08077, -2.16148, -0.128036, -0.000230219, 0.000886601, 6.53909e-05, -0.00428529, -0.00214932, -0.0154591
0.027186, 1.69143, -1.22928, -1.54068, -0.900766, -1.19238, 1.22736, -1.3025, 0.00376683, -0.00797009, -0.0349502, -0.00705024, -0.00306279, -0.00710931, -0.00289229, -0.884941, 65.4019, 33.7052, 7.81494, 2.68909, 4.49313, -0.265431, 0.000283869, -0.00205375, 0.00341841, 0.00448779, 0.00310235, 0.000838163, 0.00506686, 0.0037857, -0.0187828, -0.0427802, -0.0048625, -0.00415681, 0.471007, -0.543386, 0.335894, -2.08384, -2.16584, -0.129889, 0.468823, -0.542664, 0.332625, -2.08075, -2.16146, -0.127971, -0.000255341, 0.00098659, 7.35711e-05, -0.00453296, -0.00127944, -0.0191453
0.028186, 1.69144, -1.22929, -1.54073, -0.900774, -1.1924, 1.22735, -1.3025, 0.00422644, -0.00488556, -0.0381386, -0.00743253, -0.00473962, -0.0120256, -0.00338626, -0.960319, 64.2593, 32.9236, 7.62848, 2.47394, 4.39975, -0.226063, 0.000275835, -0.00205884, 0.00344293, 0.00454988, 0.00309714, 0.000855599, 0.00505071, 0.00513001, -0.0185959, -0.0506166, -0.00247858, -0.0049501, 0.471007, -0.543385, 0.335894, -2.08384, -2.16584, -0.12989, 0.468817, -0.542667, 0.332599, -2.08074, -2.16142, -0.127896, -0.00028183, 0.00109222, 8.22592e-05, -0.00589586, -0.00124161, -0.0189091
0.029186, 1.69146, -1.2293, -1.54079, -0.900779, -1.19243, 1.22733, -1.3025, 0.00945868, -0.00246208, -0.0453651, -0.00553163, -0.0131511, -0.0120887, -0.000200448, -1.11108, 63.0811, 32.1818, 7.33093, 2.31372, 4.33566, -0.160145, 0.000267186, -0.00206493, 0.00347047, 0.00463887, 0.00307971, 0.000871739, 0.0063376, 0.00487773, -0.0197428, -0.0606339, 0.00739404, -0.0108862, 0.471007, -0.543384, 0.335894, -2.08384, -2.16584, -0.129891, 0.46881, -0.542671, 0.332571, -2.08072, -2.16138, -0.127778, -0.000309711, 0.0012036, 9.14692e-05, -0.00566718, -0.00221383, -0.0202396
0.030186, 1.69147, -1.22933, -1.54087, -0.900797, -1.19247, 1.22732, -1.3025, 0.0106411, -0.00779114, -0.0541657, -0.00852484, -0.020596, -0.0110532, 0.000987225, -1.15075, 62.3074, 31.547, 7.21588, 2.18555, 4.24228, -0.180287, 0.000249782, -0.00207538, 0.0035242, 0.00475497, 0.00307978, 0.00089873, 0.00893623, 0.00563595, -0.0263727, -0.0729574, 0.00969298, -0.014811, 0.471007, -0.543383, 0.335894, -2.08384, -2.16584, -0.129891, 0.468798, -0.542679, 0.332516, -2.08068, -2.16131, -0.127648, -0.000339009, 0.00132085, 0.000101215, -0.00660012, -0.00367256, -0.0271569
0.031186, 1.69148, -1.22936, -1.54097, -0.900811, -1.19252, 1.22732, -1.30249, 0.00837021, -0.0156604, -0.0683959, -0.00600225, -0.0292229, -0.00245548, 0.00141402, -1.18645, 61.5695, 30.8765, 7.02942, 2.14252, 4.06283, -0.193104, 0.000226106, -0.00208738, 0.00357939, 0.00487932, 0.00305886, 0.000940449, 0.0170878, 0.00922566, -0.0348191, -0.0810643, 0.0139316, -0.0291622, 0.471006, -0.543382, 0.335894, -2.08384, -2.16584, -0.129892, 0.468784, -0.542693, 0.332458, -2.08067, -2.16122, -0.127485, -0.000369746, 0.00144407, 0.00011151, -0.0102293, -0.0104436, -0.0366437
0.032186, 1.69149, -1.22939, -1.54106, -0.900827, -1.19258, 1.22732, -1.30249, 0.00648537, -0.0222834, -0.0786003, -0.00829502, -0.0438029, 0.000420371, 0.00162826, -1.07537, 60.8713, 30.1703, 6.88263, 2.08118, 3.84768, -0.205922, 0.000198834, -0.00210196, 0.00363348, 0.00500299, 0.00302951, 0.000986524, 0.0232776, 0.0125542, -0.0422884, -0.0956396, 0.021637, -0.0387734, 0.471006, -0.543381, 0.335894, -2.08384, -2.16584, -0.129893, 0.468768, -0.542711, 0.332401, -2.08067, -2.16114, -0.127315, -0.000401943, 0.00157338, 0.000122367, -0.013634, -0.0154115, -0.0448686
0.033186, 1.69151, -1.22944, -1.54116, -0.900847, -1.19265, 1.22732, -1.30249, 0.0118969, -0.0306764, -0.0861273, -0.0140179, -0.050752, 0.00661851, 0.000294223, -1.11108, 60.4666, 29.4642, 6.77154, 2.03174, 3.63986, -0.180287, 0.000173418, -0.00210972, 0.00369937, 0.00513133, 0.00301014, 0.0010169, 0.0236653, 0.00904751, -0.0504187, -0.104344, 0.0233413, -0.0327518, 0.471006, -0.54338, 0.335895, -2.08384, -2.16584, -0.129894, 0.468759, -0.542725, 0.332332, -2.08064, -2.16107, -0.127151, -0.00043562, 0.00170887, 0.000133799, -0.0104452, -0.0142638, -0.0530511
0.0341863, 1.69153, -1.22948, -1.54127, -0.90087, -1.19272, 1.22732, -1.30249, 0.013321, -0.0347509, -0.0907095, -0.0157269, -0.0573389, 0.0089541, 0.00150156, -1.0357, 60.1334, 28.9405, 6.69617, 2.02533, 3.48971, -0.21233, 0.000144109, -0.00212233, 0.00376766, 0.00527643, 0.00298206, 0.00106532, 0.0255356, 0.00889608, -0.0545354, -0.110773, 0.0264854, -0.0352666, 0.471005, -0.543378, 0.335895, -2.08383, -2.16584, -0.129895, 0.468744, -0.542743, 0.332261, -2.08062, -2.16098, -0.126958, -0.000470796, 0.00185063, 0.00014582, -0.0104109, -0.0153285, -0.0573989
0.0351863, 1.69155, -1.22951, -1.54137, -0.900886, -1.19279, 1.22733, -1.30248, 0.0163048, -0.0307486, -0.0919326, -0.0140796, -0.0640195, 0.00893492, 0.00207334, -1.0357, 59.6573, 28.4565, 6.5097, 1.94568, 3.38901, -0.238881, 0.000118518, -0.00213213, 0.00382279, 0.00540675, 0.00294303, 0.00110794, 0.0260539, 0.00860773, -0.0525333, -0.114326, 0.0361377, -0.0371215, 0.471005, -0.543376, 0.335895, -2.08383, -2.16584, -0.129896, 0.468733, -0.542758, 0.332203, -2.08062, -2.16091, -0.126771, -0.000507488, 0.00199877, 0.000158442, -0.0100688, -0.0159884, -0.0554984
0.0361863, 1.69157, -1.22954, -1.54147, -0.900904, -1.19286, 1.22732, -1.30248, 0.0206616, -0.0295914, -0.0906899, -0.0170576, -0.0701495, 0.00619711, 0.000465602, -0.996025, 59.3994, 28.0121, 6.35895, 1.89624, 3.36703, -0.21233, 9.40689e-05, -0.00214029, 0.00388042, 0.00554295, 0.00290389, 0.00114264, 0.0239562, 0.00646396, -0.0522769, -0.120472, 0.04145, -0.0299606, 0.471004, -0.543375, 0.335895, -2.08383, -2.16584, -0.129898, 0.468723, -0.542772, 0.332142, -2.0806, -2.16084, -0.126579, -0.000545713, 0.00215336, 0.000171677, -0.00803179, -0.0137145, -0.0549711
0.0371863, 1.69159, -1.22956, -1.54157, -0.900928, -1.19294, 1.22732, -1.30249, 0.0193602, -0.0231631, -0.0899871, -0.0190375, -0.0744942, 0.0132353, -0.00204706, -0.884941, 59.0662, 27.7146, 6.32324, 1.8349, 3.36703, -0.147328, 7.18935e-05, -0.00214833, 0.00392864, 0.00568229, 0.00284451, 0.00116775, 0.0249681, 0.00591404, -0.0478287, -0.115956, 0.0551544, -0.0281179, 0.471004, -0.543373, 0.335895, -2.08383, -2.16584, -0.129899, 0.468714, -0.542785, 0.332092, -2.08058, -2.16079, -0.126363, -0.000585484, 0.00231447, 0.000185536, -0.00732558, -0.0152145, -0.0507386
0.0381863, 1.69162, -1.22958, -1.54167, -0.900951, -1.19302, 1.22733, -1.30248, 0.0183564, -0.0210483, -0.0911067, -0.019955, -0.0772186, 0.010618, 0.00310668, -0.76989, 58.9908, 27.6392, 6.28357, 1.76166, 3.33133, -0.140919, 5.02783e-05, -0.00215133, 0.00397983, 0.00581278, 0.00278732, 0.00119695, 0.0256123, 0.00726544, -0.0472678, -0.120586, 0.0585204, -0.0348225, 0.471003, -0.54337, 0.335895, -2.08383, -2.16584, -0.129901, 0.468709, -0.542796, 0.332038, -2.08057, -2.16074, -0.126159, -0.000626814, 0.0024822, 0.000200032, -0.00867328, -0.0158243, -0.0502296
0.0391863, 1.69164, -1.22958, -1.54177, -0.900982, -1.19309, 1.22735, -1.30248, 0.0143541, -0.014989, -0.0895794, -0.0264189, -0.0792399, 0.00848383, 0.00394659, -0.508049, 58.8837, 27.6035, 6.35895, 1.6875, 3.30295, -0.180287, 2.94554e-05, -0.00215654, 0.00401805, 0.00593856, 0.00270802, 0.00122863, 0.0249524, 0.00849442, -0.0440169, -0.123973, 0.0656863, -0.033885, 0.471003, -0.543368, 0.335896, -2.08382, -2.16584, -0.129903, 0.468703, -0.542809, 0.331998, -2.08057, -2.16071, -0.125938, -0.000669715, 0.00265659, 0.000215176, -0.00984983, -0.015549, -0.0468651
0.0401863, 1.69165, -1.22957, -1.54185, -0.901019, -1.19317, 1.22735, -1.30247, 0.0153031, -0.0102754, -0.0856544, -0.0303664, -0.0762098, 0.00565012, 0.00715506, -0.131157, 58.9194, 27.6035, 6.54541, 1.61426, 3.31027, -0.166554, 1.12828e-05, -0.00216146, 0.00405219, 0.00606169, 0.00262788, 0.00125442, 0.0214056, 0.00661267, -0.04068, -0.12321, 0.0668325, -0.0297674, 0.471002, -0.543365, 0.335896, -2.08382, -2.16584, -0.129904, 0.468697, -0.542819, 0.331961, -2.08057, -2.16068, -0.12572, -0.000714195, 0.00283772, 0.000230977, -0.00802138, -0.0123029, -0.0430605
0.0411863, 1.69167, -1.22956, -1.54194, -0.901057, -1.19325, 1.22736, -1.30247, 0.0132984, -0.00286359, -0.0847271, -0.0329694, -0.0751039, 0.00635863, 0.00492342, 0.245735, 58.9551, 27.8257, 6.73187, 1.57123, 3.36703, -0.153737, -5.89028e-06, -0.00216721, 0.00408117, 0.00619365, 0.00253403, 0.00127598, 0.0206988, 0.00683524, -0.0361694, -0.121555, 0.0739641, -0.0264343, 0.471001, -0.543363, 0.335896, -2.08382, -2.16584, -0.129906, 0.46869, -0.542829, 0.331931, -2.08057, -2.16065, -0.125479, -0.000760263, 0.00302564, 0.000247448, -0.00815217, -0.0121206, -0.0384739
0.0421863, 1.69168, -1.22955, -1.54202, -0.90109, -1.19333, 1.22735, -1.30248, 0.0132659, -0.00134623, -0.0824667, -0.0322032, -0.0704838, 0.00478845, 0.00158321, 0.701973, 59.1772, 28.0121, 6.80725, 1.55932, 3.48971, -0.0951428, -2.45849e-05, -0.00217682, 0.00410599, 0.00631538, 0.00244743, 0.00129882, 0.019453, 0.00637968, -0.0344871, -0.11828, 0.070907, -0.0210646, 0.471001, -0.54336, 0.335896, -2.08381, -2.16584, -0.129908, 0.468679, -0.542841, 0.331904, -2.08057, -2.16063, -0.125256, -0.000807924, 0.0032204, 0.000264596, -0.00772869, -0.0109362, -0.0366159
0.0431863, 1.69168, -1.22953, -1.54209, -0.901126, -1.19341, 1.22735, -1.30247, 0.00813141, 0.00326157, -0.0808988, -0.0352106, -0.0739241, 0.000541262, 0.00042543, 1.26533, 59.3994, 28.3454, 6.91833, 1.60785, 3.58218, -0.0685925, -4.46712e-05, -0.00218967, 0.00412533, 0.00643403, 0.00235344, 0.00132946, 0.0205334, 0.00952322, -0.0317172, -0.12243, 0.0764228, -0.0226893, 0.471, -0.543357, 0.335896, -2.08381, -2.16584, -0.129911, 0.468666, -0.542855, 0.331882, -2.08058, -2.16061, -0.125029, -0.000857184, 0.00342203, 0.000282433, -0.0107788, -0.0123561, -0.0339361
0.0441863, 1.6917, -1.22952, -1.54215, -0.90116, -1.19349, 1.22734, -1.30247, 0.00589953, 0.00213592, -0.0744785, -0.0367593, -0.0753682, -0.00224626, 7.38788e-05, 1.64619, 59.8398, 28.7183, 6.99371, 1.63898, 3.66824, -0.0557752, -5.9724e-05, -0.00219457, 0.00414855, 0.00654886, 0.00226868, 0.00134802, 0.0200435, 0.00990418, -0.0304236, -0.12038, 0.0749834, -0.020417, 0.470999, -0.543353, 0.335897, -2.08381, -2.16584, -0.129913, 0.46866, -0.542863, 0.331857, -2.08058, -2.16059, -0.124816, -0.000908043, 0.00363059, 0.000300968, -0.0111809, -0.0118786, -0.0325526
0.0451863, 1.69171, -1.22951, -1.54222, -0.901195, -1.19358, 1.22734, -1.30247, 0.00647807, 0.00404045, -0.0688083, -0.0369862, -0.0773204, -0.00238472, 0.00119742, 2.05878, 60.3198, 29.2023, 7.02942, 1.69391, 3.70395, -0.0814099, -7.75567e-05, -0.00220256, 0.0041696, 0.00666155, 0.0021791, 0.00137331, 0.0189624, 0.00875969, -0.0273482, -0.11648, 0.0783298, -0.0185891, 0.470998, -0.54335, 0.335897, -2.0838, -2.16584, -0.129916, 0.468651, -0.542875, 0.331834, -2.08059, -2.16057, -0.124601, -0.000960503, 0.00384608, 0.000320207, -0.010018, -0.0110224, -0.0293635
0.0461863, 1.69171, -1.2295, -1.54227, -0.90123, -1.19367, 1.22734, -1.30247, 0.00545827, 0.00836634, -0.0647453, -0.0364894, -0.07905, -0.00339964, -0.000748091, 2.39997, 60.8356, 29.722, 7.02942, 1.76166, 3.76163, -0.0356336, -9.61107e-05, -0.00221086, 0.00418723, 0.00677139, 0.00208253, 0.00139376, 0.0187874, 0.00913635, -0.0233093, -0.113844, 0.0834561, -0.0166474, 0.470997, -0.543346, 0.335897, -2.0838, -2.16584, -0.129919, 0.468641, -0.542887, 0.331815, -2.0806, -2.16056, -0.124382, -0.00101456, 0.00406854, 0.000340161, -0.0103087, -0.0112643, -0.025317
0.0471863, 1.69172, -1.2295, -1.54232, -0.901251, -1.19377, 1.22734, -1.30246, 0.00334201, 0.00393422, -0.0568377, -0.0311446, -0.0813238, -0.00307278, -0.000149581, 2.66181, 61.5695, 30.1703, 6.80725, 1.85962, 3.79001, -0.0420422, -0.000119102, -0.00221936, 0.00420613, 0.00686809, 0.00199026, 0.00142835, 0.0207934, 0.0101841, -0.0222123, -0.105202, 0.08028, -0.020731, 0.470996, -0.543342, 0.335898, -2.08379, -2.16583, -0.129921, 0.468632, -0.542903, 0.331793, -2.08063, -2.16054, -0.124181, -0.00107022, 0.00429798, 0.000360835, -0.0112993, -0.0132269, -0.024493
0.0481863, 1.69174, -1.22948, -1.54237, -0.901276, -1.19386, 1.22733, -1.30246, 0.00897283, 0.00686337, -0.0533675, -0.0282037, -0.0823954, -0.0010028, 0.000492746, 2.73719, 62.1964, 30.7297, 6.62079, 1.94568, 3.89071, -0.0557752, -0.000135648, -0.00222455, 0.00421839, 0.00697327, 0.00188842, 0.00145079, 0.0188514, 0.00680948, -0.0189475, -0.100096, 0.0850771, -0.0169795, 0.470995, -0.543338, 0.335898, -2.08379, -2.16583, -0.129925, 0.468626, -0.542913, 0.331779, -2.08064, -2.16053, -0.123962, -0.00112746, 0.0045344, 0.000382238, -0.00793789, -0.0114378, -0.0210482
0.0491863, 1.69175, -1.22948, -1.54241, -0.901299, -1.19397, 1.22732, -1.30245, 0.00764486, 0.00603332, -0.0515835, -0.0241718, -0.088488, -0.00520051, 0.00184944, 2.89191, 62.97, 31.2137, 6.47003, 2.05646, 4.02713, -0.0951428, -0.000156755, -0.00223499, 0.00423513, 0.00708136, 0.00179555, 0.00148305, 0.0213542, 0.00953189, -0.0185139, -0.102967, 0.08693, -0.0241746, 0.470994, -0.543333, 0.335898, -2.08379, -2.16583, -0.129928, 0.468615, -0.542927, 0.33176, -2.08066, -2.1605, -0.123748, -0.00118629, 0.0047778, 0.000404375, -0.0106104, -0.0138433, -0.0209045
0.0501863, 1.69176, -1.22946, -1.54245, -0.901314, -1.19407, 1.22731, -1.30246, 0.00855095, 0.00758149, -0.0501951, -0.0189576, -0.0964379, -0.00836644, -0.00116129, 2.96729, 63.6682, 31.6977, 6.20819, 2.14252, 4.16995, -0.0292249, -0.000179399, -0.00224724, 0.00424654, 0.00718524, 0.00169797, 0.00151021, 0.0235643, 0.0113959, -0.0166838, -0.105737, 0.0931738, -0.0266871, 0.470993, -0.543328, 0.335899, -2.08378, -2.16583, -0.129931, 0.468601, -0.542944, 0.331746, -2.08068, -2.16049, -0.123535, -0.00124669, 0.00502817, 0.000427252, -0.0123872, -0.0161328, -0.0193615
0.0511863, 1.69177, -1.22945, -1.54249, -0.901336, -1.19418, 1.22729, -1.30246, 0.0105258, 0.00795116, -0.0478864, -0.0189128, -0.0978496, -0.00955738, -0.000738821, 2.96729, 64.4061, 32.2532, 6.09711, 2.21576, 4.28531, -0.0292249, -0.000199979, -0.00225686, 0.00426023, 0.0072987, 0.00159489, 0.00154053, 0.0226059, 0.0102206, -0.0158254, -0.105655, 0.0943109, -0.0243957, 0.470992, -0.543323, 0.335899, -2.08377, -2.16583, -0.129935, 0.468591, -0.542957, 0.33173, -2.0807, -2.16047, -0.123305, -0.00130866, 0.00528549, 0.000450875, -0.0112786, -0.0150133, -0.018377
0.0521863, 1.69178, -1.22944, -1.54253, -0.901358, -1.1943, 1.22727, -1.30246, 0.0108541, 0.00698009, -0.0455443, -0.0202598, -0.102935, -0.00984807, -0.000228661, 3.003, 65.0687, 32.6658, 6.0614, 2.2771, 4.3851, -0.0356336, -0.000222902, -0.00226931, 0.00426932, 0.00740474, 0.00148678, 0.00157059, 0.0229078, 0.00987737, -0.0157702, -0.106989, 0.0976382, -0.0237736, 0.47099, -0.543318, 0.3359, -2.08377, -2.16583, -0.129939, 0.468578, -0.542974, 0.331718, -2.08072, -2.16046, -0.123079, -0.00137217, 0.00554973, 0.000475247, -0.0109866, -0.0150415, -0.0183554
0.0531863, 1.69178, -1.22943, -1.54256, -0.901379, -1.19442, 1.22726, -1.30246, 0.00772973, 0.00610554, -0.0430299, -0.0218981, -0.112342, -0.0109106, 0.00156288, 3.04267, 65.7312, 33.0387, 6.0614, 2.35126, 4.50686, -0.0814099, -0.000248235, -0.00228327, 0.00427787, 0.00751059, 0.00137426, 0.00161051, 0.0253902, 0.012007, -0.0155197, -0.11045, 0.104131, -0.028943, 0.470989, -0.543313, 0.3359, -2.08376, -2.16583, -0.129943, 0.468563, -0.542992, 0.331706, -2.08076, -2.16044, -0.122848, -0.00143722, 0.00582086, 0.000500373, -0.0130806, -0.0173467, -0.0184043
0.0541863, 1.69179, -1.22942, -1.5426, -0.9014, -1.19454, 1.22724, -1.30246, 0.0062194, 0.00955107, -0.0421626, -0.0207936, -0.117566, -0.0114227, -0.000401223, 3.04267, 66.358, 33.4473, 6.09711, 2.38788, 4.62222, -0.0420422, -0.000275659, -0.00229852, 0.00428981, 0.00762745, 0.00125869, 0.00164592, 0.0271538, 0.0136384, -0.0129691, -0.111509, 0.111687, -0.030648, 0.470987, -0.543307, 0.335901, -2.08376, -2.16583, -0.129947, 0.468547, -0.543013, 0.331691, -2.08079, -2.16042, -0.122602, -0.00150377, 0.00609884, 0.000526256, -0.0146211, -0.0192693, -0.0160847
0.0551863, 1.6918, -1.2294, -1.54264, -0.901428, -1.19467, 1.22722, -1.30246, 0.00670919, 0.012442, -0.0418784, -0.0210965, -0.117696, -0.0191122, -0.000968367, 2.96729, 66.8381, 33.7449, 6.32324, 2.43091, 4.80807, -0.0228162, -0.000297779, -0.00231128, 0.00429659, 0.00775147, 0.001134, 0.00167246, 0.0260353, 0.0146661, -0.0118745, -0.117963, 0.111203, -0.0291188, 0.470986, -0.543301, 0.335901, -2.08375, -2.16583, -0.129951, 0.468533, -0.543028, 0.331682, -2.08081, -2.16041, -0.12234, -0.00157182, 0.00638361, 0.000552899, -0.015716, -0.0180909, -0.0147727
0.0561863, 1.6918, -1.22938, -1.54267, -0.901453, -1.19481, 1.22719, -1.30246, 0.00507255, 0.0151986, -0.0392962, -0.0228879, -0.121055, -0.0230829, -0.000162467, 2.96729, 67.2784, 33.9313, 6.5097, 2.44281, 4.95181, -0.0356336, -0.000322648, -0.00232606, 0.00430291, 0.00787054, 0.00101001, 0.00171084, 0.0259887, 0.015826, -0.00981555, -0.121066, 0.114995, -0.0297214, 0.470984, -0.543294, 0.335902, -2.08374, -2.16583, -0.129956, 0.468517, -0.543045, 0.331673, -2.08084, -2.16039, -0.122083, -0.00164135, 0.0066751, 0.000580303, -0.0168712, -0.018118, -0.0126702
0.0571863, 1.69181, -1.22936, -1.5427, -0.901477, -1.19495, 1.22717, -1.30245, 0.00784727, 0.013175, -0.0393091, -0.0209643, -0.127681, -0.0256984, 0.000881328, 2.92762, 67.6117, 34.1892, 6.69617, 2.43732, 5.08822, -0.0621838, -0.000352321, -0.00234448, 0.00431106, 0.00800051, 0.000876396, 0.00175879, 0.0268551, 0.0158336, -0.0110838, -0.126116, 0.117375, -0.0316896, 0.470983, -0.543288, 0.335902, -2.08374, -2.16583, -0.12996, 0.468498, -0.543068, 0.331662, -2.08088, -2.16037, -0.121804, -0.00171231, 0.00697325, 0.000608468, -0.0169645, -0.0184801, -0.0140287
0.0581863, 1.69182, -1.22934, -1.54274, -0.9015, -1.19509, 1.22715, -1.30246, 0.00666141, 0.0136475, -0.0370466, -0.0224586, -0.126838, -0.0267794, -0.000391071, 2.89191, 67.8339, 34.34, 6.88263, 2.39429, 5.20267, -0.0356336, -0.000379637, -0.00236088, 0.00431643, 0.0081276, 0.000742485, 0.00179593, 0.0264552, 0.015816, -0.010216, -0.125148, 0.116895, -0.0287219, 0.470981, -0.543281, 0.335903, -2.08373, -2.16582, -0.129965, 0.468481, -0.543087, 0.331653, -2.08092, -2.16035, -0.121529, -0.00178469, 0.00727797, 0.000637396, -0.0170022, -0.0179135, -0.0130815
0.0591863, 1.69183, -1.22932, -1.54278, -0.901518, -1.19524, 1.22712, -1.30246, 0.00665019, 0.0138353, -0.0375788, -0.0217505, -0.131586, -0.0317268, -0.00147788, 2.81654, 67.9053, 34.451, 6.99371, 2.36316, 5.30337, -0.00267457, -0.000409924, -0.0023797, 0.00431887, 0.00826054, 0.000596145, 0.00184001, 0.0275001, 0.0174623, -0.0105904, -0.131756, 0.118832, -0.0299122, 0.470979, -0.543273, 0.335904, -2.08372, -2.16582, -0.129971, 0.468461, -0.54311, 0.331647, -2.08096, -2.16034, -0.121234, -0.00185846, 0.00758918, 0.000667086, -0.0186962, -0.0186435, -0.0135343
0.0601863, 1.69184, -1.2293, -1.54281, -0.901542, -1.19539, 1.22709, -1.30246, 0.006624, 0.00995356, -0.0355788, -0.0222274, -0.139784, -0.0293439, -0.000711328, 2.73719, 68.1274, 34.451, 7.14447, 2.32013, 5.36014, -0.00999879, -0.000438581, -0.00239476, 0.00432622, 0.00838818, 0.000458474, 0.00187879, 0.0295017, 0.0173729, -0.0119897, -0.13229, 0.123128, -0.0317638, 0.470977, -0.543266, 0.335904, -2.08371, -2.16582, -0.129976, 0.468445, -0.543131, 0.331637, -2.08099, -2.16032, -0.120955, -0.00193359, 0.00790677, 0.000697537, -0.0186608, -0.0200828, -0.0151992
0.0611863, 1.69184, -1.22929, -1.54285, -0.901565, -1.19554, 1.22707, -1.30245, 0.00643012, 0.00862886, -0.0391468, -0.0213971, -0.146463, -0.0316775, 0.00146055, 2.66181, 68.2742, 34.5264, 7.25555, 2.28992, 5.39584, -0.0621838, -0.000470407, -0.00241248, 0.00433848, 0.00852597, 0.000322815, 0.00192953, 0.0320972, 0.0193993, -0.0140734, -0.140225, 0.126641, -0.0385536, 0.470975, -0.543258, 0.335905, -2.0837, -2.16582, -0.129982, 0.468426, -0.543153, 0.331621, -2.08103, -2.16029, -0.120665, -0.00201003, 0.00823062, 0.000728745, -0.0207434, -0.0220832, -0.0175677
0.0621863, 1.69186, -1.22928, -1.54289, -0.901583, -1.19569, 1.22703, -1.30246, 0.00800138, 0.00751716, -0.0401354, -0.0222491, -0.146281, -0.0340266, 0.000229211, 2.51106, 68.421, 34.5264, 7.29126, 2.25879, 5.43887, -0.0420422, -0.000500808, -0.00242802, 0.00435304, 0.00866746, 0.000192214, 0.00196946, 0.0315071, 0.0188302, -0.0154515, -0.143769, 0.124771, -0.0352002, 0.470973, -0.54325, 0.335906, -2.08369, -2.16582, -0.129988, 0.468409, -0.543173, 0.331603, -2.08106, -2.16026, -0.120378, -0.00208776, 0.00856062, 0.000760709, -0.0203236, -0.020935, -0.0188222
0.0631863, 1.69186, -1.22928, -1.54289, -0.901583, -1.19569, 1.22703, -1.30246, 0.00800138, 0.00751716, -0.0401354, -0.0222491, -0.146281, -0.0340266, 0.000229211, 2.51106, 68.421, 34.5264, 7.29126, 2.25879, 5.43887, -0.0420422, -0.000509479, -0.00242625, 0.0043524, 0.0086652, 0.000184126, 0.00197315, 0.0318468, 0.0187642, -0.015429, -0.143753, 0.125138, -0.0349766, 0.470971, -0.543241, 0.335906, -2.08369, -2.16582, -0.129994, 0.468409, -0.543173, 0.331603, -2.08106, -2.16026, -0.120378, -0.00216672, 0.00889664, 0.000793423, -0.0203236, -0.020935, -0.0188222
0.0641863, 1.69186, -1.22928, -1.54289, -0.901583, -1.19569, 1.22703, -1.30246, 0.00800138, 0.00751716, -0.0401354, -0.0222491, -0.146281, -0.0340266, 0.000229211, 2.51106, 68.421, 34.5264, 7.29126, 2.25879, 5.43887, -0.0420422, -0.000518491, -0.00242442, 0.00435173, 0.00866284, 0.000175723, 0.00197697, 0.0321925, 0.0186973, -0.0154062, -0.143735, 0.125511, -0.0347495, 0.470969, -0.543232, 0.335907, -2.08368, -2.16582, -0.13, 0.468409, -0.543173, 0.331603, -2.08106, -2.16026, -0.120378, -0.0022469, 0.00923859, 0.000826888, -0.0203236, -0.020935, -0.0188222
0.0651863, 1.69189, -1.22927, -1.54297, -0.901626, -1.19601, 1.22697, -1.30246, 0.0161765, 0.00875172, -0.0389931, -0.0236171, -0.149842, -0.0335519, -4.34778e-05, 2.32459, 68.6035, 34.5264, 7.33093, 2.20935, 5.42514, -0.0228162, -0.000572925, -0.00245665, 0.00438913, 0.00895855, -7.59464e-05, 0.00205152, 0.028923, 0.01387, -0.0148114, -0.145771, 0.130607, -0.0256451, 0.470967, -0.543223, 0.335908, -2.08367, -2.16581, -0.130006, 0.468375, -0.543213, 0.331559, -2.0811, -2.16021, -0.119795, -0.00232828, 0.00958644, 0.000861108, -0.0156796, -0.0172531, -0.0178386
0.0661863, 1.69192, -1.22927, -1.54306, -0.901672, -1.19632, 1.2269, -1.30245, 0.0127353, 0.00738193, -0.0433746, -0.0234992, -0.152006, -0.0333476, 0.00112315, 2.3603, 68.5321, 34.34, 7.33093, 2.14252, 5.37478, -0.0621838, -0.000627469, -0.00249224, 0.00442875, 0.00926767, -0.000323503, 0.00213869, 0.0323205, 0.016728, -0.0169119, -0.149938, 0.131664, -0.0328727, 0.470965, -0.543213, 0.335909, -2.08366, -2.16581, -0.130013, 0.468338, -0.543253, 0.331514, -2.08114, -2.16014, -0.1192, -0.00241084, 0.00994017, 0.000896084, -0.0185705, -0.0200468, -0.0203194
0.0671863, 1.69193, -1.22927, -1.54311, -0.901697, -1.19648, 1.22686, -1.30246, 0.0129453, 0.00268645, -0.0415953, -0.0235742, -0.155237, -0.0414179, 0.000240497, 2.47535, 68.5321, 34.2289, 7.33093, 2.1178, 5.33175, -0.0484509, -0.000662997, -0.00251355, 0.00445318, 0.00943342, -0.000448121, 0.00218707, 0.032425, 0.017971, -0.0197285, -0.157341, 0.125928, -0.0316238, 0.470962, -0.543204, 0.33591, -2.08365, -2.16581, -0.13002, 0.468315, -0.543275, 0.331486, -2.08116, -2.16009, -0.118892, -0.00249458, 0.0102997, 0.000931821, -0.0199937, -0.0194072, -0.0230438
0.0681863, 1.69195, -1.22924, -1.54316, -0.901716, -1.19664, 1.22681, -1.30246, 0.0152276, 0.00995605, -0.0404065, -0.0180323, -0.160247, -0.0383656, -0.00055148, 2.51106, 68.1989, 34.1178, 7.21588, 2.05005, 5.27408, -0.0292249, -0.000694944, -0.0025323, 0.00446321, 0.00959227, -0.000593206, 0.0022325, 0.0338253, 0.017782, -0.0140774, -0.153074, 0.138702, -0.0344532, 0.47096, -0.543193, 0.335911, -2.08363, -2.16581, -0.130028, 0.468294, -0.543295, 0.331472, -2.08118, -2.16006, -0.118572, -0.00257947, 0.0106651, 0.000968322, -0.0196353, -0.0212871, -0.0176509
0.0691863, 1.69197, -1.22924, -1.5432, -0.901742, -1.1968, 1.22677, -1.30246, 0.0147407, 0.00691465, -0.0413748, -0.0199821, -0.165447, -0.0357038, -0.000842172, 2.51106, 68.1989, 33.967, 7.21588, 1.99512, 5.20267, -0.0164075, -0.00072616, -0.00254804, 0.0044863, 0.00976379, -0.000724832, 0.00226987, 0.0356226, 0.0177684, -0.0161862, -0.155114, 0.141872, -0.0348165, 0.470957, -0.543183, 0.335912, -2.08362, -2.16581, -0.130035, 0.468276, -0.543313, 0.331446, -2.08118, -2.16002, -0.118253, -0.00266552, 0.0110363, 0.00100559, -0.0197194, -0.0223646, -0.0199758
0.0701863, 1.69199, -1.22922, -1.54325, -0.901762, -1.19697, 1.22672, -1.30245, 0.0172025, 0.0150043, -0.0406247, -0.0208048, -0.165281, -0.0331519, 0.00137148, 2.51106, 67.9053, 33.8559, 7.06909, 1.95758, 5.10928, -0.0685925, -0.00075817, -0.00256537, 0.00449747, 0.009932, -0.000877255, 0.00232096, 0.0340122, 0.0156551, -0.011148, -0.152219, 0.151594, -0.0333937, 0.470954, -0.543172, 0.335913, -2.08361, -2.1658, -0.130043, 0.468257, -0.543332, 0.331432, -2.08121, -2.15999, -0.117915, -0.00275269, 0.0114132, 0.00104363, -0.0175715, -0.0210876, -0.014777
0.0711863, 1.69202, -1.2292, -1.54329, -0.901781, -1.19714, 1.22668, -1.30245, 0.0189872, 0.0164676, -0.0410868, -0.0214749, -0.161361, -0.0347852, 0.000677074, 2.51106, 67.6474, 33.6695, 6.91833, 1.93927, 4.98019, -0.0621838, -0.000788163, -0.00257941, 0.00450658, 0.0100899, -0.00102691, 0.00236002, 0.0324279, 0.0143964, -0.010749, -0.152656, 0.149597, -0.0290553, 0.470952, -0.54316, 0.335914, -2.0836, -2.1658, -0.130051, 0.468241, -0.543349, 0.331419, -2.08124, -2.15997, -0.117592, -0.00284098, 0.0117958, 0.00108244, -0.016445, -0.0191507, -0.0141362
0.0721863, 1.69204, -1.22919, -1.54334, -0.901799, -1.1973, 1.22664, -1.30245, 0.016532, 0.0147365, -0.0443081, -0.0195549, -0.167637, -0.0318628, 0.000451467, 2.55073, 67.5006, 33.5941, 6.77154, 1.92096, 4.85843, -0.0621838, -0.000822444, -0.00259534, 0.00452286, 0.0102531, -0.00117241, 0.00240562, 0.0368459, 0.0168495, -0.0122172, -0.154693, 0.154838, -0.0362746, 0.470949, -0.543148, 0.335915, -2.08359, -2.1658, -0.130059, 0.468223, -0.54337, 0.331399, -2.08126, -2.15994, -0.117268, -0.00293038, 0.0121842, 0.00112203, -0.0188789, -0.022998, -0.0161593
0.0731863, 1.69207, -1.22917, -1.54338, -0.90182, -1.19748, 1.2266, -1.30246, 0.0226614, 0.0160998, -0.0457571, -0.018781, -0.168491, -0.0282545, 0.00436756, 2.51106, 67.2427, 33.483, 6.65649, 1.92096, 4.70096, -0.0420422, -0.000852312, -0.00260593, 0.00453295, 0.0104148, -0.0013315, 0.00243927, 0.0354811, 0.0132224, -0.0117943, -0.153659, 0.159378, -0.0355624, 0.470946, -0.543136, 0.335916, -2.08357, -2.1658, -0.130068, 0.46821, -0.543386, 0.331386, -2.08127, -2.15993, -0.116933, -0.00302087, 0.0125781, 0.0011624, -0.0153805, -0.021173, -0.015599
0.0741863, 1.6921, -1.22916, -1.54344, -0.901831, -1.19765, 1.22656, -1.30245, 0.0234615, 0.0135141, -0.0502369, -0.016338, -0.168907, -0.0321124, 0.00527949, 2.51106, 67.1317, 33.5187, 6.47003, 1.92096, 4.59292, -0.0951428, -0.000888212, -0.00262051, 0.0045502, 0.010578, -0.00147874, 0.00249396, 0.0370961, 0.0147533, -0.0149009, -0.160284, 0.155776, -0.0398066, 0.470943, -0.543124, 0.335917, -2.08356, -2.16579, -0.130077, 0.468193, -0.543406, 0.331365, -2.08131, -2.15988, -0.116606, -0.00311245, 0.0129778, 0.00120355, -0.0170553, -0.0219514, -0.0188305
0.0751863, 1.69213, -1.22914, -1.54348, -0.901843, -1.19782, 1.22653, -1.30245, 0.0229484, 0.0151784, -0.0486782, -0.0147797, -0.170053, -0.0345379, 0.00429519, 2.55073, 66.8738, 33.483, 6.28357, 1.95758, 4.47116, -0.10796, -0.000922392, -0.00263281, 0.00455904, 0.0107342, -0.00164081, 0.00254059, 0.0376939, 0.0156416, -0.0132983, -0.160571, 0.157355, -0.0401171, 0.47094, -0.543111, 0.335918, -2.08355, -2.16579, -0.130086, 0.468179, -0.543426, 0.331353, -2.08134, -2.15986, -0.116273, -0.00320508, 0.013383, 0.00124549, -0.0179555, -0.0224197, -0.0172727
0.0761863, 1.69216, -1.22913, -1.54352, -0.901854, -1.19799, 1.22649, -1.30245, 0.0267788, 0.0102216, -0.042925, -0.0116709, -0.16575, -0.0332237, 0.00234309, 2.55073, 66.8738, 33.3719, 6.13678, 1.97681, 4.3851, -0.0878186, -0.000954551, -0.00264054, 0.00457508, 0.0108824, -0.0017828, 0.00257786, 0.0358809, 0.0122645, -0.0138114, -0.151899, 0.149477, -0.0325386, 0.470937, -0.543097, 0.33592, -2.08353, -2.16579, -0.130095, 0.468168, -0.543442, 0.331334, -2.08136, -2.15984, -0.115971, -0.00329877, 0.0137938, 0.00128822, -0.01476, -0.0200013, -0.0175571
0.0771863, 1.6922, -1.22912, -1.54356, -0.901859, -1.19816, 1.22646, -1.30245, 0.0294038, 0.0117348, -0.0412669, -0.00926396, -0.168553, -0.0356097, 0.000544474, 2.55073, 66.8024, 33.3719, 5.98602, 2.02533, 4.27798, -0.0557752, -0.000990173, -0.00264882, 0.00458859, 0.0110305, -0.00193836, 0.00261967, 0.0356766, 0.0117367, -0.012304, -0.152933, 0.152321, -0.0301755, 0.470933, -0.543083, 0.335921, -2.08352, -2.16579, -0.130105, 0.468157, -0.543462, 0.331316, -2.08139, -2.15983, -0.115655, -0.00339351, 0.0142102, 0.00133174, -0.0142802, -0.0195938, -0.0160098
0.0781863, 1.69224, -1.22912, -1.5436, -0.901863, -1.19833, 1.22644, -1.30244, 0.0314937, 0.00982483, -0.042627, -0.00523203, -0.16513, -0.0280353, 0.00218531, 2.55073, 66.8738, 33.3719, 5.87494, 2.05646, 4.16354, -0.101552, -0.00102659, -0.00265306, 0.00460612, 0.0111626, -0.0020845, 0.00266577, 0.0369393, 0.00981637, -0.0127784, -0.144494, 0.151644, -0.0324542, 0.47093, -0.543069, 0.335922, -2.0835, -2.16578, -0.130115, 0.46815, -0.543481, 0.331295, -2.08143, -2.15981, -0.115366, -0.00348927, 0.0146321, 0.00137605, -0.0124299, -0.0202662, -0.0166886
0.0791863, 1.69228, -1.22912, -1.54364, -0.901863, -1.19849, 1.22643, -1.30244, 0.0353815, 0.0087411, -0.0415869, -0.00213045, -0.171717, -0.0236513, 0.00667612, 2.58643, 66.8024, 33.4076, 5.76385, 2.08118, 4.07748, -0.114369, -0.00106201, -0.00265661, 0.00461809, 0.0112907, -0.00223626, 0.00270832, 0.0382107, 0.007981, -0.0123993, -0.142031, 0.158428, -0.0372085, 0.470926, -0.543055, 0.335924, -2.08349, -2.16578, -0.130125, 0.468144, -0.5435, 0.331279, -2.08146, -2.15979, -0.115076, -0.00358604, 0.0150594, 0.00142116, -0.0106342, -0.0210769, -0.0165228
0.0801863, 1.69232, -1.22913, -1.54369, -0.901859, -1.19866, 1.22642, -1.30244, 0.0400251, 0.00278431, -0.0415958, -0.000587728, -0.166958, -0.0201613, 0.00392623, 2.55073, 66.9492, 33.483, 5.68848, 2.11139, 3.99783, -0.0878186, -0.00109931, -0.00265625, 0.0046395, 0.0114141, -0.00237615, 0.00274818, 0.0370162, 0.00435253, -0.0156145, -0.137254, 0.150813, -0.0292128, 0.470923, -0.543039, 0.335925, -2.08347, -2.16578, -0.130135, 0.468141, -0.543518, 0.331253, -2.08149, -2.15978, -0.114804, -0.00368381, 0.0154923, 0.00146708, -0.00726729, -0.0188198, -0.0195757
0.0811863, 1.69236, -1.22913, -1.54373, -0.901857, -1.19882, 1.22641, -1.30245, 0.0429938, 0.00214914, -0.0415533, -0.00108982, -0.167298, -0.0157559, 0.00126619, 2.66181, 66.9492, 33.5584, 5.68848, 2.13611, 3.99142, -0.0420422, -0.00113834, -0.00265841, 0.00465459, 0.0115309, -0.0025252, 0.00278777, 0.0365726, 0.00170208, -0.0157853, -0.134267, 0.153254, -0.022959, 0.470919, -0.543024, 0.335926, -2.08345, -2.16578, -0.130146, 0.468136, -0.543539, 0.331234, -2.08153, -2.15977, -0.114531, -0.00378258, 0.0159305, 0.0015138, -0.00474102, -0.0178081, -0.0197092
0.0821863, 1.69241, -1.22913, -1.54376, -0.901852, -1.19898, 1.22641, -1.30244, 0.0458477, -1.79712e-05, -0.04032, 0.00102526, -0.167523, -0.0126556, 0.00774195, 2.62611, 67.0206, 33.5941, 5.72418, 2.13611, 3.99783, -0.0951428, -0.00117368, -0.00265362, 0.00467166, 0.0116435, -0.00267046, 0.00282734, 0.0366933, -0.000313547, -0.0161814, -0.130179, 0.153177, -0.0276066, 0.470915, -0.543008, 0.335928, -2.08344, -2.16577, -0.130157, 0.468138, -0.543555, 0.331213, -2.08157, -2.15977, -0.114266, -0.00388232, 0.0163742, 0.00156132, -0.00283762, -0.0173393, -0.0201329
0.0831863, 1.69246, -1.22912, -1.54381, -0.901844, -1.19915, 1.22641, -1.30244, 0.0470176, 0.00442169, -0.0413121, 0.00363073, -0.169296, -0.00742405, 0.00574429, 2.62611, 66.8381, 33.7052, 5.72418, 2.17273, 4.05551, -0.0951428, -0.0012104, -0.00264991, 0.00467943, 0.0117578, -0.00283872, 0.00286703, 0.038097, -0.00097437, -0.0131277, -0.125862, 0.162, -0.0275957, 0.470911, -0.542992, 0.335929, -2.08342, -2.16577, -0.130169, 0.468139, -0.543573, 0.331201, -2.08162, -2.15977, -0.113976, -0.00398302, 0.0168232, 0.00160966, -0.00211721, -0.0187196, -0.0173083
0.0841863, 1.69251, -1.22913, -1.54385, -0.901837, -1.19931, 1.22641, -1.30244, 0.0448242, -0.00212554, -0.0448186, 0.00164913, -0.170329, -0.00247219, 0.00304607, 2.62611, 67.0602, 33.8202, 5.76385, 2.20386, 4.09854, -0.0621838, -0.00125019, -0.00264615, 0.00470408, 0.0118727, -0.00297679, 0.00290542, 0.0409828, -0.000550034, -0.0179217, -0.126239, 0.159579, -0.0268795, 0.470907, -0.542975, 0.335931, -2.0834, -2.16577, -0.13018, 0.468139, -0.543592, 0.331172, -2.08165, -2.15976, -0.113717, -0.00408468, 0.0172776, 0.00165881, -0.00271246, -0.0203915, -0.0224293
0.0851863, 1.69257, -1.22914, -1.54389, -0.901828, -1.19948, 1.22641, -1.30244, 0.0481088, -0.00299477, -0.0434596, 0.00264845, -0.170191, 0.00135863, 0.000663221, 2.55073, 67.1317, 33.8917, 5.83527, 2.22217, 4.13424, -0.0164075, -0.00128689, -0.00263735, 0.00472119, 0.0119826, -0.00313087, 0.00293394, 0.0404594, -0.00323417, -0.0176239, -0.12173, 0.160931, -0.021099, 0.470903, -0.542958, 0.335933, -2.08338, -2.16576, -0.130192, 0.468145, -0.543608, 0.331151, -2.08168, -2.15977, -0.113448, -0.00418727, 0.0177373, 0.00170878, -0.000142252, -0.0193502, -0.0220857
0.0861863, 1.69262, -1.22915, -1.54393, -0.901825, -1.19965, 1.22642, -1.30244, 0.0467168, -0.00369024, -0.0414884, 0.00248922, -0.170834, 0.00118392, 0.00214616, 2.62611, 67.207, 34.0424, 5.95032, 2.25238, 4.13424, -0.0557752, -0.001327, -0.00263096, 0.00474085, 0.0120929, -0.00328597, 0.00297825, 0.0412627, -0.00283159, -0.0172662, -0.120332, 0.161032, -0.0227709, 0.470899, -0.54294, 0.335934, -2.08336, -2.16576, -0.130204, 0.468148, -0.543626, 0.331127, -2.08173, -2.15976, -0.113176, -0.00429078, 0.0182023, 0.00175956, -0.000605821, -0.0197496, -0.0217951
0.0871863, 1.69268, -1.22916, -1.54398, -0.901818, -1.19981, 1.22642, -1.30244, 0.0518867, -0.00667691, -0.0437733, 0.00133991, -0.166554, 0.000184102, 0.00161523, 2.58643, 67.3895, 34.1178, 5.98602, 2.2771, 4.15622, -0.0557752, -0.00136409, -0.0026222, 0.00476275, 0.0122063, -0.0034295, 0.00300757, 0.0389041, -0.00602596, -0.0203259, -0.122763, 0.154999, -0.0154232, 0.470895, -0.542922, 0.335936, -2.08334, -2.16576, -0.130217, 0.468153, -0.543641, 0.331101, -2.08175, -2.15977, -0.112915, -0.00439521, 0.0186725, 0.00181117, 0.00228451, -0.0163471, -0.0244946
0.0881863, 1.69275, -1.22918, -1.54402, -0.901814, -1.19998, 1.22643, -1.30244, 0.0567757, -0.0104443, -0.0425404, 0.00180847, -0.168129, 0.004127, 0.00121517, 2.47535, 67.6474, 34.1892, 6.09711, 2.31372, 4.17727, -0.0557752, -0.00139916, -0.00260709, 0.00479088, 0.0123213, -0.00357106, 0.0030279, 0.0381692, -0.00958959, -0.0219265, -0.119805, 0.155067, -0.0101277, 0.47089, -0.542903, 0.335938, -2.08332, -2.16575, -0.13023, 0.468163, -0.543652, 0.331069, -2.08177, -2.15978, -0.112655, -0.00450054, 0.019148, 0.0018636, 0.0056539, -0.0147519, -0.0260166
0.0891863, 1.69281, -1.2292, -1.54406, -0.901806, -1.20014, 1.22643, -1.30244, 0.0574284, -0.0129657, -0.0446633, 0.000828254, -0.169354, 0.00166063, -0.00152753, 2.47535, 67.9053, 34.2646, 6.13678, 2.34485, 4.2203, 0.0101428, -0.0014378, -0.0025978, 0.00481931, 0.0124409, -0.00370766, 0.00305449, 0.0387296, -0.00933644, -0.0245093, -0.125121, 0.153091, -0.00694564, 0.470886, -0.542884, 0.33594, -2.0833, -2.16575, -0.130243, 0.468169, -0.543666, 0.331036, -2.08178, -2.15978, -0.112394, -0.00460676, 0.0196287, 0.00191686, 0.00522153, -0.0144355, -0.0285936
0.0901863, 1.69287, -1.22922, -1.5441, -0.901804, -1.20032, 1.22643, -1.30244, 0.0597102, -0.0177885, -0.0441821, -0.00163331, -0.169929, 0.000161901, -0.000703178, 2.43568, 68.1631, 34.3757, 6.24786, 2.36957, 4.25601, 0.00373412, -0.00147612, -0.00258699, 0.00484733, 0.0125642, -0.00385306, 0.00308372, 0.0377795, -0.0110893, -0.0277379, -0.128151, 0.148821, -0.00289938, 0.470881, -0.542864, 0.335942, -2.08328, -2.16574, -0.130257, 0.468175, -0.543679, 0.331004, -2.0818, -2.15977, -0.112121, -0.00471385, 0.0201145, 0.00197095, 0.00671388, -0.0124406, -0.0316331
0.0911863, 1.69292, -1.22924, -1.54414, -0.901798, -1.20048, 1.22643, -1.30244, 0.0560304, -0.0213038, -0.0396, 0.000503359, -0.173762, -0.000422936, 0.00104764, 2.47535, 68.421, 34.3043, 6.32324, 2.35675, 4.27798, -0.0356336, -0.00151505, -0.00257727, 0.00487218, 0.0126752, -0.00399149, 0.00311779, 0.0406042, -0.00897195, -0.0277109, -0.125111, 0.148098, -0.00884958, 0.470877, -0.542844, 0.335944, -2.08326, -2.16574, -0.13027, 0.468181, -0.543693, 0.330975, -2.08182, -2.15977, -0.111868, -0.00482181, 0.0206055, 0.00202587, 0.00459406, -0.0148285, -0.0319279
0.0921863, 1.69298, -1.22926, -1.54418, -0.901803, -1.20065, 1.22642, -1.30243, 0.0568894, -0.0206822, -0.0406527, -0.000585424, -0.171883, -0.000612292, 0.00148819, 2.51106, 68.6789, 34.4153, 6.5097, 2.33844, 4.29263, -0.0557752, -0.00155375, -0.00256692, 0.0049031, 0.0128032, -0.00413342, 0.00314546, 0.0401738, -0.00976575, -0.0278998, -0.125868, 0.147823, -0.00706031, 0.470872, -0.542823, 0.335946, -2.08324, -2.16574, -0.130285, 0.468186, -0.543706, 0.33094, -2.08183, -2.15977, -0.111594, -0.00493062, 0.0211016, 0.00208162, 0.00525583, -0.013845, -0.0320164
0.0931863, 1.69305, -1.22928, -1.54423, -0.901803, -1.20082, 1.22642, -1.30244, 0.0591779, -0.0201559, -0.0431528, 0.000682777, -0.169363, -0.000249045, 0.000516328, 2.47535, 68.9368, 34.4867, 6.62079, 2.29541, 4.29263, -0.0420422, -0.00158983, -0.00255221, 0.00493346, 0.0129258, -0.00427198, 0.00316355, 0.0400513, -0.0107537, -0.0283581, -0.126232, 0.147133, -0.00498475, 0.470867, -0.542802, 0.335948, -2.08322, -2.16573, -0.130299, 0.468196, -0.543715, 0.330907, -2.08184, -2.15977, -0.11133, -0.00504026, 0.0216028, 0.00213822, 0.00611197, -0.0131106, -0.0324239
0.0941863, 1.69311, -1.2293, -1.54428, -0.901807, -1.20098, 1.22643, -1.30245, 0.0610216, -0.0219878, -0.0444731, 0.000645904, -0.163157, -4.66678e-05, -0.0018013, 2.43568, 69.1589, 34.5264, 6.77154, 2.25238, 4.29263, 0.0165515, -0.0016245, -0.00253532, 0.00496276, 0.0130458, -0.00441219, 0.00316897, 0.0389704, -0.012425, -0.0299705, -0.124738, 0.141013, 0.000992173, 0.470862, -0.542781, 0.33595, -2.08319, -2.16573, -0.130314, 0.468208, -0.543722, 0.330874, -2.08182, -2.1598, -0.11107, -0.00515073, 0.022109, 0.00219565, 0.00757335, -0.0112187, -0.0338414
0.0951863, 1.69318, -1.22931, -1.54433, -0.901816, -1.20114, 1.22642, -1.30244, 0.06231, -0.0185395, -0.0461634, 2.08307e-05, -0.163776, -0.00177264, 3.83052e-05, 2.39997, 69.3057, 34.6018, 6.95801, 2.21576, 4.34207, -0.0164075, -0.00166093, -0.00252277, 0.00499071, 0.0131808, -0.00456188, 0.00319471, 0.0387114, -0.0126287, -0.0288023, -0.128148, 0.14488, 0.000194175, 0.470857, -0.542759, 0.335952, -2.08317, -2.16572, -0.130329, 0.468216, -0.543731, 0.330842, -2.08183, -2.1598, -0.110781, -0.00526201, 0.0226203, 0.00225393, 0.00769867, -0.0106229, -0.0325963
0.0961863, 1.69324, -1.22932, -1.54438, -0.901822, -1.20131, 1.22642, -1.30244, 0.06213, -0.0160464, -0.0474823, -0.000803752, -0.164201, -0.00270832, 0.000751464, 2.39997, 69.3057, 34.6732, 7.02942, 2.17914, 4.3851, -0.0356336, -0.00169819, -0.00251168, 0.00501484, 0.0133178, -0.00471815, 0.00322117, 0.0391027, -0.0123025, -0.0279483, -0.130407, 0.147965, -0.000482094, 0.470851, -0.542736, 0.335954, -2.08315, -2.16572, -0.130344, 0.468222, -0.543741, 0.330815, -2.08184, -2.1598, -0.110484, -0.0053741, 0.0231366, 0.00231306, 0.00730596, -0.0106374, -0.0317459
0.0971863, 1.6933, -1.22933, -1.54443, -0.90183, -1.20148, 1.22641, -1.30244, 0.0601187, -0.0146622, -0.0467353, -0.00342271, -0.164886, -0.00307762, 0.000274005, 2.3603, 69.4525, 34.6732, 7.18018, 2.14801, 4.4208, -0.0292249, -0.001735, -0.00249791, 0.00504456, 0.0134535, -0.00486565, 0.00323914, 0.0395631, -0.0118128, -0.0271226, -0.131149, 0.150394, 0.000730717, 0.470846, -0.542713, 0.335957, -2.08312, -2.16571, -0.13036, 0.468231, -0.543749, 0.330781, -2.08184, -2.1598, -0.110198, -0.00548698, 0.0236579, 0.00237303, 0.00675072, -0.0107176, -0.0309284
0.0981863, 1.69336, -1.22933, -1.54449, -0.901837, -1.20165, 1.22641, -1.30244, 0.0591595, -0.0110082, -0.0517342, -0.00867681, -0.165379, -0.00360767, -0.00197968, 2.28492, 69.4882, 34.7883, 7.21588, 2.1297, 4.46383, 0.0293689, -0.00177709, -0.00248893, 0.00507107, 0.0135999, -0.00503233, 0.00326395, 0.0397123, -0.0114275, -0.0274206, -0.138186, 0.155482, 0.00433695, 0.470841, -0.542689, 0.335959, -2.0831, -2.16571, -0.130376, 0.468235, -0.543762, 0.330751, -2.08185, -2.15981, -0.109881, -0.00560063, 0.0241841, 0.00243385, 0.00624695, -0.0103076, -0.0311742
0.0991863, 1.69342, -1.22934, -1.54455, -0.901855, -1.20182, 1.2264, -1.30244, 0.0599818, -0.0102358, -0.0535956, -0.0135075, -0.169917, -0.00451302, 0.00109356, 2.28492, 69.5993, 34.824, 7.40631, 2.1178, 4.52151, -0.0356336, -0.00181602, -0.0024782, 0.00510011, 0.0137459, -0.00519017, 0.00329151, 0.0395764, -0.0120362, -0.0283677, -0.144991, 0.1607, 0.00422438, 0.470835, -0.542665, 0.335962, -2.08307, -2.16571, -0.130393, 0.46824, -0.543771, 0.330718, -2.08185, -2.15981, -0.109573, -0.00571505, 0.0247152, 0.00249553, 0.00670133, -0.00946994, -0.0320457
0.100186, 1.69348, -1.22934, -1.54462, -0.901869, -1.20199, 1.22639, -1.30244, 0.0561197, -0.00537742, -0.0604153, -0.0119715, -0.168963, -0.00563229, 0.000970778, 2.20954, 69.5279, 34.9708, 7.51739, 2.09308, 4.59292, -0.0420422, -0.0018546, -0.00246735, 0.00512464, 0.0138974, -0.00535815, 0.00331572, 0.0429475, -0.00820737, -0.0275552, -0.149701, 0.164942, -0.00354009, 0.470829, -0.54264, 0.335964, -2.08305, -2.1657, -0.13041, 0.468246, -0.543781, 0.33069, -2.08185, -2.15981, -0.109249, -0.00583022, 0.0252512, 0.00255806, 0.00291348, -0.0125442, -0.0315915
0.101186, 1.69354, -1.22935, -1.54467, -0.901885, -1.20216, 1.22638, -1.30244, 0.0573993, -0.0071866, -0.0591944, -0.0108555, -0.169106, -0.00668896, 0.000413113, 2.20954, 69.6747, 34.9708, 7.62848, 2.09308, 4.67257, -0.0356336, -0.00189585, -0.00245852, 0.00515351, 0.0140433, -0.00551419, 0.00333979, 0.0430888, -0.00881146, -0.0281593, -0.149386, 0.163185, -0.00178539, 0.470823, -0.542615, 0.335967, -2.08302, -2.16569, -0.130427, 0.468249, -0.543791, 0.330657, -2.08185, -2.15981, -0.108944, -0.00594613, 0.0257921, 0.00262146, 0.00338419, -0.0120235, -0.0321658
0.102186, 1.6936, -1.22934, -1.54475, -0.901906, -1.20232, 1.22637, -1.30244, 0.054858, -0.00231859, -0.0648805, -0.0118057, -0.16907, -0.00709222, -0.00189227, 2.09846, 69.5636, 35.1215, 7.81494, 2.08118, 4.74399, 0.0229602, -0.00193403, -0.00244837, 0.00517881, 0.0142016, -0.00568117, 0.00335474, 0.0451716, -0.00651255, -0.0272909, -0.154286, 0.168734, -0.00363879, 0.470817, -0.542589, 0.335969, -2.08299, -2.16569, -0.130444, 0.468254, -0.543799, 0.330629, -2.08184, -2.15982, -0.108616, -0.00606278, 0.0263379, 0.00268571, 0.00107851, -0.013762, -0.0315003
0.103186, 1.69365, -1.22933, -1.54481, -0.901922, -1.20247, 1.22636, -1.30244, 0.0543364, -0.000804991, -0.0645217, -0.012947, -0.166957, -0.00790657, 0.000198401, 2.05878, 69.5279, 35.0858, 7.89032, 2.02533, 4.83005, -0.0164075, -0.00197368, -0.00244025, 0.0052028, 0.0143478, -0.00583713, 0.00338327, 0.0449096, -0.00669566, -0.026443, -0.153956, 0.168773, -0.00406762, 0.470811, -0.542563, 0.335972, -2.08296, -2.16568, -0.130462, 0.468256, -0.543807, 0.330601, -2.08185, -2.15982, -0.108311, -0.00618014, 0.0268884, 0.00275083, 0.00116559, -0.0130755, -0.0305638
0.104186, 1.69371, -1.22933, -1.54487, -0.901942, -1.20263, 1.22635, -1.30244, 0.0554521, 0.000320495, -0.066102, -0.0154974, -0.162238, -0.00845172, 0.000371013, 1.9477, 69.4882, 35.1215, 8.03711, 2.00061, 4.91611, -0.0228162, -0.00201303, -0.00243018, 0.00522905, 0.0144988, -0.00599641, 0.00340489, 0.0434614, -0.00811932, -0.0267743, -0.15483, 0.166727, 0.000230845, 0.470805, -0.542536, 0.335975, -2.08294, -2.16568, -0.13048, 0.468261, -0.543815, 0.330572, -2.08184, -2.15982, -0.107998, -0.0062982, 0.0274437, 0.00281681, 0.00240524, -0.0109797, -0.0306432
0.105186, 1.69376, -1.22933, -1.54494, -0.901959, -1.20278, 1.22633, -1.30244, 0.055532, 0.000995734, -0.0635747, -0.0158069, -0.163016, -0.00827429, 0.000485741, 1.87232, 69.4525, 35.1215, 8.11249, 1.9704, 4.98752, -0.0292249, -0.00205506, -0.0024248, 0.00525364, 0.0146464, -0.00614905, 0.00343436, 0.0434907, -0.00871421, -0.0254793, -0.15286, 0.168596, 0.00174442, 0.470799, -0.542509, 0.335978, -2.08291, -2.16567, -0.130499, 0.46826, -0.543824, 0.330544, -2.08184, -2.15981, -0.107696, -0.00641697, 0.0280038, 0.00288366, 0.00292893, -0.0106234, -0.0293214
0.106186, 1.69381, -1.22932, -1.54499, -0.901977, -1.20293, 1.22632, -1.30244, 0.0540619, 0.00145918, -0.0570696, -0.0129699, -0.158519, -0.0114589, -0.00184553, 1.72157, 69.4168, 35.0461, 8.18787, 1.93378, 5.02322, 0.0293689, -0.00209406, -0.00241483, 0.0052753, 0.0147833, -0.00630136, 0.0034476, 0.0429442, -0.00843033, -0.0226925, -0.146173, 0.163653, 0.00505311, 0.470793, -0.542481, 0.33598, -2.08288, -2.16567, -0.130518, 0.468265, -0.543831, 0.330519, -2.08183, -2.15983, -0.107407, -0.00653641, 0.0285686, 0.00295138, 0.00260784, -0.00996122, -0.0264096
0.107186, 1.69386, -1.22932, -1.54505, -0.902, -1.20307, 1.2263, -1.30244, 0.0528065, 0.00501535, -0.0581884, -0.0178334, -0.15184, -0.0144229, 0.000465651, 1.57081, 69.3771, 34.9708, 8.29895, 1.92096, 5.07358, -0.0164075, -0.00213313, -0.00240596, 0.0052981, 0.014926, -0.00645272, 0.00346873, 0.0409221, -0.00885647, -0.0218388, -0.148336, 0.161335, 0.00770252, 0.470786, -0.542452, 0.335983, -2.08285, -2.16566, -0.130537, 0.468267, -0.543837, 0.330493, -2.08182, -2.15983, -0.107113, -0.00665653, 0.0291381, 0.00301998, 0.00287158, -0.00750931, -0.0251965
0.108186, 1.69386, -1.22932, -1.54505, -0.902, -1.20307, 1.2263, -1.30244, 0.0528065, 0.00501535, -0.0581884, -0.0178334, -0.15184, -0.0144229, 0.000465651, 1.57081, 69.3771, 34.9708, 8.29895, 1.92096, 5.07358, -0.0164075, -0.00216272, -0.00240041, 0.00529629, 0.0149178, -0.0064798, 0.00348067, 0.0415047, -0.00895516, -0.0218129, -0.148278, 0.161942, 0.00805131, 0.470779, -0.542423, 0.335986, -2.08282, -2.16566, -0.130557, 0.468267, -0.543837, 0.330493, -2.08182, -2.15983, -0.107113, -0.0067773, 0.0297122, 0.00308945, 0.00287158, -0.00750931, -0.0251965
0.109186, 1.69386, -1.22932, -1.54505, -0.902, -1.20307, 1.2263, -1.30244, 0.0528065, 0.00501535, -0.0581884, -0.0178334, -0.15184, -0.0144229, 0.000465651, 1.57081, 69.3771, 34.9708, 8.29895, 1.92096, 5.07358, -0.0164075, -0.0021929, -0.00239476, 0.00529445, 0.0149094, -0.00650741, 0.00349282, 0.0420921, -0.00905431, -0.0217871, -0.148218, 0.162553, 0.00840219, 0.470773, -0.542393, 0.335989, -2.08278, -2.16565, -0.130577, 0.468267, -0.543837, 0.330493, -2.08182, -2.15983, -0.107113, -0.00689872, 0.030291, 0.0031598, 0.00287158, -0.00750931, -0.0251965
0.110186, 1.69403, -1.22931, -1.54523, -0.902062, -1.20348, 1.22627, -1.30244, 0.0517256, 0.00240393, -0.0556671, -0.0178268, -0.14285, -0.0130921, 0.00025166, 0.928108, 69.3414, 34.824, 8.52509, 1.85321, 5.15231, -0.0164075, -0.0022455, -0.00236855, 0.0053704, 0.0153291, -0.00687641, 0.00351198, 0.041242, -0.0103016, -0.0222467, -0.140645, 0.153678, 0.0121746, 0.470766, -0.542363, 0.335993, -2.08275, -2.16564, -0.130597, 0.468286, -0.543846, 0.330412, -2.08177, -2.15985, -0.106293, -0.00702078, 0.0308744, 0.00323103, 0.003948, -0.00596306, -0.0254852
0.111186, 1.69407, -1.22931, -1.54528, -0.902084, -1.20361, 1.22626, -1.30244, 0.0474968, 0.00170371, -0.0517261, -0.0206477, -0.139835, -0.0138602, -0.000340668, 0.777352, 69.3414, 34.7486, 8.60046, 1.84772, 5.14499, -0.00267457, -0.0022848, -0.00235743, 0.0053921, 0.015457, -0.00701789, 0.00352672, 0.0414497, -0.00957293, -0.0214829, -0.137133, 0.150586, 0.01432, 0.470759, -0.542332, 0.335996, -2.08272, -2.16564, -0.130618, 0.468291, -0.54385, 0.330387, -2.08176, -2.15985, -0.106027, -0.00714347, 0.0314625, 0.00330314, 0.00313314, -0.00572759, -0.0246706
0.112186, 1.69413, -1.2293, -1.54534, -0.902102, -1.20374, 1.22624, -1.30245, 0.0471437, 0.00464529, -0.0506997, -0.021097, -0.137897, -0.0142444, -0.00165113, 0.511544, 69.1946, 34.7486, 8.60046, 1.84772, 5.13125, 0.0357776, -0.00232163, -0.00234356, 0.00540937, 0.0155831, -0.00716397, 0.00353179, 0.041173, -0.00985434, -0.019436, -0.135501, 0.152319, 0.0170925, 0.470751, -0.542301, 0.335999, -2.08269, -2.16563, -0.130639, 0.468298, -0.543851, 0.330367, -2.08174, -2.15988, -0.10576, -0.00726676, 0.032055, 0.00337613, 0.00335569, -0.00516631, -0.0225433
0.113186, 1.69418, -1.2293, -1.54538, -0.902126, -1.20387, 1.22623, -1.30244, 0.0446102, 0.00231851, -0.0471616, -0.0226491, -0.137127, -0.0138717, 0.00106949, 0.325081, 69.2303, 34.6375, 8.63617, 1.86603, 5.09463, -0.0228162, -0.00235855, -0.00232901, 0.00542998, 0.0157046, -0.00730132, 0.00354469, 0.0418075, -0.00970895, -0.0195833, -0.132184, 0.150025, 0.0155981, 0.470744, -0.542268, 0.336003, -2.08265, -2.16562, -0.13066, 0.468306, -0.543852, 0.330344, -2.08172, -2.15988, -0.105507, -0.00739066, 0.0326521, 0.00345001, 0.00310446, -0.00517776, -0.0227107
0.114186, 1.69423, -1.22929, -1.54543, -0.90215, -1.204, 1.22622, -1.30244, 0.0444203, 0.00418677, -0.045571, -0.0229213, -0.136514, -0.0132132, 0.000475714, 0.21003, 69.1193, 34.5621, 8.63617, 1.88434, 5.04519, -0.0164075, -0.00239746, -0.00231627, 0.00544472, 0.0158214, -0.0074497, 0.0035585, 0.0418706, -0.0102061, -0.0178619, -0.129798, 0.152259, 0.0175257, 0.470737, -0.542236, 0.336006, -2.08262, -2.16562, -0.130682, 0.468312, -0.543854, 0.330326, -2.08171, -2.1599, -0.105248, -0.00751515, 0.0332538, 0.00352478, 0.00354174, -0.00488373, -0.0209627
0.115186, 1.69428, -1.2293, -1.54547, -0.902173, -1.20414, 1.22621, -1.30244, 0.0461549, 0.000224711, -0.0489615, -0.0230288, -0.136647, -0.013038, -0.000191425, 0.0196001, 69.2303, 34.5621, 8.63617, 1.92096, 4.99484, -0.00267457, -0.00243717, -0.0023014, 0.00546928, 0.0159443, -0.00758578, 0.00356683, 0.0427923, -0.0107861, -0.0214549, -0.13327, 0.149445, 0.0188049, 0.470729, -0.542203, 0.33601, -2.08258, -2.16561, -0.130704, 0.46832, -0.543856, 0.330299, -2.08169, -2.15991, -0.104995, -0.00764022, 0.0338599, 0.00360044, 0.00389864, -0.00460546, -0.0245971
0.116186, 1.69432, -1.22928, -1.54552, -0.9022, -1.20427, 1.2262, -1.30245, 0.0448942, 0.0076301, -0.0493158, -0.0240872, -0.131695, -0.0173445, -0.00155173, -0.0557783, 69.0479, 34.6018, 8.67188, 1.95758, 4.95181, 0.0357776, -0.00247673, -0.0022888, 0.00548099, 0.0160647, -0.00774407, 0.00357114, 0.0416334, -0.00998734, -0.0176443, -0.134606, 0.151331, 0.0214747, 0.470722, -0.542169, 0.336013, -2.08255, -2.1656, -0.130727, 0.468326, -0.543859, 0.330284, -2.08167, -2.15995, -0.104723, -0.00776586, 0.0344704, 0.00367699, 0.00307257, -0.0034739, -0.0205545
0.117186, 1.69437, -1.22928, -1.54556, -0.902222, -1.2044, 1.22618, -1.30244, 0.0416916, 0.00537034, -0.0457963, -0.0255777, -0.132752, -0.0203252, 0.000898329, -0.166862, 69.0479, 34.6018, 8.60046, 2.00702, 4.89413, -0.0164075, -0.00251579, -0.00227423, 0.00549828, 0.01618, -0.00788414, 0.00358406, 0.0426107, -0.00862552, -0.0179978, -0.134926, 0.148924, 0.0188987, 0.470714, -0.542134, 0.336017, -2.08251, -2.16559, -0.13075, 0.468333, -0.543859, 0.330264, -2.08166, -2.15996, -0.104475, -0.00789206, 0.0350854, 0.00375444, 0.00160918, -0.00382422, -0.0209388
0.118186, 1.69441, -1.22928, -1.54559, -0.902253, -1.20453, 1.22617, -1.30244, 0.040633, 0.0021225, -0.0409808, -0.0263384, -0.133917, -0.0137714, 0.000361551, -0.206535, 69.1193, 34.6375, 8.63617, 2.05646, 4.84378, -0.00999879, -0.00255586, -0.00226104, 0.00551784, 0.0162961, -0.00802089, 0.00358961, 0.0436929, -0.010299, -0.0176712, -0.125962, 0.150262, 0.0214672, 0.470706, -0.542099, 0.336021, -2.08248, -2.16559, -0.130773, 0.468339, -0.54386, 0.330242, -2.08164, -2.15998, -0.104231, -0.0080188, 0.0357048, 0.00383279, 0.00320515, -0.00425328, -0.0207595
0.119186, 1.69446, -1.22928, -1.54562, -0.902276, -1.20466, 1.22616, -1.30244, 0.0439989, 0.00240975, -0.0401288, -0.0241176, -0.134377, -0.0137404, 0.000478412, -0.281914, 69.0836, 34.6732, 8.56079, 2.09308, 4.80075, -0.0164075, -0.0025947, -0.00224472, 0.00552963, 0.0164021, -0.00816808, 0.00359547, 0.0433842, -0.0118994, -0.0170356, -0.124766, 0.151481, 0.0233414, 0.470698, -0.542063, 0.336024, -2.08244, -2.16558, -0.130797, 0.468348, -0.54386, 0.330228, -2.08162, -2.16, -0.103988, -0.00814607, 0.0363285, 0.00391203, 0.00468851, -0.00335608, -0.0200546
0.120186, 1.6945, -1.22928, -1.54565, -0.902297, -1.2048, 1.22615, -1.30245, 0.0395144, -0.000872309, -0.0366307, -0.0246557, -0.134561, -0.017106, -0.00137647, -0.317619, 69.1946, 34.7129, 8.44971, 2.12421, 4.72201, 0.0293689, -0.00263835, -0.00223132, 0.00554607, 0.0165039, -0.00830631, 0.00360597, 0.0451077, -0.00964736, -0.0178371, -0.124493, 0.146991, 0.0232779, 0.47069, -0.542027, 0.336028, -2.0824, -2.16557, -0.130821, 0.468355, -0.543863, 0.330208, -2.08161, -2.16002, -0.103758, -0.00827387, 0.0369566, 0.00399218, 0.00234529, -0.00439725, -0.0209683
0.121186, 1.69456, -1.22928, -1.54567, -0.902324, -1.20493, 1.22613, -1.30244, 0.0430635, 0.00210665, -0.0291923, -0.0282014, -0.13917, -0.0109728, 0.00125251, -0.508049, 69.0836, 34.6732, 8.44971, 2.15442, 4.65793, -0.0292249, -0.00267221, -0.00220962, 0.00555347, 0.0166063, -0.00845658, 0.00360592, 0.0428704, -0.0144306, -0.0135665, -0.116647, 0.157443, 0.0296219, 0.470682, -0.54199, 0.336032, -2.08236, -2.16556, -0.130845, 0.468369, -0.543858, 0.330199, -2.08159, -2.16006, -0.103517, -0.00840218, 0.0375891, 0.00407323, 0.00706903, -0.00201962, -0.0164682
0.122186, 1.6946, -1.22928, -1.5457, -0.902344, -1.20507, 1.22612, -1.30244, 0.0428424, -0.000291501, -0.0282017, -0.0249285, -0.137992, -0.0066358, -0.000148333, -0.583427, 69.1589, 34.824, 8.33862, 2.17914, 4.60025, -0.00267457, -0.00271665, -0.00219549, 0.00556879, 0.0167096, -0.00859969, 0.00361567, 0.0448112, -0.0148297, -0.0137685, -0.110024, 0.156536, 0.0292685, 0.470673, -0.541953, 0.336036, -2.08232, -2.16556, -0.13087, 0.468376, -0.543861, 0.33018, -2.08158, -2.16008, -0.103281, -0.008531, 0.0382258, 0.00415518, 0.00740232, -0.00324962, -0.0169032
0.123186, 1.6946, -1.22928, -1.5457, -0.902344, -1.20507, 1.22612, -1.30244, 0.0428424, -0.000291501, -0.0282017, -0.0249285, -0.137992, -0.0066358, -0.000148333, -0.583427, 69.1589, 34.824, 8.33862, 2.17914, 4.60025, -0.00267457, -0.00275551, -0.00218841, 0.00556657, 0.0166986, -0.00863502, 0.00363105, 0.0454622, -0.0149342, -0.0137443, -0.109947, 0.157205, 0.0296458, 0.470665, -0.541914, 0.33604, -2.08228, -2.16555, -0.130895, 0.468376, -0.543861, 0.33018, -2.08158, -2.16008, -0.103281, -0.0086603, 0.0388668, 0.00423804, 0.00740232, -0.00324962, -0.0169032
0.124186, 1.69466, -1.22928, -1.54571, -0.902366, -1.20519, 1.22611, -1.30244, 0.0453196, -0.000979076, -0.022885, -0.0244316, -0.13682, -0.00803288, -9.88827e-05, -0.76989, 69.1946, 34.7883, 8.29895, 2.19745, 4.54349, -0.00267457, -0.00279306, -0.00216575, 0.00557564, 0.0167841, -0.0087756, 0.00362253, 0.0437525, -0.0171648, -0.0124348, -0.106073, 0.155256, 0.0349176, 0.470656, -0.541875, 0.336045, -2.08224, -2.16554, -0.130921, 0.468391, -0.543856, 0.330169, -2.08156, -2.16013, -0.10307, -0.00879009, 0.039512, 0.00432181, 0.0094864, -0.00102653, -0.0153286
0.125186, 1.69474, -1.22928, -1.54576, -0.902409, -1.20547, 1.2261, -1.30244, 0.0467765, 0.00186178, -0.0248098, -0.0242988, -0.141394, -0.00998011, 0.001335, -0.920646, 69.2303, 35.0461, 8.26324, 2.2771, 4.43545, -0.0356336, -0.00284487, -0.00214256, 0.00559811, 0.0169856, -0.0090457, 0.00363256, 0.0446485, -0.0167866, -0.0116098, -0.111388, 0.161745, 0.0326568, 0.470647, -0.541836, 0.336049, -2.0822, -2.16553, -0.130947, 0.468406, -0.543863, 0.330142, -2.08155, -2.16018, -0.102598, -0.00892034, 0.0401615, 0.0044065, 0.00904165, -0.00140428, -0.01456
0.126186, 1.69479, -1.22927, -1.54577, -0.902429, -1.20561, 1.22609, -1.30244, 0.0443597, 0.00411748, -0.0190693, -0.0207368, -0.138936, -0.0118959, -5.94328e-05, -1.07537, 69.1193, 35.0858, 8.22754, 2.28351, 4.4208, -0.00999879, -0.00288672, -0.00212359, 0.00560057, 0.0170687, -0.00920063, 0.00363545, 0.0453547, -0.0156517, -0.00777775, -0.104552, 0.160917, 0.0323997, 0.470638, -0.541796, 0.336053, -2.08216, -2.16552, -0.130973, 0.468417, -0.543863, 0.330137, -2.08155, -2.16023, -0.102375, -0.00905105, 0.0408151, 0.00449209, 0.00794389, -0.00208921, -0.0107693
0.127186, 1.69483, -1.22927, -1.54578, -0.902454, -1.20575, 1.22609, -1.30244, 0.0446502, 0.00360738, -0.0155844, -0.0236552, -0.139132, -0.00720602, -0.000548246, -1.18645, 69.2303, 35.1572, 8.29895, 2.33844, 4.36404, 0.00373412, -0.00293128, -0.00210302, 0.00561001, 0.0171517, -0.00935426, 0.00363344, 0.044883, -0.0180508, -0.00684154, -0.0988905, 0.163629, 0.0377691, 0.470629, -0.541755, 0.336058, -2.08212, -2.16551, -0.131, 0.46843, -0.543864, 0.330125, -2.08154, -2.16028, -0.102155, -0.00918221, 0.0414729, 0.0045786, 0.0102263, -0.00101068, -0.00975957
0.128186, 1.69487, -1.22927, -1.54578, -0.902469, -1.20589, 1.22609, -1.30244, 0.0439731, 0.00689645, -0.0104552, -0.0228443, -0.13849, -0.00502354, -0.000365496, -1.26183, 69.1946, 35.1215, 8.26324, 2.37598, 4.34207, 0.00373412, -0.00297818, -0.00208599, 0.00560949, 0.0172228, -0.00951378, 0.00364692, 0.0448325, -0.0189316, -0.00273166, -0.0913347, 0.167725, 0.0391817, 0.47062, -0.541714, 0.336063, -2.08207, -2.1655, -0.131027, 0.46844, -0.543868, 0.330122, -2.08155, -2.16031, -0.10194, -0.00931381, 0.0421348, 0.00466602, 0.0111235, -0.000900168, -0.00563579
0.129186, 1.69493, -1.22927, -1.5458, -0.902493, -1.20602, 1.22608, -1.30244, 0.046341, 0.00435199, -0.0102442, -0.0228994, -0.141079, -0.00767337, 0.00168912, -1.45226, 69.2303, 35.2326, 8.37433, 2.38147, 4.31369, -0.0484509, -0.00302009, -0.00206114, 0.00561798, 0.0173066, -0.00966864, 0.00364519, 0.0448683, -0.0196855, -0.00448208, -0.0951611, 0.166803, 0.039183, 0.470611, -0.541671, 0.336067, -2.08203, -2.16549, -0.131055, 0.468456, -0.543864, 0.330111, -2.08154, -2.16036, -0.101718, -0.00944583, 0.0428008, 0.00475437, 0.0116822, 3.48274e-05, -0.00730592
0.130186, 1.69497, -1.22927, -1.5458, -0.902512, -1.20617, 1.22609, -1.30245, 0.0464382, 0.00548424, -0.0101284, -0.0210488, -0.139233, -0.00553766, -0.000806701, -1.45226, 69.27, 35.2326, 8.414, 2.39978, 4.29904, 0.00373412, -0.00307035, -0.00204359, 0.00562086, 0.017376, -0.0098306, 0.00365029, 0.0457819, -0.0200352, -0.00331619, -0.0913096, 0.167986, 0.0411973, 0.470601, -0.541629, 0.336072, -2.08198, -2.16548, -0.131083, 0.468466, -0.54387, 0.330104, -2.08154, -2.16041, -0.101504, -0.00957827, 0.043471, 0.00484363, 0.0119756, -0.000362541, -0.00622163
0.131186, 1.69502, -1.22927, -1.5458, -0.902523, -1.20631, 1.22609, -1.30244, 0.0512617, 0.00340831, -0.010341, -0.0208782, -0.136593, -0.00495777, 0.000208185, -1.63873, 69.3057, 35.2326, 8.37433, 2.38147, 4.31369, -0.0164075, -0.0031177, -0.00202129, 0.00562442, 0.0174476, -0.00999007, 0.0036617, 0.0441534, -0.023223, -0.00478134, -0.0904987, 0.164945, 0.0460234, 0.470592, -0.541585, 0.336077, -2.08194, -2.16548, -0.131111, 0.46848, -0.543871, 0.330097, -2.08155, -2.16045, -0.10129, -0.00971111, 0.0441452, 0.00493382, 0.0149139, 0.00228053, -0.00742158
0.132186, 1.69507, -1.22928, -1.5458, -0.902544, -1.20646, 1.22609, -1.30244, 0.0506786, 0.000114273, -0.00760152, -0.0173698, -0.138634, -0.00384778, -0.00155663, -1.78948, 69.4168, 35.2326, 8.44971, 2.34485, 4.31369, 0.0293689, -0.00316366, -0.0019966, 0.00563046, 0.0175218, -0.01015, 0.00365594, 0.0463855, -0.0227413, -0.00511218, -0.0865449, 0.164069, 0.0452453, 0.470582, -0.541541, 0.336082, -2.08189, -2.16547, -0.13114, 0.468497, -0.543871, 0.330088, -2.08154, -2.16051, -0.101075, -0.00984435, 0.0448234, 0.00502493, 0.0143693, 0.000788142, -0.00799461
0.133186, 1.69512, -1.22928, -1.5458, -0.902563, -1.20661, 1.22609, -1.30244, 0.0498126, -0.00126386, -0.00383509, -0.0176306, -0.141046, -0.0032434, 0.00113239, -1.94024, 69.4882, 35.1572, 8.52509, 2.32654, 4.32101, -0.0292249, -0.00321043, -0.00197171, 0.00563354, 0.0175936, -0.0103163, 0.00365848, 0.0472685, -0.0229599, -0.00450177, -0.0838389, 0.165457, 0.0433552, 0.470572, -0.541496, 0.336087, -2.08185, -2.16546, -0.131169, 0.468513, -0.54387, 0.330082, -2.08154, -2.16056, -0.100856, -0.00997797, 0.0455056, 0.00511696, 0.0145093, 0.000514026, -0.00744742
0.134186, 1.69516, -1.22929, -1.5458, -0.902576, -1.20677, 1.22609, -1.30244, 0.0468707, -0.0015228, -0.00388274, -0.016052, -0.146025, -0.00192495, 0.000754924, -1.97991, 69.5279, 35.1969, 8.52509, 2.2771, 4.30636, -0.0292249, -0.0032667, -0.00195492, 0.00563811, 0.0176679, -0.0104872, 0.00367971, 0.0508869, -0.0207334, -0.00413502, -0.0837869, 0.170396, 0.0381725, 0.470562, -0.541451, 0.336092, -2.0818, -2.16545, -0.131199, 0.468522, -0.543879, 0.330073, -2.08156, -2.1606, -0.100627, -0.010112, 0.0461918, 0.00520992, 0.0122979, -0.00252, -0.00749473
0.135186, 1.69522, -1.22929, -1.5458, -0.902594, -1.20693, 1.22609, -1.30244, 0.0514944, -0.00333501, -0.00288698, -0.0197844, -0.149291, -0.00205474, -0.000480061, -2.16637, 69.635, 35.1969, 8.60046, 2.22217, 4.32101, -0.00267457, -0.00331451, -0.00192855, 0.00564542, 0.0177452, -0.010651, 0.00367559, 0.0490307, -0.0240972, -0.00558993, -0.0870674, 0.172371, 0.0470787, 0.470552, -0.541404, 0.336097, -2.08175, -2.16543, -0.131229, 0.46854, -0.543877, 0.330063, -2.08155, -2.16065, -0.100406, -0.0102463, 0.0468819, 0.00530381, 0.0154024, 0.000370135, -0.00865064
0.136186, 1.69526, -1.2293, -1.5458, -0.902607, -1.20709, 1.22608, -1.30244, 0.0513461, -0.00468241, -0.00214852, -0.0208569, -0.154452, -0.00127024, -0.0005574, -2.20605, 69.7461, 35.1969, 8.60046, 2.21576, 4.31369, 0.00373412, -0.00337157, -0.00191097, 0.00565129, 0.0178236, -0.0108227, 0.00369281, 0.0505554, -0.0240793, -0.00615111, -0.088636, 0.176418, 0.047023, 0.470542, -0.541358, 0.336102, -2.0817, -2.16542, -0.131259, 0.468549, -0.543885, 0.330053, -2.08157, -2.16069, -0.100174, -0.010381, 0.047576, 0.00539863, 0.0152855, -0.00035273, -0.00935108
0.137186, 1.69532, -1.22931, -1.54579, -0.90262, -1.20726, 1.22609, -1.30244, 0.0502861, -0.00478031, 0.000162988, -0.0193241, -0.15763, -0.00124686, 0.00156118, -2.47185, 69.8215, 35.1215, 8.63617, 2.19745, 4.32101, -0.0484509, -0.00342167, -0.00188286, 0.00565343, 0.0178957, -0.0110028, 0.00369546, 0.0523455, -0.0233094, -0.00508319, -0.0870764, 0.179357, 0.0429544, 0.470531, -0.54131, 0.336108, -2.08165, -2.16541, -0.13129, 0.468568, -0.543885, 0.330047, -2.08157, -2.16075, -0.0999417, -0.0105161, 0.048274, 0.00549438, 0.014487, -0.00161894, -0.00846138
0.138186, 1.69537, -1.22932, -1.5458, -0.902632, -1.20742, 1.22609, -1.30245, 0.0477384, -0.00830538, -1.72671e-05, -0.0173509, -0.160161, -0.000656541, -0.000891993, -2.54723, 70.0436, 35.1215, 8.63617, 2.17914, 4.31369, 0.00373412, -0.00348029, -0.00186245, 0.00566401, 0.0179734, -0.0111721, 0.00370439, 0.0556874, -0.0213954, -0.0067304, -0.0868033, 0.178657, 0.0407285, 0.470521, -0.541262, 0.336113, -2.0816, -2.1654, -0.131321, 0.46858, -0.543892, 0.330032, -2.08158, -2.1608, -0.0997142, -0.0106515, 0.0489759, 0.00559107, 0.0125025, -0.00403741, -0.0104599
0.139186, 1.69542, -1.22932, -1.54579, -0.902648, -1.20759, 1.22609, -1.30244, 0.047593, -0.0045501, 0.000729262, -0.0178179, -0.161868, -0.00078139, -0.000357303, -2.54723, 70.004, 35.0858, 8.71155, 2.16724, 4.32101, -0.00267457, -0.00353771, -0.001843, 0.00566301, 0.0180509, -0.0113621, 0.0037232, 0.0561587, -0.0213769, -0.00428268, -0.0868063, 0.184463, 0.0405454, 0.47051, -0.541213, 0.336119, -2.08155, -2.16539, -0.131353, 0.468591, -0.543898, 0.330029, -2.0816, -2.16084, -0.0994653, -0.0107872, 0.0496816, 0.00568869, 0.0124564, -0.00417797, -0.00802244
0.140186, 1.69547, -1.22933, -1.5458, -0.902665, -1.20777, 1.22608, -1.30244, 0.0534193, -0.00391732, -0.000419876, -0.0179621, -0.162656, -0.00030398, 0.00121986, -2.65832, 70.0436, 35.1215, 8.78693, 2.13611, 4.31369, -0.0420422, -0.00359435, -0.00182065, 0.00566883, 0.0181371, -0.0115465, 0.00373571, 0.0546441, -0.0245778, -0.00457054, -0.0885416, 0.187049, 0.0444284, 0.470499, -0.541163, 0.336125, -2.0815, -2.16538, -0.131385, 0.468604, -0.543903, 0.330019, -2.08161, -2.16089, -0.0992135, -0.0109232, 0.0503911, 0.00578725, 0.0154518, -0.0017937, -0.0080706
0.141186, 1.69552, -1.22933, -1.5458, -0.902688, -1.20794, 1.22609, -1.30244, 0.052897, -0.00508412, -0.00209628, -0.0197652, -0.162963, -0.000243394, 0.00155923, -2.69799, 70.1508, 35.1969, 8.93372, 2.09308, 4.31369, -0.0621838, -0.00365225, -0.00179802, 0.00567777, 0.0182224, -0.0117286, 0.00374627, 0.055589, -0.0244931, -0.0060392, -0.0908599, 0.187165, 0.0446907, 0.470489, -0.541113, 0.33613, -2.08145, -2.16537, -0.131418, 0.468618, -0.543907, 0.330006, -2.08161, -2.16093, -0.0989657, -0.0110595, 0.0511045, 0.00588674, 0.0152123, -0.00178606, -0.00956961
0.142186, 1.69557, -1.22934, -1.5458, -0.902698, -1.2081, 1.22609, -1.30244, 0.0535978, -0.00596306, -0.00143736, -0.0164994, -0.16237, -0.000192819, -0.000418578, -2.77337, 70.2618, 35.1969, 8.89801, 2.03815, 4.31369, -0.0228162, -0.00371205, -0.00177623, 0.0056844, 0.018296, -0.0119028, 0.00375996, 0.0568023, -0.0244755, -0.00588096, -0.0885117, 0.186246, 0.0454321, 0.470477, -0.541062, 0.336136, -2.0814, -2.16536, -0.13145, 0.46863, -0.543912, 0.329996, -2.08162, -2.16098, -0.0987388, -0.0111962, 0.0518216, 0.00598718, 0.0151092, -0.00229048, -0.00950624
0.143186, 1.69562, -1.22934, -1.54579, -0.902721, -1.20826, 1.22609, -1.30244, 0.0512201, -0.00135831, 0.000775112, -0.0178191, -0.158741, -0.00042273, -0.00075377, -2.7337, 70.1508, 35.1215, 9.00909, 2.00702, 4.32101, -0.00999879, -0.00376722, -0.00175297, 0.00567984, 0.0183668, -0.0120932, 0.0037645, 0.0565786, -0.0242258, -0.00244915, -0.0848262, 0.188365, 0.0471187, 0.470466, -0.54101, 0.336142, -2.08134, -2.16535, -0.131484, 0.468644, -0.543914, 0.329997, -2.08163, -2.16104, -0.0984999, -0.0113331, 0.0525425, 0.00608855, 0.0148421, -0.00189372, -0.00597758
0.144186, 1.69567, -1.22934, -1.5458, -0.902739, -1.20842, 1.22608, -1.30244, 0.0477266, -0.000891588, 0.000494329, -0.017074, -0.159642, -0.000570275, 0.000684281, -2.7337, 70.1508, 35.1215, 9.04877, 1.95209, 4.32834, -0.0420422, -0.00382648, -0.00173273, 0.00568239, 0.0184464, -0.0122747, 0.00378147, 0.0592591, -0.0220136, -0.00196529, -0.0845752, 0.190072, 0.041533, 0.470455, -0.540957, 0.336148, -2.08129, -2.16533, -0.131518, 0.468655, -0.543919, 0.32999, -2.08164, -2.16108, -0.0982596, -0.0114702, 0.0532671, 0.00619087, 0.0126127, -0.00398166, -0.00575493
0.145186, 1.69571, -1.22935, -1.5458, -0.902769, -1.20858, 1.22608, -1.30243, 0.0468864, -0.00735763, 0.000312744, -0.0190686, -0.161205, -0.000393074, 0.00191425, -2.80907, 70.3015, 35.1215, 9.19556, 1.91546, 4.32834, -0.0814099, -0.00388323, -0.00170687, 0.00569197, 0.018526, -0.0124503, 0.00378556, 0.0607375, -0.0220373, -0.0060342, -0.0865641, 0.185929, 0.0412004, 0.470443, -0.540904, 0.336154, -2.08123, -2.16532, -0.131552, 0.468671, -0.543919, 0.329977, -2.08164, -2.16113, -0.0980271, -0.0116077, 0.0539954, 0.00629413, 0.0124041, -0.00407475, -0.0099046
0.146186, 1.69576, -1.22933, -1.5458, -0.902789, -1.20874, 1.22608, -1.30244, 0.0404364, -0.000806145, 0.000195889, -0.0197592, -0.159468, -0.00105161, -0.000181896, -2.77337, 70.1151, 35.1215, 9.19556, 1.92737, 4.34939, -0.0420422, -0.00394365, -0.00168867, 0.0056861, 0.0186022, -0.0126436, 0.0037974, 0.0631477, -0.0186069, -0.0019964, -0.0850969, 0.19125, 0.0382787, 0.470432, -0.54085, 0.336161, -2.08118, -2.16531, -0.131586, 0.46868, -0.543924, 0.329979, -2.08165, -2.16119, -0.0977798, -0.0117453, 0.0547273, 0.00639834, 0.00907906, -0.00649484, -0.00609268
0.147186, 1.6958, -1.22934, -1.5458, -0.902826, -1.2089, 1.22607, -1.30244, 0.0427986, -0.000734495, -0.00071408, -0.0251303, -0.156014, -0.00203075, -0.000833341, -2.77337, 70.1151, 35.1572, 9.38202, 1.89624, 4.3851, -0.0228162, -0.00400111, -0.00166608, 0.00569248, 0.0186894, -0.0128237, 0.00379623, 0.060665, -0.0212964, -0.00322197, -0.0879002, 0.189398, 0.0470941, 0.47042, -0.540795, 0.336167, -2.08112, -2.1653, -0.131621, 0.468693, -0.543924, 0.329969, -2.08164, -2.16125, -0.0975357, -0.0118833, 0.0554629, 0.00650349, 0.0114918, -0.00300355, -0.00689187
0.148186, 1.69584, -1.22933, -1.5458, -0.902848, -1.20906, 1.22607, -1.30243, 0.0415258, 0.000197756, -0.000483145, -0.0234637, -0.155266, -0.00217308, 0.00113986, -2.77337, 70.0793, 35.1572, 9.34631, 1.90265, 4.40707, -0.0685925, -0.00406262, -0.00164518, 0.00569351, 0.0187665, -0.0130099, 0.00381316, 0.0621757, -0.020399, -0.00228063, -0.0862819, 0.190207, 0.0431418, 0.470408, -0.54074, 0.336174, -2.08106, -2.16528, -0.131657, 0.468704, -0.543928, 0.329964, -2.08165, -2.16129, -0.097295, -0.0120214, 0.0562022, 0.00660959, 0.0105488, -0.00393883, -0.00607061
0.149186, 1.69588, -1.22932, -1.5458, -0.902883, -1.20922, 1.22607, -1.30243, 0.043545, 0.00345466, 0.000507803, -0.0283981, -0.154562, -0.00659271, 0.00147198, -2.77337, 69.9326, 35.1215, 9.42169, 1.90906, 4.4208, -0.0878186, -0.00412316, -0.00162595, 0.00569022, 0.0188465, -0.0132041, 0.00382329, 0.0594828, -0.0221371, -0.00116005, -0.0911332, 0.191915, 0.0501188, 0.470396, -0.540684, 0.33618, -2.08101, -2.16527, -0.131692, 0.468714, -0.543931, 0.329964, -2.08166, -2.16134, -0.0970441, -0.0121598, 0.056945, 0.00671664, 0.0120897, -0.000639542, -0.0044897
0.150186, 1.69592, -1.22933, -1.5458, -0.902919, -1.20937, 1.22606, -1.30243, 0.043679, -0.0012137, -0.000500672, -0.0278941, -0.153906, -0.0101794, 0.000269246, -2.84875, 70.0793, 35.1572, 9.4574, 1.92096, 4.44278, -0.0685925, -0.00418433, -0.00160368, 0.00569976, 0.0189311, -0.0133796, 0.00382471, 0.0604662, -0.0215262, -0.0044968, -0.0949089, 0.185735, 0.0512497, 0.470384, -0.540627, 0.336187, -2.08095, -2.16526, -0.131729, 0.468726, -0.543932, 0.329951, -2.08164, -2.1614, -0.0968085, -0.0122984, 0.0576914, 0.00682465, 0.011255, -0.000366174, -0.00781484
0.151186, 1.69595, -1.22933, -1.5458, -0.902958, -1.20953, 1.22606, -1.30243, 0.0386066, 0.00172697, -0.000336773, -0.0343515, -0.152915, -0.0074598, -5.78618e-05, -2.84875, 69.9683, 35.1572, 9.53278, 1.91546, 4.44278, -0.0621838, -0.00424553, -0.0015834, 0.00570082, 0.0190134, -0.013568, 0.00383226, 0.0613533, -0.020818, -0.0030776, -0.0938265, 0.190339, 0.0530056, 0.470372, -0.540569, 0.336194, -2.08089, -2.16524, -0.131765, 0.468736, -0.543933, 0.329946, -2.08164, -2.16145, -0.0965621, -0.0124372, 0.0584414, 0.0069336, 0.0104951, -0.000742137, -0.00642682
0.152186, 1.69598, -1.22932, -1.5458, -0.902995, -1.20968, 1.22606, -1.30243, 0.0342551, 0.00193977, -0.000226759, -0.0339403, -0.152269, -0.00963094, 0.000673502, -2.80907, 69.9326, 35.1572, 9.4931, 1.91546, 4.42813, -0.0814099, -0.00431043, -0.00156566, 0.00570234, 0.0190899, -0.0137526, 0.00384677, 0.0637722, -0.0180752, -0.00278991, -0.0943145, 0.189507, 0.0482659, 0.470359, -0.54051, 0.336201, -2.08083, -2.16523, -0.131802, 0.468743, -0.543937, 0.32994, -2.08165, -2.16149, -0.0963257, -0.0125762, 0.0591949, 0.00704351, 0.00771782, -0.00253498, -0.00633402
0.153186, 1.69601, -1.22933, -1.5458, -0.903035, -1.20983, 1.22605, -1.30243, 0.0319645, 0.000422886, 0.000682363, -0.0328063, -0.155833, -0.00746202, 0.00068636, -2.80907, 69.9683, 35.1215, 9.42169, 1.92096, 4.43545, -0.0878186, -0.00437501, -0.0015487, 0.00570694, 0.0191703, -0.0139281, 0.0038568, 0.0667689, -0.0168277, -0.00285917, -0.0924173, 0.19252, 0.0447165, 0.470347, -0.540451, 0.336208, -2.08077, -2.16522, -0.13184, 0.46875, -0.54394, 0.329932, -2.08164, -2.16154, -0.0960951, -0.0127154, 0.0599519, 0.00715437, 0.00644187, -0.00477562, -0.00673007
0.154186, 1.69604, -1.22933, -1.5458, -0.903084, -1.20998, 1.22604, -1.30242, 0.0289034, 0.000255619, 0.000453646, -0.0413229, -0.156125, -0.00949925, 0.00144092, -2.88445, 69.9683, 35.1215, 9.4574, 1.96399, 4.4144, -0.114369, -0.00443775, -0.00152835, 0.00571428, 0.0192595, -0.0141098, 0.00386056, 0.0662966, -0.0166781, -0.00421141, -0.0979395, 0.193038, 0.0486079, 0.470334, -0.540391, 0.336215, -2.0807, -2.1652, -0.131878, 0.468759, -0.54394, 0.329921, -2.08163, -2.16159, -0.0958497, -0.0128547, 0.0607124, 0.00726618, 0.00608685, -0.0033424, -0.00787753
0.155186, 1.69607, -1.22932, -1.5458, -0.903132, -1.21014, 1.22603, -1.30242, 0.0287345, 0.00274914, -0.000533734, -0.0423609, -0.154573, -0.00715993, 0.00119797, -2.92413, 69.8572, 35.1572, 9.42169, 1.96399, 4.4144, -0.120778, -0.00450256, -0.00151161, 0.00571544, 0.0193463, -0.0142978, 0.00387177, 0.0667555, -0.0173092, -0.00300371, -0.0961656, 0.196343, 0.0500139, 0.470321, -0.540331, 0.336222, -2.08064, -2.16519, -0.131916, 0.468766, -0.543942, 0.329916, -2.08163, -2.16163, -0.0956, -0.0129943, 0.0614763, 0.00737895, 0.00664057, -0.00319257, -0.00666868
0.156186, 1.69609, -1.22932, -1.5458, -0.903181, -1.21029, 1.22602, -1.30242, 0.0274776, 0.0034884, 0.000478686, -0.0451772, -0.154344, -0.00950406, 0.00353891, -2.92413, 69.7858, 35.1215, 9.34631, 1.98871, 4.39975, -0.0685925, -0.00456911, -0.00149717, 0.00571548, 0.0194314, -0.0144855, 0.00387652, 0.0666971, -0.017106, -0.00271561, -0.0981247, 0.196679, 0.049831, 0.470308, -0.540269, 0.33623, -2.08058, -2.16517, -0.131955, 0.46877, -0.543945, 0.329913, -2.08162, -2.16169, -0.0953537, -0.0131339, 0.0622436, 0.00749268, 0.00630782, -0.00242014, -0.00625911
0.157186, 1.69611, -1.22931, -1.5458, -0.903243, -1.21044, 1.22601, -1.30242, 0.0244669, 0.00324252, -0.000516627, -0.051476, -0.153636, -0.0163782, 0.00322341, -2.95983, 69.7461, 35.1572, 9.42169, 2.00061, 4.39975, -0.0814099, -0.00463414, -0.00148124, 0.00572176, 0.019528, -0.0146692, 0.00388265, 0.066336, -0.0155731, -0.00449907, -0.10703, 0.193748, 0.0528118, 0.470295, -0.540207, 0.336237, -2.08051, -2.16516, -0.131994, 0.468774, -0.543945, 0.329903, -2.0816, -2.16173, -0.0950991, -0.0132738, 0.0630144, 0.00760737, 0.004559, -0.00107699, -0.00780423
0.158186, 1.69613, -1.2293, -1.54579, -0.903299, -1.21059, 1.226, -1.30241, 0.0212276, 0.00558703, 0.00132562, -0.0492341, -0.14816, -0.0164806, 0.00366171, -2.95983, 69.5993, 35.0858, 9.34631, 2.00061, 4.3851, -0.114369, -0.00470027, -0.001467, 0.00571941, 0.0196125, -0.0148583, 0.00389371, 0.0675291, -0.0142462, -0.00199544, -0.101073, 0.191881, 0.0502555, 0.470282, -0.540144, 0.336245, -2.08045, -2.16514, -0.132034, 0.468778, -0.543947, 0.329902, -2.0816, -2.16178, -0.0948522, -0.0134137, 0.0637885, 0.00772302, 0.00323231, -0.00192767, -0.00536953
0.159186, 1.69614, -1.2293, -1.54579, -0.90336, -1.21074, 1.22598, -1.30241, 0.0189659, 0.00538888, 0.00181147, -0.0528199, -0.149733, -0.0160693, 0.00242283, -2.95983, 69.5279, 35.0461, 9.34631, 2.03174, 4.35672, -0.10796, -0.00476832, -0.00145441, 0.00572101, 0.0197004, -0.0150422, 0.00390333, 0.0685355, -0.0138754, -0.00225516, -0.102252, 0.194166, 0.0525415, 0.470268, -0.54008, 0.336252, -2.08038, -2.16513, -0.132074, 0.468779, -0.543949, 0.329897, -2.08159, -2.16182, -0.0946076, -0.0135538, 0.064566, 0.00783963, 0.0027508, -0.00211693, -0.00566122
0.160186, 1.69615, -1.22929, -1.54579, -0.903427, -1.21088, 1.22597, -1.30241, 0.019016, 0.00618636, 0.0002794, -0.0569111, -0.145239, -0.0213168, 0.000558803, -3.03521, 69.4168, 35.0858, 9.30664, 2.03815, 4.34939, -0.0750012, -0.00483436, -0.00143925, 0.00572452, 0.0197955, -0.0152275, 0.0039047, 0.066918, -0.0141832, -0.00334785, -0.1078, 0.189926, 0.0591513, 0.470255, -0.540016, 0.33626, -2.08032, -2.16511, -0.132115, 0.468783, -0.543948, 0.32989, -2.08156, -2.16187, -0.0943547, -0.013694, 0.0653468, 0.00795721, 0.00281901, 0.000445573, -0.00637969
0.161186, 1.69616, -1.22928, -1.54579, -0.903497, -1.21102, 1.22595, -1.30241, 0.0132363, 0.0075544, 0.00194934, -0.0600739, -0.141687, -0.0150496, 0.00617792, -2.9995, 69.27, 35.0104, 9.27094, 2.03815, 4.32101, -0.101552, -0.00490272, -0.00142779, 0.00572458, 0.0198834, -0.0154119, 0.00391369, 0.0688163, -0.0135804, -0.00154383, -0.0995542, 0.192283, 0.0530306, 0.470241, -0.53995, 0.336268, -2.08025, -2.1651, -0.132156, 0.468784, -0.543949, 0.329886, -2.08155, -2.16192, -0.0941104, -0.0138343, 0.0661309, 0.00807574, 0.00221537, -0.000950815, -0.004767
0.162186, 1.69616, -1.22927, -1.54578, -0.903572, -1.21117, 1.22593, -1.3024, 0.00810658, 0.00679687, 0.00306267, -0.0672309, -0.144654, -0.0148328, 0.00507731, -2.92413, 69.1946, 34.9351, 9.27094, 2.06195, 4.28531, -0.114369, -0.00497426, -0.00141947, 0.00572782, 0.0199787, -0.0155971, 0.00392644, 0.070226, -0.012325, -0.00226841, -0.102287, 0.195237, 0.0553305, 0.470227, -0.539884, 0.336276, -2.08018, -2.16508, -0.132197, 0.468781, -0.543952, 0.329879, -2.08154, -2.16196, -0.0938573, -0.0139747, 0.0669183, 0.00819524, 0.000847963, -0.00149259, -0.00555149
0.163186, 1.69617, -1.22926, -1.54578, -0.903645, -1.21132, 1.22592, -1.3024, 0.00878707, 0.00972619, 0.00204168, -0.0702989, -0.142137, -0.01487, 0.00398522, -3.03521, 68.9725, 34.9351, 9.19556, 2.08118, 4.25601, -0.120778, -0.00504198, -0.00140615, 0.00572682, 0.020074, -0.01579, 0.00393236, 0.0692689, -0.013547, -0.00135616, -0.103196, 0.197241, 0.0604781, 0.470213, -0.539817, 0.336284, -2.08012, -2.16506, -0.132239, 0.468782, -0.543952, 0.329877, -2.08152, -2.16201, -0.0935973, -0.0141153, 0.067709, 0.00831571, 0.00192781, 0.000152092, -0.00442132
0.164186, 1.69616, -1.22925, -1.54578, -0.903726, -1.21146, 1.22589, -1.3024, 0.00468297, 0.00731786, 0.00312429, -0.0739646, -0.144874, -0.0196183, 0.00580629, -2.95983, 68.9368, 34.8597, 9.19556, 2.09949, 4.22763, -0.0750012, -0.00511492, -0.00139995, 0.00573034, 0.0201721, -0.0159733, 0.00393605, 0.0708598, -0.0112213, -0.00306354, -0.108796, 0.19566, 0.0578528, 0.470199, -0.539749, 0.336293, -2.08005, -2.16505, -0.132281, 0.468777, -0.543955, 0.32987, -2.0815, -2.16205, -0.0933448, -0.0142558, 0.0685029, 0.00843714, -0.000538369, -0.000452866, -0.00616963
0.165186, 1.69616, -1.22924, -1.54577, -0.903808, -1.21161, 1.22587, -1.30239, 0.00356311, 0.00914635, 0.00570129, -0.076618, -0.142247, -0.0244815, 0.00469346, -2.95983, 68.7543, 34.824, 9.15985, 2.1297, 4.22763, -0.0814099, -0.00518665, -0.0013924, 0.00572983, 0.020275, -0.0161682, 0.00394885, 0.0696615, -0.0111271, -0.00179961, -0.110316, 0.193746, 0.0625984, 0.470185, -0.539681, 0.336301, -2.07998, -2.16503, -0.132324, 0.468773, -0.543956, 0.329867, -2.08148, -2.16209, -0.0930746, -0.0143965, 0.0692999, 0.00855954, -0.000768936, 0.00132501, -0.00461151
0.166186, 1.69615, -1.22922, -1.54577, -0.903894, -1.21176, 1.22585, -1.30238, -0.00217463, 0.0112936, 0.00486797, -0.0813554, -0.140864, -0.0217521, 0.00502596, -2.88445, 68.5321, 34.7883, 9.12018, 2.16724, 4.19192, -0.120778, -0.00526075, -0.0013872, 0.00572859, 0.0203776, -0.0163652, 0.00396744, 0.0716046, -0.00953824, -0.000930584, -0.109055, 0.197172, 0.0612135, 0.47017, -0.539612, 0.33631, -2.0799, -2.16502, -0.132367, 0.468767, -0.54396, 0.329865, -2.08147, -2.16213, -0.0928024, -0.0145372, 0.0701002, 0.0086829, -0.00239021, 5.13039e-06, -0.00389425
0.167186, 1.69615, -1.22921, -1.54577, -0.903992, -1.21191, 1.22582, -1.30238, -0.000533402, 0.0141477, 0.0017488, -0.0848711, -0.143253, -0.0205616, 0.00837681, -2.92413, 68.3853, 34.8597, 9.19556, 2.17273, 4.17727, -0.120778, -0.00532995, -0.00137709, 0.00573663, 0.0204959, -0.0165517, 0.003963, 0.0716431, -0.0106949, -0.000783092, -0.113335, 0.204009, 0.0606427, 0.470156, -0.539541, 0.336318, -2.07983, -2.165, -0.132411, 0.468764, -0.543956, 0.329854, -2.08143, -2.16217, -0.0925265, -0.014678, 0.0709037, 0.00880724, -0.00136733, 0.000797713, -0.00367108
0.168186, 1.69613, -1.2292, -1.54577, -0.904077, -1.21205, 1.2258, -1.30238, -0.00526223, 0.0131304, 0.00296675, -0.0816078, -0.140921, -0.0242668, 0.00452743, -2.84875, 68.2385, 34.7883, 9.04877, 2.19104, 4.16354, -0.0750012, -0.00540684, -0.00137362, 0.00573597, 0.020593, -0.0167425, 0.0039766, 0.074515, -0.00722726, -0.000560773, -0.11213, 0.199452, 0.0587129, 0.470141, -0.539471, 0.336327, -2.07976, -2.16498, -0.132455, 0.468756, -0.54396, 0.329851, -2.08141, -2.16221, -0.0922682, -0.0148189, 0.0717102, 0.00893254, -0.00485436, -0.00141071, -0.00367977
0.169186, 1.69613, -1.22919, -1.54576, -0.904169, -1.21219, 1.22577, -1.30237, -0.00766257, 0.0115508, 0.0038389, -0.0867515, -0.139464, -0.0227448, 0.00349702, -2.80907, 68.1274, 34.7129, 8.97339, 2.21576, 4.15622, -0.0750012, -0.0054795, -0.00136684, 0.00573971, 0.0206981, -0.0169238, 0.00398222, 0.0747209, -0.00776938, -0.0016356, -0.111417, 0.198568, 0.063272, 0.470126, -0.539399, 0.336336, -2.07969, -2.16496, -0.132499, 0.468751, -0.543959, 0.329844, -2.08138, -2.16225, -0.0920122, -0.0149597, 0.0725199, 0.00905882, -0.00448465, -0.000610628, -0.00466868
0.170186, 1.69611, -1.22917, -1.54576, -0.904264, -1.21233, 1.22574, -1.30236, -0.00873124, 0.0130465, 0.00263264, -0.087799, -0.137657, -0.0250523, 0.00414846, -2.80907, 67.9053, 34.7129, 8.85834, 2.23407, 4.12692, -0.114369, -0.00555319, -0.00136024, 0.00573902, 0.0208028, -0.0171179, 0.00399319, 0.0752317, -0.00704566, -0.00145504, -0.113681, 0.198391, 0.0628611, 0.470112, -0.539326, 0.336345, -2.07961, -2.16495, -0.132544, 0.468745, -0.543959, 0.329842, -2.08136, -2.16229, -0.0917432, -0.0151006, 0.0733327, 0.00918606, -0.00532076, -0.000359972, -0.00442705
0.171186, 1.69609, -1.22916, -1.54576, -0.904366, -1.21247, 1.22571, -1.30236, -0.0121287, 0.0155545, 0.00181013, -0.0923959, -0.131808, -0.0273131, 0.00846839, -2.69799, 67.7585, 34.7129, 8.78693, 2.24689, 4.09854, -0.133595, -0.00562902, -0.00135701, 0.00574157, 0.0209099, -0.0173042, 0.00400335, 0.0747643, -0.00632363, -0.000932024, -0.114886, 0.196174, 0.0611014, 0.470096, -0.539253, 0.336354, -2.07954, -2.16493, -0.132589, 0.468736, -0.543959, 0.329836, -2.08133, -2.16233, -0.0914801, -0.0152415, 0.0741485, 0.00931428, -0.00617874, 0.000804951, -0.0036911
0.172187, 1.69608, -1.22915, -1.54575, -0.904469, -1.2126, 1.22568, -1.30235, -0.00972301, 0.0133279, 0.00301126, -0.0939323, -0.131637, -0.0242588, 0.00552893, -2.65832, 67.6474, 34.6375, 8.74725, 2.24689, 4.07016, -0.114369, -0.0057016, -0.00134972, 0.00574485, 0.0210136, -0.017484, 0.00400354, 0.0743201, -0.00897028, -0.00189047, -0.112251, 0.196296, 0.0689158, 0.470081, -0.539179, 0.336364, -2.07946, -2.16491, -0.132635, 0.46873, -0.543955, 0.32983, -2.08129, -2.16237, -0.0912289, -0.0153825, 0.0749674, 0.00944347, -0.00372738, 0.00232741, -0.00452445
0.173187, 1.69606, -1.22913, -1.54574, -0.904568, -1.21274, 1.22565, -1.30235, -0.0117945, 0.014352, 0.0038017, -0.0947023, -0.132454, -0.0219417, 0.00689671, -2.58294, 67.4252, 34.5621, 8.60046, 2.27161, 4.04086, -0.0621838, -0.0057769, -0.00134551, 0.00574388, 0.0211183, -0.0176717, 0.00400797, 0.0759893, -0.00854203, -0.000783573, -0.109715, 0.199915, 0.0667004, 0.470066, -0.539104, 0.336373, -2.07939, -2.16489, -0.132681, 0.468722, -0.543954, 0.329828, -2.08126, -2.16241, -0.0909686, -0.0155234, 0.0757893, 0.00957364, -0.00419047, 0.00131086, -0.00355961
0.174187, 1.69605, -1.22912, -1.54574, -0.904676, -1.21287, 1.22561, -1.30234, -0.0116178, 0.0132041, 0.0033929, -0.0969026, -0.132236, -0.0255059, 0.00532414, -2.58294, 67.2784, 34.5264, 8.52509, 2.2771, 4.02713, -0.0621838, -0.00584961, -0.00133776, 0.00574809, 0.0212289, -0.0178537, 0.00400892, 0.0758849, -0.00855775, -0.00221342, -0.114083, 0.197881, 0.0706643, 0.47005, -0.539028, 0.336383, -2.07931, -2.16487, -0.132728, 0.468717, -0.543949, 0.329821, -2.08121, -2.16245, -0.0907084, -0.0156643, 0.0766142, 0.00970477, -0.00437137, 0.00246637, -0.00482864
0.175187, 1.69602, -1.22911, -1.54573, -0.904783, -1.213, 1.22558, -1.30233, -0.0165909, 0.0146181, 0.00227935, -0.0996804, -0.127773, -0.0316974, 0.00898633, -2.50756, 67.1674, 34.5264, 8.44971, 2.29541, 3.99783, -0.0685925, -0.00592597, -0.00133436, 0.00575001, 0.0213356, -0.0180355, 0.00401522, 0.0766917, -0.00562491, -0.00243349, -0.118606, 0.19355, 0.0657871, 0.470035, -0.538951, 0.336392, -2.07923, -2.16485, -0.132775, 0.468707, -0.543947, 0.329816, -2.08117, -2.16249, -0.0904525, -0.0158053, 0.0774421, 0.00983689, -0.00741734, 0.00240892, -0.00495627
0.176187, 1.696, -1.22909, -1.54573, -0.904884, -1.21312, 1.22554, -1.30232, -0.0191998, 0.0159905, 0.00536033, -0.0987542, -0.125125, -0.0330018, 0.00800806, -2.47185, 67.0602, 34.4867, 8.26324, 2.32654, 3.9841, -0.101552, -0.00600381, -0.00133209, 0.00575104, 0.0214384, -0.0182129, 0.00402724, 0.0775405, -0.00464326, -0.000384088, -0.114708, 0.192535, 0.066085, 0.470019, -0.538874, 0.336402, -2.07915, -2.16483, -0.132822, 0.468697, -0.543945, 0.329812, -2.08114, -2.16252, -0.0902054, -0.0159461, 0.0782729, 0.00996998, -0.00842793, 0.00203781, -0.00291115
0.177187, 1.69597, -1.22908, -1.54572, -0.904996, -1.21324, 1.2255, -1.30232, -0.0200018, 0.0153584, 0.00642344, -0.101252, -0.127229, -0.0385489, 0.00863509, -2.3568, 67.0206, 34.3757, 8.18787, 2.34485, 3.96945, -0.0484509, -0.00607989, -0.00133016, 0.00575232, 0.0215409, -0.0183839, 0.00402595, 0.077691, -0.00380062, -0.00113935, -0.120507, 0.191859, 0.0670257, 0.470003, -0.538796, 0.336412, -2.07907, -2.16481, -0.13287, 0.468685, -0.543941, 0.329809, -2.08109, -2.16255, -0.0899669, -0.016087, 0.0791067, 0.010104, -0.00943104, 0.00280752, -0.00352563
0.178187, 1.69595, -1.22907, -1.54571, -0.905108, -1.21336, 1.22547, -1.30231, -0.0208959, 0.0141322, 0.00447087, -0.105092, -0.123691, -0.0418986, 0.0115599, -2.3568, 67.0206, 34.3757, 8.07678, 2.35675, 3.93374, -0.0557752, -0.00615608, -0.00132574, 0.00575796, 0.021649, -0.0185542, 0.0040264, 0.0772852, -0.00371895, -0.00333296, -0.125074, 0.187389, 0.0672521, 0.469987, -0.538717, 0.336422, -2.07899, -2.16479, -0.132919, 0.468676, -0.543936, 0.3298, -2.08104, -2.16259, -0.0897234, -0.0162278, 0.0799433, 0.0102391, -0.00974915, 0.00438896, -0.00549341
0.179187, 1.69592, -1.22906, -1.5457, -0.905223, -1.21348, 1.22543, -1.3023, -0.0225753, 0.0133538, 0.00395723, -0.110141, -0.126018, -0.0394276, 0.00896286, -2.3211, 67.0206, 34.34, 7.9657, 2.36957, 3.89804, -0.0621838, -0.00623413, -0.00132257, 0.00576119, 0.0217522, -0.0187289, 0.00403078, 0.0782915, -0.00412596, -0.00434771, -0.126501, 0.190995, 0.0720779, 0.469971, -0.538637, 0.336433, -2.07891, -2.16477, -0.132968, 0.468666, -0.543932, 0.329795, -2.08099, -2.16262, -0.0894806, -0.0163686, 0.0807828, 0.0103751, -0.00948212, 0.00441518, -0.00653758
0.180188, 1.69589, -1.22904, -1.5457, -0.905339, -1.2136, 1.22539, -1.3023, -0.0198551, 0.0163903, 0.00274423, -0.108831, -0.122839, -0.0381756, 0.00745148, -2.3211, 67.0206, 34.34, 7.85065, 2.37598, 3.87607, -0.0814099, -0.00631124, -0.001319, 0.0057641, 0.0218592, -0.0189024, 0.00403225, 0.0778079, -0.00578646, -0.00284195, -0.124381, 0.192933, 0.0759573, 0.469954, -0.538556, 0.336443, -2.07883, -2.16475, -0.133017, 0.468656, -0.543926, 0.329789, -2.08094, -2.16266, -0.0892357, -0.0165093, 0.0816252, 0.0105121, -0.00792412, 0.00556906, -0.00489533
0.181188, 1.69586, -1.22902, -1.54569, -0.905455, -1.21372, 1.22535, -1.3023, -0.0241555, 0.0161914, 0.00553153, -0.10845, -0.120268, -0.0322425, 0.00337063, -2.3211, 66.9849, 34.3043, 7.66418, 2.37598, 3.84036, -0.0228162, -0.00638951, -0.00131604, 0.0057631, 0.0219609, -0.0190811, 0.00402567, 0.0802254, -0.00527483, -0.00118955, -0.114657, 0.193978, 0.0781446, 0.469938, -0.538474, 0.336454, -2.07875, -2.16473, -0.133067, 0.468646, -0.543921, 0.329788, -2.08088, -2.16271, -0.0889926, -0.01665, 0.0824704, 0.0106501, -0.0084208, 0.00374732, -0.003503
0.182188, 1.69582, -1.22901, -1.54568, -0.905585, -1.21383, 1.22531, -1.30229, -0.0274189, 0.0151535, 0.00592867, -0.117329, -0.113778, -0.0375937, 0.00220221, -2.3211, 66.9849, 34.34, 7.62848, 2.37598, 3.81198, -0.00999879, -0.00646542, -0.00131178, 0.00576558, 0.0220706, -0.0192568, 0.00401791, 0.0781008, -0.00537337, -0.00321706, -0.119558, 0.186462, 0.0866198, 0.469921, -0.538392, 0.336464, -2.07866, -2.16471, -0.133117, 0.468636, -0.543913, 0.329783, -2.08082, -2.16275, -0.0887444, -0.0167906, 0.0833185, 0.010789, -0.00861707, 0.00701785, -0.00503415
0.183188, 1.69578, -1.22899, -1.54566, -0.905707, -1.21395, 1.22528, -1.30228, -0.0358587, 0.0136035, 0.00989427, -0.11711, -0.114027, -0.0407032, 0.00250259, -2.20605, 67.0206, 34.2289, 7.51739, 2.39978, 3.77627, -0.0292249, -0.00654808, -0.00131303, 0.00576115, 0.0221615, -0.0194369, 0.00402541, 0.0818092, -0.000816253, -0.00250973, -0.117487, 0.183809, 0.0800153, 0.469904, -0.538309, 0.336475, -2.07858, -2.16469, -0.133167, 0.468621, -0.543911, 0.329785, -2.08079, -2.16279, -0.0885112, -0.0169311, 0.0841693, 0.010929, -0.0131403, 0.00390371, -0.00465255
0.184188, 1.69574, -1.22897, -1.54565, -0.905839, -1.21406, 1.22523, -1.30227, -0.0359852, 0.0131789, 0.0112095, -0.121191, -0.117962, -0.0429041, 0.00262226, -2.20605, 67.1674, 34.3043, 7.47772, 2.40619, 3.73324, -0.0484509, -0.00662863, -0.00131185, 0.00576594, 0.0222722, -0.0196116, 0.00402699, 0.0818514, -0.00115852, -0.00301475, -0.121827, 0.186672, 0.0830663, 0.469887, -0.538224, 0.336486, -2.07849, -2.16467, -0.133218, 0.468608, -0.543905, 0.329778, -2.08073, -2.16282, -0.0882629, -0.0170715, 0.0850228, 0.0110699, -0.0129543, 0.00481177, -0.0050336
0.185188, 1.69569, -1.22895, -1.54564, -0.90598, -1.21418, 1.22519, -1.30227, -0.0339582, 0.0181852, 0.0103217, -0.126786, -0.121977, -0.0410939, 0.0054323, -2.16637, 67.0959, 34.34, 7.51739, 2.4245, 3.71127, -0.0164075, -0.00670661, -0.00131036, 0.00576244, 0.0223827, -0.0197997, 0.00401473, 0.0808856, -0.00328667, -0.00106891, -0.125188, 0.197401, 0.0857018, 0.46987, -0.538139, 0.336497, -2.07841, -2.16465, -0.13327, 0.468596, -0.543897, 0.329779, -2.08067, -2.16288, -0.0880029, -0.0172118, 0.0858791, 0.0112118, -0.01093, 0.0064053, -0.00289036
0.186188, 1.69565, -1.22893, -1.54564, -0.906117, -1.21429, 1.22516, -1.30227, -0.0426213, 0.0197156, 0.00893002, -0.127965, -0.115935, -0.0347456, 0.00316499, -2.091, 67.2427, 34.4153, 7.47772, 2.44922, 3.68289, 0.0101428, -0.00679142, -0.00131128, 0.00576638, 0.022487, -0.0199781, 0.00401179, 0.0848511, -0.000351193, 0.000163905, -0.117065, 0.197774, 0.0822683, 0.469853, -0.538053, 0.336508, -2.07832, -2.16463, -0.133322, 0.468581, -0.543894, 0.329773, -2.08061, -2.16292, -0.0877591, -0.017352, 0.0867382, 0.0113547, -0.0138035, 0.00303178, -0.00208037
0.187188, 1.69559, -1.22891, -1.54563, -0.90626, -1.2144, 1.22512, -1.30226, -0.0455409, 0.0188935, 0.0108948, -0.132443, -0.116034, -0.0397872, 0.00775284, -2.01562, 67.3538, 34.4867, 7.47772, 2.47394, 3.67557, -0.00267457, -0.00687482, -0.00131387, 0.00576742, 0.0225925, -0.0201539, 0.00401044, 0.0848704, 0.00075732, -0.000523497, -0.121279, 0.195618, 0.0800012, 0.469836, -0.537967, 0.33652, -2.07823, -2.1646, -0.133374, 0.468564, -0.543889, 0.329769, -2.08055, -2.16296, -0.087517, -0.0174921, 0.0875999, 0.0114985, -0.0150735, 0.00393685, -0.00258967
0.188188, 1.69554, -1.22889, -1.54561, -0.906401, -1.2145, 1.22508, -1.30225, -0.0454687, 0.0195094, 0.0122712, -0.134034, -0.115547, -0.0388213, 0.0117128, -2.05529, 67.4252, 34.451, 7.47772, 2.49225, 3.66824, -0.0356336, -0.00695468, -0.00131032, 0.00576433, 0.022685, -0.0203318, 0.00400142, 0.0849121, -0.000213513, 0.000186065, -0.119495, 0.197285, 0.078742, 0.469818, -0.537879, 0.336531, -2.07815, -2.16458, -0.133427, 0.468553, -0.54388, 0.329771, -2.08049, -2.16301, -0.0872885, -0.0176321, 0.0884643, 0.0116434, -0.0142132, 0.00469056, -0.0017887
